AlexandreBanks6/ExpertPlaybackApp/resources/Motions/P_15/PC1/Data_PC1_3.csv
Task Time,PC1 Time,PC2 Time,Gaze Calib,s_T_psm1,Tx,Ty,Tz,R00,R01,R02,R10,R11,R12,R20,R21,R22,s_T_psm3,Tx,Ty,Tz,R00,R01,R02,R10,R11,R12,R20,R21,R22,cart_T_ecm,Tx,Ty,Tz,R00,R01,R02,R10,R11,R12,R20,R21,R22,ecm_T_psm1,Tx,Ty,Tz,R00,R01,R02,R10,R11,R12,R20,R21,R22,ecm_T_psm3,Tx,Ty,Tz,R00,R01,R02,R10,R11,R12,R20,R21,R22,psm1_joints,q1,q2,q3,q4,q5,q6,jaw,psm3_joints,q1,q2,q3,q4,q5,q6,jaw,ecm_joints,q1,q2,q3,q4,ecmi_T_ecm,Tx,Ty,Tz,R00,R01,R02,R10,R11,R12,R20,R21,R22,Sample #,Task Duration (s),Collisions (binary),Collisions (increments),Cumulative Collision Time (s),Clutch Press,MTMR Angle,MTML Angle
""
lci_T_si,,,,,-0.056820054,0.035184894,0.23501265,0.9960807,-0.004387094,0.0883404,0.06195223,-0.6782408,-0.7322236,0.0631284,0.7348266,-0.67531073
rci_T_si,,,,,-0.06650407,0.039561197,0.2456612,0.99437594,-0.020144738,0.1039743,0.06376301,-0.6699987,-0.73961884,0.08456207,0.7420889,-0.6649461
ecm_T_lc,,,,,-4.4061628e-05,-0.00034663224,-0.01840835,-0.99912,0.030754527,0.028518902,-0.031987965,-0.99852574,-0.043852776,0.027128186,-0.04472645,0.9986309
ecm_T_rc,,,,,-0.0043358393,0.01870579,-0.007592615,-0.99555075,-0.052743673,-0.078081585,0.04863213,-0.9973746,0.053654674,-0.08070653,0.04961868,0.9955021
cart_T_ecmi,,,,,0.057681564,1.3275611,0.43760413,0.9967665,0.07914106,-0.013899233,0.044067647,-0.68306047,-0.72903115,-0.06719031,0.72606134,-0.6843394
ecmac_T_ecmrep_psm1,,,,,-0.0025980123,-0.29326126,-0.2805022,0.9974786,0.061531033,0.035360787,-0.060258932,0.9975341,-0.035980776,-0.037487525,0.033759248,0.99872667
ecmac_T_ecmrep_psm3,,,,,-0.0114122145,-0.5209516,-0.5025674,0.9999053,0.010122195,-0.009323479,-0.0077519584,0.9740634,0.22614253,0.011370718,-0.22604884,0.9740496
""
0,16:19:39.387236,16:18:12.627407,0,,0.10809632,-0.0019164532,-0.004470378,0.45196345,-0.78749925,-0.4190152,-0.5239827,-0.6145216,0.5897502,-0.72192186,-0.046988815,-0.69037735,,0.107639104,0.012344595,0.013455987,0.02892933,-0.12264995,0.99202806,-0.98639774,0.15715212,0.048194736,-0.1618104,-0.97992873,-0.11643539,,0.057678938,1.3275633,0.43759865,0.99676543,0.079157874,-0.013881288,0.044092182,-0.68305856,-0.7290315,-0.06719031,0.72606134,-0.6843394,,-0.068232805,0.2577568,-0.042870425,-0.41676944,0.7772371,0.47138697,-0.90111107,-0.42147908,-0.1017558,0.119591355,-0.46718073,0.8760366,,-0.059506703,0.45336163,-0.26896724,-0.0352649,0.25118524,-0.9672964,-0.5959621,-0.7822537,-0.18140668,-0.80223787,0.5700747,0.17728297,,1.0774139087488097,0.22839982475518988,0.19831811081000003,-1.2501714430547342,0.2421198775843605,0.28855597848628656,0.8719306250247826,,-1.4035063043629397,0.12133957891981549,0.23021202997,-0.03166318146616318,-0.2597459860541023,-0.7792843979386851,-0.14341609006589717,,0.0250542014123786,0.03150755632162763,0.0839748988,-0.11775085106328897,,-2.1532178e-06,-5.6624413e-06,2.2649765e-06,0.99999994,1.6842037e-05,1.7873943e-05,-1.6845763e-05,1.0,1.6391277e-06,-1.7870218e-05,-1.66893e-06,1.0,34,0.102,1,1,0.079,False,1.0464825983870312,0.01656009168221262
0.1310598759446293,16:19:39.413507,16:18:12.627407,0,,0.108095214,-0.0019165725,-0.0044720024,0.45196235,-0.7874974,-0.41901997,-0.52398515,-0.6145246,0.58974487,-0.72192067,-0.0469822,-0.690379,,0.10775243,0.012316268,0.013531506,0.029308617,-0.121805504,0.9921211,-0.98607326,0.15903562,0.048655227,-0.16370907,-0.9797301,-0.1154481,,0.057678938,1.3275633,0.43759865,0.99676543,0.079157874,-0.013881288,0.044092182,-0.68305856,-0.7290315,-0.06719031,0.72606134,-0.6843394,,-0.06823162,0.25775555,-0.042869493,-0.41676846,0.7772348,0.47139174,-0.9011119,-0.42147622,-0.101760454,0.11958864,-0.46718726,0.8760335,,-0.059629492,0.453404,-0.269017,-0.035389293,0.25037473,-0.967502,-0.5975311,-0.7813044,-0.18033315,-0.80106443,0.5717306,0.1772565,,1.0774139087488097,0.22839210202231566,0.1983194071,-1.2501714430547342,0.2421198775843605,0.28855597848628656,0.8719306250247826,,-1.4041395684586262,0.12119284699520523,0.23021073368000003,-0.03082442169222508,-0.2578330750573861,-0.7797824249686077,-0.1425993697352257,,0.0250542014123786,0.03150755632162763,0.0839748988,-0.11775085106328897,,-2.1532178e-06,-5.6624413e-06,2.2649765e-06,0.99999994,1.6842037e-05,1.7873943e-05,-1.6845763e-05,1.0,1.6391277e-06,-1.7870218e-05,-1.66893e-06,1.0,42,0.127,1,1,0.104,False,1.0463634429499895,0.016753212485330238
0.15732602193020284,16:19:39.440496,16:18:12.706117,0,,0.10809377,-0.001916036,-0.004471466,0.45213705,-0.7873873,-0.41903824,-0.5238951,-0.6146575,0.58968633,-0.7218767,-0.047086984,-0.6904178,,0.10781646,0.012287464,0.013569653,0.029044367,-0.12152299,0.9921635,-0.9860698,0.15914747,0.048358828,-0.163777,-0.9797471,-0.11520789,,0.057678938,1.3275633,0.43759865,0.99676543,0.079157874,-0.013881288,0.044092182,-0.68305856,-0.7290315,-0.06719031,0.72606134,-0.6843394,,-0.0682302,0.25775635,-0.042869527,-0.4169438,0.7771289,0.47141126,-0.9010245,-0.42164662,-0.10182789,0.11963557,-0.4672096,0.8760151,,-0.059698638,0.4534181,-0.26905447,-0.035118535,0.2500999,-0.96758294,-0.5975628,-0.78129697,-0.18026027,-0.8010527,0.5718611,0.1768884,,1.077421631481684,0.22839210202231566,0.1983194071,-1.2503811329982188,0.2421198775843605,0.28855597848628656,0.8719306250247826,,-1.4044870914379661,0.12109245146784031,0.23021073368000003,-0.030614731748740555,-0.2578330750573861,-0.7797824249686077,-0.1425993697352257,,0.0250542014123786,0.03150755632162763,0.0839748988,-0.11775085106328897,,-2.1532178e-06,-5.6624413e-06,2.2649765e-06,0.99999994,1.6842037e-05,1.7873943e-05,-1.6845763e-05,1.0,1.6391277e-06,-1.7870218e-05,-1.66893e-06,1.0,50,0.151,1,1,0.128,False,1.0466017538240733,0.01660837188299169
0.1843194339890033,16:19:39.462553,16:18:12.706117,0,,0.10809377,-0.001916036,-0.004471466,0.45213705,-0.7874215,-0.41897395,-0.5238951,-0.61460936,0.5897366,-0.7218767,-0.0471434,-0.690414,,0.10788361,0.012256723,0.013609409,0.029410101,-0.12108497,0.9922062,-0.9861314,0.15869248,0.048596263,-0.16334,-0.9798751,-0.114738606,,0.057678938,1.3275633,0.43759865,0.99676543,0.079157874,-0.013881288,0.044092182,-0.68305856,-0.7290315,-0.06719031,0.72606134,-0.6843394,,-0.0682302,0.25775635,-0.042869527,-0.4169438,0.7771674,0.47134778,-0.9010245,-0.42165494,-0.10179345,0.11963557,-0.46713805,0.8760533,,-0.05977115,0.45343244,-0.26909414,-0.035538696,0.24966943,-0.9676788,-0.5972416,-0.78166205,-0.1797414,-0.8012737,0.5715502,0.1768922,,1.077421631481684,0.22839210202231566,0.1983194071,-1.2503811329982188,0.2421198775843605,0.288474299746146,0.8720939690909169,,-1.4048732280816774,0.12097661047472695,0.23021073368000003,-0.03145349152267866,-0.2578330750573861,-0.7797007462284671,-0.14243602566909153,,0.0250542014123786,0.03150755632162763,0.0839748988,-0.11775085106328897,,-2.1532178e-06,-5.6624413e-06,2.2649765e-06,0.99999994,1.6842037e-05,1.7873943e-05,-1.6845763e-05,1.0,1.6391277e-06,-1.7870218e-05,-1.66893e-06,1.0,67,0.205,1,1,0.182,False,1.046244287512947,0.01631869067831504
0.20638367999345064,16:19:39.512762,16:18:12.706117,0,,0.10809442,-0.0019169748,-0.004472241,0.4523182,-0.787313,-0.41898245,-0.5238136,-0.61474013,0.58967257,-0.7218223,-0.047250956,-0.69046354,,0.10806467,0.01221947,0.013723195,0.031358078,-0.11741517,0.99258757,-0.98552465,0.1619024,0.050286718,-0.16660672,-0.97979665,-0.11063865,,0.057678938,1.3275633,0.43759865,0.99676543,0.079157874,-0.013881288,0.044092182,-0.68305856,-0.7290315,-0.06719031,0.72606134,-0.6843394,,-0.068230815,0.25775513,-0.042869676,-0.4171264,0.77706313,0.4713581,-0.90093553,-0.42182598,-0.10187279,0.119669504,-0.46715707,0.8760385,,-0.059966233,0.45349774,-0.26916346,-0.037035644,0.24610981,-0.9685341,-0.6000502,-0.78049994,-0.17538406,-0.7991046,0.57467365,0.17658457,,1.0774139087488097,0.22839210202231566,0.1983194071,-1.2505908229417033,0.2421198775843605,0.288474299746146,0.8720939690909169,,-1.405823124225207,0.12072948302275176,0.23021462255000003,-0.03082442169222508,-0.25373398006442294,-0.782634889638657,-0.14292605786749446,,0.0250542014123786,0.03150755632162763,0.0839748988,-0.11775085106328897,,-2.1532178e-06,-5.6624413e-06,2.2649765e-06,0.99999994,1.6842037e-05,1.7873943e-05,-1.6845763e-05,1.0,1.6391277e-06,-1.7870218e-05,-1.66893e-06,1.0,75,0.229,1,1,0.206,False,1.046244287512947,0.01622213027675601
0.2565731948707253,16:19:39.534020,16:18:12.706117,0,,0.108094014,-0.0019171685,-0.00447233,0.4524961,-0.78716934,-0.41906017,-0.5237277,-0.61492014,0.5895611,-0.7217731,-0.047300696,-0.6905115,,0.1081324,0.012195285,0.013759971,0.03142859,-0.117261335,0.99260354,-0.98544073,0.16238225,0.050384864,-0.16708937,-0.9797356,-0.11045072,,0.057678938,1.3275633,0.43759865,0.99676543,0.079157874,-0.013881288,0.044092182,-0.68305856,-0.7290315,-0.06719031,0.72606134,-0.6843394,,-0.06823041,0.25775495,-0.042869765,-0.41730532,0.7769195,0.47143647,-0.90084726,-0.42198834,-0.10198064,0.119709946,-0.4672493,0.8759838,,-0.06003875,0.45351234,-0.26919588,-0.03704154,0.24596278,-0.96857125,-0.60044575,-0.7802427,-0.17517476,-0.7988071,0.57508576,0.17658871,,1.0774139087488097,0.22839210202231566,0.1983194071,-1.2508005128851878,0.2421198775843605,0.28855597848628656,0.8719306250247826,,-1.4061783699374213,0.12062136476251262,0.23021851142000002,-0.030614731748740555,-0.25318743406536115,-0.7825088100724586,-0.14308940193362862,,0.0250542014123786,0.03150755632162763,0.0839748988,-0.11775085106328897,,-2.1532178e-06,-5.6624413e-06,2.2649765e-06,0.99999994,1.6842037e-05,1.7873943e-05,-1.6845763e-05,1.0,1.6391277e-06,-1.7870218e-05,-1.66893e-06,1.0,83,0.255,1,1,0.232,False,1.04642302066851,0.016656652083770762
0.27785150590352714,16:19:39.563738,16:18:12.833275,0,,0.108094014,-0.0019171685,-0.00447233,0.4524961,-0.78716934,-0.41906017,-0.5237277,-0.61492014,0.5895611,-0.7217731,-0.047300696,-0.6905115,,0.10826463,0.012151416,0.013831437,0.03205263,-0.11640104,0.9926848,-0.98542976,0.16230386,0.050849937,-0.16703552,-0.9798512,-0.10950287,,0.057678938,1.3275633,0.43759865,0.99676543,0.079157874,-0.013881288,0.044092182,-0.68305856,-0.7290315,-0.06719031,0.72606134,-0.6843394,,-0.06823041,0.25775495,-0.042869765,-0.41730532,0.7769195,0.47143647,-0.90084726,-0.42198834,-0.10198064,0.119709946,-0.4672493,0.8759838,,-0.060180184,0.45354208,-0.26925606,-0.037666798,0.24512248,-0.96876013,-0.60045636,-0.78046775,-0.17413281,-0.7987699,0.57513916,0.17658308,,1.0774139087488097,0.22839210202231566,0.1983194071,-1.2508005128851878,0.2421198775843605,0.28855597848628656,0.8717672809586483,,-1.4068579704303532,0.12044374190640546,0.23022888174000003,-0.031243801579194132,-0.2526408880662994,-0.7825460879865416,-0.14292605786749435,,0.0250542014123786,0.03150755632162763,0.0839748988,-0.11775085106328897,,-2.1532178e-06,-5.6624413e-06,2.2649765e-06,0.99999994,1.6842037e-05,1.7873943e-05,-1.6845763e-05,1.0,1.6391277e-06,-1.7870218e-05,-1.66893e-06,1.0,100,0.307,1,1,0.284,False,1.0464825983870312,0.015932449072078914
0.3075671950355172,16:19:39.615448,16:18:12.833275,0,,0.10808256,-0.0019157827,-0.0044567883,0.45265085,-0.7870607,-0.41909707,-0.5236378,-0.6150528,0.58950263,-0.7217413,-0.047383815,-0.690539,,0.10851767,0.012043156,0.013954043,0.034517065,-0.11444558,0.99282956,-0.9854803,0.1613515,0.05286093,-0.16624412,-0.9802387,-0.10721454,,0.05765488,1.3275629,0.4376022,0.9967663,0.07914413,-0.013895959,0.044072125,-0.6830601,-0.7290312,-0.06719031,0.72606134,-0.6843394,,-0.06819274,0.25776774,-0.042877235,-0.41747063,0.77680105,0.4714853,-0.9007625,-0.4221538,-0.10204426,0.11977123,-0.46729678,0.8759501,,-0.06042318,0.45357513,-0.26938438,-0.04023256,0.24320465,-0.96914023,-0.6000299,-0.78144544,-0.1711934,-0.7989653,0.57462555,0.17736961,,1.0774139087488097,0.22839210202231566,0.19831811081000003,-1.2510102028286723,0.2421198775843605,0.2885559784862866,0.8716039368925141,,-1.408294398744959,0.1200189915983231,0.23026258528000002,-0.033969770844492944,-0.251274523068645,-0.7823534071812568,-0.1432527459997628,,0.0250542014123786,0.03150755632162763,0.0839748988,-0.11775085106328897,,-2.6389956e-05,-4.7683716e-06,3.5762787e-07,0.99999994,3.0733645e-06,3.259629e-06,-3.0696392e-06,1.0,2.682209e-07,-3.259629e-06,-3.2782555e-07,1.0,108,0.332,1,1,0.309,False,1.0460059766388632,0.01656009168221262
0.3592365849763155,16:19:39.634638,16:18:12.833275,0,,0.108083606,-0.0019165128,-0.004457459,0.4526541,-0.78706145,-0.41909224,-0.5236421,-0.61505175,0.58949995,-0.7217362,-0.047385216,-0.6905443,,0.10858092,0.012030013,0.013980389,0.03493186,-0.1139892,0.9928675,-0.98542345,0.1615803,0.05322069,-0.1664944,-0.9802542,-0.10668338,,0.05765488,1.3275629,0.4376022,0.9967663,0.07914413,-0.013895959,0.044072125,-0.6830601,-0.7290312,-0.06719031,0.72606134,-0.6843394,,-0.06819376,0.25776672,-0.04287729,-0.41747427,0.7768019,0.47148073,-0.9007617,-0.42215413,-0.102050215,0.11976473,-0.4672951,0.8759519,,-0.060489617,0.45358604,-0.26940268,-0.04061024,0.24276048,-0.96923584,-0.6002672,-0.7814009,-0.17056352,-0.7987679,0.5748738,0.17745402,,1.0774061860159356,0.22839210202231566,0.19831811081000003,-1.2510102028286723,0.2421198775843605,0.2885559784862866,0.8716039368925141,,-1.4085955853270538,0.11994176426958086,0.23027554818,-0.03417946078797747,-0.2507279770695832,-0.7824723638354802,-0.14308940193362862,,0.0250542014123786,0.03150755632162763,0.0839748988,-0.11775085106328897,,-2.6389956e-05,-4.7683716e-06,3.5762787e-07,0.99999994,3.0733645e-06,3.259629e-06,-3.0696392e-06,1.0,2.682209e-07,-3.259629e-06,-3.2782555e-07,1.0,121,0.373,1,1,0.35,False,1.0463634429499895,0.01660837188299169
0.3784660310484469,16:19:39.682925,16:18:12.833275,0,,0.108085275,-0.0019165576,-0.0044576228,0.4528363,-0.7869547,-0.4190959,-0.52355796,-0.61517966,0.5894412,-0.72168285,-0.04749936,-0.69059217,,0.10900311,0.011977173,0.014077246,0.03897524,-0.11129693,0.9930225,-0.9854577,0.16020525,0.05663398,-0.16539049,-0.9807891,-0.10343443,,0.05765488,1.3275629,0.4376022,0.9967663,0.07914413,-0.013895959,0.044072125,-0.6830601,-0.7290312,-0.06719031,0.72606134,-0.6843394,,-0.06819541,0.25776652,-0.042877108,-0.4176578,0.7766999,0.47148624,-0.9006717,-0.42232797,-0.10212492,0.1198014,-0.4673076,0.8759402,,-0.060922027,0.45360482,-0.26945826,-0.044760935,0.24012166,-0.9697103,-0.5997162,-0.78277373,-0.1661497,-0.7989599,0.57411397,0.17904253,,1.0773984632830613,0.22839982475518988,0.19831811081000003,-1.2512198927721567,0.2421198775843605,0.2885559784862866,0.8716039368925141,,-1.4103718138881254,0.11948612303000161,0.23043888072000002,-0.03837325965766796,-0.24854179307333618,-0.78237643927139,-0.14276271380136007,,0.0250542014123786,0.03150755632162763,0.0839748988,-0.11775085106328897,,-2.6389956e-05,-4.7683716e-06,3.5762787e-07,0.99999994,3.0733645e-06,3.259629e-06,-3.0696392e-06,1.0,2.682209e-07,-3.259629e-06,-3.2782555e-07,1.0,142,0.438,1,1,0.415,False,1.0466017538240733,0.016125569875196977
0.4267508420161903,16:19:39.743833,16:18:12.999209,0,,0.10808509,-0.0019097924,-0.0044687837,0.4530174,-0.7868117,-0.41916862,-0.52347636,-0.6153586,0.5893269,-0.72162837,-0.04755047,-0.69064564,,0.10959609,0.011939414,0.014076173,0.043818384,-0.10798213,0.99318665,-0.9853231,0.15950009,0.060812794,-0.16498,-0.98127437,-0.099408306,,0.05765488,1.3275629,0.4376022,0.9967663,0.07914413,-0.013895959,0.044072125,-0.6830601,-0.7290312,-0.06719031,0.72606134,-0.6843394,,-0.06819442,0.2577628,-0.042864643,-0.4178403,0.77655697,0.4715599,-0.90058255,-0.42249057,-0.1022388,0.11983536,-0.46739814,0.8758873,,-0.061510816,0.4535266,-0.2694423,-0.049611233,0.23687786,-0.97027194,-0.59978217,-0.78386015,-0.1607005,-0.79862386,0.5739792,0.18096338,,1.077390740550187,0.22839982475518988,0.19833107371000003,-1.2514295827156414,0.2421198775843605,0.28863765722642715,0.8717672809586483,,-1.4124106153669205,0.11876790887269874,0.23076943467000002,-0.042776748470842965,-0.24498924407943473,-0.7825779063428584,-0.14357943413203156,,0.0250542014123786,0.03150755632162763,0.0839748988,-0.11775085106328897,,-2.6389956e-05,-4.7683716e-06,3.5762787e-07,0.99999994,3.0733645e-06,3.259629e-06,-3.0696392e-06,1.0,2.682209e-07,-3.259629e-06,-3.2782555e-07,1.0,150,0.463,1,1,0.44,False,1.04642302066851,0.015932449072078914
0.4875794800464064,16:19:39.773367,16:18:12.999209,0,,0.108085394,-0.0019036233,-0.0044787973,0.45302063,-0.7868125,-0.41916376,-0.5234808,-0.61535746,0.5893242,-0.7216233,-0.04755184,-0.6906509,,0.10990876,0.011905186,0.014033616,0.046175458,-0.106920354,0.9931947,-0.98513335,0.15982053,0.063005865,-0.16546938,-0.9813386,-0.09795108,,0.05765488,1.3275629,0.4376022,0.9967663,0.07914413,-0.013895959,0.044072125,-0.6830601,-0.7290312,-0.06719031,0.72606134,-0.6843394,,-0.068193994,0.2577595,-0.042853344,-0.41784394,0.7765578,0.47155532,-0.9005817,-0.42249086,-0.10224475,0.119828865,-0.46739647,0.875889,,-0.061816316,0.4534417,-0.26942775,-0.051880263,0.23584226,-0.9704055,-0.600367,-0.78387815,-0.15841253,-0.79804003,0.574381,0.18225972,,1.077383017817313,0.22839982475518988,0.19834274032000002,-1.2514295827156414,0.2421198775843605,0.28863765722642715,0.8717672809586483,,-1.4133991251748212,0.11823504030437725,0.23096906333000003,-0.04445426801871916,-0.2425297870836568,-0.7822964238854583,-0.14357943413203145,,0.0250542014123786,0.03150755632162763,0.0839748988,-0.11775085106328897,,-2.6389956e-05,-4.7683716e-06,3.5762787e-07,0.99999994,3.0733645e-06,3.259629e-06,-3.0696392e-06,1.0,2.682209e-07,-3.259629e-06,-3.2782555e-07,1.0,163,0.504,1,1,0.481,False,1.0467804869796362,0.01656009168221262
0.5171728378627449,16:19:39.804910,16:18:12.999209,0,,0.108082704,-0.0018940866,-0.004497379,0.4531995,-0.78669983,-0.41918173,-0.5234042,-0.61549413,0.5892495,-0.7215665,-0.047646075,-0.69070375,,0.11024611,0.011835493,0.014006555,0.046596035,-0.106744036,0.99319404,-0.9849386,0.16082466,0.063493446,-0.16650751,-0.9811937,-0.097642586,,0.05765488,1.3275629,0.4376022,0.9967663,0.07914413,-0.013895959,0.044072125,-0.6830601,-0.7290312,-0.06719031,0.72606134,-0.6843394,,-0.06819,0.25775224,-0.042833965,-0.41802448,0.7764486,0.4715751,-0.90049416,-0.42265606,-0.102333434,0.119857416,-0.4674285,0.875868,,-0.062149234,0.45335186,-0.26944965,-0.052159164,0.23567672,-0.9704308,-0.60123855,-0.7833099,-0.15791729,-0.7973654,0.57522357,0.1825547,,1.0773752950844386,0.2283843792894414,0.19836348096000003,-1.251639272659126,0.2421198775843605,0.28863765722642715,0.8717672809586483,,-1.4145498123730809,0.11759405347581661,0.23116091425000002,-0.04424457807523464,-0.24075351258670605,-0.781457851909576,-0.14341609006589717,,0.0250542014123786,0.03150755632162763,0.0839748988,-0.11775085106328897,,-2.6389956e-05,-4.7683716e-06,3.5762787e-07,0.99999994,3.0733645e-06,3.259629e-06,-3.0696392e-06,1.0,2.682209e-07,-3.259629e-06,-3.2782555e-07,1.0,184,0.569,1,1,0.546,False,1.046065554357384,0.016125569875196977
0.5487106998916715,16:19:39.877791,16:18:13.129632,0,,0.1080818,-0.0018855929,-0.004508823,0.4531995,-0.78669983,-0.41918173,-0.5234042,-0.61549413,0.5892495,-0.7215665,-0.047646075,-0.69070375,,0.111259885,0.011573948,0.014104068,0.044214614,-0.1073152,0.99324137,-0.9851929,0.1601693,0.061161913,-0.16565025,-0.9812386,-0.098644406,,0.05765488,1.3275629,0.4376022,0.9967663,0.07914413,-0.013895959,0.044072125,-0.6830601,-0.7290312,-0.06719031,0.72606134,-0.6843394,,-0.068188235,0.25774947,-0.042820092,-0.41802448,0.7764486,0.4715751,-0.90049416,-0.42265606,-0.102333434,0.119857416,-0.4674285,0.875868,,-0.063174,0.45321608,-0.2696422,-0.04991479,0.23623058,-0.97041416,-0.6003555,-0.7835907,-0.1598714,-0.798174,0.5746136,0.1809351,,1.0773752950844386,0.2283843792894414,0.19837774015,-1.251639272659126,0.2421198775843605,0.28863765722642715,0.8717672809586483,,-1.4185038516046837,0.11598000230510369,0.23160683801,-0.04340581830129654,-0.2411634220860024,-0.7772030186717398,-0.143252745999763,,0.0250542014123786,0.03150755632162763,0.0839748988,-0.11775085106328897,,-2.6389956e-05,-4.7683716e-06,3.5762787e-07,0.99999994,3.0733645e-06,3.259629e-06,-3.0696392e-06,1.0,2.682209e-07,-3.259629e-06,-3.2782555e-07,1.0,192,0.594,1,1,0.571,False,1.046244287512947,0.016415251079873627
0.6215725210495293,16:19:39.898476,16:18:13.129632,0,,0.108081624,-0.001884073,-0.0045109093,0.4531995,-0.78669983,-0.41918173,-0.5234042,-0.61549413,0.5892495,-0.7215665,-0.047646075,-0.69070375,,0.11153018,0.011495225,0.014149785,0.043405704,-0.10717665,0.993292,-0.98525,0.16013253,0.06033268,-0.16552448,-0.9812598,-0.09864518,,0.05765488,1.3275629,0.4376022,0.9967663,0.07914413,-0.013895959,0.044072125,-0.6830601,-0.7290312,-0.06719031,0.72606134,-0.6843394,,-0.06818791,0.25774896,-0.04281757,-0.41802448,0.7764486,0.4715751,-0.90049416,-0.42265606,-0.102333434,0.119857416,-0.4674285,0.875868,,-0.063449994,0.45319325,-0.26971042,-0.049130477,0.2360949,-0.9704872,-0.6001885,-0.7836402,-0.16025549,-0.79834825,0.5746018,0.18020207,,1.0773752950844386,0.2283843792894414,0.19838033273000003,-1.251639272659126,0.2421198775843605,0.28863765722642715,0.8717672809586483,,-1.419615925138572,0.11554752926414712,0.23170924492000003,-0.04298643841432749,-0.24130005858576783,-0.7763564921067784,-0.14406946633043427,,0.0250542014123786,0.03150755632162763,0.0839748988,-0.11775085106328897,,-2.6389956e-05,-4.7683716e-06,3.5762787e-07,0.99999994,3.0733645e-06,3.259629e-06,-3.0696392e-06,1.0,2.682209e-07,-3.259629e-06,-3.2782555e-07,1.0,205,0.635,1,1,0.612,False,1.045946398920342,0.015691048068182223
0.6423057420179248,16:19:39.945168,16:18:13.129632,0,,0.1080819,-0.0018802732,-0.00451459,0.45337844,-0.7865922,-0.41919023,-0.52331567,-0.615623,0.58919346,-0.7215183,-0.047758818,-0.69074625,,0.11201805,0.011319943,0.014220536,0.040635042,-0.10673225,0.99345696,-0.9850082,0.16255319,0.057753414,-0.16765359,-0.9809101,-0.09852683,,0.05765488,1.3275629,0.4376022,0.9967663,0.07914413,-0.013895959,0.044072125,-0.6830601,-0.7290312,-0.06719031,0.72606134,-0.6843394,,-0.068187885,0.25774878,-0.042812284,-0.4182043,0.7763457,0.47158512,-0.90040493,-0.4228295,-0.10240222,0.11990059,-0.46744263,0.87585455,,-0.06394757,0.45312646,-0.26985776,-0.04610481,0.23567659,-0.9707373,-0.60168004,-0.7822718,-0.16134417,-0.7974055,0.5766345,0.1778684,,1.0773752950844386,0.22839210202231566,0.19838551789000003,-1.2518489626026104,0.2421198775843605,0.28863765722642715,0.8717672809586483,,-1.4216315584187447,0.11456674218912061,0.23188813294000002,-0.0396313993185751,-0.24034360308740974,-0.7757478788502636,-0.1445594985288371,,0.0250542014123786,0.03150755632162763,0.0839748988,-0.11775085106328897,,-2.6389956e-05,-4.7683716e-06,3.5762787e-07,0.99999994,3.0733645e-06,3.259629e-06,-3.0696392e-06,1.0,2.682209e-07,-3.259629e-06,-3.2782555e-07,1.0,213,0.659,1,1,0.636,False,1.0463634429499895,0.015063405458049406
0.6889973999932408,16:19:39.968427,16:18:13.129632,0,,0.108082786,-0.0018794984,-0.0045173317,0.45338166,-0.78659296,-0.4191854,-0.52332,-0.6156219,0.5891908,-0.72151315,-0.04776019,-0.69075155,,0.11228977,0.011182092,0.0142739415,0.03946556,-0.10719426,0.9934544,-0.9849329,0.1633594,0.056753635,-0.16837364,-0.98072577,-0.09913214,,0.05765488,1.3275629,0.4376022,0.9967663,0.07914413,-0.013895959,0.044072125,-0.6830601,-0.7290312,-0.06719031,0.72606134,-0.6843394,,-0.068188585,0.25774726,-0.042809818,-0.41820794,0.7763465,0.47158056,-0.9004041,-0.4228298,-0.10240817,0.119894095,-0.46744096,0.87585634,,-0.064227596,0.45308328,-0.2699819,-0.044851262,0.23613338,-0.970685,-0.60216385,-0.7816943,-0.16233516,-0.7971117,0.5772305,0.17725097,,1.0773675723515646,0.22839210202231566,0.19838811047000002,-1.2518489626026104,0.2421198775843605,0.2886376572264271,0.872093969090917,,-1.4228054138156268,0.11387941896331462,0.23196331776,-0.03837325965766796,-0.239797057088348,-0.7744782969220976,-0.14472284259497148,,0.0250542014123786,0.03150755632162763,0.0839748988,-0.11775085106328897,,-2.6389956e-05,-4.7683716e-06,3.5762787e-07,0.99999994,3.0733645e-06,3.259629e-06,-3.0696392e-06,1.0,2.682209e-07,-3.259629e-06,-3.2782555e-07,1.0,226,0.7,1,1,0.677,False,1.0463038652314682,0.01622213027675601
0.7122572308871895,16:19:40.010763,16:18:13.129632,0,,0.108087555,-0.0018826127,-0.0045217276,0.4535757,-0.7865212,-0.41911003,-0.52325565,-0.6157004,0.5891659,-0.7214378,-0.047929674,-0.6908185,,0.11254609,0.011067145,0.014287591,0.03627906,-0.10867476,0.993415,-0.9847524,0.16535142,0.05405137,-0.17013654,-0.9802289,-0.10101899,,0.05765488,1.3275629,0.4376022,0.9967663,0.07914413,-0.013895959,0.044072125,-0.6830601,-0.7290312,-0.06719031,0.72606134,-0.6843394,,-0.068193145,0.25774175,-0.042808928,-0.41840497,0.7762838,0.471509,-0.90031147,-0.42301032,-0.10247683,0.119902074,-0.4673818,0.87588686,,-0.06448664,0.45301694,-0.27006903,-0.04146183,0.23759277,-0.97047955,-0.6033175,-0.78019637,-0.16523208,-0.79642254,0.5786565,0.17569225,,1.0773289586871932,0.22839210202231566,0.19838940676000003,-1.2520586525460948,0.2421198775843605,0.28855597848628656,0.8719306250247826,,-1.4238248145550243,0.11325387760050243,0.23206702096000004,-0.03480853061843105,-0.239797057088348,-0.7729264008594268,-0.14423281039656854,,0.0250542014123786,0.03150755632162763,0.0839748988,-0.11775085106328897,,-2.6389956e-05,-4.7683716e-06,3.5762787e-07,0.99999994,3.0733645e-06,3.259629e-06,-3.0696392e-06,1.0,2.682209e-07,-3.259629e-06,-3.2782555e-07,1.0,234,0.725,1,1,0.702,False,1.0461847097944261,0.016366970879094556
0.7545748609118164,16:19:40.036262,16:18:13.129632,0,,0.10808402,-0.0018831193,-0.0045234263,0.453748,-0.78640705,-0.41913775,-0.52317035,-0.61583906,0.5890968,-0.7213914,-0.04802105,-0.6908606,,0.11266732,0.011032335,0.014282227,0.03711026,-0.10648653,0.99362123,-0.98437095,0.16739556,0.054704614,-0.17215303,-0.9801221,-0.09861019,,0.05765488,1.3275629,0.4376022,0.9967663,0.07914413,-0.013895959,0.044072125,-0.6830601,-0.7290312,-0.06719031,0.72606134,-0.6843394,,-0.06818952,0.25774026,-0.042808358,-0.41857815,0.7761729,0.47153792,-0.90022546,-0.4231748,-0.10255359,0.11994364,-0.46741712,0.8758623,,-0.064607106,0.45298404,-0.27008754,-0.04201762,0.23546621,-0.97097385,-0.60501045,-0.77939093,-0.16282533,-0.7951081,0.5806078,0.17520767,,1.0773366814200676,0.2283766565565672,0.19839070305000003,-1.2522683424895795,0.2421198775843605,0.28855597848628656,0.8719306250247826,,-1.424257287595981,0.11292180008691079,0.23212665030000001,-0.03417946078797747,-0.23733760009257007,-0.7749319231259624,-0.14423281039656854,,0.0250542014123786,0.03150755632162763,0.0839748988,-0.11775085106328897,,-2.6389956e-05,-4.7683716e-06,3.5762787e-07,0.99999994,3.0733645e-06,3.259629e-06,-3.0696392e-06,1.0,2.682209e-07,-3.259629e-06,-3.2782555e-07,1.0,247,0.766,1,1,0.743,False,1.045886821201821,0.015594487666623191
0.7800501079764217,16:19:40.075711,16:18:13.335375,0,,0.10808489,-0.0018797964,-0.0045226365,0.45374694,-0.7864101,-0.41913304,-0.52316093,-0.6158342,0.5891102,-0.72139883,-0.04803291,-0.6908521,,0.11275114,0.010988139,0.014272392,0.036916457,-0.10726242,0.993545,-0.98440945,0.1671941,0.05462721,-0.17197418,-0.98007184,-0.099417984,,0.05765488,1.3275629,0.4376022,0.9967663,0.07914413,-0.013895959,0.044072125,-0.6830601,-0.7290312,-0.06719031,0.72606134,-0.6843394,,-0.06819037,0.25774306,-0.042806383,-0.41857648,0.77617675,0.47153297,-0.9002246,-0.42318022,-0.10253834,0.11995555,-0.46740574,0.8758668,,-0.06469018,0.45294672,-0.27011552,-0.04184941,0.23622346,-0.9707971,-0.6048503,-0.77935994,-0.1635671,-0.7952388,0.58034176,0.1754956,,1.0773444041529419,0.22839210202231566,0.19839199934,-1.2522683424895795,0.2421198775843605,0.28855597848628656,0.8719306250247826,,-1.4245430287123273,0.11266694990206137,0.23216813158000002,-0.03417946078797747,-0.23733760009257007,-0.7738700995041351,-0.14504953072723992,,0.0250542014123786,0.03150755632162763,0.0839748988,-0.11775085106328897,,-2.6389956e-05,-4.7683716e-06,3.5762787e-07,0.99999994,3.0733645e-06,3.259629e-06,-3.0696392e-06,1.0,2.682209e-07,-3.259629e-06,-3.2782555e-07,1.0,255,0.79,1,1,0.767,False,1.0467209092611154,0.016173850075976492
0.81953104888089,16:19:40.098977,16:18:13.335375,0,,0.10808554,-0.0018807203,-0.0045233667,0.45392796,-0.786267,-0.41920564,-0.5230792,-0.61601293,0.5889959,-0.72134423,-0.04808393,-0.6909055,,0.112815075,0.01095248,0.01427424,0.036946595,-0.10713349,0.9935578,-0.98433906,0.16759276,0.054675028,-0.17237052,-0.9800179,-0.09926375,,0.05765488,1.3275629,0.4376022,0.9967663,0.07914413,-0.013895959,0.044072125,-0.6830601,-0.7290312,-0.06719031,0.72606134,-0.6843394,,-0.06819099,0.25774187,-0.04280653,-0.4187589,0.77603364,0.47160652,-0.9001353,-0.42334267,-0.1026523,0.11998953,-0.46749625,0.8758138,,-0.06475478,0.4529256,-0.27014276,-0.041826677,0.23609976,-0.97082824,-0.6051716,-0.7791434,-0.16341022,-0.7949955,0.5806828,0.17546986,,1.0773366814200676,0.22839210202231566,0.19839199934,-1.252478032433064,0.2421198775843605,0.28863765722642715,0.8717672809586483,,-1.4247901561643024,0.11245843611445731,0.23219146480000002,-0.033969770844492944,-0.23679105409350829,-0.7738256986780774,-0.14472284259497148,,0.0250542014123786,0.03150755632162763,0.0839748988,-0.11775085106328897,,-2.6389956e-05,-4.7683716e-06,3.5762787e-07,0.99999994,3.0733645e-06,3.259629e-06,-3.0696392e-06,1.0,2.682209e-07,-3.259629e-06,-3.2782555e-07,1.0,272,0.844,1,1,0.821,False,1.0464825983870312,0.01622213027675601
0.8428086680360138,16:19:40.154845,16:18:13.335375,0,,0.1080816,-0.001880601,-0.004530728,0.45390245,-0.78628916,-0.41919172,-0.52299255,-0.6159785,0.5891089,-0.72142315,-0.0481638,-0.6908176,,0.11288701,0.01091405,0.014295816,0.037197977,-0.10692485,0.993571,-0.98437726,0.16730821,0.054858953,-0.17209825,-0.98008925,-0.09903089,,0.05765488,1.3275629,0.4376022,0.9967663,0.07914413,-0.013895959,0.044072125,-0.6830601,-0.7290312,-0.06719031,0.72606134,-0.6843394,,-0.06818661,0.25773662,-0.04280174,-0.418727,0.7760613,0.4715894,-0.9001347,-0.42337793,-0.10251178,0.120105125,-0.46741843,0.8758395,,-0.06482992,0.45291984,-0.2701807,-0.04211176,0.23589414,-0.9708659,-0.6049738,-0.77935743,-0.16312176,-0.795131,0.580479,0.17552988,,1.0773289586871932,0.22836121109081875,0.19839848079000003,-1.252478032433064,0.2422565140841259,0.2885262393227307,0.8717672809586483,,-1.4251145109450198,0.11228081325835014,0.23220572399000003,-0.034389150731461995,-0.23665441759374287,-0.7736104016212115,-0.14406946633043438,,0.0250542014123786,0.03150755632162763,0.0839748988,-0.11775085106328897,,-2.6389956e-05,-4.7683716e-06,3.5762787e-07,0.99999994,3.0733645e-06,3.259629e-06,-3.0696392e-06,1.0,2.682209e-07,-3.259629e-06,-3.2782555e-07,1.0,289,0.897,1,1,0.874,False,1.0467804869796362,0.016366970879094556
0.8986643720418215,16:19:40.207726,16:18:13.335375,0,,0.108070865,-0.0018784702,-0.004537955,0.4538828,-0.786309,-0.41917565,-0.52299035,-0.6159522,0.58913827,-0.72143704,-0.048174918,-0.69080234,,0.11294721,0.010901757,0.0143383145,0.037144452,-0.10692319,0.99357307,-0.9843793,0.16731346,0.05480618,-0.1720981,-0.9800886,-0.099038266,,0.05765488,1.3275629,0.4376022,0.9967663,0.07914413,-0.013895959,0.044072125,-0.6830601,-0.7290312,-0.06719031,0.72606134,-0.6843394,,-0.06817542,0.25773305,-0.042795923,-0.41870654,0.77608234,0.47157294,-0.9001429,-0.42336786,-0.102481276,0.120114915,-0.46739262,0.8758519,,-0.06489538,0.45294574,-0.27020574,-0.042058773,0.23589258,-0.9708685,-0.60496914,-0.7793546,-0.16315258,-0.79513735,0.5804835,0.17548643,,1.0773598496186902,0.2283148746935734,0.19840625853000002,-1.252478032433064,0.2422565140841259,0.28844456058259016,0.8719306250247826,,-1.4254465884586116,0.11225764505972748,0.23220831657000002,-0.034389150731461995,-0.23665441759374287,-0.7732836866606494,-0.1439061222643,,0.0250542014123786,0.03150755632162763,0.0839748988,-0.11775085106328897,,-2.6389956e-05,-4.7683716e-06,3.5762787e-07,0.99999994,3.0733645e-06,3.259629e-06,-3.0696392e-06,1.0,2.682209e-07,-3.259629e-06,-3.2782555e-07,1.0,297,0.921,1,1,0.898,False,1.0461251320759053,0.015835888670520326
0.9515022488776594,16:19:40.230857,16:18:13.512361,0,,0.10806497,-0.0018818378,-0.00454773,0.4538572,-0.7863262,-0.41917115,-0.52291566,-0.61592543,0.58923244,-0.72150725,-0.04823625,-0.6907246,,0.11296387,0.010902472,0.014356613,0.037228458,-0.106547356,0.9936103,-0.98435503,0.16744599,0.054837376,-0.17221871,-0.98010695,-0.098646715,,0.05765488,1.3275629,0.4376022,0.9967663,0.07914413,-0.013895959,0.044072125,-0.6830601,-0.7290312,-0.06719031,0.72606134,-0.6843394,,-0.068169,0.25772375,-0.04279218,-0.4186753,0.77610373,0.4715655,-0.9001439,-0.4233948,-0.10236065,0.12021591,-0.46733272,0.87587,,-0.06491421,0.45296055,-0.27021196,-0.042125974,0.23552597,-0.97095466,-0.6050732,-0.7793484,-0.16279595,-0.7950546,0.58064073,0.17534126,,1.0773444041529419,0.22826081556345384,0.19841273998000003,-1.252478032433064,0.24239315058389135,0.2883331426788937,0.8719306250247826,,-1.4255547067188508,0.11227309052547592,0.23220572399000003,-0.034389150731461995,-0.23651778109397742,-0.773558462044627,-0.14406946633043416,,0.0250542014123786,0.03150755632162763,0.0839748988,-0.11775085106328897,,-2.6389956e-05,-4.7683716e-06,3.5762787e-07,0.99999994,3.0733645e-06,3.259629e-06,-3.0696392e-06,1.0,2.682209e-07,-3.259629e-06,-3.2782555e-07,1.0,310,0.962,1,1,0.939,False,1.0463634429499895,0.01578760846974081
0.9746864249464124,16:19:40.268072,16:18:13.512361,0,,0.108057976,-0.0018858314,-0.00455828,0.4536739,-0.78642136,-0.41919115,-0.5230264,-0.61581635,0.58924836,-0.7215423,-0.048078537,-0.69069904,,0.11296794,0.010899089,0.014362097,0.037219986,-0.10700396,0.9935616,-0.98435605,0.1674174,0.054905564,-0.17221445,-0.980062,-0.099098794,,0.05765488,1.3275629,0.4376022,0.9967663,0.07914413,-0.013895959,0.044072125,-0.6830601,-0.7290312,-0.06719031,0.72606134,-0.6843394,,-0.06816145,0.2577135,-0.042788465,-0.4184923,0.77619106,0.4715842,-0.9002382,-0.42320165,-0.102330394,0.12014728,-0.4673626,0.8758635,,-0.06491903,0.45296344,-0.2702171,-0.042118136,0.23597214,-0.97084665,-0.6050691,-0.77927554,-0.16315958,-0.79505813,0.58055735,0.17560108,,1.0773366814200676,0.22819903370046005,0.19841922143000001,-1.2522683424895795,0.24239315058389135,0.2883331426788937,0.8722573131570512,,-1.4255855976503475,0.1122653677926017,0.23220313141,-0.034389150731461995,-0.23651778109397742,-0.7730683896037835,-0.14504953072723992,,0.0250542014123786,0.03150755632162763,0.0839748988,-0.11775085106328897,,-2.6389956e-05,-4.7683716e-06,3.5762787e-07,0.99999994,3.0733645e-06,3.259629e-06,-3.0696392e-06,1.0,2.682209e-07,-3.259629e-06,-3.2782555e-07,1.0,318,0.987,1,1,0.964,False,1.045767665764779,0.01631869067831504
1.0119037870317698,16:19:40.296514,16:18:13.512361,0,,0.10804969,-0.0018902868,-0.004567072,0.45382166,-0.78636044,-0.4191454,-0.52286375,-0.61587715,0.589329,-0.72156733,-0.048294306,-0.6906579,,0.112964824,0.0108958855,0.014365435,0.037133023,-0.106867656,0.99357957,-0.98437744,0.16733077,0.054786935,-0.17211124,-0.9800917,-0.09898466,,0.05765488,1.3275629,0.4376022,0.9967663,0.07914413,-0.013895959,0.044072125,-0.6830601,-0.7290312,-0.06719031,0.72606134,-0.6843394,,-0.06815273,0.25770426,-0.042786345,-0.41863516,0.77614236,0.47153756,-0.9001524,-0.42340428,-0.10224728,0.12029258,-0.46725997,0.8758983,,-0.06491646,0.45296526,-0.2702217,-0.042045705,0.2358384,-0.9708823,-0.60497874,-0.77935505,-0.16311462,-0.7951307,0.5805049,0.17544575,,1.0773289586871932,0.22813725183746625,0.19842440659000002,-1.252478032433064,0.2425297870836568,0.2881400460350568,0.8720939690909169,,-1.4255855976503475,0.1122653677926017,0.23219794625000004,-0.034389150731461995,-0.23665441759374287,-0.7732020079205089,-0.1445594985288371,,0.0250542014123786,0.03150755632162763,0.0839748988,-0.11775085106328897,,-2.6389956e-05,-4.7683716e-06,3.5762787e-07,0.99999994,3.0733645e-06,3.259629e-06,-3.0696392e-06,1.0,2.682209e-07,-3.259629e-06,-3.2782555e-07,1.0,327,1.016,1,1,0.993,False,1.046244287512947,0.017042893690006444
1.040331912925467,16:19:40.328222,16:18:13.512361,0,,0.1080406,-0.0018929094,-0.0045738667,0.45420942,-0.7860693,-0.41927153,-0.52289593,-0.61625206,0.5889085,-0.72129995,-0.048252434,-0.69094,,0.112961866,0.010893248,0.014370739,0.036975063,-0.10691434,0.99358034,-0.9843607,0.1674726,0.0546529,-0.17224053,-0.98006237,-0.099050015,,0.05765488,1.3275629,0.4376022,0.9967663,0.07914413,-0.013895959,0.044072125,-0.6830601,-0.7290312,-0.06719031,0.72606134,-0.6843394,,-0.06814329,0.25769776,-0.04278425,-0.41903907,0.7758422,0.47167274,-0.89998865,-0.42363438,-0.10273431,0.120111175,-0.4675498,0.87576854,,-0.064914286,0.45296904,-0.2702267,-0.041872118,0.23588485,-0.9708785,-0.60506946,-0.77925974,-0.16323362,-0.7950708,0.58061403,0.17535597,,1.077352126885816,0.2280909154402209,0.19842829546000001,-1.252897412320033,0.2422565140841259,0.28836288184244957,0.8720939690909169,,-1.4255933203832218,0.1122653677926017,0.23219146480000002,-0.03417946078797747,-0.23665441759374287,-0.7732020079205089,-0.1445594985288371,,0.0250542014123786,0.03150755632162763,0.0839748988,-0.11775085106328897,,-2.6389956e-05,-4.7683716e-06,3.5762787e-07,0.99999994,3.0733645e-06,3.259629e-06,-3.0696392e-06,1.0,2.682209e-07,-3.259629e-06,-3.2782555e-07,1.0,336,1.044,1,1,1.021,False,1.0463038652314682,0.016366970879094556
1.0719852088950574,16:19:40.351522,16:18:13.512361,0,,0.10803832,-0.0018969178,-0.004579738,0.454478,-0.7858368,-0.41941613,-0.52321726,-0.6165745,0.58828515,-0.7208977,-0.04791698,-0.69138306,,0.11295512,0.010902487,0.014374256,0.036121897,-0.10578138,0.99373305,-0.98390317,0.1703797,0.053901277,-0.17501363,-0.9796842,-0.097924255,,0.05765488,1.3275629,0.4376022,0.9967663,0.07914413,-0.013895959,0.044072125,-0.6830601,-0.7290312,-0.06719031,0.72606134,-0.6843394,,-0.06814073,0.2576908,-0.042783417,-0.41933772,0.7755837,0.4718324,-0.89991516,-0.42361,-0.103476055,0.11961857,-0.46800053,0.87559515,,-0.06490779,0.45297706,-0.2702206,-0.04065921,0.2347937,-0.9711945,-0.6072261,-0.77771384,-0.16259666,-0.7934881,0.58312356,0.17419408,,1.0773598496186902,0.22806774724159823,0.19842959175000002,-1.2531071022635176,0.24170996808506415,0.2888085534572353,0.8720939690909169,,-1.4256010431160961,0.11224992232685325,0.23218498335,-0.03166318146616318,-0.2350147795965576,-0.7750290952057092,-0.14357943413203134,,0.0250542014123786,0.03150755632162763,0.0839748988,-0.11775085106328897,,-2.6389956e-05,-4.7683716e-06,3.5762787e-07,0.99999994,3.0733645e-06,3.259629e-06,-3.0696392e-06,1.0,2.682209e-07,-3.259629e-06,-3.2782555e-07,1.0,350,1.089,1,1,1.066,False,1.04642302066851,0.016704932284550722
1.0953508499078453,16:19:40.396912,16:18:13.647257,0,,0.10803825,-0.0018986762,-0.0045842975,0.4544823,-0.78586876,-0.41935173,-0.5232309,-0.6165303,0.5883193,-0.7208849,-0.047962904,-0.6913931,,0.11296664,0.0108903125,0.014400184,0.035626426,-0.10582122,0.9937467,-0.98385334,0.17080572,0.053460374,-0.17539471,-0.9796057,-0.0980274,,0.05765488,1.3275629,0.4376022,0.9967663,0.07914413,-0.013895959,0.044072125,-0.6830601,-0.7290312,-0.06719031,0.72606134,-0.6843394,,-0.06814041,0.25768623,-0.042781662,-0.41934302,0.77561915,0.4717694,-0.8999151,-0.4236133,-0.10346266,0.11960018,-0.46793875,0.8756307,,-0.06492286,0.45299324,-0.27024212,-0.040117905,0.23483492,-0.971207,-0.6074901,-0.7774461,-0.16289036,-0.7933135,0.5834639,0.1738494,,1.0773444041529419,0.22805230177584976,0.19843218433,-1.2531071022635176,0.24170996808506415,0.28872687471709474,0.8719306250247827,,-1.4257246068420837,0.1122344768611048,0.23216942787000003,-0.031034111635709606,-0.2350147795965576,-0.7750290952057092,-0.14357943413203134,,0.0250542014123786,0.03150755632162763,0.0839748988,-0.11775085106328897,,-2.6389956e-05,-4.7683716e-06,3.5762787e-07,0.99999994,3.0733645e-06,3.259629e-06,-3.0696392e-06,1.0,2.682209e-07,-3.259629e-06,-3.2782555e-07,1.0,359,1.118,1,1,1.095,False,1.045886821201821,0.017187734292345436
1.1407418609596789,16:19:40.428609,16:18:13.647257,0,,0.10803611,-0.0018980801,-0.004585281,0.45447797,-0.78586614,-0.41936135,-0.5232291,-0.6165343,0.58831674,-0.72088903,-0.047954947,-0.6913894,,0.11298603,0.010880135,0.01443404,0.035292655,-0.10511209,0.99383384,-0.9838178,0.1711419,0.05303768,-0.17566139,-0.9796233,-0.097371176,,0.05765488,1.3275629,0.4376022,0.9967663,0.07914413,-0.013895959,0.044072125,-0.6830601,-0.7290312,-0.06719031,0.72606134,-0.6843394,,-0.068138205,0.25768596,-0.042780675,-0.4193384,0.775616,0.47177875,-0.89991677,-0.42361015,-0.10346135,0.119603984,-0.46794692,0.8756258,,-0.06494669,0.45301658,-0.2702648,-0.03975194,0.23414347,-0.971389,-0.60767585,-0.77738017,-0.16251183,-0.79318964,0.5838295,0.1731857,,1.077352126885816,0.22804457904297554,0.19843348062000002,-1.2531071022635176,0.24170996808506415,0.28872687471709474,0.8719306250247827,,-1.4258945069653166,0.1122344768611048,0.23215387239000002,-0.030614731748740555,-0.2350147795965576,-0.7756825251268337,-0.1439061222643001,,0.0250542014123786,0.03150755632162763,0.0839748988,-0.11775085106328897,,-2.6389956e-05,-4.7683716e-06,3.5762787e-07,0.99999994,3.0733645e-06,3.259629e-06,-3.0696392e-06,1.0,2.682209e-07,-3.259629e-06,-3.2782555e-07,1.0,382,1.192,1,1,1.169,False,1.0464825983870312,0.016415251079873627
1.17243210086599,16:19:40.497176,16:18:13.647257,0,,0.10803211,-0.0019005239,-0.0045916736,0.45483208,-0.78567386,-0.41933757,-0.5230711,-0.6167603,0.5882205,-0.7207804,-0.048198193,-0.69148576,,0.11299126,0.01081156,0.0145666,0.03253582,-0.10256935,0.99419355,-0.9834653,0.17401773,0.050137885,-0.17814976,-0.9793862,-0.09521166,,0.05765488,1.3275629,0.4376022,0.9967663,0.07914413,-0.013895959,0.044072125,-0.6830601,-0.7290312,-0.06719031,0.72606134,-0.6843394,,-0.06813386,0.25767973,-0.042778447,-0.4196955,0.77543473,0.47175908,-0.89974177,-0.4239483,-0.10359813,0.11966786,-0.46794105,0.87562025,,-0.06497072,0.45310196,-0.27038494,-0.036691,0.2316718,-0.9721018,-0.609436,-0.7761161,-0.16196184,-0.7919858,0.5864913,0.1696656,,1.0773444041529419,0.22801368811147865,0.19843736949000002,-1.2535264821504866,0.24170996808506415,0.28864519597695415,0.8717672809586484,,-1.426350148204896,0.11215724953236256,0.23203850258000003,-0.026840312766019118,-0.23474150659702667,-0.7787641168391463,-0.14439615446270282,,0.0250542014123786,0.03150755632162763,0.0839748988,-0.11775085106328897,,-2.6389956e-05,-4.7683716e-06,3.5762787e-07,0.99999994,3.0733645e-06,3.259629e-06,-3.0696392e-06,1.0,2.682209e-07,-3.259629e-06,-3.2782555e-07,1.0,396,1.237,1,1,1.214,False,1.045767665764779,0.015449647064285088
1.2410074649378657,16:19:40.548907,16:18:13.801143,0,,0.10802735,-0.0019017756,-0.0045974404,0.45484886,-0.78563654,-0.41938952,-0.52317786,-0.6168183,0.5880647,-0.72069234,-0.048065186,-0.6915868,,0.11295196,0.010711886,0.014734566,0.031491674,-0.10014549,0.99447423,-0.9833102,0.17527312,0.048788518,-0.17919043,-0.97941315,-0.092954494,,0.05765488,1.3275629,0.4376022,0.9967663,0.07914413,-0.013895959,0.044072125,-0.6830601,-0.7290312,-0.06719031,0.72606134,-0.6843394,,-0.06812879,0.25767478,-0.042775773,-0.41971958,0.77538824,0.47181416,-0.8997488,-0.42388994,-0.10377586,0.11953069,-0.46807098,0.8755695,,-0.06495597,0.45320895,-0.27055234,-0.035518523,0.2293069,-0.9727059,-0.6101796,-0.7758126,-0.16061023,-0.79146653,0.58782065,0.16747412,,1.077352126885816,0.22798279717998174,0.19844125836,-1.2535264821504866,0.2415733315852987,0.2887566138806506,0.8717672809586484,,-1.4267440075814812,0.11204140853924918,0.23185961456,-0.025372483161627445,-0.2344682335974958,-0.7811922786303344,-0.1445594985288371,,0.0250542014123786,0.03150755632162763,0.0839748988,-0.11775085106328897,,-2.6389956e-05,-4.7683716e-06,3.5762787e-07,0.99999994,3.0733645e-06,3.259629e-06,-3.0696392e-06,1.0,2.682209e-07,-3.259629e-06,-3.2782555e-07,1.0,405,1.266,1,1,1.243,False,1.0466613315425946,0.016656652083770762
1.2926788828335702,16:19:40.567641,16:18:13.801143,0,,0.108024254,-0.0019037277,-0.0046002567,0.45484555,-0.78563076,-0.41940382,-0.52318543,-0.61682713,0.5880486,-0.7206889,-0.048045278,-0.69159174,,0.11293133,0.010669418,0.014806807,0.031217672,-0.09942305,0.9945553,-0.983258,0.17566663,0.048424006,-0.17952445,-0.9794163,-0.09227466,,0.05765488,1.3275629,0.4376022,0.9967663,0.07914413,-0.013895959,0.044072125,-0.6830601,-0.7290312,-0.06719031,0.72606134,-0.6843394,,-0.06812556,0.25767148,-0.0427755,-0.41971663,0.7753811,0.47182843,-0.89975125,-0.42388132,-0.1037898,0.11952261,-0.46809053,0.87556016,,-0.06494593,0.45325553,-0.27062428,-0.035202738,0.22860196,-0.9728833,-0.6104233,-0.77570903,-0.16018368,-0.79129267,0.5882318,0.16685106,,1.077352126885816,0.22795962898135907,0.19844255465000002,-1.2535264821504866,0.2415733315852987,0.2887566138806506,0.8717672809586484,,-1.4268984622389658,0.11199507214200384,0.23178054087000002,-0.0249531032746584,-0.23433159709773038,-0.7818754477150147,-0.1437427781981655,,0.0250542014123786,0.03150755632162763,0.0839748988,-0.11775085106328897,,-2.6389956e-05,-4.7683716e-06,3.5762787e-07,0.99999994,3.0733645e-06,3.259629e-06,-3.0696392e-06,1.0,2.682209e-07,-3.259629e-06,-3.2782555e-07,1.0,419,1.311,1,1,1.288,False,1.0460059766388632,0.015449647064285088
1.3114726128987968,16:19:40.618493,16:18:13.801143,0,,0.10801903,-0.0019076318,-0.004607618,0.45484215,-0.7856201,-0.41942757,-0.5232049,-0.6168438,0.5880138,-0.7206769,-0.048006862,-0.69160694,,0.112846665,0.010525487,0.015027106,0.027426131,-0.09818046,0.99479055,-0.9829675,0.17826205,0.0446937,-0.18172133,-0.97907263,-0.09161919,,0.05765488,1.3275629,0.4376022,0.9967663,0.07914413,-0.013895959,0.044072125,-0.6830601,-0.7290312,-0.06719031,0.72606134,-0.6843394,,-0.06811998,0.25766358,-0.04277375,-0.41971436,0.77536774,0.47185245,-0.8997553,-0.4238644,-0.10382365,0.11949995,-0.46812803,0.87554324,,-0.06489413,0.45339322,-0.27085835,-0.031154959,0.2273979,-0.97330344,-0.6118492,-0.774347,-0.16132969,-0.7903606,0.59048873,0.16325797,,1.0773444041529419,0.22791329258411372,0.19844644352000002,-1.2535264821504866,0.2415733315852987,0.28875661388065055,0.8714405928263799,,-1.4273309352799224,0.11184834021739358,0.23152257916000002,-0.020549614461483387,-0.2348781430967921,-0.7837984595643053,-0.14423281039656854,,0.0250542014123786,0.03150755632162763,0.0839748988,-0.11775085106328897,,-2.6389956e-05,-4.7683716e-06,3.5762787e-07,0.99999994,3.0733645e-06,3.259629e-06,-3.0696392e-06,1.0,2.682209e-07,-3.259629e-06,-3.2782555e-07,1.0,428,1.339,1,1,1.316,False,1.045946398920342,0.015546207465843231
1.3623217849526554,16:19:40.648989,16:18:13.801143,0,,0.10801659,-0.0019105375,-0.004611224,0.4550197,-0.7855052,-0.4194501,-0.52313054,-0.61698323,0.5879337,-0.7206188,-0.048094332,-0.6916614,,0.11280234,0.01042334,0.015184104,0.02623219,-0.09656661,0.99498075,-0.98266554,0.18023586,0.043400094,-0.18352208,-0.9788717,-0.09016474,,0.05765488,1.3275629,0.4376022,0.9967663,0.07914413,-0.013895959,0.044072125,-0.6830601,-0.7290312,-0.06719031,0.72606134,-0.6843394,,-0.06811737,0.25765905,-0.042773623,-0.4198937,0.77525586,0.4718767,-0.89966816,-0.4240265,-0.10391697,0.11952598,-0.46816653,0.8755191,,-0.06487308,0.45348993,-0.27102342,-0.029732773,0.22582683,-0.97371364,-0.6131826,-0.7734324,-0.16065316,-0.78938144,0.5922876,0.16146937,,1.0773366814200676,0.22789012438549106,0.19844773981000002,-1.253736172093971,0.2415733315852987,0.28875661388065055,0.8714405928263799,,-1.4276861809921366,0.11168616282703486,0.23134628372000002,-0.018452715026638145,-0.2340583240981995,-0.7856104693484517,-0.1439061222643,,0.0250542014123786,0.03150755632162763,0.0839748988,-0.11775085106328897,,-2.6389956e-05,-4.7683716e-06,3.5762787e-07,0.99999994,3.0733645e-06,3.259629e-06,-3.0696392e-06,1.0,2.682209e-07,-3.259629e-06,-3.2782555e-07,1.0,442,1.384,1,1,1.361,False,1.046244287512947,0.015546207465843231
1.3927786380518228,16:19:40.699460,16:18:13.964359,0,,0.10800405,-0.0019183308,-0.004616007,0.45517984,-0.78540903,-0.41945645,-0.52306074,-0.61709833,0.58787495,-0.7205683,-0.048187643,-0.6917075,,0.11275235,0.010196723,0.015472293,0.024477437,-0.09530319,0.9951472,-0.98248434,0.1816512,0.041562356,-0.18473059,-0.97873396,-0.089187585,,0.05765488,1.3275629,0.4376022,0.9967663,0.07914413,-0.013895959,0.044072125,-0.6830601,-0.7290312,-0.06719031,0.72606134,-0.6843394,,-0.068104714,0.25765067,-0.042776894,-0.42005527,0.7751634,0.47188476,-0.8995892,-0.42417604,-0.103990324,0.119552694,-0.4681841,0.87550604,,-0.06486661,0.45364636,-0.27135864,-0.027833607,0.2245958,-0.9740544,-0.6139908,-0.7727928,-0.16064444,-0.7888223,0.5935891,0.15940936,,1.077352126885816,0.22781289705674881,0.19844773981000002,-1.2539458620374555,0.2415733315852987,0.28867493514051,0.8716039368925141,,-1.4284507315466848,0.11125368978607829,0.23102998896000002,-0.0163558155917929,-0.23378505109866862,-0.7866500925572502,-0.14390612226429988,,0.0250542014123786,0.03150755632162763,0.0839748988,-0.11775085106328897,,-2.6389956e-05,-4.7683716e-06,3.5762787e-07,0.99999994,3.0733645e-06,3.259629e-06,-3.0696392e-06,1.0,2.682209e-07,-3.259629e-06,-3.2782555e-07,1.0,465,1.458,1,1,1.435,False,1.045886821201821,0.015015125257269446
1.4432909269817173,16:19:40.762468,16:18:13.964359,0,,0.10794555,-0.0019264817,-0.0046515614,0.4550927,-0.7854193,-0.41953173,-0.52297324,-0.6170863,0.5879655,-0.7206868,-0.048174918,-0.69158494,,0.11250141,0.0096972585,0.016323984,0.019094706,-0.09152742,0.99561936,-0.98106635,0.19023848,0.036304265,-0.19272783,-0.97746205,-0.08616199,,0.057694726,1.3275636,0.43760398,0.9967668,0.079137154,-0.013903399,0.04406195,-0.68306094,-0.7290311,-0.06719031,0.72606134,-0.6843394,,-0.06808246,0.25761726,-0.042759746,-0.41996488,0.7751667,0.47195986,-0.89961237,-0.4241639,-0.10383909,0.11969574,-0.46818972,0.8754835,,-0.06477895,0.45419315,-0.272204,-0.021445936,0.22092651,-0.9750546,-0.61986977,-0.76813436,-0.16040902,-0.78441155,0.6009668,0.15341903,,1.077352126885816,0.22753487867327674,0.19845551755000002,-1.2539458620374555,0.2418466045848296,0.28845209933311716,0.8716039368925141,,-1.4306285422172162,0.11069765301913412,0.23017962272000003,-0.007129458078473829,-0.23023250210476714,-0.7906087816751844,-0.14439615446270282,,0.0250542014123786,0.03150755632162763,0.0839748988,-0.11775085106328897,,1.3239682e-05,-7.748604e-07,-1.9073486e-06,0.99999994,-3.91528e-06,-4.146248e-06,3.91528e-06,1.0,-4.172325e-07,4.1499734e-06,3.5762787e-07,1.0,488,1.532,1,1,1.509,False,1.0461251320759053,0.015449647064285088
1.5062871440313756,16:19:40.843604,16:18:14.099622,0,,0.107911356,-0.0019520372,-0.004671067,0.4554072,-0.78517306,-0.41965148,-0.52286994,-0.6173949,0.58773315,-0.72056305,-0.04823476,-0.69170964,,0.11262384,0.008914545,0.017831028,0.01308044,-0.085466646,0.99625504,-0.9800775,0.19638005,0.029715076,-0.19818407,-0.9767959,-0.08119524,,0.057694726,1.3275636,0.43760398,0.9967668,0.079137154,-0.013903399,0.04406195,-0.68306094,-0.7290311,-0.06719031,0.72606134,-0.6843394,,-0.06804763,0.25758678,-0.042767525,-0.42028433,0.7749188,0.4720826,-0.8994617,-0.42442346,-0.10408338,0.119706765,-0.46836483,0.87538826,,-0.065114595,0.4551561,-0.27356744,-0.014758628,0.21500258,-0.97650194,-0.62363374,-0.7653574,-0.15908809,-0.7815773,0.6066317,0.14537849,,1.0773675723515646,0.22729547395417576,0.19845811013000003,-1.2543652419244247,0.2418466045848296,0.2883704205929766,0.8717672809586484,,-1.4357873277771982,0.10979409327284985,0.22891703626,0.0006290698304535731,-0.22886613710711273,-0.7934382142551004,-0.1439061222643001,,0.0250542014123786,0.03150755632162763,0.0839748988,-0.11775085106328897,,1.3239682e-05,-7.748604e-07,-1.9073486e-06,0.99999994,-3.91528e-06,-4.146248e-06,3.91528e-06,1.0,-4.172325e-07,4.1499734e-06,3.5762787e-07,1.0,502,1.577,1,1,1.554,False,1.0460059766388632,0.014870284654931343
1.5874322168529034,16:19:40.884301,16:18:14.099622,0,,0.10790931,-0.001952216,-0.0046710223,0.45540288,-0.78520465,-0.41959697,-0.52286816,-0.61735094,0.5877811,-0.72056717,-0.04828328,-0.691702,,0.11277034,0.008467555,0.018388033,0.012212664,-0.08170869,0.9965813,-0.9796362,0.19877619,0.028302483,-0.20040908,-0.97663283,-0.07761724,,0.057694726,1.3275636,0.43760398,0.9967668,0.079137154,-0.013903399,0.04406195,-0.68306094,-0.7290311,-0.06719031,0.72606134,-0.6843394,,-0.06804559,0.25758675,-0.042767797,-0.4202797,0.77495414,0.47202867,-0.89946336,-0.4244288,-0.10404741,0.11971058,-0.4683015,0.87542164,,-0.06534339,0.45542982,-0.27420324,-0.013601736,0.21132235,-0.9773218,-0.6253117,-0.7645005,-0.15660217,-0.78025657,0.6090007,0.14254087,,1.0773752950844386,0.22728775122130154,0.19845811013000003,-1.2543652419244247,0.2418466045848296,0.28828874185283604,0.8719306250247827,,-1.4381350385709624,0.10865885154033886,0.22845296444000002,0.0025162793218142924,-0.22654331661110025,-0.7953323186179395,-0.1439061222643001,,0.0250542014123786,0.03150755632162763,0.0839748988,-0.11775085106328897,,1.3239682e-05,-7.748604e-07,-1.9073486e-06,0.99999994,-3.91528e-06,-4.146248e-06,3.91528e-06,1.0,-4.172325e-07,4.1499734e-06,3.5762787e-07,1.0,511,1.606,1,1,1.583,False,1.0460059766388632,0.01520824606038751
1.6281323600560427,16:19:40.912028,16:18:14.099622,0,,0.10790825,-0.0019514859,-0.0046703666,0.45539963,-0.7852382,-0.4195377,-0.5228638,-0.61730397,0.58783424,-0.72057235,-0.048338383,-0.69169277,,0.11278382,0.008317903,0.01870495,0.010897428,-0.080604255,0.99668646,-0.97928727,0.20067602,0.02693633,-0.20218214,-0.976336,-0.0767479,,0.057694726,1.3275636,0.43760398,0.9967668,0.079137154,-0.013903399,0.04406195,-0.68306094,-0.7290311,-0.06719031,0.72606134,-0.6843394,,-0.068044566,0.25758776,-0.04276774,-0.42027608,0.77499187,0.47196996,-0.8994642,-0.424437,-0.10400679,0.119717084,-0.46823165,0.8754581,,-0.06540139,0.45564035,-0.27447766,-0.012061542,0.21024202,-0.97757494,-0.626587,-0.7634832,-0.15646744,-0.77925813,0.6106485,0.14094369,,1.077383017817313,0.22728775122130154,0.19845811013000003,-1.2543652419244247,0.2418466045848296,0.2882070631126955,0.8717672809586483,,-1.439185330241857,0.1085198423486028,0.2281859287,0.004613178756659536,-0.22586013411227307,-0.7958894081364216,-0.1439061222643001,,0.0250542014123786,0.03150755632162763,0.0839748988,-0.11775085106328897,,1.3239682e-05,-7.748604e-07,-1.9073486e-06,0.99999994,-3.91528e-06,-4.146248e-06,3.91528e-06,1.0,-4.172325e-07,4.1499734e-06,3.5762787e-07,1.0,525,1.651,1,1,1.628,False,1.0463038652314682,0.01515996585960755
1.6558578808326274,16:19:40.954591,16:18:14.099622,0,,0.10790791,-0.001955852,-0.004675254,0.45558357,-0.7850904,-0.4196146,-0.5227979,-0.6174893,0.5876982,-0.72050387,-0.04837203,-0.6917617,,0.11279309,0.008020848,0.01937455,0.008155987,-0.07710509,0.9969895,-0.978073,0.206875,0.024000525,-0.20810261,-0.9753244,-0.0737272,,0.057694726,1.3275636,0.43760398,0.9967668,0.079137154,-0.013903399,0.04406195,-0.68306094,-0.7290311,-0.06719031,0.72606134,-0.6843394,,-0.06804401,0.25758123,-0.04276773,-0.4204626,0.7748429,0.47204834,-0.89937526,-0.42459112,-0.10414664,0.11973025,-0.46833837,0.87539923,,-0.06550437,0.4560959,-0.2750421,-0.008553389,0.20681514,-0.97834265,-0.63098985,-0.7601152,-0.15516673,-0.77574396,0.6159971,0.13699982,,1.0773598496186902,0.22726458302267888,0.19845940642,-1.2545749318679094,0.2418466045848296,0.28828874185283604,0.871603936892514,,-1.4413476954466398,0.10824954669800495,0.22761426481000002,0.010484497174226219,-0.22271749461766793,-0.7986153774017204,-0.1439061222643,,0.0250542014123786,0.03150755632162763,0.0839748988,-0.11775085106328897,,1.3239682e-05,-7.748604e-07,-1.9073486e-06,0.99999994,-3.91528e-06,-4.146248e-06,3.91528e-06,1.0,-4.172325e-07,4.1499734e-06,3.5762787e-07,1.0,534,1.679,1,1,1.656,False,1.0464825983870312,0.01515996585960755
1.6984193250536919,16:19:40.989108,16:18:14.099622,0,,0.10790278,-0.0019545704,-0.0046721995,0.4555695,-0.7850856,-0.4196389,-0.5227831,-0.6174964,0.58770394,-0.72052354,-0.04835987,-0.6917421,,0.11269849,0.007793039,0.019624531,0.006471731,-0.076093614,0.9970795,-0.9774164,0.21013412,0.022380821,-0.21122342,-0.9747069,-0.07301527,,0.057694726,1.3275636,0.43760398,0.9967668,0.079137154,-0.013903399,0.04406195,-0.68306094,-0.7290311,-0.06719031,0.72606134,-0.6843394,,-0.06803905,0.2575845,-0.042769097,-0.42044708,0.77483726,0.47207147,-0.89937943,-0.424587,-0.10412747,0.11975358,-0.46835145,0.87538904,,-0.06544884,0.4562226,-0.2753649,-0.006466585,0.20582362,-0.9785677,-0.6332789,-0.7581849,-0.15528531,-0.77389663,0.6187021,0.13524662,,1.077390740550187,0.22725686028980466,0.19845811013000003,-1.2545749318679094,0.2418466045848296,0.28828874185283604,0.871603936892514,,-1.4418882867478355,0.10770123266393501,0.22729537747000003,0.013839536269978608,-0.22080458362095176,-0.7998485130929082,-0.14357943413203134,,0.0250542014123786,0.03150755632162763,0.0839748988,-0.11775085106328897,,1.3239682e-05,-7.748604e-07,-1.9073486e-06,0.99999994,-3.91528e-06,-4.146248e-06,3.91528e-06,1.0,-4.172325e-07,4.1499734e-06,3.5762787e-07,1.0,548,1.724,1,1,1.701,False,1.045946398920342,0.015256526261167025
1.7329346188344061,16:19:41.032461,16:18:14.300381,0,,0.10790135,-0.0019565523,-0.0046752095,0.45574805,-0.7849724,-0.41965657,-0.5227059,-0.61763275,0.58762926,-0.7204665,-0.048453867,-0.6917949,,0.11262494,0.0075185746,0.01991868,0.0056663975,-0.07525304,0.9971482,-0.97719115,0.21127093,0.021497257,-0.21228608,-0.9745263,-0.07233951,,0.057694726,1.3275636,0.43760398,0.9967668,0.079137154,-0.013903399,0.04406195,-0.68306094,-0.7290311,-0.06719031,0.72606134,-0.6843394,,-0.06803747,0.257581,-0.042768646,-0.4206273,0.7747275,0.472091,-0.8992913,-0.42475188,-0.1042161,0.119782455,-0.46838346,0.875368,,-0.06542111,0.45636487,-0.27574733,-0.0055261273,0.20499864,-0.97874665,-0.63403416,-0.7575918,-0.15509789,-0.7732853,0.6197017,0.1341627,,1.077383017817313,0.2272414148240562,0.19845940642,-1.2547846218113936,0.2418466045848296,0.28828874185283604,0.871603936892514,,-1.4426373918366353,0.10705252310250016,0.22694408288,0.015097675930885754,-0.2198481281225937,-0.8002200447180803,-0.14374277819816583,,0.0250542014123786,0.03150755632162763,0.0839748988,-0.11775085106328897,,1.3239682e-05,-7.748604e-07,-1.9073486e-06,0.99999994,-3.91528e-06,-4.146248e-06,3.91528e-06,1.0,-4.172325e-07,4.1499734e-06,3.5762787e-07,1.0,557,1.753,1,1,1.73,False,1.0466017538240733,0.015642767867402263
1.776291553862393,16:19:41.063091,16:18:14.300381,0,,0.1079035,-0.0019596815,-0.0046777576,0.45575666,-0.7849385,-0.41971087,-0.5227214,-0.61768067,0.5875651,-0.72044986,-0.04839486,-0.69181633,,0.112603486,0.007358551,0.020222783,0.0047884583,-0.07327001,0.9973005,-0.9765669,0.21424243,0.020428948,-0.21516079,-0.97402865,-0.070527226,,0.057694726,1.3275636,0.43760398,0.9967668,0.079137154,-0.013903399,0.04406195,-0.68306094,-0.7290311,-0.06719031,0.72606134,-0.6843394,,-0.06803952,0.25757694,-0.04276914,-0.42063722,0.7746891,0.47214526,-0.8992896,-0.42474142,-0.1042733,0.11976025,-0.46845657,0.8753319,,-0.06544314,0.45656294,-0.27602813,-0.004271061,0.20305124,-0.9791588,-0.63620204,-0.755997,-0.15399839,-0.77151066,0.6222851,0.13241053,,1.0773598496186902,0.22723369209118197,0.19845940642,-1.2547846218113936,0.2418466045848296,0.2883704205929766,0.8717672809586484,,-1.4435486743157937,0.10682084111627342,0.22665889908000003,0.017613955252700046,-0.21793521712587752,-0.8018615741099707,-0.1439061222643,,0.0250542014123786,0.03150755632162763,0.0839748988,-0.11775085106328897,,1.3239682e-05,-7.748604e-07,-1.9073486e-06,0.99999994,-3.91528e-06,-4.146248e-06,3.91528e-06,1.0,-4.172325e-07,4.1499734e-06,3.5762787e-07,1.0,571,1.798,1,1,1.775,False,1.046244287512947,0.014773724253372311
1.806902559939772,16:19:41.105271,16:18:14.300381,0,,0.10790003,-0.001958415,-0.004674867,0.45592448,-0.78479195,-0.41980264,-0.5226219,-0.6178632,0.5874617,-0.72041595,-0.04844013,-0.6918485,,0.112609275,0.0070787817,0.020472407,0.002323158,-0.072098784,0.9973946,-0.97593355,0.21732542,0.017983012,-0.21805564,-0.97343284,-0.069858775,,0.057694726,1.3275636,0.43760398,0.9967668,0.079137154,-0.013903399,0.04406195,-0.68306094,-0.7290311,-0.06719031,0.72606134,-0.6843394,,-0.06803621,0.25758004,-0.042770326,-0.42080486,0.7745422,0.47223684,-0.8992032,-0.42490226,-0.104363546,0.11982053,-0.46855354,0.87527174,,-0.06548852,0.4566554,-0.27638867,-0.0014394294,0.20189923,-0.9794052,-0.63822293,-0.7541824,-0.15453273,-0.76985025,0.6248565,0.12994231,,1.077383017817313,0.22723369209118197,0.19845811013000003,-1.2549943117548783,0.2418466045848296,0.28845209933311716,0.8719306250247827,,-1.4444754022607007,0.1059945086987314,0.22638538189000001,0.021388374235421483,-0.21643221562845769,-0.8029238135703503,-0.1439061222643001,,0.0250542014123786,0.03150755632162763,0.0839748988,-0.11775085106328897,,1.3239682e-05,-7.748604e-07,-1.9073486e-06,0.99999994,-3.91528e-06,-4.146248e-06,3.91528e-06,1.0,-4.172325e-07,4.1499734e-06,3.5762787e-07,1.0,580,1.827,1,1,1.804,False,1.045767665764779,0.014532323249474732
1.8490723648574203,16:19:41.134245,16:18:14.300381,0,,0.107901074,-0.0019591749,-0.0046755075,0.4559277,-0.784827,-0.41973364,-0.5226263,-0.6178142,0.58750945,-0.7204107,-0.048498005,-0.69184995,,0.112652004,0.0069719553,0.02065885,0.0026746765,-0.07042811,0.9975131,-0.9757426,0.21817786,0.018020473,-0.21890438,-0.9733645,-0.0681362,,0.057694726,1.3275636,0.43760398,0.9967668,0.079137154,-0.013903399,0.04406195,-0.68306094,-0.7290311,-0.06719031,0.72606134,-0.6843394,,-0.068037234,0.25757903,-0.042770382,-0.4208085,0.7745816,0.47216898,-0.89920235,-0.42491108,-0.104334794,0.11981402,-0.4684804,0.8753118,,-0.06555767,0.4567672,-0.27656397,-0.0016741805,0.20025775,-0.9797418,-0.6389218,-0.7539022,-0.15300468,-0.7692699,0.6257222,0.1292112,,1.0773752950844386,0.22723369209118197,0.19845811013000003,-1.2549943117548783,0.2418466045848296,0.2883704205929766,0.872093969090917,,-1.4452245073495005,0.10577827217825311,0.22624278999000003,0.021598064178906008,-0.21533912363033417,-0.8038968355400622,-0.14374277819816583,,0.0250542014123786,0.03150755632162763,0.0839748988,-0.11775085106328897,,1.3239682e-05,-7.748604e-07,-1.9073486e-06,0.99999994,-3.91528e-06,-4.146248e-06,3.91528e-06,1.0,-4.172325e-07,4.1499734e-06,3.5762787e-07,1.0,594,1.872,1,1,1.849,False,1.0461847097944261,0.015063405458049406
1.8780653269495815,16:19:41.175701,16:18:14.444640,0,,0.10789908,-0.0019610077,-0.0046767294,0.4559255,-0.7848232,-0.41974318,-0.5226313,-0.61782014,0.5874987,-0.72040844,-0.048484713,-0.69185317,,0.1126582,0.0068878233,0.020920038,0.0025789142,-0.06972178,0.99756306,-0.9757372,0.21822226,0.017774507,-0.21892959,-0.9734053,-0.06746741,,0.057694726,1.3275636,0.43760398,0.9967668,0.079137154,-0.013903399,0.04406195,-0.68306094,-0.7290311,-0.06719031,0.72606134,-0.6843394,,-0.06803519,0.25757697,-0.042771045,-0.42080653,0.7745769,0.4721785,-0.89920396,-0.42490533,-0.104344085,0.11980865,-0.46849346,0.87530553,,-0.06559952,0.4569591,-0.27675566,-0.0015758718,0.19956395,-0.97988355,-0.63893193,-0.75398964,-0.15253066,-0.76926166,0.6258385,0.12869596,,1.0773752950844386,0.2272105238925593,0.19845811013000003,-1.2549943117548783,0.2418466045848296,0.2883704205929766,0.872093969090917,,-1.4460508397670426,0.10585549950699535,0.22603667988000004,0.021598064178906008,-0.2154757601300996,-0.8037854176363657,-0.14406946633043427,,0.0250542014123786,0.03150755632162763,0.0839748988,-0.11775085106328897,,1.3239682e-05,-7.748604e-07,-1.9073486e-06,0.99999994,-3.91528e-06,-4.146248e-06,3.91528e-06,1.0,-4.172325e-07,4.1499734e-06,3.5762787e-07,1.0,617,1.945,1,1,1.922,False,1.0464825983870312,0.014870284654931343
1.919531092979014,16:19:41.250291,16:18:14.444640,0,,0.10789353,-0.0019633174,-0.0046796203,0.4560953,-0.78477323,-0.41965196,-0.5225504,-0.6178685,0.5875197,-0.7203596,-0.048675686,-0.6918906,,0.11260141,0.0068541765,0.02098608,0.0022687316,-0.0697968,0.99755853,-0.9756788,0.21850508,0.017507263,-0.21919337,-0.9733366,-0.06760357,,0.057694726,1.3275636,0.43760398,0.9967668,0.079137154,-0.013903399,0.04406195,-0.68306094,-0.7290311,-0.06719031,0.72606134,-0.6843394,,-0.06802952,0.25757346,-0.04277114,-0.42097744,0.77453786,0.47209015,-0.8991191,-0.42508087,-0.10436068,0.11984519,-0.46839875,0.8753512,,-0.06555258,0.45700788,-0.27681997,-0.0012330172,0.19963735,-0.97986907,-0.6391071,-0.75379217,-0.1527725,-0.76911676,0.626053,0.12851909,,1.077383017817313,0.22718735569393664,0.19845940642,-1.2552040016983628,0.2418466045848296,0.2882070631126955,0.8717672809586483,,-1.446066285232791,0.10586322223986958,0.22594334700000002,0.022017444065875056,-0.2154757601300996,-0.8037854176363657,-0.14406946633043427,,0.0250542014123786,0.03150755632162763,0.0839748988,-0.11775085106328897,,1.3239682e-05,-7.748604e-07,-1.9073486e-06,0.99999994,-3.91528e-06,-4.146248e-06,3.91528e-06,1.0,-4.172325e-07,4.1499734e-06,3.5762787e-07,1.0,631,1.991,1,1,1.968,False,1.0461847097944261,0.014580603450254692
1.9941214418504387,16:19:41.296472,16:18:14.444640,0,,0.10789353,-0.0019633174,-0.0046796203,0.4560953,-0.78477323,-0.41965196,-0.5225504,-0.6178685,0.5875197,-0.7203596,-0.048675686,-0.6918906,,0.1125689,0.00684613,0.02098453,0.0017123893,-0.07006832,0.9975406,-0.9756197,0.2188054,0.017043903,-0.21946144,-0.9732495,-0.067985386,,0.057694726,1.3275636,0.43760398,0.9967668,0.079137154,-0.013903399,0.04406195,-0.68306094,-0.7290311,-0.06719031,0.72606134,-0.6843394,,-0.06802952,0.25757346,-0.04277114,-0.42097744,0.77453786,0.47209015,-0.8991191,-0.42508087,-0.10436068,0.11984519,-0.46839875,0.8753512,,-0.06552038,0.45700613,-0.27682912,-0.0006455697,0.19990373,-0.9798153,-0.63926077,-0.75355077,-0.15331963,-0.7689898,0.6262585,0.12827708,,1.077383017817313,0.22718735569393664,0.19845940642,-1.2552040016983628,0.2418466045848296,0.2882070631126955,0.8717672809586483,,-1.4459581669725519,0.10585549950699535,0.22592131007000002,0.02264651389632863,-0.21561239662986503,-0.8037556784728099,-0.14423281039656843,,0.0250542014123786,0.03150755632162763,0.0839748988,-0.11775085106328897,,1.3239682e-05,-7.748604e-07,-1.9073486e-06,0.99999994,-3.91528e-06,-4.146248e-06,3.91528e-06,1.0,-4.172325e-07,4.1499734e-06,3.5762787e-07,1.0,640,2.019,1,1,1.996,False,1.0463634429499895,0.014001241040900947
2.0403030968736857,16:19:41.319124,16:18:14.444640,0,,0.1078935,-0.0019641966,-0.0046819,0.45609745,-0.7847721,-0.41965187,-0.52255726,-0.61787033,0.58751166,-0.7203533,-0.04867044,-0.69189763,,0.112537615,0.006829351,0.021003187,0.0011594445,-0.06960447,0.99757385,-0.97548646,0.219444,0.016445212,-0.2200562,-0.97313905,-0.06764382,,0.057694726,1.3275636,0.43760398,0.9967668,0.079137154,-0.013903399,0.04406195,-0.68306094,-0.7290311,-0.06719031,0.72606134,-0.6843394,,-0.06802937,0.2575712,-0.042770267,-0.4209801,0.7745363,0.47209033,-0.8991191,-0.42507827,-0.10437128,0.119836,-0.46840364,0.8753499,,-0.06549221,0.45701817,-0.27685505,-1.7665465e-05,0.19944741,-0.9799085,-0.6396699,-0.7532087,-0.15329412,-0.76864976,0.62681526,0.1275938,,1.0773752950844386,0.2271796329610624,0.19846070271000002,-1.2552040016983628,0.2418466045848296,0.2882070631126955,0.8717672809586483,,-1.4459195533081808,0.10583233130837268,0.22588242137000003,0.02348527367026673,-0.2154757601300996,-0.8044388475574903,-0.14439615446270293,,0.0250542014123786,0.03150755632162763,0.0839748988,-0.11775085106328897,,1.3239682e-05,-7.748604e-07,-1.9073486e-06,0.99999994,-3.91528e-06,-4.146248e-06,3.91528e-06,1.0,-4.172325e-07,4.1499734e-06,3.5762787e-07,1.0,654,2.064,1,1,2.041,False,1.0463634429499895,0.014001241040900947
2.062952590873465,16:19:41.378718,16:18:14.649644,0,,0.10788903,-0.001966387,-0.004683152,0.45626834,-0.78465545,-0.41968408,-0.5224739,-0.6180118,0.58743715,-0.7203055,-0.04875496,-0.69194126,,0.11249461,0.0068087876,0.021051109,0.0011743829,-0.069197595,0.99760216,-0.9754826,0.21946695,0.016371451,-0.2200734,-0.9731629,-0.06724335,,0.057694726,1.3275636,0.43760398,0.9967668,0.079137154,-0.013903399,0.04406195,-0.68306094,-0.7290311,-0.06719031,0.72606134,-0.6843394,,-0.068024874,0.25756893,-0.04277129,-0.421152,0.77442247,0.47212374,-0.8990333,-0.42523962,-0.10445264,0.11987524,-0.46844542,0.8753221,,-0.06545627,0.45705548,-0.2768984,-3.0175825e-05,0.19904771,-0.9799898,-0.63968486,-0.75326055,-0.15297659,-0.7686373,0.62688005,0.12735055,,1.077383017817313,0.22715646476243972,0.19846070271000002,-1.2554136916418475,0.2418466045848296,0.2882070631126955,0.8717672809586483,,-1.4459195533081808,0.10585549950699535,0.22581501429000003,0.02348527367026673,-0.2154757601300996,-0.8048472412581931,-0.14488618666110575,,0.0250542014123786,0.03150755632162763,0.0839748988,-0.11775085106328897,,1.3239682e-05,-7.748604e-07,-1.9073486e-06,0.99999994,-3.91528e-06,-4.146248e-06,3.91528e-06,1.0,-4.172325e-07,4.1499734e-06,3.5762787e-07,1.0,677,2.138,1,1,2.115,False,1.0463634429499895,0.013856400438562844
2.122545388992876,16:19:41.445756,16:18:14.649644,0,,0.10788658,-0.0019692928,-0.004686743,0.45644572,-0.78454036,-0.41970646,-0.5223991,-0.61815107,0.58735704,-0.7202474,-0.04884228,-0.6919957,,0.112387165,0.0067488104,0.02116853,0.0003155619,-0.06561419,0.99784493,-0.9753574,0.22013474,0.014783628,-0.22063029,-0.97326016,-0.063927874,,0.057694726,1.3275636,0.43760398,0.9967668,0.079137154,-0.013903399,0.04406195,-0.68306094,-0.7290311,-0.06719031,0.72606134,-0.6843394,,-0.06802227,0.2575644,-0.042771168,-0.42133117,0.77431023,0.47214794,-0.89894587,-0.42540154,-0.10454591,0.119901486,-0.4684839,0.8752979,,-0.06536641,0.4571428,-0.27701342,0.00089590787,0.195526,-0.9806981,-0.6400331,-0.75340474,-0.15079424,-0.7683468,0.62781435,0.12446814,,1.0773752950844386,0.22713329656381706,0.19846199900000003,-1.2556233815853317,0.2418466045848296,0.2882070631126955,0.8717672809586483,,-1.4459272760410549,0.10587866770561803,0.22564520030000002,0.02453372338768935,-0.21561239662986503,-0.8086564028812436,-0.1445594985288371,,0.0250542014123786,0.03150755632162763,0.0839748988,-0.11775085106328897,,1.3239682e-05,-7.748604e-07,-1.9073486e-06,0.99999994,-3.91528e-06,-4.146248e-06,3.91528e-06,1.0,-4.172325e-07,4.1499734e-06,3.5762787e-07,1.0,700,2.212,1,1,2.189,False,1.045886821201821,0.013228757828429583
2.1895862128585577,16:19:41.517277,16:18:14.649644,0,,0.10788239,-0.0019688457,-0.004687652,0.45643702,-0.78453505,-0.41972578,-0.5223955,-0.618159,0.58735186,-0.72025555,-0.048826277,-0.69198835,,0.11216742,0.0066141933,0.021390676,-0.0026252046,-0.05382426,0.9985469,-0.9748601,0.2226181,0.009436771,-0.22280243,-0.97341883,-0.053055596,,0.057694726,1.3275636,0.43760398,0.9967668,0.079137154,-0.013903399,0.04406195,-0.68306094,-0.7290311,-0.06719031,0.72606134,-0.6843394,,-0.06801802,0.25756416,-0.042770457,-0.42132193,0.77430385,0.47216666,-0.8989492,-0.4253952,-0.1045433,0.11990914,-0.46850023,0.8752881,,-0.06518067,0.45730007,-0.2772512,0.004102785,0.18392628,-0.9829315,-0.64142895,-0.75360566,-0.14369215,-0.7671715,0.63107026,0.11488376,,1.077390740550187,0.22711785109806862,0.19846329529,-1.2556233815853317,0.2418466045848296,0.2882070631126955,0.8717672809586483,,-1.4459118305753065,0.10584005404124691,0.22530557232000004,0.02830814237041079,-0.21574903312963048,-0.821286868439475,-0.1432527459997629,,0.0250542014123786,0.03150755632162763,0.0839748988,-0.11775085106328897,,1.3239682e-05,-7.748604e-07,-1.9073486e-06,0.99999994,-3.91528e-06,-4.146248e-06,3.91528e-06,1.0,-4.172325e-07,4.1499734e-06,3.5762787e-07,1.0,714,2.257,1,1,2.234,False,1.0465421761055524,0.013904680639341915
2.261099793948233,16:19:41.560770,16:18:14.809765,0,,0.10788502,-0.0019688457,-0.0046895146,0.456622,-0.78442824,-0.41972426,-0.52231497,-0.6182855,0.5872904,-0.7201967,-0.048941433,-0.6920415,,0.11198737,0.006482631,0.021574497,-0.00671098,-0.046499163,0.99889565,-0.9752191,0.22120982,0.0037455484,-0.22113955,-0.97411704,-0.046831433,,0.057694726,1.3275636,0.43760398,0.9967668,0.079137154,-0.013903399,0.04406195,-0.68306094,-0.7290311,-0.06719031,0.72606134,-0.6843394,,-0.06802053,0.2575627,-0.04276907,-0.4215086,0.7742019,0.4721672,-0.8988576,-0.42556885,-0.10462394,0.1199396,-0.468511,0.87527823,,-0.0650293,0.4574208,-0.27746576,0.007931036,0.17671435,-0.9842302,-0.63970894,-0.755607,-0.14082086,-0.7685763,0.6307377,0.107053,,1.0773752950844386,0.22712557383094284,0.19846459158000002,-1.2558330715288164,0.2418466045848296,0.2882070631126955,0.8717672809586483,,-1.4459118305753065,0.10587866770561803,0.22502557368000004,0.030405041805256033,-0.21971149162282821,-0.8290823791512547,-0.14210933753682298,,0.0250542014123786,0.03150755632162763,0.0839748988,-0.11775085106328897,,1.3239682e-05,-7.748604e-07,-1.9073486e-06,0.99999994,-3.91528e-06,-4.146248e-06,3.91528e-06,1.0,-4.172325e-07,4.1499734e-06,3.5762787e-07,1.0,723,2.285,1,1,2.262,False,1.0460059766388632,0.01419436184401901
2.3045866158790886,16:19:41.588776,16:18:14.809765,0,,0.10788506,-0.0019705147,-0.0046907812,0.45662415,-0.784427,-0.41972414,-0.5223218,-0.61828744,0.5872823,-0.7201904,-0.04893619,-0.69204843,,0.11192166,0.006452501,0.021651268,-0.007782832,-0.04238373,0.999071,-0.97499985,0.2221981,0.0018310323,-0.2220692,-0.9740799,-0.043053504,,0.057694726,1.3275636,0.43760398,0.9967668,0.079137154,-0.013903399,0.04406195,-0.68306094,-0.7290311,-0.06719031,0.72606134,-0.6843394,,-0.06802053,0.25756064,-0.042769454,-0.42151126,0.7742004,0.47216737,-0.8988576,-0.4255663,-0.104634546,0.11993042,-0.46851587,0.87527686,,-0.0649748,0.45748156,-0.2775325,0.009118553,0.17265685,-0.9849398,-0.64032227,-0.75553995,-0.13837187,-0.7680522,0.63194066,0.103666596,,1.0773675723515646,0.22711785109806862,0.19846459158000002,-1.2558330715288164,0.2418466045848296,0.2882070631126955,0.8717672809586483,,-1.4459349987739292,0.10592500410286337,0.22492057419000003,0.0318728714096477,-0.21971149162282821,-0.8334930311188449,-0.14537621885950858,,0.0250542014123786,0.03150755632162763,0.0839748988,-0.11775085106328897,,1.3239682e-05,-7.748604e-07,-1.9073486e-06,0.99999994,-3.91528e-06,-4.146248e-06,3.91528e-06,1.0,-4.172325e-07,4.1499734e-06,3.5762787e-07,1.0,737,2.331,1,1,2.308,False,1.046065554357384,0.013711559836224296
2.3326054830104113,16:19:41.645997,16:18:14.809765,0,,0.107880384,-0.0019694865,-0.0046928525,0.45679286,-0.7843115,-0.41975644,-0.52223146,-0.6184268,0.5872159,-0.7201489,-0.049026012,-0.69208527,,0.11166622,0.006216958,0.021885037,-0.0149194375,-0.021340437,0.99966073,-0.9750502,0.22176737,-0.009817898,-0.22148252,-0.97486603,-0.024116695,,0.057694726,1.3275636,0.43760398,0.9967668,0.079137154,-0.013903399,0.04406195,-0.68306094,-0.7290311,-0.06719031,0.72606134,-0.6843394,,-0.06801572,0.25755993,-0.042767573,-0.42168045,0.77408797,0.47220057,-0.89877176,-0.42573014,-0.10470532,0.119978875,-0.4685527,0.8752505,,-0.064757936,0.45760664,-0.2778682,0.016117517,0.1518828,-0.98826706,-0.6391041,-0.75856185,-0.12700339,-0.76895136,0.6336525,0.084842786,,1.077383017817313,0.22710240563232015,0.19846718416000003,-1.2560427614723009,0.2418466045848296,0.2882070631126955,0.8717672809586483,,-1.4459041078424322,0.10569332211663664,0.22452261316000002,0.03711511999676081,-0.22449376911461866,-0.8557306013344501,-0.14439615446270293,,0.0250542014123786,0.03150755632162763,0.0839748988,-0.11775085106328897,,1.3239682e-05,-7.748604e-07,-1.9073486e-06,0.99999994,-3.91528e-06,-4.146248e-06,3.91528e-06,1.0,-4.172325e-07,4.1499734e-06,3.5762787e-07,1.0,751,2.376,1,1,2.353,False,1.04642302066851,0.01414608164323905
2.3897809330374002,16:19:41.681750,16:18:14.809765,0,,0.10788135,-0.0019694716,-0.004694551,0.45679608,-0.78431225,-0.41975155,-0.5222358,-0.6184257,0.5872131,-0.72014374,-0.049027354,-0.6920905,,0.111498766,0.0060375035,0.022026837,-0.0200871,-0.013112225,0.9997121,-0.9755584,0.21910265,-0.016728029,-0.21882012,-0.97561365,-0.0171929,,0.057694726,1.3275636,0.43760398,0.9967668,0.079137154,-0.013903399,0.04406195,-0.68306094,-0.7290311,-0.06719031,0.72606134,-0.6843394,,-0.06801658,0.25755867,-0.04276637,-0.4216841,0.7740888,0.47219598,-0.8987709,-0.42573044,-0.10471127,0.11997237,-0.4685511,0.87525225,,-0.06461501,0.4576671,-0.2781054,0.020886492,0.14374703,-0.989394,-0.63645893,-0.7612714,-0.12403946,-0.77102774,0.6322994,0.07558879,,1.0773752950844386,0.22710240563232015,0.19846848045,-1.2560427614723009,0.2418466045848296,0.2882070631126955,0.8717672809586483,,-1.445857771445187,0.10550025379478102,0.22426465145000002,0.039421709375090576,-0.22968595610570539,-0.8645653194164761,-0.14439615446270282,,0.0250542014123786,0.03150755632162763,0.0839748988,-0.11775085106328897,,1.3239682e-05,-7.748604e-07,-1.9073486e-06,0.99999994,-3.91528e-06,-4.146248e-06,3.91528e-06,1.0,-4.172325e-07,4.1499734e-06,3.5762787e-07,1.0,760,2.404,1,1,2.381,False,1.0466017538240733,0.01414608164323905
2.425542043056339,16:19:41.718266,16:18:14.982708,0,,0.1078825,-0.0019735098,-0.0046977103,0.45680362,-0.7843106,-0.41974643,-0.5222538,-0.6184286,0.5871941,-0.7201259,-0.049018204,-0.69210976,,0.111398235,0.00594382,0.022124112,-0.020599566,-0.00877367,0.9997492,-0.97561353,0.21874109,-0.018182598,-0.21852654,-0.97574353,-0.013065718,,0.057694726,1.3275636,0.43760398,0.9967668,0.079137154,-0.013903399,0.04406195,-0.68306094,-0.7290311,-0.06719031,0.72606134,-0.6843394,,-0.06801761,0.25755358,-0.042767197,-0.42169303,0.77408653,0.47219172,-0.89877003,-0.42572558,-0.10473842,0.1199475,-0.46855924,0.8752513,,-0.06453037,0.45772052,-0.27824077,0.02135551,0.13945232,-0.98999846,-0.63617265,-0.76199037,-0.12105788,-0.77125114,0.6323952,0.07244306,,1.077352126885816,0.2270869601665717,0.19846848045,-1.2560427614723009,0.2418466045848296,0.2882070631126955,0.8717672809586483,,-1.4458423259794384,0.10535352187017076,0.22410131891,0.0396313993185751,-0.2300958656050017,-0.8689684326335394,-0.14308940193362873,,0.0250542014123786,0.03150755632162763,0.0839748988,-0.11775085106328897,,1.3239682e-05,-7.748604e-07,-1.9073486e-06,0.99999994,-3.91528e-06,-4.146248e-06,3.91528e-06,1.0,-4.172325e-07,4.1499734e-06,3.5762787e-07,1.0,774,2.449,1,1,2.426,False,1.0460059766388632,0.013518439033106233
2.462096530944109,16:19:41.758909,16:18:14.982708,0,,0.10787625,-0.0019732565,-0.0046985745,0.4567906,-0.7843027,-0.4197754,-0.5222483,-0.6184405,0.5871864,-0.7201381,-0.048994184,-0.69209874,,0.111276165,0.005789086,0.022242725,-0.022662606,-0.0047973283,0.99973154,-0.97541237,0.21937943,-0.021058597,-0.21921948,-0.9756278,-0.009651128,,0.057694726,1.3275636,0.43760398,0.9967668,0.079137154,-0.013903399,0.04406195,-0.68306094,-0.7290311,-0.06719031,0.72606134,-0.6843394,,-0.068011306,0.2575533,-0.04276676,-0.42167917,0.77407694,0.4722198,-0.898775,-0.42571607,-0.1047345,0.11995899,-0.4685837,0.87523663,,-0.0644288,0.45776722,-0.27844185,0.02349496,0.13551301,-0.99049693,-0.6364846,-0.7619994,-0.1193492,-0.7709315,0.63324016,0.068348795,,1.0773752950844386,0.22706379196794904,0.19846977674000002,-1.2560427614723009,0.2418466045848296,0.2882070631126955,0.8717672809586483,,-1.445865494178061,0.10499827615795643,0.22388743106000003,0.04172829875342035,-0.23050577510429804,-0.8733715458506027,-0.1440694663304345,,0.0250542014123786,0.03150755632162763,0.0839748988,-0.11775085106328897,,1.3239682e-05,-7.748604e-07,-1.9073486e-06,0.99999994,-3.91528e-06,-4.146248e-06,3.91528e-06,1.0,-4.172325e-07,4.1499734e-06,3.5762787e-07,1.0,797,2.523,1,1,2.5,False,1.0461251320759053,0.01448404304869566
2.50273256492801,16:19:41.830792,16:18:14.982708,0,,0.10787545,-0.001973644,-0.004698783,0.4571453,-0.7840135,-0.4199294,-0.5220749,-0.6187992,0.58696276,-0.72003883,-0.04909268,-0.69219506,,0.111131914,0.005591154,0.02239716,-0.027160514,0.0039174557,0.99962324,-0.9759235,0.2163899,-0.027364578,-0.21641544,-0.97629917,-0.0020541511,,0.057694726,1.3275636,0.43760398,0.9967668,0.079137154,-0.013903399,0.04406195,-0.68306094,-0.7290311,-0.06719031,0.72606134,-0.6843394,,-0.06801051,0.25755292,-0.042766944,-0.42203596,0.7737877,0.47237512,-0.89859664,-0.42603922,-0.10495088,0.12004063,-0.46876773,0.8751269,,-0.06431099,0.45782802,-0.27869922,0.027581751,0.12687612,-0.991535,-0.6337834,-0.764839,-0.11549835,-0.77301866,0.6316041,0.059316378,,1.0773752950844386,0.22706379196794904,0.19846977674000002,-1.25646214135927,0.2418466045848296,0.2883704205929766,0.872093969090917,,-1.4459427215068035,0.10471253504161013,0.22362817306000002,0.04340581830129654,-0.23528805259608845,-0.8824588389035775,-0.14308940193362862,,0.0250542014123786,0.03150755632162763,0.0839748988,-0.11775085106328897,,1.3239682e-05,-7.748604e-07,-1.9073486e-06,0.99999994,-3.91528e-06,-4.146248e-06,3.91528e-06,1.0,-4.172325e-07,4.1499734e-06,3.5762787e-07,1.0,811,2.568,1,1,2.545,False,1.046065554357384,0.013663279635444336
2.574610065901652,16:19:41.869989,16:18:15.114321,0,,0.10796528,-0.002036348,-0.0046933293,0.4572006,-0.7839019,-0.42007756,-0.5220331,-0.61894715,0.5868439,-0.720034,-0.04901102,-0.69220585,,0.11108894,0.0055397116,0.02243197,-0.027625747,0.0070332177,0.9995935,-0.9760945,0.21547115,-0.028492361,-0.21558383,-0.9764849,0.00091250613,,0.057687905,1.3275638,0.43760687,0.9967654,0.07915878,-0.013880315,0.044093512,-0.68305844,-0.7290315,-0.06719031,0.72606134,-0.6843394,,-0.06809928,0.25750905,-0.042811263,-0.42207396,0.7736885,0.4725036,-0.8985762,-0.4260639,-0.1050254,0.12005978,-0.468909,0.8750486,,-0.064270794,0.45783746,-0.27876282,0.027963473,0.12378752,-0.9919147,-0.6330768,-0.7657364,-0.11340859,-0.77358377,0.63112944,0.056954358,,1.0773752950844386,0.2270483465022006,0.19847236932,-1.25646214135927,0.2418466045848296,0.28845209933311716,0.8719306250247827,,-1.4459427215068035,0.10457352584987409,0.22356076598000002,0.043196128357812016,-0.23610787159468108,-0.8855475535278647,-0.14390612226429988,,0.0250542014123786,0.03150755632162763,0.0839748988,-0.11775085106328897,,6.251037e-06,7.1525574e-07,-3.8146973e-06,0.99999994,1.7758459e-05,1.8842518e-05,-1.7758459e-05,1.0,1.6987324e-06,-1.8838793e-05,-1.758337e-06,1.0,820,2.597,1,1,2.574,False,1.0465421761055524,0.014773724253372311
2.6138178990222514,16:19:41.902331,16:18:15.114321,0,,0.10795614,-0.0020301044,-0.004695922,0.45735633,-0.78374904,-0.42019325,-0.5219254,-0.6191385,0.586738,-0.7200133,-0.049038857,-0.6922254,,0.11107265,0.005511638,0.022461116,-0.028536182,0.009440798,0.9995481,-0.9759593,0.21589214,-0.029901844,-0.21607679,-0.97637165,0.0030530673,,0.057687905,1.3275638,0.43760687,0.9967654,0.07915878,-0.013880315,0.044093512,-0.68305844,-0.7290315,-0.06719031,0.72606134,-0.6843394,,-0.06808988,0.25751162,-0.042805377,-0.42222857,0.7735341,0.47261825,-0.89849365,-0.42621788,-0.105107225,0.120134324,-0.46902376,0.8749768,,-0.06425915,0.45785204,-0.27880222,0.028932827,0.12139776,-0.9921822,-0.6333587,-0.765688,-0.11215447,-0.7733173,0.6316522,0.054734815,,1.077421631481684,0.22703290103645213,0.19847885077000002,-1.2566718313027545,0.2418466045848296,0.28853377807325775,0.8717672809586484,,-1.445996780636923,0.10451946671975451,0.22352058099000002,0.04424457807523464,-0.23624450809444655,-0.8882132127889474,-0.14308940193362862,,0.0250542014123786,0.03150755632162763,0.0839748988,-0.11775085106328897,,6.251037e-06,7.1525574e-07,-3.8146973e-06,0.99999994,1.7758459e-05,1.8842518e-05,-1.7758459e-05,1.0,1.6987324e-06,-1.8838793e-05,-1.758337e-06,1.0,834,2.642,1,1,2.619,False,1.0463634429499895,0.013952960840121875
2.646162347868085,16:19:41.950113,16:18:15.114321,0,,0.10795165,-0.0020257235,-0.0046987534,0.45734546,-0.78374493,-0.4202126,-0.52191484,-0.61914444,0.586741,-0.7200277,-0.04902813,-0.69221115,,0.11105795,0.0054527186,0.022467792,-0.030495577,0.02175375,0.99929804,-0.975652,0.21659598,-0.034489032,-0.2171942,-0.97601897,0.014618842,,0.057687905,1.3275638,0.43760687,0.9967654,0.07915878,-0.013880315,0.044093512,-0.68305844,-0.7290315,-0.06719031,0.72606134,-0.6843394,,-0.06808514,0.25751263,-0.042800497,-0.42221668,0.7735293,0.4726368,-0.8984969,-0.42621413,-0.10509401,0.12015118,-0.46903515,0.8749684,,-0.064247064,0.45783257,-0.27885884,0.031026699,0.10916492,-0.99353933,-0.634008,-0.76630193,-0.10399636,-0.7727038,0.63313854,0.04543562,,1.0774447996803067,0.2270251783035779,0.19848403593000002,-1.2566718313027545,0.2418466045848296,0.28853377807325775,0.8717672809586484,,-1.4460199488355456,0.10429550746640201,0.22348558116000003,0.046551167453564406,-0.23638114459421197,-0.9009253570873194,-0.14406946633043427,,0.0250542014123786,0.03150755632162763,0.0839748988,-0.11775085106328897,,6.251037e-06,7.1525574e-07,-3.8146973e-06,0.99999994,1.7758459e-05,1.8842518e-05,-1.7758459e-05,1.0,1.6987324e-06,-1.8838793e-05,-1.758337e-06,1.0,848,2.687,1,1,2.664,False,1.0460059766388632,0.013904680639341915
2.6938848989084363,16:19:41.999529,16:18:15.114321,0,,0.10794838,-0.0020261407,-0.004703656,0.45734218,-0.7837392,-0.42022693,-0.5219224,-0.6191533,0.5867249,-0.7200244,-0.04900819,-0.69221604,,0.111040376,0.0053452067,0.022473693,-0.033433832,0.03038327,0.9989789,-0.9756342,0.21587,-0.039218046,-0.21684104,-0.9759493,0.02242557,,0.057687905,1.3275638,0.43760687,0.9967654,0.07915878,-0.013880315,0.044093512,-0.68305844,-0.7290315,-0.06719031,0.72606134,-0.6843394,,-0.06808159,0.2575088,-0.042797707,-0.42221373,0.77352214,0.47265106,-0.8984994,-0.4262055,-0.10510795,0.12014315,-0.46905473,0.874959,,-0.06423336,0.45779052,-0.2789586,0.033895086,0.100580536,-0.9943514,-0.6333902,-0.7674453,-0.09921933,-0.7730899,0.6331755,0.037694104,,1.0774447996803067,0.22700201010495524,0.19848792480000002,-1.2566718313027545,0.2418466045848296,0.28853377807325775,0.8717672809586484,,-1.4460585624999167,0.10393253902131346,0.22343502585000002,0.048648066888409655,-0.2381574190911627,-0.9100134818173983,-0.1432527459997628,,0.0250542014123786,0.03150755632162763,0.0839748988,-0.11775085106328897,,6.251037e-06,7.1525574e-07,-3.8146973e-06,0.99999994,1.7758459e-05,1.8842518e-05,-1.7758459e-05,1.0,1.6987324e-06,-1.8838793e-05,-1.758337e-06,1.0,857,2.716,1,1,2.693,False,1.0460059766388632,0.01419436184401901
2.7433604360558093,16:19:42.031930,16:18:15.283512,0,,0.10794685,-0.0020248294,-0.0047041476,0.45751622,-0.78362817,-0.42024466,-0.5218312,-0.6192856,0.58666635,-0.7199799,-0.049112618,-0.6922549,,0.111015335,0.0052531473,0.022476912,-0.03482786,0.03269452,0.9988583,-0.9758832,0.21440005,-0.04104447,-0.21549717,-0.9761987,0.024438893,,0.057687905,1.3275638,0.43760687,0.9967654,0.07915878,-0.013880315,0.044093512,-0.68305844,-0.7290315,-0.06719031,0.72606134,-0.6843394,,-0.06808,0.25750938,-0.042796485,-0.42238843,0.7734152,0.47267005,-0.898411,-0.42637527,-0.10517545,0.12019052,-0.46907684,0.87494063,,-0.06421149,0.45775387,-0.27904397,0.035098497,0.09828037,-0.9945396,-0.63217443,-0.76857036,-0.09826029,-0.7740307,0.63217133,0.035154674,,1.077452522413181,0.22700201010495524,0.19848922109000003,-1.256881521246239,0.2418466045848296,0.28853377807325775,0.8717672809586484,,-1.446035394301294,0.1036313524392187,0.22338706312000003,0.048857756831894174,-0.239797057088348,-0.9124336890195073,-0.14292605786749446,,0.0250542014123786,0.03150755632162763,0.0839748988,-0.11775085106328897,,6.251037e-06,7.1525574e-07,-3.8146973e-06,0.99999994,1.7758459e-05,1.8842518e-05,-1.7758459e-05,1.0,1.6987324e-06,-1.8838793e-05,-1.758337e-06,1.0,871,2.761,1,1,2.738,False,1.045886821201821,0.014580603450254692
2.7757524959743023,16:19:42.064598,16:18:15.283512,0,,0.107947946,-0.0020271987,-0.00470604,0.4575216,-0.7836276,-0.4202397,-0.52184236,-0.61928654,0.58665544,-0.7199683,-0.049108714,-0.6922672,,0.11097936,0.0051332526,0.022499263,-0.03560744,0.03277594,0.9988281,-0.9759886,0.21377176,-0.041807994,-0.2148915,-0.9763337,0.024377037,,0.057687905,1.3275638,0.43760687,0.9967654,0.07915878,-0.013880315,0.044093512,-0.68305844,-0.7290315,-0.06719031,0.72606134,-0.6843394,,-0.06808103,0.25750634,-0.042796925,-0.42239472,0.77341443,0.4726656,-0.8984101,-0.42637298,-0.105192,0.12017484,-0.46908012,0.87494105,,-0.06418199,0.4577226,-0.27916366,0.035791058,0.09819955,-0.9945229,-0.6316081,-0.7689846,-0.09866023,-0.7744612,0.63167995,0.034500863,,1.0774370769474324,0.22699428737208102,0.19848922109000003,-1.256881521246239,0.2418466045848296,0.28853377807325775,0.8717672809586484,,-1.4460431170341683,0.10320660213113635,0.22330669314,0.0490674467753787,-0.24034360308740974,-0.9125597685857054,-0.14276271380136007,,0.0250542014123786,0.03150755632162763,0.0839748988,-0.11775085106328897,,6.251037e-06,7.1525574e-07,-3.8146973e-06,0.99999994,1.7758459e-05,1.8842518e-05,-1.7758459e-05,1.0,1.6987324e-06,-1.8838793e-05,-1.758337e-06,1.0,880,2.789,1,1,2.766,False,1.046065554357384,0.014580603450254692
2.8084268409293145,16:19:42.095711,16:18:15.283512,0,,0.107947856,-0.0020264685,-0.004707098,0.4575216,-0.7836276,-0.4202397,-0.52184236,-0.61928654,0.58665544,-0.7199683,-0.049108714,-0.6922672,,0.11095634,0.0050529204,0.022510052,-0.036026187,0.034052327,0.9987704,-0.9758754,0.21415171,-0.042501673,-0.21533555,-0.9762068,0.025515717,,0.057687905,1.3275638,0.43760687,0.9967654,0.07915878,-0.013880315,0.044093512,-0.68305844,-0.7290315,-0.06719031,0.72606134,-0.6843394,,-0.068080865,0.25750607,-0.042795666,-0.42239472,0.77341443,0.4726656,-0.8984101,-0.42637298,-0.105192,0.12017484,-0.46908012,0.87494105,,-0.06416277,0.4576978,-0.27924186,0.036266107,0.09692839,-0.9946304,-0.6319067,-0.7688283,-0.097964115,-0.7741955,0.6320664,0.03336729,,1.0774370769474324,0.22699428737208102,0.19849051738,-1.256881521246239,0.2418466045848296,0.28853377807325775,0.8717672809586484,,-1.4460431170341683,0.10288224735041891,0.22325484154000003,0.04969651660583227,-0.23993369358811342,-0.9139558459186219,-0.1432527459997628,,0.0250542014123786,0.03150755632162763,0.0839748988,-0.11775085106328897,,6.251037e-06,7.1525574e-07,-3.8146973e-06,0.99999994,1.7758459e-05,1.8842518e-05,-1.7758459e-05,1.0,1.6987324e-06,-1.8838793e-05,-1.758337e-06,1.0,894,2.834,1,1,2.811,False,1.0458272434832998,0.014097801442459978
2.8395393239334226,16:19:42.138320,16:18:15.283512,0,,0.10794471,-0.0020242333,-0.004705146,0.45751187,-0.7836255,-0.4202543,-0.5218294,-0.61928964,0.5866638,-0.719984,-0.04910466,-0.6922512,,0.110921085,0.004985865,0.022530675,-0.0364007,0.037158422,0.9986461,-0.97582215,0.21418595,-0.043538347,-0.21551374,-0.9760859,0.028463464,,0.057687905,1.3275638,0.43760687,0.9967654,0.07915878,-0.013880315,0.044093512,-0.68305844,-0.7290315,-0.06719031,0.72606134,-0.6843394,,-0.068077795,0.2575091,-0.042795498,-0.42238382,0.773412,0.47267938,-0.89841264,-0.4263721,-0.10517414,0.12019436,-0.46908498,0.87493575,,-0.06413231,0.45768905,-0.27931368,0.036661636,0.09383447,-0.99491256,-0.632002,-0.7690204,-0.09581831,-0.7740991,0.6322996,0.031110026,,1.077460245146055,0.22699428737208102,0.19849051738,-1.256881521246239,0.2418466045848296,0.28853377807325775,0.8717672809586484,,-1.4460199488355456,0.10265056536419219,0.22319391591,0.05011589649280132,-0.239797057088348,-0.9171710559476598,-0.1425993697352257,,0.0250542014123786,0.03150755632162763,0.0839748988,-0.11775085106328897,,6.251037e-06,7.1525574e-07,-3.8146973e-06,0.99999994,1.7758459e-05,1.8842518e-05,-1.7758459e-05,1.0,1.6987324e-06,-1.8838793e-05,-1.758337e-06,1.0,908,2.879,1,1,2.856,False,1.0464825983870312,0.014580603450254692
2.8821341160219163,16:19:42.184538,16:18:15.442314,0,,0.1079416,-0.002023667,-0.0047044307,0.45750427,-0.7836221,-0.42026877,-0.52182317,-0.61929464,0.586664,-0.7199933,-0.049095243,-0.69224226,,0.110859714,0.0049314015,0.02256751,-0.038753852,0.0375091,0.9985444,-0.9759389,0.21316192,-0.045883678,-0.21457261,-0.97629666,0.028345704,,0.057687905,1.3275638,0.43760687,0.9967654,0.07915878,-0.013880315,0.044093512,-0.68305844,-0.7290315,-0.06719031,0.72606134,-0.6843394,,-0.068074726,0.25751013,-0.042795718,-0.42237556,0.773408,0.47269332,-0.8984151,-0.42636862,-0.105166875,0.12020471,-0.46909475,0.87492913,,-0.064077675,0.45770296,-0.27938375,0.038871083,0.09348543,-0.99486154,-0.63098496,-0.76970935,-0.09698202,-0.7748206,0.63151246,0.029068464,,1.0774756906118035,0.2269865646392068,0.19849051738,-1.256881521246239,0.2418466045848296,0.28853377807325775,0.8717672809586484,,-1.4459581669725519,0.10261195169982106,0.22311484222000003,0.05137403615370847,-0.24198324108459504,-0.9179204104328745,-0.14276271380136007,,0.0250542014123786,0.03150755632162763,0.0839748988,-0.11775085106328897,,6.251037e-06,7.1525574e-07,-3.8146973e-06,0.99999994,1.7758459e-05,1.8842518e-05,-1.7758459e-05,1.0,1.6987324e-06,-1.8838793e-05,-1.758337e-06,1.0,917,2.908,1,1,2.885,False,1.0465421761055524,0.014532323249474732
2.9283681958913803,16:19:42.215053,16:18:15.442314,0,,0.10794382,-0.0020243227,-0.0047055036,0.4577105,-0.7835197,-0.42023537,-0.5218391,-0.6194191,0.58651847,-0.71985066,-0.04916045,-0.69238585,,0.11081509,0.0049125366,0.022592187,-0.038596254,0.03829359,0.9985208,-0.975976,0.21298966,-0.045893025,-0.21443188,-0.97630376,0.029153002,,0.057687905,1.3275638,0.43760687,0.9967654,0.07915878,-0.013880315,0.044093512,-0.68305844,-0.7290315,-0.06719031,0.72606134,-0.6843394,,-0.06807689,0.2575088,-0.042795386,-0.42259035,0.7733074,0.472666,-0.89832693,-0.4265038,-0.105372,0.120108895,-0.46913776,0.8749192,,-0.06403711,0.45772067,-0.2794153,0.038695827,0.09270383,-0.99494153,-0.63089347,-0.7698737,-0.09627016,-0.7749039,0.63142735,0.028695343,,1.0774679678789294,0.22699428737208102,0.19849051738,-1.2570912111897234,0.24170996808506415,0.28856351723681356,0.8716039368925141,,-1.4458809396438097,0.10260422896694683,0.22306299062,0.05116434621022394,-0.24198324108459504,-0.9187371978342801,-0.1430894019336284,,0.0250542014123786,0.03150755632162763,0.0839748988,-0.11775085106328897,,6.251037e-06,7.1525574e-07,-3.8146973e-06,0.99999994,1.7758459e-05,1.8842518e-05,-1.7758459e-05,1.0,1.6987324e-06,-1.8838793e-05,-1.758337e-06,1.0,931,2.953,1,1,2.93,False,1.0463038652314682,0.014822004454151827
2.958882121834904,16:19:42.263527,16:18:15.442314,0,,0.10795709,-0.0020283759,-0.004699543,0.45791563,-0.78323436,-0.42054376,-0.52262604,-0.61985075,0.5853606,-0.719149,-0.048258692,-0.693178,,0.110748574,0.0048755966,0.022633374,-0.03941115,0.038123593,0.9984954,-0.97588634,0.2132341,-0.046660233,-0.21469206,-0.9762571,0.02880046,,0.057687905,1.3275638,0.43760687,0.9967654,0.07915878,-0.013880315,0.044093512,-0.68305844,-0.7290315,-0.06719031,0.72606134,-0.6843394,,-0.068090566,0.25751007,-0.042801637,-0.4228527,0.7729594,0.47300044,-0.89834213,-0.42613503,-0.1067257,0.119067416,-0.47004545,0.8745743,,-0.06397745,0.45774698,-0.2794722,0.039539453,0.09287314,-0.99489254,-0.63100004,-0.7697036,-0.09692925,-0.77477455,0.63160974,0.028169295,,1.0774679678789294,0.22705606923507482,0.19848014706000003,-1.2570912111897234,0.24061687608694063,0.28961821794666615,0.8719306250247827,,-1.4457959895821932,0.10257333803544993,0.22298002806000003,0.05200310598416204,-0.2422565140841259,-0.9188410769874494,-0.14276271380136007,,0.0250542014123786,0.03150755632162763,0.0839748988,-0.11775085106328897,,6.251037e-06,7.1525574e-07,-3.8146973e-06,0.99999994,1.7758459e-05,1.8842518e-05,-1.7758459e-05,1.0,1.6987324e-06,-1.8838793e-05,-1.758337e-06,1.0,945,2.998,1,1,2.975,False,1.046244287512947,0.014580603450254692
3.007350631058216,16:19:42.316369,16:18:15.586635,0,,0.10798222,-0.002020955,-0.00466384,0.45835957,-0.78269416,-0.42106545,-0.5243987,-0.6206767,0.5828948,-0.71757394,-0.046369225,-0.694937,,0.11061084,0.004803505,0.022742927,-0.04046453,0.038309444,0.99844617,-0.9758502,0.21316281,-0.047727615,-0.21465999,-0.9762653,0.028758716,,0.057687905,1.3275638,0.43760687,0.9967654,0.07915878,-0.013880315,0.044093512,-0.68305844,-0.7290315,-0.06719031,0.72606134,-0.6843394,,-0.068117686,0.25754067,-0.042818643,-0.42342514,0.77228945,0.47358227,-0.89838,-0.42530775,-0.10966626,0.11672411,-0.4718923,0.8738954,,-0.06385689,0.45782492,-0.27959695,0.040580682,0.09268799,-0.9948679,-0.6308485,-0.7697623,-0.097448096,-0.77484405,0.63156545,0.0272346,,1.077591531604917,0.22728002848842732,0.19844903610000003,-1.2570912111897234,0.23802078259139725,0.29181683685703863,0.8720939690909169,,-1.4456801485890798,0.10257333803544993,0.22279336230000002,0.05284186575810013,-0.2429396965829531,-0.9193458110907947,-0.1425993697352257,,0.0250542014123786,0.03150755632162763,0.0839748988,-0.11775085106328897,,6.251037e-06,7.1525574e-07,-3.8146973e-06,0.99999994,1.7758459e-05,1.8842518e-05,-1.7758459e-05,1.0,1.6987324e-06,-1.8838793e-05,-1.758337e-06,1.0,954,3.027,1,1,3.004,False,1.0463634429499895,0.014049521241680019
3.0601445748470724,16:19:42.342927,16:18:15.586635,0,,0.108000144,-0.0020002425,-0.004612416,0.45852545,-0.78266776,-0.42093384,-0.524174,-0.6206838,0.5830895,-0.71763223,-0.046718776,-0.6948534,,0.11050927,0.0047448687,0.022815228,-0.04155697,0.041147422,0.9982884,-0.9759587,0.21228889,-0.049377523,-0.21395728,-0.9763403,0.031336077,,0.057687905,1.3275638,0.43760687,0.9967654,0.07915878,-0.013880315,0.044093512,-0.68305844,-0.7290315,-0.06719031,0.72606134,-0.6843394,,-0.06813833,0.25759208,-0.042836726,-0.4235829,0.7722843,0.47344947,-0.8982777,-0.42557222,-0.109478064,0.11693874,-0.47166213,0.87399095,,-0.06376705,0.45787236,-0.27969,0.04157093,0.08985979,-0.9950865,-0.63016605,-0.7705146,-0.09590611,-0.77534676,0.6310566,0.024595581,,1.077699649865156,0.2275194332075283,0.19841922143000001,-1.2573009011332081,0.23802078259139725,0.2917351581168981,0.8722573131570511,,-1.4455720303288406,0.10256561530257571,0.22266114072,0.053261245645069184,-0.24416942508084208,-0.922426986964555,-0.1432527459997628,,0.0250542014123786,0.03150755632162763,0.0839748988,-0.11775085106328897,,6.251037e-06,7.1525574e-07,-3.8146973e-06,0.99999994,1.7758459e-05,1.8842518e-05,-1.7758459e-05,1.0,1.6987324e-06,-1.8838793e-05,-1.758337e-06,1.0,968,3.072,1,1,3.049,False,1.0463038652314682,0.014097801442459978
3.0867172610014677,16:19:42.382956,16:18:15.586635,0,,0.10805303,-0.0019833744,-0.00454545,0.45595977,-0.78387946,-0.42146578,-0.5282249,-0.6194805,0.5807084,-0.7162954,-0.042150974,-0.69652295,,0.11034866,0.004647594,0.022964597,-0.04299123,0.04117019,0.99822664,-0.9762062,0.21082485,-0.050737966,-0.21253982,-0.9766565,0.031126942,,0.057687905,1.3275638,0.43760687,0.9967654,0.07915878,-0.013880315,0.044093512,-0.68305844,-0.7290315,-0.06719031,0.72606134,-0.6843394,,-0.06819488,0.25765127,-0.042866144,-0.4211801,0.7732371,0.47403765,-0.89992255,-0.42134213,-0.11229508,0.11290131,-0.4738936,0.87331444,,-0.0636296,0.45797628,-0.27985695,0.042804874,0.08983717,-0.9950362,-0.6288806,-0.77146435,-0.096705355,-0.77632266,0.6298984,0.023474423,,1.0778772727212633,0.22791329258411372,0.19836477725,-1.2535264821504866,0.23433159709773038,0.29490679899698263,0.8716039368925141,,-1.4455025257329726,0.10259650623407261,0.22242651223,0.05347093558855372,-0.24621897257732367,-0.9226343294323417,-0.14341609006589717,,0.0250542014123786,0.03150755632162763,0.0839748988,-0.11775085106328897,,6.251037e-06,7.1525574e-07,-3.8146973e-06,0.99999994,1.7758459e-05,1.8842518e-05,-1.7758459e-05,1.0,1.6987324e-06,-1.8838793e-05,-1.758337e-06,1.0,982,3.117,1,1,3.094,False,1.0464825983870312,0.013759840037003368
3.126785916974768,16:19:42.424154,16:18:15.586635,0,,0.10809571,-0.0019547045,-0.004449904,0.45555702,-0.7840612,-0.42156312,-0.5288435,-0.6192986,0.5803393,-0.71609515,-0.04143673,-0.6967716,,0.11013298,0.0045225285,0.023162067,-0.045520276,0.039623093,0.9981772,-0.9762107,0.21028051,-0.0528657,-0.2119919,-0.97683775,0.029108431,,0.057687905,1.3275638,0.43760687,0.9967654,0.07915878,-0.013880315,0.044093512,-0.68305844,-0.7290315,-0.06719031,0.72606134,-0.6843394,,-0.06824278,0.25773987,-0.042906493,-0.42080203,0.7733783,0.47414306,-0.9001763,-0.42068517,-0.112723835,0.11228679,-0.47424677,0.87320197,,-0.063444465,0.4581157,-0.2800748,0.04524205,0.09137911,-0.99478793,-0.6281421,-0.7717163,-0.09945556,-0.7767822,0.62936777,0.022485046,,1.0780548955773703,0.22836121109081875,0.19830125904,-1.252897412320033,0.23351177809913773,0.2957386638994422,0.8719306250247827,,-1.445409852938482,0.10262739716556951,0.22211410634000003,0.0551484551364299,-0.2482685200738053,-0.9216164907980198,-0.14341609006589695,,0.0250542014123786,0.03150755632162763,0.0839748988,-0.11775085106328897,,6.251037e-06,7.1525574e-07,-3.8146973e-06,0.99999994,1.7758459e-05,1.8842518e-05,-1.7758459e-05,1.0,1.6987324e-06,-1.8838793e-05,-1.758337e-06,1.0,991,3.146,1,1,3.123,False,1.0460059766388632,0.014001241040900947
