AlexandreBanks6/ExpertPlaybackApp/resources/Motions/P_15/PC1/Data_PC1_5.csv
Task Time,PC1 Time,PC2 Time,Gaze Calib,s_T_psm1,Tx,Ty,Tz,R00,R01,R02,R10,R11,R12,R20,R21,R22,s_T_psm3,Tx,Ty,Tz,R00,R01,R02,R10,R11,R12,R20,R21,R22,cart_T_ecm,Tx,Ty,Tz,R00,R01,R02,R10,R11,R12,R20,R21,R22,ecm_T_psm1,Tx,Ty,Tz,R00,R01,R02,R10,R11,R12,R20,R21,R22,ecm_T_psm3,Tx,Ty,Tz,R00,R01,R02,R10,R11,R12,R20,R21,R22,psm1_joints,q1,q2,q3,q4,q5,q6,jaw,psm3_joints,q1,q2,q3,q4,q5,q6,jaw,ecm_joints,q1,q2,q3,q4,ecmi_T_ecm,Tx,Ty,Tz,R00,R01,R02,R10,R11,R12,R20,R21,R22,Sample #,Task Duration (s),Collisions (binary),Collisions (increments),Cumulative Collision Time (s),Clutch Press,MTMR Angle,MTML Angle
""
lci_T_si,,,,,-0.05766083,0.03526975,0.2335049,0.9953268,-0.002053924,0.096541636,0.06970595,-0.67659324,-0.7330502,0.06682505,0.7363541,-0.6732882
rci_T_si,,,,,-0.06745086,0.03979552,0.24508704,0.9940752,-0.017281396,0.107311875,0.06819309,-0.66964835,-0.73954093,0.08464152,0.74247724,-0.6645024
ecm_T_lc,,,,,-4.4061628e-05,-0.00034663224,-0.01840835,-0.99912,0.030754527,0.028518902,-0.031987965,-0.99852574,-0.043852776,0.027128186,-0.04472645,0.9986309
ecm_T_rc,,,,,-0.0043358393,0.01870579,-0.007592615,-0.99555075,-0.052743673,-0.078081585,0.04863213,-0.9973746,0.053654674,-0.08070653,0.04961868,0.9955021
cart_T_ecmi,,,,,0.05759907,1.3275594,0.43761152,0.99674624,0.079171725,-0.015123654,0.043190863,-0.68303543,-0.7291071,-0.06805465,0.72608155,-0.68423253
ecmac_T_ecmrep_psm1,,,,,-0.0025980123,-0.29326126,-0.2805022,0.9974786,0.061531033,0.035360787,-0.060258932,0.9975341,-0.035980776,-0.037487525,0.033759248,0.99872667
ecmac_T_ecmrep_psm3,,,,,-0.0114122145,-0.5209516,-0.5025674,0.9999053,0.010122195,-0.009323479,-0.0077519584,0.9740634,0.22614253,0.011370718,-0.22604884,0.9740496
""
0,16:31:55.439798,16:30:28.712437,0,,NaN,NaN,NaN,NaN,NaN,NaN,NaN,NaN,NaN,NaN,NaN,NaN,,0.116570614,-0.005357418,0.026876688,-0.2635492,-0.92697304,0.2669508,-0.72057676,0.37316328,0.58439565,-0.6413353,-0.038341485,-0.76630217,,0.057572454,1.3275592,0.4376197,0.9967451,0.07918965,-0.015104519,0.043217022,-0.68303335,-0.7291075,-0.06805465,0.72608155,-0.68423253,,NaN,NaN,NaN,NaN,NaN,NaN,NaN,NaN,NaN,NaN,NaN,NaN,,-0.06985392,0.45560983,-0.2912758,0.32988966,0.9327573,-0.1453843,-0.8653633,0.23725118,-0.44142747,-0.37725213,0.27143258,0.88544065,,NaN,NaN,NaN,NaN,NaN,NaN,NaN,,-1.4818457066390731,0.04333225415727372,0.21912875047000002,0.5573558697818658,0.03087984894698954,0.49519480720013076,-0.1504398849096712,,0.0250542014123786,0.03182171558698661,0.08397132691999999,-0.11775085106328897,,-2.7097762e-05,3.8146973e-06,-5.00679e-06,1.0,1.7959625e-05,1.905486e-05,-1.79559e-05,1.0,1.7881393e-06,-1.905486e-05,-1.8179417e-06,1.0,43,0.129,0,0,0.0,False,1.042252580372038,0.014822004454151827
0.12198730581440032,16:31:55.488693,16:30:28.712437,0,,NaN,NaN,NaN,NaN,NaN,NaN,NaN,NaN,NaN,NaN,NaN,NaN,,0.116212696,-0.0055886246,0.027534366,-0.26296344,-0.92619306,0.27021557,-0.7175523,0.37496987,0.58695525,-0.6449566,-0.039546013,-0.76319534,,0.057572454,1.3275592,0.4376197,0.9967451,0.07918965,-0.015104519,0.043217022,-0.68303335,-0.7291075,-0.06805465,0.72608155,-0.68423253,,NaN,NaN,NaN,NaN,NaN,NaN,NaN,NaN,NaN,NaN,NaN,NaN,,-0.069594696,0.45612556,-0.29180577,0.32987857,0.9321945,-0.14897504,-0.86725587,0.23692103,-0.43787634,-0.3728906,0.27364552,0.8866063,,NaN,NaN,NaN,NaN,NaN,NaN,NaN,,-1.482733820919609,0.04337859055451907,0.21837430969000002,0.5602915289906492,0.034159124941360114,0.4938276373536657,-0.1507665730419398,,0.0250542014123786,0.03182171558698661,0.08397132691999999,-0.11775085106328897,,-2.7097762e-05,3.8146973e-06,-5.00679e-06,1.0,1.7959625e-05,1.905486e-05,-1.79559e-05,1.0,1.7881393e-06,-1.905486e-05,-1.8179417e-06,1.0,62,0.187,0,0,0.0,False,1.0424313135276013,0.015401366863505128
0.170858611818403,16:31:55.551238,16:30:28.822997,0,,NaN,NaN,NaN,NaN,NaN,NaN,NaN,NaN,NaN,NaN,NaN,NaN,,0.11574758,-0.005848665,0.028191507,-0.26514593,-0.9247036,0.27316797,-0.71288145,0.3787616,0.59020317,-0.6492286,-0.03824638,-0.7596312,,0.057572454,1.3275592,0.4376197,0.9967451,0.07918965,-0.015104519,0.043217022,-0.68303335,-0.7291075,-0.06805465,0.72608155,-0.68423253,,NaN,NaN,NaN,NaN,NaN,NaN,NaN,NaN,NaN,NaN,NaN,NaN,,-0.069229975,0.4566395,-0.29237026,0.33273938,0.93063897,-0.15230103,-0.8686724,0.23962864,-0.433574,-0.36700517,0.27656683,0.88815427,,NaN,NaN,NaN,NaN,NaN,NaN,NaN,,-1.4832821349536789,0.04338631328739329,0.21753949893000002,0.5663725373517003,0.03675521843690348,0.49285419954540155,-0.1504398849096712,,0.0250542014123786,0.03182171558698661,0.08397132691999999,-0.11775085106328897,,-2.7097762e-05,3.8146973e-06,-5.00679e-06,1.0,1.7959625e-05,1.905486e-05,-1.79559e-05,1.0,1.7881393e-06,-1.905486e-05,-1.8179417e-06,1.0,81,0.245,0,0,0.0,False,1.0417759586238695,0.01549792726506416
0.23342636483721435,16:31:55.602539,16:30:28.822997,0,,NaN,NaN,NaN,NaN,NaN,NaN,NaN,NaN,NaN,NaN,NaN,NaN,,0.11535695,-0.0060429163,0.028648973,-0.2669832,-0.9236875,0.27481133,-0.7095977,0.38137287,0.59247446,-0.6520668,-0.03682469,-0.7572667,,0.057572454,1.3275592,0.4376197,0.9967451,0.07918965,-0.015104519,0.043217022,-0.68303335,-0.7291075,-0.06805465,0.72608155,-0.68423253,,NaN,NaN,NaN,NaN,NaN,NaN,NaN,NaN,NaN,NaN,NaN,NaN,,-0.068910226,0.45699865,-0.29278064,0.33502823,0.9295057,-0.15419228,-0.8694891,0.24196003,-0.43063223,-0.36296675,0.27834246,0.88925844,,NaN,NaN,NaN,NaN,NaN,NaN,NaN,,-1.4834443123440375,0.04337859055451907,0.21690950199000003,0.5707760261648752,0.03839485643408877,0.49241565084259065,-0.15060322897580547,,0.0250542014123786,0.03182171558698661,0.08397132691999999,-0.11775085106328897,,-2.7097762e-05,3.8146973e-06,-5.00679e-06,1.0,1.7959625e-05,1.905486e-05,-1.79559e-05,1.0,1.7881393e-06,-1.905486e-05,-1.8179417e-06,1.0,97,0.293,0,0,0.0,False,1.042193002653517,0.014580603450254692
0.2847233908250928,16:31:55.653461,16:30:28.930891,0,,NaN,NaN,NaN,NaN,NaN,NaN,NaN,NaN,NaN,NaN,NaN,NaN,,0.1150359,-0.006209288,0.029048145,-0.26788443,-0.92298716,0.27628335,-0.7072461,0.3831209,0.594156,-0.65424836,-0.03623517,-0.75541127,,0.057572454,1.3275592,0.4376197,0.9967451,0.07918965,-0.015104519,0.043217022,-0.68303335,-0.7291075,-0.06805465,0.72608155,-0.68423253,,NaN,NaN,NaN,NaN,NaN,NaN,NaN,NaN,NaN,NaN,NaN,NaN,,-0.06865073,0.45731118,-0.2931342,0.336277,0.9287764,-0.15585968,-0.8702511,0.24319825,-0.42838955,-0.35997328,0.27969462,0.89005065,,NaN,NaN,NaN,NaN,NaN,NaN,NaN,,-1.4836528261316417,0.04337086782164485,0.21637413422000001,0.5737116853736586,0.039897857931508615,0.4919251625631951,-0.1507665730419397,,0.0250542014123786,0.03182171558698661,0.08397132691999999,-0.11775085106328897,,-2.7097762e-05,3.8146973e-06,-5.00679e-06,1.0,1.7959625e-05,1.905486e-05,-1.79559e-05,1.0,1.7881393e-06,-1.905486e-05,-1.8179417e-06,1.0,112,0.339,0,0,0.0,False,1.04237173580908,0.014532323249474732
0.33564702491275966,16:31:55.697329,16:30:28.930891,0,,NaN,NaN,NaN,NaN,NaN,NaN,NaN,NaN,NaN,NaN,NaN,NaN,,0.11478405,-0.0063320883,0.029407144,-0.2611531,-0.9242228,0.27858758,-0.70889854,0.37951064,0.59450364,-0.6551808,-0.042233832,-0.7542907,,0.057572454,1.3275592,0.4376197,0.9967451,0.07918965,-0.015104519,0.043217022,-0.68303335,-0.7291075,-0.06805465,0.72608155,-0.68423253,,NaN,NaN,NaN,NaN,NaN,NaN,NaN,NaN,NaN,NaN,NaN,NaN,,-0.068453215,0.4576005,-0.29342526,0.32969514,0.93072385,-0.15828523,-0.87256444,0.23639052,-0.42749372,-0.36046147,0.27905667,0.89005333,,NaN,NaN,NaN,NaN,NaN,NaN,NaN,,-1.4838922308507427,0.04333997689014795,0.21592691417,0.5684694367865455,0.044406862423768144,0.4898819465440244,-0.15109326117420818,,0.0250542014123786,0.03182171558698661,0.08397132691999999,-0.11775085106328897,,-2.7097762e-05,3.8146973e-06,-5.00679e-06,1.0,1.7959625e-05,1.905486e-05,-1.79559e-05,1.0,1.7881393e-06,-1.905486e-05,-1.8179417e-06,1.0,132,0.4,0,0,0.0,False,1.0424313135276013,0.014725444052592795
0.3794698778074235,16:31:55.756470,16:30:29.048731,0,,NaN,NaN,NaN,NaN,NaN,NaN,NaN,NaN,NaN,NaN,NaN,NaN,,0.11457896,-0.00641549,0.029766142,-0.24675071,-0.9279379,0.27936557,-0.71423465,0.36897904,0.59474653,-0.65496796,-0.05277843,-0.7538113,,0.057572454,1.3275592,0.4376197,0.9967451,0.07918965,-0.015104519,0.043217022,-0.68303335,-0.7291075,-0.06805465,0.72608155,-0.68423253,,NaN,NaN,NaN,NaN,NaN,NaN,NaN,NaN,NaN,NaN,NaN,NaN,,-0.068301015,0.4579025,-0.29367727,0.31526664,0.93556905,-0.15911478,-0.8763794,0.2226923,-0.42704487,-0.36409634,0.27407792,0.89012086,,NaN,NaN,NaN,NaN,NaN,NaN,NaN,,-1.48421658563146,0.04333225415727372,0.21552506427,0.5552589703470204,0.05205850641063282,0.4888699833060208,-0.15076657304193974,,0.0250542014123786,0.03182171558698661,0.08397132691999999,-0.11775085106328897,,-2.7097762e-05,3.8146973e-06,-5.00679e-06,1.0,1.7959625e-05,1.905486e-05,-1.79559e-05,1.0,1.7881393e-06,-1.905486e-05,-1.8179417e-06,1.0,155,0.47,0,0,0.0,False,1.042550468964643,0.014387482647136629
0.43865979998372495,16:31:55.823723,16:30:29.048731,0,,NaN,NaN,NaN,NaN,NaN,NaN,NaN,NaN,NaN,NaN,NaN,NaN,,0.11429578,-0.006548304,0.030112326,-0.24303569,-0.92843497,0.2809663,-0.7143359,0.36726037,0.59568787,-0.65624523,-0.05593089,-0.7524719,,0.057572454,1.3275592,0.4376197,0.9967451,0.07918965,-0.015104519,0.043217022,-0.68303335,-0.7291075,-0.06805465,0.72608155,-0.68423253,,NaN,NaN,NaN,NaN,NaN,NaN,NaN,NaN,NaN,NaN,NaN,NaN,,-0.068070985,0.45817932,-0.29397413,0.31175834,0.93644613,-0.16085826,-0.87796223,0.21917906,-0.42560878,-0.36330292,0.27391458,0.89049524,,NaN,NaN,NaN,NaN,NaN,NaN,NaN,,-1.4843401493574477,0.04330136322577682,0.21506228874000002,0.5531620709121753,0.05533778240500338,0.4876661709398368,-0.15109326117420824,,0.0250542014123786,0.03182171558698661,0.08397132691999999,-0.11775085106328897,,-2.7097762e-05,3.8146973e-06,-5.00679e-06,1.0,1.7959625e-05,1.905486e-05,-1.79559e-05,1.0,1.7881393e-06,-1.905486e-05,-1.8179417e-06,1.0,167,0.506,0,0,0.0,False,1.0427292021202064,0.014822004454151827
0.5059124568942934,16:31:55.866357,16:30:29.048731,0,,NaN,NaN,NaN,NaN,NaN,NaN,NaN,NaN,NaN,NaN,NaN,NaN,,0.11413439,-0.006615538,0.030263245,-0.24419513,-0.92803824,0.28127128,-0.71332276,0.3683946,0.59620154,-0.6569166,-0.05504767,-0.75195104,,0.057572454,1.3275592,0.4376197,0.9967451,0.07918965,-0.015104519,0.043217022,-0.68303335,-0.7291075,-0.06805465,0.72608155,-0.68423253,,NaN,NaN,NaN,NaN,NaN,NaN,NaN,NaN,NaN,NaN,NaN,NaN,,-0.067933366,0.45829996,-0.29411504,0.31302366,0.935962,-0.16121806,-0.87796855,0.22043155,-0.42494845,-0.36219805,0.2745633,0.8907455,,NaN,NaN,NaN,NaN,NaN,NaN,NaN,,-1.4842938129602024,0.0433245314243995,0.21483154912000002,0.5548395904600515,0.05533778240500338,0.48758449219969624,-0.15092991710807407,,0.0250542014123786,0.03182171558698661,0.08397132691999999,-0.11775085106328897,,-2.7097762e-05,3.8146973e-06,-5.00679e-06,1.0,1.7959625e-05,1.905486e-05,-1.79559e-05,1.0,1.7881393e-06,-1.905486e-05,-1.8179417e-06,1.0,183,0.555,0,0,0.0,False,1.0429675129942906,0.014580603450254692
0.5485170499887317,16:31:55.909309,16:30:29.194301,0,,NaN,NaN,NaN,NaN,NaN,NaN,NaN,NaN,NaN,NaN,NaN,NaN,,0.11393021,-0.006699998,0.030438602,-0.24538872,-0.9276688,0.28145114,-0.71232057,0.36947095,0.5967334,-0.65755904,-0.05405178,-0.7514616,,0.057572454,1.3275592,0.4376197,0.9967451,0.07918965,-0.015104519,0.043217022,-0.68303335,-0.7291075,-0.06805465,0.72608155,-0.68423253,,NaN,NaN,NaN,NaN,NaN,NaN,NaN,NaN,NaN,NaN,NaN,NaN,,-0.06775713,0.45843905,-0.29428583,0.3143185,0.9354881,-0.16144921,-0.8779505,0.22176033,-0.42429394,-0.3611189,0.27510783,0.8910156,,NaN,NaN,NaN,NaN,NaN,NaN,NaN,,-1.4841856946999632,0.04333225415727372,0.21455025419,0.5565171100079277,0.05533778240500338,0.48758449219969624,-0.15060322897580541,,0.0250542014123786,0.03182171558698661,0.08397132691999999,-0.11775085106328897,,-2.7097762e-05,3.8146973e-06,-5.00679e-06,1.0,1.7959625e-05,1.905486e-05,-1.79559e-05,1.0,1.7881393e-06,-1.905486e-05,-1.8179417e-06,1.0,198,0.601,0,0,0.0,False,1.0427887798387272,0.01467716385181328
0.5913284278940409,16:31:55.957790,16:30:29.194301,0,,NaN,NaN,NaN,NaN,NaN,NaN,NaN,NaN,NaN,NaN,NaN,NaN,,0.11378251,-0.0067693777,0.030580759,-0.24558194,-0.9276566,0.281323,-0.7124194,0.36952248,0.59658355,-0.65737987,-0.053909786,-0.75162864,,0.057572454,1.3275592,0.4376197,0.9967451,0.07918965,-0.015104519,0.043217022,-0.68303335,-0.7291075,-0.06805465,0.72608155,-0.68423253,,NaN,NaN,NaN,NaN,NaN,NaN,NaN,NaN,NaN,NaN,NaN,NaN,,-0.06763192,0.4585494,-0.29442358,0.31448302,0.935458,-0.1613034,-0.8778157,0.22190793,-0.42449555,-0.36130324,0.2750913,0.890946,,NaN,NaN,NaN,NaN,NaN,NaN,NaN,,-1.4841702492342148,0.04333225415727372,0.21433377376,0.5565171100079277,0.0550645094054725,0.48764397052680786,-0.15092991710807396,,0.0250542014123786,0.03182171558698661,0.08397132691999999,-0.11775085106328897,,-2.7097762e-05,3.8146973e-06,-5.00679e-06,1.0,1.7959625e-05,1.905486e-05,-1.79559e-05,1.0,1.7881393e-06,-1.905486e-05,-1.8179417e-06,1.0,214,0.649,0,0,0.0,False,1.0427887798387272,0.01419436184401901
0.6399742588400841,16:31:56.009273,16:30:29.294475,0,,NaN,NaN,NaN,NaN,NaN,NaN,NaN,NaN,NaN,NaN,NaN,NaN,,0.11357774,-0.006854791,0.030758679,-0.24718362,-0.9272841,0.28114808,-0.71142614,0.37066805,0.59705794,-0.657855,-0.052433126,-0.75131726,,0.057572454,1.3275592,0.4376197,0.9967451,0.07918965,-0.015104519,0.043217022,-0.68303335,-0.7291075,-0.06805465,0.72608155,-0.68423253,,NaN,NaN,NaN,NaN,NaN,NaN,NaN,NaN,NaN,NaN,NaN,NaN,,-0.067455485,0.4586904,-0.29459643,0.31615913,0.9349175,-0.16116044,-0.8776091,0.22369291,-0.42398563,-0.36034113,0.2754828,0.8912146,,NaN,NaN,NaN,NaN,NaN,NaN,NaN,,-1.484077576439724,0.0433554223558964,0.21404988625000002,0.5584043194992884,0.05465459990617618,0.48797822423789716,-0.15092991710807396,,0.0250542014123786,0.03182171558698661,0.08397132691999999,-0.11775085106328897,,-2.7097762e-05,3.8146973e-06,-5.00679e-06,1.0,1.7959625e-05,1.905486e-05,-1.79559e-05,1.0,1.7881393e-06,-1.905486e-05,-1.8179417e-06,1.0,230,0.699,0,0,0.0,False,1.042550468964643,0.01419436184401901
0.691445771837607,16:31:56.056046,16:30:29.294475,0,,NaN,NaN,NaN,NaN,NaN,NaN,NaN,NaN,NaN,NaN,NaN,NaN,,0.11334415,-0.006941337,0.030943751,-0.2492161,-0.9268799,0.28068662,-0.71044457,0.37194246,0.59743404,-0.6581489,-0.050522074,-0.75119084,,0.057572454,1.3275592,0.4376197,0.9967451,0.07918965,-0.015104519,0.043217022,-0.68303335,-0.7291075,-0.06805465,0.72608155,-0.68423253,,NaN,NaN,NaN,NaN,NaN,NaN,NaN,NaN,NaN,NaN,NaN,NaN,,-0.06725149,0.4588404,-0.29477587,0.31823695,0.9342897,-0.16071105,-0.8772002,0.22591697,-0.42365244,-0.35950676,0.27579764,0.89145416,,NaN,NaN,NaN,NaN,NaN,NaN,NaN,,-1.4839153990493652,0.04341720421889019,0.21374136923000003,0.5605012189341336,0.05383478090758354,0.4884833741797946,-0.1512566052403425,,0.0250542014123786,0.03182171558698661,0.08397132691999999,-0.11775085106328897,,-2.7097762e-05,3.8146973e-06,-5.00679e-06,1.0,1.7959625e-05,1.905486e-05,-1.79559e-05,1.0,1.7881393e-06,-1.905486e-05,-1.8179417e-06,1.0,245,0.745,0,0,0.0,False,1.0430866684313322,0.01448404304869566
0.7382364547811449,16:31:56.103025,16:30:29.382994,0,,NaN,NaN,NaN,NaN,NaN,NaN,NaN,NaN,NaN,NaN,NaN,NaN,,0.11313353,-0.007000629,0.03110677,-0.2502563,-0.9268395,0.27989322,-0.7101567,0.3722183,0.5976045,-0.6580649,-0.049213707,-0.7513513,,0.057572454,1.3275592,0.4376197,0.9967451,0.07918965,-0.015104519,0.043217022,-0.68303335,-0.7291075,-0.06805465,0.72608155,-0.68423253,,NaN,NaN,NaN,NaN,NaN,NaN,NaN,NaN,NaN,NaN,NaN,NaN,,-0.06706655,0.45898065,-0.29491928,0.31926307,0.9340789,-0.15989913,-0.87688106,0.22719462,-0.42362985,-0.35937548,0.27546188,0.8916109,,NaN,NaN,NaN,NaN,NaN,NaN,NaN,,-1.4837454989261323,0.04354849067775201,0.21347174091,0.5613399787080716,0.05315159840875633,0.4891221424384173,-0.1514199493064769,,0.0250542014123786,0.03182171558698661,0.08397132691999999,-0.11775085106328897,,-2.7097762e-05,3.8146973e-06,-5.00679e-06,1.0,1.7959625e-05,1.905486e-05,-1.79559e-05,1.0,1.7881393e-06,-1.905486e-05,-1.8179417e-06,1.0,261,0.793,0,0,0.0,False,1.0433249793054165,0.014918564855710414
0.7851697208825499,16:31:56.153346,16:30:29.382994,0,,NaN,NaN,NaN,NaN,NaN,NaN,NaN,NaN,NaN,NaN,NaN,NaN,,0.112878926,-0.0070433356,0.031321645,-0.24892037,-0.92699564,0.28056642,-0.7104509,0.37164694,0.59761035,-0.6582539,-0.050571248,-0.7510954,,0.057572454,1.3275592,0.4376197,0.9967451,0.07918965,-0.015104519,0.043217022,-0.68303335,-0.7291075,-0.06805465,0.72608155,-0.68423253,,NaN,NaN,NaN,NaN,NaN,NaN,NaN,NaN,NaN,NaN,NaN,NaN,,-0.06684469,0.4591792,-0.2950748,0.31795818,0.9344036,-0.1606005,-0.8773284,0.225752,-0.42347485,-0.35944054,0.27554667,0.89155847,,NaN,NaN,NaN,NaN,NaN,NaN,NaN,,-1.4835447078714026,0.04380334086260142,0.21314377954000002,0.5602915289906492,0.053971417407348975,0.48812692005567654,-0.1507665730419397,,0.0250542014123786,0.03182171558698661,0.08397132691999999,-0.11775085106328897,,-2.7097762e-05,3.8146973e-06,-5.00679e-06,1.0,1.7959625e-05,1.905486e-05,-1.79559e-05,1.0,1.7881393e-06,-1.905486e-05,-1.8179417e-06,1.0,277,0.842,0,0,0.0,False,1.043027090712811,0.015111685658828478
0.8355260118842125,16:31:56.203811,16:30:29.482836,0,,NaN,NaN,NaN,NaN,NaN,NaN,NaN,NaN,NaN,NaN,NaN,NaN,,0.112573385,-0.007056121,0.0315547,-0.24264023,-0.92853975,0.28096175,-0.7140045,0.3669948,0.5962487,-0.65675217,-0.05593402,-0.7520293,,0.057572454,1.3275592,0.4376197,0.9967451,0.07918965,-0.015104519,0.043217022,-0.68303335,-0.7291075,-0.06805465,0.72608155,-0.68423253,,NaN,NaN,NaN,NaN,NaN,NaN,NaN,NaN,NaN,NaN,NaN,NaN,,-0.06657409,0.45941296,-0.29521608,0.31144398,0.93654364,-0.16089967,-0.8783033,0.21906719,-0.42496225,-0.36274785,0.27367064,0.8907965,,NaN,NaN,NaN,NaN,NaN,NaN,NaN,,-1.4831894621591881,0.04420492297206109,0.21277952205000003,0.5531620709121753,0.055884328404065146,0.4864037119236455,-0.15109326117420824,,0.0250542014123786,0.03182171558698661,0.08397132691999999,-0.11775085106328897,,-2.7097762e-05,3.8146973e-06,-5.00679e-06,1.0,1.7959625e-05,1.905486e-05,-1.79559e-05,1.0,1.7881393e-06,-1.905486e-05,-1.8179417e-06,1.0,296,0.9,0,0,0.0,False,1.0436228678980215,0.013614999434665265
0.8859872249886394,16:31:56.259242,16:30:29.482836,0,,NaN,NaN,NaN,NaN,NaN,NaN,NaN,NaN,NaN,NaN,NaN,NaN,,0.112218365,-0.007038716,0.031779885,-0.23120792,-0.9310576,0.28226694,-0.71981215,0.35889077,0.5941952,-0.6545329,-0.06579654,-0.753165,,0.057572454,1.3275592,0.4376197,0.9967451,0.07918965,-0.015104519,0.043217022,-0.68303335,-0.7291075,-0.06805465,0.72608155,-0.68423253,,NaN,NaN,NaN,NaN,NaN,NaN,NaN,NaN,NaN,NaN,NaN,NaN,,-0.06625265,0.45965892,-0.29533112,0.29967237,0.94017196,-0.16209012,-0.8802327,0.20694311,-0.4270421,-0.36794955,0.27064973,0.8895852,,NaN,NaN,NaN,NaN,NaN,NaN,NaN,,-1.4825716435292502,0.044668286944514565,0.21239841279000002,0.5407903642465883,0.060120059896793795,0.48303143564919704,-0.1512566052403425,,0.0250542014123786,0.03182171558698661,0.08397132691999999,-0.11775085106328897,,-2.7097762e-05,3.8146973e-06,-5.00679e-06,1.0,1.7959625e-05,1.905486e-05,-1.79559e-05,1.0,1.7881393e-06,-1.905486e-05,-1.8179417e-06,1.0,312,0.948,0,0,0.0,False,1.043027090712811,0.01448404304869566
0.9413534018676728,16:31:56.306646,16:30:29.482836,0,,NaN,NaN,NaN,NaN,NaN,NaN,NaN,NaN,NaN,NaN,NaN,NaN,,0.11178848,-0.0070261247,0.031960547,-0.22658494,-0.93196607,0.28301618,-0.7212734,0.355825,0.59426713,-0.65454113,-0.06948003,-0.75282705,,0.057572454,1.3275592,0.4376197,0.9967451,0.07918965,-0.015104519,0.043217022,-0.68303335,-0.7291075,-0.06805465,0.72608155,-0.68423253,,NaN,NaN,NaN,NaN,NaN,NaN,NaN,NaN,NaN,NaN,NaN,NaN,,-0.06585112,0.45987153,-0.29543683,0.2950578,0.94149464,-0.16287626,-0.8814106,0.20239376,-0.42679283,-0.36885804,0.2694894,0.88956124,,NaN,NaN,NaN,NaN,NaN,NaN,NaN,,-1.4815599655227267,0.04515481911559071,0.2119952666,0.5365965653768978,0.0628527898921026,0.48096643505554965,-0.15125660524034268,,0.0250542014123786,0.03182171558698661,0.08397132691999999,-0.11775085106328897,,-2.7097762e-05,3.8146973e-06,-5.00679e-06,1.0,1.7959625e-05,1.905486e-05,-1.79559e-05,1.0,1.7881393e-06,-1.905486e-05,-1.8179417e-06,1.0,328,0.998,0,0,0.0,False,1.043027090712811,0.014435762847916145
0.9888367149978876,16:31:56.354961,16:30:29.619136,0,,NaN,NaN,NaN,NaN,NaN,NaN,NaN,NaN,NaN,NaN,NaN,NaN,,0.11145112,-0.0069626607,0.03210467,-0.22548367,-0.932243,0.28298384,-0.7208562,0.35504144,0.59524107,-0.65538037,-0.06977346,-0.7520693,,0.057619862,1.3275591,0.43760997,0.99674803,0.079143874,-0.015153387,0.043150216,-0.68303865,-0.7291065,-0.06805465,0.72608155,-0.68423253,,NaN,NaN,NaN,NaN,NaN,NaN,NaN,NaN,NaN,NaN,NaN,NaN,,-0.06557617,0.46006966,-0.29547802,0.29403344,0.9418112,-0.16289867,-0.8820992,0.2017669,-0.4256655,-0.36802897,0.26885268,0.89009714,,NaN,NaN,NaN,NaN,NaN,NaN,NaN,,-1.4799922507492593,0.045641351286666854,0.21156619461,0.5363868754334133,0.06462906438905333,0.4795996810476368,-0.15109326117420835,,0.0250542014123786,0.03182171558698661,0.08397132691999999,-0.11775085106328897,,2.0809472e-05,5.9604645e-07,9.536743e-07,1.0,-2.7898699e-05,-2.9612333e-05,2.790615e-05,1.0,-2.771616e-06,2.9608607e-05,2.7418137e-06,1.0,344,1.047,0,0,0.0,False,1.0431462461498535,0.014387482647136629
1.0371395519468933,16:31:56.406216,16:30:29.619136,0,,NaN,NaN,NaN,NaN,NaN,NaN,NaN,NaN,NaN,NaN,NaN,NaN,,0.11075457,-0.006946359,0.032187283,-0.22691156,-0.93164873,0.28379843,-0.7193628,0.35676563,0.5960164,-0.6565274,-0.068911016,-0.75114775,,0.057619862,1.3275591,0.43760997,0.99674803,0.079143874,-0.015153387,0.043150216,-0.68303865,-0.7291065,-0.06805465,0.72608155,-0.68423253,,NaN,NaN,NaN,NaN,NaN,NaN,NaN,NaN,NaN,NaN,NaN,NaN,,-0.06489713,0.4602265,-0.2955591,0.2956415,0.94114935,-0.16381097,-0.8822786,0.20324728,-0.42458794,-0.36630654,0.27005276,0.8904443,,NaN,NaN,NaN,NaN,NaN,NaN,NaN,,-1.477714044551363,0.04623600171798214,0.21105286377000002,0.5384837748682585,0.0655855198874114,0.4769411446985289,-0.15092991710807402,,0.0250542014123786,0.03182171558698661,0.08397132691999999,-0.11775085106328897,,2.0809472e-05,5.9604645e-07,9.536743e-07,1.0,-2.7898699e-05,-2.9612333e-05,2.790615e-05,1.0,-2.771616e-06,2.9608607e-05,2.7418137e-06,1.0,360,1.096,0,0,0.0,False,1.0429675129942906,0.01419436184401901
1.0883910257834941,16:31:56.458276,16:30:29.721422,0,,NaN,NaN,NaN,NaN,NaN,NaN,NaN,NaN,NaN,NaN,NaN,NaN,,0.10997914,-0.006884072,0.032182574,-0.22205645,-0.93292844,0.2834346,-0.7224892,0.35264075,0.5946881,-0.6547521,-0.072724104,-0.752337,,0.057619862,1.3275591,0.43760997,0.99674803,0.079143874,-0.015153387,0.043150216,-0.68303865,-0.7291065,-0.06805465,0.72608155,-0.68423253,,NaN,NaN,NaN,NaN,NaN,NaN,NaN,NaN,NaN,NaN,NaN,NaN,,-0.06412691,0.46033564,-0.29556686,0.29051217,0.94282997,-0.16332285,-0.8826611,0.19814299,-0.4262027,-0.3694754,0.2679758,0.8897623,,NaN,NaN,NaN,NaN,NaN,NaN,NaN,,-1.474825742456403,0.04690787947803967,0.21056286615000003,0.5321930765637228,0.06749843088412759,0.47366604050382716,-0.15141994930647695,,0.0250542014123786,0.03182171558698661,0.08397132691999999,-0.11775085106328897,,2.0809472e-05,5.9604645e-07,9.536743e-07,1.0,-2.7898699e-05,-2.9612333e-05,2.790615e-05,1.0,-2.771616e-06,2.9608607e-05,2.7418137e-06,1.0,376,1.146,0,0,0.0,False,1.043027090712811,0.014339202446357113
1.1404433129355311,16:31:56.506220,16:30:29.721422,0,,NaN,NaN,NaN,NaN,NaN,NaN,NaN,NaN,NaN,NaN,NaN,NaN,,0.10931611,-0.0067641474,0.032153785,-0.20527864,-0.93701077,0.28261507,-0.73233974,0.33862454,0.59077233,-0.64926046,-0.08569727,-0.7557227,,0.057619862,1.3275591,0.43760997,0.99674803,0.079143874,-0.015153387,0.043150216,-0.68303865,-0.7291065,-0.06805465,0.72608155,-0.68423253,,NaN,NaN,NaN,NaN,NaN,NaN,NaN,NaN,NaN,NaN,NaN,NaN,,-0.06346329,0.4604374,-0.29550302,0.27289832,0.9482793,-0.16215073,-0.8841188,0.18075506,-0.43088463,-0.37928942,0.26094818,0.88771933,,NaN,NaN,NaN,NaN,NaN,NaN,NaN,,-1.4721922905462925,0.04760292543671988,0.21018564576,0.5120628419892085,0.07241734487568344,0.4693282810101938,-0.15076657304193986,,0.0250542014123786,0.03182171558698661,0.08397132691999999,-0.11775085106328897,,2.0809472e-05,5.9604645e-07,9.536743e-07,1.0,-2.7898699e-05,-2.9612333e-05,2.790615e-05,1.0,-2.771616e-06,2.9608607e-05,2.7418137e-06,1.0,405,1.235,0,0,0.0,False,1.0433845570239373,0.013421878631547202
1.1883973858784884,16:31:56.592578,16:30:29.822626,0,,NaN,NaN,NaN,NaN,NaN,NaN,NaN,NaN,NaN,NaN,NaN,NaN,,0.108258665,-0.0064774193,0.032081485,-0.19444971,-0.9398023,0.28099954,-0.7368107,0.329046,0.59062576,-0.6475333,-0.09219641,-0.7564393,,0.057619862,1.3275591,0.43760997,0.99674803,0.079143874,-0.015153387,0.043150216,-0.68303865,-0.7291065,-0.06805465,0.72608155,-0.68423253,,NaN,NaN,NaN,NaN,NaN,NaN,NaN,NaN,NaN,NaN,NaN,NaN,,-0.06239887,0.4606196,-0.29530442,0.26182485,0.9516834,-0.16045704,-0.8858095,0.17096497,-0.43140766,-0.383131,0.2550876,0.88777304,,NaN,NaN,NaN,NaN,NaN,NaN,NaN,,-1.4678366692052298,0.0492478675389297,0.20963472251,0.5005298950975596,0.07760953186677018,0.465421115630292,-0.15141994930647695,,0.0250542014123786,0.03182171558698661,0.08397132691999999,-0.11775085106328897,,2.0809472e-05,5.9604645e-07,9.536743e-07,1.0,-2.7898699e-05,-2.9612333e-05,2.790615e-05,1.0,-2.771616e-06,2.9608607e-05,2.7418137e-06,1.0,417,1.272,0,0,0.0,False,1.0436228678980215,0.013808120237783328
1.2747252199333161,16:31:56.636853,16:30:29.906729,0,,NaN,NaN,NaN,NaN,NaN,NaN,NaN,NaN,NaN,NaN,NaN,NaN,,0.10774103,-0.006235633,0.032027006,-0.19597799,-0.94096744,0.27599412,-0.7379848,0.32686347,0.59037167,-0.64573294,-0.087979585,-0.7584778,,0.057619862,1.3275591,0.43760997,0.99674803,0.079143874,-0.015153387,0.043150216,-0.68303865,-0.7291065,-0.06805465,0.72608155,-0.68423253,,NaN,NaN,NaN,NaN,NaN,NaN,NaN,NaN,NaN,NaN,NaN,NaN,,-0.06187265,0.460738,-0.29510835,0.26306388,0.95220864,-0.15522915,-0.8845833,0.17382996,-0.43277654,-0.38511008,0.25116098,0.88803625,,NaN,NaN,NaN,NaN,NaN,NaN,NaN,,-1.465674304000447,0.050715186785032354,0.20940916805,0.4999008252671061,0.07474016537169592,0.4675975341276357,-0.15141994930647684,,0.0250542014123786,0.03182171558698661,0.08397132691999999,-0.11775085106328897,,2.0809472e-05,5.9604645e-07,9.536743e-07,1.0,-2.7898699e-05,-2.9612333e-05,2.790615e-05,1.0,-2.771616e-06,2.9608607e-05,2.7418137e-06,1.0,437,1.333,1,1,0.009,False,1.0431462461498535,0.014049521241680019
1.319039232796058,16:31:56.694476,16:30:29.906729,0,,NaN,NaN,NaN,NaN,NaN,NaN,NaN,NaN,NaN,NaN,NaN,NaN,,0.1073321,-0.0060285814,0.031960845,-0.19862214,-0.94208187,0.27024186,-0.74065506,0.32486266,0.58812785,-0.6418562,-0.083340764,-0.7622827,,0.057619862,1.3275591,0.43760997,0.99674803,0.079143874,-0.015153387,0.043150216,-0.68303865,-0.7291065,-0.06805465,0.72608155,-0.68423253,,NaN,NaN,NaN,NaN,NaN,NaN,NaN,NaN,NaN,NaN,NaN,NaN,,-0.061453387,0.46081835,-0.29492882,0.26508775,0.95263106,-0.14907219,-0.8820783,0.177145,-0.43652895,-0.38944367,0.24721181,0.8872542,,NaN,NaN,NaN,NaN,NaN,NaN,NaN,,-1.463952134569495,0.05204349683939897,0.20925102067,0.49843299566271443,0.06913806888131287,0.4703687358960966,-0.1514199493064769,,0.0250542014123786,0.03182171558698661,0.08397132691999999,-0.11775085106328897,,2.0809472e-05,5.9604645e-07,9.536743e-07,1.0,-2.7898699e-05,-2.9612333e-05,2.790615e-05,1.0,-2.771616e-06,2.9608607e-05,2.7418137e-06,1.0,450,1.374,1,1,0.05,False,1.044039911927669,0.013228757828429583
1.3766635349020362,16:31:56.735745,16:30:29.994734,0,,NaN,NaN,NaN,NaN,NaN,NaN,NaN,NaN,NaN,NaN,NaN,NaN,,0.10699074,-0.005929757,0.03188777,-0.20221263,-0.94321805,0.26353288,-0.7431036,0.32304776,0.58603513,-0.63789266,-0.077328525,-0.7662332,,0.057619862,1.3275591,0.43760997,0.99674803,0.079143874,-0.015153387,0.043150216,-0.68303865,-0.7291065,-0.06805465,0.72608155,-0.68423253,,NaN,NaN,NaN,NaN,NaN,NaN,NaN,NaN,NaN,NaN,NaN,NaN,,-0.061102856,0.46083605,-0.2948369,0.26804274,0.95289296,-0.14194404,-0.8792922,0.18176118,-0.44023648,-0.39369833,0.24281247,0.8865911,,NaN,NaN,NaN,NaN,NaN,NaN,NaN,,-1.4625234289877633,0.05283121559256987,0.20910713248,0.4978039258322608,0.06326269939139893,0.4746696333141993,-0.15141994930647684,,0.0250542014123786,0.03182171558698661,0.08397132691999999,-0.11775085106328897,,2.0809472e-05,5.9604645e-07,9.536743e-07,1.0,-2.7898699e-05,-2.9612333e-05,2.790615e-05,1.0,-2.771616e-06,2.9608607e-05,2.7418137e-06,1.0,467,1.428,1,1,0.104,False,1.0435632901795007,0.013518439033106233
1.4178480508271605,16:31:56.785089,16:30:29.994734,0,,NaN,NaN,NaN,NaN,NaN,NaN,NaN,NaN,NaN,NaN,NaN,NaN,,0.10663645,-0.005929593,0.03175634,-0.20134693,-0.9446619,0.25898474,-0.7472503,0.319083,0.58292633,-0.6333059,-0.076156,-0.77014536,,0.057619862,1.3275591,0.43760997,0.99674803,0.079143874,-0.015153387,0.043150216,-0.68303865,-0.7291065,-0.06805465,0.72608155,-0.68423253,,NaN,NaN,NaN,NaN,NaN,NaN,NaN,NaN,NaN,NaN,NaN,NaN,,-0.060734104,0.46075878,-0.29480785,0.26645643,0.95406264,-0.13698705,-0.8772148,0.18115571,-0.44460857,-0.39936846,0.23863587,0.885188,,NaN,NaN,NaN,NaN,NaN,NaN,NaN,,-1.4608707641526795,0.052970224784305915,0.20896454058000002,0.49277136718863224,0.059983423397028356,0.47644519686136727,-0.1519099815048796,,0.0250542014123786,0.03182171558698661,0.08397132691999999,-0.11775085106328897,,2.0809472e-05,5.9604645e-07,9.536743e-07,1.0,-2.7898699e-05,-2.9612333e-05,2.790615e-05,1.0,-2.771616e-06,2.9608607e-05,2.7418137e-06,1.0,489,1.497,1,1,0.173,False,1.0431462461498535,0.015063405458049406
1.467254496878013,16:31:56.856123,16:30:30.137624,0,,NaN,NaN,NaN,NaN,NaN,NaN,NaN,NaN,NaN,NaN,NaN,NaN,,0.1059707,-0.005899895,0.031487286,-0.19615453,-0.9477846,0.2514508,-0.755161,0.30958915,0.57782906,-0.625504,-0.076542035,-0.77645737,,0.057619862,1.3275591,0.43760997,0.99674803,0.079143874,-0.015153387,0.043150216,-0.68303865,-0.7291065,-0.06805465,0.72608155,-0.68423253,,NaN,NaN,NaN,NaN,NaN,NaN,NaN,NaN,NaN,NaN,NaN,NaN,,-0.060037427,0.46060738,-0.29471722,0.26005214,0.9569661,-0.12879743,-0.87447846,0.17684537,-0.4516781,-0.4094634,0.23009044,0.88283527,,NaN,NaN,NaN,NaN,NaN,NaN,NaN,,-1.4576117708797567,0.053217352236281094,0.20872472693000002,0.48102873035349886,0.05670414740265779,0.4787925115895192,-0.1512566052403425,,0.0250542014123786,0.03182171558698661,0.08397132691999999,-0.11775085106328897,,2.0809472e-05,5.9604645e-07,9.536743e-07,1.0,-2.7898699e-05,-2.9612333e-05,2.790615e-05,1.0,-2.771616e-06,2.9608607e-05,2.7418137e-06,1.0,511,1.567,1,1,0.243,False,1.0429079352757693,0.01448404304869566
1.538307840935886,16:31:56.925548,16:30:30.137624,0,,NaN,NaN,NaN,NaN,NaN,NaN,NaN,NaN,NaN,NaN,NaN,NaN,,0.10531203,-0.005790714,0.03123957,-0.18680507,-0.9516919,0.24369243,-0.76380444,0.29670274,0.5732105,-0.61782414,-0.07905469,-0.7823322,,0.057619862,1.3275591,0.43760997,0.99674803,0.079143874,-0.015153387,0.043150216,-0.68303865,-0.7291065,-0.06805465,0.72608155,-0.68423253,,NaN,NaN,NaN,NaN,NaN,NaN,NaN,NaN,NaN,NaN,NaN,NaN,,-0.059348635,0.4605102,-0.29456475,0.24952868,0.9608493,-0.12043274,-0.87263864,0.16920014,-0.4581191,-0.41980618,0.21940811,0.8806945,,NaN,NaN,NaN,NaN,NaN,NaN,NaN,,-1.454352777606834,0.05377338900322526,0.20850435763000003,0.4659310544226131,0.05561105540453427,0.4812357508817613,-0.15141994930647684,,0.0250542014123786,0.03182171558698661,0.08397132691999999,-0.11775085106328897,,2.0809472e-05,5.9604645e-07,9.536743e-07,1.0,-2.7898699e-05,-2.9612333e-05,2.790615e-05,1.0,-2.771616e-06,2.9608607e-05,2.7418137e-06,1.0,524,1.608,1,1,0.284,False,1.043920756490627,0.01419436184401901
1.6077215359546244,16:31:56.969077,16:30:30.228607,0,,NaN,NaN,NaN,NaN,NaN,NaN,NaN,NaN,NaN,NaN,NaN,NaN,,0.10476358,-0.0056867786,0.031091034,-0.17615825,-0.95411927,0.24212506,-0.76928574,0.28690013,0.57086587,-0.61413985,-0.085700616,-0.7845302,,0.057619862,1.3275591,0.43760997,0.99674803,0.079143874,-0.015153387,0.043150216,-0.68303865,-0.7291065,-0.06805465,0.72608155,-0.68423253,,NaN,NaN,NaN,NaN,NaN,NaN,NaN,NaN,NaN,NaN,NaN,NaN,,-0.05878263,0.46048617,-0.29445198,0.23834382,0.9639069,-0.11864139,-0.8730378,0.15913858,-0.46095544,-0.4254377,0.21344429,0.8794568,,NaN,NaN,NaN,NaN,NaN,NaN,NaN,,-1.4517270484295977,0.05422130750993028,0.20828917349,0.4533496578135417,0.05889033139890483,0.47897011489374985,-0.15158329337261112,,0.0250542014123786,0.03182171558698661,0.08397132691999999,-0.11775085106328897,,2.0809472e-05,5.9604645e-07,9.536743e-07,1.0,-2.7898699e-05,-2.9612333e-05,2.790615e-05,1.0,-2.771616e-06,2.9608607e-05,2.7418137e-06,1.0,546,1.678,1,1,0.354,False,1.0430866684313322,0.014822004454151827
1.6511414640117437,16:31:57.040845,16:30:30.317162,0,,NaN,NaN,NaN,NaN,NaN,NaN,NaN,NaN,NaN,NaN,NaN,NaN,,0.10409742,-0.005664546,0.03093791,-0.17434266,-0.95475656,0.24092379,-0.769699,0.28473577,0.57139224,-0.61414015,-0.085820735,-0.7845169,,0.057619862,1.3275591,0.43760997,0.99674803,0.079143874,-0.015153387,0.043150216,-0.68303865,-0.7291065,-0.06805465,0.72608155,-0.68423253,,NaN,NaN,NaN,NaN,NaN,NaN,NaN,NaN,NaN,NaN,NaN,NaN,,-0.05810148,0.46043393,-0.29441985,0.23653519,0.9644993,-0.117440075,-0.8734248,0.15811935,-0.46057284,-0.42565262,0.21151677,0.87981844,,NaN,NaN,NaN,NaN,NaN,NaN,NaN,,-1.4486842916771532,0.0544143758317859,0.20797547131000002,0.45146244832218096,0.06107651539515188,0.47735078591488833,-0.15125660524034257,,0.0250542014123786,0.03182171558698661,0.08397132691999999,-0.11775085106328897,,2.0809472e-05,5.9604645e-07,9.536743e-07,1.0,-2.7898699e-05,-2.9612333e-05,2.790615e-05,1.0,-2.771616e-06,2.9608607e-05,2.7418137e-06,1.0,568,1.747,1,1,0.423,False,1.0435037124609798,0.015063405458049406
1.7229892699979246,16:31:57.103337,16:30:30.409377,0,,NaN,NaN,NaN,NaN,NaN,NaN,NaN,NaN,NaN,NaN,NaN,NaN,,0.10350291,-0.0055599697,0.03084302,-0.17731127,-0.9551052,0.23734912,-0.7695539,0.2848884,0.57151157,-0.6134717,-0.081317484,-0.7855189,,0.057619862,1.3275591,0.43760997,0.99674803,0.079143874,-0.015153387,0.043150216,-0.68303865,-0.7291065,-0.06805465,0.72608155,-0.68423253,,NaN,NaN,NaN,NaN,NaN,NaN,NaN,NaN,NaN,NaN,NaN,NaN,,-0.057497125,0.46046275,-0.2943344,0.23938815,0.96423644,-0.11376054,-0.8724424,0.16220848,-0.46101263,-0.42607224,0.20961048,0.8800715,,NaN,NaN,NaN,NaN,NaN,NaN,NaN,,-1.4461126216300364,0.05520981731783102,0.20769417638,0.4531399678700571,0.05916360439843572,0.4783388853856543,-0.15109326117420835,,0.0250542014123786,0.03182171558698661,0.08397132691999999,-0.11775085106328897,,2.0809472e-05,5.9604645e-07,9.536743e-07,1.0,-2.7898699e-05,-2.9612333e-05,2.790615e-05,1.0,-2.771616e-06,2.9608607e-05,2.7418137e-06,1.0,590,1.817,1,1,0.49,False,1.0435037124609798,0.014822004454151827
1.785440371837467,16:31:57.176417,16:30:30.409377,0,,NaN,NaN,NaN,NaN,NaN,NaN,NaN,NaN,NaN,NaN,NaN,NaN,,0.10308787,-0.005382795,0.030805945,-0.17881693,-0.95511985,0.23615742,-0.77022123,0.28524274,0.5704348,-0.6121959,-0.07989003,-0.78665996,,0.057619862,1.3275591,0.43760997,0.99674803,0.079143874,-0.015153387,0.043150216,-0.68303865,-0.7291065,-0.06805465,0.72608155,-0.68423253,,NaN,NaN,NaN,NaN,NaN,NaN,NaN,NaN,NaN,NaN,NaN,NaN,,-0.05707652,0.46055588,-0.294195,0.24068896,0.96406597,-0.11245261,-0.87145233,0.16363314,-0.46237975,-0.42736363,0.2092868,0.87952226,,NaN,NaN,NaN,NaN,NaN,NaN,NaN,,-1.4443672840004615,0.0563373363174678,0.20751269578000003,0.4531399678700571,0.056840783902423225,0.4772108763632926,-0.15125660524034257,,0.0250542014123786,0.03182171558698661,0.08397132691999999,-0.11775085106328897,,2.0809472e-05,5.9604645e-07,9.536743e-07,1.0,-2.7898699e-05,-2.9612333e-05,2.790615e-05,1.0,-2.771616e-06,2.9608607e-05,2.7418137e-06,1.0,603,1.858,1,2,0.496,False,1.0435037124609798,0.014097801442459978
1.8586067198775709,16:31:57.220536,16:30:30.518202,0,,NaN,NaN,NaN,NaN,NaN,NaN,NaN,NaN,NaN,NaN,NaN,NaN,,0.102813065,-0.005284477,0.030768692,-0.17530538,-0.95615625,0.23459128,-0.7729845,0.2812463,0.56867874,-0.60972375,-0.081642956,-0.78839797,,0.057619862,1.3275591,0.43760997,0.99674803,0.079143874,-0.015153387,0.043150216,-0.68303865,-0.7291065,-0.06805465,0.72608155,-0.68423253,,NaN,NaN,NaN,NaN,NaN,NaN,NaN,NaN,NaN,NaN,NaN,NaN,,-0.05679679,0.46059775,-0.29411393,0.2368048,0.96522886,-0.11071002,-0.8709065,0.16038202,-0.46454227,-0.43063372,0.20642391,0.8786033,,NaN,NaN,NaN,NaN,NaN,NaN,NaN,,-1.4431702604049568,0.05692426401590886,0.20739602968,0.44789771928294403,0.056430874403126906,0.47672834267297626,-0.15125660524034262,,0.0250542014123786,0.03182171558698661,0.08397132691999999,-0.11775085106328897,,2.0809472e-05,5.9604645e-07,9.536743e-07,1.0,-2.7898699e-05,-2.9612333e-05,2.790615e-05,1.0,-2.771616e-06,2.9608607e-05,2.7418137e-06,1.0,625,1.927,0,2,0.534,False,1.0431462461498535,0.01414608164323905
1.9027014269959182,16:31:57.283367,16:30:30.518202,0,,NaN,NaN,NaN,NaN,NaN,NaN,NaN,NaN,NaN,NaN,NaN,NaN,,0.10253926,-0.0052576847,0.030695379,-0.15399103,-0.960219,0.23295066,-0.7852656,0.26202837,0.5609804,-0.5997038,-0.09654219,-0.7943771,,0.057619862,1.3275591,0.43760997,0.99674803,0.079143874,-0.015153387,0.043150216,-0.68303865,-0.7291065,-0.06805465,0.72608155,-0.68423253,,NaN,NaN,NaN,NaN,NaN,NaN,NaN,NaN,NaN,NaN,NaN,NaN,,-0.056514975,0.46057513,-0.29408038,0.2140207,0.9707882,-0.10846858,-0.8699616,0.13892674,-0.47314492,-0.4442543,0.1956263,0.8742817,,NaN,NaN,NaN,NaN,NaN,NaN,NaN,,-1.4418882867478355,0.05695515494740576,0.20728325245,0.4212670964604094,0.059436877397966596,0.47403211257123334,-0.152073325571014,,0.0250542014123786,0.03182171558698661,0.08397132691999999,-0.11775085106328897,,2.0809472e-05,5.9604645e-07,9.536743e-07,1.0,-2.7898699e-05,-2.9612333e-05,2.790615e-05,1.0,-2.771616e-06,2.9608607e-05,2.7418137e-06,1.0,638,1.968,0,2,0.534,False,1.0433845570239373,0.014387482647136629
1.9654794267844409,16:31:57.332370,16:30:30.597407,0,,NaN,NaN,NaN,NaN,NaN,NaN,NaN,NaN,NaN,NaN,NaN,NaN,,0.10222982,-0.0052483417,0.03061074,-0.14436735,-0.96194524,0.23198974,-0.7885492,0.25347173,0.5603056,-0.59778625,-0.10204545,-0.7951342,,0.057619862,1.3275591,0.43760997,0.99674803,0.079143874,-0.015153387,0.043150216,-0.68303865,-0.7291065,-0.06805465,0.72608155,-0.68423253,,NaN,NaN,NaN,NaN,NaN,NaN,NaN,NaN,NaN,NaN,NaN,NaN,,-0.056196768,0.4605385,-0.2940603,0.20414525,0.9730279,-0.10743117,-0.8708126,0.13036443,-0.47401538,-0.44722497,0.1903204,0.8739382,,NaN,NaN,NaN,NaN,NaN,NaN,NaN,,-1.4403823538373617,0.05687020488578929,0.20715103087000003,0.4114116691166368,0.06380924539046068,0.47291710185716473,-0.15207332557101394,,0.0250542014123786,0.03182171558698661,0.08397132691999999,-0.11775085106328897,,2.0809472e-05,5.9604645e-07,9.536743e-07,1.0,-2.7898699e-05,-2.9612333e-05,2.790615e-05,1.0,-2.771616e-06,2.9608607e-05,2.7418137e-06,1.0,656,2.026,1,3,0.551,False,1.0431462461498535,0.014242642044798082
2.014550354797393,16:31:57.382692,16:30:30.597407,0,,NaN,NaN,NaN,NaN,NaN,NaN,NaN,NaN,NaN,NaN,NaN,NaN,,0.10184057,-0.005232651,0.030491054,-0.14233537,-0.96233827,0.23161471,-0.788684,0.25165597,0.56093395,-0.5980954,-0.102830045,-0.79480046,,0.057619862,1.3275591,0.43760997,0.99674803,0.079143874,-0.015153387,0.043150216,-0.68303865,-0.7291065,-0.06805465,0.72608155,-0.68423253,,NaN,NaN,NaN,NaN,NaN,NaN,NaN,NaN,NaN,NaN,NaN,NaN,,-0.05579459,0.46048248,-0.29402563,0.20217139,0.9734776,-0.1070891,-0.8713701,0.12888923,-0.47339386,-0.4470357,0.18902093,0.874317,,NaN,NaN,NaN,NaN,NaN,NaN,NaN,,-1.4384748388174282,0.05690881855016041,0.20699417978,0.40973414956876053,0.06599542938670773,0.47154280909872476,-0.15223666963714833,,0.0250542014123786,0.03182171558698661,0.08397132691999999,-0.11775085106328897,,2.0809472e-05,5.9604645e-07,9.536743e-07,1.0,-2.7898699e-05,-2.9612333e-05,2.790615e-05,1.0,-2.771616e-06,2.9608607e-05,2.7418137e-06,1.0,678,2.095,1,3,0.62,False,1.0427887798387272,0.013518439033106233
2.064878294011578,16:31:57.448612,16:30:30.687309,0,,NaN,NaN,NaN,NaN,NaN,NaN,NaN,NaN,NaN,NaN,NaN,NaN,,0.10120667,-0.005244065,0.030287027,-0.1433394,-0.96258926,0.22994655,-0.78834105,0.2515195,0.56147695,-0.5983077,-0.100794524,-0.79490143,,0.057619862,1.3275591,0.43760997,0.99674803,0.079143874,-0.015153387,0.043150216,-0.68303865,-0.7291065,-0.06805465,0.72608155,-0.68423253,,NaN,NaN,NaN,NaN,NaN,NaN,NaN,NaN,NaN,NaN,NaN,NaN,,-0.055139344,0.46036643,-0.29399797,0.20320335,0.9734461,-0.105409406,-0.87129194,0.13065453,-0.4730536,-0.44671994,0.18796845,0.8747052,,NaN,NaN,NaN,NaN,NaN,NaN,NaN,,-1.43591861423606,0.05693198674878309,0.20681658805000003,0.41036321939921416,0.06667861188553494,0.47106739832038313,-0.1524000137032825,,0.0250542014123786,0.03182171558698661,0.08397132691999999,-0.11775085106328897,,2.0809472e-05,5.9604645e-07,9.536743e-07,1.0,-2.7898699e-05,-2.9612333e-05,2.790615e-05,1.0,-2.771616e-06,2.9608607e-05,2.7418137e-06,1.0,700,2.165,1,3,0.69,False,1.0433845570239373,0.014001241040900947
2.130776584846899,16:31:57.525767,16:30:30.785580,0,,NaN,NaN,NaN,NaN,NaN,NaN,NaN,NaN,NaN,NaN,NaN,NaN,,0.10104525,-0.0052392334,0.030255735,-0.14418444,-0.9626132,0.22931726,-0.78799933,0.2518645,0.5618019,-0.5985549,-0.09969873,-0.79485357,,0.057565928,1.3275584,0.43761194,0.996746,0.079176076,-0.015119012,0.043197207,-0.68303496,-0.7291072,-0.06805465,0.72608155,-0.68423253,,NaN,NaN,NaN,NaN,NaN,NaN,NaN,NaN,NaN,NaN,NaN,NaN,,-0.05492596,0.4603601,-0.29399368,0.20412594,0.97331893,-0.10479909,-0.8712546,0.13181348,-0.47280085,-0.4463721,0.1878176,0.8749151,,NaN,NaN,NaN,NaN,NaN,NaN,NaN,,-1.434991886291153,0.05704010500902223,0.20671158856000002,0.4112019791731522,0.06667861188553494,0.47090404084010207,-0.15272670183555104,,0.0250542014123786,0.03182171558698661,0.08397132691999999,-0.11775085106328897,,-3.310293e-05,-1.7881393e-06,9.536743e-07,1.0,4.3548644e-06,4.61936e-06,-4.3548644e-06,1.0,4.172325e-07,-4.6230853e-06,-4.172325e-07,1.0,722,2.235,1,3,0.76,False,1.043027090712811,0.014001241040900947
2.2079520288389176,16:31:57.594057,16:30:30.870226,0,,NaN,NaN,NaN,NaN,NaN,NaN,NaN,NaN,NaN,NaN,NaN,NaN,,0.10080597,-0.0051338673,0.030264854,-0.14445098,-0.962735,0.22863758,-0.7876477,0.25173253,0.56235397,-0.59895337,-0.09885325,-0.794659,,0.057565928,1.3275584,0.43761194,0.996746,0.079176076,-0.015119012,0.043197207,-0.68303496,-0.7291072,-0.06805465,0.72608155,-0.68423253,,NaN,NaN,NaN,NaN,NaN,NaN,NaN,NaN,NaN,NaN,NaN,NaN,,-0.054687545,0.46044233,-0.2939241,0.20445299,0.9733212,-0.104138345,-0.87141794,0.13251442,-0.4723036,-0.4459033,0.1873119,0.87526256,,NaN,NaN,NaN,NaN,NaN,NaN,NaN,,-1.4340419901476233,0.05770426003620554,0.20658973730000002,0.4116213590601214,0.06667861188553494,0.4705773258795398,-0.1530533899678197,,0.0250542014123786,0.03182171558698661,0.08397132691999999,-0.11775085106328897,,-3.310293e-05,-1.7881393e-06,9.536743e-07,1.0,4.3548644e-06,4.61936e-06,-4.3548644e-06,1.0,4.172325e-07,-4.6230853e-06,-4.172325e-07,1.0,744,2.304,1,3,0.829,False,1.0433249793054165,0.013808120237783328
2.2762428568676114,16:31:57.663646,16:30:30.870226,0,,NaN,NaN,NaN,NaN,NaN,NaN,NaN,NaN,NaN,NaN,NaN,NaN,,0.10056043,-0.0050385743,0.030169904,-0.1451095,-0.9627697,0.22807366,-0.7871064,0.25200206,0.56299067,-0.5995054,-0.09782292,-0.7943702,,0.057565928,1.3275584,0.43761194,0.996746,0.079176076,-0.015119012,0.043197207,-0.68303496,-0.7291072,-0.06805465,0.72608155,-0.68423253,,NaN,NaN,NaN,NaN,NaN,NaN,NaN,NaN,NaN,NaN,NaN,NaN,,-0.054429032,0.46042854,-0.29381746,0.20519401,0.9732224,-0.10360294,-0.87158805,0.13355163,-0.47169718,-0.44522992,0.18708852,0.875653,,NaN,NaN,NaN,NaN,NaN,NaN,NaN,,-1.4327368482918794,0.058144455810036334,0.20653399683,0.4124601188340594,0.06695188488506582,0.4699460963714442,-0.15321673403395397,,0.0250542014123786,0.03182171558698661,0.08397132691999999,-0.11775085106328897,,-3.310293e-05,-1.7881393e-06,9.536743e-07,1.0,4.3548644e-06,4.61936e-06,-4.3548644e-06,1.0,4.172325e-07,-4.6230853e-06,-4.172325e-07,1.0,766,2.374,1,3,0.899,False,1.0438016010535844,0.01308391722609148
2.345816405955702,16:31:57.736232,16:30:31.008704,0,,NaN,NaN,NaN,NaN,NaN,NaN,NaN,NaN,NaN,NaN,NaN,NaN,,0.10036093,-0.005018905,0.030063033,-0.13617279,-0.9637572,0.22940993,-0.7901529,0.24534047,0.5616641,-0.5975914,-0.10478552,-0.79492426,,0.057565928,1.3275584,0.43761194,0.996746,0.079176076,-0.015119012,0.043197207,-0.68303496,-0.7291072,-0.06805465,0.72608155,-0.68423253,,NaN,NaN,NaN,NaN,NaN,NaN,NaN,NaN,NaN,NaN,NaN,NaN,,-0.054216426,0.46036488,-0.29376894,0.19600555,0.97497743,-0.10488477,-0.87225944,0.12447867,-0.4729361,-0.44804612,0.18418483,0.8748318,,NaN,NaN,NaN,NaN,NaN,NaN,NaN,,-1.4315784383607457,0.058020892084048745,0.20649251555000003,0.40323376132074035,0.07077770687849815,0.4667447163278038,-0.15338007810008825,,0.0250542014123786,0.03182171558698661,0.08397132691999999,-0.11775085106328897,,-3.310293e-05,-1.7881393e-06,9.536743e-07,1.0,4.3548644e-06,4.61936e-06,-4.3548644e-06,1.0,4.172325e-07,-4.6230853e-06,-4.172325e-07,1.0,784,2.431,1,3,0.956,False,1.0436228678980215,0.013952960840121875
2.4184091109782457,16:31:57.787053,16:30:31.008704,0,,NaN,NaN,NaN,NaN,NaN,NaN,NaN,NaN,NaN,NaN,NaN,NaN,,0.10020333,-0.0049771667,0.030032337,-0.11928651,-0.9656795,0.23072392,-0.7962259,0.2318663,0.5588044,-0.59312314,-0.11705053,-0.79655766,,0.057565928,1.3275584,0.43761194,0.996746,0.079176076,-0.015119012,0.043197207,-0.68303496,-0.7291072,-0.06805465,0.72608155,-0.68423253,,NaN,NaN,NaN,NaN,NaN,NaN,NaN,NaN,NaN,NaN,NaN,NaN,,-0.054055106,0.46037397,-0.29373133,0.1785198,0.9782059,-0.10603682,-0.8729189,0.107726336,-0.47582307,-0.45403,0.17750539,0.87312573,,NaN,NaN,NaN,NaN,NaN,NaN,NaN,,-1.4308061650733233,0.058005446618300295,0.20643288621000003,0.3854101161245557,0.07651643986864665,0.4629636305141003,-0.15289004590168542,,0.0250542014123786,0.03182171558698661,0.08397132691999999,-0.11775085106328897,,-3.310293e-05,-1.7881393e-06,9.536743e-07,1.0,4.3548644e-06,4.61936e-06,-4.3548644e-06,1.0,4.172325e-07,-4.6230853e-06,-4.172325e-07,1.0,797,2.472,1,3,0.997,False,1.043742023335064,0.013904680639341915
2.4692370819393545,16:31:57.838540,16:30:31.107484,0,,NaN,NaN,NaN,NaN,NaN,NaN,NaN,NaN,NaN,NaN,NaN,NaN,,0.10003248,-0.0049407333,0.030036986,-0.1050649,-0.9672176,0.23119533,-0.79692733,0.22095409,0.56221545,-0.5948683,-0.12517673,-0.7940166,,0.057565928,1.3275584,0.43761194,0.996746,0.079176076,-0.015119012,0.043197207,-0.68303496,-0.7291072,-0.06805465,0.72608155,-0.68423253,,NaN,NaN,NaN,NaN,NaN,NaN,NaN,NaN,NaN,NaN,NaN,NaN,,-0.0538856,0.46041334,-0.29371536,0.16465418,0.98055637,-0.10676237,-0.8763403,0.09575464,-0.4720791,-0.45267716,0.17128997,0.8750675,,NaN,NaN,NaN,NaN,NaN,NaN,NaN,,-1.430003000854404,0.05784326922794158,0.20634214591000002,0.37492561895032955,0.08690081385082013,0.4614385627451201,-0.15403345436462534,,0.0250542014123786,0.03182171558698661,0.08397132691999999,-0.11775085106328897,,-3.310293e-05,-1.7881393e-06,9.536743e-07,1.0,4.3548644e-06,4.61936e-06,-4.3548644e-06,1.0,4.172325e-07,-4.6230853e-06,-4.172325e-07,1.0,825,2.562,1,3,1.087,False,1.0435037124609798,0.013614999434665265
2.5207056729122996,16:31:57.914960,16:30:31.197774,0,,NaN,NaN,NaN,NaN,NaN,NaN,NaN,NaN,NaN,NaN,NaN,NaN,,0.09957341,-0.0049640387,0.029962122,-0.069420576,-0.970807,0.22959633,-0.80579567,0.19025071,0.56080127,-0.5881107,-0.14607656,-0.7954794,,0.057565928,1.3275584,0.43761194,0.996746,0.079176076,-0.015119012,0.043197207,-0.68303496,-0.7291072,-0.06805465,0.72608155,-0.68423253,,NaN,NaN,NaN,NaN,NaN,NaN,NaN,NaN,NaN,NaN,NaN,NaN,,-0.053421356,0.4603869,-0.2937413,0.12820835,0.98617154,-0.10501585,-0.8783025,0.063726336,-0.47383922,-0.46059448,0.15298584,0.8743272,,NaN,NaN,NaN,NaN,NaN,NaN,NaN,,-1.4278946947797406,0.05717911420075827,0.20611270258000003,0.3401170883318985,0.10288728432337665,0.457877401868944,-0.1540334543646253,,0.0250542014123786,0.03182171558698661,0.08397132691999999,-0.11775085106328897,,-3.310293e-05,-1.7881393e-06,9.536743e-07,1.0,4.3548644e-06,4.61936e-06,-4.3548644e-06,1.0,4.172325e-07,-4.6230853e-06,-4.172325e-07,1.0,848,2.636,1,3,1.161,False,1.0436228678980215,0.014822004454151827
2.597148680826649,16:31:57.996496,16:30:31.299553,0,,NaN,NaN,NaN,NaN,NaN,NaN,NaN,NaN,NaN,NaN,NaN,NaN,,0.098915964,-0.004937127,0.02983141,-0.04173439,-0.97462153,0.21993372,-0.80172396,0.16402836,0.5747465,-0.5962357,-0.15233943,-0.7882231,,0.057565928,1.3275584,0.43761194,0.996746,0.079176076,-0.015119012,0.043197207,-0.68303496,-0.7291072,-0.06805465,0.72608155,-0.68423253,,NaN,NaN,NaN,NaN,NaN,NaN,NaN,NaN,NaN,NaN,NaN,NaN,,-0.052751783,0.46035567,-0.29371426,0.101995975,0.99013424,-0.0960779,-0.88667405,0.046699114,-0.46003076,-0.4510055,0.13211106,0.8826895,,NaN,NaN,NaN,NaN,NaN,NaN,NaN,,-1.4246125333081954,0.056360504516090475,0.20583011136,0.32376127274010563,0.12925812877810666,0.46398116062304473,-0.15403345436462534,,0.0250542014123786,0.03182171558698661,0.08397132691999999,-0.11775085106328897,,-3.310293e-05,-1.7881393e-06,9.536743e-07,1.0,4.3548644e-06,4.61936e-06,-4.3548644e-06,1.0,4.172325e-07,-4.6230853e-06,-4.172325e-07,1.0,871,2.71,0,3,1.224,False,1.0431462461498535,0.013904680639341915
2.6786635408643633,16:31:58.068632,16:30:31.299553,0,,NaN,NaN,NaN,NaN,NaN,NaN,NaN,NaN,NaN,NaN,NaN,NaN,,0.09842407,-0.0049975514,0.029645026,-0.029422846,-0.97361535,0.22629037,-0.79891074,0.15896298,0.58006257,-0.6007296,-0.1637187,-0.7825089,,0.057565928,1.3275584,0.43761194,0.996746,0.079176076,-0.015119012,0.043197207,-0.68303496,-0.7291072,-0.06805465,0.72608155,-0.68423253,,NaN,NaN,NaN,NaN,NaN,NaN,NaN,NaN,NaN,NaN,NaN,NaN,,-0.05224082,0.46021745,-0.29372618,0.09048501,0.9905556,-0.103015035,-0.8907202,0.034227323,-0.45326155,-0.44545484,0.13277096,0.88540494,,NaN,NaN,NaN,NaN,NaN,NaN,NaN,,-1.4219945268638332,0.055495558434177326,0.20565122334000002,0.3170511945486008,0.14278514225488526,0.45466604170005076,-0.15354342216622252,,0.0250542014123786,0.03182171558698661,0.08397132691999999,-0.11775085106328897,,-3.310293e-05,-1.7881393e-06,9.536743e-07,1.0,4.3548644e-06,4.61936e-06,-4.3548644e-06,1.0,4.172325e-07,-4.6230853e-06,-4.172325e-07,1.0,894,2.783,0,3,1.224,False,1.0432654015868956,0.014387482647136629
2.750770010985434,16:31:58.140537,16:30:31.447906,0,,NaN,NaN,NaN,NaN,NaN,NaN,NaN,NaN,NaN,NaN,NaN,NaN,,0.097989336,-0.0051876754,0.029476523,-0.028264485,-0.9715323,0.23521501,-0.79192984,0.1653496,0.5877982,-0.6099577,-0.16965996,-0.77405894,,0.057565928,1.3275584,0.43761194,0.996746,0.079176076,-0.015119012,0.043197207,-0.68303496,-0.7291072,-0.06805465,0.72608155,-0.68423253,,NaN,NaN,NaN,NaN,NaN,NaN,NaN,NaN,NaN,NaN,NaN,NaN,,-0.051792186,0.4600298,-0.2938568,0.09076948,0.9894624,-0.11280585,-0.8958361,0.03164614,-0.44325638,-0.43501562,0.14128971,0.8892686,,NaN,NaN,NaN,NaN,NaN,NaN,NaN,,-1.4196699842686915,0.05411318924969114,0.20545159468000002,0.32313220290965206,0.15453588123471315,0.445002423242018,-0.15436014249689384,,0.0250542014123786,0.03182171558698661,0.08397132691999999,-0.11775085106328897,,-3.310293e-05,-1.7881393e-06,9.536743e-07,1.0,4.3548644e-06,4.61936e-06,-4.3548644e-06,1.0,4.172325e-07,-4.6230853e-06,-4.172325e-07,1.0,917,2.857,0,3,1.224,False,1.043920756490627,0.013663279635444336
2.822725335834548,16:31:58.219897,16:30:31.447906,0,,NaN,NaN,NaN,NaN,NaN,NaN,NaN,NaN,NaN,NaN,NaN,NaN,,0.097626224,-0.005249098,0.029249549,0.001058381,-0.9709452,0.23929915,-0.7950307,0.14433445,0.58914673,-0.60656834,-0.19087367,-0.7717785,,0.057565928,1.3275584,0.43761194,0.996746,0.079176076,-0.015119012,0.043197207,-0.68303496,-0.7291072,-0.06805465,0.72608155,-0.68423253,,NaN,NaN,NaN,NaN,NaN,NaN,NaN,NaN,NaN,NaN,NaN,NaN,,-0.05140327,0.45984104,-0.2938406,0.061188802,0.9912302,-0.1171264,-0.8974639,0.003281915,-0.4410757,-0.4368232,0.1321056,0.8897942,,NaN,NaN,NaN,NaN,NaN,NaN,NaN,,-1.4175307872625313,0.05290844292131212,0.20539066905000003,0.296711270030602,0.17120553420609688,0.43492162481709873,-0.15583023909210253,,0.0250542014123786,0.03182171558698661,0.08397132691999999,-0.11775085106328897,,-3.310293e-05,-1.7881393e-06,9.536743e-07,1.0,4.3548644e-06,4.61936e-06,-4.3548644e-06,1.0,4.172325e-07,-4.6230853e-06,-4.172325e-07,1.0,940,2.931,0,3,1.224,False,1.0435037124609798,0.013904680639341915
2.902069402858615,16:31:58.291269,16:30:31.447906,0,,NaN,NaN,NaN,NaN,NaN,NaN,NaN,NaN,NaN,NaN,NaN,NaN,,0.097235024,-0.0053036213,0.02896607,0.03307009,-0.9700281,0.24073161,-0.79506004,0.12042099,0.59445643,-0.6056286,-0.21105477,-0.7672483,,0.057565928,1.3275584,0.43761194,0.996746,0.079176076,-0.015119012,0.043197207,-0.68303496,-0.7291072,-0.06805465,0.72608155,-0.68423253,,NaN,NaN,NaN,NaN,NaN,NaN,NaN,NaN,NaN,NaN,NaN,NaN,,-0.050978687,0.45960855,-0.2937954,0.029356137,0.9924571,-0.11902591,-0.9001576,-0.025521735,-0.43481606,-0.434574,0.11990659,0.89261854,,NaN,NaN,NaN,NaN,NaN,NaN,NaN,,-1.4150826809414023,0.051448846408083684,0.20536603954000002,0.2702903371515519,0.19265746466927103,0.4266587115726441,-0.1550135187614311,,0.0250542014123786,0.03182171558698661,0.08397132691999999,-0.11775085106328897,,-3.310293e-05,-1.7881393e-06,9.536743e-07,1.0,4.3548644e-06,4.61936e-06,-4.3548644e-06,1.0,4.172325e-07,-4.6230853e-06,-4.172325e-07,1.0,963,3.005,0,3,1.224,False,1.0431462461498535,0.013759840037003368
2.9734579119831324,16:31:58.363932,16:30:31.612094,0,,NaN,NaN,NaN,NaN,NaN,NaN,NaN,NaN,NaN,NaN,NaN,NaN,,0.09660745,-0.0055294484,0.028323293,0.03608394,-0.96996886,0.24053733,-0.7931439,0.11863234,0.5973685,-0.60796446,-0.21233611,-0.7650442,,0.057565928,1.3275584,0.43761194,0.996746,0.079176076,-0.015119012,0.043197207,-0.68303496,-0.7291072,-0.06805465,0.72608155,-0.68423253,,NaN,NaN,NaN,NaN,NaN,NaN,NaN,NaN,NaN,NaN,NaN,NaN,,-0.050275516,0.45900655,-0.29376206,0.026737416,0.9925271,-0.11905905,-0.9016832,-0.027473409,-0.43152356,-0.43156978,0.118891366,0.89421046,,NaN,NaN,NaN,NaN,NaN,NaN,NaN,,-1.4106652777373458,0.04941004492928841,0.20537511357000002,0.2688225075471602,0.20003583565660482,0.4228474707568326,-0.15485017469529672,,0.0250542014123786,0.03182171558698661,0.08397132691999999,-0.11775085106328897,,-3.310293e-05,-1.7881393e-06,9.536743e-07,1.0,4.3548644e-06,4.61936e-06,-4.3548644e-06,1.0,4.172325e-07,-4.6230853e-06,-4.172325e-07,1.0,995,3.107,0,3,1.224,False,1.0435037124609798,0.013904680639341915
3.046060347929597,16:31:58.463014,16:30:31.767935,0,,NaN,NaN,NaN,NaN,NaN,NaN,NaN,NaN,NaN,NaN,NaN,NaN,,0.09564196,-0.005538672,0.027473807,0.033719875,-0.9707353,0.23777291,-0.78947115,0.12001635,0.6019398,-0.61286086,-0.20801216,-0.7623205,,0.057565928,1.3275584,0.43761194,0.996746,0.079176076,-0.015119012,0.043197207,-0.68303496,-0.7291072,-0.06805465,0.72608155,-0.68423253,,NaN,NaN,NaN,NaN,NaN,NaN,NaN,NaN,NaN,NaN,NaN,NaN,,-0.049204074,0.45835716,-0.29347187,0.029837636,0.9927336,-0.116575204,-0.9040852,-0.022937775,-0.42673624,-0.42630938,0.11812671,0.89683133,,NaN,NaN,NaN,NaN,NaN,NaN,NaN,,-1.4041241229928776,0.0483365850597712,0.20540233566000002,0.2730163064168507,0.20618447814604965,0.4205290635151321,-0.15534020689369965,,0.0250542014123786,0.03182171558698661,0.08397132691999999,-0.11775085106328897,,-3.310293e-05,-1.7881393e-06,9.536743e-07,1.0,4.3548644e-06,4.61936e-06,-4.3548644e-06,1.0,4.172325e-07,-4.6230853e-06,-4.172325e-07,1.0,1028,3.214,0,3,1.224,False,1.0435632901795007,0.014097801442459978
3.145178603939712,16:31:58.572882,16:30:31.862007,0,,NaN,NaN,NaN,NaN,NaN,NaN,NaN,NaN,NaN,NaN,NaN,NaN,,0.09507993,-0.0054944307,0.027033865,0.030732576,-0.97094893,0.23730496,-0.7871014,0.122822605,0.60447174,-0.6160576,-0.20536003,-0.7604606,,0.057565928,1.3275584,0.43761194,0.996746,0.079176076,-0.015119012,0.043197207,-0.68303496,-0.7291072,-0.06805465,0.72608155,-0.68423253,,NaN,NaN,NaN,NaN,NaN,NaN,NaN,NaN,NaN,NaN,NaN,NaN,,-0.04858652,0.45804992,-0.29328313,0.033290964,0.99265605,-0.11630018,-0.9055078,-0.019295033,-0.42389065,-0.4230216,0.11942245,0.8982155,,NaN,NaN,NaN,NaN,NaN,NaN,NaN,,-1.4005407749392376,0.04818985313516094,0.20541529856000001,0.2770004153430567,0.20864393514182755,0.418441862508456,-0.15550355095983381,,0.0250542014123786,0.03182171558698661,0.08397132691999999,-0.11775085106328897,,-3.310293e-05,-1.7881393e-06,9.536743e-07,1.0,4.3548644e-06,4.61936e-06,-4.3548644e-06,1.0,4.172325e-07,-4.6230853e-06,-4.172325e-07,1.0,1047,3.275,1,4,1.257,False,1.0438611787721057,0.01414608164323905
3.2550716099794954,16:31:58.631622,16:30:31.862007,0,,NaN,NaN,NaN,NaN,NaN,NaN,NaN,NaN,NaN,NaN,NaN,NaN,,0.09480717,-0.0054661706,0.026822805,0.029101435,-0.97100127,0.23729609,-0.7859504,0.1244515,0.60563505,-0.6176044,-0.2041278,-0.75953716,,0.057572328,1.3275576,0.4376177,0.9967454,0.07918528,-0.015109185,0.04321064,-0.6830339,-0.7291074,-0.06805465,0.72608155,-0.68423253,,NaN,NaN,NaN,NaN,NaN,NaN,NaN,NaN,NaN,NaN,NaN,NaN,,-0.048294254,0.4579006,-0.29318318,0.035158418,0.99258083,-0.11639228,-0.9061731,-0.017451039,-0.42254677,-0.421443,0.12032762,0.8988365,,NaN,NaN,NaN,NaN,NaN,NaN,NaN,,-1.3987799918439143,0.048097180340670245,0.2054230763,0.2790973147779019,0.2097370271399511,0.4172238043183224,-0.15550355095983381,,0.0250542014123786,0.03182171558698661,0.08397132691999999,-0.11775085106328897,,-2.7164817e-05,3.4570694e-06,-2.503395e-06,1.0,1.3574958e-05,1.4409423e-05,-1.3574958e-05,1.0,1.3411045e-06,-1.4405698e-05,-1.3411045e-06,1.0,1066,3.336,1,4,1.318,False,1.0436824456165428,0.014049521241680019
3.3138091748114675,16:31:58.702637,16:30:31.967012,0,,NaN,NaN,NaN,NaN,NaN,NaN,NaN,NaN,NaN,NaN,NaN,NaN,,0.09442886,-0.0053715333,0.026449203,0.033556912,-0.9708502,0.23732571,-0.78532064,0.12126164,0.6070974,-0.61817926,-0.2067491,-0.75835955,,0.057572328,1.3275576,0.4376177,0.9967454,0.07918528,-0.015109185,0.04321064,-0.6830339,-0.7291074,-0.06805465,0.72608155,-0.68423253,,NaN,NaN,NaN,NaN,NaN,NaN,NaN,NaN,NaN,NaN,NaN,NaN,,-0.0478664,0.4576548,-0.29296377,0.030839872,0.99270654,-0.116544515,-0.90688413,-0.021233829,-0.42084476,-0.42025006,0.11867117,0.89961493,,NaN,NaN,NaN,NaN,NaN,NaN,NaN,,-1.3960693126050616,0.04798133934755688,0.20550474257,0.2753228957951805,0.21397275863267975,0.4138515280438738,-0.1556668950259681,,0.0250542014123786,0.03182171558698661,0.08397132691999999,-0.11775085106328897,,-2.7164817e-05,3.4570694e-06,-2.503395e-06,1.0,1.3574958e-05,1.4409423e-05,-1.3574958e-05,1.0,1.3411045e-06,-1.4405698e-05,-1.3411045e-06,1.0,1085,3.398,1,5,1.345,False,1.0435037124609798,0.013711559836224296
3.3847688438836485,16:31:58.754602,16:30:31.967012,0,,NaN,NaN,NaN,NaN,NaN,NaN,NaN,NaN,NaN,NaN,NaN,NaN,,0.094192274,-0.0053184703,0.02605468,0.03260682,-0.9710171,0.23677467,-0.7843159,0.121979766,0.60825133,-0.6195042,-0.20553926,-0.75760686,,0.057572328,1.3275576,0.4376177,0.9967454,0.07918528,-0.015109185,0.04321064,-0.6830339,-0.7291074,-0.06805465,0.72608155,-0.68423253,,NaN,NaN,NaN,NaN,NaN,NaN,NaN,NaN,NaN,NaN,NaN,NaN,,-0.047577113,0.457356,-0.29276007,0.03198646,0.9927257,-0.11607175,-0.90749514,-0.019819723,-0.4195948,-0.41884303,0.1187559,0.90025973,,NaN,NaN,NaN,NaN,NaN,NaN,NaN,,-1.3938683337359075,0.0476724300325879,0.20566937140000002,0.27658103545608764,0.21561239662986503,0.4126778706797979,-0.1556668950259682,,0.0250542014123786,0.03182171558698661,0.08397132691999999,-0.11775085106328897,,-2.7164817e-05,3.4570694e-06,-2.503395e-06,1.0,1.3574958e-05,1.4409423e-05,-1.3574958e-05,1.0,1.3411045e-06,-1.4405698e-05,-1.3411045e-06,1.0,1104,3.459,1,5,1.406,False,1.0435632901795007,0.013614999434665265
3.4367628898471594,16:31:58.822494,16:30:32.080417,0,,NaN,NaN,NaN,NaN,NaN,NaN,NaN,NaN,NaN,NaN,NaN,NaN,,0.094067246,-0.005200036,0.025563836,0.032097775,-0.97129077,0.23571971,-0.7814816,0.12264013,0.6117564,-0.62310207,-0.20384663,-0.7551094,,0.057572328,1.3275576,0.4376177,0.9967454,0.07918528,-0.015109185,0.04321064,-0.6830339,-0.7291074,-0.06805465,0.72608155,-0.68423253,,NaN,NaN,NaN,NaN,NaN,NaN,NaN,NaN,NaN,NaN,NaN,NaN,,-0.047383558,0.45698953,-0.29244575,0.033051655,0.9927833,-0.11527735,-0.9093333,-0.01799328,-0.41567922,-0.41475362,0.11856442,0.9021762,,NaN,NaN,NaN,NaN,NaN,NaN,NaN,,-1.3917445821954957,0.047340352518996244,0.20599862906000002,0.2793070047213864,0.2198481281225937,0.4123277077905503,-0.1556668950259682,,0.0250542014123786,0.03182171558698661,0.08397132691999999,-0.11775085106328897,,-2.7164817e-05,3.4570694e-06,-2.503395e-06,1.0,1.3574958e-05,1.4409423e-05,-1.3574958e-05,1.0,1.3411045e-06,-1.4405698e-05,-1.3411045e-06,1.0,1123,3.521,1,5,1.468,False,1.04409948964619,0.013711559836224296
3.5046778018586338,16:31:58.883386,16:30:32.176173,0,,NaN,NaN,NaN,NaN,NaN,NaN,NaN,NaN,NaN,NaN,NaN,NaN,,0.094108164,-0.005037628,0.025197864,0.033448294,-0.97092396,0.23703933,-0.77984214,0.122980654,0.61377686,-0.62508196,-0.20538305,-0.753054,,0.057572328,1.3275576,0.4376177,0.9967454,0.07918528,-0.015109185,0.04321064,-0.6830339,-0.7291074,-0.06805465,0.72608155,-0.68423253,,NaN,NaN,NaN,NaN,NaN,NaN,NaN,NaN,NaN,NaN,NaN,NaN,,-0.04737022,0.45673525,-0.29213408,0.032024864,0.9926375,-0.116812356,-0.9104874,-0.019237302,-0.41308907,-0.41229486,0.1195853,0.9031679,,NaN,NaN,NaN,NaN,NaN,NaN,NaN,,-1.3906788450588528,0.047355797984744694,0.20634992365000002,0.27951669466487095,0.2229907676171988,0.40992845348581364,-0.15599358315823675,,0.0250542014123786,0.03182171558698661,0.08397132691999999,-0.11775085106328897,,-2.7164817e-05,3.4570694e-06,-2.503395e-06,1.0,1.3574958e-05,1.4409423e-05,-1.3574958e-05,1.0,1.3411045e-06,-1.4405698e-05,-1.3411045e-06,1.0,1142,3.582,1,5,1.529,False,1.0436228678980215,0.013132197426870551
3.5655729179270566,16:31:58.943522,16:30:32.176173,0,,NaN,NaN,NaN,NaN,NaN,NaN,NaN,NaN,NaN,NaN,NaN,NaN,,0.09412065,-0.004847802,0.024806976,0.033025872,-0.97083163,0.23747653,-0.7790074,0.12385273,0.614661,-0.62614447,-0.20529568,-0.75219464,,0.057572328,1.3275576,0.4376177,0.9967454,0.07918528,-0.015109185,0.04321064,-0.6830339,-0.7291074,-0.06805465,0.72608155,-0.68423253,,NaN,NaN,NaN,NaN,NaN,NaN,NaN,NaN,NaN,NaN,NaN,NaN,,-0.047324635,0.45647448,-0.29178926,0.032608848,0.99255633,-0.11733968,-0.9110014,-0.018774146,-0.41197577,-0.4111121,0.12033066,0.90360796,,NaN,NaN,NaN,NaN,NaN,NaN,NaN,,-1.3894354850661026,0.04757203450522298,0.20670769969000002,0.2803554544388091,0.2239472231155569,0.4084134194986736,-0.15615692722437102,,0.0250542014123786,0.03182171558698661,0.08397132691999999,-0.11775085106328897,,-2.7164817e-05,3.4570694e-06,-2.503395e-06,1.0,1.3574958e-05,1.4409423e-05,-1.3574958e-05,1.0,1.3411045e-06,-1.4405698e-05,-1.3411045e-06,1.0,1180,3.705,1,5,1.652,False,1.0438611787721057,0.01303563702531152
3.625710909953341,16:31:59.063698,16:30:32.352341,0,,NaN,NaN,NaN,NaN,NaN,NaN,NaN,NaN,NaN,NaN,NaN,NaN,,0.09402016,-0.0044265017,0.023852706,0.03209789,-0.9710583,0.23667571,-0.77711904,0.12466537,0.6168829,-0.6285347,-0.20372584,-0.75062644,,0.057572328,1.3275576,0.4376177,0.9967454,0.07918528,-0.015109185,0.04321064,-0.6830339,-0.7291074,-0.06805465,0.72608155,-0.68423253,,NaN,NaN,NaN,NaN,NaN,NaN,NaN,NaN,NaN,NaN,NaN,NaN,,-0.0470847,0.4558331,-0.290996,0.03390077,0.9925881,-0.11670327,-0.91215533,-0.016992263,-0.40949225,-0.40844017,0.12033362,0.9048185,,NaN,NaN,NaN,NaN,NaN,NaN,NaN,,-1.3859216416083304,0.047973616614682656,0.20749065885,0.28203297398668525,0.22640668011133483,0.4061628610117164,-0.15632027129050519,,0.0250542014123786,0.03182171558698661,0.08397132691999999,-0.11775085106328897,,-2.7164817e-05,3.4570694e-06,-2.503395e-06,1.0,1.3574958e-05,1.4409423e-05,-1.3574958e-05,1.0,1.3411045e-06,-1.4405698e-05,-1.3411045e-06,1.0,1256,3.951,1,5,1.898,False,1.0436228678980215,0.014001241040900947
3.7458728079218417,16:31:59.309151,16:30:32.537118,0,,NaN,NaN,NaN,NaN,NaN,NaN,NaN,NaN,NaN,NaN,NaN,NaN,,0.09558319,-0.0031615272,0.021543741,0.044478722,-0.9700742,0.23869962,-0.77986693,0.11561451,0.6151754,-0.62436295,-0.21351618,-0.75138646,,0.057572328,1.3275576,0.4376177,0.9967454,0.07918528,-0.015109185,0.04321064,-0.6830339,-0.7291074,-0.06805465,0.72608155,-0.68423253,,NaN,NaN,NaN,NaN,NaN,NaN,NaN,NaN,NaN,NaN,NaN,NaN,,-0.048286732,0.45419458,-0.28870577,0.021002041,0.9927143,-0.118647814,-0.91107297,-0.029866649,-0.41116175,-0.41170973,0.11673205,0.9038079,,NaN,NaN,NaN,NaN,NaN,NaN,NaN,,-1.3847323407457,0.049054799217074084,0.21053823664000001,0.2684031276601912,0.22913941010664365,0.3996872084504787,-0.15632027129050519,,0.0250542014123786,0.03182171558698661,0.08397132691999999,-0.11775085106328897,,-2.7164817e-05,3.4570694e-06,-2.503395e-06,1.0,1.3574958e-05,1.4409423e-05,-1.3574958e-05,1.0,1.3411045e-06,-1.4405698e-05,-1.3411045e-06,1.0,1275,4.012,1,5,1.959,False,1.0435632901795007,0.013663279635444336
3.991319208871573,16:31:59.375239,16:30:32.537118,0,,NaN,NaN,NaN,NaN,NaN,NaN,NaN,NaN,NaN,NaN,NaN,NaN,,0.096445024,-0.0026330128,0.020458579,0.051505905,-0.96930426,0.24040844,-0.7822318,0.11049903,0.6131096,-0.62085474,-0.21963389,-0.7525293,,0.057572328,1.3275576,0.4376177,0.9967454,0.07918528,-0.015109185,0.04321064,-0.6830339,-0.7291074,-0.06805465,0.72608155,-0.68423253,,NaN,NaN,NaN,NaN,NaN,NaN,NaN,NaN,NaN,NaN,NaN,NaN,,-0.04897936,0.45338058,-0.2876775,0.013505439,0.9926533,-0.12023735,-0.9098159,-0.03768321,-0.41329774,-0.4147923,0.114975624,0.9026228,,NaN,NaN,NaN,NaN,NaN,NaN,NaN,,-1.3847400634785743,0.04919380840881013,0.21202248869,0.2600155299208102,0.22982259260547083,0.3961080055467958,-0.1561569272243709,,0.0250542014123786,0.03182171558698661,0.08397132691999999,-0.11775085106328897,,-2.7164817e-05,3.4570694e-06,-2.503395e-06,1.0,1.3574958e-05,1.4409423e-05,-1.3574958e-05,1.0,1.3411045e-06,-1.4405698e-05,-1.3411045e-06,1.0,1294,4.074,1,5,2.021,False,1.0435037124609798,0.014725444052592795
4.057403646875173,16:31:59.436399,16:30:32.683206,0,,NaN,NaN,NaN,NaN,NaN,NaN,NaN,NaN,NaN,NaN,NaN,NaN,,0.09723036,-0.0021492913,0.019446969,0.05883839,-0.96908116,0.23962393,-0.78510535,0.10333452,0.6106813,-0.61656123,-0.22406152,-0.7547507,,0.057572328,1.3275576,0.4376177,0.9967454,0.07918528,-0.015109185,0.04321064,-0.6830339,-0.7291074,-0.06805465,0.72608155,-0.68423253,,NaN,NaN,NaN,NaN,NaN,NaN,NaN,NaN,NaN,NaN,NaN,NaN,,-0.049607363,0.4526197,-0.2867284,0.0055868095,0.99285215,-0.11922012,-0.90812904,-0.044876,-0.41627854,-0.41865316,0.11059292,0.9013871,,NaN,NaN,NaN,NaN,NaN,NaN,NaN,,-1.384701449814203,0.04930964940192349,0.21339137093000002,0.2507891724074911,0.22995922910523628,0.39493476402127203,-0.1556668950259681,,0.0250542014123786,0.03182171558698661,0.08397132691999999,-0.11775085106328897,,-2.7164817e-05,3.4570694e-06,-2.503395e-06,1.0,1.3574958e-05,1.4409423e-05,-1.3574958e-05,1.0,1.3411045e-06,-1.4405698e-05,-1.3411045e-06,1.0,1327,4.18,0,5,2.03,False,1.0434441347424586,0.01467716385181328
4.118561750976369,16:31:59.539010,16:30:32.767888,0,,NaN,NaN,NaN,NaN,NaN,NaN,NaN,NaN,NaN,NaN,NaN,NaN,,0.098272346,-0.0013701841,0.017870963,0.06476645,-0.9699124,0.2346808,-0.79103637,0.09346457,0.6045874,-0.60833114,-0.22479802,-0.76118267,,0.057572328,1.3275576,0.4376177,0.9967454,0.07918528,-0.015109185,0.04321064,-0.6830339,-0.7291074,-0.06805465,0.72608155,-0.68423253,,NaN,NaN,NaN,NaN,NaN,NaN,NaN,NaN,NaN,NaN,NaN,NaN,,-0.05040533,0.45146576,-0.2852424,-0.0015536435,0.9935248,-0.11360506,-0.9041961,-0.049918223,-0.42419055,-0.42711478,0.10206221,0.8984188,,NaN,NaN,NaN,NaN,NaN,NaN,NaN,,-1.3839600674582775,0.04993519076473568,0.21541487962000003,0.23946591545932683,0.22490367861391497,0.3971786154348067,-0.15550355095983392,,0.0250542014123786,0.03182171558698661,0.08397132691999999,-0.11775085106328897,,-2.7164817e-05,3.4570694e-06,-2.503395e-06,1.0,1.3574958e-05,1.4409423e-05,-1.3574958e-05,1.0,1.3411045e-06,-1.4405698e-05,-1.3411045e-06,1.0,1346,4.242,0,5,2.03,False,1.0436228678980215,0.014532323249474732
4.221164848888293,16:31:59.597737,16:30:32.863466,0,,NaN,NaN,NaN,NaN,NaN,NaN,NaN,NaN,NaN,NaN,NaN,NaN,,0.098499954,-0.0008962676,0.017128587,0.066667944,-0.97094244,0.22983897,-0.7943897,0.08773118,0.6010393,-0.6037387,-0.22265176,-0.76545787,,0.057572328,1.3275576,0.4376177,0.9967454,0.07918528,-0.015109185,0.04321064,-0.6830339,-0.7291074,-0.06805465,0.72608155,-0.68423253,,NaN,NaN,NaN,NaN,NaN,NaN,NaN,NaN,NaN,NaN,NaN,NaN,,-0.0505178,0.45099962,-0.28446937,-0.0041462765,0.99410754,-0.10831876,-0.90186703,-0.050511267,-0.4290507,-0.43199387,0.095910154,0.89676225,,NaN,NaN,NaN,NaN,NaN,NaN,NaN,,-1.3825776982737914,0.05093142330551064,0.21624580151000003,0.2340139769287292,0.22080458362095176,0.3997860438844344,-0.15534020689369965,,0.0250542014123786,0.03182171558698661,0.08397132691999999,-0.11775085106328897,,-2.7164817e-05,3.4570694e-06,-2.503395e-06,1.0,1.3574958e-05,1.4409423e-05,-1.3574958e-05,1.0,1.3411045e-06,-1.4405698e-05,-1.3411045e-06,1.0,1365,4.303,1,6,2.034,False,1.044039911927669,0.01549792726506416
4.279903289861977,16:31:59.663845,16:30:32.961069,0,,NaN,NaN,NaN,NaN,NaN,NaN,NaN,NaN,NaN,NaN,NaN,NaN,,0.09817677,-0.00039254874,0.016615212,0.06494342,-0.9717291,0.22699055,-0.7969364,0.08639369,0.5978533,-0.600562,-0.21972367,-0.76879567,,0.057572328,1.3275576,0.4376177,0.9967454,0.07918528,-0.015109185,0.04321064,-0.6830339,-0.7291074,-0.06805465,0.72608155,-0.68423253,,NaN,NaN,NaN,NaN,NaN,NaN,NaN,NaN,NaN,NaN,NaN,NaN,,-0.050115153,0.45080996,-0.2838185,-0.002934803,0.9944547,-0.10512496,-0.90002567,-0.04844346,-0.43313622,-0.43582696,0.093343996,0.89517695,,NaN,NaN,NaN,NaN,NaN,NaN,NaN,,-1.3797202871103282,0.05280032466107297,0.21659320723000003,0.2321267674373685,0.21533912363033417,0.3995053931041386,-0.155013518761431,,0.0250542014123786,0.03182171558698661,0.08397132691999999,-0.11775085106328897,,-2.7164817e-05,3.4570694e-06,-2.503395e-06,1.0,1.3574958e-05,1.4409423e-05,-1.3574958e-05,1.0,1.3411045e-06,-1.4405698e-05,-1.3411045e-06,1.0,1384,4.364,1,6,2.095,False,1.0435632901795007,0.014387482647136629
4.346011788817123,16:31:59.721270,16:30:32.961069,0,,NaN,NaN,NaN,NaN,NaN,NaN,NaN,NaN,NaN,NaN,NaN,NaN,,0.09794147,-6.558001e-05,0.016388595,0.063498124,-0.97252953,0.22395101,-0.7987236,0.085017025,0.59566164,-0.59833825,-0.21669836,-0.7713839,,0.057588853,1.3275617,0.4376194,0.996747,0.079159565,-0.01513663,0.043173123,-0.68303686,-0.7291068,-0.06805465,0.72608155,-0.68423253,,NaN,NaN,NaN,NaN,NaN,NaN,NaN,NaN,NaN,NaN,NaN,NaN,,-0.049855698,0.45078474,-0.28344122,-0.0018861963,0.99480253,-0.10180529,-0.89871365,-0.04633137,-0.4360816,-0.43853185,0.09067127,0.89413005,,NaN,NaN,NaN,NaN,NaN,NaN,NaN,,-1.377750990227401,0.054059130119571565,0.21668005866,0.23107831771994583,0.21137666513713638,0.40044950758739906,-0.15534020689369948,,0.0250542014123786,0.03182171558698661,0.08397132691999999,-0.11775085106328897,,-1.0617077e-05,3.1590462e-06,-6.914139e-06,1.0,-1.2185425e-05,-1.2923032e-05,1.2177974e-05,1.0,-1.2218952e-06,1.2919307e-05,1.2218952e-06,1.0,1403,4.426,1,6,2.157,False,1.0431462461498535,0.013904680639341915
4.403392056003213,16:31:59.789519,16:30:33.055466,0,,NaN,NaN,NaN,NaN,NaN,NaN,NaN,NaN,NaN,NaN,NaN,NaN,,0.097670525,0.00013510883,0.015948534,0.060431756,-0.97345805,0.22074237,-0.8028846,0.083989054,0.5901883,-0.5930636,-0.21289678,-0.7764989,,0.057588853,1.3275617,0.4376194,0.996747,0.079159565,-0.01513663,0.043173123,-0.68303686,-0.7291068,-0.06805465,0.72608155,-0.68423253,,NaN,NaN,NaN,NaN,NaN,NaN,NaN,NaN,NaN,NaN,NaN,NaN,,-0.049522433,0.4505165,-0.28308862,0.00032796586,0.9951793,-0.098071516,-0.8956033,-0.043335143,-0.4427378,-0.44485343,0.08797838,0.8912717,,NaN,NaN,NaN,NaN,NaN,NaN,NaN,,-1.3754727840295047,0.0547310078796291,0.21690042796000003,0.2289814182851006,0.20399829414980258,0.40148367123843154,-0.15550355095983392,,0.0250542014123786,0.03182171558698661,0.08397132691999999,-0.11775085106328897,,-1.0617077e-05,3.1590462e-06,-6.914139e-06,1.0,-1.2185425e-05,-1.2923032e-05,1.2177974e-05,1.0,-1.2218952e-06,1.2919307e-05,1.2218952e-06,1.0,1422,4.487,1,6,2.218,False,1.043920756490627,0.014290922245577597
4.471653471933678,16:31:59.851778,16:30:33.150535,0,,NaN,NaN,NaN,NaN,NaN,NaN,NaN,NaN,NaN,NaN,NaN,NaN,,0.09754601,0.0003079325,0.015427113,0.0584558,-0.9747487,0.21551752,-0.8091014,0.080196545,0.5821714,-0.58475465,-0.20840684,-0.7839826,,0.057588853,1.3275617,0.4376194,0.996747,0.079159565,-0.01513663,0.043173123,-0.68303686,-0.7291068,-0.06805465,0.72608155,-0.68423253,,NaN,NaN,NaN,NaN,NaN,NaN,NaN,NaN,NaN,NaN,NaN,NaN,,-0.049323842,0.4501476,-0.2827121,0.0009974977,0.9957508,-0.0920837,-0.89086336,-0.04094607,-0.45242223,-0.45427024,0.08248529,0.88703704,,NaN,NaN,NaN,NaN,NaN,NaN,NaN,,-1.373588437208194,0.05514803545483722,0.21725431513000001,0.22394885964147201,0.19443373916622175,0.40462723630916897,-0.15534020689369954,,0.0250542014123786,0.03182171558698661,0.08397132691999999,-0.11775085106328897,,-1.0617077e-05,3.1590462e-06,-6.914139e-06,1.0,-1.2185425e-05,-1.2923032e-05,1.2177974e-05,1.0,-1.2218952e-06,1.2919307e-05,1.2218952e-06,1.0,1493,4.717,1,7,2.412,False,1.0435632901795007,0.014435762847916145
4.533946941839531,16:32:00.073770,16:30:33.254904,0,,NaN,NaN,NaN,NaN,NaN,NaN,NaN,NaN,NaN,NaN,NaN,NaN,,0.09608196,0.0021343231,0.012418449,0.030583523,-0.9813215,0.18992807,-0.83212566,0.0802725,0.54874706,-0.55374336,-0.17482662,-0.81412774,,0.057588853,1.3275617,0.4376194,0.996747,0.079159565,-0.01513663,0.043173123,-0.68303686,-0.7291068,-0.06805465,0.72608155,-0.68423253,,NaN,NaN,NaN,NaN,NaN,NaN,NaN,NaN,NaN,NaN,NaN,NaN,,-0.047418475,0.44847742,-0.27986407,0.023801472,0.9976984,-0.06349326,-0.87084365,-0.01050044,-0.491448,-0.49098358,0.066989884,0.86858934,,NaN,NaN,NaN,NaN,NaN,NaN,NaN,,-1.3593631632538725,0.06149612187744977,0.21919615755000002,0.22101320043268868,0.14374159775324336,0.4173757195313445,-0.15632027129050513,,0.0250542014123786,0.03182171558698661,0.08397132691999999,-0.11775085106328897,,-1.0617077e-05,3.1590462e-06,-6.914139e-06,1.0,-1.2185425e-05,-1.2923032e-05,1.2177974e-05,1.0,-1.2218952e-06,1.2919307e-05,1.2218952e-06,1.0,1512,4.778,0,7,2.451,False,1.0435632901795007,0.013904680639341915
4.755960197886452,16:32:00.134667,16:30:33.393099,0,,NaN,NaN,NaN,NaN,NaN,NaN,NaN,NaN,NaN,NaN,NaN,NaN,,0.09549548,0.0025067031,0.011988938,0.024881318,-0.9831002,0.18136945,-0.83527124,0.07923933,0.5440985,-0.54927504,-0.16503057,-0.81918365,,0.057588853,1.3275617,0.4376194,0.996747,0.079159565,-0.01513663,0.043173123,-0.68303686,-0.7291068,-0.06805465,0.72608155,-0.68423253,,NaN,NaN,NaN,NaN,NaN,NaN,NaN,NaN,NaN,NaN,NaN,NaN,,-0.04676978,0.44833112,-0.27938986,0.028761582,0.9981023,-0.05444795,-0.86769605,-0.0021132648,-0.49709064,-0.49626237,0.061541382,0.8659886,,NaN,NaN,NaN,NaN,NaN,NaN,NaN,,-1.3558647652618487,0.06317195491115649,0.21930245333,0.22185196020662676,0.1351334982680206,0.42267979392126726,-0.15615692722437108,,0.0250542014123786,0.03182171558698661,0.08397132691999999,-0.11775085106328897,,-1.0617077e-05,3.1590462e-06,-6.914139e-06,1.0,-1.2185425e-05,-1.2923032e-05,1.2177974e-05,1.0,-1.2218952e-06,1.2919307e-05,1.2218952e-06,1.0,1531,4.84,0,7,2.451,False,1.0435037124609798,0.014870284654931343
4.816776426974684,16:32:00.203701,16:30:33.393099,0,,NaN,NaN,NaN,NaN,NaN,NaN,NaN,NaN,NaN,NaN,NaN,NaN,,0.095028564,0.0027326345,0.01158458,0.017794654,-0.985727,0.16740791,-0.838657,0.07644531,0.5392686,-0.5443692,-0.14999391,-0.8253266,,0.057588853,1.3275617,0.4376194,0.996747,0.079159565,-0.01513663,0.043173123,-0.68303686,-0.7291068,-0.06805465,0.72608155,-0.68423253,,NaN,NaN,NaN,NaN,NaN,NaN,NaN,NaN,NaN,NaN,NaN,NaN,,-0.04624665,0.4481274,-0.27904722,0.03502728,0.9985892,-0.039908495,-0.86411893,0.0102008,-0.50318426,-0.50206727,0.052110862,0.86325717,,NaN,NaN,NaN,NaN,NaN,NaN,NaN,,-1.3529610177011404,0.06419907838342835,0.21940874911000002,0.2237391696979875,0.12584221628397066,0.4342584696395114,-0.16677429152309914,,0.0250542014123786,0.03182171558698661,0.08397132691999999,-0.11775085106328897,,-1.0617077e-05,3.1590462e-06,-6.914139e-06,1.0,-1.2185425e-05,-1.2923032e-05,1.2177974e-05,1.0,-1.2218952e-06,1.2919307e-05,1.2218952e-06,1.0,1550,4.901,0,7,2.451,False,1.0435632901795007,0.014290922245577597
4.885856624925509,16:32:00.258392,16:30:33.562660,0,,NaN,NaN,NaN,NaN,NaN,NaN,NaN,NaN,NaN,NaN,NaN,NaN,,0.094542876,0.0029967725,0.011278212,0.009684414,-0.98994875,0.14109427,-0.8420571,0.06802587,0.5350816,-0.53930146,-0.12399139,-0.8329346,,0.057588853,1.3275617,0.4376194,0.996747,0.079159565,-0.01513663,0.043173123,-0.68303686,-0.7291068,-0.06805465,0.72608155,-0.68423253,,NaN,NaN,NaN,NaN,NaN,NaN,NaN,NaN,NaN,NaN,NaN,NaN,,-0.045717265,0.44802973,-0.27871597,0.042284347,0.99902207,-0.012920115,-0.8602929,0.029830705,-0.5089266,-0.50804347,0.032634713,0.86071295,,NaN,NaN,NaN,NaN,NaN,NaN,NaN,,-1.3502426157294132,0.06560461576653721,0.21944634152000003,0.22646513896328632,0.11545784230179718,0.4584085484274274,-0.15991384074545928,,0.0250542014123786,0.03182171558698661,0.08397132691999999,-0.11775085106328897,,-1.0617077e-05,3.1590462e-06,-6.914139e-06,1.0,-1.2185425e-05,-1.2923032e-05,1.2177974e-05,1.0,-1.2218952e-06,1.2919307e-05,1.2218952e-06,1.0,1640,5.192,0,8,2.668,False,1.0423121580905588,0.014870284654931343
4.9405390988104045,16:32:00.546521,16:30:33.773175,0,,NaN,NaN,NaN,NaN,NaN,NaN,NaN,NaN,NaN,NaN,NaN,NaN,,0.091007635,0.004980311,0.010093391,-0.017531395,-0.9984762,0.052321773,-0.8482126,0.042558134,0.52794343,-0.5293658,-0.03512439,-0.84766626,,0.057588853,1.3275617,0.4376194,0.996747,0.079159565,-0.01513663,0.043173123,-0.68303686,-0.7291068,-0.06805465,0.72608155,-0.68423253,,NaN,NaN,NaN,NaN,NaN,NaN,NaN,NaN,NaN,NaN,NaN,NaN,,-0.04200449,0.44827065,-0.2767176,0.067731746,0.9947417,0.07682028,-0.8513188,0.097773045,-0.5154578,-0.52025837,-0.030485686,0.8534646,,NaN,NaN,NaN,NaN,NaN,NaN,NaN,,-1.332827853098037,0.07589901868787848,0.21906134339000002,0.23946591545932683,0.08457799335480763,0.5298191615823769,-0.16056721700999654,,0.0250542014123786,0.03182171558698661,0.08397132691999999,-0.11775085106328897,,-1.0617077e-05,3.1590462e-06,-6.914139e-06,1.0,-1.2185425e-05,-1.2923032e-05,1.2177974e-05,1.0,-1.2218952e-06,1.2919307e-05,1.2218952e-06,1.0,1659,5.253,1,9,2.697,False,1.0376650960459184,0.015546207465843231
5.228676461847499,16:32:00.619867,16:30:33.878585,0,,NaN,NaN,NaN,NaN,NaN,NaN,NaN,NaN,NaN,NaN,NaN,NaN,,0.09008518,0.0053708255,0.010114968,-0.023091339,-0.99878716,0.043483593,-0.8483739,0.04258724,0.5276819,-0.5288939,-0.024705468,-0.84832835,,0.057588853,1.3275617,0.4376194,0.996747,0.079159565,-0.01513663,0.043173123,-0.68303686,-0.7291068,-0.06805465,0.72608155,-0.68423253,,NaN,NaN,NaN,NaN,NaN,NaN,NaN,NaN,NaN,NaN,NaN,NaN,,-0.04108389,0.4485682,-0.27645713,0.07317003,0.9936343,0.085656896,-0.850365,0.10703237,-0.5151927,-0.52108115,-0.03514296,0.8527833,,NaN,NaN,NaN,NaN,NaN,NaN,NaN,,-1.3291595549827804,0.07844752053637256,0.21868153042000002,0.24324033444204826,0.07952244286348634,0.5348400901606907,-0.16138393734066792,,0.0250542014123786,0.03182171558698661,0.08397132691999999,-0.11775085106328897,,-1.0617077e-05,3.1590462e-06,-6.914139e-06,1.0,-1.2185425e-05,-1.2923032e-05,1.2177974e-05,1.0,-1.2218952e-06,1.2919307e-05,1.2218952e-06,1.0,1678,5.315,1,9,2.759,False,1.0317073241938153,0.014580603450254692
5.301966628991067,16:32:00.675345,16:30:33.975349,0,,NaN,NaN,NaN,NaN,NaN,NaN,NaN,NaN,NaN,NaN,NaN,NaN,,0.08961883,0.0053898096,0.010085702,-0.025750544,-0.998889,0.039465744,-0.848972,0.042695936,0.5267102,-0.52781016,-0.019942239,-0.84912825,,0.057588853,1.3275617,0.4376194,0.996747,0.079159565,-0.01513663,0.043173123,-0.68303686,-0.7291068,-0.06805465,0.72608155,-0.68423253,,NaN,NaN,NaN,NaN,NaN,NaN,NaN,NaN,NaN,NaN,NaN,NaN,,-0.040617563,0.4486021,-0.27646643,0.075641185,0.9930905,0.089720145,-0.8493868,0.11130436,-0.51590055,-0.5223222,-0.037183773,0.8519371,,NaN,NaN,NaN,NaN,NaN,NaN,NaN,,-1.3272674854285953,0.07888771631020336,0.21845597596000002,0.24449847410295542,0.0770629858677084,0.5370089699075073,-0.16171062547293635,,0.0250542014123786,0.03182171558698661,0.08397132691999999,-0.11775085106328897,,-1.0617077e-05,3.1590462e-06,-6.914139e-06,1.0,-1.2185425e-05,-1.2923032e-05,1.2177974e-05,1.0,-1.2218952e-06,1.2919307e-05,1.2218952e-06,1.0,1697,5.376,1,9,2.816,False,1.0287284382677635,0.014580603450254692
5.357497261837125,16:32:00.736147,16:30:33.975349,0,,NaN,NaN,NaN,NaN,NaN,NaN,NaN,NaN,NaN,NaN,NaN,NaN,,0.08912094,0.0055073947,0.010055721,-0.030078188,-0.9988966,0.03606395,-0.8486227,0.044584125,0.52711666,-0.528143,-0.014749946,-0.8490274,,0.057588853,1.3275617,0.4376194,0.996747,0.079159565,-0.01513663,0.043173123,-0.68303686,-0.7291068,-0.06805465,0.72608155,-0.68423253,,NaN,NaN,NaN,NaN,NaN,NaN,NaN,NaN,NaN,NaN,NaN,NaN,,-0.040117387,0.44868362,-0.27639025,0.07998139,0.9924404,0.0930859,-0.84904784,0.11675349,-0.5152537,-0.52222675,-0.037823673,0.8519675,,NaN,NaN,NaN,NaN,NaN,NaN,NaN,,-1.3251977930183032,0.07977583059073919,0.21825116214,0.24806320314219232,0.07474016537169592,0.5384946805696438,-0.1615472814068022,,0.0250542014123786,0.03182171558698661,0.08397132691999999,-0.11775085106328897,,-1.0617077e-05,3.1590462e-06,-6.914139e-06,1.0,-1.2185425e-05,-1.2923032e-05,1.2177974e-05,1.0,-1.2218952e-06,1.2919307e-05,1.2218952e-06,1.0,1716,5.438,0,9,2.816,False,1.0264644849639644,0.01467716385181328
5.418248089961708,16:32:00.799188,16:30:34.070667,0,,NaN,NaN,NaN,NaN,NaN,NaN,NaN,NaN,NaN,NaN,NaN,NaN,,0.08870104,0.0057561994,0.010078073,-0.031879853,-0.99891806,0.033855543,-0.8475312,0.044971876,0.5288369,-0.52978736,-0.011834374,-0.848048,,0.057588853,1.3275617,0.4376194,0.996747,0.079159565,-0.01513663,0.043173123,-0.68303686,-0.7291068,-0.06805465,0.72608155,-0.68423253,,NaN,NaN,NaN,NaN,NaN,NaN,NaN,NaN,NaN,NaN,NaN,NaN,,-0.03969823,0.4488624,-0.27621403,0.082017,0.9920752,0.09518374,-0.84980845,0.119509764,-0.5133644,-0.5206715,-0.03878334,0.85287577,,NaN,NaN,NaN,NaN,NaN,NaN,NaN,,-1.3234987917859737,0.08118909070672227,0.21809949621000002,0.2503697925205221,0.07446689237216504,0.5389625525974582,-0.16105724920839937,,0.0250542014123786,0.03182171558698661,0.08397132691999999,-0.11775085106328897,,-1.0617077e-05,3.1590462e-06,-6.914139e-06,1.0,-1.2185425e-05,-1.2923032e-05,1.2177974e-05,1.0,-1.2218952e-06,1.2919307e-05,1.2218952e-06,1.0,1749,5.544,0,9,2.816,False,1.0281922388010738,0.01467716385181328
5.481331173796207,16:32:00.905591,16:30:34.164194,0,,NaN,NaN,NaN,NaN,NaN,NaN,NaN,NaN,NaN,NaN,NaN,NaN,,0.0883688,0.0059147105,0.010281086,-0.033525612,-0.9988989,0.03281371,-0.8462239,0.045839872,0.5308521,-0.53177184,-0.009970577,-0.84682906,,0.057594046,1.3275616,0.43761566,0.9967463,0.079170935,-0.015124494,0.043189712,-0.68303555,-0.7291071,-0.06805465,0.72608155,-0.68423253,,NaN,NaN,NaN,NaN,NaN,NaN,NaN,NaN,NaN,NaN,NaN,NaN,,-0.039399948,0.44915238,-0.27619416,0.08396589,0.99182415,0.09609666,-0.85078734,0.12156108,-0.5112571,-0.5187588,-0.038829666,0.8540384,,NaN,NaN,NaN,NaN,NaN,NaN,NaN,,-1.3228114685601677,0.08247106436384354,0.21781301612,0.25288607184233636,0.07446689237216504,0.5392892675580205,-0.16073056107613082,,0.0250542014123786,0.03182171558698661,0.08397132691999999,-0.11775085106328897,,-5.1930547e-06,1.013279e-06,-4.2915344e-06,1.0,-7.9348683e-07,-8.381903e-07,7.8603625e-07,1.0,-5.9604645e-08,8.381903e-07,5.9604645e-08,1.0,1768,5.606,0,9,2.816,False,1.030098725793747,0.01448404304869566
5.587753792991862,16:32:00.966188,16:30:34.164194,0,,NaN,NaN,NaN,NaN,NaN,NaN,NaN,NaN,NaN,NaN,NaN,NaN,,0.08822884,0.005907111,0.010392904,-0.034838688,-0.9989312,0.03037443,-0.84496284,0.045671888,0.53287137,-0.53368926,-0.007100722,-0.8456509,,0.057594046,1.3275616,0.43761566,0.9967463,0.079170935,-0.015124494,0.043189712,-0.68303555,-0.7291071,-0.06805465,0.72608155,-0.68423253,,NaN,NaN,NaN,NaN,NaN,NaN,NaN,NaN,NaN,NaN,NaN,NaN,,-0.039276723,0.44926316,-0.2762627,0.085559025,0.99146175,0.09840372,-0.85176593,0.124025755,-0.5090309,-0.5168892,-0.040264748,0.8551048,,NaN,NaN,NaN,NaN,NaN,NaN,NaN,,-1.3225334501766957,0.08267185541857337,0.21765097987,0.25519266122066614,0.07555998437028857,0.5416650739340716,-0.16105724920839926,,0.0250542014123786,0.03182171558698661,0.08397132691999999,-0.11775085106328897,,-5.1930547e-06,1.013279e-06,-4.2915344e-06,1.0,-7.9348683e-07,-8.381903e-07,7.8603625e-07,1.0,-5.9604645e-08,8.381903e-07,5.9604645e-08,1.0,1787,5.667,0,9,2.816,False,1.0302178812307892,0.014532323249474732
5.64835619693622,16:32:01.028282,16:30:34.290902,0,,NaN,NaN,NaN,NaN,NaN,NaN,NaN,NaN,NaN,NaN,NaN,NaN,,0.08805699,0.0059599355,0.010394931,-0.035339136,-0.9989356,0.029643502,-0.84442365,0.045711245,0.53372204,-0.53450906,-0.0061703827,-0.8451403,,0.057594046,1.3275616,0.43761566,0.9967463,0.079170935,-0.015124494,0.043189712,-0.68303555,-0.7291071,-0.06805465,0.72608155,-0.68423253,,NaN,NaN,NaN,NaN,NaN,NaN,NaN,NaN,NaN,NaN,NaN,NaN,,-0.039105456,0.44930777,-0.27623102,0.0861798,0.99134064,0.099079855,-0.85219103,0.12486667,-0.5081129,-0.51608473,-0.040645897,0.8555726,,NaN,NaN,NaN,NaN,NaN,NaN,NaN,,-1.3218306814851413,0.08300393293216503,0.21757709134000003,0.25603142099460424,0.07596989386958489,0.5417392139236852,-0.16122059327453353,,0.0250542014123786,0.03182171558698661,0.08397132691999999,-0.11775085106328897,,-5.1930547e-06,1.013279e-06,-4.2915344e-06,1.0,-7.9348683e-07,-8.381903e-07,7.8603625e-07,1.0,-5.9604645e-08,8.381903e-07,5.9604645e-08,1.0,1806,5.728,0,9,2.816,False,1.0305753475419155,0.014773724253372311
5.710471973987296,16:32:01.090093,16:30:34.389377,0,,NaN,NaN,NaN,NaN,NaN,NaN,NaN,NaN,NaN,NaN,NaN,NaN,,0.08789798,0.0060737208,0.010351956,-0.03563179,-0.99895424,0.028645884,-0.84411293,0.045428477,0.53423744,-0.53498024,-0.005144514,-0.84484893,,0.057594046,1.3275616,0.43761566,0.9967463,0.079170935,-0.015124494,0.043189712,-0.68303555,-0.7291071,-0.06805465,0.72608155,-0.68423253,,NaN,NaN,NaN,NaN,NaN,NaN,NaN,NaN,NaN,NaN,NaN,NaN,,-0.038939234,0.44933885,-0.27612385,0.086541586,0.99121255,0.10004139,-0.8524344,0.12564734,-0.50751185,-0.5156221,-0.041357838,0.8558174,,NaN,NaN,NaN,NaN,NaN,NaN,NaN,,-1.3210429627319704,0.08353680150048652,0.21756672102000002,0.2564508008815733,0.07596989386958489,0.5419025714039662,-0.16089390514226498,,0.0250542014123786,0.03182171558698661,0.08397132691999999,-0.11775085106328897,,-5.1930547e-06,1.013279e-06,-4.2915344e-06,1.0,-7.9348683e-07,-8.381903e-07,7.8603625e-07,1.0,-5.9604645e-08,8.381903e-07,5.9604645e-08,1.0,1839,5.835,0,9,2.816,False,1.0307540806974784,0.015353086662726056
5.772268761880696,16:32:01.190461,16:30:34.389377,0,,NaN,NaN,NaN,NaN,NaN,NaN,NaN,NaN,NaN,NaN,NaN,NaN,,0.08786916,0.0061274096,0.01033932,-0.037177246,-0.99894875,0.026815537,-0.8432502,0.04575942,0.53556997,-0.53623414,-0.0027011726,-0.84406495,,0.057594046,1.3275616,0.43761566,0.9967463,0.079170935,-0.015124494,0.043189712,-0.68303555,-0.7291071,-0.06805465,0.72608155,-0.68423253,,NaN,NaN,NaN,NaN,NaN,NaN,NaN,NaN,NaN,NaN,NaN,NaN,,-0.03890762,0.44935527,-0.27607283,0.08826455,0.9908834,0.10178149,-0.85298175,0.12795733,-0.50601286,-0.51442343,-0.042154755,0.85649955,,NaN,NaN,NaN,NaN,NaN,NaN,NaN,,-1.3208653398758632,0.08376076075383904,0.21758098021000002,0.2585477003164185,0.07624316686911577,0.5437217041000875,-0.14929647644673127,,0.0250542014123786,0.03182171558698661,0.08397132691999999,-0.11775085106328897,,-5.1930547e-06,1.013279e-06,-4.2915344e-06,1.0,-7.9348683e-07,-8.381903e-07,7.8603625e-07,1.0,-5.9604645e-08,8.381903e-07,5.9604645e-08,1.0,1858,5.896,0,9,2.816,False,1.030098725793747,0.5202191462135235
5.872625032905489,16:32:01.254176,16:30:34.506547,0,,NaN,NaN,NaN,NaN,NaN,NaN,NaN,NaN,NaN,NaN,NaN,NaN,,0.087895334,0.0062021837,0.010348856,-0.028324205,-0.99909097,0.031854834,-0.8414856,0.041032523,0.5387192,-0.53953665,-0.011546569,-0.841883,,0.057594046,1.3275616,0.43761566,0.9967463,0.079170935,-0.015124494,0.043189712,-0.68303555,-0.7291071,-0.06805465,0.72608155,-0.68423253,,NaN,NaN,NaN,NaN,NaN,NaN,NaN,NaN,NaN,NaN,NaN,NaN,,-0.038932927,0.44939476,-0.27600828,0.07999029,0.9921063,0.09657409,-0.8560714,0.118005574,-0.5032062,-0.5106303,-0.042422708,0.85875314,,NaN,NaN,NaN,NaN,NaN,NaN,NaN,,-1.3208962308073602,0.0837530380209648,0.21762116520000002,0.2530957617858209,0.0841680838555113,0.538402968047663,-0.07579164668630567,,0.0250542014123786,0.03182171558698661,0.08397132691999999,-0.11775085106328897,,-5.1930547e-06,1.013279e-06,-4.2915344e-06,1.0,-7.9348683e-07,-8.381903e-07,7.8603625e-07,1.0,-5.9604645e-08,8.381903e-07,5.9604645e-08,1.0,1877,5.958,0,9,2.816,False,1.0305753475419155,0.8343784126854601
5.9363639038056135,16:32:01.318298,16:30:34.599337,0,,NaN,NaN,NaN,NaN,NaN,NaN,NaN,NaN,NaN,NaN,NaN,NaN,,0.08797085,0.006285958,0.010275781,-0.018910993,-0.9988803,0.043361742,-0.8395927,0.039414387,0.5417848,-0.54288733,-0.02616049,-0.839398,,0.057594046,1.3275616,0.43761566,0.9967463,0.079170935,-0.015124494,0.043189712,-0.68303555,-0.7291071,-0.06805465,0.72608155,-0.68423253,,NaN,NaN,NaN,NaN,NaN,NaN,NaN,NaN,NaN,NaN,NaN,NaN,,-0.03899567,0.44935992,-0.27589467,0.07117104,0.99384284,0.08491791,-0.85920674,0.10432658,-0.500879,-0.5066542,-0.037313964,0.86134154,,NaN,NaN,NaN,NaN,NaN,NaN,NaN,,-1.3209039535402343,0.0835908606306061,0.21775468307,0.24722444336825422,0.09263954684096863,0.5265126548699105,0.0357723504834071,,0.0250542014123786,0.03182171558698661,0.08397132691999999,-0.11775085106328897,,-5.1930547e-06,1.013279e-06,-4.2915344e-06,1.0,-7.9348683e-07,-8.381903e-07,7.8603625e-07,1.0,-5.9604645e-08,8.381903e-07,5.9604645e-08,1.0,1896,6.019,0,9,2.816,False,1.0312307024456469,0.9096472457006359
6.000480831833556,16:32:01.381654,16:30:34.599337,0,,NaN,NaN,NaN,NaN,NaN,NaN,NaN,NaN,NaN,NaN,NaN,NaN,,0.08822438,0.0063661262,0.01005584,-0.0068918876,-0.9980735,0.061657812,-0.8386407,0.03935196,0.5432617,-0.54464155,-0.04796462,-0.8372963,,0.057594046,1.3275616,0.43761566,0.9967463,0.079170935,-0.015124494,0.043189712,-0.68303555,-0.7291071,-0.06805465,0.72608155,-0.68423253,,NaN,NaN,NaN,NaN,NaN,NaN,NaN,NaN,NaN,NaN,NaN,NaN,,-0.03921482,0.44917405,-0.2757036,0.059530023,0.9960057,0.06654949,-0.8616437,0.084931396,-0.50035673,-0.50401026,-0.027555697,0.863258,,NaN,NaN,NaN,NaN,NaN,NaN,NaN,,-1.3212514765195744,0.08304254659653615,0.21809431105000002,0.23820777579841967,0.10124764632619138,0.5078132670969355,0.22214792994261973,,0.0250542014123786,0.03182171558698661,0.08397132691999999,-0.11775085106328897,,-5.1930547e-06,1.013279e-06,-4.2915344e-06,1.0,-7.9348683e-07,-8.381903e-07,7.8603625e-07,1.0,-5.9604645e-08,8.381903e-07,5.9604645e-08,1.0,1929,6.126,0,9,2.816,False,1.0317073241938153,0.9499612133514836
6.063814193941653,16:32:01.481849,16:30:34.703348,0,,NaN,NaN,NaN,NaN,NaN,NaN,NaN,NaN,NaN,NaN,NaN,NaN,,0.08896942,0.0061513707,0.009551525,-0.002419848,-0.99617964,0.08729271,-0.8394361,0.04946334,0.5412027,-0.5434531,-0.071967006,-0.83634895,,0.057594046,1.3275616,0.43761566,0.9967463,0.079170935,-0.015124494,0.043189712,-0.68303555,-0.7291071,-0.06805465,0.72608155,-0.68423253,,NaN,NaN,NaN,NaN,NaN,NaN,NaN,NaN,NaN,NaN,NaN,NaN,,-0.03988962,0.4485489,-0.27560672,0.054919183,0.9976495,0.04097972,-0.8614446,0.06809358,-0.5032658,-0.50487334,-0.0076628113,0.8631594,,NaN,NaN,NaN,NaN,NaN,NaN,NaN,,-1.3229504777519039,0.08064849940552656,0.21879949281000002,0.2340139769287292,0.1043902858207965,0.4838508253950906,0.5057132287517286,,0.0250542014123786,0.03182171558698661,0.08397132691999999,-0.11775085106328897,,-5.1930547e-06,1.013279e-06,-4.2915344e-06,1.0,-7.9348683e-07,-8.381903e-07,7.8603625e-07,1.0,-5.9604645e-08,8.381903e-07,5.9604645e-08,1.0,1948,6.187,0,9,2.816,False,1.031945635067899,0.9989173369418547
6.164039090974256,16:32:01.551788,16:30:34.703348,0,,NaN,NaN,NaN,NaN,NaN,NaN,NaN,NaN,NaN,NaN,NaN,NaN,,0.09014134,0.005494766,0.009072781,-0.0055618733,-0.99403834,0.10888851,-0.8415599,0.06346923,0.5364221,-0.54013526,-0.08865267,-0.83689594,,0.057594046,1.3275616,0.43761566,0.9967463,0.079170935,-0.015124494,0.043189712,-0.68303555,-0.7291071,-0.06805465,0.72608155,-0.68423253,,NaN,NaN,NaN,NaN,NaN,NaN,NaN,NaN,NaN,NaN,NaN,NaN,,-0.041001905,0.44769892,-0.27587882,0.05752608,0.9981527,0.01954417,-0.859131,0.059466377,-0.50828904,-0.50851226,0.012448875,0.8609648,,NaN,NaN,NaN,NaN,NaN,NaN,NaN,,-1.3265724394699152,0.0763160462630866,0.21955134101,0.23527211658963632,0.10275064782361121,0.4667284449676805,0.676244433795916,,0.0250542014123786,0.03182171558698661,0.08397132691999999,-0.11775085106328897,,-5.1930547e-06,1.013279e-06,-4.2915344e-06,1.0,-7.9348683e-07,-8.381903e-07,7.8603625e-07,1.0,-5.9604645e-08,8.381903e-07,5.9604645e-08,1.0,1967,6.249,0,9,2.816,False,1.0326009899716304,1.0189536202653298
6.233947851927951,16:32:01.610074,16:30:34.872423,0,,NaN,NaN,NaN,NaN,NaN,NaN,NaN,NaN,NaN,NaN,NaN,NaN,,0.09184562,0.0043673143,0.008498311,-0.014977891,-0.9911977,0.13153966,-0.8469989,0.08249114,0.5251554,-0.53138375,-0.103548214,-0.8407788,,0.057594046,1.3275616,0.43761566,0.9967463,0.079170935,-0.015124494,0.043189712,-0.68303555,-0.7291071,-0.06805465,0.72608155,-0.68423253,,NaN,NaN,NaN,NaN,NaN,NaN,NaN,NaN,NaN,NaN,NaN,NaN,,-0.042640395,0.44649205,-0.27648258,0.065523885,0.9978475,-0.0026480854,-0.85283047,0.054623134,-0.5193231,-0.5180606,0.036286436,0.85457385,,NaN,NaN,NaN,NaN,NaN,NaN,NaN,,-1.3322332026667216,0.06977489151861845,0.22049763271000003,0.2386271556853887,0.09400591183862303,0.4510708223050347,0.7773544107330349,,0.0250542014123786,0.03182171558698661,0.08397132691999999,-0.11775085106328897,,-5.1930547e-06,1.013279e-06,-4.2915344e-06,1.0,-7.9348683e-07,-8.381903e-07,7.8603625e-07,1.0,-5.9604645e-08,8.381903e-07,5.9604645e-08,1.0,1986,6.31,0,9,2.816,False,1.033018034001278,1.0248438047604238
6.292262773960829,16:32:01.664812,16:30:34.872423,0,,NaN,NaN,NaN,NaN,NaN,NaN,NaN,NaN,NaN,NaN,NaN,NaN,,0.09431496,0.0026820377,0.007865548,-0.029220536,-0.98857105,0.14789583,-0.8501133,0.10240626,0.51654667,-0.52578866,-0.11063441,-0.8433898,,0.057594046,1.3275616,0.43761566,0.9967463,0.079170935,-0.015124494,0.043189712,-0.68303555,-0.7291071,-0.06805465,0.72608155,-0.68423253,,NaN,NaN,NaN,NaN,NaN,NaN,NaN,NaN,NaN,NaN,NaN,NaN,,-0.04504286,0.4448964,-0.2774927,0.078790076,0.9967156,-0.018711135,-0.8477357,0.05711371,-0.527335,-0.52453434,0.05741086,0.8494514,,NaN,NaN,NaN,NaN,NaN,NaN,NaN,,-1.3407977134242366,0.0602141482203285,0.22173558966,0.24848258302916137,0.08799390584894365,0.4457633675501069,0.8333814254170927,,0.0250542014123786,0.03182171558698661,0.08397132691999999,-0.11775085106328897,,-5.1930547e-06,1.013279e-06,-4.2915344e-06,1.0,-7.9348683e-07,-8.381903e-07,7.8603625e-07,1.0,-5.9604645e-08,8.381903e-07,5.9604645e-08,1.0,2019,6.417,0,9,2.816,False,1.033196767156841,1.0296718248383698
6.3469315560068935,16:32:01.774204,16:30:35.014830,0,,NaN,NaN,NaN,NaN,NaN,NaN,NaN,NaN,NaN,NaN,NaN,NaN,,0.09920889,-0.0006344691,0.0076882243,-0.050436474,-0.98450446,0.16794905,-0.8535434,0.12980703,0.5045927,-0.5185749,-0.11790192,-0.84686446,,0.057594046,1.3275616,0.43761566,0.9967463,0.079170935,-0.015124494,0.043189712,-0.68303555,-0.7291071,-0.06805465,0.72608155,-0.68423253,,NaN,NaN,NaN,NaN,NaN,NaN,NaN,NaN,NaN,NaN,NaN,NaN,,-0.04995,0.44269672,-0.27995494,0.09873452,0.9943725,-0.038403388,-0.84058833,0.062685475,-0.53803515,-0.5326,0.08540408,0.84204715,,NaN,NaN,NaN,NaN,NaN,NaN,NaN,,-1.3602667230001566,0.043061958506675865,0.22349854406000003,0.2644190187339852,0.08102544436090618,0.4493220333949698,0.8523293370886691,,0.0250542014123786,0.03182171558698661,0.08397132691999999,-0.11775085106328897,,-5.1930547e-06,1.013279e-06,-4.2915344e-06,1.0,-7.9348683e-07,-8.381903e-07,7.8603625e-07,1.0,-5.9604645e-08,8.381903e-07,5.9604645e-08,1.0,2038,6.478,0,9,2.816,False,1.0328393008457146,1.0331479992944907
6.456373736960813,16:32:01.834448,16:30:35.014830,0,,NaN,NaN,NaN,NaN,NaN,NaN,NaN,NaN,NaN,NaN,NaN,NaN,,0.10163836,-0.0017459318,0.007953763,-0.05895119,-0.98282707,0.17485839,-0.85377157,0.14040868,0.50135773,-0.51729965,-0.11973345,-0.8473872,,0.057594046,1.3275616,0.43761566,0.9967463,0.079170935,-0.015124494,0.043189712,-0.68303555,-0.7291071,-0.06805465,0.72608155,-0.68423253,,NaN,NaN,NaN,NaN,NaN,NaN,NaN,NaN,NaN,NaN,NaN,NaN,,-0.052420482,0.4421603,-0.28085893,0.106988326,0.9932297,-0.04525754,-0.83863056,0.06569662,-0.5407243,-0.53409016,0.09580554,0.83998156,,NaN,NaN,NaN,NaN,NaN,NaN,NaN,,-1.3705147895242527,0.03746297717286309,0.22433724369000002,0.2719678566994281,0.07774616836653561,0.454038031587198,0.8573930031388317,,0.0250542014123786,0.03182171558698661,0.08397132691999999,-0.11775085106328897,,-5.1930547e-06,1.013279e-06,-4.2915344e-06,1.0,-7.9348683e-07,-8.381903e-07,7.8603625e-07,1.0,-5.9604645e-08,8.381903e-07,5.9604645e-08,1.0,2057,6.539,0,9,2.816,False,1.0326605676901517,1.0362379321443762
6.516627420904115,16:32:01.904245,16:30:35.152499,0,,NaN,NaN,NaN,NaN,NaN,NaN,NaN,NaN,NaN,NaN,NaN,NaN,,0.10354258,-0.0022506937,0.008227229,-0.062070377,-0.98230094,0.17672566,-0.8535209,0.14402436,0.50075865,-0.5173485,-0.11975675,-0.84735405,,0.057594046,1.3275616,0.43761566,0.9967463,0.079170935,-0.015124494,0.043189712,-0.68303555,-0.7291071,-0.06805465,0.72608155,-0.68423253,,NaN,NaN,NaN,NaN,NaN,NaN,NaN,NaN,NaN,NaN,NaN,NaN,,-0.054356415,0.44196403,-0.28127035,0.11009056,0.9928037,-0.047126614,-0.8382178,0.067260295,-0.54117185,-0.5341077,0.09908028,0.83959043,,NaN,NaN,NaN,NaN,NaN,NaN,NaN,,-1.3784923725833265,0.034721407002513395,0.22508520302,0.275532585738665,0.07651643986864665,0.46075830453030514,0.8622933251228603,,0.0250542014123786,0.03182171558698661,0.08397132691999999,-0.11775085106328897,,-5.1930547e-06,1.013279e-06,-4.2915344e-06,1.0,-7.9348683e-07,-8.381903e-07,7.8603625e-07,1.0,-5.9604645e-08,8.381903e-07,5.9604645e-08,1.0,2089,6.643,1,10,2.874,False,1.0329584562827567,1.038024299573216
6.586406525922939,16:32:02.002989,16:30:35.152499,0,,NaN,NaN,NaN,NaN,NaN,NaN,NaN,NaN,NaN,NaN,NaN,NaN,,0.10504049,-0.003077969,0.008249164,-0.06674081,-0.98213243,0.17595841,-0.8526008,0.14774096,0.5012429,-0.51828325,-0.11656892,-0.84722733,,0.057606366,1.3275596,0.43761814,0.9967465,0.079167895,-0.015127745,0.043185268,-0.6830359,-0.729107,-0.06805465,0.72608155,-0.68423253,,NaN,NaN,NaN,NaN,NaN,NaN,NaN,NaN,NaN,NaN,NaN,NaN,,-0.05587554,0.4414394,-0.28189027,0.114862286,0.99229854,-0.046370577,-0.83811474,0.07174518,-0.54075533,-0.53326386,0.10097625,0.83990085,,NaN,NaN,NaN,NaN,NaN,NaN,NaN,,-1.3842380858417496,0.03049707212031259,0.22573982947000001,0.2807748343257781,0.0773362588672393,0.46866606482288564,0.8689904318343656,,0.0250542014123786,0.03182171558698661,0.08397132691999999,-0.11775085106328897,,6.824732e-06,5.1259995e-06,-4.7683716e-06,1.0,-3.8407743e-06,-4.0754676e-06,3.837049e-06,1.0,-3.874302e-07,4.079193e-06,3.874302e-07,1.0,2142,6.818,1,10,3.049,False,1.0332563448753618,1.0417901552340136
6.685138989938423,16:32:02.183318,16:30:35.323058,0,,NaN,NaN,NaN,NaN,NaN,NaN,NaN,NaN,NaN,NaN,NaN,NaN,,0.10570367,-0.0035137385,0.008161187,-0.0682023,-0.9821152,0.17549351,-0.85143626,0.14898181,0.5028526,-0.52000463,-0.115125805,-0.84636945,,0.057606366,1.3275596,0.43761814,0.9967465,0.079167895,-0.015127745,0.043185268,-0.6830359,-0.729107,-0.06805465,0.72608155,-0.68423253,,NaN,NaN,NaN,NaN,NaN,NaN,NaN,NaN,NaN,NaN,NaN,NaN,,-0.05653147,0.441091,-0.2821832,0.11657333,0.9921169,-0.045985803,-0.83894753,0.07358274,-0.5392148,-0.5315803,0.10143774,0.8409118,,NaN,NaN,NaN,NaN,NaN,NaN,NaN,,-1.3865703511697653,0.02806441126493187,0.22606390197,0.28350080359107693,0.07979571586301723,0.4723780543661894,0.8369749948720467,,0.0250542014123786,0.03182171558698661,0.08397132691999999,-0.11775085106328897,,6.824732e-06,5.1259995e-06,-4.7683716e-06,1.0,-3.8407743e-06,-4.0754676e-06,3.837049e-06,1.0,-3.874302e-07,4.079193e-06,3.874302e-07,1.0,2195,6.998,1,10,3.229,False,1.0335542334679673,1.009056179105541
6.865429067984223,16:32:02.363587,16:30:35.652887,0,,NaN,NaN,NaN,NaN,NaN,NaN,NaN,NaN,NaN,NaN,NaN,NaN,,0.1048706,-0.00287427,0.007802367,-0.07915808,-0.98281544,0.16675614,-0.8522947,0.15348762,0.50003546,-0.5170375,-0.1025435,-0.8497982,,0.057606366,1.3275596,0.43761814,0.9967465,0.079167895,-0.015127745,0.043185268,-0.6830359,-0.729107,-0.06805465,0.72608155,-0.68423253,,NaN,NaN,NaN,NaN,NaN,NaN,NaN,NaN,NaN,NaN,NaN,NaN,,-0.05564137,0.44115552,-0.28152347,0.12699877,0.9912149,-0.03693799,-0.8355124,0.08683052,-0.54256743,-0.5345936,0.09976755,0.8391997,,NaN,NaN,NaN,NaN,NaN,NaN,NaN,,-1.3823846299519358,0.031168949880370122,0.22602890214000002,0.29000119183909717,0.06900143238154742,0.47652438057019464,0.8492257998321178,,0.0250542014123786,0.03182171558698661,0.08397132691999999,-0.11775085106328897,,6.824732e-06,5.1259995e-06,-4.7683716e-06,1.0,-3.8407743e-06,-4.0754676e-06,3.837049e-06,1.0,-3.874302e-07,4.079193e-06,3.874302e-07,1.0,2248,7.178,1,10,3.409,False,1.033613811186488,1.027692336606412
