AlexandreBanks6/ExpertPlaybackApp/resources/Motions/P_15/PC1/Data_PC1_1.csv
Task Time,PC1 Time,PC2 Time,Gaze Calib,s_T_psm1,Tx,Ty,Tz,R00,R01,R02,R10,R11,R12,R20,R21,R22,s_T_psm3,Tx,Ty,Tz,R00,R01,R02,R10,R11,R12,R20,R21,R22,cart_T_ecm,Tx,Ty,Tz,R00,R01,R02,R10,R11,R12,R20,R21,R22,ecm_T_psm1,Tx,Ty,Tz,R00,R01,R02,R10,R11,R12,R20,R21,R22,ecm_T_psm3,Tx,Ty,Tz,R00,R01,R02,R10,R11,R12,R20,R21,R22,psm1_joints,q1,q2,q3,q4,q5,q6,jaw,psm3_joints,q1,q2,q3,q4,q5,q6,jaw,ecm_joints,q1,q2,q3,q4,ecmi_T_ecm,Tx,Ty,Tz,R00,R01,R02,R10,R11,R12,R20,R21,R22,Sample #,Task Duration (s),Collisions (binary),Collisions (increments),Cumulative Collision Time (s),Clutch Press,MTMR Angle,MTML Angle
""
lci_T_si,,,,,-0.056820054,0.035184894,0.23501265,0.9960807,-0.004387094,0.0883404,0.06195223,-0.6782408,-0.7322236,0.0631284,0.7348266,-0.67531073
rci_T_si,,,,,-0.06650407,0.039561197,0.2456612,0.99437594,-0.020144738,0.1039743,0.06376301,-0.6699987,-0.73961884,0.08456207,0.7420889,-0.6649461
ecm_T_lc,,,,,-4.4061628e-05,-0.00034663224,-0.01840835,-0.99912,0.030754527,0.028518902,-0.031987965,-0.99852574,-0.043852776,0.027128186,-0.04472645,0.9986309
ecm_T_rc,,,,,-0.0043358393,0.01870579,-0.007592615,-0.99555075,-0.052743673,-0.078081585,0.04863213,-0.9973746,0.053654674,-0.08070653,0.04961868,0.9955021
cart_T_ecmi,,,,,0.057681564,1.3275611,0.43760413,0.9967665,0.07914106,-0.013899233,0.044067647,-0.68306047,-0.72903115,-0.06719031,0.72606134,-0.6843394
ecmac_T_ecmrep_psm1,,,,,-0.0025980123,-0.29326126,-0.2805022,0.9974786,0.061531033,0.035360787,-0.060258932,0.9975341,-0.035980776,-0.037487525,0.033759248,0.99872667
ecmac_T_ecmrep_psm3,,,,,-0.0114122145,-0.5209516,-0.5025674,0.9999053,0.010122195,-0.009323479,-0.0077519584,0.9740634,0.22614253,0.011370718,-0.22604884,0.9740496
""
0,16:14:06.827414,16:12:40.078362,0,,0.11565994,-0.0033363998,0.004414603,0.28541937,-0.9576277,-0.03853261,-0.6892739,-0.23303987,0.68599844,-0.6659108,-0.16923773,-0.72658193,,0.10345394,0.0013474561,0.01948762,-0.17132355,0.37542343,0.9108816,-0.96509475,0.12194377,-0.23177983,-0.19809183,-0.91879654,0.34142736,,0.057688825,1.3275638,0.4376148,0.9967674,0.07912748,-0.013913721,0.04404784,-0.6830621,-0.72903085,-0.06719031,0.72606134,-0.6843394,,-0.07635268,0.26312643,-0.049440138,-0.25711733,0.9616272,0.09572776,-0.965111,-0.25044152,-0.07641849,-0.04951189,-0.11203643,0.99246985,,-0.056436416,0.45409012,-0.28179413,0.16845097,-0.25140432,-0.95311075,-0.59805113,-0.79469216,0.10391945,-0.78355545,0.55250365,-0.2842193,,1.0720079957368527,0.27240395667252115,0.18985074453000003,-1.0404814995702099,0.09004345334542525,-0.018536285161483895,0.8559229065436232,,-1.413252393250211,0.0901783517723196,0.21954615585000004,0.15810621738733138,-0.3191828634520689,-1.3331166396272476,-0.14570290699177701,,0.0250542014123786,0.03150755632162763,0.0839748988,-0.11775085106328897,,6.6310167e-06,6.4969063e-06,-9.179115e-06,0.99999994,-1.360476e-05,-1.4424324e-05,1.3601035e-05,1.0,-1.3709068e-06,1.4428049e-05,1.3113022e-06,1.0,38,0.115,1,1,0.091,False,1.031171124727126,0.009849143773867475
0.12733501801267266,16:14:06.863337,16:12:40.078362,0,,0.11565092,-0.0033359826,0.004402086,0.28541386,-0.95762736,-0.03857973,-0.68929255,-0.23307408,0.68596804,-0.6658938,-0.1691921,-0.72660816,,0.1033829,0.0013836063,0.01961881,-0.17062545,0.3779463,0.90996885,-0.9649478,0.122801155,-0.23193859,-0.19940546,-0.9176473,0.34374547,,0.057688825,1.3275638,0.4376148,0.9967674,0.07912748,-0.013913721,0.04404784,-0.6830621,-0.72903085,-0.06719031,0.72606134,-0.6843394,,-0.07634292,0.26311773,-0.04943193,-0.25711322,0.9616235,0.095775805,-0.9651108,-0.2504307,-0.07645676,-0.04953742,-0.11209231,0.9924623,,-0.056381755,0.45422983,-0.28182682,0.1679308,-0.25402865,-0.95250654,-0.5992162,-0.79354036,0.1059889,-0.7827766,0.55295855,-0.28547794,,1.0720157184697268,0.2723421748095273,0.18986111485,-1.0404814995702099,0.09004345334542525,-0.018536285161483895,0.8559229065436232,,-1.4133450660447018,0.0905567656831566,0.21941911943000003,0.15831590733081588,-0.31808977145394535,-1.3356415576596303,-0.14766303578538875,,0.0250542014123786,0.03150755632162763,0.0839748988,-0.11775085106328897,,6.6310167e-06,6.4969063e-06,-9.179115e-06,0.99999994,-1.360476e-05,-1.4424324e-05,1.3601035e-05,1.0,-1.3709068e-06,1.4428049e-05,1.3113022e-06,1.0,46,0.14,1,1,0.116,False,1.0312307024456469,0.010235385380103157
0.1632560349535197,16:14:06.894017,16:12:40.078362,0,,0.11564407,-0.003340155,0.004392445,0.2854137,-0.9576259,-0.038616393,-0.68931884,-0.23310688,0.68593043,-0.66586673,-0.16915497,-0.72664165,,0.103289604,0.0013625659,0.019766867,-0.17083406,0.38041165,0.9089018,-0.96469223,0.12309903,-0.23284209,-0.20046067,-0.916588,0.34595078,,0.057688825,1.3275638,0.4376148,0.9967674,0.07912748,-0.013913721,0.04404784,-0.6830621,-0.72903085,-0.06719031,0.72606134,-0.6843394,,-0.07633557,0.26310802,-0.04942895,-0.25711522,0.9616192,0.09581374,-0.96510834,-0.25042528,-0.07650556,-0.04957503,-0.11214138,0.9924548,,-0.056308765,0.45436054,-0.2819198,0.16827954,-0.2566,-0.95175546,-0.6000114,-0.7927176,0.10763446,-0.7820923,0.55295146,-0.2873611,,1.0720079957368527,0.27228039294653356,0.18986630001000002,-1.0404814995702099,0.09004345334542525,-0.018536285161483895,0.8559229065436232,,-1.4134454615720666,0.09074983400501221,0.21924800915000003,0.15915466710475398,-0.3175432254548836,-1.3383742339983518,-0.1452128747933743,,0.0250542014123786,0.03150755632162763,0.0839748988,-0.11775085106328897,,6.6310167e-06,6.4969063e-06,-9.179115e-06,0.99999994,-1.360476e-05,-1.4424324e-05,1.3601035e-05,1.0,-1.3709068e-06,1.4428049e-05,1.3113022e-06,1.0,59,0.179,1,1,0.155,False,1.0306349252604363,0.010042264576985094
0.19387236097827554,16:14:06.931769,16:12:40.183193,0,,0.115637794,-0.0033411086,0.0043854564,0.28540394,-0.9576272,-0.038658317,-0.68924254,-0.23310988,0.68600607,-0.6659498,-0.16914387,-0.726568,,0.10318278,0.0013394542,0.019980192,-0.16988623,0.38523838,0.90704453,-0.9639387,0.12636247,-0.23421073,-0.20484328,-0.91412467,0.34987897,,0.057688825,1.3275638,0.4376148,0.9967674,0.07912748,-0.013913721,0.04404784,-0.6830621,-0.72903085,-0.06719031,0.72606134,-0.6843394,,-0.076328896,0.2631024,-0.049425334,-0.2570989,0.9616197,0.0958525,-0.9651184,-0.25041902,-0.07639891,-0.04946341,-0.11215109,0.9924593,,-0.056230757,0.4545494,-0.2820451,0.16792081,-0.2616097,-0.95045406,-0.6036383,-0.7895396,0.11067108,-0.7793737,0.5551465,-0.29049775,,1.0720079957368527,0.2722340565492882,0.18987148517000002,-1.0404814995702099,0.0901800898451907,-0.01856602432503973,0.8560862506097575,,-1.4136771435582933,0.09091201139537093,0.21901208437000003,0.1610418765961147,-0.31358076696168585,-1.3432389280083592,-0.14570290699177724,,0.0250542014123786,0.03150755632162763,0.0839748988,-0.11775085106328897,,6.6310167e-06,6.4969063e-06,-9.179115e-06,0.99999994,-1.360476e-05,-1.4424324e-05,1.3601035e-05,1.0,-1.3709068e-06,1.4428049e-05,1.3113022e-06,1.0,67,0.205,1,1,0.181,False,1.0308732361345205,0.009849143773867475
0.23169162101112306,16:14:06.956182,16:12:40.183193,0,,0.11563383,-0.0033405572,0.0043844134,0.28539786,-0.9576282,-0.038679253,-0.68924063,-0.23311967,0.68600476,-0.6659545,-0.16912499,-0.72656816,,0.10308521,0.0012786426,0.020159781,-0.16898987,0.3884409,0.90584534,-0.963958,0.12648022,-0.23406777,-0.20549288,-0.91275215,0.35306686,,0.057688825,1.3275638,0.4376148,0.9967674,0.07912748,-0.013913721,0.04404784,-0.6830621,-0.72903085,-0.06719031,0.72606134,-0.6843394,,-0.07632487,0.26310214,-0.049424436,-0.25709257,0.9616193,0.09587337,-0.9651203,-0.25041157,-0.07639928,-0.049459223,-0.112171024,0.9924573,,-0.05615866,0.4546903,-0.28218797,0.16711462,-0.2649569,-0.94966865,-0.6043122,-0.7885966,0.11367617,-0.7790247,0.5548994,-0.2919027,,1.0720157184697268,0.27221861108353973,0.18987278146000003,-1.0404814995702099,0.0901800898451907,-0.01856602432503973,0.8560862506097575,,-1.4138547664144006,0.09097379325836473,0.21880078910000003,0.16062249670914566,-0.31262431146332775,-1.34630585805817,-0.14504953072724014,,0.0250542014123786,0.03150755632162763,0.0839748988,-0.11775085106328897,,6.6310167e-06,6.4969063e-06,-9.179115e-06,0.99999994,-1.360476e-05,-1.4424324e-05,1.3601035e-05,1.0,-1.3709068e-06,1.4428049e-05,1.3113022e-06,1.0,88,0.27,1,1,0.246,False,1.0312307024456469,0.009849143773867475
0.25609352090395987,16:14:07.017585,16:12:40.183193,0,,0.115633994,-0.0033427477,0.004377708,0.28520498,-0.9576801,-0.038816527,-0.68931174,-0.23308529,0.685945,-0.6659634,-0.16887826,-0.7266173,,0.102854736,0.0011495091,0.02061528,-0.16976449,0.3982811,0.9014166,-0.96294606,0.12746486,-0.23767132,-0.20955887,-0.9083638,0.36188424,,0.057688825,1.3275638,0.4376148,0.9967674,0.07912748,-0.013913721,0.04404784,-0.6830621,-0.72903085,-0.06719031,0.72606134,-0.6843394,,-0.07632466,0.2630957,-0.049421564,-0.25690088,0.9616567,0.09601224,-0.9651684,-0.2502041,-0.07647126,-0.04951645,-0.11231352,0.9924383,,-0.055991955,0.45505744,-0.28252664,0.16843024,-0.27524617,-0.94650453,-0.60736686,-0.7852637,0.12027611,-0.7763612,0.55461735,-0.29943755,,1.0720002730039784,0.2721954428849171,0.18987667033000002,-1.0402718096267254,0.0901800898451907,-0.01840266684475861,0.8564129387420261,,-1.4144108031813447,0.09121319797746569,0.21828356939000002,0.16376784586141352,-0.31002821796778435,-1.356999065943161,-0.1458662510579114,,0.0250542014123786,0.03150755632162763,0.0839748988,-0.11775085106328897,,6.6310167e-06,6.4969063e-06,-9.179115e-06,0.99999994,-1.360476e-05,-1.4424324e-05,1.3601035e-05,1.0,-1.3709068e-06,1.4428049e-05,1.3113022e-06,1.0,96,0.294,1,1,0.27,False,1.0309923915715626,0.010042264576985094
0.31750741484574974,16:14:07.049440,16:12:40.183193,0,,0.11562951,-0.0033422709,0.004373297,0.28580064,-0.9574994,-0.038895003,-0.68916225,-0.23356916,0.68593055,-0.6658628,-0.16923445,-0.72662675,,0.1027838,0.0011054762,0.020770192,-0.17051536,0.40151852,0.89983726,-0.9625932,0.12727371,-0.23919839,-0.21056807,-0.9069643,0.36479688,,0.057688825,1.3275638,0.4376148,0.9967674,0.07912748,-0.013913721,0.04404784,-0.6830621,-0.72903085,-0.06719031,0.72606134,-0.6843394,,-0.076319896,0.2630929,-0.049418513,-0.25749865,0.96148896,0.09609087,-0.965013,-0.25079852,-0.076485395,-0.049440414,-0.11242382,0.9924296,,-0.05594264,0.4551815,-0.28264132,0.1693134,-0.2786399,-0.94535327,-0.60802215,-0.78444135,0.12231446,-0.77565587,0.55408627,-0.30223566,,1.0720079957368527,0.2721722746862944,0.18988055920000002,-1.0409008794571788,0.0901800898451907,-0.01840266684475861,0.8564129387420261,,-1.4146347624346973,0.0913135935048306,0.21811375540000003,0.16502598552232065,-0.30975494496825345,-1.3606524088364575,-0.14602959512404556,,0.0250542014123786,0.03150755632162763,0.0839748988,-0.11775085106328897,,6.6310167e-06,6.4969063e-06,-9.179115e-06,0.99999994,-1.360476e-05,-1.4424324e-05,1.3601035e-05,1.0,-1.3709068e-06,1.4428049e-05,1.3113022e-06,1.0,113,0.347,1,1,0.323,False,1.0310519692900835,0.009993984376206022
0.3493313710205257,16:14:07.089670,16:12:40.183193,0,,0.11562818,-0.003343001,0.0043712705,0.2857949,-0.95750356,-0.03883261,-0.68907857,-0.23349866,0.6860386,-0.6659519,-0.16930763,-0.72652805,,0.102614686,0.0010032393,0.021189809,-0.16798589,0.41384304,0.8947147,-0.9621414,0.12877595,-0.24020973,-0.21462673,-0.90119404,0.37654302,,0.057688825,1.3275638,0.4376148,0.9967674,0.07912748,-0.013913721,0.04404784,-0.6830621,-0.72903085,-0.06719031,0.72606134,-0.6843394,,-0.076318465,0.26309097,-0.04941776,-0.2574859,0.961499,0.0960246,-0.9650226,-0.2508053,-0.076341756,-0.049319044,-0.11232284,0.9924471,,-0.05583144,0.45552298,-0.28293484,0.16733684,-0.29155445,-0.9418038,-0.6116604,-0.77990204,0.13275652,-0.7732205,0.55384904,-0.30883867,,1.0720002730039784,0.27215682922054596,0.18988185549000003,-1.0409008794571788,0.09031672634495613,-0.018514084748455062,0.8567396268742946,,-1.4152525810646353,0.09149893909381199,0.21766394277000004,0.1652356754658052,-0.30524594047599396,-1.372987146113339,-0.14553956292564285,,0.0250542014123786,0.03150755632162763,0.0839748988,-0.11775085106328897,,6.6310167e-06,6.4969063e-06,-9.179115e-06,0.99999994,-1.360476e-05,-1.4424324e-05,1.3601035e-05,1.0,-1.3709068e-06,1.4428049e-05,1.3113022e-06,1.0,121,0.373,1,1,0.349,False,1.0308136584159993,0.011297549797251172
0.389518957817927,16:14:07.123464,16:12:40.183193,0,,0.115623295,-0.003344804,0.0043683797,0.2857908,-0.95749736,-0.039015196,-0.689086,-0.23362818,0.68598706,-0.6659459,-0.16916399,-0.726567,,0.10254757,0.00093152,0.021427393,-0.16771945,0.4190673,0.8923298,-0.9619962,0.12827706,-0.2410568,-0.21548438,-0.89884794,0.38162667,,0.057688825,1.3275638,0.4376148,0.9967674,0.07912748,-0.013913721,0.04404784,-0.6830621,-0.72903085,-0.06719031,0.72606134,-0.6843394,,-0.07631345,0.26308775,-0.04941744,-0.25748232,0.9614816,0.09620822,-0.9650231,-0.25078604,-0.07639923,-0.049328778,-0.1125146,0.9924249,,-0.05579725,0.4557071,-0.28311098,0.16718632,-0.29704753,-0.9401125,-0.6123794,-0.77858424,0.13710602,-0.7726838,0.55278325,-0.31207442,,1.0720079957368527,0.2721182155561748,0.18988315178,-1.0409008794571788,0.09031672634495613,-0.01835072726817394,0.8564129387420261,,-1.415731390502837,0.0915993346211769,0.21742672170000002,0.16544536540928972,-0.30456275797716675,-1.3782816025599736,-0.14602959512404556,,0.0250542014123786,0.03150755632162763,0.0839748988,-0.11775085106328897,,6.6310167e-06,6.4969063e-06,-9.179115e-06,0.99999994,-1.360476e-05,-1.4424324e-05,1.3601035e-05,1.0,-1.3709068e-06,1.4428049e-05,1.3113022e-06,1.0,134,0.413,1,1,0.389,False,1.0309923915715626,0.011587231001928266
0.42334026494063437,16:14:07.160184,16:12:40.409584,0,,0.115618095,-0.0033480823,0.0043628514,0.2857836,-0.957498,-0.039051957,-0.6890136,-0.23363048,0.68605906,-0.666024,-0.16915712,-0.72649693,,0.102466136,0.00082157925,0.021730125,-0.1667091,0.42140523,0.8914176,-0.9619578,0.1289404,-0.24085596,-0.21643767,-0.8976592,0.38387853,,0.057688825,1.3275638,0.4376148,0.9967674,0.07912748,-0.013913721,0.04404784,-0.6830621,-0.72903085,-0.06719031,0.72606134,-0.6843394,,-0.07630798,0.26308164,-0.049416438,-0.257469,0.96148175,0.09624198,-0.96503204,-0.25078246,-0.07629784,-0.049223185,-0.11252092,0.9924294,,-0.05575824,0.45593286,-0.28335157,0.16630752,-0.29949892,-0.9394904,-0.61330694,-0.7774673,0.13928089,-0.7721376,0.5530325,-0.31298342,,1.0720002730039784,0.2720796018918037,0.18988574436000002,-1.0409008794571788,0.09045336284472158,-0.018380466431729803,0.8562495946758918,,-1.4163569318656493,0.0916302255526738,0.21711950097000002,0.16502598552232065,-0.3033330294792778,-1.3799377936143657,-0.14488618666110553,,0.0250542014123786,0.03150755632162763,0.0839748988,-0.11775085106328897,,6.6310167e-06,6.4969063e-06,-9.179115e-06,0.99999994,-1.360476e-05,-1.4424324e-05,1.3601035e-05,1.0,-1.3709068e-06,1.4428049e-05,1.3113022e-06,1.0,142,0.439,1,1,0.415,False,1.0310519692900835,0.010187105179324085
0.46009042183868587,16:14:07.191923,16:12:40.409584,0,,0.11561328,-0.0033522248,0.004359722,0.28578183,-0.9575007,-0.03899992,-0.6890276,-0.23359537,0.6860569,-0.66601026,-0.16919062,-0.72650176,,0.102458276,0.00076271966,0.02189368,-0.16650727,0.4217364,0.8912987,-0.9618185,0.12965342,-0.2410295,-0.2172108,-0.8974009,0.38404566,,0.057688825,1.3275638,0.4376148,0.9967674,0.07912748,-0.013913721,0.04404784,-0.6830621,-0.72903085,-0.06719031,0.72606134,-0.6843394,,-0.07630307,0.2630767,-0.049417716,-0.25746834,0.9614871,0.09619031,-0.9650312,-0.25078362,-0.07630457,-0.049242906,-0.11247266,0.9924339,,-0.055772983,0.4560514,-0.28347808,0.1662101,-0.2998405,-0.93939865,-0.61394733,-0.77694726,0.13936153,-0.7716495,0.553578,-0.31322277,,1.0720002730039784,0.27204098822743256,0.18988574436000002,-1.0409008794571788,0.09045336284472158,-0.018462145171870337,0.8560862506097575,,-1.4168357413038513,0.09162250281979958,0.21697561278000002,0.1652356754658052,-0.30264984698045055,-1.379759774471583,-0.14504953072723992,,0.0250542014123786,0.03150755632162763,0.0839748988,-0.11775085106328897,,6.6310167e-06,6.4969063e-06,-9.179115e-06,0.99999994,-1.360476e-05,-1.4424324e-05,1.3601035e-05,1.0,-1.3709068e-06,1.4428049e-05,1.3113022e-06,1.0,155,0.478,1,1,0.454,False,1.031349857882689,0.011007868592574521
0.4918282818980515,16:14:07.225867,16:12:40.409584,0,,0.11560744,-0.003354907,0.0043562204,0.2857774,-0.9575007,-0.039031323,-0.68903786,-0.23361702,0.68603927,-0.6660015,-0.16916047,-0.7265168,,0.102455385,0.00073308125,0.022022307,-0.16590258,0.4237979,0.89043325,-0.9613286,0.13177758,-0.2418305,-0.21982628,-0.89611936,0.38554686,,0.057688825,1.3275638,0.4376148,0.9967674,0.07912748,-0.013913721,0.04404784,-0.6830621,-0.72903085,-0.06719031,0.72606134,-0.6843394,,-0.076297075,0.2630725,-0.049417652,-0.25746465,0.9614849,0.09622224,-0.9650315,-0.2507758,-0.07632652,-0.04925658,-0.11250886,0.99242914,,-0.055787373,0.45615187,-0.28356248,0.16595842,-0.30198932,-0.9387546,-0.6160975,-0.7750539,0.14041097,-0.7699881,0.555062,-0.3146816,,1.0720079957368527,0.2720023745630615,0.18988704065,-1.0409008794571788,0.09045336284472158,-0.018462145171870337,0.8564129387420261,,-1.4172141552146882,0.09160705735405113,0.21686542813,0.16628412518322783,-0.3001903899846727,-1.381520260517697,-0.14553956292564263,,0.0250542014123786,0.03150755632162763,0.0839748988,-0.11775085106328897,,6.6310167e-06,6.4969063e-06,-9.179115e-06,0.99999994,-1.360476e-05,-1.4424324e-05,1.3601035e-05,1.0,-1.3709068e-06,1.4428049e-05,1.3113022e-06,1.0,163,0.504,1,1,0.48,False,1.0309328138530418,0.010525066584779807
0.5257820778060704,16:14:07.251073,16:12:40.409584,0,,0.11560355,-0.0033574551,0.0043527037,0.28577602,-0.9575002,-0.039052267,-0.689049,-0.23363377,0.6860223,-0.6659905,-0.16913977,-0.7265317,,0.10243082,0.00071017817,0.022136807,-0.16658819,0.42343333,0.89047873,-0.9608786,0.132947,-0.24297628,-0.22127062,-0.896119,0.38472062,,0.057688825,1.3275638,0.4376148,0.9967674,0.07912748,-0.013913721,0.04404784,-0.6830621,-0.72903085,-0.06719031,0.72606134,-0.6843394,,-0.07629303,0.26306832,-0.049417403,-0.2574641,0.9614829,0.09624373,-0.9650308,-0.25077176,-0.07634828,-0.04927236,-0.112535104,0.9924254,,-0.055778287,0.45624515,-0.28363636,0.16683517,-0.3015955,-0.9387258,-0.61709976,-0.7744832,0.13915321,-0.7689954,0.5560718,-0.31532556,,1.0720079957368527,0.27197148363156454,0.18988833694,-1.0409008794571788,0.09045336284472158,-0.018462145171870337,0.8564129387420261,,-1.4174844508652862,0.09168428468279338,0.21675913235000002,0.1677519547876195,-0.2995072074858454,-1.3810972051544923,-0.14521287479337408,,0.0250542014123786,0.03150755632162763,0.0839748988,-0.11775085106328897,,6.6310167e-06,6.4969063e-06,-9.179115e-06,0.99999994,-1.360476e-05,-1.4424324e-05,1.3601035e-05,1.0,-1.3709068e-06,1.4428049e-05,1.3113022e-06,1.0,176,0.544,1,1,0.52,False,1.0310519692900835,0.010042264576985094
0.5509957778267562,16:14:07.291213,16:12:40.409584,0,,0.1156005,-0.0033599734,0.004350841,0.28597468,-0.9574395,-0.03908721,-0.68900603,-0.23380318,0.68600774,-0.6659497,-0.16924953,-0.7265435,,0.102418065,0.0006929673,0.022316635,-0.16549441,0.42539448,0.8897477,-0.960531,0.13501349,-0.24321106,-0.22358853,-0.8948804,0.38626063,,0.057688825,1.3275638,0.4376148,0.9967674,0.07912748,-0.013913721,0.04404784,-0.6830621,-0.72903085,-0.06719031,0.72606134,-0.6843394,,-0.076289915,0.26306534,-0.049418192,-0.25766408,0.9614258,0.096279055,-0.9649782,-0.25096872,-0.076365635,-0.049256857,-0.11258387,0.9924206,,-0.055789094,0.45639756,-0.28373355,0.16605662,-0.3036409,-0.93820435,-0.61910117,-0.7726439,0.1404816,-0.76755387,0.5575155,-0.31628707,,1.0720079957368527,0.2719483154329419,0.18988833694,-1.0411105694006635,0.09045336284472158,-0.018462145171870337,0.8567396268742946,,-1.417963260303488,0.09182329387452942,0.21661135529000003,0.16817133467458853,-0.29718438698983296,-1.382501237076488,-0.14553956292564285,,0.0250542014123786,0.03150755632162763,0.0839748988,-0.11775085106328897,,6.6310167e-06,6.4969063e-06,-9.179115e-06,0.99999994,-1.360476e-05,-1.4424324e-05,1.3601035e-05,1.0,-1.3709068e-06,1.4428049e-05,1.3113022e-06,1.0,184,0.57,1,1,0.546,False,1.0307540806974784,0.010138824978544125
0.5911187878809869,16:14:07.321290,16:12:40.409584,0,,0.11559962,-0.0033638924,0.0043477565,0.28597894,-0.95743805,-0.039092474,-0.689022,-0.23381436,0.6859879,-0.6659313,-0.16924256,-0.72656196,,0.10238449,0.0006748475,0.022417605,-0.16649777,0.4249968,0.88975054,-0.9598968,0.13655314,-0.24484986,-0.22555849,-0.8948357,0.3852173,,0.057688825,1.3275638,0.4376148,0.9967674,0.07912748,-0.013913721,0.04404784,-0.6830621,-0.72903085,-0.06719031,0.72606134,-0.6843394,,-0.076288916,0.26306045,-0.049419098,-0.25766978,0.9614237,0.09628505,-0.9649755,-0.2509711,-0.07639247,-0.04928077,-0.11259674,0.99241793,,-0.055769216,0.456482,-0.28379783,0.16732068,-0.30320972,-0.93811923,-0.620452,-0.77186185,0.13881132,-0.76618737,0.55883193,-0.31727552,,1.0719925502711043,0.2719251472343192,0.18988833694,-1.0411105694006635,0.09045336284472158,-0.018462145171870337,0.8567396268742946,,-1.4181640513582179,0.09189279847039744,0.21651024467000002,0.17026823410943376,-0.2962279314914749,-1.3822193387805357,-0.14570290699177724,,0.0250542014123786,0.03150755632162763,0.0839748988,-0.11775085106328897,,6.6310167e-06,6.4969063e-06,-9.179115e-06,0.99999994,-1.360476e-05,-1.4424324e-05,1.3601035e-05,1.0,-1.3709068e-06,1.4428049e-05,1.3113022e-06,1.0,197,0.61,1,1,0.586,False,1.0311115470086047,0.009800863573087959
0.6212004679255188,16:14:07.355002,16:12:40.409584,0,,0.1155957,-0.0033649057,0.0043454915,0.28597522,-0.9574383,-0.0391134,-0.68902665,-0.23382762,0.68597865,-0.6659281,-0.16922274,-0.72656953,,0.10235609,0.0006719418,0.022499919,-0.16793048,0.4242252,0.8898495,-0.9594051,0.13714668,-0.2464399,-0.22658587,-0.895111,0.3839728,,0.057688825,1.3275638,0.4376148,0.9967674,0.07912748,-0.013913721,0.04404784,-0.6830621,-0.72903085,-0.06719031,0.72606134,-0.6843394,,-0.076284885,0.26305822,-0.049418524,-0.25766632,0.9614225,0.09630623,-0.96497613,-0.25096533,-0.07640354,-0.049286555,-0.11261983,0.992415,,-0.055751663,0.4565563,-0.28383976,0.168886,-0.30239317,-0.9381023,-0.62099093,-0.7717564,0.13697568,-0.7654069,0.55941975,-0.31812227,,1.0720002730039784,0.2719019790356965,0.18988963323000002,-1.0411105694006635,0.09045336284472158,-0.018462145171870337,0.8567396268742946,,-1.4183262287485765,0.0920395303950077,0.21643376356000002,0.1721554436007945,-0.29636456799124034,-1.3816995271761363,-0.1458662510579114,,0.0250542014123786,0.03150755632162763,0.0839748988,-0.11775085106328897,,6.6310167e-06,6.4969063e-06,-9.179115e-06,0.99999994,-1.360476e-05,-1.4424324e-05,1.3601035e-05,1.0,-1.3709068e-06,1.4428049e-05,1.3113022e-06,1.0,205,0.635,1,1,0.611,False,1.0308732361345205,0.010428506183220776
0.6548279249109328,16:14:07.384420,16:12:40.621570,0,,0.115593925,-0.003366515,0.0043442845,0.2857747,-0.9574985,-0.039104633,-0.68908376,-0.23367915,0.68597203,-0.6659551,-0.16908713,-0.7265764,,0.102341026,0.00067124143,0.022544026,-0.16805121,0.4244423,0.8897231,-0.959263,0.13751519,-0.24678752,-0.22709742,-0.8949516,0.38404226,,0.057688825,1.3275638,0.4376148,0.9967674,0.07912748,-0.013913721,0.04404784,-0.6830621,-0.72903085,-0.06719031,0.72606134,-0.6843394,,-0.07628308,0.2630563,-0.049419016,-0.2574657,0.9614771,0.09629777,-0.96502787,-0.25076327,-0.07641339,-0.04932178,-0.11260386,0.99241513,,-0.055742383,0.45659652,-0.28386146,0.16907501,-0.3026186,-0.93799555,-0.6213662,-0.77146924,0.13689132,-0.7650606,0.5596938,-0.31847316,,1.0720002730039784,0.2718865335699481,0.18988963323000002,-1.0409008794571788,0.09045336284472158,-0.018462145171870337,0.8567396268742946,,-1.4184034560773189,0.09210903499087572,0.21639228228000001,0.17257482348776354,-0.29609129499170944,-1.3819223629835293,-0.1458662510579114,,0.0250542014123786,0.03150755632162763,0.0839748988,-0.11775085106328897,,6.6310167e-06,6.4969063e-06,-9.179115e-06,0.99999994,-1.360476e-05,-1.4424324e-05,1.3601035e-05,1.0,-1.3709068e-06,1.4428049e-05,1.3113022e-06,1.0,218,0.675,1,1,0.651,False,1.0309923915715626,0.010090544777765054
0.6843363710213453,16:14:07.425422,16:12:40.621570,0,,0.11550416,-0.0033352226,0.0043336153,0.28570727,-0.9575227,-0.039007183,-0.6890173,-0.2335397,0.6860863,-0.66605294,-0.16914323,-0.7264737,,0.102279216,0.0006754473,0.0226807,-0.16715744,0.42536286,0.8894519,-0.95877814,0.14013022,-0.24720061,-0.22978896,-0.89410853,0.3844048,,0.05771725,1.3275656,0.43760478,0.996767,0.079133585,-0.013907209,0.044056743,-0.68306136,-0.729031,-0.06719031,0.72606134,-0.6843394,,-0.07622263,0.26307806,-0.049398962,-0.2573849,0.96150947,0.09619043,-0.965055,-0.25070447,-0.07626386,-0.04921305,-0.11245822,0.992437,,-0.055728488,0.45673156,-0.28392938,0.16855507,-0.30356547,-0.9377831,-0.62361354,-0.7696264,0.13704531,-0.7633448,0.5617146,-0.31903195,,1.0719925502711043,0.27184791990557694,0.18988963323000002,-1.0409008794571788,0.09058999934448701,-0.01857356307556679,0.8567396268742946,,-1.4186737517279167,0.09217853958674375,0.21628728279000003,0.17341358326170164,-0.2933585649964006,-1.3824354675145059,-0.14504953072723992,,0.0250542014123786,0.03150755632162763,0.0839748988,-0.11775085106328897,,3.5718083e-05,2.9802322e-07,-4.172325e-06,0.99999994,-7.484108e-06,-7.946044e-06,7.480383e-06,1.0,-7.4505806e-07,7.946044e-06,7.1525574e-07,1.0,226,0.701,1,1,0.677,False,1.0312902801641677,0.010525066584779807
0.7253277800045907,16:14:07.455548,16:12:40.621570,0,,0.11550526,-0.003339067,0.004333839,0.2857122,-0.9575214,-0.039001968,-0.68902767,-0.23354246,0.68607485,-0.66604006,-0.16914657,-0.7264847,,0.10230592,0.00067346543,0.022706449,-0.16662186,0.42592886,0.8892814,-0.9586805,0.14093,-0.24712452,-0.23058385,-0.89371324,0.3848477,,0.05771725,1.3275656,0.43760478,0.996767,0.079133585,-0.013907209,0.044056743,-0.68306136,-0.729031,-0.06719031,0.72606134,-0.6843394,,-0.07622383,0.26307562,-0.049401898,-0.25739083,0.96150833,0.096185684,-0.96505255,-0.25070885,-0.07627982,-0.049229078,-0.11245797,0.99243623,,-0.05575831,0.45675072,-0.2839405,0.16812839,-0.30415502,-0.9376687,-0.624326,-0.76896936,0.13748883,-0.7628564,0.56229514,-0.31917745,,1.0719771048053557,0.27184019717270275,0.18988704065,-1.0409008794571788,0.09058999934448701,-0.01857356307556679,0.8567396268742946,,-1.4188436518511496,0.09215537138812108,0.21628209763000003,0.17341358326170164,-0.2924021094980425,-1.3827253203995375,-0.14570290699177724,,0.0250542014123786,0.03150755632162763,0.0839748988,-0.11775085106328897,,3.5718083e-05,2.9802322e-07,-4.172325e-06,0.99999994,-7.484108e-06,-7.946044e-06,7.480383e-06,1.0,-7.4505806e-07,7.946044e-06,7.1525574e-07,1.0,243,0.753,1,1,0.729,False,1.0305157698233942,0.010428506183220776
0.7554386218544096,16:14:07.499926,16:12:40.621570,0,,0.11550896,-0.0033418238,0.0043332875,0.28571516,-0.95751774,-0.039069816,-0.6889497,-0.23357356,0.6861427,-0.6661195,-0.16912422,-0.72641706,,0.10232684,0.00065725297,0.022716284,-0.16667092,0.42603144,0.8892231,-0.958678,0.14085838,-0.24717513,-0.23055884,-0.89367557,0.38494998,,0.05771725,1.3275656,0.43760478,0.996767,0.079133585,-0.013907209,0.044056743,-0.68306136,-0.729031,-0.06719031,0.72606134,-0.6843394,,-0.076227516,0.26307324,-0.04940338,-0.25738743,0.96150273,0.09625054,-0.96505916,-0.2507133,-0.07618204,-0.04911795,-0.112495765,0.9924375,,-0.055780753,0.45674992,-0.2839576,0.16817388,-0.30426347,-0.93762535,-0.6242978,-0.76897913,0.13756207,-0.7628695,0.5622231,-0.31927323,,1.071946213873859,0.27184019717270275,0.18988574436000002,-1.0409008794571788,0.09072663584425246,-0.018521623498982065,0.8564129387420261,,-1.418959492844263,0.09208586679225306,0.21628209763000003,0.17341358326170164,-0.2924021094980425,-1.3827253203995375,-0.14570290699177724,,0.0250542014123786,0.03150755632162763,0.0839748988,-0.11775085106328897,,3.5718083e-05,2.9802322e-07,-4.172325e-06,0.99999994,-7.484108e-06,-7.946044e-06,7.480383e-06,1.0,-7.4505806e-07,7.946044e-06,7.1525574e-07,1.0,264,0.818,1,1,0.794,False,1.0314094356012098,0.010283665580882229
0.7998480459209532,16:14:07.566153,16:12:40.774741,0,,0.115513265,-0.0033439994,0.004331276,0.28573126,-0.95750785,-0.03919477,-0.68905133,-0.23370148,0.68599695,-0.6660074,-0.16900358,-0.72654784,,0.10232367,0.00065047294,0.022712052,-0.16796993,0.4256512,0.8891609,-0.9582474,0.14122915,-0.24862885,-0.23140451,-0.89379835,0.38415694,,0.05771725,1.3275656,0.43760478,0.996767,0.079133585,-0.013907209,0.044056743,-0.68306136,-0.729031,-0.06719031,0.72606134,-0.6843394,,-0.07623173,0.26307017,-0.04940339,-0.25741225,0.9614831,0.09638049,-0.9650449,-0.25071013,-0.07637262,-0.049267422,-0.11267075,0.9924102,,-0.05577726,0.45674336,-0.28396198,0.16958173,-0.30386057,-0.93750244,-0.62471753,-0.76888,0.13620408,-0.76221395,0.5625765,-0.32021502,,1.0719230456752362,0.27184791990557694,0.18988574436000002,-1.0409008794571788,0.09058999934448701,-0.018328526855145078,0.8562495946758919,,-1.418959492844263,0.09204725312788194,0.21628080134000002,0.17509110280957785,-0.2924021094980425,-1.3827253203995375,-0.14570290699177724,,0.0250542014123786,0.03150755632162763,0.0839748988,-0.11775085106328897,,3.5718083e-05,2.9802322e-07,-4.172325e-06,0.99999994,-7.484108e-06,-7.946044e-06,7.480383e-06,1.0,-7.4505806e-07,7.946044e-06,7.1525574e-07,1.0,272,0.844,1,1,0.82,False,1.031826479630857,0.010187105179324085
0.8660620318260044,16:14:07.594905,16:12:40.774741,0,,0.11551212,-0.0033492446,0.0043264776,0.28576657,-0.9574795,-0.039626896,-0.68951863,-0.23415703,0.68537176,-0.6655084,-0.16853288,-0.72711426,,0.10232026,0.0006508902,0.022711158,-0.16892637,0.4253667,0.88911575,-0.9579207,0.14153531,-0.2497115,-0.2320601,-0.8938854,0.3835585,,0.05771725,1.3275656,0.43760478,0.996767,0.079133585,-0.013907209,0.044056743,-0.68306136,-0.729031,-0.06719031,0.72606134,-0.6843394,,-0.0762304,0.26306313,-0.049404144,-0.25748676,0.9614175,0.096834585,-0.96499014,-0.2506682,-0.07719755,-0.049945727,-0.113321766,0.9923022,,-0.055773757,0.45674312,-0.2839615,0.1706228,-0.30355892,-0.93741125,-0.62505126,-0.76878846,0.1351857,-0.7617078,0.56286436,-0.32091272,,1.0719307684081103,0.2718324744398285,0.18988574436000002,-1.0409008794571788,0.0899068168456598,-0.017689758596522415,0.8564129387420261,,-1.418959492844263,0.09204725312788194,0.21627950505000001,0.17634924247048497,-0.2924021094980425,-1.3827253203995375,-0.14570290699177724,,0.0250542014123786,0.03150755632162763,0.0839748988,-0.11775085106328897,,3.5718083e-05,2.9802322e-07,-4.172325e-06,0.99999994,-7.484108e-06,-7.946044e-06,7.480383e-06,1.0,-7.4505806e-07,7.946044e-06,7.1525574e-07,1.0,285,0.884,1,1,0.86,False,1.0317073241938153,0.009704303171529371
0.8948191839735955,16:14:07.633292,16:12:40.774741,0,,0.11551009,-0.0033462793,0.0043289214,0.28575894,-0.95749104,-0.039402727,-0.6895045,-0.233987,0.68544406,-0.6655264,-0.16870344,-0.7270583,,0.10232226,0.00064309686,0.022704363,-0.1699211,0.42535752,0.88893056,-0.95751673,0.1420139,-0.2509858,-0.2329992,-0.8938137,0.38315582,,0.05771725,1.3275656,0.43760478,0.996767,0.079133585,-0.013907209,0.044056743,-0.68306136,-0.729031,-0.06719031,0.72606134,-0.6843394,,-0.07622846,0.26306698,-0.049403682,-0.2574778,0.96144265,0.09660881,-0.9649937,-0.25068003,-0.07711491,-0.049923662,-0.113082275,0.9923306,,-0.05577508,0.45673335,-0.28396523,0.17174017,-0.30354574,-0.93721145,-0.6255965,-0.76850593,0.13426709,-0.76100874,0.56325716,-0.3218805,,1.071953936606733,0.27184019717270275,0.18988574436000002,-1.0409008794571788,0.0899068168456598,-0.017934794816944127,0.856902970940429,,-1.4189672155771371,0.09198547126488814,0.21628209763000003,0.17781707207487665,-0.2921288364985117,-1.3830298349470709,-0.1458662510579114,,0.0250542014123786,0.03150755632162763,0.0839748988,-0.11775085106328897,,3.5718083e-05,2.9802322e-07,-4.172325e-06,0.99999994,-7.484108e-06,-7.946044e-06,7.480383e-06,1.0,-7.4505806e-07,7.946044e-06,7.1525574e-07,1.0,293,0.91,1,1,0.886,False,1.0315881687567727,0.010331945781662188
0.9332134330179542,16:14:07.664787,16:12:40.774741,0,,0.11551304,-0.0033468753,0.0043283254,0.2857646,-0.95748997,-0.03938703,-0.6895093,-0.23398142,0.6854412,-0.665519,-0.16871713,-0.72706187,,0.10234122,0.00062987953,0.022698343,-0.1671179,0.42688203,0.8887312,-0.9582664,0.14173043,-0.24827035,-0.23194233,-0.89313173,0.38538098,,0.05771725,1.3275656,0.43760478,0.996767,0.079133585,-0.013907209,0.044056743,-0.68306136,-0.729031,-0.06719031,0.72606134,-0.6843394,,-0.07623139,0.26306605,-0.049403563,-0.257484,0.96144253,0.09659331,-0.9649916,-0.25068647,-0.07711999,-0.0499318,-0.1130689,0.99233174,,-0.055793475,0.4567201,-0.28397268,0.16880523,-0.30515215,-0.937223,-0.6252879,-0.76818657,0.13749333,-0.76191854,0.5628246,-0.32048184,,1.0719384911409846,0.27184791990557694,0.18988574436000002,-1.0409008794571788,0.0899068168456598,-0.017934794816944127,0.856902970940429,,-1.4189826610428857,0.091877353004649,0.21629117166000003,0.1746717229226088,-0.29130901749991905,-1.38378002110939,-0.14570290699177724,,0.0250542014123786,0.03150755632162763,0.0839748988,-0.11775085106328897,,3.5718083e-05,2.9802322e-07,-4.172325e-06,0.99999994,-7.484108e-06,-7.946044e-06,7.480383e-06,1.0,-7.4505806e-07,7.946044e-06,7.1525574e-07,1.0,306,0.95,1,1,0.926,False,1.031647746475294,0.009656022970749412
0.964646965963766,16:14:07.702101,16:12:40.962183,0,,0.115510166,-0.0033493787,0.0043264627,0.2857636,-0.9574896,-0.03940275,-0.6895177,-0.23399398,0.68542844,-0.6655107,-0.16870162,-0.7270731,,0.10238774,0.0005973056,0.022652924,-0.16451569,0.42864722,0.88836706,-0.958798,0.14197975,-0.24606554,-0.23160535,-0.89224625,0.38762823,,0.05771725,1.3275656,0.43760478,0.996767,0.079133585,-0.013907209,0.044056743,-0.68306136,-0.729031,-0.06719031,0.72606134,-0.6843394,,-0.07622845,0.2630631,-0.04940433,-0.2574836,0.961441,0.096609436,-0.9649911,-0.2506834,-0.07713631,-0.04994363,-0.11308858,0.9923289,,-0.05583469,0.45666033,-0.2839774,0.16616759,-0.30700848,-0.93708813,-0.625496,-0.76746863,0.14052278,-0.76232743,0.5627945,-0.31956097,,1.0719384911409846,0.2718247517069543,0.18988574436000002,-1.0409008794571788,0.0899068168456598,-0.017934794816944127,0.856902970940429,,-1.4189981065086341,0.09156844368968,0.21633654181000003,0.1721554436007945,-0.2898060160024992,-1.3848422605697694,-0.1463562832563141,,0.0250542014123786,0.03150755632162763,0.0839748988,-0.11775085106328897,,3.5718083e-05,2.9802322e-07,-4.172325e-06,0.99999994,-7.484108e-06,-7.946044e-06,7.480383e-06,1.0,-7.4505806e-07,7.946044e-06,7.1525574e-07,1.0,314,0.975,1,1,0.951,False,1.031349857882689,0.00960774276997034
1.0020211848895997,16:14:07.726048,16:12:40.962183,0,,0.1155092,-0.0033501834,0.004325852,0.28576323,-0.95748955,-0.039407987,-0.6895205,-0.23399815,0.68542415,-0.6655079,-0.16869642,-0.72707677,,0.10242505,0.0005754903,0.022604167,-0.16409875,0.4287163,0.88841075,-0.9588059,0.14237446,-0.24580643,-0.23186818,-0.89215016,0.38769227,,0.05771725,1.3275656,0.43760478,0.996767,0.079133585,-0.013907209,0.044056743,-0.68306136,-0.729031,-0.06719031,0.72606134,-0.6843394,,-0.076227464,0.26306212,-0.049404588,-0.25748348,0.9614405,0.09661481,-0.9649909,-0.25068235,-0.07714175,-0.049947575,-0.113095134,0.9923279,,-0.05586606,0.4566035,-0.2839718,0.16578759,-0.3070783,-0.93713254,-0.6257741,-0.76721066,0.14069319,-0.7621819,0.5631081,-0.31935567,,1.0719384911409846,0.27181702897408005,0.18988574436000002,-1.0409008794571788,0.0899068168456598,-0.017934794816944127,0.856902970940429,,-1.4189981065086341,0.09133676170345327,0.21638450454000002,0.17194575365730996,-0.289122833503672,-1.384745920167127,-0.14700965952085143,,0.0250542014123786,0.03150755632162763,0.0839748988,-0.11775085106328897,,3.5718083e-05,2.9802322e-07,-4.172325e-06,0.99999994,-7.484108e-06,-7.946044e-06,7.480383e-06,1.0,-7.4505806e-07,7.946044e-06,7.1525574e-07,1.0,323,1.003,1,1,0.979,False,1.031349857882689,0.009559462569191268
1.0259633518289775,16:14:07.758746,16:12:40.962183,0,,0.11551027,-0.003353253,0.004325047,0.28576818,-0.95748824,-0.03940276,-0.6895309,-0.23400095,0.6854128,-0.66549504,-0.16869979,-0.72708774,,0.102563865,0.0005423799,0.02243948,-0.16185045,0.43059844,0.8879128,-0.95890486,0.14385578,-0.24455468,-0.23303622,-0.8910054,0.38961983,,0.05771725,1.3275656,0.43760478,0.996767,0.079133585,-0.013907209,0.044056743,-0.68306136,-0.729031,-0.06719031,0.72606134,-0.6843394,,-0.076228544,0.26305944,-0.049406253,-0.2574894,0.9614394,0.096610054,-0.9649885,-0.25068676,-0.077157706,-0.0499636,-0.11309489,0.99232715,,-0.055983547,0.45642877,-0.28391573,0.16370513,-0.30904958,-0.93685055,-0.62707955,-0.76571333,0.1430188,-0.76155883,0.5640669,-0.31914988,,1.0719230456752362,0.27180930624120586,0.18988444807000002,-1.0409008794571788,0.0899068168456598,-0.017934794816944127,0.856902970940429,,-1.4190135519743825,0.09070349760776687,0.21656728143,0.17068761399640284,-0.2862534670085977,-1.3860238725229248,-0.14684631545471682,,0.0250542014123786,0.03150755632162763,0.0839748988,-0.11775085106328897,,3.5718083e-05,2.9802322e-07,-4.172325e-06,0.99999994,-7.484108e-06,-7.946044e-06,7.480383e-06,1.0,-7.4505806e-07,7.946044e-06,7.1525574e-07,1.0,332,1.031,1,1,1.007,False,1.031766901912336,0.009414621966852277
1.0586642909329385,16:14:07.788248,16:12:40.962183,0,,0.11550927,-0.0033525378,0.004325643,0.28576553,-0.95748883,-0.039407987,-0.68952715,-0.23400165,0.6854164,-0.6655001,-0.16869551,-0.72708416,,0.10264555,0.00050554425,0.022337377,-0.16140115,0.4310406,0.8877801,-0.9588212,0.14452606,-0.24448784,-0.23369148,-0.89068305,0.38996422,,0.05771725,1.3275656,0.43760478,0.996767,0.079133585,-0.013907209,0.044056743,-0.68306136,-0.729031,-0.06719031,0.72606134,-0.6843394,,-0.07622757,0.2630604,-0.049406182,-0.25748637,0.96143967,0.09661512,-0.96498966,-0.25068405,-0.077152446,-0.04995756,-0.11309829,0.9923271,,-0.05605251,0.45631346,-0.28389585,0.16334575,-0.30951062,-0.9367611,-0.6276662,-0.76516736,0.14336719,-0.7611527,0.5645548,-0.3192562,,1.0719307684081103,0.27180930624120586,0.18988444807000002,-1.0409008794571788,0.0899068168456598,-0.017934794816944127,0.856902970940429,,-1.419028997440131,0.09026330183393606,0.21667357721000002,0.17068761399640284,-0.2850237385107088,-1.3862915249949275,-0.14635628325631456,,0.0250542014123786,0.03150755632162763,0.0839748988,-0.11775085106328897,,3.5718083e-05,2.9802322e-07,-4.172325e-06,0.99999994,-7.484108e-06,-7.946044e-06,7.480383e-06,1.0,-7.4505806e-07,7.946044e-06,7.1525574e-07,1.0,355,1.105,1,1,1.081,False,1.0312902801641677,0.00926978136451373
1.088160968851298,16:14:07.861447,16:12:40.962183,0,,0.11551018,-0.0033556372,0.0043248236,0.28597027,-0.9574239,-0.039500065,-0.68948597,-0.23421729,0.68538404,-0.66545475,-0.16876474,-0.7271096,,0.10313298,7.843226e-05,0.022032559,-0.15610166,0.43534848,0.8866249,-0.9592403,0.14725637,-0.241192,-0.2355637,-0.888137,0.3946169,,0.05771725,1.3275656,0.43760478,0.996767,0.079133585,-0.013907209,0.044056743,-0.68306136,-0.729031,-0.06719031,0.72606134,-0.6843394,,-0.07622849,0.26305768,-0.04940787,-0.25769272,0.96137506,0.096707955,-0.9649351,-0.25088218,-0.077190004,-0.04994625,-0.113208205,0.9923151,,-0.056508612,0.45579976,-0.28409842,0.15831943,-0.31403136,-0.93611926,-0.6300491,-0.7621069,0.14910114,-0.7602454,0.5661955,-0.31851152,,1.071915322942362,0.2718015835083316,0.18988315178,-1.0411105694006635,0.0899068168456598,-0.017853116076803482,0.8567396268742946,,-1.4200792891110254,0.08724371328011428,0.21701968664000001,0.1669131950136814,-0.277645367523375,-1.3878974398269437,-0.14700965952085143,,0.0250542014123786,0.03150755632162763,0.0839748988,-0.11775085106328897,,3.5718083e-05,2.9802322e-07,-4.172325e-06,0.99999994,-7.484108e-06,-7.946044e-06,7.480383e-06,1.0,-7.4505806e-07,7.946044e-06,7.1525574e-07,1.0,364,1.134,1,1,1.11,False,1.0308732361345205,0.00926978136451373
1.1613453410100192,16:14:07.893864,16:12:40.962183,0,,0.1155113,-0.0033602268,0.004322797,0.28597754,-0.9574187,-0.03957305,-0.68950295,-0.23427954,0.6853457,-0.66543406,-0.16870779,-0.7271418,,0.10333612,-0.00019379705,0.022004128,-0.15604827,0.43627554,0.8861785,-0.95946795,0.14619967,-0.2409296,-0.23467061,-0.8878566,0.39577818,,0.05771725,1.3275656,0.43760478,0.996767,0.079133585,-0.013907209,0.044056743,-0.68306136,-0.729031,-0.06719031,0.72606134,-0.6843394,,-0.076229565,0.26305306,-0.04940986,-0.25770155,0.9613652,0.096782036,-0.9649314,-0.25088194,-0.07723716,-0.04997226,-0.113292165,0.9923042,,-0.0567139,0.45562983,-0.28431094,0.15814607,-0.3150155,-0.93581784,-0.6293688,-0.7624349,0.15029274,-0.76084477,0.56520635,-0.31883702,,1.0718921547437392,0.27178613804258317,0.18988185549000003,-1.0411105694006635,0.0899068168456598,-0.01777143733666295,0.8565762828081604,,-1.420882453329945,0.08583817589700543,0.21706764937000003,0.1660744352397433,-0.27709882152431325,-1.387853039000886,-0.14733634765311976,,0.0250542014123786,0.03150755632162763,0.0839748988,-0.11775085106328897,,3.5718083e-05,2.9802322e-07,-4.172325e-06,0.99999994,-7.484108e-06,-7.946044e-06,7.480383e-06,1.0,-7.4505806e-07,7.946044e-06,7.1525574e-07,1.0,378,1.179,1,1,1.155,False,1.031826479630857,0.009704303171529371
1.1937798818107694,16:14:07.927924,16:12:40.962183,0,,0.11550945,-0.0033649653,0.0043191314,0.28598145,-0.9574171,-0.03958354,-0.6895217,-0.23429486,0.68532157,-0.6654129,-0.1686956,-0.7271639,,0.10352628,-0.00040907413,0.022029877,-0.15589362,0.43839756,0.8851579,-0.959195,0.14680955,-0.24164428,-0.23588583,-0.8867099,0.3976221,,0.05771725,1.3275656,0.43760478,0.996767,0.079133585,-0.013907209,0.044056743,-0.68306136,-0.729031,-0.06719031,0.72606134,-0.6843394,,-0.07622758,0.26304722,-0.049411017,-0.25770712,0.9613626,0.0967934,-0.9649285,-0.25088325,-0.077269435,-0.05000011,-0.113311596,0.99230057,,-0.056911692,0.45553517,-0.28449827,0.1581556,-0.31724897,-0.93506145,-0.6303343,-0.7613578,0.15170027,-0.7600431,0.56540906,-0.32038593,,1.0718767092779908,0.2717552471110863,0.18988185549000003,-1.0411105694006635,0.0899068168456598,-0.01777143733666295,0.8565762828081604,,-1.4217705676104806,0.08471837963024287,0.21708579743000003,0.16649381512671232,-0.2750492740278316,-1.3891159138556297,-0.14717300358698537,,0.0250542014123786,0.03150755632162763,0.0839748988,-0.11775085106328897,,3.5718083e-05,2.9802322e-07,-4.172325e-06,0.99999994,-7.484108e-06,-7.946044e-06,7.480383e-06,1.0,-7.4505806e-07,7.946044e-06,7.1525574e-07,1.0,387,1.208,1,1,1.184,False,1.0311115470086047,0.009800863573087959
1.227798428852111,16:14:07.965158,16:12:41.206977,0,,0.11550644,-0.003368318,0.004318252,0.28618017,-0.9573563,-0.03961833,-0.6894786,-0.23446427,0.68530697,-0.66537213,-0.1688053,-0.7271758,,0.10370074,-0.0005205795,0.022104323,-0.15541896,0.43945014,0.8847193,-0.9585481,0.14942178,-0.24260801,-0.23881042,-0.8857521,0.3980112,,0.05771725,1.3275656,0.43760478,0.996767,0.079133585,-0.013907209,0.044056743,-0.68306136,-0.729031,-0.06719031,0.72606134,-0.6843394,,-0.07622459,0.26304442,-0.04941308,-0.2579071,0.96130544,0.09682857,-0.9648759,-0.2510802,-0.0772869,-0.04998458,-0.1133604,0.9922958,,-0.057097245,0.45553243,-0.28461644,0.15807669,-0.31834266,-0.934703,-0.6326729,-0.7594258,0.15164901,-0.7581139,0.56738913,-0.32145432,,1.0718767092779908,0.2717320789124636,0.18988055920000002,-1.041320259344148,0.0899068168456598,-0.01777143733666295,0.8565762828081604,,-1.4226895728225133,0.08410056100030491,0.21709357517000002,0.1677519547876195,-0.2719066345332265,-1.38914648469629,-0.14733634765311976,,0.0250542014123786,0.03150755632162763,0.0839748988,-0.11775085106328897,,3.5718083e-05,2.9802322e-07,-4.172325e-06,0.99999994,-7.484108e-06,-7.946044e-06,7.480383e-06,1.0,-7.4505806e-07,7.946044e-06,7.1525574e-07,1.0,401,1.253,1,1,1.229,False,1.031469013319731,0.009656022970749412
1.2650642609223723,16:14:08.005447,16:12:41.206977,0,,0.11550526,-0.0033676475,0.0043188334,0.28637728,-0.9572964,-0.03964264,-0.6894234,-0.23462184,0.6853087,-0.66534466,-0.1689263,-0.72717285,,0.1037649,-0.00051338226,0.02215898,-0.15676154,0.43957248,0.8844216,-0.9578531,0.15058973,-0.24462274,-0.24071416,-0.8854935,0.39743924,,0.05771725,1.3275656,0.43760478,0.996767,0.079133585,-0.013907209,0.044056743,-0.68306136,-0.729031,-0.06719031,0.72606134,-0.6843394,,-0.07622345,0.26304534,-0.049413037,-0.2581044,0.96125007,0.09685269,-0.96482486,-0.2512775,-0.07728279,-0.04995118,-0.11339291,0.9922938,,-0.05716764,0.45557758,-0.28462932,0.15967028,-0.31846464,-0.93439054,-0.6339031,-0.7586768,0.15025437,-0.7567511,0.5683219,-0.32301387,,1.0718844320108651,0.2717320789124636,0.18988055920000002,-1.0415299492876324,0.0899068168456598,-0.01777143733666295,0.8565762828081604,,-1.4231066003977215,0.08414689739755025,0.21709487146000003,0.17005854416594926,-0.2712234520343993,-1.389295180514069,-0.14749969171925414,,0.0250542014123786,0.03150755632162763,0.0839748988,-0.11775085106328897,,3.5718083e-05,2.9802322e-07,-4.172325e-06,0.99999994,-7.484108e-06,-7.946044e-06,7.480383e-06,1.0,-7.4505806e-07,7.946044e-06,7.1525574e-07,1.0,410,1.281,1,1,1.257,False,1.0308732361345205,0.009414621966852277
1.3053236869163811,16:14:08.035560,16:12:41.206977,0,,0.115504324,-0.003368497,0.0043181926,0.2863769,-0.95729625,-0.039647877,-0.6894262,-0.23462605,0.6853044,-0.66534185,-0.16892111,-0.7271766,,0.103773914,-0.0004741475,0.022178292,-0.15644544,0.44107193,0.8837308,-0.95721525,0.1528261,-0.24573007,-0.2434417,-0.8843641,0.39829183,,0.05771725,1.3275656,0.43760478,0.996767,0.079133585,-0.013907209,0.044056743,-0.68306136,-0.729031,-0.06719031,0.72606134,-0.6843394,,-0.07622247,0.26304433,-0.049413294,-0.2581043,0.96124953,0.09685806,-0.9648247,-0.2512765,-0.07728823,-0.049955122,-0.113399476,0.9922928,,-0.057177957,0.45561162,-0.28460234,0.15972312,-0.32003364,-0.9338453,-0.6360555,-0.7568099,0.15057296,-0.75493175,0.56992745,-0.3244392,,1.0718844320108651,0.2717243561795894,0.18988055920000002,-1.0415299492876324,0.0899068168456598,-0.01777143733666295,0.8565762828081604,,-1.4231761049935896,0.08424729292491517,0.21709487146000003,0.17152637377034094,-0.2689006315383868,-1.390862569916346,-0.14749969171925392,,0.0250542014123786,0.03150755632162763,0.0839748988,-0.11775085106328897,,3.5718083e-05,2.9802322e-07,-4.172325e-06,0.99999994,-7.484108e-06,-7.946044e-06,7.480383e-06,1.0,-7.4505806e-07,7.946044e-06,7.1525574e-07,1.0,424,1.326,1,1,1.302,False,1.0309328138530418,0.009173220962954698
1.3354804108384997,16:14:08.070539,16:12:41.206977,0,,0.115503386,-0.0033708662,0.0043163747,0.2863789,-0.9572954,-0.03965312,-0.6894355,-0.2346337,0.68529236,-0.66533124,-0.168915,-0.7271877,,0.103775755,-0.00046821684,0.022174776,-0.15616044,0.4411794,0.8837276,-0.9565773,0.15538713,-0.24660665,-0.24611762,-0.883864,0.39775687,,0.05771725,1.3275656,0.43760478,0.996767,0.079133585,-0.013907209,0.044056743,-0.68306136,-0.729031,-0.06719031,0.72606134,-0.6843394,,-0.07622148,0.2630414,-0.049413875,-0.25810707,0.9612482,0.09686375,-0.9648232,-0.25127715,-0.07730437,-0.049969044,-0.1134092,0.99229103,,-0.05717917,0.45561102,-0.28459534,0.1598002,-0.32013324,-0.93379796,-0.63815916,-0.75521034,0.14970045,-0.75313795,0.57198954,-0.3249787,,1.0718767092779908,0.2717089107138409,0.18988055920000002,-1.0415299492876324,0.0899068168456598,-0.01777143733666295,0.8565762828081604,,-1.4231683822607153,0.08416234286329871,0.21709487146000003,0.1729942033747326,-0.26644117454260885,-1.390907802419508,-0.14815306798379146,,0.0250542014123786,0.03150755632162763,0.0839748988,-0.11775085106328897,,3.5718083e-05,2.9802322e-07,-4.172325e-06,0.99999994,-7.484108e-06,-7.946044e-06,7.480383e-06,1.0,-7.4505806e-07,7.946044e-06,7.1525574e-07,1.0,433,1.355,1,1,1.331,False,1.031349857882689,0.010235385380103157
1.3704156999010593,16:14:08.110424,16:12:41.370431,0,,0.11550535,-0.003370747,0.0043163747,0.2863819,-0.957295,-0.039642654,-0.68943644,-0.23462881,0.685293,-0.665329,-0.16892445,-0.72718763,,0.10378742,-0.00050809234,0.022168577,-0.15364072,0.44156253,0.88397783,-0.95745075,0.15465155,-0.24366187,-0.2443004,-0.8838017,0.39901358,,0.05771725,1.3275656,0.43760478,0.996767,0.079133585,-0.013907209,0.044056743,-0.68306136,-0.729031,-0.06719031,0.72606134,-0.6843394,,-0.07622343,0.26304144,-0.049413685,-0.25811023,0.96124846,0.09685331,-0.96482223,-0.25128087,-0.07730419,-0.04997115,-0.11339923,0.99229205,,-0.05719106,0.4555862,-0.28462708,0.15704569,-0.32054138,-0.9341252,-0.6372061,-0.75552964,0.15212955,-0.7545231,0.57133895,-0.32290357,,1.0718689865451165,0.27171663344671515,0.18988055920000002,-1.0415299492876324,0.0899068168456598,-0.01777143733666295,0.8565762828081604,,-1.4231761049935896,0.0839692745414431,0.21709227888000002,0.1696391642789802,-0.26630453804284343,-1.3905291478823614,-0.14749969171925414,,0.0250542014123786,0.03150755632162763,0.0839748988,-0.11775085106328897,,3.5718083e-05,2.9802322e-07,-4.172325e-06,0.99999994,-7.484108e-06,-7.946044e-06,7.480383e-06,1.0,-7.4505806e-07,7.946044e-06,7.1525574e-07,1.0,447,1.4,1,1,1.376,False,1.031469013319731,0.010476786384000736
1.41032429295592,16:14:08.149718,16:12:41.370431,0,,0.11550535,-0.003370747,0.0043163747,0.2863819,-0.957295,-0.039642654,-0.68943644,-0.23462881,0.685293,-0.665329,-0.16892445,-0.72718763,,0.103804074,-0.00053364784,0.022169173,-0.15316674,0.4419951,0.8838439,-0.957523,0.15474308,-0.24331939,-0.24431464,-0.8835695,0.3995191,,0.05771725,1.3275656,0.43760478,0.996767,0.079133585,-0.013907209,0.044056743,-0.68306136,-0.729031,-0.06719031,0.72606134,-0.6843394,,-0.07622343,0.26304144,-0.049413685,-0.25811023,0.96124846,0.09685331,-0.96482223,-0.25128087,-0.07730419,-0.04997115,-0.11339923,0.99229205,,-0.05720834,0.45557335,-0.2846487,0.15657562,-0.32099745,-0.9340475,-0.63729966,-0.7553263,0.15274622,-0.75454175,0.57135177,-0.32283723,,1.0718689865451165,0.27171663344671515,0.18988055920000002,-1.0415299492876324,0.0899068168456598,-0.01777143733666295,0.8565762828081604,,-1.4232456095894577,0.08383026534970706,0.21709227888000002,0.16921978439201116,-0.2658946285435471,-1.3907817228533097,-0.14733634765311976,,0.0250542014123786,0.03150755632162763,0.0839748988,-0.11775085106328897,,3.5718083e-05,2.9802322e-07,-4.172325e-06,0.99999994,-7.484108e-06,-7.946044e-06,7.480383e-06,1.0,-7.4505806e-07,7.946044e-06,7.1525574e-07,1.0,456,1.429,1,1,1.405,False,1.0309923915715626,0.010042264576985094
1.4496340400073677,16:14:08.179055,16:12:41.370431,0,,0.11550535,-0.003370747,0.0043163747,0.2863819,-0.957295,-0.039642654,-0.68943644,-0.23462881,0.685293,-0.665329,-0.16892445,-0.72718763,,0.10382022,-0.00053761154,0.022181153,-0.15285549,0.44223583,0.8837773,-0.95762575,0.15461528,-0.2429964,-0.24410713,-0.88347137,0.39986262,,0.05771725,1.3275656,0.43760478,0.996767,0.079133585,-0.013907209,0.044056743,-0.68306136,-0.729031,-0.06719031,0.72606134,-0.6843394,,-0.07622343,0.26304144,-0.049413685,-0.25811023,0.96124846,0.09685331,-0.96482223,-0.25128087,-0.07730419,-0.04997115,-0.11339923,0.99229205,,-0.057225995,0.4555805,-0.28465626,0.15623766,-0.32125214,-0.9340165,-0.6371945,-0.7553223,0.15320405,-0.7547006,0.57121396,-0.3227099,,1.0718689865451165,0.27171663344671515,0.18988055920000002,-1.0415299492876324,0.0899068168456598,-0.01777143733666295,0.8565762828081604,,-1.4233460051168225,0.08382254261683283,0.21709227888000002,0.1688004045050421,-0.2658946285435471,-1.3908634015934505,-0.1471730035869856,,0.0250542014123786,0.03150755632162763,0.0839748988,-0.11775085106328897,,3.5718083e-05,2.9802322e-07,-4.172325e-06,0.99999994,-7.484108e-06,-7.946044e-06,7.480383e-06,1.0,-7.4505806e-07,7.946044e-06,7.1525574e-07,1.0,470,1.474,1,1,1.45,False,1.031171124727126,0.00989742397464699
1.4789395118132234,16:14:08.220699,16:12:41.370431,0,,0.11550535,-0.003370747,0.0043163747,0.2863819,-0.957295,-0.039642654,-0.68943644,-0.23462881,0.685293,-0.665329,-0.16892445,-0.72718763,,0.10385993,-0.0005410686,0.02221924,-0.15189195,0.442642,0.8837402,-0.9579305,0.15435725,-0.24195677,-0.24351189,-0.88331306,0.40057468,,0.05771725,1.3275656,0.43760478,0.996767,0.079133585,-0.013907209,0.044056743,-0.68306136,-0.729031,-0.06719031,0.72606134,-0.6843394,,-0.07622343,0.26304144,-0.049413685,-0.25811023,0.96124846,0.09685331,-0.96482223,-0.25128087,-0.07730419,-0.04997115,-0.11339923,0.99229205,,-0.05727032,0.45560855,-0.28467315,0.15519789,-0.3216822,-0.93404186,-0.63690484,-0.7553411,0.15431161,-0.7551595,0.57094693,-0.3221083,,1.0718689865451165,0.27171663344671515,0.18988055920000002,-1.0415299492876324,0.0899068168456598,-0.01777143733666295,0.8565762828081604,,-1.4235854098359235,0.0838457108154555,0.21708839001000002,0.16754226484413495,-0.2658946285435471,-1.3907817228533097,-0.14733634765311976,,0.0250542014123786,0.03150755632162763,0.0839748988,-0.11775085106328897,,3.5718083e-05,2.9802322e-07,-4.172325e-06,0.99999994,-7.484108e-06,-7.946044e-06,7.480383e-06,1.0,-7.4505806e-07,7.946044e-06,7.1525574e-07,1.0,479,1.502,1,1,1.478,False,1.0307540806974784,0.008883539758278047
1.5206057948525995,16:14:08.259178,16:12:41.370431,0,,0.115504384,-0.0033715814,0.004315749,0.28638157,-0.9572949,-0.039647892,-0.6894393,-0.234633,0.6852888,-0.66532624,-0.16891925,-0.7271913,,0.10391744,-0.0005564466,0.022270024,-0.14976135,0.44340724,0.88372016,-0.9585916,0.15385586,-0.23964685,-0.24222669,-0.8830167,0.40200478,,0.05771725,1.3275656,0.43760478,0.996767,0.079133585,-0.013907209,0.044056743,-0.68306136,-0.729031,-0.06719031,0.72606134,-0.6843394,,-0.07622245,0.26304045,-0.04941394,-0.2581101,0.9612479,0.09685868,-0.9648221,-0.25127983,-0.07730963,-0.049975086,-0.113405794,0.9922911,,-0.057334255,0.45564064,-0.2847049,0.15290305,-0.3224926,-0.93414086,-0.6362858,-0.7553853,0.15663174,-0.7561488,0.5704311,-0.32069817,,1.0718689865451165,0.2717089107138409,0.18988055920000002,-1.0415299492876324,0.0899068168456598,-0.01777143733666295,0.8565762828081604,,-1.4239252100823894,0.08382254261683283,0.21708190856,0.16481629557883615,-0.26575799204378164,-1.3906481045365846,-0.1478263798515227,,0.0250542014123786,0.03150755632162763,0.0839748988,-0.11775085106328897,,3.5718083e-05,2.9802322e-07,-4.172325e-06,0.99999994,-7.484108e-06,-7.946044e-06,7.480383e-06,1.0,-7.4505806e-07,7.946044e-06,7.1525574e-07,1.0,493,1.548,1,1,1.524,False,1.031647746475294,0.00931806156529369
1.5590141660068184,16:14:08.292011,16:12:41.532060,0,,0.115504384,-0.0033715814,0.004315749,0.28638157,-0.9572949,-0.039647892,-0.6894393,-0.234633,0.6852888,-0.66532624,-0.16891925,-0.7271913,,0.1039804,-0.00058379024,0.022322,-0.14982653,0.4437628,0.88353056,-0.9585731,0.1537624,-0.23978083,-0.24225953,-0.8828542,0.40234146,,0.05771725,1.3275656,0.43760478,0.996767,0.079133585,-0.013907209,0.044056743,-0.68306136,-0.729031,-0.06719031,0.72606134,-0.6843394,,-0.07622245,0.26304045,-0.04941394,-0.2581101,0.9612479,0.09685868,-0.9648221,-0.25127983,-0.07730963,-0.049975086,-0.113405794,0.9922911,,-0.057404082,0.4556678,-0.2847474,0.15297239,-0.3228685,-0.93399966,-0.63629985,-0.7553203,0.15688747,-0.75612295,0.5703044,-0.32098433,,1.0718689865451165,0.2717089107138409,0.18988055920000002,-1.0415299492876324,0.0899068168456598,-0.01777143733666295,0.8565762828081604,,-1.424326792191849,0.08374531528809058,0.21707413082000002,0.16481629557883615,-0.26575799204378164,-1.3906481045365846,-0.1478263798515227,,0.0250542014123786,0.03150755632162763,0.0839748988,-0.11775085106328897,,3.5718083e-05,2.9802322e-07,-4.172325e-06,0.99999994,-7.484108e-06,-7.946044e-06,7.480383e-06,1.0,-7.4505806e-07,7.946044e-06,7.1525574e-07,1.0,502,1.576,1,1,1.552,False,1.0311115470086047,0.009849143773867475
1.5918882950209081,16:14:08.323622,16:12:41.532060,0,,0.11550455,-0.0033715218,0.0043158084,0.28618178,-0.9573554,-0.039628807,-0.68949085,-0.23447612,0.68529063,-0.66535884,-0.168794,-0.7271906,,0.104034014,-0.00060706586,0.022368014,-0.14940025,0.4441934,0.88338643,-0.95871687,0.15354282,-0.23934627,-0.24195367,-0.882676,0.40291637,,0.05771725,1.3275656,0.43760478,0.996767,0.079133585,-0.013907209,0.044056743,-0.68306136,-0.729031,-0.06719031,0.72606134,-0.6843394,,-0.07622261,0.2630405,-0.04941392,-0.25790974,0.9613036,0.09683963,-0.96487427,-0.25107983,-0.07730848,-0.05000245,-0.11337668,0.99229306,,-0.05746375,0.45569238,-0.28478432,0.15250668,-0.3233242,-0.9339182,-0.63613814,-0.7553064,0.1576086,-0.7563531,0.5700646,-0.32086813,,1.0718689865451165,0.2717089107138409,0.18988055920000002,-1.041320259344148,0.0899068168456598,-0.01777143733666295,0.8565762828081604,,-1.4246665924383148,0.08368353342509678,0.21706635308000002,0.16418722574838257,-0.26575799204378164,-1.3906481045365846,-0.1478263798515227,,0.0250542014123786,0.03150755632162763,0.0839748988,-0.11775085106328897,,3.5718083e-05,2.9802322e-07,-4.172325e-06,0.99999994,-7.484108e-06,-7.946044e-06,7.480383e-06,1.0,-7.4505806e-07,7.946044e-06,7.1525574e-07,1.0,516,1.621,1,1,1.597,False,1.031528591038252,0.009462902167631793
1.6235187598504126,16:14:08.372032,16:12:41.532060,0,,0.115505725,-0.0033722073,0.0043152124,0.2859847,-0.9574153,-0.03960449,-0.6895461,-0.23431855,0.68528897,-0.66538626,-0.16867304,-0.72719353,,0.10409059,-0.00065050274,0.022408128,-0.1497592,0.4444673,0.8831879,-0.95858896,0.15358013,-0.23983441,-0.24223858,-0.8825316,0.40306145,,0.05771725,1.3275656,0.43760478,0.996767,0.079133585,-0.013907209,0.044056743,-0.68306136,-0.729031,-0.06719031,0.72606134,-0.6843394,,-0.07622375,0.2630396,-0.049413964,-0.2577124,0.96135896,0.09681551,-0.9649252,-0.2508825,-0.077312596,-0.05003584,-0.11334415,0.9922951,,-0.057526167,0.4557023,-0.2848363,0.1529025,-0.32361323,-0.9337534,-0.6362954,-0.7551895,0.15753427,-0.7561409,0.57005554,-0.32138395,,1.0718612638122424,0.2717089107138409,0.18988055920000002,-1.0411105694006635,0.0899068168456598,-0.01777143733666295,0.8565762828081604,,-1.4250218381505293,0.08351363330186384,0.21705727905000002,0.16460660563535162,-0.2656213555440162,-1.3906778437001406,-0.14766303578538853,,0.0250542014123786,0.03150755632162763,0.0839748988,-0.11775085106328897,,3.5718083e-05,2.9802322e-07,-4.172325e-06,0.99999994,-7.484108e-06,-7.946044e-06,7.480383e-06,1.0,-7.4505806e-07,7.946044e-06,7.1525574e-07,1.0,539,1.695,1,1,1.671,False,1.0314094356012098,0.009511182368411308
1.6719386798795313,16:14:08.445000,16:12:41.701937,0,,0.115505725,-0.0033722073,0.0043152124,0.2859847,-0.9574153,-0.03960449,-0.6895461,-0.23431855,0.68528897,-0.66538626,-0.16867304,-0.72719353,,0.104142755,-0.0008641109,0.022495031,-0.15070453,0.4448865,0.8828159,-0.958457,0.15300927,-0.24072468,-0.24217409,-0.88241947,0.40334547,,0.05771725,1.3275656,0.43760478,0.996767,0.079133585,-0.013907209,0.044056743,-0.68306136,-0.729031,-0.06719031,0.72606134,-0.6843394,,-0.07622375,0.2630396,-0.049413964,-0.2577124,0.96135896,0.09681551,-0.9649252,-0.2508825,-0.077312596,-0.05003584,-0.11334415,0.9922951,,-0.057594903,0.4556764,-0.28506103,0.15383513,-0.32405895,-0.9334455,-0.6360825,-0.75539327,0.15741692,-0.7561308,0.5695321,-0.32233426,,1.0718612638122424,0.2717089107138409,0.18988055920000002,-1.0411105694006635,0.0899068168456598,-0.01777143733666295,0.8565762828081604,,-1.4255933203832218,0.08267185541857337,0.21695357585000002,0.1652356754658052,-0.26548471904425075,-1.3907075828636963,-0.14782637985152292,,0.0250542014123786,0.03150755632162763,0.0839748988,-0.11775085106328897,,3.5718083e-05,2.9802322e-07,-4.172325e-06,0.99999994,-7.484108e-06,-7.946044e-06,7.480383e-06,1.0,-7.4505806e-07,7.946044e-06,7.1525574e-07,1.0,553,1.74,1,1,1.716,False,1.031349857882689,0.009462902167631793
1.7448988079559058,16:14:08.487978,16:12:41.701937,0,,0.115505725,-0.0033722073,0.0043152124,0.2859847,-0.9574153,-0.03960449,-0.6895461,-0.23431855,0.68528897,-0.66538626,-0.16867304,-0.72719353,,0.10414644,-0.0010366067,0.022583902,-0.15166669,0.44516483,0.8825108,-0.95826256,0.15268376,-0.2417035,-0.24234286,-0.8823355,0.4034278,,0.05771725,1.3275656,0.43760478,0.996767,0.079133585,-0.013907209,0.044056743,-0.68306136,-0.729031,-0.06719031,0.72606134,-0.6843394,,-0.07622375,0.2630396,-0.049413964,-0.2577124,0.96135896,0.09681551,-0.9649252,-0.2508825,-0.077312596,-0.05003584,-0.11334415,0.9922951,,-0.05761469,0.45567593,-0.2852541,0.15481597,-0.32435462,-0.93318063,-0.6360456,-0.75549567,0.1570741,-0.75596166,0.5692279,-0.32326713,,1.0718612638122424,0.2717089107138409,0.18988055920000002,-1.0411105694006635,0.0899068168456598,-0.01777143733666295,0.8565762828081604,,-1.4259717342940588,0.0820463140557612,0.21683302088000003,0.1660744352397433,-0.2653480825444854,-1.3908190007673928,-0.14782637985152292,,0.0250542014123786,0.03150755632162763,0.0839748988,-0.11775085106328897,,3.5718083e-05,2.9802322e-07,-4.172325e-06,0.99999994,-7.484108e-06,-7.946044e-06,7.480383e-06,1.0,-7.4505806e-07,7.946044e-06,7.1525574e-07,1.0,562,1.769,1,1,1.745,False,1.0314094356012098,0.009173220962954698
1.7878335849381983,16:14:08.521472,16:12:41.701937,0,,0.115505725,-0.0033722073,0.0043152124,0.2859847,-0.9574153,-0.03960449,-0.6895461,-0.23431855,0.68528897,-0.66538626,-0.16867304,-0.72719353,,0.104143195,-0.0010995194,0.022640526,-0.15202639,0.445101,0.8824811,-0.95822763,0.1524696,-0.24197716,-0.24225578,-0.8824048,0.40332872,,0.05771725,1.3275656,0.43760478,0.996767,0.079133585,-0.013907209,0.044056743,-0.68306136,-0.729031,-0.06719031,0.72606134,-0.6843394,,-0.07622375,0.2630396,-0.049413964,-0.2577124,0.96135896,0.09681551,-0.9649252,-0.2508825,-0.077312596,-0.05003584,-0.11334415,0.9922951,,-0.057620455,0.45569766,-0.28533578,0.15516244,-0.3242884,-0.9331461,-0.63591623,-0.75564814,0.15686463,-0.75599945,0.56906325,-0.32346845,,1.0718612638122424,0.2717089107138409,0.18988055920000002,-1.0411105694006635,0.0899068168456598,-0.01777143733666295,0.8565762828081604,,-1.4261648026159144,0.08186869119965402,0.21676950267000003,0.16628412518322783,-0.26548471904425075,-1.3906259041235556,-0.1476630357853883,,0.0250542014123786,0.03150755632162763,0.0839748988,-0.11775085106328897,,3.5718083e-05,2.9802322e-07,-4.172325e-06,0.99999994,-7.484108e-06,-7.946044e-06,7.480383e-06,1.0,-7.4505806e-07,7.946044e-06,7.1525574e-07,1.0,585,1.842,1,1,1.818,False,1.0315881687567727,0.010187105179324085
1.821379330009222,16:14:08.592551,16:12:41.701937,0,,0.115517735,-0.0033612251,0.004309997,0.28598383,-0.9574157,-0.039599307,-0.689542,-0.23431316,0.68529475,-0.66539073,-0.16867787,-0.72718835,,0.10408628,-0.0013273843,0.023025334,-0.15486008,0.4447018,0.8821895,-0.95757544,0.15210885,-0.24476969,-0.2430383,-0.88266814,0.40227997,,0.05771392,1.3275639,0.43760476,0.99676716,0.07913118,-0.013909778,0.04405323,-0.6830616,-0.72903097,-0.06719031,0.72606134,-0.6843394,,-0.07623133,0.263042,-0.04940286,-0.25771368,0.9613589,0.09681248,-0.9649252,-0.25088483,-0.07730496,-0.05002903,-0.11333935,0.992296,,-0.057615753,0.45593885,-0.2857174,0.15808639,-0.32386932,-0.9328008,-0.6360243,-0.7560043,0.1546952,-0.7553024,0.56882876,-0.32550275,,1.0718689865451165,0.2717011879809667,0.18988055920000002,-1.0411105694006635,0.0899068168456598,-0.01777143733666295,0.8565762828081604,,-1.4273154898141738,0.08159067281618194,0.21636765277000003,0.16901009444852663,-0.26644117454260885,-1.389845978797681,-0.1476630357853883,,0.0250542014123786,0.03150755632162763,0.0839748988,-0.11775085106328897,,3.232807e-05,1.1920929e-06,-2.861023e-06,0.99999994,-9.898096e-06,-1.0501593e-05,9.898096e-06,0.99999994,-1.013279e-06,1.0501593e-05,9.23872e-07,1.0,599,1.887,1,1,1.863,False,1.0315881687567727,0.009656022970749412
1.892365651903674,16:14:08.642378,16:12:41.873323,0,,0.115517825,-0.0033635795,0.0043097883,0.28598616,-0.9574215,-0.03944291,-0.6895486,-0.23420468,0.68532526,-0.6653829,-0.16879573,-0.72716814,,0.10405489,-0.0014840253,0.023234844,-0.15635967,0.44450504,0.88202417,-0.9572946,0.1516681,-0.24613781,-0.24318433,-0.88284314,0.40180755,,0.05771392,1.3275639,0.43760476,0.99676716,0.07913118,-0.013909778,0.04405323,-0.6830616,-0.72903097,-0.06719031,0.72606134,-0.6843394,,-0.07623144,0.26304027,-0.049404453,-0.2577166,0.9613739,0.09665574,-0.964924,-0.25089914,-0.07727467,-0.050039012,-0.11318041,0.9923136,,-0.057615742,0.45605576,-0.2859535,0.15959954,-0.3236641,-0.9326144,-0.63587356,-0.7563401,0.15367016,-0.75511116,0.5684991,-0.32652095,,1.0718612638122424,0.27169346524809246,0.18987926291,-1.0411105694006635,0.0899068168456598,-0.017934794816944127,0.856902970940429,,-1.4279255857112376,0.08128176350121297,0.21614728347000003,0.17026823410943376,-0.2669877205416706,-1.389400307182895,-0.1476630357853883,,0.0250542014123786,0.03150755632162763,0.0839748988,-0.11775085106328897,,3.232807e-05,1.1920929e-06,-2.861023e-06,0.99999994,-9.898096e-06,-1.0501593e-05,9.898096e-06,0.99999994,-1.013279e-06,1.0501593e-05,9.23872e-07,1.0,608,1.916,1,1,1.892,False,1.031171124727126,0.009656022970749412
1.9422781409230083,16:14:08.665576,16:12:41.873323,0,,0.115517825,-0.0033635795,0.0043097883,0.28598616,-0.9574215,-0.03944291,-0.6895486,-0.23420468,0.68532526,-0.6653829,-0.16879573,-0.72716814,,0.1040509,-0.0016164072,0.023411512,-0.15784007,0.4444244,0.8818011,-0.95692647,0.15152293,-0.24765429,-0.2436766,-0.8829086,0.40136516,,0.05771392,1.3275639,0.43760476,0.99676716,0.07913118,-0.013909778,0.04405323,-0.6830616,-0.72903097,-0.06719031,0.72606134,-0.6843394,,-0.07623144,0.26304027,-0.049404453,-0.2577166,0.9613739,0.09665574,-0.964924,-0.25089914,-0.07727467,-0.050039012,-0.11318041,0.9923136,,-0.057638027,0.45615196,-0.28615096,0.16114032,-0.32357982,-0.93237865,-0.6359909,-0.7564561,0.15260984,-0.754685,0.5683927,-0.3276894,,1.0718612638122424,0.27169346524809246,0.18987926291,-1.0411105694006635,0.0899068168456598,-0.017934794816944127,0.856902970940429,,-1.4285279588754272,0.08099602238486665,0.21597487690000003,0.17173606371382544,-0.26726099354120153,-1.3890957926353615,-0.14782637985152247,,0.0250542014123786,0.03150755632162763,0.0839748988,-0.11775085106328897,,3.232807e-05,1.1920929e-06,-2.861023e-06,0.99999994,-9.898096e-06,-1.0501593e-05,9.898096e-06,0.99999994,-1.013279e-06,1.0501593e-05,9.23872e-07,1.0,622,1.961,1,1,1.937,False,1.0309328138530418,0.010235385380103157
1.9654899488668889,16:14:08.712223,16:12:41.873323,0,,0.11551294,-0.0033639222,0.004311383,0.28597745,-0.9574165,-0.039625477,-0.6895429,-0.2343271,0.68528914,-0.6653926,-0.16865379,-0.7271922,,0.104073554,-0.0018970855,0.02360344,-0.15902004,0.44489443,0.881352,-0.95680577,0.15062383,-0.2486668,-0.24338296,-0.88282585,0.4017254,,0.05771392,1.3275639,0.43760476,0.99676716,0.07913118,-0.013909778,0.04405323,-0.6830616,-0.72903097,-0.06719031,0.72606134,-0.6843394,,-0.076226674,0.26304138,-0.049406037,-0.25770724,0.961358,0.09683873,-0.964927,-0.25087634,-0.077310756,-0.050028767,-0.113365844,0.99229294,,-0.05769278,0.4561913,-0.28648502,0.16227597,-0.32408127,-0.93200743,-0.6355568,-0.7568406,0.15251192,-0.7548073,0.56759465,-0.3287891,,1.0718844320108651,0.271678019782344,0.18987796662000003,-1.0411105694006635,0.0899068168456598,-0.01777143733666295,0.8565762828081604,,-1.429346568560095,0.08005384897421126,0.21575710018000002,0.17236513354427901,-0.26739763004096695,-1.3889843747316653,-0.14782637985152247,,0.0250542014123786,0.03150755632162763,0.0839748988,-0.11775085106328897,,3.232807e-05,1.1920929e-06,-2.861023e-06,0.99999994,-9.898096e-06,-1.0501593e-05,9.898096e-06,0.99999994,-1.013279e-06,1.0501593e-05,9.23872e-07,1.0,631,1.99,1,1,1.966,False,1.0311115470086047,0.009993984376206022
2.012141021899879,16:14:08.743569,16:12:41.873323,0,,0.11551489,-0.003363803,0.0043113977,0.28598046,-0.95741606,-0.039615,-0.68954384,-0.2343222,0.68528986,-0.66539025,-0.16866323,-0.72719216,,0.10411576,-0.0021797605,0.02369982,-0.15990758,0.44537637,0.8809479,-0.95681024,0.14956054,-0.24929045,-0.24278301,-0.8827635,0.40222487,,0.05771392,1.3275639,0.43760476,0.99676716,0.07913118,-0.013909778,0.04405323,-0.6830616,-0.72903097,-0.06719031,0.72606134,-0.6843394,,-0.076228626,0.2630414,-0.049405847,-0.2577104,0.96135825,0.09682829,-0.96492606,-0.25088006,-0.07731058,-0.05003087,-0.113355875,0.992294,,-0.057754777,0.45614332,-0.28677627,0.1630791,-0.32459643,-0.9316879,-0.6349386,-0.7573194,0.1527099,-0.75515443,0.5666608,-0.32960176,,1.0718767092779908,0.27168574251521826,0.18987796662000003,-1.0411105694006635,0.0899068168456598,-0.01777143733666295,0.8565762828081604,,-1.4299489417242846,0.0789263299745745,0.21561839715000003,0.17257482348776354,-0.26739763004096695,-1.3889843747316653,-0.14782637985152247,,0.0250542014123786,0.03150755632162763,0.0839748988,-0.11775085106328897,,3.232807e-05,1.1920929e-06,-2.861023e-06,0.99999994,-9.898096e-06,-1.0501593e-05,9.898096e-06,0.99999994,-1.013279e-06,1.0501593e-05,9.23872e-07,1.0,645,2.035,1,1,2.011,False,1.0314094356012098,0.00926978136451373
2.043470756849274,16:14:08.784247,16:12:41.873323,0,,0.11551298,-0.003365472,0.004310161,0.28597978,-0.9574159,-0.03962547,-0.68954945,-0.2343306,0.68528134,-0.66538477,-0.16865289,-0.7271996,,0.10419287,-0.0026121624,0.023742259,-0.16200282,0.44581062,0.88034517,-0.9565873,0.14808223,-0.25102246,-0.2422719,-0.8827936,0.40246707,,0.05771392,1.3275639,0.43760476,0.99676716,0.07913118,-0.013909778,0.04405323,-0.6830616,-0.72903097,-0.06719031,0.72606134,-0.6843394,,-0.07622667,0.26303944,-0.04940636,-0.25771013,0.96135724,0.09683903,-0.9649257,-0.25087804,-0.077321455,-0.050038755,-0.113368995,0.9922921,,-0.057848614,0.45597577,-0.28717354,0.16509719,-0.32506403,-0.93116933,-0.6341729,-0.75806427,0.15219495,-0.7553593,0.56539536,-0.33130106,,1.0718767092779908,0.2716702970494698,0.18987796662000003,-1.0411105694006635,0.0899068168456598,-0.01777143733666295,0.8565762828081604,,-1.4306130967514676,0.07701109222176682,0.21548876815,0.1738329631486707,-0.26726099354120153,-1.3890957926353615,-0.14782637985152247,,0.0250542014123786,0.03150755632162763,0.0839748988,-0.11775085106328897,,3.232807e-05,1.1920929e-06,-2.861023e-06,0.99999994,-9.898096e-06,-1.0501593e-05,9.898096e-06,0.99999994,-1.013279e-06,1.0501593e-05,9.23872e-07,1.0,659,2.08,1,1,2.056,False,1.0309923915715626,0.009945704175426506
2.0841664418112487,16:14:08.824973,16:12:41.873323,0,,0.11550748,-0.0033689886,0.0043058097,0.28598312,-0.95741075,-0.03972449,-0.68965274,-0.2344302,0.68514335,-0.6652762,-0.16854331,-0.72732425,,0.10426606,-0.0030490048,0.023750067,-0.16302992,0.44662294,0.8797437,-0.95668125,0.14643615,-0.25162944,-0.24120969,-0.8826575,0.40340233,,0.05771392,1.3275639,0.43760476,0.99676716,0.07913118,-0.013909778,0.04405323,-0.6830616,-0.72903097,-0.06719031,0.72606134,-0.6843394,,-0.07622099,0.26303405,-0.049406365,-0.25772202,0.9613436,0.096942864,-0.9649148,-0.2508639,-0.07750317,-0.050187707,-0.113515876,0.9922678,,-0.05793427,0.45577604,-0.28755957,0.16597714,-0.32593232,-0.93070924,-0.6331727,-0.75877714,0.15280584,-0.7560052,0.5639374,-0.3323111,,1.0718844320108651,0.2716316833850987,0.18987926291,-1.0411105694006635,0.08977018034589437,-0.01766001943296655,0.8565762828081604,,-1.4311459653197893,0.07501090440734266,0.21537987979000003,0.1738329631486707,-0.2668510840419052,-1.389430046346451,-0.14782637985152247,,0.0250542014123786,0.03150755632162763,0.0839748988,-0.11775085106328897,,3.232807e-05,1.1920929e-06,-2.861023e-06,0.99999994,-9.898096e-06,-1.0501593e-05,9.898096e-06,0.99999994,-1.013279e-06,1.0501593e-05,9.23872e-07,1.0,682,2.154,1,1,2.13,False,1.0314094356012098,0.008883539758278047
2.1248467629775405,16:14:08.898571,16:12:42.135222,0,,0.115496784,-0.0033742785,0.0043004155,0.2859746,-0.95741737,-0.03962568,-0.68967044,-0.23435734,0.68515044,-0.6652616,-0.16860697,-0.72732294,,0.10427131,-0.0035393871,0.023752093,-0.16030747,0.44997233,0.8785364,-0.95722973,0.14631405,-0.24960643,-0.24085814,-0.88097507,0.4072717,,0.05771392,1.3275639,0.43760476,0.99676716,0.07913118,-0.013909778,0.04405323,-0.6830616,-0.72903097,-0.06719031,0.72606134,-0.6843394,,-0.07621009,0.26302683,-0.049407262,-0.25771478,0.96135545,0.09684431,-0.9649155,-0.25086194,-0.07750063,-0.050211098,-0.11341963,0.9922776,,-0.057953298,0.4555536,-0.28799623,0.16321795,-0.32947135,-0.92995083,-0.6333877,-0.7576844,0.15727183,-0.7564258,0.5633498,-0.3323508,,1.0718998774766135,0.27156217878923067,0.18988055920000002,-1.0411105694006635,0.08977018034589437,-0.017823376913247674,0.856902970940429,,-1.43138537003889,0.07267863907932685,0.21520876951,0.17110699388337186,-0.2632985350480037,-1.3917551606615741,-0.14831641204992563,,0.0250542014123786,0.03150755632162763,0.0839748988,-0.11775085106328897,,3.232807e-05,1.1920929e-06,-2.861023e-06,0.99999994,-9.898096e-06,-1.0501593e-05,9.898096e-06,0.99999994,-1.013279e-06,1.0501593e-05,9.23872e-07,1.0,691,2.182,1,1,2.158,False,1.0311115470086047,0.010573346785559767
2.198493792908266,16:14:08.933998,16:12:42.135222,0,,0.11549775,-0.0033741891,0.004298806,0.28597727,-0.9574168,-0.039620444,-0.6896742,-0.23435664,0.68514687,-0.66525656,-0.16861124,-0.7273266,,0.104242936,-0.0036014207,0.023774981,-0.15790868,0.44967273,0.879124,-0.9578033,0.14678091,-0.24711967,-0.24016148,-0.88105035,0.40752015,,0.05771392,1.3275639,0.43760476,0.99676716,0.07913118,-0.013909778,0.04405323,-0.6830616,-0.72903097,-0.06719031,0.72606134,-0.6843394,,-0.076210946,0.26302567,-0.049406055,-0.25771782,0.96135515,0.09683924,-0.9649144,-0.25086465,-0.07750589,-0.05021714,-0.113416225,0.9922777,,-0.057929814,0.45554838,-0.28806403,0.16073485,-0.3291518,-0.93049634,-0.6332763,-0.7575077,0.15856642,-0.7570505,0.5637741,-0.33020192,,1.0718921547437392,0.27156217878923067,0.18988185549000003,-1.0411105694006635,0.08977018034589437,-0.017823376913247674,0.856902970940429,,-1.431346756374519,0.07241606616160323,0.21515173275000002,0.16859071456155758,-0.26220544304988025,-1.3906862141277718,-0.1476630357853883,,0.0250542014123786,0.03150755632162763,0.0839748988,-0.11775085106328897,,3.232807e-05,1.1920929e-06,-2.861023e-06,0.99999994,-9.898096e-06,-1.0501593e-05,9.898096e-06,0.99999994,-1.013279e-06,1.0501593e-05,9.23872e-07,1.0,705,2.227,1,1,2.203,False,1.0312307024456469,0.009800863573087959
2.2339201509021223,16:14:08.974821,16:12:42.135222,0,,0.11549766,-0.0033725947,0.004296735,0.28597727,-0.9574168,-0.039620444,-0.6896742,-0.23435664,0.68514687,-0.66525656,-0.16861124,-0.7273266,,0.10422239,-0.0036250688,0.023796678,-0.15723385,0.45020118,0.87897444,-0.9578517,0.14714998,-0.24671227,-0.24041107,-0.8807189,0.4080891,,0.05771392,1.3275639,0.43760476,0.99676716,0.07913118,-0.013909778,0.04405323,-0.6830616,-0.72903097,-0.06719031,0.72606134,-0.6843394,,-0.07621071,0.26302522,-0.04940351,-0.25771782,0.96135515,0.09683924,-0.9649144,-0.25086465,-0.07750589,-0.05021714,-0.113416225,0.9922777,,-0.057912868,0.45555884,-0.28809652,0.16009638,-0.32970786,-0.9304095,-0.63358736,-0.75709975,0.1592704,-0.7569255,0.5639971,-0.33010766,,1.0718921547437392,0.27156217878923067,0.18988444807000002,-1.0411105694006635,0.08977018034589437,-0.017823376913247674,0.856902970940429,,-1.431339033641645,0.07233111609998676,0.21511414034,0.16817133467458853,-0.261522260551053,-1.3910799461659729,-0.1476630357853883,,0.0250542014123786,0.03150755632162763,0.0839748988,-0.11775085106328897,,3.232807e-05,1.1920929e-06,-2.861023e-06,0.99999994,-9.898096e-06,-1.0501593e-05,9.898096e-06,0.99999994,-1.013279e-06,1.0501593e-05,9.23872e-07,1.0,728,2.301,1,1,2.277,False,1.031647746475294,0.009076660561396555
2.2746588988229632,16:14:09.048495,16:12:42.292003,0,,0.11549498,-0.0033575892,0.004280627,0.285972,-0.9574147,-0.03970911,-0.68966657,-0.23441401,0.6851349,-0.66526663,-0.16854331,-0.72733307,,0.10419884,-0.0036890246,0.023801565,-0.15261772,0.45081112,0.8794753,-0.95957804,0.14533335,-0.2410147,-0.23646909,-0.8807086,0.4104081,,0.05771392,1.3275639,0.43760476,0.99676716,0.07913118,-0.013909778,0.04405323,-0.6830616,-0.72903097,-0.06719031,0.72606134,-0.6843394,,-0.076206766,0.26302344,-0.049381744,-0.25771177,0.9613478,0.096927896,-0.96491665,-0.2508529,-0.077515855,-0.050205056,-0.11350408,0.99226826,,-0.057891928,0.4555364,-0.28815755,0.15496832,-0.33036417,-0.93104476,-0.631357,-0.75798106,0.16386908,-0.75985074,0.5624271,-0.32604077,,1.0719076002094878,0.27156217878923067,0.189906485,-1.0411105694006635,0.08977018034589437,-0.017741698173107084,0.8567396268742946,,-1.4312309153814058,0.0720917113808858,0.21507525164000002,0.1616709464265683,-0.2617955335505839,-1.3904487166578772,-0.1484797561160598,,0.0250542014123786,0.03150755632162763,0.0839748988,-0.11775085106328897,,3.232807e-05,1.1920929e-06,-2.861023e-06,0.99999994,-9.898096e-06,-1.0501593e-05,9.898096e-06,0.99999994,-1.013279e-06,1.0501593e-05,9.23872e-07,1.0,742,2.346,1,1,2.322,False,1.0315881687567727,0.00926978136451373
2.3484181510284543,16:14:09.096112,16:12:42.292003,0,,0.115492,-0.003344044,0.0042618215,0.2859635,-0.95742285,-0.039573777,-0.6895792,-0.2342884,0.6852658,-0.6653609,-0.16867176,-0.727217,,0.10420546,-0.0037346818,0.023794532,-0.1486978,0.4518842,0.87959605,-0.960906,0.14405286,-0.23644921,-0.23355591,-0.8803688,0.412798,,0.05771392,1.3275639,0.43760476,0.99676716,0.07913118,-0.013909778,0.04405323,-0.6830616,-0.72903097,-0.06719031,0.72606134,-0.6843394,,-0.07620238,0.26301873,-0.049359288,-0.2576959,0.9613661,0.09678821,-0.9649275,-0.25086346,-0.077346474,-0.050077654,-0.11332548,0.9922951,,-0.05789885,0.45550868,-0.28819445,0.15067299,-0.3315069,-0.93134356,-0.62978405,-0.7583735,0.1680525,-0.76201683,0.56122434,-0.32304415,,1.0719076002094878,0.2715467333234822,0.18992981822000002,-1.0411105694006635,0.0899068168456598,-0.017934794816944127,0.856902970940429,,-1.4312000244499088,0.07187547486040752,0.21506877019,0.15642869783945518,-0.26165889705081846,-1.390478455821433,-0.1483164120499254,,0.0250542014123786,0.03150755632162763,0.0839748988,-0.11775085106328897,,3.232807e-05,1.1920929e-06,-2.861023e-06,0.99999994,-9.898096e-06,-1.0501593e-05,9.898096e-06,0.99999994,-1.013279e-06,1.0501593e-05,9.23872e-07,1.0,751,2.375,1,1,2.351,False,1.0317073241938153,0.009173220962954698
2.3960139928385615,16:14:09.126151,16:12:42.292003,0,,0.11548768,-0.0033377707,0.004247129,0.2859621,-0.9574224,-0.03959472,-0.68959033,-0.23430511,0.68524885,-0.6653499,-0.16865106,-0.7272319,,0.10421584,-0.0037844963,0.023783803,-0.14551109,0.45275766,0.8796799,-0.96201897,0.14282256,-0.23263967,-0.23096746,-0.8801205,0.41477925,,0.05771392,1.3275639,0.43760476,0.99676716,0.07913118,-0.013909778,0.04405323,-0.6830616,-0.72903097,-0.06719031,0.72606134,-0.6843394,,-0.07619704,0.26301217,-0.049345046,-0.2576954,0.9613641,0.0968097,-0.9649268,-0.25085938,-0.07736824,-0.05009342,-0.11335172,0.99229133,,-0.057909146,0.45547542,-0.2882331,0.14715204,-0.33243865,-0.9315744,-0.6283258,-0.7588036,0.1715335,-0.76390636,0.5600907,-0.3205393,,1.0719076002094878,0.2715158423919853,0.18994537370000003,-1.0411105694006635,0.0899068168456598,-0.017934794816944127,0.856902970940429,,-1.4311845789841604,0.07163607014130655,0.21506617761000002,0.15202520902628017,-0.26165889705081846,-1.390478455821433,-0.1483164120499254,,0.0250542014123786,0.03150755632162763,0.0839748988,-0.11775085106328897,,3.232807e-05,1.1920929e-06,-2.861023e-06,0.99999994,-9.898096e-06,-1.0501593e-05,9.898096e-06,0.99999994,-1.013279e-06,1.0501593e-05,9.23872e-07,1.0,765,2.42,1,1,2.396,False,1.0314094356012098,0.009993984376206022
2.426068773958832,16:14:09.175603,16:12:42.292003,0,,0.1154782,-0.0033363998,0.0042289197,0.2859535,-0.9574258,-0.039574243,-0.68952924,-0.23426823,0.68532306,-0.665417,-0.16868293,-0.72716314,,0.10425,-0.003916446,0.023749053,-0.14195961,0.45434862,0.87943983,-0.96312165,0.14174935,-0.22870007,-0.22856951,-0.8794739,0.41747046,,0.05771392,1.3275639,0.43760476,0.99676716,0.07913118,-0.013909778,0.04405323,-0.6830616,-0.72903097,-0.06719031,0.72606134,-0.6843394,,-0.07618646,0.26299992,-0.049332347,-0.25768155,0.96137017,0.09678646,-0.9649352,-0.2508581,-0.07726812,-0.0500036,-0.11330323,0.9923014,,-0.05794222,0.45538104,-0.288332,0.14329407,-0.33412832,-0.9315713,-0.62706834,-0.7588826,0.17573427,-0.765671,0.5589772,-0.31826466,,1.0718998774766135,0.27143861506324307,0.18996092918000002,-1.0411105694006635,0.09004345334542525,-0.018046212720640525,0.856902970940429,,-1.4312231926485315,0.07094102418262635,0.21506617761000002,0.14741203026962063,-0.2608390780522258,-1.391065284503471,-0.14815306798379124,,0.0250542014123786,0.03150755632162763,0.0839748988,-0.11775085106328897,,3.232807e-05,1.1920929e-06,-2.861023e-06,0.99999994,-9.898096e-06,-1.0501593e-05,9.898096e-06,0.99999994,-1.013279e-06,1.0501593e-05,9.23872e-07,1.0,779,2.465,1,1,2.441,False,1.031647746475294,0.010042264576985094
2.475480973953381,16:14:09.209220,16:12:42.446060,0,,0.11547047,-0.003343016,0.0042206943,0.285953,-0.9574242,-0.03961614,-0.6895582,-0.23430519,0.6852812,-0.66538715,-0.1686406,-0.72720027,,0.10429323,-0.00406963,0.023700535,-0.14023763,0.45554292,0.8790983,-0.9635886,0.14135987,-0.22696763,-0.22766256,-0.87891865,0.41913205,,0.05771392,1.3275639,0.43760476,0.99676716,0.07913118,-0.013909778,0.04405323,-0.6830616,-0.72903097,-0.06719031,0.72606134,-0.6843394,,-0.076178364,0.26298964,-0.049332183,-0.25768343,0.9613653,0.09682975,-0.9649325,-0.2508516,-0.07732234,-0.050045118,-0.11335886,0.99229294,,-0.05798312,0.45526388,-0.28844288,0.14145805,-0.33539405,-0.931397,-0.62665385,-0.75869024,0.17802823,-0.76635146,0.55848,-0.31749883,,1.0718921547437392,0.27136911046737505,0.18996352176000003,-1.0411105694006635,0.09004345334542525,-0.018046212720640525,0.856902970940429,,-1.4312926972443996,0.0701069690322101,0.21507395535,0.14531513083477537,-0.2597459860541023,-1.3917115915126208,-0.14766303578538853,,0.0250542014123786,0.03150755632162763,0.0839748988,-0.11775085106328897,,3.232807e-05,1.1920929e-06,-2.861023e-06,0.99999994,-9.898096e-06,-1.0501593e-05,9.898096e-06,0.99999994,-1.013279e-06,1.0501593e-05,9.23872e-07,1.0,788,2.494,1,1,2.47,False,1.031469013319731,0.010235385380103157
2.5090908829588443,16:14:09.239637,16:12:42.446060,0,,0.11546278,-0.0033496916,0.004215732,0.28595015,-0.9574233,-0.03965803,-0.6895806,-0.23433864,0.6852472,-0.6653651,-0.16859916,-0.72722995,,0.10434191,-0.004201714,0.023670435,-0.13732706,0.45633125,0.87914884,-0.9645388,0.14036483,-0.22352314,-0.22540206,-0.87866914,0.42087334,,0.05771392,1.3275639,0.43760476,0.99676716,0.07913118,-0.013909778,0.04405323,-0.6830616,-0.72903097,-0.06719031,0.72606134,-0.6843394,,-0.07617051,0.26298174,-0.049334235,-0.25768238,0.9613612,0.09687273,-0.96493113,-0.2508434,-0.07736586,-0.050076656,-0.11341134,0.9922853,,-0.05803119,0.4551721,-0.28854278,0.13825728,-0.33623505,-0.9315744,-0.6253834,-0.75900334,0.18113393,-0.7679717,0.5575481,-0.31521356,,1.0718921547437392,0.2713073286043812,0.18996352176000003,-1.0411105694006635,0.09004345334542525,-0.018046212720640525,0.856902970940429,,-1.4314085382375128,0.06941964580640411,0.21508043680000002,0.14133102190856942,-0.25919944005504053,-1.391503833206282,-0.1476630357853883,,0.0250542014123786,0.03150755632162763,0.0839748988,-0.11775085106328897,,3.232807e-05,1.1920929e-06,-2.861023e-06,0.99999994,-9.898096e-06,-1.0501593e-05,9.898096e-06,0.99999994,-1.013279e-06,1.0501593e-05,9.23872e-07,1.0,802,2.539,1,1,2.515,False,1.0314094356012098,0.009993984376206022
2.539558987831697,16:14:09.290614,16:12:42.446060,0,,0.11545019,-0.0033589453,0.004205629,0.28594562,-0.95742834,-0.0395697,-0.6896171,-0.2342811,0.68523014,-0.66532934,-0.16865066,-0.7272509,,0.10446215,-0.0043689795,0.02365619,-0.13335676,0.4579225,0.87893265,-0.9657273,0.13922298,-0.21906066,-0.2226803,-0.87802273,0.423662,,0.05771392,1.3275639,0.43760476,0.99676716,0.07913118,-0.013909778,0.04405323,-0.6830616,-0.72903097,-0.06719031,0.72606134,-0.6843394,,-0.0761575,0.26296845,-0.04933503,-0.2576807,0.96137047,0.09678554,-0.9649289,-0.25084275,-0.0773956,-0.0501279,-0.11333452,0.9922915,,-0.0581532,0.455071,-0.28867522,0.13394034,-0.33792683,-0.93159294,-0.6239212,-0.75911385,0.18565698,-0.76992357,0.55637366,-0.31251568,,1.0718921547437392,0.2712069330770163,0.18996611434000002,-1.0411105694006635,0.09004345334542525,-0.01820957020092165,0.8572296590726975,,-1.4318564567442178,0.0685315315258683,0.21510765889000003,0.13587908337797178,-0.2582429845566825,-1.3915486498708918,-0.14782637985152292,,0.0250542014123786,0.03150755632162763,0.0839748988,-0.11775085106328897,,3.232807e-05,1.1920929e-06,-2.861023e-06,0.99999994,-9.898096e-06,-1.0501593e-05,9.898096e-06,0.99999994,-1.013279e-06,1.0501593e-05,9.23872e-07,1.0,825,2.612,1,1,2.588,False,1.0318860573493782,0.009511182368411308
2.5905234629753977,16:14:09.360714,16:12:42.610216,0,,0.11544433,-0.0033663511,0.0042016953,0.28614557,-0.9573665,-0.03962026,-0.68958896,-0.23446658,0.685195,-0.6652725,-0.16874385,-0.7272812,,0.1046856,-0.004394103,0.023746371,-0.12681764,0.4610838,0.8782475,-0.96747327,0.13788548,-0.21209216,-0.21888977,-0.87657815,0.42859995,,0.05771392,1.3275639,0.43760476,0.99676716,0.07913118,-0.013909778,0.04405323,-0.6830616,-0.72903097,-0.06719031,0.72606134,-0.6843394,,-0.07615156,0.26296076,-0.04933819,-0.25788322,0.961311,0.09683719,-0.9648745,-0.25103828,-0.07744001,-0.050134085,-0.11340621,0.99228305,,-0.058386963,0.4551167,-0.2887196,0.1269246,-0.34128264,-0.93135184,-0.62202835,-0.75876683,0.19327094,-0.7726389,0.5547964,-0.30859366,,1.0718844320108651,0.27115287394689674,0.18996481805,-1.041320259344148,0.09004345334542525,-0.01820957020092165,0.8572296590726975,,-1.4330920940040939,0.06842341326562916,0.21519451032000003,0.12581396609071463,-0.2574231655580898,-1.3919721210726488,-0.1476630357853883,,0.0250542014123786,0.03150755632162763,0.0839748988,-0.11775085106328897,,3.232807e-05,1.1920929e-06,-2.861023e-06,0.99999994,-9.898096e-06,-1.0501593e-05,9.898096e-06,0.99999994,-1.013279e-06,1.0501593e-05,9.23872e-07,1.0,839,2.658,1,1,2.634,False,1.031171124727126,0.009366341766072761
2.660635160980746,16:14:09.409406,16:12:42.610216,0,,0.115441486,-0.0033704042,0.004198596,0.28614685,-0.95736545,-0.03963598,-0.689604,-0.23448265,0.6851744,-0.6652564,-0.16872738,-0.72729975,,0.10496126,-0.004365731,0.02382046,-0.11549818,0.46515754,0.87766075,-0.97051656,0.1353426,-0.19944897,-0.21156001,-0.8748204,0.43581134,,0.05771392,1.3275639,0.43760476,0.99676716,0.07913118,-0.013909778,0.04405323,-0.6830616,-0.72903097,-0.06719031,0.72606134,-0.6843394,,-0.0761486,0.26295584,-0.049339287,-0.25788572,0.96130866,0.09685362,-0.9648727,-0.2510369,-0.077467024,-0.05015589,-0.113429055,0.9922793,,-0.05866894,0.4551672,-0.28870487,0.11468136,-0.34561643,-0.93134177,-0.6180822,-0.7587852,0.20547357,-0.7777034,0.55208176,-0.3006379,,1.0718767092779908,0.27112198301539986,0.18996481805,-1.041320259344148,0.09004345334542525,-0.01820957020092165,0.8572296590726975,,-1.4339415946202585,0.0684697496628745,0.21530210239000003,0.11302287953815862,-0.2567399830592626,-1.392284174370709,-0.1478263798515227,,0.0250542014123786,0.03150755632162763,0.0839748988,-0.11775085106328897,,3.232807e-05,1.1920929e-06,-2.861023e-06,0.99999994,-9.898096e-06,-1.0501593e-05,9.898096e-06,0.99999994,-1.013279e-06,1.0501593e-05,9.23872e-07,1.0,848,2.686,1,1,2.662,False,1.0314094356012098,0.010090544777765054
2.7093037308659405,16:14:09.438458,16:12:42.610216,0,,0.115439564,-0.0033720434,0.004197359,0.28614616,-0.9573653,-0.03964645,-0.6896096,-0.23449099,0.68516594,-0.6652509,-0.16871703,-0.7273072,,0.105145134,-0.004347671,0.023830771,-0.110801384,0.4670286,0.8772725,-0.97173965,0.13421693,-0.19418505,-0.20843467,-0.8739966,0.43895882,,0.05771392,1.3275639,0.43760476,0.99676716,0.07913118,-0.013909778,0.04405323,-0.6830616,-0.72903097,-0.06719031,0.72606134,-0.6843394,,-0.07614664,0.26295388,-0.0493398,-0.2578855,0.96130764,0.096864365,-0.96487236,-0.25103486,-0.0774779,-0.050163772,-0.113442175,0.99227744,,-0.058852047,0.45516592,-0.28867817,0.10959163,-0.34760785,-0.93121344,-0.6163525,-0.7587598,0.21069689,-0.7798072,0.5508651,-0.29740268,,1.0718767092779908,0.2711065375496514,0.18996481805,-1.041320259344148,0.09004345334542525,-0.01820957020092165,0.8572296590726975,,-1.4345594132501964,0.06844658146425182,0.21541228704,0.10736125106407647,-0.2564667100597317,-1.3923436526978208,-0.14782637985152247,,0.0250542014123786,0.03150755632162763,0.0839748988,-0.11775085106328897,,3.232807e-05,1.1920929e-06,-2.861023e-06,0.99999994,-9.898096e-06,-1.0501593e-05,9.898096e-06,0.99999994,-1.013279e-06,1.0501593e-05,9.23872e-07,1.0,862,2.731,1,1,2.707,False,1.0315881687567727,0.009414621966852277
2.7383674178272486,16:14:09.481414,16:12:42.610216,0,,0.11543767,-0.0033745468,0.0041971505,0.28614545,-0.95736504,-0.03965692,-0.6896152,-0.23449937,0.6851574,-0.6652453,-0.16870666,-0.72731465,,0.105453014,-0.00429355,0.023813963,-0.1002323,0.4712323,0.87629515,-0.9740596,0.1331149,-0.18299799,-0.20288241,-0.87190616,0.44566602,,0.05771392,1.3275639,0.43760476,0.99676716,0.07913118,-0.013909778,0.04405323,-0.6830616,-0.72903097,-0.06719031,0.72606134,-0.6843394,,-0.07614479,0.26295212,-0.04934159,-0.25788522,0.96130663,0.09687511,-0.964872,-0.2510328,-0.07748879,-0.05017165,-0.113455296,0.99227554,,-0.059153635,0.45514458,-0.288597,0.098339505,-0.35207313,-0.93079203,-0.6135719,-0.7578399,0.22182906,-0.78349143,0.5492933,-0.2905478,,1.0718767092779908,0.271091092083903,0.18996352176000003,-1.041320259344148,0.09004345334542525,-0.01820957020092165,0.8572296590726975,,-1.435470695729355,0.06840024506700648,0.21563006376000002,0.09477985445500502,-0.25455379906301556,-1.393086715948165,-0.14782637985152247,,0.0250542014123786,0.03150755632162763,0.0839748988,-0.11775085106328897,,3.232807e-05,1.1920929e-06,-2.861023e-06,0.99999994,-9.898096e-06,-1.0501593e-05,9.898096e-06,0.99999994,-1.013279e-06,1.0501593e-05,9.23872e-07,1.0,885,2.805,1,1,2.781,False,1.031171124727126,0.009462902167631793
2.781309074955061,16:14:09.554565,16:12:42.610216,0,,0.11543423,-0.0033746958,0.0041972995,0.28633407,-0.9573003,-0.03985879,-0.68947244,-0.23475517,0.6852135,-0.66531223,-0.16871843,-0.72725075,,0.106046624,-0.004157204,0.023783267,-0.08186989,0.4779399,0.8745687,-0.97755027,0.13243121,-0.16388202,-0.19414586,-0.8683521,0.45636827,,0.05771392,1.3275639,0.43760476,0.99676716,0.07913118,-0.013909778,0.04405323,-0.6830616,-0.72903097,-0.06719031,0.72606134,-0.6843394,,-0.076141365,0.26295224,-0.049341995,-0.25806665,0.9612379,0.09707372,-0.9648319,-0.2512153,-0.07739723,-0.050010744,-0.11363346,0.99226326,,-0.059734456,0.45511958,-0.2884128,0.078921616,-0.35919628,-0.929919,-0.60929906,-0.7556886,0.24018615,-0.7890032,0.54764295,-0.27849814,,1.0718844320108651,0.27107564661815453,0.18996352176000003,-1.0415299492876324,0.0901800898451907,-0.018075951884196362,0.8570663150065632,,-1.4372469242904267,0.06843113599850338,0.21605913575000002,0.07360117016306805,-0.2504547040700523,-1.3936521758942786,-0.14815306798379102,,0.0250542014123786,0.03150755632162763,0.0839748988,-0.11775085106328897,,3.232807e-05,1.1920929e-06,-2.861023e-06,0.99999994,-9.898096e-06,-1.0501593e-05,9.898096e-06,0.99999994,-1.013279e-06,1.0501593e-05,9.23872e-07,1.0,899,2.85,1,1,2.826,False,1.0315881687567727,0.008786979356719016
2.8544056969694793,16:14:09.601030,16:12:42.610216,0,,0.11543235,-0.0033778846,0.0041948557,0.28633565,-0.9573026,-0.03979108,-0.6894846,-0.23471108,0.6852163,-0.6652988,-0.16876653,-0.72725177,,0.106499456,-0.0041118152,0.023851573,-0.07369464,0.48161426,0.8732791,-0.9789287,0.13228187,-0.15556377,-0.1904406,-0.8663424,0.4617176,,0.05771392,1.3275639,0.43760476,0.99676716,0.07913118,-0.013909778,0.04405323,-0.6830616,-0.72903097,-0.06719031,0.72606134,-0.6843394,,-0.0761394,0.26294833,-0.049342833,-0.25806928,0.961244,0.09700626,-0.9648302,-0.25122127,-0.07739829,-0.050028607,-0.1135687,0.99226975,,-0.06019088,0.45515484,-0.28836566,0.07030488,-0.36310005,-0.92909396,-0.60747963,-0.7543519,0.24884075,-0.79121786,0.54691094,-0.2736105,,1.0718767092779908,0.27105247841953184,0.18996352176000003,-1.0415299492876324,0.0901800898451907,-0.018157630624336896,0.8572296590726975,,-1.4389845391871272,0.0683770768683838,0.21630543085,0.06416512270626445,-0.24840515657357073,-1.393771548387054,-0.14831641204992563,,0.0250542014123786,0.03150755632162763,0.0839748988,-0.11775085106328897,,3.232807e-05,1.1920929e-06,-2.861023e-06,0.99999994,-9.898096e-06,-1.0501593e-05,9.898096e-06,0.99999994,-1.013279e-06,1.0501593e-05,9.23872e-07,1.0,913,2.895,1,1,2.871,False,1.0320052127864203,0.008449017951263293
2.90095192193985,16:14:09.643218,16:12:42.610216,0,,0.11542858,-0.003383562,0.0041921735,0.2863365,-0.9573015,-0.039812032,-0.6895024,-0.23473129,0.6851915,-0.6652801,-0.16874489,-0.72727406,,0.107059665,-0.00407565,0.0239079,-0.06862655,0.4828283,0.8730217,-0.9807144,0.1278711,-0.1478117,-0.18300185,-0.8663289,0.46474132,,0.05771392,1.3275639,0.43760476,0.99676716,0.07913118,-0.013909778,0.04405323,-0.6830616,-0.72903097,-0.06719031,0.72606134,-0.6843394,,-0.076135576,0.26294267,-0.04934546,-0.25807166,0.9612412,0.09702806,-0.96482825,-0.25121886,-0.07743075,-0.050054345,-0.1135981,0.9922651,,-0.06075247,0.45516437,-0.28831244,0.06428021,-0.36442748,-0.92901057,-0.60223055,-0.756475,0.25507647,-0.7957301,0.5430822,-0.26809573,,1.0718689865451165,0.2710138647551607,0.18996222547000002,-1.0415299492876324,0.0901800898451907,-0.018157630624336923,0.856902970940429,,-1.4410928452617904,0.06840024506700648,0.21663598480000001,0.05472907524946085,-0.251274523068645,-1.3911050574488673,-0.14831641204992563,,0.0250542014123786,0.03150755632162763,0.0839748988,-0.11775085106328897,,3.232807e-05,1.1920929e-06,-2.861023e-06,0.99999994,-9.898096e-06,-1.0501593e-05,9.898096e-06,0.99999994,-1.013279e-06,1.0501593e-05,9.23872e-07,1.0,922,2.924,1,1,2.9,False,1.0311115470086047,0.009462902167631793
2.943133919965476,16:14:09.674070,16:12:42.931116,0,,0.11543916,-0.0034121573,0.0041841418,0.28637823,-0.9572877,-0.039844394,-0.68955135,-0.23479952,0.68511903,-0.66521156,-0.16872847,-0.7273405,,0.10780783,-0.0040905997,0.023957789,-0.069894865,0.48108608,0.8738825,-0.98288983,0.11644426,-0.14271788,-0.17041817,-0.8689056,0.46471575,,0.057686515,1.3275625,0.43759853,0.99676687,0.07913565,-0.0139050055,0.044059753,-0.6830611,-0.729031,-0.06719031,0.72606134,-0.6843394,,-0.07612017,0.26292267,-0.049366668,-0.25811383,0.96122676,0.09705868,-0.96481276,-0.25124854,-0.07752761,-0.05013576,-0.113654405,0.99225456,,-0.06147471,0.4551316,-0.28829205,0.0638757,-0.36268628,-0.9297196,-0.5919685,-0.7637912,0.25728637,-0.8034259,0.53393036,-0.26348656,,1.0718612638122424,0.27095208289216693,0.18996092918000002,-1.0415299492876324,0.0901800898451907,-0.018157630624336923,0.856902970940429,,-1.4436027334459134,0.06844658146425182,0.21702616809000003,0.04697054734053346,-0.26220544304988025,-1.3856221322390572,-0.14798972391765708,,0.0250542014123786,0.03150755632162763,0.0839748988,-0.11775085106328897,,5.3718686e-06,-4.6491623e-06,2.861023e-06,0.99999994,-5.4202974e-06,-5.748123e-06,5.416572e-06,1.0,-5.662441e-07,5.751848e-06,5.364418e-07,1.0,936,2.969,1,1,2.945,False,1.0318860573493782,0.009221501163734658
2.9739646969828755,16:14:09.715375,16:12:42.931116,0,,0.115434356,-0.0034155846,0.0041832775,0.28637418,-0.95728785,-0.039870564,-0.6895587,-0.23481694,0.6851056,-0.6652056,-0.16870348,-0.7273518,,0.10846768,-0.004144825,0.024034142,-0.07279606,0.48179635,0.8732541,-0.9854459,0.10011166,-0.13738272,-0.15361345,-0.87054574,0.46749657,,0.057686515,1.3275625,0.43759853,0.99676687,0.07913565,-0.0139050055,0.044059753,-0.6830611,-0.729031,-0.06719031,0.72606134,-0.6843394,,-0.076115385,0.2629199,-0.0493689,-0.25811028,0.96122503,0.09708524,-0.9648132,-0.2512417,-0.07754411,-0.050145473,-0.11368405,0.9922507,,-0.062140163,0.4551076,-0.28831998,0.064533606,-0.36363283,-0.92930436,-0.5779836,-0.7727638,0.26224232,-0.81349266,0.52019924,-0.26004305,,1.0718689865451165,0.27092119196067005,0.18995963289,-1.0415299492876324,0.0901800898451907,-0.018157630624336923,0.856902970940429,,-1.4461821262259043,0.06854697699161674,0.21740727735,0.03753449988372986,-0.2773720945238441,-1.3827294787850595,-0.14733634765311976,,0.0250542014123786,0.03150755632162763,0.0839748988,-0.11775085106328897,,5.3718686e-06,-4.6491623e-06,2.861023e-06,0.99999994,-5.4202974e-06,-5.748123e-06,5.416572e-06,1.0,-5.662441e-07,5.751848e-06,5.364418e-07,1.0,959,3.043,1,1,3.019,False,1.0318860573493782,0.008642138754380913
3.0152964210137725,16:14:09.787336,16:12:42.931116,0,,0.11543248,-0.0034187883,0.0041808337,0.2863758,-0.9572869,-0.039881043,-0.6895709,-0.23482879,0.68508923,-0.66519225,-0.1686922,-0.72736657,,0.109628275,-0.0039536282,0.024167776,-0.056022696,0.4937292,0.86780906,-0.98840874,0.0954096,-0.11809024,-0.14110184,-0.86436594,0.4826612,,0.057686515,1.3275625,0.43759853,0.99676687,0.07913565,-0.0139050055,0.044059753,-0.6830611,-0.729031,-0.06719031,0.72606134,-0.6843394,,-0.07611342,0.262916,-0.04936974,-0.25811294,0.9612232,0.097096294,-0.96481156,-0.25124136,-0.077565685,-0.050163336,-0.11370033,0.9922479,,-0.06330258,0.45519546,-0.28811392,0.046223287,-0.37638316,-0.9253103,-0.5699717,-0.7706532,0.2850016,-0.82036316,0.514227,-0.25014985,,1.0718612638122424,0.27089802376204736,0.18995963289,-1.0415299492876324,0.0901800898451907,-0.018157630624336923,0.856902970940429,,-1.4504064611081051,0.06885588630658573,0.21811245911000002,0.014678296043916704,-0.27682554852478236,-1.3862789425251862,-0.1476630357853883,,0.0250542014123786,0.03150755632162763,0.0839748988,-0.11775085106328897,,5.3718686e-06,-4.6491623e-06,2.861023e-06,0.99999994,-5.4202974e-06,-5.748123e-06,5.416572e-06,1.0,-5.662441e-07,5.751848e-06,5.364418e-07,1.0,973,3.088,1,1,3.064,False,1.0317073241938153,0.008449017951263293
3.087233725003898,16:14:09.837351,16:12:43.100113,0,,0.11541954,-0.0034257174,0.0041760355,0.2863588,-0.957292,-0.03988156,-0.6895012,-0.23479816,0.68517,-0.66527194,-0.16870606,-0.7272905,,0.110344335,-0.0037684217,0.02433455,-0.041179433,0.5014601,0.86420006,-0.9897361,0.097990185,-0.10402097,-0.13684544,-0.85961366,0.492278,,0.057686515,1.3275625,0.43759853,0.99676687,0.07913565,-0.0139050055,0.044059753,-0.6830611,-0.729031,-0.06719031,0.72606134,-0.6843394,,-0.07610034,0.26290822,-0.049372375,-0.25808978,0.9612297,0.09709368,-0.9648232,-0.2512309,-0.07745521,-0.05005931,-0.11366863,0.99225676,,-0.06402867,0.4553549,-0.28796488,0.030926758,-0.38458353,-0.92257196,-0.56831676,-0.76605713,0.30028743,-0.82222843,0.5150262,-0.24225692,,1.0718767092779908,0.2708130737004309,0.18995963289,-1.0415299492876324,0.09031672634495613,-0.018269048528033377,0.856902970940429,,-1.4532020904085745,0.06924202295029695,0.21850004982000001,-0.0006290698304535731,-0.2709501790348684,-1.3881294777390725,-0.1483164120499254,,0.0250542014123786,0.03150755632162763,0.0839748988,-0.11775085106328897,,5.3718686e-06,-4.6491623e-06,2.861023e-06,0.99999994,-5.4202974e-06,-5.748123e-06,5.416572e-06,1.0,-5.662441e-07,5.751848e-06,5.364418e-07,1.0,982,3.116,1,1,3.092,False,1.0314094356012098,0.008835259557498976
3.1372534029651433,16:14:09.871469,16:12:43.100113,0,,0.1154108,-0.0034308732,0.004170671,0.28635332,-0.95729166,-0.03992868,-0.6895198,-0.23483232,0.6851395,-0.66525495,-0.16866036,-0.7273167,,0.110745534,-0.0036565736,0.024406254,-0.03174397,0.50671697,0.8615277,-0.99046105,0.09968835,-0.095127404,-0.13408688,-0.85632944,0.49871898,,0.057686515,1.3275625,0.43759853,0.99676687,0.07913565,-0.0139050055,0.044059753,-0.6830611,-0.729031,-0.06719031,0.72606134,-0.6843394,,-0.076091394,0.26290107,-0.049373094,-0.25808573,0.9612259,0.09714172,-0.96482295,-0.25122,-0.07749347,-0.050084785,-0.113724515,0.9922491,,-0.064432494,0.45542872,-0.28786445,0.0211997,-0.39016804,-0.92049956,-0.56716377,-0.762911,0.31030956,-0.8233322,0.51549554,-0.23746265,,1.0718844320108651,0.27075129183743707,0.18996092918000002,-1.0415299492876324,0.09031672634495613,-0.018269048528033377,0.856902970940429,,-1.4546848551204254,0.06943509127215257,0.21873467831,-0.010274807230741693,-0.26712435704143606,-1.3901056766806041,-0.1483164120499254,,0.0250542014123786,0.03150755632162763,0.0839748988,-0.11775085106328897,,5.3718686e-06,-4.6491623e-06,2.861023e-06,0.99999994,-5.4202974e-06,-5.748123e-06,5.416572e-06,1.0,-5.662441e-07,5.751848e-06,5.364418e-07,1.0,996,3.161,1,1,3.137,False,1.0310519692900835,0.009221501163734658
