AlexandreBanks6/ExpertPlaybackApp/resources/Motions/P_15/PC1/Data_PC1_4.csv
Task Time,PC1 Time,PC2 Time,Gaze Calib,s_T_psm1,Tx,Ty,Tz,R00,R01,R02,R10,R11,R12,R20,R21,R22,s_T_psm3,Tx,Ty,Tz,R00,R01,R02,R10,R11,R12,R20,R21,R22,cart_T_ecm,Tx,Ty,Tz,R00,R01,R02,R10,R11,R12,R20,R21,R22,ecm_T_psm1,Tx,Ty,Tz,R00,R01,R02,R10,R11,R12,R20,R21,R22,ecm_T_psm3,Tx,Ty,Tz,R00,R01,R02,R10,R11,R12,R20,R21,R22,psm1_joints,q1,q2,q3,q4,q5,q6,jaw,psm3_joints,q1,q2,q3,q4,q5,q6,jaw,ecm_joints,q1,q2,q3,q4,ecmi_T_ecm,Tx,Ty,Tz,R00,R01,R02,R10,R11,R12,R20,R21,R22,Sample #,Task Duration (s),Collisions (binary),Collisions (increments),Cumulative Collision Time (s),Clutch Press,MTMR Angle,MTML Angle
""
lci_T_si,,,,,-0.05766083,0.03526975,0.2335049,0.9953268,-0.002053924,0.096541636,0.06970595,-0.67659324,-0.7330502,0.06682505,0.7363541,-0.6732882
rci_T_si,,,,,-0.06745086,0.03979552,0.24508704,0.9940752,-0.017281396,0.107311875,0.06819309,-0.66964835,-0.73954093,0.08464152,0.74247724,-0.6645024
ecm_T_lc,,,,,-4.4061628e-05,-0.00034663224,-0.01840835,-0.99912,0.030754527,0.028518902,-0.031987965,-0.99852574,-0.043852776,0.027128186,-0.04472645,0.9986309
ecm_T_rc,,,,,-0.0043358393,0.01870579,-0.007592615,-0.99555075,-0.052743673,-0.078081585,0.04863213,-0.9973746,0.053654674,-0.08070653,0.04961868,0.9955021
cart_T_ecmi,,,,,0.05759907,1.3275594,0.43761152,0.99674624,0.079171725,-0.015123654,0.043190863,-0.68303543,-0.7291071,-0.06805465,0.72608155,-0.68423253
ecmac_T_ecmrep_psm1,,,,,-0.0025980123,-0.29326126,-0.2805022,0.9974786,0.061531033,0.035360787,-0.060258932,0.9975341,-0.035980776,-0.037487525,0.033759248,0.99872667
ecmac_T_ecmrep_psm3,,,,,-0.0114122145,-0.5209516,-0.5025674,0.9999053,0.010122195,-0.009323479,-0.0077519584,0.9740634,0.22614253,0.011370718,-0.22604884,0.9740496
""
0,16:25:55.822185,16:24:29.111220,0,,0.12409942,0.01009199,0.030679956,-0.17119582,-0.97571003,0.13668185,-0.82761574,0.21768615,0.5173635,-0.53455055,-0.024549551,-0.84477985,,0.06439381,-0.038113512,0.03783828,-0.60531384,-0.67356557,0.42415136,-0.62436914,0.7322949,0.27185905,-0.49371877,-0.10026702,-0.863822,,0.057580817,1.3275597,0.4376148,0.9967468,0.07916338,-0.015132561,0.043178685,-0.6830364,-0.7291069,-0.06805465,0.72608155,-0.68423253,,-0.0854674,0.29027164,-0.05758489,0.19422087,0.97850436,-0.06933566,-0.94366145,0.16706459,-0.28564402,-0.2679204,0.120907426,0.95582426,,-0.020506132,0.45615283,-0.32974303,0.6507219,0.6993489,-0.29575676,-0.6536835,0.3177749,-0.6868166,-0.38634038,0.6402579,0.66393596,,1.1603406143522326,0.4238930847333091,0.17879857599,-0.5974066489874098,-0.2594727130545714,-0.16650828899115833,-0.39414923158201587,,-1.319413466095509,-0.08159067281618194,0.17010176638000002,0.8106613215111712,-0.06613206588647318,0.13478821812822456,0.8722573131570512,,0.0250542014123786,0.03181517060229164,0.08397132691999999,-0.11775085106328897,,-1.8402934e-05,5.9604645e-07,-2.1457672e-06,1.0,-8.363277e-06,-8.8736415e-06,8.355826e-06,1.0,-8.6426735e-07,8.869916e-06,8.046627e-07,1.0,34,0.103,1,1,0.079,False,-0.25535012901606535,1.046859576315857
0.1276876018382609,16:25:55.856723,16:24:29.111220,0,,0.12403431,0.009982884,0.030903295,-0.1670098,-0.97519654,0.14525661,-0.8266328,0.21879333,0.5184667,-0.53738815,-0.03348484,-0.84267,,0.06439629,-0.038113095,0.03783691,-0.6053116,-0.6735978,0.42410332,-0.6243675,0.7322743,0.27191848,-0.4937237,-0.10020091,-0.8638268,,0.057580817,1.3275597,0.4376148,0.9967468,0.07916338,-0.015132561,0.043178685,-0.6830364,-0.7291069,-0.06805465,0.72608155,-0.68423253,,-0.085419714,0.29036686,-0.05781875,0.19025815,0.97862923,-0.078016736,-0.9452773,0.16115838,-0.2836879,-0.2650522,0.12772138,0.9557377,,-0.020508382,0.45615152,-0.3297418,0.6507204,0.6993714,-0.295707,-0.6536873,0.31782752,-0.6867886,-0.38633648,0.64020723,0.66398704,,1.1610047693794159,0.4238930847333091,0.17856005863000002,-0.6020198277440695,-0.2570132560587935,-0.17406796558725213,-0.3948026078465529,,-1.3194211888283833,-0.08159067281618194,0.17010435896,0.8106613215111712,-0.06613206588647318,0.13486989686836512,0.8720939690909169,,0.0250542014123786,0.03181517060229164,0.08397132691999999,-0.11775085106328897,,-1.8402934e-05,5.9604645e-07,-2.1457672e-06,1.0,-8.363277e-06,-8.8736415e-06,8.355826e-06,1.0,-8.6426735e-07,8.869916e-06,8.046627e-07,1.0,46,0.139,1,1,0.115,False,-0.254218152364166,1.0470044169181953
0.16222160798497498,16:25:55.889974,16:24:29.111220,0,,0.12395476,0.009890869,0.031126902,-0.16364348,-0.97476345,0.15184566,-0.8253543,0.21959019,0.5201639,-0.5403806,-0.040205024,-0.8404597,,0.06439946,-0.038110636,0.037836373,-0.60523653,-0.67363167,0.42415664,-0.6243417,0.73224807,0.27204812,-0.4938481,-0.10016522,-0.86375976,,0.057580817,1.3275597,0.4376148,0.9967468,0.07916338,-0.015132561,0.043178685,-0.6830364,-0.7291069,-0.06805465,0.72608155,-0.68423253,,-0.08535736,0.2904743,-0.05804092,0.1871286,0.97867584,-0.08471435,-0.94677687,0.15669043,-0.281179,-0.2619092,0.13282223,0.9559089,,-0.020511389,0.4561518,-0.32973912,0.6506637,0.69939935,-0.2957656,-0.6537939,0.31785086,-0.6866764,-0.38625166,0.6401651,0.66407704,,1.161769319933964,0.42387763926756067,0.17833320788,-0.6057942467267908,-0.25428052606348467,-0.1798901882273653,-0.39480260784655297,,-1.3194289115612574,-0.08158295008330772,0.17010695154000002,0.8106613215111712,-0.06599542938670773,0.13492183644494982,0.8724206572231854,,0.0250542014123786,0.03181517060229164,0.08397132691999999,-0.11775085106328897,,-1.8402934e-05,5.9604645e-07,-2.1457672e-06,1.0,-8.363277e-06,-8.8736415e-06,8.355826e-06,1.0,-8.6426735e-07,8.869916e-06,8.046627e-07,1.0,58,0.176,1,1,0.152,False,-0.2536223751789555,1.0466181753119597
0.19547666190192103,16:25:55.920252,16:24:29.111220,0,,0.12382544,0.009742916,0.03143768,-0.15892276,-0.97487223,0.15610164,-0.82473016,0.2180031,0.5218188,-0.5427374,-0.045812815,-0.83865213,,0.06440058,-0.038109206,0.037834167,-0.60516894,-0.6735978,0.42430663,-0.62432015,0.73226535,0.2720514,-0.4939583,-0.10026613,-0.86368513,,0.057580817,1.3275597,0.4376148,0.9967468,0.07916338,-0.015132561,0.043178685,-0.6830364,-0.7291069,-0.06805465,0.72608155,-0.68423253,,-0.08525232,0.29061094,-0.058365718,0.18259335,0.9791468,-0.08905762,-0.94829804,0.15147321,-0.2789027,-0.25959685,0.13537894,0.95618093,,-0.020512173,0.4561504,-0.3297368,0.6506123,0.69938004,-0.29592428,-0.6538889,0.3177658,-0.68662524,-0.38617742,0.64022845,0.66405916,,1.1629277298650977,0.42381585740456684,0.17800783909,-0.611036495313904,-0.2526408880662994,-0.18343252905551755,-0.3933325112513444,,-1.3194211888283833,-0.08158295008330772,0.17010954412,0.8106613215111712,-0.0658587928869423,0.13481041854125342,0.8724206572231854,,0.0250542014123786,0.03181517060229164,0.08397132691999999,-0.11775085106328897,,-1.8402934e-05,5.9604645e-07,-2.1457672e-06,1.0,-8.363277e-06,-8.8736415e-06,8.355826e-06,1.0,-8.6426735e-07,8.869916e-06,8.046627e-07,1.0,71,0.217,1,1,0.193,False,-0.2545756186752919,1.0467147357135185
0.2257121920119971,16:25:55.967002,16:24:29.111220,0,,0.12367385,0.009607375,0.031785622,-0.15167454,-0.97508067,0.16190255,-0.82348084,0.21525165,0.52492464,-0.5466937,-0.05370594,-0.8356086,,0.0644003,-0.03811007,0.0378322,-0.6051742,-0.6735972,0.42430028,-0.6243224,0.732266,0.27204436,-0.49394906,-0.10026598,-0.8636904,,0.057580817,1.3275597,0.4376148,0.9967468,0.07916338,-0.015132561,0.043178685,-0.6830364,-0.7291069,-0.06805465,0.72608155,-0.68423253,,-0.08512745,0.2907844,-0.05870737,0.17565805,0.9798564,-0.09500371,-0.9506893,0.14378549,-0.27480084,-0.2556052,0.13859,0.9567961,,-0.020511646,0.4561483,-0.32973668,0.6506161,0.6993794,-0.29591742,-0.65388113,0.31776613,-0.6866325,-0.38618407,0.640229,0.66405475,,1.1643332672482067,0.4237309073429504,0.17766302595000003,-0.6190047131663159,-0.24949824857169425,-0.1877920731236276,-0.3933325112513444,,-1.319413466095509,-0.08159067281618194,0.17011084041000002,0.8106613215111712,-0.0658587928869423,0.13481041854125342,0.8724206572231854,,0.0250542014123786,0.03181517060229164,0.08397132691999999,-0.11775085106328897,,-1.8402934e-05,5.9604645e-07,-2.1457672e-06,1.0,-8.363277e-06,-8.8736415e-06,8.355826e-06,1.0,-8.6426735e-07,8.869916e-06,8.046627e-07,1.0,79,0.242,1,1,0.218,False,-0.2555288621716292,1.0466181753119597
0.2725110868923366,16:25:55.991971,16:24:29.260591,0,,0.123541445,0.009498775,0.032074228,-0.14836605,-0.97466964,0.1673517,-0.82253116,0.21557023,0.5262812,-0.54902637,-0.059569694,-0.83367956,,0.06440136,-0.03811016,0.037832856,-0.6051719,-0.67356014,0.42436227,-0.62432075,0.7322898,0.27198422,-0.49395394,-0.10034096,-0.86367893,,0.057580817,1.3275597,0.4376148,0.9967468,0.07916338,-0.015132561,0.043178685,-0.6830364,-0.7291069,-0.06805465,0.72608155,-0.68423253,,-0.08501715,0.29093108,-0.05898835,0.1725351,0.97985774,-0.100550406,-0.9519174,0.13963336,-0.27268258,-0.25314993,0.14276299,0.9568353,,-0.020512784,0.45614874,-0.32973698,0.6506146,0.6993535,-0.2959819,-0.65388495,0.31770658,-0.6866564,-0.3861802,0.6402868,0.6640013,,1.1655380135765856,0.4237000164114535,0.17738173102000002,-0.6227791321490374,-0.24772197407474353,-0.19299772791814698,-0.3949659519126872,,-1.3194211888283833,-0.08159067281618194,0.17011084041000002,0.8106613215111712,-0.0658587928869423,0.13472873980111286,0.8725840012893198,,0.0250542014123786,0.03181517060229164,0.08397132691999999,-0.11775085106328897,,-1.8402934e-05,5.9604645e-07,-2.1457672e-06,1.0,-8.363277e-06,-8.8736415e-06,8.355826e-06,1.0,-8.6426735e-07,8.869916e-06,8.046627e-07,1.0,91,0.279,1,1,0.255,False,-0.254218152364166,1.0465216149104006
0.2974711009301245,16:25:56.020791,16:24:29.260591,0,,0.123452365,0.009434804,0.032266483,-0.1443634,-0.9746789,0.17076398,-0.8219712,0.2142008,0.52771336,-0.55092883,-0.06418057,-0.8320807,,0.06440136,-0.03811016,0.037832856,-0.6051719,-0.67356014,0.42436227,-0.62432075,0.7322898,0.27198422,-0.49395394,-0.10034096,-0.86367893,,0.057580817,1.3275597,0.4376148,0.9967468,0.07916338,-0.015132561,0.043178685,-0.6830364,-0.7291069,-0.06805465,0.72608155,-0.68423253,,-0.08494267,0.29103443,-0.05916934,0.16868356,0.9801639,-0.10404132,-0.95311546,0.1352972,-0.27067608,-0.25123042,0.144822,0.9570318,,-0.020512784,0.45614874,-0.32973698,0.6506146,0.6993535,-0.2959819,-0.65388495,0.31770658,-0.6866564,-0.3861802,0.6402868,0.6640013,,1.1663875141927504,0.4236768482128308,0.17720025042,-0.6271826209622123,-0.24635560907708912,-0.19574548175792245,-0.3952926400449558,,-1.3194211888283833,-0.08159067281618194,0.17011084041000002,0.8106613215111712,-0.0658587928869423,0.13472873980111286,0.8725840012893198,,0.0250542014123786,0.03181517060229164,0.08397132691999999,-0.11775085106328897,,-1.8402934e-05,5.9604645e-07,-2.1457672e-06,1.0,-8.363277e-06,-8.8736415e-06,8.355826e-06,1.0,-8.6426735e-07,8.869916e-06,8.046627e-07,1.0,100,0.307,1,1,0.283,False,-0.2544564632382502,1.0471975377213132
0.3262712019495666,16:25:56.061675,16:24:29.260591,0,,0.12326632,0.009266019,0.032697186,-0.14119573,-0.97418916,0.176123,-0.8199855,0.21476641,0.53056484,-0.55469584,-0.06950481,-0.82914513,,0.06440207,-0.03810986,0.037831783,-0.6051719,-0.67356014,0.42436227,-0.62432075,0.7322898,0.27198422,-0.49395394,-0.10034096,-0.86367893,,0.057580817,1.3275597,0.4376148,0.9967468,0.07916338,-0.015132561,0.043178685,-0.6830364,-0.7291069,-0.06805465,0.72608155,-0.68423253,,-0.08478969,0.29124838,-0.059592932,0.16581741,0.9800535,-0.109543316,-0.954708,0.13170741,-0.2668067,-0.24705715,0.14882307,0.9575043,,-0.020513339,0.45614785,-0.3297362,0.6506146,0.6993535,-0.2959819,-0.65388495,0.31770658,-0.6866564,-0.3861802,0.6402868,0.6640013,,1.1680787926922056,0.4236459572813339,0.1767750673,-0.6309570399449338,-0.24307633308271853,-0.20103323113113458,-0.3946392637804186,,-1.3194211888283833,-0.08159067281618194,0.17011213670000003,0.8106613215111712,-0.0658587928869423,0.13472873980111286,0.8725840012893198,,0.0250542014123786,0.03181517060229164,0.08397132691999999,-0.11775085106328897,,-1.8402934e-05,5.9604645e-07,-2.1457672e-06,1.0,-8.363277e-06,-8.8736415e-06,8.355826e-06,1.0,-8.6426735e-07,8.869916e-06,8.046627e-07,1.0,121,0.373,1,1,0.349,False,-0.25350321974191337,1.047294098122872
0.3671712479554117,16:25:56.118967,16:24:29.390126,0,,0.12305166,0.008938983,0.03338802,-0.13277376,-0.97320735,0.18772003,-0.8176696,0.214594,0.5341966,-0.5601676,-0.082565665,-0.8242544,,0.06437752,-0.03812962,0.03784579,-0.60513365,-0.673505,0.42450458,-0.62427044,0.7323304,0.27199033,-0.4940645,-0.10041514,-0.86360705,,0.05749551,1.3275592,0.43761915,0.9967414,0.07924839,-0.015041819,0.043302737,-0.68302655,-0.72910875,-0.06805465,0.72608155,-0.68423253,,-0.08456281,0.29154703,-0.060313128,0.15793715,0.9799514,-0.12145447,-0.95754087,0.1219479,-0.26123586,-0.24118733,0.15755647,0.9576036,,-0.020415114,0.45615828,-0.3297588,0.65068346,0.69922507,-0.29613394,-0.6539054,0.31770748,-0.6866365,-0.3860295,0.64042664,0.663954,,1.1706195718078254,0.42366140274708236,0.17607636699,-0.6403930874017374,-0.2388406015899899,-0.21175659401823363,-0.3948026078465529,,-1.319413466095509,-0.08159067281618194,0.17011991444000002,0.8106613215111712,-0.06572215638717686,0.134699000637557,0.8724206572231854,,0.0250542014123786,0.03181517060229164,0.08397132691999999,-0.11775085106328897,,-0.000103756785,-2.682209e-06,-3.4570694e-06,1.0,7.679686e-05,8.1498176e-05,-7.6800585e-05,1.0,7.599592e-06,-8.149445e-05,-7.659197e-06,1.0,129,0.397,1,1,0.373,False,-0.254694774112334,1.0467147357135185
0.4244698479305953,16:25:56.141755,16:24:29.390126,0,,0.12296298,0.008809343,0.033634156,-0.13117018,-0.97272533,0.1913109,-0.81710374,0.21535784,0.53475463,-0.56136966,-0.08617696,-0.82306606,,0.06439191,-0.03812761,0.03783369,-0.60487205,-0.6737665,0.42446253,-0.62458324,0.73206514,0.2719863,-0.49398944,-0.100595295,-0.863629,,0.05749551,1.3275592,0.43761915,0.9967414,0.07924839,-0.015041819,0.043302737,-0.68302655,-0.72910875,-0.06805465,0.72608155,-0.68423253,,-0.08449352,0.29164636,-0.060578786,0.15643013,0.9797332,-0.12510946,-0.9581186,0.11976149,-0.26012665,-0.23987143,0.16056135,0.957435,,-0.02042767,0.4561469,-0.32975036,0.6504063,0.69950175,-0.29608944,-0.6540098,0.31745648,-0.68665314,-0.38631958,0.64024895,0.6639567,,1.1714459042253673,0.4236691254799566,0.17581192383000002,-0.6422802968930981,-0.23802078259139725,-0.21544721482561296,-0.3946392637804187,,-1.319444357027006,-0.08159839554905617,0.17013806250000002,0.810241941624202,-0.06572215638717686,0.13478067937769755,0.8722573131570512,,0.0250542014123786,0.03181517060229164,0.08397132691999999,-0.11775085106328897,,-0.000103756785,-2.682209e-06,-3.4570694e-06,1.0,7.679686e-05,8.1498176e-05,-7.6800585e-05,1.0,7.599592e-06,-8.149445e-05,-7.659197e-06,1.0,146,0.451,1,1,0.427,False,-0.2552905512975445,1.046859576315857
0.4472572719678283,16:25:56.200228,16:24:29.390126,0,,0.122754276,0.008454308,0.03435251,-0.12292231,-0.970475,0.2075293,-0.81512266,0.21801421,0.5366981,-0.5660965,-0.103189655,-0.817855,,0.06441741,-0.038119577,0.03780979,-0.60485554,-0.6738246,0.42439362,-0.6245724,0.7320279,0.27211136,-0.49402332,-0.10047647,-0.8636235,,0.05749551,1.3275592,0.43761915,0.9967414,0.07924839,-0.015041819,0.043302737,-0.68302655,-0.72910875,-0.06805465,0.72608155,-0.68423253,,-0.08434088,0.2919499,-0.06133393,0.14856282,0.97871035,-0.14161614,-0.96063244,0.10883151,-0.25561878,-0.23476446,0.1740165,0.95634925,,-0.020449467,0.4561266,-0.32973036,0.65039486,0.6995423,-0.29601878,-0.65403664,0.317551,-0.68658394,-0.3862934,0.64015776,0.6640598,,1.1737163876903893,0.4238930847333091,0.17505618676,-0.6515066544064172,-0.23460487009726125,-0.23081118839967013,-0.39365919938361305,,-1.3194906934242512,-0.08159067281618194,0.17017306233,0.810241941624202,-0.06572215638717686,0.13494403685797868,0.8725840012893198,,0.0250542014123786,0.03181517060229164,0.08397132691999999,-0.11775085106328897,,-0.000103756785,-2.682209e-06,-3.4570694e-06,1.0,7.679686e-05,8.1498176e-05,-7.6800585e-05,1.0,7.599592e-06,-8.149445e-05,-7.659197e-06,1.0,154,0.475,1,1,0.451,False,-0.25481392954937654,1.0470044169181953
0.5057144509628415,16:25:56.222553,16:24:29.390126,0,,0.12270065,0.0083215535,0.03457719,-0.12106256,-0.9701851,0.2099641,-0.81533873,0.2178354,0.53644234,-0.56618595,-0.10624877,-0.8174012,,0.06441909,-0.038119324,0.03780943,-0.60498106,-0.67370266,0.42440838,-0.6244112,0.7321552,0.27213868,-0.49407336,-0.10036659,-0.8636075,,0.05749551,1.3275592,0.43761915,0.9967414,0.07924839,-0.015041819,0.043302737,-0.68302655,-0.72910875,-0.06805465,0.72608155,-0.68423253,,-0.08430511,0.2920298,-0.061585534,0.14671047,0.9786301,-0.14408034,-0.960919,0.106431246,-0.25555232,-0.23475654,0.17594175,0.9559989,,-0.020451078,0.4561262,-0.32972983,0.65053004,0.6994098,-0.2960348,-0.6539939,0.31769258,-0.6865591,-0.38613808,0.64023226,0.6640783,,1.1744114336490696,0.42403209392504515,0.17478526215,-0.6538132437847469,-0.235151416096323,-0.23330595142994465,-0.392515790920673,,-1.3194984161571255,-0.08159067281618194,0.17017435862000002,0.8104516315676866,-0.06572215638717686,0.13494403685797868,0.8725840012893198,,0.0250542014123786,0.03181517060229164,0.08397132691999999,-0.11775085106328897,,-0.000103756785,-2.682209e-06,-3.4570694e-06,1.0,7.679686e-05,8.1498176e-05,-7.6800585e-05,1.0,7.599592e-06,-8.149445e-05,-7.659197e-06,1.0,167,0.516,1,1,0.492,False,-0.2544564632382502,1.046763015914298
0.5280541379470378,16:25:56.265363,16:24:29.545046,0,,0.12257938,0.00799568,0.035142183,-0.11320013,-0.9668351,0.22894478,-0.8140308,0.22236788,0.536569,-0.56968373,-0.12562844,-0.8122057,,0.0644247,-0.038116895,0.037805796,-0.60497355,-0.67370105,0.42442164,-0.62440723,0.73215616,0.27214545,-0.49408758,-0.10037115,-0.86359894,,0.05749551,1.3275592,0.43761915,0.9967414,0.07924839,-0.015041819,0.043302737,-0.68302655,-0.72910875,-0.06805465,0.72608155,-0.68423253,,-0.08422859,0.29223555,-0.062211595,0.13913155,0.9767049,-0.16337074,-0.9629564,0.09495739,-0.25238463,-0.23099203,0.19243358,0.9537358,,-0.020456083,0.4561235,-0.3297256,0.6505247,0.69940877,-0.296049,-0.65400547,0.3176888,-0.68654984,-0.38612753,0.6402353,0.6640816,,1.175840139230801,0.42424833044552346,0.17417989472,-0.662200841524128,-0.2326919591005451,-0.25123882802388986,-0.39414923158201576,,-1.3195138616228739,-0.08158295008330772,0.17018084007,0.8104516315676866,-0.06572215638717686,0.13494403685797868,0.8725840012893198,,0.0250542014123786,0.03181517060229164,0.08397132691999999,-0.11775085106328897,,-0.000103756785,-2.682209e-06,-3.4570694e-06,1.0,7.679686e-05,8.1498176e-05,-7.6800585e-05,1.0,7.599592e-06,-8.149445e-05,-7.659197e-06,1.0,188,0.582,1,2,0.511,False,-0.2548735072678969,1.0465216149104006
0.5708656699862331,16:25:56.325779,16:24:29.545046,0,,0.12248251,0.007594779,0.035707295,-0.103395425,-0.96249545,0.25082266,-0.8152705,0.22646731,0.5329602,-0.5697749,-0.14938268,-0.80810976,,0.06442769,-0.038117133,0.037801325,-0.60484886,-0.6738522,0.42435947,-0.6245673,0.73201036,0.2721702,-0.494038,-0.10041922,-0.8636217,,0.05749551,1.3275592,0.43761915,0.9967414,0.07924839,-0.015041819,0.043302737,-0.68302655,-0.72910875,-0.06805465,0.72608155,-0.68423253,,-0.084177636,0.29239017,-0.06289203,0.12933785,0.97408843,-0.18553565,-0.964252,0.07990905,-0.25265115,-0.2312786,0.21158049,0.94960195,,-0.020458445,0.45611915,-0.32972357,0.6503903,0.69956136,-0.2959837,-0.6540481,0.31759667,-0.68655187,-0.38628173,0.64011425,0.6641086,,1.1771607265522936,0.42452634882899554,0.17350582392000002,-0.6726853386983541,-0.2344682335974958,-0.2721703700743504,-0.39284247905294173,,-1.3195138616228739,-0.08159067281618194,0.17018602523,0.810241941624202,-0.06572215638717686,0.13502571559811924,0.8724206572231854,,0.0250542014123786,0.03181517060229164,0.08397132691999999,-0.11775085106328897,,-0.000103756785,-2.682209e-06,-3.4570694e-06,1.0,7.679686e-05,8.1498176e-05,-7.6800585e-05,1.0,7.599592e-06,-8.149445e-05,-7.659197e-06,1.0,196,0.606,1,2,0.535,False,-0.2537415306159976,1.0466181753119597
0.6312540490180254,16:25:56.354329,16:24:29.545046,0,,0.12241575,0.007411763,0.036004156,-0.09894975,-0.95992625,0.26220337,-0.8141614,0.22959907,0.5333155,-0.57214516,-0.16070443,-0.8042538,,0.06442846,-0.0381181,0.037800014,-0.6048518,-0.67384917,0.42436007,-0.6245679,0.7320125,0.27216288,-0.4940336,-0.10042353,-0.86362374,,0.05749551,1.3275592,0.43761915,0.9967414,0.07924839,-0.015041819,0.043302737,-0.68302655,-0.72910875,-0.06805465,0.72608155,-0.68423253,,-0.0841346,0.29249048,-0.063229896,0.12508568,0.972361,-0.19714881,-0.9654477,0.073505044,-0.2500154,-0.2286138,0.22161022,0.9479582,,-0.020459054,0.45611745,-0.32972378,0.6503926,0.69955903,-0.2959842,-0.65404415,0.31759354,-0.68655705,-0.3862845,0.64011836,0.664103,,1.1779021089082191,0.42456496249336667,0.17316619594000002,-0.6775082073984982,-0.23241868610101418,-0.2830713362656804,-0.3965993925740301,,-1.3195138616228739,-0.08159839554905617,0.17018732152000002,0.810241941624202,-0.06572215638717686,0.13502571559811924,0.8724206572231854,,0.0250542014123786,0.03181517060229164,0.08397132691999999,-0.11775085106328897,,-0.000103756785,-2.682209e-06,-3.4570694e-06,1.0,7.679686e-05,8.1498176e-05,-7.6800585e-05,1.0,7.599592e-06,-8.149445e-05,-7.659197e-06,1.0,209,0.647,1,2,0.576,False,-0.2536819528974772,1.0467147357135185
0.6598277508746833,16:25:56.385235,16:24:29.545046,0,,0.12231967,0.0071352273,0.036393255,-0.09128161,-0.95437115,0.2843299,-0.8154651,0.23551536,0.5287241,-0.5715631,-0.18359834,-0.7997546,,0.06443094,-0.038117655,0.037798643,-0.6048495,-0.67384684,0.42436707,-0.62456626,0.73201406,0.27216256,-0.49403858,-0.10042791,-0.8636204,,0.05749551,1.3275592,0.43761915,0.9967414,0.07924839,-0.015041819,0.043302737,-0.68302655,-0.72910875,-0.06805465,0.72608155,-0.68423253,,-0.0840702,0.2925978,-0.06370045,0.11737544,0.9685021,-0.21960564,-0.9662001,0.06026195,-0.25065082,-0.229522,0.24160326,0.94284016,,-0.020461306,0.45611614,-0.32972252,0.6503911,0.6995573,-0.29599157,-0.65404797,0.3175901,-0.686555,-0.3862806,0.64012194,0.6641018,,1.178998736976359,0.4246576352878573,0.17270342041000003,-0.6856861151943947,-0.2344682335974958,-0.3050052236108564,-0.3957826722433586,,-1.3195215843557482,-0.08159839554905617,0.1701899141,0.810241941624202,-0.06572215638717686,0.13502571559811924,0.8724206572231854,,0.0250542014123786,0.03181517060229164,0.08397132691999999,-0.11775085106328897,,-0.000103756785,-2.682209e-06,-3.4570694e-06,1.0,7.679686e-05,8.1498176e-05,-7.6800585e-05,1.0,7.599592e-06,-8.149445e-05,-7.659197e-06,1.0,230,0.713,1,2,0.642,False,-0.25397984149008224,1.0467147357135185
0.6907397999893874,16:25:56.454640,16:24:29.692122,0,,0.12214567,0.00676547,0.036947757,-0.07949761,-0.947528,0.30963,-0.8150592,0.24061191,0.5270525,-0.5738978,-0.21046737,-0.79141957,,0.06443546,-0.03811615,0.03779888,-0.60483986,-0.6738428,0.42438734,-0.62456053,0.7320166,0.27216896,-0.49405766,-0.100436956,-0.8636085,,0.05749551,1.3275592,0.43761915,0.9967414,0.07924839,-0.015041819,0.043302737,-0.68302655,-0.72910875,-0.06805465,0.72608155,-0.68423253,,-0.08394108,0.2927685,-0.06435516,0.10578965,0.9636206,-0.2454462,-0.96813804,0.043469604,-0.24661525,-0.2269741,0.26371515,0.93751645,,-0.020465778,0.45611653,-0.32972094,0.65038425,0.69955456,-0.29601312,-0.65406334,0.31758282,-0.68654376,-0.38626614,0.64012855,0.66410387,,1.18068229274294,0.42452634882899554,0.17205397912,-0.6982675118034661,-0.23337514159937228,-0.32958340148119086,-0.39186241465613597,,-1.3195447525543709,-0.08159067281618194,0.17019250668000002,0.810241941624202,-0.06572215638717686,0.13502571559811924,0.8724206572231854,,0.0250542014123786,0.03181517060229164,0.08397132691999999,-0.11775085106328897,,-0.000103756785,-2.682209e-06,-3.4570694e-06,1.0,7.679686e-05,8.1498176e-05,-7.6800585e-05,1.0,7.599592e-06,-8.149445e-05,-7.659197e-06,1.0,238,0.737,1,2,0.666,False,-0.25308617571226666,1.046666455512739
0.7601277499925345,16:25:56.486809,16:24:29.692122,0,,0.12207939,0.0065597594,0.037195563,-0.07495438,-0.9423487,0.32612982,-0.8162728,0.24583879,0.52274466,-0.57278323,-0.2270289,-0.78764033,,0.06443512,-0.038115792,0.037797093,-0.60484207,-0.6738452,0.42438033,-0.6245622,0.7320151,0.27216926,-0.4940527,-0.100432515,-0.8636117,,0.05749551,1.3275592,0.43761915,0.9967414,0.07924839,-0.015041819,0.043302737,-0.68302655,-0.72910875,-0.06805465,0.72608155,-0.68423253,,-0.083895475,0.29281723,-0.06467712,0.10116098,0.95968676,-0.2622361,-0.96830845,0.03447647,-0.24736649,-0.22835337,0.27894926,0.9327604,,-0.020465197,0.4561152,-0.32971987,0.65038574,0.6995563,-0.29600576,-0.6540595,0.31758627,-0.6865458,-0.38627005,0.640125,0.664105,,1.1813464477701232,0.4245109033632471,0.17173898065,-0.7030903805036102,-0.2354246890958539,-0.34645320693765214,-0.390719006193196,,-1.3195370298214966,-0.08159067281618194,0.17019380297000003,0.810241941624202,-0.06572215638717686,0.13502571559811924,0.8724206572231854,,0.0250542014123786,0.03181517060229164,0.08397132691999999,-0.11775085106328897,,-0.000103756785,-2.682209e-06,-3.4570694e-06,1.0,7.679686e-05,8.1498176e-05,-7.6800585e-05,1.0,7.599592e-06,-8.149445e-05,-7.659197e-06,1.0,251,0.778,1,2,0.707,False,-0.2541585746456452,1.0467147357135185
0.7922739027999341,16:25:56.517877,16:24:29.692122,0,,0.12198508,0.0063102543,0.03750038,-0.06617802,-0.9365582,0.34420824,-0.81644523,0.24913806,0.52091014,-0.57361805,-0.24655434,-0.7811359,,0.06443512,-0.038115792,0.037797093,-0.60484207,-0.67387974,0.42432532,-0.6245622,0.73199284,0.27222908,-0.4940527,-0.10036197,-0.8636199,,0.05749551,1.3275592,0.43761915,0.9967414,0.07924839,-0.015041819,0.043302737,-0.68302655,-0.72910875,-0.06805465,0.72608155,-0.68423253,,-0.08382659,0.2928801,-0.0650713,0.09246189,0.9553171,-0.28074905,-0.9693992,0.021969726,-0.24450457,-0.22741142,0.29476526,0.928115,,-0.020465197,0.4561152,-0.32971987,0.65038574,0.69958043,-0.29594862,-0.6540595,0.31764236,-0.68651986,-0.38627005,0.64007074,0.66415733,,1.1821727801876654,0.42431011230851723,0.17134879736000003,-0.7123167380169293,-0.23528805259608845,-0.3640438752314289,-0.3943125756481501,,-1.3195370298214966,-0.08159067281618194,0.17019380297000003,0.810241941624202,-0.06572215638717686,0.13510739433825983,0.8725840012893198,,0.0250542014123786,0.03181517060229164,0.08397132691999999,-0.11775085106328897,,-0.000103756785,-2.682209e-06,-3.4570694e-06,1.0,7.679686e-05,8.1498176e-05,-7.6800585e-05,1.0,7.599592e-06,-8.149445e-05,-7.659197e-06,1.0,259,0.803,1,2,0.732,False,-0.2537415306159976,1.0471009773197542
0.8233639257960021,16:25:56.546175,16:24:29.830916,0,,0.12192443,0.0061594993,0.037648648,-0.06298265,-0.9327358,0.35501704,-0.8173093,0.25234962,0.5180011,-0.57274663,-0.25753367,-0.7782273,,0.06443688,-0.038115613,0.037796795,-0.60483986,-0.6738774,0.4243323,-0.62456053,0.73199445,0.27222875,-0.49405766,-0.1003664,-0.8636166,,0.05749551,1.3275592,0.43761915,0.9967414,0.07924839,-0.015041819,0.043302737,-0.68302655,-0.72910875,-0.06805465,0.72608155,-0.68423253,,-0.083778806,0.29289156,-0.06528571,0.08920019,0.95231724,-0.2917793,-0.96946114,0.015822267,-0.24473394,-0.22844775,0.30469903,0.92464596,,-0.02046689,0.45611477,-0.3297194,0.65038425,0.69957876,-0.295956,-0.65406334,0.3176389,-0.68651783,-0.38626614,0.6400743,0.66415614,,1.1825975304957477,0.42413248945241006,0.17114009467000002,-0.7156717771126816,-0.23665441759374287,-0.3752631859556896,-0.3941492315820158,,-1.3195447525543709,-0.08159067281618194,0.17019509926,0.810241941624202,-0.06572215638717686,0.13510739433825983,0.8725840012893198,,0.0250542014123786,0.03181517060229164,0.08397132691999999,-0.11775085106328897,,-0.000103756785,-2.682209e-06,-3.4570694e-06,1.0,7.679686e-05,8.1498176e-05,-7.6800585e-05,1.0,7.599592e-06,-8.149445e-05,-7.659197e-06,1.0,272,0.844,1,2,0.773,False,-0.25344364202339253,1.0471975377213132
0.8516796769108623,16:25:56.587315,16:24:29.830916,0,,0.12178929,0.00590007,0.03795302,-0.05808049,-0.92866606,0.36634162,-0.818463,0.25441074,0.51516354,-0.5716162,-0.26991612,-0.7748551,,0.06443871,-0.03811667,0.03779614,-0.6048405,-0.67387205,0.42433983,-0.62455946,0.7319982,0.2722211,-0.49405816,-0.100375146,-0.8636153,,0.05749551,1.3275592,0.43761915,0.9967414,0.07924839,-0.015041819,0.043302737,-0.68302655,-0.72910875,-0.06805465,0.72608155,-0.68423253,,-0.08366931,0.29294908,-0.06568934,0.08421338,0.949149,-0.30335495,-0.9695942,0.007853863,-0.24459241,-0.22977214,0.31472915,0.9209508,,-0.02046864,0.45611352,-0.3297199,0.650385,0.6995747,-0.29596382,-0.6540632,0.3176323,-0.686521,-0.38626504,0.640082,0.66414934,,1.1836323767008936,0.4238467483360638,0.17074731880000002,-0.7209140256997947,-0.23870396509022446,-0.3871505882635766,-0.39414923158201587,,-1.3195524752872452,-0.08159839554905617,0.17019639555000002,0.810241941624202,-0.06572215638717686,0.13510739433825983,0.8725840012893198,,0.0250542014123786,0.03181517060229164,0.08397132691999999,-0.11775085106328897,,-0.000103756785,-2.682209e-06,-3.4570694e-06,1.0,7.679686e-05,8.1498176e-05,-7.6800585e-05,1.0,7.599592e-06,-8.149445e-05,-7.659197e-06,1.0,280,0.868,1,2,0.797,False,-0.25397984149008224,1.047390658524431
0.8928045528009534,16:25:56.619175,16:24:29.830916,0,,0.1215933,0.005614117,0.038312823,-0.056897894,-0.9237586,0.37872505,-0.81826776,0.2604876,0.5124296,-0.57201445,-0.28074232,-0.7707031,,0.06443871,-0.03811667,0.03779614,-0.6048405,-0.67387205,0.42433983,-0.62455946,0.7319982,0.2722211,-0.49405816,-0.100375146,-0.8636153,,0.05749551,1.3275592,0.43761915,0.9967414,0.07924839,-0.015041819,0.043302737,-0.68302655,-0.72910875,-0.06805465,0.72608155,-0.68423253,,-0.083503395,0.2930324,-0.066153206,0.083064556,0.94510293,-0.3160391,-0.96980685,0.0036944363,-0.24384627,-0.22929224,0.32675186,0.9168742,,-0.02046864,0.45611352,-0.3297199,0.650385,0.6995747,-0.29596382,-0.6540632,0.3176323,-0.686521,-0.38626504,0.640082,0.66414934,,1.184983854953883,0.42333704796636495,0.17028324698000002,-0.7223818553041864,-0.23870396509022446,-0.40193444022901836,-0.39594601630949294,,-1.3195447525543709,-0.08159839554905617,0.17019639555000002,0.810241941624202,-0.06572215638717686,0.13510739433825983,0.8725840012893198,,0.0250542014123786,0.03181517060229164,0.08397132691999999,-0.11775085106328897,,-0.000103756785,-2.682209e-06,-3.4570694e-06,1.0,7.679686e-05,8.1498176e-05,-7.6800585e-05,1.0,7.599592e-06,-8.149445e-05,-7.659197e-06,1.0,293,0.909,1,2,0.838,False,-0.25439688551972894,1.0475354991267694
0.9246736757922918,16:25:56.654158,16:24:29.830916,0,,0.12143986,0.005381435,0.038572937,-0.053399067,-0.92049336,0.38709256,-0.8199122,0.26168793,0.5091791,-0.5699935,-0.2901922,-0.7686976,,0.06443738,-0.03811746,0.037793458,-0.6048479,-0.6739084,0.42427146,-0.62456346,0.73197496,0.27227414,-0.4940439,-0.100299984,-0.86363214,,0.05749551,1.3275592,0.43761915,0.9967414,0.07924839,-0.015041819,0.043302737,-0.68302655,-0.72910875,-0.06805465,0.72608155,-0.68423253,,-0.083372146,0.29307574,-0.066508494,0.07940784,0.94252,-0.32457718,-0.9695511,-0.002642761,-0.24487491,-0.2316573,0.33413914,0.9136115,,-0.020466974,0.45611092,-0.32971948,0.6503903,0.6995999,-0.2958925,-0.65405166,0.3176922,-0.68650424,-0.3862756,0.6400247,0.6641984,,1.1860341466247775,0.42296635678840216,0.16995269303000002,-0.7261562742869078,-0.24170996808506415,-0.4107549124870947,-0.3939858875158816,,-1.3195370298214966,-0.08160611828193039,0.17019769184000003,0.810241941624202,-0.06572215638717686,0.13518907307840036,0.872747345355454,,0.0250542014123786,0.03181517060229164,0.08397132691999999,-0.11775085106328897,,-0.000103756785,-2.682209e-06,-3.4570694e-06,1.0,7.679686e-05,8.1498176e-05,-7.6800585e-05,1.0,7.599592e-06,-8.149445e-05,-7.659197e-06,1.0,301,0.934,1,2,0.863,False,-0.2552905512975445,1.046763015914298
0.9596635338384658,16:25:56.686300,16:24:29.960350,0,,0.12125954,0.0052113086,0.038815826,-0.050553717,-0.91754204,0.39441225,-0.81839633,0.2644091,0.510211,-0.5724262,-0.29699248,-0.76427996,,0.06443928,-0.03811861,0.03779286,-0.6047209,-0.6740572,0.4242162,-0.6247218,0.7318307,0.27229857,-0.49399924,-0.100352496,-0.86365163,,0.05749551,1.3275592,0.43761915,0.9967414,0.07924839,-0.015041819,0.043302737,-0.68302655,-0.72910875,-0.06805465,0.72608155,-0.68423253,,-0.083211884,0.2931493,-0.066807434,0.07676289,0.94009155,-0.33216757,-0.97045577,-0.0059839035,-0.2412048,-0.22874226,0.34086952,0.91185796,,-0.020468803,0.45610967,-0.32972008,0.6502544,0.6997508,-0.2958345,-0.65409803,0.31759658,-0.6865043,-0.38642588,0.63990724,0.6642242,,1.18715394289154,0.4223639836242127,0.1696584352,-0.7293016234391757,-0.23911387458952077,-0.4189977581678689,-0.394802607846553,,-1.3195447525543709,-0.08161384101480462,0.17019898813,0.8100322516807175,-0.06572215638717686,0.13527075181854092,0.8725840012893198,,0.0250542014123786,0.03181517060229164,0.08397132691999999,-0.11775085106328897,,-0.000103756785,-2.682209e-06,-3.4570694e-06,1.0,7.679686e-05,8.1498176e-05,-7.6800585e-05,1.0,7.599592e-06,-8.149445e-05,-7.659197e-06,1.0,314,0.975,1,2,0.904,False,-0.25427773008268684,1.0471975377213132
0.9918059718329459,16:25:56.713590,16:24:29.960350,0,,0.121071056,0.0049966723,0.039004058,-0.048201434,-0.9115157,0.40843093,-0.81917477,0.27004337,0.5059934,-0.5715151,-0.31018665,-0.7597071,,0.06444071,-0.038118042,0.037790716,-0.6047209,-0.6741265,0.4241061,-0.6247218,0.73178625,0.27241805,-0.49399924,-0.10021144,-0.8636681,,0.05749551,1.3275592,0.43761915,0.9967414,0.07924839,-0.015041819,0.043302737,-0.68302655,-0.72910875,-0.06805465,0.72608155,-0.68423253,,-0.0830404,0.29315284,-0.067103416,0.07434079,0.9350862,-0.3465361,-0.9703967,-0.012241235,-0.24120624,-0.22979066,0.35420892,0.9064945,,-0.020469917,0.4561079,-0.32971853,0.6502544,0.6997991,-0.2957202,-0.65409803,0.31770873,-0.68645245,-0.38642588,0.6397987,0.6643287,,1.1881270072336925,0.4215762648710418,0.16937584398000002,-0.7318179027609899,-0.24034360308740974,-0.43498417498383796,-0.3938225434497472,,-1.3195447525543709,-0.08161384101480462,0.17020158071000002,0.8100322516807175,-0.06572215638717686,0.13543410929882208,0.8725840012893198,,0.0250542014123786,0.03181517060229164,0.08397132691999999,-0.11775085106328897,,-0.000103756785,-2.682209e-06,-3.4570694e-06,1.0,7.679686e-05,8.1498176e-05,-7.6800585e-05,1.0,7.599592e-06,-8.149445e-05,-7.659197e-06,1.0,331,1.028,1,2,0.957,False,-0.2547543518308557,1.0471975377213132
1.0190728269517422,16:25:56.768909,16:24:29.960350,0,,NaN,NaN,NaN,NaN,NaN,NaN,NaN,NaN,NaN,NaN,NaN,NaN,,0.064448506,-0.038119353,0.037792504,-0.6047103,-0.67410934,0.4241485,-0.6247123,0.7317979,0.2724089,-0.49402425,-0.10024227,-0.8636501,,0.05749551,1.3275592,0.43761915,0.9967414,0.07924839,-0.015041819,0.043302737,-0.68302655,-0.72910875,-0.06805465,0.72608155,-0.68423253,,NaN,NaN,NaN,NaN,NaN,NaN,NaN,NaN,NaN,NaN,NaN,NaN,,-0.02047791,0.456108,-0.3297198,0.6502476,0.6997866,-0.29576483,-0.654117,0.31768483,-0.6864454,-0.38640532,0.6398243,0.66431606,,NaN,NaN,NaN,NaN,NaN,NaN,NaN,,-1.3195910889516163,-0.08162156374767884,0.17020417329,0.8100322516807175,-0.06572215638717686,0.13543410929882205,0.8729106894215883,,0.0250542014123786,0.03181517060229164,0.08397132691999999,-0.11775085106328897,,-0.000103756785,-2.682209e-06,-3.4570694e-06,1.0,7.679686e-05,8.1498176e-05,-7.6800585e-05,1.0,7.599592e-06,-8.149445e-05,-7.659197e-06,1.0,353,1.098,0,2,0.977,False,-0.2543373078012081,1.047294098122872
1.0743983048014343,16:25:56.837030,16:24:30.148544,0,,NaN,NaN,NaN,NaN,NaN,NaN,NaN,NaN,NaN,NaN,NaN,NaN,,0.0644486,-0.038119547,0.037787676,-0.60471773,-0.67418027,0.424025,-0.6247163,0.7317524,0.27252173,-0.49401012,-0.10009663,-0.8636751,,0.05749551,1.3275592,0.43761915,0.9967414,0.07924839,-0.015041819,0.043302737,-0.68302655,-0.72910875,-0.06805465,0.72608155,-0.68423253,,NaN,NaN,NaN,NaN,NaN,NaN,NaN,NaN,NaN,NaN,NaN,NaN,,-0.020477358,0.45610365,-0.32971784,0.65025294,0.6998359,-0.2956363,-0.6541054,0.31780076,-0.6864028,-0.38641587,0.63971275,0.6644173,,NaN,NaN,NaN,NaN,NaN,NaN,NaN,,-1.3195756434858676,-0.08162928648055306,0.17020806216,0.8100322516807175,-0.06572215638717686,0.13559746677910314,0.8725840012893198,,0.0250542014123786,0.03181517060229164,0.08397132691999999,-0.11775085106328897,,-0.000103756785,-2.682209e-06,-3.4570694e-06,1.0,7.679686e-05,8.1498176e-05,-7.6800585e-05,1.0,7.599592e-06,-8.149445e-05,-7.659197e-06,1.0,366,1.139,0,2,0.977,False,-0.2548735072678969,1.0474389387252105
1.142529479926452,16:25:56.878415,16:24:30.148544,0,,NaN,NaN,NaN,NaN,NaN,NaN,NaN,NaN,NaN,NaN,NaN,NaN,,0.064454235,-0.038119383,0.03778833,-0.60470873,-0.67420554,0.4239978,-0.6247095,0.7317364,0.2725802,-0.4940297,-0.10004383,-0.86367,,0.05749551,1.3275592,0.43761915,0.9967414,0.07924839,-0.015041819,0.043302737,-0.68302655,-0.72910875,-0.06805465,0.72608155,-0.68423253,,NaN,NaN,NaN,NaN,NaN,NaN,NaN,NaN,NaN,NaN,NaN,NaN,,-0.02048302,0.45610368,-0.32971752,0.65024686,0.6998533,-0.29560855,-0.6541207,0.31784296,-0.6863687,-0.38640028,0.63967276,0.6644649,,NaN,NaN,NaN,NaN,NaN,NaN,NaN,,-1.3196065344173646,-0.08162928648055306,0.17021065474000002,0.8100322516807175,-0.06572215638717686,0.13567914551924373,0.8724206572231854,,0.0250542014123786,0.03181517060229164,0.08397132691999999,-0.11775085106328897,,-0.000103756785,-2.682209e-06,-3.4570694e-06,1.0,7.679686e-05,8.1498176e-05,-7.6800585e-05,1.0,7.599592e-06,-8.149445e-05,-7.659197e-06,1.0,388,1.208,0,2,0.977,False,-0.2549926627049395,1.0471975377213132
1.183909618994221,16:25:56.946908,16:24:30.148544,0,,NaN,NaN,NaN,NaN,NaN,NaN,NaN,NaN,NaN,NaN,NaN,NaN,,0.06446138,-0.0381257,0.03778833,-0.60445666,-0.6744176,0.42402,-0.62502295,0.73150367,0.27248645,-0.49394178,-0.10031602,-0.86368877,,0.05749551,1.3275592,0.43761915,0.9967414,0.07924839,-0.015041819,0.043302737,-0.68302655,-0.72910875,-0.06805465,0.72608155,-0.68423253,,NaN,NaN,NaN,NaN,NaN,NaN,NaN,NaN,NaN,NaN,NaN,NaN,,-0.020490255,0.45610002,-0.32972255,0.64997727,0.70009446,-0.29563037,-0.65421295,0.31751987,-0.6864303,-0.38669753,0.6395693,0.6643916,,NaN,NaN,NaN,NaN,NaN,NaN,NaN,,-1.3196451480817357,-0.08166790014492419,0.17021324732,0.8096128717937485,-0.06572215638717686,0.13567914551924373,0.8724206572231854,,0.0250542014123786,0.03181517060229164,0.08397132691999999,-0.11775085106328897,,-0.000103756785,-2.682209e-06,-3.4570694e-06,1.0,7.679686e-05,8.1498176e-05,-7.6800585e-05,1.0,7.599592e-06,-8.149445e-05,-7.659197e-06,1.0,410,1.278,0,2,0.977,False,-0.25427773008268684,1.0471975377213132
1.252374533796683,16:25:57.030881,16:24:30.285062,0,,NaN,NaN,NaN,NaN,NaN,NaN,NaN,NaN,NaN,NaN,NaN,NaN,,0.06445625,-0.03811962,0.037783206,-0.6044584,-0.67444384,0.4239758,-0.62503064,0.7314855,0.27251768,-0.49392998,-0.10027227,-0.8637005,,0.05749551,1.3275592,0.43761915,0.9967414,0.07924839,-0.015041819,0.043302737,-0.68302655,-0.72910875,-0.06805465,0.72608155,-0.68423253,,NaN,NaN,NaN,NaN,NaN,NaN,NaN,NaN,NaN,NaN,NaN,NaN,,-0.020484328,0.45609885,-0.32971528,0.64997715,0.700114,-0.2955842,-0.6542058,0.31755316,-0.6864217,-0.38670978,0.6395313,0.66442096,,NaN,NaN,NaN,NaN,NaN,NaN,NaN,,-1.3195988116844903,-0.08163700921342729,0.17021583990000003,0.8096128717937485,-0.06572215638717686,0.13567914551924373,0.8724206572231854,,0.0250542014123786,0.03181517060229164,0.08397132691999999,-0.11775085106328897,,-0.000103756785,-2.682209e-06,-3.4570694e-06,1.0,7.679686e-05,8.1498176e-05,-7.6800585e-05,1.0,7.599592e-06,-8.149445e-05,-7.659197e-06,1.0,436,1.36,0,2,0.977,False,-0.25481392954937654,1.046859576315857
1.3363812039606273,16:25:57.102568,16:24:30.285062,0,,NaN,NaN,NaN,NaN,NaN,NaN,NaN,NaN,NaN,NaN,NaN,NaN,,0.06447197,-0.038124673,0.037786186,-0.60444313,-0.6744381,0.42400664,-0.62501276,0.73149073,0.2725443,-0.4939712,-0.10027206,-0.863677,,0.05749551,1.3275592,0.43761915,0.9967414,0.07924839,-0.015041819,0.043302737,-0.68302655,-0.72910875,-0.06805465,0.72608155,-0.68423253,,NaN,NaN,NaN,NaN,NaN,NaN,NaN,NaN,NaN,NaN,NaN,NaN,,-0.020500422,0.4560974,-0.32971975,0.64996815,0.70010847,-0.29561728,-0.65423584,0.31755513,-0.6863922,-0.38667417,0.63953644,0.66443676,,NaN,NaN,NaN,NaN,NaN,NaN,NaN,,-1.319691484478981,-0.08166790014492419,0.17022102506,0.8096128717937485,-0.06572215638717686,0.13576082425938432,0.8729106894215883,,0.0250542014123786,0.03181517060229164,0.08397132691999999,-0.11775085106328897,,-0.000103756785,-2.682209e-06,-3.4570694e-06,1.0,7.679686e-05,8.1498176e-05,-7.6800585e-05,1.0,7.599592e-06,-8.149445e-05,-7.659197e-06,1.0,458,1.43,0,2,0.977,False,-0.2547543518308557,1.0470526971189749
1.4080671779811382,16:25:57.170759,16:24:30.436944,0,,0.12151244,0.005253345,0.033878207,-0.15347317,-0.961958,-0.22601527,-0.8282774,0.0004968196,0.560318,-0.5388901,0.27319714,-0.79684436,,0.06446934,-0.03812041,0.03778392,-0.604441,-0.6744888,0.42392886,-0.625016,0.73145723,0.27262706,-0.49396974,-0.10017535,-0.86368906,,0.05749551,1.3275592,0.43761915,0.9967414,0.07924839,-0.015041819,0.043302737,-0.68302655,-0.72910875,-0.06805465,0.72608155,-0.68423253,,-0.08312142,0.28950524,-0.063467,0.17693755,0.9406026,0.2897583,-0.9480233,0.24198602,-0.20662656,-0.26447093,-0.23813763,0.9345296,,-0.020497404,0.45609763,-0.32971516,0.64996576,0.7001447,-0.29553652,-0.6542362,0.31763098,-0.6863567,-0.3866775,0.6394591,0.6645093,,1.1681174063565767,0.40892642842306204,0.17305730758,-0.6154399841270789,-0.24854179307333618,0.19376618414846924,2.105668356536994,,-1.3196683162803584,-0.08164473194630152,0.17022232135,0.8096128717937485,-0.06572215638717686,0.1358425029995249,0.8727473453554541,,0.0250542014123786,0.03181517060229164,0.08397132691999999,-0.11775085106328897,,-0.000103756785,-2.682209e-06,-3.4570694e-06,1.0,7.679686e-05,8.1498176e-05,-7.6800585e-05,1.0,7.599592e-06,-8.149445e-05,-7.659197e-06,1.0,471,1.471,0,2,0.977,False,-0.2547543518308557,1.0474389387252105
1.4762662898283452,16:25:57.206712,16:24:30.436944,0,,0.12149304,0.0051421374,0.033876598,-0.14733648,-0.96693623,-0.20814975,-0.8290535,0.005962625,0.5591376,-0.5394093,0.25494865,-0.8025204,,0.06447905,-0.038126238,0.037788928,-0.6044325,-0.67449015,0.42393887,-0.6250032,0.7314578,0.27265453,-0.4939963,-0.10016185,-0.8636755,,0.05749551,1.3275592,0.43761915,0.9967414,0.07924839,-0.015041819,0.043302737,-0.68302655,-0.72910875,-0.06805465,0.72608155,-0.68423253,,-0.08310377,0.28943038,-0.06354964,0.17083976,0.9469213,0.27231205,-0.949177,0.23231399,-0.21235159,-0.26434216,-0.22219425,0.9384844,,-0.020507859,0.45609838,-0.3297218,0.6499613,0.70014423,-0.29554757,-0.6542548,0.31764334,-0.6863333,-0.3866536,0.6394535,0.66452855,,1.167924338034721,0.40845534171773434,0.17297693760000002,-0.6217306824316147,-0.2482685200738053,0.17647249165169893,2.0849236601379406,,-1.3197378208762265,-0.08167562287779842,0.17022232135,0.8096128717937485,-0.06572215638717686,0.1359241817396655,0.8725840012893198,,0.0250542014123786,0.03181517060229164,0.08397132691999999,-0.11775085106328897,,-0.000103756785,-2.682209e-06,-3.4570694e-06,1.0,7.679686e-05,8.1498176e-05,-7.6800585e-05,1.0,7.599592e-06,-8.149445e-05,-7.659197e-06,1.0,480,1.499,0,2,0.977,False,-0.25540970673458663,1.047294098122872
1.512212132802233,16:25:57.239473,16:24:30.436944,0,,0.1213699,0.0050812364,0.033977866,-0.14343679,-0.9723436,-0.18431956,-0.82903874,0.016340747,0.5589524,-0.54048187,0.23298243,-0.8084545,,0.06442638,-0.038093176,0.03777677,-0.60453767,-0.6744571,0.42384145,-0.6249985,0.7314937,0.2725689,-0.49387348,-0.100122064,-0.86375034,,0.057660777,1.3275597,0.43761796,0.9967486,0.07913414,-0.0151637755,0.04313601,-0.6830398,-0.72910625,-0.06805465,0.72608155,-0.68423253,,-0.083128385,0.28946665,-0.063660815,0.16688377,0.95400673,0.24904001,-0.95014304,0.22307983,-0.21786143,-0.26339707,-0.2002661,0.9436713,,-0.020605877,0.45609516,-0.32969204,0.6499271,0.700221,-0.29544094,-0.65421134,0.31761834,-0.6863863,-0.38678464,0.6393818,0.6645213,,1.1684803748016652,0.4082004915328849,0.17284212344000002,-0.6259244813013052,-0.24758533757497808,0.1523919249727349,2.05552172823377,,-1.319691484478981,-0.08171423654216954,0.17022491393000003,0.8096128717937485,-0.0658587928869423,0.13595392090322134,0.8724206572231854,,0.0250542014123786,0.03181517060229164,0.08397132691999999,-0.11775085106328897,,6.107986e-05,9.179115e-06,-5.4836273e-06,0.99999994,-3.765896e-05,-3.995374e-05,3.765151e-05,1.0,-3.784895e-06,3.9957464e-05,3.7252903e-06,1.0,493,1.54,0,2,0.977,False,-0.2551118181419816,1.0471975377213132
1.544964781962335,16:25:57.283791,16:24:30.564034,0,,0.12121481,0.0049871206,0.034272105,-0.13711591,-0.97926015,-0.14916,-0.8293836,0.03116519,0.5578096,-0.541592,0.20019546,-0.8164557,,0.064412616,-0.03808492,0.037775576,-0.6042756,-0.67439014,0.4243213,-0.62492454,0.73151755,0.27267453,-0.49428755,-0.10039821,-0.8634813,,0.057660777,1.3275597,0.43761796,0.9967486,0.07913414,-0.0151637755,0.04313601,-0.6830398,-0.72910625,-0.06805465,0.72608155,-0.68423253,,-0.082995616,0.28962812,-0.0639361,0.16065016,0.9634205,0.21450509,-0.95145315,0.20896973,-0.2259835,-0.26254222,-0.16778727,0.9502205,,-0.020591876,0.4560994,-0.3296853,0.6497257,0.70019287,-0.29595006,-0.6545726,0.3173777,-0.6861531,-0.3865116,0.6395321,0.6645355,,1.1699940304450132,0.408169600601388,0.17257249512000003,-0.6328442494362945,-0.24785861057450898,0.116757793858421,1.9758098239602417,,-1.3195910889516163,-0.08168334561067264,0.17021972877000002,0.8096128717937485,-0.06531224688788054,0.13558992802857622,0.8725840012893198,,0.0250542014123786,0.03181517060229164,0.08397132691999999,-0.11775085106328897,,6.107986e-05,9.179115e-06,-5.4836273e-06,0.99999994,-3.765896e-05,-3.995374e-05,3.765151e-05,1.0,-3.784895e-06,3.9957464e-05,3.7252903e-06,1.0,506,1.581,0,2,0.977,False,-0.254218152364166,1.0471009773197542
1.5892874258570373,16:25:57.321756,16:24:30.564034,0,,0.120968014,0.0049286187,0.034500062,-0.13055639,-0.9850754,-0.11216687,-0.8303297,0.046817042,0.5553023,-0.5417633,0.16563377,-0.8240497,,0.06441286,-0.038089823,0.037774444,-0.6042874,-0.6743434,0.42437875,-0.62492704,0.73154867,0.27258542,-0.49426997,-0.10048586,-0.86348116,,0.057660777,1.3275597,0.43761796,0.9967486,0.07913414,-0.0151637755,0.04313601,-0.6830398,-0.72910625,-0.06805465,0.72608155,-0.68423253,,-0.0827662,0.289768,-0.064146094,0.15410359,0.9718723,0.17809065,-0.9524791,0.19405286,-0.23479135,-0.2627462,-0.13344544,0.95559233,,-0.020592092,0.45609614,-0.32968917,0.6497349,0.7001593,-0.29600927,-0.6545569,0.31730917,-0.6861998,-0.3865227,0.6396029,0.66446096,,1.1718629318005755,0.4076830684303119,0.17237675533000002,-0.6399737075147683,-0.24908833907239794,0.07888147468478118,1.9171693042180356,,-1.3195910889516163,-0.08171423654216954,0.17021972877000002,0.8096128717937485,-0.06531224688788054,0.13550824928843563,0.8724206572231854,,0.0250542014123786,0.03181517060229164,0.08397132691999999,-0.11775085106328897,,6.107986e-05,9.179115e-06,-5.4836273e-06,0.99999994,-3.765896e-05,-3.995374e-05,3.765151e-05,1.0,-3.784895e-06,3.9957464e-05,3.7252903e-06,1.0,515,1.61,0,2,0.977,False,-0.2543373078012081,1.0471975377213132
1.6272589119616896,16:25:57.353726,16:24:30.564034,0,,0.12083638,0.004838884,0.034665227,-0.12561168,-0.9886978,-0.08184287,-0.8323225,0.06013196,0.55102026,-0.5398712,0.13733429,-0.83046883,,0.06441112,-0.038097005,0.037771463,-0.6043097,-0.6743647,0.4243134,-0.62493426,0.7315364,0.27260172,-0.49423367,-0.10043216,-0.86350816,,0.057660777,1.3275597,0.43761796,0.9967486,0.07913414,-0.0151637755,0.04313601,-0.6830398,-0.72910625,-0.06805465,0.72608155,-0.68423253,,-0.08264781,0.28983575,-0.06433065,0.1490076,0.97766465,0.14821786,-0.95261025,0.18212678,-0.24364632,-0.26519886,-0.1048887,0.95847166,,-0.020590138,0.4560904,-0.32969436,0.6497518,0.7001727,-0.29594043,-0.6545257,0.31735343,-0.6862091,-0.3865472,0.63956624,0.664482,,1.1729363916700928,0.40749000010845626,0.17220564505000002,-0.6452159561018814,-0.25236761506676847,0.04806722091586463,1.8426844100608042,,-1.3195756434858676,-0.08176057293941488,0.17021972877000002,0.8096128717937485,-0.06531224688788054,0.13558992802857622,0.8725840012893198,,0.0250542014123786,0.03181517060229164,0.08397132691999999,-0.11775085106328897,,6.107986e-05,9.179115e-06,-5.4836273e-06,0.99999994,-3.765896e-05,-3.995374e-05,3.765151e-05,1.0,-3.784895e-06,3.9957464e-05,3.7252903e-06,1.0,528,1.651,0,2,0.977,False,-0.25356279746043464,1.0469561367174158
1.6592066229786724,16:25:57.391762,16:24:30.564034,0,,0.12064715,0.0046735555,0.034868628,-0.11883825,-0.99180365,-0.04693653,-0.83432484,0.07411726,0.546268,-0.5383118,0.10407786,-0.8362944,,0.06440899,-0.038089808,0.03777349,-0.6042942,-0.6743852,0.42430282,-0.62493217,0.73152167,0.2726461,-0.49425524,-0.10040203,-0.8634994,,0.057660777,1.3275597,0.43761796,0.9967486,0.07913414,-0.0151637755,0.04313601,-0.6830398,-0.72910625,-0.06805465,0.72608155,-0.68423253,,-0.08247586,0.28988355,-0.0646002,0.14211044,0.98329604,0.11372549,-0.9530685,0.16695242,-0.25256148,-0.26732945,-0.07249657,0.9608742,,-0.020588122,0.4560957,-0.32968903,0.6497395,0.7001886,-0.29593003,-0.6545455,0.3173756,-0.68618,-0.3865344,0.6395379,0.6645167,,1.174187474395717,0.40691851787576366,0.17195286850000002,-0.6523454141803553,-0.2552369815618427,0.012916455168971497,1.7304670366265544,,-1.3195679207529936,-0.08171423654216954,0.17021843248000001,0.8096128717937485,-0.06531224688788054,0.13558992802857622,0.8725840012893198,,0.0250542014123786,0.03181517060229164,0.08397132691999999,-0.11775085106328897,,6.107986e-05,9.179115e-06,-5.4836273e-06,0.99999994,-3.765896e-05,-3.995374e-05,3.765151e-05,1.0,-3.784895e-06,3.9957464e-05,3.7252903e-06,1.0,541,1.692,0,2,0.977,False,-0.25302659799374494,1.0470044169181953
1.6972507408354431,16:25:57.431850,16:24:30.564034,0,,0.12048757,0.004481882,0.035010666,-0.11060496,-0.993862,-0.002232004,-0.8345527,0.09165572,0.54325044,-0.53971136,0.061948914,-0.8395678,,0.064410225,-0.038093608,0.03777331,-0.6043008,-0.6743738,0.42431158,-0.6249323,0.73152983,0.27262372,-0.4942469,-0.10041931,-0.8635022,,0.057660777,1.3275597,0.43761796,0.9967486,0.07913414,-0.0151637755,0.04313601,-0.6830398,-0.72910625,-0.06805465,0.72608155,-0.68423253,,-0.08232969,0.289867,-0.06484665,0.13399123,0.98855567,0.06931154,-0.9545923,0.14753455,-0.25881875,-0.26608258,-0.031484812,0.9634359,,-0.02058942,0.4560937,-0.32969224,0.64974487,0.7001798,-0.2959389,-0.6545375,0.3173628,-0.6861935,-0.38653883,0.63955384,0.66449875,,1.1748979658201457,0.4059995126637309,0.17170786969000001,-0.6611523918067053,-0.25414388956371925,-0.03199972899636294,1.5635294010373209,,-1.3195756434858676,-0.0817374047407922,0.17021843248000001,0.8096128717937485,-0.06531224688788054,0.13558992802857617,0.8729106894215883,,0.0250542014123786,0.03181517060229164,0.08397132691999999,-0.11775085106328897,,6.107986e-05,9.179115e-06,-5.4836273e-06,0.99999994,-3.765896e-05,-3.995374e-05,3.765151e-05,1.0,-3.784895e-06,3.9957464e-05,3.7252903e-06,1.0,550,1.72,0,2,0.977,False,-0.2513584218751568,1.0469078565166363
1.7373534368816763,16:25:57.467237,16:24:30.564034,0,,0.12043418,0.004353896,0.035076827,-0.10769431,-0.9940301,0.017497707,-0.83603394,0.1000731,0.5394743,-0.53800476,0.043469645,-0.8418203,,0.064412326,-0.03809383,0.03777474,-0.60429627,-0.67436904,0.42432553,-0.62492895,0.73153293,0.27262312,-0.4942568,-0.100428194,-0.86349547,,0.057660777,1.3275597,0.43761796,0.9967486,0.07913414,-0.0151637755,0.04313601,-0.6830398,-0.72910625,-0.06805465,0.72608155,-0.68423253,,-0.08228311,0.28983253,-0.06498896,0.1309454,0.99014175,0.049725845,-0.9544362,0.13947247,-0.26381615,-0.26815075,-0.012914638,0.9632904,,-0.020591695,0.4560946,-0.32969287,0.6497418,0.7001764,-0.29595363,-0.6545451,0.31735584,-0.6861895,-0.38653105,0.639561,0.6644964,,1.1752223206008632,0.4054820895611579,0.17152509280000003,-0.6659752605068493,-0.2579697115571516,-0.05926451902515234,1.4444515768254313,,-1.3195910889516163,-0.0817374047407922,0.17021843248000001,0.8096128717937485,-0.06531224688788054,0.13558992802857617,0.8729106894215883,,0.0250542014123786,0.03181517060229164,0.08397132691999999,-0.11775085106328897,,6.107986e-05,9.179115e-06,-5.4836273e-06,0.99999994,-3.765896e-05,-3.995374e-05,3.765151e-05,1.0,-3.784895e-06,3.9957464e-05,3.7252903e-06,1.0,563,1.761,0,2,0.977,False,-0.24974982347508856,1.0471975377213132
1.7727346259634942,16:25:57.504675,16:24:30.782648,0,,0.12021309,0.004109323,0.035185874,-0.09909767,-0.9932072,0.06098416,-0.83817613,0.116346754,0.5328454,-0.53632116,0.0016882755,-0.8440123,,0.06440835,-0.038091313,0.037774205,-0.6042971,-0.67441684,0.42424834,-0.62493277,0.73150164,0.2726985,-0.4942508,-0.10033581,-0.86350965,,0.057660777,1.3275597,0.43761796,0.9967486,0.07913414,-0.0151637755,0.04313601,-0.6830398,-0.72910625,-0.06805465,0.72608155,-0.68423253,,-0.08207416,0.2897586,-0.065256275,0.12221874,0.9924826,0.006392606,-0.9549698,0.1193489,-0.27164027,-0.2703612,0.027094789,0.9623776,,-0.02058762,0.45609576,-0.32969075,0.64974177,0.7002104,-0.29587334,-0.65454155,0.31742853,-0.68615925,-0.38653716,0.63948774,0.66456336,,1.1759250892924176,0.40440090695876646,0.17133453817000002,-0.6726853386983541,-0.25865289405597874,-0.09382928776711202,1.2677132972681413,,-1.3195679207529936,-0.08172195927504376,0.17021713619,0.8096128717937485,-0.06531224688788054,0.13567160676871676,0.872747345355454,,0.0250542014123786,0.03181517060229164,0.08397132691999999,-0.11775085106328897,,6.107986e-05,9.179115e-06,-5.4836273e-06,0.99999994,-3.765896e-05,-3.995374e-05,3.765151e-05,1.0,-3.784895e-06,3.9957464e-05,3.7252903e-06,1.0,576,1.802,0,2,0.977,False,-0.12648352385507033,1.0471009773197542
1.8101361049339175,16:25:57.545473,16:24:30.782648,0,,0.12004009,0.00400351,0.035286546,-0.09452145,-0.9916536,0.08768627,-0.83810055,0.1268009,0.5305741,-0.53726435,-0.023339283,-0.84309095,,0.064410284,-0.038094845,0.037773073,-0.6043037,-0.6744054,0.4242571,-0.624933,0.73150975,0.27267614,-0.49424255,-0.10035309,-0.8635124,,0.057660777,1.3275597,0.43761796,0.9967486,0.07913414,-0.0151637755,0.04313601,-0.6830398,-0.72910625,-0.06805465,0.72608155,-0.68423253,,-0.08191031,0.2897694,-0.065412134,0.117720716,0.9928384,-0.020342903,-0.955804,0.10772444,-0.27355835,-0.26940778,0.051647313,0.96164024,,-0.020589475,0.4560929,-0.3296932,0.6497472,0.70020163,-0.29588223,-0.65453357,0.3174157,-0.6861728,-0.38654163,0.6395037,0.6645454,,1.1767823126414565,0.4035977427398471,0.1711880574,-0.6775082073984982,-0.2578330750573861,-0.12055331329412985,1.1234804868715726,,-1.3195756434858676,-0.08174512747366644,0.17021843248000001,0.8096128717937485,-0.06531224688788054,0.13567160676871676,0.872747345355454,,0.0250542014123786,0.03181517060229164,0.08397132691999999,-0.11775085106328897,,6.107986e-05,9.179115e-06,-5.4836273e-06,0.99999994,-3.765896e-05,-3.995374e-05,3.765151e-05,1.0,-3.784895e-06,3.9957464e-05,3.7252903e-06,1.0,585,1.831,0,2,0.977,False,0.058147825841611045,1.0469078565166363
1.850954993860796,16:25:57.579166,16:24:30.782648,0,,0.119754076,0.0038594455,0.035439074,-0.08816561,-0.9882942,0.124504656,-0.8383811,0.14112002,0.5265,-0.537907,-0.05796316,-0.8410092,,0.06441435,-0.038093906,0.037776053,-0.6044196,-0.67427945,0.42429224,-0.6247662,0.7316396,0.27270994,-0.49431175,-0.100252226,-0.86348444,,0.057660777,1.3275597,0.43761796,0.9967486,0.07913414,-0.0151637755,0.04313601,-0.6830398,-0.72910625,-0.06805465,0.72608155,-0.68423253,,-0.08163796,0.28979763,-0.065637656,0.111420915,0.9921212,-0.05727904,-0.9567256,0.09149781,-0.27623233,-0.26881504,0.08557838,0.95938253,,-0.020593889,0.45609552,-0.32969338,0.6498756,0.7000665,-0.29591995,-0.6545063,0.31755006,-0.6861366,-0.38637188,0.6395849,0.664566,,1.178272800086182,0.4023698282128454,0.170980651,-0.684218285590003,-0.2575598020578552,-0.15785829712533797,0.9217505651957377,,-1.3196065344173646,-0.0817374047407922,0.17021843248000001,0.8098225617372331,-0.06531224688788054,0.13567160676871676,0.872747345355454,,0.0250542014123786,0.03181517060229164,0.08397132691999999,-0.11775085106328897,,6.107986e-05,9.179115e-06,-5.4836273e-06,0.99999994,-3.765896e-05,-3.995374e-05,3.765151e-05,1.0,-3.784895e-06,3.9957464e-05,3.7252903e-06,1.0,598,1.872,0,2,0.977,False,0.22180781861888965,1.0469078565166363
1.8846434438601136,16:25:57.623528,16:24:30.908918,0,,0.1194831,0.0037341565,0.03547299,-0.08441334,-0.98514354,0.14955442,-0.8409535,0.15094286,0.51962817,-0.5344825,-0.081904754,-0.8412016,,0.06441434,-0.038092803,0.03777474,-0.6037796,-0.67484736,0.42430043,-0.62556386,0.73102874,0.2725194,-0.49408484,-0.10088539,-0.86354053,,0.057660777,1.3275597,0.43761796,0.9967486,0.07913414,-0.0151637755,0.04313601,-0.6830398,-0.72910625,-0.06805465,0.72608155,-0.68423253,,-0.081372075,0.28974986,-0.065769166,0.10739867,0.9907984,-0.082364865,-0.9560601,0.0801914,-0.28199,-0.27279028,0.10903111,0.95587534,,-0.020593662,0.45609486,-0.3296918,0.6491906,0.70069945,-0.29592532,-0.6547381,0.31677505,-0.68627363,-0.3871298,0.639276,0.66442204,,1.1794698236816867,0.40108785455572415,0.17087824409000002,-0.6879927045727244,-0.26165889705081846,-0.18432850016575056,0.7358650179349281,,-1.3195988116844903,-0.08172968200791798,0.17021972877000002,0.8087741120198105,-0.06531224688788054,0.13558992802857622,0.8725840012893198,,0.0250542014123786,0.03181517060229164,0.08397132691999999,-0.11775085106328897,,6.107986e-05,9.179115e-06,-5.4836273e-06,0.99999994,-3.765896e-05,-3.995374e-05,3.765151e-05,1.0,-3.784895e-06,3.9957464e-05,3.7252903e-06,1.0,611,1.913,0,2,0.977,False,0.3946427800484069,1.0471975377213132
1.9290205319412053,16:25:57.659462,16:24:30.908918,0,,0.11926025,0.0036459118,0.035523295,-0.081029594,-0.98271155,0.16646995,-0.84008527,0.15721636,0.51917213,-0.5363682,-0.09778065,-0.83830076,,0.06442142,-0.038094338,0.037777543,-0.60376906,-0.6748302,0.42434284,-0.6255543,0.7310403,0.27251017,-0.4941099,-0.100916326,-0.86352265,,0.057660777,1.3275597,0.43761796,0.9967486,0.07913414,-0.0151637755,0.04313601,-0.6830398,-0.72910625,-0.06805465,0.72608155,-0.68423253,,-0.08115473,0.2897371,-0.065881334,0.1041684,0.9895754,-0.09944591,-0.95701426,0.072519384,-0.28082848,-0.2706892,0.12442461,0.954592,,-0.0206011,0.45609584,-0.32969382,0.6491838,0.70068693,-0.29596996,-0.6547571,0.3167511,-0.68626666,-0.38710925,0.6393016,0.6644094,,1.180373383427971,0.39990627642596777,0.17077713347,-0.6915574336119613,-0.25933607655480595,-0.2018232438954371,0.5563498892533552,,-1.3196451480817357,-0.0817374047407922,0.17022102506,0.8087741120198105,-0.06531224688788054,0.13558992802857622,0.8725840012893198,,0.0250542014123786,0.03181517060229164,0.08397132691999999,-0.11775085106328897,,6.107986e-05,9.179115e-06,-5.4836273e-06,0.99999994,-3.765896e-05,-3.995374e-05,3.765151e-05,1.0,-3.784895e-06,3.9957464e-05,3.7252903e-06,1.0,620,1.942,0,2,0.977,False,0.46411039984393154,1.0471009773197542
1.9649652829393744,16:25:57.688376,16:24:30.908918,0,,0.119160265,0.0035946965,0.03551221,-0.08037898,-0.981445,0.17408316,-0.83993804,0.16072893,0.5183341,-0.5366966,-0.104555905,-0.83727235,,0.06442888,-0.038088705,0.037781656,-0.60384935,-0.67393774,0.42564487,-0.62456906,0.7318246,0.27266532,-0.49525678,-0.10119586,-0.86283267,,0.057660777,1.3275597,0.43761796,0.9967486,0.07913414,-0.0151637755,0.04313601,-0.6830398,-0.72910625,-0.06805465,0.72608155,-0.68423253,,-0.08105507,0.28969863,-0.06591781,0.10354459,0.9888391,-0.10712481,-0.95718557,0.06979526,-0.28093496,-0.27032268,0.13162762,0.95372945,,-0.020608902,0.45610124,-0.32969004,0.6494443,0.69986105,-0.2973493,-0.6553149,0.3167622,-0.68572885,-0.3857259,0.64020014,0.66434884,,1.1806282336128204,0.39925756686453295,0.17074731880000002,-0.692186503442415,-0.25865289405597874,-0.20997645624699152,0.4472360530756566,,-1.31965287081461,-0.08174512747366644,0.17022232135,0.8098225617372331,-0.064219154889757,0.13469858479900487,0.8725840012893198,,0.0250542014123786,0.03181517060229164,0.08397132691999999,-0.11775085106328897,,6.107986e-05,9.179115e-06,-5.4836273e-06,0.99999994,-3.765896e-05,-3.995374e-05,3.765151e-05,1.0,-3.784895e-06,3.9957464e-05,3.7252903e-06,1.0,633,1.983,0,2,0.977,False,0.5438253872250738,1.0470526971189749
1.9937524148263037,16:25:57.727881,16:24:30.908918,0,,0.11900142,0.0034799725,0.035419643,-0.076898664,-0.97909546,0.18830492,-0.8411126,0.16511668,0.5150399,-0.53536546,-0.118779756,-0.8362268,,0.06443517,-0.03808182,0.03778678,-0.6035373,-0.6732835,0.42712024,-0.6238575,0.73234785,0.27288917,-0.49653238,-0.10176344,-0.86203235,,0.057660777,1.3275597,0.43761796,0.9967486,0.07913414,-0.0151637755,0.04313601,-0.6830398,-0.72910625,-0.06805465,0.72608155,-0.68423253,,-0.0808921,0.2895596,-0.06595054,0.0999616,0.9875529,-0.121437065,-0.9571256,0.062089138,-0.28294083,-0.27187914,0.14451374,0.9514187,,-0.020615656,0.4561082,-0.32968566,0.64932674,0.69930357,-0.29891357,-0.6561538,0.3164263,-0.6850814,-0.38449576,0.640975,0.66431475,,1.1807749655374307,0.39795242500878897,0.17073176332,-0.6955415425381672,-0.25960934955433684,-0.2246338128076828,0.34171578635291217,,-1.3196451480817357,-0.08175285020654066,0.17022232135,0.8104516315676866,-0.0628527898921026,0.13374776324232174,0.8729106894215883,,0.0250542014123786,0.03181517060229164,0.08397132691999999,-0.11775085106328897,,6.107986e-05,9.179115e-06,-5.4836273e-06,0.99999994,-3.765896e-05,-3.995374e-05,3.765151e-05,1.0,-3.784895e-06,3.9957464e-05,3.7252903e-06,1.0,646,2.024,0,2,0.977,False,0.574269601389322,1.047390658524431
2.0333875520154834,16:25:57.770904,16:24:30.908918,0,,0.118817195,0.0033328384,0.03527075,-0.07371159,-0.9766764,0.2016673,-0.84240377,0.16921231,0.51158893,-0.5337814,-0.13217525,-0.8352288,,0.0644415,-0.038084175,0.037788928,-0.60359675,-0.67344236,0.4267858,-0.62387156,0.7322512,0.27311617,-0.4964425,-0.1014075,-0.8621261,,0.057660777,1.3275597,0.43761796,0.9967486,0.07913414,-0.0151637755,0.04313601,-0.6830398,-0.72910625,-0.06805465,0.72608155,-0.68423253,,-0.08070046,0.2893581,-0.065971255,0.096651666,0.98613524,-0.13489139,-0.9569443,0.054798946,-0.28505218,-0.2737081,0.15663432,0.9489729,,-0.020622285,0.45610836,-0.3296882,0.649373,0.69941,-0.29856384,-0.65607417,0.31671453,-0.6850245,-0.3845535,0.64071643,0.6645307,,1.1807363518730596,0.3962611465093338,0.17073176332,-0.6984772017469506,-0.2604291685529295,-0.23866747861080548,0.1822919778058556,,-1.319691484478981,-0.08176057293941488,0.17022361764000002,0.8104516315676866,-0.06298942639186804,0.13418589610658035,0.8729106894215883,,0.0250542014123786,0.03181517060229164,0.08397132691999999,-0.11775085106328897,,6.107986e-05,9.179115e-06,-5.4836273e-06,0.99999994,-3.765896e-05,-3.995374e-05,3.765151e-05,1.0,-3.784895e-06,3.9957464e-05,3.7252903e-06,1.0,655,2.052,0,2,0.977,False,0.6052500150202591,1.047680339729108
2.0764103799592704,16:25:57.799746,16:24:30.908918,0,,0.11872782,0.0032757074,0.035198897,-0.07336163,-0.9759758,0.2051567,-0.84267116,0.17068528,0.51065826,-0.53340745,-0.13541692,-0.8349485,,0.06444047,-0.03808291,0.03778857,-0.60346836,-0.6735673,0.42677027,-0.62403214,0.73212165,0.2730967,-0.49639678,-0.10151313,-0.86214,,0.057660777,1.3275597,0.43761796,0.9967486,0.07913414,-0.0151637755,0.04313601,-0.6830398,-0.72910625,-0.06805465,0.72608155,-0.68423253,,-0.08060726,0.2892702,-0.06597097,0.09627228,0.98568517,-0.13840666,-0.9568601,0.05335271,-0.28560853,-0.27413574,0.159932,0.94829917,,-0.020621171,0.45610872,-0.329687,0.64923555,0.6995448,-0.29854703,-0.6561208,0.316576,-0.68504393,-0.38470608,0.64063776,0.66451824,,1.1807286291401853,0.3954734277561629,0.17074083735,-0.6986868916904352,-0.26029253205316405,-0.2426994760412489,0.10666367518568431,,-1.3196837617461068,-0.08175285020654066,0.17022361764000002,0.810241941624202,-0.06298942639186804,0.13418589610658035,0.8729106894215883,,0.0250542014123786,0.03181517060229164,0.08397132691999999,-0.11775085106328897,,6.107986e-05,9.179115e-06,-5.4836273e-06,0.99999994,-3.765896e-05,-3.995374e-05,3.765151e-05,1.0,-3.784895e-06,3.9957464e-05,3.7252903e-06,1.0,668,2.093,0,2,0.977,False,0.6366474726808438,1.0473423783236515
2.1052066239062697,16:25:57.835117,16:24:31.099343,0,,0.118531585,0.0031747967,0.03503102,-0.07062712,-0.9746877,0.21212178,-0.8433901,0.17190036,0.50906116,-0.5326395,-0.14294791,-0.8341829,,0.06443775,-0.038084816,0.037786365,-0.6034182,-0.6737599,0.42653716,-0.62421924,0.7319536,0.27311975,-0.49622256,-0.101447314,-0.86224806,,0.057660777,1.3275597,0.43761796,0.9967486,0.07913414,-0.0151637755,0.04313601,-0.6830398,-0.72910625,-0.06805465,0.72608155,-0.68423253,,-0.08040156,0.28908607,-0.0659454,0.0934797,0.98494196,-0.14543335,-0.9568827,0.0485289,-0.2863921,-0.27502188,0.1659345,0.9470104,,-0.02061822,0.4561062,-0.32968792,0.6491574,0.6997223,-0.2983009,-0.6560572,0.31657898,-0.6851035,-0.38494638,0.64044243,0.6645674,,1.1807826882703047,0.39377442652383354,0.1707862075,-0.7012031710122495,-0.26015589555339863,-0.250325338037877,0.04050932840130128,,-1.3196683162803584,-0.08176057293941488,0.17022361764000002,0.8100322516807175,-0.06312606289163349,0.13437899275041734,0.8727473453554541,,0.0250542014123786,0.03181517060229164,0.08397132691999999,-0.11775085106328897,,6.107986e-05,9.179115e-06,-5.4836273e-06,0.99999994,-3.765896e-05,-3.995374e-05,3.765151e-05,1.0,-3.784895e-06,3.9957464e-05,3.7252903e-06,1.0,677,2.122,0,2,0.977,False,0.6573209410076424,1.0478251803314462
2.140604596817866,16:25:57.869664,16:24:31.099343,0,,0.11835389,0.0031338483,0.034873694,-0.068783134,-0.97392815,0.2161779,-0.84390366,0.17236963,0.5080505,-0.5320672,-0.14748801,-0.8337577,,0.06443979,-0.038083788,0.037788033,-0.60341066,-0.67379296,0.4264954,-0.6242152,0.7319322,0.2731862,-0.49623674,-0.10138145,-0.8622476,,0.057660777,1.3275597,0.43761796,0.9967486,0.07913414,-0.0151637755,0.04313601,-0.6830398,-0.72910625,-0.06805465,0.72608155,-0.68423253,,-0.08021409,0.28894916,-0.06588122,0.09159232,0.9845065,-0.14952524,-0.9568767,0.045445245,-0.28691754,-0.275677,0.16935666,0.9462138,,-0.020620443,0.45610788,-0.32968757,0.649152,0.6997456,-0.29825792,-0.6560687,0.31663114,-0.6850683,-0.3849358,0.6403912,0.6646229,,1.180960311126412,0.3923766118735989,0.17086787377,-0.7028806905601256,-0.26001925905363316,-0.2550924441295855,-0.013557557489145167,,-1.3196837617461068,-0.08175285020654066,0.17022361764000002,0.8100322516807175,-0.06312606289163349,0.1344606714905579,0.8725840012893198,,0.0250542014123786,0.03181517060229164,0.08397132691999999,-0.11775085106328897,,6.107986e-05,9.179115e-06,-5.4836273e-06,0.99999994,-3.765896e-05,-3.995374e-05,3.765151e-05,1.0,-3.784895e-06,3.9957464e-05,3.7252903e-06,1.0,690,2.163,0,2,0.977,False,0.6919951731868834,1.0472458179220927
2.1751678709406406,16:25:57.905174,16:24:31.099343,0,,0.11810365,0.0031201094,0.034572035,-0.06737509,-0.973606,0.21806434,-0.8451771,0.17184368,0.5061081,-0.53022283,-0.15020393,-0.83444756,,0.06443985,-0.038085025,0.037787676,-0.60341364,-0.6738247,0.42644098,-0.62421584,0.731912,0.27323863,-0.49623227,-0.101315305,-0.86225796,,0.057660777,1.3275597,0.43761796,0.9967486,0.07913414,-0.0151637755,0.04313601,-0.6830398,-0.72910625,-0.06805465,0.72608155,-0.68423253,,-0.07994381,0.28872636,-0.065704815,0.090039164,0.9843646,-0.15139104,-0.9564185,0.043065816,-0.2888061,-0.27777073,0.17079706,0.9453422,,-0.020620497,0.45610705,-0.32968852,0.6491543,0.6997676,-0.2982013,-0.65606475,0.31668395,-0.6850477,-0.3849386,0.640341,0.66466963,,1.1810915975852738,0.39034553312767784,0.17107268759000002,-0.7039291402775483,-0.2608390780522258,-0.25826283749401346,-0.06746109931345734,,-1.3196837617461068,-0.08176057293941488,0.17022361764000002,0.8100322516807175,-0.06312606289163349,0.1345423502306985,0.872747345355454,,0.0250542014123786,0.03181517060229164,0.08397132691999999,-0.11775085106328897,,6.107986e-05,9.179115e-06,-5.4836273e-06,0.99999994,-3.765896e-05,-3.995374e-05,3.765151e-05,1.0,-3.784895e-06,3.9957464e-05,3.7252903e-06,1.0,703,2.204,0,2,0.977,False,0.7211286775436689,1.047294098122872
2.2106541357934475,16:25:57.947610,16:24:31.099343,0,,0.1178862,0.0031284094,0.034231097,-0.06588379,-0.9733702,0.21956736,-0.84757507,0.170713,0.50246745,-0.5265699,-0.15299536,-0.8362516,,0.06443871,-0.03808598,0.037786722,-0.6036743,-0.6735851,0.4264507,-0.6238992,0.73216426,0.27328598,-0.4963134,-0.10108653,-0.86223817,,0.057660777,1.3275597,0.43761796,0.9967486,0.07913414,-0.0151637755,0.04313601,-0.6830398,-0.72910625,-0.06805465,0.72608155,-0.68423253,,-0.07970317,0.28848785,-0.0654839,0.0882592,0.9843042,-0.15282512,-0.9553753,0.040228948,-0.29264256,-0.28190133,0.17183375,0.9439305,,-0.020619255,0.45610586,-0.32968903,0.6494316,0.6995055,-0.29821238,-0.6559641,0.31697452,-0.6850097,-0.38464233,0.64048356,0.6647038,,1.1810838748523995,0.38849207723786394,0.17132546414000002,-0.7049775899949708,-0.2638450810470655,-0.2609574042415475,-0.10110997693711887,,-1.3196760390132327,-0.0817682956722891,0.17022361764000002,0.8104516315676866,-0.06312606289163349,0.1345423502306985,0.872747345355454,,0.0250542014123786,0.03181517060229164,0.08397132691999999,-0.11775085106328897,,6.107986e-05,9.179115e-06,-5.4836273e-06,0.99999994,-3.765896e-05,-3.995374e-05,3.765151e-05,1.0,-3.784895e-06,3.9957464e-05,3.7252903e-06,1.0,712,2.232,0,2,0.977,False,0.7358443740183644,1.0471009773197542
2.2531120048370212,16:25:57.983726,16:24:31.265705,0,,0.11767097,0.0031650662,0.03384033,-0.06330335,-0.97342086,0.2201011,-0.8509221,0.16788197,0.49774212,-0.52146363,-0.15578014,-0.8389329,,0.0644397,-0.038084816,0.037787616,-0.6036691,-0.67358565,0.42645705,-0.62389684,0.73216367,0.273293,-0.4963227,-0.101086676,-0.86223274,,0.057660777,1.3275597,0.43761796,0.9967486,0.07913414,-0.0151637755,0.04313601,-0.6830398,-0.72910625,-0.06805465,0.72608155,-0.68423253,,-0.07946081,0.2882313,-0.06520858,0.08527658,0.9845011,-0.15324946,-0.95393384,0.03627012,-0.29781666,-0.28764248,0.17158662,0.9422419,,-0.020620339,0.4561071,-0.32968834,0.6494277,0.69950616,-0.29821923,-0.6559718,0.31697416,-0.68500245,-0.38463566,0.640483,0.66470814,,1.181060706653777,0.3866463440809243,0.17163787003000003,-0.7070744894298162,-0.2686273585388559,-0.2624485744614499,-0.11450419036012971,,-1.3196837617461068,-0.08176057293941488,0.17022361764000002,0.8104516315676866,-0.06312606289163349,0.13454235023069847,0.8730740334877226,,0.0250542014123786,0.03181517060229164,0.08397132691999999,-0.11775085106328897,,6.107986e-05,9.179115e-06,-5.4836273e-06,0.99999994,-3.765896e-05,-3.995374e-05,3.765151e-05,1.0,-3.784895e-06,3.9957464e-05,3.7252903e-06,1.0,725,2.273,0,2,0.977,False,0.7391807262555421,1.0472458179220927
2.289233351824805,16:25:58.016195,16:24:31.265705,0,,0.11750254,0.0032398254,0.0335325,-0.06316213,-0.9736772,0.21900494,-0.85232276,0.16678762,0.49570936,-0.51918817,-0.15535286,-0.8404221,,0.06443871,-0.03808598,0.037786722,-0.6036743,-0.6735851,0.4264507,-0.6238992,0.73216426,0.27328598,-0.4963134,-0.10108653,-0.86223817,,0.057660777,1.3275597,0.43761796,0.9967486,0.07913414,-0.0151637755,0.04313601,-0.6830398,-0.72910625,-0.06805465,0.72608155,-0.68423253,,-0.07927026,0.2880599,-0.06495755,0.08495508,0.98470926,-0.15208633,-0.95318985,0.035864636,-0.3002379,-0.2901925,0.17047389,0.94166183,,-0.020619255,0.45610586,-0.32968903,0.6494316,0.6995055,-0.29821238,-0.6559641,0.31697452,-0.6850097,-0.38464233,0.64048356,0.6647038,,1.1810761521195254,0.38527169762931235,0.17191268351000003,-0.7068647994863316,-0.2702669965360412,-0.26241841945934186,-0.11221737343424987,,-1.3196760390132327,-0.0817682956722891,0.17022361764000002,0.8104516315676866,-0.06312606289163349,0.13454235023069847,0.8730740334877226,,0.0250542014123786,0.03181517060229164,0.08397132691999999,-0.11775085106328897,,6.107986e-05,9.179115e-06,-5.4836273e-06,0.99999994,-3.765896e-05,-3.995374e-05,3.765151e-05,1.0,-3.784895e-06,3.9957464e-05,3.7252903e-06,1.0,734,2.302,0,2,0.977,False,0.7547305107895315,1.0467147357135185
2.3216976849362254,16:25:58.051129,16:24:31.265705,0,,0.117344216,0.0033205897,0.033204824,-0.061344832,-0.9739887,0.21813485,-0.85460275,0.16415998,0.49265164,-0.51564616,-0.15619701,-0.8424438,,0.06443871,-0.03808598,0.037786722,-0.6036743,-0.67361987,0.4263957,-0.6238992,0.732142,0.27334577,-0.4963134,-0.10101609,-0.8622464,,0.057660777,1.3275597,0.43761796,0.9967486,0.07913414,-0.0151637755,0.04313601,-0.6830398,-0.72910625,-0.06805465,0.72608155,-0.68423253,,-0.0790883,0.28787735,-0.06468821,0.08285957,0.98503524,-0.15112866,-0.9521631,0.033491768,-0.30374947,-0.29414237,0.1690677,0.9406893,,-0.020619255,0.45610586,-0.32968903,0.6494316,0.6995299,-0.29815525,-0.6559641,0.31703046,-0.6849838,-0.38464233,0.64042926,0.66475606,,1.1810761521195254,0.38395111030782,0.17220953392000002,-0.7083326290907233,-0.27354627253041175,-0.26219475197484454,-0.09816978374670188,,-1.3196760390132327,-0.0817682956722891,0.17022361764000002,0.8104516315676866,-0.06312606289163349,0.13462402897083903,0.8729106894215883,,0.0250542014123786,0.03181517060229164,0.08397132691999999,-0.11775085106328897,,6.107986e-05,9.179115e-06,-5.4836273e-06,0.99999994,-3.765896e-05,-3.995374e-05,3.765151e-05,1.0,-3.784895e-06,3.9957464e-05,3.7252903e-06,1.0,747,2.343,0,2,0.977,False,0.7684929637678906,1.046859576315857
2.3566255518235266,16:25:58.087811,16:24:31.265705,0,,0.11711222,0.003428176,0.03271234,-0.06064357,-0.9742012,0.2173805,-0.85901165,0.16185057,0.48569894,-0.5083517,-0.15727785,-0.84666544,,0.06444123,-0.03808501,0.03778696,-0.60360193,-0.6735811,0.42655942,-0.62387395,0.7321626,0.27334842,-0.4964332,-0.1011257,-0.8621646,,0.057660777,1.3275597,0.43761796,0.9967486,0.07913414,-0.0151637755,0.04313601,-0.6830398,-0.72910625,-0.06805465,0.72608155,-0.68423253,,-0.07882102,0.28759354,-0.064293325,0.08158234,0.98528415,-0.15019809,-0.9497337,0.031152444,-0.3115052,-0.3022421,0.16806151,0.938299,,-0.020621758,0.45610625,-0.32968807,0.6493768,0.6995069,-0.29832846,-0.6560665,0.31693864,-0.68492824,-0.3845602,0.64049983,0.6647356,,1.181060706653777,0.38206676348650914,0.17265156881000002,-0.7083326290907233,-0.28065137051821465,-0.26309867767415673,-0.05798714347766909,,-1.3196837617461068,-0.0817682956722891,0.17022491393000003,0.8104516315676866,-0.06298942639186804,0.1345126110671426,0.8729106894215883,,0.0250542014123786,0.03181517060229164,0.08397132691999999,-0.11775085106328897,,6.107986e-05,9.179115e-06,-5.4836273e-06,0.99999994,-3.765896e-05,-3.995374e-05,3.765151e-05,1.0,-3.784895e-06,3.9957464e-05,3.7252903e-06,1.0,760,2.384,0,2,0.977,False,0.7900600978725043,1.0471009773197542
2.393315981840715,16:25:58.124801,16:24:31.383923,0,,0.116873026,0.0035645068,0.0321908,-0.059172913,-0.9757664,0.2106621,-0.8624699,0.15623175,0.48139095,-0.5026372,-0.15320441,-0.85081387,,0.064440176,-0.038084906,0.037786245,-0.6036042,-0.67358345,0.42655244,-0.6238756,0.732161,0.27334875,-0.4964283,-0.10112125,-0.8621679,,0.057660777,1.3275597,0.43761796,0.9967486,0.07913414,-0.0151637755,0.04313601,-0.6830398,-0.72910625,-0.06805465,0.72608155,-0.68423253,,-0.078544065,0.28730768,-0.063858114,0.07966273,0.9864708,-0.1432802,-0.94787073,0.030474583,-0.3171945,-0.3085367,0.16107967,0.9374745,,-0.02062062,0.4561058,-0.32968777,0.64937836,0.69950855,-0.29832113,-0.65606266,0.31694213,-0.68493026,-0.38456407,0.64049625,0.6647368,,1.1810066475236574,0.38007429840495927,0.17313119611000002,-0.7091713888646614,-0.28584355750930146,-0.25755793749144373,-0.0004900321984028788,,-1.3196760390132327,-0.0817682956722891,0.17022491393000003,0.8104516315676866,-0.06298942639186804,0.1345126110671426,0.8729106894215883,,0.0250542014123786,0.03181517060229164,0.08397132691999999,-0.11775085106328897,,6.107986e-05,9.179115e-06,-5.4836273e-06,0.99999994,-3.765896e-05,-3.995374e-05,3.765151e-05,1.0,-3.784895e-06,3.9957464e-05,3.7252903e-06,1.0,769,2.413,0,2,0.977,False,0.8555360105271199,1.047294098122872
2.4302917199674994,16:25:58.153884,16:24:31.383923,0,,0.116678864,0.0036893785,0.031787157,-0.0587632,-0.9775116,0.20252872,-0.86360353,0.15154342,0.48085704,-0.5007353,-0.14664781,-0.8530877,,0.06444194,-0.03808474,0.037785888,-0.60360193,-0.67365074,0.4264494,-0.62387395,0.7321179,0.273468,-0.4964332,-0.10098483,-0.86218107,,0.057660777,1.3275597,0.43761796,0.9967486,0.07913414,-0.0151637755,0.04313601,-0.6830398,-0.72910625,-0.06805465,0.72608155,-0.68423253,,-0.078320384,0.2870998,-0.06350743,0.07910368,0.9876804,-0.1350187,-0.94723576,0.03226866,-0.31890926,-0.31062353,0.15312144,0.93811876,,-0.020622315,0.45610535,-0.3296873,0.6493768,0.6995556,-0.2982142,-0.6560665,0.31705055,-0.68487644,-0.3845602,0.64039123,0.6648402,,1.1809448656606636,0.3784448017684979,0.17350971279000002,-0.7091713888646614,-0.28680001300765945,-0.2503253916944645,0.053250165559774965,,-1.3196837617461068,-0.0817682956722891,0.17022621022,0.8104516315676866,-0.06298942639186804,0.13467596854742372,0.8725840012893198,,0.0250542014123786,0.03181517060229164,0.08397132691999999,-0.11775085106328897,,6.107986e-05,9.179115e-06,-5.4836273e-06,0.99999994,-3.765896e-05,-3.995374e-05,3.765151e-05,1.0,-3.784895e-06,3.9957464e-05,3.7252903e-06,1.0,782,2.454,0,2,0.977,False,0.8964063254325483,1.0469078565166363
2.459392435848713,16:25:58.199495,16:24:31.383923,0,,0.11640291,0.0038231164,0.0311971,-0.057923097,-0.97963023,0.19227442,-0.8679762,0.1445697,0.47509688,-0.49321628,-0.13937053,-0.8586697,,0.06444126,-0.03808398,0.03778243,-0.6036064,-0.6736207,0.4264905,-0.62387735,0.7321371,0.27340883,-0.4964234,-0.10104641,-0.86217946,,0.057660777,1.3275597,0.43761796,0.9967486,0.07913414,-0.0151637755,0.04313601,-0.6830398,-0.72910625,-0.06805465,0.72608155,-0.68423253,,-0.07800205,0.28676292,-0.063030586,0.077673,0.9891749,-0.12449848,-0.9446212,0.033082057,-0.32649094,-0.318838,0.14296344,0.9369652,,-0.020621153,0.4561027,-0.32968512,0.6493799,0.69953465,-0.29825664,-0.65605885,0.31700152,-0.6849064,-0.38456798,0.6404384,0.6647903,,1.1808753610647955,0.3761820410363501,0.17404248798000002,-0.7091713888646614,-0.293768474495697,-0.2417026439608867,0.14798972391765702,,-1.3196683162803584,-0.0817682956722891,0.17022880280000002,0.8104516315676866,-0.06298942639186804,0.1345942898072832,0.8724206572231854,,0.0250542014123786,0.03181517060229164,0.08397132691999999,-0.11775085106328897,,6.107986e-05,9.179115e-06,-5.4836273e-06,0.99999994,-3.765896e-05,-3.995374e-05,3.765151e-05,1.0,-3.784895e-06,3.9957464e-05,3.7252903e-06,1.0,791,2.482,0,2,0.977,False,0.9480602073902844,1.0468112961150775
2.5049808139447123,16:25:58.222992,16:24:31.383923,0,,0.11618667,0.003919691,0.030716926,-0.05699826,-0.98131496,0.1837721,-0.87166876,0.13866046,0.4700712,-0.48676983,-0.13339517,-0.86328495,,0.064441636,-0.03808334,0.03777963,-0.6036088,-0.6736231,0.42648357,-0.623879,0.73213553,0.2734091,-0.4964185,-0.101042,-0.86218286,,0.057660777,1.3275597,0.43761796,0.9967486,0.07913414,-0.0151637755,0.04313601,-0.6830398,-0.72910625,-0.06805465,0.72608155,-0.68423253,,-0.07775152,0.28648022,-0.06265117,0.07624328,0.9903443,-0.115780644,-0.94235015,0.03362513,-0.33293483,-0.32582697,0.13448995,0.93581474,,-0.020621128,0.4561005,-0.32968327,0.64938146,0.6995363,-0.2982493,-0.65605503,0.31700498,-0.6849085,-0.38457185,0.6404348,0.66479146,,1.1807595200716823,0.3743594760780331,0.17446896739,-0.7093810788081459,-0.29978048048537637,-0.23443157273416784,0.2327652942413479,,-1.319660593547484,-0.0817682956722891,0.17023139538,0.8104516315676866,-0.06298942639186804,0.1345942898072832,0.8724206572231854,,0.0250542014123786,0.03181517060229164,0.08397132691999999,-0.11775085106328897,,6.107986e-05,9.179115e-06,-5.4836273e-06,0.99999994,-3.765896e-05,-3.995374e-05,3.765151e-05,1.0,-3.784895e-06,3.9957464e-05,3.7252903e-06,1.0,804,2.523,0,2,0.977,False,0.9716529839246135,1.0469078565166363
2.5284609210211784,16:25:58.259924,16:24:31.554665,0,,0.115971334,0.004044533,0.030247062,-0.057604972,-0.9832846,0.17272267,-0.87387854,0.13331726,0.46750695,-0.4827193,-0.12400791,-0.8669511,,0.06444517,-0.038082983,0.037778914,-0.6036042,-0.6736183,0.4264975,-0.6238756,0.73213863,0.2734085,-0.4964283,-0.101050824,-0.8621762,,0.057660777,1.3275597,0.43761796,0.9967486,0.07913414,-0.0151637755,0.04313601,-0.6830398,-0.72910625,-0.06805465,0.72608155,-0.68423253,,-0.07750213,0.28622407,-0.062257595,0.07653156,0.99157083,-0.104547456,-0.9408012,0.037089117,-0.33692354,-0.33020598,0.12414366,0.93570954,,-0.020624517,0.45609963,-0.32968235,0.64937836,0.6995329,-0.298264,-0.65606266,0.31699806,-0.6849044,-0.38456407,0.64044195,0.6647891,,1.1806359563456945,0.37256780205121304,0.17490192825,-0.7081229391472387,-0.30292311997998145,-0.22484458929706183,0.3275048525992298,,-1.3196760390132327,-0.0817682956722891,0.17023398796000003,0.8104516315676866,-0.06298942639186804,0.1345942898072832,0.8724206572231854,,0.0250542014123786,0.03181517060229164,0.08397132691999999,-0.11775085106328897,,6.107986e-05,9.179115e-06,-5.4836273e-06,0.99999994,-3.765896e-05,-3.995374e-05,3.765151e-05,1.0,-3.784895e-06,3.9957464e-05,3.7252903e-06,1.0,817,2.564,0,2,0.977,False,0.9845217711251566,1.0469078565166363
2.5654268369544297,16:25:58.308277,16:24:31.554665,0,,0.11555004,0.004285887,0.029276937,-0.052574836,-0.986952,0.15218943,-0.8783969,0.118200466,0.46308476,-0.47503132,-0.109336115,-0.87315,,0.06444697,-0.038081806,0.037774026,-0.6036064,-0.6736207,0.4264905,-0.62387735,0.7321371,0.27340883,-0.4964234,-0.10104641,-0.86217946,,0.057660777,1.3275597,0.43761796,0.9967486,0.07913414,-0.0151637755,0.04313601,-0.6830398,-0.72910625,-0.06805465,0.72608155,-0.68423253,,-0.07701074,0.2856832,-0.06145576,0.07090738,0.9939642,-0.08370961,-0.93832844,0.037996866,-0.34365097,-0.33839604,0.1029145,0.9353591,,-0.020625606,0.45609567,-0.32967895,0.6493799,0.69953465,-0.29825664,-0.65605885,0.31700152,-0.6849064,-0.38456798,0.6404384,0.6647903,,1.180303878832103,0.36886089027158525,0.17578470174000002,-0.7121070480734447,-0.3090717624694263,-0.20529196788570264,0.4941158000561947,,-1.3196683162803584,-0.0817682956722891,0.17023917312,0.8104516315676866,-0.06298942639186804,0.1345942898072832,0.8724206572231854,,0.0250542014123786,0.03181517060229164,0.08397132691999999,-0.11775085106328897,,6.107986e-05,9.179115e-06,-5.4836273e-06,0.99999994,-3.765896e-05,-3.995374e-05,3.765151e-05,1.0,-3.784895e-06,3.9957464e-05,3.7252903e-06,1.0,826,2.593,0,2,0.977,False,0.9918498305032437,1.0472458179220927
2.6137830410152674,16:25:58.339148,16:24:31.554665,0,,0.11528079,0.004394129,0.02866204,-0.04505612,-0.9886399,0.14339177,-0.8822958,0.10670177,0.45844185,-0.46853405,-0.105858326,-0.8770803,,0.06447914,-0.03808771,0.03777504,-0.60358137,-0.67363906,0.42649704,-0.62388265,0.732121,0.27344003,-0.49644738,-0.10104078,-0.86216646,,0.057607923,1.3275611,0.4376189,0.99674535,0.07918586,-0.015108568,0.043211486,-0.6830338,-0.7291074,-0.06805465,0.72608155,-0.68423253,,-0.076656535,0.28531128,-0.06098268,0.062961094,0.99521106,-0.0747716,-0.9364196,0.032996263,-0.3493273,-0.34518722,0.092011616,0.93401265,,-0.020610576,0.45609537,-0.3296798,0.6494133,0.6995,-0.29826516,-0.65604955,0.31703413,-0.6849003,-0.3845275,0.6404601,0.66479284,,1.1801880378389895,0.3663973384847076,0.17633173612000003,-0.719026816208434,-0.3150837684591057,-0.19606060689561036,0.5723576077345145,,-1.319660593547484,-0.08175285020654066,0.17023917312,0.8104516315676866,-0.06298942639186804,0.1345942898072832,0.8724206572231854,,0.0250542014123786,0.03181517060229164,0.08397132691999999,-0.11775085106328897,,8.389354e-06,4.7683716e-06,-6.4373016e-06,1.0,1.4159828e-05,1.5024096e-05,-1.4159828e-05,1.0,1.3709068e-06,-1.5024096e-05,-1.4007092e-06,1.0,839,2.634,0,2,0.977,False,0.9952457604589426,1.0465698951111801
2.644652316812426,16:25:58.373546,16:24:31.554665,0,,0.11493823,0.004526004,0.027952507,-0.033628948,-0.9905339,0.13308518,-0.8868184,0.09098138,0.4530735,-0.46089298,-0.102786005,-0.8814833,,0.06448239,-0.038088202,0.037772298,-0.6035821,-0.67363364,0.4265046,-0.6238816,0.73212475,0.2734323,-0.49644786,-0.10104951,-0.86216515,,0.057607923,1.3275611,0.4376189,0.99674535,0.07918586,-0.015108568,0.043211486,-0.6830338,-0.7291074,-0.06805465,0.72608155,-0.68423253,,-0.07626354,0.28488725,-0.0604314,0.050959606,0.9966303,-0.06427399,-0.9342439,0.024825623,-0.35576957,-0.3529751,0.07817747,0.9323609,,-0.020613438,0.4560924,-0.32967874,0.64941406,0.699496,-0.29827303,-0.65604943,0.31702754,-0.68490344,-0.3845264,0.64046776,0.66478604,,1.1801803151061154,0.3634626999925023,0.17695784419000002,-0.7299306932696292,-0.32232550294667406,-0.18435626744972017,0.6391653307834346,,-1.3196683162803584,-0.08176057293941488,0.17024306199000003,0.8104516315676866,-0.06298942639186804,0.1345942898072832,0.8724206572231854,,0.0250542014123786,0.03181517060229164,0.08397132691999999,-0.11775085106328897,,8.389354e-06,4.7683716e-06,-6.4373016e-06,1.0,1.4159828e-05,1.5024096e-05,-1.4159828e-05,1.0,1.3709068e-06,-1.5024096e-05,-1.4007092e-06,1.0,848,2.663,0,2,0.977,False,0.9981650686664731,1.0471975377213132
2.679053728003055,16:25:58.405366,16:24:31.690926,0,,0.114396244,0.0047291964,0.026866868,-0.006848024,-0.99274987,0.12000388,-0.8922028,0.06026009,0.4475968,-0.4515832,-0.10400264,-0.8861468,,0.06448388,-0.038088903,0.037769973,-0.603585,-0.67363065,0.4265052,-0.62388223,0.73212695,0.27342492,-0.49644345,-0.101053774,-0.8621672,,0.057607923,1.3275611,0.4376189,0.99674535,0.07918586,-0.015108568,0.043211486,-0.6830338,-0.7291074,-0.06805465,0.72608155,-0.68423253,,-0.0756444,0.2842401,-0.059587892,0.02351362,0.9984222,-0.050992437,-0.93202984,0.0034429454,-0.3623652,-0.36161786,0.05604699,0.9306402,,-0.020614605,0.4560898,-0.32967818,0.6494163,0.6994936,-0.29827353,-0.6560455,0.3170244,-0.6849086,-0.3845292,0.6404719,0.66478044,,1.180303878832103,0.35872094200772847,0.17791450621000002,-0.7565613160921638,-0.3309336024318968,-0.16590191589716688,0.7156103537342774,,-1.3196683162803584,-0.0817682956722891,0.17024565457000002,0.8104516315676866,-0.06298942639186804,0.1345942898072832,0.8724206572231854,,0.0250542014123786,0.03181517060229164,0.08397132691999999,-0.11775085106328897,,8.389354e-06,4.7683716e-06,-6.4373016e-06,1.0,1.4159828e-05,1.5024096e-05,-1.4159828e-05,1.0,1.3709068e-06,-1.5024096e-05,-1.4007092e-06,1.0,861,2.703,0,2,0.977,False,1.006208060666813,1.0467147357135185
2.710867137880996,16:25:58.440816,16:24:31.690926,0,,0.11393672,0.004863262,0.02600412,0.024137357,-0.99259585,0.11904128,-0.89566934,0.03142137,0.44360918,-0.44406515,-0.11732917,-0.8882793,,0.06448595,-0.038086846,0.037767112,-0.6035821,-0.67363364,0.4265046,-0.6238816,0.73212475,0.2734323,-0.49644786,-0.10104951,-0.86216515,,0.057607923,1.3275611,0.4376189,0.99674535,0.07918586,-0.015108568,0.043211486,-0.6830338,-0.7291074,-0.06805465,0.72608155,-0.68423253,,-0.07512409,0.28370863,-0.058939584,-0.00797067,0.99871993,-0.049949802,-0.9300308,-0.025756424,-0.3665777,-0.36739498,0.043532986,0.9290456,,-0.020616222,0.45608798,-0.3296749,0.64941406,0.699496,-0.29827303,-0.65604943,0.31702754,-0.68490344,-0.3845264,0.64046776,0.66478604,,1.1805896199484494,0.35464333905013795,0.17865987296000002,-0.7880148076148425,-0.3377654274201688,-0.15747226480742613,0.7598765956566671,,-1.3196683162803584,-0.08176057293941488,0.17024954344,0.8104516315676866,-0.06298942639186804,0.1345942898072832,0.8724206572231854,,0.0250542014123786,0.03181517060229164,0.08397132691999999,-0.11775085106328897,,8.389354e-06,4.7683716e-06,-6.4373016e-06,1.0,1.4159828e-05,1.5024096e-05,-1.4159828e-05,1.0,1.3709068e-06,-1.5024096e-05,-1.4007092e-06,1.0,874,2.744,0,2,0.977,False,1.0144893635412364,1.0468112961150775
2.7463224758394063,16:25:58.487281,16:24:31.690926,0,,0.11308792,0.004864827,0.024639592,0.102682605,-0.98531574,0.13641557,-0.89939046,-0.03338249,0.43587,-0.42491564,-0.1674471,-0.8896113,,0.06448881,-0.03808576,0.03776288,-0.6035821,-0.67363364,0.4265046,-0.6238816,0.73212475,0.2734323,-0.49644786,-0.10104951,-0.86216515,,0.057607923,1.3275611,0.4376189,0.99674535,0.07918586,-0.015108568,0.043211486,-0.6830338,-0.7291074,-0.06805465,0.72608155,-0.68423253,,-0.0741829,0.2827321,-0.058077656,-0.08770408,0.9938696,-0.06731438,-0.921503,-0.1066118,-0.3734516,-0.3783387,0.02927718,0.92520416,,-0.02061845,0.45608446,-0.3296718,0.64941406,0.699496,-0.29827303,-0.65604943,0.31702754,-0.68490344,-0.3845264,0.64046776,0.66478604,,1.1815858524892242,0.3468279333814227,0.17972023818000002,-0.8691648157433535,-0.35416180739202163,-0.1530867777793174,0.8070830307694737,,-1.3196683162803584,-0.08176057293941488,0.17025472860000002,0.8104516315676866,-0.06298942639186804,0.1345942898072832,0.8724206572231854,,0.0250542014123786,0.03181517060229164,0.08397132691999999,-0.11775085106328897,,8.389354e-06,4.7683716e-06,-6.4373016e-06,1.0,1.4159828e-05,1.5024096e-05,-1.4159828e-05,1.0,1.3709068e-06,-1.5024096e-05,-1.4007092e-06,1.0,883,2.773,0,2,0.977,False,1.0221153115119286,1.0469078565166363
2.7927786039654166,16:25:58.521717,16:24:31.690926,0,,0.11254464,0.0047409385,0.023995653,0.14020546,-0.9795527,0.14428826,-0.9002479,-0.06545199,0.43042988,-0.4121848,-0.19024381,-0.89101684,,0.06448887,-0.038086966,0.037762642,-0.603585,-0.67363065,0.4265052,-0.62388223,0.73212695,0.27342492,-0.49644345,-0.101053774,-0.8621672,,0.057607923,1.3275611,0.4376189,0.99674535,0.07918586,-0.015108568,0.043211486,-0.6830338,-0.7291074,-0.06805465,0.72608155,-0.68423253,,-0.073598415,0.2821936,-0.05777181,-0.12602766,0.9891755,-0.07515876,-0.9141559,-0.14522517,-0.37845555,-0.38527393,0.021010961,0.922563,,-0.020618504,0.45608366,-0.32967275,0.6494163,0.6994936,-0.29827353,-0.6560455,0.3170244,-0.6849086,-0.3845292,0.6404719,0.66478044,,1.1824121849067661,0.34220973912263647,0.18015190275,-0.9081671452314749,-0.36413627187489883,-0.15050742513903684,0.8190071475972761,,-1.3196683162803584,-0.0817682956722891,0.17025472860000002,0.8104516315676866,-0.06298942639186804,0.1345942898072832,0.8724206572231854,,0.0250542014123786,0.03181517060229164,0.08397132691999999,-0.11775085106328897,,8.389354e-06,4.7683716e-06,-6.4373016e-06,1.0,1.4159828e-05,1.5024096e-05,-1.4159828e-05,1.0,1.3709068e-06,-1.5024096e-05,-1.4007092e-06,1.0,896,2.814,0,2,0.977,False,1.0370693188607079,1.0469078565166363
2.827213166980073,16:25:58.555644,16:24:31.846735,0,,0.11176232,0.004625708,0.023154423,0.18962997,-0.97003853,0.15187433,-0.8983968,-0.1090159,0.42543948,-0.39613602,-0.2171195,-0.89215213,,0.06449095,-0.038084924,0.03775978,-0.6035821,-0.67363364,0.4265046,-0.6238816,0.73212475,0.2734323,-0.49644786,-0.10104951,-0.86216515,,0.057607923,1.3275611,0.4376189,0.99674535,0.07918586,-0.015108568,0.043211486,-0.6830338,-0.7291074,-0.06805465,0.72608155,-0.68423253,,-0.07276169,0.28152424,-0.057341855,-0.17640823,0.9808344,-0.0827286,-0.9030168,-0.194712,-0.38294634,-0.3917152,0.007150428,0.9200587,,-0.02062012,0.4560818,-0.32966948,0.64941406,0.699496,-0.29827303,-0.65604943,0.31702754,-0.68490344,-0.3845264,0.64046776,0.66478604,,1.1838563359542462,0.3359157118301435,0.18075208502,-0.9601702512156369,-0.3752038283558995,-0.14409629462412474,0.8350148660784354,,-1.3196683162803584,-0.08176057293941488,0.17025861747,0.8104516315676866,-0.06298942639186804,0.1345942898072832,0.8724206572231854,,0.0250542014123786,0.03181517060229164,0.08397132691999999,-0.11775085106328897,,8.389354e-06,4.7683716e-06,-6.4373016e-06,1.0,1.4159828e-05,1.5024096e-05,-1.4159828e-05,1.0,1.3709068e-06,-1.5024096e-05,-1.4007092e-06,1.0,905,2.843,0,2,0.977,False,1.0454101994536527,1.046859576315857
2.8611339239869267,16:25:58.586910,16:24:31.846735,0,,0.11111015,0.0046182126,0.02245532,0.21389994,-0.9646131,0.15417042,-0.8974019,-0.13169298,0.42110187,-0.38589725,-0.22842653,-0.8938147,,0.064491324,-0.038084283,0.03775698,-0.60358435,-0.673636,0.42649767,-0.62388325,0.73212314,0.27343264,-0.49644297,-0.10104507,-0.86216843,,0.057607923,1.3275611,0.4376189,0.99674535,0.07918586,-0.015108568,0.043211486,-0.6830338,-0.7291074,-0.06805465,0.72608155,-0.68423253,,-0.07206287,0.28102717,-0.05691913,-0.20130962,0.9758349,-0.084974684,-0.8957406,-0.21850154,-0.38717675,-0.3963877,-0.0018271283,0.9180814,,-0.020620096,0.4560796,-0.32966763,0.6494156,0.69949764,-0.2982657,-0.6560456,0.317031,-0.68490547,-0.3845303,0.6404642,0.66478723,,1.1849915776867572,0.331150785646747,0.18130948972000002,-0.9855427343772645,-0.3820356533441715,-0.14040401046253656,0.8453055422448951,,-1.319660593547484,-0.08176057293941488,0.17026121005000003,0.8104516315676866,-0.06298942639186804,0.1345942898072832,0.8724206572231854,,0.0250542014123786,0.03181517060229164,0.08397132691999999,-0.11775085106328897,,8.389354e-06,4.7683716e-06,-6.4373016e-06,1.0,1.4159828e-05,1.5024096e-05,-1.4159828e-05,1.0,1.3709068e-06,-1.5024096e-05,-1.4007092e-06,1.0,918,2.884,0,2,0.977,False,1.0454697771721735,1.047294098122872
2.8923902318347245,16:25:58.627100,16:24:31.846735,0,,0.11026344,0.004500255,0.021590874,0.23390691,-0.9598708,0.1547111,-0.8988409,-0.15282789,0.41076595,-0.37063813,-0.23514166,-0.8985187,,0.06449668,-0.03808503,0.03775561,-0.60358053,-0.67366076,0.42646408,-0.62387884,0.73210776,0.27348414,-0.4964533,-0.1009922,-0.86216867,,0.057607923,1.3275611,0.4376189,0.99674535,0.07918586,-0.015108568,0.043211486,-0.6830338,-0.7291074,-0.06805465,0.72608155,-0.68423253,,-0.07116036,0.2803414,-0.056479502,-0.22234638,0.97122407,-0.085357256,-0.88619804,-0.23782529,-0.39760798,-0.40646657,-0.012763261,0.9135765,,-0.020625234,0.4560775,-0.3296672,0.6494133,0.69951457,-0.2982311,-0.6560531,0.31707343,-0.68487865,-0.38452142,0.6404247,0.6648304,,1.1862735513438785,0.3250421039432354,0.18194337553,-1.0060923488387479,-0.3939230288237648,-0.13610144969022506,0.8567396268742946,,-1.3196837617461068,-0.0817682956722891,0.17026509892000002,0.8104516315676866,-0.06298942639186804,0.13467596854742372,0.8725840012893198,,0.0250542014123786,0.03181517060229164,0.08397132691999999,-0.11775085106328897,,8.389354e-06,4.7683716e-06,-6.4373016e-06,1.0,1.4159828e-05,1.5024096e-05,-1.4159828e-05,1.0,1.3709068e-06,-1.5024096e-05,-1.4007092e-06,1.0,927,2.912,0,2,0.977,False,1.0460059766388632,1.0465216149104006
2.932472787797451,16:25:58.655323,16:24:31.846735,0,,0.10982987,0.004413888,0.02110307,0.23959391,-0.9584419,0.15486671,-0.900566,-0.15980117,0.40428284,-0.3627338,-0.23633139,-0.9014276,,0.06449634,-0.03808461,0.03775394,-0.60358274,-0.6736631,0.42645717,-0.6238805,0.73210615,0.2734845,-0.49644834,-0.10098782,-0.862172,,0.057607923,1.3275611,0.4376189,0.99674535,0.07918586,-0.015108568,0.043211486,-0.6830338,-0.7291074,-0.06805465,0.72608155,-0.68423253,,-0.07069551,0.27993935,-0.05624357,-0.2285947,0.96976715,-0.085417055,-0.8817214,-0.24343465,-0.4041126,-0.4126886,-0.017063962,0.9107123,,-0.020624653,0.45607617,-0.32966614,0.64941484,0.69951624,-0.29822376,-0.6560493,0.3170769,-0.6848807,-0.3845253,0.64042115,0.6648316,,1.186667410720464,0.32181400160180956,0.18228689238,-1.0115442873693454,-0.40034494431274054,-0.13519378144394298,0.8601698522631145,,-1.3196760390132327,-0.0817682956722891,0.17026639521,0.8104516315676866,-0.06298942639186804,0.13467596854742375,0.8729106894215883,,0.0250542014123786,0.03181517060229164,0.08397132691999999,-0.11775085106328897,,8.389354e-06,4.7683716e-06,-6.4373016e-06,1.0,1.4159828e-05,1.5024096e-05,-1.4159828e-05,1.0,1.3709068e-06,-1.5024096e-05,-1.4007092e-06,1.0,940,2.953,0,2,0.977,False,1.0466017538240733,1.0474389387252105
2.960826624883339,16:25:58.701622,16:24:31.979037,0,,0.109012365,0.0040880293,0.020023808,0.2634264,-0.95081276,0.16297747,-0.9015097,-0.18250749,0.3923918,-0.34334663,-0.25029218,-0.9052442,,0.064497024,-0.038082108,0.037748575,-0.60358435,-0.67370576,0.4263876,-0.62388325,0.73207855,0.27355224,-0.49644297,-0.10090423,-0.8621849,,0.057607923,1.3275611,0.4376189,0.99674535,0.07918586,-0.015108568,0.043211486,-0.6830338,-0.7291074,-0.06805465,0.72608155,-0.68423253,,-0.06981065,0.27895388,-0.05581326,-0.25372517,0.9627528,-0.09343743,-0.86894065,-0.2693012,-0.4152337,-0.4249302,-0.024163662,0.90490353,,-0.02062455,0.45607257,-0.32966146,0.6494156,0.6995464,-0.2981514,-0.6560456,0.31714287,-0.6848537,-0.3845303,0.6403556,0.66489184,,1.1866905789190867,0.31460869183015805,0.18295188915000002,-1.0362877007005193,-0.41428186728881544,-0.13583593006757066,0.8676836793052914,,-1.319660593547484,-0.08176057293941488,0.17027158037,0.8104516315676866,-0.06298942639186804,0.1347576472875643,0.872747345355454,,0.0250542014123786,0.03181517060229164,0.08397132691999999,-0.11775085106328897,,8.389354e-06,4.7683716e-06,-6.4373016e-06,1.0,1.4159828e-05,1.5024096e-05,-1.4159828e-05,1.0,1.3709068e-06,-1.5024096e-05,-1.4007092e-06,1.0,949,2.982,0,2,0.977,False,1.0452910440166105,1.0471492575205337
3.007076286012307,16:25:58.724953,16:24:31.979037,0,,0.10877998,0.0039466023,0.01965779,0.27071077,-0.94796795,0.16754839,-0.901628,-0.18869168,0.38918173,-0.33731687,-0.25642204,-0.90579534,,0.06449708,-0.038083315,0.037748337,-0.6035872,-0.67370266,0.4263882,-0.62388396,0.7320807,0.27354494,-0.4964385,-0.10090849,-0.8621869,,0.057607923,1.3275611,0.4376189,0.99674535,0.07918586,-0.015108568,0.043211486,-0.6830338,-0.7291074,-0.06805465,0.72608155,-0.68423253,,-0.06955581,0.27859715,-0.05568766,-0.26141068,0.96023864,-0.0980111,-0.86484313,-0.2781034,-0.41797704,-0.42861494,-0.024499435,0.903155,,-0.020624604,0.45607176,-0.3296624,0.6494179,0.699544,-0.2981519,-0.6560417,0.31713977,-0.68485886,-0.3845331,0.6403597,0.6648863,,1.1863816696041176,0.3122455355706454,0.1831528141,-1.0438365386659623,-0.4182443257820132,-0.13807728644979214,0.8689904318343656,,-1.319660593547484,-0.0817682956722891,0.17027158037,0.8104516315676866,-0.06298942639186804,0.1347576472875643,0.872747345355454,,0.0250542014123786,0.03181517060229164,0.08397132691999999,-0.11775085106328897,,8.389354e-06,4.7683716e-06,-6.4373016e-06,1.0,1.4159828e-05,1.5024096e-05,-1.4159828e-05,1.0,1.3709068e-06,-1.5024096e-05,-1.4007092e-06,1.0,962,3.023,0,2,0.977,False,1.045767665764779,1.0472458179220927
3.0304603578988463,16:25:58.761594,16:24:31.979037,0,,0.10846929,0.0036504865,0.01900664,0.2787035,-0.9444054,0.17442128,-0.9031776,-0.19600265,0.3819074,-0.32648847,-0.26397234,-0.9075924,,0.0644978,-0.03808303,0.037747324,-0.6035872,-0.67370266,0.4263882,-0.62388396,0.7320807,0.27354494,-0.4964385,-0.10090849,-0.8621869,,0.057607923,1.3275611,0.4376189,0.99674535,0.07918586,-0.015108568,0.043211486,-0.6830338,-0.7291074,-0.06805465,0.72608155,-0.68423253,,-0.06920565,0.27792853,-0.055491276,-0.27015856,0.95708853,-0.1048611,-0.8581738,-0.2887426,-0.424459,-0.43652272,-0.024682185,0.8993546,,-0.020625161,0.4560709,-0.32966164,0.6494179,0.699544,-0.2981519,-0.6560417,0.31713977,-0.68485886,-0.3845331,0.6403597,0.6648863,,1.1852387051387323,0.30842278279790425,0.18347688660000003,-1.0518047565183741,-0.42575933326911247,-0.141832429303497,0.8711139046941113,,-1.319660593547484,-0.0817682956722891,0.17027287666000002,0.8104516315676866,-0.06298942639186804,0.1347576472875643,0.872747345355454,,0.0250542014123786,0.03181517060229164,0.08397132691999999,-0.11775085106328897,,8.389354e-06,4.7683716e-06,-6.4373016e-06,1.0,1.4159828e-05,1.5024096e-05,-1.4159828e-05,1.0,1.3709068e-06,-1.5024096e-05,-1.4007092e-06,1.0,971,3.052,0,2,0.977,False,1.0457080880462577,1.0471009773197542
