AlexandreBanks6/ExpertPlaybackApp/resources/Motions/P_15/PC1/Data_PC1_2.csv
Task Time,PC1 Time,PC2 Time,Gaze Calib,s_T_psm1,Tx,Ty,Tz,R00,R01,R02,R10,R11,R12,R20,R21,R22,s_T_psm3,Tx,Ty,Tz,R00,R01,R02,R10,R11,R12,R20,R21,R22,cart_T_ecm,Tx,Ty,Tz,R00,R01,R02,R10,R11,R12,R20,R21,R22,ecm_T_psm1,Tx,Ty,Tz,R00,R01,R02,R10,R11,R12,R20,R21,R22,ecm_T_psm3,Tx,Ty,Tz,R00,R01,R02,R10,R11,R12,R20,R21,R22,psm1_joints,q1,q2,q3,q4,q5,q6,jaw,psm3_joints,q1,q2,q3,q4,q5,q6,jaw,ecm_joints,q1,q2,q3,q4,ecmi_T_ecm,Tx,Ty,Tz,R00,R01,R02,R10,R11,R12,R20,R21,R22,Sample #,Task Duration (s),Collisions (binary),Collisions (increments),Cumulative Collision Time (s),Clutch Press,MTMR Angle,MTML Angle
""
lci_T_si,,,,,-0.056820054,0.035184894,0.23501265,0.9960807,-0.004387094,0.0883404,0.06195223,-0.6782408,-0.7322236,0.0631284,0.7348266,-0.67531073
rci_T_si,,,,,-0.06650407,0.039561197,0.2456612,0.99437594,-0.020144738,0.1039743,0.06376301,-0.6699987,-0.73961884,0.08456207,0.7420889,-0.6649461
ecm_T_lc,,,,,-4.4061628e-05,-0.00034663224,-0.01840835,-0.99912,0.030754527,0.028518902,-0.031987965,-0.99852574,-0.043852776,0.027128186,-0.04472645,0.9986309
ecm_T_rc,,,,,-0.0043358393,0.01870579,-0.007592615,-0.99555075,-0.052743673,-0.078081585,0.04863213,-0.9973746,0.053654674,-0.08070653,0.04961868,0.9955021
cart_T_ecmi,,,,,0.057681564,1.3275611,0.43760413,0.9967665,0.07914106,-0.013899233,0.044067647,-0.68306047,-0.72903115,-0.06719031,0.72606134,-0.6843394
ecmac_T_ecmrep_psm1,,,,,-0.0025980123,-0.29326126,-0.2805022,0.9974786,0.061531033,0.035360787,-0.060258932,0.9975341,-0.035980776,-0.037487525,0.033759248,0.99872667
ecmac_T_ecmrep_psm3,,,,,-0.0114122145,-0.5209516,-0.5025674,0.9999053,0.010122195,-0.009323479,-0.0077519584,0.9740634,0.22614253,0.011370718,-0.22604884,0.9740496
""
0,16:16:16.161841,16:14:49.421169,0,,0.092328794,-0.0043395907,-0.0066279173,0.10341128,-0.97487247,-0.1973061,-0.6763212,-0.21437198,0.70472276,-0.72931176,0.060566023,-0.6814955,,0.11194694,0.0032773465,0.009578288,-0.040404983,-0.5327956,0.8452786,-0.9220362,0.34583724,0.17391393,-0.3849894,-0.77235055,-0.5052304,,0.057684917,1.3275623,0.43760237,0.9967669,0.07913468,-0.013906039,0.04405834,-0.68306124,-0.729031,-0.06719031,0.72606134,-0.6843394,,-0.052411973,0.25504574,-0.044085,-0.071357995,0.96515346,0.25176752,-0.9974227,-0.06715194,-0.025269961,-0.0074827126,-0.25292185,0.9674578,,-0.063534655,0.44535783,-0.2749303,0.06374395,0.6364982,-0.7686395,-0.7568982,-0.4711407,-0.45291442,-0.6504166,0.61065245,0.451732,,1.1306389837179651,0.15862493323657142,0.20025347178000003,-0.8901338100918059,0.1830929096856902,0.026881051529988043,0.7946688817432686,,-1.4134686297706893,0.06722638967012436,0.23203461371000003,0.1669131950136814,-0.06394588189022614,-0.3570669091742915,-0.14798972391765697,,0.0250542014123786,0.03150755632162763,0.0839748988,-0.11775085106328897,,3.5017729e-06,-1.7881393e-06,2.3841858e-07,0.99999994,-6.3963234e-06,-6.7800283e-06,6.388873e-06,1.0,-6.556511e-07,6.7800283e-06,5.9604645e-07,1.0,41,0.123,1,1,0.099,False,0.968733675717083,0.013904680639341915
0.1252702798228711,16:16:16.202097,16:14:49.421169,0,,0.09232619,-0.0043392926,-0.0066320747,0.103410795,-0.97483814,-0.19747585,-0.67632854,-0.21449375,0.70467865,-0.729305,0.060687177,-0.68149185,,0.11194093,0.0032592416,0.009596467,-0.040968727,-0.5338778,0.8445685,-0.92256534,0.3447842,0.17319657,-0.38365966,-0.77207404,-0.50666267,,0.057684917,1.3275623,0.43760237,0.9967669,0.07913468,-0.013906039,0.04405834,-0.68306124,-0.729031,-0.06719031,0.72606134,-0.6843394,,-0.05240911,0.25504294,-0.044082142,-0.07135806,0.96510947,0.25193587,-0.99742264,-0.06714507,-0.025291355,-0.0074926745,-0.25309128,0.96741337,,-0.063531525,0.4453663,-0.2749551,0.06411825,0.6375066,-0.7677722,-0.75590694,-0.47126704,-0.45443597,-0.6515317,0.60950196,0.45167887,,1.1306389837179651,0.15860948777082298,0.20025736065000002,-0.8901338100918059,0.1830929096856902,0.027044409010269166,0.7946688817432686,,-1.4135149661679347,0.06724183513587281,0.23201257678000003,0.16649381512671232,-0.06544888338764597,-0.3557596334934904,-0.14749969171925414,,0.0250542014123786,0.03150755632162763,0.0839748988,-0.11775085106328897,,3.5017729e-06,-1.7881393e-06,2.3841858e-07,0.99999994,-6.3963234e-06,-6.7800283e-06,6.388873e-06,1.0,-6.556511e-07,6.7800283e-06,5.9604645e-07,1.0,49,0.149,1,1,0.125,False,0.9690315643096881,0.013759840037003368
0.16552784480154514,16:16:16.226265,16:14:49.421169,0,,0.092323765,-0.004339725,-0.006635189,0.10341032,-0.97481984,-0.19756599,-0.6763359,-0.21455798,0.7046521,-0.7292983,0.06075266,-0.6814933,,0.11193282,0.0032536983,0.009617627,-0.04087811,-0.53354996,0.84477997,-0.92252326,0.34489885,0.1731928,-0.38377067,-0.7722494,-0.5063111,,0.057684917,1.3275623,0.43760237,0.9967669,0.07913468,-0.013906039,0.04405834,-0.68306124,-0.729031,-0.06719031,0.72606134,-0.6843394,,-0.052406512,0.25504044,-0.044080522,-0.07135814,0.9650861,0.2520254,-0.9974225,-0.06714027,-0.025307264,-0.0075026364,-0.2531817,0.96738964,,-0.06352634,0.44538325,-0.27497017,0.064043775,0.63720715,-0.76802695,-0.75599504,-0.471403,-0.45414832,-0.6514368,0.6097099,0.45153505,,1.1306389837179651,0.15859404230507454,0.20025995323,-0.8901338100918059,0.1830929096856902,0.027126087750409755,0.7945055376771342,,-1.4135458570994315,0.06724955786874703,0.23199053985,0.16649381512671232,-0.06531224688788054,-0.3561160876176085,-0.14700965952085132,,0.0250542014123786,0.03150755632162763,0.0839748988,-0.11775085106328897,,3.5017729e-06,-1.7881393e-06,2.3841858e-07,0.99999994,-6.3963234e-06,-6.7800283e-06,6.388873e-06,1.0,-6.556511e-07,6.7800283e-06,5.9604645e-07,1.0,66,0.201,1,1,0.177,False,0.9690315643096881,0.013663279635444336
0.18965555191971362,16:16:16.279989,16:14:49.513485,0,,0.09231041,-0.0043373853,-0.006637171,0.10336724,-0.9748473,-0.19745342,-0.676238,-0.21445563,0.7047771,-0.7293952,0.060674615,-0.68139654,,0.11180717,0.0032034516,0.009821355,-0.04051654,-0.5305221,0.8467021,-0.9224884,0.3454386,0.17230007,-0.3838926,-0.77409196,-0.50339663,,0.057684917,1.3275623,0.43760237,0.9967669,0.07913468,-0.013906039,0.04405834,-0.68306124,-0.729031,-0.06719031,0.72606134,-0.6843394,,-0.052393027,0.25504097,-0.04407818,-0.07130738,0.96512014,0.2519095,-0.99742717,-0.06712848,-0.025155362,-0.0073676454,-0.25305513,0.9674238,,-0.06342919,0.4455532,-0.27511686,0.06370186,0.63445574,-0.7703298,-0.75612354,-0.47309232,-0.4521734,-0.6513211,0.61126876,0.44959012,,1.1306853201152105,0.15854770590782918,0.20026513839,-0.8901338100918059,0.18322954618545564,0.026932991106572768,0.794342193611,,-1.4136848662911676,0.06741173525910575,0.23175072620000003,0.16628412518322783,-0.06517561038811509,-0.35957633386706794,-0.14749969171925414,,0.0250542014123786,0.03150755632162763,0.0839748988,-0.11775085106328897,,3.5017729e-06,-1.7881393e-06,2.3841858e-07,0.99999994,-6.3963234e-06,-6.7800283e-06,6.388873e-06,1.0,-6.556511e-07,6.7800283e-06,5.9604645e-07,1.0,74,0.226,1,1,0.202,False,0.9690911420282089,0.013808120237783328
0.24339679791592062,16:16:16.302471,16:14:49.513485,0,,0.09230169,-0.004335195,-0.006637186,0.10335129,-0.97485685,-0.19741455,-0.67622995,-0.21441744,0.70479643,-0.7294049,0.060655996,-0.6813878,,0.11174217,0.0031708032,0.009912729,-0.04111722,-0.5301403,0.8469123,-0.92290133,0.34492797,0.17110759,-0.3828348,-0.77458113,-0.5034498,,0.057684917,1.3275623,0.43760237,0.9967669,0.07913468,-0.013906039,0.04405834,-0.68306124,-0.729031,-0.06719031,0.72606134,-0.6843394,,-0.052384276,0.25504273,-0.044077028,-0.071290724,0.9651315,0.25187054,-0.9974285,-0.06711632,-0.025137203,-0.007356083,-0.2530149,0.9674344,,-0.063377336,0.44562563,-0.27519232,0.064150766,0.6341256,-0.7705644,-0.7553159,-0.4737964,-0.45278567,-0.6522136,0.61106604,0.44857073,,1.1307239337795816,0.15852453770920652,0.20026773097000003,-0.8901338100918059,0.18322954618545564,0.02685131236643218,0.7945055376771343,,-1.413731202688413,0.06750440805359643,0.23163535639000002,0.1660744352397433,-0.0665419753857695,-0.3600140508927745,-0.14733634765311993,,0.0250542014123786,0.03150755632162763,0.0839748988,-0.11775085106328897,,3.5017729e-06,-1.7881393e-06,2.3841858e-07,0.99999994,-6.3963234e-06,-6.7800283e-06,6.388873e-06,1.0,-6.556511e-07,6.7800283e-06,5.9604645e-07,1.0,82,0.251,1,1,0.227,False,0.9686145202800409,0.01419436184401901
0.26590391900390387,16:16:16.323737,16:14:49.513485,0,,0.09229633,-0.004335895,-0.0066383034,0.10334448,-0.9748523,-0.19744031,-0.67623335,-0.2144312,0.704789,-0.7294027,0.060679674,-0.6813881,,0.11167481,0.0031464547,0.010019541,-0.041210197,-0.5294581,0.84733444,-0.9229454,0.34501445,0.17069525,-0.3827186,-0.77500916,-0.50287914,,0.057684917,1.3275623,0.43760237,0.9967669,0.07913468,-0.013906039,0.04405834,-0.68306124,-0.729031,-0.06719031,0.72606134,-0.6843394,,-0.052378874,0.2550416,-0.044077095,-0.07128412,0.9651253,0.25189614,-0.9974289,-0.06710817,-0.025141515,-0.0073604244,-0.25304067,0.9674277,,-0.063324876,0.4457158,-0.27526757,0.06422687,0.63350636,-0.7710672,-0.7552239,-0.4742044,-0.452512,-0.6523127,0.6113918,0.44798243,,1.13073937924533,0.15850136951058383,0.20026902726,-0.8901338100918059,0.18322954618545564,0.02685131236643218,0.7948322258094028,,-1.413800707284281,0.06761252631383559,0.23150961626000002,0.1660744352397433,-0.06681524838530038,-0.36077135996706833,-0.1471730035869856,,0.0250542014123786,0.03150755632162763,0.0839748988,-0.11775085106328897,,3.5017729e-06,-1.7881393e-06,2.3841858e-07,0.99999994,-6.3963234e-06,-6.7800283e-06,6.388873e-06,1.0,-6.556511e-07,6.7800283e-06,5.9604645e-07,1.0,95,0.291,1,1,0.267,False,0.9695081860578565,0.013614999434665265
0.28716005897149444,16:16:16.370179,16:14:49.513485,0,,0.092288025,-0.0043329,-0.0066413134,0.10294788,-0.9748656,-0.19758192,-0.6764029,-0.21425155,0.7046809,-0.7293016,0.061099574,-0.6814587,,0.11149699,0.003055632,0.010323167,-0.0427437,-0.5301859,0.8468032,-0.92365694,0.34404793,0.16878644,-0.3808292,-0.77494127,-0.50441587,,0.057684917,1.3275623,0.43760237,0.9967669,0.07913468,-0.013906039,0.04405834,-0.68306124,-0.729031,-0.06719031,0.72606134,-0.6843394,,-0.052370343,0.25504163,-0.044073317,-0.0708977,0.9651163,0.25203973,-0.9974548,-0.066676185,-0.0252618,-0.007575527,-0.25318927,0.9673871,,-0.06318991,0.44596082,-0.27549955,0.06548605,0.63419247,-0.770397,-0.7537227,-0.4745116,-0.45468763,-0.6539217,0.6104414,0.44693136,,1.1307779929097013,0.15847820131196116,0.20027421242000001,-0.8897144302048369,0.1830929096856902,0.02704440901026922,0.794342193611,,-1.4140710029348789,0.06790599016305611,0.23115443280000003,0.1660744352397433,-0.06968461488037464,-0.3597384438316925,-0.14700965952085132,,0.0250542014123786,0.03150755632162763,0.0839748988,-0.11775085106328897,,3.5017729e-06,-1.7881393e-06,2.3841858e-07,0.99999994,-6.3963234e-06,-6.7800283e-06,6.388873e-06,1.0,-6.556511e-07,6.7800283e-06,5.9604645e-07,1.0,103,0.316,1,1,0.292,False,0.9696273414948982,0.013228757828429583
0.33360003191046417,16:16:16.400449,16:14:49.663075,0,,0.0922837,-0.004337162,-0.006651178,0.10304047,-0.97458035,-0.1989364,-0.6768056,-0.21525885,0.70398694,-0.72891474,0.062102154,-0.6817819,,0.11136973,0.0029820204,0.0105704665,-0.043666173,-0.5299876,0.84688026,-0.9240819,0.34359437,0.1673786,-0.3796918,-0.7752781,-0.5047555,,0.057684917,1.3275623,0.43760237,0.9967669,0.07913468,-0.013906039,0.04405834,-0.68306124,-0.729031,-0.06719031,0.72606134,-0.6843394,,-0.052365508,0.25503162,-0.044070117,-0.07102129,0.9647514,0.25339818,-0.9974417,-0.066619076,-0.025922613,-0.008127726,-0.254591,0.9670147,,-0.06309737,0.4461587,-0.27568668,0.066243485,0.63402635,-0.77046895,-0.7528177,-0.4750364,-0.45563793,-0.65488726,0.6102057,0.4458382,,1.1307779929097013,0.15844731038046428,0.20027939758000002,-0.8897144302048369,0.18254636368662844,0.02847022550674161,0.7946688817432686,,-1.414349021318351,0.06811450395066018,0.23087573045,0.1660744352397433,-0.07146088937732537,-0.3597602284061691,-0.14733634765311987,,0.0250542014123786,0.03150755632162763,0.0839748988,-0.11775085106328897,,3.5017729e-06,-1.7881393e-06,2.3841858e-07,0.99999994,-6.3963234e-06,-6.7800283e-06,6.388873e-06,1.0,-6.556511e-07,6.7800283e-06,5.9604645e-07,1.0,116,0.357,1,1,0.333,False,0.9692102974652514,0.013663279635444336
0.3638718358706683,16:16:16.432007,16:14:49.663075,0,,0.09227523,-0.004340261,-0.006658584,0.103463486,-0.97449386,-0.19914038,-0.67684025,-0.21568903,0.70382196,-0.7288227,0.061966337,-0.6818927,,0.11123515,0.002902642,0.010861635,-0.046998776,-0.528996,0.8473217,-0.9229809,0.34736204,0.16566812,-0.3819651,-0.77427566,-0.50457895,,0.057684917,1.3275623,0.43760237,0.9967669,0.07913468,-0.013906039,0.04405834,-0.68306124,-0.729031,-0.06719031,0.72606134,-0.6843394,,-0.052356657,0.25502434,-0.044067916,-0.07144973,0.96466535,0.2536054,-0.99741054,-0.06701122,-0.026108697,-0.008191749,-0.25481415,0.96695536,,-0.06300336,0.4463936,-0.27589932,0.069868475,0.63301945,-0.7709765,-0.7539879,-0.4725318,-0.4563068,-0.653162,0.61318845,0.44427395,,1.1307857156425754,0.15840097398321892,0.20028458274000002,-0.8901338100918059,0.182409727186863,0.028581643410438007,0.7946688817432686,,-1.4147274352291879,0.06830757227251578,0.23055813940000003,0.17026823410943376,-0.07173416237685623,-0.3606808949607441,-0.14733634765311987,,0.0250542014123786,0.03150755632162763,0.0839748988,-0.11775085106328897,,3.5017729e-06,-1.7881393e-06,2.3841858e-07,0.99999994,-6.3963234e-06,-6.7800283e-06,6.388873e-06,1.0,-6.556511e-07,6.7800283e-06,5.9604645e-07,1.0,141,0.435,1,1,0.411,False,0.9690911420282089,0.013663279635444336
0.3954240339808166,16:16:16.510924,16:14:49.663075,0,,0.09225693,-0.004343599,-0.0066640377,0.10344267,-0.97451067,-0.19906896,-0.67685765,-0.2156219,0.7038258,-0.7288095,0.061935745,-0.6819096,,0.11082192,0.002601713,0.011792541,-0.051740035,-0.5264516,0.8486292,-0.9218456,0.35200053,0.16216138,-0.384088,-0.77391505,-0.50351965,,0.057684917,1.3275623,0.43760237,0.9967669,0.07913468,-0.013906039,0.04405834,-0.68306124,-0.729031,-0.06719031,0.72606134,-0.6843394,,-0.052338127,0.25501865,-0.044067737,-0.07143008,0.96468526,0.25353524,-0.9974118,-0.06698827,-0.026121065,-0.00821472,-0.25474486,0.9669734,,-0.06272098,0.44712117,-0.27661958,0.07487175,0.6305791,-0.77250516,-0.7548669,-0.47035453,-0.45710236,-0.65159047,0.6173627,0.44078702,,1.1308320520398207,0.15831602392160246,0.20028976790000003,-0.8901338100918059,0.182409727186863,0.02841828593015694,0.7946688817432686,,-1.416009408886309,0.06875549077922082,0.22953795917000003,0.17551048269654687,-0.07337380037404152,-0.3626110297220096,-0.14668297138858272,,0.0250542014123786,0.03150755632162763,0.0839748988,-0.11775085106328897,,3.5017729e-06,-1.7881393e-06,2.3841858e-07,0.99999994,-6.3963234e-06,-6.7800283e-06,6.388873e-06,1.0,-6.556511e-07,6.7800283e-06,5.9604645e-07,1.0,149,0.46,1,1,0.436,False,0.9692698751837723,0.015063405458049406
0.47435247781686485,16:16:16.549222,16:14:49.812623,0,,0.0922537,-0.0043457747,-0.0066666454,0.10344196,-0.9745075,-0.19908473,-0.6768687,-0.2156319,0.7038121,-0.72879934,0.061950527,-0.6819191,,0.110645786,0.002484873,0.012160897,-0.05192152,-0.5249181,0.84956753,-0.9216639,0.35272884,0.16161112,-0.3844995,-0.7746247,-0.50211227,,0.057684917,1.3275623,0.43760237,0.9967669,0.07913468,-0.013906039,0.04405834,-0.68306124,-0.729031,-0.06719031,0.72606134,-0.6843394,,-0.052334778,0.25501537,-0.044067785,-0.0714302,0.964681,0.25355127,-0.99741167,-0.06698413,-0.026136694,-0.008229659,-0.25476196,0.9669688,,-0.062596664,0.44741136,-0.27690366,0.075109296,0.62916964,-0.7736305,-0.75512946,-0.470805,-0.45620412,-0.6512589,0.61845636,0.43974268,,1.1308320520398207,0.15829285572297977,0.20029106419,-0.8901338100918059,0.182409727186863,0.02841828593015694,0.7946688817432686,,-1.4164650501258884,0.06892539090245375,0.22912703524000003,0.17592986258351595,-0.07337380037404152,-0.36399956830439917,-0.1465196273224485,,0.0250542014123786,0.03150755632162763,0.0839748988,-0.11775085106328897,,3.5017729e-06,-1.7881393e-06,2.3841858e-07,0.99999994,-6.3963234e-06,-6.7800283e-06,6.388873e-06,1.0,-6.556511e-07,6.7800283e-06,5.9604645e-07,1.0,162,0.5,1,1,0.476,False,0.9691507197467302,0.014001241040900947
0.512649955926463,16:16:16.579601,16:14:49.812623,0,,0.0922492,-0.00434646,-0.006669551,0.10343821,-0.97450364,-0.19910552,-0.6768758,-0.21564375,0.7038016,-0.7287932,0.061969727,-0.68192387,,0.11044533,0.0023711175,0.012525916,-0.053438324,-0.52323765,0.8505095,-0.92076313,0.3554356,0.16081335,-0.386445,-0.77452433,-0.5007718,,0.057684917,1.3275623,0.43760237,0.9967669,0.07913468,-0.013906039,0.04405834,-0.68306124,-0.729031,-0.06719031,0.72606134,-0.6843394,,-0.05233013,0.2550129,-0.044066608,-0.07142697,0.9646758,0.2535721,-0.9974118,-0.06697799,-0.026146658,-0.008239298,-0.2547834,0.96696305,,-0.062447723,0.44770247,-0.27718547,0.07688663,0.6275657,-0.77475786,-0.75628495,-0.46965155,-0.45547828,-0.6497088,0.6209579,0.43850854,,1.130839774772695,0.1582696875243571,0.20029365677000002,-0.8901338100918059,0.182409727186863,0.02841828593015694,0.7946688817432686,,-1.416828018570977,0.06909529102568669,0.2287044447,0.17844614190533023,-0.07282725437497976,-0.3656704210212932,-0.14733634765311981,,0.0250542014123786,0.03150755632162763,0.0839748988,-0.11775085106328897,,3.5017729e-06,-1.7881393e-06,2.3841858e-07,0.99999994,-6.3963234e-06,-6.7800283e-06,6.388873e-06,1.0,-6.556511e-07,6.7800283e-06,5.9604645e-07,1.0,170,0.525,1,1,0.502,False,0.9692698751837723,0.014435762847916145
0.5430305500049144,16:16:16.602335,16:14:49.812623,0,,0.09224804,-0.0043483675,-0.0066723377,0.10344079,-0.97450227,-0.19911098,-0.676887,-0.21564852,0.7037894,-0.7287825,0.061975114,-0.68193483,,0.11025414,0.0022907704,0.012864411,-0.051460743,-0.52104044,0.85197914,-0.92025805,0.3561123,0.16220084,-0.3879135,-0.77569383,-0.49781752,,0.057684917,1.3275623,0.43760237,0.9967669,0.07913468,-0.013906039,0.04405834,-0.68306124,-0.729031,-0.06719031,0.72606134,-0.6843394,,-0.052328832,0.2550096,-0.04406622,-0.07143041,0.964674,0.25357804,-0.99741143,-0.06697725,-0.026162744,-0.00825456,-0.25479046,0.9669611,,-0.062303662,0.44798446,-0.27742493,0.07512768,0.6255555,-0.776554,-0.7575531,-0.4705993,-0.45238218,-0.6484359,0.6222673,0.43853647,,1.1308320520398207,0.15825424205860866,0.20029495306000003,-0.8901338100918059,0.182409727186863,0.02841828593015694,0.7946688817432686,,-1.4171137596873233,0.06929608208041653,0.22831685399,0.17781707207487665,-0.07064107037873271,-0.36794317992127934,-0.14668297138858277,,0.0250542014123786,0.03150755632162763,0.0839748988,-0.11775085106328897,,3.5017729e-06,-1.7881393e-06,2.3841858e-07,0.99999994,-6.3963234e-06,-6.7800283e-06,6.388873e-06,1.0,-6.556511e-07,6.7800283e-06,5.9604645e-07,1.0,183,0.566,1,1,0.542,False,0.9690911420282089,0.013856400438562844
0.565766479820013,16:16:16.647050,16:14:49.812623,0,,0.092239246,-0.004350513,-0.006677106,0.10343331,-0.9744946,-0.19915253,-0.6769013,-0.2156722,0.7037683,-0.7287702,0.062013507,-0.68194443,,0.10997716,0.0021781176,0.013284564,-0.049391218,-0.51881504,0.8534584,-0.9195717,0.3571181,0.16387379,-0.38980564,-0.77672243,-0.49472618,,0.057684917,1.3275623,0.43760237,0.9967669,0.07913468,-0.013906039,0.04405834,-0.68306124,-0.729031,-0.06719031,0.72606134,-0.6843394,,-0.05231981,0.2550049,-0.0440651,-0.071423955,0.9646635,0.25361967,-0.9974117,-0.06696496,-0.02618267,-0.008273836,-0.25483328,0.9669496,,-0.062085874,0.44833255,-0.27773687,0.073336735,0.6235086,-0.7783693,-0.7591224,-0.4712751,-0.44903567,-0.6468037,0.6238084,0.43875748,,1.1308474975055691,0.1582079056613633,0.20029884193000003,-0.8901338100918059,0.182409727186863,0.02841828593015694,0.7946688817432686,,-1.4173377189406757,0.06952004133376903,0.22780741202000002,0.1773976921879076,-0.06804497688318935,-0.37030515631193306,-0.14749969171925414,,0.0250542014123786,0.03150755632162763,0.0839748988,-0.11775085106328897,,3.5017729e-06,-1.7881393e-06,2.3841858e-07,0.99999994,-6.3963234e-06,-6.7800283e-06,6.388873e-06,1.0,-6.556511e-07,6.7800283e-06,5.9604645e-07,1.0,191,0.59,1,1,0.566,False,0.9690315643096881,0.013711559836224296
0.6104749599471688,16:16:16.670485,16:14:49.812623,0,,0.09223579,-0.004348591,-0.006679639,0.10320434,-0.9745425,-0.19903706,-0.67684823,-0.21543865,0.703891,-0.72885203,0.06207329,-0.6818516,,0.10977966,0.0020920932,0.013551593,-0.048016652,-0.5169411,0.85467315,-0.9187976,0.35849172,0.16521116,-0.39179772,-0.77733886,-0.49217784,,0.057684917,1.3275623,0.43760237,0.9967669,0.07913468,-0.013906039,0.04405834,-0.68306124,-0.729031,-0.06719031,0.72606134,-0.6843394,,-0.052316163,0.25500444,-0.04406216,-0.07118946,0.964712,0.2535011,-0.9974292,-0.066762365,-0.026035368,-0.0081923,-0.25470284,0.9669847,,-0.061926577,0.44854936,-0.27794975,0.072249986,0.62176746,-0.7798623,-0.7606696,-0.47138318,-0.44629556,-0.645106,0.62546235,0.43890214,,1.1308552202384434,0.15819246019561486,0.20030273080000002,-0.8899241201483213,0.18254636368662844,0.028306868026460485,0.7946688817432686,,-1.4174072235365438,0.06958182319676283,0.22746519146000002,0.17760738213139213,-0.0655855198874114,-0.3723923573186092,-0.14733634765311987,,0.0250542014123786,0.03150755632162763,0.0839748988,-0.11775085106328897,,3.5017729e-06,-1.7881393e-06,2.3841858e-07,0.99999994,-6.3963234e-06,-6.7800283e-06,6.388873e-06,1.0,-6.556511e-07,6.7800283e-06,5.9604645e-07,1.0,204,0.631,1,1,0.607,False,0.9690315643096881,0.014242642044798082
0.6339178348425776,16:16:16.712126,16:14:49.955571,0,,0.09222275,-0.00434795,-0.006684825,0.10298546,-0.9745442,-0.19914198,-0.6768951,-0.21536249,0.70386916,-0.7288394,0.06230995,-0.6818435,,0.109584905,0.0020063818,0.013828039,-0.045978718,-0.5147128,0.8561287,-0.9179761,0.35976732,0.16699538,-0.3939618,-0.77822757,-0.4890358,,0.057684917,1.3275623,0.43760237,0.9967669,0.07913468,-0.013906039,0.04405834,-0.68306124,-0.729031,-0.06719031,0.72606134,-0.6843394,,-0.052302826,0.25500146,-0.044058938,-0.07097268,0.9647007,0.25360486,-0.99744415,-0.06653594,-0.026040584,-0.008247533,-0.25480485,0.96695733,,-0.061771184,0.44877437,-0.27816635,0.07052885,0.6197072,-0.7816576,-0.76241446,-0.4718126,-0.44285107,-0.64323395,0.6271808,0.43919736,,1.1308938339028145,0.1581384010654953,0.20030921225,-0.8897144302048369,0.18254636368662844,0.028388546766601075,0.7945055376771344,,-1.4175076190639087,0.0696358823268824,0.22711778574000002,0.1773976921879076,-0.06257951689257173,-0.37484355119993046,-0.14733634765311987,,0.0250542014123786,0.03150755632162763,0.0839748988,-0.11775085106328897,,3.5017729e-06,-1.7881393e-06,2.3841858e-07,0.99999994,-6.3963234e-06,-6.7800283e-06,6.388873e-06,1.0,-6.556511e-07,6.7800283e-06,5.9604645e-07,1.0,212,0.656,1,1,0.632,False,0.968733675717083,0.013277038029209098
0.6755577959120274,16:16:16.735352,16:14:49.955571,0,,0.09220274,-0.004343167,-0.00668703,0.10292975,-0.97455055,-0.19913952,-0.6767895,-0.21533209,0.7039801,-0.7289453,0.062315017,-0.68172973,,0.10942262,0.0019400418,0.014076471,-0.044415496,-0.5125208,0.85752517,-0.9171004,0.36131907,0.16844997,-0.39617434,-0.77895504,-0.4860813,,0.057684917,1.3275623,0.43760237,0.9967669,0.07913468,-0.013906039,0.04405834,-0.68306124,-0.729031,-0.06719031,0.72606134,-0.6843394,,-0.052282635,0.2550037,-0.04405502,-0.07090862,0.9647074,0.25359753,-0.99744993,-0.066511564,-0.025881955,-0.008101343,-0.25478607,0.9669635,,-0.06164388,0.44898018,-0.27835044,0.06928605,0.61766994,-0.7833794,-0.76412934,-0.4719698,-0.4397168,-0.64133126,0.6290694,0.4392788,,1.1309710612315567,0.1580766192025015,0.20031698999000003,-0.8897144302048369,0.18268300018639388,0.02827712886290462,0.7945055376771344,,-1.4176389055227705,0.06972083238849887,0.22681704646000003,0.17760738213139213,-0.059846786897262916,-0.37723526675414,-0.14700965952085132,,0.0250542014123786,0.03150755632162763,0.0839748988,-0.11775085106328897,,3.5017729e-06,-1.7881393e-06,2.3841858e-07,0.99999994,-6.3963234e-06,-6.7800283e-06,6.388873e-06,1.0,-6.556511e-07,6.7800283e-06,5.9604645e-07,1.0,225,0.697,1,1,0.673,False,0.9692698751837723,0.013421878631547202
0.6987288438249379,16:16:16.781739,16:14:49.955571,0,,0.09221409,-0.004364878,-0.0066735297,0.103121236,-0.9744863,-0.19935462,-0.67673934,-0.2156211,0.70393974,-0.72896487,0.06231997,-0.6817085,,0.10918424,0.0018237494,0.014378965,-0.04269758,-0.51034707,0.8589077,-0.9163796,0.3624978,0.16983494,-0.39802682,-0.77983403,-0.48314953,,0.057667434,1.3275648,0.43759724,0.9967661,0.07914786,-0.013891974,0.04407757,-0.6830597,-0.72903126,-0.06719031,0.72606134,-0.6843394,,-0.05228099,0.25500497,-0.044081934,-0.07108431,0.964642,0.25379694,-0.9974379,-0.06669092,-0.025884164,-0.0080430005,-0.2549866,0.96691114,,-0.061434515,0.44922513,-0.2786119,0.06785867,0.61565727,-0.7850868,-0.76561064,-0.47242197,-0.43664387,-0.63971525,0.6307009,0.43929583,,1.1310791794917958,0.15799939187375925,0.20032476773000002,-0.8899241201483213,0.18268300018639388,0.02827712886290462,0.7945055376771344,,-1.4178860329747458,0.06986756431310914,0.22646575187,0.1773976921879076,-0.05738732990148499,-0.3794041465009567,-0.14733634765311987,,0.0250542014123786,0.03150755632162763,0.0839748988,-0.11775085106328897,,-1.3455749e-05,-8.6426735e-06,2.2649765e-06,0.99999994,6.8098307e-06,7.2307885e-06,-6.813556e-06,1.0,5.9604645e-07,-7.227063e-06,-6.854534e-07,1.0,233,0.721,1,1,0.697,False,0.9690911420282089,0.014628883651033764
0.745167015818879,16:16:16.802677,16:14:49.955571,0,,0.09220357,-0.0043613017,-0.006675437,0.102698,-0.97453547,-0.19933255,-0.6768119,-0.21531308,0.70396435,-0.7289573,0.06261493,-0.68168956,,0.109115556,0.0017940365,0.014519095,-0.039898653,-0.5091319,0.859763,-0.91654104,0.36133245,0.17143929,-0.39794537,-0.78116804,-0.4810571,,0.057667434,1.3275648,0.43759724,0.9967661,0.07914786,-0.013891974,0.04407757,-0.6830597,-0.72903126,-0.06719031,0.72606134,-0.6843394,,-0.052270308,0.2550063,-0.044078592,-0.07066376,0.9646788,0.25377426,-0.9974671,-0.06626414,-0.02585431,-0.008124974,-0.25495842,0.9669179,,-0.06138514,0.4493424,-0.278707,0.0650689,0.6145908,-0.78615785,-0.76589566,-0.474256,-0.43414867,-0.6396639,0.6303645,0.43985316,,1.1311255158890412,0.15796850094226234,0.20032995289000002,-0.8895047402613524,0.18268300018639388,0.02827712886290462,0.7945055376771344,,-1.418032764899356,0.06993706890897716,0.22631278965,0.17509110280957785,-0.055884328404065146,-0.3806297434416174,-0.14733634765311987,,0.0250542014123786,0.03150755632162763,0.0839748988,-0.11775085106328897,,-1.3455749e-05,-8.6426735e-06,2.2649765e-06,0.99999994,6.8098307e-06,7.2307885e-06,-6.813556e-06,1.0,5.9604645e-07,-7.227063e-06,-6.854534e-07,1.0,246,0.762,1,1,0.738,False,0.9693294529022931,0.014918564855710414
0.7661097799427807,16:16:16.845146,16:14:50.099793,0,,0.0921825,-0.0043493956,-0.0066803396,0.10263662,-0.9745751,-0.19917035,-0.6766913,-0.21516478,0.70412564,-0.7290779,0.06250777,-0.6815704,,0.10900867,0.0017483495,0.0148409605,-0.039276633,-0.5060786,0.8615924,-0.91487277,0.3649594,0.1726629,-0.4018272,-0.78146595,-0.47733206,,0.057667434,1.3275648,0.43759724,0.9967661,0.07914786,-0.013891974,0.04407757,-0.6830597,-0.72903126,-0.06719031,0.72606134,-0.6843394,,-0.05224875,0.25501135,-0.044067636,-0.07059287,0.9647277,0.2536081,-0.9974735,-0.066242665,-0.02566313,-0.007958256,-0.25477898,0.96696657,,-0.061321575,0.44961697,-0.27890116,0.06499447,0.61170214,-0.78841376,-0.7686295,-0.47317398,-0.43048236,-0.63638383,0.63397706,0.4394186,,1.131218188683532,0.157922164545017,0.20034421208000003,-0.8895047402613524,0.18281963668615933,0.0280023534789271,0.7948322258094029,,-1.4185579107348032,0.07016102816232966,0.22600038376000003,0.17718800224442308,-0.05246841590992913,-0.3836602272544496,-0.14684631545471705,,0.0250542014123786,0.03150755632162763,0.0839748988,-0.11775085106328897,,-1.3455749e-05,-8.6426735e-06,2.2649765e-06,0.99999994,6.8098307e-06,7.2307885e-06,-6.813556e-06,1.0,5.9604645e-07,-7.227063e-06,-6.854534e-07,1.0,254,0.787,1,1,0.763,False,0.9687932534356039,0.015449647064285088
0.808567521860823,16:16:16.867475,16:14:50.099793,0,,0.092171304,-0.0043374,-0.0066919476,0.102597214,-0.97457397,-0.19919614,-0.6765862,-0.21516582,0.7042262,-0.7291809,0.06252174,-0.6814589,,0.108956926,0.0017131977,0.014966786,-0.038962744,-0.5058307,0.8617522,-0.9148607,0.36491016,0.17283082,-0.4018853,-0.78164935,-0.47698268,,0.057667434,1.3275648,0.43759724,0.9967661,0.07914786,-0.013891974,0.04407757,-0.6830597,-0.72903126,-0.06719031,0.72606134,-0.6843394,,-0.052236643,0.25501117,-0.04405161,-0.07054529,0.96472573,0.25362894,-0.99747795,-0.06623306,-0.02551222,-0.007813674,-0.25478905,0.9669651,,-0.06128733,0.4497174,-0.27899325,0.06469104,0.61147845,-0.7886122,-0.76870716,-0.4733837,-0.43011305,-0.636321,0.63403624,0.4394242,,1.131256802347903,0.15789899634639432,0.20036236014000003,-0.8895047402613524,0.18295627318592475,0.027972614315371236,0.7949955698755371,,-1.4187432563237847,0.0702305327581977,0.22586686589000002,0.17697831230093855,-0.0523317794101637,-0.383771645158146,-0.14684631545471705,,0.0250542014123786,0.03150755632162763,0.0839748988,-0.11775085106328897,,-1.3455749e-05,-8.6426735e-06,2.2649765e-06,0.99999994,6.8098307e-06,7.2307885e-06,-6.813556e-06,1.0,5.9604645e-07,-7.227063e-06,-6.854534e-07,1.0,267,0.828,1,1,0.804,False,0.9691507197467302,0.015015125257269446
0.8309071299154311,16:16:16.905679,16:14:50.099793,0,,0.09216617,-0.0043405592,-0.006693259,0.10259324,-0.9745528,-0.19930175,-0.67659706,-0.21523854,0.70419353,-0.7291714,0.06260152,-0.6814618,,0.10885618,0.0016444288,0.015217066,-0.035790578,-0.5041481,0.86287504,-0.91511136,0.36351663,0.17443301,-0.4016094,-0.78338385,-0.47436225,,0.057667434,1.3275648,0.43759724,0.9967661,0.07914786,-0.013891974,0.04407757,-0.6830597,-0.72903126,-0.06719031,0.72606134,-0.6843394,,-0.05223151,0.25500825,-0.044053342,-0.070542105,0.9646984,0.2537339,-0.99747807,-0.066223465,-0.025532803,-0.007828315,-0.25489515,0.966937,,-0.061221343,0.44991753,-0.27917525,0.06150392,0.6099934,-0.790016,-0.7688988,-0.47572324,-0.42717913,-0.63640547,0.63371557,0.43976438,,1.1312645250807774,0.15786810541489743,0.20036236014000003,-0.8895047402613524,0.18295627318592475,0.028054293055511825,0.7945055376771344,,-1.4191062247688733,0.07032320555268838,0.22560242273000003,0.17425234303563975,-0.050828777912743844,-0.38532395705936895,-0.14619293919017995,,0.0250542014123786,0.03150755632162763,0.0839748988,-0.11775085106328897,,-1.3455749e-05,-8.6426735e-06,2.2649765e-06,0.99999994,6.8098307e-06,7.2307885e-06,-6.813556e-06,1.0,5.9604645e-07,-7.227063e-06,-6.854534e-07,1.0,275,0.853,1,1,0.829,False,0.9692698751837723,0.014387482647136629
0.8690649559721351,16:16:16.934882,16:14:50.099793,0,,0.09216617,-0.0043405592,-0.006693259,0.10259324,-0.9745528,-0.19930175,-0.67659706,-0.21523854,0.70419353,-0.7291714,0.06260152,-0.6814618,,0.10879949,0.0016028099,0.015320897,-0.0355273,-0.5037621,0.8631114,-0.914984,0.36373916,0.17463692,-0.40192282,-0.78352886,-0.4738571,,0.057667434,1.3275648,0.43759724,0.9967661,0.07914786,-0.013891974,0.04407757,-0.6830597,-0.72903126,-0.06719031,0.72606134,-0.6843394,,-0.05223151,0.25500825,-0.044053342,-0.070542105,0.9646984,0.2537339,-0.99747807,-0.066223465,-0.025532803,-0.007828315,-0.25489515,0.966937,,-0.061179552,0.44999605,-0.27926362,0.06128648,0.6096354,-0.7903092,-0.7691444,-0.47578904,-0.4266634,-0.63612956,0.6340106,0.43973824,,1.1312645250807774,0.15786810541489743,0.20036236014000003,-0.8895047402613524,0.18295627318592475,0.028054293055511825,0.7945055376771344,,-1.4192143430291124,0.07032320555268838,0.22547927518000002,0.17425234303563975,-0.050418868413447525,-0.38565821077045814,-0.14651962732244855,,0.0250542014123786,0.03150755632162763,0.0839748988,-0.11775085106328897,,-1.3455749e-05,-8.6426735e-06,2.2649765e-06,0.99999994,6.8098307e-06,7.2307885e-06,-6.813556e-06,1.0,5.9604645e-07,-7.227063e-06,-6.854534e-07,1.0,288,0.894,1,1,0.87,False,0.9691507197467302,0.014822004454151827
0.8983016579877585,16:16:16.973101,16:14:50.099793,0,,0.09216511,-0.004339844,-0.0066925436,0.102590196,-0.97455215,-0.19930676,-0.6765933,-0.2152404,0.70419663,-0.7291753,0.06260596,-0.68145716,,0.10871796,0.0015414022,0.015510857,-0.03557827,-0.5017463,0.86428267,-0.9137672,0.36653143,0.17516908,-0.40467715,-0.78352106,-0.47152,,0.057667434,1.3275648,0.43759724,0.9967661,0.07914786,-0.013891974,0.04407757,-0.6830597,-0.72903126,-0.06719031,0.72606134,-0.6843394,,-0.05223048,0.2550093,-0.044053353,-0.07053876,0.96469736,0.25373867,-0.99747837,-0.06622145,-0.025527136,-0.0078230165,-0.25489947,0.96693593,,-0.06112471,0.45014426,-0.27941036,0.061722677,0.60771316,-0.7917544,-0.77101934,-0.47471243,-0.424473,-0.6338135,0.63665754,0.43925807,,1.1312722478136514,0.15786810541489743,0.20036236014000003,-0.8895047402613524,0.18295627318592475,0.028054293055511825,0.7945055376771344,,-1.419476915946836,0.07030776008693994,0.22527186878000002,0.17613955252700045,-0.04809604791743504,-0.3877156726135785,-0.14684631545471705,,0.0250542014123786,0.03150755632162763,0.0839748988,-0.11775085106328897,,-1.3455749e-05,-8.6426735e-06,2.2649765e-06,0.99999994,6.8098307e-06,7.2307885e-06,-6.813556e-06,1.0,5.9604645e-07,-7.227063e-06,-6.854534e-07,1.0,296,0.918,1,1,0.894,False,0.9687932534356039,0.01337359843076813
0.9364466588012874,16:16:17.004047,16:14:50.270108,0,,0.09216511,-0.004339844,-0.0066925436,0.102590196,-0.97455215,-0.19930676,-0.6765933,-0.2152404,0.70419663,-0.7291753,0.06260596,-0.68145716,,0.10863878,0.001497265,0.015652776,-0.032509413,-0.49892986,0.8660322,-0.9133631,0.366678,0.17696081,-0.40584594,-0.7852491,-0.46762475,,0.057667434,1.3275648,0.43759724,0.9967661,0.07914786,-0.013891974,0.04407757,-0.6830597,-0.72903126,-0.06719031,0.72606134,-0.6843394,,-0.05223048,0.2550093,-0.044053353,-0.07053876,0.96469736,0.25373867,-0.99747837,-0.06622145,-0.025527136,-0.0078230165,-0.25489947,0.96693593,,-0.061065566,0.4502576,-0.27951998,0.058840726,0.6051458,-0.7939372,-0.772179,-0.4764585,-0.42038894,-0.63267475,0.63779765,0.43924576,,1.1312722478136514,0.15786810541489743,0.20036236014000003,-0.8895047402613524,0.18295627318592475,0.028054293055511825,0.7945055376771344,,-1.4195927569399494,0.07026914642256882,0.22510594366000003,0.17446203297912427,-0.04522668142236079,-0.39079055725246836,-0.14700965952085132,,0.0250542014123786,0.03150755632162763,0.0839748988,-0.11775085106328897,,-1.3455749e-05,-8.6426735e-06,2.2649765e-06,0.99999994,6.8098307e-06,7.2307885e-06,-6.813556e-06,1.0,5.9604645e-07,-7.227063e-06,-6.854534e-07,1.0,309,0.959,1,1,0.935,False,0.9692698751837723,0.013228757828429583
0.9674793088342994,16:16:17.035735,16:14:50.270108,0,,0.092163906,-0.0043400526,-0.0066940933,0.102589965,-0.9745511,-0.199312,-0.67659694,-0.21524373,0.7041921,-0.72917193,0.062610865,-0.68146026,,0.1085577,0.0014331602,0.015815556,-0.03381088,-0.498116,0.8664508,-0.91247886,0.36906275,0.17656441,-0.4077243,-0.78464836,-0.46699876,,0.057667434,1.3275648,0.43759724,0.9967661,0.07914786,-0.013891974,0.04407757,-0.6830597,-0.72903126,-0.06719031,0.72606134,-0.6843394,,-0.052229185,0.25500804,-0.044052545,-0.0705388,0.96469593,0.253744,-0.9974783,-0.06622008,-0.025532346,-0.007828001,-0.25490516,0.9669344,,-0.061007757,0.45038047,-0.27965686,0.06039553,0.6043281,-0.7944432,-0.7733045,-0.4749219,-0.42005873,-0.63115174,0.63971615,0.43864647,,1.1312722478136514,0.1578603826820232,0.20036365643,-0.8895047402613524,0.18295627318592475,0.028054293055511825,0.7945055376771344,,-1.4197935479946793,0.07026142368969458,0.22491798161,0.17676862235745405,-0.044406862423768144,-0.39154074341478745,-0.1471730035869856,,0.0250542014123786,0.03150755632162763,0.0839748988,-0.11775085106328897,,-1.3455749e-05,-8.6426735e-06,2.2649765e-06,0.99999994,6.8098307e-06,7.2307885e-06,-6.813556e-06,1.0,5.9604645e-07,-7.227063e-06,-6.854534e-07,1.0,317,0.984,1,1,0.96,False,0.9689719865911672,0.013711559836224296
0.9991667079739273,16:16:17.054035,16:14:50.270108,0,,0.09216497,-0.0043407977,-0.0066948235,0.10259301,-0.97455174,-0.199307,-0.67660075,-0.21524186,0.704189,-0.729168,0.062606424,-0.68146497,,0.10852868,0.0014117174,0.015865624,-0.033476993,-0.4978772,0.866601,-0.91245323,0.3690298,0.17676571,-0.40780917,-0.78481543,-0.4666438,,0.057667434,1.3275648,0.43759724,0.9967661,0.07914786,-0.013891974,0.04407757,-0.6830597,-0.72903126,-0.06719031,0.72606134,-0.6843394,,-0.052230213,0.25500697,-0.044052534,-0.07054215,0.96469694,0.25373924,-0.99747807,-0.066222094,-0.025538012,-0.007833298,-0.25490084,0.96693546,,-0.06098598,0.45041794,-0.27970085,0.060076077,0.6041118,-0.7946319,-0.7734017,-0.47510883,-0.41966826,-0.63106316,0.63978165,0.43867838,,1.1312645250807774,0.1578603826820232,0.20036365643,-0.8895047402613524,0.18295627318592475,0.028054293055511825,0.7945055376771344,,-1.4198398843919247,0.07025370095682036,0.22485705598000003,0.1765589324139695,-0.044133589424237264,-0.3917635792221803,-0.1471730035869856,,0.0250542014123786,0.03150755632162763,0.0839748988,-0.11775085106328897,,-1.3455749e-05,-8.6426735e-06,2.2649765e-06,0.99999994,6.8098307e-06,7.2307885e-06,-6.813556e-06,1.0,5.9604645e-07,-7.227063e-06,-6.854534e-07,1.0,326,1.012,1,1,0.988,False,0.9694486083393352,0.014097801442459978
1.0174668179824948,16:16:17.087435,16:14:50.270108,0,,0.09216285,-0.0043393373,-0.0066933334,0.102586925,-0.97455037,-0.19931701,-0.6765931,-0.21524562,0.7041952,-0.7291759,0.062615335,-0.6814557,,0.10845585,0.001334127,0.016070485,-0.032950874,-0.49618652,0.86759025,-0.91177654,0.37046868,0.17724697,-0.40936252,-0.78520817,-0.46461862,,0.057667434,1.3275648,0.43759724,0.9967661,0.07914786,-0.013891974,0.04407757,-0.6830597,-0.72903126,-0.06719031,0.72606134,-0.6843394,,-0.052228156,0.2550091,-0.044052552,-0.07053545,0.9646949,0.25374877,-0.9974786,-0.06621807,-0.025526678,-0.007822704,-0.25490952,0.96693325,,-0.060942102,0.450571,-0.27986795,0.059771717,0.6025256,-0.7958582,-0.7745196,-0.47497085,-0.4177584,-0.62971956,0.6413779,0.43827805,,1.1312799705465257,0.1578603826820232,0.20036365643,-0.8895047402613524,0.18295627318592475,0.028054293055511825,0.7945055376771344,,-1.4201874073712646,0.07021508729244924,0.22463927926000002,0.17718800224442308,-0.04249395142705198,-0.39334563028695907,-0.14733634765311981,,0.0250542014123786,0.03150755632162763,0.0839748988,-0.11775085106328897,,-1.3455749e-05,-8.6426735e-06,2.2649765e-06,0.99999994,6.8098307e-06,7.2307885e-06,-6.813556e-06,1.0,5.9604645e-07,-7.227063e-06,-6.854534e-07,1.0,335,1.041,1,1,1.017,False,0.9692698751837723,0.013904680639341915
1.0508656189776957,16:16:17.117005,16:14:50.270108,0,,0.09216371,-0.0043393075,-0.0066951215,0.102589965,-0.9745511,-0.199312,-0.67659694,-0.21524373,0.7041921,-0.72917193,0.062610865,-0.68146026,,0.108408265,0.0012612455,0.016224861,-0.031807046,-0.4949346,0.86834776,-0.9114896,0.37082636,0.17797364,-0.41009152,-0.7858292,-0.46292272,,0.057667434,1.3275648,0.43759724,0.9967661,0.07914786,-0.013891974,0.04407757,-0.6830597,-0.72903126,-0.06719031,0.72606134,-0.6843394,,-0.052228913,0.25500777,-0.044051304,-0.0705388,0.96469593,0.253744,-0.9974783,-0.06622008,-0.025532346,-0.007828001,-0.25490516,0.9669344,,-0.060916673,0.45067906,-0.2800061,0.058738813,0.6013737,-0.7968058,-0.775149,-0.47548348,-0.41600424,-0.62904197,0.64207876,0.43822485,,1.1312722478136514,0.1578603826820232,0.20036495272000002,-0.8895047402613524,0.18295627318592475,0.028054293055511825,0.7945055376771344,,-1.4204808712204853,0.07011469176508432,0.22447465043000003,0.17676862235745405,-0.041127586429397574,-0.39445980932392327,-0.14733634765311981,,0.0250542014123786,0.03150755632162763,0.0839748988,-0.11775085106328897,,-1.3455749e-05,-8.6426735e-06,2.2649765e-06,0.99999994,6.8098307e-06,7.2307885e-06,-6.813556e-06,1.0,5.9604645e-07,-7.227063e-06,-6.854534e-07,1.0,349,1.086,1,1,1.062,False,0.9693294529022931,0.014049521241680019
1.0804241909645498,16:16:17.163410,16:14:50.270108,0,,0.09216376,-0.0043410063,-0.0066963583,0.102592774,-0.97456706,-0.19923268,-0.67660445,-0.21518765,0.70420206,-0.7291646,0.06255568,-0.6814732,,0.10835094,0.0011753254,0.016458154,-0.028403942,-0.49198845,0.87013805,-0.9107687,0.37147096,0.18030474,-0.41193882,-0.7873732,-0.4586391,,0.057667434,1.3275648,0.43759724,0.9967661,0.07914786,-0.013891974,0.04407757,-0.6830597,-0.72903126,-0.06719031,0.72606134,-0.6843394,,-0.052228913,0.25500572,-0.044051725,-0.070542194,0.96471626,0.2536658,-0.997478,-0.0662228,-0.025537813,-0.007838283,-0.25482756,0.96695477,,-0.06089203,0.45085195,-0.28019214,0.05562096,0.59866804,-0.79906374,-0.7767979,-0.4768528,-0.4113349,-0.6272889,0.6435899,0.4385211,,1.1312645250807774,0.157852659949149,0.20036495272000002,-0.8895047402613524,0.18295627318592475,0.027972614315371236,0.7946688817432686,,-1.420951957925813,0.06999112803909673,0.22424261452000002,0.17530079275306237,-0.03743840093573068,-0.39730473524344556,-0.14700965952085127,,0.0250542014123786,0.03150755632162763,0.0839748988,-0.11775085106328897,,-1.3455749e-05,-8.6426735e-06,2.2649765e-06,0.99999994,6.8098307e-06,7.2307885e-06,-6.813556e-06,1.0,5.9604645e-07,-7.227063e-06,-6.854534e-07,1.0,358,1.115,1,1,1.091,False,0.9690315643096881,0.014290922245577597
1.1268364889547229,16:16:17.188020,16:14:50.270108,0,,0.0921627,-0.004340276,-0.006695643,0.102589734,-0.9745826,-0.19915809,-0.67660064,-0.21513201,0.70422274,-0.7291686,0.06250447,-0.6814737,,0.10833204,0.0011111461,0.016619503,-0.027069047,-0.49031547,0.8711244,-0.9102411,0.3722962,0.18126374,-0.41319272,-0.7880267,-0.45638317,,0.057667434,1.3275648,0.43759724,0.9967661,0.07914786,-0.013891974,0.04407757,-0.6830597,-0.72903126,-0.06719031,0.72606134,-0.6843394,,-0.052227885,0.2550068,-0.044051737,-0.07053884,0.964736,0.25359178,-0.9974783,-0.06622288,-0.025526738,-0.007832985,-0.2547529,0.96697444,,-0.06089569,0.45096722,-0.2803233,0.05447238,0.59711576,-0.8003034,-0.77780104,-0.4772235,-0.4090028,-0.6261456,0.64475614,0.43844175,,1.1312722478136514,0.157852659949149,0.20036495272000002,-0.8895047402613524,0.18295627318592475,0.027890935575230702,0.7948322258094029,,-1.421361262768147,0.06989845524460604,0.22409354117000002,0.17509110280957785,-0.03552548993901452,-0.3987829071550548,-0.1471730035869856,,0.0250542014123786,0.03150755632162763,0.0839748988,-0.11775085106328897,,-1.3455749e-05,-8.6426735e-06,2.2649765e-06,0.99999994,6.8098307e-06,7.2307885e-06,-6.813556e-06,1.0,5.9604645e-07,-7.227063e-06,-6.854534e-07,1.0,372,1.16,1,1,1.136,False,0.9692698751837723,0.014290922245577597
1.1514485708903521,16:16:17.242549,16:14:50.468858,0,,0.09216164,-0.004339576,-0.006694928,0.10258669,-0.9745819,-0.19916306,-0.6765968,-0.2151339,0.7042258,-0.7291725,0.062508926,-0.681469,,0.10829037,0.0009949617,0.016899109,-0.024106719,-0.48642474,0.8733897,-0.908883,0.37451467,0.18349543,-0.41635394,-0.7893857,-0.45113155,,0.057667434,1.3275648,0.43759724,0.9967661,0.07914786,-0.013891974,0.04407757,-0.6830597,-0.72903126,-0.06719031,0.72606134,-0.6843394,,-0.05222686,0.25500783,-0.044051744,-0.07053549,0.964735,0.25359654,-0.99747854,-0.066220865,-0.025521072,-0.007827688,-0.25475726,0.96697336,,-0.060893327,0.45116565,-0.28055578,0.051977057,0.5934934,-0.80315876,-0.7802762,-0.47780687,-0.40357113,-0.6232716,0.6476621,0.43825376,,1.1312799705465257,0.157852659949149,0.20036495272000002,-0.8895047402613524,0.18295627318592475,0.027890935575230702,0.7948322258094029,,-1.4220331405282043,0.0696667732583793,0.22382780172000002,0.1748814128660933,-0.03087984894698954,-0.40248943714059265,-0.14700965952085132,,0.0250542014123786,0.03150755632162763,0.0839748988,-0.11775085106328897,,-1.3455749e-05,-8.6426735e-06,2.2649765e-06,0.99999994,6.8098307e-06,7.2307885e-06,-6.813556e-06,1.0,5.9604645e-07,-7.227063e-06,-6.854534e-07,1.0,381,1.188,1,1,1.164,False,0.968912408872646,0.013518439033106233
1.2059715969953686,16:16:17.269224,16:14:50.468858,0,,0.09216043,-0.0043397695,-0.0066964626,0.102586456,-0.9745808,-0.1991683,-0.6766005,-0.21513723,0.70422125,-0.7291692,0.06251384,-0.6814722,,0.108272836,0.0009259246,0.017049968,-0.0225732,-0.48339307,0.8751122,-0.9076718,0.3768323,0.18474098,-0.41907302,-0.79014456,-0.44726866,,0.057667434,1.3275648,0.43759724,0.9967661,0.07914786,-0.013891974,0.04407757,-0.6830597,-0.72903126,-0.06719031,0.72606134,-0.6843394,,-0.05222556,0.25500658,-0.044050936,-0.07053553,0.96473354,0.25360188,-0.99747854,-0.066219494,-0.025526281,-0.007832672,-0.25476295,0.9669718,,-0.06089713,0.45126933,-0.28068644,0.050837718,0.5906489,-0.8053257,-0.78228295,-0.47772753,-0.39976212,-0.6208453,0.6503155,0.43776795,,1.1312799705465257,0.15784493721627477,0.20036624901000002,-0.8895047402613524,0.18295627318592475,0.027890935575230702,0.7948322258094029,,-1.4224115544390412,0.06947370493652369,0.22368520982,0.17551048269654687,-0.027463936452853527,-0.4055199209534248,-0.14749969171925414,,0.0250542014123786,0.03150755632162763,0.0839748988,-0.11775085106328897,,-1.3455749e-05,-8.6426735e-06,2.2649765e-06,0.99999994,6.8098307e-06,7.2307885e-06,-6.813556e-06,1.0,5.9604645e-07,-7.227063e-06,-6.854534e-07,1.0,395,1.233,1,1,1.209,False,0.9687932534356039,0.013904680639341915
1.2325974449049681,16:16:17.313682,16:14:50.468858,0,,0.09216149,-0.0043405145,-0.0066972077,0.102589495,-0.97454906,-0.19932252,-0.6766043,-0.21525037,0.704183,-0.7291652,0.0626207,-0.68146664,,0.108238555,0.00081066415,0.01726985,-0.020085819,-0.47954032,0.8772898,-0.9063895,0.37906906,0.18645306,-0.42196515,-0.7914213,-0.44226432,,0.057667434,1.3275648,0.43759724,0.9967661,0.07914786,-0.013891974,0.04407757,-0.6830597,-0.72903126,-0.06719031,0.72606134,-0.6843394,,-0.052226588,0.2550055,-0.04405093,-0.070538886,0.9646931,0.2537547,-0.99747825,-0.06621733,-0.025542764,-0.00783797,-0.25491655,0.9669313,,-0.06089443,0.45141456,-0.28089058,0.048776794,0.5870542,-0.80807686,-0.7845068,-0.47822595,-0.39477718,-0.61819893,0.6531977,0.4372217,,1.1312722478136514,0.15784493721627477,0.20036624901000002,-0.8895047402613524,0.18295627318592475,0.028054293055511825,0.7945055376771344,,-1.422944423007363,0.06916479562155471,0.22346743310000003,0.17551048269654687,-0.023228204960124874,-0.4093005909285762,-0.14717300358698554,,0.0250542014123786,0.03150755632162763,0.0839748988,-0.11775085106328897,,-1.3455749e-05,-8.6426735e-06,2.2649765e-06,0.99999994,6.8098307e-06,7.2307885e-06,-6.813556e-06,1.0,5.9604645e-07,-7.227063e-06,-6.854534e-07,1.0,404,1.262,1,1,1.238,False,0.9692698751837723,0.014339202446357113
1.277075302787125,16:16:17.346676,16:14:50.468858,0,,0.092159376,-0.004339069,-0.0066957325,0.10258341,-0.9745476,-0.19933254,-0.6765967,-0.21525413,0.7041892,-0.7291731,0.062629595,-0.68145734,,0.10822323,0.0007352643,0.017423749,-0.0181382,-0.476845,0.87880003,-0.90552175,0.38049108,0.18776831,-0.42391193,-0.79236686,-0.43869507,,0.057667434,1.3275648,0.43759724,0.9967661,0.07914786,-0.013891974,0.04407757,-0.6830597,-0.72903126,-0.06719031,0.72606134,-0.6843394,,-0.052224535,0.25500762,-0.044050943,-0.07053218,0.9646911,0.25376424,-0.9974788,-0.06621331,-0.025531432,-0.007827375,-0.25492522,0.9669291,,-0.060900986,0.4515178,-0.2810281,0.047118697,0.5845423,-0.8099939,-0.7860293,-0.47868618,-0.39117453,-0.61639094,0.65511054,0.4369123,,1.1312876932794,0.15784493721627477,0.20036624901000002,-0.8895047402613524,0.18295627318592475,0.028054293055511825,0.7945055376771344,,-1.4233460051168225,0.06896400456682487,0.22332224862000002,0.17530079275306237,-0.020222201965285187,-0.41191514229017856,-0.1471730035869856,,0.0250542014123786,0.03150755632162763,0.0839748988,-0.11775085106328897,,-1.3455749e-05,-8.6426735e-06,2.2649765e-06,0.99999994,6.8098307e-06,7.2307885e-06,-6.813556e-06,1.0,5.9604645e-07,-7.227063e-06,-6.854534e-07,1.0,418,1.307,1,1,1.283,False,0.9691507197467302,0.013904680639341915
1.3101036879234016,16:16:17.387468,16:14:50.641179,0,,0.092159376,-0.004339069,-0.0066957325,0.10258341,-0.9745476,-0.19933254,-0.6765967,-0.21525413,0.7041892,-0.7291731,0.062629595,-0.68145734,,0.10821011,0.00062837824,0.0176211,-0.013233658,-0.47450727,0.8801519,-0.9056889,0.37870607,0.1905503,-0.42373636,-0.7946223,-0.43476772,,0.057667434,1.3275648,0.43759724,0.9967661,0.07914786,-0.013891974,0.04407757,-0.6830597,-0.72903126,-0.06719031,0.72606134,-0.6843394,,-0.052224535,0.25500762,-0.044050943,-0.07053218,0.9646911,0.25376424,-0.9974788,-0.06621331,-0.025531432,-0.007827375,-0.25492522,0.9669291,,-0.060916163,0.45164484,-0.281213,0.042229205,0.58246344,-0.81175923,-0.78644687,-0.48173118,-0.38657007,-0.61621267,0.65473,0.4377334,,1.1312876932794,0.15784493721627477,0.20036624901000002,-0.8895047402613524,0.18295627318592475,0.028054293055511825,0.7945055376771344,,-1.4238943191508924,0.06869370891622702,0.22313687915000002,0.1713166838268564,-0.017216198970445497,-0.41395794247079704,-0.14700965952085132,,0.0250542014123786,0.03150755632162763,0.0839748988,-0.11775085106328897,,-1.3455749e-05,-8.6426735e-06,2.2649765e-06,0.99999994,6.8098307e-06,7.2307885e-06,-6.813556e-06,1.0,5.9604645e-07,-7.227063e-06,-6.854534e-07,1.0,427,1.336,1,1,1.312,False,0.9688528311541251,0.014242642044798082
1.350900725927204,16:16:17.413350,16:14:50.641179,0,,0.09216047,-0.004341468,-0.0066977143,0.102589265,-0.974548,-0.19932778,-0.67660797,-0.2152537,0.70417845,-0.72916186,0.06262562,-0.68146974,,0.108202025,0.00057713315,0.017780304,-0.011395309,-0.47122705,0.88193816,-0.9041425,0.38156193,0.19218963,-0.427079,-0.79520786,-0.4304046,,0.057667434,1.3275648,0.43759724,0.9967661,0.07914786,-0.013891974,0.04407757,-0.6830597,-0.72903126,-0.06719031,0.72606134,-0.6843394,,-0.05222556,0.25500453,-0.044051357,-0.07053892,0.9646917,0.25376007,-0.9974782,-0.066215955,-0.025547974,-0.007842954,-0.25492224,0.96692973,,-0.060929913,0.45176303,-0.28133076,0.040876616,0.57936525,-0.8140424,-0.7888828,-0.48127818,-0.3821456,-0.6131827,0.65780485,0.4373783,,1.1312722478136514,0.15783721448340052,0.20036624901000002,-0.8895047402613524,0.18295627318592475,0.028054293055511825,0.7945055376771344,,-1.4243190694589747,0.06855469972449098,0.22300076870000002,0.1721554436007945,-0.013117103977482282,-0.41721880084154916,-0.14717300358698554,,0.0250542014123786,0.03150755632162763,0.0839748988,-0.11775085106328897,,-1.3455749e-05,-8.6426735e-06,2.2649765e-06,0.99999994,6.8098307e-06,7.2307885e-06,-6.813556e-06,1.0,5.9604645e-07,-7.227063e-06,-6.854534e-07,1.0,441,1.381,1,1,1.357,False,0.9691507197467302,0.013808120237783328
1.3767526717856526,16:16:17.466735,16:14:50.641179,0,,0.0921582,-0.0043409765,-0.006698549,0.102585986,-0.9745462,-0.199338,-0.6766078,-0.2152589,0.704177,-0.7291624,0.06263498,-0.6814683,,0.10821015,0.0005134903,0.018002331,-0.005656399,-0.46630722,0.88460463,-0.90237665,0.38357842,0.19642809,-0.430911,-0.7971356,-0.42295462,,0.057667434,1.3275648,0.43759724,0.9967661,0.07914786,-0.013891974,0.04407757,-0.6830597,-0.72903126,-0.06719031,0.72606134,-0.6843394,,-0.052223235,0.25500432,-0.04405056,-0.070535615,0.9646893,0.25377017,-0.9974784,-0.06621257,-0.025547517,-0.007842641,-0.25493228,0.9669271,,-0.0609681,0.45192948,-0.2814865,0.03572557,0.5747898,-0.81752086,-0.79204625,-0.48256078,-0.37389547,-0.6094148,0.660872,0.43802038,,1.1312799705465257,0.1578294917505263,0.20036754530000003,-0.8895047402613524,0.18295627318592475,0.028054293055511825,0.7945055376771344,,-1.4249677790204096,0.06833074047113846,0.22282576955000002,0.17026823410943376,-0.006148642489444821,-0.42208432652866096,-0.1471730035869856,,0.0250542014123786,0.03150755632162763,0.0839748988,-0.11775085106328897,,-1.3455749e-05,-8.6426735e-06,2.2649765e-06,0.99999994,6.8098307e-06,7.2307885e-06,-6.813556e-06,1.0,5.9604645e-07,-7.227063e-06,-6.854534e-07,1.0,464,1.455,1,1,1.431,False,0.968733675717083,0.014387482647136629
1.430161849828437,16:16:17.533303,16:14:50.801151,0,,0.09214744,-0.004340738,-0.006699562,0.1025696,-0.9745537,-0.19930969,-0.67660713,-0.21522743,0.7041873,-0.7291654,0.06262617,-0.6814659,,0.1082081,0.00042938814,0.018239498,0.004870616,-0.45661172,0.88965255,-0.90011984,0.3855533,0.20281214,-0.43561485,-0.8017819,-0.40912756,,0.057667434,1.3275648,0.43759724,0.9967661,0.07914786,-0.013891974,0.04407757,-0.6830597,-0.72903126,-0.06719031,0.72606134,-0.6843394,,-0.052212425,0.25500408,-0.04405028,-0.070519075,0.9646979,0.25374195,-0.9974796,-0.06619773,-0.025539825,-0.007841075,-0.25490347,0.96693474,,-0.060998704,0.45210096,-0.28166807,0.025952537,0.565826,-0.8241161,-0.79624134,-0.4867494,-0.3592697,-0.60442215,0.6655193,0.43790168,,1.1313185842108968,0.1577908780861552,0.20037013788000002,-0.8895047402613524,0.18295627318592475,0.027972614315371236,0.7949955698755371,,-1.4256087658489702,0.06788282196443345,0.22262743718000003,0.1652356754658052,0.004782277491790415,-0.4323046186666237,-0.1474996917192541,,0.0250542014123786,0.03150755632162763,0.0839748988,-0.11775085106328897,,-1.3455749e-05,-8.6426735e-06,2.2649765e-06,0.99999994,6.8098307e-06,7.2307885e-06,-6.813556e-06,1.0,5.9604645e-07,-7.227063e-06,-6.854534e-07,1.0,487,1.528,1,1,1.504,False,0.9696273414948982,0.014097801442459978
1.496696775779128,16:16:17.608143,16:14:50.801151,0,,0.09214044,-0.004339114,-0.006700292,0.10215269,-0.9746214,-0.19919264,-0.6766835,-0.21485478,0.70422775,-0.72915304,0.06285165,-0.68145835,,0.108140394,0.00030417368,0.018426001,0.012731954,-0.4496349,0.89312154,-0.89999866,0.38404888,0.2061764,-0.43570647,-0.8064334,-0.39978132,,0.057667434,1.3275648,0.43759724,0.9967661,0.07914786,-0.013891974,0.04407757,-0.6830597,-0.72903126,-0.06719031,0.72606134,-0.6843394,,-0.05220537,0.25500485,-0.044048972,-0.070105195,0.9647587,0.25362545,-0.9975081,-0.065778404,-0.025510877,-0.007928762,-0.2547819,0.96696603,,-0.06095888,0.45221564,-0.28186888,0.018173752,0.559462,-0.82865673,-0.79706293,-0.49225444,-0.34982312,-0.6036227,0.6668492,0.43698034,,1.1313494751423938,0.1577677098875325,0.20037273046,-0.8890853603743832,0.18295627318592475,0.027890935575230702,0.7948322258094029,,-1.4259331206296877,0.06745034892347687,0.22241095675000003,0.15915466710475398,0.010111100982642594,-0.4397537090361255,-0.1471730035869856,,0.0250542014123786,0.03150755632162763,0.0839748988,-0.11775085106328897,,-1.3455749e-05,-8.6426735e-06,2.2649765e-06,0.99999994,6.8098307e-06,7.2307885e-06,-6.813556e-06,1.0,5.9604645e-07,-7.227063e-06,-6.854534e-07,1.0,501,1.573,1,1,1.549,False,0.9694486083393352,0.013711559836224296
1.5715737380087376,16:16:17.652857,16:14:50.801151,0,,0.09213798,-0.004337862,-0.0067021847,0.10214941,-0.9746197,-0.19920294,-0.6766833,-0.21485998,0.7042263,-0.7291537,0.062861025,-0.68145686,,0.10807689,0.00022905692,0.01859653,0.014534447,-0.4467974,0.89451694,-0.8986901,0.38635114,0.20757873,-0.43834326,-0.8069107,-0.39591712,,0.057667434,1.3275648,0.43759724,0.9967661,0.07914786,-0.013891974,0.04407757,-0.6830597,-0.72903126,-0.06719031,0.72606134,-0.6843394,,-0.052202772,0.25500438,-0.04404693,-0.07010189,0.9647563,0.2536356,-0.99750835,-0.06577502,-0.025510421,-0.007928452,-0.25479195,0.9669634,,-0.060919803,0.45233855,-0.2820176,0.016759925,0.5567735,-0.8304953,-0.7989797,-0.49191347,-0.3459083,-0.60112435,0.6693463,0.4366063,,1.131357197875268,0.15775998715465828,0.20037532304000003,-0.8890853603743832,0.18295627318592475,0.027890935575230702,0.7948322258094029,,-1.4262111390131598,0.06728044880024393,0.22222558728000003,0.15957404699172303,0.013663649976544045,-0.44265057453223244,-0.14749969171925414,,0.0250542014123786,0.03150755632162763,0.0839748988,-0.11775085106328897,,-1.3455749e-05,-8.6426735e-06,2.2649765e-06,0.99999994,6.8098307e-06,7.2307885e-06,-6.813556e-06,1.0,5.9604645e-07,-7.227063e-06,-6.854534e-07,1.0,510,1.602,1,1,1.578,False,0.9692698751837723,0.013808120237783328
1.6162797219585627,16:16:17.683538,16:14:50.936398,0,,0.092136964,-0.0043388307,-0.0067026913,0.10214918,-0.97461855,-0.19920816,-0.676687,-0.2148633,0.7042217,-0.72915035,0.06286594,-0.68146,,0.10804772,0.00018743798,0.018683076,0.016828742,-0.446138,0.8948057,-0.89842653,0.3860058,0.20935415,-0.43880105,-0.80744064,-0.3943264,,0.057667434,1.3275648,0.43759724,0.9967661,0.07914786,-0.013891974,0.04407757,-0.6830597,-0.72903126,-0.06719031,0.72606134,-0.6843394,,-0.052201744,0.25500336,-0.044047363,-0.07010193,0.9647549,0.25364092,-0.9975083,-0.06577365,-0.02551563,-0.00793344,-0.25479764,0.96696186,,-0.060903087,0.45239905,-0.28209594,0.014551121,0.5561779,-0.83093584,-0.79949653,-0.4926063,-0.34372127,-0.6004944,0.66933185,0.43749437,,1.131357197875268,0.15775226442178406,0.20037532304000003,-0.8890853603743832,0.18295627318592475,0.027890935575230702,0.7948322258094029,,-1.4263733164035184,0.06717233054000478,0.22212966182000002,0.15810621738733138,0.015576560973260212,-0.44323028030229555,-0.1468463154547171,,0.0250542014123786,0.03150755632162763,0.0839748988,-0.11775085106328897,,-1.3455749e-05,-8.6426735e-06,2.2649765e-06,0.99999994,6.8098307e-06,7.2307885e-06,-6.813556e-06,1.0,5.9604645e-07,-7.227063e-06,-6.854534e-07,1.0,524,1.647,1,1,1.623,False,0.9695081860578565,0.014242642044798082
1.6469559108372778,16:16:17.722214,16:14:50.936398,0,,0.092136964,-0.0043388307,-0.0067026913,0.10214918,-0.97461855,-0.19920816,-0.676687,-0.2148633,0.7042217,-0.72915035,0.06286594,-0.68146,,0.1080071,0.00015331432,0.018842578,0.019867487,-0.44250572,0.8965454,-0.896838,0.38846368,0.21160707,-0.44191265,-0.8082602,-0.3891383,,0.057667434,1.3275648,0.43759724,0.9967661,0.07914786,-0.013891974,0.04407757,-0.6830597,-0.72903126,-0.06719031,0.72606134,-0.6843394,,-0.052201744,0.25500336,-0.044047363,-0.07010193,0.9647549,0.25364092,-0.9975083,-0.06577365,-0.02551563,-0.00793344,-0.25479764,0.96696186,,-0.06088415,0.4525286,-0.28220135,0.011980082,0.5527496,-0.8332613,-0.80183053,-0.49257746,-0.33828282,-0.5974314,0.672187,0.43731037,,1.131357197875268,0.15775226442178406,0.20037532304000003,-0.8890853603743832,0.18295627318592475,0.027890935575230702,0.7948322258094029,,-1.426666780252739,0.06710282594413676,0.22198318105000003,0.15789652744384683,0.020222201965285187,-0.4470184890279739,-0.1468463154547171,,0.0250542014123786,0.03150755632162763,0.0839748988,-0.11775085106328897,,-1.3455749e-05,-8.6426735e-06,2.2649765e-06,0.99999994,6.8098307e-06,7.2307885e-06,-6.813556e-06,1.0,5.9604645e-07,-7.227063e-06,-6.854534e-07,1.0,533,1.676,1,1,1.652,False,0.9693294529022931,0.013952960840121875
1.685601154807955,16:16:17.755845,16:14:50.936398,0,,0.09213474,-0.0043400526,-0.0067047626,0.10214872,-0.9746166,-0.19921869,-0.67669433,-0.21486995,0.70421267,-0.7291436,0.06287576,-0.6814663,,0.10796871,0.000119071454,0.018976033,0.022329774,-0.44011933,0.89766145,-0.896621,0.38835967,0.21271487,-0.44223535,-0.8096121,-0.38594836,,0.057667434,1.3275648,0.43759724,0.9967661,0.07914786,-0.013891974,0.04407757,-0.6830597,-0.72903126,-0.06719031,0.72606134,-0.6843394,,-0.05219942,0.2550011,-0.044046987,-0.07010201,0.9647521,0.25365162,-0.9975082,-0.0657709,-0.025526049,-0.007943413,-0.25480902,0.96695876,,-0.060864095,0.45263487,-0.28229496,0.009586187,0.55055356,-0.8347448,-0.8022661,-0.49406174,-0.33507022,-0.59688956,0.67289954,0.4369543,,1.131357197875268,0.1577368189560356,0.20037661933000003,-0.8890853603743832,0.18295627318592475,0.027890935575230702,0.7948322258094029,,-1.4269216304375885,0.067110548677011,0.22185355205,0.15621900789597065,0.021998476462235912,-0.44944706665771417,-0.1471730035869856,,0.0250542014123786,0.03150755632162763,0.0839748988,-0.11775085106328897,,-1.3455749e-05,-8.6426735e-06,2.2649765e-06,0.99999994,6.8098307e-06,7.2307885e-06,-6.813556e-06,1.0,5.9604645e-07,-7.227063e-06,-6.854534e-07,1.0,547,1.721,1,1,1.697,False,0.9691507197467302,0.014049521241680019
1.7192390949930996,16:16:17.796879,16:14:50.936398,0,,0.09213474,-0.0043400526,-0.0067047626,0.10214872,-0.9746166,-0.19921869,-0.67669433,-0.21486995,0.70421267,-0.7291436,0.06287576,-0.6814663,,0.10791292,5.5026263e-05,0.019149184,0.023961142,-0.43725455,0.8990183,-0.89689004,0.3878361,0.21253584,-0.441604,-0.8114133,-0.38287637,,0.057667434,1.3275648,0.43759724,0.9967661,0.07914786,-0.013891974,0.04407757,-0.6830597,-0.72903126,-0.06719031,0.72606134,-0.6843394,,-0.05219942,0.2550011,-0.044046987,-0.07010201,0.9647521,0.25365162,-0.9975082,-0.0657709,-0.025526049,-0.007943413,-0.25480902,0.96695876,,-0.06083268,0.45276436,-0.28243434,0.0078807,0.5479291,-0.83648765,-0.8019959,-0.4961831,-0.3325733,-0.59727764,0.6734805,0.4355266,,1.131357197875268,0.1577368189560356,0.20037661933000003,-0.8890853603743832,0.18295627318592475,0.027890935575230702,0.7948322258094029,,-1.42725370795118,0.06711827140988522,0.22167466403000002,0.15454148834809445,0.022408385961532235,-0.4523133613131608,-0.14684631545471705,,0.0250542014123786,0.03150755632162763,0.0839748988,-0.11775085106328897,,-1.3455749e-05,-8.6426735e-06,2.2649765e-06,0.99999994,6.8098307e-06,7.2307885e-06,-6.813556e-06,1.0,5.9604645e-07,-7.227063e-06,-6.854534e-07,1.0,556,1.75,1,1,1.726,False,0.9690315643096881,0.013904680639341915
1.760290987789631,16:16:17.829383,16:14:50.936398,0,,0.09213576,-0.004339069,-0.006704256,0.10214895,-0.9746176,-0.19921343,-0.67669064,-0.21486662,0.7042172,-0.72914696,0.062870845,-0.6814632,,0.10787693,1.0769814e-05,0.019272208,0.022777382,-0.43451548,0.9003761,-0.8963965,0.38989782,0.2108388,-0.4426673,-0.81189656,-0.3806174,,0.057667434,1.3275648,0.43759724,0.9967661,0.07914786,-0.013891974,0.04407757,-0.6830597,-0.72903126,-0.06719031,0.72606134,-0.6843394,,-0.052200448,0.2550021,-0.044046555,-0.07010198,0.9647535,0.25364628,-0.9975082,-0.06577227,-0.02552084,-0.007938426,-0.25480333,0.9669603,,-0.06081394,0.45285657,-0.28253198,0.009203836,0.5453323,-0.8381694,-0.80259097,-0.49594712,-0.33148777,-0.59645873,0.6757582,0.43311417,,1.131357197875268,0.15774454168890983,0.20037661933000003,-0.8890853603743832,0.18295627318592475,0.027890935575230702,0.7948322258094029,,-1.4275008354031553,0.06713371687563366,0.22155022019000004,0.15621900789597065,0.022545022461297675,-0.4551201776414958,-0.14815306798379135,,0.0250542014123786,0.03150755632162763,0.0839748988,-0.11775085106328897,,-1.3455749e-05,-8.6426735e-06,2.2649765e-06,0.99999994,6.8098307e-06,7.2307885e-06,-6.813556e-06,1.0,5.9604645e-07,-7.227063e-06,-6.854534e-07,1.0,570,1.795,1,1,1.771,False,0.9696273414948982,0.013614999434665265
1.7928144978359342,16:16:17.869328,16:14:50.936398,0,,0.092132464,-0.004339531,-0.006705582,0.10214545,-0.9746148,-0.19922894,-0.67669415,-0.21487515,0.70421124,-0.7291441,0.06288512,-0.68146485,,0.1078165,-5.5048615e-05,0.0194422,0.022508573,-0.43424404,0.9005138,-0.8962728,0.3903036,0.21061406,-0.44293168,-0.81184673,-0.38041607,,0.057667434,1.3275648,0.43759724,0.9967661,0.07914786,-0.013891974,0.04407757,-0.6830597,-0.72903126,-0.06719031,0.72606134,-0.6843394,,-0.052197095,0.25500092,-0.044046186,-0.07009871,0.96474963,0.25366175,-0.9975084,-0.06576752,-0.025525592,-0.007943104,-0.25481904,0.96695614,,-0.060777586,0.45298296,-0.28267193,0.009507548,0.5450681,-0.83833784,-0.802741,-0.49574545,-0.3314262,-0.596252,0.6761192,0.4328352,,1.1313649206081422,0.1577290962231614,0.20037791562,-0.8890853603743832,0.18295627318592475,0.027890935575230702,0.7948322258094029,,-1.4278097447181242,0.06714916234138212,0.22137003588,0.1566383877829397,0.022545022461297675,-0.4551201776414958,-0.14782637985152264,,0.0250542014123786,0.03150755632162763,0.0839748988,-0.11775085106328897,,-1.3455749e-05,-8.6426735e-06,2.2649765e-06,0.99999994,6.8098307e-06,7.2307885e-06,-6.813556e-06,1.0,5.9604645e-07,-7.227063e-06,-6.854534e-07,1.0,579,1.823,1,1,1.799,False,0.9695081860578565,0.013759840037003368
1.832759910961613,16:16:17.900988,16:14:50.936398,0,,0.09213348,-0.0043385774,-0.0067050755,0.10214568,-0.9746159,-0.19922367,-0.6766905,-0.21487182,0.70421576,-0.7291475,0.0628802,-0.6814617,,0.10778471,-8.3792955e-05,0.019571424,0.023744103,-0.43248063,0.90133035,-0.8955668,0.39147907,0.21143363,-0.44429296,-0.812222,-0.3780201,,0.057667434,1.3275648,0.43759724,0.9967661,0.07914786,-0.013891974,0.04407757,-0.6830597,-0.72903126,-0.06719031,0.72606134,-0.6843394,,-0.05219812,0.2550019,-0.044045758,-0.07009867,0.96475106,0.2536564,-0.99750847,-0.06576889,-0.025520382,-0.007938118,-0.25481334,0.9669577,,-0.060763374,0.4530873,-0.2827582,0.008476122,0.5434003,-0.8394309,-0.80374753,-0.49571955,-0.32901672,-0.5949101,0.6774793,0.43255484,,1.1313649206081422,0.1577368189560356,0.20037791562,-0.8890853603743832,0.18295627318592475,0.027890935575230702,0.7948322258094029,,-1.4280723176358479,0.06716460780713056,0.22124948091000002,0.1566383877829397,0.02445793345801384,-0.45684338577352684,-0.1471730035869857,,0.0250542014123786,0.03150755632162763,0.0839748988,-0.11775085106328897,,-1.3455749e-05,-8.6426735e-06,2.2649765e-06,0.99999994,6.8098307e-06,7.2307885e-06,-6.813556e-06,1.0,5.9604645e-07,-7.227063e-06,-6.854534e-07,1.0,593,1.868,1,1,1.844,False,0.9693890306208144,0.0128425162221939
1.864421053789556,16:16:17.948894,16:14:50.936398,0,,0.09210728,-0.004323408,-0.0067144185,0.10253562,-0.97456485,-0.19927253,-0.67661095,-0.2151773,0.704199,-0.7291667,0.062624484,-0.6814647,,0.10782421,-0.000102594495,0.019816458,0.023883406,-0.4298184,0.90259933,-0.89437306,0.39422026,0.21139365,-0.4466838,-0.8123094,-0.37500274,,0.057700742,1.3275663,0.43760446,0.9967675,0.07912594,-0.013915371,0.044045582,-0.68306226,-0.72903085,-0.06719031,0.72606134,-0.6843394,,-0.05219933,0.25500014,-0.044022586,-0.07050724,0.9647027,0.253727,-0.99748045,-0.06618668,-0.025535813,-0.007841122,-0.25488815,0.96693873,,-0.060863797,0.45328528,-0.28287494,0.0086451,0.5408528,-0.84107286,-0.8053323,-0.49482632,-0.32647634,-0.5927606,0.6801655,0.4312884,,1.1313649206081422,0.1577290962231614,0.20037921191000002,-0.8895047402613524,0.18295627318592475,0.027890935575230702,0.7948322258094029,,-1.4283657814850683,0.06716460780713056,0.22099281549000002,0.15831590733081588,0.026507480954495448,-0.4595764779508005,-0.14766303578538847,,0.0250542014123786,0.03150755632162763,0.0839748988,-0.11775085106328897,,1.9326806e-05,-1.7285347e-06,-4.172325e-06,0.99999994,-1.5150756e-05,-1.6070902e-05,1.5150756e-05,1.0,-1.5199184e-06,1.6074628e-05,1.4603138e-06,1.0,616,1.942,1,1,1.918,False,0.9697464969319407,0.014001241040900947
1.912273178808391,16:16:18.018916,16:14:51.244563,0,,0.092105255,-0.00432536,-0.0067154765,0.10253515,-0.9745628,-0.19928303,-0.6766183,-0.21518396,0.70418996,-0.72915995,0.062634334,-0.681471,,0.10761848,-0.0001846999,0.020144403,0.025698978,-0.42051953,0.90691936,-0.89255285,0.39892185,0.21026361,-0.45020992,-0.8148771,-0.36508408,,0.057700742,1.3275663,0.43760446,0.9967675,0.07912594,-0.013915371,0.044045582,-0.68306226,-0.72903085,-0.06719031,0.72606134,-0.6843394,,-0.052197278,0.25499812,-0.04402345,-0.070507325,0.9646999,0.2537377,-0.9974804,-0.06618393,-0.025546232,-0.007851091,-0.25489956,0.9669357,,-0.06070402,0.45355856,-0.2831124,0.0073461276,0.5320921,-0.8466546,-0.8078032,-0.49589294,-0.31866,-0.5894065,0.6862712,0.4261828,,1.1313649206081422,0.15771365075741295,0.20037921191000002,-0.8895047402613524,0.18295627318592475,0.027890935575230702,0.7948322258094029,,-1.428589740738421,0.0672727260673697,0.22060652107000003,0.1593643570482385,0.03060657594745866,-0.46969835049335984,-0.14782637985152275,,0.0250542014123786,0.03150755632162763,0.0839748988,-0.11775085106328897,,1.9326806e-05,-1.7285347e-06,-4.172325e-06,0.99999994,-1.5150756e-05,-1.6070902e-05,1.5150756e-05,1.0,-1.5199184e-06,1.6074628e-05,1.4603138e-06,1.0,630,1.987,1,1,1.963,False,0.9699252300875036,0.013759840037003368
1.9823458287864923,16:16:18.064938,16:14:51.244563,0,,0.092103265,-0.004324734,-0.006714925,0.10255257,-0.9745395,-0.1993876,-0.6767077,-0.2152636,0.7040797,-0.7290745,0.06272196,-0.6815543,,0.10752636,-0.00024104118,0.020302653,0.02789303,-0.40969482,0.91179603,-0.89278144,0.40007585,0.20707639,-0.4496256,-0.8198106,-0.3546087,,0.057700742,1.3275663,0.43760446,0.9967675,0.07912594,-0.013915371,0.044045582,-0.68306226,-0.72903085,-0.06719031,0.72606134,-0.6843394,,-0.052195314,0.254999,-0.044023477,-0.07053161,0.9646699,0.25384507,-0.99747765,-0.06617325,-0.025678512,-0.007973534,-0.25501594,0.966904,,-0.06063447,0.4536821,-0.28324127,0.0050899195,0.5220228,-0.85291636,-0.807613,-0.50082403,-0.3113462,-0.5896908,0.6904111,0.41904327,,1.1313803660738906,0.15771365075741295,0.20037921191000002,-0.8895047402613524,0.18281963668615933,0.028002353478927045,0.7951589139416713,,-1.4287441953959055,0.06729589426599238,0.22041855902000002,0.15726745761339328,0.0314263949460513,-0.4814751665746548,-0.14847975611605985,,0.0250542014123786,0.03150755632162763,0.0839748988,-0.11775085106328897,,1.9326806e-05,-1.7285347e-06,-4.172325e-06,0.99999994,-1.5150756e-05,-1.6070902e-05,1.5150756e-05,1.0,-1.5199184e-06,1.6074628e-05,1.4603138e-06,1.0,653,2.061,1,1,2.037,False,0.9696869192134194,0.013277038029209098
2.0283646038733423,16:16:18.136264,16:14:51.389779,0,,0.09210198,-0.004326448,-0.006714031,0.10212456,-0.97461665,-0.19923034,-0.6766985,-0.21486172,0.7042112,-0.729143,0.06290164,-0.68146443,,0.10745277,-0.00033186376,0.020580828,0.028961599,-0.40376282,0.9144051,-0.893556,0.3995551,0.20472799,-0.4480167,-0.8230014,-0.34921294,,0.057700742,1.3275663,0.43760446,0.9967675,0.07912594,-0.013915371,0.044045582,-0.68306226,-0.72903085,-0.06719031,0.72606134,-0.6843394,,-0.05219412,0.25499856,-0.04402541,-0.070100114,0.96474344,0.25368512,-0.99750835,-0.06576792,-0.025528815,-0.007944413,-0.25484258,0.96694994,,-0.06059958,0.45389405,-0.28345317,0.0038034774,0.51653504,-0.8562576,-0.80665207,-0.5044831,-0.30791116,-0.5910144,0.6918731,0.41474527,,1.1313803660738906,0.15769820529166448,0.20037791562,-0.8890853603743832,0.18295627318592475,0.027890935575230646,0.7951589139416713,,-1.429346568560095,0.06741945799197997,0.22014504183000003,0.15538024812203255,0.03046993944769322,-0.4873928979403059,-0.14749969171925414,,0.0250542014123786,0.03150755632162763,0.0839748988,-0.11775085106328897,,1.9326806e-05,-1.7285347e-06,-4.172325e-06,0.99999994,-1.5150756e-05,-1.6070902e-05,1.5150756e-05,1.0,-1.5199184e-06,1.6074628e-05,1.4603138e-06,1.0,662,2.09,1,1,2.066,False,0.9696273414948982,0.014001241040900947
2.099690855946392,16:16:18.169971,16:14:51.389779,0,,0.09209884,-0.004325971,-0.0067130774,0.102118246,-0.97461414,-0.19924559,-0.67669463,-0.2148688,0.70421284,-0.72914755,0.06291546,-0.6814583,,0.1074542,-0.00035734475,0.020681858,0.028380226,-0.39792317,0.91697955,-0.8930122,0.4020881,0.20212457,-0.44913658,-0.82461035,-0.34393898,,0.057700742,1.3275663,0.43760446,0.9967675,0.07912594,-0.013915371,0.044045582,-0.68306226,-0.72903085,-0.06719031,0.72606134,-0.6843394,,-0.052191038,0.2549997,-0.04402586,-0.07009346,0.96474,0.2537,-0.9975088,-0.06576253,-0.025522692,-0.007938809,-0.25485694,0.9669462,,-0.06061461,0.4539716,-0.28352112,0.0045380257,0.5110213,-0.8595561,-0.80733526,-0.5053412,-0.30469662,-0.59007555,0.69533265,0.4102723,,1.1313958115396392,0.15769048255879026,0.20037791562,-0.8890853603743832,0.18295627318592475,0.027890935575230646,0.7951589139416713,,-1.4296554778750639,0.06744262619060264,0.22006596814,0.1566383877829397,0.031016485446754984,-0.49347440262479036,-0.14766303578538847,,0.0250542014123786,0.03150755632162763,0.0839748988,-0.11775085106328897,,1.9326806e-05,-1.7285347e-06,-4.172325e-06,0.99999994,-1.5150756e-05,-1.6070902e-05,1.5150756e-05,1.0,-1.5199184e-06,1.6074628e-05,1.4603138e-06,1.0,676,2.135,1,1,2.111,False,0.9694486083393352,0.014242642044798082
2.1334035547915846,16:16:18.216540,16:14:51.389779,0,,0.09209359,-0.0043240637,-0.0067106932,0.10210583,-0.974594,-0.19935045,-0.67668307,-0.2149372,0.70420307,-0.7291601,0.06299387,-0.68143773,,0.107423104,-0.00040468574,0.020878077,0.03000477,-0.3927502,0.9191555,-0.89268637,0.40316767,0.20141216,-0.4496784,-0.826561,-0.33850592,,0.057700742,1.3275663,0.43760446,0.9967675,0.07912594,-0.013915371,0.044045582,-0.68306226,-0.72903085,-0.06719031,0.72606134,-0.6843394,,-0.052185904,0.25500292,-0.044026326,-0.0700801,0.9647138,0.2538032,-0.9975099,-0.06575102,-0.025510605,-0.007922614,-0.254959,0.9669194,,-0.06061017,0.45412666,-0.283654,0.0030056953,0.50617194,-0.86242735,-0.8078301,-0.5070969,-0.30043843,-0.58940774,0.6975978,0.40737677,,1.131426702471136,0.15768275982591604,0.20037791562,-0.8890853603743832,0.18295627318592475,0.027972614315371236,0.7949955698755371,,-1.4301342873132659,0.06750440805359643,0.21989096899000002,0.1557996280090016,0.03238285044440938,-0.4988358761490639,-0.14766303578538847,,0.0250542014123786,0.03150755632162763,0.0839748988,-0.11775085106328897,,1.9326806e-05,-1.7285347e-06,-4.172325e-06,0.99999994,-1.5150756e-05,-1.6070902e-05,1.5150756e-05,1.0,-1.5199184e-06,1.6074628e-05,1.4603138e-06,1.0,690,2.18,1,1,2.156,False,0.9697464969319407,0.013808120237783328
2.179969265824184,16:16:18.265536,16:14:51.521294,0,,0.09209257,-0.0043250173,-0.006711185,0.102105595,-0.974593,-0.19935575,-0.6766867,-0.21494052,0.70419854,-0.7291567,0.06299877,-0.6814409,,0.10736962,-0.00045968592,0.021013439,0.030877065,-0.3860797,0.92194843,-0.89339846,0.40295398,0.19866389,-0.44820285,-0.8298015,-0.33248103,,0.057700742,1.3275663,0.43760446,0.9967675,0.07912594,-0.013915371,0.044045582,-0.68306226,-0.72903085,-0.06719031,0.72606134,-0.6843394,,-0.05218488,0.25500193,-0.04402676,-0.070080146,0.9647124,0.25380856,-0.99750984,-0.06574965,-0.025515815,-0.0079276,-0.25496468,0.9669179,,-0.060575962,0.45422664,-0.2837682,0.0019326012,0.4999669,-0.8660424,-0.80693865,-0.5107346,-0.29664817,-0.5906321,0.69941634,0.40245557,,1.131426702471136,0.15767503709304181,0.20037791562,-0.8890853603743832,0.18295627318592475,0.027972614315371236,0.7949955698755371,,-1.4303736920323669,0.06754302171796756,0.21974448822000003,0.1541221084611254,0.03156303144581674,-0.5056818128198171,-0.14733634765311993,,0.0250542014123786,0.03150755632162763,0.0839748988,-0.11775085106328897,,1.9326806e-05,-1.7285347e-06,-4.172325e-06,0.99999994,-1.5150756e-05,-1.6070902e-05,1.5150756e-05,1.0,-1.5199184e-06,1.6074628e-05,1.4603138e-06,1.0,699,2.208,1,1,2.184,False,0.9695081860578565,0.013614999434665265
2.228962311986834,16:16:18.293333,16:14:51.521294,0,,0.09209257,-0.0043250173,-0.006711185,0.102105595,-0.974593,-0.19935575,-0.6766867,-0.21494052,0.70419854,-0.7291567,0.06299877,-0.6814409,,0.10732609,-0.00049106777,0.021115959,0.031430725,-0.38177326,0.9237213,-0.8936862,0.40312338,0.19701934,-0.44759032,-0.8317095,-0.3285151,,0.057700742,1.3275663,0.43760446,0.9967675,0.07912594,-0.013915371,0.044045582,-0.68306226,-0.72903085,-0.06719031,0.72606134,-0.6843394,,-0.05218488,0.25500193,-0.04402676,-0.070080146,0.9647124,0.25380856,-0.99750984,-0.06574965,-0.025515815,-0.0079276,-0.25496468,0.9669179,,-0.06054678,0.45430738,-0.28384578,0.0012974447,0.495946,-0.8683524,-0.8065844,-0.51278013,-0.29407158,-0.5911175,0.70078105,0.39935702,,1.131426702471136,0.15767503709304181,0.20037791562,-0.8890853603743832,0.18295627318592475,0.027972614315371236,0.7949955698755371,,-1.4305358694227255,0.06760480358096135,0.21963430357000002,0.1532833486871873,0.03128975844628586,-0.5101963439405768,-0.14668297138858283,,0.0250542014123786,0.03150755632162763,0.0839748988,-0.11775085106328897,,1.9326806e-05,-1.7285347e-06,-4.172325e-06,0.99999994,-1.5150756e-05,-1.6070902e-05,1.5150756e-05,1.0,-1.5199184e-06,1.6074628e-05,1.4603138e-06,1.0,713,2.253,1,1,2.229,False,0.9693890306208144,0.01419436184401901
2.256761180004105,16:16:18.327561,16:14:51.521294,0,,0.092092186,-0.004323527,-0.006713271,0.102105595,-0.974593,-0.19935575,-0.6766867,-0.21494052,0.70419854,-0.7291567,0.06299877,-0.6814409,,0.10729135,-0.0005225092,0.021213531,0.03255076,-0.37532148,0.9263228,-0.8939396,0.40357614,0.19493121,-0.44700363,-0.834422,-0.3223781,,0.057700742,1.3275663,0.43760446,0.9967675,0.07912594,-0.013915371,0.044045582,-0.68306226,-0.72903085,-0.06719031,0.72606134,-0.6843394,,-0.052184336,0.2550014,-0.04402428,-0.070080146,0.9647124,0.25380856,-0.99750984,-0.06574965,-0.025515815,-0.0079276,-0.25496468,0.9669179,,-0.060525678,0.4543828,-0.28392047,0.00010503532,0.48990878,-0.8717737,-0.80629474,-0.5156248,-0.2898617,-0.59151393,0.702937,0.3949567,,1.131426702471136,0.15767503709304181,0.20038050820000003,-0.8890853603743832,0.18295627318592475,0.027972614315371236,0.7949955698755371,,-1.4307134922788327,0.06763569451245825,0.21953319295,0.15202520902628017,0.0314263949460513,-0.5170054185357993,-0.14602959512404562,,0.0250542014123786,0.03150755632162763,0.0839748988,-0.11775085106328897,,1.9326806e-05,-1.7285347e-06,-4.172325e-06,0.99999994,-1.5150756e-05,-1.6070902e-05,1.5150756e-05,1.0,-1.5199184e-06,1.6074628e-05,1.4603138e-06,1.0,722,2.282,1,1,2.258,False,0.9695081860578565,0.013566719233886193
2.290992076974362,16:16:18.365784,16:14:51.521294,0,,0.09209031,-0.0043245107,-0.0067120343,0.10210233,-0.97459126,-0.19936596,-0.67668664,-0.21494572,0.70419705,-0.72915727,0.063008144,-0.68143946,,0.107253365,-0.00056269765,0.0213148,0.03349269,-0.36613518,0.92995864,-0.8944491,0.40416622,0.19133863,-0.4459136,-0.83820915,-0.31395274,,0.057700742,1.3275663,0.43760446,0.9967675,0.07912594,-0.013915371,0.044045582,-0.68306226,-0.72903085,-0.06719031,0.72606134,-0.6843394,,-0.052182555,0.25500172,-0.044025958,-0.07007684,0.96471,0.25381866,-0.9975101,-0.06574626,-0.025515359,-0.007927292,-0.25497472,0.96691525,,-0.06050207,0.45445782,-0.2840049,-0.000982213,0.4813017,-0.8765544,-0.8056588,-0.5196338,-0.28441966,-0.59237903,0.70592445,0.38827533,,1.1314344252040103,0.1576673143601676,0.20037921191000002,-0.8890853603743832,0.18295627318592475,0.027972614315371236,0.7949955698755371,,-1.430898837867814,0.06765886271108093,0.21942041572,0.1505573794218885,0.03087984894698954,-0.5268512681787245,-0.1474996917192542,,0.0250542014123786,0.03150755632162763,0.0839748988,-0.11775085106328897,,1.9326806e-05,-1.7285347e-06,-4.172325e-06,0.99999994,-1.5150756e-05,-1.6070902e-05,1.5150756e-05,1.0,-1.5199184e-06,1.6074628e-05,1.4603138e-06,1.0,736,2.327,1,1,2.303,False,0.9696869192134194,0.014290922245577597
2.3291941969655454,16:16:18.406164,16:14:51.657573,0,,0.092089325,-0.004327193,-0.0067137927,0.1021049,-0.97458977,-0.1993715,-0.67669773,-0.21495047,0.7041849,-0.72914654,0.06301352,-0.68145037,,0.107201844,-0.00062868,0.02145189,0.034342293,-0.3580833,0.9330577,-0.89546716,0.403556,0.18783304,-0.4438008,-0.84197325,-0.30679286,,0.057700742,1.3275663,0.43760446,0.9967675,0.07912594,-0.013915371,0.044045582,-0.68306226,-0.72903085,-0.06719031,0.72606134,-0.6843394,,-0.052181527,0.25499865,-0.044026814,-0.07008027,0.96470815,0.2538246,-0.9975097,-0.065745525,-0.025531445,-0.00794256,-0.25498176,0.9669132,,-0.060470346,0.45455417,-0.28412947,-0.0021227202,0.47378308,-0.880639,-0.80434126,-0.5240551,-0.28000242,-0.59416384,0.70773995,0.3821957,,1.131426702471136,0.15765186889441915,0.20037921191000002,-0.8890853603743832,0.18295627318592475,0.027972614315371236,0.7949955698755371,,-1.4311614107855377,0.06767430817682937,0.21927263866000002,0.14846047998704323,0.029650120449100575,-0.5350782046813403,-0.14684631545471705,,0.0250542014123786,0.03150755632162763,0.0839748988,-0.11775085106328897,,1.9326806e-05,-1.7285347e-06,-4.172325e-06,0.99999994,-1.5150756e-05,-1.6070902e-05,1.5150756e-05,1.0,-1.5199184e-06,1.6074628e-05,1.4603138e-06,1.0,750,2.372,1,1,2.348,False,0.9696869192134194,0.013808120237783328
2.3695920368190855,16:16:18.454469,16:14:51.657573,0,,0.09208693,-0.004325852,-0.006713718,0.102078125,-0.9746262,-0.19920747,-0.67660064,-0.21482229,0.70431733,-0.7292404,0.06288853,-0.68136144,,0.107177705,-0.00070020556,0.021614194,0.036285434,-0.34995782,0.93606234,-0.89674056,0.40200812,0.18505658,-0.44106665,-0.84612,-0.2992344,,0.057700742,1.3275663,0.43760446,0.9967675,0.07912594,-0.013915371,0.044045582,-0.68306226,-0.72903085,-0.06719031,0.72606134,-0.6843394,,-0.052179113,0.2549997,-0.044026002,-0.070045985,0.96475446,0.253658,-0.9975132,-0.06575086,-0.025382048,-0.007809214,-0.25480512,0.9669609,,-0.060469136,0.4546675,-0.28426805,-0.0044338424,0.46621442,-0.88466066,-0.80270153,-0.5292499,-0.2748906,-0.5963645,0.7088996,0.37657765,,1.1314344252040103,0.15764414616154493,0.20038050820000003,-0.8890853603743832,0.1830929096856902,0.02777951767153425,0.7951589139416713,,-1.4316016065593684,0.06768203090970361,0.21911838015000001,0.14510544089129085,0.028420391951211613,-0.543305141183956,-0.14635628325631428,,0.0250542014123786,0.03150755632162763,0.0839748988,-0.11775085106328897,,1.9326806e-05,-1.7285347e-06,-4.172325e-06,0.99999994,-1.5150756e-05,-1.6070902e-05,1.5150756e-05,1.0,-1.5199184e-06,1.6074628e-05,1.4603138e-06,1.0,759,2.401,1,1,2.377,False,0.9691507197467302,0.013759840037003368
2.417900166939944,16:16:18.486027,16:14:51.657573,0,,0.09208368,-0.0043245405,-0.0067118555,0.10204829,-0.97466177,-0.19904846,-0.67649966,-0.21469593,0.7044528,-0.7293383,0.062768035,-0.6812678,,0.107164085,-0.00073447824,0.02172178,0.037660707,-0.34366792,0.93833566,-0.8969902,0.40224472,0.18332447,-0.4404433,-0.848582,-0.293118,,0.057700742,1.3275663,0.43760446,0.9967675,0.07912594,-0.013915371,0.044045582,-0.68306226,-0.72903085,-0.06719031,0.72606134,-0.6843394,,-0.052175947,0.25500205,-0.044026442,-0.07000834,0.96479976,0.25349614,-0.99751693,-0.06575412,-0.025226984,-0.007670572,-0.2546328,0.9670074,,-0.060470324,0.45474833,-0.28434798,-0.005883883,0.46029973,-0.88774407,-0.8024035,-0.5319554,-0.2705033,-0.5967529,0.71073735,0.37247607,,1.1314498706697587,0.15763642342867068,0.20038050820000003,-0.8890853603743832,0.18322954618545564,0.02758642102769726,0.7949955698755371,,-1.4318873476757148,0.06769747637545205,0.21902245469000003,0.1436376112868992,0.028693664950742496,-0.5497355612420315,-0.14700965952085132,,0.0250542014123786,0.03150755632162763,0.0839748988,-0.11775085106328897,,1.9326806e-05,-1.7285347e-06,-4.172325e-06,0.99999994,-1.5150756e-05,-1.6070902e-05,1.5150756e-05,1.0,-1.5199184e-06,1.6074628e-05,1.4603138e-06,1.0,773,2.446,1,1,2.422,False,0.9699252300875036,0.013518439033106233
2.449434069916606,16:16:18.527349,16:14:51.657573,0,,0.09208159,-0.004324764,-0.006711617,0.102045015,-0.97464377,-0.19913834,-0.67649955,-0.21475865,0.7044338,-0.7293389,0.06283304,-0.6812612,,0.10716849,-0.0007752329,0.021843731,0.03962055,-0.3321712,0.9423865,-0.89764225,0.4024695,0.17960131,-0.43894017,-0.85304195,-0.28222492,,0.057700742,1.3275663,0.43760446,0.9967675,0.07912594,-0.013915371,0.044045582,-0.68306226,-0.72903085,-0.06719031,0.72606134,-0.6843394,,-0.052173894,0.25500214,-0.044026885,-0.07000503,0.96477664,0.25358507,-0.99751717,-0.06574868,-0.025231898,-0.007670264,-0.2547218,0.966984,,-0.0604914,0.4548371,-0.2844387,-0.008037046,0.4494779,-0.8932553,-0.8015705,-0.5369597,-0.26298112,-0.59784627,0.7138935,0.3646038,,1.131457593402633,0.15762870069579646,0.20038050820000003,-0.8890853603743832,0.18322954618545564,0.02766809976783785,0.7948322258094029,,-1.4322889297851744,0.06771292184120051,0.21892523294000002,0.1411213319650849,0.028557028450977053,-0.5615492393988573,-0.14766303578538842,,0.0250542014123786,0.03150755632162763,0.0839748988,-0.11775085106328897,,1.9326806e-05,-1.7285347e-06,-4.172325e-06,0.99999994,-1.5150756e-05,-1.6070902e-05,1.5150756e-05,1.0,-1.5199184e-06,1.6074628e-05,1.4603138e-06,1.0,796,2.52,1,1,2.496,False,0.9690315643096881,0.013470158832327161
2.490782076958567,16:16:18.597733,16:14:51.657573,0,,0.092079565,-0.004326716,-0.00671269,0.102044545,-0.9746254,-0.19922847,-0.6765068,-0.21482286,0.7044072,-0.7293321,0.06289853,-0.6812624,,0.10720044,-0.00084386766,0.021998167,0.04353552,-0.30139315,0.95250547,-0.8996536,0.40275416,0.16855995,-0.43442836,-0.8642634,-0.25361538,,0.057700742,1.3275663,0.43760446,0.9967675,0.07912594,-0.013915371,0.044045582,-0.68306226,-0.72903085,-0.06719031,0.72606134,-0.6843394,,-0.05217184,0.2550001,-0.044027746,-0.07000511,0.9647531,0.25367457,-0.99751705,-0.06574386,-0.025247687,-0.007680238,-0.25481218,0.9669601,,-0.060544718,0.45493913,-0.28456652,-0.012550689,0.42040607,-0.9072493,-0.79889536,-0.5498663,-0.24374829,-0.6013391,0.721738,0.34276167,,1.131457593402633,0.15761325523004802,0.20038050820000003,-0.8890853603743832,0.18322954618545564,0.027749778507978384,0.7949955698755371,,-1.4329144711479866,0.06769747637545205,0.21881245571000002,0.13504032360403367,0.02705402695355721,-0.5933218534749838,-0.14668297138858272,,0.0250542014123786,0.03150755632162763,0.0839748988,-0.11775085106328897,,1.9326806e-05,-1.7285347e-06,-4.172325e-06,0.99999994,-1.5150756e-05,-1.6070902e-05,1.5150756e-05,1.0,-1.5199184e-06,1.6074628e-05,1.4603138e-06,1.0,810,2.565,1,1,2.541,False,0.9692698751837723,0.013711559836224296
2.56114473589696,16:16:18.646396,16:14:51.657573,0,,0.09207937,-0.004325971,-0.0067137033,0.102044545,-0.9746254,-0.19922847,-0.6765068,-0.21482286,0.7044072,-0.7293321,0.06289853,-0.6812624,,0.10723485,-0.0008570254,0.022038817,0.045205858,-0.28083384,0.9586911,-0.90015304,0.4047251,0.1610036,-0.43322152,-0.870247,-0.23449752,,0.057700742,1.3275663,0.43760446,0.9967675,0.07912594,-0.013915371,0.044045582,-0.68306226,-0.72903085,-0.06719031,0.72606134,-0.6843394,,-0.05217157,0.25499988,-0.04402651,-0.07000511,0.9647531,0.25367457,-0.99751705,-0.06574386,-0.025247687,-0.007680238,-0.25481218,0.9669601,,-0.060584392,0.45496556,-0.2845936,-0.014374732,0.40084252,-0.91603416,-0.79822534,-0.5563386,-0.23091921,-0.60218745,0.72788227,0.32795987,,1.131457593402633,0.15761325523004802,0.20038180449,-0.8890853603743832,0.18322954618545564,0.027749778507978384,0.7949955698755371,,-1.433169321332836,0.06768203090970361,0.21880078910000003,0.13294342416918845,0.02705402695355721,-0.6145583259115299,-0.14602959512404567,,0.0250542014123786,0.03150755632162763,0.0839748988,-0.11775085106328897,,1.9326806e-05,-1.7285347e-06,-4.172325e-06,0.99999994,-1.5150756e-05,-1.6070902e-05,1.5150756e-05,1.0,-1.5199184e-06,1.6074628e-05,1.4603138e-06,1.0,819,2.593,1,1,2.569,False,0.9690911420282089,0.013325318229988614
2.6098109639715403,16:16:18.673622,16:14:51.657573,0,,0.092079416,-0.0043276846,-0.006714955,0.10204736,-0.97462505,-0.1992287,-0.6765143,-0.21482427,0.7043996,-0.7293248,0.06289897,-0.6812702,,0.107272476,-0.0008969307,0.022053301,0.04260901,-0.2702122,0.9618574,-0.9015389,0.4045257,0.15357941,-0.43059504,-0.8736958,-0.22637045,,0.057700742,1.3275663,0.43760446,0.9967675,0.07912594,-0.013915371,0.044045582,-0.68306226,-0.72903085,-0.06719031,0.72606134,-0.6843394,,-0.05217157,0.2549978,-0.04402693,-0.07000851,0.9647527,0.25367513,-0.99751675,-0.065744504,-0.025258563,-0.0076905205,-0.25481352,0.96695966,,-0.06062465,0.45495635,-0.28463253,-0.012174211,0.39074734,-0.9204175,-0.7962725,-0.5605538,-0.22744127,-0.6048156,0.7301342,0.31796566,,1.1314498706697587,0.1576055324971738,0.20038180449,-0.8890853603743832,0.18322954618545564,0.027749778507978384,0.7949955698755371,,-1.4333932805861886,0.06767430817682937,0.21879949281000002,0.13315311411267297,0.023091568460359434,-0.6252942712683698,-0.1478263798515228,,0.0250542014123786,0.03150755632162763,0.0839748988,-0.11775085106328897,,1.9326806e-05,-1.7285347e-06,-4.172325e-06,0.99999994,-1.5150756e-05,-1.6070902e-05,1.5150756e-05,1.0,-1.5199184e-06,1.6074628e-05,1.4603138e-06,1.0,833,2.638,1,1,2.614,False,0.9699252300875036,0.013904680639341915
2.6370475178118795,16:16:18.719104,16:14:51.983074,0,,0.092079416,-0.0043276846,-0.006714955,0.10204736,-0.97462505,-0.1992287,-0.6765143,-0.21482427,0.7043996,-0.7293248,0.06289897,-0.6812702,,0.10733566,-0.0010052621,0.022056043,0.030756187,-0.25456184,0.9665672,-0.90444493,0.40455687,0.13532639,-0.42548034,-0.87836885,-0.21779463,,0.057700742,1.3275663,0.43760446,0.9967675,0.07912594,-0.013915371,0.044045582,-0.68306226,-0.72903085,-0.06719031,0.72606134,-0.6843394,,-0.05217157,0.2549978,-0.04402693,-0.07000851,0.9647527,0.25367513,-0.99751675,-0.065744504,-0.025258563,-0.0076905205,-0.25481352,0.96695966,,-0.060690638,0.45490295,-0.28472486,-0.0011572598,0.37582943,-0.92668813,-0.7918764,-0.5662554,-0.22866273,-0.61068034,0.7335578,0.29826576,,1.1314498706697587,0.1576055324971738,0.20038180449,-0.8890853603743832,0.18322954618545564,0.027749778507978384,0.7949955698755371,,-1.4337562490312772,0.06767430817682937,0.21879819652000002,0.1388147425867551,0.011067556481000676,-0.6409732626669402,-0.1452128747933742,,0.0250542014123786,0.03150755632162763,0.0839748988,-0.11775085106328897,,1.9326806e-05,-1.7285347e-06,-4.172325e-06,0.99999994,-1.5150756e-05,-1.6070902e-05,1.5150756e-05,1.0,-1.5199184e-06,1.6074628e-05,1.4603138e-06,1.0,847,2.683,1,1,2.659,False,0.9696869192134194,0.013808120237783328
2.682439205935225,16:16:18.761339,16:14:51.983074,0,,0.0920784,-0.0043286234,-0.0067154616,0.10204712,-0.974624,-0.19923396,-0.67651796,-0.21482761,0.70439506,-0.7293214,0.06290389,-0.68127334,,0.10744423,-0.0012226254,0.022049427,0.0039762,-0.23360091,0.9723244,-0.909693,0.4029313,0.100524336,-0.41526246,-0.88491637,-0.21090305,,0.057700742,1.3275663,0.43760446,0.9967675,0.07912594,-0.013915371,0.044045582,-0.68306226,-0.72903085,-0.06719031,0.72606134,-0.6843394,,-0.052170545,0.2549968,-0.044027362,-0.070008546,0.96475124,0.2536805,-0.9975167,-0.06574313,-0.025263773,-0.0076955073,-0.2548192,0.9669581,,-0.06080345,0.454787,-0.28490627,0.023941688,0.3558402,-0.9342401,-0.7825259,-0.5749074,-0.23902868,-0.6221576,0.7367898,0.26468992,,1.1314498706697587,0.15759780976429957,0.20038180449,-0.8890853603743832,0.18322954618545564,0.027749778507978384,0.7949955698755371,,-1.4344126813255862,0.06773609003982317,0.21879690023000004,0.15265427885673374,-0.014756741974667567,-0.6618981513005655,-0.1452128747933743,,0.0250542014123786,0.03150755632162763,0.0839748988,-0.11775085106328897,,1.9326806e-05,-1.7285347e-06,-4.172325e-06,0.99999994,-1.5150756e-05,-1.6070902e-05,1.5150756e-05,1.0,-1.5199184e-06,1.6074628e-05,1.4603138e-06,1.0,856,2.712,1,1,2.688,False,0.9699848078060245,0.014387482647136629
2.724768908927217,16:16:18.799452,16:14:51.983074,0,,0.0920784,-0.0043286234,-0.0067154616,0.10204712,-0.97464025,-0.19915436,-0.67651796,-0.21477008,0.7044126,-0.7293214,0.06284824,-0.68127847,,0.10752453,-0.0012759715,0.022109032,-0.002200745,-0.21869558,0.9757906,-0.9108341,0.4032145,0.08831477,-0.41276687,-0.88858896,-0.2000828,,0.057700742,1.3275663,0.43760446,0.9967675,0.07912594,-0.013915371,0.044045582,-0.68306226,-0.72903085,-0.06719031,0.72606134,-0.6843394,,-0.052170545,0.2549968,-0.044027362,-0.070008546,0.964772,0.2536017,-0.9975167,-0.0657452,-0.025258403,-0.0076955073,-0.25474024,0.9669789,,-0.060892157,0.45480722,-0.28497386,0.02971509,0.34154,-0.9393974,-0.78021485,-0.579534,-0.23538303,-0.62480545,0.7399262,0.24925368,,1.1314498706697587,0.15759780976429957,0.20038180449,-0.8890853603743832,0.18322954618545564,0.02766809976783785,0.7948322258094029,,-1.434953272626782,0.06780559463569119,0.21878782620000004,0.1557996280090016,-0.020905384464112386,-0.6767322794883832,-0.14439615446270282,,0.0250542014123786,0.03150755632162763,0.0839748988,-0.11775085106328897,,1.9326806e-05,-1.7285347e-06,-4.172325e-06,0.99999994,-1.5150756e-05,-1.6070902e-05,1.5150756e-05,1.0,-1.5199184e-06,1.6074628e-05,1.4603138e-06,1.0,870,2.757,1,1,2.733,False,0.9695677637763773,0.013325318229988614
2.7628010557964444,16:16:18.838613,16:14:51.983074,0,,0.09207922,-0.0043269247,-0.006716013,0.10204736,-0.97462505,-0.1992287,-0.6765143,-0.21482427,0.7043996,-0.7293248,0.06289897,-0.6812702,,0.10759142,-0.0012742728,0.022287786,-0.0017909966,-0.20565882,0.97862196,-0.9082726,0.40976685,0.084450886,-0.41837487,-0.8887044,-0.18752825,,0.057700742,1.3275663,0.43760446,0.9967675,0.07912594,-0.013915371,0.044045582,-0.68306226,-0.72903085,-0.06719031,0.72606134,-0.6843394,,-0.052171297,0.25499752,-0.04402569,-0.07000851,0.9647527,0.25367513,-0.99751675,-0.065744504,-0.025258563,-0.0076905205,-0.25481352,0.96695966,,-0.060981277,0.45495924,-0.28504714,0.030096445,0.32881138,-0.9439159,-0.78404593,-0.5779667,-0.22633268,-0.6199727,0.74688524,0.2404085,,1.1314498706697587,0.1576055324971738,0.20038310078000002,-0.8890853603743832,0.18322954618545564,0.027749778507978384,0.7949955698755371,,-1.4356946549827074,0.06784420830006231,0.21870356735000002,0.1593643570482385,-0.015986470472556535,-0.6894012704763539,-0.14537621885950858,,0.0250542014123786,0.03150755632162763,0.0839748988,-0.11775085106328897,,1.9326806e-05,-1.7285347e-06,-4.172325e-06,0.99999994,-1.5150756e-05,-1.6070902e-05,1.5150756e-05,1.0,-1.5199184e-06,1.6074628e-05,1.4603138e-06,1.0,879,2.786,1,1,2.762,False,0.9698656523689824,0.012697675619855797
2.8020423429552466,16:16:18.870501,16:14:51.983074,0,,0.0920769,-0.0043247193,-0.006715566,0.10204127,-0.9746236,-0.19923869,-0.6765067,-0.21482804,0.7044058,-0.7293327,0.062907875,-0.6812609,,0.10760921,-0.0013318211,0.022427201,-0.0019911118,-0.19437066,0.98092604,-0.9088155,0.4095895,0.07931551,-0.4171936,-0.89132285,-0.17746267,,0.057700742,1.3275663,0.43760446,0.9967675,0.07912594,-0.013915371,0.044045582,-0.68306226,-0.72903085,-0.06719031,0.72606134,-0.6843394,,-0.05216897,0.2549994,-0.04402447,-0.0700018,0.96475065,0.25368467,-0.9975173,-0.06574048,-0.025247231,-0.00767993,-0.2548222,0.96695745,,-0.061018314,0.45505443,-0.2851595,0.030128852,0.31794983,-0.9476287,-0.7832289,-0.58150524,-0.22000948,-0.62100303,0.7488388,0.23150742,,1.131465316135507,0.1576055324971738,0.20038439707000003,-0.8890853603743832,0.18322954618545564,0.027749778507978384,0.7949955698755371,,-1.4362120780852805,0.06785193103293655,0.21859727157000003,0.15873528721778493,-0.017216198970445497,-0.7004052841437487,-0.1465196273224485,,0.0250542014123786,0.03150755632162763,0.0839748988,-0.11775085106328897,,1.9326806e-05,-1.7285347e-06,-4.172325e-06,0.99999994,-1.5150756e-05,-1.6070902e-05,1.5150756e-05,1.0,-1.5199184e-06,1.6074628e-05,1.4603138e-06,1.0,893,2.831,1,1,2.807,False,0.9695677637763773,0.013470158832327161
2.8339340288657695,16:16:18.910578,16:14:52.161093,0,,0.0920769,-0.0043247193,-0.006715566,0.10204127,-0.9746236,-0.19923869,-0.6765067,-0.21482804,0.7044058,-0.7293327,0.062907875,-0.6812609,,0.10759841,-0.0014982373,0.022609174,-0.0055286326,-0.17567903,0.9844319,-0.9128618,0.40277487,0.066751435,-0.40823114,-0.89828134,-0.1625975,,0.057700742,1.3275663,0.43760446,0.9967675,0.07912594,-0.013915371,0.044045582,-0.68306226,-0.72903085,-0.06719031,0.72606134,-0.6843394,,-0.05216897,0.2549994,-0.04402447,-0.0700018,0.96475065,0.25368467,-0.9975173,-0.06574048,-0.025247231,-0.00767993,-0.2548222,0.96695745,,-0.061035473,0.45514053,-0.28539023,0.03237861,0.30011928,-0.95335203,-0.77679294,-0.59265804,-0.21295342,-0.6289232,0.74745226,0.2139411,,1.131465316135507,0.1576055324971738,0.20038439707000003,-0.8890853603743832,0.18322954618545564,0.027749778507978384,0.7949955698755371,,-1.4368685103795895,0.06783648556718809,0.21840801323000003,0.15538024812203255,-0.02719066345332265,-0.7187356889794522,-0.14619293919017984,,0.0250542014123786,0.03150755632162763,0.0839748988,-0.11775085106328897,,1.9326806e-05,-1.7285347e-06,-4.172325e-06,0.99999994,-1.5150756e-05,-1.6070902e-05,1.5150756e-05,1.0,-1.5199184e-06,1.6074628e-05,1.4603138e-06,1.0,907,2.876,1,1,2.852,False,0.9697464969319407,0.013663279635444336
2.873942295787856,16:16:18.953239,16:14:52.161093,0,,0.09207903,-0.0043261796,-0.0067170262,0.10204736,-0.97462505,-0.1992287,-0.6765143,-0.21482427,0.7043996,-0.7293248,0.06289897,-0.6812702,,0.107507326,-0.0017002225,0.02288872,-0.0070061423,-0.15947193,0.9871775,-0.9177925,0.3929528,0.056965202,-0.3969985,-0.9056251,-0.14911526,,0.057700742,1.3275663,0.43760446,0.9967675,0.07912594,-0.013915371,0.044045582,-0.68306226,-0.72903085,-0.06719031,0.72606134,-0.6843394,,-0.052171025,0.25499728,-0.044024453,-0.07000851,0.9647527,0.25367513,-0.99751675,-0.065744504,-0.025258563,-0.0076905205,-0.25481352,0.96695966,,-0.060986497,0.45530477,-0.2857031,0.032271426,0.28471792,-0.958068,-0.7689617,-0.605272,-0.20577586,-0.63847977,0.74335825,0.19940418,,1.1314498706697587,0.1576055324971738,0.20038439707000003,-0.8890853603743832,0.18322954618545564,0.027749778507978384,0.7949955698755371,,-1.4375403881396471,0.06789826743018189,0.21808912589,0.14887985987401228,-0.037848310435027004,-0.7343853570530189,-0.1458662510579114,,0.0250542014123786,0.03150755632162763,0.0839748988,-0.11775085106328897,,1.9326806e-05,-1.7285347e-06,-4.172325e-06,0.99999994,-1.5150756e-05,-1.6070902e-05,1.5150756e-05,1.0,-1.5199184e-06,1.6074628e-05,1.4603138e-06,1.0,916,2.905,1,1,2.881,False,0.9696273414948982,0.01337359843076813
2.9166342630051076,16:16:18.981273,16:14:52.161093,0,,0.09207903,-0.0043261796,-0.0067170262,0.10204736,-0.97462505,-0.1992287,-0.6765143,-0.21482427,0.7043996,-0.7293248,0.06289897,-0.6812702,,0.10747259,-0.0017712116,0.022993028,-0.007143814,-0.15404384,0.98803806,-0.91931903,0.38977355,0.054122187,-0.39344832,-0.9079356,-0.14439997,,0.057700742,1.3275663,0.43760446,0.9967675,0.07912594,-0.013915371,0.044045582,-0.68306226,-0.72903085,-0.06719031,0.72606134,-0.6843394,,-0.052171025,0.25499728,-0.044024453,-0.07000851,0.9647527,0.25367513,-0.99751675,-0.065744504,-0.025258563,-0.0076905205,-0.25481352,0.96695966,,-0.06096735,0.4553681,-0.28581595,0.031911943,0.2795437,-0.9596025,-0.76650536,-0.60931456,-0.20299105,-0.6414446,0.7420183,0.19482733,,1.1314498706697587,0.1576055324971738,0.20038439707000003,-0.8890853603743832,0.18322954618545564,0.027749778507978384,0.7949955698755371,,-1.4377797928587481,0.06790599016305611,0.2179711635,0.14657327049568253,-0.040990949929632134,-0.7395822255813546,-0.14439615446270282,,0.0250542014123786,0.03150755632162763,0.0839748988,-0.11775085106328897,,1.9326806e-05,-1.7285347e-06,-4.172325e-06,0.99999994,-1.5150756e-05,-1.6070902e-05,1.5150756e-05,1.0,-1.5199184e-06,1.6074628e-05,1.4603138e-06,1.0,930,2.95,1,1,2.926,False,0.9692102974652514,0.013663279635444336
2.944699960993603,16:16:19.029518,16:14:52.161093,0,,0.09203172,-0.0043023974,-0.0067154467,0.10200971,-0.9746516,-0.19911867,-0.6765251,-0.2147184,0.70442146,-0.72932,0.06285095,-0.6812797,,0.10735211,-0.0018914863,0.023225427,-0.007110331,-0.14508389,0.9893937,-0.9201928,0.3882186,0.050315082,-0.39140096,-0.9100753,-0.13626556,,0.057706457,1.327564,0.4376015,0.9967672,0.07913054,-0.013910459,0.0440523,-0.6830617,-0.72903097,-0.06719031,0.72606134,-0.6843394,,-0.0521302,0.25501585,-0.044014234,-0.06996679,0.9647855,0.2535617,-0.99751955,-0.06570358,-0.025253773,-0.0077045634,-0.25469968,0.9669895,,-0.060887415,0.45553085,-0.28604102,0.03159958,0.27089027,-0.96209145,-0.76509684,-0.61282164,-0.19767782,-0.6431394,0.7423396,0.18789238,,1.131457593402633,0.15759780976429957,0.20038439707000003,-0.8890853603743832,0.18322954618545564,0.027668099767837795,0.7951589139416713,,-1.4384748388174282,0.06790599016305611,0.21773394243000002,0.14510544089129085,-0.04276722442658286,-0.7479352416501686,-0.14602959512404567,,0.0250542014123786,0.03150755632162763,0.0839748988,-0.11775085106328897,,2.5108457e-05,-1.847744e-06,-5.9604645e-07,0.99999994,-1.05425715e-05,-1.1179596e-05,1.0538846e-05,1.0,-1.0728836e-06,1.11833215e-05,1.013279e-06,1.0,944,2.995,1,1,2.971,False,0.9696273414948982,0.01303563702531152
