AlexandreBanks6/ExpertPlaybackApp/resources/Motions/P_10/PC1/Data_PC1_1.csv
Task Time,PC1 Time,PC2 Time,Gaze Calib,s_T_psm1,Tx,Ty,Tz,R00,R01,R02,R10,R11,R12,R20,R21,R22,s_T_psm3,Tx,Ty,Tz,R00,R01,R02,R10,R11,R12,R20,R21,R22,cart_T_ecm,Tx,Ty,Tz,R00,R01,R02,R10,R11,R12,R20,R21,R22,ecm_T_psm1,Tx,Ty,Tz,R00,R01,R02,R10,R11,R12,R20,R21,R22,ecm_T_psm3,Tx,Ty,Tz,R00,R01,R02,R10,R11,R12,R20,R21,R22,psm1_joints,q1,q2,q3,q4,q5,q6,jaw,psm3_joints,q1,q2,q3,q4,q5,q6,jaw,ecm_joints,q1,q2,q3,q4,ecmi_T_ecm,Tx,Ty,Tz,R00,R01,R02,R10,R11,R12,R20,R21,R22,Sample #,Task Duration (s),Collisions (binary),Collisions (increments),Cumulative Collision Time (s),Clutch Press,MTMR Angle,MTML Angle
""
lci_T_si,,,,,-0.061405014,0.027400337,0.2485284,0.99760735,0.0015516733,0.06911746,0.046116903,-0.7597547,-0.64857227,0.051505942,0.65020794,-0.7580084
rci_T_si,,,,,-0.072011076,0.03243643,0.2623404,0.9976547,-0.011777193,0.067427725,0.035187066,-0.75671625,-0.6527958,0.058711756,0.65363735,-0.7545271
ecm_T_lc,,,,,-4.4061628e-05,-0.00034663224,-0.01840835,-0.99912,0.030754527,0.028518902,-0.031987965,-0.99852574,-0.043852776,0.027128186,-0.04472645,0.9986309
ecm_T_rc,,,,,-0.0043358393,0.01870579,-0.007592615,-0.99555075,-0.052743673,-0.078081585,0.04863213,-0.9973746,0.053654674,-0.08070653,0.04961868,0.9955021
cart_T_ecmi,,,,,0.07748984,1.3318874,0.4582016,0.9984689,0.027356012,-0.04807836,-0.00985114,-0.76732504,-0.64118266,-0.05443193,0.64067453,-0.7658807
ecmac_T_ecmrep_psm1,,,,,0.0028397094,-0.24236576,-0.3123762,0.99938005,0.032352094,0.013886033,-0.031258944,0.9968569,-0.072795466,-0.016197473,0.07231628,0.9972502
ecmac_T_ecmrep_psm3,,,,,-0.018767226,-0.44603547,-0.53896165,0.9994355,-0.013331066,-0.030837692,0.013906483,0.9997318,0.01852092,0.030582517,-0.018939309,0.9993528
""
0,09:24:17.147380,09:23:11.125726,0,,0.12814787,0.0039577633,0.02293396,0.8624085,0.25157195,-0.43927535,0.38784808,0.22927907,0.89275146,0.3253078,-0.9402885,0.10016045,,0.06551689,-0.03439243,0.040367365,-0.51005095,0.41242856,0.75481826,0.7198141,-0.27573124,0.63705575,0.47086692,0.8682597,-0.15623492,,0.077506565,1.3318851,0.4581981,0.9984687,0.027342351,-0.048089772,-0.009868915,-0.7673256,-0.6411818,-0.05443193,0.64067453,-0.7658807,,-0.08431179,0.2466969,-0.07796137,-0.8829255,-0.17535529,0.43553764,0.46709242,-0.42213267,0.77693546,0.04761492,0.88941246,0.45461884,,-0.0038353489,0.42646965,-0.34054738,0.44083887,-0.5331756,-0.72206986,0.8903862,0.36145127,0.27670437,0.11346104,-0.7649031,0.634074,,1.0270076312787464,0.3521411735988892,0.18536169226000002,3.6433627680436107,-0.050692141412978405,-1.137778250397784,-0.411300358526115,,-1.296330217534452,0.06906440009418979,0.17173249920000003,-3.027293714086078,-0.36632245587114587,0.8143492863174753,0.6875151743591814,,-0.034191000046568915,-0.08750644537186571,0.07561312771999999,-0.04775451182011164,,1.6909093e-05,0.0,3.33786e-06,0.99999994,-1.3630837e-05,-1.1406839e-05,1.36345625e-05,1.0,-8.940697e-07,1.1406839e-05,1.0430813e-06,1.0,36,0.109,0,0,0.0,False,-0.26202283349042155,0.864601818373401
0.12693986797239631,09:24:17.171122,09:23:11.125726,0,,0.12814312,0.003972292,0.022920325,0.8626278,0.25140062,-0.43894288,0.38754433,0.22921675,0.8928993,0.32508844,-0.94034946,0.100299805,,0.06546214,-0.034356803,0.040356517,-0.509207,0.41290808,0.75512576,0.72035295,-0.27564558,0.63648343,0.47095627,0.8680589,-0.15707895,,0.077506565,1.3318851,0.4581981,0.9984687,0.027342351,-0.048089772,-0.009868915,-0.7673256,-0.6411818,-0.05443193,0.64067453,-0.7658807,,-0.0843059,0.24669988,-0.07794198,-0.8831287,-0.17518006,0.43519613,0.46670887,-0.4222117,0.777123,0.047608446,0.8894095,0.45462534,,-0.003779461,0.426493,-0.34052062,0.43999317,-0.53362125,-0.7222564,0.8907533,0.3613281,0.2756819,0.113861814,-0.76465046,0.6343068,,1.0270462449431175,0.35214889633176344,0.18538113661000002,3.643782147930579,-0.050692141412978405,-1.137778250397784,-0.411300358526115,,-1.2961062582810994,0.06945053673790101,0.17173120291000002,-3.02645495431214,-0.3655026368725532,0.8138441363755777,0.6884952387559871,,-0.034191000046568915,-0.08750644537186571,0.07561312771999999,-0.04775451182011164,,1.6909093e-05,0.0,3.33786e-06,0.99999994,-1.3630837e-05,-1.1406839e-05,1.36345625e-05,1.0,-8.940697e-07,1.1406839e-05,1.0430813e-06,1.0,40,0.121,0,0,0.0,False,-0.2620824112089424,0.8644569777710629
0.1506688449298963,09:24:17.197815,09:23:11.125726,0,,0.1281339,0.003999293,0.022887006,0.8626355,0.25149703,-0.43887267,0.3874721,0.22918475,0.89293885,0.32515427,-0.9403316,0.100254714,,0.065408535,-0.03429985,0.040355027,-0.50899285,0.41322204,0.7550985,0.7203947,-0.27563688,0.6364401,0.47112405,0.8679123,-0.15738577,,0.077506565,1.3318851,0.4581981,0.9984687,0.027342351,-0.048089772,-0.009868915,-0.7673256,-0.6411818,-0.05443193,0.64067453,-0.7658807,,-0.08429391,0.2467004,-0.07789978,-0.88314193,-0.17527775,0.4351299,0.46669358,-0.4222297,0.7771224,0.047512516,0.8893817,0.45468977,,-0.0037259469,0.42653802,-0.34048557,0.43975747,-0.53391105,-0.72218585,0.8908784,0.36120299,0.27544177,0.11379428,-0.7645073,0.6344915,,1.0271080268061112,0.35213345086601494,0.18542391418,3.643782147930579,-0.050828777912743844,-1.1376668324940877,-0.411300358526115,,-1.2959749718222378,0.06992934617610294,0.17173120291000002,-3.0262452643686553,-0.3650927273732569,0.8136732401447697,0.6891486150205242,,-0.034191000046568915,-0.08750644537186571,0.07561312771999999,-0.04775451182011164,,1.6909093e-05,0.0,3.33786e-06,0.99999994,-1.3630837e-05,-1.1406839e-05,1.36345625e-05,1.0,-8.940697e-07,1.1406839e-05,1.0430813e-06,1.0,52,0.157,0,0,0.0,False,-0.26232072208302704,0.8634913737554735
0.17737289203796536,09:24:17.221417,09:23:11.217079,0,,0.12813208,0.0040207356,0.022854552,0.86263734,0.2513793,-0.4389364,0.38747612,0.22940168,0.8928814,0.3251446,-0.94031006,0.100486845,,0.065389946,-0.034257755,0.040368915,-0.50922835,0.4126833,0.7552343,0.72015315,-0.27617016,0.6364821,0.47123867,0.86799914,-0.15656152,,0.077506565,1.3318851,0.4581981,0.9984687,0.027342351,-0.048089772,-0.009868915,-0.7673256,-0.6411818,-0.05443193,0.64067453,-0.7658807,,-0.08428941,0.24669684,-0.077861264,-0.883143,-0.17516078,0.43517485,0.46669054,-0.42204222,0.77722603,0.047522645,0.8894937,0.45446953,,-0.0037093428,0.4265796,-0.34046805,0.43997312,-0.5333925,-0.7224376,0.89080685,0.36093205,0.27602747,0.11351992,-0.76499707,0.63395005,,1.0271157495389855,0.35212572813314075,0.18546280288000003,3.643782147930579,-0.050828777912743844,-1.1379118687145091,-0.41113701445998074,,-1.2960290309523572,0.07021508729244924,0.17172731404000002,-3.02645495431214,-0.3650927273732569,0.8144900275461753,0.6878418624914499,,-0.034191000046568915,-0.08750644537186571,0.07561312771999999,-0.04775451182011164,,1.6909093e-05,0.0,3.33786e-06,0.99999994,-1.3630837e-05,-1.1406839e-05,1.36345625e-05,1.0,-8.940697e-07,1.1406839e-05,1.0430813e-06,1.0,59,0.178,0,0,0.0,False,-0.26148663402373185,0.8632499727515763
0.20097132993396372,09:24:17.248076,09:23:11.217079,0,,0.1281343,0.004045889,0.022815228,0.862634,0.2513207,-0.43897653,0.38747633,0.22953987,0.89284575,0.32515314,-0.94029206,0.10062799,,0.06539038,-0.0342426,0.040377438,-0.5092953,0.41263708,0.75521445,0.7200064,-0.27637544,0.6365591,0.47139063,0.8679558,-0.15634465,,0.077506565,1.3318851,0.4581981,0.9984687,0.027342351,-0.048089772,-0.009868915,-0.7673256,-0.6411818,-0.05443193,0.64067453,-0.7658807,,-0.08428838,0.24669164,-0.07781483,-0.8831404,-0.1751029,0.4352035,0.4666962,-0.4219208,0.77728856,0.047515918,0.8895627,0.45433515,,-0.0037109233,0.42659628,-0.3404635,0.44001716,-0.53334147,-0.72244847,0.89081275,0.3607593,0.27623424,0.11330282,-0.7651141,0.63384765,,1.0271003040732372,0.35212572813314075,0.18550946932,3.643782147930579,-0.050828777912743844,-1.1380752261947904,-0.4108103263277121,,-1.296090812815351,0.07029231462119148,0.17172601775000002,-3.02645495431214,-0.3652293638730223,0.8146014454498717,0.6875151743591813,,-0.034191000046568915,-0.08750644537186571,0.07561312771999999,-0.04775451182011164,,1.6909093e-05,0.0,3.33786e-06,0.99999994,-1.3630837e-05,-1.1406839e-05,1.36345625e-05,1.0,-8.940697e-07,1.1406839e-05,1.0430813e-06,1.0,67,0.203,0,0,0.0,False,-0.2622015666459845,0.8632016925507968
0.2276337780058384,09:24:17.278680,09:23:11.217079,0,,0.12813838,0.0040738285,0.022762343,0.8625047,0.2518676,-0.4389171,0.38740772,0.22938552,0.89291525,0.32557756,-0.94018334,0.10027054,,0.06539185,-0.03424169,0.040378988,-0.5092443,0.4127609,0.75518113,0.7201681,-0.27605233,0.63651633,0.47119853,0.86799973,-0.15667915,,0.077506565,1.3318851,0.4581981,0.9984687,0.027342351,-0.048089772,-0.009868915,-0.7673256,-0.6411818,-0.05443193,0.64067453,-0.7658807,,-0.084288105,0.24668007,-0.07775601,-0.8830453,-0.1756576,0.43517286,0.46691462,-0.4219972,0.7771159,0.04713541,0.8894171,0.45465973,,-0.0037126022,0.42659786,-0.34046382,0.43999475,-0.53346884,-0.72236806,0.8907914,0.36100954,0.27597597,0.113557175,-0.76490724,0.6340518,,1.0270694131417402,0.3520871144687696,0.18556909866000001,3.643572457987095,-0.05123868741204017,-1.137740972483701,-0.4108103263277121,,-1.2961062582810994,0.07030776008693994,0.17172472146,-3.02645495431214,-0.36495609087349146,0.8142969309023382,0.6876785184253156,,-0.034191000046568915,-0.08750644537186571,0.07561312771999999,-0.04775451182011164,,1.6909093e-05,0.0,3.33786e-06,0.99999994,-1.3630837e-05,-1.1406839e-05,1.36345625e-05,1.0,-8.940697e-07,1.1406839e-05,1.0430813e-06,1.0,79,0.239,0,0,0.0,False,-0.2629164992682367,0.8632499727515763
0.2582286730175838,09:24:17.304622,09:23:11.217079,0,,0.12814191,0.0041175485,0.022679642,0.8619351,0.25311226,-0.43931985,0.38771862,0.22929671,0.8928031,0.32671392,-0.9398707,0.099502504,,0.065391764,-0.034246728,0.040382862,-0.5092401,0.4127501,0.75518996,0.7201826,-0.27604142,0.63650477,0.47118104,0.8680083,-0.15668416,,0.077506565,1.3318851,0.4581981,0.9984687,0.027342351,-0.048089772,-0.009868915,-0.7673256,-0.6411818,-0.05443193,0.64067453,-0.7658807,,-0.08428485,0.2466621,-0.0776642,-0.882565,-0.17692353,0.43563408,0.46789405,-0.42192593,0.7765653,0.04641264,0.8892,0.45515853,,-0.0037130867,0.42659697,-0.3404701,0.4399931,-0.53345937,-0.72237605,0.89078933,0.36102432,0.2759634,0.11358005,-0.7649069,0.63404816,,1.0270385222102434,0.3520098871400274,0.18566243154,3.6425240082696724,-0.05205850641063282,-1.1371541438016632,-0.4106469822615778,,-1.2961062582810994,0.07028459188831726,0.17171953630000003,-3.02645495431214,-0.36495609087349146,0.8142969309023382,0.6876785184253156,,-0.034191000046568915,-0.08750644537186571,0.07561312771999999,-0.04775451182011164,,1.6909093e-05,0.0,3.33786e-06,0.99999994,-1.3630837e-05,-1.1406839e-05,1.36345625e-05,1.0,-8.940697e-07,1.1406839e-05,1.0430813e-06,1.0,86,0.26,0,0,0.0,False,-0.26178452261633733,0.8630085717476788
0.2841774240368977,09:24:17.330328,09:23:11.217079,0,,0.1281477,0.004155636,0.022583842,0.8618741,0.2544598,-0.43866062,0.38715553,0.22852978,0.89324397,0.32754162,-0.93969357,0.09844828,,0.06538751,-0.034250855,0.040383816,-0.509064,0.41278273,0.75529075,0.72024673,-0.2761691,0.6363768,0.47127327,0.8679522,-0.15671769,,0.077506565,1.3318851,0.4581981,0.9984687,0.027342351,-0.048089772,-0.009868915,-0.7673256,-0.6411818,-0.05443193,0.64067453,-0.7658807,,-0.08428285,0.24663143,-0.077565625,-0.8825728,-0.17828557,0.43506265,0.46797743,-0.4224718,0.7762182,0.045413185,0.8886686,0.45629576,,-0.0037090324,0.4265951,-0.3404741,0.439806,-0.5334842,-0.72247165,0.890882,0.3608909,0.27583873,0.113577835,-0.76495254,0.63399345,,1.0269690176143753,0.35187087794829136,0.18576354216000002,3.6425240082696724,-0.05315159840875633,-1.1360177643516702,-0.4114637025922495,,-1.2960753673496026,0.07027686915544304,0.17171564743,-3.0262452643686553,-0.36495609087349146,0.8142969309023382,0.6876785184253156,,-0.034191000046568915,-0.08750644537186571,0.07561312771999999,-0.04775451182011164,,1.6909093e-05,0.0,3.33786e-06,0.99999994,-1.3630837e-05,-1.1406839e-05,1.36345625e-05,1.0,-8.940697e-07,1.1406839e-05,1.0430813e-06,1.0,98,0.297,0,0,0.0,False,-0.2617249448978165,0.8623809291375459
0.3098545359680429,09:24:17.363451,09:23:11.217079,0,,0.12814482,0.004189968,0.02247867,0.86153805,0.25489032,-0.43907052,0.38761127,0.22830772,0.8931031,0.32788643,-0.9396309,0.09789732,,0.065382406,-0.034252286,0.040385067,-0.5090284,0.4127182,0.7553501,0.72032857,-0.276128,0.63630193,0.4711867,0.867996,-0.15673578,,0.077506565,1.3318851,0.4581981,0.9984687,0.027342351,-0.048089772,-0.009868915,-0.7673256,-0.6411818,-0.05443193,0.64067453,-0.7658807,,-0.08427148,0.24659236,-0.07746271,-0.8822622,-0.17872104,0.43551376,0.46856308,-0.4226245,0.77578163,0.045410287,0.8885085,0.4566077,,-0.0037041632,0.42659536,-0.3404765,0.4397834,-0.5334264,-0.7225281,0.8908776,0.36095676,0.27576685,0.11370007,-0.7649617,0.6339604,,1.0268917902856332,0.35170870055793263,0.18586983794000003,3.6418949384392194,-0.053288234908521775,-1.1357429889676927,-0.41113701445998074,,-1.29605219915098,0.07029231462119148,0.17171175856,-3.0262452643686553,-0.364819454373726,0.814348870478923,0.687351830293047,,-0.034191000046568915,-0.08750644537186571,0.07561312771999999,-0.04775451182011164,,1.6909093e-05,0.0,3.33786e-06,0.99999994,-1.3630837e-05,-1.1406839e-05,1.36345625e-05,1.0,-8.940697e-07,1.1406839e-05,1.0430813e-06,1.0,109,0.33,0,0,0.0,False,-0.26196325577190027,0.8618981271297517
0.3429592530010268,09:24:17.396738,09:23:11.217079,0,,0.12815595,0.004240945,0.022329032,0.8611356,0.2574262,-0.43838006,0.3874629,0.22591192,0.8937765,0.3291167,-0.93951863,0.09479758,,0.06538713,-0.03425248,0.040387154,-0.50895184,0.412675,0.7554253,0.72057927,-0.27582133,0.63615113,0.47088596,0.868114,-0.15698528,,0.077506565,1.3318851,0.4581981,0.9984687,0.027342351,-0.048089772,-0.009868915,-0.7673256,-0.6411818,-0.05443193,0.64067453,-0.7658807,,-0.084270485,0.24653774,-0.07731395,-0.8819587,-0.18127267,0.43507358,0.46923664,-0.4245313,0.77433205,0.044337105,0.8870814,0.45947886,,-0.0037091284,0.42659622,-0.3404776,0.43975157,-0.5333991,-0.7225676,0.8908426,0.36126244,0.2754793,0.11409615,-0.7648365,0.63404036,,1.0267373356281486,0.35148474130458013,0.18602280016000003,3.6412658686087656,-0.05451796340641074,-1.132698259330911,-0.4116270466583838,,-1.2960830900824767,0.07030003735406572,0.17171046227000003,-3.0262452643686553,-0.36440954487442967,0.8141779742481148,0.6863717658962415,,-0.034191000046568915,-0.08750644537186571,0.07561312771999999,-0.04775451182011164,,1.6909093e-05,0.0,3.33786e-06,0.99999994,-1.3630837e-05,-1.1406839e-05,1.36345625e-05,1.0,-8.940697e-07,1.1406839e-05,1.0430813e-06,1.0,120,0.363,0,0,0.0,False,-0.26196325577190027,0.8614636053227365
0.37628927698824555,09:24:17.425067,09:23:11.217079,0,,0.1281617,0.0042789727,0.022177741,0.8609943,0.25783604,-0.43841684,0.3877423,0.22510144,0.89385986,0.32915747,-0.9396008,0.09383708,,0.06539233,-0.034252778,0.040391326,-0.5089065,0.41271186,0.7554356,0.7207461,-0.27555284,0.6360785,0.47067946,0.86818177,-0.15722987,,0.077506565,1.3318851,0.4581981,0.9984687,0.027342351,-0.048089772,-0.009868915,-0.7673256,-0.6411818,-0.05443193,0.64067453,-0.7658807,,-0.08426408,0.24647227,-0.07717239,-0.8818193,-0.18167976,0.43518636,0.46948585,-0.42523158,0.7737966,0.044471793,0.8866626,0.46027347,,-0.0037148858,0.42659843,-0.34048024,0.4397369,-0.5334441,-0.7225433,0.89081556,0.36149824,0.27525738,0.114363715,-0.7646937,0.63416445,,1.026544267306293,0.35124533658547913,0.18616928093000001,3.641056178665281,-0.05451796340641074,-1.1320448294097865,-0.4103202941293096,,-1.296121703746848,0.07030003735406572,0.17170786969000001,-3.0262452643686553,-0.36413627187489883,0.813955138440722,0.6863717658962415,,-0.034191000046568915,-0.08750644537186571,0.07561312771999999,-0.04775451182011164,,1.6909093e-05,0.0,3.33786e-06,0.99999994,-1.3630837e-05,-1.1406839e-05,1.36345625e-05,1.0,-8.940697e-07,1.1406839e-05,1.0430813e-06,1.0,131,0.395,0,0,0.0,False,-0.26232072208302704,0.8607394023110442
0.4045668590115383,09:24:17.463475,09:23:11.217079,0,,0.12819904,0.004340589,0.021972448,0.86035675,0.25957018,-0.43864504,0.38821915,0.22391078,0.89395183,0.3302605,-0.9394078,0.0918729,,0.06539219,-0.03425163,0.040393293,-0.5089108,0.41246256,0.75556886,0.72073984,-0.27576753,0.63599247,0.4706844,0.868232,-0.15693718,,0.077506565,1.3318851,0.4581981,0.9984687,0.027342351,-0.048089772,-0.009868915,-0.7673256,-0.6411818,-0.05443193,0.64067453,-0.7658807,,-0.08428477,0.24638988,-0.07697209,-0.88126767,-0.18343103,0.43556902,0.47057658,-0.42611444,0.7726475,0.04387473,0.88587785,0.46183923,,-0.003715011,0.42660058,-0.34048083,0.43974042,-0.53320545,-0.7227173,0.8908149,0.36140284,0.27538478,0.114355415,-0.76490515,0.63391083,,1.0261735761283302,0.35101365459925243,0.18637409475000002,3.6400077289478583,-0.05520114590523794,-1.130589273749758,-0.41048363819544376,,-1.296129426479722,0.07030776008693994,0.1717065734,-3.0262452643686553,-0.36413627187489883,0.8142818534012843,0.6860450777639729,,-0.034191000046568915,-0.08750644537186571,0.07561312771999999,-0.04775451182011164,,1.6909093e-05,0.0,3.33786e-06,0.99999994,-1.3630837e-05,-1.1406839e-05,1.36345625e-05,1.0,-8.940697e-07,1.1406839e-05,1.0430813e-06,1.0,142,0.428,0,0,0.0,False,-0.26178452261633733,0.8606911221102647
0.44303516298532486,09:24:17.493426,09:23:11.217079,0,,0.12822716,0.0043720007,0.021845236,0.86028224,0.2604788,-0.43825233,0.38806626,0.22292429,0.8942648,0.330634,-0.93939096,0.090694696,,0.06538759,-0.034253016,0.040394187,-0.50893205,0.41226196,0.7556641,0.72065717,-0.27605596,0.63596106,0.47078806,0.8682356,-0.15660581,,0.077506565,1.3318851,0.4581981,0.9984687,0.027342351,-0.048089772,-0.009868915,-0.7673256,-0.6411818,-0.05443193,0.64067453,-0.7658807,,-0.08430258,0.24633333,-0.07685189,-0.88122374,-0.18434422,0.43527222,0.47069502,-0.42691192,0.77213496,0.04348427,0.88530415,0.46297482,,-0.0037105966,0.42660064,-0.34048295,0.4397463,-0.5330087,-0.7228589,0.89082915,0.36121765,0.27558166,0.11422197,-0.76512975,0.6336638,,1.0259032804777324,0.35085919994176795,0.18649724230000003,3.6400077289478583,-0.05561105540453427,-1.1296015901175442,-0.41048363819544365,,-1.2961062582810994,0.07030776008693994,0.17170398082000002,-3.0262452643686553,-0.3642729083746642,0.8146383075254023,0.6855550455655701,,-0.034191000046568915,-0.08750644537186571,0.07561312771999999,-0.04775451182011164,,1.6909093e-05,0.0,3.33786e-06,0.99999994,-1.3630837e-05,-1.1406839e-05,1.36345625e-05,1.0,-8.940697e-07,1.1406839e-05,1.0430813e-06,1.0,153,0.461,0,0,0.0,False,-0.26112916771260597,0.8607394023110442
0.4729838239727542,09:24:17.523948,09:23:11.217079,0,,0.12824595,0.0043982416,0.021742538,0.8602352,0.26096082,-0.43805784,0.38805538,0.22224411,0.89443874,0.33076915,-0.93941826,0.08991489,,0.06538525,-0.03425598,0.040394902,-0.50892484,0.41257906,0.7554958,0.72066486,-0.27578598,0.6360694,0.4707841,0.8681708,-0.15697694,,0.077506565,1.3318851,0.4581981,0.9984687,0.027342351,-0.048089772,-0.009868915,-0.7673256,-0.6411818,-0.05443193,0.64067453,-0.7658807,,-0.084313065,0.24628855,-0.07675456,-0.88118756,-0.1848268,0.43514082,0.47077337,-0.42747974,0.771773,0.043369547,0.8849294,0.46370137,,-0.0037084024,0.4265993,-0.34048578,0.43973976,-0.53331214,-0.72263896,0.8908312,0.36133614,0.27541962,0.11423094,-0.7648623,0.633985,,1.0257024894230025,0.35073563621578036,0.18659705663,3.6400077289478583,-0.0557476919042997,-1.1290000997730045,-0.40983026193090666,,-1.296090812815351,0.07030003735406572,0.17170138824000003,-3.0262452643686553,-0.3642729083746642,0.8142299138246996,0.6860450777639729,,-0.034191000046568915,-0.08750644537186571,0.07561312771999999,-0.04775451182011164,,1.6909093e-05,0.0,3.33786e-06,0.99999994,-1.3630837e-05,-1.1406839e-05,1.36345625e-05,1.0,-8.940697e-07,1.1406839e-05,1.0430813e-06,1.0,164,0.494,0,0,0.0,False,-0.2618441003348577,0.8605462815079266
0.5034733150387183,09:24:17.555397,09:23:11.217079,0,,0.12824814,0.004409671,0.021700144,0.8603314,0.26108474,-0.43779495,0.38793963,0.22176152,0.8946087,0.3306547,-0.9394979,0.08950323,,0.065385595,-0.03425479,0.040398657,-0.50893205,0.41257057,0.7554956,0.72065717,-0.2757962,0.6360737,0.47078806,0.8681716,-0.15696043,,0.077506565,1.3318851,0.4581981,0.9984687,0.027342351,-0.048089772,-0.009868915,-0.7673256,-0.6411818,-0.05443193,0.64067453,-0.7658807,,-0.08431184,0.24627076,-0.07671438,-0.8812752,-0.18494704,0.43491223,0.47060728,-0.4279106,0.7716355,0.043391854,0.88469607,0.4641444,,-0.00370926,0.42660263,-0.34048754,0.4397463,-0.53330386,-0.7226411,0.89082915,0.36133018,0.2754341,0.11422197,-0.7648709,0.6339762,,1.025648430292883,0.35067385435278653,0.18663853791,3.6402174188913428,-0.0557476919042997,-1.1285917060723016,-0.40966691786477216,,-1.2961062582810994,0.07030776008693994,0.17169879566000001,-3.0262452643686553,-0.3642729083746642,0.8142299138246996,0.6862084218301072,,-0.034191000046568915,-0.08750644537186571,0.07561312771999999,-0.04775451182011164,,1.6909093e-05,0.0,3.33786e-06,0.99999994,-1.3630837e-05,-1.1406839e-05,1.36345625e-05,1.0,-8.940697e-07,1.1406839e-05,1.0430813e-06,1.0,175,0.526,0,0,0.0,False,-0.2616653671792948,0.8599186388977937
0.5349057029234245,09:24:17.593714,09:23:11.217079,0,,0.12823059,0.0044239014,0.021703497,0.8604659,0.26108775,-0.43752867,0.38777998,0.22142753,0.8947607,0.33049187,-0.9395758,0.08928618,,0.065382175,-0.034253642,0.040408194,-0.50894207,0.4125074,0.75552326,0.7206399,-0.2758657,0.6360632,0.47080377,0.8681795,-0.15686968,,0.077506565,1.3318851,0.4581981,0.9984687,0.027342351,-0.048089772,-0.009868915,-0.7673256,-0.6411818,-0.05443193,0.64067453,-0.7658807,,-0.08429453,0.24628474,-0.07670917,-0.8813974,-0.18494599,0.43466482,0.47037503,-0.4282194,0.7716058,0.043426525,0.8845468,0.46442547,,-0.0037072324,0.42661038,-0.3404939,0.4397539,-0.5332428,-0.7226815,0.8908285,0.36129186,0.2754865,0.11419775,-0.76493156,0.6339074,,1.0257797167517446,0.35068929981853497,0.18664372307000002,3.6404271088348272,-0.0557476919042997,-1.1281833123715987,-0.4101569500631752,,-1.296121703746848,0.07033092828556262,0.17168972163000001,-3.0262452643686553,-0.3642729083746642,0.8143115925648401,0.6849016693010329,,-0.034191000046568915,-0.08750644537186571,0.07561312771999999,-0.04775451182011164,,1.6909093e-05,0.0,3.33786e-06,0.99999994,-1.3630837e-05,-1.1406839e-05,1.36345625e-05,1.0,-8.940697e-07,1.1406839e-05,1.0430813e-06,1.0,186,0.559,0,0,0.0,False,-0.2613079008681689,0.8606428419094856
0.5732691929442808,09:24:17.623835,09:23:11.217079,0,,0.12821037,0.004444942,0.021730423,0.8604959,0.26154676,-0.43719554,0.38757214,0.22090495,0.8949799,0.33065766,-0.93957126,0.08871949,,0.065381095,-0.03425345,0.04041338,-0.50875473,0.41255417,0.75562394,0.72076935,-0.27587828,0.635911,0.47080794,0.8681533,-0.15700209,,0.077506565,1.3318851,0.4581981,0.9984687,0.027342351,-0.048089772,-0.009868915,-0.7673256,-0.6411818,-0.05443193,0.64067453,-0.7658807,,-0.08427635,0.24631886,-0.076718144,-0.88144165,-0.18540715,0.43437865,0.4703159,-0.42864358,0.7714063,0.043169387,0.8842448,0.46502423,,-0.0037069006,0.4266142,-0.34049755,0.43956846,-0.5332854,-0.72276294,0.8909063,0.36126027,0.27527624,0.11430473,-0.7649168,0.63390595,,1.0259882305393488,0.35077424988015143,0.18663335275,3.6404271088348272,-0.05602096490383058,-1.1273070466430815,-0.4101569500631753,,-1.296129426479722,0.07034637375131106,0.17168453647,-3.026035574425171,-0.36413627187489883,0.8142001746611436,0.6849016693010329,,-0.034191000046568915,-0.08750644537186571,0.07561312771999999,-0.04775451182011164,,1.6909093e-05,0.0,3.33786e-06,0.99999994,-1.3630837e-05,-1.1406839e-05,1.36345625e-05,1.0,-8.940697e-07,1.1406839e-05,1.0430813e-06,1.0,197,0.592,0,0,0.0,False,-0.2616653671792948,0.8612704845196184
0.6033718129619956,09:24:17.652800,09:23:11.217079,0,,0.12819183,0.0044617057,0.021754295,0.86063874,0.26189563,-0.4367053,0.3873789,0.21990767,0.8953091,0.3305123,-0.9397079,0.08780813,,0.06536941,-0.0342526,0.0404222,-0.5085885,0.41292042,0.7555357,0.72079986,-0.27577177,0.6359227,0.47094083,0.868013,-0.15737867,,0.077506565,1.3318851,0.4581981,0.9984687,0.027342351,-0.048089772,-0.009868915,-0.7673256,-0.6411818,-0.05443193,0.64067453,-0.7658807,,-0.08425964,0.24634768,-0.07672733,-0.8815738,-0.18575034,0.4339637,0.4700681,-0.42952073,0.77106935,0.043169994,0.883747,0.4659695,,-0.0036965928,0.42662203,-0.34050447,0.43938512,-0.53362745,-0.7226219,0.89100385,0.36120468,0.2750333,0.1142491,-0.76470447,0.6341721,,1.0261658533954559,0.3508514772088937,0.18662298243000003,3.640636798778312,-0.05602096490383058,-1.126081865540973,-0.4090135416002353,,-1.2960985355482253,0.0703927101485564,0.17167286986000002,-3.0258258844816868,-0.36413627187489883,0.8137917809604409,0.6863717658962414,,-0.034191000046568915,-0.08750644537186571,0.07561312771999999,-0.04775451182011164,,1.6909093e-05,0.0,3.33786e-06,0.99999994,-1.3630837e-05,-1.1406839e-05,1.36345625e-05,1.0,-8.940697e-07,1.1406839e-05,1.0430813e-06,1.0,201,0.604,0,0,0.0,False,-0.2621419889274632,0.8607394023110442
0.632316667935811,09:24:17.674910,09:23:11.217079,0,,0.1281862,0.004492879,0.02180244,0.8591549,0.2668576,-0.43662307,0.3874289,0.21818864,0.89570796,0.33429253,-0.93871224,0.0840694,,0.06535589,-0.034249738,0.040431082,-0.50858825,0.41272643,0.75564194,0.72076726,-0.27599552,0.6358625,0.47099102,0.8680341,-0.15711161,,0.077506565,1.3318851,0.4581981,0.9984687,0.027342351,-0.048089772,-0.009868915,-0.7673256,-0.6411818,-0.05443193,0.64067453,-0.7658807,,-0.08425764,0.24640238,-0.07674544,-0.88039184,-0.19078583,0.4341785,0.47254232,-0.4304557,0.76903296,0.040174026,0.88221806,0.46912408,,-0.0036844658,0.4266315,-0.3405102,0.43937758,-0.5334394,-0.7227653,0.89101505,0.36107737,0.2751642,0.1141908,-0.76489574,0.63395184,,1.0264284263131795,0.3509441500033844,0.18660224179,3.637910829513013,-0.05916360439843572,-1.1220490364334252,-0.4109736703938466,,-1.2960676446167283,0.0704544920115502,0.17166120325,-3.0258258844816868,-0.36413627187489883,0.814118495921003,0.6860450777639729,,-0.034191000046568915,-0.08750644537186571,0.07561312771999999,-0.04775451182011164,,1.6909093e-05,0.0,3.33786e-06,0.99999994,-1.3630837e-05,-1.1406839e-05,1.36345625e-05,1.0,-8.940697e-07,1.1406839e-05,1.0430813e-06,1.0,212,0.637,0,0,0.0,False,-0.26327396557936344,0.8605462815079266
0.6544473640387878,09:24:17.706615,09:23:11.217079,0,,0.12816185,0.0045160055,0.021860674,0.8578004,0.27080444,-0.43685618,0.3875043,0.217641,0.89580846,0.33766666,-0.9377085,0.081754535,,0.06533985,-0.034242123,0.040437758,-0.5085908,0.41267616,0.7556677,0.7207169,-0.27612674,0.6358627,0.4710654,0.86801636,-0.15698722,,0.077506565,1.3318851,0.4581981,0.9984687,0.027342351,-0.048089772,-0.009868915,-0.7673256,-0.6411818,-0.05443193,0.64067453,-0.7658807,,-0.0842378,0.24645795,-0.07677766,-0.8793067,-0.19480272,0.4345937,0.474776,-0.43042898,0.7676709,0.03751734,0.88135284,0.47096673,,-0.0036695143,0.42664313,-0.34051132,0.43936926,-0.5333877,-0.72280854,0.89103043,0.36097577,0.27524763,0.11410267,-0.7649798,0.63386637,,1.0267759492925197,0.35099048640062974,0.18656853825000003,3.635394550191199,-0.06203297089350997,-1.1194642242353787,-0.4104836381954434,,-1.2960290309523572,0.0705471648060409,0.17165212922,-3.0258258844816868,-0.36413627187489883,0.8142818534012842,0.6857183896317044,,-0.034191000046568915,-0.08750644537186571,0.07561312771999999,-0.04775451182011164,,1.6909093e-05,0.0,3.33786e-06,0.99999994,-1.3630837e-05,-1.1406839e-05,1.36345625e-05,1.0,-8.940697e-07,1.1406839e-05,1.0430813e-06,1.0,223,0.67,0,0,0.0,False,-0.2621419889274632,0.8602566003032495
0.6860943819629028,09:24:17.744947,09:23:11.719973,0,,0.12814328,0.0045425147,0.021952689,0.8564407,0.2769236,-0.43568617,0.38612217,0.21657059,0.8966644,0.34266424,-0.93616784,0.0785535,,0.06532438,-0.034230262,0.04044807,-0.5086062,0.41268027,0.75565517,0.72064775,-0.2762268,0.6358975,0.4711545,0.86798257,-0.15690646,,0.077506565,1.3318851,0.4581981,0.9984687,0.027342351,-0.048089772,-0.009868915,-0.7673256,-0.6411818,-0.05443193,0.64067453,-0.7658807,,-0.08422636,0.24653707,-0.076833524,-0.8783532,-0.20103067,0.43368462,0.4768934,-0.43056953,0.7662784,0.032685924,0.8798844,0.47406232,,-0.0036556076,0.4266602,-0.34051198,0.4393715,-0.53338736,-0.72280747,0.8910438,0.3608803,0.27532956,0.11398964,-0.7650251,0.633832,,1.0272161450663504,0.35105999099649776,0.18651020520000003,3.6330879608128694,-0.06708852138483126,-1.1154234405387518,-0.41064698226157803,,-1.2960135854866088,0.07066300579915426,0.17164175890000002,-3.0258258844816868,-0.36413627187489883,0.8143635321414249,0.6855550455655701,,-0.034191000046568915,-0.08750644537186571,0.07561312771999999,-0.04775451182011164,,1.6909093e-05,0.0,3.33786e-06,0.99999994,-1.3630837e-05,-1.1406839e-05,1.36345625e-05,1.0,-8.940697e-07,1.1406839e-05,1.0430813e-06,1.0,234,0.703,0,0,0.0,False,-0.2631548101423209,0.8594841170907785
0.7245031410129741,09:24:17.774993,09:23:11.719973,0,,0.12810585,0.004575759,0.022069186,0.8541724,0.28221753,-0.43674085,0.38657755,0.21708706,0.89634323,0.34777445,-0.9344657,0.07633072,,0.06530495,-0.03421928,0.040457726,-0.50828505,0.41248903,0.75597554,0.7206865,-0.2768138,0.6355983,0.47144178,0.8678864,-0.15657496,,0.077506565,1.3318851,0.4581981,0.9984687,0.027342351,-0.048089772,-0.009868915,-0.7673256,-0.6411818,-0.05443193,0.64067453,-0.7658807,,-0.08419802,0.24663764,-0.07690541,-0.8764914,-0.20643887,0.43490896,0.4805515,-0.42933747,0.76468265,0.028862478,0.87923396,0.47551513,,-0.0036377092,0.4266766,-0.34051323,0.43901283,-0.5331869,-0.72317314,0.89123887,0.36041117,0.27531272,0.11384655,-0.76538587,0.633422,,1.0277799045661689,0.35120672292110805,0.18643502038,3.6288941619431787,-0.07118761637779447,-1.1128976908292647,-0.41130035852611513,,-1.2959672490893634,0.07078656952514185,0.17163009229,-3.0254065045947174,-0.36413627187489883,0.8147719258421275,0.6844116371026301,,-0.034191000046568915,-0.08750644537186571,0.07561312771999999,-0.04775451182011164,,1.6909093e-05,0.0,3.33786e-06,0.99999994,-1.3630837e-05,-1.1406839e-05,1.36345625e-05,1.0,-8.940697e-07,1.1406839e-05,1.0430813e-06,1.0,245,0.735,0,0,0.0,False,-0.2622611443645053,0.8579391506658358
0.7545454220380634,09:24:17.805672,09:23:11.719973,0,,0.12806234,0.004631445,0.022233397,0.8516422,0.28982824,-0.43669778,0.38541168,0.2183488,0.89653873,0.35519457,-0.9318386,0.0742518,,0.06527903,-0.034210756,0.040463448,-0.5092635,0.4124613,0.7553319,0.72030014,-0.2760318,0.6363759,0.470976,0.8681486,-0.15652305,,0.077506565,1.3318851,0.4581981,0.9984687,0.027342351,-0.048089772,-0.009868915,-0.7673256,-0.6411818,-0.05443193,0.64067453,-0.7658807,,-0.084167235,0.24678579,-0.07700055,-0.87456036,-0.21422482,0.4350309,0.48440763,-0.4270493,0.76353,0.02221257,0.8784854,0.47725254,,-0.0036128329,0.4266892,-0.3405141,0.44004604,-0.53319347,-0.7225401,0.89073443,0.36115587,0.2759684,0.113805056,-0.76503015,0.63385904,,1.0285830687850883,0.3514229594415863,0.18633520605,3.624490673130004,-0.07815607786583194,-1.1098290974252452,-0.4126071110551893,,-1.2959054672263697,0.07091013325112945,0.17161842568000002,-3.0266646442556246,-0.36413627187489883,0.8148536045822682,0.6839216049042272,,-0.034191000046568915,-0.08750644537186571,0.07561312771999999,-0.04775451182011164,,1.6909093e-05,0.0,3.33786e-06,0.99999994,-1.3630837e-05,-1.1406839e-05,1.36345625e-05,1.0,-8.940697e-07,1.1406839e-05,1.0430813e-06,1.0,256,0.768,0,0,0.0,False,-0.26285692154971585,0.8546078168120532
0.7851998909609392,09:24:17.836186,09:23:11.719973,0,,0.12796728,0.004760146,0.02248253,0.8478914,0.30125034,-0.43626615,0.3835682,0.21950766,0.8970462,0.36599913,-0.92793554,0.07056856,,0.065252624,-0.03420505,0.040463746,-0.50976336,0.41319498,0.7545933,0.7200084,-0.27517363,0.63707733,0.47088137,0.86807215,-0.15723044,,0.077506565,1.3318851,0.4581981,0.9984687,0.027342351,-0.048089772,-0.009868915,-0.7673256,-0.6411818,-0.05443193,0.64067453,-0.7658807,,-0.08409129,0.2470463,-0.077119045,-0.8716832,-0.22591129,0.4348937,0.4899121,-0.42421186,0.7615973,0.012433644,0.87693125,0.480455,,-0.0035867207,0.42669606,-0.34051314,0.44055304,-0.533905,-0.7217052,0.89050794,0.3616482,0.27605474,0.113616385,-0.76430094,0.6347719,,1.0300503880311909,0.35185543248254286,0.18620946592,3.6179902848819827,-0.08840381534823998,-1.1042498318127927,-0.4119537347906521,,-1.2958050716990046,0.07101052877849437,0.17161064794000003,-3.027293714086078,-0.3642729083746642,0.8140665563444184,0.6798380032508702,,-0.034191000046568915,-0.08750644537186571,0.07561312771999999,-0.04775451182011164,,1.6909093e-05,0.0,3.33786e-06,0.99999994,-1.3630837e-05,-1.1406839e-05,1.36345625e-05,1.0,-8.940697e-07,1.1406839e-05,1.0430813e-06,1.0,267,0.801,0,0,0.0,False,-0.26273776611267374,0.8533525315917871
0.8157360079931095,09:24:17.869771,09:23:11.837983,0,,0.12787148,0.0048725903,0.022714987,0.844531,0.31005758,-0.43661392,0.38260788,0.221084,0.8970693,0.37467134,-0.9246545,0.06808171,,0.06522453,-0.034201905,0.0404678,-0.5097436,0.4137483,0.75430346,0.71952397,-0.2756292,0.63742757,0.47164264,0.867664,-0.15720168,,0.077506565,1.3318851,0.4581981,0.9984687,0.027342351,-0.048089772,-0.009868915,-0.7673256,-0.6411818,-0.05443193,0.64067453,-0.7658807,,-0.08401339,0.24728374,-0.07723486,-0.8690217,-0.23493956,0.43543622,0.49474984,-0.42132264,0.76007223,0.0048881145,0.8759513,0.48237482,,-0.003559466,0.42670378,-0.34051675,0.4404228,-0.5343965,-0.7214209,0.8906836,0.36098656,0.2763538,0.112740755,-0.7642703,0.63496494,,1.0313941435513059,0.35228018279062523,0.18608761466,3.6121189664644167,-0.09632873233463551,-1.1002379556026172,-0.41260711105518955,,-1.295681507973017,0.07107231064148817,0.17160027762000002,-3.0270840241425936,-0.3650927273732569,0.8139182763651913,0.678531250721796,,-0.034191000046568915,-0.08750644537186571,0.07561312771999999,-0.04775451182011164,,1.6909093e-05,0.0,3.33786e-06,0.99999994,-1.3630837e-05,-1.1406839e-05,1.36345625e-05,1.0,-8.940697e-07,1.1406839e-05,1.0430813e-06,1.0,278,0.834,0,0,0.0,False,-0.2632143878608417,0.8512764829582706
0.8493061510380358,09:24:17.900370,09:23:11.837983,0,,0.12775426,0.0049987882,0.022957072,0.8412134,0.3166788,-0.438263,0.38204417,0.22546226,0.8962194,0.38262534,-0.9213474,0.06867653,,0.065211594,-0.034203947,0.04047185,-0.5097289,0.41374338,0.7543161,0.7195149,-0.27567282,0.6374189,0.47167224,0.86765254,-0.15717614,,0.077506565,1.3318851,0.4581981,0.9984687,0.027342351,-0.048089772,-0.009868915,-0.7673256,-0.6411818,-0.05443193,0.64067453,-0.7658807,,-0.0839148,0.24753886,-0.07735089,-0.8663441,-0.24177338,0.4370281,0.4994442,-0.41613957,0.7598575,-0.0018486117,0.87656915,0.48127237,,-0.0035472456,0.42670634,-0.3405224,0.44040406,-0.53439015,-0.72143704,0.89069617,0.36094782,0.276364,0.11271492,-0.764293,0.6349421,,1.032876908263157,0.3527589922288272,0.1859657634,3.60624764804685,-0.10343383032243841,-1.099508306499118,-0.4119537347906521,,-1.2956274488428976,0.07110320157298507,0.17159120359000002,-3.0270840241425936,-0.3650927273732569,0.8139999551053319,0.6770611541265875,,-0.034191000046568915,-0.08750644537186571,0.07561312771999999,-0.04775451182011164,,1.6909093e-05,0.0,3.33786e-06,0.99999994,-1.3630837e-05,-1.1406839e-05,1.36345625e-05,1.0,-8.940697e-07,1.1406839e-05,1.0430813e-06,1.0,289,0.866,0,0,0.0,False,-0.26333354329788383,0.8483796709115028
0.8799275560304523,09:24:17.936259,09:23:11.837983,0,,0.12767619,0.0051587224,0.023229972,0.8366929,0.33025151,-0.43689677,0.37888786,0.22697967,0.8971758,0.39546028,-0.91619533,0.06478393,,0.065206334,-0.034204915,0.04047823,-0.5097288,0.414003,0.75417364,0.71950674,-0.2754685,0.6375165,0.4716848,0.8675935,-0.15746373,,0.077506565,1.3318851,0.4581981,0.9984687,0.027342351,-0.048089772,-0.009868915,-0.7673256,-0.6411818,-0.05443193,0.64067453,-0.7658807,,-0.08385748,0.24783781,-0.07746706,-0.86286753,-0.2556999,0.43597844,0.5052341,-0.41233644,0.75810105,-0.014076577,0.87441194,0.48498005,,-0.0035429674,0.4267106,-0.34052816,0.44040215,-0.53463787,-0.7212547,0.8906989,0.36102873,0.2762493,0.112700336,-0.76408154,0.6351992,,1.034421454838002,0.35331502899577133,0.18584391214,3.599118189968376,-0.11600438830085893,-1.093015081405513,-0.41130035852611513,,-1.2956197261100233,0.07111864703873351,0.17158342585000003,-3.0270840241425936,-0.3650927273732569,0.8136732401447697,0.6746109931345733,,-0.034191000046568915,-0.08750644537186571,0.07561312771999999,-0.04775451182011164,,1.6909093e-05,0.0,3.33786e-06,0.99999994,-1.3630837e-05,-1.1406839e-05,1.36345625e-05,1.0,-8.940697e-07,1.1406839e-05,1.0430813e-06,1.0,300,0.899,0,0,0.0,False,-0.2636314318904893,0.8450966172584997
0.9157767869764939,09:24:17.966858,09:23:11.837983,0,,0.12756884,0.0052794367,0.02353245,0.83233243,0.3395635,-0.43808573,0.37827075,0.22971296,0.8967403,0.40513414,-0.91210103,0.06275058,,0.06519982,-0.03420347,0.040484548,-0.50970334,0.41436833,0.7539903,0.71957135,-0.27508056,0.63761103,0.4716139,0.86754227,-0.15795809,,0.077506565,1.3318851,0.4581981,0.9984687,0.027342351,-0.048089772,-0.009868915,-0.7673256,-0.6411818,-0.05443193,0.64067453,-0.7658807,,-0.08377352,0.24812607,-0.07763272,-0.859286,-0.26528817,0.4373211,0.5110113,-0.40805998,0.75654113,-0.022248182,0.8735612,0.48620552,,-0.0035374165,0.42671663,-0.34053233,0.44038725,-0.53499043,-0.7210023,0.8906939,0.36123654,0.27599376,0.112798356,-0.7637365,0.63559663,,1.035966001412847,0.3538942339613382,0.18567280186000001,3.5917790419464177,-0.12447585128631626,-1.0892926422418168,-0.4121170788567866,,-1.295612003377149,0.07115726070310463,0.17157564811,-3.0270840241425936,-0.36495609087349146,0.8131534285403704,0.6716707999441562,,-0.034191000046568915,-0.08750644537186571,0.07561312771999999,-0.04775451182011164,,1.6909093e-05,0.0,3.33786e-06,0.99999994,-1.3630837e-05,-1.1406839e-05,1.36345625e-05,1.0,-8.940697e-07,1.1406839e-05,1.0430813e-06,1.0,311,0.932,0,0,0.0,False,-0.26255903295711036,0.8454828588647354
0.9464131830027327,09:24:17.998138,09:23:11.976374,0,,0.12741211,0.005434364,0.023997262,0.8281893,0.3515215,-0.43650302,0.37495124,0.23134866,0.8977134,0.4165499,-0.90714395,0.05979699,,0.065195285,-0.03420128,0.040492594,-0.5097118,0.41437653,0.75398,0.7195506,-0.27509847,0.6376267,0.47163624,0.8675326,-0.157944,,0.077506565,1.3318851,0.4581981,0.9984687,0.027342351,-0.048089772,-0.009868915,-0.7673256,-0.6411818,-0.05443193,0.64067453,-0.7658807,,-0.08365292,0.2485449,-0.07790595,-0.85607487,-0.27758896,0.4359818,0.515768,-0.40421495,0.7553765,-0.03345382,0.87152433,0.48920977,,-0.0035340562,0.42672414,-0.34053698,0.4403924,-0.5349973,-0.72099406,0.8906953,0.3612163,0.2760157,0.112767175,-0.76374125,0.63559645,,1.0380434165560133,0.3548286846391193,0.18540965499,3.5852786536983974,-0.1358166807668478,-1.0829853908800742,-0.41179039072451806,,-1.2956197261100233,0.07118815163460153,0.17156787037000001,-3.0270840241425936,-0.36495609087349146,0.8131534285403703,0.6706907355473505,,-0.034191000046568915,-0.08750644537186571,0.07561312771999999,-0.04775451182011164,,1.6909093e-05,0.0,3.33786e-06,0.99999994,-1.3630837e-05,-1.1406839e-05,1.36345625e-05,1.0,-8.940697e-07,1.1406839e-05,1.0430813e-06,1.0,322,0.965,0,0,0.0,False,-0.2630356547052788,0.8449517766561616
0.9776868809713051,09:24:18.034545,09:23:11.976374,0,,0.12733431,0.005543232,0.024348363,0.8237982,0.3623628,-0.43594667,0.37256762,0.23352659,0.8981417,0.42725825,-0.9023072,0.05737394,,0.06519331,-0.03422053,0.040507227,-0.50969225,0.4142098,0.7540849,0.7195399,-0.2752896,0.6375563,0.47167367,0.8675516,-0.15772757,,0.07749905,1.3318862,0.4581941,0.99846894,0.02735979,-0.048075203,-0.009846223,-0.7673249,-0.6411829,-0.05443193,0.64067453,-0.7658807,,-0.08359821,0.24885543,-0.07811843,-0.85256356,-0.2887694,0.4356003,0.52080584,-0.39997968,0.7541734,-0.043550927,0.86984396,0.4914009,,-0.0035294427,0.42672467,-0.34056324,0.4403505,-0.5348309,-0.72114307,0.8907191,0.3611,0.27609107,0.1127427,-0.76391274,0.6353947,,1.039618854062355,0.3555160078649253,0.18518539682000001,3.5783588855634085,-0.14633769124878673,-1.0780000768616345,-0.4114637025922493,,-1.2956197261100233,0.07125765623046955,0.17156398150000002,-3.0270840241425936,-0.36495609087349146,0.813398464760792,0.6715074558780219,,-0.034191000046568915,-0.08750644537186571,0.07561312771999999,-0.04775451182011164,,9.607524e-06,-3.6358833e-06,6.0796738e-06,0.99999994,3.773719e-06,3.1515956e-06,-3.7699938e-06,0.99999994,2.9802322e-07,-3.1553209e-06,-2.3841858e-07,1.0,333,0.997,0,0,0.0,False,-0.26297607698675796,0.8447586558530435
1.014098991989158,09:24:18.062524,09:23:11.976374,0,,0.12723783,0.005638957,0.02468589,0.8203048,0.37081417,-0.435427,0.37080067,0.23482507,0.8985343,0.43543842,-0.8985287,0.055129856,,0.065184936,-0.03421484,0.040505916,-0.5096905,0.41425902,0.75405896,0.719512,-0.27530196,0.6375824,0.47171807,0.8675242,-0.15774569,,0.07749905,1.3318862,0.4581941,0.99846894,0.02735979,-0.048075203,-0.009846223,-0.7673249,-0.6411829,-0.05443193,0.64067453,-0.7658807,,-0.08352801,0.24914573,-0.07832626,-0.84973586,-0.2974838,0.4352613,0.5247137,-0.39697906,0.75304925,-0.05123034,0.8682805,0.49342117,,-0.0035209332,0.42672867,-0.3405592,0.4403423,-0.5348758,-0.72111475,0.89072955,0.36106747,0.27609983,0.112691976,-0.7638967,0.635423,,1.0410475596440867,0.35613382649486325,0.18498187929,3.573116636976295,-0.15385269873588595,-1.0735056669611427,-0.4114637025922495,,-1.2955888351785265,0.07131171536058913,0.17156398150000002,-3.0270840241425936,-0.36495609087349146,0.8133984647607921,0.6711807677457534,,-0.034191000046568915,-0.08750644537186571,0.07561312771999999,-0.04775451182011164,,9.607524e-06,-3.6358833e-06,6.0796738e-06,0.99999994,3.773719e-06,3.1515956e-06,-3.7699938e-06,0.99999994,2.9802322e-07,-3.1553209e-06,-2.3841858e-07,1.0,354,1.062,0,0,0.0,False,-0.26196325577190027,0.8443724142468079
1.0420508360257372,09:24:18.131276,09:23:12.120057,0,,0.12705156,0.005712509,0.02553676,0.80874604,0.39905614,-0.43206924,0.3630808,0.23919454,0.9005321,0.46271142,-0.88517797,0.048557878,,0.06516357,-0.03419973,0.040509373,-0.50955915,0.4142889,0.7541314,0.7194035,-0.27568024,0.63754135,0.47202528,0.8673898,-0.15756556,,0.07749905,1.3318862,0.4581941,0.99846894,0.02735979,-0.048075203,-0.009846223,-0.7673249,-0.6411829,-0.05443193,0.64067453,-0.7658807,,-0.08340885,0.24974452,-0.07895185,-0.8404075,-0.3266616,0.43244362,0.536316,-0.38647467,0.7503349,-0.0779771,0.8625135,0.49999005,,-0.0035002155,0.42674395,-0.3405534,0.44016805,-0.53488785,-0.72121227,0.890851,0.36070043,0.27618763,0.11241216,-0.7640616,0.6352742,,1.0442216028553928,0.3568752088507888,0.18436873412000002,3.556970511327987,-0.18145327168850492,-1.0603923055306301,-0.4099936059970408,,-1.2955270533155325,0.07145072455232516,0.17155879634,-3.026874334199109,-0.3650927273732569,0.8135915614046291,0.6677505423569337,,-0.034191000046568915,-0.08750644537186571,0.07561312771999999,-0.04775451182011164,,9.607524e-06,-3.6358833e-06,6.0796738e-06,0.99999994,3.773719e-06,3.1515956e-06,-3.7699938e-06,0.99999994,2.9802322e-07,-3.1553209e-06,-2.3841858e-07,1.0,362,1.087,0,0,0.0,False,-0.26232072208302704,0.8416204428023786
1.110831553931348,09:24:18.151745,09:23:12.120057,0,,0.12698397,0.005705118,0.025770068,0.8054204,0.407865,-0.43005097,0.36054623,0.23873854,0.90167075,0.4704296,-0.88127744,0.045230567,,0.06514855,-0.03419085,0.040511042,-0.5095586,0.41442966,0.7540544,0.71935445,-0.27565217,0.63760877,0.47210056,0.8673315,-0.15766105,,0.07749905,1.3318862,0.4581941,0.99846894,0.02735979,-0.048075203,-0.009846223,-0.7673249,-0.6411829,-0.05443193,0.64067453,-0.7658807,,-0.083359875,0.24988799,-0.079141766,-0.8377154,-0.33575276,0.43070063,0.53932965,-0.3847786,0.7490454,-0.08576965,0.85977644,0.50341636,,-0.0034855425,0.4267529,-0.34054998,0.44015655,-0.53501874,-0.72112215,0.89086777,0.3606668,0.2761776,0.11232465,-0.7639859,0.6353808,,1.0451174398688028,0.35689065431653727,0.18418725352,3.552567022514812,-0.18965146167443137,-1.0548507336708126,-0.4119537347906521,,-1.2954807169182874,0.07154339734681586,0.17155490747000002,-3.026874334199109,-0.3650927273732569,0.8135098826644885,0.6675871982907993,,-0.034191000046568915,-0.08750644537186571,0.07561312771999999,-0.04775451182011164,,9.607524e-06,-3.6358833e-06,6.0796738e-06,0.99999994,3.773719e-06,3.1515956e-06,-3.7699938e-06,0.99999994,2.9802322e-07,-3.1553209e-06,-2.3841858e-07,1.0,370,1.111,0,0,0.0,False,-0.2620824112089424,0.839399553566524
1.1313023479888216,09:24:18.179175,09:23:12.120057,0,,0.12682286,0.005680606,0.026079938,0.80185634,0.4145012,-0.43036604,0.36027464,0.23921016,0.90165424,0.4766847,-0.8780473,0.042477757,,0.065138675,-0.034186065,0.040510148,-0.50955397,0.41448498,0.7540271,0.71932805,-0.27566117,0.63763463,0.47214592,0.8673022,-0.15768653,,0.07749905,1.3318862,0.4581941,0.99846894,0.02735979,-0.048075203,-0.009846223,-0.7673249,-0.6411829,-0.05443193,0.64067453,-0.7658807,,-0.08322382,0.2500703,-0.07940789,-0.8346565,-0.34261963,0.43123126,0.54319763,-0.3826839,0.7473215,-0.091021754,0.85800046,0.50551975,,-0.0034756346,0.4267567,-0.34054708,0.44014534,-0.53506935,-0.72109145,0.89087963,0.3606348,0.2761812,0.112274595,-0.76396555,0.63541406,,1.0465306999847859,0.3568752088507888,0.18393058810000001,3.546905394040729,-0.1955268311643453,-1.0503864787724289,-0.4116270466583838,,-1.295442103253916,0.07159745647693543,0.17155361118,-3.026874334199109,-0.3650927273732569,0.8135098826644884,0.6675871982907993,,-0.034191000046568915,-0.08750644537186571,0.07561312771999999,-0.04775451182011164,,9.607524e-06,-3.6358833e-06,6.0796738e-06,0.99999994,3.773719e-06,3.1515956e-06,-3.7699938e-06,0.99999994,2.9802322e-07,-3.1553209e-06,-2.3841858e-07,1.0,378,1.136,0,0,0.0,False,-0.26243987752006825,0.8367441425236533
1.1587089699460194,09:24:18.209572,09:23:12.120057,0,,0.12671044,0.005654633,0.026457638,0.7956844,0.42858848,-0.42801633,0.35729486,0.23849633,0.90302813,0.48910773,-0.8714535,0.03663525,,0.06511919,-0.03418395,0.04051009,-0.5093686,0.41503292,0.75385094,0.7193558,-0.27543446,0.6377013,0.4723034,0.8671122,-0.1582588,,0.07749905,1.3318862,0.4581941,0.99846894,0.02735979,-0.048075203,-0.009846223,-0.7673249,-0.6411829,-0.05443193,0.64067453,-0.7658807,,-0.08314164,0.25029182,-0.07972434,-0.8295,-0.35718635,0.42935723,0.5489406,-0.3797363,0.7446238,-0.102926925,0.853357,0.51106536,,-0.0034563316,0.42676002,-0.3405476,0.43993965,-0.5355836,-0.72083515,0.8909904,0.36061367,0.2758512,0.11220164,-0.7636151,0.6358481,,1.0479285146350206,0.3568597633850404,0.18362984882000002,3.5385177963013486,-0.2080973891427658,-1.0411978552541854,-0.41179039072451795,,-1.2953494304594255,0.07166696107280345,0.17154712973000003,-3.0266646442556246,-0.3650927273732569,0.8129381314835045,0.6630135644390395,,-0.034191000046568915,-0.08750644537186571,0.07561312771999999,-0.04775451182011164,,9.607524e-06,-3.6358833e-06,6.0796738e-06,0.99999994,3.773719e-06,3.1515956e-06,-3.7699938e-06,0.99999994,2.9802322e-07,-3.1553209e-06,-2.3841858e-07,1.0,390,1.173,0,0,0.0,False,-0.2626781883941529,0.8360682197127414
1.189098555012606,09:24:18.240111,09:23:12.120057,0,,0.12656462,0.0056245774,0.026848093,0.7906818,0.4385539,-0.4271914,0.35483885,0.24034727,0.9035056,0.49891013,-0.8659697,0.0344221,,0.06510007,-0.03418562,0.04050806,-0.5093112,0.41510847,0.7538482,0.7194283,-0.2753268,0.63766605,0.47225508,0.8671102,-0.15841386,,0.07749905,1.3318862,0.4581941,0.99846894,0.02735979,-0.048075203,-0.009846223,-0.7673249,-0.6411829,-0.05443193,0.64067453,-0.7658807,,-0.0830272,0.25051966,-0.08005543,-0.82529974,-0.3675409,0.42871204,0.55339646,-0.3753049,0.7435715,-0.112395205,0.8509171,0.5131349,,-0.0034371167,0.42675927,-0.34054932,0.43988997,-0.53565764,-0.7208105,0.8910035,0.36068228,0.2757192,0.11229247,-0.76353073,0.63593334,,1.0494730612098655,0.356882931583663,0.18331355406000002,3.531598028166359,-0.21820849012540838,-1.036138401246132,-0.41195373479065234,,-1.2952490349320605,0.07172102020292302,0.17154064828,-3.0266646442556246,-0.36495609087349146,0.8129083923199487,0.6626868763067709,,-0.034191000046568915,-0.08750644537186571,0.07561312771999999,-0.04775451182011164,,9.607524e-06,-3.6358833e-06,6.0796738e-06,0.99999994,3.773719e-06,3.1515956e-06,-3.7699938e-06,0.99999994,2.9802322e-07,-3.1553209e-06,-2.3841858e-07,1.0,398,1.198,0,0,0.0,False,-0.2630356547052788,0.8334610888706502
1.2196301909862086,09:24:18.266774,09:23:12.241773,0,,0.12647182,0.0056034774,0.02713184,0.7863293,0.44750476,-0.42594054,0.35287854,0.24058133,0.9042108,0.50711197,-0.86131287,0.031261265,,0.06507747,-0.034189716,0.04050854,-0.5092761,0.41497436,0.75394565,0.71942127,-0.27550763,0.63759595,0.47230357,0.867117,-0.158232,,0.07749905,1.3318862,0.4581941,0.99846894,0.02735979,-0.048075203,-0.009846223,-0.7673249,-0.6411829,-0.05443193,0.64067453,-0.7658807,,-0.082957126,0.25068521,-0.08029472,-0.82161856,-0.37682894,0.42771822,0.55720586,-0.3726043,0.7420834,-0.12026882,0.8480365,0.5161099,,-0.0034148346,0.42675883,-0.3405549,0.4398483,-0.53552663,-0.7209332,0.8910285,0.3605701,0.27578494,0.11225678,-0.76367563,0.6357657,,1.0505387983465084,0.35689065431653727,0.18308670331000002,3.5257267097487928,-0.22654331661110025,-1.0305670902227586,-0.41228042292292066,,-1.2951331939389472,0.07176735660016836,0.17153027796,-3.0266646442556246,-0.36495609087349146,0.813235107280511,0.6607267475131596,,-0.034191000046568915,-0.08750644537186571,0.07561312771999999,-0.04775451182011164,,9.607524e-06,-3.6358833e-06,6.0796738e-06,0.99999994,3.773719e-06,3.1515956e-06,-3.7699938e-06,0.99999994,2.9802322e-07,-3.1553209e-06,-2.3841858e-07,1.0,406,1.223,0,0,0.0,False,-0.26327396557936344,0.8249637735334656
1.2463304279372096,09:24:18.289547,09:23:12.241773,0,,0.12633258,0.0056102574,0.027570859,0.7783039,0.4640255,-0.42299294,0.34833804,0.24139664,0.9057528,0.5224014,-0.85229564,0.026242048,,0.065062225,-0.034193873,0.040507644,-0.50924844,0.4149284,0.7539897,0.71942276,-0.27558655,0.63756,0.47233105,0.8671139,-0.15816706,,0.07749905,1.3318862,0.4581941,0.99846894,0.02735979,-0.048075203,-0.009846223,-0.7673249,-0.6411829,-0.05443193,0.64067453,-0.7658807,,-0.082852855,0.25097185,-0.080639884,-0.8148496,-0.39400285,0.42518443,0.5636138,-0.36705709,0.7400058,-0.13549745,0.8426333,0.5211618,,-0.0033996329,0.4267567,-0.34055877,0.439817,-0.5354811,-0.7209861,0.8910459,0.36051574,0.27579978,0.11224128,-0.7637332,0.6356992,,1.052307304174706,0.35692154524803416,0.18276651968000002,3.5154519025180506,-0.2425297870836568,-1.0207983450959,-0.4121170788567865,,-1.2950482438773308,0.07179052479879104,0.17152379651000002,-3.0266646442556246,-0.36495609087349146,0.813398464760792,0.6558264255291312,,-0.034191000046568915,-0.08750644537186571,0.07561312771999999,-0.04775451182011164,,9.607524e-06,-3.6358833e-06,6.0796738e-06,0.99999994,3.773719e-06,3.1515956e-06,-3.7699938e-06,0.99999994,2.9802322e-07,-3.1553209e-06,-2.3841858e-07,1.0,443,1.336,0,0,0.0,False,-0.2630356547052788,0.818445946428239
1.2690942810149863,09:24:18.401109,09:23:12.367976,0,,0.12565768,0.0056072026,0.02933167,0.7464912,0.5196307,-0.4156134,0.33332303,0.24856123,0.90945745,0.5758874,-0.81743574,0.012343705,,0.064984486,-0.03421846,0.040528923,-0.5088292,0.41509423,0.7541814,0.7198845,-0.2752494,0.63718444,0.47207946,0.8671416,-0.1587651,,0.07749905,1.3318862,0.4581941,0.99846894,0.02735979,-0.048075203,-0.009846223,-0.7673249,-0.6411829,-0.05443193,0.64067453,-0.7658807,,-0.08231867,0.2521031,-0.08205085,-0.78743875,-0.45213434,0.41894475,0.586873,-0.342121,0.7338483,-0.18846823,0.82372797,0.5347448,,-0.0033258325,0.4267612,-0.3405992,0.43943986,-0.5356477,-0.72109234,0.8911633,0.36076084,0.27509925,0.112785585,-0.76350063,0.63588226,,1.0596979595353389,0.3569369907137826,0.18147152597000002,3.4747720534820528,-0.29855075198748743,-0.9881856030028571,-0.4127704551213236,,-1.2946852754322422,0.07194497945627554,0.17146546346000002,-3.02645495431214,-0.3642729083746642,0.8133314476831532,0.6342650087994063,,-0.034191000046568915,-0.08750644537186571,0.07561312771999999,-0.04775451182011164,,9.607524e-06,-3.6358833e-06,6.0796738e-06,0.99999994,3.773719e-06,3.1515956e-06,-3.7699938e-06,0.99999994,2.9802322e-07,-3.1553209e-06,-2.3841858e-07,1.0,451,1.361,0,0,0.0,False,-0.2626781883941529,0.8033825237850478
1.3806238509714603,09:24:18.424278,09:23:12.367976,0,,0.1255028,0.0056234,0.029690072,0.7385924,0.5303919,-0.41613162,0.33048815,0.25313935,0.9092293,0.5875871,-0.80907655,0.011678398,,0.064964004,-0.034223586,0.040534467,-0.5088014,0.41463017,0.7544553,0.71987796,-0.27569652,0.63699853,0.47211945,0.8672216,-0.15820846,,0.07749905,1.3318862,0.4581941,0.99846894,0.02735979,-0.048075203,-0.009846223,-0.7673249,-0.6411829,-0.05443193,0.64067453,-0.7658807,,-0.082192376,0.25234723,-0.082328625,-0.780503,-0.4634917,0.41951227,0.5923525,-0.33380142,0.73327696,-0.19983399,0.820824,0.5350835,,-0.00330637,0.42676336,-0.34060884,0.43940666,-0.5352017,-0.7214436,0.8911835,0.36053985,0.27532354,0.112755544,-0.7639176,0.6353865,,1.0613042879731776,0.35691382251515996,0.18122393458000002,3.464706936194796,-0.31057476396684613,-0.9837716243268491,-0.41228042292292066,,-1.2945926026377514,0.07198359312064666,0.17145120427000002,-3.02645495431214,-0.3642729083746642,0.8140665563444184,0.6301814071460493,,-0.034191000046568915,-0.08750644537186571,0.07561312771999999,-0.04775451182011164,,9.607524e-06,-3.6358833e-06,6.0796738e-06,0.99999994,3.773719e-06,3.1515956e-06,-3.7699938e-06,0.99999994,2.9802322e-07,-3.1553209e-06,-2.3841858e-07,1.0,459,1.386,0,0,0.0,False,-0.2631548101423209,0.8031894029819298
1.4038010019576177,09:24:18.450581,09:23:12.367976,0,,0.12537448,0.0056351423,0.030029684,0.7317119,0.54239565,-0.41280046,0.3254065,0.25417474,0.91077197,0.5989222,-0.8007509,0.009483427,,0.06495236,-0.034227416,0.0405353,-0.508781,0.41462412,0.75447243,0.71987987,-0.27572948,0.636982,0.47213832,0.86721396,-0.15819377,,0.07749905,1.3318862,0.4581941,0.99846894,0.02735979,-0.048075203,-0.009846223,-0.7673249,-0.6411829,-0.05443193,0.64067453,-0.7658807,,-0.08209113,0.25257492,-0.08259289,-0.7745676,-0.47610697,0.4163738,0.5958101,-0.32831463,0.7329528,-0.21226233,0.8158012,0.53797126,,-0.003294978,0.4267623,-0.34061334,0.4393838,-0.53519475,-0.72146267,0.89119595,0.3605115,0.27532014,0.11274569,-0.76393586,0.6353664,,1.06277160721928,0.3568597633850404,0.18099319496000002,3.456948408285869,-0.3236918679443284,-0.9763426551776151,-0.41244376698905505,,-1.2945230980418834,0.0719990385863951,0.17144472282,-3.02645495431214,-0.3642729083746642,0.8140665563444185,0.630018063079915,,-0.034191000046568915,-0.08750644537186571,0.07561312771999999,-0.04775451182011164,,9.607524e-06,-3.6358833e-06,6.0796738e-06,0.99999994,3.773719e-06,3.1515956e-06,-3.7699938e-06,0.99999994,2.9802322e-07,-3.1553209e-06,-2.3841858e-07,1.0,463,1.398,0,0,0.0,False,-0.2632143878608417,0.8013547553523104
1.43014148902148,09:24:18.474359,09:23:12.367976,0,,0.12513715,0.005640894,0.030563995,0.7192577,0.5600548,-0.41110435,0.32033616,0.25773478,0.91156864,0.61648417,-0.78734446,0.0059717596,,0.06493364,-0.034234002,0.04053697,-0.5087757,0.4146148,0.75448114,0.719802,-0.2758886,0.63700116,0.47226268,0.86716783,-0.15807527,,0.07749905,1.3318862,0.4581941,0.99846894,0.02735979,-0.048075203,-0.009846223,-0.7673249,-0.6411829,-0.05443193,0.64067453,-0.7658807,,-0.081896566,0.25292486,-0.08301896,-0.7635658,-0.4947443,0.4149643,0.6034279,-0.31793225,0.731296,-0.22987403,0.80879366,0.5413047,,-0.0032767206,0.4267605,-0.34062108,0.4393605,-0.5351797,-0.7214881,0.8912254,0.36036643,0.27541476,0.11260371,-0.7640149,0.6352965,,1.0651347634787929,0.3566898632618074,0.18062115973,3.4416410424114985,-0.34241106841219376,-0.9657340905592176,-0.4135871754519951,,-1.2944304252473928,0.07201448405214356,0.17143435250000003,-3.02645495431214,-0.36440954487442967,0.8143413317283958,0.628874654616975,,-0.034191000046568915,-0.08750644537186571,0.07561312771999999,-0.04775451182011164,,9.607524e-06,-3.6358833e-06,6.0796738e-06,0.99999994,3.773719e-06,3.1515956e-06,-3.7699938e-06,0.99999994,2.9802322e-07,-3.1553209e-06,-2.3841858e-07,1.0,475,1.436,0,0,0.0,False,-0.2632143878608417,0.7949334886486423
1.4539171640062705,09:24:18.500686,09:23:12.367976,0,,0.12498147,0.00563854,0.030883566,0.711283,0.5711157,-0.40975994,0.31805086,0.25836286,0.9121908,0.6268332,-0.7791504,0.0021250844,,0.06492446,-0.03423646,0.040537983,-0.50876117,0.414535,0.7545348,0.7198012,-0.27598026,0.6369625,0.47227982,0.86717683,-0.1579749,,0.07749905,1.3318862,0.4581941,0.99846894,0.02735979,-0.048075203,-0.009846223,-0.7673249,-0.6411829,-0.05443193,0.64067453,-0.7658807,,-0.08176654,0.25313026,-0.08327836,-0.75644463,-0.5064118,0.41393068,0.6084919,-0.3128026,0.7293093,-0.23985226,0.8035556,0.54476535,,-0.0032677918,0.42676035,-0.34062448,0.43934363,-0.53510237,-0.7215557,0.8912352,0.36031458,0.2754511,0.11259251,-0.7640935,0.63520396,,1.0665711917933987,0.35654313133719717,0.18039560527,3.431575925124241,-0.3530687153938981,-0.9573702090314591,-0.4127704551213236,,-1.2943840888501474,0.072029929517892,0.17142916734000002,-3.02645495431214,-0.36440954487442967,0.8145046892086771,0.6269145258233638,,-0.034191000046568915,-0.08750644537186571,0.07561312771999999,-0.04775451182011164,,9.607524e-06,-3.6358833e-06,6.0796738e-06,0.99999994,3.773719e-06,3.1515956e-06,-3.7699938e-06,0.99999994,2.9802322e-07,-3.1553209e-06,-2.3841858e-07,1.0,483,1.46,0,0,0.0,False,-0.26243987752006825,0.7922297974049926
1.4802417339524254,09:24:18.525702,09:23:12.521041,0,,0.12474366,0.005622208,0.03139995,0.69682246,0.59062046,-0.4069469,0.31377304,0.2591805,0.9134395,0.64496875,-0.7641942,-0.0047181845,,0.064914,-0.0342412,0.040541023,-0.5085227,0.41405067,0.7549614,0.7200248,-0.27634755,0.63655025,0.47219568,0.8672912,-0.15759787,,0.07749905,1.3318862,0.4581941,0.99846894,0.02735979,-0.048075203,-0.009846223,-0.7673249,-0.6411829,-0.05443193,0.64067453,-0.7658807,,-0.08157022,0.2534518,-0.083704434,-0.74348307,-0.52702796,0.41167277,0.61717534,-0.30366498,0.7258665,-0.25754136,0.7937437,0.55103844,,-0.0032578972,0.42676005,-0.34063104,0.43912056,-0.53464085,-0.72203344,0.8913147,0.36017653,0.27537435,0.11283314,-0.76448154,0.63469416,,1.0687644479296783,0.3562110538236055,0.18003134778000002,3.413752279928057,-0.3719245523615289,-0.9423212532819152,-0.4135871754519951,,-1.2943300297200278,0.07205309771651468,0.17142009331000002,-3.0262452643686553,-0.36413627187489883,0.8150986408026899,0.6187473225166498,,-0.034191000046568915,-0.08750644537186571,0.07561312771999999,-0.04775451182011164,,9.607524e-06,-3.6358833e-06,6.0796738e-06,0.99999994,3.773719e-06,3.1515956e-06,-3.7699938e-06,0.99999994,2.9802322e-07,-3.1553209e-06,-2.3841858e-07,1.0,516,1.562,0,0,0.0,False,-0.2622015666459845,0.7898640675667994
1.5052480839658529,09:24:18.622891,09:23:12.521041,0,,0.123847775,0.0054949075,0.033101335,0.6373859,0.6621145,-0.39413634,0.29321152,0.26461232,0.91869867,0.712577,-0.701131,-0.025479585,,0.06485975,-0.03424643,0.04053828,-0.50838584,0.41354012,0.7553333,0.7201602,-0.27674118,0.6362261,0.47213668,0.8674093,-0.1571239,,0.07749905,1.3318862,0.4581941,0.99846894,0.02735979,-0.048075203,-0.009846223,-0.7673249,-0.6411829,-0.05443193,0.64067453,-0.7658807,,-0.080811836,0.25445902,-0.085161775,-0.68968046,-0.6032293,0.4005688,0.64620394,-0.26311204,0.7163746,-0.32674366,0.75291866,0.5712723,,-0.003203831,0.42675963,-0.34063846,0.43899408,-0.53415406,-0.7224705,0.8913579,0.3600247,0.27543297,0.1129836,-0.76489323,0.6341711,,1.076077875961569,0.3538401748312186,0.17886209420000002,3.3437158388042256,-0.4465280812334594,-0.8851626211699943,-0.41309714325359237,,-1.2940520113365557,0.07219982964112494,0.17139935267,-3.0262452643686553,-0.36386299887536794,0.8160193073572649,0.603066292167759,,-0.034191000046568915,-0.08750644537186571,0.07561312771999999,-0.04775451182011164,,9.607524e-06,-3.6358833e-06,6.0796738e-06,0.99999994,3.773719e-06,3.1515956e-06,-3.7699938e-06,0.99999994,2.9802322e-07,-3.1553209e-06,-2.3841858e-07,1.0,520,1.574,0,0,0.0,False,-0.2634526987349264,0.7649997641653781
1.6024482259526849,09:24:18.643853,09:23:12.521041,0,,0.12362887,0.005481571,0.033419892,0.6227881,0.6781166,-0.3902466,0.28770944,0.26534253,0.9202262,0.7275698,-0.6853838,-0.029848576,,0.064844646,-0.03424689,0.04054311,-0.5081795,0.41378245,0.7553394,0.72027886,-0.2766381,0.63613653,0.47217762,0.8673266,-0.157457,,0.07749905,1.3318862,0.4581941,0.99846894,0.02735979,-0.048075203,-0.009846223,-0.7673249,-0.6411829,-0.05443193,0.64067453,-0.7658807,,-0.080618784,0.25465807,-0.085431375,-0.67634225,-0.6204166,0.39704454,0.6519715,-0.25339022,0.7146513,-0.34277433,0.7422106,0.5758725,,-0.0031895726,0.4267641,-0.3406438,0.43878457,-0.5343817,-0.72242945,0.8914515,0.36001828,0.2751383,0.11305896,-0.76473725,0.63434577,,1.0776378680021623,0.35310651520816727,0.17867024328000003,3.3269406433254636,-0.46401755320343574,-0.8708194507567117,-0.41326048731972675,,-1.293990229473562,0.07225388877124451,0.17138898235000002,-3.026035574425171,-0.36372636237560246,0.8157445319732873,0.5929389600674336,,-0.034191000046568915,-0.08750644537186571,0.07561312771999999,-0.04775451182011164,,9.607524e-06,-3.6358833e-06,6.0796738e-06,0.99999994,3.773719e-06,3.1515956e-06,-3.7699938e-06,0.99999994,2.9802322e-07,-3.1553209e-06,-2.3841858e-07,1.0,528,1.599,0,0,0.0,False,-0.2631548101423209,0.7630202759334201
1.6233720949385315,09:24:18.665862,09:23:12.521041,0,,0.12339501,0.0054350793,0.03368984,0.6128924,0.6883439,-0.38800165,0.28400803,0.2663195,0.92109346,0.7373615,-0.67472684,-0.032270163,,0.06483928,-0.034245864,0.04054573,-0.5081779,0.41380525,0.755328,0.72026736,-0.2766425,0.6361476,0.47219694,0.86731434,-0.15746695,,0.07749905,1.3318862,0.4581941,0.99846894,0.02735979,-0.048075203,-0.009846223,-0.7673249,-0.6411829,-0.05443193,0.64067453,-0.7658807,,-0.08040718,0.2548015,-0.0856851,-0.66727096,-0.6314447,0.39500254,0.6556704,-0.24640846,0.71370804,-0.3533352,0.7352281,0.57844085,,-0.003184632,0.42676714,-0.34064552,0.4387802,-0.53440255,-0.7224167,0.89145637,0.36000445,0.27514052,0.11303744,-0.7647292,0.63435936,,1.0791438009126362,0.35234196465361906,0.17847839236000002,3.31519800649033,-0.4759049286830291,-0.8612077718752635,-0.4134238313858609,,-1.2939747840078135,0.07227705696986719,0.17138509348000003,-3.026035574425171,-0.36372636237560246,0.8157445319732874,0.5913055194060909,,-0.034191000046568915,-0.08750644537186571,0.07561312771999999,-0.04775451182011164,,9.607524e-06,-3.6358833e-06,6.0796738e-06,0.99999994,3.773719e-06,3.1515956e-06,-3.7699938e-06,0.99999994,2.9802322e-07,-3.1553209e-06,-2.3841858e-07,1.0,536,1.623,0,0,0.0,False,-0.26327396557936344,0.7590612994695047
1.6454203459434211,09:24:18.695733,09:23:12.665106,0,,0.12305046,0.0054076314,0.034156278,0.59127814,0.7119945,-0.3787529,0.27324677,0.26499733,0.9247229,0.7587661,-0.6502616,-0.037863225,,0.06481929,-0.03425114,0.040555507,-0.50812775,0.41373572,0.7553998,0.7203402,-0.27664483,0.6360642,0.47213984,0.8673467,-0.15745965,,0.07749905,1.3318862,0.4581941,0.99846894,0.02735979,-0.048075203,-0.009846223,-0.7673249,-0.6411829,-0.05443193,0.64067453,-0.7658807,,-0.08010059,0.25508785,-0.086086385,-0.6474753,-0.65695536,0.38624525,0.66167814,-0.23316152,0.71261334,-0.37809762,0.71696955,0.5856593,,-0.0031662623,0.426772,-0.34065822,0.438739,-0.53433836,-0.7224892,0.8914644,0.3600318,0.27507874,0.11313397,-0.76476115,0.6343036,,1.0814915117064003,0.3510986046608689,0.17820876404000002,3.2912933529330943,-0.5032322286361172,-0.8374539738134493,-0.41375051951812947,,-1.2938975566790714,0.07232339336711253,0.17136694542000003,-3.026035574425171,-0.363589725875837,0.8158781502900126,0.5885286702818082,,-0.034191000046568915,-0.08750644537186571,0.07561312771999999,-0.04775451182011164,,9.607524e-06,-3.6358833e-06,6.0796738e-06,0.99999994,3.773719e-06,3.1515956e-06,-3.7699938e-06,0.99999994,2.9802322e-07,-3.1553209e-06,-2.3841858e-07,1.0,544,1.648,0,0,0.0,False,-0.2636314318904893,0.756454168627414
1.675291238934733,09:24:18.717409,09:23:12.665106,0,,0.122783415,0.0053685606,0.034430698,0.5792782,0.722937,-0.37656167,0.2688771,0.26664126,0.9255308,0.7695074,-0.6373887,-0.03992188,,0.064807355,-0.034253374,0.04056552,-0.5080936,0.41374978,0.7554151,0.7204091,-0.27655935,0.6360233,0.47207147,0.86736727,-0.15755114,,0.07749905,1.3318862,0.4581941,0.99846894,0.02735979,-0.048075203,-0.009846223,-0.7673249,-0.6411829,-0.05443193,0.64067453,-0.7658807,,-0.07985622,0.25524136,-0.086341076,-0.63638514,-0.6688669,0.38422787,0.6655462,-0.22430412,0.71185386,-0.38995156,0.70873463,0.5879056,,-0.003155882,0.42677847,-0.3406681,0.43871525,-0.5343548,-0.72249144,0.8914634,0.36010602,0.27498487,0.11323404,-0.7647147,0.6343417,,1.0831055628771133,0.35020276764745883,0.17802987602,3.277034436776147,-0.5166226056131303,-0.8264533405110592,-0.41358717545199486,,-1.2938666657475744,0.07236200703148365,0.17135268623000002,-3.026035574425171,-0.3634530893760716,0.8158484111264568,0.5844450686284511,,-0.034191000046568915,-0.08750644537186571,0.07561312771999999,-0.04775451182011164,,9.607524e-06,-3.6358833e-06,6.0796738e-06,0.99999994,3.773719e-06,3.1515956e-06,-3.7699938e-06,0.99999994,2.9802322e-07,-3.1553209e-06,-2.3841858e-07,1.0,552,1.672,0,0,0.0,False,-0.2626186106756321,0.7570818112375468
1.6969651309773326,09:24:18.736469,09:23:12.665106,0,,0.12252312,0.005344853,0.034663677,0.56592804,0.73321676,-0.37698585,0.26678863,0.26978776,0.92522323,0.78009546,-0.62418544,-0.042933613,,0.06479195,-0.03425926,0.04058656,-0.50809056,0.41372052,0.7554332,0.72039425,-0.27661604,0.6360155,0.47209746,0.86736315,-0.157496,,0.07749905,1.3318862,0.4581941,0.99846894,0.02735979,-0.048075203,-0.009846223,-0.7673249,-0.6411829,-0.05443193,0.64067453,-0.7658807,,-0.07961522,0.25538057,-0.08655353,-0.623923,-0.6801345,0.3848859,0.67115337,-0.2140411,0.7097461,-0.40034142,0.7011444,0.5900197,,-0.0031436537,0.42679027,-0.3406888,0.4387084,-0.5343255,-0.72251725,0.8914704,0.3600653,0.27501553,0.113205574,-0.76475435,0.63429904,,1.0845342684588448,0.34935326703129416,0.17788728412000002,3.2602592412973848,-0.5282367080931928,-0.8157576375947551,-0.41309714325359215,,-1.2938434975489517,0.07239289796298055,0.17132676043000003,-3.026035574425171,-0.3634530893760716,0.8159300898665973,0.5836283482977799,,-0.034191000046568915,-0.08750644537186571,0.07561312771999999,-0.04775451182011164,,9.607524e-06,-3.6358833e-06,6.0796738e-06,0.99999994,3.773719e-06,3.1515956e-06,-3.7699938e-06,0.99999994,2.9802322e-07,-3.1553209e-06,-2.3841858e-07,1.0,560,1.698,0,0,0.0,False,-0.26404847592013647,0.75235035156116
1.716006190981716,09:24:18.764955,09:23:12.665106,0,,0.12218256,0.005334452,0.035040498,0.5459696,0.75410604,-0.3650217,0.25324145,0.26676583,0.9298949,0.7986148,-0.6001332,-0.04532501,,0.06478451,-0.034264624,0.040594727,-0.50808185,0.4137387,0.75542915,0.72039855,-0.27660617,0.6360149,0.4721002,0.8673577,-0.1575183,,0.07749905,1.3318862,0.4581941,0.99846894,0.02735979,-0.048075203,-0.009846223,-0.7673249,-0.6411829,-0.05443193,0.64067453,-0.7658807,,-0.07930545,0.25562385,-0.08687437,-0.60556805,-0.7028704,0.37317616,0.6731115,-0.202252,0.71134734,-0.4245094,0.68195844,0.5955875,,-0.0031374858,0.42679274,-0.3406991,0.43869945,-0.53434265,-0.72251004,0.89147455,0.36006683,0.2750001,0.113207616,-0.76474166,0.634314,,1.086673465465005,0.34799406604543065,0.17771228497000002,3.2392902469489324,-0.5554273715465154,-0.792115257436637,-0.41375051951812925,,-1.293820329350329,0.07239289796298055,0.17131509382000001,-3.026035574425171,-0.3634530893760716,0.8159300898665973,0.5823215957687056,,-0.034191000046568915,-0.08750644537186571,0.07561312771999999,-0.04775451182011164,,9.607524e-06,-3.6358833e-06,6.0796738e-06,0.99999994,3.773719e-06,3.1515956e-06,-3.7699938e-06,0.99999994,2.9802322e-07,-3.1553209e-06,-2.3841858e-07,1.0,593,1.799,0,0,0.0,False,-0.26351227645344677,0.747087809676199
1.744499503984116,09:24:18.865818,09:23:12.793799,0,,0.12117626,0.0053661466,0.03595002,0.47015893,0.81711215,-0.3335837,0.20725432,0.26517838,0.94166124,0.85790205,-0.5118672,-0.044674188,,0.064747535,-0.034292072,0.04063019,-0.50800306,0.4138135,0.75544107,0.72051036,-0.27645963,0.6359519,0.47201434,0.8673687,-0.15771466,,0.07749905,1.3318862,0.4581941,0.99846894,0.02735979,-0.048075203,-0.009846223,-0.7673249,-0.6411829,-0.05443193,0.64067453,-0.7658807,,-0.07837368,0.25626346,-0.0876251,-0.53494394,-0.7726373,0.34185752,0.67787623,-0.15098633,0.71950465,-0.50430036,0.61663175,0.6045217,,-0.0031060604,0.4268011,-0.3407473,0.43863422,-0.5344176,-0.7224942,0.89148796,0.36017236,0.27481833,0.11335467,-0.76463956,0.6344108,,1.0917395782304962,0.3433372581222732,0.1774880268,3.1577208589334522,-0.6462906438905333,-0.7156536680144405,-0.41358717545199486,,-1.2936890428914671,0.07239289796298055,0.17126064964,-3.026035574425171,-0.36331645287630615,0.8159003507030413,0.5661505332214117,,-0.034191000046568915,-0.08750644537186571,0.07561312771999999,-0.04775451182011164,,9.607524e-06,-3.6358833e-06,6.0796738e-06,0.99999994,3.773719e-06,3.1515956e-06,-3.7699938e-06,0.99999994,2.9802322e-07,-3.1553209e-06,-2.3841858e-07,1.0,601,1.824,0,0,0.0,False,-0.26339312101640555,0.732362348438464
1.8453626399859786,09:24:18.890824,09:23:12.793799,0,,0.120970875,0.005358711,0.0360723,0.45294887,0.82941544,-0.32696632,0.19815144,0.26391464,0.9439729,0.869237,-0.49236047,-0.044810236,,0.064739615,-0.034297496,0.04063663,-0.5079915,0.41371423,0.75550324,0.7205162,-0.2765504,0.63590586,0.47201788,0.86738706,-0.15760267,,0.07749905,1.3318862,0.4581941,0.99846894,0.02735979,-0.048075203,-0.009846223,-0.7673249,-0.6411829,-0.05443193,0.64067453,-0.7658807,,-0.078178614,0.25634348,-0.087737955,-0.5187359,-0.7864455,0.33528572,0.67866683,-0.14029445,0.7209222,-0.5199273,0.60151553,0.6065102,,-0.0030991612,0.4268024,-0.34075645,0.43862227,-0.53432244,-0.72257185,0.8914935,0.36012948,0.27485657,0.11335739,-0.7647263,0.6343058,,1.092419178723428,0.3422174618555107,0.17749061938000002,3.138429384132876,-0.6644632983593369,-0.6974045797369128,-0.4135871754519951,,-1.2936581519599704,0.07239289796298055,0.17125027932,-3.026035574425171,-0.36331645287630615,0.8160637081833226,0.5592900824437721,,-0.034191000046568915,-0.08750644537186571,0.07561312771999999,-0.04775451182011164,,9.607524e-06,-3.6358833e-06,6.0796738e-06,0.99999994,3.773719e-06,3.1515956e-06,-3.7699938e-06,0.99999994,2.9802322e-07,-3.1553209e-06,-2.3841858e-07,1.0,609,1.848,0,0,0.0,False,-0.26243987752006825,0.73540400108757
1.8703798620263115,09:24:18.916279,09:23:12.793799,0,,0.12064124,0.005330503,0.036204875,0.42743868,0.8454578,-0.32015148,0.18862507,0.26293468,0.94619536,0.8841473,-0.4648292,-0.04708627,,0.06473678,-0.034301013,0.04064098,-0.50795907,0.41381565,0.75546956,0.7206047,-0.2763526,0.6358916,0.47191775,0.8674017,-0.15782177,,0.07749905,1.3318862,0.4581941,0.99846894,0.02735979,-0.048075203,-0.009846223,-0.7673249,-0.6411829,-0.05443193,0.64067453,-0.7658807,,-0.077860616,0.25641936,-0.0878799,-0.49453762,-0.8046109,0.32868496,0.6817394,-0.12451992,0.7209204,-0.5391326,0.5805997,0.61011475,,-0.003096991,0.4268031,-0.34076232,0.4386048,-0.534424,-0.7225073,0.89148474,0.36027178,0.2746984,0.113493554,-0.76458824,0.6344478,,1.093284124805341,0.34050301515743286,0.17750358228000002,3.1078146523841355,-0.6868716843208692,-0.6703924183356597,-0.41309714325359237,,-1.293650429227096,0.07239289796298055,0.17124379787000002,-3.026035574425171,-0.36317981637654073,0.8158706115394856,0.5591267383776378,,-0.034191000046568915,-0.08750644537186571,0.07561312771999999,-0.04775451182011164,,9.607524e-06,-3.6358833e-06,6.0796738e-06,0.99999994,3.773719e-06,3.1515956e-06,-3.7699938e-06,0.99999994,2.9802322e-07,-3.1553209e-06,-2.3841858e-07,1.0,617,1.873,0,0,0.0,False,-0.26327396557936344,0.7340521554657453
1.8958320179954171,09:24:18.934943,09:23:12.936487,0,,0.12042115,0.005302906,0.03628184,0.41023257,0.8555215,-0.31589875,0.18290985,0.26216522,0.94753003,0.89345,-0.4464888,-0.048934788,,0.06473233,-0.0343042,0.04064527,-0.5079533,0.41395113,0.7553991,0.7206076,-0.2762422,0.63593626,0.4719195,0.8673723,-0.15797833,,0.07749905,1.3318862,0.4581941,0.99846894,0.02735979,-0.048075203,-0.009846223,-0.7673249,-0.6411829,-0.05443193,0.64067453,-0.7658807,,-0.07764745,0.25645596,-0.087971255,-0.47815266,-0.81609154,0.32459924,0.6838917,-0.11407434,0.72061026,-0.5510555,0.56655246,0.6126632,,-0.0030932114,0.42680424,-0.34076804,0.43859884,-0.53455347,-0.72241515,0.8914875,0.36031765,0.27462924,0.11349492,-0.7644761,0.63458264,,1.0937552115106688,0.3393600506920476,0.17751265631000002,3.0866359680921986,-0.700808607296944,-0.6517583842861145,-0.41293379918745776,,-1.2936349837613477,0.07239289796298055,0.17123731642,-3.026035574425171,-0.36317981637654073,0.8157072540592045,0.5610868671712492,,-0.034191000046568915,-0.08750644537186571,0.07561312771999999,-0.04775451182011164,,9.607524e-06,-3.6358833e-06,6.0796738e-06,0.99999994,3.773719e-06,3.1515956e-06,-3.7699938e-06,0.99999994,2.9802322e-07,-3.1553209e-06,-2.3841858e-07,1.0,625,1.898,0,0,0.0,False,-0.2630356547052788,0.7324106286392436
1.9145028060302138,09:24:18.964118,09:23:12.936487,0,,0.1202309,0.005269766,0.03632857,0.39672166,0.86377734,-0.3106451,0.17762083,0.25978386,0.94919074,0.90059006,-0.43174163,-0.050363123,,0.064728364,-0.0343073,0.04065135,-0.50795037,0.41364864,0.7555667,0.72060907,-0.27649856,0.6358232,0.4719204,0.86743486,-0.15763155,,0.07749905,1.3318862,0.4581941,0.99846894,0.02735979,-0.048075203,-0.009846223,-0.7673249,-0.6411829,-0.05443193,0.64067453,-0.7658807,,-0.07746167,0.25646794,-0.08804069,-0.4652785,-0.8254971,0.31948465,0.6848552,-0.10705391,0.7207724,-0.5607934,0.5541606,0.6151559,,-0.003090166,0.42680657,-0.34077492,0.43859586,-0.5342641,-0.722631,0.8914889,0.36020598,0.2747712,0.113495596,-0.764731,0.6342754,,1.09414134815438,0.3383097590211531,0.17752950808,3.070070462556921,-0.7124227097770065,-0.63518181207969,-0.4140772076503978,,-1.2936272610284734,0.07239289796298055,0.17122953868000002,-3.026035574425171,-0.36317981637654073,0.8161156477599072,0.5591267383776378,,-0.034191000046568915,-0.08750644537186571,0.07561312771999999,-0.04775451182011164,,9.607524e-06,-3.6358833e-06,6.0796738e-06,0.99999994,3.773719e-06,3.1515956e-06,-3.7699938e-06,0.99999994,2.9802322e-07,-3.1553209e-06,-2.3841858e-07,1.0,633,1.923,0,0,0.0,False,-0.26297607698675796,0.7320726672337874
1.943677408969961,09:24:18.990425,09:23:12.936487,0,,0.119859636,0.005265638,0.036460534,0.36542502,0.8776626,-0.3101171,0.17104802,0.264172,0.9491868,0.91499007,-0.39990163,-0.053587556,,0.06472589,-0.03430912,0.040654033,-0.50794744,0.413593,0.7555992,0.7206105,-0.2765472,0.63580036,0.47192132,0.86744595,-0.1575681,,0.07749905,1.3318862,0.4581941,0.99846894,0.02735979,-0.048075203,-0.009846223,-0.7673249,-0.6411829,-0.05443193,0.64067453,-0.7658807,,-0.07710198,0.25656402,-0.08816975,-0.43525356,-0.8418183,0.3192121,0.6901643,-0.084306486,0.718725,-0.57812417,0.5331364,0.61768764,,-0.0030881113,0.42680737,-0.34077835,0.43859288,-0.5342108,-0.7226722,0.8914903,0.36018404,0.2747955,0.11349628,-0.76477855,0.63421786,,1.0947823349829406,0.33682699430930196,0.17755154501,3.0291809235774387,-0.7319617292434645,-0.6059354172081899,-0.4126071110551893,,-1.2936195382955993,0.07239289796298055,0.17122564981000002,-3.026035574425171,-0.36317981637654073,0.8161973265000478,0.5588000502453693,,-0.034191000046568915,-0.08750644537186571,0.07561312771999999,-0.04775451182011164,,9.607524e-06,-3.6358833e-06,6.0796738e-06,0.99999994,3.773719e-06,3.1515956e-06,-3.7699938e-06,0.99999994,2.9802322e-07,-3.1553209e-06,-2.3841858e-07,1.0,641,1.948,0,0,0.0,False,-0.26339312101640555,0.7314450246236541
1.9699809870216995,09:24:19.016412,09:23:12.936487,0,,0.1195146,0.005267456,0.036540166,0.33991408,0.89048684,-0.3024755,0.1704059,0.25798428,0.9510025,0.92488915,-0.3748029,-0.064051926,,0.0647254,-0.034309953,0.040658027,-0.50795037,0.41358694,0.7556006,0.72060907,-0.27655047,0.6358006,0.4719204,0.86744773,-0.1575607,,0.07749905,1.3318862,0.4581941,0.99846894,0.02735979,-0.048075203,-0.009846223,-0.7673249,-0.6411829,-0.05443193,0.64067453,-0.7658807,,-0.07676427,0.25663078,-0.088252805,-0.41060543,-0.85661614,0.31242922,0.69700825,-0.07396417,0.71323824,-0.58786285,0.51062524,0.6274386,,-0.0030881846,0.42680958,-0.3407818,0.43859586,-0.5342051,-0.7226746,0.8914889,0.36018354,0.27480063,0.113495596,-0.7647828,0.6342129,,1.0953847081471302,0.3357226435082879,0.1775658042,2.99353363318507,-0.7422094667258725,-0.5702983752240107,-0.41032029412930937,,-1.2936272610284734,0.07239289796298055,0.17122176094000002,-3.026035574425171,-0.36317981637654073,0.8161973265000478,0.5588000502453693,,-0.034191000046568915,-0.08750644537186571,0.07561312771999999,-0.04775451182011164,,9.607524e-06,-3.6358833e-06,6.0796738e-06,0.99999994,3.773719e-06,3.1515956e-06,-3.7699938e-06,0.99999994,2.9802322e-07,-3.1553209e-06,-2.3841858e-07,1.0,666,2.024,0,0,0.0,False,-0.2629164992682367,0.7319278266314488
1.9959676360012963,09:24:19.091297,09:23:12.936487,0,,0.11863303,0.0053423345,0.036667123,0.27126223,0.9246417,-0.26730925,0.18601164,0.22212547,0.9571101,0.94436014,-0.3093505,-0.11174005,,0.06471573,-0.03431727,0.040659815,-0.50776243,0.41382888,0.75559443,0.7206791,-0.27650887,0.63573927,0.47201568,0.8673457,-0.1578371,,0.07749905,1.3318862,0.4581941,0.99846894,0.02735979,-0.048075203,-0.009846223,-0.7673249,-0.6411829,-0.05443193,0.64067453,-0.7658807,,-0.07589499,0.25680795,-0.088361576,-0.3436044,-0.8960373,0.28116408,0.7244189,-0.06236918,0.68653286,-0.59762305,0.43957627,0.67053664,,-0.0030789017,0.42680648,-0.3407892,0.4383965,-0.5344298,-0.7226294,0.8915868,0.36011967,0.27456653,0.11349655,-0.7646559,0.63436574,,1.0966666818042514,0.33413948326907184,0.17758265597000003,2.892463080425529,-0.7468551077178975,-0.4511797854198584,-0.4122804229229211,,-1.2935654791654796,0.07238517523010633,0.17121398320000003,-3.0258258844816868,-0.36317981637654073,0.8159522902796261,0.5583100180469666,,-0.034191000046568915,-0.08750644537186571,0.07561312771999999,-0.04775451182011164,,9.607524e-06,-3.6358833e-06,6.0796738e-06,0.99999994,3.773719e-06,3.1515956e-06,-3.7699938e-06,0.99999994,2.9802322e-07,-3.1553209e-06,-2.3841858e-07,1.0,674,2.049,0,0,0.0,False,-0.2629164992682367,0.728210251171431
2.0708036239957437,09:24:19.117196,09:23:13.091002,0,,0.11830978,0.0053684115,0.036748588,0.24263075,0.9379348,-0.247807,0.18596944,0.20573378,0.9607751,0.95212674,-0.2791982,-0.12451011,,0.06471178,-0.034319565,0.040660113,-0.50775373,0.4137853,0.7556241,0.72068346,-0.27655092,0.6357161,0.4720184,0.86735296,-0.15778854,,0.07749905,1.3318862,0.4581941,0.99846894,0.02735979,-0.048075203,-0.009846223,-0.7673249,-0.6411829,-0.05443193,0.64067453,-0.7658807,,-0.075579,0.25689375,-0.0884294,-0.3156739,-0.91176325,0.26275045,0.7305325,-0.056819316,0.6805099,-0.6055347,0.40676695,0.6840091,,-0.0030750493,0.42680544,-0.34079146,0.43838754,-0.5343879,-0.72266585,0.89159095,0.36009878,0.27458048,0.1134986,-0.764695,0.63431823,,1.0970450957150886,0.3335911692350019,0.17759043371000002,2.8522026112765,-0.7534136597066386,-0.4007450614848398,-0.4122804229229208,,-1.293542310966857,0.07238517523010633,0.17121139062000001,-3.0258258844816868,-0.36317981637654073,0.8160339690197667,0.5568399214517579,,-0.034191000046568915,-0.08750644537186571,0.07561312771999999,-0.04775451182011164,,9.607524e-06,-3.6358833e-06,6.0796738e-06,0.99999994,3.773719e-06,3.1515956e-06,-3.7699938e-06,0.99999994,2.9802322e-07,-3.1553209e-06,-2.3841858e-07,1.0,682,2.074,0,0,0.0,False,-0.26190367805337944,0.7236719122981614
2.0967113829683512,09:24:19.145686,09:23:13.091002,0,,0.11813459,0.005385071,0.03684771,0.22071639,0.94651383,-0.23536257,0.17970493,0.19771758,0.9636462,0.95863974,-0.25498834,-0.12645379,,0.06477396,-0.03430757,0.04063353,-0.5081367,0.41369638,0.7554153,0.7205117,-0.27634916,0.63599855,0.47186857,0.8674598,-0.15765,,0.07745632,1.3318901,0.45819366,0.99846923,0.027383842,-0.048055105,-0.009814926,-0.7673241,-0.6411844,-0.05443193,0.64067453,-0.7658807,,-0.075373754,0.25697944,-0.088508025,-0.29438433,-0.92227703,0.2504854,0.7307135,-0.048289705,0.68097425,-0.61595106,0.38350117,0.688136,,-0.0030934762,0.42679465,-0.3407567,0.4387636,-0.53430754,-0.72249705,0.8914115,0.36031425,0.27488044,0.113455296,-0.7646497,0.63438064,,1.0972304413040699,0.33315869619404537,0.17759691516,2.822426639301698,-0.764071306688343,-0.36722412799378806,-0.41097367039384647,,-1.2935191427682342,0.07237745249723211,0.17120750175000002,-3.0262452643686553,-0.36317981637654073,0.8161973265000478,0.5506328469386553,,-0.034191000046568915,-0.08750644537186571,0.07561312771999999,-0.04775451182011164,,-3.3073127e-05,-8.106232e-06,5.841255e-06,0.99999994,2.777949e-05,2.3234636e-05,-2.7775764e-05,1.0,1.9967556e-06,-2.3234636e-05,-1.937151e-06,1.0,690,2.098,0,0,0.0,False,-0.262797343831195,0.7165747227835815
2.125242603942752,09:24:19.166687,09:23:13.091002,0,,0.11790557,0.005380735,0.036917344,0.19850406,0.9540867,-0.22430857,0.17398629,0.19092505,0.96606237,0.9645333,-0.23079392,-0.12809867,,0.0647652,-0.034314916,0.040640205,-0.50812083,0.4137847,0.7553776,0.7205237,-0.27627707,0.6360162,0.47186726,0.8674406,-0.1577596,,0.07745632,1.3318901,0.45819366,0.99846923,0.027383842,-0.048055105,-0.009814926,-0.7673241,-0.6411844,-0.05443193,0.64067453,-0.7658807,,-0.07515097,0.25702992,-0.08857965,-0.27274027,-0.93177235,0.23961015,0.7309509,-0.038750242,0.681329,-0.62555856,0.3609691,0.6916486,,-0.0030857914,0.4267948,-0.34076753,0.43874815,-0.53439194,-0.722444,0.8914177,0.36034417,0.27482107,0.113466315,-0.76457655,0.63446677,,1.097307668632812,0.33262582762572385,0.17761117435,2.7918119075529573,-0.7737724981716892,-0.33440144108847064,-0.412933799187458,,-1.2934805291038631,0.07236972976435788,0.17119583514000003,-3.0262452643686553,-0.36317981637654073,0.8161156477599073,0.5447524605578213,,-0.034191000046568915,-0.08750644537186571,0.07561312771999999,-0.04775451182011164,,-3.3073127e-05,-8.106232e-06,5.841255e-06,0.99999994,2.777949e-05,2.3234636e-05,-2.7775764e-05,1.0,1.9967556e-06,-2.3234636e-05,-1.937151e-06,1.0,698,2.124,0,0,0.0,False,-0.26160578946077395,0.7186990516178775
2.1462048860266805,09:24:19.196536,09:23:13.091002,0,,0.117503464,0.0053429455,0.036944434,0.16169035,0.9650007,-0.20646977,0.17107105,0.17864618,0.9689274,0.9719006,-0.19198725,-0.13619834,,0.06474839,-0.03432624,0.040652364,-0.5080948,0.4139626,0.7552976,0.72053677,-0.27614358,0.63605934,0.47187537,0.86739826,-0.15796822,,0.07745632,1.3318901,0.45819366,0.99846923,0.027383842,-0.048055105,-0.009814926,-0.7673241,-0.6411844,-0.05443193,0.64067453,-0.7658807,,-0.07475249,0.2570355,-0.08865058,-0.23663925,-0.945782,0.22248214,0.7349455,-0.024471007,0.67768455,-0.63549745,0.323879,0.700889,,-0.0030709368,0.42679667,-0.3407858,0.43872127,-0.5345614,-0.7223349,0.89143014,0.36039364,0.27471584,0.11347243,-0.7644348,0.63463646,,1.0973308368314347,0.3316990996808169,0.17764098902000003,2.739599111625311,-0.7819706881576157,-0.27813737160136404,-0.4116270466583837,,-1.293411024507995,0.07236972976435788,0.1711750945,-3.0262452643686553,-0.36317981637654073,0.8159522902796261,0.5429556758303442,,-0.034191000046568915,-0.08750644537186571,0.07561312771999999,-0.04775451182011164,,-3.3073127e-05,-8.106232e-06,5.841255e-06,0.99999994,2.777949e-05,2.3234636e-05,-2.7775764e-05,1.0,1.9967556e-06,-2.3234636e-05,-1.937151e-06,1.0,706,2.148,0,0,0.0,False,-0.26160578946077395,0.7145952345516235
2.176070614019409,09:24:19.217361,09:23:13.091002,0,,0.117054924,0.005278155,0.036893144,0.12131315,0.9743828,-0.18936983,0.17270836,0.16714892,0.9706869,0.9774736,-0.1504629,-0.14800668,,0.064736396,-0.03433247,0.040658087,-0.50807595,0.41388515,0.75535274,0.7205422,-0.2762281,0.63601655,0.4718874,0.8674083,-0.15787691,,0.07745632,1.3318901,0.45819366,0.99846923,0.027383842,-0.048055105,-0.009814926,-0.7673241,-0.6411844,-0.05443193,0.64067453,-0.7658807,,-0.0743017,0.25697297,-0.08868069,-0.19681673,-0.95847386,0.20637584,0.7415168,-0.0078120856,0.6708888,-0.64141715,0.2850733,0.71226203,,-0.0030599155,0.4267974,-0.34079552,0.4387009,-0.53448653,-0.7224027,0.8914405,0.36034736,0.2747428,0.11346956,-0.76450896,0.63454765,,1.097269054968441,0.3307105898729162,0.17768376659000001,2.681724687223582,-0.7841568721538626,-0.21811774342200047,-0.4114637025922493,,-1.2933569653778756,0.07237745249723211,0.17116342789000003,-3.0262452643686553,-0.36317981637654073,0.8161156477599073,0.5449158046239555,,-0.034191000046568915,-0.08750644537186571,0.07561312771999999,-0.04775451182011164,,-3.3073127e-05,-8.106232e-06,5.841255e-06,0.99999994,2.777949e-05,2.3234636e-05,-2.7775764e-05,1.0,1.9967556e-06,-2.3234636e-05,-1.937151e-06,1.0,735,2.237,0,0,0.0,False,-0.26202283349042155,0.7042632715848196
2.1969209909439087,09:24:19.305321,09:23:13.091002,0,,0.115918934,0.005084291,0.036758766,0.015426677,0.98777354,-0.15512988,0.16655934,0.15044197,0.9744871,0.9859106,-0.04087148,-0.16220221,,0.064705074,-0.034353882,0.040662736,-0.5080038,0.41389984,0.75539327,0.72058666,-0.27624574,0.6359585,0.4718973,0.86739564,-0.1579169,,0.07745632,1.3318901,0.45819366,0.99846923,0.027383842,-0.048055105,-0.009814926,-0.7673241,-0.6411844,-0.05443193,0.64067453,-0.7658807,,-0.07315987,0.25678873,-0.08877224,-0.091962546,-0.9805514,0.17338341,0.7467538,0.047271747,0.6634185,-0.6587121,0.19048439,0.7278833,,-0.0030296606,0.4267882,-0.340817,0.43862823,-0.53449935,-0.7224373,0.8914723,0.36032456,0.27466968,0.11350115,-0.76451075,0.63453984,,1.0970837093794596,0.3286795111269951,0.17778876608000002,2.5301188580842706,-0.7905787876428384,-0.07427227992973451,-0.41179039072451795,,-1.293171619788894,0.07236200703148365,0.17114009467000002,-3.0262452643686553,-0.36317981637654073,0.8162790052401885,0.5178006896456652,,-0.034191000046568915,-0.08750644537186571,0.07561312771999999,-0.04775451182011164,,-3.3073127e-05,-8.106232e-06,5.841255e-06,0.99999994,2.777949e-05,2.3234636e-05,-2.7775764e-05,1.0,1.9967556e-06,-2.3234636e-05,-1.937151e-06,1.0,743,2.262,0,0,0.0,False,-0.26255903295711036,0.6876066023159062
2.284790780977346,09:24:19.328489,09:23:13.091002,0,,0.1156423,0.0050386637,0.036684588,-0.013907932,0.98969394,-0.14252084,0.16777673,0.14282367,0.9754242,0.98572683,-0.010345563,-0.16803405,,0.064700276,-0.03435819,0.04066339,-0.5079907,0.41385877,0.75542444,0.72059727,-0.27628088,0.63593125,0.47189504,0.86740404,-0.15787745,,0.07745632,1.3318901,0.45819366,0.99846923,0.027383842,-0.048055105,-0.009814926,-0.7673241,-0.6411844,-0.05443193,0.64067453,-0.7658807,,-0.07287854,0.2567191,-0.0887614,-0.062697574,-0.9849154,0.16127855,0.748897,0.060389332,0.6599291,-0.6597138,0.16215697,0.7338139,,-0.003025022,0.42678604,-0.34082097,0.43861574,-0.53446007,-0.722474,0.89147705,0.3603091,0.27467433,0.11351149,-0.7645455,0.63449615,,1.0970064820507173,0.32846327460651686,0.17781598817000002,2.48880993921782,-0.7867529656494061,-0.03214195919536289,-0.4126071110551893,,-1.2931407288573973,0.07235428429860943,0.17113620580000002,-3.0262452643686553,-0.36317981637654073,0.816360683980329,0.5140437761245767,,-0.034191000046568915,-0.08750644537186571,0.07561312771999999,-0.04775451182011164,,-3.3073127e-05,-8.106232e-06,5.841255e-06,0.99999994,2.777949e-05,2.3234636e-05,-2.7775764e-05,1.0,1.9967556e-06,-2.3234636e-05,-1.937151e-06,1.0,751,2.287,0,0,0.0,False,-0.26190367805337944,0.6816198574192533
2.3079965939978138,09:24:19.352295,09:23:13.091002,0,,0.11531534,0.0049993545,0.036665395,-0.050344422,0.9880147,-0.1459178,0.16189063,0.15224394,0.974994,0.9855235,0.02546274,-0.16761509,,0.06469723,-0.03436461,0.040665418,-0.5079779,0.4138662,0.755429,0.720616,-0.27626008,0.63591903,0.4718802,0.86740714,-0.15790471,,0.07745632,1.3318901,0.45819366,0.99846923,0.027383842,-0.048055105,-0.009814926,-0.7673241,-0.6411844,-0.05443193,0.64067453,-0.7658807,,-0.07255133,0.25669113,-0.088792495,-0.026394881,-0.98600227,0.16462928,0.74581915,0.090234034,0.6600088,-0.66562533,0.14020453,0.7329977,,-0.0030223283,0.4267831,-0.34082723,0.43860522,-0.53446776,-0.7224747,0.8914791,0.36032546,0.27464634,0.11353641,-0.7645324,0.6345075,,1.0969215319891008,0.3284323836750199,0.17783802510000002,2.436597143290173,-0.7878460576475296,0.0014208800904332852,-0.4122804229229207,,-1.2931175606587746,0.07233111609998676,0.17113102064000002,-3.0262452643686553,-0.36317981637654073,0.816360683980329,0.5137170879923082,,-0.034191000046568915,-0.08750644537186571,0.07561312771999999,-0.04775451182011164,,-3.3073127e-05,-8.106232e-06,5.841255e-06,0.99999994,2.777949e-05,2.3234636e-05,-2.7775764e-05,1.0,1.9967556e-06,-2.3234636e-05,-1.937151e-06,1.0,759,2.311,0,0,0.0,False,-0.262797343831195,0.6783368037662503
2.3318550389958546,09:24:19.379184,09:23:13.091002,0,,0.115064755,0.0049523115,0.03659381,-0.08193445,0.98917454,-0.12173797,0.15950823,0.13358924,0.97811604,0.98379046,0.060723178,-0.1687271,,0.064693466,-0.034374982,0.040671557,-0.5079622,0.41380483,0.7554732,0.72064435,-0.2762838,0.63587654,0.4718538,0.8674288,-0.15786436,,0.07745632,1.3318901,0.45819366,0.99846923,0.027383842,-0.048055105,-0.009814926,-0.7673241,-0.6411844,-0.05443193,0.64067453,-0.7658807,,-0.07229618,0.25662085,-0.088782854,0.005218368,-0.9900482,0.14063157,0.7442917,0.097766586,0.66065997,-0.6678343,0.10122334,0.73739487,,-0.0030195264,0.42678028,-0.3408392,0.43859363,-0.5344102,-0.72252434,0.8914797,0.3603293,0.27463943,0.11357659,-0.76457083,0.6344539,,1.0967052954686227,0.32846327460651686,0.17786654348000003,2.3921428752714538,-0.7848400546526899,0.05712494918919242,-0.41130035852611524,,-1.293094392460152,0.07229250243561564,0.17112065032,-3.0262452643686553,-0.36317981637654073,0.8164423627204695,0.5021196592967745,,-0.034191000046568915,-0.08750644537186571,0.07561312771999999,-0.04775451182011164,,-3.3073127e-05,-8.106232e-06,5.841255e-06,0.99999994,2.777949e-05,2.3234636e-05,-2.7775764e-05,1.0,1.9967556e-06,-2.3234636e-05,-1.937151e-06,1.0,767,2.337,0,0,0.0,False,-0.26196325577190027,0.6668943961815184
2.3587399289244786,09:24:19.408289,09:23:13.091002,0,,0.11473895,0.004868597,0.0364808,-0.1250266,0.9862129,-0.10840815,0.1570757,0.12756294,0.9793135,0.9796405,0.10541192,-0.17085892,,0.06468929,-0.03438075,0.040674955,-0.5079508,0.4138158,0.7554749,0.7206583,-0.2762667,0.63586825,0.4718448,0.8674291,-0.15788996,,0.07745632,1.3318901,0.45819366,0.99846923,0.027383842,-0.048055105,-0.009814926,-0.7673241,-0.6411844,-0.05443193,0.64067453,-0.7658807,,-0.071963005,0.25649947,-0.08876905,0.048487756,-0.9906503,0.1275185,0.7417248,0.12121673,0.6596597,-0.6689494,0.06259821,0.7406674,,-0.003015898,0.42677885,-0.34084603,0.4385836,-0.534421,-0.7225224,0.89148235,0.3603407,0.27461562,0.113593884,-0.7645579,0.63446647,,1.096442722550899,0.32856367013388177,0.17788858041000002,2.33217155143488,-0.7780082296644178,0.1124047154090902,-0.41244376698905505,,-1.2930712242615292,0.07227705696986719,0.17111416887000003,-3.0262452643686553,-0.36317981637654073,0.8164423627204695,0.4962392729159404,,-0.034191000046568915,-0.08750644537186571,0.07561312771999999,-0.04775451182011164,,-3.3073127e-05,-8.106232e-06,5.841255e-06,0.99999994,2.777949e-05,2.3234636e-05,-2.7775764e-05,1.0,1.9967556e-06,-2.3234636e-05,-1.937151e-06,1.0,775,2.361,0,0,0.0,False,-0.2621419889274632,0.6645286663433247
2.3877793699502945,09:24:19.434000,09:23:13.091002,0,,0.11453286,0.004800588,0.036409706,-0.15309004,0.9832778,-0.09863098,0.15397453,0.12232258,0.9804738,0.97614294,0.1349141,-0.17012623,,0.06467906,-0.034389094,0.040682107,-0.50793207,0.4137868,0.7555034,0.7206719,-0.2762952,0.63584054,0.4718444,0.8674338,-0.15786535,,0.07745632,1.3318901,0.45819366,0.99846923,0.027383842,-0.048055105,-0.009814926,-0.7673241,-0.6411844,-0.05443193,0.64067453,-0.7658807,,-0.07175238,0.25641122,-0.088770054,0.07671991,-0.9900787,0.11772129,0.73837477,0.13575983,0.6605845,-0.6700125,0.036242448,0.7414646,,-0.0030068257,0.42677882,-0.340858,0.4385652,-0.53439313,-0.7225542,0.89149,0.3603263,0.27460995,0.113605596,-0.7645842,0.6344327,,1.0962650996947918,0.3286331747297498,0.17789506186,2.292959532003274,-0.7739091346714547,0.14965651214805703,-0.4122804229229208,,-1.2930248878642838,0.07226933423699296,0.17110120597,-3.0262452643686553,-0.36317981637654073,0.8165240414606101,0.49068557466737495,,-0.034191000046568915,-0.08750644537186571,0.07561312771999999,-0.04775451182011164,,-3.3073127e-05,-8.106232e-06,5.841255e-06,0.99999994,2.777949e-05,2.3234636e-05,-2.7775764e-05,1.0,1.9967556e-06,-2.3234636e-05,-1.937151e-06,1.0,796,2.426,0,0,0.0,False,-0.2617249448978165,0.6583488006435543
2.4135464900173247,09:24:19.493949,09:23:13.474634,0,,0.113983124,0.004559353,0.036090776,-0.2374508,0.96862674,-0.0733421,0.1513859,0.11147842,0.98216844,0.9595308,0.2221137,-0.17310718,,0.06466062,-0.034401014,0.040702373,-0.5079132,0.41395617,0.7554233,0.7206772,-0.27617198,0.6358879,0.4718565,0.8673923,-0.15805742,,0.07745632,1.3318901,0.45819366,0.99846923,0.027383842,-0.048055105,-0.009814926,-0.7673241,-0.6411844,-0.05443193,0.64067453,-0.7658807,,-0.071180746,0.25604826,-0.08871013,0.16210908,-0.98240364,0.09275636,0.72972125,0.18262555,0.65890425,-0.66424966,-0.03912808,0.74648607,,-0.0029915264,0.42678604,-0.34088266,0.4385448,-0.5345543,-0.72244734,0.89150035,0.36036974,0.2745192,0.113602735,-0.764451,0.6345936,,1.0958866857839549,0.3289266385789703,0.17790024702,2.179517272578146,-0.7494512012134408,0.2521491388571004,-0.41048363819544376,,-1.2929708287341644,0.07227705696986719,0.17107268759000002,-3.0262452643686553,-0.36317981637654073,0.816360683980329,0.48431515608813797,,-0.034191000046568915,-0.08750644537186571,0.07561312771999999,-0.04775451182011164,,-3.3073127e-05,-8.106232e-06,5.841255e-06,0.99999994,2.777949e-05,2.3234636e-05,-2.7775764e-05,1.0,1.9967556e-06,-2.3234636e-05,-1.937151e-06,1.0,804,2.45,0,0,0.0,False,-0.2626781883941529,0.6569003946201706
2.473506459966302,09:24:19.520570,09:23:13.474634,0,,0.113806985,0.004472941,0.03589286,-0.2750217,0.9600783,-0.05111345,0.15709019,0.097321585,0.98277724,0.94851756,0.26225564,-0.17758453,,0.06465383,-0.03440824,0.040716022,-0.50790894,0.41402036,0.755391,0.7206834,-0.2761131,0.6359064,0.4718515,0.8673803,-0.15813735,,0.07745632,1.3318901,0.45819366,0.99846923,0.027383842,-0.048055105,-0.009814926,-0.7673241,-0.6411844,-0.05443193,0.64067453,-0.7658807,,-0.0709901,0.25586486,-0.08862244,0.20046455,-0.97712827,0.07095326,0.7289367,0.19715056,0.6555783,-0.6545726,-0.079699785,0.75178635,,-0.0029867843,0.42679092,-0.34089813,0.43854132,-0.5346159,-0.7224039,0.891501,0.3603976,0.27448043,0.11361104,-0.7643948,0.6346598,,1.095894408516829,0.3293050524898073,0.17790154331000002,2.1335951749550355,-0.7292289992481557,0.30328928594641547,-0.4119537347906522,,-1.29296310600129,0.07226933423699296,0.17105583582000003,-3.0262452643686553,-0.36317981637654073,0.8162790052401885,0.48447850015427224,,-0.034191000046568915,-0.08750644537186571,0.07561312771999999,-0.04775451182011164,,-3.3073127e-05,-8.106232e-06,5.841255e-06,0.99999994,2.777949e-05,2.3234636e-05,-2.7775764e-05,1.0,1.9967556e-06,-2.3234636e-05,-1.937151e-06,1.0,812,2.475,0,0,0.0,False,-0.26190367805337944,0.6559347906045816
2.500117596006021,09:24:19.541223,09:23:13.474634,0,,0.11366305,0.0044053346,0.035759747,-0.30550864,0.95117986,-0.043830473,0.15763795,0.095920384,0.9828273,0.93904984,0.29335284,-0.1792466,,0.064648405,-0.034411892,0.040719777,-0.50790024,0.41391513,0.75545454,0.7206878,-0.27620706,0.6358607,0.4718542,0.8674007,-0.158018,,0.07745632,1.3318901,0.45819366,0.99846923,0.027383842,-0.048055105,-0.009814926,-0.7673241,-0.6411844,-0.05443193,0.64067453,-0.7658807,,-0.070836544,0.25573528,-0.08857109,0.23160492,-0.970714,0.06382415,0.7247923,0.21594663,0.6542501,-0.6488723,-0.10526828,0.75358033,,-0.002981947,0.4267914,-0.34090385,0.43853235,-0.534515,-0.722484,0.8915052,0.3603543,0.27452385,0.113613084,-0.7644858,0.6345499,,1.0959407449140743,0.32966029820202164,0.17790024702,2.0952219152973672,-0.7155653492716116,0.33494715541042797,-0.41113701445998085,,-1.2929399378026674,0.07226933423699296,0.17104935437000002,-3.0262452643686553,-0.36317981637654073,0.8164423627204695,0.4825183713606609,,-0.034191000046568915,-0.08750644537186571,0.07561312771999999,-0.04775451182011164,,-3.3073127e-05,-8.106232e-06,5.841255e-06,0.99999994,2.777949e-05,2.3234636e-05,-2.7775764e-05,1.0,1.9967556e-06,-2.3234636e-05,-1.937151e-06,1.0,820,2.5,0,0,0.0,False,-0.26190367805337944,0.6550657469905512
2.520776920951903,09:24:19.568207,09:23:13.474634,0,,0.11357808,0.004369557,0.03565967,-0.32793993,0.9441171,-0.033134427,0.1590713,0.08975886,0.9831784,0.9312097,0.31715268,-0.17961755,,0.064635694,-0.034421593,0.04072681,-0.5078757,0.41389826,0.75548023,0.72070426,-0.27622908,0.6358325,0.47185555,0.8674017,-0.15800825,,0.07745632,1.3318901,0.45819366,0.99846923,0.027383842,-0.048055105,-0.009814926,-0.7673241,-0.6411844,-0.05443193,0.64067453,-0.7658807,,-0.07074419,0.25564852,-0.0885215,0.2545921,-0.96558446,0.053192843,0.72199684,0.22638395,0.6538126,-0.6433533,-0.12805045,0.7547845,,-0.0029704226,0.4267905,-0.34091696,0.43850794,-0.5344986,-0.72251093,0.8915155,0.3603409,0.27450788,0.11362616,-0.7645036,0.6345261,,1.0960256949756908,0.3300387121128586,0.17789895073,2.0679622226443795,-0.7038146102917837,0.36252904245649153,-0.41097367039384664,,-1.2928781559396736,0.07226161150411874,0.17103509518,-3.0262452643686553,-0.36317981637654073,0.8165240414606101,0.4813749628977209,,-0.034191000046568915,-0.08750644537186571,0.07561312771999999,-0.04775451182011164,,-3.3073127e-05,-8.106232e-06,5.841255e-06,0.99999994,2.777949e-05,2.3234636e-05,-2.7775764e-05,1.0,1.9967556e-06,-2.3234636e-05,-1.937151e-06,1.0,828,2.524,0,0,0.0,False,-0.26249945523859,0.653665621167947
2.5477646809304133,09:24:19.591449,09:23:13.474634,0,,0.113446735,0.004292175,0.035424322,-0.3741144,0.9271226,-0.021953933,0.16406721,0.08946722,0.9823836,0.9127542,0.3639219,-0.18558142,,0.064628646,-0.03442502,0.04073295,-0.50786847,0.41398165,0.75543946,0.7207038,-0.2761709,0.6358583,0.47186404,0.8673804,-0.15809974,,0.07745632,1.3318901,0.45819366,0.99846923,0.027383842,-0.048055105,-0.009814926,-0.7673241,-0.6411844,-0.05443193,0.64067453,-0.7658807,,-0.0705952,0.2554467,-0.0883962,0.30210572,-0.95232606,0.042511817,0.71638167,0.2562267,0.64895695,-0.62891126,-0.16559893,0.75963646,,-0.0029643225,0.42679295,-0.3409244,0.43849954,-0.53457785,-0.7224574,0.8915203,0.36035988,0.27446717,0.11362058,-0.7644392,0.6346047,,1.096203317831798,0.33082643086602953,0.17789765444000002,2.0140719071688564,-0.6760774008393994,0.40468244893758387,-0.4114637025922494,,-1.292854987741051,0.07226933423699296,0.17102602115,-3.0262452643686553,-0.36317981637654073,0.8164423627204695,0.48121161883158664,,-0.034191000046568915,-0.08750644537186571,0.07561312771999999,-0.04775451182011164,,-3.3073127e-05,-8.106232e-06,5.841255e-06,0.99999994,2.777949e-05,2.3234636e-05,-2.7775764e-05,1.0,1.9967556e-06,-2.3234636e-05,-1.937151e-06,1.0,836,2.55,0,0,0.0,False,-0.26160578946077395,0.6530862587585933
