AlexandreBanks6/ExpertPlaybackApp/resources/Motions/P_10/PC1/Data_PC1_8.csv
Task Time,PC1 Time,PC2 Time,Gaze Calib,s_T_psm1,Tx,Ty,Tz,R00,R01,R02,R10,R11,R12,R20,R21,R22,s_T_psm3,Tx,Ty,Tz,R00,R01,R02,R10,R11,R12,R20,R21,R22,cart_T_ecm,Tx,Ty,Tz,R00,R01,R02,R10,R11,R12,R20,R21,R22,ecm_T_psm1,Tx,Ty,Tz,R00,R01,R02,R10,R11,R12,R20,R21,R22,ecm_T_psm3,Tx,Ty,Tz,R00,R01,R02,R10,R11,R12,R20,R21,R22,psm1_joints,q1,q2,q3,q4,q5,q6,jaw,psm3_joints,q1,q2,q3,q4,q5,q6,jaw,ecm_joints,q1,q2,q3,q4,ecmi_T_ecm,Tx,Ty,Tz,R00,R01,R02,R10,R11,R12,R20,R21,R22,Sample #,Task Duration (s),Collisions (binary),Collisions (increments),Cumulative Collision Time (s),Clutch Press,MTMR Angle,MTML Angle
""
lci_T_si,,,,,-0.063657075,0.025385704,0.2469648,0.99608046,0.04609189,0.0754932,0.084081955,-0.75835806,-0.6463925,0.02745742,0.6502066,-0.75926113
rci_T_si,,,,,-0.07441909,0.030183764,0.26059738,0.9968228,0.032426473,0.07275223,0.07222477,-0.75309837,-0.6539315,0.033584893,0.65710837,-0.7530476
ecm_T_lc,,,,,-4.4061628e-05,-0.00034663224,-0.01840835,-0.99912,0.030754527,0.028518902,-0.031987965,-0.99852574,-0.043852776,0.027128186,-0.04472645,0.9986309
ecm_T_rc,,,,,-0.0043358393,0.01870579,-0.007592615,-0.99555075,-0.052743673,-0.078081585,0.04863213,-0.9973746,0.053654674,-0.08070653,0.04961868,0.9955021
cart_T_ecmi,,,,,0.07751704,1.3301718,0.45619854,0.9982497,0.036658186,-0.046408493,-0.0016564787,-0.76707995,-0.64154935,-0.05911706,0.6405033,-0.7656766
ecmac_T_ecmrep_psm1,,,,,0.0028397094,-0.24236576,-0.3123762,0.99938005,0.032352094,0.013886033,-0.031258944,0.9968569,-0.072795466,-0.016197473,0.07231628,0.9972502
ecmac_T_ecmrep_psm3,,,,,-0.018767226,-0.44603547,-0.53896165,0.9994355,-0.013331066,-0.030837692,0.013906483,0.9997318,0.01852092,0.030582517,-0.018939309,0.9993528
""
0,10:14:00.799067,10:12:54.827922,0,,0.08435939,0.0059779435,0.008749753,-0.84885603,0.06315963,-0.5248373,0.09843451,0.9943576,-0.039542645,0.5193784,-0.085228205,-0.8502834,,0.064662635,0.0016065165,0.03200668,-0.13697888,0.30944082,0.94100106,-0.015122205,-0.95049804,0.31036252,0.9904586,0.028283209,0.13487756,,0.07745061,1.3301741,0.45619887,0.99824977,0.036705635,-0.046368808,-0.001594726,-0.7670777,-0.6415522,-0.05911706,0.6405033,-0.7656766,,-0.037444077,0.24001926,-0.07213763,0.7971632,-0.09384885,0.5964254,0.4715407,0.71371245,-0.517942,-0.37706795,0.69412315,0.6131988,,0.0003326046,0.44640058,-0.31292334,-0.011522314,-0.2718361,-0.9622746,0.6882559,-0.70026004,0.18957755,-0.7253765,-0.66010684,0.19516142,,1.213913212300728,0.18959309206221173,0.20382086186,1.3835342471108918,-0.16533016471618295,-0.596617454486065,0.32456465940881296,,-1.2826378121484519,0.23727324482767384,0.19588886335000003,-2.2921207722293357,-1.055380324188262,0.9359813653008979,0.8139434815471136,,-0.03254166390343428,-0.08714647121364187,0.07824560327999999,-0.058221254136848435,,-6.6336244e-05,-3.8146973e-06,1.3113022e-06,0.99999994,4.7367066e-05,3.9618462e-05,-4.736334e-05,0.99999994,3.6358833e-06,-3.9622188e-05,-3.6656857e-06,1.0,37,0.111,0,0,0.0,False,0.45487585347317117,0.9877163303610204
0.12310254201292992,10:14:00.837338,10:12:54.886573,0,,0.084299065,0.005962804,0.008698642,-0.8485404,0.06682852,-0.52489316,0.102455616,0.99396956,-0.03907895,0.5191163,-0.0869385,-0.8502704,,0.0646591,0.0016092882,0.032007217,-0.13696271,0.30952924,0.9409743,-0.015137732,-0.9504694,0.3104493,0.99046063,0.028275847,0.13486442,,0.07745061,1.3301741,0.45619887,0.99824977,0.036705635,-0.046368808,-0.001594726,-0.7670777,-0.6415522,-0.05911706,0.6405033,-0.7656766,,-0.037379086,0.23998062,-0.072110035,0.7967168,-0.09734124,0.5964621,0.47447342,0.7120373,-0.5175691,-0.37432247,0.69536144,0.61347795,,0.00033591327,0.44640335,-0.31292206,-0.011537958,-0.27192354,-0.9622497,0.68824404,-0.7002564,0.18963403,-0.7253875,-0.66007465,0.19522929,,1.2141294488212062,0.1892455690828716,0.20386752830000002,1.386889286206644,-0.16287070772040502,-0.5964176507688054,0.2917325021158228,,-1.2826300894155778,0.2372964130262965,0.19588886335000003,-2.2921207722293357,-1.055380324188262,0.9358996865607573,0.8141068256132479,,-0.03254166390343428,-0.08714647121364187,0.07824560327999999,-0.058221254136848435,,-6.6336244e-05,-3.8146973e-06,1.3113022e-06,0.99999994,4.7367066e-05,3.9618462e-05,-4.736334e-05,0.99999994,3.6358833e-06,-3.9622188e-05,-3.6656857e-06,1.0,48,0.145,0,0,0.0,False,0.4170440022123154,0.9887784947781684
0.1613620660500601,10:14:00.866524,10:12:54.886573,0,,0.0842586,0.005962968,0.008671194,-0.84866905,0.070321485,-0.5242285,0.10542202,0.9937253,-0.037365735,0.51831144,-0.0869765,-0.85075736,,0.0646591,0.0016092882,0.032007217,-0.13696271,0.30968297,0.9409237,-0.015137732,-0.9504187,0.31060454,0.99046063,0.028297812,0.13485982,,0.07745061,1.3301741,0.45619887,0.99824977,0.036705635,-0.046368808,-0.001594726,-0.7670777,-0.6415522,-0.05911706,0.6405033,-0.7656766,,-0.037336472,0.23996696,-0.07209031,0.7967993,-0.100806326,0.5957759,0.4762852,0.7115327,-0.51659817,-0.37183765,0.6953843,0.6149613,,0.00033591327,0.44640335,-0.31292206,-0.011537958,-0.27208072,-0.96220523,0.68824404,-0.7002255,0.1897484,-0.7253875,-0.6600427,0.19533712,,1.2143456853416845,0.18906022349389023,0.20389734297000003,1.3889861856414893,-0.16041125072462709,-0.5948293084691563,0.26461738713753236,,-1.2826300894155778,0.2372964130262965,0.19588886335000003,-2.2921207722293357,-1.055380324188262,0.9357363290804761,0.8150868900100535,,-0.03254166390343428,-0.08714647121364187,0.07824560327999999,-0.058221254136848435,,-6.6336244e-05,-3.8146973e-06,1.3113022e-06,0.99999994,4.7367066e-05,3.9618462e-05,-4.736334e-05,0.99999994,3.6358833e-06,-3.9622188e-05,-3.6656857e-06,1.0,56,0.169,0,0,0.0,False,0.3883871196036983,0.9882956927703739
0.19056033005472273,10:14:00.887681,10:12:54.886573,0,,0.08421624,0.0059676766,0.008660927,-0.8488174,0.07080471,-0.52392334,0.10595679,0.9936681,-0.037374914,0.51795954,-0.087237835,-0.850945,,0.06465827,0.001610361,0.032007635,-0.13695955,0.30968663,0.940923,-0.015144169,-0.9504177,0.31060728,0.9904609,0.028291255,0.13485871,,0.07745061,1.3301741,0.45619887,0.99824977,0.036705635,-0.046368808,-0.001594726,-0.7670777,-0.6415522,-0.05911706,0.6405033,-0.7656766,,-0.0372936,0.23996775,-0.07208116,0.79695636,-0.101262994,0.59548837,0.47649306,0.71128476,-0.5167479,-0.37123436,0.69557154,0.61511403,,0.00033662908,0.44640452,-0.31292167,-0.011540887,-0.2720834,-0.96220446,0.6882393,-0.70022976,0.1897497,-0.725392,-0.66003704,0.19533975,,1.2145464763964144,0.18894438250077686,0.20391808361000002,1.3891958755849738,-0.15959143172603446,-0.5947627072300696,0.2468128839288959,,-1.2826300894155778,0.23730413575917073,0.19588886335000003,-2.2921207722293357,-1.055380324188262,0.9357363290804762,0.815413578142322,,-0.03254166390343428,-0.08714647121364187,0.07824560327999999,-0.058221254136848435,,-6.6336244e-05,-3.8146973e-06,1.3113022e-06,0.99999994,4.7367066e-05,3.9618462e-05,-4.736334e-05,0.99999994,3.6358833e-06,-3.9622188e-05,-3.6656857e-06,1.0,64,0.193,0,0,0.0,False,0.3779014411439965,0.9881991323688146
0.21171603503171355,10:14:00.910858,10:12:54.886573,0,,0.0841749,0.0059819072,0.008665428,-0.84813493,0.07186035,-0.5248839,0.107278064,0.9935281,-0.03732446,0.5188048,-0.08796486,-0.850355,,0.06465896,0.0016102567,0.032009423,-0.13696618,0.30953228,0.94097275,-0.015147895,-0.95046866,0.3104511,0.9904599,0.028267622,0.1348708,,0.07745061,1.3301741,0.45619887,0.99824977,0.036705635,-0.046368808,-0.001594726,-0.7670777,-0.6415522,-0.05911706,0.6405033,-0.7656766,,-0.03725338,0.23998506,-0.07207744,0.79615414,-0.102246776,0.59639263,0.4779901,0.7106341,-0.5162602,-0.37103102,0.6960925,0.61464727,,0.00033567954,0.4464056,-0.31292292,-0.01153403,-0.27192536,-0.9622492,0.68823683,-0.70026195,0.18963988,-0.7253944,-0.66006804,0.1952259,,1.2147549901840184,0.18889032337065728,0.20393234280000003,1.39087339513285,-0.15959143172603446,-0.5950894221906319,0.2291717247863937,,-1.2826378121484519,0.23730413575917073,0.19588756706000002,-2.2921207722293357,-1.055380324188262,0.9358996865607574,0.8150868900100534,,-0.03254166390343428,-0.08714647121364187,0.07824560327999999,-0.058221254136848435,,-6.6336244e-05,-3.8146973e-06,1.3113022e-06,0.99999994,4.7367066e-05,3.9618462e-05,-4.736334e-05,0.99999994,3.6358833e-06,-3.9622188e-05,-3.6656857e-06,1.0,71,0.214,0,0,0.0,False,0.3627687006396543,0.9877646105617996
0.23487017606385052,10:14:00.942240,10:12:54.886573,0,,0.084100455,0.00601165,0.008685872,-0.8480057,0.07221146,-0.5250444,0.10775137,0.9934743,-0.037394077,0.51891786,-0.0882847,-0.85025287,,0.06465621,0.0016102567,0.032007217,-0.13690752,0.30962694,0.9409501,-0.015017092,-0.95043427,0.3105628,0.99047,0.028388083,0.13477129,,0.07745061,1.3301741,0.45619887,0.99824977,0.036705635,-0.046368808,-0.001594726,-0.7670777,-0.6415522,-0.05911706,0.6405033,-0.7656766,,-0.037182134,0.24002713,-0.07207775,0.79599774,-0.10256706,0.5965464,0.4784175,0.71036327,-0.5162371,-0.37081572,0.6963217,0.61451745,,0.00033873226,0.44640443,-0.31292155,-0.011598738,-0.2720382,-0.96221656,0.68832934,-0.7001671,0.18965425,-0.72530556,-0.66012216,0.19537294,,1.2151951859578494,0.18884398697341193,0.20394919457000002,1.3912927750198192,-0.15904488572697267,-0.5952900575849959,0.20744696399053453,,-1.2826223666827035,0.23731185849204495,0.19588756706000002,-2.2921207722293357,-1.0552436876884965,0.9357882686570608,0.8144335137455163,,-0.03254166390343428,-0.08714647121364187,0.07824560327999999,-0.058221254136848435,,-6.6336244e-05,-3.8146973e-06,1.3113022e-06,0.99999994,4.7367066e-05,3.9618462e-05,-4.736334e-05,0.99999994,3.6358833e-06,-3.9622188e-05,-3.6656857e-06,1.0,83,0.251,0,0,0.0,False,0.3422739654684186,0.9876197699594613
0.26621250610332936,10:14:00.972062,10:12:55.014447,0,,0.08402422,0.0060399175,0.008716807,-0.8476083,0.07478091,-0.5253264,0.11034307,0.99321747,-0.036651462,0.5190226,-0.08903241,-0.85011095,,0.064619705,0.0016212091,0.03202659,-0.1399126,0.31022877,0.94030964,-0.016614914,-0.9502526,0.31103697,0.99002445,0.027894855,0.1381067,,0.07745061,1.3301741,0.45619887,0.99824977,0.036705635,-0.046368808,-0.001594726,-0.7670777,-0.6415522,-0.05911706,0.6405033,-0.7656766,,-0.03710995,0.24007477,-0.0720872,0.79549354,-0.105051786,0.59678656,0.4804624,0.7094828,-0.5155483,-0.3692505,0.69684887,0.6148624,,0.00037147486,0.44643041,-0.31293058,-0.008499197,-0.27256668,-0.9620994,0.6872806,-0.70045626,0.19237067,-0.7263423,-0.6595972,0.1932831,,1.2157126090604222,0.18878220511041813,0.20395567602000003,1.3935993643981488,-0.1574052477297874,-0.5949934976265416,0.1875189879221526,,-1.2826378121484519,0.23730413575917073,0.19588627077,-2.29694364092948,-1.0577031446842744,0.9394273657264076,0.8137801374809792,,-0.03254166390343428,-0.08714647121364187,0.07824560327999999,-0.058221254136848435,,-6.6336244e-05,-3.8146973e-06,1.3113022e-06,0.99999994,4.7367066e-05,3.9618462e-05,-4.736334e-05,0.99999994,3.6358833e-06,-3.9622188e-05,-3.6656857e-06,1.0,91,0.276,0,0,0.0,False,0.3104594637781868,0.9866541659438723
0.29607568809296936,10:14:00.997973,10:12:55.014447,0,,0.0839288,0.0060661137,0.008756489,-0.84743303,0.07694323,-0.52529687,0.113003075,0.9929105,-0.03686455,0.51873636,-0.09060055,-0.85011995,,0.064627014,0.001619719,0.03202814,-0.13953136,0.30949804,0.9406071,-0.016746342,-0.9505012,0.31026945,0.99007607,0.027540654,0.13780767,,0.07745061,1.3301741,0.45619887,0.99824977,0.036705635,-0.046368808,-0.001594726,-0.7670777,-0.6415522,-0.05911706,0.6405033,-0.7656766,,-0.03701933,0.24012782,-0.072105564,0.7952411,-0.107059404,0.5967661,0.4823348,0.7080848,-0.51572186,-0.36734816,0.6979643,0.6147367,,0.0003640803,0.44642946,-0.31293216,-0.008878279,-0.27178198,-0.9623179,0.68717164,-0.7007804,0.19157763,-0.72644085,-0.6595767,0.1929826,,1.2163535958889828,0.188674086850179,0.20395826860000002,1.3956962638329942,-0.15521906373354036,-0.595551002983576,0.16514085086175634,,-1.2826455348813262,0.23730413575917073,0.19588627077,-2.296104881155542,-1.0577031446842744,0.9395090444665481,0.8139434815471135,,-0.03254166390343428,-0.08714647121364187,0.07824560327999999,-0.058221254136848435,,-6.6336244e-05,-3.8146973e-06,1.3113022e-06,0.99999994,4.7367066e-05,3.9618462e-05,-4.736334e-05,0.99999994,3.6358833e-06,-3.9622188e-05,-3.6656857e-06,1.0,98,0.296,0,0,0.0,False,0.28174300345104886,0.985785122329842
0.32198669109493494,10:14:01.019110,10:12:55.014447,0,,0.08386174,0.006083086,0.008786514,-0.846993,0.07869774,-0.5257464,0.114990056,0.99268997,-0.036658973,0.5190182,-0.09150568,-0.8498509,,0.064626664,0.0016181394,0.032025695,-0.13937938,0.30942532,0.94065356,-0.01664108,-0.95052356,0.31020635,0.99009925,0.027583003,0.13763252,,0.07745061,1.3301741,0.45619887,0.99824977,0.036705635,-0.046368808,-0.001594726,-0.7670777,-0.6415522,-0.05911706,0.6405033,-0.7656766,,-0.03695577,0.24016535,-0.07212102,0.7947027,-0.10872075,0.59718287,0.48401716,0.7072021,-0.5153567,-0.366299,0.6986022,0.61463815,,0.00036485566,0.4464267,-0.31293157,-0.009036113,-0.27171555,-0.96233517,0.6872426,-0.7007576,0.19140601,-0.7263717,-0.6596282,0.19306663,,1.2167860689299395,0.18859685952143676,0.20395826860000002,1.3975834733243548,-0.1541259717354168,-0.5957072375518824,0.14994985271126826,,-1.2826300894155778,0.23730413575917073,0.19588627077,-2.295895191212057,-1.0575665081845091,0.9393976265628519,0.8126367290180393,,-0.03254166390343428,-0.08714647121364187,0.07824560327999999,-0.058221254136848435,,-6.6336244e-05,-3.8146973e-06,1.3113022e-06,0.99999994,4.7367066e-05,3.9618462e-05,-4.736334e-05,0.99999994,3.6358833e-06,-3.9622188e-05,-3.6656857e-06,1.0,106,0.321,0,0,0.0,False,0.2507030121015905,0.9849160787158118
0.3431483580498025,10:14:01.043362,10:12:55.014447,0,,0.08377105,0.0061040223,0.0088338405,-0.8463849,0.081867285,-0.52624154,0.11901544,0.9922004,-0.037063032,0.5191028,-0.09400061,-0.8495269,,0.064626664,0.0016181394,0.032025695,-0.13937938,0.3092717,0.9407041,-0.01664108,-0.9505743,0.31005102,0.99009925,0.027560502,0.13763705,,0.07745061,1.3301741,0.45619887,0.99824977,0.036705635,-0.046368808,-0.001594726,-0.7670777,-0.6415522,-0.05911706,0.6405033,-0.7656766,,-0.036870312,0.24021873,-0.072148405,0.7939353,-0.111645296,0.5976638,0.48714536,0.7049997,-0.5154269,-0.3638078,0.70036477,0.6141116,,0.00036485566,0.4464267,-0.31293157,-0.009036113,-0.27155834,-0.9623796,0.6872426,-0.7007889,0.19129154,-0.7263717,-0.65965974,0.19295888,,1.2174270557585,0.18848101852832339,0.20395049086000003,1.4011482023635917,-0.1516665147396389,-0.5967326149367312,0.11858779201348668,,-1.2826300894155778,0.23730413575917073,0.19588627077,-2.295895191212057,-1.0575665081845091,0.9395609840431329,0.8119833527535021,,-0.03254166390343428,-0.08714647121364187,0.07824560327999999,-0.058221254136848435,,-6.6336244e-05,-3.8146973e-06,1.3113022e-06,0.99999994,4.7367066e-05,3.9618462e-05,-4.736334e-05,0.99999994,3.6358833e-06,-3.9622188e-05,-3.6656857e-06,1.0,114,0.345,0,0,0.0,False,0.20381534762553732,0.9848195183142527
0.36738289310596883,10:14:01.072137,10:12:55.014447,0,,0.08372077,0.0061068684,0.008859828,-0.84640515,0.08253889,-0.526104,0.119680464,0.9921267,-0.036892235,0.5189167,-0.09419027,-0.8496195,,0.064626664,0.0016181394,0.032025695,-0.13937938,0.30904117,0.94077986,-0.01664108,-0.9506502,0.30981815,0.99009925,0.027526736,0.13764378,,0.07745061,1.3301741,0.45619887,0.99824977,0.036705635,-0.046368808,-0.001594726,-0.7670777,-0.6415522,-0.05911706,0.6405033,-0.7656766,,-0.036822572,0.24024135,-0.07216892,0.7939458,-0.112294994,0.59752816,0.48754734,0.704768,-0.5153636,-0.363246,0.700494,0.61429673,,0.00036485566,0.4464267,-0.31293157,-0.009036113,-0.27132252,-0.9624461,0.6872426,-0.70083576,0.19111982,-0.7263717,-0.659707,0.19279723,,1.2177436878063435,0.18839606846670692,0.20394271312,1.4015675822505609,-0.15084669574104626,-0.5965843349575042,0.09212605329973356,,-1.2826300894155778,0.23730413575917073,0.19588627077,-2.295895191212057,-1.0575665081845091,0.9398060202635546,0.8114933205550994,,-0.03254166390343428,-0.08714647121364187,0.07824560327999999,-0.058221254136848435,,-6.6336244e-05,-3.8146973e-06,1.3113022e-06,0.99999994,4.7367066e-05,3.9618462e-05,-4.736334e-05,0.99999994,3.6358833e-06,-3.9622188e-05,-3.6656857e-06,1.0,126,0.382,0,0,0.0,False,0.1682474496684807,0.9842401559048992
0.39615172904450446,10:14:01.102719,10:12:55.144892,0,,0.083675966,0.00610587,0.008898735,-0.84589237,0.08466211,-0.5265912,0.12324086,0.99162805,-0.03854072,0.5189196,-0.09749895,-0.8492445,,0.06462715,0.0016180947,0.032024562,-0.13944447,0.309136,0.94073904,-0.016476512,-0.95061386,0.30993867,0.9900929,0.02771923,0.1376513,,0.07745061,1.3301741,0.45619887,0.99824977,0.036705635,-0.046368808,-0.001594726,-0.7670777,-0.6415522,-0.05911706,0.6405033,-0.7656766,,-0.03678124,0.24026862,-0.072201625,0.7932981,-0.11410819,0.59804463,0.4902713,0.7021376,-0.5163689,-0.3609877,0.7028386,0.6129484,,0.0003645479,0.44642583,-0.31293073,-0.008977453,-0.27144635,-0.9624117,0.68736434,-0.70069003,0.19121647,-0.72625726,-0.6598109,0.19287296,,1.218114378984306,0.1883033956722162,0.20391937990000003,1.4047129314028288,-0.14879714824456466,-0.5987456759537938,0.05423022995658078,,-1.2826378121484519,0.2372964130262965,0.19588627077,-2.296104881155542,-1.0574298716847434,0.9398579598401392,0.8111666324228308,,-0.03254166390343428,-0.08714647121364187,0.07824560327999999,-0.058221254136848435,,-6.6336244e-05,-3.8146973e-06,1.3113022e-06,0.99999994,4.7367066e-05,3.9618462e-05,-4.736334e-05,0.99999994,3.6358833e-06,-3.9622188e-05,-3.6656857e-06,1.0,134,0.406,0,0,0.0,False,0.06851434886427077,0.9836125132947662
0.4267405540449545,10:14:01.123650,10:12:55.144892,0,,0.08365258,0.0061035007,0.008932516,-0.84566,0.08530971,-0.5268598,0.12408273,0.9915201,-0.038616598,0.51909775,-0.098030865,-0.84907436,,0.0646275,0.0016187355,0.03202349,-0.13944447,0.30921286,0.94071376,-0.016476512,-0.95058846,0.31001633,0.9900929,0.027730435,0.13764901,,0.07745061,1.3301741,0.45619887,0.99824977,0.036705635,-0.046368808,-0.001594726,-0.7670777,-0.6415522,-0.05911706,0.6405033,-0.7656766,,-0.03676074,0.2402898,-0.07223033,0.79301924,-0.114703536,0.5983006,0.49101692,0.7016676,-0.51629925,-0.3605868,0.70321095,0.6127573,,0.00036433613,0.4464255,-0.3129295,-0.008977453,-0.27152497,-0.9623895,0.68736434,-0.7006744,0.1912737,-0.72625726,-0.6597951,0.19292685,,1.2183074473061617,0.18828022747359355,0.20389604668000003,1.405551691176767,-0.14838723874526832,-0.5989982509247425,0.024338265854007668,,-1.2826378121484519,0.2372964130262965,0.19588756706000002,-2.296104881155542,-1.0574298716847434,0.9397762810999987,0.8110032883566966,,-0.03254166390343428,-0.08714647121364187,0.07824560327999999,-0.058221254136848435,,-6.6336244e-05,-3.8146973e-06,1.3113022e-06,0.99999994,4.7367066e-05,3.9618462e-05,-4.736334e-05,0.99999994,3.6358833e-06,-3.9622188e-05,-3.6656857e-06,1.0,149,0.452,0,0,0.0,False,0.010664384180347763,0.9831297112869717
0.4476863880408928,10:14:01.173349,10:12:55.144892,0,,0.083659545,0.0060757548,0.009012669,-0.84540987,0.08846737,-0.52674043,0.1285383,0.9909024,-0.039877325,0.5184205,-0.10141906,-0.8490902,,0.06462793,0.0016220286,0.032025754,-0.1394514,0.30883473,0.94083697,-0.016496778,-0.9507135,0.30963165,0.99009156,0.027657837,0.1376731,,0.07745061,1.3301741,0.45619887,0.99824977,0.036705635,-0.046368808,-0.001594726,-0.7670777,-0.6415522,-0.05911706,0.6405033,-0.7656766,,-0.03677343,0.24031775,-0.07230971,0.7926566,-0.117535315,0.59823155,0.49403328,0.69880885,-0.5172981,-0.35724866,0.705586,0.6119818,,0.00036344538,0.4464293,-0.31292877,-0.0089696,-0.27113554,-0.9624994,0.6873499,-0.70076346,0.19099922,-0.7262711,-0.6598607,0.19265056,,1.218554574758137,0.18827250474071933,0.20381049154000003,1.4091164202160036,-0.14538123575042863,-0.6007960148849392,-0.06484759425530884,,-1.2826532576142005,0.23731185849204495,0.19588756706000002,-2.296104881155542,-1.0574298716847434,0.9401846748007014,0.8095331917614881,,-0.03254166390343428,-0.08714647121364187,0.07824560327999999,-0.058221254136848435,,-6.6336244e-05,-3.8146973e-06,1.3113022e-06,0.99999994,4.7367066e-05,3.9618462e-05,-4.736334e-05,0.99999994,3.6358833e-06,-3.9622188e-05,-3.6656857e-06,1.0,157,0.477,0,0,0.0,False,-0.14846770198933212,0.9820192666690444
0.4973415130516514,10:14:01.195053,10:12:55.144892,0,,0.0836796,0.006049603,0.009089142,-0.8448461,0.090927795,-0.52722573,0.1328401,0.99024343,-0.042085916,0.5182551,-0.105592966,-0.8486823,,0.06462688,0.0016214475,0.03202498,-0.13944475,0.30883536,0.94083774,-0.016493052,-0.9507132,0.3096326,0.9900926,0.027659446,0.13766557,,0.07745061,1.3301741,0.45619887,0.99824977,0.036705635,-0.046368808,-0.001594726,-0.7670777,-0.6415522,-0.05911706,0.6405033,-0.7656766,,-0.036798894,0.24034351,-0.07238469,0.791944,-0.11960446,0.5987649,0.4972237,0.69548553,-0.51871806,-0.35439134,0.70851576,0.61025584,,0.00036460653,0.44642857,-0.31292874,-0.008976459,-0.2711364,-0.9624991,0.68735236,-0.7007623,0.19099465,-0.72626865,-0.65986156,0.1926566,,1.2187090294156215,0.1883033956722162,0.20372623269,1.4128908391987252,-0.14305841525441615,-0.6036702641294651,-0.12920515631221496,,-1.2826455348813262,0.23731185849204495,0.19588756706000002,-2.296104881155542,-1.0574298716847434,0.9401846748007014,0.8095331917614881,,-0.03254166390343428,-0.08714647121364187,0.07824560327999999,-0.058221254136848435,,-6.6336244e-05,-3.8146973e-06,1.3113022e-06,0.99999994,4.7367066e-05,3.9618462e-05,-4.736334e-05,0.99999994,3.6358833e-06,-3.9622188e-05,-3.6656857e-06,1.0,165,0.501,0,0,0.0,False,-0.19928749588777306,0.9812467834565728
0.5190608070697635,10:14:01.219631,10:12:55.144892,0,,0.08369148,0.0060234666,0.009153545,-0.8447157,0.092333496,-0.52719045,0.13522276,0.98986864,-0.04329884,0.51785135,-0.107863516,-0.8486431,,0.06462705,0.0016214773,0.032023728,-0.13940303,0.30900162,0.9407892,-0.016363204,-0.9506553,0.3098175,0.99010056,0.027795255,0.13758044,,0.07745061,1.3301741,0.45619887,0.99824977,0.036705635,-0.046368808,-0.001594726,-0.7670777,-0.6415522,-0.05911706,0.6405033,-0.7656766,,-0.036815204,0.24036245,-0.07245064,0.7917569,-0.12079638,0.59877306,0.49881107,0.69365937,-0.51963854,-0.35257408,0.7101021,0.60946417,,0.0003646177,0.4464277,-0.3129278,-0.009024083,-0.27132323,-0.962446,0.68744504,-0.70064956,0.19107457,-0.7261803,-0.6599045,0.19284254,,1.2188403158744832,0.18831111840509043,0.20365493674000001,1.4147780486900858,-0.14141877725723084,-0.6051706364541033,-0.17396143043300738,,-1.2826455348813262,0.23731185849204495,0.19588756706000002,-2.296104881155542,-1.0572932351849782,0.9399915781568646,0.8080630951662795,,-0.03254166390343428,-0.08714647121364187,0.07824560327999999,-0.058221254136848435,,-6.6336244e-05,-3.8146973e-06,1.3113022e-06,0.99999994,4.7367066e-05,3.9618462e-05,-4.736334e-05,0.99999994,3.6358833e-06,-3.9622188e-05,-3.6656857e-06,1.0,173,0.526,0,0,0.0,False,-0.2449240282748848,0.9810053824526754
0.5436696991091594,10:14:01.243252,10:12:55.144892,0,,0.08370672,0.0059969723,0.009221792,-0.8444062,0.09511605,-0.52719164,0.13907039,0.98929286,-0.044261515,0.5173369,-0.11069155,-0.84859276,,0.06462719,0.0016204938,0.032021582,-0.13939957,0.30892172,0.94081604,-0.016353011,-0.95068127,0.30973804,0.9901012,0.027792215,0.13757636,,0.07745061,1.3301741,0.45619887,0.99824977,0.036705635,-0.046368808,-0.001594726,-0.7670777,-0.6415522,-0.05911706,0.6405033,-0.7656766,,-0.036835168,0.24038321,-0.07251965,0.7913447,-0.12330397,0.5988069,0.50145197,0.6912142,-0.52035457,-0.34974205,0.7120527,0.60881966,,0.00036485132,0.44642547,-0.31292695,-0.009028009,-0.2712428,-0.9624686,0.6874523,-0.70065963,0.19101149,-0.7261734,-0.65992683,0.19279206,,1.219002493264842,0.18831884113796468,0.20357845563000002,1.4179233978423538,-0.13895932026145294,-0.6066044075396549,-0.21920773675220284,,-1.2826378121484519,0.23730413575917073,0.19588886335000003,-2.296104881155542,-1.0572932351849782,0.9400732568970053,0.807246374835608,,-0.03254166390343428,-0.08714647121364187,0.07824560327999999,-0.058221254136848435,,-6.6336244e-05,-3.8146973e-06,1.3113022e-06,0.99999994,4.7367066e-05,3.9618462e-05,-4.736334e-05,0.99999994,3.6358833e-06,-3.9622188e-05,-3.6656857e-06,1.0,181,0.549,0,0,0.0,False,-0.25225208765297147,0.9802328992402043
0.5672874849988148,10:14:01.272301,10:12:55.324072,0,,0.083714046,0.0059517026,0.009371221,-0.8442638,0.09771108,-0.526945,0.14350514,0.988551,-0.04661551,0.5163572,-0.11497527,-0.8486199,,0.064624704,0.0016237423,0.032022774,-0.13939004,0.30900958,0.9407886,-0.016372353,-0.950653,0.30982384,0.9901022,0.027783483,0.13757077,,0.07745061,1.3301741,0.45619887,0.99824977,0.036705635,-0.046368808,-0.001594726,-0.7670777,-0.6415522,-0.05911706,0.6405033,-0.7656766,,-0.036853433,0.24044077,-0.07266383,0.7911159,-0.1254946,0.59865415,0.5042722,0.68774676,-0.52222013,-0.34618667,0.7150213,0.6073708,,0.0003669987,0.44642895,-0.31292573,-0.0090368055,-0.27132943,-0.9624441,0.68743795,-0.70065707,0.19107254,-0.7261869,-0.65989393,0.19285384,,1.2194040753743016,0.1883574548023358,0.20342678970000003,1.421278436938106,-0.1355434077673169,-0.6094715338722061,-0.2820952022139003,,-1.2826378121484519,0.23732730395779342,0.19588886335000003,-2.296104881155542,-1.0572932351849782,0.9399915781568647,0.8074097189017424,,-0.03254166390343428,-0.08714647121364187,0.07824560327999999,-0.058221254136848435,,-6.6336244e-05,-3.8146973e-06,1.3113022e-06,0.99999994,4.7367066e-05,3.9618462e-05,-4.736334e-05,0.99999994,3.6358833e-06,-3.9622188e-05,-3.6656857e-06,1.0,192,0.583,0,0,0.0,False,-0.25320533114930877,0.9796052566300713
0.5963364850031212,10:14:01.302442,10:12:55.324072,0,,0.083724394,0.0058970302,0.0096209645,-0.8438816,0.09950481,-0.52722144,0.14851688,0.9875767,-0.051329494,0.5155642,-0.12161744,-0.848176,,0.06461935,0.0016302988,0.03202349,-0.1394712,0.30849963,0.9409439,-0.016372502,-0.9508201,0.30931082,0.99009085,0.027734369,0.13766292,,0.07745061,1.3301741,0.45619887,0.99824977,0.036705635,-0.046368808,-0.001594726,-0.7670777,-0.6415522,-0.05911706,0.6405033,-0.7656766,,-0.03688289,0.2405534,-0.07289165,0.7906102,-0.12667778,0.5990728,0.5076372,0.68269277,-0.5255807,-0.3424033,0.7196411,0.6040502,,0.0003719238,0.44643486,-0.3129221,-0.008954921,-0.27081156,-0.96259075,0.68744075,-0.70074254,0.19074897,-0.72618526,-0.66001594,0.19244199,,1.2200296167371139,0.18852735492556874,0.20318697605000002,1.425262545864312,-0.13185422227365004,-0.6150118582163668,-0.3342019593107354,,-1.2826378121484519,0.23736591762216452,0.19589015964,-2.296314571099026,-1.0572932351849782,0.9407266868181298,0.8059396223065338,,-0.03254166390343428,-0.08714647121364187,0.07824560327999999,-0.058221254136848435,,-6.6336244e-05,-3.8146973e-06,1.3113022e-06,0.99999994,4.7367066e-05,3.9618462e-05,-4.736334e-05,0.99999994,3.6358833e-06,-3.9622188e-05,-3.6656857e-06,1.0,200,0.608,0,0,0.0,False,-0.252847864838182,0.9798949378347481
0.6264800890348852,10:14:01.325547,10:12:55.324072,0,,0.083734944,0.0058617443,0.009836793,-0.8432144,0.100754954,-0.5280509,0.1513838,0.9870312,-0.053405255,0.51582193,-0.124970555,-0.8475317,,0.06458201,0.0016216114,0.032007754,-0.13944176,0.30844927,0.9409648,-0.016381621,-0.9508371,0.30925786,0.99009484,0.027708948,0.13763927,,0.07745061,1.3301741,0.45619887,0.99824977,0.036705635,-0.046368808,-0.001594726,-0.7670777,-0.6415522,-0.05911706,0.6405033,-0.7656766,,-0.03691041,0.24065991,-0.07308097,0.7898138,-0.12761614,0.59992355,0.50996894,0.680071,-0.5267212,-0.34077248,0.721954,0.6022097,,0.0004115148,0.44642273,-0.31291986,-0.008984238,-0.27075732,-0.9626057,0.68743306,-0.7007655,0.19069214,-0.7261922,-0.66001374,0.19242339,,1.2205084261753156,0.18874359144604702,0.20298734739000002,1.4279885151296108,-0.13035122077623018,-0.6178710299598387,-0.36099038615675716,,-1.2826532576142005,0.23739680855366144,0.19589015964,-2.296314571099026,-1.0572932351849782,0.9407266868181298,0.8059396223065338,,-0.03254166390343428,-0.08714647121364187,0.07824560327999999,-0.058221254136848435,,-6.6336244e-05,-3.8146973e-06,1.3113022e-06,0.99999994,4.7367066e-05,3.9618462e-05,-4.736334e-05,0.99999994,3.6358833e-06,-3.9622188e-05,-3.6656857e-06,1.0,208,0.632,0,0,0.0,False,-0.2540989969271239,0.9788327734176001
0.649565341998823,10:14:01.352419,10:12:55.324072,0,,0.08373955,0.005810261,0.010260001,-0.84245694,0.10287446,-0.5288508,0.15566203,0.98621446,-0.056126,0.5157863,-0.12960592,-0.84685695,,0.06458675,0.001624614,0.032018393,-0.13942061,0.3084118,0.9409803,-0.016395003,-0.95085,0.3092175,0.9900976,0.027683944,0.1376245,,0.07743652,1.3301727,0.45621005,0.9982498,0.03672775,-0.04635031,-0.0015659492,-0.7670767,-0.6415536,-0.05911706,0.6405033,-0.7656766,,-0.03693827,0.24087538,-0.073435076,0.7888931,-0.12932882,0.6007676,0.51322395,0.67636126,-0.5283338,-0.33800715,0.7251272,0.5999514,,0.0004157727,0.4464244,-0.31291732,-0.009006751,-0.2706884,-0.9626249,0.68742365,-0.7007918,0.19062956,-0.7262008,-0.66001415,0.19238946,,1.2214660450517196,0.18922240088424894,0.20259975668000002,1.4317629341123324,-0.12748185428115594,-0.6218443807402749,-0.3920257587222702,,-1.2826378121484519,0.2374199767522841,0.19589145593,-2.296314571099026,-1.0572932351849782,0.9408083655582703,0.806102966372668,,-0.03254166390343428,-0.08714647121364187,0.07824560327999999,-0.058221254136848435,,-8.105859e-05,3.9339066e-06,-5.6028366e-06,1.0,6.943941e-05,5.8084726e-05,-6.943196e-05,0.99999994,5.364418e-06,-5.808845e-05,-5.364418e-06,1.0,216,0.657,0,0,0.0,False,-0.25356279746043464,0.9770946861895395
0.6764555410481989,10:14:01.381917,10:12:55.434665,0,,0.08379409,0.005723536,0.010809451,-0.84222907,0.10525389,-0.5287455,0.15985006,0.9854084,-0.058463514,0.5148767,-0.13375983,-0.84676456,,0.06458469,0.0016311258,0.03202191,-0.139418,0.30865946,0.94089943,-0.01643464,-0.9507698,0.3094622,0.99009717,0.02768132,0.13762715,,0.07743652,1.3301727,0.45621005,0.9982498,0.03672775,-0.04635031,-0.0015659492,-0.7670767,-0.6415536,-0.05911706,0.6405033,-0.7656766,,-0.03703599,0.24114661,-0.073913895,0.78858256,-0.13131332,0.60074484,0.5158893,0.6729429,-0.5301001,-0.33465776,0.7279455,0.5984142,,0.000417029,0.44643173,-0.31291538,-0.009007692,-0.27093592,-0.9625552,0.6873948,-0.7007691,0.19081677,-0.72622806,-0.65993667,0.19255225,,1.222585841318482,0.18988655591143225,0.20208642584000003,1.4349082832646003,-0.12365603228772361,-0.6253724757444774,-0.4114637025922494,,-1.2826532576142005,0.23745859041665524,0.19589145593,-2.296314571099026,-1.0572932351849782,0.9405633293378486,0.8029994291161169,,-0.03254166390343428,-0.08714647121364187,0.07824560327999999,-0.058221254136848435,,-8.105859e-05,3.9339066e-06,-5.6028366e-06,1.0,6.943941e-05,5.8084726e-05,-6.943196e-05,0.99999994,5.364418e-06,-5.808845e-05,-5.364418e-06,1.0,224,0.68,0,0,0.0,False,-0.254694774112334,0.9767084445833039
0.705953611060977,10:14:01.403224,10:12:55.434665,0,,0.08384322,0.005671695,0.011227354,-0.84114933,0.108116105,-0.5298855,0.16335283,0.98483956,-0.058365673,0.5155419,-0.13565269,-0.84605837,,0.06458574,0.0016316622,0.032022566,-0.13942464,0.30881256,0.9408483,-0.016438365,-0.9507194,0.30961657,0.9900963,0.027702212,0.1376301,,0.07743652,1.3301727,0.45621005,0.9982498,0.03672775,-0.04635031,-0.0015659492,-0.7670767,-0.6415536,-0.05911706,0.6405033,-0.7656766,,-0.037118476,0.24136323,-0.07426889,0.7873162,-0.13398007,0.601816,0.51893485,0.67108047,-0.5294881,-0.33292612,0.72917783,0.59787947,,0.0004158678,0.44643244,-0.3129154,-0.009000834,-0.27109233,-0.96251124,0.68739235,-0.7007391,0.19093582,-0.7262305,-0.6599043,0.19265401,,1.223373560071653,0.19047348360987332,0.20170272400000003,1.4384730123038372,-0.12201639429053832,-0.6266278118486939,-0.4181608093037549,,-1.2826609803470745,0.23745859041665524,0.19589145593,-2.296314571099026,-1.0572932351849782,0.9403999718575675,0.8026727409838483,,-0.03254166390343428,-0.08714647121364187,0.07824560327999999,-0.058221254136848435,,-8.105859e-05,3.9339066e-06,-5.6028366e-06,1.0,6.943941e-05,5.8084726e-05,-6.943196e-05,0.99999994,5.364418e-06,-5.808845e-05,-5.364418e-06,1.0,239,0.726,0,0,0.0,False,-0.25427773008268684,0.9769498455872012
0.7272599370917305,10:14:01.452524,10:12:55.434665,0,,0.08397913,0.0056257546,0.012235403,-0.83751994,0.1148653,-0.53419685,0.17090127,0.9836709,-0.056427896,0.5189922,-0.13855454,-0.8434746,,0.064581364,0.0016355217,0.03202346,-0.13940531,0.3088278,0.94084615,-0.01646036,-0.9507152,0.30962837,0.9900986,0.027677238,0.13761814,,0.07743652,1.3301727,0.45621005,0.9982498,0.03672775,-0.04635031,-0.0015659492,-0.7670767,-0.6415536,-0.05911706,0.6405033,-0.7656766,,-0.037337814,0.24194571,-0.07507472,0.7831187,-0.14040788,0.6058141,0.5266488,0.667798,-0.52601033,-0.33070543,0.7309798,0.5969107,,0.00041989196,0.44643638,-0.31291375,-0.0090194205,-0.27110383,-0.96250784,0.6873757,-0.7007553,0.19093633,-0.72624606,-0.65988237,0.19267058,,1.2252424614272153,0.19228060310244185,0.20081606164000002,1.4474896798736716,-0.12037675629335302,-0.6286999353543161,-0.42028428216350056,,-1.2826532576142005,0.23748948134815212,0.19589145593,-2.296314571099026,-1.0572932351849782,0.9403999718575675,0.8029994291161168,,-0.03254166390343428,-0.08714647121364187,0.07824560327999999,-0.058221254136848435,,-8.105859e-05,3.9339066e-06,-5.6028366e-06,1.0,6.943941e-05,5.8084726e-05,-6.943196e-05,0.99999994,5.364418e-06,-5.808845e-05,-5.364418e-06,1.0,247,0.751,0,0,0.0,False,-0.25397984149008224,0.9761773623747296
0.7765546960290521,10:14:01.474764,10:12:55.434665,0,,0.08404189,0.0056260824,0.012587845,-0.83558536,0.11802127,-0.53653336,0.17403094,0.98321664,-0.05475378,0.52106655,-0.13912505,-0.84210086,,0.06458076,0.0016382039,0.03202501,-0.1394056,0.30883452,0.94084394,-0.01647693,-0.95071346,0.30963284,0.99009836,0.027662396,0.1376234,,0.07743652,1.3301727,0.45621005,0.9982498,0.03672775,-0.04635031,-0.0015659492,-0.7670767,-0.6415536,-0.05911706,0.6405033,-0.7656766,,-0.03743031,0.24216083,-0.075345494,0.78089565,-0.14348403,0.60795915,0.5302133,0.66682583,-0.5236575,-0.33026642,0.73126984,0.59679854,,0.00042016228,0.44643945,-0.31291297,-0.009018426,-0.27110833,-0.9625066,0.6873637,-0.70076513,0.19094343,-0.72625744,-0.6598701,0.19266981,,1.2258293891256564,0.1930219854583674,0.20051143349000003,1.4516834787433621,-0.12051339279311848,-0.6288335536710413,-0.42077431436190327,,-1.2826609803470745,0.23750492681390056,0.19589145593,-2.296314571099026,-1.0572932351849782,0.9403999718575675,0.8033261172483854,,-0.03254166390343428,-0.08714647121364187,0.07824560327999999,-0.058221254136848435,,-8.105859e-05,3.9339066e-06,-5.6028366e-06,1.0,6.943941e-05,5.8084726e-05,-6.943196e-05,0.99999994,5.364418e-06,-5.808845e-05,-5.364418e-06,1.0,259,0.788,0,0,0.0,False,-0.254694774112334,0.9745841157490076
0.7987922891043127,10:14:01.503831,10:12:55.434665,0,,0.0841751,0.00562948,0.013138965,-0.8324282,0.12254181,-0.5404134,0.17741282,0.9828443,-0.05041316,0.5249645,-0.13784176,-0.83988786,,0.064575344,0.0016414821,0.032025248,-0.13937959,0.30831242,0.941019,-0.016495198,-0.95088583,0.30910197,0.99010164,0.027560234,0.13761976,,0.07743652,1.3301727,0.45621005,0.9982498,0.03672775,-0.04635031,-0.0015659492,-0.7670767,-0.6415536,-0.05911706,0.6405033,-0.7656766,,-0.037609972,0.24249652,-0.07576563,0.7772905,-0.1480797,0.61146694,0.5350106,0.66696113,-0.5185812,-0.33103332,0.7302296,0.5976468,,0.00042534762,0.44644263,-0.31291127,-0.009043872,-0.27057034,-0.96265775,0.6873495,-0.7008892,0.19053867,-0.72627056,-0.6599591,0.19231512,,1.2265321578172108,0.19430395911548867,0.20002921361,1.4573451072174441,-0.12228966729006921,-0.6273851209229878,-0.42077431436190327,,-1.2826455348813262,0.23753581774539748,0.19589145593,-2.296314571099026,-1.0572932351849782,0.9409717230385514,0.8012026443886396,,-0.03254166390343428,-0.08714647121364187,0.07824560327999999,-0.058221254136848435,,-8.105859e-05,3.9339066e-06,-5.6028366e-06,1.0,6.943941e-05,5.8084726e-05,-6.943196e-05,0.99999994,5.364418e-06,-5.808845e-05,-5.364418e-06,1.0,267,0.811,0,0,0.0,False,-0.25493308498641865,0.9740047533396539
0.8278189420234412,10:14:01.533277,10:12:55.580174,0,,0.08434924,0.0056174695,0.0136538595,-0.8293074,0.12698276,-0.5441733,0.18049707,0.98250824,-0.045805126,0.52883834,-0.13620839,-0.8377214,,0.06457207,0.0016491562,0.032027334,-0.13947402,0.3082623,0.9410214,-0.016502887,-0.9509016,0.30905297,0.9900882,0.027575374,0.13771327,,0.07743652,1.3301727,0.45621005,0.9982498,0.03672775,-0.04635031,-0.0015659492,-0.7670767,-0.6415536,-0.05911706,0.6405033,-0.7656766,,-0.0378267,0.24279423,-0.07616563,0.773735,-0.15262732,0.6148488,0.5395646,0.6673499,-0.5133363,-0.33197013,0.7289369,0.5987043,,0.0004279505,0.44645002,-0.3129077,-0.008948262,-0.27052245,-0.96267205,0.6873473,-0.70088345,0.19056766,-0.7262738,-0.6599848,0.19221458,,1.2269260171937963,0.19557821003973572,0.19955866034000003,1.462797045748042,-0.12447585128631626,-0.6256024344638451,-0.42077431436190327,,-1.2826609803470745,0.23757443140976858,0.19589275222000002,-2.2965242610425105,-1.0572932351849782,0.9412167592589731,0.8007126121902368,,-0.03254166390343428,-0.08714647121364187,0.07824560327999999,-0.058221254136848435,,-8.105859e-05,3.9339066e-06,-5.6028366e-06,1.0,6.943941e-05,5.8084726e-05,-6.943196e-05,0.99999994,5.364418e-06,-5.808845e-05,-5.364418e-06,1.0,286,0.87,0,0,0.0,False,-0.25576717304571295,0.9729425889225058
0.8573156860657036,10:14:01.587873,10:12:55.580174,0,,0.0847157,0.0055816174,0.014552593,-0.82187325,0.13528645,-0.55337316,0.18364872,0.98245215,-0.032570362,0.5392562,-0.12839514,-0.8322964,,0.06455627,0.0016704947,0.03203234,-0.13951388,0.30826104,0.9410159,-0.016586661,-0.950904,0.30904114,0.9900812,0.027507246,0.13777733,,0.07743652,1.3301727,0.45621005,0.9982498,0.03672775,-0.04635031,-0.0015659492,-0.7670767,-0.6415536,-0.05911706,0.6405033,-0.7656766,,-0.038266666,0.24329706,-0.07687053,0.7653256,-0.16155748,0.62303764,0.54789805,0.6714931,-0.49890354,-0.33776388,0.72318476,0.6024279,,0.00044196978,0.44647077,-0.31289756,-0.008904482,-0.27051097,-0.9626757,0.6872879,-0.70093185,0.19060397,-0.7263305,-0.65993816,0.19216035,,1.2270727491184066,0.1979413662992484,0.19871996071000003,1.4728621630352992,-0.1334938602708353,-0.6181671740797408,-0.4219177228248433,,-1.2826609803470745,0.23771344060150462,0.1958953448,-2.2967339509859954,-1.0572932351849782,0.9414617954793948,0.7982624511982227,,-0.03254166390343428,-0.08714647121364187,0.07824560327999999,-0.058221254136848435,,-8.105859e-05,3.9339066e-06,-5.6028366e-06,1.0,6.943941e-05,5.8084726e-05,-6.943196e-05,0.99999994,5.364418e-06,-5.808845e-05,-5.364418e-06,1.0,294,0.894,0,0,0.0,False,-0.25558843989015,0.9675352064352065
0.9118755600648001,10:14:01.613656,10:12:55.580174,0,,0.08482036,0.005577743,0.014819667,-0.81891966,0.13853787,-0.556936,0.18402594,0.9825726,-0.026177138,0.5436036,-0.12392783,-0.83014274,,0.06454681,0.0016775131,0.032033592,-0.13957539,0.308067,0.9410703,-0.016592413,-0.9509674,0.308846,0.9900725,0.027492732,0.13784319,,0.07743652,1.3301727,0.45621005,0.9982498,0.03672775,-0.04635031,-0.0015659492,-0.7670767,-0.6415536,-0.05911706,0.6405033,-0.7656766,,-0.03839345,0.24345212,-0.07707591,0.76200044,-0.16517949,0.6261558,0.55065954,0.67410535,-0.4922967,-0.34077767,0.719929,0.60462624,,0.00045086094,0.4464779,-0.31289425,-0.008842159,-0.27031454,-0.9627315,0.68728596,-0.7009613,0.19050269,-0.72633314,-0.6599874,0.1919814,,1.2270727491184066,0.19866730318942552,0.19847755448,1.4762172021310513,-0.13772959176356397,-0.6138147529236055,-0.421754378758709,,-1.2826455348813262,0.2377674997316242,0.1958953448,-2.29694364092948,-1.0572932351849782,0.9418701891800976,0.7948322258094028,,-0.03254166390343428,-0.08714647121364187,0.07824560327999999,-0.058221254136848435,,-8.105859e-05,3.9339066e-06,-5.6028366e-06,1.0,6.943941e-05,5.8084726e-05,-6.943196e-05,0.99999994,5.364418e-06,-5.808845e-05,-5.364418e-06,1.0,302,0.919,0,0,0.0,False,-0.2552309735790237,0.9664730420180585
0.93767725804355,10:14:01.636970,10:12:55.580174,0,,0.08489995,0.0055888146,0.0150797665,-0.8144659,0.14397596,-0.56206423,0.18406051,0.98280084,-0.014965057,0.55024266,-0.11564255,-0.8269581,,0.064530335,0.0016982406,0.032039493,-0.13950837,0.30767596,0.9412081,-0.016710967,-0.95109946,0.30843246,0.9900799,0.027300447,0.13782789,,0.07743652,1.3301727,0.45621005,0.9982498,0.03672775,-0.04635031,-0.0015659492,-0.7670767,-0.6415536,-0.05911706,0.6405033,-0.7656766,,-0.03849525,0.24361649,-0.07726755,0.75699973,-0.1713077,0.6305593,0.55446094,0.6790031,-0.48117334,-0.34572306,0.7138686,0.60898864,,0.0004654116,0.44649896,-0.31288528,-0.0089047365,-0.26989424,-0.9628488,0.68719757,-0.70113593,0.1901786,-0.726416,-0.65997386,0.19171411,,1.2270727491184066,0.19937779461385416,0.19825848147000003,1.480830380887711,-0.14442478025207056,-0.6052514835171394,-0.4224077550232461,,-1.2826378121484519,0.23791423165623446,0.19589664109000002,-2.29694364092948,-1.0572932351849782,0.942360261620941,0.7928720970157914,,-0.03254166390343428,-0.08714647121364187,0.07824560327999999,-0.058221254136848435,,-8.105859e-05,3.9339066e-06,-5.6028366e-06,1.0,6.943941e-05,5.8084726e-05,-6.943196e-05,0.99999994,5.364418e-06,-5.808845e-05,-5.364418e-06,1.0,310,0.944,0,0,0.0,False,-0.2543373078012081,0.9655557182032488
0.9609809120884165,10:14:01.664686,10:12:55.580174,0,,0.084989496,0.0056355894,0.01539734,-0.8081217,0.15324593,-0.56873095,0.1831774,0.98306894,0.004609704,0.5598082,-0.100453645,-0.8225106,,0.06452064,0.0017096698,0.032042116,-0.13953207,0.3078117,0.94116026,-0.016613424,-0.95105207,0.30858386,0.9900782,0.027421474,0.13781607,,0.07743652,1.3301727,0.45621005,0.9982498,0.03672775,-0.04635031,-0.0015659492,-0.7670767,-0.6415536,-0.05911706,0.6405033,-0.7656766,,-0.03861323,0.24384367,-0.077480935,0.7499032,-0.18184008,0.63606554,0.55921966,0.68792355,-0.46263874,-0.35343817,0.70263463,0.6175646,,0.00047413964,0.4465102,-0.31287992,-0.00888497,-0.2700483,-0.9628058,0.68726915,-0.70103693,0.19028495,-0.7263485,-0.66001606,0.19182456,,1.2270727491184066,0.2003663044217549,0.19801348266000002,1.4867016993052777,-0.15453588123471315,-0.5893287570703915,-0.42273444315551467,,-1.2826378121484519,0.23799145898497673,0.19589664109000002,-2.2971533308729644,-1.0571565986852127,0.9424122011975257,0.7925454088835229,,-0.03254166390343428,-0.08714647121364187,0.07824560327999999,-0.058221254136848435,,-8.105859e-05,3.9339066e-06,-5.6028366e-06,1.0,6.943941e-05,5.8084726e-05,-6.943196e-05,0.99999994,5.364418e-06,-5.808845e-05,-5.364418e-06,1.0,318,0.967,0,0,0.0,False,-0.23622568137081368,0.9646866745892184
0.9887193710310385,10:14:01.697335,10:12:55.753390,0,,0.08508762,0.0056883097,0.01568161,-0.8006755,0.16522202,-0.5758648,0.18680847,0.9821487,0.022053063,0.56922853,-0.0899193,-0.8172474,,0.06450322,0.001728192,0.032046348,-0.13956186,0.30780795,0.9411571,-0.016683578,-0.95105493,0.30857116,0.9900728,0.027363032,0.13786632,,0.07743652,1.3301727,0.45621005,0.9982498,0.03672775,-0.04635031,-0.0015659492,-0.7670767,-0.6415536,-0.05911706,0.6405033,-0.7656766,,-0.038737144,0.24405397,-0.07766435,0.74154824,-0.1946249,0.6420493,0.5673014,0.6927888,-0.445211,-0.35815543,0.69438094,0.6241473,,0.00048997905,0.44652864,-0.31287134,-0.008851933,-0.27003577,-0.9628096,0.6872194,-0.70107865,0.19031084,-0.726396,-0.6599768,0.19177973,,1.2270650263855323,0.20130075509953607,0.19779440965000003,1.496766816592535,-0.16246079822110868,-0.576332219444754,-0.42110100249417187,,-1.2826223666827035,0.23812274544383852,0.19589793738000003,-2.297363020816449,-1.0571565986852127,0.9426572374179474,0.7914020004205831,,-0.03254166390343428,-0.08714647121364187,0.07824560327999999,-0.058221254136848435,,-8.105859e-05,3.9339066e-06,-5.6028366e-06,1.0,6.943941e-05,5.8084726e-05,-6.943196e-05,0.99999994,5.364418e-06,-5.808845e-05,-5.364418e-06,1.0,334,1.016,0,0,0.0,False,0.187193164158169,0.9649763557938953
1.0213732779957354,10:14:01.738133,10:12:55.753390,0,,0.085192546,0.0057846904,0.015885636,-0.7992405,0.16736728,-0.5772371,0.1839455,0.98247313,0.030173302,0.57217,-0.08206463,-0.8160188,,0.06448531,0.0017527342,0.032054216,-0.13949193,0.30781162,0.94116616,-0.01682505,-0.95105827,0.30855322,0.9900803,0.027205586,0.1378439,,0.07743652,1.3301727,0.45621005,0.9982498,0.03672775,-0.04635031,-0.0015659492,-0.7670767,-0.6415536,-0.05911706,0.6405033,-0.7656766,,-0.038862687,0.24424745,-0.07775772,0.7399793,-0.19744173,0.64299875,0.5667953,0.6977669,-0.43802336,-0.36217913,0.6885769,0.6282421,,0.00050551834,0.44655398,-0.3128612,-0.008916457,-0.27001584,-0.96281457,0.6871142,-0.70118976,0.1902814,-0.7264947,-0.6598669,0.19178385,,1.2270804718512809,0.20235876950330484,0.19765700291000002,1.4963474367055658,-0.16683316621360278,-0.5696630544011272,-0.3952926400449558,,-1.2826223666827035,0.23829264556707147,0.19589923367,-2.297363020816449,-1.0571565986852127,0.9427389161580879,0.7909119682221801,,-0.03254166390343428,-0.08714647121364187,0.07824560327999999,-0.058221254136848435,,-8.105859e-05,3.9339066e-06,-5.6028366e-06,1.0,6.943941e-05,5.8084726e-05,-6.943196e-05,0.99999994,5.364418e-06,-5.808845e-05,-5.364418e-06,1.0,342,1.041,0,0,0.0,False,0.6601210937781308,0.9656522786048078
1.0621456740191206,10:14:01.765126,10:12:55.753390,0,,0.08520619,0.0058041364,0.015913099,-0.79929674,0.1680226,-0.5769689,0.18248631,0.9826423,0.03335601,0.5725586,-0.078627706,-0.81608474,,0.06448116,0.0017582029,0.0320563,-0.13947603,0.3077531,0.9411878,-0.016857207,-0.95107853,0.30848914,0.99008197,0.027161121,0.13784051,,0.07743652,1.3301727,0.45621005,0.9982498,0.03672775,-0.04635031,-0.0015659492,-0.7670767,-0.6415536,-0.05911706,0.6405033,-0.7656766,,-0.03887935,0.24427858,-0.077766255,0.74005836,-0.19839318,0.64261484,0.56590945,0.6999899,-0.4356152,-0.3634008,0.6860425,0.63030595,,0.0005090981,0.44655982,-0.31285918,-0.008931124,-0.26995054,-0.96283275,0.6870903,-0.701227,0.19023044,-0.72651714,-0.65985405,0.19174314,,1.2270727491184066,0.20253639235941198,0.19764274372,1.4952989869881432,-0.1679262582117263,-0.5664847064476202,-0.3776514809024536,,-1.2826223666827035,0.2383312592314426,0.19589923367,-2.297363020816449,-1.0571565986852127,0.9428205948982284,0.7910753122883144,,-0.03254166390343428,-0.08714647121364187,0.07824560327999999,-0.058221254136848435,,-8.105859e-05,3.9339066e-06,-5.6028366e-06,1.0,6.943941e-05,5.8084726e-05,-6.943196e-05,0.99999994,5.364418e-06,-5.808845e-05,-5.364418e-06,1.0,350,1.065,0,0,0.0,False,0.7224989650696529,0.9651694765970131
1.0891613670391962,10:14:01.785636,10:12:55.753390,0,,0.085190974,0.0058099777,0.015931234,-0.79947877,0.16800863,-0.5767206,0.17885888,0.9831227,0.038457483,0.57344836,-0.072405785,-0.81603575,,0.06447675,0.0017603785,0.03205481,-0.13941169,0.30777785,0.9411892,-0.01673913,-0.95106775,0.30852878,0.9900931,0.02725786,0.13774191,,0.07743652,1.3301727,0.45621005,0.9982498,0.03672775,-0.04635031,-0.0015659492,-0.7670767,-0.6415536,-0.05911706,0.6405033,-0.7656766,,-0.038865972,0.2442957,-0.077777304,0.7403034,-0.19892725,0.64216727,0.5636633,0.7042496,-0.43164364,-0.36638036,0.68151337,0.6334864,,0.00051357906,0.44656098,-0.31285697,-0.009001084,-0.26998985,-0.9628211,0.68717366,-0.7011561,0.19019079,-0.72643745,-0.65991336,0.19184107,,1.2270727491184066,0.20258272875665734,0.19763885485000002,1.4925730177228445,-0.17052235170726968,-0.561018937931625,-0.3510263981225661,,-1.282606921216955,0.23835442743006527,0.19589923367,-2.297363020816449,-1.0570199621854472,0.9427908557346725,0.7912386563544487,,-0.03254166390343428,-0.08714647121364187,0.07824560327999999,-0.058221254136848435,,-8.105859e-05,3.9339066e-06,-5.6028366e-06,1.0,6.943941e-05,5.8084726e-05,-6.943196e-05,0.99999994,5.364418e-06,-5.808845e-05,-5.364418e-06,1.0,358,1.091,0,0,0.0,False,0.791370807679967,0.9649763557938953
1.1096706610405818,10:14:01.816061,10:12:55.753390,0,,0.08516264,0.0058047175,0.01594542,-0.79994965,0.16715103,-0.57631683,0.17329518,0.9838499,0.044808835,0.57449913,-0.06402829,-0.8159969,,0.064475924,0.0017614812,0.03205523,-0.13940851,0.30778152,0.94118845,-0.016745567,-0.95106673,0.3085315,0.9900934,0.027251214,0.1377408,,0.07743652,1.3301727,0.45621005,0.9982498,0.03672775,-0.04635031,-0.0015659492,-0.7670767,-0.6415536,-0.05911706,0.6405033,-0.7656766,,-0.03883877,0.24430285,-0.07779283,0.7408967,-0.19881432,0.64151764,0.5600381,0.7101174,-0.42672074,-0.3707147,0.6754303,0.63746727,,0.000514295,0.44656214,-0.31285658,-0.009004017,-0.2699925,-0.96282035,0.6871689,-0.70116043,0.19019206,-0.7264419,-0.6599077,0.1918437,,1.2270495809197839,0.20255956055803467,0.19763755856,1.4881695289096695,-0.17421153720093657,-0.5539267175247935,-0.30104311388547655,,-1.282606921216955,0.2383621501629395,0.19589923367,-2.297363020816449,-1.0570199621854472,0.9427908557346726,0.7915653444867172,,-0.03254166390343428,-0.08714647121364187,0.07824560327999999,-0.058221254136848435,,-8.105859e-05,3.9339066e-06,-5.6028366e-06,1.0,6.943941e-05,5.8084726e-05,-6.943196e-05,0.99999994,5.364418e-06,-5.808845e-05,-5.364418e-06,1.0,366,1.116,0,0,0.0,False,0.9071303147663343,0.9647349547899979
1.1400570990517735,10:14:01.836194,10:12:55.753390,0,,0.08513345,0.005802393,0.015960112,-0.79943305,0.16598386,-0.57736987,0.16964734,0.98433113,0.04808244,0.576304,-0.059510708,-0.8150656,,0.06447331,0.0017614365,0.032054335,-0.13949901,0.3077918,0.9411717,-0.016710043,-0.95106155,0.30854934,0.99008125,0.027315348,0.13781536,,0.07743652,1.3301727,0.45621005,0.9982498,0.03672775,-0.04635031,-0.0015659492,-0.7670767,-0.6415536,-0.05911706,0.6405033,-0.7656766,,-0.038810864,0.24431266,-0.077806905,0.7403692,-0.19805521,0.6423609,0.5582893,0.7134095,-0.42350915,-0.3743882,0.67217636,0.6387585,,0.0005170144,0.4465618,-0.31285614,-0.008914233,-0.27001244,-0.9628156,0.6871979,-0.701114,0.1902583,-0.7264156,-0.6599488,0.19180188,,1.2270418581869096,0.20252866962653776,0.19763755856,1.486072629474824,-0.17776408619483802,-0.5505397795878432,-0.26674085999727803,,-1.2825991984840808,0.2383621501629395,0.19589923367,-2.2975727107599333,-1.0570199621854472,0.9429542132149537,0.7912386563544487,,-0.03254166390343428,-0.08714647121364187,0.07824560327999999,-0.058221254136848435,,-8.105859e-05,3.9339066e-06,-5.6028366e-06,1.0,6.943941e-05,5.8084726e-05,-6.943196e-05,0.99999994,5.364418e-06,-5.808845e-05,-5.364418e-06,1.0,374,1.14,0,0,0.0,False,0.963669569642795,0.9652660369985722
1.1602210080018267,10:14:01.864854,10:12:55.753390,0,,0.08508991,0.005804062,0.01597841,-0.79911023,0.16168259,-0.57903504,0.16277428,0.9853699,0.05050218,0.57872903,-0.053895384,-0.8137369,,0.06447143,0.001761958,0.032054037,-0.13948917,0.30756545,0.9412471,-0.016712725,-0.9511359,0.30832,0.9900825,0.027276516,0.13781342,,0.07743652,1.3301727,0.45621005,0.9982498,0.03672775,-0.04635031,-0.0015659492,-0.7670767,-0.6415536,-0.05911706,0.6405033,-0.7656766,,-0.03876913,0.24432899,-0.07782189,0.7401057,-0.19429058,0.6438127,0.55443925,0.71808153,-0.42066145,-0.38057944,0.66828895,0.6391785,,0.0005188914,0.44656226,-0.31285572,-0.008924025,-0.26978,-0.9628806,0.6871956,-0.70116377,0.19008318,-0.7264176,-0.659991,0.19164884,,1.2270109672554128,0.20251322416078932,0.19764404001000002,1.4814594507181646,-0.1835028191849865,-0.5476571599156859,-0.19944310474995497,,-1.2825914757512065,0.2383698728958137,0.19589923367,-2.2975727107599333,-1.0570199621854472,0.9431992494353754,0.7907486241560459,,-0.03254166390343428,-0.08714647121364187,0.07824560327999999,-0.058221254136848435,,-8.105859e-05,3.9339066e-06,-5.6028366e-06,1.0,6.943941e-05,5.8084726e-05,-6.943196e-05,0.99999994,5.364418e-06,-5.808845e-05,-5.364418e-06,1.0,382,1.165,0,0,0.0,False,1.012046677081874,0.9664730420180585
1.188884080038406,10:14:01.885845,10:12:55.753390,0,,0.085053325,0.005815491,0.01599297,-0.79808587,0.1599962,-0.5809131,0.15819389,0.98591876,0.05420938,0.5814065,-0.048633277,-0.81215835,,0.06446934,0.0017608702,0.032052606,-0.1394759,0.30779725,0.9411733,-0.016705334,-0.9510598,0.30855492,0.9900845,0.027313441,0.13779177,,0.07743652,1.3301727,0.45621005,0.9982498,0.03672775,-0.04635031,-0.0015659492,-0.7670767,-0.6415536,-0.05911706,0.6405033,-0.7656766,,-0.038734388,0.24435002,-0.077827565,0.7390342,-0.1930805,0.6454056,0.5524688,0.72193444,-0.4166401,-0.38549542,0.6644777,0.64020514,,0.00052121334,0.44656077,-0.31285563,-0.0089377435,-0.27001762,-0.9628139,0.6872005,-0.70111483,0.19024584,-0.72641283,-0.65994585,0.19182265,,1.2269955217896644,0.20252866962653776,0.19765570662,1.4791528613398348,-0.1884217331765424,-0.5439728303431769,-0.14619293919018006,,-1.282576030285458,0.2383698728958137,0.19589923367,-2.2975727107599333,-1.0570199621854472,0.9429542132149535,0.7909119682221801,,-0.03254166390343428,-0.08714647121364187,0.07824560327999999,-0.058221254136848435,,-8.105859e-05,3.9339066e-06,-5.6028366e-06,1.0,6.943941e-05,5.8084726e-05,-6.943196e-05,0.99999994,5.364418e-06,-5.808845e-05,-5.364418e-06,1.0,415,1.266,0,0,0.0,False,1.0303966143863525,0.9657005588055874
1.2098831880139187,10:14:01.985979,10:12:55.977798,0,,0.084893286,0.0058751255,0.015900642,-0.7989469,0.1467005,-0.58323467,0.13937351,0.9885556,0.057728946,0.58502877,-0.03516522,-0.8102497,,0.06446014,0.0017575771,0.03204736,-0.13941959,0.30726767,0.94135475,-0.016682029,-0.95123315,0.3080214,0.9900929,0.027240604,0.13774638,,0.07743652,1.3301727,0.45621005,0.9982498,0.03672775,-0.04635031,-0.0015659492,-0.7670767,-0.6415536,-0.05911706,0.6405033,-0.7656766,,-0.03856949,0.24435201,-0.07772509,0.7403071,-0.18109047,0.6474192,0.5401871,0.7335012,-0.41252142,-0.40017906,0.65512,0.64083886,,0.0005312173,0.446556,-0.31285492,-0.008995551,-0.26947653,-0.96296495,0.6872154,-0.7012184,0.18980964,-0.726398,-0.6600569,0.19149625,,1.2269800763239158,0.20237421496905328,0.19782552061000003,1.4644745652959181,-0.2011289276547283,-0.5379399385268595,0.21365403850363718,,-1.2825142484224643,0.23837759562868793,0.19589923367,-2.2975727107599333,-1.0570199621854472,0.9435259643959376,0.7900952478915086,,-0.03254166390343428,-0.08714647121364187,0.07824560327999999,-0.058221254136848435,,-8.105859e-05,3.9339066e-06,-5.6028366e-06,1.0,6.943941e-05,5.8084726e-05,-6.943196e-05,0.99999994,5.364418e-06,-5.808845e-05,-5.364418e-06,1.0,423,1.291,0,0,0.0,False,1.0441590673647108,0.9647349547899979
1.3100160390604287,10:14:02.008771,10:12:55.977798,0,,0.084848866,0.005891204,0.015865788,-0.79870784,0.14334276,-0.58439595,0.13513342,0.98913246,0.057927907,0.58634853,-0.032704115,-0.8093983,,0.0644544,0.0017558634,0.03204426,-0.13949016,0.30743355,0.9412901,-0.016635329,-0.951177,0.3081975,0.99008375,0.027331889,0.13779406,,0.07743652,1.3301727,0.45621005,0.9982498,0.03672775,-0.04635031,-0.0015659492,-0.7670767,-0.6415536,-0.05911706,0.6405033,-0.7656766,,-0.03852291,0.24434644,-0.07768978,0.7401198,-0.17797904,0.6484953,0.53769857,0.73576605,-0.41173843,-0.40386003,0.65343076,0.6402541,,0.0005374199,0.44655347,-0.31285438,-0.008926337,-0.2696563,-0.96291524,0.6872518,-0.70113754,0.18997674,-0.72636443,-0.66006947,0.19158036,,1.2269569081252931,0.20230471037318526,0.19787996479000003,1.4615389060871349,-0.20454484014886434,-0.5372781381781035,0.2995730172902681,,-1.2824833574909675,0.23837759562868793,0.19589923367,-2.2977824007034178,-1.0570199621854472,0.9435259643959377,0.7905852800899116,,-0.03254166390343428,-0.08714647121364187,0.07824560327999999,-0.058221254136848435,,-8.105859e-05,3.9339066e-06,-5.6028366e-06,1.0,6.943941e-05,5.8084726e-05,-6.943196e-05,0.99999994,5.364418e-06,-5.808845e-05,-5.364418e-06,1.0,431,1.315,0,0,0.0,False,1.0444569559573162,0.9643004329829827
1.3327465089969337,10:14:02.036470,10:12:55.977798,0,,0.08477085,0.0059219003,0.015780762,-0.7987907,0.13899615,-0.58533186,0.1294117,0.98986644,0.05845353,0.5875252,-0.029056877,-0.808684,,0.06445021,0.0017537028,0.03204146,-0.1394636,0.30751288,0.94126815,-0.016620457,-0.9511508,0.30827898,0.99008775,0.027349383,0.13776192,,0.07743652,1.3301727,0.45621005,0.9982498,0.03672775,-0.04635031,-0.0015659492,-0.7670767,-0.6415536,-0.05911706,0.6405033,-0.7656766,,-0.03843919,0.24432369,-0.07760777,0.7403223,-0.17399004,0.6493461,0.5339969,0.73897606,-0.4108061,-0.40837508,0.6508777,0.6399906,,0.0005420641,0.44655052,-0.3128542,-0.008953773,-0.26973832,-0.96289206,0.68726164,-0.70111734,0.19001572,-0.7263548,-0.66005737,0.19165844,,1.2269569081252931,0.2021348102499523,0.19799274202000003,1.4571354172739597,-0.20850729864206213,-0.5358439512539998,0.4044399077484754,,-1.2824524665594705,0.23837759562868793,0.19589923367,-2.2977824007034178,-1.0570199621854472,0.943444285655797,0.7909119682221801,,-0.03254166390343428,-0.08714647121364187,0.07824560327999999,-0.058221254136848435,,-8.105859e-05,3.9339066e-06,-5.6028366e-06,1.0,6.943941e-05,5.8084726e-05,-6.943196e-05,0.99999994,5.364418e-06,-5.808845e-05,-5.364418e-06,1.0,443,1.353,0,0,0.0,False,1.0444569559573162,0.9648797953923365
1.360505087999627,10:14:02.067502,10:12:55.977798,0,,0.08468188,0.005940661,0.015691623,-0.7988769,0.13497247,-0.58615535,0.12376532,0.99053156,0.0594061,0.58862364,-0.025087714,-0.80801773,,0.064443104,0.0017515123,0.032037586,-0.13942057,0.30752012,0.9412721,-0.016604602,-0.9511484,0.30828735,0.99009407,0.027352184,0.13771589,,0.07743652,1.3301727,0.45621005,0.9982498,0.03672775,-0.04635031,-0.0015659492,-0.7670767,-0.6415536,-0.05911706,0.6405033,-0.7656766,,-0.038343742,0.24429,-0.0775305,0.74053174,-0.17034732,0.6500727,0.53030515,0.7423067,-0.40958166,-0.4127822,0.6480451,0.6400378,,0.00054974627,0.44654724,-0.31285357,-0.008997861,-0.26974604,-0.96288943,0.6872716,-0.70111465,0.18998954,-0.7263448,-0.66005707,0.19169733,,1.2269800763239158,0.20187996006510292,0.19810551925000003,1.4527319284607847,-0.21233312063549445,-0.5338677523124679,0.5057132287517285,,-1.2824061301622252,0.23838531836156215,0.19589923367,-2.2977824007034178,-1.0570199621854472,0.943444285655797,0.7909119682221801,,-0.03254166390343428,-0.08714647121364187,0.07824560327999999,-0.058221254136848435,,-8.105859e-05,3.9339066e-06,-5.6028366e-06,1.0,6.943941e-05,5.8084726e-05,-6.943196e-05,0.99999994,5.364418e-06,-5.808845e-05,-5.364418e-06,1.0,447,1.365,0,0,0.0,False,1.04409948964619,0.9651694765970131
1.3915411750786006,10:14:02.091424,10:12:55.977798,0,,0.084569685,0.0059608817,0.015563637,-0.7986527,0.13016446,-0.58754665,0.11752033,0.9912647,0.059858233,0.59020567,-0.021242827,-0.8069732,,0.06443683,0.0017481893,0.032033354,-0.13938072,0.30744693,0.94130194,-0.01658231,-0.95117205,0.30821535,0.9901,0.027350336,0.13767323,,0.07743652,1.3301727,0.45621005,0.9982498,0.03672775,-0.04635031,-0.0015659492,-0.7670767,-0.6415536,-0.05911706,0.6405033,-0.7656766,,-0.038221918,0.24423514,-0.07742313,0.74041414,-0.16591573,0.6513516,0.52642465,0.745678,-0.40846226,-0.41792822,0.64531875,0.63945264,,0.0005567127,0.4465428,-0.31285334,-0.009039016,-0.26967245,-0.9629097,0.6872863,-0.7011231,0.18990484,-0.72633034,-0.6600781,0.19167966,,1.2269723535910417,0.20150926888714013,0.19825848147000003,1.4481187497041252,-0.21697876162751942,-0.5322848695705847,0.5966958735885222,,-1.2823597937649798,0.23838531836156215,0.19589923367,-2.2977824007034178,-1.0570199621854472,0.9435259643959377,0.7907486241560459,,-0.03254166390343428,-0.08714647121364187,0.07824560327999999,-0.058221254136848435,,-8.105859e-05,3.9339066e-06,-5.6028366e-06,1.0,6.943941e-05,5.8084726e-05,-6.943196e-05,0.99999994,5.364418e-06,-5.808845e-05,-5.364418e-06,1.0,459,1.402,0,0,0.0,False,1.0449931554240055,0.9654108776009105
1.4154621500056237,10:14:02.128596,10:12:56.185440,0,,0.084437735,0.0059571713,0.015414387,-0.7986969,0.12454975,-0.5887024,0.11062381,0.9920614,0.05980277,0.5914774,-0.017360419,-0.8061346,,0.06443286,0.0017476529,0.032031626,-0.13935763,0.30760616,0.9412533,-0.016577572,-0.95112,0.30837625,0.99010336,0.0273709,0.13764518,,0.07743652,1.3301727,0.45621005,0.9982498,0.03672775,-0.04635031,-0.0015659492,-0.7670767,-0.6415536,-0.05911706,0.6405033,-0.7656766,,-0.0380777,0.24415006,-0.077315144,0.7406152,-0.1606866,0.6524331,0.5218668,0.7491893,-0.40788522,-0.42325425,0.6425692,0.638718,,0.0005609118,0.44654173,-0.31285283,-0.009062527,-0.26983497,-0.9628639,0.68728894,-0.70109296,0.19000691,-0.7263276,-0.6600438,0.19180825,,1.2269569081252931,0.2009609548530702,0.19842181401000003,1.4426668111735277,-0.22162440261954441,-0.530783665568842,0.6692206389521421,,-1.282336625566357,0.2383930410944364,0.19589923367,-2.2977824007034178,-1.0570199621854472,0.9433626069156564,0.790748624156046,,-0.03254166390343428,-0.08714647121364187,0.07824560327999999,-0.058221254136848435,,-8.105859e-05,3.9339066e-06,-5.6028366e-06,1.0,6.943941e-05,5.8084726e-05,-6.943196e-05,0.99999994,5.364418e-06,-5.808845e-05,-5.364418e-06,1.0,467,1.427,0,0,0.0,False,1.0443378005202737,0.96545915780169
1.4526175260543823,10:14:02.148023,10:12:56.185440,0,,0.084342256,0.005959034,0.015290424,-0.7987213,0.121404365,-0.5893261,0.106702685,0.99248844,0.059842378,0.59216434,-0.015085459,-0.8056759,,0.06443286,0.0017476529,0.032031626,-0.13935763,0.30760616,0.9412533,-0.016577572,-0.95112,0.30837625,0.99010336,0.0273709,0.13764518,,0.07743652,1.3301727,0.45621005,0.9982498,0.03672775,-0.04635031,-0.0015659492,-0.7670767,-0.6415536,-0.05911706,0.6405033,-0.7656766,,-0.03797216,0.24408206,-0.07722173,0.7407319,-0.15776499,0.6530134,0.5192528,0.75120384,-0.40751606,-0.4262544,0.6409392,0.63836056,,0.0005609118,0.44654173,-0.31285283,-0.009062527,-0.26983497,-0.9628639,0.68728894,-0.70109296,0.19000691,-0.7263276,-0.6600438,0.19180825,,1.226949185392419,0.20054392727786208,0.19855403559,1.4395214620212597,-0.22422049611508776,-0.5297285490204374,0.7108733758163834,,-1.282336625566357,0.2383930410944364,0.19589923367,-2.2977824007034178,-1.0570199621854472,0.9433626069156564,0.790748624156046,,-0.03254166390343428,-0.08714647121364187,0.07824560327999999,-0.058221254136848435,,-8.105859e-05,3.9339066e-06,-5.6028366e-06,1.0,6.943941e-05,5.8084726e-05,-6.943196e-05,0.99999994,5.364418e-06,-5.808845e-05,-5.364418e-06,1.0,496,1.516,0,0,0.0,False,1.0444569559573162,0.9658936796087052
1.472058096085675,10:14:02.236131,10:12:56.185440,0,,0.08362505,0.006024793,0.014344439,-0.799955,0.09641317,-0.5922638,0.078786075,0.995339,0.05561447,0.5948652,-0.0021732152,-0.8038224,,0.06442767,0.0017525405,0.032032937,-0.1393351,0.3074713,0.94130075,-0.016606033,-0.95116514,0.3082354,0.99010605,0.02731675,0.13763656,,0.07743652,1.3301727,0.45621005,0.9982498,0.03672775,-0.04635031,-0.0015659492,-0.7670767,-0.6415536,-0.05911706,0.6405033,-0.7656766,,-0.03718012,0.24360217,-0.07647612,0.7428041,-0.13409153,0.6559433,0.4993628,0.76356465,-0.40939695,-0.4459584,0.6316554,0.63413924,,0.0005656523,0.44654682,-0.31285074,-0.009084051,-0.26969182,-0.96290386,0.6872675,-0.7011445,0.18989412,-0.7263476,-0.6600475,0.19171967,,1.2271113627827777,0.19761701151853098,0.19958199356000003,1.415616808464024,-0.24034360308740974,-0.5259742915004244,0.8443254778480895,,-1.282328902833483,0.2384316547588075,0.19589923367,-2.2977824007034178,-1.0570199621854472,0.9435259643959376,0.791402000420583,,-0.03254166390343428,-0.08714647121364187,0.07824560327999999,-0.058221254136848435,,-8.105859e-05,3.9339066e-06,-5.6028366e-06,1.0,6.943941e-05,5.8084726e-05,-6.943196e-05,0.99999994,5.364418e-06,-5.808845e-05,-5.364418e-06,1.0,508,1.553,0,0,0.0,False,1.045946398920342,0.9649763557938953
1.5601665250724182,10:14:02.270301,10:12:56.310919,0,,0.08329587,0.006102875,0.0138742775,-0.80037254,0.08543167,-0.59338444,0.06825647,0.99634373,0.051380992,0.5956044,0.0006214678,-0.8032775,,0.06442662,0.0017519891,0.03203222,-0.13932845,0.30739504,0.94132656,-0.016602367,-0.9511902,0.30815867,0.99010706,0.027307093,0.13763131,,0.07743652,1.3301727,0.45621005,0.9982498,0.03672775,-0.04635031,-0.0015659492,-0.7670767,-0.6415536,-0.05911706,0.6405033,-0.7656766,,-0.036815364,0.24339665,-0.07607582,0.7435619,-0.12343451,0.6571754,0.49168214,0.7670058,-0.4122509,-0.45317137,0.6296555,0.63100684,,0.0005668134,0.44654608,-0.3128507,-0.00909091,-0.26961404,-0.96292555,0.6872699,-0.7011589,0.18983229,-0.72634524,-0.66006404,0.19167179,,1.227258094707388,0.1963968197244035,0.20010569472000003,1.4063904509507048,-0.24608233607755825,-0.5269305726148734,0.8640901098503371,,-1.2823211801006087,0.2384316547588075,0.19589923367,-2.2977824007034178,-1.0570199621854472,0.9436076431360781,0.7912386563544487,,-0.03254166390343428,-0.08714647121364187,0.07824560327999999,-0.058221254136848435,,-8.105859e-05,3.9339066e-06,-5.6028366e-06,1.0,6.943941e-05,5.8084726e-05,-6.943196e-05,0.99999994,5.364418e-06,-5.808845e-05,-5.364418e-06,1.0,516,1.578,0,0,0.0,False,1.046244287512947,0.9644935537861006
1.5943405670113862,10:14:02.292715,10:12:56.310919,0,,0.08296235,0.0061567575,0.013408676,-0.8013839,0.07564874,-0.5933473,0.05884859,0.9971291,0.047647,0.59524834,0.0032657087,-0.8035351,,0.06442767,0.0017525405,0.032032937,-0.1393351,0.30724066,0.94137603,-0.016606033,-0.95124066,0.30800235,0.99010605,0.027283043,0.13764326,,0.07743652,1.3301727,0.45621005,0.9982498,0.03672775,-0.04635031,-0.0015659492,-0.7670767,-0.6415536,-0.05911706,0.6405033,-0.7656766,,-0.03644575,0.24317555,-0.07569448,0.744961,-0.11394957,0.657304,0.4842381,0.77008265,-0.41531458,-0.45885348,0.62768483,0.6288603,,0.0005656523,0.44654682,-0.31285074,-0.009084051,-0.26945588,-0.9629699,0.6872675,-0.701191,0.18972231,-0.7263476,-0.66009444,0.19155791,,1.2274743312278662,0.1950685096700369,0.20061124782000003,1.3973737833808704,-0.250044794570756,-0.5272116392337215,0.8711139046941112,,-1.282328902833483,0.2384316547588075,0.19589923367,-2.2977824007034178,-1.0570199621854472,0.9437710006163593,0.7909119682221801,,-0.03254166390343428,-0.08714647121364187,0.07824560327999999,-0.058221254136848435,,-8.105859e-05,3.9339066e-06,-5.6028366e-06,1.0,6.943941e-05,5.8084726e-05,-6.943196e-05,0.99999994,5.364418e-06,-5.808845e-05,-5.364418e-06,1.0,528,1.615,0,0,0.0,False,1.046065554357384,0.9655074380024695
1.616677590063773,10:14:02.337068,10:12:56.310919,0,,0.082551,0.006196305,0.012897193,-0.8031596,0.06556477,-0.5921451,0.049809247,0.99783576,0.042925507,0.593678,0.0049815476,-0.80468714,,0.06442391,0.0017536134,0.03203234,-0.13931546,0.30740297,0.9413259,-0.016611516,-0.95118785,0.30816507,0.9901087,0.02729541,0.1376216,,0.07743652,1.3301727,0.45621005,0.9982498,0.03672775,-0.04635031,-0.0015659492,-0.7670767,-0.6415536,-0.05911706,0.6405033,-0.7656766,,-0.03599419,0.24292114,-0.075289816,0.74721026,-0.104082875,0.65638673,0.47638574,0.7725437,-0.41980088,-0.4633934,0.6263728,0.62683624,,0.00056940626,0.4465477,-0.31284988,-0.009103635,-0.2696202,-0.9629237,0.68726283,-0.7011664,0.18983023,-0.7263518,-0.66005355,0.19168311,,1.2279685861318166,0.1934003993692044,0.20116476365000002,1.387728045980582,-0.25223097856700305,-0.527960993718936,0.8712772487602455,,-1.2823134573677344,0.23845482295743017,0.19589923367,-2.2977824007034178,-1.0570199621854472,0.9435259643959376,0.7909119682221801,,-0.03254166390343428,-0.08714647121364187,0.07824560327999999,-0.058221254136848435,,-8.105859e-05,3.9339066e-06,-5.6028366e-06,1.0,6.943941e-05,5.8084726e-05,-6.943196e-05,0.99999994,5.364418e-06,-5.808845e-05,-5.364418e-06,1.0,536,1.64,0,0,0.0,False,1.045886821201821,0.9655074380024695
1.6611019560368732,10:14:02.352486,10:12:56.310919,0,,0.08245098,0.0062022954,0.012783557,-0.80319715,0.06367041,-0.59230083,0.048237383,0.997958,0.041864306,0.59375703,0.0050540566,-0.80462843,,0.064423084,0.0017546862,0.032032758,-0.13931227,0.30771413,0.94122475,-0.016617894,-0.95108616,0.30847853,0.990109,0.027333677,0.13761152,,0.07743652,1.3301727,0.45621005,0.9982498,0.03672775,-0.04635031,-0.0015659492,-0.7670767,-0.6415536,-0.05911706,0.6405033,-0.7656766,,-0.035885166,0.2428632,-0.07520202,0.7473014,-0.10220767,0.65657765,0.47521755,0.77284193,-0.42057532,-0.46444473,0.62631375,0.62611675,,0.00057012215,0.44654885,-0.31284946,-0.009106568,-0.26993746,-0.9628348,0.68725806,-0.7011087,0.19006057,-0.72635627,-0.6599852,0.19190139,,1.2280998725906784,0.1929910945268705,0.20128920749,1.3862602163761906,-0.25291416106583026,-0.528302370342,0.8707872165618427,,-1.2823134573677344,0.23845482295743017,0.19589923367,-2.2977824007034178,-1.0570199621854472,0.9432809281755159,0.7918920326189858,,-0.03254166390343428,-0.08714647121364187,0.07824560327999999,-0.058221254136848435,,-8.105859e-05,3.9339066e-06,-5.6028366e-06,1.0,6.943941e-05,5.8084726e-05,-6.943196e-05,0.99999994,5.364418e-06,-5.808845e-05,-5.364418e-06,1.0,569,1.741,0,0,0.0,False,1.0457080880462577,0.9651694765970131
1.6765247930306941,10:14:02.461542,10:12:56.438324,0,,0.081711516,0.006219238,0.011849344,-0.80327034,0.048372995,-0.59364706,0.033471406,0.9987876,0.036095053,0.59467334,0.009123772,-0.80391556,,0.064378105,0.0017488301,0.032018453,-0.13936368,0.30720776,0.94138247,-0.016683102,-0.9512533,0.3079592,0.99010074,0.027213186,0.13769533,,0.07743446,1.3301725,0.45620814,0.9982498,0.03672558,-0.04635213,-0.0015687734,-0.76707673,-0.6415534,-0.05911706,0.6405033,-0.7656766,,-0.035067745,0.24235584,-0.074498706,0.74786437,-0.08735255,0.6580794,0.4643272,0.77730334,-0.42449945,-0.47444618,0.62303215,0.6218776,,0.00061927276,0.4465419,-0.3128486,-0.00905176,-0.2694152,-0.9629816,0.68721247,-0.7012433,0.18972856,-0.7264001,-0.6600556,0.19149296,,1.2287949185493587,0.189739823986822,0.20228475821000003,1.372840059993181,-0.26015589555339863,-0.5277880182953668,0.8717672809586483,,-1.2823057346348603,0.23846254569030442,0.19589923367,-2.2977824007034178,-1.0570199621854472,0.9437710006163593,0.7909119682221801,,-0.03254166390343428,-0.08714647121364187,0.07824560327999999,-0.058221254136848435,,-8.3010644e-05,2.7418137e-06,-4.053116e-06,1.0,6.727874e-05,5.627051e-05,-6.726757e-05,0.99999994,5.155802e-06,-5.6274235e-05,-5.185604e-06,1.0,577,1.766,0,0,0.0,False,1.0447548445499213,0.9651211963962336
1.7855748709989712,10:14:02.486647,10:12:56.557094,0,,0.08163493,0.006224975,0.011649907,-0.8024531,0.047734953,-0.59480274,0.031701267,0.9987978,0.037388474,0.5958724,0.011146426,-0.80300164,,0.06437972,0.0017516315,0.032019228,-0.13937378,0.30713332,0.9414052,-0.01669702,-0.951278,0.3078823,0.99009913,0.027192146,0.13771139,,0.07743446,1.3301725,0.45620814,0.9982498,0.03672558,-0.04635213,-0.0015687734,-0.76707673,-0.6415534,-0.05911706,0.6405033,-0.7656766,,-0.034974743,0.24224213,-0.07434347,0.7470168,-0.08688981,0.6591025,0.46363318,0.7786275,-0.422828,-0.47645587,0.62144136,0.6219328,,0.00061745575,0.4465442,-0.31284705,-0.009040974,-0.2693375,-0.9630034,0.68720275,-0.70126545,0.1896817,-0.72640944,-0.6600637,0.19142962,,1.2285400683645091,0.18926101454862007,0.20247660913,1.3720013002192428,-0.2624787160494111,-0.5258122351923872,0.8719306250247827,,-1.2823211801006087,0.23847026842317864,0.19590052996,-2.2977824007034178,-1.0570199621854472,0.9438526793564999,0.7907486241560457,,-0.03254166390343428,-0.08714647121364187,0.07824560327999999,-0.058221254136848435,,-8.3010644e-05,2.7418137e-06,-4.053116e-06,1.0,6.727874e-05,5.627051e-05,-6.726757e-05,0.99999994,5.155802e-06,-5.6274235e-05,-5.185604e-06,1.0,585,1.79,0,0,0.0,False,1.0424313135276013,0.9643004329829827
1.8106746540870517,10:14:02.512747,10:12:56.557094,0,,0.08160251,0.006232664,0.011529565,-0.80232537,0.046369463,-0.59508306,0.029879868,0.99884796,0.037545413,0.5961385,0.012342513,-0.8027867,,0.064377934,0.0017505288,0.032017857,-0.13946745,0.3072937,0.941339,-0.016655028,-0.9512235,0.30805287,0.99008656,0.027285397,0.13778268,,0.07743446,1.3301725,0.45620814,0.9982498,0.03672558,-0.04635213,-0.0015687734,-0.76707673,-0.6415534,-0.05911706,0.6405033,-0.7656766,,-0.034932517,0.24217565,-0.07424657,0.74693704,-0.085634016,0.6593572,0.4623742,0.7795273,-0.42254847,-0.47780243,0.62048686,0.6218528,,0.0006194596,0.44654274,-0.31284702,-0.008948244,-0.2695121,-0.9629554,0.68723655,-0.70118374,0.18986127,-0.72637856,-0.66007924,0.19149293,,1.2283392773097794,0.18903705529526754,0.20259068265000002,1.370533470614851,-0.2638450810470655,-0.5250247711159851,0.8712772487602456,,-1.2823134573677344,0.23846254569030442,0.19590052996,-2.2979920906469022,-1.0570199621854472,0.9438526793564999,0.7907486241560457,,-0.03254166390343428,-0.08714647121364187,0.07824560327999999,-0.058221254136848435,,-8.3010644e-05,2.7418137e-06,-4.053116e-06,1.0,6.727874e-05,5.627051e-05,-6.726757e-05,0.99999994,5.155802e-06,-5.6274235e-05,-5.185604e-06,1.0,593,1.816,0,0,0.0,False,1.033494655749446,0.9646383943884391
1.836783324019052,10:14:02.532819,10:12:56.557094,0,,0.081585675,0.006247893,0.011424646,-0.80226994,0.045418747,-0.59523106,0.02885139,0.9988862,0.037332565,0.5962637,0.0127774775,-0.8026868,,0.064379856,0.0017515719,0.03202054,-0.1395222,0.30735686,0.9413102,-0.016792357,-0.9512061,0.30809903,0.99007654,0.027179867,0.13787557,,0.07743446,1.3301725,0.45620814,0.9982498,0.03672558,-0.04635213,-0.0015687734,-0.76707673,-0.6415534,-0.05911706,0.6405033,-0.7656766,,-0.03490741,0.24212337,-0.07415624,0.7469107,-0.08472594,0.6595043,0.46164912,0.7799079,-0.42263904,-0.47854412,0.6201332,0.6216352,,0.00061712635,0.44654506,-0.312848,-0.008887155,-0.26955944,-0.9629427,0.68713886,-0.7012522,0.18996191,-0.7264718,-0.65998715,0.1914569,,1.2281462089879238,0.1888980461035315,0.20269049698000002,1.369694710840913,-0.2646649000456581,-0.52484633613465,0.8683370555698284,,-1.282328902833483,0.23846254569030442,0.19590052996,-2.2979920906469022,-1.0571565986852127,0.9438007397799153,0.7904219360237772,,-0.03254166390343428,-0.08714647121364187,0.07824560327999999,-0.058221254136848435,,-8.3010644e-05,2.7418137e-06,-4.053116e-06,1.0,6.727874e-05,5.627051e-05,-6.726757e-05,0.99999994,5.155802e-06,-5.6274235e-05,-5.185604e-06,1.0,601,1.841,0,0,0.0,False,1.0273581507417795,0.9647349547899979
1.8568553720833734,10:14:02.561821,10:12:56.557094,0,,0.0815631,0.0062748343,0.011292353,-0.8019662,0.043398097,-0.59579086,0.02755168,0.9989834,0.03568104,0.5967337,0.012199879,-0.8023465,,0.06438278,0.001751557,0.032021552,-0.13953865,0.30742887,0.94128436,-0.01679343,-0.9511824,0.3081721,0.9900743,0.02719462,0.13788949,,0.07743446,1.3301725,0.45620814,0.9982498,0.03672558,-0.04635213,-0.0015687734,-0.76707673,-0.6415534,-0.05911706,0.6405033,-0.7656766,,-0.03487472,0.24206357,-0.07403755,0.7466183,-0.0826687,0.6600962,0.4609079,0.77979106,-0.42366242,-0.4797135,0.62055767,0.6203089,,0.0006140884,0.44654536,-0.31284848,-0.008870503,-0.26963374,-0.9629221,0.6871387,-0.7012347,0.19002707,-0.72647214,-0.6599754,0.19149607,,1.2279068042688228,0.18875131417892124,0.20282142227000002,1.3688559510669749,-0.2660312650433126,-0.5261008405617621,0.8573930031388317,,-1.2823443482992314,0.23845482295743017,0.19590052996,-2.2979920906469022,-1.0571565986852127,0.9437190610397748,0.790258591957643,,-0.03254166390343428,-0.08714647121364187,0.07824560327999999,-0.058221254136848435,,-8.3010644e-05,2.7418137e-06,-4.053116e-06,1.0,6.727874e-05,5.627051e-05,-6.726757e-05,0.99999994,5.155802e-06,-5.6274235e-05,-5.185604e-06,1.0,609,1.865,0,0,0.0,False,1.0156213401931358,0.9645901141876596
1.8858550090808421,10:14:02.591946,10:12:56.557094,0,,0.08151863,0.0063080937,0.01118879,-0.80061215,0.040660605,-0.5978016,0.024882466,0.9990903,0.034630895,0.598666,0.012851,-0.8008956,,0.064378805,0.0017510206,0.032019824,-0.13951555,0.30743432,0.941286,-0.016788691,-0.9511807,0.30817768,0.9900776,0.027192682,0.1378659,,0.07743446,1.3301725,0.45620814,0.9982498,0.03672558,-0.04635213,-0.0015687734,-0.76707673,-0.6415534,-0.05911706,0.6405033,-0.7656766,,-0.034822904,0.24202843,-0.073938094,0.7452084,-0.080002695,0.66201514,0.45992887,0.780509,-0.42340422,-0.48283532,0.62000424,0.6184374,,0.0006182874,0.44654432,-0.31284797,-0.008894014,-0.26963893,-0.9629204,0.6871413,-0.70123553,0.19001462,-0.7264694,-0.65997237,0.19151685,,1.2277446268784642,0.1886431959186821,0.20294327353000002,1.3678075013495523,-0.269583814037214,-0.52679783963184,0.8449788541126264,,-1.2823211801006087,0.23846254569030442,0.19590052996,-2.2979920906469022,-1.0571565986852127,0.9437190610397748,0.790258591957643,,-0.03254166390343428,-0.08714647121364187,0.07824560327999999,-0.058221254136848435,,-8.3010644e-05,2.7418137e-06,-4.053116e-06,1.0,6.727874e-05,5.627051e-05,-6.726757e-05,0.99999994,5.155802e-06,-5.6274235e-05,-5.185604e-06,1.0,617,1.89,0,0,0.0,False,1.005135661733434,0.963769350774409
1.9159362760838121,10:14:02.613439,10:12:56.672714,0,,0.08149403,0.0063335896,0.01111801,-0.8003558,0.03983762,-0.5982002,0.024377584,0.99912703,0.033921927,0.5990294,0.012566805,-0.8006283,,0.06437798,0.0017521232,0.03202024,-0.13951237,0.30736113,0.94131035,-0.016795129,-0.95120484,0.3081027,0.9900779,0.0271748,0.137867,,0.07743446,1.3301725,0.45620814,0.9982498,0.03672558,-0.04635213,-0.0015687734,-0.76707673,-0.6415534,-0.05911706,0.6405033,-0.7656766,,-0.03479337,0.24200606,-0.07386815,0.74494165,-0.07916054,0.66241646,0.45974237,0.7804287,-0.42375463,-0.4834242,0.6202134,0.6177673,,0.0006190033,0.44654548,-0.31284755,-0.008896948,-0.26956296,-0.96294165,0.68713653,-0.7012554,0.1899586,-0.72647387,-0.6599823,0.19146557,,1.2276905677483445,0.18857369132281407,0.20302234722,1.3675978114060678,-0.2702669965360412,-0.5273842524753256,0.8413852846576724,,-1.2823211801006087,0.23847026842317864,0.19590052996,-2.2979920906469022,-1.0571565986852127,0.9438007397799153,0.7904219360237772,,-0.03254166390343428,-0.08714647121364187,0.07824560327999999,-0.058221254136848435,,-8.3010644e-05,2.7418137e-06,-4.053116e-06,1.0,6.727874e-05,5.627051e-05,-6.726757e-05,0.99999994,5.155802e-06,-5.6274235e-05,-5.185604e-06,1.0,642,1.966,0,0,0.0,False,0.9947691387107742,0.9638659111759678
1.9374510321067646,10:14:02.683633,10:12:56.672714,0,,0.08143766,0.006358415,0.010952696,-0.8005782,0.03907927,-0.59795254,0.022738516,0.9991337,0.03485471,0.5987966,0.014307201,-0.80077326,,0.06438068,0.0017504692,0.03202012,-0.13952537,0.30773756,0.9411854,-0.01678598,-0.9510813,0.3084848,0.99007624,0.02724278,0.13786562,,0.07743446,1.3301725,0.45620814,0.9982498,0.03672558,-0.04635213,-0.0015687734,-0.76707673,-0.6415534,-0.05911706,0.6405033,-0.7656766,,-0.034724135,0.24192682,-0.07372657,0.74524593,-0.07855386,0.66214633,0.45834264,0.78158385,-0.42314145,-0.48428348,0.6188344,0.6184768,,0.0006164105,0.4465439,-0.31284842,-0.008884222,-0.26995,-0.96283334,0.6871436,-0.70117027,0.19024703,-0.7264673,-0.6599146,0.19172378,,1.2275438358237343,0.18828022747359355,0.20318697605000002,1.3659202918581916,-0.2709501790348684,-0.5256836605948758,0.8008759562563711,,-1.282328902833483,0.23845482295743017,0.19590052996,-2.2979920906469022,-1.0571565986852127,0.9433923460792124,0.7892785275608374,,-0.03254166390343428,-0.08714647121364187,0.07824560327999999,-0.058221254136848435,,-8.3010644e-05,2.7418137e-06,-4.053116e-06,1.0,6.727874e-05,5.627051e-05,-6.726757e-05,0.99999994,5.155802e-06,-5.6274235e-05,-5.185604e-06,1.0,650,1.991,0,0,0.0,False,0.9086793354478813,0.9631899883650552
2.0076709940331057,10:14:02.705115,10:12:56.672714,0,,0.081434704,0.006348327,0.010922343,-0.800289,0.038524497,-0.5983757,0.02146262,0.9991348,0.035621196,0.5992302,0.015664458,-0.8004234,,0.064379856,0.0017515719,0.03202054,-0.1395222,0.30766436,0.9412098,-0.016792357,-0.95110536,0.3084098,0.99007654,0.027224928,0.13786675,,0.07743446,1.3301725,0.45620814,0.9982498,0.03672558,-0.04635213,-0.0015687734,-0.76707673,-0.6415534,-0.05911706,0.6405033,-0.7656766,,-0.03471822,0.24190027,-0.073709466,0.7449701,-0.078117065,0.6625083,0.45759848,0.7824786,-0.42229244,-0.4854103,0.61775804,0.6186694,,0.00061712635,0.44654506,-0.312848,-0.008887155,-0.26987404,-0.9628546,0.68713886,-0.7011901,0.19019102,-0.7264718,-0.65992457,0.1916725,,1.2274125493648724,0.1882030001448513,0.20321030927000003,1.3650815320842535,-0.2721799075327574,-0.5245992207214674,0.7706573040215295,,-1.282328902833483,0.23846254569030442,0.19590052996,-2.2979920906469022,-1.0571565986852127,0.9434740248193529,0.789115183494703,,-0.03254166390343428,-0.08714647121364187,0.07824560327999999,-0.058221254136848435,,-8.3010644e-05,2.7418137e-06,-4.053116e-06,1.0,6.727874e-05,5.627051e-05,-6.726757e-05,0.99999994,5.155802e-06,-5.6274235e-05,-5.185604e-06,1.0,658,2.016,0,0,0.0,False,0.8508293707639583,0.9619347031447893
2.029114962089807,10:14:02.733850,10:12:56.672714,0,,0.08144345,0.006336078,0.010909751,-0.7998729,0.03655557,-0.59905505,0.021011978,0.99923706,0.032919765,0.5998014,0.013744146,-0.8000307,,0.0643809,0.0017521381,0.032021254,-0.13952883,0.3077406,0.94118387,-0.016796112,-0.9510804,0.30848652,0.9900756,0.027234614,0.13787198,,0.07743446,1.3301725,0.45620814,0.9982498,0.03672558,-0.04635213,-0.0015687734,-0.76707673,-0.6415534,-0.05911706,0.6405033,-0.7656766,,-0.034725383,0.24188218,-0.07370701,0.7445246,-0.075997256,0.6632553,0.45757052,0.781523,-0.42408848,-0.48611966,0.6192304,0.6166372,,0.0006159653,0.4465458,-0.31284803,-0.008880296,-0.26995182,-0.96283287,0.68713635,-0.70117575,0.19025286,-0.72647417,-0.659908,0.19172037,,1.2272812629060106,0.18816438648048017,0.20321419814000002,1.3650815320842535,-0.2731363630311155,-0.527249802481496,0.7461556941013877,,-1.282336625566357,0.23846254569030442,0.19590052996,-2.2979920906469022,-1.0571565986852127,0.9433923460792124,0.7892785275608374,,-0.03254166390343428,-0.08714647121364187,0.07824560327999999,-0.058221254136848435,,-8.3010644e-05,2.7418137e-06,-4.053116e-06,1.0,6.727874e-05,5.627051e-05,-6.726757e-05,0.99999994,5.155802e-06,-5.6274235e-05,-5.185604e-06,1.0,666,2.041,0,0,0.0,False,0.8120442760067657,0.9623209447510253
2.057881665066816,10:14:02.763612,10:12:56.672714,0,,0.081442535,0.00632295,0.01091297,-0.79725707,0.035060816,-0.6026208,0.019177467,0.999279,0.032767117,0.60333514,0.014566928,-0.7973547,,0.064380065,0.0017532259,0.03202167,-0.13952565,0.30751365,0.9412585,-0.01680258,-0.951155,0.30825618,0.99007595,0.027194142,0.13787751,,0.07743446,1.3301725,0.45620814,0.9982498,0.03672558,-0.04635213,-0.0015687734,-0.76707673,-0.6415534,-0.05911706,0.6405033,-0.7656766,,-0.03472424,0.24187405,-0.0737178,0.74169004,-0.07458067,0.66658354,0.4581345,0.78219396,-0.42223856,-0.48990676,0.61855507,0.6143135,,0.0006166812,0.44654697,-0.31284764,-0.0088832285,-0.26971856,-0.9628982,0.6871316,-0.7012267,0.1900823,-0.7264787,-0.65994924,0.1915613,,1.2270495809197839,0.18814894101473173,0.20321679072,1.3659202918581916,-0.2780552770226713,-0.5276494099160153,0.703032860641938,,-1.282336625566357,0.23847026842317864,0.19590052996,-2.2979920906469022,-1.0571565986852127,0.9436373822996342,0.7881351190978974,,-0.03254166390343428,-0.08714647121364187,0.07824560327999999,-0.058221254136848435,,-8.3010644e-05,2.7418137e-06,-4.053116e-06,1.0,6.727874e-05,5.627051e-05,-6.726757e-05,0.99999994,5.155802e-06,-5.6274235e-05,-5.185604e-06,1.0,674,2.066,0,0,0.0,False,0.7349507082405484,0.9614036209362153
2.087649338063784,10:14:02.785216,10:12:56.672714,0,,0.08146162,0.0063124746,0.010902375,-0.7967937,0.034173172,-0.6032843,0.0191499,0.999326,0.03131458,0.6039479,0.0133983195,-0.7969111,,0.0643792,0.0017526597,0.032019705,-0.13947755,0.30760372,0.94123626,-0.016668916,-0.9511223,0.30836445,0.9900849,0.027320594,0.13778761,,0.07743446,1.3301725,0.45620814,0.9982498,0.03672558,-0.04635213,-0.0015687734,-0.76707673,-0.6415534,-0.05911706,0.6405033,-0.7656766,,-0.03474194,0.24185772,-0.073715374,0.74117756,-0.07359926,0.66726226,0.4584571,0.7815747,-0.42303425,-0.49038035,0.6194546,0.61302775,,0.0006178533,0.44654536,-0.3128467,-0.008937458,-0.26982766,-0.96286714,0.68722683,-0.70112836,0.19010074,-0.72638786,-0.66000915,0.19169913,,1.2268874035294253,0.1881412182818575,0.20321679072,1.3663396717451608,-0.2788750960212639,-0.529186228477632,0.6718341440102906,,-1.282328902833483,0.23847026842317864,0.19590052996,-2.2979920906469022,-1.0570199621854472,0.9435259643959377,0.7881351190978974,,-0.03254166390343428,-0.08714647121364187,0.07824560327999999,-0.058221254136848435,,-8.3010644e-05,2.7418137e-06,-4.053116e-06,1.0,6.727874e-05,5.627051e-05,-6.726757e-05,0.99999994,5.155802e-06,-5.6274235e-05,-5.185604e-06,1.0,682,2.09,0,0,0.0,False,0.6648277335412924,0.961162219932318
2.1092222050065175,10:14:02.811579,10:12:56.672714,0,,0.081498824,0.0062966943,0.010882422,-0.79632986,0.033879504,-0.603913,0.018370181,0.9993241,0.031838775,0.6045835,0.014260054,-0.796414,,0.0643792,0.0017526597,0.032019705,-0.13947755,0.30760372,0.94123626,-0.016668916,-0.9511223,0.30836445,0.9900849,0.027320594,0.13778761,,0.07743446,1.3301725,0.45620814,0.9982498,0.03672558,-0.04635213,-0.0015687734,-0.76707673,-0.6415534,-0.05911706,0.6405033,-0.7656766,,-0.034776673,0.2418299,-0.07370822,0.74069166,-0.07338014,0.66782576,0.45820987,0.7821359,-0.4222643,-0.4913447,0.61877203,0.612945,,0.0006178533,0.44654536,-0.3128467,-0.008937458,-0.26982766,-0.96286714,0.68722683,-0.70112836,0.19010074,-0.72638786,-0.66000915,0.19169913,,1.2265939396802046,0.18815666374760595,0.20321808701000002,1.366129981801676,-0.2802414610189184,-0.5285621218815111,0.6169505377891727,,-1.282328902833483,0.23847026842317864,0.19590052996,-2.2979920906469022,-1.0570199621854472,0.9435259643959376,0.7878084309656288,,-0.03254166390343428,-0.08714647121364187,0.07824560327999999,-0.058221254136848435,,-8.3010644e-05,2.7418137e-06,-4.053116e-06,1.0,6.727874e-05,5.627051e-05,-6.726757e-05,0.99999994,5.155802e-06,-5.6274235e-05,-5.185604e-06,1.0,711,2.179,0,0,0.0,False,0.646716107110898,0.9607759783260825
2.135611330042593,10:14:02.894893,10:12:56.882912,0,,0.08160285,0.006243482,0.010838255,-0.7945628,0.031553354,-0.6063615,0.016382605,0.9993992,0.030538619,0.6069608,0.014330953,-0.7946025,,0.06437815,0.001752153,0.03201899,-0.13947092,0.3076812,0.94121194,-0.01666516,-0.9510968,0.30844307,0.99008596,0.027333409,0.13777791,,0.07743446,1.3301725,0.45620814,0.9982498,0.03672558,-0.04635213,-0.0015687734,-0.76707673,-0.6415534,-0.05911706,0.6405033,-0.7656766,,-0.03487444,0.24175233,-0.073703036,0.73880655,-0.07107308,0.67015934,0.45800355,0.78243244,-0.42193863,-0.49436593,0.61866635,0.61061794,,0.0006190144,0.44654465,-0.31284666,-0.008944318,-0.26990718,-0.9628448,0.68722934,-0.7011116,0.19015345,-0.7263855,-0.65999436,0.19175908,,1.2257598845297883,0.18817983194622862,0.20320901298000002,1.366129981801676,-0.28461382901141247,-0.5297341158913782,0.49182898313031476,,-1.2823211801006087,0.23847026842317864,0.19590052996,-2.2979920906469022,-1.0570199621854472,0.9434442856557971,0.7866650225026888,,-0.03254166390343428,-0.08714647121364187,0.07824560327999999,-0.058221254136848435,,-8.3010644e-05,2.7418137e-06,-4.053116e-06,1.0,6.727874e-05,5.627051e-05,-6.726757e-05,0.99999994,5.155802e-06,-5.6274235e-05,-5.185604e-06,1.0,715,2.192,0,0,0.0,False,0.5892831864566221,0.960727698125303
2.218928968999535,10:14:02.917839,10:12:56.882912,0,,0.08165893,0.006216243,0.010815725,-0.79388994,0.029471539,-0.6073468,0.01464203,0.99946165,0.029359698,0.6078851,0.014415473,-0.79389405,,0.06437954,0.0017533153,0.03201863,-0.13947755,0.30775744,0.94118595,-0.016668916,-0.95107186,0.30851984,0.9900849,0.027343154,0.13778314,,0.07743446,1.3301725,0.45620814,0.9982498,0.03672558,-0.04635213,-0.0015687734,-0.76707673,-0.6415534,-0.05911706,0.6405033,-0.7656766,,-0.034927312,0.24171244,-0.073700316,0.73812485,-0.06900995,0.6711254,0.457173,0.7827072,-0.4223296,-0.49614978,0.6185524,0.6092851,,0.00061764254,0.44654503,-0.31284547,-0.008937458,-0.26998496,-0.96282303,0.68722683,-0.70109725,0.19021527,-0.72638786,-0.65997785,0.19180694,,1.2253196887559576,0.18821072287772553,0.20320382782000002,1.365291222027738,-0.2869366495074249,-0.5306170886933181,0.4558932885807734,,-1.282328902833483,0.23847026842317864,0.19590182625000002,-2.2979920906469022,-1.0570199621854472,0.9433626069156564,0.7868283665688232,,-0.03254166390343428,-0.08714647121364187,0.07824560327999999,-0.058221254136848435,,-8.3010644e-05,2.7418137e-06,-4.053116e-06,1.0,6.727874e-05,5.627051e-05,-6.726757e-05,0.99999994,5.155802e-06,-5.6274235e-05,-5.185604e-06,1.0,727,2.229,0,0,0.0,False,0.5622349022480733,0.9607759783260825
2.241851344006136,10:14:02.947093,10:12:57.020716,0,,0.08173579,0.006186411,0.010785446,-0.79327685,0.028133454,-0.60821074,0.013426065,0.99949723,0.028721482,0.60871303,0.014618099,-0.7932557,,0.06438016,0.0017505884,0.03201714,-0.13947727,0.30775076,0.9411882,-0.016652316,-0.95107365,0.30851534,0.99008524,0.027357966,0.13777791,,0.07743446,1.3301725,0.45620814,0.9982498,0.03672558,-0.04635213,-0.0015687734,-0.76707673,-0.6415534,-0.05911706,0.6405033,-0.7656766,,-0.035000112,0.24166395,-0.07369232,0.7374907,-0.06769633,0.6719558,0.45669457,0.782973,-0.42235455,-0.4975314,0.6183612,0.6083518,,0.0006173719,0.44654197,-0.31284624,-0.008938452,-0.26998046,-0.9628243,0.6872389,-0.7010874,0.19020818,-0.7263765,-0.65999013,0.19180772,,1.2247790974547619,0.1882647820078451,0.20319734637000003,1.3648718421407688,-0.28898619700390654,-0.5310694673815264,0.42289778722164884,,-1.2823211801006087,0.23845482295743017,0.19590182625000002,-2.2979920906469022,-1.0570199621854472,0.9433626069156564,0.7868283665688232,,-0.03254166390343428,-0.08714647121364187,0.07824560327999999,-0.058221254136848435,,-8.3010644e-05,2.7418137e-06,-4.053116e-06,1.0,6.727874e-05,5.627051e-05,-6.726757e-05,0.99999994,5.155802e-06,-5.6274235e-05,-5.185604e-06,1.0,735,2.254,0,0,0.0,False,0.5338163305135404,0.9604862971214057
2.2711077560670674,10:14:02.973431,10:12:57.020716,0,,0.08181029,0.006161645,0.010751769,-0.7941868,0.025985818,-0.60711783,0.011650145,0.9995527,0.027542919,0.607562,0.014801085,-0.79413426,,0.06438016,0.0017505884,0.03201714,-0.13947727,0.30752015,0.9412636,-0.016652316,-0.9511492,0.3082823,0.99008524,0.0273242,0.13778463,,0.07743446,1.3301725,0.45620814,0.9982498,0.03672558,-0.04635213,-0.0015687734,-0.76707673,-0.6415534,-0.05911706,0.6405033,-0.7656766,,-0.035070464,0.24161747,-0.07367863,0.73856294,-0.065575786,0.6709878,0.45467252,0.7833094,-0.42390954,-0.49779284,0.6181636,0.6083388,,0.0006173719,0.44654197,-0.31284624,-0.008938452,-0.26974455,-0.96289045,0.6872389,-0.701134,0.19003639,-0.7263765,-0.6600371,0.19164598,,1.2243389016809312,0.18833428660371312,0.20319216121000003,1.3625652527624392,-0.289122833503672,-0.531529800658814,0.40215309082259554,,-1.2823211801006087,0.23845482295743017,0.19590182625000002,-2.2979920906469022,-1.0570199621854472,0.9436076431360781,0.7866650225026889,,-0.03254166390343428,-0.08714647121364187,0.07824560327999999,-0.058221254136848435,,-8.3010644e-05,2.7418137e-06,-4.053116e-06,1.0,6.727874e-05,5.627051e-05,-6.726757e-05,0.99999994,5.155802e-06,-5.6274235e-05,-5.185604e-06,1.0,743,2.279,0,0,0.0,False,0.5112959529125902,0.9598103743104931
2.297416976070963,10:14:03.002713,10:12:57.020716,0,,0.081945315,0.0061261207,0.010699108,-0.7949471,0.025284328,-0.6061515,0.010848552,0.99956375,0.027467191,0.60658157,0.015258938,-0.79487467,,0.06437807,0.0017494857,0.03201571,-0.13946399,0.30736753,0.9413154,-0.016644925,-0.95119905,0.3081288,0.9900873,0.027304828,0.13777412,,0.07743446,1.3301725,0.45620814,0.9982498,0.03672558,-0.04635213,-0.0015687734,-0.76707673,-0.6415534,-0.05911706,0.6405033,-0.7656766,,-0.035199054,0.24154574,-0.0736544,0.73943424,-0.06491675,0.6700916,0.45350116,0.78366244,-0.42451134,-0.4975677,0.6177856,0.6089067,,0.000619694,0.44654047,-0.31284615,-0.008952171,-0.26958892,-0.9629339,0.6872438,-0.7011627,0.1899127,-0.7263717,-0.6600702,0.19155024,,1.2235743511263828,0.18847329579544916,0.2031804946,1.3613071131015322,-0.28925947000343744,-0.5311733465346958,0.3706276860586796,,-1.2823057346348603,0.23845482295743017,0.19590182625000002,-2.2979920906469022,-1.0570199621854472,0.9437710006163593,0.7860116462381517,,-0.03254166390343428,-0.08714647121364187,0.07824560327999999,-0.058221254136848435,,-8.3010644e-05,2.7418137e-06,-4.053116e-06,1.0,6.727874e-05,5.627051e-05,-6.726757e-05,0.99999994,5.155802e-06,-5.6274235e-05,-5.185604e-06,1.0,751,2.303,0,0,0.0,False,0.4801368061260898,0.9595206931058164
2.326742211007513,10:14:03.025957,10:12:57.020716,0,,0.082038224,0.0060966164,0.010660335,-0.79636794,0.023743706,-0.60434616,0.009357899,0.99959314,0.026941001,0.60474,0.015799403,-0.79626614,,0.064377934,0.0017505288,0.032017857,-0.13946745,0.3072937,0.941339,-0.016655028,-0.9512235,0.30805287,0.99008656,0.027285397,0.13778268,,0.07743446,1.3301725,0.45620814,0.9982498,0.03672558,-0.04635213,-0.0015687734,-0.76707673,-0.6415534,-0.05911706,0.6405033,-0.7656766,,-0.03528712,0.24149087,-0.07363893,0.7410629,-0.06342999,0.66843283,0.451312,0.7841512,-0.42593938,-0.49713507,0.61731964,0.60973203,,0.0006194596,0.44654274,-0.31284702,-0.008948244,-0.2695121,-0.9629554,0.68723655,-0.70118374,0.18986127,-0.72637856,-0.66007924,0.19149293,,1.2230723734895583,0.18855824585706563,0.20317012428000003,1.3587908337797179,-0.28857628750461023,-0.5309136486517723,0.35069970999029754,,-1.2823134573677344,0.23846254569030442,0.19590052996,-2.2979920906469022,-1.0570199621854472,0.9438526793564999,0.7858483021720175,,-0.03254166390343428,-0.08714647121364187,0.07824560327999999,-0.058221254136848435,,-8.3010644e-05,2.7418137e-06,-4.053116e-06,1.0,6.727874e-05,5.627051e-05,-6.726757e-05,0.99999994,5.155802e-06,-5.6274235e-05,-5.185604e-06,1.0,776,2.38,0,0,0.0,False,0.4543396540064819,0.9592792921019193
2.3499944150680676,10:14:03.097557,10:12:57.162292,0,,0.08240504,0.0060131997,0.010573953,-0.79950815,0.024421873,-0.6001586,0.012003511,0.9996231,0.024686396,0.6005353,0.01253283,-0.79949987,,0.06437584,0.0017494112,0.032016486,-0.13945417,0.30714116,0.9413908,-0.016647547,-0.9512733,0.30789936,0.9900886,0.027265996,0.13777217,,0.07743446,1.3301725,0.45620814,0.9982498,0.03672558,-0.04635213,-0.0015687734,-0.76707673,-0.6415534,-0.05911706,0.6405033,-0.7656766,,-0.035641775,0.24134156,-0.07360889,0.74444544,-0.06382836,0.6646254,0.4510026,0.782078,-0.43005887,-0.492339,0.61990315,0.61100113,,0.00062178174,0.44654125,-0.31284696,-0.008961963,-0.2693565,-0.96299887,0.6872415,-0.7012124,0.18973757,-0.72637373,-0.6601123,0.19139718,,1.221342481325732,0.18899844163089644,0.20308845801000003,1.3585811438362332,-0.284477192511647,-0.5330310046605565,0.26853764472475505,,-1.282298011901986,0.23846254569030442,0.19590052996,-2.2979920906469022,-1.0570199621854472,0.944016036836781,0.7848682377752118,,-0.03254166390343428,-0.08714647121364187,0.07824560327999999,-0.058221254136848435,,-8.3010644e-05,2.7418137e-06,-4.053116e-06,1.0,6.727874e-05,5.627051e-05,-6.726757e-05,0.99999994,5.155802e-06,-5.6274235e-05,-5.185604e-06,1.0,784,2.405,0,0,0.0,False,0.3701563377362618,0.9579274464800942
2.421593750012107,10:14:03.126650,10:12:57.162292,0,,0.08257034,0.0059861094,0.010576978,-0.8009899,0.027424753,-0.59804934,0.017006814,0.9995893,0.023060292,0.5984361,0.008300096,-0.80112743,,0.06437078,0.0017466843,0.032011718,-0.1393795,0.30723366,0.9413717,-0.016499102,-0.9512396,0.3080114,0.99010164,0.027398735,0.1376524,,0.07743446,1.3301725,0.45620814,0.9982498,0.03672558,-0.04635213,-0.0015687734,-0.76707673,-0.6415534,-0.05911706,0.6405033,-0.7656766,,-0.035805564,0.24130863,-0.07362132,0.74590695,-0.066456586,0.66272646,0.45370075,0.7791582,-0.43251383,-0.4876253,0.62329453,0.61133087,,0.0006275984,0.4465367,-0.31284586,-0.009043628,-0.269469,-0.9629666,0.6873466,-0.70110935,0.18973775,-0.7262733,-0.66017586,0.19155915,,1.2207787218259136,0.1892455690828716,0.20301716206000003,1.3617264929885011,-0.2802414610189184,-0.5355864935335994,0.23407204677042215,,-1.282259398237615,0.23846254569030442,0.19590052996,-2.2979920906469022,-1.0568833256856818,0.9439046189330845,0.7838881733784062,,-0.03254166390343428,-0.08714647121364187,0.07824560327999999,-0.058221254136848435,,-8.3010644e-05,2.7418137e-06,-4.053116e-06,1.0,6.727874e-05,5.627051e-05,-6.726757e-05,0.99999994,5.155802e-06,-5.6274235e-05,-5.185604e-06,1.0,792,2.43,0,0,0.0,False,0.3442996078981335,0.95652732065749
2.45067435503006,10:14:03.148971,10:12:57.162292,0,,0.08274666,0.005972475,0.010583863,-0.80355316,0.032210156,-0.59436077,0.023686916,0.99947417,0.022140622,0.5947615,0.0037124753,-0.80389357,,0.06436765,0.0017450154,0.032009512,-0.13935958,0.30669722,0.94154954,-0.016487956,-0.9514148,0.30747032,0.99010456,0.027324766,0.13764556,,0.07743446,1.3301725,0.45620814,0.9982498,0.03672558,-0.04635213,-0.0015687734,-0.76707673,-0.6415534,-0.05911706,0.6405033,-0.7656766,,-0.035981182,0.24128765,-0.07362782,0.7485148,-0.07082624,0.6593248,0.45680732,0.7758049,-0.43526298,-0.4806794,0.6269852,0.61305535,,0.0006310817,0.44653445,-0.31284574,-0.009064206,-0.2689209,-0.9631196,0.6873539,-0.7012142,0.18932314,-0.7262661,-0.660288,0.1911998,,1.22031535785346,0.1895544783978406,0.20294068095,1.365291222027738,-0.27340963603064633,-0.5375635241522357,0.20205660980810347,,-1.2822362300389922,0.23846254569030442,0.19590052996,-2.2979920906469022,-1.0568833256856818,0.9444763701140686,0.7824180767831976,,-0.03254166390343428,-0.08714647121364187,0.07824560327999999,-0.058221254136848435,,-8.3010644e-05,2.7418137e-06,-4.053116e-06,1.0,6.727874e-05,5.627051e-05,-6.726757e-05,0.99999994,5.155802e-06,-5.6274235e-05,-5.185604e-06,1.0,800,2.455,0,0,0.0,False,0.32553262656400817,0.9555134364411215
2.4729714700952172,10:14:03.169209,10:12:57.162292,0,,0.08281554,0.005967781,0.0105865,-0.8048626,0.034609497,-0.5924511,0.026743978,0.999399,0.022049844,0.5928582,0.001902461,-0.8053045,,0.0643666,0.0017445236,0.032008857,-0.13935295,0.3066209,0.94157535,-0.016484171,-0.95143974,0.30739355,0.99010557,0.02731511,0.13764033,,0.07743446,1.3301725,0.45620814,0.9982498,0.03672558,-0.04635213,-0.0015687734,-0.76707673,-0.6415534,-0.05911706,0.6405033,-0.7656766,,-0.0360498,0.24127989,-0.07362994,0.7498629,-0.073058166,0.657547,0.45810205,0.77441615,-0.43637383,-0.47733438,0.6284442,0.61417407,,0.0006322428,0.44653374,-0.31284568,-0.009071065,-0.26884308,-0.96314126,0.6873564,-0.70122844,0.1892613,-0.72626364,-0.6603045,0.1911519,,1.2201686259288498,0.18967031939095397,0.20290956999,1.3667590516321297,-0.26999372353651035,-0.5380619670207105,0.18261866593812415,,-1.282228507306118,0.23846254569030442,0.19590052996,-2.2979920906469022,-1.0568833256856818,0.9445580488542091,0.7812746683202577,,-0.03254166390343428,-0.08714647121364187,0.07824560327999999,-0.058221254136848435,,-8.3010644e-05,2.7418137e-06,-4.053116e-06,1.0,6.727874e-05,5.627051e-05,-6.726757e-05,0.99999994,5.155802e-06,-5.6274235e-05,-5.185604e-06,1.0,808,2.48,0,0,0.0,False,0.3109360855263552,0.9550789146341063
2.4932466900208965,10:14:03.199404,10:12:57.162292,0,,0.08299523,0.0059607476,0.010608211,-0.8083755,0.040025607,-0.58730483,0.032846898,0.9991982,0.02288571,0.58774996,-0.00079101324,-0.80904216,,0.06436369,0.0017444938,0.032007843,-0.1393365,0.3066258,0.9415762,-0.016483217,-0.95143825,0.30739817,0.99010795,0.027311653,0.13762423,,0.07743446,1.3301725,0.45620814,0.9982498,0.03672558,-0.04635213,-0.0015687734,-0.76707673,-0.6415534,-0.05911706,0.6405033,-0.7656766,,-0.036230285,0.24127302,-0.07364364,0.7535604,-0.07821366,0.6527092,0.45994437,0.7721267,-0.43848786,-0.4696784,0.630637,0.61781806,,0.0006352809,0.4465334,-0.3128452,-0.009087715,-0.26884744,-0.9631399,0.68735653,-0.70123047,0.18925342,-0.72626334,-0.6603006,0.19116662,,1.2197979347508872,0.19004873330179095,0.20282142227000002,1.3688559510669749,-0.26193217005034936,-0.5378562879071327,0.15648361535663957,,-1.2822130618403695,0.23847026842317864,0.19590052996,-2.2979920906469022,-1.0568833256856818,0.9445580488542091,0.7812746683202577,,-0.03254166390343428,-0.08714647121364187,0.07824560327999999,-0.058221254136848435,,-8.3010644e-05,2.7418137e-06,-4.053116e-06,1.0,6.727874e-05,5.627051e-05,-6.726757e-05,0.99999994,5.155802e-06,-5.6274235e-05,-5.185604e-06,1.0,816,2.504,0,0,0.0,False,0.28984557316990944,0.954837513630209
