AlexandreBanks6/ExpertPlaybackApp/resources/Motions/P_10/PC1/Data_PC1_7.csv
Task Time,PC1 Time,PC2 Time,Gaze Calib,s_T_psm1,Tx,Ty,Tz,R00,R01,R02,R10,R11,R12,R20,R21,R22,s_T_psm3,Tx,Ty,Tz,R00,R01,R02,R10,R11,R12,R20,R21,R22,cart_T_ecm,Tx,Ty,Tz,R00,R01,R02,R10,R11,R12,R20,R21,R22,ecm_T_psm1,Tx,Ty,Tz,R00,R01,R02,R10,R11,R12,R20,R21,R22,ecm_T_psm3,Tx,Ty,Tz,R00,R01,R02,R10,R11,R12,R20,R21,R22,psm1_joints,q1,q2,q3,q4,q5,q6,jaw,psm3_joints,q1,q2,q3,q4,q5,q6,jaw,ecm_joints,q1,q2,q3,q4,ecmi_T_ecm,Tx,Ty,Tz,R00,R01,R02,R10,R11,R12,R20,R21,R22,Sample #,Task Duration (s),Collisions (binary),Collisions (increments),Cumulative Collision Time (s),Clutch Press,MTMR Angle,MTML Angle
""
lci_T_si,,,,,-0.063657075,0.025385704,0.2469648,0.99608046,0.04609189,0.0754932,0.084081955,-0.75835806,-0.6463925,0.02745742,0.6502066,-0.75926113
rci_T_si,,,,,-0.07441909,0.030183764,0.26059738,0.9968228,0.032426473,0.07275223,0.07222477,-0.75309837,-0.6539315,0.033584893,0.65710837,-0.7530476
ecm_T_lc,,,,,-4.4061628e-05,-0.00034663224,-0.01840835,-0.99912,0.030754527,0.028518902,-0.031987965,-0.99852574,-0.043852776,0.027128186,-0.04472645,0.9986309
ecm_T_rc,,,,,-0.0043358393,0.01870579,-0.007592615,-0.99555075,-0.052743673,-0.078081585,0.04863213,-0.9973746,0.053654674,-0.08070653,0.04961868,0.9955021
cart_T_ecmi,,,,,0.07751704,1.3301718,0.45619854,0.9982497,0.036658186,-0.046408493,-0.0016564787,-0.76707995,-0.64154935,-0.05911706,0.6405033,-0.7656766
ecmac_T_ecmrep_psm1,,,,,0.0028397094,-0.24236576,-0.3123762,0.99938005,0.032352094,0.013886033,-0.031258944,0.9968569,-0.072795466,-0.016197473,0.07231628,0.9972502
ecmac_T_ecmrep_psm3,,,,,-0.018767226,-0.44603547,-0.53896165,0.9994355,-0.013331066,-0.030837692,0.013906483,0.9997318,0.01852092,0.030582517,-0.018939309,0.9993528
""
0,10:10:38.249308,10:09:32.290895,0,,0.09082438,0.012005329,0.02647172,-0.32039708,0.46362516,-0.8260734,0.040872842,0.8779986,0.47691488,0.9464011,0.119038135,-0.30025792,,0.070620656,0.014211804,0.02532351,0.11039223,0.30586454,0.9456533,0.11593318,-0.94893634,0.29339278,0.98710334,0.07724443,-0.14021508,,0.07742777,1.3301693,0.4562074,0.9982498,0.036738615,-0.046341226,-0.0015518091,-0.76707613,-0.64155424,-0.05911706,0.6405033,-0.7656766,,-0.04560353,0.25521845,-0.0818327,0.2368834,-0.5055128,0.82966447,0.64946413,0.7175104,0.2517444,-0.72255284,0.4792032,0.49827868,,-0.0050478685,0.4500091,-0.29888967,-0.2606985,-0.27561405,-0.92524225,0.74672455,-0.66501963,-0.01230077,-0.611914,-0.6941079,0.3791774,,1.2169173553888013,0.25366860671965247,0.19326517239000002,1.873160265147256,-0.7281359072500322,-0.3948934618631355,-0.4116270466583837,,-1.3185407972807217,0.2723498975424016,0.20779658329000003,-2.013862217225372,-0.7823805976569119,0.7292957480428575,0.8170470188036648,,-0.03254166390343428,-0.08714647121364187,0.07824560327999999,-0.058221254136848435,,-8.963421e-05,4.529953e-06,-1.0728836e-06,0.99999994,8.028746e-05,6.715581e-05,-8.0280006e-05,0.99999994,6.198883e-06,-6.715953e-05,-6.198883e-06,1.0,37,0.111,0,0,0.0,False,-0.25540970673458663,0.9910959444155825
0.12134192604571581,10:10:38.279455,10:09:32.290895,0,,0.09102357,0.012331545,0.026784554,-0.31850496,0.47695097,-0.81918997,0.02969423,0.8687923,0.49428532,0.9474559,0.13310689,-0.29087752,,0.07062412,0.014212489,0.02532363,0.110376544,0.3059359,0.94563204,0.115930915,-0.948914,0.29346594,0.98710537,0.077236325,-0.14020531,,0.07742777,1.3301693,0.4562074,0.9982498,0.036738615,-0.046341226,-0.0015518091,-0.76707613,-0.64155424,-0.05911706,0.6405033,-0.7656766,,-0.045841023,0.25565052,-0.08186209,0.23533992,-0.5196234,0.82134444,0.64128405,0.7180354,0.27051777,-0.73032176,0.46305147,0.5022086,,-0.0050513335,0.4500092,-0.29888898,-0.2606832,-0.27568424,-0.9252256,0.7467264,-0.66501874,-0.012239012,-0.6119183,-0.6940809,0.3792199,,1.2170409191147888,0.2562866131640146,0.19321202450000002,1.8681277065036273,-0.7372905527343167,-0.37378811271200146,-0.4121170788567866,,-1.31855624274647,0.2723421748095273,0.20779787958,-2.013862217225372,-0.7823805976569119,0.7292140693027169,0.8168836747375305,,-0.03254166390343428,-0.08714647121364187,0.07824560327999999,-0.058221254136848435,,-8.963421e-05,4.529953e-06,-1.0728836e-06,0.99999994,8.028746e-05,6.715581e-05,-8.0280006e-05,0.99999994,6.198883e-06,-6.715953e-05,-6.198883e-06,1.0,48,0.144,0,0,0.0,False,-0.2544564632382502,0.9920615484311714
0.15148833906278014,10:10:38.314040,10:09:32.290895,0,,0.09120266,0.012649551,0.027070642,-0.31769004,0.4859817,-0.8141835,0.014559448,0.861066,0.50828457,0.9480827,0.14962277,-0.28062782,,0.07062684,0.014213294,0.0253219,0.1103674,0.3060081,0.94560975,0.115932405,-0.9488912,0.29353896,0.9871062,0.0772298,-0.140203,,0.07742777,1.3301693,0.4562074,0.9982498,0.036738615,-0.046341226,-0.0015518091,-0.76707613,-0.64155424,-0.05911706,0.6405033,-0.7656766,,-0.046055917,0.2560612,-0.08187667,0.23505758,-0.52972287,0.81494886,0.62985414,0.721596,0.2873725,-0.7402916,0.44574985,0.5032647,,-0.0050538,0.4500082,-0.29888698,-0.26067436,-0.27575555,-0.92520684,0.74672925,-0.66501653,-0.012182319,-0.6119185,-0.69405466,0.3792675,,1.2170409191147888,0.25888917414262824,0.19319646902,1.8584819691033392,-0.7489046552143791,-0.35312760349854877,-0.4126071110551893,,-1.3185639654793444,0.27233445207665313,0.20780047216000003,-2.013862217225372,-0.7823805976569119,0.7291323905625764,0.8167203306713963,,-0.03254166390343428,-0.08714647121364187,0.07824560327999999,-0.058221254136848435,,-8.963421e-05,4.529953e-06,-1.0728836e-06,0.99999994,8.028746e-05,6.715581e-05,-8.0280006e-05,0.99999994,6.198883e-06,-6.715953e-05,-6.198883e-06,1.0,56,0.169,0,0,0.0,False,-0.2547543518308557,0.9925443504389662
0.18607281905133277,10:10:38.340593,10:09:32.410467,0,,0.09135006,0.012911066,0.027297363,-0.31614617,0.49310353,-0.8104938,0.002129078,0.8546777,0.5191545,0.94870806,0.16240299,-0.27125305,,0.07065366,0.014203548,0.025320172,0.11316398,0.30374712,0.94600815,0.11423352,-0.9497881,0.29129586,0.9869876,0.07510176,-0.14217998,,0.07742777,1.3301693,0.4562074,0.9982498,0.036738615,-0.046341226,-0.0015518091,-0.76707613,-0.64155424,-0.05911706,0.6405033,-0.7656766,,-0.046232034,0.25639358,-0.08188206,0.23394555,-0.5376554,0.81005937,0.6204627,0.72402203,0.30136046,-0.7485289,0.43210968,0.50297683,,-0.0050796503,0.4499965,-0.29889044,-0.26335165,-0.2731687,-0.9252161,0.7450639,-0.66682,-0.01519585,-0.61280155,-0.6933469,0.3791363,,1.217010028183292,0.26098975748441733,0.19319517273000003,1.8513525110248654,-0.7590157561970217,-0.3371231983116601,-0.41048363819544376,,-1.3185794109450928,0.2723498975424016,0.20780436103000002,-2.0092490384687127,-0.7823805976569119,0.7279888882006085,0.818353771332739,,-0.03254166390343428,-0.08714647121364187,0.07824560327999999,-0.058221254136848435,,-8.963421e-05,4.529953e-06,-1.0728836e-06,0.99999994,8.028746e-05,6.715581e-05,-8.0280006e-05,0.99999994,6.198883e-06,-6.715953e-05,-6.198883e-06,1.0,68,0.205,0,0,0.0,False,-0.254694774112334,0.9939927564623499
0.21261710405815393,10:10:38.370055,10:09:32.410467,0,,0.09157707,0.013297871,0.027579412,-0.31418535,0.5029006,-0.8052194,-0.010830671,0.8462155,0.53273064,0.9492998,0.17609704,-0.26042187,,0.070668116,0.014201105,0.025324225,0.113884166,0.30353695,0.94598913,0.11253855,-0.9499969,0.29127476,0.98709947,0.07328877,-0.14234926,,0.07742777,1.3301693,0.4562074,0.9982498,0.036738615,-0.046341226,-0.0015518091,-0.76707613,-0.64155424,-0.05911706,0.6405033,-0.7656766,,-0.04649693,0.25685117,-0.08184825,0.23244159,-0.5482494,0.80336386,0.6106045,0.7251851,0.3182274,-0.7570555,0.41656834,0.5033267,,-0.005094432,0.44999564,-0.2988939,-0.26401183,-0.27268273,-0.92517126,0.74383503,-0.66818756,-0.0153247705,-0.61400914,-0.6922207,0.37924036,,1.2169868599846694,0.26393211870949684,0.19320813563000003,1.8448521227768453,-0.7695367666789606,-0.31866089217002763,-0.411300358526115,,-1.3185794109450928,0.2723498975424016,0.20781084248,-2.007152139033867,-0.7834736896550355,0.7265115479661036,0.8191704916634104,,-0.03254166390343428,-0.08714647121364187,0.07824560327999999,-0.058221254136848435,,-8.963421e-05,4.529953e-06,-1.0728836e-06,0.99999994,8.028746e-05,6.715581e-05,-8.0280006e-05,0.99999994,6.198883e-06,-6.715953e-05,-6.198883e-06,1.0,75,0.226,0,0,0.0,False,-0.254694774112334,0.9946686792732624
0.2420896040275693,10:10:38.400658,10:09:32.410467,0,,0.091772355,0.013694033,0.027868405,-0.31515068,0.51076,-0.7998776,-0.029410124,0.83716583,0.54615784,0.94858575,0.1956464,-0.24881195,,0.070668444,0.014209077,0.025345385,0.111990616,0.30531493,0.94564295,0.110219955,-0.9495742,0.29353106,0.9875777,0.07135606,-0.1399952,,0.07742777,1.3301693,0.4562074,0.9982498,0.036738615,-0.046341226,-0.0015518091,-0.76707613,-0.64155424,-0.05911706,0.6405033,-0.7656766,,-0.046731204,0.257323,-0.0818153,0.23417836,-0.5573899,0.7965406,0.59581065,0.72971,0.33545938,-0.7682253,0.39603007,0.5029811,,-0.005098227,0.4500158,-0.29890335,-0.26211902,-0.27416867,-0.9252703,0.7427593,-0.66945016,-0.012049536,-0.6161187,-0.6904115,0.37911692,,1.2169945827175437,0.2671061619208031,0.19324443175000003,1.829964136789444,-0.7822439611571466,-0.2942502838220837,-0.4122804229229209,,-1.3185716882122185,0.2723498975424016,0.20781732393000002,-2.0077812088643205,-0.7864796926498753,0.7248788048403969,0.8198238679279476,,-0.03254166390343428,-0.08714647121364187,0.07824560327999999,-0.058221254136848435,,-8.963421e-05,4.529953e-06,-1.0728836e-06,0.99999994,8.028746e-05,6.715581e-05,-8.0280006e-05,0.99999994,6.198883e-06,-6.715953e-05,-6.198883e-06,1.0,83,0.251,0,0,0.0,False,-0.2543373078012081,0.9916753068249358
0.2726874219952151,10:10:38.422928,10:09:32.410467,0,,0.09204862,0.014200047,0.028142259,-0.31730658,0.52413154,-0.79031795,-0.04290369,0.8245973,0.56409085,0.9473519,0.21289709,-0.23916307,,0.07066958,0.014210835,0.025346994,0.11178341,0.30612695,0.945405,0.109871745,-0.94934213,0.29441074,0.9876399,0.070963144,-0.13975544,,0.07742777,1.3301693,0.4562074,0.9982498,0.036738615,-0.046341226,-0.0015518091,-0.76707613,-0.64155424,-0.05911706,0.6405033,-0.7656766,,-0.047049034,0.25786394,-0.08169809,0.23694906,-0.5716875,0.7855116,0.5847411,0.72960716,0.35461408,-0.7758434,0.3752955,0.50716895,,-0.0050996584,0.45001802,-0.29890317,-0.2619096,-0.27492177,-0.92510617,0.74258095,-0.66966224,-0.011225032,-0.61642265,-0.6899061,0.37954265,,1.217010028183292,0.27086713283055047,0.19330924625,1.8186408798412796,-0.7900322416437767,-0.26698970583540366,-0.4122804229229208,,-1.3185716882122185,0.2723498975424016,0.20781991651,-2.0077812088643205,-0.7868896021491716,0.7239878774493775,0.817700395068202,,-0.03254166390343428,-0.08714647121364187,0.07824560327999999,-0.058221254136848435,,-8.963421e-05,4.529953e-06,-1.0728836e-06,0.99999994,8.028746e-05,6.715581e-05,-8.0280006e-05,0.99999994,6.198883e-06,-6.715953e-05,-6.198883e-06,1.0,91,0.274,0,0,0.0,False,-0.2547543518308557,0.9897440987937576
0.29493865405675024,10:10:38.449350,10:09:32.410467,0,,0.09228345,0.014603004,0.028291091,-0.31943256,0.53633326,-0.78122294,-0.04628834,0.8145994,0.578174,0.94647765,0.22084895,-0.23538369,,0.07066994,0.014211506,0.025345922,0.11178341,0.30620417,0.94538,0.109871745,-0.9493181,0.29448828,0.9876399,0.07095173,-0.13976125,,0.07742777,1.3301693,0.4562074,0.9982498,0.036738615,-0.046341226,-0.0015518091,-0.76707613,-0.64155424,-0.05911706,0.6405033,-0.7656766,,-0.047311008,0.25825024,-0.081550375,0.23927037,-0.5841279,0.77559286,0.581744,0.7257913,0.36715245,-0.7773825,0.36334783,0.5134733,,-0.0050998856,0.45001772,-0.29890192,-0.2619096,-0.27499732,-0.9250837,0.74258095,-0.6696632,-0.011170334,-0.61642265,-0.6898751,0.37959898,,1.2170331963819148,0.27360098026802593,0.19337665333,1.8157052206324964,-0.7904421511430729,-0.24958459543493705,-0.4121170788567867,,-1.3185716882122185,0.2723498975424016,0.20782121280000002,-2.0077812088643205,-0.7868896021491716,0.723906198709237,0.8152502340761878,,-0.03254166390343428,-0.08714647121364187,0.07824560327999999,-0.058221254136848435,,-8.963421e-05,4.529953e-06,-1.0728836e-06,0.99999994,8.028746e-05,6.715581e-05,-8.0280006e-05,0.99999994,6.198883e-06,-6.715953e-05,-6.198883e-06,1.0,99,0.299,0,0,0.0,False,-0.254694774112334,0.9895992581914193
0.32137661904562265,10:10:38.469852,10:09:32.528651,0,,0.09256613,0.015066043,0.02846779,-0.32122016,0.544269,-0.77497655,-0.048932403,0.80771285,0.5875418,0.9457394,0.22665161,-0.23282138,,0.070671946,0.014210939,0.02534628,0.111774236,0.30619922,0.94538265,0.109873265,-0.94931936,0.29448378,0.98764086,0.07095671,-0.1397526,,0.07742777,1.3301693,0.4562074,0.9982498,0.036738615,-0.046341226,-0.0015518091,-0.76707613,-0.64155424,-0.05911706,0.6405033,-0.7656766,,-0.047625314,0.2586966,-0.08138449,0.24121471,-0.5922578,0.76879525,0.5793787,0.7234052,0.37550658,-0.77854717,0.35484594,0.51763755,,-0.0051018978,0.4500173,-0.29890242,-0.26190075,-0.27499315,-0.92508745,0.7425839,-0.66966,-0.01116796,-0.61642295,-0.6898799,0.37958992,,1.2170486418476631,0.27672868708208687,0.19344535670000002,1.8142373910281047,-0.7904421511430729,-0.2391297166969451,-0.4114637025922494,,-1.3185794109450928,0.2723421748095273,0.20782121280000002,-2.0077812088643205,-0.7868896021491716,0.723906198709237,0.8149235459439191,,-0.03254166390343428,-0.08714647121364187,0.07824560327999999,-0.058221254136848435,,-8.963421e-05,4.529953e-06,-1.0728836e-06,0.99999994,8.028746e-05,6.715581e-05,-8.0280006e-05,0.99999994,6.198883e-06,-6.715953e-05,-6.198883e-06,1.0,110,0.333,0,0,0.0,False,-0.2555288621716292,0.9878128907625792
0.34188662096858025,10:10:38.501879,10:09:32.528651,0,,0.093051895,0.015877157,0.028823465,-0.31994635,0.5520288,-0.7699989,-0.05661562,0.8001269,0.5971528,0.9457425,0.2346507,-0.22474441,,0.07067213,0.014212653,0.02534753,0.11177027,0.30643404,0.9453071,0.109864086,-0.94924676,0.2947211,0.9876423,0.07091439,-0.13976371,,0.07742777,1.3301693,0.4562074,0.9982498,0.036738615,-0.046341226,-0.0015518091,-0.76707613,-0.64155424,-0.05911706,0.6405033,-0.7656766,,-0.04817043,0.25950807,-0.08113013,0.24024189,-0.6003725,0.7627822,0.5733078,0.72186226,0.38759905,-0.7833275,0.3441915,0.5176198,,-0.0051023364,0.45001936,-0.2989021,-0.26189667,-0.27522174,-0.92502064,0.74257886,-0.6696684,-0.0109961135,-0.6164307,-0.6897806,0.37975773,,1.2170718100462858,0.2821577682926667,0.19356980054000003,1.8138180111411355,-0.7957709746339252,-0.23021040900491307,-0.41309714325359237,,-1.318587133677967,0.2723498975424016,0.20782121280000002,-2.0077812088643205,-0.7868896021491716,0.7236611624888153,0.8136167934148449,,-0.03254166390343428,-0.08714647121364187,0.07824560327999999,-0.058221254136848435,,-8.963421e-05,4.529953e-06,-1.0728836e-06,0.99999994,8.028746e-05,6.715581e-05,-8.0280006e-05,0.99999994,6.198883e-06,-6.715953e-05,-6.198883e-06,1.0,118,0.357,0,0,0.0,False,-0.25582675076423333,0.9850126391173704
0.3739135710056871,10:10:38.531393,10:09:32.528651,0,,0.0936022,0.016783074,0.029212251,-0.31869614,0.5593179,-0.7652425,-0.06500015,0.79254293,0.6063421,0.94562554,0.24297959,-0.21622474,,0.0706725,0.014213324,0.025346518,0.11177027,0.30651122,0.945282,0.109864086,-0.9492227,0.29479864,0.9876423,0.070902914,-0.13976951,,0.07742777,1.3301693,0.4562074,0.9982498,0.036738615,-0.046341226,-0.0015518091,-0.76707613,-0.64155424,-0.05911706,0.6405033,-0.7656766,,-0.04878627,0.2604085,-0.08083916,0.23932968,-0.6080467,0.75696796,0.5666193,0.720566,0.39965892,-0.7884567,0.33326238,0.5169838,,-0.0051025636,0.45001906,-0.29890084,-0.26189667,-0.27529728,-0.9249981,0.74257886,-0.6696693,-0.010941416,-0.6164307,-0.68974954,0.3798141,,1.2170486418476631,0.2882201135989329,0.19371887389000003,1.8133986312541668,-0.8015097076240736,-0.22201867122361935,-0.41326048731972653,,-1.318587133677967,0.2723498975424016,0.20782250909000002,-2.0077812088643205,-0.7868896021491716,0.7235794837486748,0.8126367290180393,,-0.03254166390343428,-0.08714647121364187,0.07824560327999999,-0.058221254136848435,,-8.963421e-05,4.529953e-06,-1.0728836e-06,0.99999994,8.028746e-05,6.715581e-05,-8.0280006e-05,0.99999994,6.198883e-06,-6.715953e-05,-6.198883e-06,1.0,126,0.381,0,0,0.0,False,-0.2555288621716292,0.9826951894799565
0.40342517907265574,10:10:38.554177,10:09:32.528651,0,,0.09425935,0.017802715,0.029624775,-0.31738603,0.5730078,-0.75559783,-0.066358864,0.78142154,0.62046504,0.9459717,0.24706742,-0.20998822,,0.0706756,0.014213309,0.02534765,0.11175451,0.3074318,0.94498485,0.10986185,-0.94893485,0.29572448,0.98764426,0.07076931,-0.13982286,,0.07742777,1.3301693,0.4562074,0.9982498,0.036738615,-0.046341226,-0.0015518091,-0.76707613,-0.64155424,-0.05911706,0.6405033,-0.7656766,,-0.04951489,0.26140314,-0.0804906,0.23804812,-0.62159675,0.7462912,0.565671,0.7133405,0.41371682,-0.7895248,0.3236708,0.52142864,,-0.0051058014,0.45001945,-0.2989014,-0.26188132,-0.27619848,-0.92473376,0.7425807,-0.66967773,-0.010277603,-0.616435,-0.68938094,0.38047576,,1.2170640873134115,0.2948848320693887,0.19386665095000002,1.820318399389156,-0.8017829806236045,-0.21338292518174845,-0.41179039072451795,,-1.3186025791437155,0.2723421748095273,0.20782250909000002,-2.0077812088643205,-0.7868896021491716,0.722599338866988,0.8080630951662795,,-0.03254166390343428,-0.08714647121364187,0.07824560327999999,-0.058221254136848435,,-8.963421e-05,4.529953e-06,-1.0728836e-06,0.99999994,8.028746e-05,6.715581e-05,-8.0280006e-05,0.99999994,6.198883e-06,-6.715953e-05,-6.198883e-06,1.0,138,0.418,0,0,0.0,False,-0.2559459062012759,0.9837090736963254
0.4261969180079177,10:10:38.591343,10:09:32.528651,0,,0.09493732,0.018849269,0.03001894,-0.31656778,0.5813615,-0.74953556,-0.06537947,0.7749226,0.62866557,0.946314,0.24801932,-0.20730655,,0.070677735,0.014214337,0.025345206,0.11168289,0.30785263,0.94485635,0.109751076,-0.9488094,0.29616794,0.9876647,0.070622206,-0.139753,,0.07742777,1.3301693,0.4562074,0.9982498,0.036738615,-0.046341226,-0.0015518091,-0.76707613,-0.64155424,-0.05911706,0.6405033,-0.7656766,,-0.050263707,0.26240548,-0.08010999,0.23716661,-0.6297448,0.73971176,0.56657714,0.70819145,0.42125428,-0.7891402,0.3191963,0.5247584,,-0.005107595,0.45001826,-0.29889885,-0.26180914,-0.27659747,-0.924635,0.74252516,-0.6697451,-0.009895889,-0.6165325,-0.6891556,0.38072595,,1.2170795327791601,0.30162677786858666,0.19403516865,1.8289156870720216,-0.7998700696268883,-0.21355423725110884,-0.4129337991874579,,-1.3186025791437155,0.27233445207665313,0.20782639796000002,-2.0077812088643205,-0.7870262386489371,0.7221390055897006,0.8092065036292193,,-0.03254166390343428,-0.08714647121364187,0.07824560327999999,-0.058221254136848435,,-8.963421e-05,4.529953e-06,-1.0728836e-06,0.99999994,8.028746e-05,6.715581e-05,-8.0280006e-05,0.99999994,6.198883e-06,-6.715953e-05,-6.198883e-06,1.0,146,0.442,0,0,0.0,False,-0.2557075953271921,0.9856402817275036
0.4633262580027804,10:10:38.613501,10:09:32.659244,0,,0.09536019,0.019514322,0.030263469,-0.31517065,0.58597237,-0.7465277,-0.065594256,0.7712865,0.6330991,0.94676536,0.24850206,-0.20465054,,0.07068373,0.014218271,0.025341988,0.111660585,0.30784595,0.9448611,0.109744966,-0.9488114,0.29616368,0.9876679,0.07062405,-0.13972944,,0.07742777,1.3301693,0.4562074,0.9982498,0.036738615,-0.046341226,-0.0015518091,-0.76707613,-0.64155424,-0.05911706,0.6405033,-0.7656766,,-0.050731126,0.26303938,-0.07986385,0.23574546,-0.6342368,0.73632044,0.5665757,0.70528466,0.42610505,-0.789567,0.3167289,0.5256108,,-0.0051131947,0.45001802,-0.2988933,-0.26178733,-0.27659103,-0.92464304,0.74252594,-0.6697444,-0.009883388,-0.61654085,-0.6891588,0.3807066,,1.2170718100462858,0.30585111275078747,0.19416090878000003,1.8345773155461036,-0.7998700696268883,-0.21461606087293617,-0.41309714325359226,,-1.3186257473423382,0.2723267293437789,0.20783287941000003,-2.0077812088643205,-0.7870262386489371,0.7221390055897006,0.8101865680260251,,-0.03254166390343428,-0.08714647121364187,0.07824560327999999,-0.058221254136848435,,-8.963421e-05,4.529953e-06,-1.0728836e-06,0.99999994,8.028746e-05,6.715581e-05,-8.0280006e-05,0.99999994,6.198883e-06,-6.715953e-05,-6.198883e-06,1.0,157,0.476,0,0,0.0,False,-0.256065061638318,0.9849160787158118
0.4855003730626777,10:10:38.644163,10:09:32.659244,0,,0.09612346,0.020691574,0.030672029,-0.31193364,0.5956106,-0.7402331,-0.06681502,0.7634271,0.6424289,0.9477516,0.24985373,-0.19834295,,0.070739925,0.014208555,0.025317907,0.11589125,0.30490717,0.9453046,0.107007265,-0.9500109,0.2933065,0.9874809,0.06716293,-0.14272532,,0.07742777,1.3301693,0.4562074,0.9982498,0.036738615,-0.046341226,-0.0015518091,-0.76707613,-0.64155424,-0.05911706,0.6405033,-0.7656766,,-0.05157113,0.2641451,-0.07940863,0.23248562,-0.6436455,0.7291576,0.5659736,0.69922155,0.43676442,-0.7909642,0.3111425,0.52684534,,-0.005164748,0.4499871,-0.29887858,-0.26582965,-0.27312392,-0.9245204,0.73988163,-0.6725905,-0.01404179,-0.61798847,-0.6877684,0.3808739,,1.2168632962586818,0.313334440905911,0.19443053710000002,1.8448521227768453,-0.8010997981247774,-0.21459344462135505,-0.41309714325359215,,-1.318656638273835,0.27231900661090463,0.20785621263,-2.000651750785847,-0.7871628751487024,0.7197183825490395,0.8100232239598908,,-0.03254166390343428,-0.08714647121364187,0.07824560327999999,-0.058221254136848435,,-8.963421e-05,4.529953e-06,-1.0728836e-06,0.99999994,8.028746e-05,6.715581e-05,-8.0280006e-05,0.99999994,6.198883e-06,-6.715953e-05,-6.198883e-06,1.0,165,0.501,0,0,0.0,False,-0.25588632848275505,0.9847229579126939
0.5161439090734348,10:10:38.669418,10:09:32.659244,0,,0.09646687,0.02114509,0.030776605,-0.31172252,0.5985298,-0.73796403,-0.06784752,0.7606591,0.64559615,0.94774777,0.25131577,-0.1965059,,0.0707757,0.014224999,0.025329232,0.11373183,0.30672854,0.9449775,0.10576731,-0.94948196,0.29546115,0.98786557,0.06634447,-0.14042825,,0.07738342,1.3301682,0.4561995,0.99824995,0.03678402,-0.046303254,-0.0014927235,-0.7670739,-0.641557,-0.05911706,0.6405033,-0.7656766,,-0.05190457,0.2645379,-0.07919992,0.23231989,-0.6466132,0.72658026,0.56516504,0.69771117,0.44021314,-0.79159075,0.3083675,0.5275354,,-0.0051676836,0.45000866,-0.29887962,-0.26371357,-0.2747664,-0.9246397,0.7395372,-0.67302704,-0.010924042,-0.61930597,-0.6866863,0.3806863,,1.2165852778752098,0.3161686838707514,0.19456016610000001,1.847158712155175,-0.8015097076240736,-0.21385079720956307,-0.41326048731972653,,-1.318687529205332,0.27231900661090463,0.20786528666,-2.002329270333723,-0.7893490591449495,0.7189690280638248,0.8105132561582936,,-0.03254166390343428,-0.08714647121364187,0.07824560327999999,-0.058221254136848435,,-0.00013343617,-1.4901161e-06,7.6293945e-06,0.99999994,0.00012560561,0.00010506436,-0.00012559816,0.99999994,9.685755e-06,-0.00010506809,-9.715557e-06,1.0,173,0.524,0,0,0.0,False,-0.25588632848275505,0.9861713639360776
0.5414528320543468,10:10:38.699960,10:09:32.659244,0,,0.097014286,0.021839514,0.030888781,-0.31215703,0.604169,-0.7331695,-0.06904799,0.7552637,0.65177375,0.947518,0.25407955,-0.19404437,,0.0707947,0.014238767,0.025342941,0.11308326,0.30880213,0.9443798,0.1047872,-0.9488827,0.29772693,0.98804444,0.06529108,-0.13966133,,0.07738342,1.3301682,0.4561995,0.99824995,0.03678402,-0.046303254,-0.0014927235,-0.7670739,-0.641557,-0.05911706,0.6405033,-0.7656766,,-0.0524859,0.26510155,-0.07882732,0.23281835,-0.65225494,0.7213592,0.5641256,0.69477665,0.44614765,-0.79218554,0.30306584,0.5297105,,-0.0051890514,0.4500254,-0.29887825,-0.26306,-0.27668238,-0.9242545,0.7390464,-0.67359835,-0.008699737,-0.6201692,-0.6853555,0.3816779,,1.2156739953960511,0.320624700739179,0.19479220201000003,1.8505137512509275,-0.8017829806236045,-0.21101424171767214,-0.4132604873197263,,-1.318795647465571,0.27231900661090463,0.20787436069,-2.002329270333723,-0.7904421511430729,0.7166749004279142,0.811329976488965,,-0.03254166390343428,-0.08714647121364187,0.07824560327999999,-0.058221254136848435,,-0.00013343617,-1.4901161e-06,7.6293945e-06,0.99999994,0.00012560561,0.00010506436,-0.00012559816,0.99999994,9.685755e-06,-0.00010506809,-9.715557e-06,1.0,181,0.549,0,0,0.0,False,-0.25588632848275505,0.9902269008015521
0.5719944590236992,10:10:38.720920,10:09:32.659244,0,,0.0973592,0.022195116,0.030889362,-0.31276542,0.6079305,-0.72979313,-0.06930378,0.75168633,0.65586925,0.94729865,0.25571048,-0.19296975,,0.07080021,0.014259569,0.025366366,0.11076923,0.30848247,0.9447584,0.10387474,-0.94899553,0.29768708,0.9884029,0.065162,-0.1371631,,0.07738342,1.3301682,0.4561995,0.99824995,0.03678402,-0.046303254,-0.0014927235,-0.7670739,-0.641557,-0.05911706,0.6405033,-0.7656766,,-0.052843064,0.2653493,-0.07858965,0.23345259,-0.656001,0.7177483,0.56384075,0.69270325,0.44971746,-0.7922017,0.29970804,0.53159344,,-0.0051988107,0.45005563,-0.29887992,-0.26079035,-0.2763428,-0.92499894,0.7389482,-0.67372525,-0.007061013,-0.62124383,-0.68536776,0.37990406,,1.2147627129168928,0.32295696606719476,0.19494127536000003,1.852400960742288,-0.8017829806236045,-0.2084822007733148,-0.41309714325359215,,-1.318896042992936,0.2723267293437789,0.20788084214000002,-2.0044261697685686,-0.7923550621397891,0.7184797873000859,0.812473384951905,,-0.03254166390343428,-0.08714647121364187,0.07824560327999999,-0.058221254136848435,,-0.00013343617,-1.4901161e-06,7.6293945e-06,0.99999994,0.00012560561,0.00010506436,-0.00012559816,0.99999994,9.685755e-06,-0.00010506809,-9.715557e-06,1.0,189,0.574,0,0,0.0,False,-0.2561246393568388,0.9895026977898602
0.5929522439837456,10:10:38.750860,10:09:32.659244,0,,0.097905636,0.022615567,0.030833364,-0.31243002,0.61672103,-0.72252494,-0.06811875,0.74409693,0.6645897,0.9474952,0.2568551,-0.19046804,,0.07082693,0.014269687,0.025372803,0.1102383,0.3083679,0.94485795,0.10345429,-0.9490483,0.29766533,0.9885063,0.064935535,-0.13652349,,0.07738342,1.3301682,0.4561995,0.99824995,0.03678402,-0.046303254,-0.0014927235,-0.7670739,-0.641557,-0.05911706,0.6405033,-0.7656766,,-0.053398546,0.26559526,-0.07825883,0.23305623,-0.66455805,0.7099629,0.5648558,0.6867908,0.45744535,-0.79159504,0.2944162,0.5354404,,-0.0052265963,0.45006377,-0.29887533,-0.26026425,-0.27619377,-0.92519164,0.73878956,-0.6739034,-0.0066500627,-0.6216531,-0.68525267,0.37944204,,1.212916979759953,0.32587615909365164,0.19513442257000002,1.8578528992728858,-0.80191961712337,-0.20265327105977887,-0.4134238313858607,,-1.3190273294517978,0.27228039294653356,0.20789250875,-2.0046358597120526,-0.7929016081388509,0.7186804226944499,0.8149235459439192,,-0.03254166390343428,-0.08714647121364187,0.07824560327999999,-0.058221254136848435,,-0.00013343617,-1.4901161e-06,7.6293945e-06,0.99999994,0.00012560561,0.00010506436,-0.00012559816,0.99999994,9.685755e-06,-0.00010506809,-9.715557e-06,1.0,200,0.607,0,0,0.0,False,-0.2561246393568388,0.9877163303610204
0.6228914429666474,10:10:38.773275,10:09:32.659244,0,,0.098473355,0.022975326,0.030717686,-0.31228232,0.62284756,-0.7173147,-0.066575706,0.73887163,0.67054915,0.94765365,0.2571563,-0.18927018,,0.070854515,0.014278762,0.025382161,0.110159084,0.30845293,0.94483936,0.10321078,-0.94903576,0.29778954,0.98854065,0.06471345,-0.13638066,,0.07738342,1.3301682,0.4561995,0.99824995,0.03678402,-0.046303254,-0.0014927235,-0.7670739,-0.641557,-0.05911706,0.6405033,-0.7656766,,-0.0539678,0.26575503,-0.077918924,0.23283628,-0.670482,0.7044439,0.56614065,0.68240994,0.4623867,-0.79074144,0.29115394,0.5384769,,-0.005255597,0.450073,-0.29887348,-0.2601813,-0.2762452,-0.92519957,0.7386498,-0.67405844,-0.006460721,-0.6218538,-0.6850794,0.37942588,,1.2107005554250505,0.3284787200722653,0.19533275494000002,1.8633048378034833,-0.8020562536231354,-0.20025484843214686,-0.41309714325359226,,-1.319174061376408,0.2722495020150366,0.20789899020000002,-2.0044261697685686,-0.7930382446386164,0.7183834468974435,0.8137801374809792,,-0.03254166390343428,-0.08714647121364187,0.07824560327999999,-0.058221254136848435,,-0.00013343617,-1.4901161e-06,7.6293945e-06,0.99999994,0.00012560561,0.00010506436,-0.00012559816,0.99999994,9.685755e-06,-0.00010506809,-9.715557e-06,1.0,208,0.632,0,0,0.0,False,-0.25630337251240265,0.9867024461446514
0.6452894969843328,10:10:38.803905,10:09:32.846940,0,,0.098837934,0.023168847,0.030633613,-0.31214085,0.6253768,-0.71517247,-0.06545165,0.73684037,0.67289084,0.9477786,0.25684583,-0.18906614,,0.070871785,0.014288895,0.025390685,0.10993214,0.30889806,0.94472045,0.103235126,-0.94888914,0.29824823,0.98856336,0.06474134,-0.1362026,,0.07738342,1.3301682,0.4561995,0.99824995,0.03678402,-0.046303254,-0.0014927235,-0.7670739,-0.641557,-0.05911706,0.6405033,-0.7656766,,-0.054331087,0.26582238,-0.07771663,0.23264144,-0.6728955,0.7022034,0.5670798,0.6804276,0.46415386,-0.7901256,0.29022393,0.53988105,,-0.005274336,0.4500838,-0.2988711,-0.25996146,-0.27669507,-0.92512697,0.73871285,-0.6739936,-0.00599502,-0.6218709,-0.6849617,0.37961057,,1.2091791770488285,0.32997693024986485,0.19544553217000002,1.8668695668427204,-0.8021928901229008,-0.20063350296929366,-0.41375051951812947,,-1.3192899023695215,0.2722417792821624,0.20790287907000002,-2.0046358597120526,-0.7930382446386164,0.7180567319368812,0.8121466968196365,,-0.03254166390343428,-0.08714647121364187,0.07824560327999999,-0.058221254136848435,,-0.00013343617,-1.4901161e-06,7.6293945e-06,0.99999994,0.00012560561,0.00010506436,-0.00012559816,0.99999994,9.685755e-06,-0.00010506809,-9.715557e-06,1.0,220,0.668,0,0,0.0,False,-0.2561842170753601,0.987378368955564
0.6758794250199571,10:10:38.834858,10:09:32.846940,0,,0.09958083,0.02356103,0.030515596,-0.3073579,0.629429,-0.71368766,-0.06604248,0.73407394,0.6758503,0.94929945,0.25486153,-0.18405455,,0.070884496,0.014297821,0.025398254,0.10972755,0.30904108,0.94469744,0.10326555,-0.9488377,0.29840115,0.98858285,0.064811945,-0.136027,,0.07738342,1.3301682,0.4561995,0.99824995,0.03678402,-0.046303254,-0.0014927235,-0.7670739,-0.641557,-0.05911706,0.6405033,-0.7656766,,-0.05507581,0.26599127,-0.07734716,0.22777279,-0.6766544,0.7001845,0.5671717,0.676702,0.46945783,-0.791477,0.2901951,0.5379135,,-0.005288384,0.4500937,-0.29886925,-0.25976342,-0.27684897,-0.92513657,0.7387752,-0.6739273,-0.0057620476,-0.6218796,-0.68496466,0.3795908,,1.20607463843339,0.3329887960708124,0.19566849405000003,1.877144374073462,-0.8075217136137531,-0.2055179023610168,-0.41391386358426363,,-1.319382575164012,0.2722417792821624,0.20790547165000003,-2.004845549655537,-0.7930382446386164,0.7180567319368814,0.812473384951905,,-0.03254166390343428,-0.08714647121364187,0.07824560327999999,-0.058221254136848435,,-0.00013343617,-1.4901161e-06,7.6293945e-06,0.99999994,0.00012560561,0.00010506436,-0.00012559816,0.99999994,9.685755e-06,-0.00010506809,-9.715557e-06,1.0,228,0.692,0,0,0.0,False,-0.2552905512975445,0.9887784947781684
0.7068890279624611,10:10:38.864513,10:09:32.846940,0,,0.09989995,0.023730561,0.030497283,-0.3033935,0.63256437,-0.7126111,-0.06636512,0.73201746,0.67804563,0.9505514,0.2530071,-0.18010929,,0.07088741,0.014300309,0.025397778,0.109714374,0.30934802,0.9445985,0.103257895,-0.94874096,0.2987113,0.9885852,0.06476444,-0.13603319,,0.07738342,1.3301682,0.4561995,0.99824995,0.03678402,-0.046303254,-0.0014927235,-0.7670739,-0.641557,-0.05911706,0.6405033,-0.7656766,,-0.055398505,0.26608485,-0.07721293,0.22373162,-0.679539,0.69869226,0.56737214,0.6736853,0.47353658,-0.7924853,0.29047343,0.5362762,,-0.0052912906,0.45009473,-0.29886693,-0.25975046,-0.27714902,-0.9250503,0.73877305,-0.6739316,-0.005531736,-0.62188756,-0.6848391,0.37980425,,1.2048158329748915,0.3342707697279337,0.19574886403000002,1.883854452264967,-0.810937626107889,-0.20787821539746176,-0.41375051951812936,,-1.3193980206297606,0.2722417792821624,0.20790806423000002,-2.004845549655537,-0.7930382446386164,0.717730016976319,0.8144335137455163,,-0.03254166390343428,-0.08714647121364187,0.07824560327999999,-0.058221254136848435,,-0.00013343617,-1.4901161e-06,7.6293945e-06,0.99999994,0.00012560561,0.00010506436,-0.00012559816,0.99999994,9.685755e-06,-0.00010506809,-9.715557e-06,1.0,236,0.717,0,0,0.0,False,-0.25683957197909146,0.9892612967859629
0.7365205429960042,10:10:38.894433,10:09:32.846940,0,,0.10022385,0.023894906,0.03049983,-0.29997304,0.63472426,-0.71213835,-0.06929645,0.7300463,0.67987514,0.95142746,0.2532928,-0.17501019,,0.07090706,0.01429417,0.025402427,0.11045508,0.30676484,0.94535434,0.10138708,-0.94969034,0.29632586,0.98869634,0.063116044,-0.13600014,,0.07738342,1.3301682,0.4561995,0.99824995,0.03678402,-0.046303254,-0.0014927235,-0.7670739,-0.641557,-0.05911706,0.6405033,-0.7656766,,-0.055727538,0.26618704,-0.077097945,0.2203645,-0.6816379,0.6977172,0.5653574,0.67215276,0.47810215,-0.7948651,0.28910282,0.5334876,,-0.005311147,0.45009097,-0.29887298,-0.26042363,-0.27431315,-0.92570615,0.7374154,-0.67539996,-0.0073125493,-0.623216,-0.68453425,0.37817284,,1.2034875229205249,0.3356685843781683,0.19582145627000003,1.8878385611911728,-0.8161298130989758,-0.20870841694571257,-0.41440389578266656,,-1.3194057433626347,0.27221861108353973,0.20791454568,-2.0025389602772075,-0.7942679731365053,0.7185694206293056,0.8144335137455163,,-0.03254166390343428,-0.08714647121364187,0.07824560327999999,-0.058221254136848435,,-0.00013343617,-1.4901161e-06,7.6293945e-06,0.99999994,0.00012560561,0.00010506436,-0.00012559816,0.99999994,9.685755e-06,-0.00010506809,-9.715557e-06,1.0,247,0.751,0,0,0.0,False,-0.2559459062012759,0.9893095769867424
0.7664517069933936,10:10:38.916448,10:09:32.846940,0,,0.10039197,0.023960039,0.030469567,-0.2969197,0.6323332,-0.71553695,-0.06826395,0.73335683,0.6764078,0.95245934,0.24968411,-0.17458265,,0.070917904,0.014299743,0.025417328,0.108771294,0.30754,0.9452977,0.09832588,-0.9496051,0.29762748,0.989192,0.060573965,-0.13352899,,0.07738342,1.3301682,0.4561995,0.99824995,0.03678402,-0.046303254,-0.0014927235,-0.7670739,-0.641557,-0.05911706,0.6405033,-0.7656766,,-0.055894867,0.2662047,-0.07702644,0.21719693,-0.67907774,0.70119816,0.5665488,0.67266965,0.47596005,-0.7948886,0.29388595,0.53083247,,-0.005324315,0.45010376,-0.29887882,-0.25871074,-0.27470398,-0.92607045,0.73579377,-0.6771895,-0.0046768556,-0.6258404,-0.6826068,0.3773217,,1.2027615860303478,0.33613194835062177,0.19586293755000003,1.893500189665255,-0.8176328145963956,-0.21769266252262226,-0.4142405517165322,,-1.3193902978968863,0.27218772015204284,0.20793139745000003,-2.002329270333723,-0.7978205221304068,0.7173006703782439,0.8144335137455163,,-0.03254166390343428,-0.08714647121364187,0.07824560327999999,-0.058221254136848435,,-0.00013343617,-1.4901161e-06,7.6293945e-06,0.99999994,0.00012560561,0.00010506436,-0.00012559816,0.99999994,9.685755e-06,-0.00010506809,-9.715557e-06,1.0,255,0.775,0,0,0.0,False,-0.2566012611050077,0.9894544175890809
0.7884831019910052,10:10:38.941419,10:09:32.846940,0,,0.10038359,0.023918554,0.03047283,-0.2922621,0.6274693,-0.72170967,-0.07140702,0.7382349,0.6707534,0.95366865,0.24757081,-0.1709525,,0.07091024,0.014314465,0.0254367,0.10541491,0.3088148,0.9452623,0.09673536,-0.94923496,0.2993248,0.9897121,0.05988702,-0.1299369,,0.07738342,1.3301682,0.4561995,0.99824995,0.03678402,-0.046303254,-0.0014927235,-0.7670739,-0.641557,-0.05911706,0.6405033,-0.7656766,,-0.0558852,0.26617524,-0.07705541,0.21257788,-0.6742433,0.7072529,0.56447464,0.6755439,0.47435096,-0.7976083,0.29838982,0.5241989,,-0.0053202133,0.4501286,-0.2988829,-0.25540802,-0.2758761,-0.9266386,0.7354608,-0.6775665,-0.0009908789,-0.62758595,-0.6817595,0.375952,,1.2025762404413665,0.3357998708370301,0.19587201158000003,1.8964358488740383,-0.8232349110867787,-0.22676487807454282,-0.41375051951812947,,-1.3193902978968863,0.27216455195342015,0.20794176777,-2.0052649295425065,-0.8009631616250119,0.7179846711400287,0.8150868900100535,,-0.03254166390343428,-0.08714647121364187,0.07824560327999999,-0.058221254136848435,,-0.00013343617,-1.4901161e-06,7.6293945e-06,0.99999994,0.00012560561,0.00010506436,-0.00012559816,0.99999994,9.685755e-06,-0.00010506809,-9.715557e-06,1.0,263,0.799,0,0,0.0,False,-0.25672041654204936,0.9907097028093468
0.8134392939973623,10:10:38.966604,10:09:32.846940,0,,0.10026461,0.023775935,0.030485913,-0.2851442,0.619914,-0.7310261,-0.07938501,0.74479467,0.6625547,0.9551915,0.24695602,-0.16316213,,0.070918284,0.014313318,0.025430143,0.10525485,0.30895472,0.9452345,0.09622595,-0.9492183,0.2995418,0.98977876,0.059427857,-0.12963931,,0.07738342,1.3301682,0.4561995,0.99824995,0.03678402,-0.046303254,-0.0014927235,-0.7670739,-0.641557,-0.05911706,0.6405033,-0.7656766,,-0.055762354,0.26608256,-0.07716025,0.20566897,-0.66692144,0.7161816,0.5586362,0.68088454,0.47362623,-0.80350846,0.30267477,0.5126033,,-0.005327139,0.4501222,-0.2988784,-0.2552393,-0.27594665,-0.9266641,0.73516417,-0.6778888,-0.00062768505,-0.628002,-0.68141043,0.37588996,,1.2025376267769954,0.3347881928305067,0.19586682642000003,1.8974842985914608,-0.8343024675677794,-0.23685285306802423,-0.41571064831174065,,-1.319382575164012,0.2721259382890491,0.20795213809000002,-2.005055239599022,-0.8015097076240736,0.7176135553534086,0.8157402662745906,,-0.03254166390343428,-0.08714647121364187,0.07824560327999999,-0.058221254136848435,,-0.00013343617,-1.4901161e-06,7.6293945e-06,0.99999994,0.00012560561,0.00010506436,-0.00012559816,0.99999994,9.685755e-06,-0.00010506809,-9.715557e-06,1.0,271,0.823,0,0,0.0,False,-0.2568991496976123,0.9918684276280536
0.8386035079602152,10:10:38.997118,10:09:32.846940,0,,0.09984453,0.023213267,0.030384764,-0.27250105,0.61153233,-0.74281305,-0.09204283,0.7519208,0.6527963,0.9577428,0.24625815,-0.14861214,,0.07094168,0.014309637,0.025419772,0.10530156,0.30967358,0.94499403,0.09618801,-0.9489933,0.30026585,0.98977757,0.059278667,-0.12971744,,0.07738342,1.3301682,0.4561995,0.99824995,0.03678402,-0.046303254,-0.0014927235,-0.7670739,-0.641557,-0.05911706,0.6405033,-0.7656766,,-0.055313822,0.2656175,-0.0774532,0.19335179,-0.65879166,0.7270548,0.54934484,0.68668205,0.47611767,-0.8129178,0.30734557,0.49467498,,-0.0053485627,0.45010933,-0.2988718,-0.25528374,-0.27664372,-0.926444,0.73513,-0.6779261,-0.00013249202,-0.6280239,-0.6810906,0.37643263,,1.2025530722427438,0.33094227185914293,0.19579553047,1.8983230583653987,-0.8532949410351757,-0.24603274397667135,-0.41505727204720344,,-1.3194366342941317,0.27203326549455836,0.20796510099,-2.004845549655537,-0.8015097076240736,0.7166334104717219,0.8173737069359333,,-0.03254166390343428,-0.08714647121364187,0.07824560327999999,-0.058221254136848435,,-0.00013343617,-1.4901161e-06,7.6293945e-06,0.99999994,0.00012560561,0.00010506436,-0.00012559816,0.99999994,9.685755e-06,-0.00010506809,-9.715557e-06,1.0,279,0.848,0,0,0.0,False,-0.2568991496976123,0.9946686792732624
0.8691522249719128,10:10:39.018179,10:09:32.846940,0,,0.09953043,0.02272503,0.030216455,-0.27048296,0.6088978,-0.7457092,-0.09250471,0.7545602,0.6496781,0.9582702,0.24470839,-0.14776985,,0.07093871,0.014329515,0.025418758,0.10212373,0.31159967,0.9447096,0.096969336,-0.94827044,0.30229175,0.9900342,0.060736746,-0.12705657,,0.07738342,1.3301682,0.4561995,0.99824995,0.03678402,-0.046303254,-0.0014927235,-0.7670739,-0.641557,-0.05911706,0.6405033,-0.7656766,,-0.05496795,0.26515946,-0.07764274,0.19131544,-0.6561385,0.7299868,0.54914707,0.68798375,0.47446376,-0.81353295,0.31009787,0.49193844,,-0.0053462693,0.45012322,-0.29885736,-0.25221357,-0.27879295,-0.9266406,0.7362859,-0.6766631,0.0031809548,-0.6279103,-0.68147016,0.37593493,,1.2025530722427438,0.32776822864783667,0.19569571614000003,1.897064918704492,-0.855891034530719,-0.2470195959317808,-0.4140772076503979,,-1.3194984161571255,0.27197148363156454,0.20798195276000003,-2.0092490384687127,-0.8024661631224318,0.7179034082384403,0.818353771332739,,-0.03254166390343428,-0.08714647121364187,0.07824560327999999,-0.058221254136848435,,-0.00013343617,-1.4901161e-06,7.6293945e-06,0.99999994,0.00012560561,0.00010506436,-0.00012559816,0.99999994,9.685755e-06,-0.00010506809,-9.715557e-06,1.0,294,0.894,0,0,0.0,True,-0.25683957197909146,0.9954411624857336
0.8901949230348691,10:10:39.058340,10:09:33.097122,0,,0.09877482,0.021474719,0.029828787,-0.26363993,0.60324854,-0.7527184,-0.095740646,0.7601084,0.64270425,0.9598582,0.2415081,-0.14263965,,0.07102441,0.014313541,0.025409997,0.106148854,0.30838495,0.94532055,0.09348318,-0.9495761,0.29927608,0.9899461,0.05660379,-0.12962525,,0.07738342,1.3301682,0.4561995,0.99824995,0.03678402,-0.046303254,-0.0014927235,-0.7670739,-0.641557,-0.05911706,0.6405033,-0.7656766,,-0.05413448,0.26400945,-0.07815977,0.1844919,-0.6504554,0.73679745,0.5470548,0.6907652,0.47283655,-0.8165131,0.31583413,0.48327538,,-0.005429008,0.45009446,-0.29885557,-0.25603727,-0.2749488,-0.9267406,0.7332023,-0.68001014,-0.0008191283,-0.62996775,-0.679698,0.375701,,1.2023522811880138,0.31982153652025963,0.19542479153000003,1.894338949439193,-0.8653189530145343,-0.24831642199218962,-0.41440389578266634,,-1.3196451480817357,0.27186336537132544,0.20801047114000001,-2.001490510559785,-0.8032859821210243,0.7151414085747152,0.8199872119940819,,-0.03254166390343428,-0.08714647121364187,0.07824560327999999,-0.058221254136848435,,-0.00013343617,-1.4901161e-06,7.6293945e-06,0.99999994,0.00012560561,0.00010506436,-0.00012559816,0.99999994,9.685755e-06,-0.00010506809,-9.715557e-06,1.0,302,0.919,0,0,0.0,True,-0.25600548391979716,0.9891164561836245
0.9302635170752183,10:10:39.095858,10:09:33.097122,0,,0.09820241,0.020521715,0.029521972,-0.25549138,0.5939732,-0.76283664,-0.10145265,0.76819605,0.632125,0.9614736,0.23889413,-0.13600744,,0.07104689,0.01432351,0.02543199,0.10413879,0.3096103,0.9451436,0.090850264,-0.949299,0.3009614,0.9904046,0.0545249,-0.12698708,,0.07738342,1.3301682,0.4561995,0.99824995,0.03678402,-0.046303254,-0.0014927235,-0.7670739,-0.641557,-0.05911706,0.6405033,-0.7656766,,-0.05350172,0.26312554,-0.07854489,0.17646162,-0.64130986,0.7467148,0.54294795,0.6961874,0.46960688,-0.8210169,0.32255968,0.47104827,,-0.005454883,0.45011368,-0.29886246,-0.2540137,-0.2758611,-0.9270263,0.73190415,-0.68140393,0.0022212828,-0.63229215,-0.6779302,0.37498984,,1.2020202036744223,0.31366651841950266,0.19526534786000002,1.8928711198348012,-0.8770696919943622,-0.255968696443956,-0.4135871754519952,,-1.319722375410478,0.27180930624120586,0.20802602662000003,-2.001909890446754,-0.8065652581153949,0.7138948587366822,0.8199872119940819,,-0.03254166390343428,-0.08714647121364187,0.07824560327999999,-0.058221254136848435,,-0.00013343617,-1.4901161e-06,7.6293945e-06,0.99999994,0.00012560561,0.00010506436,-0.00012559816,0.99999994,9.685755e-06,-0.00010506809,-9.715557e-06,1.0,310,0.942,0,0,0.0,True,-0.25630337251240265,0.980088058637866
0.9678845580201596,10:10:39.116030,10:09:33.097122,0,,0.09789208,0.019991517,0.029278949,-0.25219765,0.59000736,-0.766999,-0.10213855,0.77196187,0.6274093,0.96227026,0.2365712,-0.13442463,,0.071054116,0.014323942,0.025431156,0.10404107,0.31002176,0.9450194,0.09073889,-0.94917226,0.30139434,0.9904251,0.054392755,-0.126884,,0.07738342,1.3301682,0.4561995,0.99824995,0.03678402,-0.046303254,-0.0014927235,-0.7670739,-0.641557,-0.05911706,0.6405033,-0.7656766,,-0.053151645,0.2625879,-0.07870267,0.17314096,-0.63730884,0.75090593,0.542638,0.6979921,0.46728045,-0.8219283,0.3265647,0.466679,,-0.0054619224,0.45011243,-0.298861,-0.25391573,-0.27625307,-0.9269364,0.7318517,-0.6814589,0.002617734,-0.6323922,-0.6777153,0.37520942,,1.2017035716265791,0.31009861583161097,0.19521608884000002,1.892661429891317,-0.88103215048756,-0.25935355518814535,-0.4160373364440092,,-1.3197455436091008,0.27178613804258317,0.20802991549000002,-2.001909890446754,-0.8067018946151604,0.7134345254593949,0.8198238679279476,,-0.03254166390343428,-0.08714647121364187,0.07824560327999999,-0.058221254136848435,,-0.00013343617,-1.4901161e-06,7.6293945e-06,0.99999994,0.00012560561,0.00010506436,-0.00012559816,0.99999994,9.685755e-06,-0.00010506809,-9.715557e-06,1.0,318,0.967,0,0,0.0,True,-0.25677999426057063,0.9725563473162702
0.9880528950598091,10:10:39.136537,10:09:33.097122,0,,0.097705886,0.01962617,0.029075801,-0.25150907,0.58953595,-0.7675873,-0.1004118,0.77290756,0.62652314,0.9626322,0.23465097,-0.13519698,,0.07105704,0.014326461,0.02543068,0.104027875,0.3100974,0.94499606,0.09073129,-0.9491483,0.301472,0.9904272,0.054379314,-0.12687348,,0.07738342,1.3301682,0.4561995,0.99824995,0.03678402,-0.046303254,-0.0014927235,-0.7670739,-0.641557,-0.05911706,0.6405033,-0.7656766,,-0.052934896,0.26219288,-0.07878252,0.17235802,-0.6367125,0.75159156,0.5441475,0.6975667,0.46615905,-0.8210945,0.32863042,0.4666967,,-0.0054648304,0.4501135,-0.29885867,-0.25390267,-0.27632675,-0.92691797,0.73184943,-0.6814611,0.0026835075,-0.63240004,-0.67768306,0.37525436,,1.2013483259143647,0.30765823224335603,0.19518757046000001,1.892661429891317,-0.8811687869873255,-0.2590787798041677,-0.41505727204720355,,-1.3197609890748492,0.27178613804258317,0.20803250807,-2.001909890446754,-0.8067018946151604,0.7133528467192543,0.8196605238618133,,-0.03254166390343428,-0.08714647121364187,0.07824560327999999,-0.058221254136848435,,-0.00013343617,-1.4901161e-06,7.6293945e-06,0.99999994,0.00012560561,0.00010506436,-0.00012559816,0.99999994,9.685755e-06,-0.00010506809,-9.715557e-06,1.0,326,0.991,0,0,0.0,True,-0.25719703829021734,0.9714941828991221
1.0085682850331068,10:10:39.164773,10:09:33.097122,0,,0.097636215,0.01940544,0.028937668,-0.2520312,0.5893251,-0.767578,-0.09858471,0.7734203,0.6261805,0.9626844,0.23348838,-0.13682772,,0.071060866,0.014327787,0.025429726,0.104012035,0.31009185,0.94499964,0.09072909,-0.9491499,0.30146763,0.9904291,0.05438271,-0.1268574,,0.07738342,1.3301682,0.4561995,0.99824995,0.03678402,-0.046303254,-0.0014927235,-0.7670739,-0.641557,-0.05911706,0.6405033,-0.7656766,,-0.052845273,0.26194102,-0.078817,0.17280304,-0.63642335,0.75173426,0.54564255,0.69725645,0.46487382,-0.8200081,0.32984662,0.46774772,,-0.005468526,0.4501133,-0.29885677,-0.2538872,-0.2763217,-0.92692375,0.7318512,-0.6814591,0.0026909523,-0.6324042,-0.67768705,0.37524015,,1.2009235756062824,0.3062913085246183,0.19516682982000003,1.8924517399478324,-0.8802123314889674,-0.25871520276807486,-0.4153839601794722,,-1.3197764345405976,0.2717784153097089,0.20803510065000003,-2.001909890446754,-0.8067018946151604,0.7133528467192543,0.8196605238618133,,-0.03254166390343428,-0.08714647121364187,0.07824560327999999,-0.058221254136848435,,-0.00013343617,-1.4901161e-06,7.6293945e-06,0.99999994,0.00012560561,0.00010506436,-0.00012559816,0.99999994,9.685755e-06,-0.00010506809,-9.715557e-06,1.0,334,1.016,0,0,0.0,True,-0.2570183051346544,0.9786879328152613
1.0368078260216862,10:10:39.187714,10:09:33.254107,0,,0.09770073,0.019456267,0.028967485,-0.25241947,0.5894693,-0.76733965,-0.09891716,0.7731449,0.62646806,0.9625486,0.2340357,-0.13684827,,0.07106233,0.014329024,0.025429428,0.10400541,0.31009108,0.94500065,0.09072521,-0.9491503,0.30146766,0.9904302,0.054381132,-0.12684992,,0.07738342,1.3301682,0.4561995,0.99824995,0.03678402,-0.046303254,-0.0014927235,-0.7670739,-0.641557,-0.05911706,0.6405033,-0.7656766,,-0.052914005,0.26199374,-0.07880548,0.17321396,-0.63660294,0.7514876,0.54533195,0.6973723,0.46506444,-0.820128,0.32925454,0.46795452,,-0.0054699797,0.45011383,-0.2988556,-0.25388068,-0.2763207,-0.92692584,0.7318501,-0.6814604,0.0026960087,-0.63240814,-0.6776863,0.37523493,,1.2007922891474205,0.3067546724970717,0.19516164466000002,1.8922420500043478,-0.8802123314889674,-0.25847016654765315,-0.4148939279810694,,-1.3197841572734719,0.2717784153097089,0.20803639694,-2.001909890446754,-0.8067018946151604,0.7133528467192543,0.8196605238618133,,-0.03254166390343428,-0.08714647121364187,0.07824560327999999,-0.058221254136848435,,-0.00013343617,-1.4901161e-06,7.6293945e-06,0.99999994,0.00012560561,0.00010506436,-0.00012559816,0.99999994,9.685755e-06,-0.00010506809,-9.715557e-06,1.0,346,1.053,0,0,0.0,True,-0.2566012611050077,0.9833228320900893
1.0597486089682207,10:10:39.227233,10:09:33.254107,0,,0.09802567,0.019892558,0.029225737,-0.25380957,0.59029883,-0.7662427,-0.10091013,0.7717008,0.6279291,0.961976,0.23669598,-0.136298,,0.07105958,0.014329724,0.025427282,0.104021296,0.3100966,0.9449971,0.09072751,-0.94914865,0.30147207,0.9904282,0.054377735,-0.12686601,,0.07738342,1.3301682,0.4561995,0.99824995,0.03678402,-0.046303254,-0.0014927235,-0.7670739,-0.641557,-0.05911706,0.6405033,-0.7656766,,-0.05327631,0.2624667,-0.07871797,0.17472352,-0.6375995,0.7502923,0.5435426,0.69784296,0.4664511,-0.82099515,0.32631588,0.46849212,,-0.005466971,0.45011318,-0.29885378,-0.25389618,-0.27632573,-0.92692006,0.7318483,-0.6814623,0.002688564,-0.63240397,-0.6776823,0.37524918,,1.2007768436816721,0.31000594303712026,0.19516164466000002,1.8922420500043478,-0.8799390584894365,-0.2585296448747649,-0.4148939279810694,,-1.3197687118077233,0.27178613804258317,0.20803769323000001,-2.001909890446754,-0.8067018946151604,0.7133528467192543,0.8196605238618133,,-0.03254166390343428,-0.08714647121364187,0.07824560327999999,-0.058221254136848435,,-0.00013343617,-1.4901161e-06,7.6293945e-06,0.99999994,0.00012560561,0.00010506436,-0.00012559816,0.99999994,9.685755e-06,-0.00010506809,-9.715557e-06,1.0,354,1.077,0,0,0.0,True,-0.2559459062012759,0.9932202732498787
1.0992524629691616,10:10:39.246789,10:09:33.254107,0,,0.098179564,0.020122916,0.02937077,-0.2543602,0.5907489,-0.76571304,-0.10210264,0.77092576,0.6286878,0.96170473,0.23809433,-0.13577595,,0.07106104,0.014330991,0.025426984,0.104014695,0.31009582,0.944998,0.09072369,-0.949149,0.3014721,0.9904293,0.054376185,-0.12685852,,0.07738342,1.3301682,0.4561995,0.99824995,0.03678402,-0.046303254,-0.0014927235,-0.7670739,-0.641557,-0.05911706,0.6405033,-0.7656766,,-0.053450752,0.26272333,-0.07867925,0.17534079,-0.6381368,0.7496913,0.54249316,0.6980768,0.4673221,-0.8215575,0.32476178,0.46858618,,-0.005468425,0.4501137,-0.29885262,-0.25388965,-0.2763247,-0.92692214,0.73184717,-0.6814635,0.0026936203,-0.6324079,-0.67768145,0.37524396,,1.200869516476163,0.3116894988037012,0.19516034837000001,1.8922420500043478,-0.8799390584894365,-0.2585296448747649,-0.4148939279810694,,-1.3197764345405976,0.27178613804258317,0.20803898952000002,-2.001909890446754,-0.8067018946151604,0.7133528467192543,0.8196605238618133,,-0.03254166390343428,-0.08714647121364187,0.07824560327999999,-0.058221254136848435,,-0.00013343617,-1.4901161e-06,7.6293945e-06,0.99999994,0.00012560561,0.00010506436,-0.00012559816,0.99999994,9.685755e-06,-0.00010506809,-9.715557e-06,1.0,362,1.102,0,0,0.0,True,-0.25695872741613357,1.000124341961341
1.1188222359633073,10:10:39.269765,10:09:33.254107,0,,0.09836678,0.020387262,0.029533312,-0.25505278,0.59120226,-0.7651325,-0.10345617,0.77007544,0.62950814,0.96137655,0.23971534,-0.13524646,,0.07106304,0.01433038,0.025427341,0.10400541,0.3100139,0.9450259,0.09072521,-0.9491749,0.3013901,0.9904302,0.054391533,-0.1268455,,0.07738342,1.3301682,0.4561995,0.99824995,0.03678402,-0.046303254,-0.0014927235,-0.7670739,-0.641557,-0.05911706,0.6405033,-0.7656766,,-0.053661164,0.26301447,-0.07863135,0.1761104,-0.63869333,0.74903667,0.5412949,0.6983909,0.4682414,-0.8221831,0.32298753,0.46871534,,-0.0054704375,0.45011327,-0.2988531,-0.25388068,-0.27624497,-0.92694837,0.7318501,-0.68146056,0.0026403477,-0.63240814,-0.6777169,0.3751796,,1.200915852873408,0.31364335022088,0.19516034837000001,1.8922420500043478,-0.8799390584894365,-0.2586113236149054,-0.41505727204720355,,-1.3197841572734719,0.2717784153097089,0.20803898952000002,-2.001909890446754,-0.8067018946151604,0.7134345254593949,0.8198238679279476,,-0.03254166390343428,-0.08714647121364187,0.07824560327999999,-0.058221254136848435,,-0.00013343617,-1.4901161e-06,7.6293945e-06,0.99999994,0.00012560561,0.00010506436,-0.00012559816,0.99999994,9.685755e-06,-0.00010506809,-9.715557e-06,1.0,370,1.127,0,0,0.0,True,-0.2580311263495121,1.0038419174213595
1.1417993530631065,10:10:39.296198,10:09:33.254107,0,,0.09841956,0.02045615,0.02957356,-0.2553339,0.5912607,-0.76499355,-0.10369477,0.7699101,0.6296711,0.96127623,0.24010208,-0.1352736,,0.071064144,0.014330946,0.025428176,0.103998855,0.3100131,0.94502693,0.09072137,-0.9491752,0.30139017,0.9904311,0.054389983,-0.12683798,,0.07738342,1.3301682,0.4561995,0.99824995,0.03678402,-0.046303254,-0.0014927235,-0.7670739,-0.641557,-0.05911706,0.6405033,-0.7656766,,-0.05371979,0.2630887,-0.07861706,0.17640804,-0.63877803,0.7488944,0.5410704,0.69849914,0.46833938,-0.822267,0.32258576,0.4688447,,-0.0054716626,0.45011407,-0.2988532,-0.25387418,-0.27624395,-0.92695045,0.7318489,-0.68146175,0.002645404,-0.6324121,-0.6777161,0.37517437,,1.200908130140534,0.31416077332345305,0.19516034837000001,1.8922420500043478,-0.8798024219896711,-0.2587227415186019,-0.41505727204720355,,-1.319791880006346,0.2717784153097089,0.20803898952000002,-2.001909890446754,-0.8067018946151604,0.7134345254593949,0.8198238679279476,,-0.03254166390343428,-0.08714647121364187,0.07824560327999999,-0.058221254136848435,,-0.00013343617,-1.4901161e-06,7.6293945e-06,0.99999994,0.00012560561,0.00010506436,-0.00012559816,0.99999994,9.685755e-06,-0.00010506809,-9.715557e-06,1.0,403,1.229,0,0,0.0,True,-0.25695872741613357,1.0033591154135648
1.1682318940293044,10:10:39.391030,10:09:33.384396,0,,0.09816292,0.020100191,0.029358417,-0.25452772,0.59047824,-0.7658661,-0.10166943,0.77122104,0.62839574,0.9617063,0.23780921,-0.13626364,,0.07106541,0.014330484,0.025426626,0.103996165,0.31000912,0.9450286,0.0907267,-0.9491762,0.30138567,0.99043095,0.05439648,-0.12683684,,0.07738342,1.3301682,0.4561995,0.99824995,0.03678402,-0.046303254,-0.0014927235,-0.7670739,-0.641557,-0.05911706,0.6405033,-0.7656766,,-0.05343225,0.26269934,-0.07868466,0.17549074,-0.63785446,0.74989647,0.5428445,0.69815063,0.46680355,-0.8212934,0.32515743,0.46877474,,-0.0054726787,0.45011255,-0.29885235,-0.2538717,-0.27624097,-0.92695206,0.73185295,-0.68145746,0.0026427363,-0.6324084,-0.6777217,0.37517053,,1.2008849619419113,0.3115273214133425,0.19515645950000002,1.8922420500043478,-0.8795291489901401,-0.2588638985858541,-0.4152206161133378,,-1.319791880006346,0.2717706925768347,0.20804028581000003,-2.001909890446754,-0.8067018946151604,0.7134345254593949,0.8198238679279476,,-0.03254166390343428,-0.08714647121364187,0.07824560327999999,-0.058221254136848435,,-0.00013343617,-1.4901161e-06,7.6293945e-06,0.99999994,0.00012560561,0.00010506436,-0.00012559816,0.99999994,9.685755e-06,-0.00010506809,-9.715557e-06,1.0,411,1.253,0,0,0.0,True,-0.25582675076423333,1.0057248452517584
1.2630591880297288,10:10:39.427886,10:09:33.384396,0,,0.09813305,0.02005978,0.029334024,-0.25441498,0.5903991,-0.76596457,-0.10146415,0.77135956,0.6282588,0.96175784,0.23755628,-0.13634121,,0.071065225,0.01432877,0.025425434,0.10400011,0.31000596,0.9450292,0.09073597,-0.9491768,0.30138108,0.99042964,0.054404497,-0.1268432,,0.07738342,1.3301682,0.4561995,0.99824995,0.03678402,-0.046303254,-0.0014927235,-0.7670739,-0.641557,-0.05911706,0.6405033,-0.7656766,,-0.053398877,0.26265523,-0.07869237,0.17536618,-0.63775945,0.7500064,0.5430267,0.6981069,0.466657,-0.8211996,0.32543764,0.46874472,,-0.005472241,0.4501105,-0.29885268,-0.2538758,-0.276239,-0.9269515,0.73185813,-0.6814519,0.0026350126,-0.63240075,-0.67772806,0.3751719,,1.2008849619419113,0.3112261348312477,0.19515645950000002,1.8922420500043478,-0.8795291489901401,-0.2588638985858541,-0.4152206161133378,,-1.3197841572734719,0.2717629698439605,0.20804028581000003,-2.001909890446754,-0.8067018946151604,0.7134345254593949,0.8198238679279476,,-0.03254166390343428,-0.08714647121364187,0.07824560327999999,-0.058221254136848435,,-0.00013343617,-1.4901161e-06,7.6293945e-06,0.99999994,0.00012560561,0.00010506436,-0.00012559816,0.99999994,9.685755e-06,-0.00010506809,-9.715557e-06,1.0,419,1.278,0,0,0.0,True,-0.25642252794944387,1.005386883846302
1.2999154509743676,10:10:39.444725,10:09:33.384396,0,,0.098144874,0.020073846,0.02934213,-0.25446206,0.5903643,-0.7659758,-0.10153422,0.77136135,0.62824553,0.96173793,0.23763728,-0.13634017,,0.07106633,0.014329337,0.025426209,0.103993505,0.31000516,0.94503015,0.09073216,-0.9491771,0.30138114,0.9904307,0.054402977,-0.12683572,,0.07738342,1.3301682,0.4561995,0.99824995,0.03678402,-0.046303254,-0.0014927235,-0.7670739,-0.641557,-0.05911706,0.6405033,-0.7656766,,-0.053411882,0.26267022,-0.07868933,0.17541748,-0.6377318,0.75001794,0.5429638,0.69816166,0.46664825,-0.8212302,0.32537434,0.46873504,,-0.005473466,0.4501113,-0.29885277,-0.25386927,-0.27623796,-0.9269536,0.731857,-0.6814531,0.0026400688,-0.6324047,-0.6777273,0.37516668,,1.200877239209037,0.3113342530914869,0.19515645950000002,1.8922420500043478,-0.8795291489901401,-0.25894557732599466,-0.4153839601794722,,-1.319791880006346,0.2717629698439605,0.20804028581000003,-2.001909890446754,-0.8067018946151604,0.7134345254593949,0.8198238679279476,,-0.03254166390343428,-0.08714647121364187,0.07824560327999999,-0.058221254136848435,,-0.00013343617,-1.4901161e-06,7.6293945e-06,0.99999994,0.00012560561,0.00010506436,-0.00012559816,0.99999994,9.685755e-06,-0.00010506809,-9.715557e-06,1.0,427,1.303,0,0,0.0,True,-0.25636295023092304,1.004759241236169
1.3166708550415933,10:10:39.470331,10:09:33.515347,0,,0.09816743,0.020102382,0.029358998,-0.25454965,0.590358,-0.7659515,-0.101677895,0.77131325,0.6282813,0.9616996,0.237809,-0.13631126,,0.07106833,0.014328741,0.025426507,0.10398425,0.31000042,0.9450327,0.09073371,-0.94917834,0.30137667,0.99043155,0.054407954,-0.1268271,,0.07738342,1.3301682,0.4561995,0.99824995,0.03678402,-0.046303254,-0.0014927235,-0.7670739,-0.641557,-0.05911706,0.6405033,-0.7656766,,-0.05343687,0.26270103,-0.078683525,0.17551349,-0.6377382,0.74999,0.5428356,0.6982321,0.46669206,-0.8212944,0.32521048,0.46873614,,-0.0054754787,0.45011085,-0.29885328,-0.2538603,-0.27623397,-0.92695725,0.7318599,-0.68144995,0.0026424574,-0.6324049,-0.67773205,0.37515765,,1.200869516476163,0.3115504896119652,0.19515645950000002,1.8922420500043478,-0.8795291489901401,-0.25902725606613525,-0.41522061611333794,,-1.3197996027392203,0.2717552471110863,0.20804028581000003,-2.001909890446754,-0.8067018946151604,0.7134345254593949,0.8198238679279476,,-0.03254166390343428,-0.08714647121364187,0.07824560327999999,-0.058221254136848435,,-0.00013343617,-1.4901161e-06,7.6293945e-06,0.99999994,0.00012560561,0.00010506436,-0.00012559816,0.99999994,9.685755e-06,-0.00010506809,-9.715557e-06,1.0,435,1.327,0,0,0.0,True,-0.25683957197909146,1.0049523620392868
1.3423660260159522,10:10:39.498931,10:09:33.515347,0,,0.09819015,0.02013892,0.029382214,-0.25462806,0.5904288,-0.7658708,-0.101867974,0.77119213,0.62839913,0.96165866,0.23802564,-0.13622156,,0.07106614,0.014327608,0.025424957,0.103997394,0.31000194,0.94503075,0.09074131,-0.9491777,0.30137655,0.9904294,0.054411054,-0.12684207,,0.07738342,1.3301682,0.4561995,0.99824995,0.03678402,-0.046303254,-0.0014927235,-0.7670739,-0.641557,-0.05911706,0.6405033,-0.7656766,,-0.05346288,0.262742,-0.07867764,0.17560235,-0.63782257,0.7498975,0.542669,0.69826746,0.46683285,-0.8213855,0.32496917,0.46874395,,-0.0054730284,0.45010924,-0.2988531,-0.25387332,-0.276236,-0.9269531,0.7318622,-0.68144757,0.002632345,-0.63239706,-0.67773366,0.37516806,,1.2008926846747854,0.3118130625296888,0.19515645950000002,1.8922420500043478,-0.8795291489901401,-0.25902725606613525,-0.41522061611333794,,-1.3197841572734719,0.2717552471110863,0.20804028581000003,-2.001909890446754,-0.8067018946151604,0.7134345254593949,0.8198238679279476,,-0.03254166390343428,-0.08714647121364187,0.07824560327999999,-0.058221254136848435,,-0.00013343617,-1.4901161e-06,7.6293945e-06,0.99999994,0.00012560561,0.00010506436,-0.00012559816,0.99999994,9.685755e-06,-0.00010506809,-9.715557e-06,1.0,443,1.352,0,0,0.0,True,-0.25624379479388093,1.0034556758151236
1.3709447250002995,10:10:39.519854,10:09:33.515347,0,,0.09819788,0.020154849,0.029391736,-0.25472912,0.59038275,-0.7658728,-0.1018427,0.7712157,0.6283742,0.96163464,0.23806366,-0.13632506,,0.071064316,0.014329918,0.025425851,0.10400276,0.31000993,0.9450276,0.09073058,-0.94917583,0.3013856,0.9904299,0.05439797,-0.12684435,,0.07738342,1.3301682,0.4561995,0.99824995,0.03678402,-0.046303254,-0.0014927235,-0.7670739,-0.641557,-0.05911706,0.6405033,-0.7656766,,-0.053471997,0.2627597,-0.078674674,0.17570405,-0.6377808,0.74990916,0.542682,0.69831336,0.46674904,-0.82135516,0.32495254,0.46880862,,-0.0054714535,0.45011175,-0.29885226,-0.25387824,-0.276242,-0.92695,0.7318541,-0.68145627,0.0026376802,-0.63240445,-0.67772245,0.37517574,,1.200915852873408,0.3119211807899279,0.19515645950000002,1.8922420500043478,-0.8793925124903748,-0.25913867396983165,-0.41522061611333794,,-1.3197841572734719,0.2717706925768347,0.20804028581000003,-2.001909890446754,-0.8067018946151604,0.7134345254593949,0.8198238679279476,,-0.03254166390343428,-0.08714647121364187,0.07824560327999999,-0.058221254136848435,,-0.00013343617,-1.4901161e-06,7.6293945e-06,0.99999994,0.00012560561,0.00010506436,-0.00012559816,0.99999994,9.685755e-06,-0.00010506809,-9.715557e-06,1.0,451,1.377,0,0,0.0,True,-0.25600548391979716,1.0017658687878426
1.3918758190702647,10:10:39.539180,10:09:33.515347,0,,0.09820315,0.020158112,0.029392943,-0.25475398,0.59038955,-0.76585925,-0.10185632,0.77120167,0.62838936,0.9616265,0.23809218,-0.13633187,,0.071065225,0.01432877,0.025425434,0.10400011,0.31000596,0.9450292,0.09073597,-0.9491768,0.30138108,0.99042964,0.054404497,-0.1268432,,0.07738342,1.3301682,0.4561995,0.99824995,0.03678402,-0.046303254,-0.0014927235,-0.7670739,-0.641557,-0.05911706,0.6405033,-0.7656766,,-0.053477477,0.26276252,-0.07867334,0.17572999,-0.6377895,0.7498957,0.54266846,0.6983197,0.46675536,-0.82135856,0.32492182,0.46882394,,-0.005472241,0.4501105,-0.29885268,-0.2538758,-0.276239,-0.9269515,0.73185813,-0.6814519,0.0026350126,-0.63240075,-0.67772806,0.3751719,,1.2009004074076597,0.31195207172142486,0.19515645950000002,1.8922420500043478,-0.8793925124903748,-0.25913867396983165,-0.41522061611333794,,-1.3197841572734719,0.2717629698439605,0.20804028581000003,-2.001909890446754,-0.8067018946151604,0.7134345254593949,0.8198238679279476,,-0.03254166390343428,-0.08714647121364187,0.07824560327999999,-0.058221254136848435,,-0.00013343617,-1.4901161e-06,7.6293945e-06,0.99999994,0.00012560561,0.00010506436,-0.00012559816,0.99999994,9.685755e-06,-0.00010506809,-9.715557e-06,1.0,480,1.466,0,0,0.0,True,-0.256541683386486,1.0012830667800483
1.4111737890634686,10:10:39.631317,10:09:33.636932,0,,0.09819558,0.02013728,0.029377058,-0.25503308,0.58983845,-0.7661909,-0.10179645,0.7716117,0.6278954,0.96155894,0.23812944,-0.13674319,,0.0710665,0.014328279,0.025423884,0.103997394,0.31000194,0.94503075,0.09074131,-0.9491777,0.30137655,0.9904294,0.054411054,-0.12684207,,0.07738342,1.3301682,0.4561995,0.99824995,0.03678402,-0.046303254,-0.0014927235,-0.7670739,-0.641557,-0.05911706,0.6405033,-0.7656766,,-0.05346779,0.26273707,-0.07867442,0.17601132,-0.6372598,0.75027996,0.54269606,0.6987074,0.46614262,-0.8212801,0.3251276,0.46881878,,-0.005473257,0.45010895,-0.29885185,-0.25387332,-0.276236,-0.9269531,0.7318622,-0.68144757,0.002632345,-0.63239706,-0.67773366,0.37516806,,1.2008540710104143,0.31182850799543727,0.19515645950000002,1.8918226701173786,-0.8792558759906093,-0.2594134493538091,-0.4152206161133378,,-1.3197841572734719,0.2717552471110863,0.2080415821,-2.001909890446754,-0.8067018946151604,0.7134345254593949,0.8198238679279476,,-0.03254166390343428,-0.08714647121364187,0.07824560327999999,-0.058221254136848435,,-0.00013343617,-1.4901161e-06,7.6293945e-06,0.99999994,0.00012560561,0.00010506436,-0.00012559816,0.99999994,9.685755e-06,-0.00010506809,-9.715557e-06,1.0,488,1.491,0,0,0.0,True,-0.25636295023092304,1.0007037043706946
1.5033513139933348,10:10:39.662401,10:09:33.636932,0,,0.09819049,0.020142034,0.029382214,-0.25499904,0.5898462,-0.76619613,-0.10182899,0.7716042,0.6278994,0.96156454,0.23813465,-0.13669497,,0.07106869,0.014329441,0.025425553,0.10398425,0.31000042,0.9450327,0.09073371,-0.94917834,0.30137667,0.99043155,0.054407954,-0.1268271,,0.07738342,1.3301682,0.4561995,0.99824995,0.03678402,-0.046303254,-0.0014927235,-0.7670739,-0.641557,-0.05911706,0.6405033,-0.7656766,,-0.053463336,0.2627444,-0.07867565,0.17597821,-0.63726765,0.750281,0.5426714,0.6987041,0.4661763,-0.8213035,0.32511914,0.46878362,,-0.005475708,0.45011058,-0.29885203,-0.2538603,-0.27623397,-0.92695725,0.7318599,-0.68144995,0.0026424574,-0.6324049,-0.67773205,0.37515765,,1.2009004074076597,0.3118439534611857,0.19515645950000002,1.8918226701173786,-0.8792558759906093,-0.2594134493538091,-0.4152206161133378,,-1.3197996027392203,0.2717552471110863,0.2080415821,-2.001909890446754,-0.8067018946151604,0.7134345254593949,0.8198238679279476,,-0.03254166390343428,-0.08714647121364187,0.07824560327999999,-0.058221254136848435,,-0.00013343617,-1.4901161e-06,7.6293945e-06,0.99999994,0.00012560561,0.00010506436,-0.00012559816,0.99999994,9.685755e-06,-0.00010506809,-9.715557e-06,1.0,496,1.516,0,0,0.0,True,-0.2571374605716965,0.9997863805558849
1.5344300160650164,10:10:39.682235,10:09:33.636932,0,,0.09819049,0.020142034,0.029382214,-0.25499904,0.5898462,-0.76619613,-0.10182899,0.7716042,0.6278994,0.96156454,0.23813465,-0.13669497,,0.0710665,0.014328279,0.025423884,0.103997394,0.31000194,0.94503075,0.09074131,-0.9491777,0.30137655,0.9904294,0.054411054,-0.12684207,,0.07738342,1.3301682,0.4561995,0.99824995,0.03678402,-0.046303254,-0.0014927235,-0.7670739,-0.641557,-0.05911706,0.6405033,-0.7656766,,-0.053463336,0.2627444,-0.07867565,0.17597821,-0.63726765,0.750281,0.5426714,0.6987041,0.4661763,-0.8213035,0.32511914,0.46878362,,-0.005473257,0.45010895,-0.29885185,-0.25387332,-0.276236,-0.9269531,0.7318622,-0.68144757,0.002632345,-0.63239706,-0.67773366,0.37516806,,1.2009004074076597,0.3118439534611857,0.19515645950000002,1.8918226701173786,-0.8792558759906093,-0.2594134493538091,-0.4152206161133378,,-1.3197841572734719,0.2717552471110863,0.2080415821,-2.001909890446754,-0.8067018946151604,0.7134345254593949,0.8198238679279476,,-0.03254166390343428,-0.08714647121364187,0.07824560327999999,-0.058221254136848435,,-0.00013343617,-1.4901161e-06,7.6293945e-06,0.99999994,0.00012560561,0.00010506436,-0.00012559816,0.99999994,9.685755e-06,-0.00010506809,-9.715557e-06,1.0,504,1.54,0,0,0.0,True,-0.2555288621716292,0.9995932597527672
1.5542693400057033,10:10:39.703706,10:09:33.636932,0,,0.098193035,0.020139664,0.029379636,-0.25501606,0.5898424,-0.76619357,-0.10181269,0.771608,0.6278974,0.9615618,0.23813209,-0.1367191,,0.0710676,0.014328875,0.025424719,0.103990845,0.3100012,0.9450317,0.09073746,-0.949178,0.30137658,0.9904305,0.054409474,-0.12683459,,0.07738342,1.3301682,0.4561995,0.99824995,0.03678402,-0.046303254,-0.0014927235,-0.7670739,-0.641557,-0.05911706,0.6405033,-0.7656766,,-0.053465564,0.26274073,-0.07867503,0.17599477,-0.6372637,0.7502805,0.5426837,0.6987058,0.46615946,-0.8212918,0.32512337,0.4688012,,-0.0054744827,0.45010975,-0.29885194,-0.25386682,-0.27623498,-0.92695516,0.73186105,-0.68144876,0.0026374012,-0.632401,-0.6777328,0.37516284,,1.200877239209037,0.31183623072831146,0.19515645950000002,1.8918226701173786,-0.8792558759906093,-0.2594134493538091,-0.4152206161133378,,-1.319791880006346,0.2717552471110863,0.2080415821,-2.001909890446754,-0.8067018946151604,0.7134345254593949,0.8198238679279476,,-0.03254166390343428,-0.08714647121364187,0.07824560327999999,-0.058221254136848435,,-0.00013343617,-1.4901161e-06,7.6293945e-06,0.99999994,0.00012560561,0.00010506436,-0.00012559816,0.99999994,9.685755e-06,-0.00010506809,-9.715557e-06,1.0,512,1.565,0,0,0.0,True,-0.2556480176086704,0.9993035785480904
1.57571345299948,10:10:39.737164,10:09:33.636932,0,,0.09819582,0.020136505,0.029378071,-0.25503308,0.58983845,-0.7661909,-0.10179645,0.7716117,0.6278954,0.96155894,0.23812944,-0.13674319,,0.071069606,0.014328279,0.025425076,0.103981584,0.3100736,0.945009,0.09073904,-0.9491546,0.30144966,0.9904314,0.05440405,-0.12683043,,0.07738342,1.3301682,0.4561995,0.99824995,0.03678402,-0.046303254,-0.0014927235,-0.7670739,-0.641557,-0.05911706,0.6405033,-0.7656766,,-0.05346808,0.26273707,-0.07867568,0.17601132,-0.6372598,0.75027996,0.54269606,0.6987074,0.46614262,-0.8212801,0.3251276,0.46881878,,-0.0054764953,0.45010933,-0.29885244,-0.25385785,-0.2763067,-0.92693627,0.731864,-0.6814454,0.0026954494,-0.6324012,-0.67770696,0.37520918,,1.2008540710104143,0.31182850799543727,0.19515516321,1.8918226701173786,-0.8792558759906093,-0.2594134493538091,-0.4152206161133378,,-1.3197996027392203,0.27174752437821204,0.2080415821,-2.001909890446754,-0.8067018946151604,0.7133528467192544,0.8199872119940819,,-0.03254166390343428,-0.08714647121364187,0.07824560327999999,-0.058221254136848435,,-0.00013343617,-1.4901161e-06,7.6293945e-06,0.99999994,0.00012560561,0.00010506436,-0.00012559816,0.99999994,9.685755e-06,-0.00010506809,-9.715557e-06,1.0,520,1.589,0,0,0.0,True,-0.2571374605716965,0.9995932597527672
1.6091976480092853,10:10:39.763919,10:09:33.813556,0,,0.098194525,0.020133674,0.029377833,-0.2550273,0.5898344,-0.76619595,-0.10178587,0.77161884,0.6278884,0.9615617,0.23811647,-0.13674718,,0.07106851,0.014327712,0.025424242,0.10398814,0.31007442,0.94500804,0.090742856,-0.9491544,0.3014496,0.99043036,0.05440563,-0.1268379,,0.07738342,1.3301682,0.4561995,0.99824995,0.03678402,-0.046303254,-0.0014927235,-0.7670739,-0.641557,-0.05911706,0.6405033,-0.7656766,,-0.053466655,0.26273483,-0.07867734,0.17600495,-0.6372549,0.75028557,0.5427054,0.69870514,0.4661351,-0.8212753,0.32514197,0.46881723,,-0.0054752696,0.4501085,-0.29885235,-0.25386435,-0.2763077,-0.9269342,0.7318651,-0.6814442,0.0026903932,-0.6323973,-0.6777078,0.37521437,,1.2008540710104143,0.3118130625296888,0.19515386692000003,1.8918226701173786,-0.8792558759906093,-0.2594134493538091,-0.4152206161133378,,-1.319791880006346,0.27174752437821204,0.2080415821,-2.001909890446754,-0.8067018946151604,0.7133528467192544,0.8203139001263504,,-0.03254166390343428,-0.08714647121364187,0.07824560327999999,-0.058221254136848435,,-0.00013343617,-1.4901161e-06,7.6293945e-06,0.99999994,0.00012560561,0.00010506436,-0.00012559816,0.99999994,9.685755e-06,-0.00010506809,-9.715557e-06,1.0,553,1.692,0,0,0.0,True,-0.25624379479388093,0.9996415399535463
1.6359026230638847,10:10:39.853702,10:09:33.813556,0,,0.09806596,0.020183906,0.029368207,-0.25504324,0.5899217,-0.7661234,-0.1017766,0.77154636,0.6279789,0.96155834,0.23813507,-0.1367376,,0.07116584,0.01439283,0.025425881,0.103839606,0.31033832,0.9449377,0.09082866,-0.9490627,0.30171192,0.99043804,0.054497898,-0.12673795,,0.077476345,1.3301703,0.45619845,0.99824977,0.03668877,-0.046382915,-0.0016166767,-0.7670785,-0.6415512,-0.05911706,0.6405033,-0.7656766,,-0.053413857,0.2627818,-0.07863663,0.176007,-0.6372483,0.7502907,0.54268914,0.6987162,0.46613747,-0.8212856,0.32513118,0.46880668,,-0.005648091,0.45014033,-0.2987984,-0.25370288,-0.27670455,-0.92686,0.7319709,-0.6813291,0.0030465655,-0.63233966,-0.6776616,0.37539482,,1.200877239209037,0.31183623072831146,0.19515386692000003,1.8918226701173786,-0.8792558759906093,-0.2594134493538091,-0.4152206161133378,,-1.319791880006346,0.2717552471110863,0.2080415821,-2.0021195803902385,-0.8067018946151604,0.7133528467192544,0.8203139001263504,,-0.03254166390343428,-0.08714647121364187,0.07824560327999999,-0.058221254136848435,,-4.061684e-05,-2.3841858e-07,2.861023e-06,1.0,3.053248e-05,2.5536865e-05,-3.052503e-05,0.99999994,2.3543835e-06,-2.554059e-05,-2.3543835e-06,1.0,561,1.716,0,0,0.0,True,-0.2543373078012081,0.9971792497137941
1.7257365830009803,10:10:39.883198,10:09:33.813556,0,,0.09806816,0.020183027,0.029366925,-0.2550565,0.5899205,-0.76612,-0.10176921,0.7715465,0.62797993,0.9615556,0.23813766,-0.13675234,,0.07116821,0.014392935,0.025425225,0.103830345,0.31033355,0.94494027,0.09083021,-0.949064,0.30170745,0.99043894,0.054502845,-0.12672935,,0.077476345,1.3301703,0.45619845,0.99824977,0.03668877,-0.046382915,-0.0016166767,-0.7670785,-0.6415512,-0.05911706,0.6405033,-0.7656766,,-0.05341591,0.26278013,-0.07863609,0.17602016,-0.63724726,0.7502885,0.5426943,0.6987181,0.46612877,-0.8212794,0.32512918,0.4688189,,-0.0056503327,0.4501396,-0.29879767,-0.2536939,-0.27670053,-0.9268637,0.7319738,-0.681326,0.0030489543,-0.6323399,-0.6776664,0.3753858,,1.2008617937432886,0.31183623072831146,0.19515386692000003,1.8918226701173786,-0.8792558759906093,-0.2594134493538091,-0.4152206161133378,,-1.3197996027392203,0.27174752437821204,0.20804287839000002,-2.0021195803902385,-0.8067018946151604,0.7133528467192544,0.8203139001263504,,-0.03254166390343428,-0.08714647121364187,0.07824560327999999,-0.058221254136848435,,-4.061684e-05,-2.3841858e-07,2.861023e-06,1.0,3.053248e-05,2.5536865e-05,-3.052503e-05,0.99999994,2.3543835e-06,-2.554059e-05,-2.3543835e-06,1.0,569,1.741,0,0,0.0,True,-0.2550522404234603,0.9966481675052203
1.755213082069531,10:10:39.911777,10:09:33.944719,0,,0.09806927,0.020182565,0.029366255,-0.25506315,0.5899199,-0.7661183,-0.10176554,0.7715466,0.6279805,0.96155417,0.23813897,-0.13675976,,0.0711662,0.014393501,0.025424808,0.103839606,0.31033832,0.9449377,0.09082866,-0.9490627,0.30171192,0.99043804,0.054497898,-0.12673795,,0.077476345,1.3301703,0.45619845,0.99824977,0.03668877,-0.046382915,-0.0016166767,-0.7670785,-0.6415512,-0.05911706,0.6405033,-0.7656766,,-0.053416938,0.26277927,-0.07863582,0.17602675,-0.6372468,0.75028735,0.54269683,0.69871897,0.46612442,-0.8212763,0.3251282,0.46882504,,-0.0056483196,0.45014003,-0.29879716,-0.25370288,-0.27670455,-0.92686,0.7319709,-0.6813291,0.0030465655,-0.63233966,-0.6776616,0.37539482,,1.2008540710104143,0.31183623072831146,0.19515386692000003,1.8918226701173786,-0.8792558759906093,-0.2594134493538091,-0.4152206161133378,,-1.319791880006346,0.2717552471110863,0.20804287839000002,-2.0021195803902385,-0.8067018946151604,0.7133528467192544,0.8203139001263504,,-0.03254166390343428,-0.08714647121364187,0.07824560327999999,-0.058221254136848435,,-4.061684e-05,-2.3841858e-07,2.861023e-06,1.0,3.053248e-05,2.5536865e-05,-3.052503e-05,0.99999994,2.3543835e-06,-2.554059e-05,-2.3543835e-06,1.0,577,1.765,0,0,0.0,True,-0.25576717304571295,0.9962619258989842
1.783805847982876,10:10:39.931462,10:09:33.944719,0,,0.09806816,0.020183027,0.029366925,-0.2550565,0.5899205,-0.76612,-0.10176921,0.7715465,0.62797993,0.9615556,0.23813766,-0.13675234,,0.07116639,0.014395215,0.02542612,0.10383569,0.31034154,0.94493705,0.09081945,-0.9490621,0.30171648,0.9904393,0.05448985,-0.12673159,,0.077476345,1.3301703,0.45619845,0.99824977,0.03668877,-0.046382915,-0.0016166767,-0.7670785,-0.6415512,-0.05911706,0.6405033,-0.7656766,,-0.05341591,0.26278013,-0.07863609,0.17602016,-0.63724726,0.7502885,0.5426943,0.6987181,0.46612877,-0.8212794,0.32512918,0.4688189,,-0.0056487573,0.45014212,-0.29879683,-0.25369883,-0.27670652,-0.9268605,0.7319657,-0.6813346,0.0030542903,-0.6323473,-0.6776552,0.37539348,,1.2008617937432886,0.31183623072831146,0.19515386692000003,1.8918226701173786,-0.8792558759906093,-0.2594134493538091,-0.4152206161133378,,-1.3197996027392203,0.2717629698439605,0.20804287839000002,-2.0021195803902385,-0.8067018946151604,0.7133528467192544,0.8203139001263504,,-0.03254166390343428,-0.08714647121364187,0.07824560327999999,-0.058221254136848435,,-4.061684e-05,-2.3841858e-07,2.861023e-06,1.0,3.053248e-05,2.5536865e-05,-3.052503e-05,0.99999994,2.3543835e-06,-2.554059e-05,-2.3543835e-06,1.0,581,1.778,0,0,0.0,True,-0.2555288621716292,0.996406766501323
1.8034948509884998,10:10:39.951886,10:09:33.944719,0,,0.09806672,0.020184934,0.029368848,-0.25504613,0.58992374,-0.7661209,-0.101781815,0.7715428,0.62798244,0.96155703,0.23814157,-0.13673563,,0.07116712,0.014392339,0.025424391,0.10383691,0.31033438,0.9449394,0.09083405,-0.9490636,0.3017074,0.99043787,0.054504424,-0.12673683,,0.077476345,1.3301703,0.45619845,0.99824977,0.03668877,-0.046382915,-0.0016166767,-0.7670785,-0.6415512,-0.05911706,0.6405033,-0.7656766,,-0.05341471,0.26278293,-0.07863643,0.17601019,-0.6372507,0.7502879,0.5426845,0.69871736,0.46614125,-0.821288,0.32512397,0.46880746,,-0.0056491075,0.45013878,-0.29879758,-0.2537004,-0.27670157,-0.9268616,0.73197496,-0.6813247,0.0030438977,-0.63233596,-0.6776672,0.37539098,,1.200877239209037,0.3118439534611857,0.19515386692000003,1.8918226701173786,-0.8792558759906093,-0.2594134493538091,-0.4152206161133378,,-1.319791880006346,0.27174752437821204,0.20804287839000002,-2.0021195803902385,-0.8067018946151604,0.7133528467192544,0.8203139001263504,,-0.03254166390343428,-0.08714647121364187,0.07824560327999999,-0.058221254136848435,,-4.061684e-05,-2.3841858e-07,2.861023e-06,1.0,3.053248e-05,2.5536865e-05,-3.052503e-05,0.99999994,2.3543835e-06,-2.554059e-05,-2.3543835e-06,1.0,593,1.815,0,0,0.0,True,-0.2555288621716292,0.9965033269028816
1.8239086540415883,10:10:39.981930,10:09:33.944719,0,,0.09806451,0.020185828,0.029370144,-0.25503287,0.58992493,-0.7661244,-0.10178918,0.77154267,0.6279814,0.96155965,0.23813897,-0.13672084,,0.07116712,0.014392339,0.025424391,0.10383691,0.31033438,0.9449394,0.09083405,-0.9490636,0.3017074,0.99043787,0.054504424,-0.12673683,,0.077476345,1.3301703,0.45619845,0.99824977,0.03668877,-0.046382915,-0.0016166767,-0.7670785,-0.6415512,-0.05911706,0.6405033,-0.7656766,,-0.053412657,0.26278463,-0.078636974,0.17599703,-0.63725173,0.7502901,0.54267937,0.6987155,0.46614996,-0.8212942,0.32512596,0.4687952,,-0.0056491075,0.45013878,-0.29879758,-0.2537004,-0.27670157,-0.9268616,0.73197496,-0.6813247,0.0030438977,-0.63233596,-0.6776672,0.37539098,,1.2008926846747854,0.3118439534611857,0.19515386692000003,1.8918226701173786,-0.8792558759906093,-0.2594134493538091,-0.4152206161133378,,-1.319791880006346,0.27174752437821204,0.20804287839000002,-2.0021195803902385,-0.8067018946151604,0.7133528467192544,0.8203139001263504,,-0.03254166390343428,-0.08714647121364187,0.07824560327999999,-0.058221254136848435,,-4.061684e-05,-2.3841858e-07,2.861023e-06,1.0,3.053248e-05,2.5536865e-05,-3.052503e-05,0.99999994,2.3543835e-06,-2.554059e-05,-2.3543835e-06,1.0,601,1.839,0,0,0.0,True,-0.2552905512975445,0.9965033269028816
1.8539543800288811,10:10:40.011984,10:09:33.944719,0,,0.098064855,0.020184368,0.029368877,-0.2550366,0.5898598,-0.76617336,-0.101780295,0.7715976,0.6279154,0.96155965,0.23812264,-0.13674966,,0.07116912,0.014391802,0.025424749,0.103827685,0.3103296,0.9449419,0.0908356,-0.9490649,0.30170292,0.9904387,0.05450937,-0.1267282,,0.077476345,1.3301703,0.45619845,0.99824977,0.03668877,-0.046382915,-0.0016166767,-0.7670785,-0.6415512,-0.05911706,0.6405033,-0.7656766,,-0.05341283,0.26278266,-0.0786369,0.17600042,-0.63718754,0.75034386,0.5426866,0.69875336,0.46608478,-0.8212887,0.32517043,0.468774,,-0.00565112,0.45013836,-0.29879805,-0.25369146,-0.27669755,-0.9268652,0.7319779,-0.6813216,0.0030462863,-0.6323362,-0.67767197,0.37538195,,1.2008849619419113,0.31183623072831146,0.19515386692000003,1.8918226701173786,-0.8792558759906093,-0.25949512809394976,-0.4153839601794722,,-1.3197996027392203,0.27173980164533784,0.20804287839000002,-2.0021195803902385,-0.8067018946151604,0.7133528467192544,0.8203139001263504,,-0.03254166390343428,-0.08714647121364187,0.07824560327999999,-0.058221254136848435,,-4.061684e-05,-2.3841858e-07,2.861023e-06,1.0,3.053248e-05,2.5536865e-05,-3.052503e-05,0.99999994,2.3543835e-06,-2.554059e-05,-2.3543835e-06,1.0,630,1.929,0,0,0.0,True,-0.256541683386486,0.9963584863005435
1.88401676598005,10:10:40.094235,10:09:34.088192,0,,0.09806738,0.020183578,0.029366374,-0.25513038,0.589657,-0.76629823,-0.101662934,0.7717738,0.6277178,0.96154726,0.23805389,-0.13695686,,0.071168475,0.014393367,0.025425583,0.10395673,0.31018308,0.9449758,0.09074929,-0.94911873,0.30155966,0.99043304,0.05440691,-0.12681627,,0.077476345,1.3301703,0.45619845,0.99824977,0.03668877,-0.046382915,-0.0016166767,-0.7670785,-0.6415512,-0.05911706,0.6405033,-0.7656766,,-0.0534151,0.26278028,-0.078635335,0.17609033,-0.6369865,0.75049347,0.5427778,0.69886416,0.46581236,-0.8212092,0.32532609,0.4688053,,-0.0056506684,0.45014015,-0.2987976,-0.2538147,-0.27653536,-0.9268799,0.73189527,-0.681411,0.0028789768,-0.63238233,-0.6776483,0.37534708,,1.200869516476163,0.31183623072831146,0.19515386692000003,1.8918226701173786,-0.8791192394908438,-0.25976990347792733,-0.4153839601794721,,-1.3197996027392203,0.2717552471110863,0.20804287839000002,-2.001909890446754,-0.8067018946151604,0.7133528467192544,0.8203139001263504,,-0.03254166390343428,-0.08714647121364187,0.07824560327999999,-0.058221254136848435,,-4.061684e-05,-2.3841858e-07,2.861023e-06,1.0,3.053248e-05,2.5536865e-05,-3.052503e-05,0.99999994,2.3543835e-06,-2.554059e-05,-2.3543835e-06,1.0,634,1.942,0,0,0.0,False,-0.2555288621716292,0.9940893168639089
1.9662477449746802,10:10:40.105538,10:09:34.088192,0,,0.098076284,0.02018851,0.02936554,-0.25522316,0.5890431,-0.7667395,-0.10138005,0.77232754,0.6270822,0.9615525,0.23777777,-0.13739878,,0.07118059,0.014384113,0.025434822,0.10475923,0.30725998,0.9458418,0.08869445,-0.9501716,0.29884297,0.99053466,0.05258444,-0.12679155,,0.077476345,1.3301703,0.45619845,0.99824977,0.03668877,-0.046382915,-0.0016166767,-0.7670785,-0.6415512,-0.05911706,0.6405033,-0.7656766,,-0.05342409,0.26278287,-0.078631215,0.17617138,-0.63637304,0.7509947,0.54300845,0.6991729,0.46507958,-0.82103926,0.32586277,0.4687302,,-0.0056636357,0.45013827,-0.29880965,-0.25454035,-0.27333367,-0.92763025,0.7303915,-0.6830282,0.0008414015,-0.6338276,-0.67731905,0.37349883,,1.2008463482775402,0.3118748443926826,0.19515386692000003,1.8920323600608633,-0.8788459664913129,-0.26080952668672586,-0.414730583914935,,-1.3197764345405976,0.2717552471110863,0.20804287839000002,-1.9993936111249395,-0.8080682596128148,0.714385347016078,0.8201505560602161,,-0.03254166390343428,-0.08714647121364187,0.07824560327999999,-0.058221254136848435,,-4.061684e-05,-2.3841858e-07,2.861023e-06,1.0,3.053248e-05,2.5536865e-05,-3.052503e-05,0.99999994,2.3543835e-06,-2.554059e-05,-2.3543835e-06,1.0,642,1.966,0,0,0.0,False,-0.25540970673458663,0.9906614226085673
1.9775688459631056,10:10:40.134841,10:09:34.088192,0,,0.09812974,0.020164609,0.029365405,-0.26180074,0.5764636,-0.7740478,-0.102289766,0.78093004,0.6161858,0.9596859,0.24049494,-0.14548185,,0.07122102,0.014349185,0.025452942,0.108342715,0.3086953,0.9449703,0.08197451,-0.9501027,0.30097336,0.9907281,0.044855326,-0.12824191,,0.077476345,1.3301703,0.45619845,0.99824977,0.03668877,-0.046382915,-0.0016166767,-0.7670785,-0.6415512,-0.05911706,0.6405033,-0.7656766,,-0.05347638,0.26275975,-0.078643896,0.18291403,-0.6244102,0.7593776,0.5416845,0.7085987,0.45217896,-0.8204391,0.32863322,0.467846,,-0.005704877,0.45012042,-0.29884377,-0.25784045,-0.2736038,-0.92663866,0.72525126,-0.6884827,0.0014810044,-0.63837993,-0.671664,0.3759502,,1.2005374389625711,0.3122841492350165,0.19510720048000002,1.883225382434513,-0.8757033269967078,-0.26892629280130176,-0.4140772076503978,,-1.319660593547484,0.2717629698439605,0.20804676726000002,-1.9899575636681361,-0.8120307181060126,0.7052012977219086,0.8193338357295448,,-0.03254166390343428,-0.08714647121364187,0.07824560327999999,-0.058221254136848435,,-4.061684e-05,-2.3841858e-07,2.861023e-06,1.0,3.053248e-05,2.5536865e-05,-3.052503e-05,0.99999994,2.3543835e-06,-2.554059e-05,-2.3543835e-06,1.0,650,1.991,0,0,0.0,False,-0.25451604095677105,0.9858816827314008
2.0068727610632777,10:10:40.163681,10:09:34.212192,0,,0.09829378,0.020160154,0.029462367,-0.26468855,0.57285094,-0.77574587,-0.10251239,0.783164,0.61330664,0.9588697,0.24185866,-0.14857036,,0.071259275,0.0143257305,0.02549532,0.109528184,0.31681913,0.94214076,0.07285231,-0.9478527,0.31027055,0.99131036,0.034653872,-0.12689763,,0.077476345,1.3301703,0.45619845,0.99824977,0.03668877,-0.046382915,-0.0016166767,-0.7670785,-0.6415512,-0.05911706,0.6405033,-0.7656766,,-0.053647783,0.26280317,-0.07871507,0.18586726,-0.62101525,0.76144165,0.5412426,0.7114863,0.4481559,-0.820067,0.32882714,0.4683619,,-0.005748053,0.45012772,-0.29888725,-0.25873286,-0.28020182,-0.92441565,0.7189809,-0.694966,0.009418672,-0.6450766,-0.6622003,0.3812703,,1.200012293127124,0.3130795907210616,0.1949879418,1.8804994131692143,-0.8743369619990534,-0.2712656529403744,-0.41391386358426363,,-1.3195447525543709,0.27178613804258317,0.20805843387000003,-1.9815699659287551,-0.819272452593581,0.68946158048057,0.8177003950682019,,-0.03254166390343428,-0.08714647121364187,0.07824560327999999,-0.058221254136848435,,-4.061684e-05,-2.3841858e-07,2.861023e-06,1.0,3.053248e-05,2.5536865e-05,-3.052503e-05,0.99999994,2.3543835e-06,-2.554059e-05,-2.3543835e-06,1.0,658,2.015,0,0,0.0,False,-0.2546351963938136,0.9848195183142527
2.035712058073841,10:10:40.185636,10:09:34.212192,0,,0.098728746,0.020210117,0.029635236,-0.27709988,0.56552863,-0.7767837,-0.10334149,0.7862105,0.6092564,0.95526755,0.24909872,-0.1594164,,0.07131455,0.014311515,0.025599986,0.10648064,0.33183497,0.93730855,0.05450937,-0.9431984,0.32772776,0.99281955,0.016195565,-0.11852054,,0.077476345,1.3301703,0.45619845,0.99824977,0.03668877,-0.046382915,-0.0016166767,-0.7670785,-0.6415512,-0.05911706,0.6405033,-0.7656766,,-0.054097477,0.26291367,-0.07879955,0.19856277,-0.6144581,0.76355356,0.53938365,0.7189836,0.43832392,-0.8183142,0.32481351,0.47419202,,-0.0058176867,0.45018223,-0.29896727,-0.2552113,-0.29247636,-0.9215882,0.70732504,-0.70632243,0.028282994,-0.6592105,-0.64464426,0.38713732,,1.1985449738810212,0.3154813606449454,0.19475590589000003,1.8672889467296894,-0.8679150465100777,-0.26898785032117445,-0.41391386358426363,,-1.3193594069653896,0.2718324744398285,0.20809732257000002,-1.971085468754529,-0.8366252880637919,0.6639157865417024,0.8137801374809792,,-0.03254166390343428,-0.08714647121364187,0.07824560327999999,-0.058221254136848435,,-4.061684e-05,-2.3841858e-07,2.861023e-06,1.0,3.053248e-05,2.5536865e-05,-3.052503e-05,0.99999994,2.3543835e-06,-2.554059e-05,-2.3543835e-06,1.0,666,2.04,0,0,0.0,False,-0.254218152364166,0.9858816827314008
2.057644792017527,10:10:40.216703,10:09:34.212192,0,,0.09941027,0.02041611,0.02970457,-0.29937357,0.5560174,-0.7753838,-0.09814879,0.7903984,0.6046792,0.9490744,0.25712782,-0.18205214,,0.07132883,0.014287718,0.025645941,0.10486011,0.33552906,0.93617547,0.043984145,-0.94200885,0.33269316,0.9935138,0.006290674,-0.11353715,,0.077476345,1.3301703,0.45619845,0.99824977,0.03668877,-0.046382915,-0.0016166767,-0.7670785,-0.6415512,-0.05911706,0.6405033,-0.7656766,,-0.05478984,0.26306015,-0.07869515,0.22106674,-0.6058326,0.76426196,0.541405,0.72804254,0.42051715,-0.8111782,0.3208129,0.4889468,,-0.0058376775,0.45019493,-0.29901543,-0.2532917,-0.29469925,-0.9214096,0.7005018,-0.7127719,0.035404492,-0.6671885,-0.63648146,0.38697654,,1.1962590449502508,0.31923460882181853,0.19458090674000003,1.849465301533505,-0.8508354840393977,-0.26625262529455246,-0.41456723984880073,,-1.3191122795134143,0.27184791990557694,0.20811806321,-1.9647947704499933,-0.8465997525466691,0.6542433281608986,0.8114933205550994,,-0.03254166390343428,-0.08714647121364187,0.07824560327999999,-0.058221254136848435,,-4.061684e-05,-2.3841858e-07,2.861023e-06,1.0,3.053248e-05,2.5536865e-05,-3.052503e-05,0.99999994,2.3543835e-06,-2.554059e-05,-2.3543835e-06,1.0,699,2.142,0,0,0.0,False,-0.2543373078012081,0.9885853739750505
2.0886958290357143,10:10:40.304486,10:09:34.307286,0,,0.10201683,0.021499172,0.029769957,-0.3756415,0.5374882,-0.7549833,-0.080011696,0.7927934,0.60421574,0.9233047,0.28737587,-0.25480086,,0.07126636,0.014253654,0.025555283,0.10705735,0.3338986,0.93650967,0.047588438,-0.94256437,0.33061728,0.9931133,0.009172142,-0.11679821,,0.077476345,1.3301703,0.45619845,0.99824977,0.03668877,-0.046382915,-0.0016166767,-0.7670785,-0.6415512,-0.05911706,0.6405033,-0.7656766,,-0.05743218,0.26372483,-0.077955104,0.29849786,-0.5900506,0.75015956,0.54575354,0.7503359,0.3730271,-0.78297645,0.29805443,0.54599583,,-0.005761092,0.45011657,-0.29897976,-0.25554746,-0.29349506,-0.92117107,0.7025088,-0.71097153,0.03163611,-0.66421145,-0.63904625,0.38786983,,1.18770225692561,0.33369156476236683,0.19432424132,1.7928490167926832,-0.7911253336419002,-0.2427382429256315,-0.4119537347906522,,-1.3186643610067093,0.27180930624120586,0.20812713724,-1.9652141503369622,-0.8427739305532367,0.6565961024468164,0.8129634171503077,,-0.03254166390343428,-0.08714647121364187,0.07824560327999999,-0.058221254136848435,,-4.061684e-05,-2.3841858e-07,2.861023e-06,1.0,3.053248e-05,2.5536865e-05,-3.052503e-05,0.99999994,2.3543835e-06,-2.554059e-05,-2.3543835e-06,1.0,707,2.167,0,0,0.0,False,-0.254694774112334,0.988440533372712
2.176517743966542,10:10:40.337194,10:09:34.307286,0,,0.10337169,0.02207391,0.029837325,-0.3890127,0.53608066,-0.74919057,-0.07606062,0.79178137,0.6060502,0.918087,0.292745,-0.26723856,,0.07126266,0.014251523,0.02555129,0.10703121,0.3346268,0.9362526,0.047795743,-0.9423049,0.33132604,0.9931061,0.009286761,-0.116849825,,0.077476345,1.3301703,0.45619845,0.99824977,0.03668877,-0.046382915,-0.0016166767,-0.7670785,-0.6415512,-0.05911706,0.6405033,-0.7656766,,-0.05880893,0.2641003,-0.07758895,0.31210294,-0.58906716,0.7453802,0.54667795,0.75302017,0.36620188,-0.7770038,0.29319027,0.5570498,,-0.0057567563,0.4501128,-0.29897872,-0.2555289,-0.294242,-0.9209379,0.7026554,-0.71080405,0.032140765,-0.6640635,-0.6388891,0.3883817,,1.1828446579477228,0.34021727404108654,0.19433331535,1.7894939776969307,-0.7821073246573812,-0.2434758466182098,-0.4121170788567865,,-1.3186411928080866,0.2718015835083316,0.20812713724,-1.9654238402804467,-0.8426372940534712,0.6559946121022765,0.8139434815471134,,-0.03254166390343428,-0.08714647121364187,0.07824560327999999,-0.058221254136848435,,-4.061684e-05,-2.3841858e-07,2.861023e-06,1.0,3.053248e-05,2.5536865e-05,-3.052503e-05,0.99999994,2.3543835e-06,-2.554059e-05,-2.3543835e-06,1.0,715,2.191,0,0,0.0,False,-0.25332448658635043,0.98684728674699
2.20922298298683,10:10:40.366369,10:09:34.307286,0,,0.104016446,0.022297204,0.029783934,-0.3941696,0.5353511,-0.7470136,-0.07269427,0.7921132,0.60602975,0.91615814,0.29318202,-0.27331007,,0.07129137,0.014236234,0.025549859,0.10958185,0.33182576,0.93695426,0.046111375,-0.94331324,0.3286849,0.99290764,0.0071864724,-0.118671015,,0.077476345,1.3301703,0.45619845,0.99824977,0.03668877,-0.046382915,-0.0016166767,-0.7670785,-0.6415512,-0.05911706,0.6405033,-0.7656766,,-0.059454907,0.26418665,-0.077379934,0.31727213,-0.58839077,0.74373025,0.5485174,0.75361156,0.36221305,-0.77360654,0.2930289,0.5618425,,-0.0057842974,0.45009705,-0.29898608,-0.25795197,-0.29112136,-0.9212541,0.7009781,-0.7125966,0.028909935,-0.6648989,-0.6383216,0.3878854,,1.180234374236235,0.34283528048544865,0.19437609292000002,1.790332737470869,-0.7778715931646525,-0.24627637171167438,-0.41113701445998097,,-1.318656638273835,0.2718015835083316,0.20812843353000002,-1.9608106615237875,-0.8426372940534712,0.6552595034410116,0.813126761216442,,-0.03254166390343428,-0.08714647121364187,0.07824560327999999,-0.058221254136848435,,-4.061684e-05,-2.3841858e-07,2.861023e-06,1.0,3.053248e-05,2.5536865e-05,-3.052503e-05,0.99999994,2.3543835e-06,-2.554059e-05,-2.3543835e-06,1.0,723,2.216,0,0,0.0,False,-0.25439688551972894,0.980088058637866
2.238380338996649,10:10:40.385125,10:09:34.307286,0,,0.104567245,0.022489011,0.029666126,-0.39905268,0.53892577,-0.7418328,-0.068181425,0.78936136,0.6101309,0.9143895,0.29405352,-0.27825218,,0.07131049,0.014225669,0.025546938,0.11139366,0.33123946,0.93694806,0.045072973,-0.94352967,0.32820755,0.99275374,0.005670935,-0.12003325,,0.077476345,1.3301703,0.45619845,0.99824977,0.03668877,-0.046382915,-0.0016166767,-0.7670785,-0.6415512,-0.05911706,0.6405033,-0.7656766,,-0.060000636,0.26421613,-0.07714466,0.32211104,-0.59191823,0.7388351,0.5513245,0.75172085,0.36187994,-0.76960105,0.29077232,0.5684766,,-0.005802331,0.45008498,-0.29898986,-0.25967756,-0.29030773,-0.92102605,0.6998907,-0.71371526,0.027633471,-0.66537255,-0.63744175,0.38851953,,1.1778866634424707,0.34488180469711816,0.19446164806000002,1.7918005670752608,-0.7728160426733313,-0.24394621367733754,-0.4116270466583838,,-1.3186643610067093,0.2718015835083316,0.20812972982000003,-1.9576653123715195,-0.8425006575537057,0.6533511532542227,0.8108399442905623,,-0.03254166390343428,-0.08714647121364187,0.07824560327999999,-0.058221254136848435,,-4.061684e-05,-2.3841858e-07,2.861023e-06,1.0,3.053248e-05,2.5536865e-05,-3.052503e-05,0.99999994,2.3543835e-06,-2.554059e-05,-2.3543835e-06,1.0,731,2.241,0,0,0.0,False,-0.2545756186752919,0.976322202977068
2.2571554930182174,10:10:40.414481,10:09:34.307286,0,,0.105559506,0.02276516,0.02926457,-0.41037887,0.54879767,-0.7282927,-0.05314219,0.7828914,0.61988455,0.9103653,0.29309052,-0.29211792,,0.071303144,0.014235787,0.02555582,0.11006082,0.3334767,0.9363118,0.044796586,-0.9427419,0.33050117,0.9929149,0.0055684447,-0.11869763,,0.077476345,1.3301703,0.45619845,0.99824977,0.03668877,-0.046382915,-0.0016166767,-0.7670785,-0.6415512,-0.05911706,0.6405033,-0.7656766,,-0.060964998,0.26409712,-0.07661747,0.33315253,-0.6014165,0.72615945,0.5614346,0.7452723,0.35966712,-0.75749624,0.28786704,0.5859454,,-0.0057968055,0.45009932,-0.29898974,-0.2583736,-0.29253453,-0.92068815,0.6999808,-0.71351975,0.030273674,-0.66578525,-0.6366421,0.3891232,,1.173322528313804,0.34780099772357503,0.19468201736000001,1.7968331257188892,-0.7571028452003055,-0.23813651985037787,-0.4116270466583837,,-1.3186720837395836,0.27181702897408005,0.2081323224,-1.9591331419759108,-0.843457113052064,0.6520891100765837,0.8038161494467881,,-0.03254166390343428,-0.08714647121364187,0.07824560327999999,-0.058221254136848435,,-4.061684e-05,-2.3841858e-07,2.861023e-06,1.0,3.053248e-05,2.5536865e-05,-3.052503e-05,0.99999994,2.3543835e-06,-2.554059e-05,-2.3543835e-06,1.0,739,2.265,0,0,0.0,False,-0.25332448658635043,0.9767567247840832
2.286512447986752,10:10:40.441738,10:09:34.493761,0,,0.10639888,0.02296257,0.028801054,-0.4207332,0.5523839,-0.7196217,-0.044417262,0.77975285,0.6245097,0.90609634,0.29471546,-0.30353266,,0.071300864,0.014235757,0.025551707,0.11019975,0.33416414,0.9360503,0.044726223,-0.94249964,0.331201,0.99290264,0.0053678453,-0.11880916,,0.077476345,1.3301703,0.45619845,0.99824977,0.03668877,-0.046382915,-0.0016166767,-0.7670785,-0.6415512,-0.05911706,0.6405033,-0.7656766,,-0.061768852,0.263891,-0.076098114,0.34348977,-0.60500485,0.7183202,0.5664073,0.74355084,0.35540804,-0.7491312,0.2847828,0.5980813,,-0.005793929,0.45009676,-0.29898697,-0.2585062,-0.2931936,-0.9204412,0.6999037,-0.7135758,0.03073134,-0.6658148,-0.636276,0.38967106,,1.1688278977810054,0.3500096993256032,0.19497368261000003,1.79641374583192,-0.7467184712181321,-0.23386239706937823,-0.41048363819544387,,-1.3186489155409609,0.2718247517069543,0.20813491498000003,-1.9589234520324266,-0.843457113052064,0.6511906439350376,0.8023460528515797,,-0.03254166390343428,-0.08714647121364187,0.07824560327999999,-0.058221254136848435,,-4.061684e-05,-2.3841858e-07,2.861023e-06,1.0,3.053248e-05,2.5536865e-05,-3.052503e-05,0.99999994,2.3543835e-06,-2.554059e-05,-2.3543835e-06,1.0,764,2.343,0,0,0.0,False,-0.25356279746043464,0.9763704831778475
2.313762345002033,10:10:40.514948,10:09:34.493761,0,,0.10843438,0.0235444,0.028072968,-0.43659827,0.55248094,-0.71003276,-0.03371334,0.7786249,0.6265832,0.8990246,0.29750258,-0.3213204,,0.07130476,0.014230423,0.025546163,0.11007306,0.33491227,0.9357978,0.044838816,-0.9422337,0.3319415,0.9929116,0.0054223537,-0.11873163,,0.077476345,1.3301703,0.45619845,0.99824977,0.03668877,-0.046382915,-0.0016166767,-0.7670785,-0.6415512,-0.05911706,0.6405033,-0.7656766,,-0.06375584,0.26371855,-0.075081244,0.35947618,-0.6052954,0.7102072,0.5716259,0.7444073,0.3451111,-0.7375776,0.2819136,0.6135992,,-0.005796751,0.45008865,-0.29898646,-0.25838688,-0.29395154,-0.92023295,0.7000071,-0.71344763,0.031346843,-0.6657525,-0.63606995,0.39011365,,1.1590586406951113,0.35628828115234773,0.19551034667000003,1.797671885492827,-0.7353776417376005,-0.23698417756563894,-0.4114637025922494,,-1.3186411928080866,0.2717784153097089,0.20813750756000002,-1.9591331419759108,-0.843457113052064,0.6505372140139131,0.7977724189998199,,-0.03254166390343428,-0.08714647121364187,0.07824560327999999,-0.058221254136848435,,-4.061684e-05,-2.3841858e-07,2.861023e-06,1.0,3.053248e-05,2.5536865e-05,-3.052503e-05,0.99999994,2.3543835e-06,-2.554059e-05,-2.3543835e-06,1.0,772,2.368,0,0,0.0,False,-0.2546351963938136,0.9714941828991221
2.386962024960667,10:10:40.536954,10:09:34.493761,0,,0.10897101,0.023755997,0.02794443,-0.440815,0.5507161,-0.70879745,-0.03138885,0.77971935,0.6253418,0.8970489,0.29790822,-0.3264258,,0.071304396,0.014233969,0.025546819,0.110072136,0.33507225,0.93574065,0.044824243,-0.94217706,0.33210433,0.9929124,0.005388528,-0.11872685,,0.077476345,1.3301703,0.45619845,0.99824977,0.03668877,-0.046382915,-0.0016166767,-0.7670785,-0.6415512,-0.05911706,0.6405033,-0.7656766,,-0.06428731,0.26375788,-0.074825816,0.36375335,-0.60361475,0.7094595,0.5725487,0.7456576,0.3408559,-0.7347595,0.28221262,0.6168343,,-0.00579663,0.4500917,-0.2989845,-0.2583855,-0.29410684,-0.9201837,0.6999973,-0.7134516,0.031473983,-0.66576326,-0.6359937,0.39021954,,1.1567186526342212,0.35833480536401724,0.19564645712,1.797671885492827,-0.7323716387427608,-0.24008880136808486,-0.41179039072451806,,-1.3186489155409609,0.2717938607754574,0.20813880385000003,-1.9591331419759108,-0.843457113052064,0.6503738565336319,0.7977724189998199,,-0.03254166390343428,-0.08714647121364187,0.07824560327999999,-0.058221254136848435,,-4.061684e-05,-2.3841858e-07,2.861023e-06,1.0,3.053248e-05,2.5536865e-05,-3.052503e-05,0.99999994,2.3543835e-06,-2.554059e-05,-2.3543835e-06,1.0,784,2.404,0,0,0.0,False,-0.2537415306159976,0.971059661092107
2.408957793028094,10:10:40.575951,10:09:34.615328,0,,0.10995782,0.024245322,0.02781333,-0.44679552,0.54967207,-0.70585704,-0.026553214,0.78049254,0.62460077,0.89424187,0.29781145,-0.33412516,,0.07134864,0.01421269,0.025539905,0.11416959,0.33115014,0.9366455,0.041929483,-0.94357634,0.32848975,0.9925761,0.0017695725,-0.12161271,,0.077476345,1.3301703,0.45619845,0.99824977,0.03668877,-0.046382915,-0.0016166767,-0.7670785,-0.6415512,-0.05911706,0.6405033,-0.7656766,,-0.06527746,0.26397377,-0.074374765,0.3697609,-0.6025968,0.70721567,0.57504946,0.74628466,0.33522728,-0.7297911,0.28273,0.62246984,,-0.0058384575,0.45006585,-0.298991,-0.2622679,-0.28963676,-0.9205032,0.697156,-0.71641874,0.026789233,-0.6672249,-0.63470834,0.38981563,,1.1528804543957316,0.3626363675749603,0.19588497448000003,1.8003978547581263,-0.7270428152519086,-0.2459859956749159,-0.4116270466583837,,-1.318656638273835,0.27180930624120586,0.20814658159000002,-1.9515843040104681,-0.8435937495518293,0.6484433059338142,0.7969556986691485,,-0.03254166390343428,-0.08714647121364187,0.07824560327999999,-0.058221254136848435,,-4.061684e-05,-2.3841858e-07,2.861023e-06,1.0,3.053248e-05,2.5536865e-05,-3.052503e-05,0.99999994,2.3543835e-06,-2.554059e-05,-2.3543835e-06,1.0,792,2.429,0,0,0.0,False,-0.254218152364166,0.9673420856320889
2.4479550410760567,10:10:40.599469,10:09:34.615328,0,,0.11067735,0.024669781,0.02776903,-0.4540536,0.54585373,-0.7041866,-0.024338722,0.7824619,0.6222225,0.89064175,0.29966128,-0.3419944,,0.0713441,0.014220081,0.025544912,0.112858444,0.33356422,0.9359475,0.041185737,-0.9427266,0.33101398,0.99275714,0.0011900961,-0.12013283,,0.077476345,1.3301703,0.45619845,0.99824977,0.03668877,-0.046382915,-0.0016166767,-0.7670785,-0.6415512,-0.05911706,0.6405033,-0.7656766,,-0.06600637,0.26421577,-0.07404317,0.37720856,-0.59902817,0.7063136,0.5751259,0.74928737,0.328327,-0.725909,0.28237152,0.62715423,,-0.0058350135,0.45007515,-0.2989897,-0.26096958,-0.29196972,-0.9201351,0.69692326,-0.7165304,0.029701505,-0.6679767,-0.6335124,0.39047313,,1.1503551207458602,0.36628922022446847,0.19605867734000001,1.7980912653797962,-0.7218506282608219,-0.25021987601538,-0.41130035852611513,,-1.3186411928080866,0.27180930624120586,0.20815435933,-1.9526327537278907,-0.8449601145494837,0.6466170503257183,0.7936888173464629,,-0.03254166390343428,-0.08714647121364187,0.07824560327999999,-0.058221254136848435,,-4.061684e-05,-2.3841858e-07,2.861023e-06,1.0,3.053248e-05,2.5536865e-05,-3.052503e-05,0.99999994,2.3543835e-06,-2.554059e-05,-2.3543835e-06,1.0,800,2.454,0,0,0.0,False,-0.25451604095677105,0.9662799212149407
