AlexandreBanks6/ExpertPlaybackApp/resources/Motions/P_10/PC1/Data_PC1_6.csv
Task Time,PC1 Time,PC2 Time,Gaze Calib,s_T_psm1,Tx,Ty,Tz,R00,R01,R02,R10,R11,R12,R20,R21,R22,s_T_psm3,Tx,Ty,Tz,R00,R01,R02,R10,R11,R12,R20,R21,R22,cart_T_ecm,Tx,Ty,Tz,R00,R01,R02,R10,R11,R12,R20,R21,R22,ecm_T_psm1,Tx,Ty,Tz,R00,R01,R02,R10,R11,R12,R20,R21,R22,ecm_T_psm3,Tx,Ty,Tz,R00,R01,R02,R10,R11,R12,R20,R21,R22,psm1_joints,q1,q2,q3,q4,q5,q6,jaw,psm3_joints,q1,q2,q3,q4,q5,q6,jaw,ecm_joints,q1,q2,q3,q4,ecmi_T_ecm,Tx,Ty,Tz,R00,R01,R02,R10,R11,R12,R20,R21,R22,Sample #,Task Duration (s),Collisions (binary),Collisions (increments),Cumulative Collision Time (s),Clutch Press,MTMR Angle,MTML Angle
""
lci_T_si,,,,,-0.063657075,0.025385704,0.2469648,0.99608046,0.04609189,0.0754932,0.084081955,-0.75835806,-0.6463925,0.02745742,0.6502066,-0.75926113
rci_T_si,,,,,-0.07441909,0.030183764,0.26059738,0.9968228,0.032426473,0.07275223,0.07222477,-0.75309837,-0.6539315,0.033584893,0.65710837,-0.7530476
ecm_T_lc,,,,,-4.4061628e-05,-0.00034663224,-0.01840835,-0.99912,0.030754527,0.028518902,-0.031987965,-0.99852574,-0.043852776,0.027128186,-0.04472645,0.9986309
ecm_T_rc,,,,,-0.0043358393,0.01870579,-0.007592615,-0.99555075,-0.052743673,-0.078081585,0.04863213,-0.9973746,0.053654674,-0.08070653,0.04961868,0.9955021
cart_T_ecmi,,,,,0.07751704,1.3301718,0.45619854,0.9982497,0.036658186,-0.046408493,-0.0016564787,-0.76707995,-0.64154935,-0.05911706,0.6405033,-0.7656766
ecmac_T_ecmrep_psm1,,,,,0.0028397094,-0.24236576,-0.3123762,0.99938005,0.032352094,0.013886033,-0.031258944,0.9968569,-0.072795466,-0.016197473,0.07231628,0.9972502
ecmac_T_ecmrep_psm3,,,,,-0.018767226,-0.44603547,-0.53896165,0.9994355,-0.013331066,-0.030837692,0.013906483,0.9997318,0.01852092,0.030582517,-0.018939309,0.9993528
""
0,10:07:49.026551,10:06:43.038724,0,,0.08915213,0.018362135,0.02721782,-0.5923045,0.4548489,-0.66504717,0.25854683,0.88905954,0.37779158,0.76310456,0.05182171,-0.6441938,,0.06289987,0.006000839,0.04249376,0.777468,0.3708458,0.50795346,0.075590044,-0.85690147,0.50990796,0.6243633,-0.35804087,-0.6942458,,0.07747704,1.3301731,0.45619807,0.99824977,0.036697004,-0.046376027,-0.0016059605,-0.7670781,-0.6415517,-0.05911706,0.6405033,-0.7656766,,-0.04428829,0.26076913,-0.07848655,0.51483995,-0.49143302,0.7024481,0.72669244,0.68487906,-0.053467505,-0.4548163,0.537991,0.7097238,,0.00031188532,0.45697984,-0.31744516,-0.86416155,-0.2787502,-0.41895476,0.38012975,-0.9071478,-0.18051082,-0.32973647,-0.31524768,0.8898836,,1.252920736048436,0.28413478790846813,0.19484016474000002,1.7586695560047059,-0.30469939447693223,-0.4043962447004942,-0.3961093603756271,,-1.3426820602455474,0.30615229933288224,0.18539798838000002,-1.338450909261719,-0.23569796209538477,0.09687679413229078,0.7858483021720175,,-0.03254166390343428,-0.08714647121364187,0.07824560327999999,-0.056258739952460286,,-3.9909035e-05,-2.6226044e-06,1.3113022e-06,1.0,3.875047e-05,3.2410026e-05,-3.874302e-05,0.99999994,2.95043e-06,-3.241375e-05,-3.0100346e-06,1.0,33,0.098,0,0,0.0,False,-0.24998813434917277,0.9602931763182878
0.11988262494560331,10:07:49.047700,10:06:43.110095,0,,0.08931084,0.018740281,0.027814955,-0.5780928,0.4618106,-0.6727107,0.23683351,0.88390243,0.40326953,0.7808447,0.07380667,-0.6203499,,0.06290202,0.005998455,0.042494833,0.7784235,0.36888328,0.5079192,0.07353927,-0.8571406,0.5098059,0.6234171,-0.35949278,-0.6943459,,0.07747704,1.3301731,0.45619807,0.99824977,0.036697004,-0.046376027,-0.0016059605,-0.7670781,-0.6415517,-0.05911706,0.6405033,-0.7656766,,-0.044511653,0.26142246,-0.078705676,0.50001484,-0.50003713,0.70707,0.719724,0.69402295,-0.018153004,-0.4816456,0.517972,0.70691055,,0.0003096984,0.4569786,-0.31744742,-0.86488247,-0.27658543,-0.41890192,0.3778883,-0.9080566,-0.18064786,-0.33042207,-0.3145373,0.88988066,,1.2530674679730462,0.28706942640067346,0.19465349898,1.7601373856090976,-0.3354426069241563,-0.38700501794201225,-0.3970894247724328,,-1.3426897829784217,0.3061677447986307,0.18539669209,-1.3359346299399046,-0.2358345985951502,0.09641646085500324,0.7866650225026889,,-0.03254166390343428,-0.08714647121364187,0.07824560327999999,-0.056258739952460286,,-3.9909035e-05,-2.6226044e-06,1.3113022e-06,1.0,3.875047e-05,3.2410026e-05,-3.874302e-05,0.99999994,2.95043e-06,-3.241375e-05,-3.0100346e-06,1.0,41,0.123,0,0,0.0,False,-0.2509413778455092,0.960196615916729
0.14099411095958203,10:07:49.079560,10:06:43.110095,0,,0.08947413,0.019105047,0.028384626,-0.56416553,0.46427655,-0.6827623,0.21555036,0.88106954,0.42101592,0.7970289,0.09035283,-0.5971441,,0.06290516,0.006004058,0.042500734,0.7781983,0.36923853,0.5080061,0.07353,-0.856909,0.51019645,0.6236992,-0.35968024,-0.6939953,,0.07747704,1.3301731,0.45619807,0.99824977,0.036697004,-0.046376027,-0.0016059605,-0.7670781,-0.6415517,-0.05911706,0.6405033,-0.7656766,,-0.044736728,0.26204786,-0.07891172,0.48558894,-0.50379163,0.714421,0.71214175,0.7019502,0.0109578,-0.5070084,0.50344807,0.6996303,,0.0003054884,0.45698625,-0.31744745,-0.8647016,-0.2769178,-0.41905564,0.3781055,-0.90806717,-0.18013954,-0.33064684,-0.3142142,0.8899113,,1.253167863500411,0.28992683756413656,0.19448498128000002,1.7613955252700046,-0.36495609087349146,-0.37715085152804306,-0.3951292959788214,,-1.3427206739099187,0.3061909129972534,0.18539669209,-1.3361443198833893,-0.23610787159468108,0.09606754548141216,0.785521614039749,,-0.03254166390343428,-0.08714647121364187,0.07824560327999999,-0.056258739952460286,,-3.9909035e-05,-2.6226044e-06,1.3113022e-06,1.0,3.875047e-05,3.2410026e-05,-3.874302e-05,0.99999994,2.95043e-06,-3.241375e-05,-3.0100346e-06,1.0,52,0.155,0,0,0.0,False,-0.2516563104677614,0.9602931763182878
0.17285231489222497,10:07:49.113884,10:06:43.110095,0,,0.08961004,0.019469202,0.028943598,-0.55037594,0.46971956,-0.6902535,0.19085348,0.87562364,0.44368687,0.81281066,0.11245713,-0.5715699,,0.06290279,0.0060082152,0.042503178,0.7781403,0.3694306,0.5079552,0.07344796,-0.8567022,0.5105553,0.6237812,-0.35997537,-0.6937686,,0.07747704,1.3301731,0.45619807,0.99824977,0.036697004,-0.046376027,-0.0016059605,-0.7670781,-0.6415517,-0.05911706,0.6405033,-0.7656766,,-0.04493361,0.2626684,-0.07911098,0.4714654,-0.51088274,0.71883184,0.70166856,0.71107095,0.045158617,-0.5342112,0.48309097,0.69371575,,0.00030730164,0.4569912,-0.3174465,-0.8646533,-0.27707192,-0.4190535,0.37811095,-0.9081479,-0.17972068,-0.330767,-0.3138448,0.889997,,1.2532682590277762,0.2927147441317316,0.19434757454,1.7601373856090976,-0.39665575881907367,-0.3602048805457945,-0.3952926400449558,,-1.3427206739099187,0.30622180392875026,0.18539669209,-1.3361443198833893,-0.23624450809444655,0.09568889094426522,0.7861749903042861,,-0.03254166390343428,-0.08714647121364187,0.07824560327999999,-0.056258739952460286,,-3.9909035e-05,-2.6226044e-06,1.3113022e-06,1.0,3.875047e-05,3.2410026e-05,-3.874302e-05,0.99999994,2.95043e-06,-3.241375e-05,-3.0100346e-06,1.0,64,0.192,0,0,0.0,False,-0.25225208765297147,0.9600517753143905
0.2072148259030655,10:07:49.139110,10:06:43.110095,0,,0.08977293,0.0198538,0.029513195,-0.5405254,0.47460684,-0.69468015,0.16457745,0.8693903,0.46591264,0.8250736,0.13750878,-0.5480372,,0.06289711,0.006016411,0.042505324,0.7780665,0.3695893,0.50795287,0.07360938,-0.85667866,0.5105716,0.6238543,-0.35986853,-0.6937583,,0.07747704,1.3301731,0.45619807,0.99824977,0.036697004,-0.046376027,-0.0016059605,-0.7670781,-0.6415517,-0.05911706,0.6405033,-0.7656766,,-0.045159042,0.26330918,-0.07930449,0.4616239,-0.5176411,0.7203825,0.6881,0.7214671,0.07748338,-0.55984086,0.45992702,0.6892353,,0.0003122675,0.45699927,-0.31744272,-0.8645977,-0.27724558,-0.41905338,0.37828624,-0.9080787,-0.17970167,-0.33071193,-0.31389177,0.8900009,,1.2534304364181348,0.29581928274716984,0.19420887151000002,1.7538466873045617,-0.42575933326911247,-0.3402300891049227,-0.39692608070629853,,-1.3427206739099187,0.30627586305886983,0.18539798838000002,-1.3363540098268736,-0.23624450809444655,0.09577056968440581,0.7860116462381517,,-0.03254166390343428,-0.08714647121364187,0.07824560327999999,-0.056258739952460286,,-3.9909035e-05,-2.6226044e-06,1.3113022e-06,1.0,3.875047e-05,3.2410026e-05,-3.874302e-05,0.99999994,2.95043e-06,-3.241375e-05,-3.0100346e-06,1.0,75,0.226,0,0,0.0,False,-0.25171588818628265,0.9603897367198468
0.23238921200390905,10:07:49.169853,10:06:43.110095,0,,0.08985961,0.020092443,0.02986747,-0.536231,0.4765717,-0.6966604,0.14417633,0.86494255,0.48071542,0.8316666,0.15733248,-0.5325195,,0.06289339,0.0060237125,0.042509556,0.778094,0.36935914,0.50807816,0.07335965,-0.85675,0.51048785,0.62384933,-0.3599351,-0.69372815,,0.07747704,1.3301731,0.45619807,0.99824977,0.036697004,-0.046376027,-0.0016059605,-0.7670781,-0.6415517,-0.05911706,0.6405033,-0.7656766,,-0.045284662,0.26370853,-0.07942584,0.45757112,-0.5211136,0.72046465,0.67601603,0.7302288,0.09883445,-0.577608,0.44182184,0.68641275,,0.0003150146,0.4570079,-0.31744093,-0.8646141,-0.27700537,-0.4191783,0.3781009,-0.90814483,-0.17975736,-0.33088085,-0.31391245,0.8899308,,1.2535153864797512,0.2978040250958455,0.19413627927000002,1.7452493996216962,-0.44543498923533587,-0.32418591097263805,-0.39692608070629853,,-1.3427283966427928,0.3063299221889894,0.18539798838000002,-1.3361443198833893,-0.23638114459421197,0.09588198758810221,0.785031581841346,,-0.03254166390343428,-0.08714647121364187,0.07824560327999999,-0.056258739952460286,,-3.9909035e-05,-2.6226044e-06,1.3113022e-06,1.0,3.875047e-05,3.2410026e-05,-3.874302e-05,0.99999994,2.95043e-06,-3.241375e-05,-3.0100346e-06,1.0,83,0.25,0,0,0.0,False,-0.25207335449740853,0.9602448961175083
0.263163695926778,10:07:49.206404,10:06:43.241882,0,,0.09004824,0.020596221,0.030514956,-0.53565806,0.47045037,-0.70124656,0.099208295,0.8597423,0.5009997,0.8385869,0.19879496,-0.50720054,,0.062889844,0.0060325786,0.042512953,0.7780968,0.36942208,0.5080282,0.07335171,-0.8566806,0.5106055,0.6238469,-0.36003572,-0.69367826,,0.07747704,1.3301731,0.45619807,0.99824977,0.036697004,-0.046376027,-0.0016059605,-0.7670781,-0.6415517,-0.05911706,0.6405033,-0.7656766,,-0.045546923,0.26448837,-0.07960381,0.4581396,-0.51834774,0.72209674,0.64536846,0.7525929,0.13078023,-0.61123455,0.40610287,0.6793179,,0.00031765652,0.45701703,-0.31743744,-0.86461616,-0.27705535,-0.41914108,0.37809315,-0.9081728,-0.1796324,-0.3308844,-0.31378746,0.8899736,,1.2536543956714874,0.3021287555054113,0.19404553897000001,1.7165218773643165,-0.48082384267458494,-0.29532867391526474,-0.39659939257403004,,-1.3427438421085414,0.306383981319109,0.18539928467000003,-1.3361443198833893,-0.23638114459421197,0.09580030884796165,0.785521614039749,,-0.03254166390343428,-0.08714647121364187,0.07824560327999999,-0.056258739952460286,,-3.9909035e-05,-2.6226044e-06,1.3113022e-06,1.0,3.875047e-05,3.2410026e-05,-3.874302e-05,0.99999994,2.95043e-06,-3.241375e-05,-3.0100346e-06,1.0,95,0.287,0,0,0.0,False,-0.2518946213418456,0.9594724129050369
0.2996672719018534,10:07:49.231372,10:06:43.241882,0,,0.090235494,0.02101402,0.030975983,-0.53978294,0.46025825,-0.7048381,0.063557595,0.85718715,0.5110679,0.83940136,0.2310678,-0.491948,,0.06288982,0.006031953,0.042512417,0.78063226,0.3639554,0.5080843,0.06842278,-0.85782856,0.50936097,0.6212339,-0.36285907,-0.69455147,,0.07747704,1.3301731,0.45619807,0.99824977,0.036697004,-0.046376027,-0.0016059605,-0.7670781,-0.6415517,-0.05911706,0.6405033,-0.7656766,,-0.04578865,0.26508513,-0.079691134,0.46354696,-0.51084846,0.72398764,0.61853516,0.7716118,0.14842327,-0.6344592,0.37901062,0.67365605,,0.00031777733,0.45701623,-0.31743753,-0.86653465,-0.2711877,-0.4190166,0.37244138,-0.91020864,-0.1811288,-0.33227262,-0.3130135,0.88972884,,1.2536930093358585,0.30585111275078747,0.19400535398000002,1.6882137349939055,-0.5043253206342407,-0.27493961337737194,-0.3967627366401643,,-1.3427592875742898,0.306453485914977,0.18539928467000003,-1.3298536215788535,-0.23638114459421197,0.09580030884796165,0.785521614039749,,-0.03254166390343428,-0.08714647121364187,0.07824560327999999,-0.056258739952460286,,-3.9909035e-05,-2.6226044e-06,1.3113022e-06,1.0,3.875047e-05,3.2410026e-05,-3.874302e-05,0.99999994,2.95043e-06,-3.241375e-05,-3.0100346e-06,1.0,106,0.319,0,0,0.0,False,-0.24528149458601067,0.9597138139089343
0.3247008539037779,10:07:49.266731,10:06:43.241882,0,,0.090443745,0.021439433,0.031396866,-0.5442853,0.45200416,-0.70671475,0.029257208,0.8521453,0.52248657,0.83838975,0.26370513,-0.47703466,,0.06288467,0.0060308054,0.042508364,0.7833136,0.36061996,0.5063329,0.06397492,-0.8569704,0.5113795,0.61832595,-0.36817783,-0.69434726,,0.07747704,1.3301731,0.45619807,0.99824977,0.036697004,-0.046376027,-0.0016059605,-0.7670781,-0.6415517,-0.05911706,0.6405033,-0.7656766,,-0.04604816,0.26566097,-0.07974163,0.46943372,-0.5052143,0.72414815,0.5916416,0.78876567,0.16676028,-0.6554329,0.35015327,0.66917896,,0.00032352362,0.45701328,-0.3174358,-0.86857265,-0.2671346,-0.4173974,0.36691093,-0.9128102,-0.17931497,-0.3331034,-0.30889577,0.8908566,,1.2536543956714874,0.30965842005778016,0.19399239108000002,1.659486212736526,-0.5257772510974149,-0.25148445446677276,-0.3956193281772243,,-1.342767010307164,0.30652299051084503,0.18539928467000003,-1.3237726132178023,-0.2358345985951502,0.09200580888741292,0.785031581841346,,-0.03254166390343428,-0.08714647121364187,0.07824560327999999,-0.056258739952460286,,-3.9909035e-05,-2.6226044e-06,1.3113022e-06,1.0,3.875047e-05,3.2410026e-05,-3.874302e-05,0.99999994,2.95043e-06,-3.241375e-05,-3.0100346e-06,1.0,117,0.352,0,0,0.0,False,-0.22901677742976911,0.9590861712988015
0.3600015538977459,10:07:49.298936,10:06:43.241882,0,,0.0906761,0.021862864,0.031765133,-0.5519853,0.43857762,-0.70919806,-0.0044516325,0.8489443,0.52846336,0.8338419,0.29486102,-0.46665254,,0.062885985,0.006041713,0.04251784,0.783058,0.36113754,0.5063593,0.06283331,-0.8559198,0.5132771,0.6187666,-0.3701095,-0.69292635,,0.07747704,1.3301731,0.45619807,0.99824977,0.036697004,-0.046376027,-0.0016059605,-0.7670781,-0.6415517,-0.05911706,0.6405033,-0.7656766,,-0.046327103,0.2662004,-0.079751484,0.47878233,-0.4943748,0.72550744,0.5632656,0.806855,0.17809215,-0.6734236,0.323386,0.6647723,,0.0003203777,0.45702744,-0.31743482,-0.86834,-0.26740053,-0.41771117,0.3664326,-0.91345656,-0.17698668,-0.33423468,-0.30674762,0.8911751,,1.2535462774112482,0.313573845625012,0.19400016882,1.6269842714964244,-0.5434033595671567,-0.231394033080095,-0.3913723824577331,,-1.3427747330400381,0.30660021783958724,0.18540058096,-1.3231435433873486,-0.23692769059327373,0.08979335999164292,0.7847048937090775,,-0.03254166390343428,-0.08714647121364187,0.07824560327999999,-0.056258739952460286,,-3.9909035e-05,-2.6226044e-06,1.3113022e-06,1.0,3.875047e-05,3.2410026e-05,-3.874302e-05,0.99999994,2.95043e-06,-3.241375e-05,-3.0100346e-06,1.0,128,0.385,0,0,0.0,False,-0.2162671456662677,0.9572998038699614
0.3922669909661636,10:07:49.332336,10:06:43.388096,0,,0.090929896,0.022334099,0.03216605,-0.5621218,0.41655034,-0.7144962,-0.054778308,0.843256,0.5347134,0.82523835,0.3397128,-0.45119476,,0.06288627,0.006034784,0.04251498,0.7877383,0.35111696,0.50614727,0.053198934,-0.8573606,0.51195973,0.6137085,-0.37636375,-0.69405496,,0.07747704,1.3301731,0.45619807,0.99824977,0.036697004,-0.046376027,-0.0016059605,-0.7670781,-0.6415517,-0.05911706,0.6405033,-0.7656766,,-0.046632018,0.26679558,-0.079755746,0.4915405,-0.47604227,0.72922677,0.5196549,0.8322825,0.1930404,-0.6988181,0.2840591,0.6564783,,0.0003207987,0.4570205,-0.31743762,-0.87182504,-0.25651082,-0.41728085,0.35545576,-0.9174565,-0.17867509,-0.33700493,-0.3040983,0.8910398,,1.2531755862332854,0.3183233263426601,0.19405202042000003,1.5768683750036232,-0.5695009310223558,-0.2009651945783356,-0.38059167409287065,,-1.3427824557729124,0.3067083360998264,0.18539928467000003,-1.3109815266652463,-0.23706432709303918,0.08851623931294983,0.7825814208493318,,-0.03254166390343428,-0.08714647121364187,0.07824560327999999,-0.056258739952460286,,-3.9909035e-05,-2.6226044e-06,1.3113022e-06,1.0,3.875047e-05,3.2410026e-05,-3.874302e-05,0.99999994,2.95043e-06,-3.241375e-05,-3.0100346e-06,1.0,139,0.418,0,0,0.0,False,-0.21287121571056877,0.9551754750356651
0.4256644499255344,10:07:49.362046,10:06:43.388096,0,,0.09108633,0.022650614,0.0323779,-0.56601286,0.40079537,-0.7204113,-0.0936169,0.8369638,0.53919137,0.81906366,0.37263182,-0.43621114,,0.062883705,0.0060324892,0.042512774,0.790327,0.34599712,0.50563717,0.047675297,-0.85750794,0.5122571,0.61082745,-0.38074416,-0.6942074,,0.07747704,1.3301731,0.45619807,0.99824977,0.036697004,-0.046376027,-0.0016059605,-0.7670781,-0.6415517,-0.05911706,0.6405033,-0.7656766,,-0.04681796,0.26716062,-0.07971459,0.49743238,-0.46291584,0.73366886,0.48596188,0.84926635,0.20636788,-0.71861124,0.25388104,0.647412,,0.00032374944,0.45701766,-0.31743786,-0.8737324,-0.2507941,-0.4167661,0.34918794,-0.91989434,-0.17849995,-0.33861405,-0.3014909,0.89131576,,1.252673608596461,0.32150509228684054,0.19416090878000003,1.5397532550068622,-0.591909316983888,-0.17648507412143968,-0.37471128771203654,,-1.3427747330400381,0.30678556342856866,0.18539928467000003,-1.304061758530257,-0.2372009635928046,0.08658568871313216,0.7807846361218548,,-0.03254166390343428,-0.08714647121364187,0.07824560327999999,-0.056258739952460286,,-3.9909035e-05,-2.6226044e-06,1.3113022e-06,1.0,3.875047e-05,3.2410026e-05,-3.874302e-05,0.99999994,2.95043e-06,-3.241375e-05,-3.0100346e-06,1.0,150,0.45,0,0,0.0,False,-0.19219774738377016,0.9543547116224145
0.4553774489322677,10:07:49.397547,10:06:43.388096,0,,0.091259494,0.022973508,0.032509297,-0.5656181,0.3900378,-0.72659934,-0.1289686,0.82840395,0.5450815,0.81452024,0.40201628,-0.4182577,,0.06288192,0.006049417,0.04252714,0.7891064,0.3476688,0.5063965,0.048513204,-0.8571051,0.5128523,0.6123377,-0.38012812,-0.6932137,,0.07747704,1.3301731,0.45619807,0.99824977,0.036697004,-0.046376027,-0.0016059605,-0.7670781,-0.6415517,-0.05911706,0.6405033,-0.7656766,,-0.047013965,0.267479,-0.07960628,0.4987843,-0.4543771,0.7380756,0.4556382,0.8618655,0.22266932,-0.7372978,0.2252315,0.6369166,,0.00032270607,0.45703986,-0.31743637,-0.8727848,-0.25255367,-0.4176881,0.3509863,-0.91940475,-0.17749245,-0.33919802,-0.30151552,0.8910853,,1.2518936125761642,0.32448606717629125,0.19433850051,1.5082997634841837,-0.6151375219440128,-0.15149980372264654,-0.363277203082637,,-1.3427901785057865,0.3068782362230593,0.18539928467000003,-1.3059489680216176,-0.23829405559092814,0.08649688706101674,0.7801312598573178,,-0.03254166390343428,-0.08714647121364187,0.07824560327999999,-0.056258739952460286,,-3.9909035e-05,-2.6226044e-06,1.3113022e-06,1.0,3.875047e-05,3.2410026e-05,-3.874302e-05,0.99999994,2.95043e-06,-3.241375e-05,-3.0100346e-06,1.0,161,0.483,0,0,0.0,False,-0.177362895472033,0.954402991823194
0.49086796899791807,10:07:49.428919,10:06:43.388096,0,,0.09148587,0.02331911,0.032505542,-0.5698066,0.37429225,-0.7315912,-0.1621525,0.82154053,0.5466055,0.8056221,0.4300887,-0.40742692,,0.06287432,0.0060515627,0.042525113,0.79162556,0.34346467,0.50533247,0.0437174,-0.85676897,0.51384413,0.60944045,-0.38468024,-0.6932557,,0.07747704,1.3301731,0.45619807,0.99824977,0.036697004,-0.046376027,-0.0016059605,-0.7670781,-0.6415517,-0.05911706,0.6405033,-0.7656766,,-0.04725231,0.26772618,-0.07937649,0.5049869,-0.44082564,0.74206537,0.42466056,0.87537843,0.23103252,-0.7514331,0.1984575,0.6292559,,0.0003304219,0.45704103,-0.31743407,-0.8746502,-0.24773553,-0.4166703,0.3452363,-0.92173684,-0.17667215,-0.3402924,-0.29837605,0.89172465,,1.250851043638144,0.3275442693944841,0.19459127706,1.4728621630352992,-0.6322170844146929,-0.12915965552611586,-0.35037302185802893,,-1.3427901785057865,0.3069786317504243,0.18539928467000003,-1.299658269717082,-0.23802078259139725,0.08390536778954769,0.7799679157911834,,-0.03254166390343428,-0.08714647121364187,0.07824560327999999,-0.056258739952460286,,-3.9909035e-05,-2.6226044e-06,1.3113022e-06,1.0,3.875047e-05,3.2410026e-05,-3.874302e-05,0.99999994,2.95043e-06,-3.241375e-05,-3.0100346e-06,1.0,172,0.516,0,0,0.0,False,-0.17932896018322753,0.9551271948348858
0.5222492429893464,10:07:49.463247,10:06:43.506585,0,,0.09189829,0.023885056,0.03244707,-0.5723411,0.36000648,-0.7367639,-0.19357795,0.81376505,0.54800904,0.7968396,0.4562692,-0.39606187,,0.06286598,0.006064929,0.042529702,0.792563,0.3432597,0.5040005,0.041968346,-0.8552608,0.5164956,0.608344,-0.3882032,-0.6922542,,0.07747704,1.3301731,0.45619807,0.99824977,0.036697004,-0.046376027,-0.0016059605,-0.7670781,-0.6415517,-0.05911706,0.6405033,-0.7656766,,-0.047679693,0.2680948,-0.07895784,0.50946516,-0.4285316,0.7461943,0.39498284,0.88688,0.23965082,-0.76448274,0.1726402,0.621097,,0.00033745027,0.45705482,-0.3174286,-0.8753431,-0.24706894,-0.4156097,0.34310937,-0.9230547,-0.17391387,-0.34066173,-0.2948339,0.8927612,,1.249236992467431,0.3318226634068045,0.19498405293,1.4403602217951978,-0.6495699198849039,-0.10839360380528479,-0.3407357219561066,,-1.3428133467044092,0.3070944727435376,0.18540058096,-1.2973516803387524,-0.23788414609163183,0.08036344279994759,0.780294603923452,,-0.03254166390343428,-0.08714647121364187,0.07824560327999999,-0.056258739952460286,,-3.9909035e-05,-2.6226044e-06,1.3113022e-06,1.0,3.875047e-05,3.2410026e-05,-3.874302e-05,0.99999994,2.95043e-06,-3.241375e-05,-3.0100346e-06,1.0,183,0.549,0,0,0.0,False,-0.18087798086477402,0.9555134364411215
0.5565770189277828,10:07:49.492951,10:06:43.506585,0,,0.092381895,0.024540886,0.032358423,-0.57422554,0.35011,-0.7400595,-0.21317077,0.80882823,0.5480464,0.7904576,0.47246116,-0.38981673,,0.06286417,0.0060671195,0.042530954,0.7955997,0.3373111,0.50323176,0.035261154,-0.8550334,0.51737297,0.6047956,-0.3938772,-0.69215834,,0.07747704,1.3301731,0.45619807,0.99824977,0.036697004,-0.046376027,-0.0016059605,-0.7670781,-0.6415517,-0.05911706,0.6405033,-0.7656766,,-0.04817884,0.26850843,-0.07845625,0.5126373,-0.4198666,0.7489426,0.37593907,0.8939825,0.2438545,-0.77192795,0.15654786,0.6161331,,0.00033895968,0.45705748,-0.3174281,-0.87754625,-0.2403558,-0.4148996,0.33547834,-0.9260043,-0.17311957,-0.34258848,-0.29111025,0.89324576,,1.247622941296718,0.3361937302136156,0.19540923605000002,1.420439677164168,-0.6605008398661392,-0.09743820300605716,-0.336978808435018,,-1.342836514903032,0.307210313736651,0.18540058096,-1.2889640825993711,-0.23802078259139725,0.07745274731844323,0.7804579479895861,,-0.03254166390343428,-0.08714647121364187,0.07824560327999999,-0.056258739952460286,,-3.9909035e-05,-2.6226044e-06,1.3113022e-06,1.0,3.875047e-05,3.2410026e-05,-3.874302e-05,0.99999994,2.95043e-06,-3.241375e-05,-3.0100346e-06,1.0,194,0.581,0,0,0.0,False,-0.18183122436111043,0.9549340740317678
0.5862745569320396,10:07:49.528794,10:06:43.506585,0,,0.0928649,0.025196344,0.03230308,-0.57730556,0.3401843,-0.74228907,-0.22783151,0.8058637,0.5465129,0.7840989,0.48462158,-0.38772488,,0.06286249,0.006082557,0.04254085,0.79616845,0.3359175,0.5032644,0.03334835,-0.85483575,0.517826,0.6041553,-0.39549363,-0.69179565,,0.07747704,1.3301731,0.45619807,0.99824977,0.036697004,-0.046376027,-0.0016059605,-0.7670781,-0.6415517,-0.05911706,0.6405033,-0.7656766,,-0.04868021,0.26894265,-0.07798077,0.51680833,-0.41090527,0.7510433,0.36083964,0.9001015,0.24415572,-0.77634007,0.14482449,0.6134508,,0.00033852228,0.45707554,-0.31742448,-0.8779362,-0.23874615,-0.41500404,0.333597,-0.9267897,-0.1725511,-0.34342557,-0.28993297,0.8933072,,1.2462714630437286,0.3404952924245586,0.19579034531000003,1.4042935515158597,-0.6671960283546456,-0.09140697454394853,-0.3358353999720782,,-1.3428828513002773,0.3073261547297644,0.18540187725,-1.286867183164526,-0.23843069209069356,0.07656181992742403,0.780294603923452,,-0.03254166390343428,-0.08714647121364187,0.07824560327999999,-0.056258739952460286,,-3.9909035e-05,-2.6226044e-06,1.3113022e-06,1.0,3.875047e-05,3.2410026e-05,-3.874302e-05,0.99999994,2.95043e-06,-3.241375e-05,-3.0100346e-06,1.0,205,0.614,0,0,0.0,False,-0.1839760222278679,0.9553203156380037
0.6221225679619238,10:07:49.560829,10:06:43.506585,0,,0.093321934,0.0258798,0.03225729,-0.5812411,0.3309388,-0.74339646,-0.23885211,0.80393726,0.5446416,0.7778872,0.4941297,-0.38823602,,0.06285732,0.0061012134,0.0425511,0.7961805,0.3359211,0.50324285,0.033084854,-0.85465133,0.5181473,0.6041538,-0.39588904,-0.69157076,,0.07747704,1.3301731,0.45619807,0.99824977,0.036697004,-0.046376027,-0.0016059605,-0.7670781,-0.6415517,-0.05911706,0.6405033,-0.7656766,,-0.049157616,0.2694067,-0.077496186,0.5216788,-0.40243527,0.75226134,0.3487302,0.9053137,0.24247558,-0.7786132,0.13584189,0.6126243,,0.00034136607,0.45709655,-0.3174191,-0.8779373,-0.23869824,-0.4150291,0.33340624,-0.9269303,-0.17216423,-0.34360775,-0.2895227,0.8933702,,1.2452366168385827,0.3447273500396337,0.19617404715000003,1.3910830850763345,-0.6707485773485472,-0.08826507282741974,-0.33534536777367524,,-1.3429291876975227,0.3074419957228777,0.18540317354000002,-1.2866574932210415,-0.23856732859045904,0.07626484413041765,0.7807846361218548,,-0.03254166390343428,-0.08714647121364187,0.07824560327999999,-0.056258739952460286,,-3.9909035e-05,-2.6226044e-06,1.3113022e-06,1.0,3.875047e-05,3.2410026e-05,-3.874302e-05,0.99999994,2.95043e-06,-3.241375e-05,-3.0100346e-06,1.0,216,0.647,0,0,0.0,False,-0.18725279674652473,0.9550789146341063
0.6541502709733322,10:07:49.591620,10:06:43.506585,0,,0.09369404,0.02656132,0.032234505,-0.5826422,0.32526946,-0.74480057,-0.24894468,0.8009437,0.54453254,0.7736631,0.5026816,-0.38568956,,0.06285631,0.006107025,0.042554855,0.798746,0.32998386,0.50310576,0.027432844,-0.8552887,0.5174252,0.6010426,-0.39948967,-0.6922109,,0.07747704,1.3301731,0.45619807,0.99824977,0.036697004,-0.046376027,-0.0016059605,-0.7670781,-0.6415517,-0.05911706,0.6405033,-0.7656766,,-0.04955234,0.26989073,-0.07703429,0.52382106,-0.39740348,0.75344676,0.3383714,0.9088019,0.24409816,-0.7817393,0.12708108,0.6105195,,0.00034157097,0.45710343,-0.31741783,-0.8797823,-0.23227032,-0.41476935,0.32689163,-0.9290736,-0.1731017,-0.34514484,-0.28787643,0.8933097,,1.2445801845442734,0.34865822107261396,0.19656941560000002,1.3810179677890773,-0.6758041278398684,-0.08406093165051165,-0.33550871183980957,,-1.342975524094768,0.3075578367159911,0.18540317354000002,-1.2795280351425675,-0.23856732859045904,0.07552973546915259,0.7799679157911834,,-0.03254166390343428,-0.08714647121364187,0.07824560327999999,-0.056258739952460286,,-3.9909035e-05,-2.6226044e-06,1.3113022e-06,1.0,3.875047e-05,3.2410026e-05,-3.874302e-05,0.99999994,2.95043e-06,-3.241375e-05,-3.0100346e-06,1.0,227,0.68,0,0,0.0,False,-0.18898055058363417,0.9548857938309885
0.684898720937781,10:07:49.623142,10:06:43.655731,0,,0.09396954,0.027174056,0.032206327,-0.58396184,0.3198651,-0.7461064,-0.25313348,0.8015212,0.54174435,0.7713053,0.5052225,-0.38708937,,0.06285208,0.00613264,0.042571843,0.7978232,0.33158803,0.50351506,0.02834113,-0.85487115,0.5180657,0.60222495,-0.39905462,-0.6914337,,0.07747704,1.3301731,0.45619807,0.99824977,0.036697004,-0.046376027,-0.0016059605,-0.7670781,-0.6415517,-0.05911706,0.6405033,-0.7656766,,-0.04984778,0.270326,-0.07661549,0.5254966,-0.39226118,0.7549732,0.33375606,0.9112876,0.24116759,-0.7825984,0.12524411,0.6097981,,0.00034219088,0.45713398,-0.31741235,-0.879083,-0.23393685,-0.41531515,0.3284753,-0.92868906,-0.17216434,-0.34542304,-0.2877675,0.89323723,,1.244325334359424,0.35180909608529753,0.19692978422000001,1.377243548806356,-0.6774437658370538,-0.08737960499416664,-0.3366521203027495,,-1.3430295832248875,0.3076968459077271,0.18540446983000003,-1.281205554690444,-0.23925051108928622,0.07535171632636967,0.7801312598573177,,-0.03254166390343428,-0.08714647121364187,0.07824560327999999,-0.056258739952460286,,-3.9909035e-05,-2.6226044e-06,1.3113022e-06,1.0,3.875047e-05,3.2410026e-05,-3.874302e-05,0.99999994,2.95043e-06,-3.241375e-05,-3.0100346e-06,1.0,238,0.713,0,0,0.0,False,-0.1913636593244763,0.9557548374450189
0.7164554679766297,10:07:49.661168,10:06:43.655731,0,,0.09420845,0.027952254,0.032144368,-0.58138895,0.31511912,-0.7501245,-0.25818485,0.8028495,0.53737617,0.7715747,0.5060952,-0.38540897,,0.062848344,0.0061403736,0.042576075,0.79790217,0.3317099,0.5033097,0.02816911,-0.8545778,0.518559,0.60212845,-0.39958143,-0.6912135,,0.07747704,1.3301731,0.45619807,0.99824977,0.036697004,-0.046376027,-0.0016059605,-0.7670781,-0.6415517,-0.05911706,0.6405033,-0.7656766,,-0.050110273,0.27087173,-0.076067954,0.5231061,-0.38766122,0.7589986,0.329787,0.9132597,0.23915957,-0.7858757,0.12520202,0.60557735,,0.0003449458,0.4571429,-0.3174102,-0.8791397,-0.23399054,-0.41516483,0.32827568,-0.9288579,-0.17163356,-0.3454685,-0.2871784,0.89340925,,1.2442712752293046,0.35530749407732126,0.19745348538000002,1.3766144789759023,-0.6831824988272022,-0.09356332547761187,-0.33812221689795807,,-1.3430450286906361,0.3077509050378467,0.18540446983000003,-1.2809958647469593,-0.23925051108928622,0.07477996514538568,0.7809479801879892,,-0.03254166390343428,-0.08714647121364187,0.07824560327999999,-0.056258739952460286,,-3.9909035e-05,-2.6226044e-06,1.3113022e-06,1.0,3.875047e-05,3.2410026e-05,-3.874302e-05,0.99999994,2.95043e-06,-3.241375e-05,-3.0100346e-06,1.0,249,0.746,0,0,0.0,False,-0.1909466152948287,0.9557548374450189
0.754495200002566,10:07:49.690135,10:06:43.655731,0,,0.09430512,0.028412133,0.032042384,-0.579769,0.30929253,-0.75379443,-0.26198825,0.80525327,0.5319109,0.7715115,0.5058707,-0.38583,,0.0628478,0.0061439797,0.042578816,0.797838,0.331655,0.50344753,0.028086618,-0.85462344,0.51848817,0.60221726,-0.3995294,-0.6911662,,0.07747704,1.3301731,0.45619807,0.99824977,0.036697004,-0.046376027,-0.0016059605,-0.7670781,-0.6415517,-0.05911706,0.6405033,-0.7656766,,-0.05021552,0.27115712,-0.075695515,0.5216448,-0.38193333,0.7628982,0.32665887,0.9154718,0.23495832,-0.7881502,0.12664269,0.602313,,0.00034492882,0.45714742,-0.3174097,-0.87908626,-0.23394223,-0.41530517,0.32828635,-0.92884743,-0.17166983,-0.34559432,-0.2872516,0.8933371,,1.2442558297635562,0.35711461356988977,0.19782422432000002,1.3751466493715108,-0.6870083208206346,-0.09975500055013609,-0.3397556575593008,,-1.3430527514235102,0.3077740732364694,0.18540446983000003,-1.2809958647469593,-0.23938714758905166,0.0748913830490821,0.7809479801879892,,-0.03254166390343428,-0.08714647121364187,0.07824560327999999,-0.056258739952460286,,-3.9909035e-05,-2.6226044e-06,1.3113022e-06,1.0,3.875047e-05,3.2410026e-05,-3.874302e-05,0.99999994,2.95043e-06,-3.241375e-05,-3.0100346e-06,1.0,253,0.758,0,0,0.0,False,-0.19058914898370283,0.956430760255931
0.7834663699613884,10:07:49.712893,10:06:43.655731,0,,0.09436586,0.02869752,0.03194037,-0.5789402,0.30745414,-0.7551822,-0.26337236,0.80602205,0.5300597,0.7716626,0.50576687,-0.38566375,,0.0628478,0.0061439797,0.042578816,0.797838,0.3316961,0.5034204,0.028086618,-0.854581,0.518558,0.60221726,-0.39958584,-0.69113356,,0.07747704,1.3301731,0.45619807,0.99824977,0.036697004,-0.046376027,-0.0016059605,-0.7670781,-0.6415517,-0.05911706,0.6405033,-0.7656766,,-0.050278272,0.27130997,-0.075434305,0.5208599,-0.3801237,0.76433694,0.32560927,0.91615725,0.23374021,-0.78910303,0.1271293,0.6009614,,0.00034492882,0.45714742,-0.3174097,-0.87908626,-0.23397616,-0.41528606,0.32828635,-0.92886144,-0.17159395,-0.34559432,-0.28717864,0.8933605,,1.2441554342361911,0.35811084611066474,0.19807959345,1.3751466493715108,-0.6887845953175853,-0.10230882606897013,-0.3405723778899723,,-1.3430527514235102,0.3077740732364694,0.18540446983000003,-1.2809958647469593,-0.23938714758905166,0.07480970430894157,0.7811113242541233,,-0.03254166390343428,-0.08714647121364187,0.07824560327999999,-0.056258739952460286,,-3.9909035e-05,-2.6226044e-06,1.3113022e-06,1.0,3.875047e-05,3.2410026e-05,-3.874302e-05,0.99999994,2.95043e-06,-3.241375e-05,-3.0100346e-06,1.0,264,0.79,0,0,0.0,False,-0.18933801689476093,0.9560445186496953
0.8061791789950803,10:07:49.741318,10:06:43.785499,0,,0.09447212,0.029102296,0.031752184,-0.57828385,0.30459085,-0.7568436,-0.26507092,0.8072122,0.5273952,0.7715732,0.5056012,-0.38605964,,0.06284796,0.006145008,0.04257995,0.7977745,0.33167535,0.50353473,0.02800709,-0.8545931,0.51854247,0.60230505,-0.39957732,-0.691062,,0.07747704,1.3301731,0.45619807,0.99824977,0.036697004,-0.046376027,-0.0016059605,-0.7670781,-0.6415517,-0.05911706,0.6405033,-0.7656766,,-0.050383605,0.27149794,-0.07502918,0.5202792,-0.37730455,0.76612717,0.32417968,0.9172167,0.23156221,-0.7900741,0.12788585,0.59952325,,0.00034455824,0.45714894,-0.31740978,-0.8790334,-0.23395641,-0.41540906,0.32829836,-0.92886144,-0.17157093,-0.34571734,-0.2871947,0.89330775,,1.2438233567225996,0.3594777698294025,0.19846718416000003,1.3749369594280263,-0.6908341428140669,-0.10594667562266036,-0.3387755931624952,,-1.3430527514235102,0.30778179596934363,0.18540446983000003,-1.2809958647469593,-0.23952378408881708,0.07483944347249741,0.7812746683202577,,-0.03254166390343428,-0.08714647121364187,0.07824560327999999,-0.056258739952460286,,-3.9909035e-05,-2.6226044e-06,1.3113022e-06,1.0,3.875047e-05,3.2410026e-05,-3.874302e-05,0.99999994,2.95043e-06,-3.241375e-05,-3.0100346e-06,1.0,271,0.812,0,0,0.0,False,-0.18963590548736642,0.9563824800551517
0.8346329669002444,10:07:49.763414,10:06:43.785499,0,,0.09455504,0.029337585,0.031636253,-0.57702667,0.30147514,-0.7590473,-0.26764786,0.80825704,0.52448547,0.7716248,0.50579935,-0.38569686,,0.06285129,0.0061384663,0.04257649,0.7988941,0.32886472,0.50360304,0.02552095,-0.855065,0.5178924,0.6009299,-0.4008887,-0.6914995,,0.07747704,1.3301731,0.45619807,0.99824977,0.036697004,-0.046376027,-0.0016059605,-0.7670781,-0.6415517,-0.05911706,0.6405033,-0.7656766,,-0.05046534,0.27160135,-0.07478771,0.51912224,-0.37425944,0.7684022,0.3221059,0.91841155,0.22971283,-0.7916817,0.12825786,0.59731907,,0.0003420508,0.45714143,-0.3174116,-0.87983525,-0.23096521,-0.41538537,0.32542938,-0.9297273,-0.17234497,-0.34638944,-0.2868138,0.89316976,,1.2434526655446367,0.36035816137706406,0.19870310894,1.3738885097106035,-0.6938401458089065,-0.10864124237019451,-0.34089906602224085,,-1.3430527514235102,0.3077740732364694,0.18540446983000003,-1.2778505155946913,-0.23952378408881708,0.07483944347249741,0.7812746683202577,,-0.03254166390343428,-0.08714647121364187,0.07824560327999999,-0.056258739952460286,,-3.9909035e-05,-2.6226044e-06,1.3113022e-06,1.0,3.875047e-05,3.2410026e-05,-3.874302e-05,0.99999994,2.95043e-06,-3.241375e-05,-3.0100346e-06,1.0,282,0.845,0,0,0.0,False,-0.1886230842725083,0.9563341998543722
0.8567452789284289,10:07:49.793997,10:06:43.785499,0,,0.094727464,0.029707223,0.031463638,-0.5748715,0.3002363,-0.76117074,-0.2705772,0.8081636,0.52312464,0.7722116,0.5066848,-0.38335317,,0.06285205,0.0061360225,0.042575,0.80030507,0.32556108,0.5035092,0.0223663,-0.85537696,0.51752305,0.5991756,-0.4029147,-0.6918443,,0.07747704,1.3301731,0.45619807,0.99824977,0.036697004,-0.046376027,-0.0016059605,-0.7670781,-0.6415517,-0.05911706,0.6405033,-0.7656766,,-0.050636526,0.27176625,-0.07441402,0.51703906,-0.37309784,0.7703692,0.32001784,0.91899514,0.23029658,-0.7938887,0.12745954,0.5945543,,0.00034161733,0.45713857,-0.3174122,-0.8808417,-0.22738697,-0.41522652,0.3217838,-0.93090487,-0.17283331,-0.34723634,-0.28585196,0.89314926,,1.242703560455837,0.36183320335604097,0.19905699611000002,1.3738885097106035,-0.6983491503011662,-0.11002853343692737,-0.3386122490963609,,-1.3430604741563845,0.30780496416796627,0.18540446983000003,-1.2738664066684855,-0.23952378408881708,0.07434937103165401,0.7816013564525262,,-0.03254166390343428,-0.08714647121364187,0.07824560327999999,-0.056258739952460286,,-3.9909035e-05,-2.6226044e-06,1.3113022e-06,1.0,3.875047e-05,3.2410026e-05,-3.874302e-05,0.99999994,2.95043e-06,-3.241375e-05,-3.0100346e-06,1.0,290,0.868,0,0,0.0,False,-0.18671659727983547,0.9581688474839916
0.8873278188984841,10:07:49.815405,10:06:43.785499,0,,0.094925515,0.03008525,0.031249598,-0.5750368,0.29673466,-0.762418,-0.27366444,0.8084585,0.52105904,0.77099967,0.5082747,-0.3836878,,0.06284957,0.00613942,0.04257691,0.79987794,0.3269306,0.5033005,0.023119047,-0.85476923,0.5184931,0.5997171,-0.40309542,-0.6912695,,0.07747704,1.3301731,0.45619807,0.99824977,0.036697004,-0.046376027,-0.0016059605,-0.7670781,-0.6415517,-0.05911706,0.6405033,-0.7656766,,-0.05083002,0.27190965,-0.074001774,0.5174254,-0.3697581,0.7717188,0.31687728,0.92050886,0.22858748,-0.79489607,0.12626319,0.59346265,,0.00034364272,0.45714262,-0.3174114,-0.8805305,-0.22873758,-0.41514474,0.32275018,-0.9307767,-0.17171785,-0.34712872,-0.28519085,0.8934024,,1.2418386143739237,0.36337002719801165,0.19943032763000001,1.3713722303887894,-0.700808607296944,-0.11145351825629546,-0.3366521203027495,,-1.3430527514235102,0.3078204096337147,0.18540446983000003,-1.274914856385908,-0.23966042058858256,0.07348064405366375,0.7825814208493318,,-0.03254166390343428,-0.08714647121364187,0.07824560327999999,-0.056258739952460286,,-3.9909035e-05,-2.6226044e-06,1.3113022e-06,1.0,3.875047e-05,3.2410026e-05,-3.874302e-05,0.99999994,2.95043e-06,-3.241375e-05,-3.0100346e-06,1.0,301,0.901,0,0,0.0,False,-0.1843930662575155,0.9590861712988015
0.9087271749740466,10:07:49.845972,10:06:43.785499,0,,0.09507015,0.030326888,0.031121433,-0.57521737,0.29481325,-0.7630269,-0.27498257,0.80881846,0.5198049,0.7703957,0.5088198,-0.38417798,,0.06285203,0.006142594,0.042581916,0.7995565,0.32686377,0.5038546,0.022722512,-0.8547941,0.5184697,0.6001609,-0.40309697,-0.6908834,,0.07747704,1.3301731,0.45619807,0.99824977,0.036697004,-0.046376027,-0.0016059605,-0.7670781,-0.6415517,-0.05911706,0.6405033,-0.7656766,,-0.0509724,0.2720052,-0.07374422,0.5177072,-0.36790532,0.772415,0.31549156,0.92128897,0.22735816,-0.79526365,0.12598544,0.59302896,,0.00034033658,0.45714802,-0.31741253,-0.880263,-0.22867031,-0.41574872,0.32281476,-0.93078667,-0.17154257,-0.34774667,-0.2852124,0.89315516,,1.2412362412097344,0.3643971506702835,0.19965717838000002,1.370533470614851,-0.702038335794833,-0.11290111932724456,-0.33697880843501804,,-1.3430527514235102,0.3078435778323374,0.18540446983000003,-1.274914856385908,-0.24034360308740974,0.07354766113130248,0.7837248293122718,,-0.03254166390343428,-0.08714647121364187,0.07824560327999999,-0.056258739952460286,,-3.9909035e-05,-2.6226044e-06,1.3113022e-06,1.0,3.875047e-05,3.2410026e-05,-3.874302e-05,0.99999994,2.95043e-06,-3.241375e-05,-3.0100346e-06,1.0,308,0.921,0,0,0.0,False,-0.18332066732413654,0.9594241327042574
0.939296857919544,10:07:49.866378,10:06:43.785499,0,,0.09530432,0.03070429,0.030906215,-0.5768079,0.2896898,-0.76378816,-0.27830476,0.8093801,0.5171559,0.76800984,0.5108652,-0.38623494,,0.06290913,0.0061714277,0.042568505,0.79963,0.32741362,0.5033805,0.022844657,-0.85425866,0.51934606,0.6000582,-0.4037851,-0.69057065,,0.077459194,1.3301736,0.4561982,0.99824977,0.036707237,-0.046367466,-0.0015926425,-0.7670776,-0.6415523,-0.05911706,0.6405033,-0.7656766,,-0.051186062,0.27214485,-0.07333055,0.5196251,-0.36301044,0.7734424,0.3115602,0.92342573,0.22408736,-0.7955627,0.12453246,0.59293485,,0.00030064426,0.45715305,-0.31737834,-0.8803256,-0.22912064,-0.41536796,0.32281289,-0.9309524,-0.17064396,-0.34758976,-0.28430837,0.8935044,,1.2403635723949469,0.3660343700396191,0.20000717668,1.3663396717451608,-0.7032680642927219,-0.11451207787847473,-0.3346919915091382,,-1.3430681968892586,0.30785902329808584,0.18540576612,-1.274914856385908,-0.24020696658764432,0.07261945582620039,0.7851949259074804,,-0.03254166390343428,-0.08714647121364187,0.07824560327999999,-0.056258739952460286,,-5.7730824e-05,-3.5762787e-06,1.66893e-06,0.99999994,4.8965216e-05,4.095584e-05,-4.896149e-05,0.99999994,3.784895e-06,-4.0959567e-05,-3.784895e-06,1.0,319,0.954,0,0,0.0,False,-0.1793885379017479,0.9599552149128316
0.959709596936591,10:07:49.900307,10:06:43.941849,0,,0.09549458,0.031045645,0.030716732,-0.5789239,0.2852096,-0.7638734,-0.28083473,0.8097643,0.5151829,0.76549256,0.5127737,-0.38869533,,0.06290257,0.006172247,0.04257059,0.7998311,0.3284337,0.50239545,0.023082003,-0.85322326,0.5210349,0.5997809,-0.40514362,-0.69001555,,0.077459194,1.3301736,0.4561982,0.99824977,0.036707237,-0.046367466,-0.0015926425,-0.7670776,-0.6415523,-0.05911706,0.6405033,-0.7656766,,-0.051372495,0.27227578,-0.07296075,0.52204335,-0.35872695,0.7738125,0.30819988,0.9252894,0.22102581,-0.7952883,0.12310384,0.5936008,,0.00030678333,0.4571559,-0.31737977,-0.88049257,-0.22996777,-0.4145451,0.32276514,-0.9312823,-0.1689259,-0.34721097,-0.2825387,0.8942127,,1.2396376355047698,0.3674862438199733,0.20032865660000002,1.3623555628189548,-0.7034047007924874,-0.11562584107688667,-0.33224183051712397,,-1.3430681968892586,0.30788219149670853,0.18540187725,-1.274914856385908,-0.239797057088348,0.0706516273122999,0.7851949259074804,,-0.03254166390343428,-0.08714647121364187,0.07824560327999999,-0.056258739952460286,,-5.7730824e-05,-3.5762787e-06,1.66893e-06,0.99999994,4.8965216e-05,4.095584e-05,-4.896149e-05,0.99999994,3.784895e-06,-4.0959567e-05,-3.784895e-06,1.0,330,0.987,0,0,0.0,False,-0.17944811562026963,0.9603897367198468
0.9936256449436769,10:07:49.932865,10:06:43.941849,0,,0.0956389,0.031369448,0.030542508,-0.5807559,0.28256536,-0.76346534,-0.28275186,0.8094286,0.51466167,0.76339626,0.5147639,-0.3901847,,0.06290072,0.006174065,0.04257363,0.7997096,0.32839304,0.5026154,0.022925794,-0.8532449,0.52100617,0.5999489,-0.4051308,-0.68987703,,0.077459194,1.3301736,0.4561982,0.99824977,0.036707237,-0.046367466,-0.0015926425,-0.7670776,-0.6415523,-0.05911706,0.6405033,-0.7656766,,-0.0515138,0.2724064,-0.0726158,0.5241195,-0.35625076,0.77355295,0.3055547,0.92649186,0.21965693,-0.79494345,0.12123625,0.59444654,,0.00030808162,0.45715958,-0.3173808,-0.8803913,-0.22992863,-0.41478187,0.32278517,-0.9312836,-0.16888031,-0.34744912,-0.2825662,0.8941115,,1.2391356578679453,0.3687450492784719,0.20063587733000002,1.3592102136666868,-0.7032680642927219,-0.11541054402002099,-0.3309350779880498,,-1.3430604741563845,0.3079053596953312,0.18540058096,-1.274914856385908,-0.24007033008787887,0.07071110563941163,0.7851949259074803,,-0.03254166390343428,-0.08714647121364187,0.07824560327999999,-0.056258739952460286,,-5.7730824e-05,-3.5762787e-06,1.66893e-06,0.99999994,4.8965216e-05,4.095584e-05,-4.896149e-05,0.99999994,3.784895e-06,-4.0959567e-05,-3.784895e-06,1.0,338,1.012,0,0,0.0,False,-0.1815333357685054,0.961258780333877
1.0261974949389696,10:07:49.962945,10:06:43.941849,0,,0.095742255,0.031679943,0.03034857,-0.5827273,0.27924067,-0.7631863,-0.28472295,0.8094362,0.51356184,0.76115805,0.51656306,-0.39217448,,0.06289885,0.0061764494,0.04257661,0.7996495,0.32829523,0.502775,0.022846162,-0.85333467,0.5208628,0.6000322,-0.40502116,-0.68986905,,0.077459194,1.3301736,0.4561982,0.99824977,0.036707237,-0.046367466,-0.0015926425,-0.7670776,-0.6415523,-0.05911706,0.6405033,-0.7656766,,-0.05161214,0.2725178,-0.07226563,0.52634853,-0.35309398,0.7734868,0.3027906,0.92789847,0.21753697,-0.7945282,0.11970426,0.5953115,,0.00030938355,0.45716357,-0.31738144,-0.88034105,-0.22984473,-0.41493502,0.32279354,-0.9312593,-0.1689984,-0.34756872,-0.28271458,0.8940182,,1.2387572439571082,0.36979534094936645,0.20095606096000002,1.35564548462745,-0.7028581547934257,-0.115581440250829,-0.33028170172351257,,-1.3430604741563845,0.30792852789395386,0.18539928467000003,-1.274914856385908,-0.24020696658764432,0.07090420228324862,0.7853582699736146,,-0.03254166390343428,-0.08714647121364187,0.07824560327999999,-0.056258739952460286,,-5.7730824e-05,-3.5762787e-06,1.66893e-06,0.99999994,4.8965216e-05,4.095584e-05,-4.896149e-05,0.99999994,3.784895e-06,-4.0959567e-05,-3.784895e-06,1.0,346,1.036,0,0,0.0,False,-0.18183122436111043,0.9615001813377742
1.0562752899713814,10:07:49.988006,10:06:43.941849,0,,0.09581387,0.03198342,0.030129597,-0.5843235,0.27623522,-0.7630596,-0.2866992,0.8093812,0.512548,0.75919,0.5182623,-0.3937442,,0.0628966,0.0061785653,0.042580724,0.79965055,0.3282635,0.5027939,0.022843122,-0.8533647,0.5208137,0.6000308,-0.40498358,-0.6898923,,0.077459194,1.3301736,0.4561982,0.99824977,0.036707237,-0.046367466,-0.0015926425,-0.7670776,-0.6415523,-0.05911706,0.6405033,-0.7656766,,-0.05167647,0.27261075,-0.07190176,0.5281812,-0.3502442,0.7735332,0.30015993,0.92916745,0.21575889,-0.79431015,0.11822389,0.59589803,,0.00031091817,0.45716816,-0.31738302,-0.8803418,-0.22981778,-0.41494828,0.32279027,-0.9312507,-0.16905195,-0.34756973,-0.28276476,0.8940019,,1.2384328891763907,0.37066028703127957,0.20129828152,1.3522904455316975,-0.7027215182936603,-0.11552950067424428,-0.3306083898557811,,-1.3430681968892586,0.30795169609257655,0.18539669209,-1.274914856385908,-0.24020696658764432,0.07098588102338915,0.7865016784365546,,-0.03254166390343428,-0.08714647121364187,0.07824560327999999,-0.056258739952460286,,-5.7730824e-05,-3.5762787e-06,1.66893e-06,0.99999994,4.8965216e-05,4.095584e-05,-4.896149e-05,0.99999994,3.784895e-06,-4.0959567e-05,-3.784895e-06,1.0,358,1.073,0,0,0.0,False,-0.17962684877583257,0.9627071863572609
1.0813371489057317,10:07:50.025553,10:06:44.067774,0,,0.09586712,0.032263696,0.029913709,-0.5858614,0.27327067,-0.76294786,-0.28844988,0.809466,0.5114306,0.7573395,0.5196996,-0.3954101,,0.06289171,0.0061821714,0.042584836,0.79965913,0.3283162,0.50274587,0.022842526,-0.8533037,0.5209137,0.6000194,-0.40506947,-0.68985176,,0.077459194,1.3301736,0.4561982,0.99824977,0.036707237,-0.046367466,-0.0015926425,-0.7670776,-0.6415523,-0.05911706,0.6405033,-0.7656766,,-0.051721886,0.27268916,-0.07155567,0.5299371,-0.34741813,0.77360666,0.29777294,0.9303779,0.21384151,-0.794039,0.11703659,0.5964935,,0.0003149888,0.45717424,-0.31738383,-0.88034856,-0.22985953,-0.41491082,0.32278085,-0.93127316,-0.1689463,-0.3475614,-0.2826569,0.8940392,,1.238162593525793,0.37138622392145665,0.20162624289000003,1.3491450963794298,-0.7024482452941293,-0.11567065774149665,-0.3307717339219154,,-1.3430681968892586,0.3079903097569477,0.18539409951000002,-1.274914856385908,-0.24020696658764432,0.07090420228324859,0.7869917106349575,,-0.03254166390343428,-0.08714647121364187,0.07824560327999999,-0.056258739952460286,,-5.7730824e-05,-3.5762787e-06,1.66893e-06,0.99999994,4.8965216e-05,4.095584e-05,-4.896149e-05,0.99999994,3.784895e-06,-4.0959567e-05,-3.784895e-06,1.0,366,1.098,0,0,0.0,False,-0.18016304824252138,0.9638659111759678
1.1188818109221756,10:07:50.045786,10:06:44.067774,0,,0.09591133,0.032526225,0.029675141,-0.58733493,0.2700091,-0.7629762,-0.29033118,0.8096763,0.5100312,0.75547695,0.5210748,-0.39715928,,0.062889785,0.0061863586,0.042591155,0.79953295,0.32820266,0.5030205,0.022680745,-0.8534003,0.5207625,0.6001936,-0.40495795,-0.6897657,,0.077459194,1.3301736,0.4561982,0.99824977,0.036707237,-0.046367466,-0.0015926425,-0.7670776,-0.6415523,-0.05911706,0.6405033,-0.7656766,,-0.05175569,0.27274036,-0.07120349,0.53163505,-0.34429595,0.7738375,0.29527166,0.931672,0.21166477,-0.793838,0.11596388,0.5969703,,0.00031577924,0.45718184,-0.31738555,-0.88024336,-0.22976005,-0.415189,0.32280183,-0.9312504,-0.16903149,-0.34780824,-0.2828126,0.89389396,,1.2378382387450755,0.37197315161989775,0.201961982,1.3457900572836774,-0.7023116087943639,-0.11586375438533358,-0.3306083898557811,,-1.343075919622133,0.30802892342131877,0.18539150693,-1.274914856385908,-0.24048023958717518,0.07112703809064147,0.7886251512963003,,-0.03254166390343428,-0.08714647121364187,0.07824560327999999,-0.056258739952460286,,-5.7730824e-05,-3.5762787e-06,1.66893e-06,0.99999994,4.8965216e-05,4.095584e-05,-4.896149e-05,0.99999994,3.784895e-06,-4.0959567e-05,-3.784895e-06,1.0,399,1.2,0,0,0.0,False,-0.18075882542773192,0.9655074380024695
1.139075388899073,10:07:50.147798,10:06:44.200925,0,,0.09606026,0.03324318,0.028810412,-0.59548044,0.25297356,-0.7625007,-0.29729098,0.8123597,0.50168675,0.74633837,0.52542907,-0.4085377,,0.06287348,0.0061859265,0.04263264,0.79934597,0.3281447,0.50335544,0.022427514,-0.85342,0.5207412,0.6004522,-0.4049633,-0.68953747,,0.077459194,1.3301736,0.4561982,0.99824977,0.036707237,-0.046367466,-0.0015926425,-0.7670776,-0.6415523,-0.05911706,0.6405033,-0.7656766,,-0.05185793,0.27274472,-0.070075005,0.5407902,-0.32780856,0.7746532,0.28483903,0.93789506,0.19803943,-0.79146236,0.11355369,0.6005771,,0.00032573644,0.4572122,-0.3174166,-0.88008696,-0.2297012,-0.41555303,0.32282355,-0.9312605,-0.16893424,-0.34818375,-0.28282714,0.8937432,,1.2364172558962183,0.373324629872887,0.20302493980000003,1.329643931635369,-0.6990323327999933,-0.11861946281418828,-0.33044504578964684,,-1.343114533286504,0.3081602098801806,0.18535521081000003,-1.274914856385908,-0.24089014908647152,0.0712979343214496,0.79319878514806,,-0.03254166390343428,-0.08714647121364187,0.07824560327999999,-0.056258739952460286,,-5.7730824e-05,-3.5762787e-06,1.66893e-06,0.99999994,4.8965216e-05,4.095584e-05,-4.896149e-05,0.99999994,3.784895e-06,-4.0959567e-05,-3.784895e-06,1.0,407,1.225,0,0,0.0,False,-0.1810567140203374,0.9702388976788563
1.2411304459674284,10:07:50.175392,10:06:44.200925,0,,0.09613132,0.033524603,0.028467283,-0.5978445,0.2516476,-0.7610882,-0.29396814,0.81447387,0.50021476,0.7457645,0.52278614,-0.41295245,,0.06287905,0.0061861053,0.04265988,0.7983589,0.3277454,0.50517887,0.021476999,-0.8538779,0.5200301,0.6017986,-0.40432096,-0.6887402,,0.077459194,1.3301736,0.4561982,0.99824977,0.036707237,-0.046367466,-0.0015926425,-0.7670776,-0.6415523,-0.05911706,0.6405033,-0.7656766,,-0.0519103,0.27274308,-0.069628626,0.543065,-0.3263447,0.7736792,0.28725815,0.937997,0.19402163,-0.78902674,0.11687931,0.6031385,,0.00031616504,0.45723033,-0.3174354,-0.879274,-0.22938395,-0.41744483,0.32320136,-0.9310929,-0.16913563,-0.34988293,-0.2836353,0.89282304,,1.2358303281977772,0.3735949255234849,0.20341512309,1.3319505210136986,-0.6957530568056227,-0.12309042478599475,-0.3307717339219155,,-1.3431299787522526,0.3082142690103002,0.18533965533000002,-1.2751245463293925,-0.24280306008318767,0.07228603379221554,0.7946688817432686,,-0.03254166390343428,-0.08714647121364187,0.07824560327999999,-0.056258739952460286,,-5.7730824e-05,-3.5762787e-06,1.66893e-06,0.99999994,4.8965216e-05,4.095584e-05,-4.896149e-05,0.99999994,3.784895e-06,-4.0959567e-05,-3.784895e-06,1.0,415,1.249,0,0,0.0,False,-0.18046093683512687,0.9703837382811948
1.268672126927413,10:07:50.198806,10:06:44.200925,0,,0.09621104,0.0337615,0.028127372,-0.59944457,0.24958172,-0.76050967,-0.29000628,0.81786114,0.49699026,0.7460311,0.51847064,-0.41788232,,0.06287038,0.006181456,0.042686522,0.79803216,0.32823393,0.50537795,0.021321684,-0.8534966,0.52066207,0.60223734,-0.40472963,-0.6881164,,0.077459194,1.3301736,0.4561982,0.99824977,0.036707237,-0.046367466,-0.0015926425,-0.7670776,-0.6415523,-0.05911706,0.6405033,-0.7656766,,-0.051969852,0.27270815,-0.0692124,0.5444832,-0.3240508,0.77364665,0.29063475,0.9381047,0.18839075,-0.7868097,0.12227299,0.60496265,,0.0003209499,0.45724645,-0.31745827,-0.8790103,-0.22982106,-0.41775972,0.32343537,-0.93116635,-0.16828187,-0.35032907,-0.28303978,0.89283705,,1.2350889458418517,0.3737184892494725,0.20378715832000002,1.3355152500529355,-0.693020326810314,-0.1302195072683569,-0.32848491699603566,,-1.3431377014851267,0.30827605087329396,0.18531502582,-1.2753342362728772,-0.24334960608224945,0.07166988178517394,0.7951589139416714,,-0.03254166390343428,-0.08714647121364187,0.07824560327999999,-0.056258739952460286,,-5.7730824e-05,-3.5762787e-06,1.66893e-06,0.99999994,4.8965216e-05,4.095584e-05,-4.896149e-05,0.99999994,3.784895e-06,-4.0959567e-05,-3.784895e-06,1.0,423,1.274,0,0,0.0,False,-0.1815333357685054,0.9696595352695028
1.292130987974815,10:07:50.219177,10:06:44.200925,0,,0.09626275,0.03390953,0.027903646,-0.5997342,0.2502608,-0.76005805,-0.28667146,0.8195959,0.4960665,0.7470865,0.51539487,-0.4197972,,0.06286289,0.006176062,0.042710185,0.79796475,0.32823208,0.5054855,0.021233529,-0.8534858,0.5206833,0.60232973,-0.40475368,-0.6880214,,0.077459194,1.3301736,0.4561982,0.99824977,0.036707237,-0.046367466,-0.0015926425,-0.7670776,-0.6415523,-0.05911706,0.6405033,-0.7656766,,-0.052007988,0.27267906,-0.06894343,0.5445535,-0.32453182,0.7733955,0.29390776,0.9374745,0.18643992,-0.7855442,0.1257804,0.6058875,,0.00032504075,0.4572599,-0.3174795,-0.87895393,-0.22981611,-0.41788095,0.32344487,-0.931175,-0.1682157,-0.35046163,-0.2830153,0.8927928,,1.2345638000064043,0.3737262119823467,0.20402956455000001,1.3394993589791415,-0.6916539618126596,-0.1341924422102408,-0.3312617661203183,,-1.3431608696837494,0.30832238727053934,0.18529169260000003,-1.2753342362728772,-0.24348624258201487,0.07169962094872981,0.7949955698755371,,-0.03254166390343428,-0.08714647121364187,0.07824560327999999,-0.056258739952460286,,-5.7730824e-05,-3.5762787e-06,1.66893e-06,0.99999994,4.8965216e-05,4.095584e-05,-4.896149e-05,0.99999994,3.784895e-06,-4.0959567e-05,-3.784895e-06,1.0,431,1.298,0,0,0.0,False,-0.17962684877583257,0.9694664144663849
1.3124907759483904,10:07:50.248494,10:06:44.200925,0,,0.096353725,0.034117877,0.027509287,-0.6009823,0.2508414,-0.75887984,-0.28166136,0.822098,0.4947946,0.7479887,0.51110977,-0.42341414,,0.062841244,0.006171383,0.04274398,0.7984697,0.3292482,0.5040251,0.022090182,-0.85266197,0.5219959,0.6016293,-0.40566397,-0.68809813,,0.077459194,1.3301736,0.4561982,0.99824977,0.036707237,-0.046367466,-0.0015926425,-0.7670776,-0.6415523,-0.05911706,0.6405033,-0.7656766,,-0.05207301,0.27258703,-0.06850242,0.5455268,-0.3248414,0.77257913,0.2984659,0.93669325,0.18309526,-0.7831466,0.13070518,0.6079454,,0.0003415829,0.45728266,-0.31750846,-0.87938297,-0.23071757,-0.4164793,0.32350805,-0.9313472,-0.16713758,-0.34932524,-0.28171235,0.8936498,,1.2335752901985035,0.37361037098923333,0.20442104413,1.3445319176227701,-0.6889212318173508,-0.13952459240951065,-0.3306083898557812,,-1.3432226515467431,0.30841506006503,0.18525410019000002,-1.2755439262163615,-0.2422565140841259,0.0702884661147592,0.7941788495448656,,-0.03254166390343428,-0.08714647121364187,0.07824560327999999,-0.056258739952460286,,-5.7730824e-05,-3.5762787e-06,1.66893e-06,0.99999994,4.8965216e-05,4.095584e-05,-4.896149e-05,0.99999994,3.784895e-06,-4.0959567e-05,-3.784895e-06,1.0,443,1.335,0,0,0.0,False,-0.17879276071653782,0.9692732936632671
1.341823944938369,10:07:50.280768,10:06:44.200925,0,,0.09648237,0.03432159,0.02711171,-0.60034573,0.25339317,-0.7585359,-0.27571172,0.8247528,0.4937262,0.7507117,0.50554353,-0.42527354,,0.06283456,0.0061691776,0.042788625,0.7983727,0.32924274,0.50418246,0.021974668,-0.85265756,0.52200806,0.6017624,-0.4056777,-0.6879736,,0.077459194,1.3301736,0.4561982,0.99824977,0.036707237,-0.046367466,-0.0015926425,-0.7670776,-0.6415523,-0.05911706,0.6405033,-0.7656766,,-0.052175086,0.2724862,-0.068060234,0.5444326,-0.3270104,0.772436,0.30473366,0.9350663,0.18107577,-0.78149253,0.13680372,0.6087316,,0.0003416274,0.45731267,-0.31754225,-0.8793022,-0.23071031,-0.41665378,0.32352996,-0.93135273,-0.16706423,-0.3495082,-0.28169993,0.8935822,,1.2323242074728793,0.3735022527289942,0.20481382,1.3527098254186665,-0.6878281398192272,-0.14588841122849966,-0.3288116051283041,,-1.3433230470741082,0.3085077328595207,0.18521650778,-1.2755439262163615,-0.24239315058389135,0.07039988401845562,0.7941788495448656,,-0.03254166390343428,-0.08714647121364187,0.07824560327999999,-0.056258739952460286,,-5.7730824e-05,-3.5762787e-06,1.66893e-06,0.99999994,4.8965216e-05,4.095584e-05,-4.896149e-05,0.99999994,3.784895e-06,-4.0959567e-05,-3.784895e-06,1.0,451,1.36,0,0,0.0,False,-0.18004389280547928,0.9683076896476779
1.3741006829077378,10:07:50.311242,10:06:44.351682,0,,0.09662597,0.03448543,0.02673404,-0.59965014,0.2530807,-0.7591902,-0.27204233,0.8277141,0.49079755,0.7526038,0.5008385,-0.42749038,,0.06282924,0.0061690733,0.04283583,0.798378,0.3297514,0.5038415,0.022249654,-0.8523121,0.5225601,0.6017452,-0.40599027,-0.6878043,,0.077459194,1.3301736,0.4561982,0.99824977,0.036707237,-0.046367466,-0.0015926425,-0.7670776,-0.6415523,-0.05911706,0.6405033,-0.7656766,,-0.052292217,0.27236563,-0.067657925,0.543438,-0.32641268,0.77338856,0.3087069,0.9344538,0.17747158,-0.78062487,0.1423056,0.60858357,,0.00033985745,0.45734575,-0.31757635,-0.8793159,-0.23118022,-0.41636425,0.32371378,-0.9313884,-0.16650835,-0.3493034,-0.2811963,0.8938209,,1.2309650064870157,0.37343274813312616,0.20517029975,1.3581617639492642,-0.6879647763189927,-0.15247465001632932,-0.3266881322685584,,-1.3434620562658441,0.3086004056540114,0.18517761908000002,-1.2757536161598462,-0.2421198775843605,0.06993201199064109,0.7936888173464629,,-0.03254166390343428,-0.08714647121364187,0.07824560327999999,-0.056258739952460286,,-5.7730824e-05,-3.5762787e-06,1.66893e-06,0.99999994,4.8965216e-05,4.095584e-05,-4.896149e-05,0.99999994,3.784895e-06,-4.0959567e-05,-3.784895e-06,1.0,476,1.438,0,0,0.0,False,-0.1792693824647058,0.9678248876398834
1.4045608619926497,10:07:50.385704,10:06:44.351682,0,,0.09697435,0.034802556,0.025948644,-0.5957531,0.25209507,-0.76257867,-0.2671649,0.83319485,0.4841581,0.75743055,0.49217275,-0.42902762,,0.06282003,0.006183423,0.0429734,0.79763496,0.3315484,0.503839,0.02213125,-0.85088587,0.5248843,0.60273415,-0.40751544,-0.6860341,,0.077459194,1.3301736,0.4561982,0.99824977,0.036707237,-0.046367466,-0.0015926425,-0.7670776,-0.6415523,-0.05911706,0.6405033,-0.7656766,,-0.05258443,0.2720924,-0.066834085,0.5389597,-0.32490453,0.7771483,0.31518397,0.93338066,0.17163798,-0.78114116,0.15243873,0.6054593,,0.00032789944,0.4574518,-0.3176648,-0.8787243,-0.2327858,-0.4167186,0.3244076,-0.9316568,-0.16363166,-0.35014758,-0.2789738,0.8941869,,1.2277446268784642,0.373394134468755,0.20591048134,1.3688559510669749,-0.6923371443114867,-0.1651633463860157,-0.3270148204008271,,-1.3438481929095554,0.3089324831676031,0.18507780475000002,-1.2763826859902998,-0.2429396965829531,0.06782344224804052,0.7933621292141944,,-0.03254166390343428,-0.08714647121364187,0.07824560327999999,-0.056258739952460286,,-5.7730824e-05,-3.5762787e-06,1.66893e-06,0.99999994,4.8965216e-05,4.095584e-05,-4.896149e-05,0.99999994,3.784895e-06,-4.0959567e-05,-3.784895e-06,1.0,488,1.474,0,0,0.0,False,-0.17795867265724352,0.9680662886437805
1.4789827609201893,10:07:50.420650,10:06:44.456239,0,,0.097105,0.03491105,0.025706828,-0.5945727,0.25308493,-0.7631718,-0.26372707,0.83527255,0.4824599,0.7595599,0.4881264,-0.42988506,,0.06281386,0.0061966255,0.043064773,0.7960007,0.3317685,0.5062729,0.021145388,-0.8511373,0.5245172,0.60492605,-0.40681064,-0.68452144,,0.077459194,1.3301736,0.4561982,0.99824977,0.036707237,-0.046367466,-0.0015926425,-0.7670776,-0.6415523,-0.05911706,0.6405033,-0.7656766,,-0.05269809,0.27201477,-0.06657261,0.5374711,-0.32562557,0.7778771,0.31908503,0.9323848,0.16983318,-0.78058285,0.15692851,0.60503215,,0.0003198645,0.45752484,-0.317721,-0.8773964,-0.23309813,-0.41933382,0.32542717,-0.931381,-0.16317658,-0.3525234,-0.27963316,0.8930468,,1.2266943352075697,0.37340957993450347,0.20613603580000003,1.3745175795410571,-0.692747053810783,-0.1703832470044847,-0.3270148204008271,,-1.34400264756704,0.3091950560853267,0.18501817541,-1.277221445764238,-0.24567242657826194,0.0688266192198605,0.7935254732803285,,-0.03254166390343428,-0.08714647121364187,0.07824560327999999,-0.056258739952460286,,-5.7730824e-05,-3.5762787e-06,1.66893e-06,0.99999994,4.8965216e-05,4.095584e-05,-4.896149e-05,0.99999994,3.784895e-06,-4.0959567e-05,-3.784895e-06,1.0,496,1.499,0,0,0.0,False,-0.17676711828682246,0.9683076896476779
1.5139776249416173,10:07:50.447424,10:06:44.456239,0,,0.09721574,0.035040528,0.025515571,-0.59335756,0.25932845,-0.7620206,-0.25676933,0.8362446,0.48452488,0.7628868,0.4831599,-0.42960456,,0.062794805,0.006202467,0.04309261,0.79620755,0.33242428,0.5055168,0.021367863,-0.85046196,0.52560264,0.6046459,-0.40768695,-0.6842476,,0.077459194,1.3301736,0.4561982,0.99824977,0.036707237,-0.046367466,-0.0015926425,-0.7670776,-0.6415523,-0.05911706,0.6405033,-0.7656766,,-0.052797057,0.27198663,-0.066338025,0.5357107,-0.33145648,0.7766277,0.32646456,0.9295177,0.17151602,-0.77873933,0.16165847,0.60616136,,0.0003343199,0.45755064,-0.31773818,-0.877568,-0.2336427,-0.41867107,0.325366,-0.93158805,-0.16211303,-0.35215244,-0.27848655,0.8935513,,1.225952952851644,0.37342502540025196,0.2063304793,1.38437300688483,-0.6911074158135978,-0.1742523027931992,-0.32652478820242425,,-1.344041261231411,0.3093263425441885,0.18499354590000003,-1.277221445764238,-0.2452625170789656,0.0676755781073656,0.7935254732803285,,-0.03254166390343428,-0.08714647121364187,0.07824560327999999,-0.056258739952460286,,-5.7730824e-05,-3.5762787e-06,1.66893e-06,0.99999994,4.8965216e-05,4.095584e-05,-4.896149e-05,0.99999994,3.784895e-06,-4.0959567e-05,-3.784895e-06,1.0,504,1.524,0,0,0.0,False,-0.17426485410893955,0.9684042500492369
1.5407271899748594,10:07:50.471816,10:06:44.533861,0,,0.097259775,0.03513977,0.025384828,-0.5933282,0.25910178,-0.7621206,-0.25319058,0.83865523,0.4822362,0.76410484,0.47908592,-0.43199578,,0.06277186,0.0062116906,0.04314512,0.7962574,0.33324233,0.50489944,0.021653533,-0.84976774,0.52671236,0.60457015,-0.4084657,-0.6838498,,0.077459194,1.3301736,0.4561982,0.99824977,0.036707237,-0.046367466,-0.0015926425,-0.7670776,-0.6415523,-0.05911706,0.6405033,-0.7656766,,-0.052833583,0.2719784,-0.06617226,0.53544027,-0.33097678,0.7770187,0.3300019,0.9288646,0.16825376,-0.7774333,0.16632782,0.6065745,,0.00034880755,0.4575964,-0.3177709,-0.87761736,-0.23436283,-0.41816485,0.32551134,-0.9317363,-0.16096535,-0.35189506,-0.2773834,0.8939957,,1.2256363208038008,0.3734481935988746,0.20647436749000003,1.3887764956980047,-0.6896044143161779,-0.1800519091817313,-0.32521803567334995,,-1.3441416567587758,0.30952713359891837,0.18495076833000001,-1.2774311357077224,-0.24498924407943473,0.06663595489856716,0.7935254732803286,,-0.03254166390343428,-0.08714647121364187,0.07824560327999999,-0.056258739952460286,,-5.7730824e-05,-3.5762787e-06,1.66893e-06,0.99999994,4.8965216e-05,4.095584e-05,-4.896149e-05,0.99999994,3.784895e-06,-4.0959567e-05,-3.784895e-06,1.0,512,1.548,0,0,0.0,False,-0.16294508758994342,0.9684525302500164
1.5650247439043596,10:07:50.498865,10:06:44.533861,0,,0.09727943,0.035226226,0.025351033,-0.59072286,0.26532388,-0.7620038,-0.24795014,0.83900225,0.48435086,0.76783276,0.4750559,-0.42983085,,0.06275751,0.0062135085,0.043177903,0.7963336,0.3331039,0.5048706,0.021469861,-0.8497343,0.52677387,0.60447633,-0.40864825,-0.6838238,,0.077459194,1.3301736,0.4561982,0.99824977,0.036707237,-0.046367466,-0.0015926425,-0.7670776,-0.6415523,-0.05911706,0.6405033,-0.7656766,,-0.052853595,0.27202278,-0.06609083,0.5323276,-0.33684206,0.77663684,0.3361824,0.92609876,0.17123815,-0.7769226,0.16993682,0.6062283,,0.0003580254,0.45762214,-0.31779405,-0.87767136,-0.23420024,-0.41814265,0.32530558,-0.9318195,-0.1608997,-0.35195073,-0.2772412,0.8940179,,1.225574538940807,0.37346363906462304,0.20655084860000003,1.3977931632678393,-0.6894677778164124,-0.18294040425020686,-0.31999102555705305,,-1.3441879931560212,0.3096429745920317,0.18492224995,-1.277221445764238,-0.24498924407943473,0.06663595489856716,0.7935254732803286,,-0.03254166390343428,-0.08714647121364187,0.07824560327999999,-0.056258739952460286,,-5.7730824e-05,-3.5762787e-06,1.66893e-06,0.99999994,4.8965216e-05,4.095584e-05,-4.896149e-05,0.99999994,3.784895e-06,-4.0959567e-05,-3.784895e-06,1.0,524,1.585,0,0,0.0,False,-0.14864643514489506,0.9680662886437805
1.592169723007828,10:07:50.530212,10:06:44.533861,0,,0.09725499,0.035303503,0.0252866,-0.58911467,0.2619324,-0.76441824,-0.24816012,0.8416407,0.47964284,0.7689996,0.47226262,-0.43082187,,0.0627404,0.0062121525,0.04322946,0.7961096,0.33348024,0.5049754,0.021691456,-0.84964937,0.52690196,0.6047634,-0.40851802,-0.68364775,,0.077459194,1.3301736,0.4561982,0.99824977,0.036707237,-0.046367466,-0.0015926425,-0.7670776,-0.6415523,-0.05911706,0.6405033,-0.7656766,,-0.05282675,0.2720446,-0.065993235,0.53063524,-0.3333291,0.77930605,0.33661392,0.9266861,0.1671644,-0.7778928,0.17362195,0.60393554,,0.00036731057,0.45765883,-0.31783298,-0.87750167,-0.2345949,-0.41827753,0.32569084,-0.9317192,-0.16070119,-0.35201752,-0.27724472,0.8939905,,1.2255899844065554,0.3734790845303715,0.20666232954000002,1.399260992872231,-0.6911074158135978,-0.18895447601850035,-0.30234986641455097,,-1.3442652204847636,0.30978198378376776,0.1848768798,-1.2776408256512068,-0.24512588057920015,0.06674737280226356,0.7935254732803286,,-0.03254166390343428,-0.08714647121364187,0.07824560327999999,-0.056258739952460286,,-5.7730824e-05,-3.5762787e-06,1.66893e-06,0.99999994,4.8965216e-05,4.095584e-05,-4.896149e-05,0.99999994,3.784895e-06,-4.0959567e-05,-3.784895e-06,1.0,553,1.675,0,0,0.0,False,-0.12469619229944007,0.9686939312539138
1.6235259548993781,10:07:50.619906,10:06:44.611893,0,,0.09732128,0.03548065,0.025112957,-0.58393306,0.27097365,-0.76524204,-0.23898809,0.84349203,0.48104665,0.7758265,0.4637826,-0.42778355,,0.06273769,0.006193094,0.04329139,0.79518837,0.33489227,0.5054922,0.021608531,-0.8487685,0.528323,0.60597724,-0.40919337,-0.68216753,,0.077459194,1.3301736,0.4561982,0.99824977,0.036707237,-0.046367466,-0.0015926425,-0.7670776,-0.6415523,-0.05911706,0.6405033,-0.7656766,,-0.052884784,0.2720682,-0.06574422,0.52454275,-0.34168032,0.77981377,0.34756812,0.9220745,0.17022058,-0.7772074,0.18175043,0.6024247,,0.00036152697,0.45768818,-0.31789055,-0.8767688,-0.2359248,-0.4190656,0.32658818,-0.9317417,-0.15873735,-0.3530108,-0.27603784,0.89397234,,1.2250725613039823,0.3734018572016293,0.20689566174000001,1.415616808464024,-0.6916539618126596,-0.19675835715791146,-0.27180452604744076,,-1.3443424478135058,0.3098283201810131,0.18481984304000001,-1.278479585425145,-0.24635560907708912,0.06538145047145505,0.794342193611,,-0.03254166390343428,-0.08714647121364187,0.07824560327999999,-0.056258739952460286,,-5.7730824e-05,-3.5762787e-06,1.66893e-06,0.99999994,4.8965216e-05,4.095584e-05,-4.896149e-05,0.99999994,3.784895e-06,-4.0959567e-05,-3.784895e-06,1.0,557,1.687,0,0,0.0,False,-0.11957250850663126,0.9683076896476779
1.7132336619542912,10:07:50.640847,10:06:44.611893,0,,0.097390704,0.0355224,0.02503249,-0.58347815,0.27504393,-0.7641361,-0.23348969,0.8443671,0.48221016,0.7778404,0.45977688,-0.42844996,,0.06273508,0.0061904714,0.043296933,0.79519016,0.33510098,0.5053511,0.021608353,-0.8485489,0.5286757,0.6059749,-0.40947777,-0.68199885,,0.077459194,1.3301736,0.4561982,0.99824977,0.036707237,-0.046367466,-0.0015926425,-0.7670776,-0.6415523,-0.05911706,0.6405033,-0.7656766,,-0.05294866,0.2720446,-0.06565258,0.5237071,-0.34542558,0.7787246,0.35305777,0.9199133,0.17061579,-0.7752942,0.18558207,0.6037203,,0.0003633937,0.45769045,-0.3178965,-0.8767702,-0.23609747,-0.41896546,0.32658628,-0.9318081,-0.1583509,-0.35300916,-0.27566573,0.8940878,,1.2246864246602711,0.37334007533863545,0.20695658737000003,1.4225365765990132,-0.6894677778164124,-0.20001126093958443,-0.2714778379151721,,-1.3443424478135058,0.30983604291388733,0.18481336159000003,-1.278479585425145,-0.24635560907708912,0.06497305677075224,0.7935254732803286,,-0.03254166390343428,-0.08714647121364187,0.07824560327999999,-0.056258739952460286,,-5.7730824e-05,-3.5762787e-06,1.66893e-06,0.99999994,4.8965216e-05,4.095584e-05,-4.896149e-05,0.99999994,3.784895e-06,-4.0959567e-05,-3.784895e-06,1.0,573,1.737,0,0,0.0,False,-0.1197512416621942,0.9680180084430012
1.7341748479520902,10:07:50.681069,10:06:44.711718,0,,0.0975377,0.03556843,0.024814412,-0.58428293,0.27674016,-0.7629078,-0.22740707,0.8465713,0.48125133,0.7790375,0.4546774,-0.43170458,,0.06273252,0.0061908737,0.04330194,0.79506737,0.3349788,0.50562507,0.021451294,-0.84865725,0.5285081,0.6061414,-0.40935332,-0.6819256,,0.077459194,1.3301736,0.4561982,0.99824977,0.036707237,-0.046367466,-0.0015926425,-0.7670776,-0.6415523,-0.05911706,0.6405033,-0.7656766,,-0.05307822,0.27193192,-0.06544813,0.52417266,-0.34676516,0.7778155,0.35859603,0.9182992,0.16773637,-0.77243245,0.19099873,0.6056959,,0.00036514978,0.45769456,-0.31790003,-0.8766675,-0.23599091,-0.41924027,0.3266048,-0.9317837,-0.1584565,-0.35324693,-0.27583957,0.8939402,,1.2236593011879993,0.3732010661468994,0.20710177185000003,1.4288272749035489,-0.6863251383218073,-0.2055143073696623,-0.27049777351836635,,-1.3443347250806315,0.30985921111251,0.18480947272,-1.278479585425145,-0.24662888207662,0.06519589257814509,0.7935254732803286,,-0.03254166390343428,-0.08714647121364187,0.07824560327999999,-0.056258739952460286,,-5.7730824e-05,-3.5762787e-06,1.66893e-06,0.99999994,4.8965216e-05,4.095584e-05,-4.896149e-05,0.99999994,3.784895e-06,-4.0959567e-05,-3.784895e-06,1.0,577,1.749,0,0,0.0,False,-0.1193341976325466,0.9685008104507957
1.7743999399244785,10:07:50.702787,10:06:44.711718,0,,0.09762085,0.03557284,0.024689853,-0.58449453,0.27752036,-0.7624621,-0.2254475,0.84714276,0.4811678,0.77944815,0.45313495,-0.43258417,,0.062732786,0.006189905,0.04330474,0.7950633,0.33506376,0.5055751,0.021448627,-0.84856945,0.52864915,0.6061468,-0.40946567,-0.68185335,,0.077459194,1.3301736,0.4561982,0.99824977,0.036707237,-0.046367466,-0.0015926425,-0.7670776,-0.6415523,-0.05911706,0.6405033,-0.7656766,,-0.053150583,0.27185062,-0.065345146,0.5242731,-0.34743264,0.77744985,0.36039189,0.9177147,0.16708508,-0.77152795,0.19258842,0.60634506,,0.000364522,0.45769575,-0.31790262,-0.87666416,-0.23606165,-0.41920733,0.32660717,-0.93180954,-0.1582995,-0.35325295,-0.27569163,0.8939835,,1.2230028688936903,0.3730929478866603,0.20717695667000002,1.4309241743383943,-0.6856419558229803,-0.20688818428954991,-0.270824461650635,,-1.3443424478135058,0.30985921111251,0.18480688014000002,-1.278479585425145,-0.24662888207662,0.06503253509786397,0.7938521614125972,,-0.03254166390343428,-0.08714647121364187,0.07824560327999999,-0.056258739952460286,,-5.7730824e-05,-3.5762787e-06,1.66893e-06,0.99999994,4.8965216e-05,4.095584e-05,-4.896149e-05,0.99999994,3.784895e-06,-4.0959567e-05,-3.784895e-06,1.0,589,1.786,0,0,0.0,False,-0.11742771063987378,0.9686456510531343
1.7961152609204873,10:07:50.732590,10:06:44.711718,0,,0.09776149,0.03559895,0.024457678,-0.5848653,0.27805996,-0.7619811,-0.22343582,0.84783363,0.48088914,0.7797494,0.45150906,-0.43374,,0.06273304,0.0061889365,0.043307483,0.79505926,0.3351487,0.5055252,0.021445945,-0.84848166,0.5287901,0.60615224,-0.40957806,-0.681781,,0.077459194,1.3301736,0.4561982,0.99824977,0.036707237,-0.046367466,-0.0015926425,-0.7670776,-0.6415523,-0.05911706,0.6405033,-0.7656766,,-0.053271852,0.27171418,-0.065142564,0.52453923,-0.34785807,0.77708006,0.36217314,0.9171909,0.16610678,-0.77051234,0.19430798,0.60708743,,0.00036389427,0.4576969,-0.31790525,-0.8766609,-0.23613237,-0.4191744,0.32660952,-0.93183535,-0.1581425,-0.353259,-0.2755437,0.8940267,,1.2218521816954309,0.3729693841606727,0.20733640034000003,1.4330210737732394,-0.6852320463236838,-0.20836594036260725,-0.2691910209892924,,-1.34435017054638,0.30985921111251,0.18480428756000003,-1.278479585425145,-0.24662888207662,0.06486917761758285,0.7941788495448657,,-0.03254166390343428,-0.08714647121364187,0.07824560327999999,-0.056258739952460286,,-5.7730824e-05,-3.5762787e-06,1.66893e-06,0.99999994,4.8965216e-05,4.095584e-05,-4.896149e-05,0.99999994,3.784895e-06,-4.0959567e-05,-3.784895e-06,1.0,597,1.81,0,0,0.0,False,-0.11885757588437862,0.9688870520570316
1.8259083309676498,10:07:50.761856,10:06:44.815626,0,,0.09782218,0.03562358,0.024345517,-0.58513594,0.2776233,-0.7619325,-0.22329241,0.8480933,0.48049772,0.7795873,0.45129013,-0.43425885,,0.062732145,0.0061918125,0.04331124,0.79499453,0.33509463,0.5056629,0.021363169,-0.8485281,0.52871907,0.60624015,-0.40952614,-0.681734,,0.077459194,1.3301736,0.4561982,0.99824977,0.036707237,-0.046367466,-0.0015926425,-0.7670776,-0.6415523,-0.05911706,0.6405033,-0.7656766,,-0.053323682,0.2716582,-0.06503743,0.524817,-0.34741464,0.77709085,0.3622059,0.91729224,0.16547477,-0.7703078,0.1946229,0.60724616,,0.0003641102,0.45770165,-0.317906,-0.87660664,-0.2360848,-0.41931465,0.32661942,-0.9318257,-0.15817925,-0.35338444,-0.2756173,0.89395446,,1.221342481325732,0.37296166142779846,0.20742454806000002,1.4330210737732394,-0.6853686828234493,-0.20874459489975405,-0.2701710853860979,,-1.3443578932792541,0.30988237931113266,0.18480299127000002,-1.278479585425145,-0.24676551857638546,0.06498059552127927,0.7941788495448657,,-0.03254166390343428,-0.08714647121364187,0.07824560327999999,-0.056258739952460286,,-5.7730824e-05,-3.5762787e-06,1.66893e-06,0.99999994,4.8965216e-05,4.095584e-05,-4.896149e-05,0.99999994,3.784895e-06,-4.0959567e-05,-3.784895e-06,1.0,605,1.835,0,0,0.0,False,-0.12046617428444595,0.9686939312539138
1.8551784199662507,10:07:50.783381,10:06:44.815626,0,,0.09788975,0.035676703,0.024216026,-0.584834,0.27666625,-0.7625122,-0.22451356,0.848099,0.47991827,0.7794632,0.4518667,-0.4338819,,0.06273169,0.0061893836,0.043316007,0.7949905,0.335097,0.5056677,0.021360487,-0.84852666,0.52872145,0.6062455,-0.40952712,-0.6817286,,0.077459194,1.3301736,0.4561982,0.99824977,0.036707237,-0.046367466,-0.0015926425,-0.7670776,-0.6415523,-0.05911706,0.6405033,-0.7656766,,-0.053381976,0.27161297,-0.06490066,0.52457386,-0.3465111,0.7776582,0.36115485,0.9177365,0.16530848,-0.7709666,0.19413853,0.60656476,,0.00036394078,0.45770326,-0.3179111,-0.8766033,-0.23608704,-0.41932032,0.32662177,-0.93182564,-0.15817447,-0.35339049,-0.2756154,0.89395267,,1.2207632763601652,0.37306205695516337,0.20755028819000002,1.4321823139993015,-0.6868716843208692,-0.20858082158092067,-0.27066111758450073,,-1.3443656160121285,0.30988237931113266,0.18479780611000002,-1.278479585425145,-0.24676551857638546,0.06498059552127927,0.7941788495448657,,-0.03254166390343428,-0.08714647121364187,0.07824560327999999,-0.056258739952460286,,-5.7730824e-05,-3.5762787e-06,1.66893e-06,0.99999994,4.8965216e-05,4.095584e-05,-4.896149e-05,0.99999994,3.784895e-06,-4.0959567e-05,-3.784895e-06,1.0,630,1.913,0,0,0.0,False,-0.12243223899564049,0.9685973708523548
1.8767095869407058,10:07:50.853254,10:06:44.815626,0,,0.0979826,0.035877764,0.024059474,-0.5839378,0.27918184,-0.762282,-0.22116464,0.848774,0.48027977,0.7810907,0.44904327,-0.43388626,,0.06272814,0.0061821416,0.04332614,0.7949905,0.335097,0.5056677,0.021360487,-0.84852666,0.52872145,0.6062455,-0.40952712,-0.6817286,,0.077459194,1.3301736,0.4561982,0.99824977,0.036707237,-0.046367466,-0.0015926425,-0.7670776,-0.6415523,-0.05911706,0.6405033,-0.7656766,,-0.053468823,0.2716636,-0.06464877,0.52341443,-0.3488013,0.7774156,0.36469722,0.91628784,0.16556731,-0.7700865,0.19686097,0.60680515,,0.00036623215,0.45770553,-0.31792367,-0.8766033,-0.23608704,-0.41932032,0.32662177,-0.93182564,-0.15817447,-0.35339049,-0.2756154,0.89395267,,1.2203230805863343,0.37349452999612,0.20777584265000001,1.4374245625864144,-0.6863251383218073,-0.21172189162034505,-0.27245790231197775,,-1.3443656160121285,0.30988237931113266,0.18478484321000002,-1.278479585425145,-0.24676551857638546,0.06498059552127927,0.7941788495448657,,-0.03254166390343428,-0.08714647121364187,0.07824560327999999,-0.056258739952460286,,-5.7730824e-05,-3.5762787e-06,1.66893e-06,0.99999994,4.8965216e-05,4.095584e-05,-4.896149e-05,0.99999994,3.784895e-06,-4.0959567e-05,-3.784895e-06,1.0,634,1.925,0,0,0.0,False,-0.12064490744000977,0.9679214480414422
1.946548426989466,10:07:50.881903,10:06:44.815626,0,,0.097975895,0.03600125,0.023988485,-0.5827653,0.27713805,-0.7639234,-0.22282603,0.8495259,0.47817782,0.78149414,0.44888735,-0.43332076,,0.06272325,0.0061813816,0.04332733,0.7952519,0.33593234,0.5047014,0.021676153,-0.8476795,0.5300659,0.60589135,-0.4105959,-0.68140054,,0.077459194,1.3301736,0.4561982,0.99824977,0.036707237,-0.046367466,-0.0015926425,-0.7670776,-0.6415523,-0.05911706,0.6405033,-0.7656766,,-0.05346085,0.27171573,-0.06451627,0.5222765,-0.34678212,0.7790824,0.36356118,0.91694474,0.16442493,-0.77139515,0.19736885,0.6049752,,0.00037091496,0.45770645,-0.31792542,-0.8768216,-0.23678727,-0.41846827,0.32656896,-0.9320662,-0.15686087,-0.35289747,-0.27419776,0.8945831,,1.2203230805863343,0.3737571029138436,0.20792102713000002,1.4370051826994454,-0.688374685818289,-0.2136444876310835,-0.27180452604744054,,-1.3443733387450028,0.3098901020440069,0.18478095434000003,-1.278479585425145,-0.24621897257732367,0.0633914215445257,0.7931987851480601,,-0.03254166390343428,-0.08714647121364187,0.07824560327999999,-0.056258739952460286,,-5.7730824e-05,-3.5762787e-06,1.66893e-06,0.99999994,4.8965216e-05,4.095584e-05,-4.896149e-05,0.99999994,3.784895e-06,-4.0959567e-05,-3.784895e-06,1.0,642,1.95,0,0,0.0,False,-0.12147899549930408,0.9682594094468986
1.975220410968177,10:07:50.902858,10:06:44.815626,0,,0.09799198,0.03614317,0.023926497,-0.58166224,0.2790723,-0.7640599,-0.22093469,0.8497938,0.4785793,0.7828517,0.44717872,-0.43263632,,0.062722266,0.0061830953,0.043332875,0.79523444,0.33660638,0.5042796,0.021912605,-0.84714353,0.5309122,0.6059057,-0.41114962,-0.6810538,,0.077459194,1.3301736,0.4561982,0.99824977,0.036707237,-0.046367466,-0.0015926425,-0.7670776,-0.6415523,-0.05911706,0.6405033,-0.7656766,,-0.05347705,0.27178589,-0.06437823,0.52099,-0.34857282,0.77914464,0.36578584,0.91592455,0.1651755,-0.7712134,0.19894528,0.60469055,,0.00037099913,0.45771158,-0.31792822,-0.876816,-0.23739229,-0.41813716,0.32675004,-0.9321535,-0.15596223,-0.3527438,-0.2733765,0.894895,,1.2203385260520827,0.3740428440301899,0.20805584129000002,1.4405699117386823,-0.688374685818289,-0.2155230986543164,-0.27131449384903783,,-1.3443965069436252,0.30990554750975535,0.18477706547000003,-1.2786892753686294,-0.24608233607755825,0.062463216239423636,0.7938521614125972,,-0.03254166390343428,-0.08714647121364187,0.07824560327999999,-0.056258739952460286,,-5.7730824e-05,-3.5762787e-06,1.66893e-06,0.99999994,4.8965216e-05,4.095584e-05,-4.896149e-05,0.99999994,3.784895e-06,-4.0959567e-05,-3.784895e-06,1.0,654,1.986,0,0,0.0,False,-0.12147899549930408,0.9676800470375448
1.9961896479362622,10:07:50.933327,10:06:44.972740,0,,0.09800714,0.036238894,0.023879766,-0.58198035,0.27912483,-0.7637985,-0.22043988,0.84992963,0.47856623,0.7827548,0.44688767,-0.43311226,,0.06272185,0.0061841533,0.043337226,0.795168,0.33659154,0.50439435,0.021830007,-0.84715056,0.5309045,0.60599595,-0.4111473,-0.6809749,,0.077459194,1.3301736,0.4561982,0.99824977,0.036707237,-0.046367466,-0.0015926425,-0.7670776,-0.6415523,-0.05911706,0.6405033,-0.7656766,,-0.053491846,0.27182978,-0.06428111,0.521296,-0.34860554,0.7789253,0.36613604,0.9158439,0.16484633,-0.77084035,0.1992589,0.60506284,,0.00037072314,0.4577154,-0.31793058,-0.87676036,-0.23737772,-0.41826195,0.3267619,-0.93215495,-0.15592876,-0.3528709,-0.2733842,0.89484257,,1.220346248784957,0.3742899714821651,0.20814658159000002,1.4409892916256513,-0.6878281398192272,-0.21613212774938317,-0.2716411819813065,,-1.3444042296764995,0.3099209929755038,0.18477447289,-1.2786892753686294,-0.24621897257732367,0.0624929554029795,0.7933621292141944,,-0.03254166390343428,-0.08714647121364187,0.07824560327999999,-0.056258739952460286,,-5.7730824e-05,-3.5762787e-06,1.66893e-06,0.99999994,4.8965216e-05,4.095584e-05,-4.896149e-05,0.99999994,3.784895e-06,-4.0959567e-05,-3.784895e-06,1.0,662,2.011,0,0,0.0,False,-0.11855968729177313,0.9671489648289711
2.0266142109176144,10:07:50.955207,10:06:44.972740,0,,0.09805358,0.0363926,0.02379097,-0.58227843,0.28033438,-0.763128,-0.21822664,0.8503259,0.47887665,0.7831532,0.44537428,-0.4339501,,0.06272132,0.0061838254,0.043338418,0.79509324,0.33673754,0.50441474,0.021995157,-0.8471623,0.53087884,0.60608804,-0.4110035,-0.6809798,,0.077459194,1.3301736,0.4561982,0.99824977,0.036707237,-0.046367466,-0.0015926425,-0.7670776,-0.6415523,-0.05911706,0.6405033,-0.7656766,,-0.053536434,0.27188984,-0.06411355,0.5214738,-0.34969625,0.77831715,0.36812848,0.9151057,0.16450834,-0.76977044,0.20073391,0.60593677,,0.00037107468,0.45771608,-0.31793174,-0.8767069,-0.23754288,-0.41828033,0.32695305,-0.93208385,-0.1559531,-0.3528268,-0.2734832,0.8948297,,1.2202381305247179,0.3746606626601279,0.20829565494000002,1.4435055709474658,-0.6864617748215728,-0.21789973670747192,-0.2709878057167693,,-1.3444042296764995,0.3099209929755038,0.1847731766,-1.278898965312114,-0.24621897257732367,0.06257463414312003,0.79319878514806,,-0.03254166390343428,-0.08714647121364187,0.07824560327999999,-0.056258739952460286,,-5.7730824e-05,-3.5762787e-06,1.66893e-06,0.99999994,4.8965216e-05,4.095584e-05,-4.896149e-05,0.99999994,3.784895e-06,-4.0959567e-05,-3.784895e-06,1.0,670,2.036,0,0,0.0,False,-0.11742771063987378,0.9677283272383244
2.0485261660069227,10:07:50.984789,10:06:44.972740,0,,0.09806456,0.036553532,0.023676127,-0.5833176,0.28150994,-0.7619007,-0.21412238,0.85154366,0.47856545,0.7835127,0.4422955,-0.43644282,,0.06269409,0.006141536,0.043321908,0.7951009,0.336696,0.5044304,0.021961734,-0.84717786,0.5308555,0.6060792,-0.41100544,-0.6809864,,0.077432744,1.330173,0.45619836,0.9982498,0.036730707,-0.04634784,-0.0015621029,-0.7670765,-0.64155376,-0.05911706,0.6405033,-0.7656766,,-0.05352248,0.2719415,-0.06392483,0.52232635,-0.35067686,0.77730364,0.37164047,0.91402215,0.16262476,-0.7675015,0.2039343,0.60774356,,0.00042404822,0.4576792,-0.31795242,-0.87671256,-0.23747374,-0.41830772,0.32690218,-0.9320959,-0.15598787,-0.35285988,-0.27350223,0.89481086,,1.2199832803398685,0.3749541265093484,0.20844861716000002,1.4472799899301871,-0.6834557718267331,-0.22157611169090163,-0.26935436505542654,,-1.3444042296764995,0.3099132702426296,0.18477188031000003,-1.278898965312114,-0.24621897257732367,0.06257463414312003,0.79319878514806,,-0.03254166390343428,-0.08714647121364187,0.07824560327999999,-0.056258739952460286,,-8.414313e-05,-4.053116e-06,3.2186508e-06,0.99999994,7.238984e-05,6.055087e-05,-7.238239e-05,0.99999994,5.6028366e-06,-6.0554594e-05,-5.5730343e-06,1.0,699,2.126,0,0,0.0,False,-0.11766602151395755,0.9679214480414422
2.0780555699020624,10:07:51.075369,10:06:45.099645,0,,0.09841079,0.036757797,0.02331096,-0.58665067,0.2864376,-0.75749224,-0.200071,0.85510457,0.47829658,0.7847372,0.43214506,-0.44433993,,0.06272391,0.0061580017,0.043346465,0.79497313,0.3367744,0.5045794,0.021876186,-0.84712845,0.5309377,0.6062499,-0.41104287,-0.6808119,,0.077432744,1.330173,0.45619836,0.9982498,0.036730707,-0.04634784,-0.0015621029,-0.7670765,-0.64155376,-0.05911706,0.6405033,-0.7656766,,-0.05384398,0.27184322,-0.06349828,0.52500015,-0.35485616,0.77359676,0.38359514,0.91003793,0.15711682,-0.75975627,0.21426159,0.6138912,,0.00039025454,0.45770392,-0.31795603,-0.87660825,-0.23754762,-0.4184843,0.3269754,-0.9320968,-0.15582891,-0.3530511,-0.27343497,0.89475596,,1.2182379427102936,0.3753479858859338,0.20873120838000003,1.4600710764827431,-0.6740278533429177,-0.2317143092501716,-0.2675575803279494,,-1.3446513571284748,0.3099209929755038,0.18477058402000002,-1.278898965312114,-0.24621897257732367,0.06257463414312003,0.79319878514806,,-0.03254166390343428,-0.08714647121364187,0.07824560327999999,-0.056258739952460286,,-8.414313e-05,-4.053116e-06,3.2186508e-06,0.99999994,7.238984e-05,6.055087e-05,-7.238239e-05,0.99999994,5.6028366e-06,-6.0554594e-05,-5.5730343e-06,1.0,707,2.15,0,0,0.0,False,-0.1169510888917058,0.9675352064352065
2.168654845911078,10:07:51.097688,10:06:45.099645,0,,0.09857321,0.036791682,0.023121387,-0.5878201,0.28687313,-0.75642,-0.19533324,0.85702163,0.47682148,0.7850557,0.42803907,-0.4477388,,0.062739424,0.0061661527,0.043358028,0.79490834,0.3368125,0.50465614,0.02183345,-0.84710574,0.5309758,0.60633636,-0.4110586,-0.68072534,,0.077432744,1.330173,0.45619836,0.9982498,0.036730707,-0.04634784,-0.0015621029,-0.7670765,-0.64155376,-0.05911706,0.6405033,-0.7656766,,-0.053990856,0.2717376,-0.06332297,0.52595514,-0.35501412,0.77287525,0.38757074,0.90892625,0.15375938,-0.7570734,0.2186733,0.61564755,,0.00037288404,0.4577156,-0.31795734,-0.8765554,-0.23758379,-0.41857448,0.32701296,-0.9320964,-0.15575238,-0.35314754,-0.27340484,0.8947271,,1.2172108192380218,0.37534026315305963,0.20884787448000003,1.4642648753524337,-0.6711584868478435,-0.23642276869187273,-0.26739423626181513,,-1.3447749208544624,0.3099209929755038,0.18477058402000002,-1.278898965312114,-0.24621897257732367,0.06257463414312003,0.79319878514806,,-0.03254166390343428,-0.08714647121364187,0.07824560327999999,-0.056258739952460286,,-8.414313e-05,-4.053116e-06,3.2186508e-06,0.99999994,7.238984e-05,6.055087e-05,-7.238239e-05,0.99999994,5.6028366e-06,-6.0554594e-05,-5.5730343e-06,1.0,715,2.175,0,0,0.0,False,-0.11480629102494833,0.9671006846281915
2.190985895926133,10:07:51.116553,10:06:45.099645,0,,0.09861666,0.03679636,0.023061961,-0.5876197,0.28668535,-0.7566469,-0.1956265,0.85704887,0.47665215,0.78513265,0.42811027,-0.44753563,,0.06274828,0.0061722025,0.043365717,0.79486954,0.33692098,0.5046447,0.021806613,-0.84700096,0.53114396,0.60638815,-0.41118556,-0.6806025,,0.077432744,1.330173,0.45619836,0.9982498,0.036730707,-0.04634784,-0.0015621029,-0.7670765,-0.64155376,-0.05911706,0.6405033,-0.7656766,,-0.05402924,0.2717005,-0.06327205,0.52576035,-0.35483426,0.77309036,0.38737437,0.90900755,0.15377368,-0.75730914,0.21862729,0.6153738,,0.00036274883,0.457724,-0.31795785,-0.87652373,-0.23767632,-0.41858825,0.3270345,-0.93212324,-0.15554634,-0.35320616,-0.27323285,0.8947565,,1.2168555735258075,0.37534026315305963,0.20889065205000001,1.4642648753524337,-0.6718416693466707,-0.23643743035437453,-0.2669042040634124,,-1.3448521481832045,0.30992871570837804,0.18477058402000002,-1.278898965312114,-0.24621897257732367,0.06241127666283894,0.79319878514806,,-0.03254166390343428,-0.08714647121364187,0.07824560327999999,-0.056258739952460286,,-8.414313e-05,-4.053116e-06,3.2186508e-06,0.99999994,7.238984e-05,6.055087e-05,-7.238239e-05,0.99999994,5.6028366e-06,-6.0554594e-05,-5.5730343e-06,1.0,723,2.199,0,0,0.0,False,-0.11331684806192222,0.9667627232227354
2.209883759962395,10:07:51.146618,10:06:45.099645,0,,0.098772354,0.036778465,0.022891134,-0.588077,0.2843574,-0.75716984,-0.19704258,0.8575826,0.4751064,0.7844358,0.4285938,-0.44829422,,0.06275437,0.0061782524,0.043372273,0.79484063,0.33698586,0.504647,0.021784887,-0.8469386,0.5312443,0.60642684,-0.41126084,-0.6805226,,0.077432744,1.330173,0.45619836,0.9982498,0.036730707,-0.04634784,-0.0015621029,-0.7670765,-0.64155376,-0.05911706,0.6405033,-0.7656766,,-0.054169033,0.27156696,-0.06314414,0.52632946,-0.35257816,0.77373505,0.3858776,0.90991807,0.15214317,-0.75767785,0.21848962,0.6149687,,0.00035550608,0.45773208,-0.31795785,-0.8765,-0.2377317,-0.4186064,0.32704943,-0.9321391,-0.1554201,-0.35325113,-0.2731307,0.89476997,,1.215666272663177,0.3753634313516823,0.20898528122,1.4625873558045575,-0.6733446708440904,-0.23684540821652517,-0.26478073120366663,,-1.3449139300461983,0.3099441611741265,0.18477058402000002,-1.278898965312114,-0.24621897257732367,0.062329597922698377,0.7923820648173887,,-0.03254166390343428,-0.08714647121364187,0.07824560327999999,-0.056258739952460286,,-8.414313e-05,-4.053116e-06,3.2186508e-06,0.99999994,7.238984e-05,6.055087e-05,-7.238239e-05,0.99999994,5.6028366e-06,-6.0554594e-05,-5.5730343e-06,1.0,731,2.224,0,0,0.0,False,-0.11248276000262836,0.9661833608133816
2.2399447999196127,10:07:51.177003,10:06:45.233527,0,,0.09893082,0.036770493,0.02276519,-0.5882939,0.2837218,-0.7572398,-0.19778389,0.85750157,0.47494465,0.7840866,0.4291768,-0.44834748,,0.06275937,0.0061818287,0.0433771,0.7947562,0.3370195,0.5047575,0.021691754,-0.8469003,0.5313091,0.6065409,-0.4113121,-0.68038994,,0.077432744,1.330173,0.45619836,0.9982498,0.036730707,-0.04634784,-0.0015621029,-0.7670765,-0.64155376,-0.05911706,0.6405033,-0.7656766,,-0.05431578,0.2714689,-0.0630447,0.52660364,-0.35199186,0.77381545,0.38510197,0.9102722,0.15199013,-0.757882,0.2179593,0.6149054,,0.00034970947,0.45773727,-0.31795835,-0.8764298,-0.23775885,-0.418738,0.32707253,-0.93215144,-0.15529723,-0.35340396,-0.27306482,0.89472973,,1.214600535526534,0.37550244054341836,0.20905139201000003,1.4619582859741038,-0.6745743993419795,-0.23641439826424132,-0.26331063460845805,,-1.3449525437105694,0.3099518839070007,0.18477058402000002,-1.278898965312114,-0.24635560907708912,0.06227765834611368,0.791402000420583,,-0.03254166390343428,-0.08714647121364187,0.07824560327999999,-0.056258739952460286,,-8.414313e-05,-4.053116e-06,3.2186508e-06,0.99999994,7.238984e-05,6.055087e-05,-7.238239e-05,0.99999994,5.6028366e-06,-6.0554594e-05,-5.5730343e-06,1.0,739,2.249,0,0,0.0,False,-0.1114103610692494,0.9666178826203968
2.2703275789972395,10:07:51.197745,10:06:45.233527,0,,0.09907911,0.036804512,0.022670597,-0.5874626,0.28556982,-0.75719047,-0.1953212,0.8579703,0.4751173,0.78532624,0.42700887,-0.44824773,,0.0627706,0.006182857,0.043384373,0.7940296,0.3364489,0.50627935,0.020815447,-0.8474229,0.5305103,0.60752237,-0.4107024,-0.67988235,,0.077432744,1.330173,0.45619836,0.9982498,0.036730707,-0.04634784,-0.0015621029,-0.7670765,-0.64155376,-0.05911706,0.6405033,-0.7656766,,-0.054456677,0.27142388,-0.06294364,0.5255757,-0.3536653,0.77375126,0.38771924,0.9091283,0.15218237,-0.7572608,0.2200149,0.6149386,,0.0003374967,0.4577415,-0.31796196,-0.8758229,-0.23726489,-0.42028514,0.3272179,-0.9320298,-0.15572047,-0.3547713,-0.27390838,0.8939304,,1.2137587576432436,0.375695508865274,0.20911750280000002,1.4659423949003099,-0.674711035841745,-0.2385899850844806,-0.26347397867459244,,-1.3449525437105694,0.3099518839070007,0.18477188031000003,-1.278898965312114,-0.24785861057450898,0.06325821906635262,0.7918920326189858,,-0.03254166390343428,-0.08714647121364187,0.07824560327999999,-0.056258739952460286,,-8.414313e-05,-4.053116e-06,3.2186508e-06,0.99999994,7.238984e-05,6.055087e-05,-7.238239e-05,0.99999994,5.6028366e-06,-6.0554594e-05,-5.5730343e-06,1.0,764,2.326,0,0,0.0,False,-0.11039753985439171,0.9669075638250737
2.2910779839148745,10:07:51.268400,10:06:45.233527,0,,0.0992201,0.03694272,0.022611082,-0.5865958,0.28303063,-0.75881416,-0.19549337,0.8597566,0.47180593,0.78593117,0.4251024,-0.448999,,0.062764265,0.0061910525,0.0433895,0.79349184,0.33790684,0.5061516,0.021163672,-0.84651005,0.531952,0.60821265,-0.41138756,-0.67885023,,0.077432744,1.330173,0.45619836,0.9982498,0.036730707,-0.04634784,-0.0015621029,-0.7670765,-0.64155376,-0.05911706,0.6405033,-0.7656766,,-0.0545973,0.2714823,-0.06280458,0.5246678,-0.3510437,0.7755592,0.38789102,0.90953666,0.14927706,-0.7578023,0.22251157,0.61337125,,0.00034266006,0.4577517,-0.31796035,-0.8754083,-0.23864003,-0.42037043,0.32801238,-0.9320423,-0.15396456,-0.3550609,-0.27266854,0.8941944,,1.2131795526776767,0.37639055482395417,0.20923546519000003,1.4674102245047016,-0.6762140373391649,-0.2434902936543622,-0.25677687196308707,,-1.344929375511947,0.3100136657699945,0.18477188031000003,-1.2797377250860522,-0.24840515657357073,0.061825279657905435,0.7930354410819257,,-0.03254166390343428,-0.08714647121364187,0.07824560327999999,-0.056258739952460286,,-8.414313e-05,-4.053116e-06,3.2186508e-06,0.99999994,7.238984e-05,6.055087e-05,-7.238239e-05,0.99999994,5.6028366e-06,-6.0554594e-05,-5.5730343e-06,1.0,772,2.351,0,0,0.0,False,-0.09699255318715894,0.9680180084430012
2.3617009819718078,10:07:51.297300,10:06:45.233527,0,,0.09921616,0.036987215,0.022618592,-0.5860438,0.28298607,-0.75925714,-0.19613877,0.8596207,0.47178558,0.78618205,0.42540663,-0.448271,,0.06276636,0.006193064,0.043392062,0.7934192,0.3378508,0.5063028,0.021078423,-0.8465628,0.5318713,0.6083103,-0.41132483,-0.67880076,,0.077432744,1.330173,0.45619836,0.9982498,0.036730707,-0.04634784,-0.0015621029,-0.7670765,-0.64155376,-0.05911706,0.6405033,-0.7656766,,-0.05459574,0.27152187,-0.06278259,0.52412176,-0.35101998,0.775939,0.3875005,0.9096249,0.14975284,-0.7583797,0.22218804,0.6127746,,0.00034012165,0.45775467,-0.31796062,-0.8753477,-0.23859185,-0.42052388,0.32802823,-0.9320295,-0.15400818,-0.35519558,-0.27275443,0.89411473,,1.2132645027392932,0.37654500948143865,0.20926268728000003,1.4674102245047016,-0.6770338563377574,-0.24347521615330808,-0.2535099906404015,,-1.3449448209776953,0.3100213885028687,0.18477188031000003,-1.2797377250860522,-0.24854179307333618,0.06193669756160183,0.7930354410819257,,-0.03254166390343428,-0.08714647121364187,0.07824560327999999,-0.056258739952460286,,-8.414313e-05,-4.053116e-06,3.2186508e-06,0.99999994,7.238984e-05,6.055087e-05,-7.238239e-05,0.99999994,5.6028366e-06,-6.0554594e-05,-5.5730343e-06,1.0,780,2.376,0,0,0.0,False,-0.0869239187571047,0.9683076896476779
2.390569650917314,10:07:51.317607,10:06:45.365121,0,,0.09920569,0.037036598,0.022624403,-0.5858154,0.28231856,-0.7596818,-0.19644207,0.8599477,0.47106302,0.7862765,0.42518932,-0.44831145,,0.062767826,0.006193839,0.043393552,0.7935004,0.33741817,0.50646394,0.020665765,-0.8466804,0.5317004,0.6082185,-0.411438,-0.6788144,,0.077432744,1.330173,0.45619836,0.9982498,0.036730707,-0.04634784,-0.0015621029,-0.7670765,-0.64155376,-0.05911706,0.6405033,-0.7656766,,-0.054587703,0.27156472,-0.0627565,0.52389795,-0.3503495,0.77639306,0.3873049,0.90979874,0.14920183,-0.7586342,0.22253428,0.6123338,,0.00033842082,0.45775604,-0.317961,-0.8753977,-0.23814285,-0.42067426,0.32765973,-0.9321338,-0.15416105,-0.35541236,-0.27279025,0.89401764,,1.2134035119310291,0.37669946413892313,0.20929379824000002,1.4674102245047016,-0.6773071293372883,-0.2443958827078832,-0.24436272293688188,,-1.3449525437105694,0.31002911123574295,0.18477188031000003,-1.279318345199083,-0.2486784295731016,0.06204811546529823,0.7933621292141944,,-0.03254166390343428,-0.08714647121364187,0.07824560327999999,-0.056258739952460286,,-8.414313e-05,-4.053116e-06,3.2186508e-06,0.99999994,7.238984e-05,6.055087e-05,-7.238239e-05,0.99999994,5.6028366e-06,-6.0554594e-05,-5.5730343e-06,1.0,788,2.4,0,0,0.0,False,-0.07268484403057807,0.9695146946671644
2.4109383849427104,10:07:51.348515,10:06:45.365121,0,,0.09918892,0.03708878,0.022622079,-0.5849554,0.28172398,-0.76056474,-0.19736224,0.86010635,0.47038826,0.78668624,0.42526287,-0.44752225,,0.06276796,0.006195344,0.043394685,0.79349816,0.3375469,0.50638175,0.020662934,-0.84654486,0.5319162,0.6082216,-0.4116112,-0.6787066,,0.077432744,1.330173,0.45619836,0.9982498,0.036730707,-0.04634784,-0.0015621029,-0.7670765,-0.64155376,-0.05911706,0.6405033,-0.7656766,,-0.05457281,0.2716052,-0.06272258,0.52304226,-0.34976986,0.7772309,0.38677445,0.91001743,0.1492443,-0.7594948,0.22255197,0.6112596,,0.00033805633,0.4577579,-0.31796077,-0.8753958,-0.23824972,-0.4206178,0.32766014,-0.9321732,-0.15392193,-0.35541674,-0.2725623,0.8940854,,1.2135193529241426,0.3768307505977849,0.20933916839000002,1.4674102245047016,-0.6785368578351773,-0.24502669637742663,-0.23423539083655642,,-1.3449602664434437,0.31003683396861714,0.18477188031000003,-1.279318345199083,-0.2486784295731016,0.06180307924487652,0.7941788495448657,,-0.03254166390343428,-0.08714647121364187,0.07824560327999999,-0.056258739952460286,,-8.414313e-05,-4.053116e-06,3.2186508e-06,0.99999994,7.238984e-05,6.055087e-05,-7.238239e-05,0.99999994,5.6028366e-06,-6.0554594e-05,-5.5730343e-06,1.0,796,2.425,0,0,0.0,False,-0.06434396343763282,0.9703354580804153
2.4418475079583004,10:07:51.376624,10:06:45.365121,0,,0.09919231,0.037133783,0.022603214,-0.58365923,0.28288776,-0.7611283,-0.19579345,0.8606642,0.47002333,0.7880398,0.4233573,-0.44694716,,0.06276616,0.0061958507,0.043394387,0.793504,0.33754686,0.5063727,0.020665407,-0.84654254,0.53191984,0.6082139,-0.41161603,-0.6787105,,0.077432744,1.330173,0.45619836,0.9982498,0.036730707,-0.04634784,-0.0015621029,-0.7670765,-0.64155376,-0.05911706,0.6405033,-0.7656766,,-0.05457631,0.27162808,-0.062679484,0.5215762,-0.35078785,0.7777571,0.38872993,0.90916365,0.14936702,-0.7595046,0.22443119,0.6105599,,0.00033986272,0.45775828,-0.31796035,-0.8754005,-0.238249,-0.4206084,0.32765588,-0.93217486,-0.1539208,-0.35540912,-0.27255717,0.89409,,1.2135193529241426,0.37686164152928187,0.20938324225000002,1.4705555736569693,-0.6788101308347082,-0.24725422277425063,-0.222801306207157,,-1.3449525437105694,0.3100445567014914,0.18477188031000003,-1.279318345199083,-0.2486784295731016,0.06180307924487649,0.7951589139416714,,-0.03254166390343428,-0.08714647121364187,0.07824560327999999,-0.056258739952460286,,-8.414313e-05,-4.053116e-06,3.2186508e-06,0.99999994,7.238984e-05,6.055087e-05,-7.238239e-05,0.99999994,5.6028366e-06,-6.0554594e-05,-5.5730343e-06,1.0,804,2.449,0,0,0.0,False,-0.048913334340685566,0.9724597869147114
2.469947241945192,10:07:51.398541,10:06:45.365121,0,,0.099191725,0.037153035,0.022577152,-0.58353627,0.28208524,-0.76152045,-0.19533378,0.8614463,0.4687801,0.78824496,0.42230067,-0.44758448,,0.06276714,0.0061958954,0.04339516,0.7934377,0.3376492,0.5064082,0.020585746,-0.84642816,0.5321049,0.60830307,-0.4117673,-0.6785389,,0.077432744,1.330173,0.45619836,0.9982498,0.036730707,-0.04634784,-0.0015621029,-0.7670765,-0.64155376,-0.05911706,0.6405033,-0.7656766,,-0.05457426,0.2716268,-0.062647186,0.52141863,-0.34992898,0.77824956,0.3892048,0.90917814,0.14803626,-0.7593697,0.22570959,0.61025643,,0.0003387743,0.4577587,-0.3179608,-0.8753451,-0.2383322,-0.42067647,0.32766902,-0.93221074,-0.15367542,-0.35553333,-0.27236167,0.8941002,,1.21349618472552,0.3768461960635334,0.20941435321000001,1.471184643487423,-0.6786734943349427,-0.2490808942208988,-0.21643088762792007,,-1.3449525437105694,0.3100445567014914,0.18477188031000003,-1.279318345199083,-0.24881506607286705,0.0615877821880107,0.7971190427352828,,-0.03254166390343428,-0.08714647121364187,0.07824560327999999,-0.056258739952460286,,-8.414313e-05,-4.053116e-06,3.2186508e-06,0.99999994,7.238984e-05,6.055087e-05,-7.238239e-05,0.99999994,5.6028366e-06,-6.0554594e-05,-5.5730343e-06,1.0,829,2.527,0,0,0.0,False,-0.03854681131802584,0.973377110729521
2.4918710709316656,10:07:51.470853,10:06:45.492075,0,,0.09920675,0.03727925,0.022445738,-0.58023584,0.28774908,-0.761923,-0.18951693,0.86212605,0.46991685,0.79209197,0.4170598,-0.4457032,,0.06276977,0.006196238,0.043397903,0.79302704,0.33805817,0.5067785,0.020599678,-0.8462998,0.5323085,0.60883784,-0.4116956,-0.6781027,,0.077432744,1.330173,0.45619836,0.9982498,0.036730707,-0.04634784,-0.0015621029,-0.7670765,-0.64155376,-0.05911706,0.6405033,-0.7656766,,-0.05458289,0.2716415,-0.06246513,0.51758146,-0.35514823,0.7784466,0.3958492,0.9059609,0.15012741,-0.7585597,0.23044431,0.60949373,,0.00033575526,0.45776048,-0.31796226,-0.87501955,-0.23875213,-0.42111543,0.32810107,-0.932124,-0.15327924,-0.35593605,-0.27229077,0.89396155,,1.2133185618694127,0.37673035507042,0.20958935236,1.4810400708311955,-0.6784002213354118,-0.2534693457754604,-0.18065853714451285,,-1.3449448209776953,0.3100445567014914,0.18477188031000003,-1.2797377250860522,-0.24936161207192883,0.06146170262181244,0.7998958918595656,,-0.03254166390343428,-0.08714647121364187,0.07824560327999999,-0.056258739952460286,,-8.414313e-05,-4.053116e-06,3.2186508e-06,0.99999994,7.238984e-05,6.055087e-05,-7.238239e-05,0.99999994,5.6028366e-06,-6.0554594e-05,-5.5730343e-06,1.0,837,2.552,0,0,0.0,False,-0.00768555312413044,0.9740530335404334
2.5641270919004455,10:07:51.498445,10:06:45.492075,0,,0.099212736,0.03730692,0.022395313,-0.58031046,0.28812155,-0.76172537,-0.18725726,0.86305857,0.46911016,0.7925745,0.41486797,-0.44688922,,0.06277074,0.0061967447,0.04339862,0.793023,0.33810195,0.50675565,0.020596996,-0.8462549,0.53238004,0.6088432,-0.41175187,-0.67806363,,0.077432744,1.330173,0.45619836,0.9982498,0.036730707,-0.04634784,-0.0015621029,-0.7670765,-0.64155376,-0.05911706,0.6405033,-0.7656766,,-0.054585624,0.271631,-0.062408347,0.51752776,-0.3553684,0.7783818,0.3979116,0.90528536,0.14874384,-0.75751656,0.23274812,0.60991555,,0.00033466986,0.4577612,-0.31796235,-0.8750162,-0.2387888,-0.42110154,0.3281034,-0.9321365,-0.15319832,-0.35594207,-0.27221587,0.893982,,1.2132645027392932,0.3766531277416778,0.20963601880000002,1.4833466602095253,-0.6770338563377574,-0.2559720633948141,-0.17624824735888733,,-1.3449525437105694,0.3100445567014914,0.18477188031000003,-1.2797377250860522,-0.24936161207192883,0.061380023881671936,0.7994058596611626,,-0.03254166390343428,-0.08714647121364187,0.07824560327999999,-0.056258739952460286,,-8.414313e-05,-4.053116e-06,3.2186508e-06,0.99999994,7.238984e-05,6.055087e-05,-7.238239e-05,0.99999994,5.6028366e-06,-6.0554594e-05,-5.5730343e-06,1.0,845,2.576,0,0,0.0,False,-0.002919335642447507,0.973908192938095
