AlexandreBanks6/ExpertPlaybackApp/resources/Motions/P_10/PC1/Data_PC1_2.csv
Task Time,PC1 Time,PC2 Time,Gaze Calib,s_T_psm1,Tx,Ty,Tz,R00,R01,R02,R10,R11,R12,R20,R21,R22,s_T_psm3,Tx,Ty,Tz,R00,R01,R02,R10,R11,R12,R20,R21,R22,cart_T_ecm,Tx,Ty,Tz,R00,R01,R02,R10,R11,R12,R20,R21,R22,ecm_T_psm1,Tx,Ty,Tz,R00,R01,R02,R10,R11,R12,R20,R21,R22,ecm_T_psm3,Tx,Ty,Tz,R00,R01,R02,R10,R11,R12,R20,R21,R22,psm1_joints,q1,q2,q3,q4,q5,q6,jaw,psm3_joints,q1,q2,q3,q4,q5,q6,jaw,ecm_joints,q1,q2,q3,q4,ecmi_T_ecm,Tx,Ty,Tz,R00,R01,R02,R10,R11,R12,R20,R21,R22,Sample #,Task Duration (s),Collisions (binary),Collisions (increments),Cumulative Collision Time (s),Clutch Press,MTMR Angle,MTML Angle
""
lci_T_si,,,,,-0.061405014,0.027400337,0.2485284,0.99760735,0.0015516733,0.06911746,0.046116903,-0.7597547,-0.64857227,0.051505942,0.65020794,-0.7580084
rci_T_si,,,,,-0.072011076,0.03243643,0.2623404,0.9976547,-0.011777193,0.067427725,0.035187066,-0.75671625,-0.6527958,0.058711756,0.65363735,-0.7545271
ecm_T_lc,,,,,-4.4061628e-05,-0.00034663224,-0.01840835,-0.99912,0.030754527,0.028518902,-0.031987965,-0.99852574,-0.043852776,0.027128186,-0.04472645,0.9986309
ecm_T_rc,,,,,-0.0043358393,0.01870579,-0.007592615,-0.99555075,-0.052743673,-0.078081585,0.04863213,-0.9973746,0.053654674,-0.08070653,0.04961868,0.9955021
cart_T_ecmi,,,,,0.07748984,1.3318874,0.4582016,0.9984689,0.027356012,-0.04807836,-0.00985114,-0.76732504,-0.64118266,-0.05443193,0.64067453,-0.7658807
ecmac_T_ecmrep_psm1,,,,,0.0028397094,-0.24236576,-0.3123762,0.99938005,0.032352094,0.013886033,-0.031258944,0.9968569,-0.072795466,-0.016197473,0.07231628,0.9972502
ecmac_T_ecmrep_psm3,,,,,-0.018767226,-0.44603547,-0.53896165,0.9994355,-0.013331066,-0.030837692,0.013906483,0.9997318,0.01852092,0.030582517,-0.018939309,0.9993528
""
0,09:25:24.705038,09:24:18.666017,0,,0.13747092,0.009797901,0.035637543,0.30504376,0.7340883,-0.6066814,0.57797956,0.36360055,0.7305711,0.7568934,-0.57350576,-0.31337407,,0.08655218,-0.022859,0.015525103,0.4083622,0.5386685,0.7369371,0.72478545,-0.68211657,0.09696856,0.5549108,0.49452317,-0.66896987,,0.077504866,1.3318862,0.4581972,0.99846894,0.027360873,-0.048074298,-0.0098448135,-0.76732486,-0.64118296,-0.05443193,0.64067453,-0.7658807,,-0.09457144,0.25878513,-0.08353516,-0.36011133,-0.68441534,0.63395226,0.9103699,-0.10933532,0.39908955,-0.20382965,0.7208477,0.662444,,-0.021065645,0.41558537,-0.3126671,-0.4801639,-0.6065973,-0.63362634,0.86356384,-0.20012048,-0.46282744,0.15394828,-0.76940984,0.61992615,,1.0110292969619759,0.4301021619641856,0.17907727834,2.9411111473139386,-0.2326919591005451,-0.8233984027085284,-0.4140772076503979,,-1.3392454441165176,0.06789054469730767,0.20470104277,-2.0820114488578425,-0.037165127936199804,0.4422932350744226,0.8523293370886692,,-0.034191000046568915,-0.08751299035656068,0.07561312771999999,-0.04775451182011164,,1.5243888e-05,-1.4305115e-06,3.33786e-06,0.99999994,4.8540533e-06,4.056841e-06,-4.850328e-06,0.9999999,3.874302e-07,-4.056841e-06,-3.2782555e-07,1.0,33,0.1,0,0,0.0,False,-0.260652545964438,1.0262922107838077
0.1279979709070176,09:25:24.732668,09:24:18.666017,0,,0.13735947,0.009758025,0.03584011,0.300229,0.74279606,-0.5984282,0.570737,0.36278713,0.73664427,0.7642784,-0.56270707,-0.31502205,,0.08654892,-0.022861741,0.0155315995,0.4083622,0.53872865,0.7368932,0.72478545,-0.6821087,0.09702423,0.5549108,0.49446854,-0.6690102,,0.077504866,1.3318862,0.4581972,0.99846894,0.027360873,-0.048074298,-0.0098448135,-0.76732486,-0.64118296,-0.05443193,0.64067453,-0.7658807,,-0.09447653,0.25888604,-0.083724536,-0.35593748,-0.69395095,0.62589186,0.90957856,-0.10358976,0.4024128,-0.21441875,0.71253157,0.66807437,,-0.021063352,0.4155882,-0.31267396,-0.4801639,-0.60664904,-0.6335768,0.86356384,-0.20015828,-0.4628111,0.15394828,-0.76935923,0.619989,,1.011685729256285,0.4297237480533486,0.17891394580000003,2.937127038387733,-0.24334960608224945,-0.8129925526772556,-0.4140772076503979,,-1.3392454441165176,0.06789054469730767,0.20469326503000002,-2.0820114488578425,-0.037165127936199804,0.442211556334282,0.8521659930225349,,-0.034191000046568915,-0.08751299035656068,0.07561312771999999,-0.04775451182011164,,1.5243888e-05,-1.4305115e-06,3.33786e-06,0.99999994,4.8540533e-06,4.056841e-06,-4.850328e-06,0.9999999,3.874302e-07,-4.056841e-06,-3.2782555e-07,1.0,44,0.133,0,0,0.0,False,-0.261427056305211,1.0262439305830282
0.15558388095814735,09:25:24.759070,09:24:18.666017,0,,0.1372095,0.009665817,0.03606467,0.2926307,0.7520615,-0.59056795,0.56577903,0.36171958,0.74098104,0.7708833,-0.55096483,-0.31965044,,0.08653951,-0.02286876,0.015544057,0.40836918,0.53897685,0.73670787,0.7247898,-0.68207294,0.09724301,0.55490005,0.49424747,-0.66918254,,0.077504866,1.3318862,0.4581972,0.99846894,0.027360873,-0.048074298,-0.0098448135,-0.76732486,-0.64118296,-0.05443193,0.64067453,-0.7658807,,-0.09434527,0.25896174,-0.08396631,-0.3489133,-0.7041183,0.6184472,0.91020006,-0.09747549,0.402535,-0.22314881,0.7033605,0.674899,,-0.02105585,0.41559267,-0.3126887,-0.4801692,-0.60686296,-0.6333679,0.8635589,-0.20030902,-0.46275517,0.15395966,-0.7691513,0.62024415,,1.012442557077959,0.4291908794850271,0.17869228021000003,2.9295782004222897,-0.2526408880662994,-0.8004337320773246,-0.41424055171653207,,-1.3392299986507692,0.06789054469730767,0.20467641326000002,-2.0820114488578425,-0.037165127936199804,0.4418848413737197,0.8518393048902663,,-0.034191000046568915,-0.08751299035656068,0.07561312771999999,-0.04775451182011164,,1.5243888e-05,-1.4305115e-06,3.33786e-06,0.99999994,4.8540533e-06,4.056841e-06,-4.850328e-06,0.9999999,3.874302e-07,-4.056841e-06,-3.2782555e-07,1.0,52,0.157,0,0,0.0,False,-0.2607717014014801,1.0247955245596445
0.18202608393039554,09:25:24.792099,09:24:18.763053,0,,0.1370305,0.009604484,0.036290675,0.28222868,0.76441133,-0.579674,0.55890465,0.36009172,0.7469667,0.7797257,-0.534798,-0.325605,,0.08653311,-0.02287466,0.015560091,0.4085338,0.53889006,0.73668003,0.72466713,-0.68221295,0.09717482,0.5549391,0.4941488,-0.669223,,0.077504866,1.3318862,0.4581972,0.99846894,0.027360873,-0.048074298,-0.0098448135,-0.76732486,-0.64118296,-0.05443193,0.64067453,-0.7658807,,-0.094184995,0.25906366,-0.08419172,-0.33928213,-0.7177122,0.6080928,0.91085815,-0.08916207,0.40297335,-0.2350001,0.6906079,0.6839851,,-0.02105182,0.4156001,-0.31270483,-0.48033825,-0.6067636,-0.63333493,0.86348194,-0.20046921,-0.46282935,0.15386385,-0.7691879,0.62022245,,1.0133615622899916,0.4285421699235923,0.17849524413,2.919303393191548,-0.2652114460447199,-0.7833222707654466,-0.4148939279810694,,-1.3392377213836433,0.06789054469730767,0.20465826520000002,-2.0818017589143576,-0.037165127936199804,0.4418848413737197,0.8508592404934606,,-0.034191000046568915,-0.08751299035656068,0.07561312771999999,-0.04775451182011164,,1.5243888e-05,-1.4305115e-06,3.33786e-06,0.99999994,4.8540533e-06,4.056841e-06,-4.850328e-06,0.9999999,3.874302e-07,-4.056841e-06,-3.2782555e-07,1.0,67,0.202,0,0,0.0,False,-0.2602950796533112,1.0243127225518498
0.21505687292665243,09:25:24.833361,09:24:18.763053,0,,0.136689,0.00951831,0.036604956,0.26518786,0.7802708,-0.56643844,0.54835796,0.36116558,0.7542299,0.79308164,-0.5106238,-0.33209112,,0.08651921,-0.022883944,0.015583277,0.4085358,0.5388979,0.7366732,0.7246677,-0.68221164,0.09717974,0.55493677,0.49414203,-0.66922987,,0.077504866,1.3318862,0.4581972,0.99846894,0.027360873,-0.048074298,-0.0098448135,-0.76732486,-0.64118296,-0.05443193,0.64067453,-0.7658807,,-0.09386983,0.25920883,-0.08451172,-0.32341072,-0.7354184,0.59545386,0.91178447,-0.0738854,0.40396783,-0.25309,0.67357314,0.6944384,,-0.021041417,0.4156108,-0.31272924,-0.4803399,-0.6067704,-0.6333271,0.8634806,-0.20047368,-0.4628299,0.15386607,-0.7691814,0.62023,,1.015060563522321,0.4272833644650937,0.17822302323000003,2.902108817825817,-0.28461382901141247,-0.7608849504891693,-0.41505727204720355,,-1.3392299986507692,0.06789826743018189,0.20462974682,-2.0818017589143576,-0.037165127936199804,0.4418848413737197,0.8505325523611921,,-0.034191000046568915,-0.08751299035656068,0.07561312771999999,-0.04775451182011164,,1.5243888e-05,-1.4305115e-06,3.33786e-06,0.99999994,4.8540533e-06,4.056841e-06,-4.850328e-06,0.9999999,3.874302e-07,-4.056841e-06,-3.2782555e-07,1.0,79,0.239,0,0,0.0,False,-0.26053339052739544,1.0239264809456141
0.2562760158907622,09:25:24.864820,09:24:18.763053,0,,0.13635865,0.009415567,0.036859185,0.2518253,0.79325354,-0.5543758,0.54172397,0.35913977,0.7599695,0.8019468,-0.49169835,-0.33928412,,0.08651602,-0.022887044,0.015592754,0.40853238,0.53889424,0.73667777,0.7246656,-0.68221366,0.09718177,0.5549422,0.49414328,-0.6692245,,0.077504866,1.3318862,0.4581972,0.99846894,0.027360873,-0.048074298,-0.0098448135,-0.76732486,-0.64118296,-0.05443193,0.64067453,-0.7658807,,-0.09356115,0.25930297,-0.08479489,-0.31082854,-0.74986273,0.58403045,0.9127761,-0.06418102,0.40338635,-0.2650007,0.658473,0.7044061,,-0.021039624,0.4156154,-0.31273848,-0.4803373,-0.60676694,-0.63333243,0.86348313,-0.20047392,-0.46282515,0.15386038,-0.76918405,0.6202281,,1.0166591692272855,0.4261172318010858,0.17797543184000003,2.888059591612354,-0.29759429648912933,-0.7402537646007201,-0.41326048731972653,,-1.3392377213836433,0.06789826743018189,0.20461937650000003,-2.0818017589143576,-0.037165127936199804,0.4418848413737197,0.8502058642289236,,-0.034191000046568915,-0.08751299035656068,0.07561312771999999,-0.04775451182011164,,1.5243888e-05,-1.4305115e-06,3.33786e-06,0.99999994,4.8540533e-06,4.056841e-06,-4.850328e-06,0.9999999,3.874302e-07,-4.056841e-06,-3.2782555e-07,1.0,87,0.264,0,0,0.0,False,-0.2608312791200009,1.0232988383354813
0.2877788939513266,09:25:24.893063,09:24:18.763053,0,,0.13595314,0.009261146,0.037163705,0.23607062,0.80521727,-0.5439628,0.5369721,0.35845792,0.7636548,0.8098959,-0.47236934,-0.3477579,,0.08650778,-0.02289354,0.015606046,0.4085358,0.5388979,0.7366732,0.7246677,-0.68221164,0.09717974,0.55493677,0.49414203,-0.66922987,,0.077504866,1.3318862,0.4581972,0.99846894,0.027360873,-0.048074298,-0.0098448135,-0.76732486,-0.64118296,-0.05443193,0.64067453,-0.7658807,,-0.09318183,0.25939178,-0.08515441,-0.29577798,-0.7633148,0.57433957,0.9147647,-0.053132694,0.40047783,-0.27517444,0.64383805,0.7139689,,-0.021033388,0.4156207,-0.3127533,-0.4803399,-0.6067704,-0.6333271,0.8634806,-0.20047368,-0.4628299,0.15386607,-0.7691814,0.62023,,1.0185821297129676,0.4247889217467192,0.17765006305000003,2.870865016246623,-0.3087984894698954,-0.7196824728779349,-0.4129337991874581,,-1.3392299986507692,0.06789826743018189,0.20460252473,-2.0818017589143576,-0.037165127936199804,0.44188484137371975,0.8492257998321178,,-0.034191000046568915,-0.08751299035656068,0.07561312771999999,-0.04775451182011164,,1.5243888e-05,-1.4305115e-06,3.33786e-06,0.99999994,4.8540533e-06,4.056841e-06,-4.850328e-06,0.9999999,3.874302e-07,-4.056841e-06,-3.2782555e-07,1.0,98,0.296,0,0,0.0,False,-0.26106958999408425,1.0238782007448346
0.3160201619612053,09:25:24.916513,09:24:18.914580,0,,0.1355278,0.009156033,0.03753835,0.21969514,0.81976503,-0.52888477,0.5234294,0.35844097,0.7730081,0.82325894,-0.4466601,-0.3503415,,0.08650194,-0.022899263,0.015623987,0.40852892,0.53889054,0.7366824,0.72466344,-0.68221563,0.09718382,0.5549476,0.49414447,-0.6692191,,0.077504866,1.3318862,0.4581972,0.99846894,0.027360873,-0.048074298,-0.0098448135,-0.76732486,-0.64118296,-0.05443193,0.64067453,-0.7658807,,-0.092787966,0.2595638,-0.08553856,-0.28058887,-0.7798409,0.5595696,0.9133349,-0.037684053,0.40546173,-0.29510877,0.6248425,0.72282964,,-0.021030184,0.4156295,-0.3127706,-0.48033464,-0.6067635,-0.63333774,0.8634856,-0.20047414,-0.4628204,0.15385468,-0.7691867,0.6202262,,1.0207136039862534,0.4233216025006165,0.17732987942000003,2.8540898207678613,-0.3302504199330696,-0.6957372415264922,-0.414730583914935,,-1.3392454441165176,0.06789826743018189,0.20458308038000003,-2.0818017589143576,-0.037165127936199804,0.4418848413737197,0.8488991116998491,,-0.034191000046568915,-0.08751299035656068,0.07561312771999999,-0.04775451182011164,,1.5243888e-05,-1.4305115e-06,3.33786e-06,0.99999994,4.8540533e-06,4.056841e-06,-4.850328e-06,0.9999999,3.874302e-07,-4.056841e-06,-3.2782555e-07,1.0,110,0.333,0,0,0.0,False,-0.2607717014014801,1.022960876930025
0.33946300100069493,09:25:24.957375,09:24:18.914580,0,,0.13506772,0.00903599,0.037859425,0.20417702,0.82957566,-0.5197266,0.511149,0.36244476,0.77933323,0.83488804,-0.42477974,-0.350034,,0.08649203,-0.02290789,0.015647948,0.41366976,0.53619665,0.7357787,0.7208584,-0.68653643,0.09503022,0.5560937,0.49108136,-0.67052126,,0.077504866,1.3318862,0.4581972,0.99846894,0.027360873,-0.048074298,-0.0098448135,-0.76732486,-0.64118296,-0.05443193,0.64067453,-0.7658807,,-0.09235532,0.2596922,-0.08589286,-0.26611015,-0.79131854,0.5504547,0.9117622,-0.021295242,0.4101661,-0.31285,0.61103314,0.72716117,,-0.021023829,0.4156408,-0.3127947,-0.4856027,-0.6036791,-0.632267,0.8610514,-0.20542833,-0.46517703,0.15093209,-0.77030563,0.6195553,,1.0229145828554074,0.42163032400116135,0.17703951046000002,2.837734005176068,-0.3496528028997621,-0.6786090393593515,-0.4150572720472038,,-1.3392454441165176,0.06790599016305611,0.20455585829000003,-2.0753013706663372,-0.037301764435965244,0.44199625927741615,0.8488991116998491,,-0.034191000046568915,-0.08751299035656068,0.07561312771999999,-0.04775451182011164,,1.5243888e-05,-1.4305115e-06,3.33786e-06,0.99999994,4.8540533e-06,4.056841e-06,-4.850328e-06,0.9999999,3.874302e-07,-4.056841e-06,-3.2782555e-07,1.0,118,0.358,0,0,0.0,False,-0.26095043455704303,1.022864316528466
0.3803311169613153,09:25:24.985871,09:24:18.914580,0,,0.13458376,0.00889191,0.038212016,0.19073875,0.8407105,-0.50677836,0.49738187,0.36231148,0.7882521,0.84630346,-0.4024127,-0.34904748,,0.08648624,-0.022910245,0.015670836,0.41252795,0.5356828,0.73679346,0.72093266,-0.6864069,0.09540191,0.5568451,0.49182263,-0.6693533,,0.077504866,1.3318862,0.4581972,0.99846894,0.027360873,-0.048074298,-0.0098448135,-0.76732486,-0.64118296,-0.05443193,0.64067453,-0.7658807,,-0.09190152,0.2598227,-0.08628824,-0.25369716,-0.8041801,0.5375241,0.90880597,-0.007879121,0.41714457,-0.33122414,0.5943335,0.73284256,,-0.02102138,0.4156555,-0.31281316,-0.48457938,-0.6032756,-0.6334362,0.86173296,-0.20477459,-0.46420226,0.15033025,-0.77079564,0.619092,,1.0252468481834232,0.41983092724146703,0.17671543796000003,2.8234750890191207,-0.36987500486504726,-0.6578718951249718,-0.4134238313858607,,-1.3392377213836433,0.06789826743018189,0.20453382136,-2.0761401304402756,-0.03839485643408877,0.44288760250698755,0.8492257998321178,,-0.034191000046568915,-0.08751299035656068,0.07561312771999999,-0.04775451182011164,,1.5243888e-05,-1.4305115e-06,3.33786e-06,0.99999994,4.8540533e-06,4.056841e-06,-4.850328e-06,0.9999999,3.874302e-07,-4.056841e-06,-3.2782555e-07,1.0,126,0.382,0,0,0.0,False,-0.26148663402373185,1.0225263551230097
0.40882951591629535,09:25:25.014292,09:24:18.914580,0,,0.13403872,0.008701354,0.038506985,0.17123926,0.8494218,-0.4991587,0.49045944,0.36590838,0.7909238,0.8544743,-0.3802544,-0.35394922,,0.0864678,-0.022926114,0.015710711,0.4125245,0.53585964,0.7366668,0.72093046,-0.6863855,0.0955722,0.55685055,0.49165982,-0.6694684,,0.077504866,1.3318862,0.4581972,0.99846894,0.027360873,-0.048074298,-0.0098448135,-0.76732486,-0.64118296,-0.05443193,0.64067453,-0.7658807,,-0.09138256,0.25988364,-0.08667212,-0.2349443,-0.8145862,0.53033054,0.9094122,0.008416454,0.41581073,-0.3431772,0.57998145,0.7388173,,-0.021008879,0.41567338,-0.31285447,-0.48457673,-0.60342735,-0.6332937,0.8617354,-0.20488858,-0.4641473,0.15032452,-0.7706466,0.61927897,,1.0276254499086843,0.4178616303585398,0.17638747659,2.8014576449532456,-0.38326538184206044,-0.6382949941078229,-0.41309714325359226,,-1.3392454441165176,0.06789826743018189,0.20448715492000002,-2.0761401304402756,-0.03839485643408877,0.44264256628656584,0.8487357676337149,,-0.034191000046568915,-0.08751299035656068,0.07561312771999999,-0.04775451182011164,,1.5243888e-05,-1.4305115e-06,3.33786e-06,0.99999994,4.8540533e-06,4.056841e-06,-4.850328e-06,0.9999999,3.874302e-07,-4.056841e-06,-3.2782555e-07,1.0,141,0.427,0,0,0.0,False,-0.2613079008681689,1.0210296688988465
0.4372500029858202,09:25:25.055976,09:24:18.914580,0,,0.13332585,0.008483678,0.03891529,0.14440994,0.86463404,-0.48119998,0.4731586,0.36676118,0.8010038,0.86906064,-0.34335688,-0.35614514,,0.086447716,-0.022945024,0.015776932,0.41611072,0.53351456,0.73635167,0.7173666,-0.6902278,0.09471387,0.55878156,0.4888228,-0.6699368,,0.077504866,1.3318862,0.4581972,0.99846894,0.027360873,-0.048074298,-0.0098448135,-0.76732486,-0.64118296,-0.05443193,0.64067453,-0.7658807,,-0.090705395,0.26000202,-0.08717184,-0.20945339,-0.83265007,0.5126628,0.9062923,0.03152367,0.42147425,-0.36710155,0.55290157,0.7480216,,-0.020998515,0.41570744,-0.31291676,-0.48841694,-0.60071844,-0.6329188,0.86016524,-0.20937698,-0.46505597,0.14684907,-0.77155596,0.6189804,,1.030645038462506,0.41508916925669315,0.17599599701000002,2.7718913629219277,-0.4097728627965559,-0.6041830735492111,-0.4142405517165322,,-1.3392531668493919,0.06788282196443345,0.20441715526,-2.0708978818531625,-0.03976122143174317,0.4426132429615621,0.8462856066417007,,-0.034191000046568915,-0.08751299035656068,0.07561312771999999,-0.04775451182011164,,1.5243888e-05,-1.4305115e-06,3.33786e-06,0.99999994,4.8540533e-06,4.056841e-06,-4.850328e-06,0.9999999,3.874302e-07,-4.056841e-06,-3.2782555e-07,1.0,149,0.452,0,0,0.0,False,-0.2608312791200009,1.0189053400645502
0.4789311309577897,09:25:25.084069,09:24:19.047737,0,,0.13279171,0.008314878,0.039210007,0.1302962,0.87476957,-0.46669134,0.45692807,0.36475813,0.8112756,0.8799087,-0.3189506,-0.35218027,,0.086418614,-0.02297116,0.015841424,0.41604525,0.53348047,0.7364135,0.71704125,-0.6905092,0.09512535,0.5592476,0.48846248,-0.66981065,,0.077504866,1.3318862,0.4581972,0.99846894,0.027360873,-0.048074298,-0.0098448135,-0.76732486,-0.64118296,-0.05443193,0.64067453,-0.7658807,,-0.09019717,0.26007926,-0.08754115,-0.19633752,-0.8446874,0.4979506,0.9010942,0.04480775,0.4313021,-0.3866275,0.5333812,0.75234544,,-0.020979015,0.41573596,-0.3129838,-0.48841998,-0.6006345,-0.63299614,0.86025965,-0.20982414,-0.46467963,0.14628476,-0.7714998,0.61918396,,1.0329386901261508,0.4128264085245454,0.17572118353000002,2.7561646171605885,-0.4317713392587918,-0.580527279244248,-0.4158739923778749,,-1.3392454441165176,0.06786737649868499,0.20434197044000002,-2.070688191909678,-0.04030776743080493,0.44240548465522334,0.8453055422448952,,-0.034191000046568915,-0.08751299035656068,0.07561312771999999,-0.04775451182011164,,1.5243888e-05,-1.4305115e-06,3.33786e-06,0.99999994,4.8540533e-06,4.056841e-06,-4.850328e-06,0.9999999,3.874302e-07,-4.056841e-06,-3.2782555e-07,1.0,161,0.489,0,0,0.0,False,-0.26101001227556386,1.015815407214665
0.5069811949506402,09:25:25.115826,09:24:19.047737,0,,0.13223773,0.008123666,0.039423957,0.109383486,0.8853068,-0.45195898,0.44697636,0.36231482,0.8178874,0.88783276,-0.29147846,-0.35608006,,0.08638942,-0.02299691,0.015908897,0.4160348,0.5335898,0.7363401,0.7170347,-0.6904996,0.09524432,0.5592639,0.48835662,-0.6698743,,0.077504866,1.3318862,0.4581972,0.99846894,0.027360873,-0.048074298,-0.0098448135,-0.76732486,-0.64118296,-0.05443193,0.64067453,-0.7658807,,-0.08966293,0.26008934,-0.08786321,-0.1761751,-0.8573691,0.4836119,0.8992523,0.05965269,0.43334383,-0.4003844,0.5112335,0.76048183,,-0.020959862,0.41576687,-0.31305274,-0.48841196,-0.6007276,-0.63291395,0.86026716,-0.20990084,-0.46463114,0.14626758,-0.7714065,0.6193043,,1.03503927346794,0.41054047959377493,0.17547618472,2.7320502736598677,-0.447347900232052,-0.5516532476750247,-0.4152206161133377,,-1.3392686123151403,0.06786737649868499,0.20426419304,-2.070688191909678,-0.04030776743080493,0.44224212717494227,0.8438354456496866,,-0.034191000046568915,-0.08751299035656068,0.07561312771999999,-0.04775451182011164,,1.5243888e-05,-1.4305115e-06,3.33786e-06,0.99999994,4.8540533e-06,4.056841e-06,-4.850328e-06,0.9999999,3.874302e-07,-4.056841e-06,-3.2782555e-07,1.0,169,0.513,0,0,0.0,False,-0.2613079008681689,1.0145118417936196
0.5387788439402357,09:25:25.140334,09:24:19.047737,0,,0.13188748,0.007986203,0.039507672,0.09965235,0.89223045,-0.4404475,0.4425899,0.35670382,0.822725,0.89116955,-0.27692416,-0.35934597,,0.08635904,-0.023028217,0.015987456,0.41568592,0.5337932,0.73638976,0.71727127,-0.69022727,0.09543729,0.5592199,0.48851943,-0.6697923,,0.077504866,1.3318862,0.4581972,0.99846894,0.027360873,-0.048074298,-0.0098448135,-0.76732486,-0.64118296,-0.05443193,0.64067453,-0.7658807,,-0.08932122,0.2600505,-0.08803727,-0.16676399,-0.8654514,0.4724232,0.8983656,0.064099155,0.4345463,-0.40636063,0.49687544,0.7668024,,-0.020941112,0.41580147,-0.31313345,-0.4880594,-0.60095096,-0.6329739,0.86044014,-0.20961265,-0.46444088,0.14642684,-0.7713109,0.6193857,,1.0363521380565581,0.4089650420874331,0.17534266685000002,2.7203076368247343,-0.4544529982198549,-0.5323008458194773,-0.4142405517165322,,-1.3393072259795114,0.06785193103293655,0.20417474903000002,-2.0711075717966474,-0.04030776743080493,0.4421604484348016,0.8420386609222095,,-0.034191000046568915,-0.08751299035656068,0.07561312771999999,-0.04775451182011164,,1.5243888e-05,-1.4305115e-06,3.33786e-06,0.99999994,4.8540533e-06,4.056841e-06,-4.850328e-06,0.9999999,3.874302e-07,-4.056841e-06,-3.2782555e-07,1.0,184,0.559,0,0,0.0,False,-0.26148663402373185,1.012097831754647
0.5632595958886668,09:25:25.179422,09:24:19.047737,0,,0.13118026,0.007738903,0.039633706,0.07405443,0.9055724,-0.4176771,0.43022522,0.34883672,0.83259773,0.8996787,-0.24135287,-0.3637674,,0.0863135,-0.023079298,0.016119778,0.41982326,0.5317273,0.7355368,0.714188,-0.6936402,0.093801856,0.5600748,0.48593152,-0.67095953,,0.077504866,1.3318862,0.4581972,0.99846894,0.027360873,-0.048074298,-0.0098448135,-0.76732486,-0.64118296,-0.05443193,0.64067453,-0.7658807,,-0.08862763,0.2599687,-0.088336386,-0.14199188,-0.88160014,0.45013273,0.8952224,0.07967487,0.43843892,-0.42239207,0.4652237,0.77791506,,-0.020915123,0.4158605,-0.31326777,-0.49228957,-0.598552,-0.63197035,0.8584194,-0.21364805,-0.46633747,0.14410798,-0.7720687,0.61898535,,1.0387307397818193,0.40566743515013926,0.17514563077,2.690112284962963,-0.47303556218795484,-0.4910924928119247,-0.41505727204720355,,-1.3393921760411278,0.06782876283431387,0.20402697197000003,-2.065865323209534,-0.04030776743080493,0.4419970909545205,0.8390984677317924,,-0.034191000046568915,-0.08751299035656068,0.07561312771999999,-0.04775451182011164,,1.5243888e-05,-1.4305115e-06,3.33786e-06,0.99999994,4.8540533e-06,4.056841e-06,-4.850328e-06,0.9999999,3.874302e-07,-4.056841e-06,-3.2782555e-07,1.0,192,0.583,0,0,0.0,False,-0.26095043455704303,1.0111322277390575
0.6023396789096296,09:25:25.218441,09:24:19.047737,0,,0.13046627,0.0074612796,0.039696068,0.04395505,0.9182192,-0.39362568,0.4206667,0.3403632,0.8409472,0.9061496,-0.20254917,-0.37130374,,0.08627442,-0.023129024,0.016257226,0.4242143,0.5306261,0.7338106,0.71132356,-0.69673765,0.09260371,0.56041133,0.48269314,-0.673013,,0.077504866,1.3318862,0.4581972,0.99846894,0.027360873,-0.048074298,-0.0098448135,-0.76732486,-0.64118296,-0.05443193,0.64067453,-0.7658807,,-0.087922506,0.2598237,-0.08860563,-0.11255467,-0.89731395,0.426801,0.89318615,0.096835546,0.4391371,-0.43537337,0.43063965,0.7905691,,-0.020896254,0.41592342,-0.31340405,-0.49669605,-0.5970138,-0.6299743,0.85617375,-0.21799856,-0.46844763,0.14233619,-0.7720435,0.61942655,,1.0408467685893568,0.40228487815122893,0.17497063162,2.6542553046271093,-0.48806557716215326,-0.445511597427969,-0.4140772076503979,,-1.3395466306986124,0.06781331736856543,0.20387789862000003,-2.060623074622421,-0.03962458493197773,0.4406232140346328,0.8381184033349868,,-0.034191000046568915,-0.08751299035656068,0.07561312771999999,-0.04775451182011164,,1.5243888e-05,-1.4305115e-06,3.33786e-06,0.99999994,4.8540533e-06,4.056841e-06,-4.850328e-06,0.9999999,3.874302e-07,-4.056841e-06,-3.2782555e-07,1.0,204,0.62,0,0,0.0,False,-0.26160578946077395,1.0112287881406166
0.641377254971303,09:25:25.247337,09:24:19.047737,0,,0.12994136,0.0072437376,0.039645597,0.020505745,0.92692333,-0.37468976,0.41878477,0.3323434,0.8450841,0.9078538,-0.17424351,-0.3813665,,0.08622855,-0.02318243,0.016429722,0.4249193,0.53309435,0.7316105,0.7116961,-0.69618016,0.09392473,0.5594033,0.48077402,-0.6752215,,0.077504866,1.3318862,0.4581972,0.99846894,0.027360873,-0.048074298,-0.0098448135,-0.76732486,-0.64118296,-0.05443193,0.64067453,-0.7658807,,-0.0873966,0.25964627,-0.08873734,-0.08932429,-0.90826833,0.40874174,0.8938377,0.107946366,0.4352031,-0.43940338,0.404223,0.8022022,,-0.020875663,0.4160085,-0.3135685,-0.49724856,-0.5991808,-0.6274761,0.85567784,-0.21915999,-0.46881163,0.14338528,-0.7700333,0.6216827,,1.0422677514382142,0.39975954450135753,0.17488637277000002,2.6259471622566988,-0.4928478546539437,-0.4095939046634938,-0.41375051951812936,,-1.3398014808834617,0.06782876283431387,0.20369512173,-2.0604133846789363,-0.03812158343455788,0.4373556485904581,0.837628371136584,,-0.034191000046568915,-0.08751299035656068,0.07561312771999999,-0.04775451182011164,,1.5243888e-05,-1.4305115e-06,3.33786e-06,0.99999994,4.8540533e-06,4.056841e-06,-4.850328e-06,0.9999999,3.874302e-07,-4.056841e-06,-3.2782555e-07,1.0,212,0.645,0,0,0.0,False,-0.26273776611267374,1.0149463636006348
0.6702926789876074,09:25:25.275831,09:24:19.256800,0,,0.12942173,0.0070342124,0.039595976,-0.0047528576,0.9344133,-0.35615844,0.4154149,0.32582098,0.8492768,0.90961945,-0.14391708,-0.38971788,,0.08620089,-0.023225762,0.01664877,0.42932364,0.53530455,0.72741324,0.7083221,-0.6992581,0.096529245,0.56032205,0.47380072,-0.6793761,,0.077504866,1.3318862,0.4581972,0.99846894,0.027360873,-0.048074298,-0.0098448135,-0.76732486,-0.64118296,-0.05443193,0.64067453,-0.7658807,,-0.08687596,0.25947538,-0.08886434,-0.06430427,-0.9181623,0.39095142,0.89345104,0.12154274,0.43240327,-0.44453365,0.37710133,0.81251734,,-0.020879708,0.41613117,-0.3137571,-0.5017534,-0.60038775,-0.6227183,0.85346687,-0.22639169,-0.46940503,0.14084679,-0.766995,0.62600386,,1.0436037842254549,0.3972959927144799,0.17481248424,2.5955421204514426,-0.4985865876440922,-0.3733863590139871,-0.414730583914935,,-1.34021850845867,0.06785193103293655,0.20348512275000002,-2.0547517562048543,-0.037848310435027004,0.4309252285323826,0.8392618117979268,,-0.034191000046568915,-0.08751299035656068,0.07561312771999999,-0.04775451182011164,,1.5243888e-05,-1.4305115e-06,3.33786e-06,0.99999994,4.8540533e-06,4.056841e-06,-4.850328e-06,0.9999999,3.874302e-07,-4.056841e-06,-3.2782555e-07,1.0,220,0.668,0,0,0.0,False,-0.26297607698675796,1.019388142072345
0.698787793982774,09:25:25.298527,09:24:19.256800,0,,0.12909713,0.0069131255,0.03958215,-0.016775325,0.9395393,-0.34202948,0.4100515,0.31845194,0.85466135,0.91190785,-0.12591255,-0.39060175,,0.086193025,-0.023234986,0.016931474,0.4301826,0.5416155,0.72221565,0.70428866,-0.7018306,0.106823534,0.5647302,0.46269476,-0.683369,,0.077504866,1.3318862,0.4581972,0.99846894,0.027360873,-0.048074298,-0.0098448135,-0.76732486,-0.64118296,-0.05443193,0.64067453,-0.7658807,,-0.08655205,0.25938702,-0.08895082,-0.05253248,-0.92473483,0.3769693,0.8912497,0.12686403,0.4354072,-0.45046002,0.3588468,0.8175052,,-0.020912265,0.41632035,-0.31396502,-0.50324935,-0.60506207,-0.6169603,0.8535311,-0.23650631,-0.46427298,0.13499898,-0.76023984,0.635461,,1.0445073439717392,0.39567421881089276,0.17477359554000002,2.5806541344640412,-0.5054184126323642,-0.34992781973838283,-0.4148939279810693,,-1.3407668224927398,0.06791371289593034,0.20324401281,-2.0509773372221325,-0.04208404192775565,0.4186968654399837,0.8415486287238068,,-0.034191000046568915,-0.08751299035656068,0.07561312771999999,-0.04775451182011164,,1.5243888e-05,-1.4305115e-06,3.33786e-06,0.99999994,4.8540533e-06,4.056841e-06,-4.850328e-06,0.9999999,3.874302e-07,-4.056841e-06,-3.2782555e-07,1.0,231,0.702,0,0,0.0,False,-0.26190367805337944,1.0205468668910522
0.7214773449813947,09:25:25.329965,09:24:19.256800,0,,0.12865496,0.0067194253,0.0395744,-0.04292043,0.94316673,-0.32953617,0.4006628,0.31840384,0.8591206,0.91521955,-0.09515911,-0.39155802,,0.08629143,-0.023148306,0.017242044,0.4265704,0.5473116,0.72006077,0.69967204,-0.70418584,0.12075335,0.57314616,0.4522967,-0.6833235,,0.07744695,1.3318888,0.4581912,0.9984695,0.027402256,-0.048039716,-0.009790965,-0.76732343,-0.6411855,-0.05443193,0.64067453,-0.7658807,,-0.08606195,0.25925544,-0.08910336,-0.026808187,-0.93078953,0.36457124,0.88718927,0.14589809,0.43773162,-0.46062624,0.33517846,0.8218752,,-0.021002382,0.41659486,-0.31412005,-0.50093335,-0.6091917,-0.6147774,0.8563509,-0.24594045,-0.45406651,0.12541495,-0.7539222,0.64488167,,1.0458665449576028,0.3932956170856316,0.17473341055000002,2.5487812630543933,-0.516485969113365,-0.3191764246615832,-0.41326048731972653,,-1.3414078093213004,0.06808361301916328,0.20300419916,-2.0497191975612257,-0.05164859691133649,0.4076283297262633,0.8439987897158209,,-0.034191000046568915,-0.08751299035656068,0.07561312771999999,-0.04775451182011164,,-4.2274594e-05,-8.940697e-06,9.179115e-06,0.99999994,4.6160072e-05,3.8612634e-05,-4.615262e-05,0.99999994,3.3080578e-06,-3.8612634e-05,-3.2186508e-06,1.0,243,0.739,0,0,0.0,False,-0.262797343831195,1.0199675044816985
0.7528980429051444,09:25:25.366934,09:24:19.256800,0,,0.1279559,0.006507829,0.03950225,-0.06583649,0.94890016,-0.30863202,0.39135623,0.30907616,0.86678267,0.917881,-0.06371918,-0.39170656,,0.08626795,-0.02308508,0.017624527,0.42260098,0.55185616,0.7189318,0.6940557,-0.70717794,0.13485551,0.58283347,0.4419888,-0.6818731,,0.07744695,1.3318888,0.4581912,0.9984695,0.027402256,-0.048039716,-0.009790965,-0.76732343,-0.6411855,-0.05443193,0.64067453,-0.7658807,,-0.08536068,0.25907686,-0.089225836,-0.00422994,-0.9390367,0.3437908,0.8826416,0.15808807,0.44266462,-0.47002757,0.3053165,0.82816416,,-0.02103338,0.41690633,-0.31434992,-0.4984094,-0.61223316,-0.61380666,0.85938597,-0.2556358,-0.44283867,0.11420955,-0.7482118,0.65355587,,1.048013464696637,0.39006751474420576,0.17470229959000003,2.5192149810230755,-0.5270069795953038,-0.27964100356368565,-0.41375051951812936,,-1.3420256279512384,0.06841569053275492,0.20270345988000002,-2.0480416780133495,-0.06271615339233716,0.3976220334729224,0.8448155100464922,,-0.034191000046568915,-0.08751299035656068,0.07561312771999999,-0.04775451182011164,,-4.2274594e-05,-8.940697e-06,9.179115e-06,0.99999994,4.6160072e-05,3.8612634e-05,-4.615262e-05,0.99999994,3.3080578e-06,-3.8612634e-05,-3.2186508e-06,1.0,251,0.763,0,0,0.0,False,-0.2629164992682367,1.0190984608676685
0.7898614589357749,09:25:25.390622,09:24:19.256800,0,,0.12759449,0.0064038783,0.03945671,-0.07372927,0.953431,-0.29246047,0.3881921,0.2975672,0.87221587,0.9186243,-0.04922305,-0.3920539,,0.08621791,-0.022988431,0.017980307,0.4177,0.5562624,0.7184001,0.6899928,-0.7086258,0.14751098,0.59113157,0.43407565,-0.67981005,,0.07744695,1.3318888,0.4581912,0.9984695,0.027402256,-0.048039716,-0.009790965,-0.76732343,-0.6411855,-0.05443193,0.64067453,-0.7658807,,-0.08499745,0.2589836,-0.08927935,0.0035603868,-0.9447647,0.32773018,0.88099873,0.15801631,0.44595075,-0.47310522,0.28714213,0.83289903,,-0.021034162,0.41722596,-0.31454042,-0.4947587,-0.61547244,-0.61352056,0.86266696,-0.26255772,-0.4322837,0.10497414,-0.74314004,0.66085047,,1.0492799928880099,0.3884071271762475,0.17468933669000003,2.5083111039618804,-0.5305595285892053,-0.2556710231113136,-0.41603733644400925,,-1.3425893874510568,0.0689717272996991,0.20242605382,-2.048251367956834,-0.07241734487568344,0.38952367156781814,0.844162133781955,,-0.034191000046568915,-0.08751299035656068,0.07561312771999999,-0.04775451182011164,,-4.2274594e-05,-8.940697e-06,9.179115e-06,0.99999994,4.6160072e-05,3.8612634e-05,-4.615262e-05,0.99999994,3.3080578e-06,-3.8612634e-05,-3.2186508e-06,1.0,259,0.788,0,0,0.0,False,-0.26178452261633733,1.0172638132380487
0.813575969892554,09:25:25.422813,09:24:19.256800,0,,0.12699856,0.0062527955,0.039370254,-0.09184115,0.9566714,-0.27630547,0.3865776,0.2899692,0.8754859,0.9176724,-0.026407912,-0.39645898,,0.08611831,-0.022878982,0.018312126,0.41183648,0.5601264,0.71878296,0.68744093,-0.7087491,0.1584287,0.59817684,0.4288743,-0.6769426,,0.07744695,1.3318888,0.4581912,0.9984695,0.027402256,-0.048039716,-0.009790965,-0.76732343,-0.6411855,-0.05443193,0.64067453,-0.7658807,,-0.08439749,0.25883853,-0.08934604,0.021680802,-0.9498372,0.31199232,0.8799561,0.16625835,0.44501165,-0.47455996,0.26489133,0.8394197,,-0.020982422,0.41754296,-0.31471017,-0.4899703,-0.618556,-0.6142618,0.8662606,-0.26660636,-0.42250875,0.09757922,-0.7391275,0.6664599,,1.051411467161296,0.3860053572523637,0.17466989234000002,2.484616140348129,-0.5315159840875633,-0.22491500015385243,-0.4155473042456064,,-1.3429678013618938,0.06971310965562465,0.20215253663000002,-2.050348267391679,-0.08102544436090618,0.3838827947789055,0.8439987897158209,,-0.034191000046568915,-0.08751299035656068,0.07561312771999999,-0.04775451182011164,,-4.2274594e-05,-8.940697e-06,9.179115e-06,0.99999994,4.6160072e-05,3.8612634e-05,-4.615262e-05,0.99999994,3.3080578e-06,-3.8612634e-05,-3.2186508e-06,1.0,274,0.833,0,0,0.0,False,-0.26255903295711036,1.0159119676162243
0.8457592979539186,09:25:25.461985,09:24:19.421702,0,,0.12598804,0.006069958,0.039335653,-0.11874068,0.96072143,-0.25082818,0.3788295,0.2773404,0.8829328,0.91781723,0.009818882,-0.39688134,,0.08593847,-0.02273538,0.01866135,0.40707722,0.5637769,0.71864,0.687452,-0.7071542,0.16535565,0.60141295,0.42671824,-0.6754361,,0.07744695,1.3318888,0.4581912,0.9984695,0.027402256,-0.048039716,-0.009790965,-0.76732343,-0.6411855,-0.05443193,0.64067453,-0.7658807,,-0.083388515,0.2587198,-0.089499824,0.04843769,-0.95680314,0.28667322,0.875222,0.17895532,0.44940117,-0.48129013,0.22913475,0.84608334,,-0.02085358,0.41790423,-0.31487694,-0.48572093,-0.62185514,-0.61430556,0.86895925,-0.26730078,-0.41648543,0.09478926,-0.7361022,0.67020035,,1.0554118427901442,0.38237567280147816,0.17461804074,2.448130090181822,-0.5373913535774772,-0.17609918935914318,-0.41571064831174065,,-1.3433462152727307,0.07091785598400367,0.20184013074,-2.0537033064874315,-0.08485126635433853,0.380713233091582,0.8418753168560752,,-0.034191000046568915,-0.08751299035656068,0.07561312771999999,-0.04775451182011164,,-4.2274594e-05,-8.940697e-06,9.179115e-06,0.99999994,4.6160072e-05,3.8612634e-05,-4.615262e-05,0.99999994,3.3080578e-06,-3.8612634e-05,-3.2186508e-06,1.0,286,0.87,0,0,0.0,False,-0.2622611443645053,1.0146566823959582
0.8848621709039435,09:25:25.496672,09:24:19.421702,0,,0.1254009,0.0059921294,0.039347336,-0.1358356,0.9629685,-0.23289484,0.37424278,0.26753032,0.8879019,0.917328,0.03344941,-0.39672434,,0.085812174,-0.022634141,0.018834263,0.40597248,0.5651718,0.7181692,0.68775874,-0.70643294,0.16715395,0.601809,0.42606738,-0.6754942,,0.07744695,1.3318888,0.4581912,0.9984695,0.027402256,-0.048039716,-0.009790965,-0.76732343,-0.6411855,-0.05443193,0.64067453,-0.7658807,,-0.08280461,0.25869283,-0.08959596,0.06548978,-0.9609632,0.26881385,0.8721115,0.1860318,0.45256346,-0.48490474,0.20479737,0.85025024,,-0.020752804,0.41810834,-0.31494248,-0.48468265,-0.62313986,-0.61382365,0.8695588,-0.26736647,-0.4151899,0.094605505,-0.7349911,0.67144465,,1.0579371764400156,0.3805067714459158,0.17457785575,2.4244351265680706,-0.5398508105732552,-0.1426473521384911,-0.41456723984880073,,-1.3435161153959638,0.07178280206591682,0.20167939078000002,-2.0547517562048543,-0.08498790285410396,0.3799261848537323,0.8404052202608667,,-0.034191000046568915,-0.08751299035656068,0.07561312771999999,-0.04775451182011164,,-4.2274594e-05,-8.940697e-06,9.179115e-06,0.99999994,4.6160072e-05,3.8612634e-05,-4.615262e-05,0.99999994,3.3080578e-06,-3.8612634e-05,-3.2186508e-06,1.0,294,0.894,0,0,0.0,False,-0.2617249448978165,1.0134979575772511
0.9196238849544898,09:25:25.522525,09:24:19.421702,0,,0.12502652,0.0059484392,0.03936276,-0.14700913,0.96509343,-0.21675503,0.37118185,0.25694716,0.89230156,0.91684896,0.050720915,-0.3959988,,0.08574415,-0.022553168,0.018916458,0.40520117,0.56546986,0.71837,0.6875609,-0.70637584,0.16820556,0.6025543,0.42576623,-0.6750194,,0.07744695,1.3318888,0.4581912,0.9984695,0.027402256,-0.048039716,-0.009790965,-0.76732343,-0.6411855,-0.05443193,0.64067453,-0.7658807,,-0.08243287,0.25868526,-0.08965972,0.07664746,-0.9645055,0.25269416,0.8699296,0.18852717,0.4557192,-0.4871834,0.18489641,0.853502,,-0.020696845,0.41822967,-0.31495157,-0.4840263,-0.6233918,-0.6140856,0.8700053,-0.267562,-0.41412714,0.093857504,-0.7347062,0.67186123,,1.059466277549112,0.3794719252407697,0.17455192995000002,2.409966520467638,-0.5412171755709096,-0.11784633846076387,-0.41554730424560643,,-1.3436010654575803,0.07234656156573521,0.20161198370000002,-2.0551711360918232,-0.08567108535293116,0.37999320193137104,0.8394251558640611,,-0.034191000046568915,-0.08751299035656068,0.07561312771999999,-0.04775451182011164,,-4.2274594e-05,-8.940697e-06,9.179115e-06,0.99999994,4.6160072e-05,3.8612634e-05,-4.615262e-05,0.99999994,3.3080578e-06,-3.8612634e-05,-3.2186508e-06,1.0,302,0.919,0,0,0.0,False,-0.2621419889274632,1.013063435770236
0.9454778789076954,09:25:25.549399,09:24:19.421702,0,,0.12450872,0.0058843344,0.039388373,-0.17156461,0.9644472,-0.20101504,0.36600953,0.25183478,0.89588845,0.9146596,0.0801293,-0.39620292,,0.08572373,-0.022536658,0.018939763,0.4051723,0.56559646,0.71828675,0.68752295,-0.7063682,0.16839266,0.6026171,0.4256107,-0.67506146,,0.07744695,1.3318888,0.4581912,0.9984695,0.027402256,-0.048039716,-0.009790965,-0.76732343,-0.6411855,-0.05443193,0.64067453,-0.7658807,,-0.081919104,0.2586746,-0.089753546,0.101267055,-0.96620727,0.23704122,0.86563176,0.20300874,0.45767793,-0.49033317,0.15884271,0.85693777,,-0.02067988,0.41825956,-0.31495875,-0.48400685,-0.62349486,-0.6139963,0.87002414,-0.26767603,-0.4140139,0.093783446,-0.7345772,0.6720126,,1.0614819108292846,0.3782131197822711,0.17450526351,2.3785130289449596,-0.5420369945695022,-0.08401626254151712,-0.41652736864241213,,-1.3436165109233287,0.07248557075747125,0.20158994677000003,-2.0551711360918232,-0.08567108535293116,0.37991152319123045,0.8386084355333896,,-0.034191000046568915,-0.08751299035656068,0.07561312771999999,-0.04775451182011164,,-4.2274594e-05,-8.940697e-06,9.179115e-06,0.99999994,4.6160072e-05,3.8612634e-05,-4.615262e-05,0.99999994,3.3080578e-06,-3.8612634e-05,-3.2186508e-06,1.0,325,0.989,0,0,0.0,False,-0.2621419889274632,1.0133048367741333
0.9723323459038511,09:25:25.611203,09:24:19.421702,0,,0.123631045,0.0057433397,0.039483532,-0.22998463,0.9584695,-0.16865046,0.34684628,0.24264243,0.9059924,0.9092878,0.14986849,-0.3882458,,0.085746154,-0.022599079,0.018960029,0.40481725,0.5660237,0.7181504,0.6877845,-0.7060244,0.16876623,0.60255724,0.42561334,-0.67511326,,0.07744695,1.3318888,0.4581912,0.9984695,0.027402256,-0.048039716,-0.009790965,-0.76732343,-0.6411855,-0.05443193,0.64067453,-0.7658807,,-0.08105252,0.25866377,-0.089973,0.15981062,-0.9657938,0.20421302,0.8499692,0.2398296,0.4690779,-0.50200886,0.09861116,0.8592223,,-0.020705244,0.41822663,-0.31501427,-0.4836458,-0.6239167,-0.6138524,0.8702047,-0.2674686,-0.41376844,0.093970805,-0.7342946,0.6722953,,1.0643238765269993,0.37642916848832525,0.17439248628,2.303863409064469,-0.5485955465582434,-0.008587844123486454,-0.4148939279810693,,-1.3436396791219514,0.07216121597675382,0.2015601321,-2.055590515978792,-0.0858077218526966,0.37928783243366176,0.838281747401121,,-0.034191000046568915,-0.08751299035656068,0.07561312771999999,-0.04775451182011164,,-4.2274594e-05,-8.940697e-06,9.179115e-06,0.99999994,4.6160072e-05,3.8612634e-05,-4.615262e-05,0.99999994,3.3080578e-06,-3.8612634e-05,-3.2186508e-06,1.0,338,1.029,1,1,0.028,False,-0.26154621174225356,1.0112770683413959
1.0341122238896787,09:25:25.652943,09:24:19.421702,0,,0.123195425,0.005606368,0.039546058,-0.26598123,0.9528618,-0.14597328,0.335585,0.23348285,0.91261625,0.90367925,0.19375227,-0.38186836,,0.08577254,-0.022664867,0.018977374,0.4088872,0.56308997,0.7181509,0.6838262,-0.7101628,0.16748264,0.60431176,0.422609,-0.6754323,,0.07744695,1.3318888,0.4581912,0.9984695,0.027402256,-0.048039716,-0.009790965,-0.76732343,-0.6411855,-0.05443193,0.64067453,-0.7658807,,-0.080624,0.25861588,-0.09013587,0.19606759,-0.96371365,0.18114504,0.83930314,0.26045603,0.47721368,-0.50707763,0.058469467,0.8599149,,-0.020734098,0.4181888,-0.31506962,-0.48794112,-0.62060225,-0.6138129,0.8681831,-0.27222812,-0.41490957,0.09039669,-0.7353534,0.6716277,,1.0655131773896298,0.37561055880365746,0.17427711647000002,2.2579413114413582,-0.5500985480556632,0.040664852019824727,-0.4148939279810694,,-1.3436010654575803,0.07180597026453948,0.20153420630000002,-2.0497191975612257,-0.08717408685035101,0.3792585091086582,0.836484962673644,,-0.034191000046568915,-0.08751299035656068,0.07561312771999999,-0.04775451182011164,,-4.2274594e-05,-8.940697e-06,9.179115e-06,0.99999994,4.6160072e-05,3.8612634e-05,-4.615262e-05,0.99999994,3.3080578e-06,-3.8612634e-05,-3.2186508e-06,1.0,346,1.054,1,1,0.053,False,-0.26196325577190027,1.0094424207117765
1.0758723899489269,09:25:25.683883,09:24:19.421702,0,,0.12288721,0.0054965317,0.03960544,-0.29054248,0.94754803,-0.13318238,0.32776988,0.22932154,0.91650337,0.8989725,0.22262995,-0.3772055,,0.08577063,-0.022678562,0.018999428,0.40697873,0.5640626,0.71847165,0.684567,-0.70910436,0.16893509,0.6047612,0.4230892,-0.67472905,,0.07744695,1.3318888,0.4581912,0.9984695,0.027402256,-0.048039716,-0.009790965,-0.76732343,-0.6411855,-0.05443193,0.64067453,-0.7658807,,-0.0803221,0.25858143,-0.090270974,0.220875,-0.96071494,0.16805077,0.8313718,0.27555364,0.48258796,-0.50993645,0.03312105,0.8595742,,-0.020735417,0.41819438,-0.315095,-0.48611304,-0.6216289,-0.61422443,0.8692084,-0.27123103,-0.4134132,0.090392835,-0.73485464,0.672174,,1.0664321826016625,0.3750545220367133,0.17417211698,2.2262781299751953,-0.5502351845554286,0.07189586991707536,-0.4153839601794721,,-1.343593342724706,0.07173646566867146,0.20151087308,-2.0516064070525863,-0.08813054234870908,0.37881325333242466,0.8350148660784354,,-0.034191000046568915,-0.08751299035656068,0.07561312771999999,-0.04775451182011164,,-4.2274594e-05,-8.940697e-06,9.179115e-06,0.99999994,4.6160072e-05,3.8612634e-05,-4.615262e-05,0.99999994,3.3080578e-06,-3.8612634e-05,-3.2186508e-06,1.0,359,1.095,1,1,0.094,False,-0.2621419889274632,1.0088147781016437
1.1068270149407908,09:25:25.722376,09:24:19.705968,0,,0.122434095,0.005387202,0.03973277,-0.31786922,0.9410414,-0.115758255,0.31816703,0.22088099,0.92194426,0.8931565,0.2562272,-0.3696197,,0.08577177,-0.02268324,0.019028515,0.41212508,0.5607792,0.7181083,0.67990565,-0.7139523,0.16733325,0.6065319,0.4192838,-0.6755146,,0.07744695,1.3318888,0.4581912,0.9984695,0.027402256,-0.048039716,-0.009790965,-0.76732343,-0.6411855,-0.05443193,0.64067453,-0.7658807,,-0.079881094,0.25859645,-0.09046787,0.2485156,-0.9569247,0.15011714,0.8214781,0.29033315,0.49079564,-0.51323843,0.0013475656,0.858245,,-0.020740699,0.41821095,-0.31511876,-0.49147907,-0.61785716,-0.61375964,0.8665899,-0.27701858,-0.41506946,0.08643082,-0.73587584,0.6715776,,1.0682624702928538,0.37437492154378155,0.17401656218000003,2.190001769752372,-0.5498252750561323,0.11133916265443994,-0.41489392798106933,,-1.3436165109233287,0.07173646566867146,0.20148624357000003,-2.0444769489741126,-0.08908699784706718,0.37877639125689405,0.8340348016816298,,-0.034191000046568915,-0.08751299035656068,0.07561312771999999,-0.04775451182011164,,-4.2274594e-05,-8.940697e-06,9.179115e-06,0.99999994,4.6160072e-05,3.8612634e-05,-4.615262e-05,0.99999994,3.3080578e-06,-3.8612634e-05,-3.2186508e-06,1.0,372,1.136,1,1,0.135,False,-0.26255903295711036,1.0095872613141148
1.1453343679895625,09:25:25.764010,09:24:19.705968,0,,0.121773094,0.005317867,0.039975137,-0.3487297,0.93198663,-0.09893596,0.30903482,0.21400484,0.9266603,0.8848077,0.29257926,-0.36264634,,0.08575099,-0.022695161,0.019078761,0.41104212,0.56184155,0.7178985,0.6802956,-0.7132592,0.16869867,0.6068295,0.4190411,-0.67539793,,0.07744695,1.3318888,0.4581912,0.9984695,0.027402256,-0.048039716,-0.009790965,-0.76732343,-0.6411855,-0.05443193,0.64067453,-0.7658807,,-0.079241656,0.25872394,-0.09074233,0.2798812,-0.9508015,0.13282724,0.8105214,0.30817014,0.49808246,-0.5145109,-0.031744596,0.85689604,,-0.020727353,0.4182391,-0.31516492,-0.49044794,-0.61887115,-0.6135628,0.8671792,-0.276791,-0.41398907,0.08637722,-0.73510903,0.6724238,,1.0717222546205063,0.37378027111246626,0.17378452627000002,2.1484831609424364,-0.5451796340641073,0.15296433344691418,-0.4155473042456065,,-1.343631956389077,0.07175191113441992,0.20143179939000003,-2.045525398691535,-0.08963354384612894,0.3778335242892901,0.8348515220123012,,-0.034191000046568915,-0.08751299035656068,0.07561312771999999,-0.04775451182011164,,-4.2274594e-05,-8.940697e-06,9.179115e-06,0.99999994,4.6160072e-05,3.8612634e-05,-4.615262e-05,0.99999994,3.3080578e-06,-3.8612634e-05,-3.2186508e-06,1.0,381,1.164,1,1,0.163,False,-0.2629164992682367,1.008428536495408
1.1869295529322699,09:25:25.792118,09:24:19.705968,0,,0.12150192,0.005339846,0.04010634,-0.355479,0.9301018,-0.09243941,0.30530217,0.20901772,0.9290329,0.88341665,0.30202967,-0.35826364,,0.085742004,-0.022704475,0.019099861,0.4111448,0.5615848,0.71804065,0.6801146,-0.71346116,0.16857454,0.60696286,0.4190415,-0.6752778,,0.07744695,1.3318888,0.4581912,0.9984695,0.027402256,-0.048039716,-0.009790965,-0.76732343,-0.6411855,-0.05443193,0.64067453,-0.7658807,,-0.078981526,0.25883538,-0.09084787,0.28669617,-0.9496969,0.12602046,0.80704755,0.31029704,0.50238436,-0.51621664,-0.04232717,0.85541147,,-0.020721508,0.41824782,-0.31518736,-0.49056932,-0.6186179,-0.61372113,0.8671315,-0.27691087,-0.41400898,0.0861673,-0.735277,0.672267,,1.073398087654213,0.373633539187856,0.17370415629000002,2.1382083537116947,-0.5450429975643419,0.16665662262697287,-0.4148939279810693,,-1.343631956389077,0.0717441884015457,0.20140716988000001,-2.045315708748051,-0.08977018034589437,0.3780266209331271,0.8346881779461669,,-0.034191000046568915,-0.08751299035656068,0.07561312771999999,-0.04775451182011164,,-4.2274594e-05,-8.940697e-06,9.179115e-06,0.99999994,4.6160072e-05,3.8612634e-05,-4.615262e-05,0.99999994,3.3080578e-06,-3.8612634e-05,-3.2186508e-06,1.0,394,1.206,1,1,0.205,False,-0.262797343831195,1.0076077730821573
1.215073610888794,09:25:25.832081,09:24:19.705968,0,,0.12096283,0.005409345,0.040369242,-0.36947846,0.9249677,-0.08899593,0.2977824,0.20858027,0.9315685,0.88023347,0.31769302,-0.35250515,,0.085725345,-0.022722967,0.019139677,0.41321787,0.56044006,0.7177448,0.6784251,-0.71522796,0.16789407,0.60744566,0.41755947,-0.6757617,,0.07744695,1.3318888,0.4581912,0.9984695,0.027402256,-0.048039716,-0.009790965,-0.76732343,-0.6411855,-0.05443193,0.64067453,-0.7658807,,-0.07846438,0.25907832,-0.09104313,0.30085662,-0.9458143,0.12214994,0.79982847,0.3200024,0.5078118,-0.51938397,-0.05507954,0.85276407,,-0.020710772,0.4182636,-0.31523022,-0.49269727,-0.6172812,-0.6133623,0.8660526,-0.27909085,-0.41480252,0.08486599,-0.73557615,0.6721053,,1.0768269810503688,0.37348680726324573,0.17355767552,2.117029669419758,-0.5442231785657493,0.1840391167758586,-0.4142405517165322,,-1.343631956389077,0.07173646566867146,0.20136050344000003,-2.042589739482752,-0.0899068168456598,0.3778930026164019,0.8332180813509585,,-0.034191000046568915,-0.08751299035656068,0.07561312771999999,-0.04775451182011164,,-4.2274594e-05,-8.940697e-06,9.179115e-06,0.99999994,4.6160072e-05,3.8612634e-05,-4.615262e-05,0.99999994,3.3080578e-06,-3.8612634e-05,-3.2186508e-06,1.0,403,1.233,1,1,0.232,False,-0.262797343831195,1.0072215314759216
1.2550393189303577,09:25:25.863115,09:24:19.851855,0,,0.12060064,0.005471602,0.04055448,-0.3793531,0.921102,-0.087533906,0.29119444,0.20865229,0.9336326,0.878235,0.328687,-0.3473728,,0.08572016,-0.022725828,0.019163042,0.4149706,0.55896956,0.71788037,0.6764396,-0.7172135,0.16743451,0.6084642,0.41612244,-0.67573166,,0.07744695,1.3318888,0.4581912,0.9984695,0.027402256,-0.048039716,-0.009790965,-0.76732343,-0.6411855,-0.05443193,0.64067453,-0.7658807,,-0.07811752,0.25925905,-0.09117118,0.3108175,-0.9428256,0.12030108,0.7938923,0.32712117,0.5125687,-0.52261597,-0.06380922,0.850177,,-0.02070899,0.4182782,-0.31524938,-0.49458572,-0.61562926,-0.6135027,0.86516196,-0.28136525,-0.4151246,0.08294451,-0.7360939,0.6717782,,1.0791360781797619,0.3734790845303715,0.17346823151000001,2.1017223035453876,-0.5447697245648111,0.19591981201032294,-0.4152206161133378,,-1.343631956389077,0.0717441884015457,0.20133846651,-2.039863770217453,-0.09072663584425246,0.37807143759773704,0.8320746728880185,,-0.034191000046568915,-0.08751299035656068,0.07561312771999999,-0.04775451182011164,,-4.2274594e-05,-8.940697e-06,9.179115e-06,0.99999994,4.6160072e-05,3.8612634e-05,-4.615262e-05,0.99999994,3.3080578e-06,-3.8612634e-05,-3.2186508e-06,1.0,416,1.275,1,1,0.274,False,-0.2622015666459845,1.0064007680626708
1.2860713189002126,09:25:25.902256,09:24:19.851855,0,,0.120210916,0.005520895,0.040756598,-0.39277044,0.91524726,-0.08974147,0.28116855,0.21242295,0.9358529,0.8755999,0.3423428,-0.3407724,,0.08572096,-0.022725336,0.019191712,0.41443452,0.5594012,0.71785384,0.6767886,-0.7167883,0.16784436,0.6084415,0.41627494,-0.6756582,,0.07744695,1.3318888,0.4581912,0.9984695,0.027402256,-0.048039716,-0.009790965,-0.76732343,-0.6411855,-0.05443193,0.64067453,-0.7658807,,-0.077744626,0.2594415,-0.09132227,0.3243392,-0.9380411,0.12199577,0.7850411,0.3388745,0.5185312,-0.5277448,-0.072408296,0.8463111,,-0.020713862,0.41829827,-0.3152693,-0.49405038,-0.61607647,-0.61348516,0.8654483,-0.2809965,-0.4147773,0.08314736,-0.7358605,0.67200875,,1.0814528980420293,0.3734790845303715,0.17336712089,2.0809629991404197,-0.5469559085610581,0.20783066224689545,-0.4135871754519951,,-1.3437169064506935,0.07175963386729414,0.20131513329000003,-2.0404928400479068,-0.09072663584425246,0.3778264013773153,0.8320746728880185,,-0.034191000046568915,-0.08751299035656068,0.07561312771999999,-0.04775451182011164,,-4.2274594e-05,-8.940697e-06,9.179115e-06,0.99999994,4.6160072e-05,3.8612634e-05,-4.615262e-05,0.99999994,3.3080578e-06,-3.8612634e-05,-3.2186508e-06,1.0,425,1.303,1,1,0.302,False,-0.262797343831195,1.0054351640470816
1.3251888268860057,09:25:25.933904,09:24:19.851855,0,,0.12001392,0.005526468,0.040874302,-0.4011898,0.91170114,-0.08858584,0.2739324,0.21169938,0.93816006,0.8740752,0.35211366,-0.33467624,,0.08572492,-0.022728391,0.019209713,0.41434684,0.5596802,0.7176869,0.6767183,-0.71675706,0.16826096,0.60857934,0.4159536,-0.6757319,,0.07744695,1.3318888,0.4581912,0.9984695,0.027402256,-0.048039716,-0.009790965,-0.76732343,-0.6411855,-0.05443193,0.64067453,-0.7658807,,-0.077557474,0.2595284,-0.09142284,0.33280814,-0.9352796,0.12037798,0.7788324,0.34459347,0.5240949,-0.5316567,-0.08066876,0.84310955,,-0.020720359,0.4183081,-0.31528378,-0.49398357,-0.6163067,-0.61330765,0.8655014,-0.28122258,-0.41451317,0.082991295,-0.73558134,0.67233366,,1.082510912445798,0.37348680726324573,0.17329841752000003,2.0677525327008945,-0.5494153655568361,0.2185758097084712,-0.4153839601794721,,-1.3437709655808132,0.0717441884015457,0.20130087410000003,-2.0404928400479068,-0.0908632723440179,0.3773660681000279,0.8312579525573471,,-0.034191000046568915,-0.08751299035656068,0.07561312771999999,-0.04775451182011164,,-4.2274594e-05,-8.940697e-06,9.179115e-06,0.99999994,4.6160072e-05,3.8612634e-05,-4.615262e-05,0.99999994,3.3080578e-06,-3.8612634e-05,-3.2186508e-06,1.0,438,1.345,1,1,0.344,False,-0.26243987752006825,1.0046144006338307
1.3568255099235103,09:25:25.963722,09:24:19.851855,0,,0.11986902,0.0055137724,0.040948972,-0.41006294,0.90831804,-0.08250087,0.2688056,0.20679815,0.94073266,0.87154555,0.36358285,-0.3289614,,0.08572216,-0.022730328,0.019221812,0.414217,0.5595927,0.7178302,0.676601,-0.7168369,0.1683923,0.60879815,0.4159338,-0.675547,,0.07744695,1.3318888,0.4581912,0.9984695,0.027402256,-0.048039716,-0.009790965,-0.76732343,-0.6411855,-0.05443193,0.64067453,-0.7658807,,-0.07741898,0.2595718,-0.09149812,0.34182143,-0.9328397,0.11387786,0.77365535,0.34811935,0.5294056,-0.5334937,-0.09285997,0.8406911,,-0.020719364,0.4183153,-0.31529397,-0.49388674,-0.61621755,-0.6134752,0.8655807,-0.28128517,-0.41430518,0.08274065,-0.7356321,0.672309,,1.0832445720688493,0.3735022527289942,0.17324008447000003,2.0549614461483388,-0.549688638556367,0.23350081874116516,-0.41603733644400925,,-1.3437786883136873,0.0717441884015457,0.20128920749,-2.0404928400479068,-0.09113654534354877,0.3774255464271395,0.8302778881605415,,-0.034191000046568915,-0.08751299035656068,0.07561312771999999,-0.04775451182011164,,-4.2274594e-05,-8.940697e-06,9.179115e-06,0.99999994,4.6160072e-05,3.8612634e-05,-4.615262e-05,0.99999994,3.3080578e-06,-3.8612634e-05,-3.2186508e-06,1.0,447,1.373,0,1,0.353,False,-0.2622611443645053,1.0039384778229183
1.3866725269472227,09:25:26.005848,09:24:19.988291,0,,0.11968361,0.005472392,0.041079074,-0.42345527,0.90243644,-0.0793336,0.2587089,0.20439023,0.9440838,0.86819065,0.3792529,-0.32001862,,0.08572318,-0.022740223,0.019241005,0.4180835,0.55658865,0.71792424,0.6726812,-0.7208182,0.16709608,0.6104965,0.41307414,-0.675769,,0.07744695,1.3318888,0.4581912,0.9984695,0.027402256,-0.048039716,-0.009790965,-0.76732343,-0.6411855,-0.05443193,0.64067453,-0.7658807,,-0.07724464,0.25962943,-0.09163705,0.3553744,-0.92822456,0.11003702,0.7642967,0.35632935,0.5374755,-0.5381074,-0.10690411,0.83606935,,-0.020723153,0.41832137,-0.3153144,-0.49797252,-0.6128535,-0.61354214,0.86356753,-0.2858254,-0.41539738,0.07921181,-0.73669153,0.6715736,,1.0840400135548944,0.3735717573248622,0.17313378869,2.0348312115738243,-0.5524213685516758,0.2510031012213788,-0.4152206161133378,,-1.3437555201150646,0.07170557473717458,0.20127105943,-2.0348312115738243,-0.09236627384143774,0.3777748776392828,0.8292978237637357,,-0.034191000046568915,-0.08751299035656068,0.07561312771999999,-0.04775451182011164,,-4.2274594e-05,-8.940697e-06,9.179115e-06,0.99999994,4.6160072e-05,3.8612634e-05,-4.615262e-05,0.99999994,3.3080578e-06,-3.8612634e-05,-3.2186508e-06,1.0,460,1.414,0,1,0.353,False,-0.261427056305211,1.0016693083862838
1.4288070879410952,09:25:26.043120,09:24:19.988291,0,,0.1194299,0.0054566115,0.04126735,-0.4372434,0.8958673,-0.0789922,0.24419752,0.20279865,0.94828284,0.86555505,0.39534065,-0.30744103,,0.08572754,-0.022750072,0.019247144,0.41741288,0.55759263,0.71753514,0.6729042,-0.7203269,0.16831252,0.6107096,0.4125768,-0.6758802,,0.07744695,1.3318888,0.4581912,0.9984695,0.027402256,-0.048039716,-0.009790965,-0.76732343,-0.6411855,-0.05443193,0.64067453,-0.7658807,,-0.077006646,0.2597465,-0.091809444,0.36923838,-0.92295194,0.10873228,0.75197196,0.36546695,0.54860926,-0.546078,-0.12080395,0.8289784,,-0.020728393,0.41831812,-0.31532517,-0.49733818,-0.6137743,-0.6131361,0.8639391,-0.2859126,-0.41456386,0.0791453,-0.7358907,0.6724589,,1.085229314417525,0.37371076651659824,0.17301712259000002,2.0119750077340113,-0.5585700110411206,0.26916718405034823,-0.4153839601794721,,-1.3437555201150646,0.07164379287418078,0.20126457798000003,-2.0354602814042777,-0.09277618334073406,0.376638914027842,0.8266843187055873,,-0.034191000046568915,-0.08751299035656068,0.07561312771999999,-0.04775451182011164,,-4.2274594e-05,-8.940697e-06,9.179115e-06,0.99999994,4.6160072e-05,3.8612634e-05,-4.615262e-05,0.99999994,3.3080578e-06,-3.8612634e-05,-3.2186508e-06,1.0,473,1.456,0,1,0.353,False,-0.26148663402373185,1.0019589895909604
1.466076304903254,09:25:26.084471,09:24:19.988291,0,,0.119131394,0.005439639,0.041483685,-0.45211542,0.8892503,-0.069464296,0.23499632,0.19387981,0.9524638,0.86044645,0.41429967,-0.2966267,,0.08574441,-0.022776105,0.019252688,0.41740206,0.55768746,0.7174678,0.67263854,-0.72048223,0.16870895,0.61100954,0.41217715,-0.67585284,,0.07744695,1.3318888,0.4581912,0.9984695,0.027402256,-0.048039716,-0.009790965,-0.76732343,-0.6411855,-0.05443193,0.64067453,-0.7658807,,-0.0767262,0.2598822,-0.092007264,0.38440996,-0.91790235,0.09840841,0.7422772,0.37070566,0.5582131,-0.54886574,-0.14153637,0.8238409,,-0.020745981,0.41830164,-0.31534544,-0.49737135,-0.61381185,-0.6130716,0.86395645,-0.28630888,-0.41425407,0.07874619,-0.73570526,0.6727085,,1.087051879375842,0.3739115575713281,0.17284990118000002,1.989538183781167,-0.5580234650420588,0.29485870928054253,-0.41440389578266645,,-1.3437709655808132,0.07148161548382206,0.20125809653,-2.0352505914607932,-0.09318609284003039,0.37615638033752563,0.8270110068378559,,-0.034191000046568915,-0.08751299035656068,0.07561312771999999,-0.04775451182011164,,-4.2274594e-05,-8.940697e-06,9.179115e-06,0.99999994,4.6160072e-05,3.8612634e-05,-4.615262e-05,0.99999994,3.3080578e-06,-3.8612634e-05,-3.2186508e-06,1.0,482,1.483,0,1,0.353,False,-0.26309523242380006,1.001186506378489
1.5073910689679906,09:25:26.114260,09:24:19.988291,0,,0.11885345,0.0054390877,0.04169835,-0.46194625,0.88447624,-0.065629035,0.22789514,0.18988687,0.9549904,0.8571284,0.42619765,-0.28928548,,0.085747555,-0.022787951,0.01925549,0.41735148,0.55761516,0.71755344,0.6725981,-0.7205185,0.1687153,0.61108863,0.41221166,-0.6757604,,0.07744695,1.3318888,0.4581912,0.9984695,0.027402256,-0.048039716,-0.009790965,-0.76732343,-0.6411855,-0.05443193,0.64067453,-0.7658807,,-0.076466024,0.26002875,-0.092192106,0.39442793,-0.9141041,0.0940227,0.73511285,0.3752691,0.564608,-0.5513943,-0.15357986,0.8199863,,-0.020749548,0.41829476,-0.3153554,-0.49733275,-0.6137453,-0.61316955,0.86398685,-0.28630415,-0.414194,0.07865661,-0.73576266,0.6726563,,1.0888821670670332,0.37405828949593833,0.17269564267,1.973811438019828,-0.5578868285422933,0.31026625200355296,-0.41571064831174065,,-1.343763242847939,0.07141983362082827,0.20125291137,-2.0352505914607932,-0.09332272933979582,0.37618611950108144,0.8268476627717215,,-0.034191000046568915,-0.08751299035656068,0.07561312771999999,-0.04775451182011164,,-4.2274594e-05,-8.940697e-06,9.179115e-06,0.99999994,4.6160072e-05,3.8612634e-05,-4.615262e-05,0.99999994,3.3080578e-06,-3.8612634e-05,-3.2186508e-06,1.0,495,1.524,0,1,0.353,False,-0.2611887454311268,1.000751984571474
1.5372108729789034,09:25:26.147974,09:24:19.988291,0,,0.11836539,0.0054106563,0.042004034,-0.48013884,0.8748256,-0.06439382,0.21582651,0.1889681,0.9579718,0.85022664,0.4460615,-0.27954164,,0.08575344,-0.02280397,0.019262582,0.41713315,0.55761904,0.71767735,0.67268544,-0.72042406,0.16877052,0.61114156,0.41237143,-0.675615,,0.07744695,1.3318888,0.4581912,0.9984695,0.027402256,-0.048039716,-0.009790965,-0.76732343,-0.6411855,-0.05443193,0.64067453,-0.7658807,,-0.07600372,0.26022002,-0.0924787,0.41303334,-0.90605277,0.09204256,0.722212,0.38743442,0.57297856,-0.5548093,-0.170185,0.81438553,,-0.020756446,0.4182876,-0.31537095,-0.49712384,-0.61377156,-0.61331266,0.8641071,-0.28612652,-0.41406596,0.07865688,-0.7358098,0.6726046,,1.0919249238194777,0.3740428440301899,0.17245971789000003,1.9450839157624478,-0.5565204635446389,0.3316954052453839,-0.4160373364440092,,-1.3437709655808132,0.07133488355921179,0.20124383734,-2.0354602814042777,-0.09345936583956126,0.37621585866463736,0.8266843187055872,,-0.034191000046568915,-0.08751299035656068,0.07561312771999999,-0.04775451182011164,,-4.2274594e-05,-8.940697e-06,9.179115e-06,0.99999994,4.6160072e-05,3.8612634e-05,-4.615262e-05,0.99999994,3.3080578e-06,-3.8612634e-05,-3.2186508e-06,1.0,508,1.566,0,1,0.353,False,-0.26196325577190027,1.0001726221621206
1.5708484168862924,09:25:26.191595,09:24:19.988291,0,,0.11788918,0.005398065,0.04232025,-0.48932314,0.8699,-0.061940137,0.20872334,0.18577549,0.96016765,0.8467568,0.45690385,-0.27247286,,0.08575454,-0.022819065,0.019267648,0.41708753,0.55789727,0.7174875,0.6726492,-0.7203757,0.16912088,0.61121255,0.41207936,-0.67572904,,0.07744695,1.3318888,0.4581912,0.9984695,0.027402256,-0.048039716,-0.009790965,-0.76732343,-0.6411855,-0.05443193,0.64067453,-0.7658807,,-0.07555396,0.26042968,-0.09276277,0.42241877,-0.90201545,0.08905353,0.7149221,0.39196572,0.57900715,-0.55717933,-0.18091716,0.8104444,,-0.02075833,0.41828015,-0.31538495,-0.49708894,-0.61400515,-0.613107,0.86413443,-0.28632012,-0.41387495,0.07857649,-0.73553956,0.67290956,,1.095137580695155,0.3738188847768374,0.17222638569,1.9289377901141394,-0.5551540985469845,0.3464269017956887,-0.41669071270854635,,-1.3437555201150646,0.07126537896334377,0.20123476331,-2.0354602814042777,-0.09359600233932672,0.37575552538734985,0.8255409102426473,,-0.034191000046568915,-0.08751299035656068,0.07561312771999999,-0.04775451182011164,,-4.2274594e-05,-8.940697e-06,9.179115e-06,0.99999994,4.6160072e-05,3.8612634e-05,-4.615262e-05,0.99999994,3.3080578e-06,-3.8612634e-05,-3.2186508e-06,1.0,517,1.594,0,1,0.353,False,-0.2620824112089424,0.9997863805558849
1.614553901948966,09:25:26.215809,09:24:20.182759,0,,0.11763354,0.005356714,0.04245296,-0.4968114,0.86571014,-0.061026268,0.20477334,0.18526644,0.9611161,0.843354,0.46499687,-0.2693169,,0.08575506,-0.02282358,0.019269258,0.4170315,0.5577872,0.7176057,0.6725995,-0.72042626,0.16910312,0.6113055,0.41214013,-0.6756079,,0.07744695,1.3318888,0.4581912,0.9984695,0.027402256,-0.048039716,-0.009790965,-0.76732343,-0.6411855,-0.05443193,0.64067453,-0.7658807,,-0.07530981,0.26049212,-0.09290826,0.4301274,-0.89847875,0.087899886,0.71005136,0.3968289,0.58168197,-0.5575101,-0.18778393,0.808653,,-0.020759087,0.41827795,-0.31538916,-0.49704692,-0.613905,-0.6132414,0.8641683,-0.28630388,-0.4138155,0.078470014,-0.7356295,0.67282367,,1.096720740934371,0.37354858912623956,0.17210323814,1.9171951532790064,-0.5531045510505029,0.3553738694585155,-0.4134238313858608,,-1.3437477973821905,0.0712422107647211,0.20123217073000002,-2.0354602814042777,-0.09373263883909215,0.37586694329104625,0.8255409102426473,,-0.034191000046568915,-0.08751299035656068,0.07561312771999999,-0.04775451182011164,,-4.2274594e-05,-8.940697e-06,9.179115e-06,0.99999994,4.6160072e-05,3.8612634e-05,-4.615262e-05,0.99999994,3.3080578e-06,-3.8612634e-05,-3.2186508e-06,1.0,521,1.607,0,1,0.353,False,-0.26243987752006825,0.9995932597527672
1.6387590899830684,09:25:26.242566,09:24:20.182759,0,,0.117237255,0.005268976,0.042603627,-0.5079149,0.8594556,-0.05795004,0.19967869,0.18291193,0.9626378,0.83794427,0.47736663,-0.26451877,,0.085754916,-0.022827558,0.019272119,0.41703367,0.5577789,0.7176109,0.67260325,-0.7204261,0.16908923,0.6112999,0.41215163,-0.6756059,,0.07744695,1.3318888,0.4581912,0.9984695,0.027402256,-0.048039716,-0.009790965,-0.76732343,-0.6411855,-0.05443193,0.64067453,-0.7658807,,-0.074927166,0.26053602,-0.093105964,0.44159096,-0.8932318,0.08446486,0.70319414,0.40302888,0.5857352,-0.5572391,-0.19926018,0.8060893,,-0.020759365,0.41827708,-0.31539398,-0.4970483,-0.61389846,-0.61324686,0.8641669,-0.28629497,-0.4138246,0.07847678,-0.73563844,0.6728131,,1.0990375607966385,0.3728458204346851,0.17193860931000002,1.9000005779132754,-0.5492787290570706,0.37030516972607996,-0.41456723984880073,,-1.3437477973821905,0.07122676529897265,0.20122828186000002,-2.0354602814042777,-0.09373263883909215,0.37586694329104625,0.8255409102426473,,-0.034191000046568915,-0.08751299035656068,0.07561312771999999,-0.04775451182011164,,-4.2274594e-05,-8.940697e-06,9.179115e-06,0.99999994,4.6160072e-05,3.8612634e-05,-4.615262e-05,0.99999994,3.3080578e-06,-3.8612634e-05,-3.2186508e-06,1.0,543,1.677,0,1,0.353,False,-0.26190367805337944,1.0014279073823864
1.6655046979431063,09:25:26.297963,09:24:20.182759,0,,0.11651592,0.0050294846,0.04275155,-0.5252361,0.8492807,-0.05337536,0.1909064,0.17872635,0.9652003,0.8292656,0.49676836,-0.2560068,,0.08575178,-0.022836678,0.01927045,0.41757843,0.5592754,0.7161279,0.6728255,-0.72000927,0.16997811,0.6106832,0.41085,-0.6769551,,0.07744695,1.3318888,0.4581912,0.9984695,0.027402256,-0.048039716,-0.009790965,-0.76732343,-0.6411855,-0.05443193,0.64067453,-0.7658807,,-0.07422119,0.26047465,-0.09341805,0.45948774,-0.8846414,0.0792501,0.6917052,0.41238648,0.5928586,-0.55714893,-0.21759355,0.8013976,,-0.020756071,0.41826972,-0.3153995,-0.4974986,-0.6151923,-0.6115828,0.86384845,-0.2870379,-0.4139748,0.07912666,-0.73426676,0.67423385,,1.102736749843392,0.3707297916271476,0.17169749937,1.8721118154298335,-0.543813269066453,0.39525280002882557,-0.415873992377875,,-1.3437477973821905,0.07121131983322421,0.20122439299000003,-2.0352505914607932,-0.0929128198404995,0.3738098972864781,0.8270110068378559,,-0.034191000046568915,-0.08751299035656068,0.07561312771999999,-0.04775451182011164,,-4.2274594e-05,-8.940697e-06,9.179115e-06,0.99999994,4.6160072e-05,3.8612634e-05,-4.615262e-05,0.99999994,3.3080578e-06,-3.8612634e-05,-3.2186508e-06,1.0,552,1.704,0,1,0.353,False,-0.2618441003348577,1.003697076819021
1.7208844209089875,09:25:26.331223,09:24:20.321821,0,,0.11584256,0.004755363,0.04276295,-0.5420493,0.8386916,-0.05271286,0.18125102,0.17793332,0.9672061,0.8205671,0.5147191,-0.2484625,,0.085751995,-0.022837527,0.019271642,0.41780105,0.56015456,0.71531034,0.67275363,-0.71988386,0.17079169,0.61060995,0.4098709,-0.67761433,,0.07744695,1.3318888,0.4581912,0.9984695,0.027402256,-0.048039716,-0.009790965,-0.76732343,-0.6411855,-0.05443193,0.64067453,-0.7658807,,-0.073552504,0.26029864,-0.09364292,0.47687417,-0.8755031,0.07800807,0.6794941,0.4234927,0.59911746,-0.5575651,-0.23269764,0.79685193,,-0.02075645,0.41826987,-0.3154009,-0.49770883,-0.6159224,-0.6106763,0.863725,-0.287708,-0.4137671,0.07915195,-0.73339194,0.6751824,,1.1057254474657168,0.36818901251152775,0.17154712973000003,1.8444327428898761,-0.5395775375737243,0.41646582453668624,-0.4152206161133378,,-1.3437555201150646,0.07121131983322421,0.20122309670000002,-2.035040901517309,-0.09277618334073406,0.3724732982806732,0.8284811034330642,,-0.034191000046568915,-0.08751299035656068,0.07561312771999999,-0.04775451182011164,,-4.2274594e-05,-8.940697e-06,9.179115e-06,0.99999994,4.6160072e-05,3.8612634e-05,-4.615262e-05,0.99999994,3.3080578e-06,-3.8612634e-05,-3.2186508e-06,1.0,565,1.745,0,1,0.353,False,-0.2622015666459845,1.0040350382244774
1.7541524489643052,09:25:26.368912,09:24:20.321821,0,,0.11531708,0.004540369,0.042759046,-0.5540847,0.8309528,-0.050073013,0.17388928,0.1743547,0.9692074,0.8140961,0.5283157,-0.2411012,,0.08574521,-0.02284538,0.019268245,0.41869485,0.5619798,0.7133534,0.67301494,-0.7194147,0.1717363,0.60970914,0.40819257,-0.6794361,,0.07744695,1.3318888,0.4581912,0.9984695,0.027402256,-0.048039716,-0.009790965,-0.76732343,-0.6411855,-0.05443193,0.64067453,-0.7658807,,-0.07302967,0.26015243,-0.09380915,0.48933643,-0.86888057,0.074809246,0.6702497,0.42957556,0.60516953,-0.5579563,-0.24599062,0.7925739,,-0.020749284,0.41826257,-0.31540468,-0.49846396,-0.6174877,-0.6084756,0.863205,-0.28870487,-0.4141577,0.0800674,-0.7316819,0.6769275,,1.1080422673279842,0.36611932010123555,0.17144213024000002,1.8240928183718774,-0.5364348980791193,0.43505800644807424,-0.41505727204720355,,-1.3437555201150646,0.07121904256609843,0.20121920783000002,-2.03462152163034,-0.0915464548428451,0.3699186410847348,0.8289711356314672,,-0.034191000046568915,-0.08751299035656068,0.07561312771999999,-0.04775451182011164,,-4.2274594e-05,-8.940697e-06,9.179115e-06,0.99999994,4.6160072e-05,3.8612634e-05,-4.615262e-05,0.99999994,3.3080578e-06,-3.8612634e-05,-3.2186508e-06,1.0,578,1.786,0,1,0.353,False,-0.26160578946077395,1.0041798788268157
1.7918712529353797,09:25:26.413425,09:24:20.321821,0,,0.11439796,0.0041980743,0.042771414,-0.57859147,0.81395376,-0.052066702,0.15833685,0.1747163,0.97180426,0.8001007,0.5540335,-0.2299684,,0.08573973,-0.022851788,0.019271284,0.4197214,0.5626661,0.7122082,0.6728464,-0.71952754,0.1719242,0.6091893,0.40704665,-0.680589,,0.07744695,1.3318888,0.4581912,0.9984695,0.027402256,-0.048039716,-0.009790965,-0.76732343,-0.6411855,-0.05443193,0.64067453,-0.7658807,,-0.07211647,0.259935,-0.094093576,0.5147734,-0.8539567,0.075936265,0.6504753,0.44673425,0.61425596,-0.5584713,-0.26680797,0.7854447,,-0.020744327,0.4182606,-0.31541187,-0.49940658,-0.6180042,-0.60717696,0.86262655,-0.28964245,-0.41470796,0.080427036,-0.7308749,0.6777562,,1.1122897704088077,0.3628448813625644,0.17126324222000003,1.7829935894489106,-0.5296030730908472,0.4635471459018675,-0.4142405517165322,,-1.343763242847939,0.07122676529897265,0.20121143009000003,-2.0337827618564015,-0.09072663584425246,0.3685967037414318,0.8299512000282728,,-0.034191000046568915,-0.08751299035656068,0.07561312771999999,-0.04775451182011164,,-4.2274594e-05,-8.940697e-06,9.179115e-06,0.99999994,4.6160072e-05,3.8612634e-05,-4.615262e-05,0.99999994,3.3080578e-06,-3.8612634e-05,-3.2186508e-06,1.0,587,1.815,0,1,0.353,False,-0.2626781883941529,1.0040350382244774
1.8363636769354343,09:25:26.444529,09:24:20.321821,0,,0.11386363,0.004057631,0.042804226,-0.5921321,0.8043017,-0.049781337,0.14926925,0.17018017,0.9740418,0.7918953,0.5693305,-0.2208266,,0.08564608,-0.022901386,0.01926604,0.4197283,0.56247425,0.7123558,0.67274886,-0.7196402,0.17183468,0.6092924,0.40711263,-0.6804573,,0.07740202,1.3318886,0.45819724,0.9984699,0.027433874,-0.048013296,-0.009749821,-0.7673223,-0.64118755,-0.05443193,0.64067453,-0.7658807,,-0.07154778,0.25986537,-0.094240956,0.5288569,-0.8455733,0.0729119,0.638902,0.45319727,0.62162405,-0.5586722,-0.2821666,0.779915,,-0.02061078,0.4182277,-0.3154498,-0.49945787,-0.6177957,-0.60734695,0.862611,-0.28967708,-0.41471615,0.08027537,-0.7310374,0.6775989,,1.114954113250415,0.3613157802534679,0.17117379821,1.759927695665613,-0.5252307050983531,0.4837502863644857,-0.4140772076503979,,-1.3437246291835678,0.07122676529897265,0.20119846719,-2.0337827618564015,-0.0908632723440179,0.36878980038526876,0.8297878559621386,,-0.034191000046568915,-0.08751299035656068,0.07561312771999999,-0.04775451182011164,,-8.7462366e-05,-6.198883e-06,6.7949295e-06,0.99999994,7.7717006e-05,6.501004e-05,-7.771328e-05,1.0,5.5730343e-06,-6.501004e-05,-5.453825e-06,1.0,600,1.856,0,1,0.353,False,-0.26249945523859,1.0040350382244774
1.8674763588933274,09:25:26.480170,09:24:20.446735,0,,0.11319582,0.0039141327,0.04288423,-0.61009264,0.7911557,-0.043122195,0.13891828,0.16038978,0.9772291,0.7800567,0.5902097,-0.20775867,,0.08563881,-0.022904068,0.019268721,0.42018628,0.5627889,0.7118371,0.67261,-0.71973073,0.17199868,0.6091299,0.40651727,-0.68095845,,0.07740202,1.3318886,0.45819724,0.9984699,0.027433874,-0.048013296,-0.009749821,-0.7673223,-0.64118755,-0.05443193,0.64067453,-0.7658807,,-0.07088921,0.25983375,-0.09443657,0.5476304,-0.8341712,0.06526425,0.6242339,0.45925367,0.6319953,-0.55716515,-0.3053597,0.7722192,,-0.020603977,0.41822833,-0.31545433,-0.4998886,-0.6180226,-0.6067614,0.86235523,-0.29018307,-0.41489428,0.08034219,-0.73064476,0.6780143,,1.1187073614272882,0.35957044262389315,0.17104546550000002,1.7303614136342949,-0.5170325151124266,0.5132488940249694,-0.4139138635842636,,-1.3437091837178194,0.0712422107647211,0.20119198574000002,-2.0333633819694326,-0.09058999934448701,0.3681585708771731,0.8291344796976015,,-0.034191000046568915,-0.08751299035656068,0.07561312771999999,-0.04775451182011164,,-8.7462366e-05,-6.198883e-06,6.7949295e-06,0.99999994,7.7717006e-05,6.501004e-05,-7.771328e-05,1.0,5.5730343e-06,-6.501004e-05,-5.453825e-06,1.0,613,1.898,0,1,0.353,False,-0.26202283349042155,1.00287631340577
1.9030800429172814,09:25:26.524164,09:24:20.446735,0,,0.112506546,0.0037681162,0.042938203,-0.63010144,0.7753442,-0.04258554,0.12786964,0.15769702,0.97917366,0.7659121,0.6115332,-0.19850814,,0.08563644,-0.022910714,0.019263595,0.42150238,0.56363046,0.71039176,0.6724288,-0.7198602,0.17216533,0.6084202,0.4051198,-0.6824241,,0.07740202,1.3318886,0.45819724,0.9984699,0.027433874,-0.048013296,-0.009749821,-0.7673223,-0.64118755,-0.05443193,0.64067453,-0.7658807,,-0.07020723,0.25978485,-0.094614975,0.5686232,-0.8201037,0.06401292,0.60766935,0.4712296,0.63928133,-0.55444175,-0.32461149,0.76630396,,-0.02060092,0.41822022,-0.3154556,-0.5010908,-0.6186569,-0.6051212,0.8616089,-0.29132104,-0.4156466,0.08085811,-0.7296545,0.6790186,,1.1226305097273943,0.35773243219982775,0.17093268827000002,1.6978594723941938,-0.5067847776300186,0.5368289386426977,-0.414730583914935,,-1.3437169064506935,0.0712422107647211,0.20119198574000002,-2.0323149322520098,-0.0894969073463635,0.36653211898633664,0.8278277271685273,,-0.034191000046568915,-0.08751299035656068,0.07561312771999999,-0.04775451182011164,,-8.7462366e-05,-6.198883e-06,6.7949295e-06,0.99999994,7.7717006e-05,6.501004e-05,-7.771328e-05,1.0,5.5730343e-06,-6.501004e-05,-5.453825e-06,1.0,622,1.926,0,1,0.353,False,-0.2618441003348577,1.0015727479847247
1.9471127719152719,09:25:26.555973,09:24:20.446735,0,,0.11194879,0.0036271513,0.042913124,-0.6469467,0.7613949,-0.041684233,0.1217677,0.15711904,0.980044,0.7527498,0.62896043,-0.19436097,,0.085637175,-0.022912055,0.019263417,0.42150345,0.56362635,0.7103943,0.67243063,-0.71986014,0.17215833,0.60841745,0.40512562,-0.6824231,,0.07740202,1.3318886,0.45819724,0.9984699,0.027433874,-0.048013296,-0.009749821,-0.7673223,-0.64118755,-0.05443193,0.64067453,-0.7658807,,-0.06965009,0.2596844,-0.094720386,0.586415,-0.8075732,0.06279328,0.59542733,0.4823257,0.6425171,-0.5491664,-0.3393928,0.76369417,,-0.020601636,0.41821912,-0.3154563,-0.5010915,-0.61865366,-0.60512394,0.8616082,-0.2913166,-0.41565117,0.080861464,-0.729659,0.6790133,,1.125789107472952,0.355917589974385,0.17086917006000002,1.6724869892325662,-0.49489740215042527,0.5537628503069324,-0.414730583914935,,-1.3437169064506935,0.07123448803184687,0.20119198574000002,-2.0323149322520098,-0.0894969073463635,0.3665321189863367,0.8281544153007958,,-0.034191000046568915,-0.08751299035656068,0.07561312771999999,-0.04775451182011164,,-8.7462366e-05,-6.198883e-06,6.7949295e-06,0.99999994,7.7717006e-05,6.501004e-05,-7.771328e-05,1.0,5.5730343e-06,-6.501004e-05,-5.453825e-06,1.0,635,1.967,0,1,0.353,False,-0.26196325577190027,1.0014279073823864
1.9788807949516922,09:25:26.590639,09:24:20.564139,0,,0.11137591,0.0034684986,0.042831138,-0.6617453,0.74888515,-0.035552807,0.120055735,0.15265651,0.9809601,0.7400538,0.6448773,-0.19092771,,0.08563566,-0.02290906,0.019265622,0.4214382,0.5638249,0.7102755,0.67236984,-0.71984196,0.17247182,0.60852987,0.4048816,-0.68246776,,0.07740202,1.3318886,0.45819724,0.9984699,0.027433874,-0.048013296,-0.009749821,-0.7673223,-0.64118755,-0.05443193,0.64067453,-0.7658807,,-0.06907352,0.25953525,-0.09479373,0.6021563,-0.7963824,0.0564163,0.58680123,0.48938873,0.645107,-0.54136133,-0.35535008,0.7620067,,-0.020600442,0.4182229,-0.31545594,-0.5010432,-0.6188153,-0.6049986,0.8616484,-0.29149103,-0.41544557,0.08073242,-0.72945225,0.67925084,,1.1291176053417429,0.3535698791806207,0.17083287394000002,1.6508889250536602,-0.48000402367599226,0.5724928625771548,-0.4127704551213237,,-1.3437169064506935,0.07124993349759533,0.20119068945000002,-2.0323149322520098,-0.08963354384612894,0.36623514318933026,0.8266843187055872,,-0.034191000046568915,-0.08751299035656068,0.07561312771999999,-0.04775451182011164,,-8.7462366e-05,-6.198883e-06,6.7949295e-06,0.99999994,7.7717006e-05,6.501004e-05,-7.771328e-05,1.0,5.5730343e-06,-6.501004e-05,-5.453825e-06,1.0,648,2.009,0,1,0.353,False,-0.2611887454311268,1.0012347865792688
2.013573137926869,09:25:26.629815,09:24:20.564139,0,,0.11048787,0.0031835884,0.042640954,-0.68131375,0.7314315,-0.028625175,0.11863685,0.14892769,0.9817056,0.7223134,0.66545343,-0.18824127,,0.08563641,-0.022910371,0.019265443,0.42143932,0.5637628,0.71032417,0.6723716,-0.719856,0.1724061,0.60852706,0.4049431,-0.6824337,,0.07740202,1.3318886,0.45819724,0.9984699,0.027433874,-0.048013296,-0.009749821,-0.7673223,-0.64118755,-0.05443193,0.64067453,-0.7658807,,-0.068174995,0.25923413,-0.09488304,0.62305146,-0.78062546,0.049303345,0.57545537,0.50016373,0.6470605,-0.5297717,-0.37478012,0.76084286,,-0.020601157,0.41822177,-0.31545663,-0.5010439,-0.6187627,-0.6050519,0.86164767,-0.29145268,-0.41547394,0.080735765,-0.7295123,0.679186,,1.1336740177375353,0.3496467308805147,0.17081861475000001,1.6253067519485482,-0.45978182171070714,0.5942286632158676,-0.4130971432535922,,-1.3437169064506935,0.0712422107647211,0.20119068945000002,-2.0323149322520098,-0.08963354384612894,0.36631682192947085,0.826520974639453,,-0.034191000046568915,-0.08751299035656068,0.07561312771999999,-0.04775451182011164,,-8.7462366e-05,-6.198883e-06,6.7949295e-06,0.99999994,7.7717006e-05,6.501004e-05,-7.771328e-05,1.0,5.5730343e-06,-6.501004e-05,-5.453825e-06,1.0,657,2.036,0,1,0.353,False,-0.2612483231496481,1.0013313469808274
2.0527642829110846,09:25:26.661941,09:24:20.564139,0,,0.10957781,0.002838567,0.04236549,-0.7024877,0.7113286,-0.022855256,0.11776465,0.1478522,0.9819732,0.70188475,0.6871325,-0.18763378,,0.08563393,-0.022915006,0.019263774,0.42145306,0.56376386,0.71031517,0.67238235,-0.71985084,0.17238581,0.6085057,0.4049509,-0.68244815,,0.07740202,1.3318886,0.45819724,0.9984699,0.027433874,-0.048013296,-0.009749821,-0.7673223,-0.64118755,-0.05443193,0.64067453,-0.7658807,,-0.06724819,0.25883383,-0.09494543,0.6457621,-0.7622982,0.043505237,0.56292194,0.5138128,0.64739114,-0.5158587,-0.3935706,0.7609152,,-0.020598484,0.41821748,-0.31545892,-0.5010544,-0.61876476,-0.605041,0.8616393,-0.2914437,-0.4154976,0.080759875,-0.72951406,0.6791812,,1.1382613210648247,0.3450439820874769,0.17083417023000003,1.5969986095781377,-0.43614370725128593,0.6147309123248406,-0.41293379918745793,,-1.3436937382520708,0.07122676529897265,0.20118939316,-2.0323149322520098,-0.08963354384612894,0.36631682192947085,0.826520974639453,,-0.034191000046568915,-0.08751299035656068,0.07561312771999999,-0.04775451182011164,,-8.7462366e-05,-6.198883e-06,6.7949295e-06,0.99999994,7.7717006e-05,6.501004e-05,-7.771328e-05,1.0,5.5730343e-06,-6.501004e-05,-5.453825e-06,1.0,670,2.078,0,1,0.353,False,-0.26136747858668974,1.001476187583166
2.0848791919415817,09:25:26.706270,09:24:20.564139,0,,0.10870151,0.002448842,0.042023093,-0.72550607,0.6879781,-0.018080886,0.11437863,0.14644122,0.98258466,0.6786444,0.7108029,-0.18493399,,0.085627705,-0.02291821,0.019260734,0.42147234,0.5637793,0.71029145,0.6723942,-0.7198424,0.17237523,0.6084793,0.4049445,-0.6824755,,0.07740202,1.3318886,0.45819724,0.9984699,0.027433874,-0.048013296,-0.009749821,-0.7673223,-0.64118755,-0.05443193,0.64067453,-0.7658807,,-0.066350035,0.25835526,-0.09498181,0.6705173,-0.7408923,0.038536973,0.5467533,0.52859414,0.64934516,-0.5014652,-0.41432694,0.75951684,,-0.020591902,0.41821373,-0.31545967,-0.50106966,-0.6187791,-0.6050137,0.86162776,-0.2914435,-0.41552177,0.08078888,-0.72950196,0.67919075,,1.1424315968169059,0.3401941058424639,0.17087954038000003,1.5651257381684898,-0.4118224102930375,0.6370447553794076,-0.4135871754519951,,-1.3436551245876998,0.07122676529897265,0.20118809687000003,-2.0323149322520098,-0.08963354384612894,0.36631682192947085,0.826520974639453,,-0.034191000046568915,-0.08751299035656068,0.07561312771999999,-0.04775451182011164,,-8.7462366e-05,-6.198883e-06,6.7949295e-06,0.99999994,7.7717006e-05,6.501004e-05,-7.771328e-05,1.0,5.5730343e-06,-6.501004e-05,-5.453825e-06,1.0,679,2.106,0,1,0.353,False,-0.26136747858668974,1.0001726221621206
2.1292251829290763,09:25:26.731437,09:24:20.711640,0,,0.1083237,0.0022503436,0.0418313,-0.7370486,0.67571104,-0.013184197,0.114663005,0.14424899,0.98287576,0.66604173,0.7229153,-0.18379766,,0.085620016,-0.022920057,0.019260854,0.42126435,0.5637367,0.71044874,0.67247444,-0.7197657,0.17238227,0.60853463,0.4051401,-0.68231,,0.07740202,1.3318886,0.45819724,0.9984699,0.027433874,-0.048013296,-0.009749821,-0.7673223,-0.64118755,-0.05443193,0.64067453,-0.7658807,,-0.065959506,0.25809753,-0.09498239,0.6830176,-0.7296302,0.033567883,0.53959304,0.53502834,0.65006465,-0.49226654,-0.42589256,0.75913715,,-0.020584319,0.41821322,-0.31546184,-0.50087136,-0.61876446,-0.6051929,0.8617435,-0.29124945,-0.41541773,0.08078363,-0.7295919,0.67909473,,1.1442387163094745,0.33783867231582543,0.17090676247000003,1.5506571320680576,-0.39774885081719713,0.6488471522387365,-0.41309714325359226,,-1.3436165109233287,0.07123448803184687,0.20118420800000003,-2.0325246221954947,-0.08977018034589437,0.36650991857330784,0.8266843187055872,,-0.034191000046568915,-0.08751299035656068,0.07561312771999999,-0.04775451182011164,,-8.7462366e-05,-6.198883e-06,6.7949295e-06,0.99999994,7.7717006e-05,6.501004e-05,-7.771328e-05,1.0,5.5730343e-06,-6.501004e-05,-5.453825e-06,1.0,692,2.147,0,1,0.353,False,-0.26196325577190027,1.0004623033667974
2.154380264924839,09:25:26.771840,09:24:20.711640,0,,0.10767995,0.0018234849,0.041408256,-0.763445,0.64583,-0.007431198,0.11303237,0.14492762,0.98296475,0.635905,0.74959946,-0.18364394,,0.085608035,-0.022929236,0.019260317,0.42134205,0.5636384,0.7104806,0.67225975,-0.71994495,0.17247087,0.6087179,0.40495834,-0.68225443,,0.07740202,1.3318886,0.45819724,0.9984699,0.027433874,-0.048013296,-0.009749821,-0.7673223,-0.64118755,-0.05443193,0.64067453,-0.7658807,,-0.06528706,0.25752914,-0.09496447,0.7116939,-0.7019386,0.027821286,0.52061933,0.5536163,0.64997274,-0.47164327,-0.4480973,0.7594481,,-0.020572426,0.41820744,-0.31546918,-0.5009753,-0.61864203,-0.605232,0.86170846,-0.29149398,-0.41531888,0.08051221,-0.72959805,0.67912036,,1.1472351366646736,0.3333054281186556,0.17096120665000003,1.5166873612235647,-0.367005638369973,0.6691915034251942,-0.41375051951812936,,-1.3435392835945863,0.07121904256609843,0.20117643026,-2.0323149322520098,-0.09004345334542525,0.366487718160279,0.8255409102426473,,-0.034191000046568915,-0.08751299035656068,0.07561312771999999,-0.04775451182011164,,-8.7462366e-05,-6.198883e-06,6.7949295e-06,0.99999994,7.7717006e-05,6.501004e-05,-7.771328e-05,1.0,5.5730343e-06,-6.501004e-05,-5.453825e-06,1.0,705,2.189,0,1,0.353,False,-0.2618441003348577,1.0010899459769305
2.1947593229124323,09:25:26.811771,09:24:20.711640,0,,0.10717174,0.0013959259,0.041034207,-0.7841003,0.62063015,0.0021723472,0.114364386,0.14104521,0.9833754,0.610006,0.7713132,-0.1815716,,0.08559259,-0.022935733,0.019255906,0.42138332,0.56373453,0.7103797,0.67228407,-0.7199122,0.17251343,0.6086626,0.4048827,-0.6823486,,0.07740202,1.3318886,0.45819724,0.9984699,0.027433874,-0.048013296,-0.009749821,-0.7673223,-0.64118755,-0.05443193,0.64067453,-0.7658807,,-0.06475358,0.25698483,-0.094976135,0.7343313,-0.6785502,0.01808708,0.50634927,0.5653314,0.65116113,-0.4520707,-0.4690096,0.758724,,-0.020556536,0.4182012,-0.31547216,-0.50100815,-0.6187263,-0.60511863,0.8616837,-0.29153186,-0.4153436,0.08057268,-0.72951144,0.67920625,,1.1494670064653245,0.32911198416795173,0.170980651,1.4915245680054217,-0.3394050654173541,0.6891580317516096,-0.4144038957826665,,-1.3434543335329698,0.07122676529897265,0.2011712451,-2.0323149322520098,-0.09004345334542525,0.3664060394201384,0.8257042543087816,,-0.034191000046568915,-0.08751299035656068,0.07561312771999999,-0.04775451182011164,,-8.7462366e-05,-6.198883e-06,6.7949295e-06,0.99999994,7.7717006e-05,6.501004e-05,-7.771328e-05,1.0,5.5730343e-06,-6.501004e-05,-5.453825e-06,1.0,714,2.216,0,1,0.353,False,-0.262797343831195,0.9999795013590027
2.2347113809082657,09:25:26.847675,09:24:20.711640,0,,0.10662378,0.00092865527,0.040691912,-0.80149376,0.59796894,0.0063824803,0.113278925,0.14133754,0.983459,0.58717585,0.78895915,-0.1810185,,0.08558977,-0.022937283,0.01925537,0.42139107,0.5637408,0.71037024,0.6722888,-0.7199087,0.1725092,0.60865206,0.4048801,-0.6823596,,0.07740202,1.3318886,0.45819724,0.9984699,0.027433874,-0.048013296,-0.009749821,-0.7673223,-0.64118755,-0.05443193,0.64067453,-0.7658807,,-0.06418323,0.2564313,-0.09503997,0.75346094,-0.65734684,0.013847056,0.49197575,0.57763153,0.6513844,-0.436184,-0.4839803,0.7586215,,-0.02055367,0.4182,-0.31547314,-0.5010143,-0.6187321,-0.60510767,0.8616791,-0.29153177,-0.41535327,0.08058428,-0.72950655,0.67921007,,1.15165253986873,0.3246250763680273,0.17097805842000002,1.4682489842786397,-0.3163134969569946,0.7034899745239824,-0.4153839601794721,,-1.3434388880672214,0.07122676529897265,0.20116994881000003,-2.0323149322520098,-0.09004345334542525,0.36640603942013844,0.8260309424410501,,-0.034191000046568915,-0.08751299035656068,0.07561312771999999,-0.04775451182011164,,-8.7462366e-05,-6.198883e-06,6.7949295e-06,0.99999994,7.7717006e-05,6.501004e-05,-7.771328e-05,1.0,5.5730343e-06,-6.501004e-05,-5.453825e-06,1.0,727,2.257,0,1,0.353,False,-0.2622611443645053,1.0003657429652384
2.270605420926586,09:25:26.883636,09:24:20.850426,0,,0.10612321,0.0005746335,0.0405,-0.8090128,0.5877647,0.005560234,0.11095852,0.14342272,0.9834217,0.57722294,0.79621756,-0.18124834,,0.085588485,-0.022936463,0.019256622,0.4213899,0.56368685,0.7104137,0.6722869,-0.7199228,0.17245737,0.6086548,0.40493008,-0.6823275,,0.07740202,1.3318886,0.45819724,0.9984699,0.027433874,-0.048013296,-0.009749821,-0.7673223,-0.64118755,-0.05443193,0.64067453,-0.7658807,,-0.06367125,0.25605804,-0.095146164,0.76172584,-0.6477331,0.014684599,0.48426962,0.5842592,0.65124816,-0.43041456,-0.48896122,0.7587228,,-0.02055257,0.41820157,-0.3154736,-0.5010136,-0.6186859,-0.60515547,0.8616798,-0.29150227,-0.41537252,0.08058093,-0.7295575,0.67915577,,1.1541160916556077,0.31992193204762454,0.17094694746000003,1.4516834787433621,-0.3031963929795124,0.7106814998599091,-0.4142405517165322,,-1.3434388880672214,0.07123448803184687,0.20116865252000002,-2.0323149322520098,-0.09004345334542525,0.36648771816027903,0.8258675983749159,,-0.034191000046568915,-0.08751299035656068,0.07561312771999999,-0.04775451182011164,,-8.7462366e-05,-6.198883e-06,6.7949295e-06,0.99999994,7.7717006e-05,6.501004e-05,-7.771328e-05,1.0,5.5730343e-06,-6.501004e-05,-5.453825e-06,1.0,740,2.299,0,1,0.353,False,-0.2612483231496481,0.9992552983473109
2.3065753609407693,09:25:26.922501,09:24:20.850426,0,,0.105468616,0.00015410781,0.04030174,-0.8170016,0.57657474,0.008359879,0.10921112,0.14048344,0.9840414,0.5661988,0.80487627,-0.17774361,,0.08558868,-0.022938222,0.019257516,0.42139107,0.5639148,0.7102321,0.6722888,-0.71986645,0.1726856,0.60865206,0.40471292,-0.68245876,,0.07740202,1.3318886,0.45819724,0.9984699,0.027433874,-0.048013296,-0.009749821,-0.7673223,-0.64118755,-0.05443193,0.64067453,-0.7658807,,-0.06300564,0.25563592,-0.095299214,0.77054685,-0.6372774,0.011621586,0.47635898,0.5878996,0.6538013,-0.42348513,-0.49824852,0.756577,,-0.020552902,0.4182009,-0.31547543,-0.5010143,-0.61888033,-0.60495603,0.8616791,-0.29163355,-0.41528183,0.08058428,-0.72934014,0.6793888,,1.1561317249357803,0.3166166023774564,0.17092361424000002,1.443295881003981,-0.2941783839949933,0.7215422772672908,-0.414730583914935,,-1.3434388880672214,0.07122676529897265,0.20116735623,-2.0323149322520098,-0.09004345334542525,0.36616100319971673,0.8248875339781102,,-0.034191000046568915,-0.08751299035656068,0.07561312771999999,-0.04775451182011164,,-8.7462366e-05,-6.198883e-06,6.7949295e-06,0.99999994,7.7717006e-05,6.501004e-05,-7.771328e-05,1.0,5.5730343e-06,-6.501004e-05,-5.453825e-06,1.0,749,2.327,0,1,0.353,False,-0.2608908568385213,0.9993035785480904
2.345430281944573,09:25:26.956186,09:24:20.850426,0,,0.105021,-0.00012926757,0.0401365,-0.82584655,0.56381106,0.009715334,0.1090633,0.14280024,0.98372424,0.5532472,0.81346476,-0.1794222,,0.085582815,-0.022939175,0.019257396,0.42134234,0.56388956,0.710281,0.6722392,-0.7198976,0.17274848,0.60874057,0.40469247,-0.68239194,,0.07740202,1.3318886,0.45819724,0.9984699,0.027433874,-0.048013296,-0.009749821,-0.7673223,-0.64118755,-0.05443193,0.64067453,-0.7658807,,-0.06254814,0.25533193,-0.09537826,0.7803828,-0.6252156,0.010400564,0.46852311,0.59565556,0.652442,-0.41411206,-0.5042816,0.7577673,,-0.02054708,0.4182007,-0.31547663,-0.5009789,-0.6188526,-0.6050138,0.86170924,-0.2916676,-0.41519532,0.080481775,-0.72935003,0.6793903,,1.158185971880324,0.3135275092277666,0.17091454021000002,1.4311338642818787,-0.2799681880193875,0.7268623144919594,-0.413587175451995,,-1.3434079971357247,0.07123448803184687,0.20116476365000002,-2.0323149322520098,-0.0901800898451907,0.3661907423632726,0.8247241899119759,,-0.034191000046568915,-0.08751299035656068,0.07561312771999999,-0.04775451182011164,,-8.7462366e-05,-6.198883e-06,6.7949295e-06,0.99999994,7.7717006e-05,6.501004e-05,-7.771328e-05,1.0,5.5730343e-06,-6.501004e-05,-5.453825e-06,1.0,762,2.369,0,1,0.353,False,-0.2612483231496481,0.998096573528604
2.379138726973906,09:25:26.999215,09:24:20.850426,0,,0.10448827,-0.000499472,0.039886698,-0.8390816,0.54376626,0.016131327,0.113450795,0.14591026,0.98277116,0.532044,0.82645524,-0.18412131,,0.0855752,-0.022944853,0.019257456,0.42146653,0.56359255,0.7104431,0.6720704,-0.7201021,0.17255285,0.6088408,0.4047425,-0.6822728,,0.07740202,1.3318886,0.45819724,0.9984699,0.027433874,-0.048013296,-0.009749821,-0.7673223,-0.64118755,-0.05443193,0.64067453,-0.7658807,,-0.06199965,0.2549112,-0.09545182,0.79527205,-0.606237,0.004368698,0.45924094,0.6071132,0.6484685,-0.39577785,-0.5137026,0.761229,,-0.020539578,0.4181974,-0.3154814,-0.5011168,-0.61856663,-0.6051919,0.8616454,-0.29175118,-0.41526908,0.080306165,-0.7295591,0.6791865,,1.16086576018768,0.309480797201673,0.17091324392,1.4162458782944773,-0.25482707206254646,0.7336421194187656,-0.4132604873197265,,-1.3433616607384793,0.07122676529897265,0.20115957849000002,-2.0321052423085253,-0.09031672634495613,0.3664655177472502,0.8232540933167675,,-0.034191000046568915,-0.08751299035656068,0.07561312771999999,-0.04775451182011164,,-8.7462366e-05,-6.198883e-06,6.7949295e-06,0.99999994,7.7717006e-05,6.501004e-05,-7.771328e-05,1.0,5.5730343e-06,-6.501004e-05,-5.453825e-06,1.0,771,2.397,1,2,0.378,False,-0.2602355019347904,0.9981448537293831
2.422119896975346,09:25:27.026545,09:24:21.004813,0,,0.1042631,-0.00073976815,0.039695993,-0.8465385,0.5318307,0.022988167,0.117124155,0.143958,0.9826281,0.51928246,0.834525,-0.18415627,,0.08555725,-0.02295436,0.019255191,0.4216166,0.5636115,0.71033907,0.6719165,-0.720224,0.17264345,0.6089069,0.4044991,-0.68235815,,0.07740202,1.3318886,0.45819724,0.9984699,0.027433874,-0.048013296,-0.009749821,-0.7673223,-0.64118755,-0.05443193,0.64067453,-0.7658807,,-0.06176162,0.25461483,-0.09546958,0.80373245,-0.5949857,-0.0024648595,0.4544349,0.6111857,0.6480285,-0.38406122,-0.5219616,0.7616121,,-0.02052153,0.41819075,-0.31548834,-0.5012754,-0.61855114,-0.6050764,0.86156607,-0.2920084,-0.41525295,0.08016782,-0.72946936,0.6792993,,1.1618156563312094,0.3071485318736572,0.17092491053000003,1.4086970403290346,-0.239797057088348,0.7411524051261754,-0.41195373479065234,,-1.3432612652111142,0.07122676529897265,0.20115050446000002,-2.0318955523650413,-0.09045336284472158,0.3663318994305249,0.8229274051844989,,-0.034191000046568915,-0.08751299035656068,0.07561312771999999,-0.04775451182011164,,-8.7462366e-05,-6.198883e-06,6.7949295e-06,0.99999994,7.7717006e-05,6.501004e-05,-7.771328e-05,1.0,5.5730343e-06,-6.501004e-05,-5.453825e-06,1.0,784,2.439,1,2,0.42,False,-0.25975888018662197,0.9978551725247067
2.4494943079771474,09:25:27.062787,09:24:21.004813,0,,0.104096964,-0.001058951,0.0393783,-0.8549935,0.5177417,0.03048674,0.12693435,0.15189928,0.9802114,0.5028653,0.8419441,-0.1955922,,0.08552514,-0.022971243,0.019247264,0.42180902,0.5634902,0.71032095,0.6717885,-0.7203695,0.17253435,0.60891485,0.4044089,-0.68240464,,0.07740202,1.3318886,0.45819724,0.9984699,0.027433874,-0.048013296,-0.009749821,-0.7673223,-0.64118755,-0.05443193,0.64067453,-0.7658807,,-0.061572947,0.25417486,-0.09543459,0.8135128,-0.5814765,-0.009054529,0.452157,0.62264395,0.6386459,-0.36571985,-0.5236407,0.7694475,,-0.020488696,0.4181763,-0.31549785,-0.5014675,-0.61841893,-0.60505235,0.86146116,-0.29216337,-0.41536155,0.080093324,-0.7295194,0.67925435,,1.162279020303663,0.3042370615800746,0.17097416955000003,1.4038741716288905,-0.21834512662517383,0.7389337186521223,-0.4117903907245179,,-1.343075919622133,0.07122676529897265,0.20113754156000002,-2.0316858624215564,-0.09058999934448701,0.36644331733422136,0.8232540933167675,,-0.034191000046568915,-0.08751299035656068,0.07561312771999999,-0.04775451182011164,,-8.7462366e-05,-6.198883e-06,6.7949295e-06,0.99999994,7.7717006e-05,6.501004e-05,-7.771328e-05,1.0,5.5730343e-06,-6.501004e-05,-5.453825e-06,1.0,793,2.466,1,2,0.447,False,-0.26053339052739544,0.9988690567410752
2.485732995904982,09:25:27.094898,09:24:21.004813,0,,0.1037519,-0.0016294569,0.03875412,-0.86401516,0.50188845,0.039819807,0.13862672,0.1611228,0.9771501,0.48400438,0.8497925,-0.20878771,,0.085501045,-0.022985935,0.019241124,0.42187947,0.5635418,0.7102382,0.671833,-0.7203388,0.17248935,0.608817,0.40439177,-0.6825021,,0.07740202,1.3318886,0.45819724,0.9984699,0.027433874,-0.048013296,-0.009749821,-0.7673223,-0.64118755,-0.05443193,0.64067453,-0.7658807,,-0.061183285,0.2533553,-0.095331565,0.82406175,-0.5662346,-0.017338373,0.44983715,0.6354476,0.627577,-0.3443382,-0.52496165,0.77836144,,-0.020464024,0.4181638,-0.31550625,-0.50152314,-0.6184674,-0.60495675,0.8614188,-0.29215816,-0.4154531,0.080201134,-0.72948045,0.6792835,,1.162448920426896,0.2988002576366205,0.17114916870000002,1.398841612985262,-0.1936139201676291,0.7382882969766644,-0.4126071110551894,,-1.342936910430397,0.07121904256609843,0.20112717124,-2.0316858624215564,-0.09058999934448701,0.3664433173342213,0.8239074695813046,,-0.034191000046568915,-0.08751299035656068,0.07561312771999999,-0.04775451182011164,,-8.7462366e-05,-6.198883e-06,6.7949295e-06,0.99999994,7.7717006e-05,6.501004e-05,-7.771328e-05,1.0,5.5730343e-06,-6.501004e-05,-5.453825e-06,1.0,806,2.508,1,2,0.489,False,-0.2608908568385213,0.999158737945752
2.5178369398927316,09:25:27.132591,09:24:21.129680,0,,0.10345041,-0.0021439344,0.03821382,-0.8703016,0.49025756,0.047143634,0.14816019,0.16931733,0.97436154,0.46970582,0.854973,-0.2199938,,0.085477926,-0.022996455,0.01923588,0.42220676,0.56330717,0.7102299,0.67155904,-0.72063047,0.17233792,0.60889226,0.404199,-0.68254906,,0.07740202,1.3318886,0.45819724,0.9984699,0.027433874,-0.048013296,-0.009749821,-0.7673223,-0.64118755,-0.05443193,0.64067453,-0.7658807,,-0.060843322,0.25262994,-0.09525551,0.8315118,-0.5549981,-0.023774188,0.44857454,0.64558995,0.6180571,-0.32767212,-0.5245862,0.7857737,,-0.020440442,0.41815487,-0.31551227,-0.501859,-0.6182089,-0.6049424,0.86124265,-0.2924778,-0.41559336,0.079991296,-0.72957146,0.6792105,,1.1624257522282733,0.2940044405217271,0.17130083463,1.3959059537764786,-0.1746214467002329,0.7370949878874602,-0.41309714325359215,,-1.3428056239715351,0.07122676529897265,0.20111809721,-2.0312664825345874,-0.09072663584425246,0.3665547352379177,0.8239074695813046,,-0.034191000046568915,-0.08751299035656068,0.07561312771999999,-0.04775451182011164,,-8.7462366e-05,-6.198883e-06,6.7949295e-06,0.99999994,7.7717006e-05,6.501004e-05,-7.771328e-05,1.0,5.5730343e-06,-6.501004e-05,-5.453825e-06,1.0,815,2.536,1,2,0.517,False,-0.2602355019347904,0.9993518587488699
2.5555187619756907,09:25:27.163414,09:24:21.129680,0,,0.103066325,-0.0027240962,0.037648425,-0.8747604,0.48150885,0.05425243,0.1565656,0.17491055,0.9720563,0.45856434,0.85881037,-0.22839257,,0.08545774,-0.02300869,0.019228071,0.4222695,0.5633525,0.7101566,0.67159873,-0.7206032,0.17229718,0.60880506,0.40418437,-0.68263555,,0.07740202,1.3318886,0.45819724,0.9984699,0.027433874,-0.048013296,-0.009749821,-0.7673223,-0.64118755,-0.05443193,0.64067453,-0.7658807,,-0.060419455,0.25184143,-0.09520664,0.8368846,-0.54654485,-0.03021368,0.4483311,0.65273774,0.61068213,-0.31404355,-0.5246162,0.7912992,,-0.020419404,0.41814265,-0.3155174,-0.5019085,-0.61825156,-0.60485774,0.8612049,-0.29247266,-0.41567522,0.08008752,-0.7295373,0.6792358,,1.162418029495399,0.28860625024264414,0.17145898201,1.394438124172087,-0.15904488572697267,0.7384420901702449,-0.4140772076503979,,-1.3426820602455474,0.07121904256609843,0.20111161576000003,-2.0312664825345874,-0.09072663584425246,0.36655473523791776,0.8242341577135731,,-0.034191000046568915,-0.08751299035656068,0.07561312771999999,-0.04775451182011164,,-8.7462366e-05,-6.198883e-06,6.7949295e-06,0.99999994,7.7717006e-05,6.501004e-05,-7.771328e-05,1.0,5.5730343e-06,-6.501004e-05,-5.453825e-06,1.0,824,2.565,1,2,0.546,False,-0.2613079008681689,0.9995932597527672
2.586358803906478,09:25:27.191815,09:24:21.129680,0,,0.102642104,-0.0032842904,0.037153274,-0.87763524,0.47606894,0.055807948,0.16029397,0.18177077,0.97018826,0.45173222,0.860417,-0.23583946,,0.085453235,-0.023011237,0.019227833,0.42228106,0.5634198,0.71009636,0.6716059,-0.720584,0.17234969,0.60878915,0.40412486,-0.68268496,,0.07740202,1.3318886,0.45819724,0.9984699,0.027433874,-0.048013296,-0.009749821,-0.7673223,-0.64118755,-0.05443193,0.64067453,-0.7658807,,-0.059960973,0.25111428,-0.09520229,0.8403109,-0.54120684,-0.031189507,0.4470787,0.6593252,0.6044923,-0.30659133,-0.5219056,0.7960002,,-0.020414917,0.41814107,-0.31551945,-0.5019176,-0.6183096,-0.6047908,0.86119795,-0.29250646,-0.4156658,0.08010494,-0.7294746,0.6793011,,1.1624952568241411,0.2834165737511653,0.17159249988000003,1.3921315347937573,-0.14989024024268818,0.7378381047943918,-0.41603733644400914,,-1.342658892046925,0.07121904256609843,0.20110902318,-2.0312664825345874,-0.09072663584425246,0.36647305649777717,0.8243975017797074,,-0.034191000046568915,-0.08751299035656068,0.07561312771999999,-0.04775451182011164,,-8.7462366e-05,-6.198883e-06,6.7949295e-06,0.99999994,7.7717006e-05,6.501004e-05,-7.771328e-05,1.0,5.5730343e-06,-6.501004e-05,-5.453825e-06,1.0,837,2.606,1,2,0.588,False,-0.26154621174225356,0.9993035785480904
2.6147688679629937,09:25:27.232463,09:24:21.129680,0,,0.10204173,-0.003947556,0.03661327,-0.87955016,0.47282848,0.053146705,0.15961383,0.18798155,0.96911633,0.44823515,0.8608693,-0.24080917,,0.08544941,-0.023014486,0.019235402,0.42228106,0.5633619,0.7101424,0.6716059,-0.7205981,0.17229083,0.60878915,0.40418065,-0.682652,,0.07740202,1.3318886,0.45819724,0.9984699,0.027433874,-0.048013296,-0.009749821,-0.7673223,-0.64118755,-0.05443193,0.64067453,-0.7658807,,-0.05932399,0.25028673,-0.09523937,0.8424909,-0.5379744,-0.028151892,0.4444437,0.6645855,0.60066295,-0.30443195,-0.518565,0.7990066,,-0.020412229,0.41814435,-0.3155275,-0.5019176,-0.6182602,-0.60484135,0.86119795,-0.2924725,-0.4156897,0.08010494,-0.7295301,0.67924154,,1.1628505025363556,0.277145714657295,0.17174286952,1.3881474258675512,-0.14565450874995953,0.7387131230072526,-0.4155473042456065,,-1.342658892046925,0.07121904256609843,0.20109994915,-2.0312664825345874,-0.09072663584425246,0.36655473523791776,0.8245608458458417,,-0.034191000046568915,-0.08751299035656068,0.07561312771999999,-0.04775451182011164,,-8.7462366e-05,-6.198883e-06,6.7949295e-06,0.99999994,7.7717006e-05,6.501004e-05,-7.771328e-05,1.0,5.5730343e-06,-6.501004e-05,-5.453825e-06,1.0,846,2.634,1,2,0.615,False,-0.26095043455704303,0.9999795013590027
2.6554186379071325,09:25:27.263555,09:24:21.129680,0,,0.10167764,-0.004257947,0.03638409,-0.8799699,0.47252032,0.04875867,0.15777764,0.1939157,0.9682474,0.44806144,0.85972154,-0.24519303,,0.085448965,-0.023015678,0.019242436,0.42227334,0.5632976,0.7101978,0.6716011,-0.7206156,0.17223623,0.6087997,0.40423894,-0.682608,,0.07740202,1.3318886,0.45819724,0.9984699,0.027433874,-0.048013296,-0.009749821,-0.7673223,-0.64118755,-0.05443193,0.64067453,-0.7658807,,-0.058944877,0.24991792,-0.095280394,0.8429119,-0.5375409,-0.02343775,0.4429251,0.6684966,0.59743595,-0.3054782,-0.51396704,0.80157405,,-0.020412788,0.41814837,-0.31553337,-0.5019115,-0.6182051,-0.60490274,0.8612026,-0.29243866,-0.41570392,0.080093324,-0.7295904,0.6791781,,1.163414262036174,0.27401800784323405,0.17181157289,1.3858408364892214,-0.14538123575042863,0.7359582462555023,-0.4153839601794721,,-1.3426743375126733,0.07121904256609843,0.20109346770000003,-2.0312664825345874,-0.09072663584425246,0.36663641397805835,0.8257042543087817,,-0.034191000046568915,-0.08751299035656068,0.07561312771999999,-0.04775451182011164,,-8.7462366e-05,-6.198883e-06,6.7949295e-06,0.99999994,7.7717006e-05,6.501004e-05,-7.771328e-05,1.0,5.5730343e-06,-6.501004e-05,-5.453825e-06,1.0,859,2.676,1,2,0.657,False,-0.261427056305211,1.0000277815597822
