AlexandreBanks6/ExpertPlaybackApp/resources/Motions/P_10/PC1/Data_PC1_3.csv
Task Time,PC1 Time,PC2 Time,Gaze Calib,s_T_psm1,Tx,Ty,Tz,R00,R01,R02,R10,R11,R12,R20,R21,R22,s_T_psm3,Tx,Ty,Tz,R00,R01,R02,R10,R11,R12,R20,R21,R22,cart_T_ecm,Tx,Ty,Tz,R00,R01,R02,R10,R11,R12,R20,R21,R22,ecm_T_psm1,Tx,Ty,Tz,R00,R01,R02,R10,R11,R12,R20,R21,R22,ecm_T_psm3,Tx,Ty,Tz,R00,R01,R02,R10,R11,R12,R20,R21,R22,psm1_joints,q1,q2,q3,q4,q5,q6,jaw,psm3_joints,q1,q2,q3,q4,q5,q6,jaw,ecm_joints,q1,q2,q3,q4,ecmi_T_ecm,Tx,Ty,Tz,R00,R01,R02,R10,R11,R12,R20,R21,R22,Sample #,Task Duration (s),Collisions (binary),Collisions (increments),Cumulative Collision Time (s),Clutch Press,MTMR Angle,MTML Angle
""
lci_T_si,,,,,-0.061405014,0.027400337,0.2485284,0.99760735,0.0015516733,0.06911746,0.046116903,-0.7597547,-0.64857227,0.051505942,0.65020794,-0.7580084
rci_T_si,,,,,-0.072011076,0.03243643,0.2623404,0.9976547,-0.011777193,0.067427725,0.035187066,-0.75671625,-0.6527958,0.058711756,0.65363735,-0.7545271
ecm_T_lc,,,,,-4.4061628e-05,-0.00034663224,-0.01840835,-0.99912,0.030754527,0.028518902,-0.031987965,-0.99852574,-0.043852776,0.027128186,-0.04472645,0.9986309
ecm_T_rc,,,,,-0.0043358393,0.01870579,-0.007592615,-0.99555075,-0.052743673,-0.078081585,0.04863213,-0.9973746,0.053654674,-0.08070653,0.04961868,0.9955021
cart_T_ecmi,,,,,0.07748984,1.3318874,0.4582016,0.9984689,0.027356012,-0.04807836,-0.00985114,-0.76732504,-0.64118266,-0.05443193,0.64067453,-0.7658807
ecmac_T_ecmrep_psm1,,,,,0.0028397094,-0.24236576,-0.3123762,0.99938005,0.032352094,0.013886033,-0.031258944,0.9968569,-0.072795466,-0.016197473,0.07231628,0.9972502
ecmac_T_ecmrep_psm3,,,,,-0.018767226,-0.44603547,-0.53896165,0.9994355,-0.013331066,-0.030837692,0.013906483,0.9997318,0.01852092,0.030582517,-0.018939309,0.9993528
""
0,09:26:29.211440,09:25:23.205815,0,,0.12829854,0.0024735928,0.030426651,0.79232174,0.33668518,-0.508792,0.4255727,0.2925627,0.85632646,0.43716592,-0.895014,0.08851963,,0.070588276,-0.029085152,0.01834935,-0.41772023,-0.0060700253,0.9085554,0.84837854,-0.3605351,0.38764447,0.32521296,0.93272597,0.15575239,,0.07755543,1.331891,0.4581895,0.9984681,0.027294546,-0.04812972,-0.00993112,-0.76732725,-0.6411788,-0.05443193,0.64067453,-0.7658807,,-0.08510159,0.25024363,-0.08469084,-0.82160276,-0.26335615,0.5055813,0.5697117,-0.34831133,0.7443842,-0.01993847,0.8996237,0.43621063,,-0.005735517,0.41460854,-0.32069072,0.3708261,-0.12852983,-0.91976523,0.8732547,0.38534075,0.29822594,0.31609207,-0.9137793,0.2551337,,1.0373715387959557,0.3640805186224403,0.17844598511,3.5204844611616797,-0.11491129630273542,-1.1333572561229759,-0.4095035737986379,,-1.2701424303579567,0.0764396099890742,0.19393924319000003,-2.9910173538632554,-0.15139324174010801,1.2379574465136067,0.6829415405074215,,-0.03421717998534883,-0.08751299035656068,0.07561312771999999,-0.04775451182011164,,6.6109e-05,-8.702278e-06,3.8146973e-06,0.99999994,-6.134808e-05,-5.13196e-05,6.1351806e-05,0.99999994,-4.351139e-06,5.13196e-05,4.3809414e-06,1.0,37,0.111,0,0,0.0,False,-0.2608312791200009,0.8556217010284217
0.12203455506823957,09:26:29.239500,09:25:23.205815,0,,0.12819132,0.0025123507,0.030874476,0.7829454,0.3567161,-0.50965667,0.4182812,0.30455774,0.85573673,0.4604749,-0.883175,0.089244336,,0.0705034,-0.029216982,0.018400252,-0.41616365,-0.005205326,0.90927476,0.84800303,-0.36312914,0.38604155,0.3281746,0.9317243,0.15553522,,0.07755543,1.331891,0.4581895,0.9984681,0.027294546,-0.04812972,-0.00993112,-0.76732725,-0.6411788,-0.05443193,0.64067453,-0.7658807,,-0.08502973,0.2505592,-0.08502064,-0.814136,-0.28418157,0.50638264,0.57906497,-0.33245352,0.7444182,-0.043201216,0.8992861,0.43522197,,-0.005659352,0.4145572,-0.32082763,0.36886162,-0.12925433,-0.92045337,0.8748787,0.3827053,0.2968568,0.31389236,-0.91478413,0.25424713,,1.0396034085966066,0.36408824135531453,0.17815561615000003,3.5076933746091234,-0.13909595676121836,-1.1310338588186493,-0.4103202941293096,,-1.2701424303579567,0.07589901868787848,0.19384979918000003,-2.988501074541441,-0.1541259717354168,1.2378171211234588,0.6817981320444815,,-0.03421717998534883,-0.08751299035656068,0.07561312771999999,-0.04775451182011164,,6.6109e-05,-8.702278e-06,3.8146973e-06,0.99999994,-6.134808e-05,-5.13196e-05,6.1351806e-05,0.99999994,-4.351139e-06,5.13196e-05,4.3809414e-06,1.0,44,0.132,0,0,0.0,False,-0.2611887454311268,0.8550906188198479
0.1501173609867692,09:26:29.270764,09:25:23.205815,0,,0.12811576,0.0026450902,0.03127885,0.77379215,0.37837565,-0.5080132,0.41038534,0.31146577,0.85707223,0.48252395,-0.87167704,0.08572975,,0.07054258,-0.029271178,0.018525809,-0.41654846,0.0006598234,0.90911317,0.8456738,-0.36672586,0.3877472,0.333651,0.93032885,0.15220101,,0.077487655,1.3318859,0.4582017,0.9984689,0.027355853,-0.04807849,-0.009851345,-0.76732504,-0.64118266,-0.05443193,0.64067453,-0.7658807,,-0.084928095,0.25090468,-0.08525607,-0.8068288,-0.30666164,0.5049613,0.5870994,-0.32086244,0.7432103,-0.06589097,0.896106,0.43892193,,-0.0056569315,0.41459244,-0.32094598,0.36838216,-0.13485274,-0.919842,0.8770436,0.37859362,0.29573864,0.30836517,-0.9156864,0.25773886,,1.0418043874657605,0.3641191322868114,0.17793265427000002,3.4957410478305055,-0.1631439807199359,-1.1232677250884606,-0.4075434450050268,,-1.2701655985565794,0.07546654564692191,0.19373831824,-2.9868235549935647,-0.16027461422486164,1.2337645866341953,0.6806547235815417,,-0.03421717998534883,-0.08751299035656068,0.07561312771999999,-0.04775451182011164,,-2.1755695e-06,1.0728836e-06,9.536743e-07,0.99999994,-1.5646219e-07,-1.3038516e-07,1.6018748e-07,0.99999994,2.9802322e-08,1.3411045e-07,2.9802322e-08,1.0,52,0.157,0,0,0.0,False,-0.26095043455704303,0.8564424644416726
0.18138201406691223,09:26:29.284636,09:25:23.205815,0,,0.1280082,0.002741605,0.031529352,0.76694053,0.39034668,-0.5093443,0.40716633,0.31748524,0.8563985,0.49600157,-0.8641947,0.08455616,,0.070530884,-0.029280253,0.0186086,-0.41578972,0.0047464073,0.9094484,0.8434128,-0.3721113,0.387541,0.34025532,0.9281759,0.1507168,,0.077487655,1.3318859,0.4582017,0.9984689,0.027355853,-0.04807849,-0.009851345,-0.76732504,-0.64118266,-0.05443193,0.64067453,-0.7658807,,-0.08484,0.25114155,-0.08539665,-0.8010793,-0.31914717,0.50637645,0.5933475,-0.312025,0.7420102,-0.07880833,0.89486617,0.43932194,,-0.005657196,0.4146442,-0.32101232,0.36667994,-0.13861391,-0.91996306,0.87990427,0.37285107,0.29453453,0.3021826,-0.9174793,0.25868398,,1.043225370314618,0.3642195278141763,0.17780950672,3.486724380260671,-0.1759878116978873,-1.1203088862339288,-0.41048363819544353,,-1.2702351031524473,0.07520397272919828,0.19366831858000003,-2.9836782058412967,-0.16683316621360278,1.2318432381391133,0.6811447557799444,,-0.03421717998534883,-0.08751299035656068,0.07561312771999999,-0.04775451182011164,,-2.1755695e-06,1.0728836e-06,9.536743e-07,0.99999994,-1.5646219e-07,-1.3038516e-07,1.6018748e-07,0.99999994,2.9802322e-08,1.3411045e-07,2.9802322e-08,1.0,60,0.181,0,0,0.0,False,-0.26255903295711036,0.8580357110673948
0.19524482905399054,09:26:29.311686,09:25:23.205815,0,,0.12794754,0.002869323,0.0317702,0.7600304,0.40511972,-0.50816494,0.40138504,0.32234937,0.8573102,0.51111984,-0.8555517,0.082386225,,0.07052169,-0.029286928,0.018706292,-0.4163583,0.010770462,0.9091368,0.8406198,-0.37642485,0.389439,0.34641594,0.92638457,0.1476737,,0.077487655,1.3318859,0.4582017,0.9984689,0.027355853,-0.04807849,-0.009851345,-0.76732504,-0.64118266,-0.05443193,0.64067453,-0.7658807,,-0.08479771,0.25139457,-0.08550707,-0.7954164,-0.33452442,0.5053772,0.59863293,-0.3034843,0.74130684,-0.0946112,0.8921831,0.44165373,,-0.0056620464,0.4147077,-0.32108724,0.3663525,-0.14433967,-0.91921264,0.8822049,0.36794055,0.29382706,0.2958047,-0.91857815,0.2621331,,1.044569125834733,0.3644280416017804,0.17771358126000003,3.47833678252129,-0.19211091867020927,-1.115002732651245,-0.4068900687404897,,-1.270366389611309,0.07494139981147464,0.19358794860000003,-2.982000686293421,-0.1736649912018748,1.2278577207274886,0.6822881642428846,,-0.03421717998534883,-0.08751299035656068,0.07561312771999999,-0.04775451182011164,,-2.1755695e-06,1.0728836e-06,9.536743e-07,0.99999994,-1.5646219e-07,-1.3038516e-07,1.6018748e-07,0.99999994,2.9802322e-08,1.3411045e-07,2.9802322e-08,1.0,71,0.214,0,0,0.0,False,-0.26255903295711036,0.8573115080557026
0.22230156406294554,09:26:29.352841,09:25:23.305861,0,,0.12784079,0.003151238,0.032257482,0.74404055,0.43103138,-0.5105051,0.39138705,0.3380744,0.8558749,0.54149765,-0.83661073,0.0828408,,0.07052728,-0.029389106,0.018952936,-0.4133809,0.022186711,0.9102878,0.8390549,-0.3790453,0.39027107,0.35369903,0.9251121,0.13807417,,0.077487655,1.3318859,0.4582017,0.9984689,0.027355853,-0.04807849,-0.009851345,-0.76732504,-0.64118266,-0.05443193,0.64067453,-0.7658807,,-0.0847279,0.25192404,-0.08571468,-0.7819292,-0.36174923,0.50766546,0.61060655,-0.2805379,0.7405796,-0.12548472,0.88906467,0.4402472,,-0.0057031787,0.41480398,-0.3213329,0.36236057,-0.15546915,-0.91897994,0.8858198,0.36408398,0.2876911,0.2898588,-0.91829854,0.26964733,,1.0471716868133467,0.36504586023171837,0.17753858211,3.4588356177772295,-0.22340067711649514,-1.1105611476610295,-0.4068900687404897,,-1.2707139125906493,0.07432358118153669,0.19335072753000002,-2.976339057819339,-0.1800869066908505,1.2172486866139516,0.6829415405074216,,-0.03421717998534883,-0.08751299035656068,0.07561312771999999,-0.04775451182011164,,-2.1755695e-06,1.0728836e-06,9.536743e-07,0.99999994,-1.5646219e-07,-1.3038516e-07,1.6018748e-07,0.99999994,2.9802322e-08,1.3411045e-07,2.9802322e-08,1.0,79,0.239,0,0,0.0,False,-0.26190367805337944,0.8554285802253037
0.263456033077091,09:26:29.375507,09:25:23.305861,0,,0.12777077,0.0032813102,0.03244084,0.73751503,0.4387226,-0.5134139,0.3898428,0.3442033,0.8541349,0.55144703,-0.83008814,0.082822144,,0.07054607,-0.029461972,0.019063741,-0.41214547,0.023478158,0.9108154,0.8394491,-0.37884468,0.3896176,0.35420495,0.92516243,0.13643034,,0.077487655,1.3318859,0.4582017,0.9984689,0.027355853,-0.04807849,-0.009851345,-0.76732504,-0.64118266,-0.05443193,0.64067453,-0.7658807,,-0.084671736,0.25214326,-0.08577968,-0.7762168,-0.36989212,0.51055586,0.6159319,-0.27202564,0.73934424,-0.13459332,0.88835907,0.43897924,,-0.0057378933,0.41482636,-0.32146034,0.36106735,-0.15675372,-0.9192707,0.8863328,0.36413836,0.28603742,0.28990433,-0.9180586,0.27041444,,1.0482992058129834,0.3654088286768069,0.17748413793,3.450238330094364,-0.23255532260077963,-1.1094670898443333,-0.4101569500631752,,-1.2709147036453792,0.07400694913369348,0.19323665401,-2.974871228214947,-0.18022354319061595,1.2154814934944151,0.68212482017675,,-0.03421717998534883,-0.08751299035656068,0.07561312771999999,-0.04775451182011164,,-2.1755695e-06,1.0728836e-06,9.536743e-07,0.99999994,-1.5646219e-07,-1.3038516e-07,1.6018748e-07,0.99999994,2.9802322e-08,1.3411045e-07,2.9802322e-08,1.0,91,0.275,0,0,0.0,False,-0.26196325577190027,0.8543664158081556
0.28612514899577945,09:26:29.406523,09:25:23.305861,0,,0.12768646,0.0035453886,0.032767534,0.72657484,0.45771497,-0.51243126,0.3817097,0.3512268,0.85494864,0.57130235,-0.8167843,0.08047819,,0.07062389,-0.029636405,0.019306391,-0.4043576,0.025270008,0.9142517,0.8426248,-0.37840354,0.38313738,0.3556379,0.9252957,0.13171718,,0.077487655,1.3318859,0.4582017,0.9984689,0.027355853,-0.04807849,-0.009851345,-0.76732504,-0.64118266,-0.05443193,0.64067453,-0.7658807,,-0.08461177,0.25255722,-0.085872546,-0.7669237,-0.38982907,0.50976586,0.6225364,-0.25907248,0.7384645,-0.15580861,0.8836938,0.44137165,,-0.005850253,0.41486108,-0.32174584,0.35316858,-0.15854435,-0.922028,0.88885057,0.36437443,0.27780566,0.2919189,-0.9176573,0.26960784,,1.050276225428785,0.3660729837039902,0.17741932343000003,3.437656933485292,-0.25387061656418836,-1.1020507031648399,-0.41048363819544376,,-1.2714552949465747,0.07326556677776792,0.19299165520000003,-2.9664836304755657,-0.17817399569413436,1.211523220215033,0.6811447557799445,,-0.03421717998534883,-0.08751299035656068,0.07561312771999999,-0.04775451182011164,,-2.1755695e-06,1.0728836e-06,9.536743e-07,0.99999994,-1.5646219e-07,-1.3038516e-07,1.6018748e-07,0.99999994,2.9802322e-08,1.3411045e-07,2.9802322e-08,1.0,98,0.296,0,0,0.0,False,-0.2629164992682367,0.849876357135666
0.31710203806869686,09:26:29.426226,09:25:23.305861,0,,0.1276656,0.0036678314,0.03291148,0.7193624,0.46673754,-0.5144645,0.37803385,0.3582928,0.8536489,0.5827589,-0.808568,0.08129966,,0.070659965,-0.029707469,0.019422978,-0.39895093,0.028255738,0.91653675,0.8439187,-0.37963894,0.3790455,0.3586632,0.9247031,0.1276117,,0.077487655,1.3318859,0.4582017,0.9984689,0.027355853,-0.04807849,-0.009851345,-0.76732504,-0.64118266,-0.05443193,0.64067453,-0.7658807,,-0.08460155,0.25274363,-0.085908584,-0.7606582,-0.3994267,0.51172006,0.6271786,-0.24882919,0.7380589,-0.16746955,0.88235044,0.43978584,,-0.0059028836,0.414887,-0.32187432,0.34739152,-0.16142042,-0.92372215,0.89134574,0.36279196,0.27181756,0.29124203,-0.9177829,0.26991224,,1.0510639441819558,0.36631238842309116,0.17740117537000002,3.429269335745911,-0.2656213555440162,-1.1012900673821284,-0.4101569500631752,,-1.27170242239855,0.07290259833267937,0.19288017426,-2.959983242227546,-0.1787205416931961,1.2078849548227906,0.6791846269863332,,-0.03421717998534883,-0.08751299035656068,0.07561312771999999,-0.04775451182011164,,-2.1755695e-06,1.0728836e-06,9.536743e-07,0.99999994,-1.5646219e-07,-1.3038516e-07,1.6018748e-07,0.99999994,2.9802322e-08,1.3411045e-07,2.9802322e-08,1.0,106,0.321,0,0,0.0,False,-0.262797343831195,0.8479451491044876
0.33684404101222754,09:26:29.456959,09:25:23.438767,0,,0.1276327,0.0037976503,0.033082604,0.71220994,0.47785905,-0.51420575,0.37199575,0.36427808,0.85376835,0.59529483,-0.7993448,0.081680775,,0.07070324,-0.029745318,0.019585222,-0.39227903,0.033944055,0.9192197,0.8424958,-0.3878532,0.3738592,0.36921254,0.92109585,0.123548895,,0.077487655,1.3318859,0.4582017,0.9984689,0.027355853,-0.04807849,-0.009851345,-0.76732504,-0.64118266,-0.05443193,0.64067453,-0.7658807,,-0.084581435,0.25295332,-0.08596184,-0.75455207,-0.41120258,0.5114329,0.6306568,-0.23888947,0.7383792,-0.1814475,0.8796842,0.43958223,,-0.0059690047,0.41496763,-0.3220113,0.33927786,-0.16657187,-0.9258209,0.8969603,0.35386217,0.2650354,0.28346556,-0.92034525,0.26946595,,1.0520447312569823,0.3665054567449468,0.17737265699000002,3.421510807836984,-0.2799681880193875,-1.098575848909466,-0.4070534128066239,,-1.2720653908436386,0.07236972976435788,0.19275443413,-2.9494987450533197,-0.1865088221798262,1.2038625753356351,0.6764077778620506,,-0.03421717998534883,-0.08751299035656068,0.07561312771999999,-0.04775451182011164,,-2.1755695e-06,1.0728836e-06,9.536743e-07,0.99999994,-1.5646219e-07,-1.3038516e-07,1.6018748e-07,0.99999994,2.9802322e-08,1.3411045e-07,2.9802322e-08,1.0,114,0.344,0,0,0.0,False,-0.26285692154971585,0.8456759796678535
0.3675702080363408,09:26:29.482248,09:25:23.438767,0,,0.12758964,0.003840208,0.033148527,0.7091813,0.48178282,-0.51473004,0.3711288,0.36563736,0.8535646,0.5994373,-0.7963633,0.08049956,,0.07072594,-0.029767968,0.019690543,-0.38840458,0.041448712,0.92055625,0.84081006,-0.39283895,0.37244564,0.37706763,0.9186727,0.1177299,,0.077487655,1.3318859,0.4582017,0.9984689,0.027355853,-0.04807849,-0.009851345,-0.76732504,-0.64118266,-0.05443193,0.64067453,-0.7658807,,-0.08454344,0.25302967,-0.08598901,-0.7518643,-0.41534042,0.51204723,0.6327137,-0.23613882,0.7375038,-0.18540092,0.8784821,0.4403359,,-0.0060065896,0.41502187,-0.32209942,0.334316,-0.17367592,-0.92632043,0.90079695,0.34789097,0.25987825,0.27712393,-0.92130804,0.27275226,,1.0525080952294357,0.3665209022106952,0.17735450893000002,3.417946078797747,-0.28393064651258526,-1.0965699108043783,-0.4099936059970408,,-1.2722661818983685,0.07198359312064666,0.19267406415000002,-2.942788666861815,-0.1929307376688019,1.1975825144495476,0.6742843050023049,,-0.03421717998534883,-0.08751299035656068,0.07561312771999999,-0.04775451182011164,,-2.1755695e-06,1.0728836e-06,9.536743e-07,0.99999994,-1.5646219e-07,-1.3038516e-07,1.6018748e-07,0.99999994,2.9802322e-08,1.3411045e-07,2.9802322e-08,1.0,122,0.369,0,0,0.0,False,-0.26273776611267374,0.8448069360538231
0.39286131400149316,09:26:29.504494,09:25:23.438767,0,,0.1275673,0.0039006025,0.033259436,0.7034631,0.49261647,-0.5123168,0.3671443,0.36533657,0.85541457,0.60855937,-0.7898469,0.07613933,,0.070780665,-0.02982255,0.019795746,-0.38123506,0.050394446,0.9231035,0.8398757,-0.39841348,0.3686129,0.38635284,0.9158204,0.10956408,,0.077487655,1.3318859,0.4582017,0.9984689,0.027355853,-0.04807849,-0.009851345,-0.76732504,-0.64118266,-0.05443193,0.64067453,-0.7658807,,-0.08452952,0.25314716,-0.08603851,-0.7469066,-0.42665502,0.5099962,0.63558596,-0.23277298,0.7361027,-0.19534859,0.87394637,0.4450356,,-0.0060759787,0.41505,-0.32220632,0.32589215,-0.18214773,-0.9276942,0.905842,0.34106272,0.25124982,0.27063733,-0.9222247,0.2761467,,1.0530641319963798,0.36649001127919834,0.17732599055,3.4118650704366957,-0.2941783839949933,-1.0891120341686928,-0.4098302619309069,,-1.2724978638845952,0.07137349722358292,0.19259499046000003,-2.9323041696875887,-0.19935265315777762,1.1893421638000867,0.6721608321425593,,-0.03421717998534883,-0.08751299035656068,0.07561312771999999,-0.04775451182011164,,-2.1755695e-06,1.0728836e-06,9.536743e-07,0.99999994,-1.5646219e-07,-1.3038516e-07,1.6018748e-07,0.99999994,2.9802322e-08,1.3411045e-07,2.9802322e-08,1.0,130,0.394,0,0,0.0,False,-0.26178452261633733,0.8440827330421312
0.4150710670510307,09:26:29.527000,09:25:23.438767,0,,0.12754111,0.003918931,0.03332016,0.7003392,0.49460584,-0.5146744,0.36697313,0.36896184,0.8539307,0.6122544,-0.786913,0.0768913,,0.070819825,-0.029897697,0.019836932,-0.37854353,0.05422589,0.92399365,0.8402366,-0.3985695,0.3676204,0.38821012,0.91553366,0.10531326,,0.077487655,1.3318859,0.4582017,0.9984689,0.027355853,-0.04807849,-0.009851345,-0.76732504,-0.64118266,-0.05443193,0.64067453,-0.7658807,,-0.08450808,0.25320065,-0.08607577,-0.74408436,-0.42884678,0.51227814,0.63790804,-0.22820279,0.7355249,-0.19852418,0.87407887,0.44336691,,-0.006120944,0.41502073,-0.3222838,0.32296497,-0.1858998,-0.92797357,0.9071232,0.34038433,0.2475196,0.26985383,-0.9217265,0.27856624,,1.0533575958456005,0.3664822885463241,0.17729617588000002,3.4078809615104895,-0.29745765998936385,-1.0900318690461634,-0.40983026193090666,,-1.2725750912133373,0.07091013325112945,0.19254962031000003,-2.9289491305918363,-0.20030910865613571,1.1850580072372467,0.6708540796134849,,-0.03421717998534883,-0.08751299035656068,0.07561312771999999,-0.04775451182011164,,-2.1755695e-06,1.0728836e-06,9.536743e-07,0.99999994,-1.5646219e-07,-1.3038516e-07,1.6018748e-07,0.99999994,2.9802322e-08,1.3411045e-07,2.9802322e-08,1.0,138,0.418,0,0,0.0,False,-0.2612483231496481,0.8438896122390136
0.4376161739928648,09:26:29.556907,09:25:23.438767,0,,0.12750751,0.003932759,0.033421695,0.6976715,0.49740914,-0.51559526,0.36576262,0.37151837,0.85334146,0.61601293,-0.7839376,0.07726401,,0.07086469,-0.030009978,0.01988545,-0.37659276,0.05495423,0.92474747,0.8395836,-0.40162897,0.36577803,0.3915063,0.91415215,0.10511188,,0.077487655,1.3318859,0.4582017,0.9984689,0.027355853,-0.04807849,-0.009851345,-0.76732504,-0.64118266,-0.05443193,0.64067453,-0.7658807,,-0.08448249,0.25327653,-0.086147994,-0.74172825,-0.43185976,0.5131631,0.6394409,-0.22447443,0.73534113,-0.20237225,0.8735607,0.4426478,,-0.00617275,0.4149693,-0.3223917,0.32056144,-0.18643698,-0.9286989,0.9087409,0.3371659,0.24598618,0.2672647,-0.9228003,0.27750528,,1.0537823461536828,0.3665209022106952,0.17723265767000002,3.4047356123582215,-0.3014201184825616,-1.0897411844840277,-0.40917688566636956,,-1.27259825941196,0.07016102816232966,0.19249128726000003,-2.9258037814395683,-0.20345174815074082,1.1848435418574854,0.669874015216679,,-0.03421717998534883,-0.08751299035656068,0.07561312771999999,-0.04775451182011164,,-2.1755695e-06,1.0728836e-06,9.536743e-07,0.99999994,-1.5646219e-07,-1.3038516e-07,1.6018748e-07,0.99999994,2.9802322e-08,1.3411045e-07,2.9802322e-08,1.0,149,0.452,0,0,0.0,False,-0.2617249448978165,0.8420549646093938
0.4675246609840542,09:26:29.584924,09:25:23.438767,0,,0.12748322,0.003948584,0.033493593,0.6957428,0.5003505,-0.51535535,0.36496922,0.37170464,0.8536,0.6186591,-0.78197503,0.07599819,,0.07089722,-0.030095048,0.019900233,-0.37629363,0.056879982,0.9247528,0.8398527,-0.40051442,0.3663817,0.39121646,0.9145233,0.10294016,,0.077487655,1.3318859,0.4582017,0.9984689,0.027355853,-0.04807849,-0.009851345,-0.76732504,-0.64118266,-0.05443193,0.64067453,-0.7658807,,-0.08446384,0.253335,-0.086195365,-0.7400188,-0.43494523,0.51302516,0.64056814,-0.22323102,0.7347383,-0.20504779,0.8723477,0.4438072,,-0.0062074303,0.41491535,-0.32245803,0.32030785,-0.18839113,-0.928392,0.9087053,0.3380364,0.24492066,0.2676894,-0.9220847,0.27946773,,1.054098978201526,0.3665749613408148,0.17719117639,3.402429022979892,-0.3041528484778704,-1.0875945051502398,-0.4090135416002354,,-1.27259825941196,0.06968994145700197,0.19246147259000002,-2.925594091496084,-0.20345174815074082,1.182474858393409,0.6690572948860077,,-0.03421717998534883,-0.08751299035656068,0.07561312771999999,-0.04775451182011164,,-2.1755695e-06,1.0728836e-06,9.536743e-07,0.99999994,-1.5646219e-07,-1.3038516e-07,1.6018748e-07,0.99999994,2.9802322e-08,1.3411045e-07,2.9802322e-08,1.0,157,0.476,0,0,0.0,False,-0.26255903295711036,0.8404134377828925
0.49554090900346637,09:26:29.609989,09:25:23.582140,0,,0.1274421,0.003984943,0.033610433,0.6913729,0.50693744,-0.5147988,0.3629679,0.37238064,0.8541585,0.62470603,-0.77739763,0.07345176,,0.07094222,-0.030200042,0.019911677,-0.37531748,0.059040204,0.92501396,0.84020525,-0.3997385,0.3664208,0.39139718,0.9147258,0.10042292,,0.077487655,1.3318859,0.4582017,0.9984689,0.027355853,-0.04807849,-0.009851345,-0.76732504,-0.64118266,-0.05443193,0.64067453,-0.7658807,,-0.08443181,0.25343832,-0.0862658,-0.73615074,-0.44186777,0.5126743,0.64299595,-0.22013071,0.7335521,-0.21127768,0.86965245,0.44616857,,-0.006254039,0.41484353,-0.32253453,0.31931743,-0.1905548,-0.92829156,0.90898895,0.33852497,0.24318703,0.2679094,-0.9214606,0.28130913,,1.0546550149684701,0.3665981295394375,0.17713543592000003,3.3973964643362637,-0.31057476396684613,-1.0831746510779134,-0.40999360599704104,,-1.2725905366790857,0.06907984555993824,0.19243295421,-2.924545641778661,-0.20372502115027172,1.1798389382958823,0.6662804457617252,,-0.03421717998534883,-0.08751299035656068,0.07561312771999999,-0.04775451182011164,,-2.1755695e-06,1.0728836e-06,9.536743e-07,0.99999994,-1.5646219e-07,-1.3038516e-07,1.6018748e-07,0.99999994,2.9802322e-08,1.3411045e-07,2.9802322e-08,1.0,165,0.5,0,0,0.0,False,-0.262797343831195,0.8409445199914667
0.5206067360704765,09:26:29.628235,09:25:23.582140,0,,0.1273948,0.00398919,0.033674717,0.68950415,0.5075562,-0.5166919,0.36292377,0.3752491,0.852921,0.6267935,-0.7756125,0.074531436,,0.07096337,-0.030249171,0.019916922,-0.3753248,0.05929926,0.92499447,0.8402096,-0.39961892,0.3665412,0.3913808,0.9147613,0.10016301,,0.077487655,1.3318859,0.4582017,0.9984689,0.027355853,-0.04807849,-0.009851345,-0.76732504,-0.64118266,-0.05443193,0.64067453,-0.7658807,,-0.084389694,0.25348404,-0.08631606,-0.7344525,-0.44260746,0.51446885,0.64435333,-0.21680804,0.7333506,-0.21304548,0.87011087,0.4444308,,-0.0062759356,0.4148099,-0.32257023,0.319327,-0.19081575,-0.9282347,0.9089815,0.33861035,0.243096,0.26792333,-0.9213753,0.2815754,,1.055033428879307,0.3665517931421921,0.17709136206,3.394880185014449,-0.31248767496356233,-1.0843918775909427,-0.40934022973250395,,-1.2725905366790857,0.06877093624496926,0.19241999131,-2.924545641778661,-0.20399829414980258,1.179490022922291,0.6670971660923962,,-0.03421717998534883,-0.08751299035656068,0.07561312771999999,-0.04775451182011164,,-2.1755695e-06,1.0728836e-06,9.536743e-07,0.99999994,-1.5646219e-07,-1.3038516e-07,1.6018748e-07,0.99999994,2.9802322e-08,1.3411045e-07,2.9802322e-08,1.0,173,0.525,0,0,0.0,False,-0.2629164992682367,0.8420549646093938
0.5388492770725861,09:26:29.657015,09:25:23.582140,0,,0.12733825,0.0040149987,0.03379102,0.6836368,0.5143877,-0.51773137,0.36050826,0.37879306,0.8523787,0.6345662,-0.769364,0.07351574,,0.07098706,-0.030289747,0.019920021,-0.37436557,0.061143838,0.925263,0.8405189,-0.39905334,0.36644822,0.39163524,0.9148868,0.09799926,,0.077487655,1.3318859,0.4582017,0.9984689,0.027355853,-0.04807849,-0.009851345,-0.76732504,-0.64118266,-0.05443193,0.64067453,-0.7658807,,-0.08434231,0.25357953,-0.08639368,-0.72923017,-0.4498877,0.51558167,0.64760727,-0.21044017,0.73233855,-0.220971,0.8679378,0.44480985,,-0.006300014,0.41478065,-0.32259825,0.3183427,-0.1926569,-0.92819244,0.9092867,0.3389252,0.24151078,0.2680591,-0.9208762,0.2830747,,1.0556358020434966,0.3663818930189592,0.17703562159000003,3.3881701068229444,-0.32082250144925417,-1.08184267995277,-0.41064698226157814,,-1.2726059821448343,0.06853925425874252,0.19241221357000002,-2.9234971920612383,-0.20399829414980258,1.177284696938496,0.6682405745553363,,-0.03421717998534883,-0.08751299035656068,0.07561312771999999,-0.04775451182011164,,-2.1755695e-06,1.0728836e-06,9.536743e-07,0.99999994,-1.5646219e-07,-1.3038516e-07,1.6018748e-07,0.99999994,2.9802322e-08,1.3411045e-07,2.9802322e-08,1.0,181,0.549,0,0,0.0,False,-0.26190367805337944,0.8418135636054966
0.5676326929824427,09:26:29.685001,09:25:23.582140,0,,0.1273152,0.0040336996,0.033875912,0.67878777,0.52099305,-0.5175067,0.3561672,0.38270926,0.8524543,0.6421774,-0.7629546,0.07421759,,0.07099121,-0.030295916,0.019922107,-0.3739587,0.061686046,0.92539155,0.8406784,-0.39884248,0.36631194,0.39168167,0.9149423,0.09729241,,0.077487655,1.3318859,0.4582017,0.9984689,0.027355853,-0.04807849,-0.009851345,-0.76732504,-0.64118266,-0.05443193,0.64067453,-0.7658807,,-0.084325895,0.2536483,-0.086449236,-0.72502214,-0.45695275,0.5153029,0.64921653,-0.2036718,0.7328272,-0.22991474,0.8658591,0.44432786,,-0.0063044373,0.41477725,-0.32260355,0.31793404,-0.19320059,-0.92821956,0.90939397,0.3390627,0.24091302,0.26818007,-0.9207117,0.283495,,1.0560373841529564,0.36614248829985824,0.17700321434000002,3.3833472381228002,-0.3306603294323659,-1.0804365688380133,-0.41032029412930937,,-1.2726137048777084,0.06850836332724562,0.19240962099000003,-2.9230778121742698,-0.20386165765003716,1.1766015278538156,0.6677505423569334,,-0.03421717998534883,-0.08751299035656068,0.07561312771999999,-0.04775451182011164,,-2.1755695e-06,1.0728836e-06,9.536743e-07,0.99999994,-1.5646219e-07,-1.3038516e-07,1.6018748e-07,0.99999994,2.9802322e-08,1.3411045e-07,2.9802322e-08,1.0,192,0.583,0,0,0.0,False,-0.2617249448978165,0.842489486416409
0.5956099890172482,09:26:29.716290,09:25:23.582140,0,,0.12724233,0.004050091,0.03401442,0.66909057,0.5319931,-0.51894206,0.34958923,0.39089411,0.85146284,0.6558237,-0.7511225,0.075564384,,0.07099101,-0.030286737,0.019927055,-0.37397957,0.061912075,0.925368,0.8406509,-0.39879805,0.36642355,0.39172095,0.91494644,0.09709583,,0.077487655,1.3318859,0.4582017,0.9984689,0.027355853,-0.04807849,-0.009851345,-0.76732504,-0.64118266,-0.05443193,0.64067453,-0.7658807,,-0.08426407,0.25375113,-0.08655108,-0.71646994,-0.46879938,0.51662165,0.6530843,-0.1903804,0.732964,-0.24525844,0.8625442,0.44256735,,-0.006304913,0.4147873,-0.32260072,0.31794897,-0.1934247,-0.9281677,0.90940326,0.33907565,0.24085973,0.26813087,-0.92065984,0.2837098,,1.0567633210431335,0.36554783786854295,0.17695006645000003,3.373701500722513,-0.3466467999049224,-1.0789990552054918,-0.4068900687404895,,-1.2726445958092054,0.06855469972449098,0.19240832470000002,-2.9230778121742698,-0.20386165765003716,1.176356491633394,0.6679138864230677,,-0.03421717998534883,-0.08751299035656068,0.07561312771999999,-0.04775451182011164,,-2.1755695e-06,1.0728836e-06,9.536743e-07,0.99999994,-1.5646219e-07,-1.3038516e-07,1.6018748e-07,0.99999994,2.9802322e-08,1.3411045e-07,2.9802322e-08,1.0,200,0.608,0,0,0.0,False,-0.26243987752006825,0.8438896122390136
0.6269028200767934,09:26:29.736698,09:25:23.582140,0,,0.12712103,0.004023388,0.034049153,0.6641965,0.5325552,-0.5246215,0.3526218,0.39560878,0.84802794,0.6591666,-0.7482503,0.07497129,,0.070985906,-0.030278496,0.019931108,-0.37417585,0.062171303,0.92527133,0.8405852,-0.3986671,0.36671656,0.39167434,0.91498595,0.09691127,,0.077487655,1.3318859,0.4582017,0.9984689,0.027355853,-0.04807849,-0.009851345,-0.76732504,-0.64118266,-0.05443193,0.64067453,-0.7658807,,-0.08414605,0.25375754,-0.086602695,-0.71183556,-0.46955675,0.5223089,0.6577571,-0.18493763,0.7301737,-0.24626344,0.863316,0.44049948,,-0.0063003995,0.4147965,-0.3225984,0.3181496,-0.19368635,-0.92804444,0.90934294,0.3391719,0.24095196,0.2680975,-0.9205694,0.2840347,,1.0573116350772034,0.36504586023171837,0.17690988146000003,3.365942972813585,-0.34814980140234225,-1.0801421417289077,-0.4109736703938467,,-1.2726600412749538,0.06861648158748476,0.19240443583000003,-2.9230778121742698,-0.20399829414980258,1.1762228733166686,0.6693839830182764,,-0.03421717998534883,-0.08751299035656068,0.07561312771999999,-0.04775451182011164,,-2.1755695e-06,1.0728836e-06,9.536743e-07,0.99999994,-1.5646219e-07,-1.3038516e-07,1.6018748e-07,0.99999994,2.9802322e-08,1.3411045e-07,2.9802322e-08,1.0,208,0.631,0,0,0.0,False,-0.26154621174225356,0.8441792934436898
0.647312217974104,09:26:29.762084,09:25:23.752287,0,,0.12693217,0.00398989,0.034139097,0.6557403,0.54141426,-0.52618915,0.35166487,0.39769506,0.8474493,0.6680839,-0.74074906,0.0703882,,0.07098802,-0.030268706,0.019940764,-0.37194258,0.06178184,0.92619735,0.8406202,-0.4007929,0.3643113,0.39372104,0.91408324,0.097136825,,0.077487655,1.3318859,0.4582017,0.9984689,0.027355853,-0.04807849,-0.009851345,-0.76732504,-0.64118266,-0.05443193,0.64067453,-0.7658807,,-0.08396507,0.25379628,-0.086705744,-0.7041136,-0.47896573,0.5242288,0.6629789,-0.1790093,0.7269214,-0.25432858,0.8593879,0.44358706,,-0.0063038217,0.41480997,-0.3225982,0.31564757,-0.19318135,-0.92900354,0.9105651,0.3370613,0.23929262,0.26690426,-0.9214503,0.28229678,,1.0583155903508525,0.364103686821063,0.17684765954,3.355877855526328,-0.3574410833863922,-1.0736275478993782,-0.40950357379863833,,-1.272667764007828,0.06861648158748476,0.19240313954000002,-2.9203518429089708,-0.20481811314839524,1.176728023258566,0.6700373592828137,,-0.03421717998534883,-0.08751299035656068,0.07561312771999999,-0.04775451182011164,,-2.1755695e-06,1.0728836e-06,9.536743e-07,0.99999994,-1.5646219e-07,-1.3038516e-07,1.6018748e-07,0.99999994,2.9802322e-08,1.3411045e-07,2.9802322e-08,1.0,216,0.656,0,0,0.0,False,-0.2629164992682367,0.8443241340460288
0.6726957770297304,09:26:29.788851,09:25:23.752287,0,,0.12676974,0.0039798766,0.034205064,0.64551675,0.5465124,-0.5335094,0.35403138,0.40484285,0.8430682,0.6767347,-0.73309374,0.06785014,,0.07098102,-0.030248396,0.019959837,-0.3707619,0.06414813,0.9265098,0.83910406,-0.40443045,0.36378598,0.39804488,0.91231626,0.09612037,,0.077487655,1.3318859,0.4582017,0.9984689,0.027355853,-0.04807849,-0.009851345,-0.76732504,-0.64118266,-0.05443193,0.64067453,-0.7658807,,-0.08380838,0.25383708,-0.08677376,-0.69458824,-0.48460647,0.53169894,0.67069805,-0.16887867,0.7222494,-0.2602141,0.85827535,0.44232574,,-0.0062995176,0.41483834,-0.3225983,0.31385604,-0.1952873,-0.9291702,0.9123465,0.33300465,0.23818444,0.2629036,-0.92248076,0.28268522,,1.0591033091040234,0.36337002719801165,0.17681006713000003,3.3422480091998334,-0.36413627187489883,-1.0722520076252815,-0.41113701445998085,,-1.2726600412749538,0.0685624224573652,0.19239795438,-2.917625873643672,-0.208780571641593,1.1754668117580314,0.6698740152166793,,-0.03421717998534883,-0.08751299035656068,0.07561312771999999,-0.04775451182011164,,-2.1755695e-06,1.0728836e-06,9.536743e-07,0.99999994,-1.5646219e-07,-1.3038516e-07,1.6018748e-07,0.99999994,2.9802322e-08,1.3411045e-07,2.9802322e-08,1.0,224,0.68,0,0,0.0,False,-0.26285692154971585,0.8440827330421312
0.699464331031777,09:26:29.817429,09:25:23.752287,0,,0.12653384,0.003992319,0.034357518,0.6280531,0.56074643,-0.53954846,0.35113758,0.41453725,0.83956003,0.69444317,-0.71674424,0.063452125,,0.07095842,-0.030201145,0.019993216,-0.3709507,0.06709189,0.9262258,0.8357185,-0.41078532,0.36445835,0.404932,0.9092602,0.09631109,,0.077487655,1.3318859,0.4582017,0.9984689,0.027355853,-0.04807849,-0.009851345,-0.76732504,-0.64118266,-0.05443193,0.64067453,-0.7658807,,-0.08358516,0.25395286,-0.0868995,-0.67859095,-0.50002325,0.53804374,0.68032473,-0.15172635,0.7170337,-0.27689812,0.8526171,0.4431383,,-0.006281709,0.41489744,-0.32259148,0.31304651,-0.19779278,-0.9289133,0.9146865,0.32605338,0.23882577,0.25563732,-0.92442805,0.28298828,,1.0604779555556354,0.3621575581367584,0.17675432666000002,3.3214887047948656,-0.38244556284346787,-1.0654898825440173,-0.40917688566636934,,-1.2726445958092054,0.06852380879299408,0.19239017664000002,-2.915319284265342,-0.21615894262892676,1.1748674006062525,0.6697106711505451,,-0.03421717998534883,-0.08751299035656068,0.07561312771999999,-0.04775451182011164,,-2.1755695e-06,1.0728836e-06,9.536743e-07,0.99999994,-1.5646219e-07,-1.3038516e-07,1.6018748e-07,0.99999994,2.9802322e-08,1.3411045e-07,2.9802322e-08,1.0,239,0.726,0,0,0.0,False,-0.26202283349042155,0.8447586558530435
0.7279619340552017,09:26:29.854741,09:25:23.752287,0,,0.12617962,0.0040385127,0.034610704,0.6041327,0.58306557,-0.5431924,0.3416413,0.42631453,0.83757806,0.71993375,-0.69158536,0.05835116,,0.07091972,-0.03016626,0.020074993,-0.36856797,0.07973914,0.9261745,0.8328373,-0.41427708,0.367092,0.41296437,0.9066511,0.08627948,,0.077487655,1.3318859,0.4582017,0.9984689,0.027355853,-0.04807849,-0.009851345,-0.76732504,-0.64118266,-0.05443193,0.64067453,-0.7658807,,-0.083251685,0.25416327,-0.08708982,-0.6568102,-0.52418053,0.5420656,0.68998015,-0.127794,0.7124578,-0.30418375,0.84196407,0.44561055,,-0.006254921,0.41498265,-0.32262933,0.30953076,-0.20995392,-0.9274212,0.917931,0.3205311,0.23380005,0.24818009,-0.92367697,0.29193744,,1.0627098253562863,0.3604276659729321,0.17668173442000001,3.294858081972331,-0.4123689562920993,-1.0531778151753044,-0.40950357379863833,,-1.272629150343457,0.06851608606011984,0.19233054730000002,-2.910077035678229,-0.22340067711649514,1.1635383353325044,0.6705273914812164,,-0.03421717998534883,-0.08751299035656068,0.07561312771999999,-0.04775451182011164,,-2.1755695e-06,1.0728836e-06,9.536743e-07,0.99999994,-1.5646219e-07,-1.3038516e-07,1.6018748e-07,0.99999994,2.9802322e-08,1.3411045e-07,2.9802322e-08,1.0,247,0.751,0,0,0.0,False,-0.26249945523859,0.8475589074982519
0.7653507880168036,09:26:29.885991,09:25:23.752287,0,,0.12588423,0.0040670633,0.034816265,0.58631635,0.60135037,-0.54278046,0.33394918,0.43102407,0.8382697,0.7380452,-0.67275244,0.051895887,,0.07088564,-0.030187704,0.020164162,-0.36549586,0.08405511,0.92700994,0.8328573,-0.41518423,0.36602014,0.41564557,0.90584594,0.08174211,,0.077487655,1.3318859,0.4582017,0.9984689,0.027355853,-0.04807849,-0.009851345,-0.76732504,-0.64118266,-0.05443193,0.64067453,-0.7658807,,-0.08297322,0.2543275,-0.087250486,-0.6405225,-0.5438616,0.54216737,0.6961421,-0.113144435,0.708932,-0.32421768,0.8315124,0.45107654,,-0.006233987,0.41503203,-0.3227111,0.30610794,-0.21411492,-0.9276059,0.91949946,0.3189095,0.22982046,0.24661435,-0.92328304,0.2944993,,1.0645092221159806,0.359083910452817,0.17661562363000002,3.275147227284786,-0.4345040692541006,-1.039048694303231,-0.4101569500631752,,-1.2726137048777084,0.06851608606011984,0.19223591813000002,-2.906092926752023,-0.2246304056143841,1.1590686208763543,0.6723241762086936,,-0.03421717998534883,-0.08751299035656068,0.07561312771999999,-0.04775451182011164,,-2.1755695e-06,1.0728836e-06,9.536743e-07,0.99999994,-1.5646219e-07,-1.3038516e-07,1.6018748e-07,0.99999994,2.9802322e-08,1.3411045e-07,2.9802322e-08,1.0,255,0.774,0,0,0.0,False,-0.26136747858668974,0.8512764829582706
0.7966065090149641,09:26:29.909461,09:25:23.752287,0,,0.12567702,0.0040864646,0.034960717,0.57368714,0.61547965,-0.54043275,0.32755452,0.43235606,0.8401049,0.7507268,-0.6589787,0.046433866,,0.07086134,-0.030197524,0.02022335,-0.3635449,0.086420104,0.92755944,0.8325855,-0.41651326,0.36512738,0.41789508,0.90501285,0.0794691,,0.077487655,1.3318859,0.4582017,0.9984689,0.027355853,-0.04807849,-0.009851345,-0.76732504,-0.64118266,-0.05443193,0.64067453,-0.7658807,,-0.08277791,0.2544424,-0.08736378,-0.6289703,-0.5590228,0.54026824,0.69967884,-0.10410743,0.7068318,-0.33888915,0.82259053,0.4566169,,-0.0062184106,0.41506818,-0.32276252,0.3038551,-0.21634273,-0.9278297,0.92066854,0.31715357,0.22755894,0.24503377,-0.9233685,0.29554868,,1.0657525821087308,0.35811084611066474,0.17657414235000002,3.2615173809582916,-0.45076381272618804,-1.0266067511647627,-0.4101569500631752,,-1.27259825941196,0.06851608606011984,0.19217499250000003,-2.9033669574867242,-0.22599677061203852,1.1568339715675555,0.6759177456636474,,-0.03421717998534883,-0.08751299035656068,0.07561312771999999,-0.04775451182011164,,-2.1755695e-06,1.0728836e-06,9.536743e-07,0.99999994,-1.5646219e-07,-1.3038516e-07,1.6018748e-07,0.99999994,2.9802322e-08,1.3411045e-07,2.9802322e-08,1.0,263,0.799,0,0,0.0,False,-0.2620824112089424,0.8536904929972433
0.820074066054076,09:26:29.928176,09:25:23.752287,0,,0.12545842,0.004107639,0.03510979,0.55951065,0.6299207,-0.5386534,0.3211603,0.4343519,0.8415428,0.7640704,-0.6438464,0.040718824,,0.07081867,-0.030212738,0.020325452,-0.3609334,0.09609911,0.927627,0.8320303,-0.41611314,0.3668453,0.42125118,0.9042206,0.070231706,,0.077487655,1.3318859,0.4582017,0.9984689,0.027355853,-0.04807849,-0.009851345,-0.76732504,-0.64118266,-0.05443193,0.64067453,-0.7658807,,-0.082571596,0.25456205,-0.08748027,-0.6159278,-0.5745976,0.5389531,0.7036999,-0.09371658,0.70428944,-0.3541742,0.8130528,0.46206695,,-0.0061907936,0.41513178,-0.32285008,0.30078948,-0.22580814,-0.9265724,0.9223341,0.31596282,0.22241265,0.24253982,-0.92150867,0.3033088,,1.067003664834355,0.3570914453712671,0.17653525365000003,3.2460003251404372,-0.46770673869710266,-1.0135260397676713,-0.4093402297325037,,-1.2725828139462116,0.0685315315258683,0.19206999301000002,-2.899592538504003,-0.22818295460828555,1.1469365981865978,0.6768978100604531,,-0.03421717998534883,-0.08751299035656068,0.07561312771999999,-0.04775451182011164,,-2.1755695e-06,1.0728836e-06,9.536743e-07,0.99999994,-1.5646219e-07,-1.3038516e-07,1.6018748e-07,0.99999994,2.9802322e-08,1.3411045e-07,2.9802322e-08,1.0,271,0.824,0,0,0.0,False,-0.2622015666459845,0.8548974980167299
0.8387911110185087,09:26:29.955482,09:25:23.752287,0,,0.12512943,0.004116252,0.035300165,0.53979325,0.64819247,-0.5370937,0.31263402,0.43803194,0.8428451,0.78159004,-0.62287587,0.03379953,,0.07079258,-0.030230217,0.020398885,-0.35715336,0.10575888,0.9280391,0.8323865,-0.4147287,0.36760402,0.42376167,0.9037782,0.060089454,,0.077487655,1.3318859,0.4582017,0.9984689,0.027355853,-0.04807849,-0.009851345,-0.76732504,-0.64118266,-0.05443193,0.64067453,-0.7658807,,-0.08225856,0.25470275,-0.08764387,-0.5977035,-0.59444034,0.53795093,0.70892686,-0.07852776,0.7008967,-0.37439716,0.80029625,0.46835104,,-0.0061755124,0.41517243,-0.3229171,0.29669172,-0.23530015,-0.92553115,0.9239579,0.31572154,0.2159207,0.24140394,-0.91921365,0.31107938,,1.0687335569981815,0.3555160078649253,0.17648340205000002,3.2241925710180466,-0.4903883976581658,-0.9965008850765955,-0.41032029412930937,,-1.2725673684804633,0.06854697699161674,0.19199221561000002,-2.894979359747343,-0.22886613710711273,1.1364670577861042,0.6793479710524674,,-0.03421717998534883,-0.08751299035656068,0.07561312771999999,-0.04775451182011164,,-2.1755695e-06,1.0728836e-06,9.536743e-07,0.99999994,-1.5646219e-07,-1.3038516e-07,1.6018748e-07,0.99999994,2.9802322e-08,1.3411045e-07,2.9802322e-08,1.0,286,0.87,0,0,0.0,False,-0.2629164992682367,0.8562493436385545
0.8660977850668132,09:26:29.993654,09:25:23.955045,0,,0.124695376,0.0041096956,0.035578087,0.50930715,0.6761933,-0.53232384,0.29183358,0.44620287,0.8460119,0.809592,-0.5862299,0.029918253,,0.07073289,-0.030227505,0.02052626,-0.35366976,0.115644,0.928194,0.8306823,-0.41733313,0.36851054,0.429982,0.90136534,0.051534608,,0.077487655,1.3318859,0.4582017,0.9984689,0.027355853,-0.04807849,-0.009851345,-0.76732504,-0.64118266,-0.05443193,0.64067453,-0.7658807,,-0.08184778,0.25489122,-0.08789172,-0.5696449,-0.62518793,0.53352106,0.711655,-0.05045605,0.7007149,-0.41115913,0.7788416,0.47366017,,-0.0061345897,0.41526797,-0.32301193,0.2923497,-0.24475153,-0.9244611,0.92669094,0.31123716,0.21065465,0.2361686,-0.9182745,0.3177991,,1.070919090401587,0.35292116961918585,0.17644062448000003,3.1933681493258215,-0.5319258935868597,-0.9732480785711566,-0.41130035852611524,,-1.272528754816092,0.0685933133888621,0.19187036435000002,-2.889317731273261,-0.23364841459890315,1.1271347285127078,0.6816347879783472,,-0.03421717998534883,-0.08751299035656068,0.07561312771999999,-0.04775451182011164,,-2.1755695e-06,1.0728836e-06,9.536743e-07,0.99999994,-1.5646219e-07,-1.3038516e-07,1.6018748e-07,0.99999994,2.9802322e-08,1.3411045e-07,2.9802322e-08,1.0,294,0.894,0,0,0.0,False,-0.26249945523859,0.8564907446424521
0.9042566739954054,09:26:30.023769,09:25:23.955045,0,,0.124342605,0.0041038394,0.035795093,0.47898358,0.69667935,-0.5340528,0.27534658,0.45843986,0.84499526,0.83352184,-0.55178857,0.02775675,,0.07070017,-0.030210666,0.020603687,-0.34911376,0.12215867,0.9290838,0.82937586,-0.42121768,0.36703032,0.43618232,0.8986951,0.045737386,,0.077487655,1.3318859,0.4582017,0.9984689,0.027355853,-0.04807849,-0.009851345,-0.76732504,-0.64118266,-0.05443193,0.64067453,-0.7658807,,-0.08151322,0.2550384,-0.0880866,-0.54140127,-0.64824563,0.5354085,0.7151798,-0.02026689,0.69864666,-0.44204357,0.7611615,0.4745847,,-0.006113156,0.41533664,-0.3230586,0.28695077,-0.25083575,-0.92452186,0.92959255,0.30598092,0.20550768,0.23133738,-0.9183992,0.3209765,,1.072363241449067,0.35076652714727724,0.17642895787,3.161285587972689,-0.5669048375268124,-0.9560784401044108,-0.41113701445998063,,-1.2724978638845952,0.06863192705323322,0.19180554985,-2.882607653081756,-0.23788414609163183,1.1211139496709916,0.681961476110616,,-0.03421717998534883,-0.08751299035656068,0.07561312771999999,-0.04775451182011164,,-2.1755695e-06,1.0728836e-06,9.536743e-07,0.99999994,-1.5646219e-07,-1.3038516e-07,1.6018748e-07,0.99999994,2.9802322e-08,1.3411045e-07,2.9802322e-08,1.0,302,0.918,0,0,0.0,False,-0.26255903295711036,0.8548974980167299
0.9343848039861768,09:26:30.055917,09:25:23.955045,0,,0.12395942,0.0040379465,0.03593707,0.45246455,0.71495235,-0.53302807,0.26241103,0.46450877,0.8457966,0.8523004,-0.5225654,0.022562236,,0.07065563,-0.030169241,0.020667642,-0.34937894,0.13011533,0.9279031,0.8254927,-0.42576456,0.37052172,0.4432788,0.89542973,0.041343868,,0.077487655,1.3318859,0.4582017,0.9984689,0.027355853,-0.04807849,-0.009851345,-0.76732504,-0.64118266,-0.05443193,0.64067453,-0.7658807,,-0.08114282,0.25509325,-0.08826301,-0.5165229,-0.6687244,0.53480077,0.71806926,0.0019522387,0.6959689,-0.46645546,0.7435078,0.47918203,,-0.006078012,0.41541475,-0.32307982,0.28618494,-0.25826526,-0.9227119,0.93172723,0.29970023,0.20509557,0.22356789,-0.918411,0.32640246,,1.0736452151061882,0.3484033708877645,0.17641988384,3.13213868582834,-0.595325229478024,-0.9354355570799125,-0.4116270466583838,,-1.2724360820216014,0.06863192705323322,0.19176406857000003,-2.8803010637034263,-0.24567242657826194,1.115049601680322,0.6796746591847358,,-0.03421717998534883,-0.08751299035656068,0.07561312771999999,-0.04775451182011164,,-2.1755695e-06,1.0728836e-06,9.536743e-07,0.99999994,-1.5646219e-07,-1.3038516e-07,1.6018748e-07,0.99999994,2.9802322e-08,1.3411045e-07,2.9802322e-08,1.0,310,0.942,0,0,0.0,False,-0.2623802998015474,0.8540284544026999
0.9665332100121304,09:26:30.076868,09:25:23.955045,0,,0.123710915,0.003979355,0.03599581,0.43649387,0.7263651,-0.53091115,0.25592136,0.465478,0.84725106,0.8625411,-0.5056915,0.017285794,,0.07063456,-0.030163608,0.020686954,-0.34995717,0.13235894,0.92736775,0.8243831,-0.42663652,0.37198615,0.44488457,0.8946856,0.040189996,,0.077487655,1.3318859,0.4582017,0.9984689,0.027355853,-0.04807849,-0.009851345,-0.76732504,-0.64118266,-0.05443193,0.64067453,-0.7658807,,-0.08090007,0.2550956,-0.08836154,-0.50144815,-0.6814238,0.5331148,0.7201516,0.012771237,0.6936992,-0.47951165,0.73177767,0.48432434,,-0.006059882,0.41543412,-0.3230918,0.28652355,-0.2603836,-0.9220112,0.9320945,0.29834533,0.20540184,0.22159447,-0.918254,0.32818508,,1.0743479837977428,0.34686654704579384,0.17641988384,3.1138956607451864,-0.6107651539515188,-0.9197415418368755,-0.411300358526115,,-1.2723820228914817,0.06863192705323322,0.19174592051000003,-2.8803010637034263,-0.24772197407474353,1.1133720418900053,0.6801646913831387,,-0.03421717998534883,-0.08751299035656068,0.07561312771999999,-0.04775451182011164,,-2.1755695e-06,1.0728836e-06,9.536743e-07,0.99999994,-1.5646219e-07,-1.3038516e-07,1.6018748e-07,0.99999994,2.9802322e-08,1.3411045e-07,2.9802322e-08,1.0,318,0.967,0,0,0.0,False,-0.26243987752006825,0.853207690989449
0.9874840549891815,09:26:30.095031,09:25:23.955045,0,,0.12345517,0.00392136,0.036055118,0.4192381,0.73721284,-0.52986455,0.25029132,0.46716073,0.8480065,0.8726932,-0.48813725,0.011333406,,0.07062515,-0.030165456,0.020693392,-0.35002774,0.13181302,0.92741895,0.82423526,-0.4270957,0.3717867,0.44510287,0.8945471,0.04085031,,0.077487655,1.3318859,0.4582017,0.9984689,0.027355853,-0.04807849,-0.009851345,-0.76732504,-0.64118266,-0.05443193,0.64067453,-0.7658807,,-0.08065015,0.25509906,-0.08846062,-0.48508003,-0.6936091,0.5325446,0.7229047,0.024596885,0.6905098,-0.49204284,0.71993154,0.48948184,,-0.0060514957,0.41543815,-0.32309866,0.2865616,-0.25982553,-0.9221568,0.93214583,0.2979728,0.20570934,0.22132911,-0.918533,0.32758287,,1.0749966933591775,0.3453606141353201,0.17641858755,3.0935557362271875,-0.6255218959261865,-0.9034611137503528,-0.4116270466583838,,-1.272351131959985,0.06863964978610744,0.19173684648000003,-2.8803010637034263,-0.24799524707427442,1.1140849501382415,0.6795113151186016,,-0.03421717998534883,-0.08751299035656068,0.07561312771999999,-0.04775451182011164,,-2.1755695e-06,1.0728836e-06,9.536743e-07,0.99999994,-1.5646219e-07,-1.3038516e-07,1.6018748e-07,0.99999994,2.9802322e-08,1.3411045e-07,2.9802322e-08,1.0,334,1.016,0,0,0.0,False,-0.2626186106756321,0.8520972463715215
1.005649602971971,09:26:30.148945,09:25:24.102026,0,,0.12284306,0.003861919,0.03628698,0.36519122,0.76417947,-0.5316624,0.2337076,0.4775597,0.8469459,0.90111923,-0.43355083,-0.004194081,,0.07061361,-0.03018085,0.020698756,-0.3501708,0.13074823,0.9275156,0.8245638,-0.42674613,0.37145948,0.4443813,0.89487016,0.041623697,,0.077487655,1.3318859,0.4582017,0.9984689,0.027355853,-0.04807849,-0.009851345,-0.76732504,-0.64118266,-0.05443193,0.64067453,-0.7658807,,-0.08005857,0.25522548,-0.08871756,-0.43354163,-0.7247242,0.53555256,0.7302317,0.06569137,0.68003404,-0.5280183,0.6859005,0.50073665,,-0.0060409047,0.41543192,-0.32311442,0.28680748,-0.25881615,-0.9223642,0.9318975,0.29854894,0.20599878,0.22205502,-0.9186309,0.32681623,,1.0762400533519276,0.34223290732125916,0.17643025416000002,3.02876154369047,-0.666649482355584,-0.8582442648976296,-0.4114637025922494,,-1.2722970728298653,0.06863192705323322,0.19172129100000002,-2.8807204435903957,-0.24731206457544722,1.1150797566824302,0.6770611541265874,,-0.03421717998534883,-0.08751299035656068,0.07561312771999999,-0.04775451182011164,,-2.1755695e-06,1.0728836e-06,9.536743e-07,0.99999994,-1.5646219e-07,-1.3038516e-07,1.6018748e-07,0.99999994,2.9802322e-08,1.3411045e-07,2.9802322e-08,1.0,342,1.041,0,0,0.0,False,-0.26309523242380006,0.8490555937224151
1.059549642028287,09:26:30.177148,09:25:24.102026,0,,0.122503325,0.0038694143,0.036424592,0.3324247,0.778138,-0.5329118,0.22577137,0.4829609,0.84603536,0.9157078,-0.40155935,-0.015133321,,0.07060914,-0.030186586,0.020701438,-0.3499023,0.13064441,0.92763156,0.824747,-0.42663512,0.37118012,0.44425273,0.8949383,0.04153192,,0.077487655,1.3318859,0.4582017,0.9984689,0.027355853,-0.04807849,-0.009851345,-0.76732504,-0.64118266,-0.05443193,0.64067453,-0.7658807,,-0.07973068,0.2553327,-0.08884166,-0.40207464,-0.741124,0.5376535,0.7346639,0.089318655,0.67252594,-0.5464476,0.6654002,0.50856423,,-0.006036887,0.4154301,-0.32312077,0.28656083,-0.25872263,-0.92246705,0.9319145,0.29868558,0.20572385,0.2223022,-0.91861284,0.32669896,,1.0767960901188718,0.34090459726689254,0.17644710593000001,2.9878720047109875,-0.6871449573204,-0.8290347321016603,-0.41097367039384647,,-1.2722739046312426,0.06863192705323322,0.19171480955000003,-2.8805107536469112,-0.24703879157591632,1.115101957095459,0.6762444337959161,,-0.03421717998534883,-0.08751299035656068,0.07561312771999999,-0.04775451182011164,,-2.1755695e-06,1.0728836e-06,9.536743e-07,0.99999994,-1.5646219e-07,-1.3038516e-07,1.6018748e-07,0.99999994,2.9802322e-08,1.3411045e-07,2.9802322e-08,1.0,350,1.065,0,0,0.0,False,-0.2621419889274632,0.8408479595899077
1.0877605710411444,09:26:30.199335,09:25:24.102026,0,,0.12229158,0.0038997233,0.036545053,0.30914286,0.789206,-0.53064525,0.2183432,0.48417267,0.8472915,0.92561156,-0.37779698,-0.022639334,,0.07060948,-0.030188031,0.020709485,-0.34838557,0.13099548,0.9281527,0.82479715,-0.42761254,0.36994207,0.4453504,0.8944203,0.040929303,,0.077487655,1.3318859,0.4582017,0.9984689,0.027355853,-0.04807849,-0.009851345,-0.76732504,-0.64118266,-0.05443193,0.64067453,-0.7658807,,-0.0795289,0.25544125,-0.08892979,-0.3796908,-0.75402045,0.5359926,0.73613155,0.104658686,0.66869795,-0.5603082,0.6484595,0.51532024,,-0.006038381,0.41543457,-0.32312748,0.2849034,-0.25900048,-0.92290235,0.9325617,0.2975932,0.20436965,0.22171764,-0.91888905,0.32631925,,1.0771049994338409,0.34024044223970923,0.17646136512000002,2.958934792510123,-0.7024482452941293,-0.8049575457877014,-0.41195373479065234,,-1.2722661818983685,0.06861648158748476,0.19170832810000002,-2.87862354415555,-0.24744870107521263,1.1147011021452833,0.670854079613485,,-0.03421717998534883,-0.08751299035656068,0.07561312771999999,-0.04775451182011164,,-2.1755695e-06,1.0728836e-06,9.536743e-07,0.99999994,-1.5646219e-07,-1.3038516e-07,1.6018748e-07,0.99999994,2.9802322e-08,1.3411045e-07,2.9802322e-08,1.0,358,1.09,0,0,0.0,False,-0.2618441003348577,0.8249154933326861
1.1099201870383695,09:26:30.225289,09:25:24.102026,0,,0.121997,0.003950149,0.036667913,0.27662712,0.8019102,-0.5295443,0.21220338,0.48647103,0.847535,0.93725497,-0.34682235,-0.035597086,,0.07060688,-0.03018146,0.02072063,-0.34845823,0.13179204,0.9280127,0.8240433,-0.42874792,0.37030768,0.44668704,0.8937595,0.040798306,,0.077487655,1.3318859,0.4582017,0.9984689,0.027355853,-0.04807849,-0.009851345,-0.76732504,-0.64118266,-0.05443193,0.64067453,-0.7658807,,-0.07924459,0.25557062,-0.08901252,-0.34823096,-0.769109,0.53591657,0.7401043,0.1252908,0.66071767,-0.5753093,0.6267165,0.5255908,,-0.0060373684,0.41544724,-0.32313108,0.2847815,-0.2596996,-0.9227435,0.9329499,0.29624596,0.20455511,0.22023615,-0.919127,0.3266521,,1.077390740550187,0.3395299508152806,0.17649377237000002,2.916787113869734,-0.7182980792669205,-0.7715317051836353,-0.4114637025922494,,-1.2722739046312426,0.0685933133888621,0.19170314294000002,-2.878204164268581,-0.24895170257263252,1.1142931242831327,0.6626868763067708,,-0.03421717998534883,-0.08751299035656068,0.07561312771999999,-0.04775451182011164,,-2.1755695e-06,1.0728836e-06,9.536743e-07,0.99999994,-1.5646219e-07,-1.3038516e-07,1.6018748e-07,0.99999994,2.9802322e-08,1.3411045e-07,2.9802322e-08,1.0,366,1.114,0,0,0.0,False,-0.2630356547052788,0.8143904095627641
1.1358981530647725,09:26:30.250003,09:25:24.102026,0,,0.12178511,0.004007235,0.03678693,0.25021964,0.81296027,-0.5258189,0.20531154,0.4861901,0.8493917,0.94616973,-0.32049125,-0.04525593,,0.07059179,-0.030175276,0.02074489,-0.34930322,0.13358253,0.92743886,0.8227538,-0.42993122,0.37180007,0.4484008,0.8929249,0.04027073,,0.077487655,1.3318859,0.4582017,0.9984689,0.027355853,-0.04807849,-0.009851345,-0.76732504,-0.64118266,-0.05443193,0.64067453,-0.7658807,,-0.07904238,0.2556991,-0.08908275,-0.32265007,-0.78219885,0.53297454,0.74150914,0.14108013,0.65594256,-0.58826965,0.6068454,0.5344881,,-0.0060258727,0.41546986,-0.32314557,0.28536797,-0.26135796,-0.92209387,0.9332882,0.29464892,0.20531717,0.21803269,-0.9191703,0.32800567,,1.0775220270090489,0.3391901505688147,0.17651969817000002,2.882607653081756,-0.7319617292434645,-0.7416038045816638,-0.41048363819544376,,-1.2722584591654942,0.06857014519023942,0.19168369859,-2.878413854212066,-0.251274523068645,1.113165115260771,0.6474958781562831,,-0.03421717998534883,-0.08751299035656068,0.07561312771999999,-0.04775451182011164,,-2.1755695e-06,1.0728836e-06,9.536743e-07,0.99999994,-1.5646219e-07,-1.3038516e-07,1.6018748e-07,0.99999994,2.9802322e-08,1.3411045e-07,2.9802322e-08,1.0,374,1.139,0,0,0.0,False,-0.26255903295711036,0.8103348726972897
1.1605486610205844,09:26:30.277479,09:25:24.259212,0,,0.121482536,0.0040857047,0.036884412,0.21342304,0.82849276,-0.51773554,0.2002765,0.48158786,0.85320705,0.9562111,-0.28578442,-0.063145846,,0.070580706,-0.030185081,0.02077064,-0.34890816,0.13465266,0.92743284,0.8225553,-0.43021196,0.37191427,0.44907188,0.8926289,0.03934516,,0.077487655,1.3318859,0.4582017,0.9984689,0.027355853,-0.04807849,-0.009851345,-0.76732504,-0.64118266,-0.05443193,0.64067453,-0.7658807,,-0.07874795,0.25583476,-0.08912872,-0.28678977,-0.8004432,0.5263481,0.7455287,0.1585563,0.6473383,-0.60161334,0.57805765,0.55128103,,-0.0060186093,0.41548163,-0.32317185,0.28488046,-0.26237616,-0.92195547,0.93357074,0.29414025,0.20476118,0.21745975,-0.9190431,0.32874152,,1.0775683634062942,0.3388426275894746,0.17657673493,2.833330516362893,-0.7449421967211813,-0.6944270281475319,-0.4108103263277121,,-1.2722430136997458,0.06854697699161674,0.19165518021000003,-2.8777847843816122,-0.25182106906770674,1.1121405695530266,0.6386752985850319,,-0.03421717998534883,-0.08751299035656068,0.07561312771999999,-0.04775451182011164,,-2.1755695e-06,1.0728836e-06,9.536743e-07,0.99999994,-1.5646219e-07,-1.3038516e-07,1.6018748e-07,0.99999994,2.9802322e-08,1.3411045e-07,2.9802322e-08,1.0,382,1.164,0,0,0.0,False,-0.26232072208302704,0.8107211143035253
1.1880614469991997,09:26:30.296564,09:25:24.259212,0,,0.12130047,0.0041285157,0.036887452,0.1925189,0.83965045,-0.50786155,0.20022744,0.47304258,0.8579858,0.9606483,-0.26686642,-0.07705155,,0.07056698,-0.030204453,0.020802468,-0.34856915,0.13478291,0.9275414,0.8225627,-0.43041533,0.3716628,0.44932175,0.8925111,0.039162084,,0.077487655,1.3318859,0.4582017,0.9984689,0.027355853,-0.04807849,-0.009851345,-0.76732504,-0.64118266,-0.05443193,0.64067453,-0.7658807,,-0.07856642,0.2558781,-0.08911603,-0.26630047,-0.8131078,0.51762897,0.7492052,0.16326554,0.6419003,-0.6064451,0.55874866,0.5657069,,-0.006009635,0.415491,-0.32320938,0.28450933,-0.26248914,-0.9220379,0.93371576,0.2939006,0.20444402,0.21732317,-0.9190875,0.32870772,,1.0775451952076716,0.33864955926761897,0.17662988282000003,2.8046029941055135,-0.7487680187146137,-0.6605144418110401,-0.4099936059970408,,-1.272219845501123,0.06850836332724562,0.19161629151,-2.8773654044946433,-0.25195770556747216,1.1120069512363013,0.6365518257252863,,-0.03421717998534883,-0.08751299035656068,0.07561312771999999,-0.04775451182011164,,-2.1755695e-06,1.0728836e-06,9.536743e-07,0.99999994,-1.5646219e-07,-1.3038516e-07,1.6018748e-07,0.99999994,2.9802322e-08,1.3411045e-07,2.9802322e-08,1.0,419,1.278,0,0,0.0,False,-0.26255903295711036,0.8105279935004073
1.2071452459786087,09:26:30.409633,09:25:24.259212,0,,0.1199265,0.0044394433,0.03700131,0.04638602,0.875917,-0.48022658,0.17566043,0.4661002,0.86711836,0.9833573,-0.12457901,-0.13224345,,0.07042312,-0.030411102,0.021162271,-0.3469646,0.13673232,0.9278576,0.8215058,-0.43299544,0.37100297,0.45248616,0.89096534,0.03790763,,0.077484936,1.331889,0.4581931,0.9984691,0.027371895,-0.04806509,-0.009830473,-0.7673245,-0.6411837,-0.05443193,0.64067453,-0.7658807,,-0.077204406,0.25625956,-0.08910382,-0.12256602,-0.86051387,0.49446285,0.7508511,0.2454005,0.6131894,-0.6489994,0.44642416,0.61604,,-0.005919472,0.41561306,-0.3236281,0.2824477,-0.2642018,-0.92218256,0.9349902,0.29079217,0.2030596,0.21451476,-0.9195854,0.32915968,,1.0774756906118035,0.3380703543020521,0.1769695108,2.6018328187559785,-0.7849766911524554,-0.48045477925243235,-0.41048363819544365,,-1.2722430136997458,0.06801410842329526,0.19124295999000002,-2.8746394352293443,-0.25510034506207735,1.1103222685340097,0.618257290318247,,-0.03421717998534883,-0.08751299035656068,0.07561312771999999,-0.04775451182011164,,-4.455447e-06,-6.914139e-06,5.6028366e-06,1.0,1.5854836e-05,1.3258308e-05,-1.585111e-05,1.0,1.1622906e-06,-1.32620335e-05,-1.0728836e-06,1.0,427,1.303,0,0,0.0,False,-0.2630356547052788,0.797395778888395
1.3202280079713091,09:26:30.439811,09:25:24.422896,0,,0.119674385,0.004493609,0.036957666,0.015559752,0.8819443,-0.47109672,0.1714952,0.46181798,0.8702377,0.98506194,-0.09433153,-0.14406344,,0.07040935,-0.030459873,0.021242619,-0.34499538,0.13605034,0.92869174,0.8214778,-0.43486416,0.36887318,0.45404005,0.89015925,0.038263768,,0.077484936,1.331889,0.4581931,0.9984691,0.027371895,-0.04806509,-0.009830473,-0.7673245,-0.6411837,-0.05443193,0.64067453,-0.7658807,,-0.07694932,0.2562856,-0.08905236,-0.091995746,-0.86892945,0.48631105,0.75005656,0.26075557,0.6078007,-0.65494424,0.42067587,0.6277578,,-0.0059175044,0.41563478,-0.32372054,0.28027695,-0.2634199,-0.9230681,0.9358526,0.2889608,0.20169681,0.21359956,-0.9203867,0.32751125,,1.0772980677556965,0.33817074982941703,0.17706932513,2.558217310511197,-0.788255967146826,-0.4389016692568106,-0.41048363819544376,,-1.2722507364326199,0.06784420830006231,0.19115351598000002,-2.87212315590753,-0.2559201640606699,1.1109907759561883,0.6169505377891729,,-0.03421717998534883,-0.08751299035656068,0.07561312771999999,-0.04775451182011164,,-4.455447e-06,-6.914139e-06,5.6028366e-06,1.0,1.5854836e-05,1.3258308e-05,-1.585111e-05,1.0,1.1622906e-06,-1.32620335e-05,-1.0728836e-06,1.0,435,1.327,0,0,0.0,False,-0.2616653671792948,0.8002925909351624
1.3504175030393526,09:26:30.460380,09:25:24.422896,0,,0.11942683,0.0045289695,0.036960542,-0.013933066,0.8832071,-0.46877596,0.16398671,0.46449202,0.8702617,0.986364,-0.06474766,-0.15130612,,0.07039349,-0.030480303,0.02130276,-0.34440666,0.13667917,0.9288179,0.8207074,-0.43657818,0.36856335,0.45587653,0.88922346,0.03818679,,0.077484936,1.331889,0.4581931,0.9984691,0.027371895,-0.04806509,-0.009830473,-0.7673245,-0.6411837,-0.05443193,0.64067453,-0.7658807,,-0.07670255,0.256326,-0.089048475,-0.062743604,-0.8725006,0.4845678,0.74634916,0.28131947,0.6031768,-0.6625905,0.39950225,0.6335391,,-0.00591046,0.41566312,-0.3237791,0.2794292,-0.26391628,-0.9231834,0.93651,0.28702495,0.20140927,0.21182147,-0.9208501,0.32736337,,1.0771667812968346,0.3383020362882789,0.17713543592000003,2.515859941927323,-0.793858063637209,-0.406236048596904,-0.41048363819544376,,-1.2722584591654942,0.06774381277269739,0.19109129406000003,-2.870865016246623,-0.2578330750573861,1.110753694324846,0.6226675801038727,,-0.03421717998534883,-0.08751299035656068,0.07561312771999999,-0.04775451182011164,,-4.455447e-06,-6.914139e-06,5.6028366e-06,1.0,1.5854836e-05,1.3258308e-05,-1.585111e-05,1.0,1.1622906e-06,-1.32620335e-05,-1.0728836e-06,1.0,443,1.352,0,0,0.0,False,-0.26249945523859,0.8029480019780326
1.370994928991422,09:26:30.481538,09:25:24.422896,0,,0.1193348,0.0045559555,0.036917344,-0.02791031,0.88730204,-0.46034327,0.16281706,0.45840812,0.8737006,0.98626137,-0.05056654,-0.15726227,,0.070369795,-0.030507661,0.021388233,-0.34309795,0.13745405,0.9291879,0.82003677,-0.43858373,0.3676738,0.45806488,0.88811636,0.03775975,,0.077484936,1.331889,0.4581931,0.9984691,0.027371895,-0.04806509,-0.009830473,-0.7673245,-0.6411837,-0.05443193,0.64067453,-0.7658807,,-0.07660724,0.25632402,-0.08900404,-0.048809092,-0.8777364,0.47665134,0.74599946,0.2852905,0.6017426,-0.6641555,0.38495216,0.6408661,,-0.0058993166,0.4157048,-0.32386133,0.277819,-0.26453403,-0.9234925,0.93741256,0.28474757,0.20044082,0.20993882,-0.9213797,0.32708582,,1.0769891584407274,0.3384642136786376,0.17718988010000003,2.4961490872397776,-0.7937214271374435,-0.38290566808025894,-0.4103202941293098,,-1.2722739046312426,0.06766658544395515,0.19100444263000002,-2.868768116811778,-0.2594727130545714,1.11021209814597,0.6249543970297525,,-0.03421717998534883,-0.08751299035656068,0.07561312771999999,-0.04775451182011164,,-4.455447e-06,-6.914139e-06,5.6028366e-06,1.0,1.5854836e-05,1.3258308e-05,-1.585111e-05,1.0,1.1622906e-06,-1.32620335e-05,-1.0728836e-06,1.0,451,1.377,0,0,0.0,False,-0.26333354329788383,0.8096589498863773
1.3921533450484276,09:26:30.509687,09:25:24.422896,0,,0.118953004,0.004586816,0.036919832,-0.0751476,0.884505,-0.46043855,0.14705351,0.46652567,0.87219787,0.98626965,-0.0021655858,-0.16512793,,0.0703204,-0.030575268,0.02156514,-0.33999658,0.13859223,0.93015826,0.8202508,-0.4400857,0.3653947,0.45999017,0.887196,0.035947233,,0.077484936,1.331889,0.4581931,0.9984691,0.027371895,-0.04806509,-0.009830473,-0.7673245,-0.6411837,-0.05443193,0.64067453,-0.7658807,,-0.07622664,0.25636664,-0.08901141,-0.0018167299,-0.878708,0.47735626,0.73585194,0.3220634,0.5956484,-0.67714,0.35234568,0.6460139,,-0.0058759362,0.41578305,-0.32403922,0.27447584,-0.26553583,-0.9242044,0.9385958,0.2829255,0.19746175,0.20904782,-0.9216528,0.326887,,1.0766493581942616,0.3388117366579777,0.17728710185000002,2.4267417159464,-0.8034226186207898,-0.33399226936725096,-0.40999360599704093,,-1.2723279637613623,0.06758163538233869,0.19081129542000003,-2.8649936978290564,-0.26001925905363316,1.108697479997382,0.6321415359396607,,-0.03421717998534883,-0.08751299035656068,0.07561312771999999,-0.04775451182011164,,-4.455447e-06,-6.914139e-06,5.6028366e-06,1.0,1.5854836e-05,1.3258308e-05,-1.585111e-05,1.0,1.1622906e-06,-1.32620335e-05,-1.0728836e-06,1.0,459,1.401,0,0,0.0,False,-0.26160578946077395,0.825639696344378
1.420304888044484,09:26:30.534623,09:25:24.422896,0,,0.11885774,0.004613325,0.036889225,-0.09170404,0.8904457,-0.44575396,0.14259008,0.45476943,0.8791205,0.9855243,0.01705882,-0.16867289,,0.0702839,-0.030602984,0.021705031,-0.33818647,0.13896394,0.9307625,0.81959176,-0.44257003,0.36386958,0.4624923,0.8859011,0.03577748,,0.077484936,1.331889,0.4581931,0.9984691,0.027371895,-0.04806509,-0.009830473,-0.7673245,-0.6411837,-0.05443193,0.64067453,-0.7658807,,-0.0761291,0.25637236,-0.088977255,0.014719274,-0.8862156,0.46303904,0.73265225,0.32469952,0.5981563,-0.680444,0.33044216,0.6540672,,-0.0058598593,0.41586316,-0.3241616,0.2723247,-0.26572984,-0.9247848,0.93967485,0.28021383,0.19619216,0.20700337,-0.922425,0.3260088,,1.0763713398107895,0.33912064597294667,0.17734284232000003,2.4026273724456804,-0.8050622566179751,-0.3006371883877933,-0.41195373479065245,,-1.2724206365558528,0.06756618991659023,0.19067129610000003,-2.8622677285637574,-0.2617955335505839,1.1085123379426243,0.6432489324367916,,-0.03421717998534883,-0.08751299035656068,0.07561312771999999,-0.04775451182011164,,-4.455447e-06,-6.914139e-06,5.6028366e-06,1.0,1.5854836e-05,1.3258308e-05,-1.585111e-05,1.0,1.1622906e-06,-1.32620335e-05,-1.0728836e-06,1.0,467,1.427,0,0,0.0,False,-0.26285692154971585,0.825736256745937
1.4452401170274243,09:26:30.558516,09:25:24.422896,0,,0.11855423,0.0046223253,0.036792517,-0.13732749,0.8871588,-0.44055665,0.13538605,0.4574078,0.8788907,0.9812296,0.06105061,-0.18292359,,0.0702504,-0.030643336,0.021818936,-0.33569345,0.13865805,0.9317101,0.81988156,-0.4439916,0.36147714,0.46379313,0.8852375,0.035361826,,0.077484936,1.331889,0.4581931,0.9984691,0.027371895,-0.04806509,-0.009830473,-0.7673245,-0.6411837,-0.05443193,0.64067453,-0.7658807,,-0.07581887,0.2563323,-0.088916354,0.060494106,-0.88638556,0.45897827,0.72639513,0.35446835,0.5888144,-0.68460983,0.29777977,0.66530937,,-0.005843124,0.41591606,-0.32427412,0.26967296,-0.2653386,-0.9256738,0.94054025,0.27876547,0.19409758,0.20654431,-0.9229763,0.32473716,,1.0759234213040845,0.3397925237330042,0.17742710117000002,2.3367847301915394,-0.8027394361219626,-0.24968514787968876,-0.40983026193090666,,-1.2724515274873498,0.06754302171796756,0.19054685226,-2.859332069354974,-0.26193217005034936,1.10854207710618,0.6486392866192228,,-0.03421717998534883,-0.08751299035656068,0.07561312771999999,-0.04775451182011164,,-4.455447e-06,-6.914139e-06,5.6028366e-06,1.0,1.5854836e-05,1.3258308e-05,-1.585111e-05,1.0,1.1622906e-06,-1.32620335e-05,-1.0728836e-06,1.0,496,1.516,0,0,0.0,False,-0.26243987752006825,0.8265087399584083
1.469092298997566,09:26:30.642496,09:25:24.593723,0,,0.11807287,0.0047809333,0.03660831,-0.2287152,0.87648576,-0.4236294,0.1096268,0.45558563,0.883416,0.9673009,0.15560947,-0.2002857,,0.07015087,-0.030740313,0.022181213,-0.332102,0.14272895,0.9323822,0.8201074,-0.44463202,0.3601754,0.4659744,0.8842686,0.030610055,,0.077484936,1.331889,0.4581931,0.9984691,0.027371895,-0.04806509,-0.009830473,-0.7673245,-0.6411837,-0.05443193,0.64067453,-0.7658807,,-0.07532353,0.25636178,-0.08870523,0.15253471,-0.8832001,0.4434983,0.70171,0.4127871,0.5806978,-0.6959427,0.22263063,0.6827147,,-0.0057966704,0.41610596,-0.32460928,0.26580825,-0.2692325,-0.9256672,0.9418614,0.27724573,0.18982086,0.20553136,-0.9223062,0.3272739,,1.0749966933591775,0.34251092570473124,0.17768376659000001,2.2017444065875056,-0.8006898886254811,-0.139048148741862,-0.41064698226157803,,-1.2727063776721992,0.06758163538233869,0.19016444671000002,-2.854928580541799,-0.2623420795496456,1.1036488914482736,0.6545196730000571,,-0.03421717998534883,-0.08751299035656068,0.07561312771999999,-0.04775451182011164,,-4.455447e-06,-6.914139e-06,5.6028366e-06,1.0,1.5854836e-05,1.3258308e-05,-1.585111e-05,1.0,1.1622906e-06,-1.32620335e-05,-1.0728836e-06,1.0,500,1.528,0,0,0.0,False,-0.26297607698675796,0.8314333204379127
1.5531149740563706,09:26:30.661933,09:25:24.593723,0,,0.11794998,0.004832238,0.036502376,-0.25367647,0.8715713,-0.41953722,0.10527146,0.45602462,0.8837192,0.96154356,0.18001342,-0.20743439,,0.0701506,-0.03074468,0.02221793,-0.33081907,0.14343953,0.93272924,0.82033306,-0.44486853,0.35936856,0.46648937,0.8840346,0.02950278,,0.077484936,1.331889,0.4581931,0.9984691,0.027371895,-0.04806509,-0.009830473,-0.7673245,-0.6411837,-0.05443193,0.64067453,-0.7658807,,-0.075192384,0.2563408,-0.08859888,0.17784451,-0.8802192,0.43998343,0.69582903,0.42864203,0.57627076,-0.69584,0.20366666,0.6887137,,-0.005801651,0.4161282,-0.3246384,0.26446602,-0.26990348,-0.9258563,0.94225514,0.2768463,0.18844467,0.205458,-0.92223006,0.32753435,,1.0748808523660642,0.3432909217250279,0.17777450689000002,2.1658874262516523,-0.7956343381341597,-0.1113159025238103,-0.41064698226157814,,-1.2727758822680673,0.06759708084808713,0.19013074317,-2.8534607509374075,-0.26220544304988025,1.102639007403031,0.6553363933307284,,-0.03421717998534883,-0.08751299035656068,0.07561312771999999,-0.04775451182011164,,-4.455447e-06,-6.914139e-06,5.6028366e-06,1.0,1.5854836e-05,1.3258308e-05,-1.585111e-05,1.0,1.1622906e-06,-1.32620335e-05,-1.0728836e-06,1.0,508,1.553,0,0,0.0,False,-0.2621419889274632,0.8325437650558407
1.5725514170480892,09:26:30.684141,09:25:24.593723,0,,0.117858686,0.0048938096,0.036413446,-0.27392504,0.8689143,-0.41225353,0.100776225,0.45222154,0.8861941,0.9564565,0.20120533,-0.21144071,,0.07014129,-0.03075049,0.022256613,-0.3306592,0.14415616,0.93267536,0.82033604,-0.4447034,0.3595661,0.4665975,0.884001,0.028788745,,0.077484936,1.331889,0.4581931,0.9984691,0.027371895,-0.04806509,-0.009830473,-0.7673245,-0.6411837,-0.05443193,0.64067453,-0.7658807,,-0.07509399,0.25633705,-0.088497184,0.19840266,-0.8792619,0.43305302,0.6900487,0.4390829,0.57535994,-0.69603825,0.18467471,0.6938487,,-0.0057979818,0.41615158,-0.32467088,0.2642924,-0.27060732,-0.92570037,0.9423165,0.27687266,0.188099,0.20540017,-0.92201585,0.32817307,,1.0748113477701962,0.34404002681382767,0.1778639509,2.1365308341638185,-0.7918085161407274,-0.08413279123516154,-0.41048363819544387,,-1.2728222186653126,0.06762024904670981,0.19009185447000002,-2.853251060993923,-0.26220544304988025,1.1018222200016252,0.6563164577275341,,-0.03421717998534883,-0.08751299035656068,0.07561312771999999,-0.04775451182011164,,-4.455447e-06,-6.914139e-06,5.6028366e-06,1.0,1.5854836e-05,1.3258308e-05,-1.585111e-05,1.0,1.1622906e-06,-1.32620335e-05,-1.0728836e-06,1.0,516,1.577,0,0,0.0,False,-0.26196325577190027,0.8324472046542817
1.5947565149981529,09:26:30.711292,09:25:24.593723,0,,0.11767858,0.004971117,0.036237,-0.3086989,0.8593322,-0.40774134,0.0929611,0.4538836,0.88619864,0.94660604,0.2356644,-0.21999785,,0.07014121,-0.030745454,0.02226746,-0.33067992,0.14421812,0.9326585,0.82031214,-0.4447096,0.35961282,0.46662483,0.8839879,0.02875264,,0.077484936,1.331889,0.4581931,0.9984691,0.027371895,-0.04806509,-0.009830473,-0.7673245,-0.6411837,-0.05443193,0.64067453,-0.7658807,,-0.07490009,0.25629467,-0.08832354,0.23379532,-0.87241197,0.42922854,0.6793495,0.46239942,0.5697991,-0.6955746,0.15837981,0.70077944,,-0.005799425,0.4161627,-0.3246751,0.2643089,-0.27066678,-0.9256783,0.94232017,0.2768531,0.18810925,0.205362,-0.9220043,0.3282295,,1.0748113477701962,0.3451134866833449,0.17801432054000002,2.0859955577840483,-0.7841568721538626,-0.04691910408738209,-0.411790390724518,,-1.2728608323296837,0.06765113997820671,0.19008407673000002,-2.853251060993923,-0.26220544304988025,1.101740541261485,0.6564798017936683,,-0.03421717998534883,-0.08751299035656068,0.07561312771999999,-0.04775451182011164,,-4.455447e-06,-6.914139e-06,5.6028366e-06,1.0,1.5854836e-05,1.3258308e-05,-1.585111e-05,1.0,1.1622906e-06,-1.32620335e-05,-1.0728836e-06,1.0,524,1.602,0,0,0.0,False,-0.2626186106756321,0.8327368858589583
1.6219041800359264,09:26:30.733638,09:25:24.593723,0,,0.11759141,0.005032271,0.036096886,-0.32774347,0.85504454,-0.40184948,0.08993578,0.45164722,0.88765216,0.9404762,0.25478148,-0.22492355,,0.07013778,-0.030742072,0.022276342,-0.33069214,0.14414644,0.93266517,0.82029283,-0.44476485,0.3595885,0.46665007,0.8839717,0.028837949,,0.077484936,1.331889,0.4581931,0.9984691,0.027371895,-0.04806509,-0.009830473,-0.7673245,-0.6411837,-0.05443193,0.64067453,-0.7658807,,-0.07480178,0.25625834,-0.08818216,0.25324437,-0.86965615,0.4237517,0.67400545,0.4728317,0.56757975,-0.69396245,0.14187461,0.70589495,,-0.0057972767,0.41617158,-0.3246794,0.26431733,-0.27059376,-0.9256972,0.9423249,0.27680925,0.18815002,0.20532931,-0.92203885,0.32815272,,1.0748345159688188,0.3457081371146602,0.17813098664000002,2.059155245018029,-0.7781448661641833,-0.023887362721952243,-0.41015695006317515,,-1.272876277795432,0.06768203090970361,0.19007629899000003,-2.853251060993923,-0.26220544304988025,1.1018222200016252,0.6566431458598027,,-0.03421717998534883,-0.08751299035656068,0.07561312771999999,-0.04775451182011164,,-4.455447e-06,-6.914139e-06,5.6028366e-06,1.0,1.5854836e-05,1.3258308e-05,-1.585111e-05,1.0,1.1622906e-06,-1.32620335e-05,-1.0728836e-06,1.0,532,1.626,0,0,0.0,False,-0.26285692154971585,0.8328817264612969
1.6442535030655563,09:26:30.759081,09:25:24.593723,0,,0.1174257,0.0051036626,0.035791934,-0.36145386,0.8443549,-0.39549425,0.08639541,0.45267785,0.8874788,0.9283785,0.28661373,-0.23657054,,0.07013266,-0.030740641,0.022280753,-0.33069438,0.14408925,0.9326733,0.82028216,-0.44480556,0.35956258,0.4666673,0.8839606,0.028900817,,0.077484936,1.331889,0.4581931,0.9984691,0.027371895,-0.04806509,-0.009830473,-0.7673245,-0.6411837,-0.05443193,0.64067453,-0.7658807,,-0.07461215,0.25613016,-0.08791169,0.28778005,-0.86149925,0.41833204,0.6651761,0.49406028,0.5598618,-0.68900174,0.11714742,0.7152294,,-0.0057928287,0.4161761,-0.32468206,0.26431698,-0.27053574,-0.9257143,0.94232935,0.2767778,0.188174,0.20530938,-0.9220653,0.32809085,,1.0749194660304353,0.34641862853908884,0.17834617078,2.012813767507949,-0.7648911256869357,0.010146728956663575,-0.4099936059970409,,-1.2728685550625578,0.06770519910832627,0.19007111383000003,-2.853251060993923,-0.26220544304988025,1.101903898741766,0.6568064899259368,,-0.03421717998534883,-0.08751299035656068,0.07561312771999999,-0.04775451182011164,,-4.455447e-06,-6.914139e-06,5.6028366e-06,1.0,1.5854836e-05,1.3258308e-05,-1.585111e-05,1.0,1.1622906e-06,-1.32620335e-05,-1.0728836e-06,1.0,540,1.651,0,0,0.0,False,-0.2622015666459845,0.8329782868628555
1.669689835049212,09:26:30.782840,09:25:24.756596,0,,0.11732762,0.005157247,0.03554231,-0.38279653,0.83889365,-0.38694212,0.086505294,0.4495527,0.8890553,0.9197736,0.30685467,-0.24465606,,0.07012941,-0.030741252,0.022283614,-0.3306932,0.14402357,0.9326838,0.8202796,-0.44483662,0.35953003,0.46667266,0.8839557,0.028964803,,0.077484936,1.331889,0.4581931,0.9984691,0.027371895,-0.04806509,-0.009830473,-0.7673245,-0.6411837,-0.05443193,0.64067453,-0.7658807,,-0.0744944,0.2560198,-0.08769087,0.3097341,-0.8576674,0.41045272,0.66082275,0.5045579,0.5556389,-0.68365055,0.09913618,0.72304493,,-0.0057900306,0.416178,-0.32468486,0.26431507,-0.27047017,-0.925734,0.9423311,0.2767585,0.18819378,0.20530394,-0.92209035,0.32802388,,1.0750275842906745,0.3467507060526805,0.17851598477000002,1.9851346949679922,-0.7536869327061696,0.03449874431118749,-0.41064698226157814,,-1.2728608323296837,0.06771292184120051,0.19006722496000003,-2.853251060993923,-0.26220544304988025,1.1019855774819065,0.6572965221243398,,-0.03421717998534883,-0.08751299035656068,0.07561312771999999,-0.04775451182011164,,-4.455447e-06,-6.914139e-06,5.6028366e-06,1.0,1.5854836e-05,1.3258308e-05,-1.585111e-05,1.0,1.1622906e-06,-1.32620335e-05,-1.0728836e-06,1.0,569,1.741,0,0,0.0,False,-0.26255903295711036,0.8327368858589583
1.6934153729816899,09:26:30.873907,09:25:24.756596,0,,0.11689545,0.0055065006,0.03394711,-0.47568825,0.80867916,-0.34606147,0.10165426,0.44132876,0.89156914,0.87372017,0.3889302,-0.2921406,,0.07012722,-0.030742012,0.022289872,-0.33033144,0.14413926,0.9327941,0.8203239,-0.444972,0.3592612,0.46685082,0.88386863,0.028747305,,0.077484936,1.331889,0.4581931,0.9984691,0.027371895,-0.04806509,-0.009830473,-0.7673245,-0.6411837,-0.05443193,0.64067453,-0.7658807,,-0.073935874,0.25531113,-0.08626286,0.4060539,-0.8340583,0.37345278,0.6478984,0.5509463,0.5260094,-0.6444749,0.02837129,0.76409894,,-0.0057887468,0.41618195,-0.32469007,0.2639318,-0.27057287,-0.9258133,0.942451,0.2765902,0.18784024,0.20524642,-0.92211074,0.32800263,,1.0761628260231855,0.34693605164166186,0.17963597933000003,1.8769346841299777,-0.685915228822511,0.12413354908711988,-0.40901354160023523,,-1.2728608323296837,0.06772064457407473,0.19006074351000002,-2.8528316811069536,-0.26220544304988025,1.1018222200016252,0.6569698339920712,,-0.03421717998534883,-0.08751299035656068,0.07561312771999999,-0.04775451182011164,,-4.455447e-06,-6.914139e-06,5.6028366e-06,1.0,1.5854836e-05,1.3258308e-05,-1.585111e-05,1.0,1.1622906e-06,-1.32620335e-05,-1.0728836e-06,1.0,577,1.766,1,1,0.0,False,-0.2636314318904893,0.8315781610402513
1.7845183180179447,09:26:30.900315,09:25:24.756596,0,,0.116701975,0.00562723,0.033554047,-0.49788746,0.7994445,-0.3361494,0.102318704,0.4390499,0.8926176,0.8611845,0.41002867,-0.3003956,,0.07012575,-0.030738272,0.022292256,-0.33033925,0.14406957,0.93280214,0.82031024,-0.4450192,0.35923415,0.46686947,0.8838563,0.028825536,,0.077484936,1.331889,0.4581931,0.9984691,0.027371895,-0.04806509,-0.009830473,-0.7673245,-0.6411837,-0.05443193,0.64067453,-0.7658807,,-0.073711306,0.25516737,-0.08589486,0.42917466,-0.8265272,0.3642279,0.6415514,0.56280833,0.52120876,-0.6357837,0.0099813165,0.7718027,,-0.0057876236,0.41618642,-0.32468927,0.2639368,-0.27050233,-0.9258325,0.94245476,0.27655452,0.18787399,0.20522282,-0.9221421,0.3279291,,1.0770509403037212,0.3467970424499258,0.17994968151000001,1.8496749914769892,-0.6703386678492508,0.14647208758602892,-0.409503573798638,,-1.2728685550625578,0.06774381277269739,0.19005944722,-2.8528316811069536,-0.26220544304988025,1.101903898741766,0.6568064899259368,,-0.03421717998534883,-0.08751299035656068,0.07561312771999999,-0.04775451182011164,,-4.455447e-06,-6.914139e-06,5.6028366e-06,1.0,1.5854836e-05,1.3258308e-05,-1.585111e-05,1.0,1.1622906e-06,-1.32620335e-05,-1.0728836e-06,1.0,585,1.79,1,1,0.024,False,-0.26273776611267374,0.832060963048046
1.8108831230783835,09:26:30.926607,09:25:24.905614,0,,0.11651516,0.005699903,0.033278704,-0.51345986,0.7912041,-0.3321972,0.09845713,0.4388875,0.8931316,0.85244644,0.42587999,-0.3032508,,0.07012528,-0.030738719,0.02229333,-0.33033925,0.14406957,0.93280214,0.82031024,-0.4450192,0.35923415,0.46686947,0.8838563,0.028825536,,0.077484936,1.331889,0.4581931,0.9984691,0.027371895,-0.04806509,-0.009830473,-0.7673245,-0.6411837,-0.05443193,0.64067453,-0.7658807,,-0.07350296,0.2550597,-0.08564789,0.4453625,-0.8195612,0.36051592,0.633767,0.57298416,0.5196428,-0.6324489,-0.0029463144,0.77459645,,-0.0057873135,0.41618693,-0.32469043,0.2639368,-0.27050233,-0.9258325,0.94245476,0.27655452,0.18787399,0.20522282,-0.9221421,0.3279291,,1.0777691544610242,0.3465344695322022,0.18018431000000001,1.8276575474111143,-0.6626870238623862,0.16244930229726234,-0.4101569500631752,,-1.2728685550625578,0.06774381277269739,0.19005815093000003,-2.8528316811069536,-0.26220544304988025,1.101903898741766,0.6568064899259368,,-0.03421717998534883,-0.08751299035656068,0.07561312771999999,-0.04775451182011164,,-4.455447e-06,-6.914139e-06,5.6028366e-06,1.0,1.5854836e-05,1.3258308e-05,-1.585111e-05,1.0,1.1622906e-06,-1.32620335e-05,-1.0728836e-06,1.0,598,1.831,1,1,0.065,False,-0.2632143878608417,0.8318678422449279
1.8372244409983978,09:26:30.962243,09:25:24.905614,0,,0.11609337,0.0058094114,0.032795623,-0.5401772,0.7775059,-0.32201406,0.09497097,0.43651998,0.894668,0.83617514,0.45269725,-0.30963865,,0.0701239,-0.030741282,0.02229476,-0.33033472,0.14414775,0.93279165,0.8203158,-0.44498175,0.35926774,0.46686286,0.8838624,0.028746203,,0.077484936,1.331889,0.4581931,0.9984691,0.027371895,-0.04806509,-0.009830473,-0.7673245,-0.6411837,-0.05443193,0.64067453,-0.7658807,,-0.07304379,0.254861,-0.08523203,0.47325584,-0.80803114,0.35087687,0.6220517,0.58856064,0.5163797,-0.6237632,-0.026116177,0.7811769,,-0.0057861656,0.41618615,-0.32469338,0.26393333,-0.27058044,-0.9258107,0.94245374,0.27657807,0.18784441,0.2052319,-0.92211217,0.3280077,,1.0797075604124544,0.3456386325187922,0.18057319700000002,1.7915908771317761,-0.6454708248919406,0.19088359130460558,-0.41015695006317515,,-1.2728608323296837,0.06773609003982317,0.19005555835000001,-2.8528316811069536,-0.26220544304988025,1.1018222200016252,0.6563164577275341,,-0.03421717998534883,-0.08751299035656068,0.07561312771999999,-0.04775451182011164,,-4.455447e-06,-6.914139e-06,5.6028366e-06,1.0,1.5854836e-05,1.3258308e-05,-1.585111e-05,1.0,1.1622906e-06,-1.32620335e-05,-1.0728836e-06,1.0,606,1.856,1,1,0.09,False,-0.26297607698675796,0.8305642768238828
1.872859649010934,09:26:30.985691,09:25:24.905614,0,,0.11587097,0.0058743954,0.032575548,-0.54968977,0.77386045,-0.31461233,0.0941973,0.43163285,0.8971176,0.8300408,0.46350065,-0.31015977,,0.07012145,-0.030744068,0.022294104,-0.3305092,0.14425263,0.93271357,0.82029873,-0.44484648,0.35947424,0.46676943,0.8839134,0.028695524,,0.077484936,1.331889,0.4581931,0.9984691,0.027371895,-0.04806509,-0.009830473,-0.7673245,-0.6411837,-0.05443193,0.64067453,-0.7658807,,-0.072804354,0.25478357,-0.08503505,0.48321682,-0.8052775,0.34355432,0.6180306,0.59169185,0.51762813,-0.6201126,-0.037799515,0.78360164,,-0.005783662,0.41618398,-0.3246951,0.26411924,-0.27069092,-0.92572534,0.94239384,0.27670023,0.18796512,0.20526795,-0.9220431,0.3281793,,1.08079646574772,0.3450671502860995,0.18076634421,1.7787997905792199,-0.6383657269041378,0.20550954534753235,-0.41113701445998085,,-1.2728453868639353,0.06772836730694895,0.19005426206,-2.8530413710504385,-0.26220544304988025,1.101740541261485,0.6548463611323254,,-0.03421717998534883,-0.08751299035656068,0.07561312771999999,-0.04775451182011164,,-4.455447e-06,-6.914139e-06,5.6028366e-06,1.0,1.5854836e-05,1.3258308e-05,-1.585111e-05,1.0,1.1622906e-06,-1.32620335e-05,-1.0728836e-06,1.0,615,1.884,1,1,0.118,False,-0.26255903295711036,0.8304677164223238
1.896283784066327,09:26:31.012746,09:25:24.905614,0,,0.11550743,0.005886093,0.03225887,-0.5671195,0.7633304,-0.30935755,0.09357649,0.43288317,0.89658,0.81830233,0.4795193,-0.3169263,,0.0701218,-0.03074304,0.02229768,-0.33015025,0.14420974,0.93284744,0.82034147,-0.44504383,0.35913223,0.46694824,0.883821,0.028630048,,0.077484936,1.331889,0.4581931,0.9984691,0.027371895,-0.04806509,-0.009830473,-0.7673245,-0.6411837,-0.05443193,0.64067453,-0.7658807,,-0.07241696,0.25461048,-0.08480587,0.5015123,-0.7960335,0.33884522,0.61097014,0.603174,0.5127345,-0.61253643,-0.05011831,0.78885186,,-0.0057845064,0.4161871,-0.3246969,0.26373863,-0.27063614,-0.9258499,0.94251335,0.27649903,0.18766168,0.20520857,-0.9221195,0.32800165,,1.0825263579115465,0.3439241858207143,0.18098152835000003,1.7561532766828913,-0.6245654404278282,0.220311855179033,-0.4096669178647724,,-1.2728531095968094,0.06773609003982317,0.19005166948000002,-2.8526219911634696,-0.26220544304988025,1.101740541261485,0.6548463611323254,,-0.03421717998534883,-0.08751299035656068,0.07561312771999999,-0.04775451182011164,,-4.455447e-06,-6.914139e-06,5.6028366e-06,1.0,1.5854836e-05,1.3258308e-05,-1.585111e-05,1.0,1.1622906e-06,-1.32620335e-05,-1.0728836e-06,1.0,624,1.913,1,1,0.147,False,-0.2630356547052788,0.8297917936114114
1.9233643349725753,09:26:31.043613,09:25:24.905614,0,,0.11510143,0.005875215,0.031984076,-0.580846,0.7557368,-0.30245608,0.092241615,0.43027598,0.8979722,0.8087702,0.49368447,-0.31963447,,0.07012123,-0.030742519,0.022302091,-0.32997298,0.14418724,0.9329136,0.82036,-0.44514653,0.3589626,0.467041,0.88377297,0.028600857,,0.077484936,1.331889,0.4581931,0.9984691,0.027371895,-0.04806509,-0.009830473,-0.7673245,-0.6411837,-0.05443193,0.64067453,-0.7658807,,-0.07199066,0.25444794,-0.08462606,0.5159381,-0.78959465,0.33218703,0.60457134,0.6103622,0.511812,-0.6068784,-0.06323252,0.79227537,,-0.0057845716,0.41619062,-0.32469973,0.26355004,-0.27060747,-0.92591196,0.94257355,0.27639437,0.18751343,0.20517431,-0.9221593,0.32791117,,1.0844184274657314,0.34251864843760543,0.18116949040000002,1.7372811817692841,-0.6136345204465931,0.23680051106703418,-0.40917688566636956,,-1.2728608323296837,0.06774381277269739,0.19004778061000002,-2.8524123012199847,-0.26220544304988025,1.101740541261485,0.6548463611323254,,-0.03421717998534883,-0.08751299035656068,0.07561312771999999,-0.04775451182011164,,-4.455447e-06,-6.914139e-06,5.6028366e-06,1.0,1.5854836e-05,1.3258308e-05,-1.585111e-05,1.0,1.1622906e-06,-1.32620335e-05,-1.0728836e-06,1.0,637,1.954,1,1,0.188,False,-0.2626781883941529,0.8291641510012786
1.9542183500016108,09:26:31.078972,09:25:25.054387,0,,0.114692695,0.0058372766,0.031719014,-0.5942747,0.74827176,-0.29483342,0.09242377,0.42769834,0.89918417,0.79893386,0.5071127,-0.32332835,,0.070118524,-0.030742027,0.022310138,-0.3297974,0.1440928,0.93299025,0.82037437,-0.4452834,0.35875982,0.46713966,0.88371944,0.02864322,,0.077484936,1.331889,0.4581931,0.9984691,0.027371895,-0.04806509,-0.009830473,-0.7673245,-0.6411837,-0.05443193,0.64067453,-0.7658807,,-0.07156257,0.25427058,-0.08447102,0.53010017,-0.7832258,0.32488635,0.5991488,0.6171058,0.51009923,-0.60001206,-0.07574843,0.7963967,,-0.0057830354,0.41619676,-0.32470536,0.26336223,-0.27050692,-0.92599475,0.94263506,0.2762683,0.1873898,0.20513277,-0.92222655,0.32774794,,1.0863568334171618,0.34097410186276056,0.18132893407000003,1.719876916460069,-0.6013372354677035,0.25225666665821167,-0.41146370259224946,,-1.2728685550625578,0.06775925823844585,0.19004000287000003,-2.8522026112765,-0.26220544304988025,1.1018222200016252,0.6546830170661911,,-0.03421717998534883,-0.08751299035656068,0.07561312771999999,-0.04775451182011164,,-4.455447e-06,-6.914139e-06,5.6028366e-06,1.0,1.5854836e-05,1.3258308e-05,-1.585111e-05,1.0,1.1622906e-06,-1.32620335e-05,-1.0728836e-06,1.0,646,1.983,1,1,0.217,False,-0.26285692154971585,0.8293572718043962
1.9895902130519971,09:26:31.114707,09:25:25.054387,0,,0.11412276,0.0057947636,0.03137487,-0.6117086,0.7387311,-0.28299958,0.09554756,0.42411122,0.90055573,0.7852917,0.5238376,-0.33001646,,0.070114866,-0.030744381,0.022312164,-0.32979175,0.14410529,0.9329904,0.8203774,-0.44527692,0.3587609,0.46713832,0.88372064,0.028627917,,0.077484936,1.331889,0.4581931,0.9984691,0.027371895,-0.04806509,-0.009830473,-0.7673245,-0.6411837,-0.05443193,0.64067453,-0.7658807,,-0.07096759,0.2540473,-0.08426802,0.5485727,-0.7750534,0.31362435,0.59380877,0.62522286,0.506446,-0.5886078,-0.091589585,0.8032137,,-0.005779711,0.41619682,-0.32470882,0.26335686,-0.27051944,-0.92599267,0.9426358,0.27627257,0.18738,0.20513643,-0.9222216,0.32775956,,1.0892605809778702,0.3388117366579777,0.18153115531000003,1.6993273019985855,-0.5822081255005418,0.27120826722017055,-0.41064698226157803,,-1.2728531095968094,0.06775925823844585,0.190036114,-2.8522026112765,-0.26220544304988025,1.1018222200016252,0.6546830170661911,,-0.03421717998534883,-0.08751299035656068,0.07561312771999999,-0.04775451182011164,,-4.455447e-06,-6.914139e-06,5.6028366e-06,1.0,1.5854836e-05,1.3258308e-05,-1.585111e-05,1.0,1.1622906e-06,-1.32620335e-05,-1.0728836e-06,1.0,659,2.024,1,1,0.258,False,-0.26232072208302704,0.826894981564644
2.0253136600367725,09:26:31.146575,09:25:25.054387,0,,0.11369799,0.00578624,0.031149507,-0.62079144,0.7343503,-0.27449504,0.09904355,0.42078996,0.9017352,0.7776941,0.5326025,-0.33395547,,0.07011454,-0.030745111,0.022316217,-0.32979456,0.14425147,0.93296677,0.8203759,-0.44522154,0.35883313,0.46713904,0.8837247,0.028491229,,0.077484936,1.331889,0.4581931,0.9984691,0.027371895,-0.04806509,-0.009830473,-0.7673245,-0.6411837,-0.05443193,0.64067453,-0.7658807,,-0.07052646,0.2539184,-0.08412631,0.55824673,-0.7713965,0.3054636,0.59217316,0.6283276,0.50451505,-0.5811123,-0.100756526,0.8075621,,-0.0057799765,0.41619915,-0.32471228,0.26335955,-0.27066445,-0.9259495,0.9426354,0.27630106,0.18733978,0.2051346,-0.9221705,0.3279044,,1.0914847280456468,0.33719768548726475,0.18168282124000001,1.6894718746548125,-0.5699108405216521,0.2824171283240387,-0.41130035852611513,,-1.2728608323296837,0.06775925823844585,0.19003222513,-2.8522026112765,-0.26220544304988025,1.1016588625213442,0.6517428238757742,,-0.03421717998534883,-0.08751299035656068,0.07561312771999999,-0.04775451182011164,,-4.455447e-06,-6.914139e-06,5.6028366e-06,1.0,1.5854836e-05,1.3258308e-05,-1.585111e-05,1.0,1.1622906e-06,-1.32620335e-05,-1.0728836e-06,1.0,668,2.052,1,1,0.286,False,-0.2631548101423209,0.8243361309233328
2.0571920870570466,09:26:31.179050,09:25:25.054387,0,,0.113303274,0.00586839,0.03086698,-0.627543,0.73070705,-0.26880637,0.10499534,0.4215209,0.9007199,0.7714697,0.5370169,-0.34124336,,0.07011224,-0.030748181,0.022318542,-0.32997182,0.14419773,0.9329124,0.82035744,-0.44514814,0.3589664,0.46704632,0.88377047,0.028592587,,0.077484936,1.331889,0.4581931,0.9984691,0.027371895,-0.04806509,-0.009830473,-0.7673245,-0.6411837,-0.05443193,0.64067453,-0.7658807,,-0.07011023,0.25382292,-0.08388133,0.56550366,-0.76810765,0.30036014,0.5932045,0.6318256,0.49890363,-0.5729869,-0.10395686,0.81294465,,-0.0057780496,0.41619873,-0.3247163,0.26354814,-0.27061749,-0.9259096,0.9425753,0.27639043,0.18751061,0.20516889,-0.9221575,0.32791954,,1.0936779841819266,0.33576125717265903,0.18193300521000003,1.6842296260676997,-0.5574769190429971,0.28608180617141943,-0.40950357379863805,,-1.2728531095968094,0.06775153550557163,0.19002833626,-2.8524123012199847,-0.26220544304988025,1.1017405412614847,0.6505994154128344,,-0.03421717998534883,-0.08751299035656068,0.07561312771999999,-0.04775451182011164,,-4.455447e-06,-6.914139e-06,5.6028366e-06,1.0,1.5854836e-05,1.3258308e-05,-1.585111e-05,1.0,1.1622906e-06,-1.32620335e-05,-1.0728836e-06,1.0,681,2.093,1,1,0.327,False,-0.26243987752006825,0.8231774061046253
2.0896651500370353,09:26:31.224260,09:25:25.208937,0,,0.11258436,0.0059755296,0.030460149,-0.63404524,0.7238444,-0.27209494,0.10197562,0.42705664,0.8984562,0.7665425,0.5419148,-0.34458777,,0.07011087,-0.030748822,0.022328138,-0.3297974,0.144169,0.9329786,0.82037437,-0.44525406,0.3587962,0.46713966,0.88372177,0.02857104,,0.077484936,1.331889,0.4581931,0.9984691,0.027371895,-0.04806509,-0.009830473,-0.7673245,-0.6411837,-0.05443193,0.64067453,-0.7658807,,-0.06936088,0.25368345,-0.08354541,0.572355,-0.761618,0.30388778,0.58805794,0.6395085,0.49519366,-0.57148725,-0.10472295,0.81390136,,-0.0057780696,0.41620508,-0.32472372,0.26336223,-0.27058256,-0.9259727,0.94263506,0.27628362,0.18736725,0.20513277,-0.9221998,0.32782328,,1.0969987593178432,0.33325909172141027,0.18235689204000002,1.6718579194021128,-0.5514649130533176,0.28926561368269255,-0.40999360599704093,,-1.2728685550625578,0.06775925823844585,0.19001926223,-2.8522026112765,-0.26220544304988025,1.101740541261485,0.6496193510160286,,-0.03421717998534883,-0.08751299035656068,0.07561312771999999,-0.04775451182011164,,-4.455447e-06,-6.914139e-06,5.6028366e-06,1.0,1.5854836e-05,1.3258308e-05,-1.585111e-05,1.0,1.1622906e-06,-1.32620335e-05,-1.0728836e-06,1.0,690,2.122,1,1,0.356,False,-0.26243987752006825,0.8212461980734473
2.134869480971247,09:26:31.249637,09:25:25.208937,0,,0.11235843,0.0060077757,0.030250236,-0.637758,0.72109693,-0.27070987,0.1036689,0.428627,0.8975142,0.7632282,0.54433256,-0.34811565,,0.07010855,-0.030752264,0.022331834,-0.3297929,0.1442472,0.93296796,0.82038,-0.44521666,0.35882986,0.46713305,0.88372785,0.028491765,,0.077484936,1.331889,0.4581931,0.9984691,0.027371895,-0.04806509,-0.009830473,-0.7673245,-0.6411837,-0.05443193,0.64067453,-0.7658807,,-0.06911893,0.25358707,-0.083377115,0.5763274,-0.7590597,0.30277896,0.58746415,0.6423682,0.49218795,-0.5680956,-0.105789594,0.81613475,,-0.005776301,0.41620535,-0.32472897,0.26335877,-0.27066067,-0.9259508,0.94263405,0.2763071,0.1873377,0.20514186,-0.9221698,0.32790187,,1.098025882790115,0.33227058191350956,0.18253966893,1.6678738104759065,-0.5459994530627,0.2907714455650967,-0.41015695006317515,,-1.2728685550625578,0.06775153550557163,0.1900101882,-2.8522026112765,-0.26220544304988025,1.1015771837812036,0.64700584595788,,-0.03421717998534883,-0.08751299035656068,0.07561312771999999,-0.04775451182011164,,-4.455447e-06,-6.914139e-06,5.6028366e-06,1.0,1.5854836e-05,1.3258308e-05,-1.585111e-05,1.0,1.1622906e-06,-1.32620335e-05,-1.0728836e-06,1.0,703,2.163,1,1,0.397,False,-0.2621419889274632,0.8187356276329152
2.160240415018052,09:26:31.291648,09:25:25.208937,0,,0.11188983,0.006112471,0.029556602,-0.6470951,0.71522796,-0.26403922,0.10976046,0.4301086,0.89607996,0.75446695,0.5508678,-0.3568249,,0.07010141,-0.030760325,0.022348046,-0.32960665,0.14445725,0.9330013,0.8204096,-0.44521528,0.3587638,0.46721238,0.8836942,0.028231755,,0.077484936,1.331889,0.4581931,0.9984691,0.027371895,-0.04806509,-0.009830473,-0.7673245,-0.6411837,-0.05443193,0.64067453,-0.7658807,,-0.06859656,0.25325477,-0.08280407,0.58636236,-0.75371444,0.29680586,0.58712995,0.6478787,0.48531598,-0.55808383,-0.1103074,0.82242,,-0.0057715876,0.41621146,-0.32474688,0.26316327,-0.2708638,-0.925947,0.94269216,0.27626467,0.18710774,0.20512573,-0.9221229,0.3280439,,1.0998407250155577,0.32972208006501547,0.18313596233,1.659486212736526,-0.5313793475877979,0.2964923377399411,-0.40950357379863805,,-1.2728531095968094,0.06774381277269739,0.18999463272000003,-2.8519929213330157,-0.26220544304988025,1.1014138263009225,0.6443923408997315,,-0.03421717998534883,-0.08751299035656068,0.07561312771999999,-0.04775451182011164,,-4.455447e-06,-6.914139e-06,5.6028366e-06,1.0,1.5854836e-05,1.3258308e-05,-1.585111e-05,1.0,1.1622906e-06,-1.32620335e-05,-1.0728836e-06,1.0,712,2.192,1,1,0.426,False,-0.2616653671792948,0.8188804682352537
2.2022445870097727,09:26:31.318818,09:25:25.208937,0,,0.11171017,0.0061641783,0.029224426,-0.64897454,0.7133628,-0.26447213,0.11034414,0.43219766,0.8950025,0.75276566,0.5516507,-0.3592007,,0.07009854,-0.030762888,0.022354841,-0.32960665,0.14460969,0.9329777,0.8204096,-0.4451567,0.3588365,0.46721238,0.8836988,0.028087407,,0.077484936,1.331889,0.4581931,0.9984691,0.027371895,-0.04806509,-0.009830473,-0.7673245,-0.6411837,-0.05443193,0.64067453,-0.7658807,,-0.06839099,0.25309485,-0.08252575,0.5883734,-0.75190383,0.2974178,0.58660185,0.650078,0.48300815,-0.55652046,-0.10972332,0.8235568,,-0.0057697254,0.4162146,-0.32475376,0.26316327,-0.27101508,-0.9259028,0.94269216,0.27629524,0.1870626,0.20512573,-0.9220693,0.32819453,,1.1002731980565144,0.32859456106537865,0.18343929419000002,1.6569699334147114,-0.52891989059202,0.29661046271706015,-0.4098302619309066,,-1.2728531095968094,0.06774381277269739,0.18998685498,-2.8519929213330157,-0.26220544304988025,1.1012504688206415,0.6443923408997316,,-0.03421717998534883,-0.08751299035656068,0.07561312771999999,-0.04775451182011164,,-4.455447e-06,-6.914139e-06,5.6028366e-06,1.0,1.5854836e-05,1.3258308e-05,-1.585111e-05,1.0,1.1622906e-06,-1.32620335e-05,-1.0728836e-06,1.0,721,2.22,1,1,0.454,False,-0.26309523242380006,0.81834938602668
2.229426593054086,09:26:31.346610,09:25:25.208937,0,,0.11147718,0.0062371045,0.028741553,-0.65170085,0.70956033,-0.26797375,0.10871053,0.4370404,0.8928482,0.750645,0.5527382,-0.3619563,,0.07009542,-0.030767523,0.022363722,-0.32960504,0.14468163,0.9329671,0.8204137,-0.44512248,0.3588696,0.46720645,0.8837042,0.028015792,,0.077484936,1.331889,0.4581931,0.9984691,0.027371895,-0.04806509,-0.009830473,-0.7673245,-0.6411837,-0.05443193,0.64067453,-0.7658807,,-0.06812027,0.25285938,-0.08212074,0.59124815,-0.7481692,0.30111217,0.58412373,0.654697,0.47976172,-0.55608016,-0.10777147,0.82411176,,-0.005767912,0.41621765,-0.32476357,0.2631625,-0.2710869,-0.9258819,0.9426908,0.27631658,0.18703796,0.20513299,-0.9220418,0.3282673,,1.1006438892344772,0.3270731826891564,0.18388651424000002,1.6517276848275984,-0.5275535255943656,0.29557796242023654,-0.40966691786477233,,-1.2728531095968094,0.06773609003982317,0.18997648466000003,-2.8519929213330157,-0.26220544304988025,1.101168790080501,0.6448823730981343,,-0.03421717998534883,-0.08751299035656068,0.07561312771999999,-0.04775451182011164,,-4.455447e-06,-6.914139e-06,5.6028366e-06,1.0,1.5854836e-05,1.3258308e-05,-1.585111e-05,1.0,1.1622906e-06,-1.32620335e-05,-1.0728836e-06,1.0,725,2.233,1,1,0.467,False,-0.26232072208302704,0.8161284967908249
2.2572253859834746,09:26:31.370604,09:25:25.208937,0,,0.111364916,0.006285101,0.028446227,-0.65370595,0.7071262,-0.2695198,0.109083265,0.44048643,0.89110756,0.7488452,0.55312204,-0.36508426,,0.070094205,-0.030770399,0.022368014,-0.32960337,0.14452499,0.932992,0.82041776,-0.4451763,0.35879362,0.46720046,0.8837028,0.028160691,,0.077484936,1.331889,0.4581931,0.9984691,0.027371895,-0.04806509,-0.009830473,-0.7673245,-0.6411837,-0.05443193,0.64067453,-0.7658807,,-0.06798481,0.25271666,-0.08186894,0.59339094,-0.7457516,0.30288893,0.58337545,0.6577273,0.47651634,-0.55458117,-0.10606251,0.82534266,,-0.00576734,0.41621867,-0.32476878,0.26316175,-0.27093187,-0.9259275,0.9426894,0.2762921,0.18708101,0.20514025,-0.9220947,0.32811412,,1.1007906211590874,0.3262391275387402,0.18415354998000003,1.6492114055057843,-0.5253673415981185,0.29395863344137485,-0.4103202941293095,,-1.2728531095968094,0.06772836730694895,0.18997129950000002,-2.8519929213330157,-0.26220544304988025,1.101332147560782,0.6448823730981345,,-0.03421717998534883,-0.08751299035656068,0.07561312771999999,-0.04775451182011164,,-4.455447e-06,-6.914139e-06,5.6028366e-06,1.0,1.5854836e-05,1.3258308e-05,-1.585111e-05,1.0,1.1622906e-06,-1.32620335e-05,-1.0728836e-06,1.0,734,2.261,1,1,0.495,False,-0.2626781883941529,0.8124592015315857
2.2812219250481576,09:26:31.388443,09:25:25.208937,0,,0.11124001,0.006344244,0.028082073,-0.65636927,0.70395863,-0.27133277,0.10910052,0.44443497,0.88914275,0.74650943,0.55400336,-0.36851564,,0.070091754,-0.030771188,0.022375703,-0.32960784,0.14421815,0.9330379,0.82041216,-0.44530156,0.35865092,0.4672071,0.88368976,0.028456524,,0.077484936,1.331889,0.4581931,0.9984691,0.027371895,-0.04806509,-0.009830473,-0.7673245,-0.6411837,-0.05443193,0.64067453,-0.7658807,,-0.06783127,0.25254002,-0.081557594,0.5962299,-0.74263906,0.30495426,0.58204406,0.661493,0.47291836,-0.55293274,-0.10447125,0.82665056,,-0.0057660043,0.41622362,-0.324775,0.26316518,-0.27062687,-0.92601573,0.94269043,0.27622277,0.18717825,0.20513116,-0.92220503,0.3278096,,1.1008910166864523,0.3252660631965879,0.18448280764000002,1.6456466764665472,-0.5229078846023405,0.2925248623558232,-0.4108103263277123,,-1.2728608323296837,0.06773609003982317,0.18996352176000003,-2.8519929213330157,-0.26220544304988025,1.1016588625213442,0.6390019867173005,,-0.03421717998534883,-0.08751299035656068,0.07561312771999999,-0.04775451182011164,,-4.455447e-06,-6.914139e-06,5.6028366e-06,1.0,1.5854836e-05,1.3258308e-05,-1.585111e-05,1.0,1.1622906e-06,-1.32620335e-05,-1.0728836e-06,1.0,743,2.29,1,1,0.524,False,-0.26154621174225356,0.8089347468746855
2.2990586020750925,09:26:31.421276,09:25:25.399590,0,,0.11106611,0.006433949,0.027568549,-0.6603907,0.6997805,-0.27238056,0.10919765,0.4483649,0.88715553,0.74293995,0.5561259,-0.37251037,,0.07009235,-0.030771472,0.022378802,-0.32942894,0.14403895,0.9331288,0.82043463,-0.44545797,0.35840517,0.46729392,0.8836402,0.028572127,,0.077484936,1.331889,0.4581931,0.9984691,0.027371895,-0.04806509,-0.009830473,-0.7673245,-0.6411837,-0.05443193,0.64067453,-0.7658807,,-0.06761695,0.2522958,-0.081114426,0.6005204,-0.73861694,0.306301,0.5800624,0.66606736,0.46891567,-0.55036616,-0.10391972,0.8284309,,-0.005767049,0.41622552,-0.32477736,0.2629758,-0.2704431,-0.92612326,0.9427492,0.27609357,0.18707298,0.20510408,-0.9222976,0.32756594,,1.1010531940768111,0.3239377531422213,0.18494947204,1.6404044278794339,-0.5190820626089083,0.29242727443752425,-0.40999360599704093,,-1.2728685550625578,0.06773609003982317,0.18996092918000002,-2.8517832313895313,-0.26220544304988025,1.1018222200016252,0.6373685460559577,,-0.03421717998534883,-0.08751299035656068,0.07561312771999999,-0.04775451182011164,,-4.455447e-06,-6.914139e-06,5.6028366e-06,1.0,1.5854836e-05,1.3258308e-05,-1.585111e-05,1.0,1.1622906e-06,-1.32620335e-05,-1.0728836e-06,1.0,756,2.331,1,1,0.565,False,-0.2629164992682367,0.8092727082801416
2.3318900379817933,09:26:31.458951,09:25:25.399590,0,,0.1108373,0.006572604,0.026876986,-0.66683066,0.69443125,-0.27037376,0.111676365,0.45184025,0.88508123,0.73679376,0.56000483,-0.37885252,,0.070087194,-0.030776523,0.022384703,-0.3293832,0.14442012,0.933086,0.8205141,-0.44519448,0.35855067,0.46718654,0.8837108,0.028140783,,0.077484936,1.331889,0.4581931,0.9984691,0.027371895,-0.04806509,-0.009830473,-0.7673245,-0.6411837,-0.05443193,0.64067453,-0.7658807,,-0.067333564,0.25198048,-0.08050605,0.6074392,-0.7335683,0.30478695,0.57842684,0.67144114,0.4632377,-0.54446304,-0.1050918,0.8321753,,-0.005762811,0.4162265,-0.32478565,0.26294622,-0.2708293,-0.9260188,0.9427278,0.27629465,0.18688391,0.2052404,-0.922124,0.32796893,,1.101431607987648,0.3222387519098919,0.18557558011000003,1.6339040396314137,-0.5108838726229818,0.29399175296993574,-0.41113701445998085,,-1.2728531095968094,0.06773609003982317,0.18995185515000002,-2.8517832313895313,-0.2620688065501148,1.1013840871373666,0.6350817291300778,,-0.03421717998534883,-0.08751299035656068,0.07561312771999999,-0.04775451182011164,,-4.455447e-06,-6.914139e-06,5.6028366e-06,1.0,1.5854836e-05,1.3258308e-05,-1.585111e-05,1.0,1.1622906e-06,-1.32620335e-05,-1.0728836e-06,1.0,765,2.36,1,1,0.594,False,-0.26243987752006825,0.8059896546271386
