AlexandreBanks6/ExpertPlaybackApp/resources/Motions/P_10/PC1/Data_PC1_4.csv
Task Time,PC1 Time,PC2 Time,Gaze Calib,s_T_psm1,Tx,Ty,Tz,R00,R01,R02,R10,R11,R12,R20,R21,R22,s_T_psm3,Tx,Ty,Tz,R00,R01,R02,R10,R11,R12,R20,R21,R22,cart_T_ecm,Tx,Ty,Tz,R00,R01,R02,R10,R11,R12,R20,R21,R22,ecm_T_psm1,Tx,Ty,Tz,R00,R01,R02,R10,R11,R12,R20,R21,R22,ecm_T_psm3,Tx,Ty,Tz,R00,R01,R02,R10,R11,R12,R20,R21,R22,psm1_joints,q1,q2,q3,q4,q5,q6,jaw,psm3_joints,q1,q2,q3,q4,q5,q6,jaw,ecm_joints,q1,q2,q3,q4,ecmi_T_ecm,Tx,Ty,Tz,R00,R01,R02,R10,R11,R12,R20,R21,R22,Sample #,Task Duration (s),Collisions (binary),Collisions (increments),Cumulative Collision Time (s),Clutch Press,MTMR Angle,MTML Angle
""
lci_T_si,,,,,-0.061405014,0.027400337,0.2485284,0.99760735,0.0015516733,0.06911746,0.046116903,-0.7597547,-0.64857227,0.051505942,0.65020794,-0.7580084
rci_T_si,,,,,-0.072011076,0.03243643,0.2623404,0.9976547,-0.011777193,0.067427725,0.035187066,-0.75671625,-0.6527958,0.058711756,0.65363735,-0.7545271
ecm_T_lc,,,,,-4.4061628e-05,-0.00034663224,-0.01840835,-0.99912,0.030754527,0.028518902,-0.031987965,-0.99852574,-0.043852776,0.027128186,-0.04472645,0.9986309
ecm_T_rc,,,,,-0.0043358393,0.01870579,-0.007592615,-0.99555075,-0.052743673,-0.078081585,0.04863213,-0.9973746,0.053654674,-0.08070653,0.04961868,0.9955021
cart_T_ecmi,,,,,0.07748984,1.3318874,0.4582016,0.9984689,0.027356012,-0.04807836,-0.00985114,-0.76732504,-0.64118266,-0.05443193,0.64067453,-0.7658807
ecmac_T_ecmrep_psm1,,,,,0.0028397094,-0.24236576,-0.3123762,0.99938005,0.032352094,0.013886033,-0.031258944,0.9968569,-0.072795466,-0.016197473,0.07231628,0.9972502
ecmac_T_ecmrep_psm3,,,,,-0.018767226,-0.44603547,-0.53896165,0.9994355,-0.013331066,-0.030837692,0.013906483,0.9997318,0.01852092,0.030582517,-0.018939309,0.9993528
""
0,09:27:16.822240,09:26:10.780151,0,,0.12888768,0.0030217916,0.031565055,0.63114434,0.40250748,-0.6630568,0.46798617,0.48411095,0.73934114,0.6185834,-0.77693254,0.11717594,,0.07103812,-0.03865952,0.018272132,0.07344089,0.3569056,0.931249,0.5387881,-0.799973,0.26410314,0.839234,0.48234996,-0.25104725,,0.07739586,1.3318864,0.4581979,0.9984701,0.027454546,-0.04799602,-0.009722923,-0.7673215,-0.6411888,-0.05443193,0.64067453,-0.7658807,,-0.08564411,0.25134003,-0.08520337,-0.67504054,-0.33717608,0.65622604,0.7234867,-0.12828922,0.67831326,-0.14452428,0.93265975,0.33054283,,-0.006073515,0.4076403,-0.32725766,-0.1900706,-0.42537203,-0.88483435,0.9584597,-0.27562678,-0.073382184,-0.2126693,-0.8620258,0.4600905,,1.038035693823139,0.3645902189921391,0.17815172728,3.3036650595986807,-0.23925051108928622,-1.2241570393099754,-0.41260711105518943,,-1.2325790576577287,0.019414950445800418,0.19275054526000002,-2.2363432472624525,-0.6158207044428401,0.6865910871971608,0.563863716295532,,-0.03256129885751921,-0.08751299035656068,0.07561312771999999,-0.048081597517509664,,-9.3631446e-05,-4.172325e-06,7.987022e-06,0.99999994,9.835139e-05,8.2273036e-05,-9.8347664e-05,0.99999994,7.0035458e-06,-8.2273036e-05,-6.9737434e-06,0.99999994,35,0.105,0,0,0.0,False,-0.2608908568385213,0.7377697309257636
0.12971378699876368,09:27:16.847035,09:26:10.780151,0,,0.12885997,0.0031202585,0.03186728,0.6184058,0.4218143,-0.66305864,0.45520443,0.49550545,0.73977226,0.6405957,-0.7593068,0.11441168,,0.07101013,-0.03866022,0.018335968,0.07202312,0.35831863,0.93081695,0.53906524,-0.79917943,0.26593378,0.8391788,0.48261786,-0.25071657,,0.07739586,1.3318864,0.4581979,0.9984701,0.027454546,-0.04799602,-0.009722923,-0.7673215,-0.6411888,-0.05443193,0.64067453,-0.7658807,,-0.08563967,0.25160727,-0.085377626,-0.6641515,-0.35774124,0.656448,0.727908,-0.10924303,0.6769165,-0.17044857,0.9274088,0.33295664,,-0.006054912,0.40768656,-0.32730642,-0.18865831,-0.42680547,-0.8844462,0.9587571,-0.27500868,-0.07179892,-0.21258622,-0.86151457,0.46108544,,1.0390705400282851,0.3644048734031577,0.17802080199,3.291503042876579,-0.26575799204378164,-1.217979247879436,-0.41113701445998085,,-1.232625394054974,0.019461286843045763,0.19268573076,-2.2380207668103287,-0.6162306139421364,0.6861085535068445,0.563863716295532,,-0.03256129885751921,-0.08751299035656068,0.07561312771999999,-0.048081597517509664,,-9.3631446e-05,-4.172325e-06,7.987022e-06,0.99999994,9.835139e-05,8.2273036e-05,-9.8347664e-05,0.99999994,7.0035458e-06,-8.2273036e-05,-6.9737434e-06,0.99999994,43,0.129,0,0,0.0,False,-0.26154621174225356,0.7377697309257636
0.1545105129480362,09:27:16.872186,09:26:10.780151,0,,0.12883952,0.0031812936,0.032086328,0.6089571,0.4360761,-0.6625774,0.4457093,0.5028552,0.7405941,0.65613586,-0.74630696,0.11185393,,0.071000606,-0.03866244,0.018382818,0.07200095,0.35842368,0.93077826,0.5387526,-0.79932547,0.26612833,0.8393815,0.4822978,-0.25065392,,0.07739586,1.3318864,0.4581979,0.9984701,0.027454546,-0.04799602,-0.009722923,-0.7673215,-0.6411888,-0.05443193,0.64067453,-0.7658807,,-0.085636154,0.25179294,-0.085510425,-0.6560127,-0.37293744,0.65617454,0.7306829,-0.09601682,0.6759314,-0.18907635,0.9228751,0.33548728,,-0.006052177,0.40771818,-0.3273422,-0.18866657,-0.42686445,-0.884416,0.95867467,-0.27534437,-0.07161239,-0.21295018,-0.86137813,0.4611724,,1.0397733087198395,0.36423497327992477,0.17792358024000002,3.282696065250229,-0.28488710201094336,-1.2125089051393667,-0.4127704551213238,,-1.2326794531850935,0.019492177774542662,0.1926416569,-2.2378110768668438,-0.6165038869416672,0.6858413168733939,0.5625569637664577,,-0.03256129885751921,-0.08751299035656068,0.07561312771999999,-0.048081597517509664,,-9.3631446e-05,-4.172325e-06,7.987022e-06,0.99999994,9.835139e-05,8.2273036e-05,-9.8347664e-05,0.99999994,7.0035458e-06,-8.2273036e-05,-6.9737434e-06,0.99999994,50,0.151,0,0,0.0,False,-0.26232072208302704,0.7377697309257636
0.1796435529831797,09:27:16.902232,09:26:10.884763,0,,0.12878639,0.0032544136,0.032433912,0.588108,0.45748907,-0.6669576,0.43626386,0.51494503,0.7379059,0.68103045,-0.7249381,0.10325727,,0.07097259,-0.03865189,0.018457681,0.06931807,0.36066663,0.9301153,0.5398605,-0.79759896,0.2690475,0.83889544,0.48348272,-0.2499977,,0.07739586,1.3318864,0.4581979,0.9984701,0.027454546,-0.04799602,-0.009722923,-0.7673215,-0.6411888,-0.05443193,0.64067453,-0.7658807,,-0.085610114,0.25207004,-0.08573743,-0.63724524,-0.39589262,0.6612016,0.73986924,-0.07417811,0.6686487,-0.2156664,0.91529596,0.3401784,,-0.00603508,0.40778014,-0.32739094,-0.18593717,-0.42924613,-0.88384116,0.95939267,-0.27350417,-0.06900127,-0.21211569,-0.8607806,0.46267018,,1.0407386503291176,0.3639492321635785,0.17775376625000003,3.260678621184354,-0.3122144019640314,-1.2023137779408857,-0.41375051951812947,,-1.2328261851097038,0.01956168237041068,0.19256776837000003,-2.241585495849565,-0.6166405234414327,0.685626019816528,0.5632103400309948,,-0.03256129885751921,-0.08751299035656068,0.07561312771999999,-0.048081597517509664,,-9.3631446e-05,-4.172325e-06,7.987022e-06,0.99999994,9.835139e-05,8.2273036e-05,-9.8347664e-05,0.99999994,7.0035458e-06,-8.2273036e-05,-6.9737434e-06,0.99999994,62,0.187,0,0,0.0,False,-0.26255903295711036,0.734341836670422
0.2097027829149738,09:27:16.925320,09:26:10.884763,0,,0.12874188,0.0032705665,0.032675043,0.5767857,0.47252977,-0.6663586,0.42973208,0.5182173,0.73944634,0.694729,-0.7128578,0.09583911,,0.070970014,-0.038646884,0.01850465,0.0691781,0.36106256,0.92997205,0.53969085,-0.79755867,0.26950672,0.8390161,0.4832535,-0.25003576,,0.07739586,1.3318864,0.4581979,0.9984701,0.027454546,-0.04799602,-0.009722923,-0.7673215,-0.6411888,-0.05443193,0.64067453,-0.7658807,,-0.08558461,0.2522357,-0.085917115,-0.62707585,-0.41181746,0.6611976,0.7438793,-0.06473513,0.6651714,-0.23112647,0.9089641,0.34693632,,-0.0060392055,0.40781635,-0.32742107,-0.18581656,-0.42960516,-0.883692,0.9593677,-0.27367154,-0.06868422,-0.21233426,-0.86054826,0.463002,,1.041371914424804,0.36374844110884863,0.17761117435,3.249145674292705,-0.32820087243658796,-1.1918099241527618,-0.4126071110551892,,-1.2329265806370688,0.01960801876765603,0.19252887967,-2.2413758059060807,-0.6167771599411982,0.6851656865392406,0.5620669315680549,,-0.03256129885751921,-0.08751299035656068,0.07561312771999999,-0.048081597517509664,,-9.3631446e-05,-4.172325e-06,7.987022e-06,0.99999994,9.835139e-05,8.2273036e-05,-9.8347664e-05,0.99999994,7.0035458e-06,-8.2273036e-05,-6.9737434e-06,0.99999994,70,0.211,0,0,0.0,False,-0.2630356547052788,0.7319278266314488
0.2327982319984585,09:27:16.956594,09:26:10.884763,0,,0.12863255,0.0032960325,0.03303121,0.55781,0.4934543,-0.667346,0.42324477,0.52253324,0.74015045,0.7139409,-0.6953141,0.08262226,,0.07094826,-0.03862951,0.018638581,0.06669659,0.3635962,0.92916584,0.5393814,-0.7965807,0.27299625,0.8394159,0.48296693,-0.24924627,,0.07739586,1.3318864,0.4581979,0.9984701,0.027454546,-0.04799602,-0.009722923,-0.7673215,-0.6411888,-0.05443193,0.64067453,-0.7658807,,-0.08550351,0.25248364,-0.08618437,-0.60971075,-0.43403158,0.6632265,0.75172186,-0.05131983,0.6574805,-0.2513306,0.89943475,0.35756126,,-0.006036686,0.4079233,-0.3275063,-0.1834187,-0.432068,-0.88299197,0.9596605,-0.2734115,-0.06555816,-0.21309459,-0.8593971,0.46478736,,1.0424299288285728,0.3634626999925023,0.17739728650000003,3.2285960598312218,-0.34910625690070035,-1.175008021107631,-0.4139138635842634,,-1.2331891535547923,0.019716137027895174,0.19241480615,-2.2436823952844107,-0.6181435249388526,0.6837478246318475,0.5560232011210866,,-0.03256129885751921,-0.08751299035656068,0.07561312771999999,-0.048081597517509664,,-9.3631446e-05,-4.172325e-06,7.987022e-06,0.99999994,9.835139e-05,8.2273036e-05,-9.8347664e-05,0.99999994,7.0035458e-06,-8.2273036e-05,-6.9737434e-06,0.99999994,81,0.245,0,0,0.0,False,-0.2604738128088746,0.7265204441441497
0.2640555580146611,09:27:16.994287,09:26:10.884763,0,,0.12848406,0.0033687204,0.03347741,0.5292459,0.52058536,-0.66999215,0.41254574,0.53213376,0.73935074,0.7414206,-0.6677008,0.06686425,,0.07093383,-0.038619034,0.018739015,0.06565508,0.36450195,0.9288851,0.53968453,-0.79596275,0.2741964,0.8393031,0.48330268,-0.24897517,,0.07739586,1.3318864,0.4581979,0.9984701,0.027454546,-0.04799602,-0.009722923,-0.7673215,-0.6411888,-0.05443193,0.64067453,-0.7658807,,-0.085390165,0.25282645,-0.08649426,-0.5834634,-0.4631935,0.6670999,0.7618984,-0.02776058,0.64710134,-0.2812141,0.8858223,0.36910367,,-0.0060366774,0.40800148,-0.32757178,-0.1823705,-0.43300974,-0.8827477,0.95990056,-0.2728238,-0.06448295,-0.21291286,-0.8591098,0.46540132,,1.043781407081562,0.36300705875292305,0.17717432462000002,3.198191018025965,-0.3801227423474553,-1.1542084876762744,-0.41293379918745776,,-1.233413112808145,0.019816532555260093,0.19232406585000003,-2.244940534945318,-0.6181435249388526,0.6835027884114258,0.5542264163936095,,-0.03256129885751921,-0.08751299035656068,0.07561312771999999,-0.048081597517509664,,-9.3631446e-05,-4.172325e-06,7.987022e-06,0.99999994,9.835139e-05,8.2273036e-05,-9.8347664e-05,0.99999994,7.0035458e-06,-8.2273036e-05,-6.9737434e-06,0.99999994,93,0.281,0,0,0.0,False,-0.2616653671792948,0.7203405784443793
0.3017308429116383,09:27:17.025597,09:26:10.884763,0,,0.12836844,0.0034450293,0.03383176,0.50900894,0.5454689,-0.6658628,0.399109,0.535831,0.74404097,0.7626412,-0.64447546,0.055041134,,0.070911355,-0.03861069,0.0188559,0.0643111,0.3647396,0.9288858,0.5401301,-0.7954068,0.2749315,0.8391206,0.48403808,-0.24816035,,0.07739586,1.3318864,0.4581979,0.9984701,0.027454546,-0.04799602,-0.009722923,-0.7673215,-0.6411888,-0.05443193,0.64067453,-0.7658807,,-0.085302345,0.25311306,-0.08672858,-0.56504095,-0.48980525,0.6639424,0.76564974,-0.01144319,0.64315593,-0.30742353,0.8717568,0.3814851,,-0.006031055,0.40809026,-0.32765132,-0.18101236,-0.43334746,-0.88286155,0.96022373,-0.2719405,-0.06339347,-0.2126144,-0.8592196,0.4653351,,1.0449243715469474,0.3626131993763376,0.17702395498,3.1782704733949356,-0.40758667880030885,-1.1332837063558237,-0.4135871754519951,,-1.2336447947943716,0.019924650815499236,0.19221517749000003,-2.246618054493194,-0.6181435249388526,0.6842378970726908,0.5472026215498355,,-0.03256129885751921,-0.08751299035656068,0.07561312771999999,-0.048081597517509664,,-9.3631446e-05,-4.172325e-06,7.987022e-06,0.99999994,9.835139e-05,8.2273036e-05,-9.8347664e-05,0.99999994,7.0035458e-06,-8.2273036e-05,-6.9737434e-06,0.99999994,101,0.305,0,0,0.0,False,-0.2618441003348577,0.7151263167601973
0.33306876092683524,09:27:17.055754,09:26:10.884763,0,,0.12818816,0.0035197586,0.03417164,0.48216626,0.56763947,-0.66730875,0.38874748,0.5439746,0.7436174,0.7851056,-0.6179619,0.04161772,,0.07088783,-0.038600482,0.018963486,0.06276739,0.3665917,0.9282622,0.5405601,-0.7943433,0.2771524,0.8389606,0.4843854,-0.24802375,,0.07739586,1.3318864,0.4581979,0.9984701,0.027454546,-0.04799602,-0.009722923,-0.7673215,-0.6411888,-0.05443193,0.64067453,-0.7658807,,-0.08514893,0.25339228,-0.08695686,-0.5401128,-0.5139444,0.6664378,0.7728687,0.010515559,0.63447887,-0.3330948,0.85775906,0.39153194,,-0.00602307,0.4081741,-0.32772306,-0.17945981,-0.43522567,-0.88225436,0.9605706,-0.27111614,-0.061645623,-0.21236363,-0.8585305,0.46671942,,1.0461213951424522,0.36201082621214814,0.17688914082,3.14975264108104,-0.4346407057538661,-1.113346608667587,-0.4147305839149349,,-1.2338533085819756,0.02003276907573838,0.19211536316000002,-2.2485052639845544,-0.618280161438618,0.6833691700947003,0.5426289876980757,,-0.03256129885751921,-0.08751299035656068,0.07561312771999999,-0.048081597517509664,,-9.3631446e-05,-4.172325e-06,7.987022e-06,0.99999994,9.835139e-05,8.2273036e-05,-9.8347664e-05,0.99999994,7.0035458e-06,-8.2273036e-05,-6.9737434e-06,0.99999994,112,0.339,0,0,0.0,False,-0.262797343831195,0.7078842866432788
0.363223536987789,09:27:17.078127,09:26:11.052327,0,,0.12798984,0.0035949647,0.0344806,0.45428348,0.5902106,-0.66729134,0.37672836,0.551496,0.7442632,0.80728054,-0.5894941,0.02818641,,0.07085558,-0.038590156,0.01908043,0.060054105,0.36552656,0.92886144,0.5404351,-0.7942653,0.27761912,0.83923966,0.48531726,-0.2452423,,0.07739586,1.3318864,0.4581979,0.9984701,0.027454546,-0.04799602,-0.009722923,-0.7673215,-0.6411888,-0.05443193,0.64067453,-0.7658807,,-0.08497509,0.2536533,-0.08716202,-0.514135,-0.53864044,0.6674816,0.77866334,0.033197038,0.62656313,-0.35965067,0.8418815,0.4023518,,-0.0060077747,0.40826526,-0.32780224,-0.17681457,-0.43430394,-0.88324213,0.96093476,-0.27031478,-0.05944971,-0.21293417,-0.85924965,0.46513334,,1.0472566368749632,0.3612385529247257,0.17679062278000002,3.1203960489932068,-0.4629244612053123,-1.091344926224255,-0.41407720765039757,,-1.2340309314380828,0.020125441870229074,0.19200777109000003,-2.2512312332498534,-0.6196465264362724,0.6861169239344758,0.5360952250527045,,-0.03256129885751921,-0.08751299035656068,0.07561312771999999,-0.048081597517509664,,-9.3631446e-05,-4.172325e-06,7.987022e-06,0.99999994,9.835139e-05,8.2273036e-05,-9.8347664e-05,0.99999994,7.0035458e-06,-8.2273036e-05,-6.9737434e-06,0.99999994,120,0.363,0,0,0.0,False,-0.26243987752006825,0.7051323151988496
0.38558565301354975,09:27:17.104899,09:26:11.052327,0,,0.12783004,0.0036217868,0.03466095,0.43566623,0.60263085,-0.6686036,0.3707298,0.5567373,0.74337256,0.8202158,-0.5717337,0.019138306,,0.07083368,-0.038588353,0.019160062,0.059079684,0.36623117,0.9286464,0.54079044,-0.79367995,0.27859968,0.83907986,0.48574355,-0.24494469,,0.07739586,1.3318864,0.4581979,0.9984701,0.027454546,-0.04799602,-0.009722923,-0.7673215,-0.6411888,-0.05443193,0.64067453,-0.7658807,,-0.08482983,0.25379434,-0.087295376,-0.4966302,-0.55238825,0.6694966,0.7829366,0.047848854,0.6202587,-0.37465826,0.8322125,0.40872177,,-0.0059974585,0.40832362,-0.32785985,-0.17582585,-0.4350597,-0.88306755,0.96117336,-0.26966855,-0.05852011,-0.2126758,-0.8590704,0.4655825,,1.0479902964980143,0.3606207342947877,0.17672451199000003,3.1000561244752083,-0.47904756817763416,-1.0776258624070933,-0.41456723984880073,,-1.2341467724311963,0.02018722373322287,0.19193258627,-2.2524893729107607,-0.6196465264362724,0.6861169239344758,0.5321749674654818,,-0.03256129885751921,-0.08751299035656068,0.07561312771999999,-0.048081597517509664,,-9.3631446e-05,-4.172325e-06,7.987022e-06,0.99999994,9.835139e-05,8.2273036e-05,-9.8347664e-05,0.99999994,7.0035458e-06,-8.2273036e-05,-6.9737434e-06,0.99999994,128,0.387,0,0,0.0,False,-0.26202283349042155,0.7041184309824806
0.41233213199302554,09:27:17.128557,09:26:11.052327,0,,0.12757283,0.0036684722,0.034955487,0.4033189,0.6264876,-0.6669685,0.358639,0.5623429,0.74508274,0.84185004,-0.539707,0.0021205246,,0.070795275,-0.03857311,0.019284815,0.05512824,0.36781454,0.92826355,0.5414947,-0.7921026,0.2817036,0.8388946,0.48712006,-0.2428369,,0.07739586,1.3318864,0.4581979,0.9984701,0.027454546,-0.04799602,-0.009722923,-0.7673215,-0.6411888,-0.05443193,0.64067453,-0.7658807,,-0.08459632,0.25402674,-0.08751113,-0.46615967,-0.57865757,0.6692164,0.7885364,0.071212575,0.6108511,-0.40113023,0.81245565,0.42309615,,-0.0059771584,0.40842432,-0.3279418,-0.17188543,-0.43681648,-0.88297606,0.96193147,-0.26773968,-0.05480206,-0.2124693,-0.8587822,0.46620807,,1.0490483109017832,0.35957044262389315,0.17663247540000002,3.0650379039132924,-0.5076045966286112,-1.0488670449451236,-0.41375051951812947,,-1.2343630089516746,0.020279896527713562,0.19181851275000003,-2.25710255166742,-0.620739618434396,0.6871716246443282,0.530541526804139,,-0.03256129885751921,-0.08751299035656068,0.07561312771999999,-0.048081597517509664,,-9.3631446e-05,-4.172325e-06,7.987022e-06,0.99999994,9.835139e-05,8.2273036e-05,-9.8347664e-05,0.99999994,7.0035458e-06,-8.2273036e-05,-6.9737434e-06,0.99999994,136,0.412,0,0,0.0,False,-0.2631548101423209,0.7031528269668916
0.4359835529467091,09:27:17.156928,09:26:11.052327,0,,0.12739643,0.003696829,0.03514576,0.38168272,0.63989496,-0.66697264,0.34988123,0.567879,0.7450479,0.85551214,-0.5177332,-0.007137686,,0.07079162,-0.038567238,0.019356877,0.05497413,0.36710158,0.92855483,0.5410249,-0.7925643,0.28130722,0.83920777,0.48690677,-0.2421817,,0.07739586,1.3318864,0.4581979,0.9984701,0.027454546,-0.04799602,-0.009722923,-0.7673215,-0.6411888,-0.05443193,0.64067453,-0.7658807,,-0.08443529,0.25417596,-0.08765229,-0.44571924,-0.5937193,0.66994905,0.7912536,0.088690065,0.60502213,-0.41863114,0.79976964,0.43025172,,-0.00598377,0.40847853,-0.32798922,-0.17177951,-0.43608236,-0.8833595,0.9618253,-0.26814944,-0.05466251,-0.21303499,-0.8590274,0.4654976,,1.0497047431960922,0.3588599511994645,0.17657803122000001,3.041552630243026,-0.5265970700960074,-1.0319097390087908,-0.4147305839149351,,-1.234517463609159,0.020341678390707357,0.19175758712000002,-2.256892861723936,-0.6211495279336923,0.6877509145758394,0.5300514946057362,,-0.03256129885751921,-0.08751299035656068,0.07561312771999999,-0.048081597517509664,,-9.3631446e-05,-4.172325e-06,7.987022e-06,0.99999994,9.835139e-05,8.2273036e-05,-9.8347664e-05,0.99999994,7.0035458e-06,-8.2273036e-05,-6.9737434e-06,0.99999994,144,0.436,0,0,0.0,False,-0.26333354329788383,0.7031528269668916
0.46440618799533695,09:27:17.187319,09:26:11.052327,0,,0.1271094,0.0037194192,0.035414115,0.35018972,0.6605959,-0.6640633,0.33510405,0.5736762,0.7473959,0.874684,-0.48426077,-0.020472884,,0.07074107,-0.03854049,0.019475132,0.047773384,0.3691213,0.92815244,0.5434059,-0.78927743,0.28592154,0.83810955,0.4907041,-0.23828919,,0.07739586,1.3318864,0.4581979,0.9984701,0.027454546,-0.04799602,-0.009722923,-0.7673215,-0.6411888,-0.05443193,0.64067453,-0.7658807,,-0.084170125,0.25437456,-0.087864816,-0.4159227,-0.61695534,0.6681126,0.79318213,0.11325026,0.5983615,-0.44482625,0.7788071,0.4422546,,-0.0059505077,0.40858424,-0.32805988,-0.16448584,-0.438609,-0.88349676,0.9634696,-0.26336604,-0.048627682,-0.21135451,-0.85922086,0.4659064,,1.0506778075382446,0.3576243139395886,0.17650543898,3.007373169455048,-0.5554273715465154,-1.0036631944006933,-0.41505727204720366,,-1.2347800365268826,0.020418905719449605,0.19164740247,-2.266119219237255,-0.6221059834320504,0.6911445595862122,0.5298881505396019,,-0.03256129885751921,-0.08751299035656068,0.07561312771999999,-0.048081597517509664,,-9.3631446e-05,-4.172325e-06,7.987022e-06,0.99999994,9.835139e-05,8.2273036e-05,-9.8347664e-05,0.99999994,7.0035458e-06,-8.2273036e-05,-6.9737434e-06,0.99999994,159,0.482,0,0,0.0,False,-0.2629164992682367,0.7026700249590969
0.4947536839172244,09:27:17.227791,09:26:11.217330,0,,0.12665953,0.0037579834,0.035740837,0.30173698,0.68495506,-0.66316754,0.3196964,0.5826231,0.74722433,0.8981919,-0.43747753,-0.043178797,,0.07070483,-0.03854259,0.01971981,0.04443177,0.3669169,0.92919195,0.5445923,-0.78865504,0.28538093,0.83752304,0.49335086,-0.23486151,,0.07739586,1.3318864,0.4581979,0.9984701,0.027454546,-0.04799602,-0.009722923,-0.7673215,-0.6411888,-0.05443193,0.64067453,-0.7658807,,-0.08374715,0.25462943,-0.088123135,-0.36956453,-0.6448669,0.6690058,0.79809684,0.14843877,0.5839584,-0.47588181,0.7497417,0.45980853,,-0.005949525,0.408755,-0.3282388,-0.1610898,-0.43680182,-0.8850165,0.96423817,-0.26088127,-0.046751123,-0.21046327,-0.86089784,0.4632063,,1.0518902765994977,0.3560720446318695,0.17642766158,2.9518053344316493,-0.5893132234883447,-0.9616560960192418,-0.41440389578266634,,-1.2352897368965814,0.0205115785139403,0.19141795914,-2.270313018106945,-0.6221059834320504,0.6958819265143648,0.5284180539443933,,-0.03256129885751921,-0.08751299035656068,0.07561312771999999,-0.048081597517509664,,-9.3631446e-05,-4.172325e-06,7.987022e-06,0.99999994,9.835139e-05,8.2273036e-05,-9.8347664e-05,0.99999994,7.0035458e-06,-8.2273036e-05,-6.9737434e-06,0.99999994,175,0.531,0,0,0.0,False,-0.2632143878608417,0.7024286239551998
0.535251643974334,09:27:17.276151,09:26:11.217330,0,,0.12605034,0.003785774,0.036127582,0.23684712,0.71068084,-0.662447,0.30091947,0.59465516,0.7455417,0.9237697,-0.37592274,-0.07301539,,0.07073001,-0.03853547,0.019813806,0.043875318,0.36644873,0.92940307,0.5445951,-0.7886965,0.2852611,0.8375506,0.49363256,-0.23417051,,0.07739586,1.3318864,0.4581979,0.9984701,0.027454546,-0.04799602,-0.009722923,-0.7673215,-0.6411888,-0.05443193,0.64067453,-0.7658807,,-0.08317012,0.25492072,-0.08844513,-0.30700377,-0.67528486,0.67062587,0.8024235,0.19522347,0.5639187,-0.5117277,0.71125114,0.48193008,,-0.005987812,0.40882254,-0.3282979,-0.16054295,-0.43637875,-0.88532454,0.9643128,-0.26067165,-0.046380773,-0.21053943,-0.8611759,0.4626546,,1.0531490820579963,0.3542649251393009,0.17633173612000003,2.8748491251728288,-0.6281179894217297,-0.9049380381463056,-0.4152206161133376,,-1.23565270534167,0.0205115785139403,0.19134666319000002,-2.2707323979939145,-0.6221059834320504,0.6964536776953487,0.5285813980105276,,-0.03256129885751921,-0.08751299035656068,0.07561312771999999,-0.048081597517509664,,-9.3631446e-05,-4.172325e-06,7.987022e-06,0.99999994,9.835139e-05,8.2273036e-05,-9.8347664e-05,0.99999994,7.0035458e-06,-8.2273036e-05,-6.9737434e-06,0.99999994,183,0.555,0,0,0.0,False,-0.26297607698675796,0.7016561407427284
0.5836196159943938,09:27:17.302364,09:26:11.217330,0,,0.12567353,0.0037823021,0.036326587,0.19864476,0.7251062,-0.65936416,0.29092103,0.5988232,0.74617386,0.9358979,-0.34004647,-0.0919956,,0.07073133,-0.038532652,0.019833356,0.041780047,0.3657589,0.92977136,0.54479486,-0.7884109,0.28566888,0.83752775,0.49459946,-0.23220348,,0.07739586,1.3318864,0.4581979,0.9984701,0.027454546,-0.04799602,-0.009722923,-0.7673215,-0.6411888,-0.05443193,0.64067453,-0.7658807,,-0.08281019,0.2550596,-0.0886261,-0.26993558,-0.69246393,0.66905046,0.8039559,0.2203036,0.55237776,-0.5298959,0.6869935,0.4972427,,-0.005991887,0.40883788,-0.32830966,-0.158465,-0.43583262,-0.88596773,0.9646422,-0.2597332,-0.044766672,-0.21060444,-0.8617358,0.46158117,,1.0537823461536828,0.35326869259852595,0.17627469936,2.82808826777578,-0.6475203723884223,-0.8671451147236027,-0.41309714325359237,,-1.2357299326704123,0.020457519383820726,0.19133499658000003,-2.273038987372244,-0.622925802430643,0.698510723699917,0.5277646776798562,,-0.03256129885751921,-0.08751299035656068,0.07561312771999999,-0.048081597517509664,,-9.3631446e-05,-4.172325e-06,7.987022e-06,0.99999994,9.835139e-05,8.2273036e-05,-9.8347664e-05,0.99999994,7.0035458e-06,-8.2273036e-05,-6.9737434e-06,0.99999994,191,0.58,0,0,0.0,False,-0.2634526987349264,0.7004491357232423
0.6098385609220713,09:27:17.328618,09:26:11.217330,0,,0.12542093,0.003766805,0.03645645,0.17286322,0.734016,-0.6567638,0.28452152,0.60116166,0.74676096,0.94295573,-0.315951,-0.10492459,,0.07073155,-0.03853842,0.019849151,0.04221697,0.3653895,0.9298968,0.54457915,-0.7887308,0.28519666,0.8376461,0.4943624,-0.23228137,,0.07739586,1.3318864,0.4581979,0.9984701,0.027454546,-0.04799602,-0.009722923,-0.7673215,-0.6411888,-0.05443193,0.64067453,-0.7658807,,-0.082568675,0.25514024,-0.08875293,-0.24482864,-0.7032284,0.6674794,0.8045546,0.23682441,0.54461557,-0.5410645,0.6703611,0.5078042,,-0.0059943767,0.40884462,-0.32832488,-0.15891524,-0.43543455,-0.88608277,0.964527,-0.2600907,-0.045171354,-0.21079274,-0.8618292,0.46132076,,1.054129869133023,0.352650873968588,0.17622673663000002,2.796005706422648,-0.6592711113682501,-0.840819033276895,-0.41440389578266634,,-1.2357453781361607,0.0204497966509465,0.19131944110000002,-2.2724099175417907,-0.622925802430643,0.698510723699917,0.5277646776798562,,-0.03256129885751921,-0.08751299035656068,0.07561312771999999,-0.048081597517509664,,-9.3631446e-05,-4.172325e-06,7.987022e-06,0.99999994,9.835139e-05,8.2273036e-05,-9.8347664e-05,0.99999994,7.0035458e-06,-8.2273036e-05,-6.9737434e-06,0.99999994,202,0.614,0,0,0.0,False,-0.26196325577190027,0.6999180535146681
0.6360690599540249,09:27:17.358554,09:26:11.217330,0,,0.12503876,0.0037214756,0.036609456,0.1373032,0.74892837,-0.64826995,0.2777571,0.5991001,0.7509526,0.9507884,-0.2831698,-0.12576187,,0.070722684,-0.038544707,0.019859463,0.04208326,0.36566767,0.92979354,0.54466486,-0.78857064,0.28547573,0.83759713,0.49441215,-0.23235202,,0.07739586,1.3318864,0.4581979,0.9984701,0.027454546,-0.04799602,-0.009722923,-0.7673215,-0.6411888,-0.05443193,0.64067453,-0.7658807,,-0.08220003,0.25521797,-0.088924885,-0.21003696,-0.720687,0.6606775,0.8057928,0.25509652,0.5344378,-0.5536989,0.64462084,0.5271447,,-0.005987109,0.4088481,-0.32833755,-0.15877555,-0.4357163,-0.88596934,0.9645676,-0.25996822,-0.045009866,-0.21071234,-0.8617237,0.46155444,,1.0546704604342185,0.3517395914894295,0.17615155181000003,2.7507126786299905,-0.6721149423462015,-0.7972658605725037,-0.414077207650398,,-1.235722209937538,0.020442073918072276,0.19130518191,-2.272619607485275,-0.622925802430643,0.6983473662196358,0.526457925150782,,-0.03256129885751921,-0.08751299035656068,0.07561312771999999,-0.048081597517509664,,-9.3631446e-05,-4.172325e-06,7.987022e-06,0.99999994,9.835139e-05,8.2273036e-05,-9.8347664e-05,0.99999994,7.0035458e-06,-8.2273036e-05,-6.9737434e-06,0.99999994,210,0.637,0,0,0.0,False,-0.2626781883941529,0.6999180535146681
0.6660315039334819,09:27:17.383844,09:26:11.217330,0,,0.124608524,0.0036558956,0.03672357,0.09692922,0.75997186,-0.64268756,0.27468023,0.60022444,0.7511865,0.9566374,-0.2493456,-0.15057006,,0.07071091,-0.038558535,0.019869,0.041663714,0.36617434,0.929613,0.54492795,-0.78818345,0.28604248,0.83744705,0.49465457,-0.23237734,,0.07739586,1.3318864,0.4581979,0.9984701,0.027454546,-0.04799602,-0.009722923,-0.7673215,-0.6411888,-0.05443193,0.64067453,-0.7658807,,-0.081780516,0.25525773,-0.08908254,-0.17026794,-0.7343516,0.65706664,0.8088723,0.27667412,0.5188227,-0.56279165,0.6198219,0.54688793,,-0.0059768697,0.40884587,-0.32835516,-0.15833779,-0.43625072,-0.8857846,0.9646932,-0.259572,-0.044603292,-0.21046667,-0.8615728,0.46194816,,1.0551801608039175,0.35085919994176795,0.17607118183,2.6982901927588596,-0.6800398593325971,-0.7529863654730309,-0.4135871754519951,,-1.2356758735402926,0.02039573752082693,0.19128833014000002,-2.2732486773157285,-0.622925802430643,0.6981840087393547,0.5261312370185135,,-0.03256129885751921,-0.08751299035656068,0.07561312771999999,-0.048081597517509664,,-9.3631446e-05,-4.172325e-06,7.987022e-06,0.99999994,9.835139e-05,8.2273036e-05,-9.8347664e-05,0.99999994,7.0035458e-06,-8.2273036e-05,-6.9737434e-06,0.99999994,218,0.662,0,0,0.0,False,-0.26136747858668974,0.697697164278813
0.69131182692945,09:27:17.409187,09:26:11.386494,0,,0.124210276,0.003612548,0.036922336,0.060659405,0.77503884,-0.6289953,0.25944063,0.5962552,0.7597171,0.9638519,-0.20927101,-0.16490817,,0.070703566,-0.0385622,0.019898862,0.038929902,0.36413988,0.93053025,0.5438231,-0.788965,0.28599033,0.83829623,0.49491036,-0.2287421,,0.07739586,1.3318864,0.4581979,0.9984701,0.027454546,-0.04799602,-0.009722923,-0.7673215,-0.6411888,-0.05443193,0.64067453,-0.7658807,,-0.08139941,0.2553664,-0.08928975,-0.13477114,-0.7525498,0.6445972,0.8031614,0.29802594,0.51586074,-0.58031756,0.58723867,0.5642537,,-0.00597387,0.40886456,-0.3283797,-0.15575762,-0.43427682,-0.8872109,0.96474963,-0.25976038,-0.0422213,-0.21212651,-0.8625127,0.45942807,,1.0557053066393647,0.3500405902571001,0.17599599701000002,2.6511099554748414,-0.6984857868009317,-0.7035581988748373,-0.41309714325359215,,-1.2356681508074185,0.020295341993462012,0.19127147837000003,-2.2753455767505737,-0.6255218959261865,0.7015261300116951,0.5249878285555735,,-0.03256129885751921,-0.08751299035656068,0.07561312771999999,-0.048081597517509664,,-9.3631446e-05,-4.172325e-06,7.987022e-06,0.99999994,9.835139e-05,8.2273036e-05,-9.8347664e-05,0.99999994,7.0035458e-06,-8.2273036e-05,-6.9737434e-06,0.99999994,234,0.711,0,0,0.0,False,-0.26285692154971585,0.6941244294211333
0.7166409749770537,09:27:17.450791,09:26:11.386494,0,,0.123590894,0.0035474598,0.03717144,0.0059637837,0.7896751,-0.6134961,0.2421327,0.5941099,0.76707554,0.9702246,-0.15312222,-0.18766314,,0.07068415,-0.0385805,0.019947916,0.03682307,0.36503008,0.9302671,0.5445863,-0.7878555,0.28759223,0.837896,0.4960208,-0.22780173,,0.07739586,1.3318864,0.4581979,0.9984701,0.027454546,-0.04799602,-0.009722923,-0.7673215,-0.6411888,-0.05443193,0.64067453,-0.7658807,,-0.080801964,0.25549963,-0.08956405,-0.08085226,-0.77157295,0.63098186,0.7961387,0.3308896,0.5066312,-0.5996883,0.54331136,0.58752596,,-0.0059617287,0.40888718,-0.3284293,-0.15361206,-0.43531156,-0.88707787,0.965224,-0.258284,-0.04039785,-0.21153238,-0.86243445,0.4598487,,1.0566165891185233,0.34916019870943854,0.17587414575000002,2.5766700255378354,-0.717204987268797,-0.6334875114341103,-0.41440389578266634,,-1.2357067644717896,0.020210391931845543,0.19121703419000002,-2.2780715460158727,-0.6257951689257172,0.7021573595197907,0.5202508506376794,,-0.03256129885751921,-0.08751299035656068,0.07561312771999999,-0.048081597517509664,,-9.3631446e-05,-4.172325e-06,7.987022e-06,0.99999994,9.835139e-05,8.2273036e-05,-9.8347664e-05,0.99999994,7.0035458e-06,-8.2273036e-05,-6.9737434e-06,0.99999994,249,0.757,0,0,0.0,False,-0.2630356547052788,0.692338061992293
0.758265906944871,09:27:17.491728,09:26:11.386494,0,,0.12294503,0.0034779608,0.037371382,-0.047855884,0.8003841,-0.5975741,0.2291261,0.5911032,0.7733679,0.97221947,-0.09990969,-0.21167678,,0.070656955,-0.03857941,0.020027608,0.034105062,0.36057287,0.9321072,0.5437457,-0.78922945,0.28540736,0.83855665,0.4970955,-0.22297671,,0.07739586,1.3318864,0.4581979,0.9984701,0.027454546,-0.04799602,-0.009722923,-0.7673215,-0.6411888,-0.05443193,0.64067453,-0.7658807,,-0.080174275,0.25559977,-0.0898047,-0.027436063,-0.7864552,0.61703765,0.78967965,0.36141878,0.49576455,-0.6129056,0.5008639,0.6111318,,-0.0059461715,0.40894553,-0.32848796,-0.15101954,-0.43105888,-0.88959616,0.9653384,-0.25809914,-0.038814295,-0.21287274,-0.86462307,0.45509574,,1.05774410811816,0.3485809937438717,0.1757509982,2.5036979252052207,-0.7273160882514395,-0.5654537487776836,-0.4142405517165323,,-1.235760823601909,0.020210391931845543,0.19114833082000002,-2.2803781353942023,-0.6279813529219643,0.7082690192063833,0.5174740015133967,,-0.03256129885751921,-0.08751299035656068,0.07561312771999999,-0.048081597517509664,,-9.3631446e-05,-4.172325e-06,7.987022e-06,0.99999994,9.835139e-05,8.2273036e-05,-9.8347664e-05,0.99999994,7.0035458e-06,-8.2273036e-05,-6.9737434e-06,0.99999994,257,0.78,0,0,0.0,False,-0.26243987752006825,0.6894412499455256
0.7991591249592602,09:27:17.525070,09:26:11.386494,0,,0.1225262,0.0034706146,0.037564516,-0.07862018,0.8093935,-0.58198005,0.21691254,0.58368933,0.7824677,0.97301984,-0.06472111,-0.22145745,,0.07074843,-0.038580462,0.020097136,0.03251785,0.3605393,0.93217695,0.54437006,-0.7885806,0.28601062,0.83821464,0.4981488,-0.22190976,,0.0774559,1.3318858,0.45820114,0.9984694,0.027399193,-0.048042275,-0.009794949,-0.76732355,-0.64118534,-0.05443193,0.64067453,-0.7658807,,-0.07982181,0.25573382,-0.08997859,0.0031099299,-0.7982084,0.60237336,0.78205407,0.3773458,0.49598548,-0.62320286,0.46954608,0.6254156,,-0.0060990024,0.40897885,-0.3285247,-0.14935364,-0.4312272,-0.88979584,0.9657107,-0.25688323,-0.037601177,-0.21235897,-0.8649012,0.45480716,,1.0587557861246835,0.34846515275075834,0.17566285048000002,2.4598727270169554,-0.7360608242364277,-0.5170752391701288,-0.4147305839149351,,-1.235753100869035,0.02018722373322287,0.19108610890000002,-2.2824750348290475,-0.6281179894217297,0.7096872969523286,0.5151871845875167,,-0.03256129885751921,-0.08751299035656068,0.07561312771999999,-0.048081597517509664,,-3.3847988e-05,-1.1920929e-07,2.9802322e-06,0.99999994,4.310161e-05,3.6057085e-05,-4.310161e-05,1.0,3.0696392e-06,-3.605336e-05,-3.0100346e-06,1.0,265,0.805,0,0,0.0,False,-0.2622015666459845,0.689248129142408
0.8324970249086618,09:27:17.552449,09:26:11.386494,0,,0.12202131,0.0034497231,0.037733704,-0.12070723,0.8101642,-0.5736405,0.20384929,0.5857804,0.7844149,0.9715322,-0.022251725,-0.2358594,,0.07073866,-0.038597822,0.020154119,0.033255186,0.35783392,0.93319285,0.5425041,-0.79064727,0.283842,0.8393947,0.49682176,-0.2204195,,0.0774559,1.3318858,0.45820114,0.9984694,0.027399193,-0.048042275,-0.009794949,-0.76732355,-0.64118534,-0.05443193,0.64067453,-0.7658807,,-0.07933194,0.25584617,-0.09015574,0.04510294,-0.80230683,0.5952054,0.77284086,0.4055534,0.48810184,-0.632995,0.43798426,0.63834715,,-0.00609752,0.40900669,-0.3285783,-0.1502596,-0.4283691,-0.891023,0.9651149,-0.25902122,-0.038226947,-0.21441862,-0.8656835,0.45234582,,1.059844691459949,0.3485114891480037,0.17556822131000002,2.3999014031803814,-0.742346103225638,-0.4678434959241896,-0.414730583914935,,-1.235722209937538,0.02015633280172597,0.19103555359000002,-2.2803781353942023,-0.6297576274189151,0.7112693480171074,0.5156772167859196,,-0.03256129885751921,-0.08751299035656068,0.07561312771999999,-0.048081597517509664,,-3.3847988e-05,-1.1920929e-07,2.9802322e-06,0.99999994,4.310161e-05,3.6057085e-05,-4.310161e-05,1.0,3.0696392e-06,-3.605336e-05,-3.0100346e-06,1.0,277,0.842,0,0,0.0,False,-0.2623802998015474,0.6884273657291566
0.859927401994355,09:27:17.582579,09:26:11.570989,0,,0.12175789,0.0034439415,0.037819773,-0.1410377,0.8162255,-0.5602535,0.19873554,0.57773316,0.79166186,0.9698516,0.0003117919,-0.24369532,,0.07070489,-0.038608477,0.020226777,0.031497754,0.3564266,0.9337921,0.54065603,-0.7918515,0.28401124,0.84065384,0.4959147,-0.2176458,,0.0774559,1.3318858,0.45820114,0.9984694,0.027399193,-0.048042275,-0.009794949,-0.76732355,-0.64118534,-0.05443193,0.64067453,-0.7658807,,-0.07907615,0.2559074,-0.09024324,0.06547102,-0.8101744,0.5825212,0.76871836,0.41316217,0.48823053,-0.6362276,0.4158298,0.64984614,,-0.0060745035,0.4090524,-0.3286408,-0.14870751,-0.42685205,-0.89201087,0.9648267,-0.26037547,-0.036249764,-0.21678446,-0.8660265,0.45055804,,1.0605860738158746,0.3486118846753686,0.17550988826000002,2.370754501036032,-0.7431659222242306,-0.4327882389028345,-0.4134238313858608,,-1.23565270534167,0.0201331646031033,0.19097073909,-2.281007205224656,-0.6326269939139892,0.7131190515538889,0.514697152389114,,-0.03256129885751921,-0.08751299035656068,0.07561312771999999,-0.048081597517509664,,-3.3847988e-05,-1.1920929e-07,2.9802322e-06,0.99999994,4.310161e-05,3.6057085e-05,-4.310161e-05,1.0,3.0696392e-06,-3.605336e-05,-3.0100346e-06,1.0,292,0.888,0,0,0.0,False,-0.2616653671792948,0.6873169211112296
0.8900000379653648,09:27:17.623640,09:26:11.570989,0,,0.12102955,0.0033749044,0.03797035,-0.2054568,0.8192557,-0.5353572,0.18384674,0.56959784,0.80109835,0.9612428,0.066167325,-0.2676454,,0.07066181,-0.038635463,0.020309389,0.031193502,0.35701478,0.9335776,0.5404465,-0.79174125,0.28471646,0.8408,0.49566755,-0.21764463,,0.0774559,1.3318858,0.45820114,0.9984694,0.027399193,-0.048042275,-0.009794949,-0.76732355,-0.64118534,-0.05443193,0.64067453,-0.7658807,,-0.07836236,0.2559806,-0.09045076,0.13027574,-0.8184285,0.5596454,0.7546207,0.4479687,0.47944933,-0.64309865,0.35985938,0.67596257,,-0.0060437554,0.40909418,-0.32872277,-0.14842808,-0.42739853,-0.8917957,0.96480644,-0.26052353,-0.035722297,-0.21706611,-0.8657124,0.45102584,,1.0622696295824556,0.3489594076547087,0.17536470378000002,2.2789103057898106,-0.7413896477272798,-0.3454518811180969,-0.414730583914935,,-1.2355986462115505,0.0201331646031033,0.19087610992,-2.2812168951681406,-0.6330369034132856,0.7126365178635725,0.5133903998600398,,-0.03256129885751921,-0.08751299035656068,0.07561312771999999,-0.048081597517509664,,-3.3847988e-05,-1.1920929e-07,2.9802322e-06,0.99999994,4.310161e-05,3.6057085e-05,-4.310161e-05,1.0,3.0696392e-06,-3.605336e-05,-3.0100346e-06,1.0,300,0.912,0,0,0.0,False,-0.2618441003348577,0.6846132298675793
0.9310968939680606,09:27:17.660535,09:26:11.570989,0,,0.12058949,0.0033056587,0.038039207,-0.24774782,0.8156832,-0.52276355,0.17318615,0.568181,0.80447304,0.9532194,0.10877094,-0.28203076,,0.070643544,-0.038650125,0.02034384,0.03075586,0.35797882,0.93322295,0.54067713,-0.7912319,0.28569293,0.8406677,0.49578565,-0.21788602,,0.0774559,1.3318858,0.45820114,0.9984694,0.027399193,-0.048042275,-0.009794949,-0.76732355,-0.64118534,-0.05443193,0.64067453,-0.7658807,,-0.077929504,0.25598958,-0.09057626,0.1730012,-0.81822926,0.548244,0.74318993,0.4737255,0.4724964,-0.64632756,0.325707,0.69005483,,-0.006030651,0.4091092,-0.32875937,-0.14797509,-0.42836735,-0.89140606,0.96492285,-0.26016933,-0.035154022,-0.21685767,-0.86534,0.45184,,1.0632426939246078,0.34928376243542614,0.17526748203,2.218309912122783,-0.7382470082326748,-0.2936164519695,-0.414730583914935,,-1.235583200745802,0.020109996404480624,0.19083462864000003,-2.281845964998594,-0.6330369034132856,0.711983087942448,0.5107768948018913,,-0.03256129885751921,-0.08751299035656068,0.07561312771999999,-0.048081597517509664,,-3.3847988e-05,-1.1920929e-07,2.9802322e-06,0.99999994,4.310161e-05,3.6057085e-05,-4.310161e-05,1.0,3.0696392e-06,-3.605336e-05,-3.0100346e-06,1.0,308,0.936,0,0,0.0,False,-0.2626781883941529,0.6843718288636826
0.9680130659835413,09:27:17.679999,09:26:11.570989,0,,0.12032727,0.0032637864,0.038081557,-0.2743333,0.8112639,-0.51632524,0.16569611,0.56877196,0.8056322,0.9472517,0.13545857,-0.29045647,,0.07064086,-0.038659498,0.02036035,0.030623375,0.35774422,0.9333173,0.5405024,-0.7913828,0.2856056,0.84078497,0.49571407,-0.21759646,,0.0774559,1.3318858,0.45820114,0.9984694,0.027399193,-0.048042275,-0.009794949,-0.76732355,-0.64118534,-0.05443193,0.64067453,-0.7658807,,-0.07767171,0.25599524,-0.09065247,0.1999277,-0.8159209,0.5424961,0.7348117,0.49110782,0.46782994,-0.6481363,0.30510032,0.6977343,,-0.006030377,0.4091141,-0.32877788,-0.1478614,-0.42812562,-0.89154106,0.9648911,-0.26030442,-0.035026036,-0.21707654,-0.86541903,0.45158356,,1.0638527898216716,0.3495926717503951,0.17520526011,2.1799366524651154,-0.7357875512368969,-0.2630321569199513,-0.41456723984880073,,-1.235583200745802,0.0200713827401095,0.19081648058000003,-2.281845964998594,-0.6333101764128165,0.7122059237498409,0.5104502066696226,,-0.03256129885751921,-0.08751299035656068,0.07561312771999999,-0.048081597517509664,,-3.3847988e-05,-1.1920929e-07,2.9802322e-06,0.99999994,4.310161e-05,3.6057085e-05,-4.310161e-05,1.0,3.0696392e-06,-3.605336e-05,-3.0100346e-06,1.0,316,0.961,0,0,0.0,False,-0.2622015666459845,0.6840821476590055
0.9874590459512547,09:27:17.711049,09:26:11.570989,0,,0.1199606,0.0032141209,0.03816834,-0.3131426,0.80647933,-0.50153023,0.15235308,0.5639093,0.8116617,0.937406,0.17775615,-0.29945368,,0.070627645,-0.038673967,0.020392299,0.028979016,0.357684,0.9333929,0.5404165,-0.7911548,0.28639886,0.8408985,0.4961213,-0.21622522,,0.0774559,1.3318858,0.45820114,0.9984694,0.027399193,-0.048042275,-0.009794949,-0.76732355,-0.64118534,-0.05443193,0.64067453,-0.7658807,,-0.077313304,0.2560274,-0.090774804,0.23930939,-0.8145103,0.5284923,0.7199963,0.51404625,0.46622077,-0.65141106,0.26894146,0.70946044,,-0.0060219197,0.40912703,-0.32881203,-0.14625041,-0.42812306,-0.891808,0.965066,-0.2598541,-0.03351817,-0.21739006,-0.8655556,0.45117077,,1.064794963232327,0.3502799949762011,0.17510414949000003,2.122900987837325,-0.7326449117422917,-0.21111504903121397,-0.41424055171653207,,-1.2355754780129278,0.01998643267849303,0.19078536962,-2.2835234845464703,-0.6342666319111745,0.7132308852961375,0.5109402388680255,,-0.03256129885751921,-0.08751299035656068,0.07561312771999999,-0.048081597517509664,,-3.3847988e-05,-1.1920929e-07,2.9802322e-06,0.99999994,4.310161e-05,3.6057085e-05,-4.310161e-05,1.0,3.0696392e-06,-3.605336e-05,-3.0100346e-06,1.0,328,0.998,0,0,0.0,False,-0.262797343831195,0.6818129782223714
1.0184726419392973,09:27:17.742239,09:26:11.717128,0,,0.11965183,0.0031828433,0.038213044,-0.3517874,0.7999288,-0.4861681,0.14452106,0.55955154,0.81609786,0.92485625,0.21683137,-0.31244978,,0.07062124,-0.038694993,0.020435572,0.02720569,0.35627514,0.9339849,0.53988326,-0.7915805,0.2862279,0.8413001,0.4964559,-0.21388254,,0.0774559,1.3318858,0.45820114,0.9984694,0.027399193,-0.048042275,-0.009794949,-0.76732355,-0.64118534,-0.05443193,0.64067453,-0.7658807,,-0.07700922,0.2560449,-0.090849206,0.27877355,-0.8110825,0.5142281,0.70776635,0.5354371,0.46084043,-0.6491164,0.23548321,0.7233226,,-0.006021836,0.4091424,-0.32885805,-0.14455473,-0.4267781,-0.8927286,0.9651312,-0.25979313,-0.032081716,-0.21823299,-0.8662378,0.4494512,,1.0658375321703473,0.35120672292110805,0.17500303887000002,2.0688009824183173,-0.7221239012603529,-0.16333589691885048,-0.41456723984880073,,-1.2355909234786762,0.01984742348675699,0.19074648092000002,-2.284991314150862,-0.6357696334085944,0.7155183058586254,0.5084900778760113,,-0.03256129885751921,-0.08751299035656068,0.07561312771999999,-0.048081597517509664,,-3.3847988e-05,-1.1920929e-07,2.9802322e-06,0.99999994,4.310161e-05,3.6057085e-05,-4.310161e-05,1.0,3.0696392e-06,-3.605336e-05,-3.0100346e-06,1.0,340,1.034,0,0,0.0,False,-0.26190367805337944,0.6818129782223714
1.0497125489637256,09:27:17.772093,09:26:11.717128,0,,0.119364396,0.003194049,0.03827426,-0.38691095,0.7916331,-0.47288132,0.13665584,0.5563843,0.8196106,0.9119346,0.25249428,-0.32345256,,0.07061546,-0.038712382,0.020456254,0.025684012,0.3559507,0.93415165,0.5400097,-0.7913298,0.2866823,0.8412668,0.49708784,-0.2125414,,0.0774559,1.3318858,0.45820114,0.9984694,0.027399193,-0.048042275,-0.009794949,-0.76732355,-0.64118534,-0.05443193,0.64067453,-0.7658807,,-0.07672743,0.25610483,-0.09090833,0.31475654,-0.80563915,0.50187033,0.6951202,0.5556937,0.45608383,-0.6463252,0.20530486,0.73492426,,-0.006019147,0.4091448,-0.3288855,-0.14304332,-0.426546,-0.8930829,0.96534544,-0.25914606,-0.030846534,-0.21828145,-0.8665459,0.44883335,,1.067134951293217,0.3522879055234995,0.17491229857,2.019523845699454,-0.7111929812791175,-0.12160851032741565,-0.41440389578266645,,-1.2355909234786762,0.019731582493643623,0.19072444399000002,-2.286668833698738,-0.6364528159074216,0.7168105040383725,0.5076733575453399,,-0.03256129885751921,-0.08751299035656068,0.07561312771999999,-0.048081597517509664,,-3.3847988e-05,-1.1920929e-07,2.9802322e-06,0.99999994,4.310161e-05,3.6057085e-05,-4.310161e-05,1.0,3.0696392e-06,-3.605336e-05,-3.0100346e-06,1.0,348,1.059,0,0,0.0,False,-0.2620824112089424,0.6821026594270476
1.0794969379203394,09:27:17.801489,09:26:11.717128,0,,0.11906387,0.003212586,0.038289413,-0.42856556,0.7788815,-0.45790288,0.13242695,0.5554808,0.82091665,0.893753,0.29117787,-0.34120485,,0.070616096,-0.038725004,0.020468116,0.025063368,0.35462326,0.93467325,0.53970397,-0.7918049,0.28594553,0.8414817,0.49728012,-0.21123691,,0.0774559,1.3318858,0.45820114,0.9984694,0.027399193,-0.048042275,-0.009794949,-0.76732355,-0.64118534,-0.05443193,0.64067453,-0.7658807,,-0.07642892,0.2561422,-0.09092798,0.35768646,-0.7959778,0.48834392,0.68229854,0.5798037,0.44530484,-0.63759637,0.17391683,0.7504824,,-0.006021519,0.40914384,-0.32890263,-0.14246097,-0.4252616,-0.8937883,0.96533406,-0.2592265,-0.030525517,-0.21871227,-0.8671529,0.44744915,,1.068818507059798,0.3535544337148723,0.17481507682000003,1.9643753905630241,-0.6913806888131286,-0.07911877094247305,-0.41375051951812936,,-1.235583200745802,0.019646632432027154,0.19071407367,-2.287088213585707,-0.6371359984062488,0.718429417178682,0.5088167660082799,,-0.03256129885751921,-0.08751299035656068,0.07561312771999999,-0.048081597517509664,,-3.3847988e-05,-1.1920929e-07,2.9802322e-06,0.99999994,4.310161e-05,3.6057085e-05,-4.310161e-05,1.0,3.0696392e-06,-3.605336e-05,-3.0100346e-06,1.0,360,1.096,0,0,0.0,False,-0.26255903295711036,0.6824406208325042
1.1089666689513251,09:27:17.841175,09:26:11.717128,0,,0.11870347,0.0033058524,0.038263112,-0.48445305,0.7618012,-0.43007448,0.13530558,0.5509497,0.8234967,0.8642901,0.34075385,-0.36998537,,0.070621915,-0.038754523,0.020484865,0.025109358,0.3548746,0.93457663,0.53989935,-0.7916208,0.28608632,0.84135497,0.4973939,-0.21147373,,0.0774559,1.3318858,0.45820114,0.9984694,0.027399193,-0.048042275,-0.009794949,-0.76732355,-0.64118534,-0.05443193,0.64067453,-0.7658807,,-0.07606701,0.25621438,-0.090872444,0.41573617,-0.7828807,0.46288356,0.6685731,0.60811126,0.42803115,-0.6165821,0.13152348,0.7762269,,-0.0060297893,0.40913364,-0.32893446,-0.14248759,-0.42552578,-0.8936583,0.9653824,-0.25904012,-0.030578533,-0.21848139,-0.867079,0.44770512,,1.0717531455520033,0.35543105780330886,0.17470359588,1.8966455388175227,-0.6531224688788053,-0.024389749349599643,-0.41440389578266645,,-1.2355909234786762,0.019499900507416887,0.19069203674000001,-2.287088213585707,-0.6369993619064833,0.7180729630545639,0.5086534219421456,,-0.03256129885751921,-0.08751299035656068,0.07561312771999999,-0.048081597517509664,,-3.3847988e-05,-1.1920929e-07,2.9802322e-06,0.99999994,4.310161e-05,3.6057085e-05,-4.310161e-05,1.0,3.0696392e-06,-3.605336e-05,-3.0100346e-06,1.0,368,1.12,0,0,0.0,False,-0.2629164992682367,0.68190953862393
1.148614157922566,09:27:17.870845,09:26:11.867794,0,,0.11842334,0.0034260303,0.038241208,-0.52436405,0.7475785,-0.40763763,0.14113012,0.5484145,0.82421094,0.8397169,0.37465656,-0.3930748,,0.070615575,-0.03875932,0.020500422,0.02266979,0.3541249,0.93492323,0.5397737,-0.7914826,0.2867049,0.8415048,0.49814758,-0.20909011,,0.0774559,1.3318858,0.45820114,0.9984694,0.027399193,-0.048042275,-0.009794949,-0.76732355,-0.64118534,-0.05443193,0.64067453,-0.7658807,,-0.0757853,0.25630668,-0.09079822,0.45749244,-0.77138656,0.44233856,0.65948933,0.62802154,0.4131135,-0.5964684,0.102721244,0.7960363,,-0.006025753,0.40914154,-0.3289495,-0.14009485,-0.42489058,-0.89433855,0.9656305,-0.25834885,-0.028523726,-0.21893188,-0.8675966,0.44648063,,1.0745951112497178,0.35679798152204656,0.17463489251000003,1.8513525110248654,-0.6195098899365069,0.010604003808470264,-0.41440389578266645,,-1.2355986462115505,0.019407227712926193,0.19068166642,-2.2896044929075217,-0.6383657269041378,0.720330644453496,0.5080000456776085,,-0.03256129885751921,-0.08751299035656068,0.07561312771999999,-0.048081597517509664,,-3.3847988e-05,-1.1920929e-07,2.9802322e-06,0.99999994,4.310161e-05,3.6057085e-05,-4.310161e-05,1.0,3.0696392e-06,-3.605336e-05,-3.0100346e-06,1.0,405,1.235,0,0,0.0,False,-0.26190367805337944,0.6806542534036639
1.178305270965211,09:27:17.974988,09:26:11.867794,0,,0.11712044,0.004005477,0.038174942,-0.63131785,0.6964761,-0.34111363,0.15550786,0.54460406,0.8241502,0.7597729,0.46725485,-0.45212594,,0.07062698,-0.038758352,0.020541012,0.021260897,0.3477676,0.93733966,0.5364363,-0.79513395,0.28283954,0.84367293,0.49680966,-0.20346048,,0.0774559,1.3318858,0.45820114,0.9984694,0.027399193,-0.048042275,-0.009794949,-0.76732355,-0.64118534,-0.05443193,0.64067453,-0.7658807,,-0.0744777,0.25677422,-0.09046754,0.57049286,-0.72775567,0.38066992,0.6253574,0.6853729,0.37308457,-0.5324153,0.025212664,0.8461077,,-0.0060428223,0.40916914,-0.32897645,-0.13902365,-0.4184231,-0.8975492,0.9648671,-0.26127976,-0.02764624,-0.2229436,-0.86985916,0.44004676,,1.0871986113004521,0.3592615333089242,0.17463100364,1.7299420337473261,-0.5159394231143032,0.09702115718063914,-0.41309714325359226,,-1.2356063689444245,0.019306832185561274,0.19067259239,-2.2887657331335833,-0.6426014583968664,0.7264799978927237,0.5068566372146686,,-0.03256129885751921,-0.08751299035656068,0.07561312771999999,-0.048081597517509664,,-3.3847988e-05,-1.1920929e-07,2.9802322e-06,0.99999994,4.310161e-05,3.6057085e-05,-4.310161e-05,1.0,3.0696392e-06,-3.605336e-05,-3.0100346e-06,1.0,413,1.26,0,0,0.0,False,-0.26243987752006825,0.6813301762145767
1.2824105499312282,09:27:17.997597,09:26:11.867794,0,,0.11682896,0.004097551,0.038099676,-0.6460227,0.68712664,-0.3324326,0.1564407,0.5454507,0.8234135,0.74711496,0.4799377,-0.4598682,,0.070631124,-0.03876494,0.02054286,0.02164385,0.3480521,0.9372253,0.5361542,-0.7952822,0.2829578,0.8438425,0.496373,-0.20382258,,0.0774559,1.3318858,0.45820114,0.9984694,0.027399193,-0.048042275,-0.009794949,-0.76732355,-0.64118534,-0.05443193,0.64067453,-0.7658807,,-0.074180655,0.2568117,-0.09037031,0.5861538,-0.7194285,0.3726209,0.6188081,0.69439787,0.36727116,-0.5229725,0.015303452,0.85221213,,-0.006047209,0.4091653,-0.32898188,-0.13942806,-0.41864312,-0.89738387,0.9647448,-0.26171476,-0.027800169,-0.22322024,-0.8696225,0.44037414,,1.0895385993613422,0.3590452967884459,0.17470100330000002,1.712328078494626,-0.5007727716403392,0.10760549584983425,-0.4142405517165322,,-1.2355986462115505,0.019275941254064375,0.19067129610000003,-2.28813666330313,-0.6427380948966319,0.7257746283950145,0.5065299490824,,-0.03256129885751921,-0.08751299035656068,0.07561312771999999,-0.048081597517509664,,-3.3847988e-05,-1.1920929e-07,2.9802322e-06,0.99999994,4.310161e-05,3.6057085e-05,-4.310161e-05,1.0,3.0696392e-06,-3.605336e-05,-3.0100346e-06,1.0,425,1.297,0,0,0.0,False,-0.26285692154971585,0.6810887752106791
1.3050275659188628,09:27:18.035756,09:26:12.029971,0,,0.11639163,0.004236862,0.03792256,-0.66285384,0.6766819,-0.32050934,0.15681225,0.54402834,0.82428336,0.73214376,0.49611953,-0.46672338,,0.07062897,-0.038759127,0.020561278,0.019417042,0.3476614,0.937419,0.53511125,-0.79561746,0.28398746,0.8445585,0.49610928,-0.20148611,,0.0774559,1.3318858,0.45820114,0.9984694,0.027399193,-0.048042275,-0.009794949,-0.76732355,-0.64118534,-0.05443193,0.64067453,-0.7658807,,-0.07372989,0.25682867,-0.09017393,0.6041131,-0.7102987,0.36127976,0.61046743,0.7038994,0.3631187,-0.51222736,0.0011847548,0.8588491,,-0.00604768,0.4091824,-0.32899117,-0.13733052,-0.41822025,-0.89790434,0.9647047,-0.26209968,-0.025468197,-0.22468913,-0.86971,0.4394533,,1.0926894743740259,0.35833480536401724,0.17488248390000002,1.6913590841461734,-0.4831466631705974,0.12320868390458223,-0.4144038957826664,,-1.2356140916772989,0.019221882123944805,0.19066740723000003,-2.289814182851006,-0.6449242788928788,0.7271489211534543,0.5070199812808027,,-0.03256129885751921,-0.08751299035656068,0.07561312771999999,-0.048081597517509664,,-3.3847988e-05,-1.1920929e-07,2.9802322e-06,0.99999994,4.310161e-05,3.6057085e-05,-4.310161e-05,1.0,3.0696392e-06,-3.605336e-05,-3.0100346e-06,1.0,433,1.321,0,0,0.0,False,-0.26202283349042155,0.6819578188247095
1.343234904925339,09:27:18.064645,09:26:12.029971,0,,0.115954995,0.0043358356,0.03765747,-0.676931,0.6675285,-0.3101127,0.15858674,0.54369956,0.82416075,0.71875894,0.50872016,-0.47390836,,0.07062602,-0.03875871,0.020571172,0.018161384,0.3473174,0.9375717,0.53466594,-0.79575974,0.28442726,0.84486824,0.49612218,-0.200151,,0.0774559,1.3318858,0.45820114,0.9984694,0.027399193,-0.048042275,-0.009794949,-0.76732355,-0.64118534,-0.05443193,0.64067453,-0.7658807,,-0.07327315,0.25675905,-0.08993464,0.6192107,-0.7021678,0.3514804,0.6040893,0.71194965,0.35805562,-0.50165147,-0.009386344,0.8650189,,-0.0060461657,0.4091898,-0.32899818,-0.13613378,-0.4178822,-0.8982439,0.96471983,-0.2621597,-0.024246285,-0.22535126,-0.86985445,0.43882805,,1.0955005491402436,0.35707599990551864,0.17511711239000002,1.674374198723927,-0.46661364669897915,0.13521088448117075,-0.414730583914935,,-1.2356140916772989,0.01918326845957368,0.19066351836,-2.2908626325684285,-0.6460173708910025,0.7281219431231665,0.5068566372146684,,-0.03256129885751921,-0.08751299035656068,0.07561312771999999,-0.048081597517509664,,-3.3847988e-05,-1.1920929e-07,2.9802322e-06,0.99999994,4.310161e-05,3.6057085e-05,-4.310161e-05,1.0,3.0696392e-06,-3.605336e-05,-3.0100346e-06,1.0,441,1.346,0,0,0.0,False,-0.2622611443645053,0.6822957802301657
1.3720508649712428,09:27:18.094241,09:26:12.029971,0,,0.11551181,0.004369572,0.037350982,-0.6894221,0.6585346,-0.3017105,0.15914208,0.54404557,0.82382536,0.7066617,0.5199485,-0.47987765,,0.07062611,-0.038768098,0.02057767,0.018098682,0.3472662,0.9375919,0.5345988,-0.79580355,0.28443095,0.8449122,0.49608773,-0.20005117,,0.0774559,1.3318858,0.45820114,0.9984694,0.027399193,-0.048042275,-0.009794949,-0.76732355,-0.64118534,-0.05443193,0.64067453,-0.7658807,,-0.072807014,0.25661305,-0.08970467,0.6326184,-0.6940836,0.34357223,0.59749866,0.7196577,0.35367802,-0.49273652,-0.018459303,0.8699828,,-0.0060472284,0.40918756,-0.32900935,-0.13607824,-0.4178268,-0.89827806,0.964708,-0.26220998,-0.024176704,-0.2254358,-0.8698659,0.43876192,,1.0979641009271213,0.3553538304745666,0.17535822233,1.6584377630191032,-0.45254008722313877,0.1459514577186722,-0.4127704551213237,,-1.2356063689444245,0.019136932062328336,0.19065574062,-2.2908626325684285,-0.6461540073907679,0.7281516822867221,0.5073466694130714,,-0.03256129885751921,-0.08751299035656068,0.07561312771999999,-0.048081597517509664,,-3.3847988e-05,-1.1920929e-07,2.9802322e-06,0.99999994,4.310161e-05,3.6057085e-05,-4.310161e-05,1.0,3.0696392e-06,-3.605336e-05,-3.0100346e-06,1.0,453,1.383,0,0,0.0,False,-0.2618441003348577,0.6817164178208119
1.4016767499269918,09:27:18.124908,09:26:12.029971,0,,0.11512093,0.004325226,0.03705792,-0.6974059,0.65440136,-0.29220486,0.16189337,0.54103434,0.825271,0.69815135,0.5282427,-0.4832639,,0.07062353,-0.038780376,0.020593107,0.018094465,0.34724078,0.9376013,0.53463,-0.7957922,0.2844041,0.8448925,0.49612373,-0.20004484,,0.0774559,1.3318858,0.45820114,0.9984694,0.027399193,-0.048042275,-0.009794949,-0.76732355,-0.64118534,-0.05443193,0.64067453,-0.7658807,,-0.07239456,0.25641236,-0.08953076,0.64126396,-0.69063455,0.33437163,0.5946628,0.72269785,0.35225555,-0.48492953,-0.02705042,0.8741348,,-0.0060469233,0.4091896,-0.3290291,-0.13607115,-0.4178067,-0.8982885,0.96471715,-0.26217458,-0.024192533,-0.2254006,-0.8698862,0.43873972,,1.0998561704813061,0.35333819719439397,0.17555007325000002,1.6492114055057843,-0.44106262124284173,0.15684868136303226,-0.4126071110551894,,-1.2356063689444245,0.019090595665082987,0.19063759256,-2.2908626325684285,-0.6461540073907679,0.7281516822867221,0.5073466694130714,,-0.03256129885751921,-0.08751299035656068,0.07561312771999999,-0.048081597517509664,,-3.3847988e-05,-1.1920929e-07,2.9802322e-06,0.99999994,4.310161e-05,3.6057085e-05,-4.310161e-05,1.0,3.0696392e-06,-3.605336e-05,-3.0100346e-06,1.0,482,1.473,0,0,0.0,False,-0.26196325577190027,0.6822957802301657
1.4323519029421732,09:27:18.213546,09:26:12.193085,0,,0.11393956,0.0040094405,0.036061525,-0.737954,0.61526084,-0.27726847,0.15269756,0.5524349,0.8194505,0.6573485,0.5623785,-0.5016205,,0.070622146,-0.03881198,0.020662189,0.019666046,0.34386176,0.9388143,0.53265727,-0.798244,0.2812168,0.8461026,0.49453583,-0.19885883,,0.0774559,1.3318858,0.45820114,0.9984694,0.027399193,-0.048042275,-0.009794949,-0.76732355,-0.64118534,-0.05443193,0.64067453,-0.7658807,,-0.07114038,0.2555951,-0.089033544,0.68484116,-0.6542335,0.3208912,0.563751,0.75471014,0.33555537,-0.4617114,-0.048899405,0.88568133,,-0.0060555455,0.40921474,-0.32910034,-0.13780756,-0.41424635,-0.8996716,0.96398515,-0.26470393,-0.025778072,-0.22746815,-0.8708225,0.43580553,,1.1049531741782943,0.3467970424499258,0.17611395940000002,1.5915466710475397,-0.40389749330664193,0.18224791233346904,-0.41391386358426363,,-1.2355986462115505,0.019005645603466518,0.19057407435,-2.2877172834161605,-0.6475203723884223,0.7297559337645297,0.5073466694130713,,-0.03256129885751921,-0.08751299035656068,0.07561312771999999,-0.048081597517509664,,-3.3847988e-05,-1.1920929e-07,2.9802322e-06,0.99999994,4.310161e-05,3.6057085e-05,-4.310161e-05,1.0,3.0696392e-06,-3.605336e-05,-3.0100346e-06,1.0,490,1.497,0,0,0.0,False,-0.2617249448978165,0.6810404950098996
1.520998902968131,09:27:18.239963,09:26:12.193085,0,,0.113551475,0.0039957017,0.03577009,-0.7520813,0.60166466,-0.2690227,0.15373969,0.5570799,0.8161042,0.6408881,0.57241714,-0.5114692,,0.07060751,-0.038802415,0.02069819,0.017389,0.34409457,0.9387739,0.531473,-0.79846615,0.28282216,0.84689665,0.49401504,-0.19676155,,0.0774559,1.3318858,0.45820114,0.9984694,0.027399193,-0.048042275,-0.009794949,-0.76732355,-0.64118534,-0.05443193,0.64067453,-0.7658807,,-0.07073064,0.2554191,-0.08884147,0.70022637,-0.6414415,0.313426,0.5548779,0.765223,0.32641116,-0.44921446,-0.05464856,0.89175105,,-0.0060461545,0.40924785,-0.32912076,-0.13567205,-0.41440344,-0.8999238,0.9639025,-0.265245,-0.0231755,-0.22909628,-0.87058306,0.43543085,,1.1072622713076876,0.3450517048203511,0.17630969919000003,1.5741424057383242,-0.38572483883783837,0.1878490161769856,-0.41146370259224946,,-1.2356063689444245,0.019005645603466518,0.19055203742000001,-2.2893948029640367,-0.6498431928844347,0.730506535765401,0.5066932931485342,,-0.03256129885751921,-0.08751299035656068,0.07561312771999999,-0.048081597517509664,,-3.3847988e-05,-1.1920929e-07,2.9802322e-06,0.99999994,4.310161e-05,3.6057085e-05,-4.310161e-05,1.0,3.0696392e-06,-3.605336e-05,-3.0100346e-06,1.0,498,1.522,0,0,0.0,False,-0.2626781883941529,0.6803645721989877
1.5474280019989237,09:27:18.267370,09:26:12.193085,0,,0.11306763,0.0040933043,0.035508156,-0.7587779,0.5965048,-0.26160625,0.15653604,0.55686575,0.81571865,0.63225967,0.5779984,-0.51591206,,0.070599996,-0.038796574,0.020721614,0.016177358,0.34326154,0.93910044,0.5304563,-0.79909694,0.28294936,0.8475579,0.49357444,-0.19501257,,0.0774559,1.3318858,0.45820114,0.9984694,0.027399193,-0.048042275,-0.009794949,-0.76732355,-0.64118534,-0.05443193,0.64067453,-0.7658807,,-0.07022709,0.25535253,-0.088608555,0.7075983,-0.6367385,0.30638,0.55194545,0.76878494,0.3229953,-0.44120386,-0.059445903,0.8954358,,-0.006042018,0.4092689,-0.3291341,-0.13457137,-0.41351882,-0.9004958,0.9637457,-0.26592135,-0.02190915,-0.23040122,-0.87079734,0.4343124,,1.1101196824711506,0.34332953538939903,0.17657803122000001,1.566383877829397,-0.3732909173591833,0.1936373412680209,-0.4119537347906523,,-1.2356063689444245,0.019005645603466518,0.19053907452000002,-2.29002387279449,-0.6514828308816201,0.7317618718696176,0.5065299490824,,-0.03256129885751921,-0.08751299035656068,0.07561312771999999,-0.048081597517509664,,-3.3847988e-05,-1.1920929e-07,2.9802322e-06,0.99999994,4.310161e-05,3.6057085e-05,-4.310161e-05,1.0,3.0696392e-06,-3.605336e-05,-3.0100346e-06,1.0,506,1.546,0,0,0.0,False,-0.2616653671792948,0.6803645721989877
1.574847940937616,09:27:18.297764,09:26:12.193085,0,,0.11252186,0.0042007715,0.03521374,-0.7649477,0.59114254,-0.25574464,0.16274875,0.5615742,0.8112627,0.6231915,0.57895136,-0.5257827,,0.07059504,-0.03880021,0.020725667,0.016040523,0.3433862,0.93905723,0.5305351,-0.7989894,0.28310508,0.8475111,0.4936618,-0.19499472,,0.0774559,1.3318858,0.45820114,0.9984694,0.027399193,-0.048042275,-0.009794949,-0.76732355,-0.64118534,-0.05443193,0.64067453,-0.7658807,,-0.069659196,0.25527602,-0.088348284,0.71450055,-0.63143915,0.30128646,0.55137175,0.773285,0.3130807,-0.4306717,-0.05757549,0.9006703,,-0.0060377135,0.40926957,-0.32914,-0.13442893,-0.41365418,-0.90045494,0.9637832,-0.26579595,-0.021780927,-0.2303275,-0.87077135,0.43440363,,1.1133941212098217,0.3413061793763522,0.17687747421000002,1.561141629242284,-0.357987629385454,0.19226684471313815,-0.4126071110551893,,-1.2355909234786762,0.018997922870592293,0.19053259307,-2.290233562737975,-0.6514828308816201,0.7317618718696176,0.5065299490824,,-0.03256129885751921,-0.08751299035656068,0.07561312771999999,-0.048081597517509664,,-3.3847988e-05,-1.1920929e-07,2.9802322e-06,0.99999994,4.310161e-05,3.6057085e-05,-4.310161e-05,1.0,3.0696392e-06,-3.605336e-05,-3.0100346e-06,1.0,518,1.583,0,0,0.0,False,-0.26249945523859,0.6802680117974282
1.605235290946439,09:27:18.328349,09:26:12.193085,0,,0.111910954,0.0042726845,0.03490454,-0.7689308,0.587139,-0.25300807,0.16463685,0.56423724,0.8090309,0.61777014,0.5804342,-0.5305242,,0.07059696,-0.03880596,0.020730376,0.016032083,0.34336546,0.939065,0.530553,-0.7989838,0.28308752,0.8475001,0.4936853,-0.19498302,,0.0774559,1.3318858,0.45820114,0.9984694,0.027399193,-0.048042275,-0.009794949,-0.76732355,-0.64118534,-0.05443193,0.64067453,-0.7658807,,-0.06902543,0.25516552,-0.088103145,0.71890944,-0.6275486,0.29891804,0.5496213,0.7764651,0.30825052,-0.4255416,-0.057312477,0.9031221,,-0.0060403077,0.40926853,-0.3291472,-0.13441893,-0.413637,-0.9004643,0.9637892,-0.26577368,-0.021786187,-0.23030815,-0.8707863,0.43438393,,1.1165449962225054,0.33889668671959416,0.17719506526,1.5556896907116862,-0.34883298390116946,0.19362314910065867,-0.4142405517165322,,-1.2355986462115505,0.018967031939095397,0.19052740791000003,-2.290233562737975,-0.6514828308816201,0.7317618718696176,0.5062032609501314,,-0.03256129885751921,-0.08751299035656068,0.07561312771999999,-0.048081597517509664,,-3.3847988e-05,-1.1920929e-07,2.9802322e-06,0.99999994,4.310161e-05,3.6057085e-05,-4.310161e-05,1.0,3.0696392e-06,-3.605336e-05,-3.0100346e-06,1.0,555,1.698,0,0,0.0,False,-0.26112916771260597,0.6803645721989877
1.6357781839324161,09:27:18.440304,09:26:12.349022,0,,0.11019641,0.0041106343,0.03285259,-0.7900561,0.5678681,-0.23094794,0.18678191,0.5817994,0.7915945,0.5838867,0.5822672,-0.56572163,,0.070595846,-0.038817853,0.020736217,0.015737398,0.34365472,0.9389641,0.53073287,-0.79873997,0.2834383,0.84739304,0.4938786,-0.19495901,,0.0774559,1.3318858,0.45820114,0.9984694,0.027399193,-0.048042275,-0.009794949,-0.76732355,-0.64118534,-0.05443193,0.64067453,-0.7658807,,-0.067155704,0.25383016,-0.08672566,0.74277115,-0.6083749,0.27959076,0.54655993,0.7921386,0.2716409,-0.38673413,-0.048953917,0.920891,,-0.00604009,0.40926412,-0.32915974,-0.13411123,-0.41394982,-0.9003664,0.9638728,-0.26549324,-0.02150823,-0.23013787,-0.8707232,0.4346006,,1.1229857554396085,0.3275211011958615,0.17876876132000002,1.5382854254024707,-0.29814084248819106,0.1914112233566156,-0.4140772076503979,,-1.2355909234786762,0.0189052500761016,0.19051833388000003,-2.290652942624944,-0.6514828308816201,0.7316801931294771,0.5060399168839971,,-0.03256129885751921,-0.08751299035656068,0.07561312771999999,-0.048081597517509664,,-3.3847988e-05,-1.1920929e-07,2.9802322e-06,0.99999994,4.310161e-05,3.6057085e-05,-4.310161e-05,1.0,3.0696392e-06,-3.605336e-05,-3.0100346e-06,1.0,563,1.723,0,0,0.0,False,-0.261427056305211,0.6795920889865159
1.7477613739902154,09:27:18.464927,09:26:12.349022,0,,0.10999158,0.0040421337,0.032381207,-0.79412216,0.5635795,-0.22748157,0.19015157,0.58590394,0.7877556,0.57724535,0.5823181,-0.5724449,,0.0705965,-0.038817704,0.020738065,0.01573183,0.34372765,0.93893754,0.5307299,-0.7987187,0.28350377,0.84739506,0.4938622,-0.19499189,,0.0774559,1.3318858,0.45820114,0.9984694,0.027399193,-0.048042275,-0.009794949,-0.76732355,-0.64118534,-0.05443193,0.64067453,-0.7658807,,-0.066914834,0.25349063,-0.08641658,0.74736786,-0.60407865,0.27664098,0.5452012,0.7955556,0.26428583,-0.37973273,-0.046693746,0.92391706,,-0.0060409904,0.40926543,-0.32916084,-0.13410603,-0.41401958,-0.90033513,0.96387255,-0.26549634,-0.02148137,-0.23014198,-0.8706891,0.43466675,,1.1232251601587095,0.3253973496554497,0.17910709301000002,1.5347206963632338,-0.2898060160024992,0.19025056430083268,-0.413587175451995,,-1.2355986462115505,0.0189052500761016,0.19051703759000002,-2.290652942624944,-0.6514828308816201,0.7315985143893364,0.5058765728178628,,-0.03256129885751921,-0.08751299035656068,0.07561312771999999,-0.048081597517509664,,-3.3847988e-05,-1.1920929e-07,2.9802322e-06,0.99999994,4.310161e-05,3.6057085e-05,-4.310161e-05,1.0,3.0696392e-06,-3.605336e-05,-3.0100346e-06,1.0,571,1.747,0,0,0.0,False,-0.26190367805337944,0.679881770191193
1.7724023699993268,09:27:18.488347,09:26:12.349022,0,,0.1097085,0.0039510876,0.031625807,-0.799891,0.55608386,-0.22570989,0.19386785,0.59535086,0.7797259,0.56796956,0.5799378,-0.58402264,,0.0705965,-0.038817704,0.020738065,0.01573183,0.3435743,0.9389937,0.5307299,-0.798765,0.2833733,0.84739506,0.49389404,-0.19491121,,0.0774559,1.3318858,0.45820114,0.9984694,0.027399193,-0.048042275,-0.009794949,-0.76732355,-0.64118534,-0.05443193,0.64067453,-0.7658807,,-0.06657373,0.25295904,-0.08590656,0.7538715,-0.5963613,0.27573714,0.54253733,0.8017486,0.250704,-0.370582,-0.03940092,0.9279637,,-0.0060409904,0.40926543,-0.32916084,-0.13410603,-0.4138725,-0.9004028,0.96387255,-0.26549283,-0.02152474,-0.23014198,-0.8707601,0.43452454,,1.1232869420217033,0.3222310291770177,0.17966449771,1.5290590678891516,-0.2790117325210294,0.18438898455387567,-0.4148939279810693,,-1.2355986462115505,0.0189052500761016,0.1905157413,-2.2908626325684285,-0.6514828308816201,0.7317618718696175,0.5055498846855943,,-0.03256129885751921,-0.08751299035656068,0.07561312771999999,-0.048081597517509664,,-3.3847988e-05,-1.1920929e-07,2.9802322e-06,0.99999994,4.310161e-05,3.6057085e-05,-4.310161e-05,1.0,3.0696392e-06,-3.605336e-05,-3.0100346e-06,1.0,579,1.772,0,0,0.0,False,-0.2621419889274632,0.6800748909943106
1.7958228839561343,09:27:18.515571,09:26:12.507900,0,,0.10949645,0.003922358,0.030889675,-0.8056359,0.5501477,-0.21974564,0.19904387,0.60074484,0.7742655,0.5579714,0.58003706,-0.59348524,,0.07059239,-0.038817987,0.020739198,0.0154429,0.34382063,0.9389083,0.5308678,-0.79855925,0.28369445,0.8473139,0.4940552,-0.19485545,,0.0774559,1.3318858,0.45820114,0.9984694,0.027399193,-0.048042275,-0.009794949,-0.76732355,-0.64118534,-0.05443193,0.64067453,-0.7658807,,-0.06630457,0.25248486,-0.08536768,0.7604171,-0.5904185,0.27050295,0.5405553,0.8062726,0.24025908,-0.35995254,-0.036475312,0.93225735,,-0.0060370853,0.40926638,-0.32916227,-0.13380788,-0.41413847,-0.9003248,0.96394336,-0.26525775,-0.021247646,-0.23001868,-0.87070525,0.43469962,,1.1232560510902065,0.3195898545340329,0.18023486531000002,1.524445889132492,-0.2668510840419052,0.18272234387909095,-0.4137505195181293,,-1.2355909234786762,0.0189052500761016,0.19051444501,-2.291072322511913,-0.6514828308816201,0.7317618718696175,0.5055498846855943,,-0.03256129885751921,-0.08751299035656068,0.07561312771999999,-0.048081597517509664,,-3.3847988e-05,-1.1920929e-07,2.9802322e-06,0.99999994,4.310161e-05,3.6057085e-05,-4.310161e-05,1.0,3.0696392e-06,-3.605336e-05,-3.0100346e-06,1.0,587,1.796,0,0,0.0,False,-0.2620824112089424,0.6801714513958692
1.8230045889504254,09:27:18.543392,09:26:12.507900,0,,0.10928053,0.00396052,0.030172199,-0.81024694,0.5457541,-0.21366332,0.2032782,0.6036133,0.7709273,0.5497068,0.58120847,-0.6000158,,0.07059326,-0.038820803,0.020740032,0.015441461,0.34381217,0.9389114,0.5308783,-0.7985555,0.2836855,0.8473073,0.4940672,-0.1948533,,0.0774559,1.3318858,0.45820114,0.9984694,0.027399193,-0.048042275,-0.009794949,-0.76732355,-0.64118534,-0.05443193,0.64067453,-0.7658807,,-0.06603262,0.25207457,-0.08480152,0.76569015,-0.5861134,0.2649333,0.53887635,0.8094348,0.23329735,-0.3511849,-0.035867203,0.9356189,,-0.006038082,0.4092649,-0.32916474,-0.13380548,-0.41413176,-0.9003283,0.9639465,-0.26524594,-0.021252867,-0.23000693,-0.87071204,0.43469223,,1.123341001151823,0.3172653119388913,0.18083634387000003,1.5206714701497706,-0.2567399830592626,0.18346208042101758,-0.4124437669890551,,-1.2355909234786762,0.01888980461035315,0.19051314872000003,-2.291072322511913,-0.6514828308816201,0.7317618718696175,0.5055498846855943,,-0.03256129885751921,-0.08751299035656068,0.07561312771999999,-0.048081597517509664,,-3.3847988e-05,-1.1920929e-07,2.9802322e-06,0.99999994,4.310161e-05,3.6057085e-05,-4.310161e-05,1.0,3.0696392e-06,-3.605336e-05,-3.0100346e-06,1.0,599,1.833,0,0,0.0,False,-0.26178452261633733,0.6791575671795007
1.850792852928862,09:27:18.576903,09:26:12.507900,0,,0.109011866,0.004083708,0.029490516,-0.8128398,0.541702,-0.21412675,0.20365587,0.6087023,0.7668153,0.54572487,0.57968974,-0.6050983,,0.0705912,-0.038822025,0.020741701,0.015447013,0.34419933,0.9387695,0.5308813,-0.79843765,0.28401133,0.8473054,0.4939881,-0.19506252,,0.0774559,1.3318858,0.45820114,0.9984694,0.027399193,-0.048042275,-0.009794949,-0.76732355,-0.64118534,-0.05443193,0.64067453,-0.7658807,,-0.06571038,0.2517552,-0.08421311,0.76859057,-0.58192325,0.26577023,0.53679067,0.81262344,0.22693384,-0.3480292,-0.03175625,0.9369457,,-0.0060362816,0.40926534,-0.329167,-0.13381068,-0.4145032,-0.90015656,0.96394676,-0.26525325,-0.021149715,-0.23000282,-0.87053305,0.43505272,,1.1236653559325405,0.3152419559258445,0.18147800742000003,1.5171067411105337,-0.25250425156653394,0.18057987658741248,-0.4132604873197265,,-1.235583200745802,0.01888980461035315,0.19051055614,-2.291072322511913,-0.6514828308816201,0.7313534781689147,0.5047331643549229,,-0.03256129885751921,-0.08751299035656068,0.07561312771999999,-0.048081597517509664,,-3.3847988e-05,-1.1920929e-07,2.9802322e-06,0.99999994,4.310161e-05,3.6057085e-05,-4.310161e-05,1.0,3.0696392e-06,-3.605336e-05,-3.0100346e-06,1.0,632,1.936,0,0,0.0,False,-0.26154621174225356,0.6781919631639117
1.8843669849447906,09:27:18.676646,09:26:12.507900,0,,0.10830557,0.0045027584,0.027677268,-0.8201154,0.53010184,-0.21541268,0.20557487,0.6242976,0.753652,0.53399396,0.5737981,-0.62097174,,0.07048014,-0.03885734,0.020734161,0.01511615,0.34455666,0.9386438,0.5308492,-0.7982896,0.2844866,0.8473313,0.49397808,-0.19497474,,0.077388726,1.3318852,0.45819423,0.99847,0.027445067,-0.04800394,-0.009735257,-0.7673219,-0.6411882,-0.05443193,0.64067453,-0.7658807,,-0.06480265,0.25097948,-0.0826005,0.7767672,-0.5698373,0.2681757,0.531294,0.82155675,0.20681202,-0.33817077,-0.018164659,0.94090945,,-0.0058648796,0.40925205,-0.3292057,-0.13352236,-0.41480932,-0.9000583,0.9639683,-0.26520452,-0.020778658,-0.23008037,-0.8704021,0.43527374,,1.1251249524457687,0.31025307048909545,0.18325003585000002,1.50767069365373,-0.23911387458952077,0.1695792432850226,-0.41375051951812936,,-1.2355754780129278,0.01888980461035315,0.19050277840000002,-2.2914917023988823,-0.6517561038811509,0.7311679202756047,0.5016296270983717,,-0.03256129885751921,-0.08751299035656068,0.07561312771999999,-0.048081597517509664,,-0.000100538135,-5.841255e-06,1.180172e-05,0.99999994,8.888915e-05,7.4356794e-05,-8.888543e-05,0.99999994,6.3180923e-06,-7.4356794e-05,-6.28829e-06,0.99999994,640,1.96,0,0,0.0,False,-0.26297607698675796,0.6745709481054525
1.9841185589320958,09:27:18.699293,09:26:12.507900,0,,0.10814008,0.0045859814,0.027272224,-0.8217583,0.52755105,-0.2154136,0.20642807,0.6279497,0.75037754,0.5311313,0.57216156,-0.6249243,,0.07048124,-0.03884892,0.020746738,0.01292772,0.34369087,0.9389938,0.5301461,-0.7985751,0.2849959,0.8478075,0.4941197,-0.19253021,,0.077388726,1.3318852,0.45819423,0.99847,0.027445067,-0.04800394,-0.009735257,-0.7673219,-0.6411882,-0.05443193,0.64067453,-0.7658807,,-0.06460528,0.2507978,-0.08224497,0.7786355,-0.5671435,0.26846793,0.5302373,0.8234866,0.20178755,-0.33552223,-0.014767225,0.9419165,,-0.0058677197,0.40926665,-0.32920858,-0.13142715,-0.41397378,-0.9007511,0.9640031,-0.2652283,-0.01876059,-0.23113832,-0.87079257,0.43393022,,1.1255033663566059,0.3084768419280238,0.18382688490000001,1.5049447243884313,-0.23460487009726125,0.1659024524630407,-0.41375051951812936,,-1.2356140916772989,0.018843468213107804,0.19050407469000002,-2.293378911890243,-0.6535323783781016,0.7331881042046421,0.5004862186354316,,-0.03256129885751921,-0.08751299035656068,0.07561312771999999,-0.048081597517509664,,-0.000100538135,-5.841255e-06,1.180172e-05,0.99999994,8.888915e-05,7.4356794e-05,-8.888543e-05,0.99999994,6.3180923e-06,-7.4356794e-05,-6.28829e-06,0.99999994,648,1.985,0,0,0.0,False,-0.26196325577190027,0.6749089095109087
2.006768684950657,09:27:18.729277,09:26:12.507900,0,,0.10782337,0.004666254,0.02646856,-0.82464916,0.5228366,-0.2158595,0.20722958,0.63433886,0.74476165,0.52631676,0.56943464,-0.63145435,,0.07049534,-0.03885433,0.02075103,0.012453988,0.34380296,0.9389592,0.5301043,-0.79848164,0.28533554,0.84784085,0.4941928,-0.19219574,,0.077388726,1.3318852,0.45819423,0.99847,0.027445067,-0.04800394,-0.009735257,-0.7673219,-0.6411882,-0.05443193,0.64067453,-0.7658807,,-0.064225815,0.25037077,-0.08159207,0.7819012,-0.56219053,0.26939246,0.527973,0.8269594,0.19334614,-0.33147398,-0.008945631,0.94342196,,-0.0058823163,0.40926442,-0.32921395,-0.13096319,-0.41409475,-0.9007631,0.96404165,-0.26512158,-0.018282857,-0.2312409,-0.87076753,0.43392575,,1.1256346528154677,0.3065075450450966,0.18436095638000002,1.5020090651796478,-0.23050577510429804,0.16264159409228862,-0.41391386358426363,,-1.2356758735402926,0.01876624088436556,0.19050537098,-2.293798291777212,-0.6538056513776326,0.7332475825317539,0.5004862186354316,,-0.03256129885751921,-0.08751299035656068,0.07561312771999999,-0.048081597517509664,,-0.000100538135,-5.841255e-06,1.180172e-05,0.99999994,8.888915e-05,7.4356794e-05,-8.888543e-05,0.99999994,6.3180923e-06,-7.4356794e-05,-6.28829e-06,0.99999994,660,2.022,0,0,0.0,False,-0.2620824112089424,0.6741847064992168
2.0367467219475657,09:27:18.764650,09:26:12.729325,0,,0.10757251,0.0046825856,0.025806487,-0.8267418,0.51941675,-0.21611065,0.2082659,0.63942415,0.7401093,0.5226116,0.5668709,-0.63681567,,0.07051223,-0.038865745,0.020754367,0.012553534,0.34368125,0.9390024,0.5300789,-0.798551,0.28518844,0.84785527,0.49416527,-0.19220288,,0.077388726,1.3318852,0.45819423,0.99847,0.027445067,-0.04800394,-0.009735257,-0.7673219,-0.6411882,-0.05443193,0.64067453,-0.7658807,,-0.06392354,0.2499798,-0.08108482,0.78428525,-0.5585488,0.2700367,0.52655095,0.82946205,0.18637808,-0.32808647,-0.0039855107,0.94463927,,-0.005899552,0.40925685,-0.32922247,-0.13106388,-0.41397065,-0.9008055,0.96402377,-0.26517862,-0.018397456,-0.23125835,-0.87080914,0.43383288,,1.1256423755483418,0.3042138933814519,0.18492873140000002,1.4994927858578337,-0.22640668011133483,0.15929905698139596,-0.41391386358426363,,-1.2357299326704123,0.018673568089874866,0.19050537098,-2.2935886018337275,-0.6538056513776326,0.7331659037916133,0.5006495627015659,,-0.03256129885751921,-0.08751299035656068,0.07561312771999999,-0.048081597517509664,,-0.000100538135,-5.841255e-06,1.180172e-05,0.99999994,8.888915e-05,7.4356794e-05,-8.888543e-05,0.99999994,6.3180923e-06,-7.4356794e-05,-6.28829e-06,0.99999994,668,2.046,0,0,0.0,False,-0.26178452261633733,0.6741847064992168
2.0721041929209605,09:27:18.798337,09:26:12.729325,0,,0.10733454,0.0046571344,0.025180012,-0.8288646,0.51560795,-0.21709827,0.20858714,0.64489543,0.7352558,0.5191094,0.5641436,-0.6420803,,0.070524976,-0.038873598,0.020757109,0.012513699,0.3435439,0.93905324,0.53010786,-0.7985688,0.28508484,0.84783775,0.49423206,-0.19210842,,0.077388726,1.3318852,0.45819423,0.99847,0.027445067,-0.04800394,-0.009735257,-0.7673219,-0.6411882,-0.05443193,0.64067453,-0.7658807,,-0.06363715,0.24957804,-0.0806306,0.78667897,-0.55450416,0.27140626,0.5247011,0.8321799,0.17934701,-0.3253075,0.0013186596,0.94560736,,-0.0059125856,0.4092519,-0.32922855,-0.13102183,-0.41384432,-0.90086967,0.9640363,-0.2651321,-0.018411519,-0.23122998,-0.87088335,0.43369904,,1.1255342572881026,0.30189707351918454,0.18544465482000003,1.4965571266490503,-0.2229907676171988,0.15561514324743927,-0.41375051951812936,,-1.2357762690676577,0.018604063494006843,0.19050537098,-2.2935886018337275,-0.6538056513776326,0.7332475825317538,0.5008129067677002,,-0.03256129885751921,-0.08751299035656068,0.07561312771999999,-0.048081597517509664,,-0.000100538135,-5.841255e-06,1.180172e-05,0.99999994,8.888915e-05,7.4356794e-05,-8.888543e-05,0.99999994,6.3180923e-06,-7.4356794e-05,-6.28829e-06,0.99999994,701,2.149,0,0,0.0,False,-0.2617249448978165,0.6739915856960987
2.1058149909367785,09:27:18.900888,09:26:12.847856,0,,0.10648726,0.004549429,0.02306953,-0.822935,0.52297896,-0.22197014,0.22660314,0.66041964,0.71588874,0.5209883,0.5388308,-0.6619912,,0.07052473,-0.038878366,0.02075538,0.012522623,0.34361538,0.93902695,0.5301296,-0.798536,0.28513625,0.84782404,0.4942354,-0.19216049,,0.077388726,1.3318852,0.45819423,0.99847,0.027445067,-0.04800394,-0.009735257,-0.7673219,-0.6411882,-0.05443193,0.64067453,-0.7658807,,-0.06262704,0.24820955,-0.07911713,0.7807289,-0.5597659,0.2777131,0.5396292,0.82806414,0.15201995,-0.31505984,0.031175746,0.94855964,,-0.00591213,0.4092473,-0.3292307,-0.13102862,-0.4139154,-0.90083605,0.9640416,-0.26511317,-0.018408028,-0.23120414,-0.87085533,0.43376905,,1.12516356611014,0.2936955312067581,0.18718946116000001,1.5124935623538742,-0.21465594113150693,0.13403479915651578,-0.4142405517165322,,-1.235760823601909,0.018580895295384172,0.19050537098,-2.2935886018337275,-0.6538056513776326,0.7331659037916134,0.5003228745692972,,-0.03256129885751921,-0.08751299035656068,0.07561312771999999,-0.048081597517509664,,-0.000100538135,-5.841255e-06,1.180172e-05,0.99999994,8.888915e-05,7.4356794e-05,-8.888543e-05,0.99999994,6.3180923e-06,-7.4356794e-05,-6.28829e-06,0.99999994,713,2.185,0,0,0.0,False,-0.26196325577190027,0.6748123491093496
2.2083452210063115,09:27:18.919795,09:26:12.847856,0,,0.10633406,0.004523635,0.022661328,-0.81614685,0.5330559,-0.22305971,0.23741847,0.66127074,0.71158504,0.52681744,0.5277993,-0.6662514,,0.070528775,-0.03887938,0.02075532,0.012510072,0.34359944,0.939033,0.530134,-0.79853606,0.28512794,0.8478215,0.49424636,-0.19214353,,0.077388726,1.3318852,0.45819423,0.99847,0.027445067,-0.04800394,-0.009735257,-0.7673219,-0.6411882,-0.05443193,0.64067453,-0.7658807,,-0.062442347,0.24794053,-0.078826815,0.77356845,-0.5689379,0.27910855,0.5513926,0.8213619,0.14605066,-0.31234288,0.04091821,0.9490878,,-0.0059161265,0.40924612,-0.3292309,-0.1310158,-0.41390115,-0.90084445,0.96404415,-0.2651041,-0.018402891,-0.23120056,-0.87086487,0.43375182,,1.1248314885965482,0.2911779202897609,0.1876898291,1.5336722466458113,-0.21424603163221062,0.12479756277010523,-0.41505727204720355,,-1.2357762690676577,0.018565449829635722,0.19050666727,-2.2935886018337275,-0.6538056513776326,0.7331659037916134,0.5003228745692972,,-0.03256129885751921,-0.08751299035656068,0.07561312771999999,-0.048081597517509664,,-0.000100538135,-5.841255e-06,1.180172e-05,0.99999994,8.888915e-05,7.4356794e-05,-8.888543e-05,0.99999994,6.3180923e-06,-7.4356794e-05,-6.28829e-06,0.99999994,721,2.21,0,0,0.0,False,-0.2608312791200009,0.6742812669007754
2.2272599529242143,09:27:18.970118,09:26:12.847856,0,,0.10600446,0.0044143647,0.021629602,-0.7932973,0.56540865,-0.22581482,0.2712788,0.66030276,0.7002913,0.54505694,0.49428034,-0.67719984,,0.070526734,-0.03887847,0.020754725,0.012215868,0.34368858,0.9390042,0.53026795,-0.79837877,0.28531927,0.84774196,0.49443844,-0.19199997,,0.077388726,1.3318852,0.45819423,0.99847,0.027445067,-0.04800394,-0.009735257,-0.7673219,-0.6411882,-0.05443193,0.64067453,-0.7658807,,-0.06203323,0.2472237,-0.07811702,0.7495593,-0.5985572,0.28264856,0.588143,0.79815453,0.13052638,-0.30372474,0.06840053,0.95030135,,-0.0059140134,0.4092466,-0.32923007,-0.13071272,-0.41401613,-0.90083563,0.9641138,-0.2648673,-0.018163793,-0.23108181,-0.8708823,0.4337802,,1.1240437698433774,0.2876486313662403,0.18836519619000003,1.5722551962469637,-0.21383612213291428,0.10673902244851394,-0.4155473042456064,,-1.2357762690676577,0.018565449829635722,0.19050666727,-2.2940079817206964,-0.6538056513776326,0.7333292612718945,0.5003228745692974,,-0.03256129885751921,-0.08751299035656068,0.07561312771999999,-0.048081597517509664,,-0.000100538135,-5.841255e-06,1.180172e-05,0.99999994,8.888915e-05,7.4356794e-05,-8.888543e-05,0.99999994,6.3180923e-06,-7.4356794e-05,-6.28829e-06,0.99999994,733,2.247,0,0,0.0,False,-0.26106958999408425,0.6717224162594642
2.277594471932389,09:27:19.000804,09:26:12.991016,0,,0.10583302,0.004333392,0.021024704,-0.77439135,0.58980316,-0.22901961,0.29511312,0.65688825,0.6938342,0.5596659,0.46971256,-0.6827473,,0.07052562,-0.038879022,0.02075401,0.012221424,0.34384573,0.9389466,0.53027093,-0.7983302,0.28544942,0.84774005,0.4944076,-0.19208816,,0.077388726,1.3318852,0.45819423,0.99847,0.027445067,-0.04800394,-0.009735257,-0.7673219,-0.6411882,-0.05443193,0.64067453,-0.7658807,,-0.06181519,0.24678929,-0.077710085,0.7297067,-0.6209624,0.28624094,0.61499465,0.7790097,0.122169755,-0.2988473,0.08688856,0.9503371,,-0.005912813,0.40924585,-0.3292301,-0.13071792,-0.41416705,-0.9007655,0.96411407,-0.26486892,-0.018125698,-0.23107772,-0.87081003,0.4339274,,1.123310110220326,0.2851464659149916,0.18882537914000003,1.6058055872044876,-0.2154757601300996,0.0936189002879915,-0.41505727204720355,,-1.2357685463347834,0.018565449829635722,0.19050666727,-2.2940079817206964,-0.6538056513776326,0.7331659037916133,0.49705599324661176,,-0.03256129885751921,-0.08751299035656068,0.07561312771999999,-0.048081597517509664,,-0.000100538135,-5.841255e-06,1.180172e-05,0.99999994,8.888915e-05,7.4356794e-05,-8.888543e-05,0.99999994,6.3180923e-06,-7.4356794e-05,-6.28829e-06,0.99999994,745,2.284,0,0,0.0,False,-0.26232072208302704,0.6706602518423161
2.3082756319781765,09:27:19.028667,09:26:12.991016,0,,0.1056893,0.0042363256,0.02042763,-0.75750893,0.6096375,-0.23349965,0.31670114,0.6559432,0.6851559,0.5708593,0.4450622,-0.68995583,,0.0705227,-0.038878858,0.020752937,0.012233252,0.34393415,0.938914,0.53027177,-0.798305,0.2855186,0.84773934,0.4943869,-0.1921445,,0.077388726,1.3318852,0.45819423,0.99847,0.027445067,-0.04800394,-0.009735257,-0.7673219,-0.6411882,-0.05443193,0.64067453,-0.7658807,,-0.061625514,0.24634604,-0.07731751,0.7121264,-0.63880026,0.29122192,0.63804877,0.7619385,0.111101285,-0.2928647,0.106695645,0.95018226,,-0.0059097647,0.40924543,-0.32922947,-0.13072953,-0.4142515,-0.90072495,0.96411306,-0.2648736,-0.018111806,-0.23107542,-0.8707684,0.4340121,,1.1224992232685325,0.28265202319661703,0.18928037693000002,1.6357912491227746,-0.21561239662986503,0.07796632134455944,-0.41522061611333794,,-1.235753100869035,0.018573172562509947,0.19050666727,-2.2940079817206964,-0.6538056513776326,0.7330842250514727,0.49721933731274603,,-0.03256129885751921,-0.08751299035656068,0.07561312771999999,-0.048081597517509664,,-0.000100538135,-5.841255e-06,1.180172e-05,0.99999994,8.888915e-05,7.4356794e-05,-8.888543e-05,0.99999994,6.3180923e-06,-7.4356794e-05,-6.28829e-06,0.99999994,766,2.349,0,0,0.0,False,-0.26232072208302704,0.6706119716415371
2.336132749915123,09:27:19.092163,09:26:12.991016,0,,0.10535629,0.0041349083,0.019376352,-0.7127065,0.65087295,-0.26155987,0.3574407,0.657815,0.66295964,0.6035605,0.37900352,-0.70147765,,0.070524156,-0.038879648,0.02075401,0.01201525,0.34363073,0.93902797,0.5302441,-0.79837465,0.2853749,0.8477597,0.49448532,-0.19180086,,0.077388726,1.3318852,0.45819423,0.99847,0.027445067,-0.04800394,-0.009735257,-0.7673219,-0.6411882,-0.05443193,0.64067453,-0.7658807,,-0.061211415,0.24562322,-0.07658783,0.66513616,-0.6746961,0.31996724,0.68823147,0.7201504,0.08786843,-0.28970903,0.16176705,0.9433452,,-0.0059113665,0.40924552,-0.3292307,-0.13051678,-0.4139655,-0.9008873,0.96412826,-0.26482648,-0.017988823,-0.23113208,-0.87091875,0.43368012,,1.1210859631525494,0.2780878880679504,0.19015407639,1.7049889304726675,-0.22749977210945835,0.03007616716705172,-0.41603733644400925,,-1.235760823601909,0.018557727096761498,0.19050666727,-2.294217671664181,-0.653942287877398,0.7335223579157315,0.49656596104820894,,-0.03256129885751921,-0.08751299035656068,0.07561312771999999,-0.048081597517509664,,-0.000100538135,-5.841255e-06,1.180172e-05,0.99999994,8.888915e-05,7.4356794e-05,-8.888543e-05,0.99999994,6.3180923e-06,-7.4356794e-05,-6.28829e-06,0.99999994,774,2.374,0,0,0.0,False,-0.2622015666459845,0.6696946478267272
2.399533574935049,09:27:19.118633,09:26:12.991016,0,,0.10514726,0.0040751547,0.018911615,-0.69260824,0.66553384,-0.2781336,0.3728674,0.66042066,0.65177774,0.6174654,0.34771967,-0.7055688,,0.070524246,-0.03887865,0.020754427,0.011862587,0.34374818,0.9389869,0.530308,-0.79827464,0.28553608,0.84772193,0.49456516,-0.19176206,,0.077388726,1.3318852,0.45819423,0.99847,0.027445067,-0.04800394,-0.009735257,-0.7673219,-0.6411882,-0.05443193,0.64067453,-0.7658807,,-0.06096681,0.24529484,-0.07627868,0.6440994,-0.6868331,0.33674368,0.7080475,0.70191604,0.077347115,-0.28949034,0.18861128,0.93841416,,-0.0059115095,0.4092465,-0.32923025,-0.13036002,-0.41409275,-0.90085155,0.9641627,-0.26471093,-0.01784245,-0.23107682,-0.8708934,0.43376052,,1.1206921037759638,0.2758328500686768,0.19054296339000001,1.7337164527300475,-0.23378505109866862,0.00587872302662526,-0.4148939279810693,,-1.2357685463347834,0.018557727096761498,0.19050666727,-2.294427361607666,-0.653942287877398,0.7335223579157315,0.49656596104820894,,-0.03256129885751921,-0.08751299035656068,0.07561312771999999,-0.048081597517509664,,-0.000100538135,-5.841255e-06,1.180172e-05,0.99999994,8.888915e-05,7.4356794e-05,-8.888543e-05,0.99999994,6.3180923e-06,-7.4356794e-05,-6.28829e-06,0.99999994,782,2.398,0,0,0.0,False,-0.2622611443645053,0.6685842032087996
2.426107940962538,09:27:19.147364,09:26:13.124050,0,,0.10495123,0.0040202737,0.018488064,-0.66829634,0.6835751,-0.29343623,0.39367437,0.65968513,0.64018416,0.6311895,0.31231442,-0.7099713,,0.070522,-0.038879707,0.020753115,0.011873707,0.34375572,0.93898404,0.5303141,-0.79827076,0.28553554,0.847718,0.49456614,-0.19177695,,0.077388726,1.3318852,0.45819423,0.99847,0.027445067,-0.04800394,-0.009735257,-0.7673219,-0.6411882,-0.05443193,0.64067453,-0.7658807,,-0.060738396,0.24499547,-0.07599753,0.61890894,-0.70203567,0.35227495,0.73174745,0.67834806,0.06625352,-0.28547737,0.2167714,0.9335485,,-0.005909109,0.40924504,-0.3292303,-0.13037044,-0.4141003,-0.90084654,0.9641633,-0.26470822,-0.017852798,-0.23106864,-0.8708906,0.43377042,,1.1204990354541082,0.27367048486389395,0.19089425798,1.7689443632354473,-0.23733760009257007,-0.019730291786324017,-0.41211707885678656,,-1.235753100869035,0.018557727096761498,0.19050666727,-2.294427361607666,-0.653942287877398,0.7335223579157315,0.4946058322545976,,-0.03256129885751921,-0.08751299035656068,0.07561312771999999,-0.048081597517509664,,-0.000100538135,-5.841255e-06,1.180172e-05,0.99999994,8.888915e-05,7.4356794e-05,-8.888543e-05,0.99999994,6.3180923e-06,-7.4356794e-05,-6.28829e-06,0.99999994,794,2.435,1,1,0.003,False,-0.2622611443645053,0.6681496814017844
2.454808112932369,09:27:19.181586,09:26:13.124050,0,,0.10470842,0.0039007366,0.018126696,-0.6452157,0.6975595,-0.3116206,0.4119342,0.6611465,0.6270529,0.6434336,0.27621716,-0.71393067,,0.07051986,-0.038879797,0.020752162,0.011732126,0.34395733,0.9389119,0.53038394,-0.79814357,0.28576142,0.84767616,0.49463126,-0.19179344,,0.077388726,1.3318852,0.45819423,0.99847,0.027445067,-0.04800394,-0.009735257,-0.7673219,-0.6411882,-0.05443193,0.64067453,-0.7658807,,-0.06046861,0.24468689,-0.07580826,0.59504694,-0.71312624,0.37063482,0.75259334,0.6562371,0.05437036,-0.28199723,0.24658437,0.9271859,,-0.005906852,0.40924454,-0.32922992,-0.13022406,-0.41430864,-0.9007719,0.96419823,-0.2645914,-0.017695172,-0.23100522,-0.870827,0.43393186,,1.120522203652731,0.2712841604057586,0.19116518259,1.8010269245885797,-0.24089014908647152,-0.047462953842927896,-0.41293379918745793,,-1.2357453781361607,0.018557727096761498,0.19050666727,-2.29463705155115,-0.653942287877398,0.7334406791755909,0.4944424881884633,,-0.03256129885751921,-0.08751299035656068,0.07561312771999999,-0.048081597517509664,,-0.000100538135,-5.841255e-06,1.180172e-05,0.99999994,8.888915e-05,7.4356794e-05,-8.888543e-05,0.99999994,6.3180923e-06,-7.4356794e-05,-6.28829e-06,0.99999994,807,2.476,1,1,0.044,False,-0.26154621174225356,0.6646735069456633
2.4889922419097275,09:27:19.219077,09:26:13.124050,0,,0.104290366,0.0036967546,0.017658994,-0.6143493,0.7129286,-0.33809394,0.42782748,0.66101533,0.61645937,0.6629768,0.23407553,-0.7111048,,0.07051602,-0.03888175,0.020751387,0.011748787,0.3434317,0.93910414,0.530393,-0.79830104,0.28530428,0.8476703,0.49474236,-0.19153291,,0.077388726,1.3318852,0.45819423,0.99847,0.027445067,-0.04800394,-0.009735257,-0.7673219,-0.6411882,-0.05443193,0.64067453,-0.7658807,,-0.060016286,0.2442538,-0.07560098,0.5628348,-0.7251311,0.39673907,0.7758239,0.6290373,0.04908473,-0.28515655,0.28017306,0.9166181,,-0.005902951,0.40924296,-0.3292311,-0.13023967,-0.4138049,-0.9010012,0.96419907,-0.26457715,-0.01786197,-0.23099296,-0.87107086,0.43344873,,1.1205608173171022,0.2676313077562504,0.19152036605000003,1.8394001842462477,-0.25346070706489204,-0.07837859173370049,-0.4142405517165322,,-1.235722209937538,0.018557727096761498,0.19050537098,-2.29463705155115,-0.653942287877398,0.7340124303565749,0.49035888653510634,,-0.03256129885751921,-0.08751299035656068,0.07561312771999999,-0.048081597517509664,,-0.000100538135,-5.841255e-06,1.180172e-05,0.99999994,8.888915e-05,7.4356794e-05,-8.888543e-05,0.99999994,6.3180923e-06,-7.4356794e-05,-6.28829e-06,0.99999994,815,2.501,1,1,0.069,False,-0.2629164992682367,0.6634665019261767
2.526552563998848,09:27:19.244067,09:26:13.124050,0,,0.10398585,0.003440246,0.01731506,-0.59107226,0.7258566,-0.35180306,0.44378668,0.6568383,0.6096036,0.67356265,0.20419432,-0.7103645,,0.070511416,-0.03887993,0.020750076,0.011614196,0.34349224,0.93908364,0.53045547,-0.79822236,0.28540838,0.8476331,0.49482727,-0.19147804,,0.077388726,1.3318852,0.45819423,0.99847,0.027445067,-0.04800394,-0.009735257,-0.7673219,-0.6411882,-0.05443193,0.64067453,-0.7658807,,-0.059687205,0.24385233,-0.07551531,0.53889364,-0.7356921,0.4103057,0.79383194,0.6064827,0.04482875,-0.28182346,0.30155584,0.9108455,,-0.005898197,0.4092438,-0.32922938,-0.13010089,-0.41387656,-0.90098834,0.9642312,-0.26446792,-0.017747477,-0.23093724,-0.87106997,0.43348017,,1.1206148764472217,0.264557660072309,0.19171351326000002,1.8695955361080192,-0.2574231655580898,-0.09736408984473724,-0.41587399237787503,,-1.2357067644717896,0.018573172562509947,0.19050537098,-2.2948467414946343,-0.653942287877398,0.7340941090967155,0.48986885433670346,,-0.03256129885751921,-0.08751299035656068,0.07561312771999999,-0.048081597517509664,,-0.000100538135,-5.841255e-06,1.180172e-05,0.99999994,8.888915e-05,7.4356794e-05,-8.888543e-05,0.99999994,6.3180923e-06,-7.4356794e-05,-6.28829e-06,0.99999994,824,2.529,1,1,0.097,False,-0.2623802998015474,0.6639493039339714
2.551542059984058,09:27:19.274632,09:26:13.124050,0,,0.103664875,0.0031032711,0.01697731,-0.5667974,0.7404623,-0.36118698,0.46186078,0.64862573,0.6049538,0.6822207,0.17606813,-0.70962995,,0.0705113,-0.038875923,0.020751387,0.011457389,0.3436911,0.9390128,0.5305058,-0.7981047,0.2856439,0.8476038,0.49487904,-0.19147433,,0.077388726,1.3318852,0.45819423,0.99847,0.027445067,-0.04800394,-0.009735257,-0.7673219,-0.6411882,-0.05443193,0.64067453,-0.7658807,,-0.05934268,0.24339287,-0.075486034,0.5141223,-0.74808794,0.41957438,0.81223255,0.5818132,0.042091683,-0.2756022,0.3191517,0.90674454,,-0.0058982437,0.40924758,-0.32922754,-0.1299413,-0.4140803,-0.90091777,0.9642621,-0.26436698,-0.017569093,-0.23089789,-0.8710038,0.43363413,,1.1207152719745865,0.2611442121419018,0.19185610516,1.9012587175741824,-0.2589261670555097,-0.11206584723148616,-0.414730583914935,,-1.235722209937538,0.018588618028258393,0.19050537098,-2.295056431438119,-0.653942287877398,0.7340124303565749,0.4897055102705692,,-0.03256129885751921,-0.08751299035656068,0.07561312771999999,-0.048081597517509664,,-0.000100538135,-5.841255e-06,1.180172e-05,0.99999994,8.888915e-05,7.4356794e-05,-8.888543e-05,0.99999994,6.3180923e-06,-7.4356794e-05,-6.28829e-06,0.99999994,837,2.57,1,1,0.138,False,-0.2626186106756321,0.6638044633316333
2.582089178962633,09:27:19.305584,09:26:13.124050,0,,0.10331003,0.0027669072,0.01669921,-0.5455279,0.7472233,-0.3795477,0.47507977,0.64879024,0.59444946,0.6904334,0.14397332,-0.708924,,0.070507936,-0.038877487,0.02074936,0.011474047,0.34362566,0.93903655,0.53051484,-0.7981222,0.28557792,0.84759784,0.49489614,-0.19145621,,0.077388726,1.3318852,0.45819423,0.99847,0.027445067,-0.04800394,-0.009735257,-0.7673219,-0.6411882,-0.05443193,0.64067453,-0.7658807,,-0.058969095,0.24297279,-0.075504825,0.49235266,-0.7523006,0.43775868,0.8267114,0.561525,0.035183825,-0.27228126,0.34457725,0.8984038,,-0.0058946433,0.4092454,-0.3292276,-0.1299569,-0.414018,-0.9009441,0.96426296,-0.26436147,-0.017606208,-0.23088564,-0.87103504,0.43357784,,1.121001013090933,0.25780026880736256,0.19195980836,1.927469960509748,-0.2623420795496456,-0.1360710264051801,-0.41309714325359226,,-1.2356990417389153,0.018588618028258393,0.19050537098,-2.295056431438119,-0.653942287877398,0.7340941090967155,0.48986885433670346,,-0.03256129885751921,-0.08751299035656068,0.07561312771999999,-0.048081597517509664,,-0.000100538135,-5.841255e-06,1.180172e-05,0.99999994,8.888915e-05,7.4356794e-05,-8.888543e-05,0.99999994,6.3180923e-06,-7.4356794e-05,-6.28829e-06,0.99999994,846,2.599,1,1,0.167,False,-0.26202283349042155,0.6630319801191615
2.6130135209532455,09:27:19.344781,09:26:13.124050,0,,0.102766156,0.0023936927,0.016472846,-0.5143093,0.7567998,-0.40341005,0.48845303,0.645136,0.5875483,0.7049109,0.105134636,-0.7014608,,0.070500545,-0.038879514,0.020745546,0.01150809,0.34311545,0.9392227,0.53052765,-0.79827577,0.2851245,0.8475894,0.4950025,-0.19121893,,0.077388726,1.3318852,0.45819423,0.99847,0.027445067,-0.04800394,-0.009735257,-0.7673219,-0.6411882,-0.05443193,0.64067453,-0.7658807,,-0.05841135,0.24256492,-0.075599186,0.4601728,-0.7588123,0.4609174,0.844791,0.5339135,0.035560146,-0.27307352,0.37301508,0.8867303,,-0.005886794,0.40924203,-0.3292271,-0.12998933,-0.41352883,-0.90116405,0.964263,-0.26434913,-0.017785791,-0.230867,-0.8712712,0.43311313,,1.1219586319673367,0.2536377157881556,0.19204277092000002,1.963117250902117,-0.2723165440325228,-0.1629776989556425,-0.41228042292292083,,-1.23565270534167,0.018596340761132618,0.19050537098,-2.295056431438119,-0.653942287877398,0.7346658602776994,0.4877453814769579,,-0.03256129885751921,-0.08751299035656068,0.07561312771999999,-0.048081597517509664,,-0.000100538135,-5.841255e-06,1.180172e-05,0.99999994,8.888915e-05,7.4356794e-05,-8.888543e-05,0.99999994,6.3180923e-06,-7.4356794e-05,-6.28829e-06,0.99999994,859,2.64,1,1,0.208,False,-0.26202283349042155,0.6612938928911012
2.652234132983722,09:27:19.376593,09:26:13.124050,0,,0.1024279,0.002201274,0.01636438,-0.47924194,0.7712278,-0.41896847,0.51110613,0.63329697,0.58112425,0.71351063,0.06436175,-0.69768184,,0.07049401,-0.03888075,0.020742446,0.011235952,0.34321943,0.939188,0.53067327,-0.79811096,0.28531513,0.8475018,0.49519628,-0.19110498,,0.077388726,1.3318852,0.45819423,0.99847,0.027445067,-0.04800394,-0.009735257,-0.7673219,-0.6411882,-0.05443193,0.64067453,-0.7658807,,-0.05806677,0.2423624,-0.07565796,0.424675,-0.7700575,0.476091,0.8662343,0.4985051,0.03362703,-0.26322854,0.3981258,0.8787529,,-0.0058798785,0.4092396,-0.32922637,-0.12970689,-0.41365868,-0.90114516,0.96433336,-0.26410714,-0.017567059,-0.23073211,-0.87128294,0.43316138,,1.123132487364219,0.2511355503369068,0.19207517817000003,2.006313379259929,-0.2720432710329919,-0.18770415680520403,-0.4162006805101436,,-1.2356218144101732,0.018596340761132618,0.19050537098,-2.295475811325088,-0.653942287877398,0.7348292177579805,0.4867653170801522,,-0.03256129885751921,-0.08751299035656068,0.07561312771999999,-0.048081597517509664,,-0.000100538135,-5.841255e-06,1.180172e-05,0.99999994,8.888915e-05,7.4356794e-05,-8.888543e-05,0.99999994,6.3180923e-06,-7.4356794e-05,-6.28829e-06,0.99999994,868,2.669,1,1,0.237,False,-0.2626186106756321,0.6600386076708356
2.6840669699013233,09:27:19.406973,09:26:13.124050,0,,0.10204867,0.0021044463,0.016345829,-0.44869265,0.77617985,-0.44296655,0.5260536,0.6300818,0.5711955,0.7224557,0.02326703,-0.6910254,,0.07049088,-0.03887762,0.020742148,0.011243673,0.3432359,0.93918186,0.5306606,-0.79811466,0.28532815,0.84750974,0.49517876,-0.19111557,,0.077388726,1.3318852,0.45819423,0.99847,0.027445067,-0.04800394,-0.009735257,-0.7673219,-0.6411882,-0.05443193,0.64067453,-0.7658807,,-0.057687853,0.24229242,-0.07572907,0.39360732,-0.77177894,0.49943018,0.8821015,0.47002843,0.031148406,-0.25878608,0.42828786,0.865794,,-0.005876734,0.40924197,-0.32922432,-0.1297157,-0.4136725,-0.90113753,0.96432894,-0.2641235,-0.017564429,-0.23074569,-0.8712714,0.43317732,,1.124715647603435,0.24911991705673422,0.19209851139000003,2.041541289765329,-0.27532254702736253,-0.21949855545580715,-0.4175074330392177,,-1.2356140916772989,0.018619508959755292,0.19050537098,-2.295475811325088,-0.653942287877398,0.7348292177579805,0.4870920052124207,,-0.03256129885751921,-0.08751299035656068,0.07561312771999999,-0.048081597517509664,,-0.000100538135,-5.841255e-06,1.180172e-05,0.99999994,8.888915e-05,7.4356794e-05,-8.888543e-05,0.99999994,6.3180923e-06,-7.4356794e-05,-6.28829e-06,0.99999994,877,2.697,1,1,0.265,False,-0.2626781883941529,0.6593144046591433
2.714403609978035,09:27:19.452559,09:26:13.124050,0,,0.10148283,0.0021265894,0.016404703,-0.4016746,0.77918947,-0.48116636,0.53876334,0.62593234,0.5638639,0.74053454,-0.032745063,-0.67121994,,0.07048056,-0.03887804,0.020739108,0.011284715,0.34327492,0.9391672,0.53066605,-0.7981069,0.28533968,0.8475057,0.49516422,-0.19117081,,0.077388726,1.3318852,0.45819423,0.99847,0.027445067,-0.04800394,-0.009735257,-0.7673219,-0.6411882,-0.05443193,0.64067453,-0.7658807,,-0.05712828,0.24237186,-0.075797595,0.34538984,-0.77039534,0.5359075,0.90121454,0.43156323,0.03956644,-0.2617598,0.46930182,0.84334904,,-0.005866088,0.40924054,-0.32922354,-0.12975572,-0.41370898,-0.90111506,0.96432614,-0.26413172,-0.01759284,-0.23073475,-0.8712516,0.433223,,1.1272487039861805,0.24677220626296997,0.19217499250000003,2.0916571862581304,-0.28966937950273375,-0.26497479366607646,-0.4165273686424121,,-1.2355600325471794,0.018642677158377967,0.19050407469000002,-2.295475811325088,-0.653942287877398,0.7348292177579805,0.4848051882865408,,-0.03256129885751921,-0.08751299035656068,0.07561312771999999,-0.048081597517509664,,-0.000100538135,-5.841255e-06,1.180172e-05,0.99999994,8.888915e-05,7.4356794e-05,-8.888543e-05,0.99999994,6.3180923e-06,-7.4356794e-05,-6.28829e-06,0.99999994,890,2.738,1,1,0.306,False,-0.26243987752006825,0.6571900758248472
2.7600346049293876,09:27:19.477669,09:26:13.473440,0,,0.10106444,0.0020926148,0.016381308,-0.36165607,0.7808826,-0.5093398,0.55751604,0.6190165,0.55316746,0.7472486,-0.08390877,-0.6592257,,0.07047136,-0.038874358,0.020736426,0.011015417,0.34324235,0.9391822,0.5307906,-0.79799616,0.28541768,0.8474313,0.49536517,-0.1909801,,0.077388726,1.3318852,0.45819423,0.99847,0.027445067,-0.04800394,-0.009735257,-0.7673219,-0.6411882,-0.05443193,0.64067453,-0.7658807,,-0.056709565,0.2423495,-0.075828,0.3050811,-0.7680978,0.5629843,0.9182201,0.39404318,0.040022623,-0.2525814,0.5047333,0.825498,,-0.005856579,0.40924227,-0.32922006,-0.12947805,-0.41370496,-0.90115684,0.9643901,-0.26391053,-0.017406784,-0.23062351,-0.8713205,0.4331436,,1.1293879009923407,0.24481835484579118,0.19223721442000002,2.136950214050788,-0.2902159255017955,-0.30479674094058795,-0.41473058391493495,,-1.2355291416156824,0.018673568089874866,0.19050407469000002,-2.295895191212057,-0.653942287877398,0.7351559327185427,0.48415181202200364,,-0.03256129885751921,-0.08751299035656068,0.07561312771999999,-0.048081597517509664,,-0.000100538135,-5.841255e-06,1.180172e-05,0.99999994,8.888915e-05,7.4356794e-05,-8.888543e-05,0.99999994,6.3180923e-06,-7.4356794e-05,-6.28829e-06,0.99999994,912,2.808,1,1,0.376,False,-0.26309523242380006,0.6570935154232882
