AlexandreBanks6/ExpertPlaybackApp/resources/Motions/P_10/PC1/Data_PC1_10.csv
Task Time,PC1 Time,PC2 Time,Gaze Calib,s_T_psm1,Tx,Ty,Tz,R00,R01,R02,R10,R11,R12,R20,R21,R22,s_T_psm3,Tx,Ty,Tz,R00,R01,R02,R10,R11,R12,R20,R21,R22,cart_T_ecm,Tx,Ty,Tz,R00,R01,R02,R10,R11,R12,R20,R21,R22,ecm_T_psm1,Tx,Ty,Tz,R00,R01,R02,R10,R11,R12,R20,R21,R22,ecm_T_psm3,Tx,Ty,Tz,R00,R01,R02,R10,R11,R12,R20,R21,R22,psm1_joints,q1,q2,q3,q4,q5,q6,jaw,psm3_joints,q1,q2,q3,q4,q5,q6,jaw,ecm_joints,q1,q2,q3,q4,ecmi_T_ecm,Tx,Ty,Tz,R00,R01,R02,R10,R11,R12,R20,R21,R22,Sample #,Task Duration (s),Collisions (binary),Collisions (increments),Cumulative Collision Time (s),Clutch Press,MTMR Angle,MTML Angle
""
lci_T_si,,,,,-0.063657075,0.025385704,0.2469648,0.99608046,0.04609189,0.0754932,0.084081955,-0.75835806,-0.6463925,0.02745742,0.6502066,-0.75926113
rci_T_si,,,,,-0.07441909,0.030183764,0.26059738,0.9968228,0.032426473,0.07275223,0.07222477,-0.75309837,-0.6539315,0.033584893,0.65710837,-0.7530476
ecm_T_lc,,,,,-4.4061628e-05,-0.00034663224,-0.01840835,-0.99912,0.030754527,0.028518902,-0.031987965,-0.99852574,-0.043852776,0.027128186,-0.04472645,0.9986309
ecm_T_rc,,,,,-0.0043358393,0.01870579,-0.007592615,-0.99555075,-0.052743673,-0.078081585,0.04863213,-0.9973746,0.053654674,-0.08070653,0.04961868,0.9955021
cart_T_ecmi,,,,,0.07751704,1.3301718,0.45619854,0.9982497,0.036658186,-0.046408493,-0.0016564787,-0.76707995,-0.64154935,-0.05911706,0.6405033,-0.7656766
ecmac_T_ecmrep_psm1,,,,,0.0028397094,-0.24236576,-0.3123762,0.99938005,0.032352094,0.013886033,-0.031258944,0.9968569,-0.072795466,-0.016197473,0.07231628,0.9972502
ecmac_T_ecmrep_psm3,,,,,-0.018767226,-0.44603547,-0.53896165,0.9994355,-0.013331066,-0.030837692,0.013906483,0.9997318,0.01852092,0.030582517,-0.018939309,0.9993528
""
0,10:21:08.847276,10:20:02.902188,0,,0.08933521,0.01799737,0.030854642,-0.41268456,0.30807984,-0.85719204,-0.010071456,0.93946457,0.34249783,0.9108182,0.14997655,-0.38459975,,0.05758404,0.018524095,0.02730757,-0.17827985,-0.38511005,0.9054868,-0.33992285,0.8876792,0.31060952,-0.92340064,-0.25242037,-0.28916302,,0.077464566,1.3301746,0.45620677,0.99824977,0.036690403,-0.046381548,-0.00161455,-0.76707846,-0.6415513,-0.05911706,0.6405033,-0.7656766,,-0.04475182,0.26273796,-0.0815247,0.3337551,-0.35558733,0.8730207,0.5953583,0.7975538,0.09724412,-0.73085976,0.48730442,0.47788954,,0.007337482,0.4561825,-0.29830933,0.3272559,0.38250875,-0.86405474,-0.8538777,0.5113488,-0.09703223,0.40471765,0.7695515,0.4939576,,1.247862346015819,0.28730883111977445,0.19341035687000002,1.7450397096782118,-0.6654197538576949,-0.4840965725652951,-0.4023164348887298,,-1.2893952034133984,0.33278028228320833,0.20391678732000001,1.0159477761825206,0.5378012630767736,-0.7907395964352188,0.37144440638935095,,-0.032535118918739295,-0.08714647121364187,0.07824560327999999,-0.058221254136848435,,-5.2873045e-05,1.3709068e-06,-5.722046e-06,1.0,3.216043e-05,2.6900321e-05,-3.2156706e-05,0.99999994,2.503395e-06,-2.6904047e-05,-2.4735928e-06,1.0,36,0.107,0,0,0.0,False,-0.2593418361569748,0.5434902029892226
0.1294600369874388,10:21:08.879089,10:20:02.902188,0,,0.090591624,0.01824838,0.03262715,-0.37663174,0.33388215,-0.86410135,-0.021471053,0.9293922,0.3684685,0.9261141,0.15732986,-0.34286988,,0.057599828,0.018640071,0.027334511,-0.17790425,-0.38635847,0.9050289,-0.33861655,0.8875704,0.31234255,-0.9239528,-0.25089073,-0.2887299,,0.077464566,1.3301746,0.45620677,0.99824977,0.036690403,-0.046381548,-0.00161455,-0.76707846,-0.6415513,-0.05911706,0.6405033,-0.7656766,,-0.04616323,0.2639351,-0.08269011,0.296996,-0.38151577,0.87535083,0.5930528,0.7921733,0.14404774,-0.7483861,0.47634768,0.4615313,,0.0073132296,0.45628175,-0.29824615,0.32691467,0.38351884,-0.86373615,-0.8533744,0.51248807,-0.09543632,0.4060528,0.76828986,0.49482504,,1.2462946312423513,0.2945990909530424,0.19209980768,1.7796385503531582,-0.6999887882983514,-0.48294350591662666,-0.4036231874178041,,-1.2897504491256127,0.33318958712554225,0.20396993521,1.0161574661260049,0.5387577185751317,-0.7892325170371581,0.36687077253759126,,-0.032535118918739295,-0.08714647121364187,0.07824560327999999,-0.058221254136848435,,-5.2873045e-05,1.3709068e-06,-5.722046e-06,1.0,3.216043e-05,2.6900321e-05,-3.2156706e-05,0.99999994,2.503395e-06,-2.6904047e-05,-2.4735928e-06,1.0,51,0.154,0,0,0.0,False,-0.2588652144088064,0.5369240956832164
0.16126965603325516,10:21:08.924448,10:20:02.970716,0,,0.0920433,0.018738672,0.034188762,-0.34489453,0.36640778,-0.86417186,-0.02927947,0.9160147,0.4000746,0.9381846,0.16328585,-0.3052003,,0.057619967,0.018691003,0.027332664,-0.17699909,-0.38778815,0.90459466,-0.33800006,0.88715756,0.3141777,-0.9243523,-0.25014403,-0.28809848,,0.077464566,1.3301746,0.45620677,0.99824977,0.036690403,-0.046381548,-0.00161455,-0.76707846,-0.6415513,-0.05911706,0.6405033,-0.7656766,,-0.0477603,0.26517004,-0.08353311,0.26467016,-0.41389227,0.87100106,0.59188163,0.7827932,0.1921222,-0.7613316,0.46468052,0.45215723,,0.007291553,0.4563142,-0.2982077,0.3260551,0.3848368,-0.8634748,-0.8533289,0.5128962,-0.093634374,0.40683895,0.76735795,0.49562475,,1.2440009795787066,0.3030168697859471,0.19103166472000002,1.8157052206324964,-0.7279992707502667,-0.4775004073087999,-0.40345984335166984,,-1.2899203492488456,0.33328225992003296,0.20400882391000003,1.0155283962955515,0.5395775375737243,-0.7879407346959632,0.36131707428902576,,-0.032535118918739295,-0.08714647121364187,0.07824560327999999,-0.058221254136848435,,-5.2873045e-05,1.3709068e-06,-5.722046e-06,1.0,3.216043e-05,2.6900321e-05,-3.2156706e-05,0.99999994,2.503395e-06,-2.6904047e-05,-2.4735928e-06,1.0,59,0.177,0,0,0.0,False,-0.25868648125324345,0.5366826946793188
0.20662684796843678,10:21:08.946673,10:20:02.970716,0,,0.0928607,0.019080833,0.034909457,-0.33441433,0.38176233,-0.8616406,-0.029832125,0.90953285,0.4145599,0.9419538,0.16433921,-0.2927721,,0.05763623,0.018700972,0.02732402,-0.17689474,-0.3874892,0.9047432,-0.33787432,0.8872855,0.31395137,-0.9244183,-0.25015318,-0.28787875,,0.077464566,1.3301746,0.45620677,0.99824977,0.036690403,-0.046381548,-0.00161455,-0.76707846,-0.6415513,-0.05911706,0.6405033,-0.7656766,,-0.048648607,0.26581767,-0.08384306,0.25393623,-0.42902038,0.8668667,0.59293276,0.77713764,0.21092142,-0.7641643,0.4604331,0.45172364,,0.007276366,0.45631325,-0.2981933,0.32595676,0.38453767,-0.8636452,-0.85329825,0.5129416,-0.09366459,0.40698195,0.7674775,0.49532208,,1.2426263331270948,0.30814476441443217,0.1905287042,1.8324804161112582,-0.7356509147371314,-0.47550829918910953,-0.40378653148393817,,-1.2899821311118393,0.333251368988536,0.20402567568000002,1.0155283962955515,0.5397141740734898,-0.7882155100799408,0.36131707428902565,,-0.032535118918739295,-0.08714647121364187,0.07824560327999999,-0.058221254136848435,,-5.2873045e-05,1.3709068e-06,-5.722046e-06,1.0,3.216043e-05,2.6900321e-05,-3.2156706e-05,0.99999994,2.503395e-06,-2.6904047e-05,-2.4735928e-06,1.0,70,0.211,0,0,0.0,False,-0.2580311263495121,0.5361998926715241
0.228855925030075,10:21:08.978436,10:20:02.970716,0,,0.09424778,0.019814461,0.036003172,-0.3188352,0.40471613,-0.8570582,-0.034468144,0.8987018,0.4372034,0.9471831,0.16893691,-0.27258804,,0.05765765,0.018696114,0.0273062,-0.17672546,-0.38758036,0.90473723,-0.33811733,0.8871721,0.31401002,-0.9243618,-0.25041384,-0.28783354,,0.077464566,1.3301746,0.45620677,0.99824977,0.036690403,-0.046381548,-0.00161455,-0.76707846,-0.6415513,-0.05911706,0.6405033,-0.7656766,,-0.05015089,0.2669548,-0.08417249,0.23815821,-0.45184913,0.85971683,0.5912997,0.7696846,0.24072859,-0.7704838,0.45101884,0.45048496,,0.0072580557,0.45629466,-0.29818234,0.32579085,0.38467106,-0.86364836,-0.85345536,0.5126936,-0.09359083,0.40678528,0.76757634,0.49533045,,1.2403095132648274,0.31667838424045025,0.18994666999,1.8547075501206178,-0.7489046552143791,-0.47156177670236404,-0.40411321961620694,,-1.2900207447762106,0.3331355279954227,0.20404123116000003,1.0153187063520668,0.5395775375737243,-0.788185770916385,0.36148041835516004,,-0.032535118918739295,-0.08714647121364187,0.07824560327999999,-0.058221254136848435,,-5.2873045e-05,1.3709068e-06,-5.722046e-06,1.0,3.216043e-05,2.6900321e-05,-3.2156706e-05,0.99999994,2.503395e-06,-2.6904047e-05,-2.4735928e-06,1.0,78,0.235,0,0,0.0,False,-0.259282258438454,0.5372137768878926
0.26060883805621415,10:21:09.006940,10:20:02.970716,0,,0.09557739,0.020656005,0.03691286,-0.31438237,0.41473776,-0.85390645,-0.04396546,0.89218867,0.4495179,0.9482776,0.17886278,-0.26225436,,0.05766405,0.018692032,0.027297735,-0.17676549,-0.3877472,0.9046579,-0.33826247,0.88707876,0.31411782,-0.924301,-0.2504867,-0.28796518,,0.077464566,1.3301746,0.45620677,0.99824977,0.036690403,-0.046381548,-0.00161455,-0.76707846,-0.6415513,-0.05911706,0.6405033,-0.7656766,,-0.05158443,0.2680656,-0.084293574,0.23399651,-0.46242148,0.8552263,0.5842367,0.7699898,0.25648233,-0.77711844,0.4396386,0.4503385,,0.0072531607,0.45628506,-0.29817864,0.32582715,0.3848505,-0.8635547,-0.8535119,0.5125989,-0.093593866,0.40663752,0.7675497,0.4954931,,1.237853684210824,0.3258916045594001,0.18955778299,1.8616273182556071,-0.7588791196972562,-0.4685740303613805,-0.4068900687404895,,-1.2900207447762106,0.33308919159817735,0.20404641632,1.0153187063520668,0.5394409010739589,-0.7879926742725479,0.3616437624212943,,-0.032535118918739295,-0.08714647121364187,0.07824560327999999,-0.058221254136848435,,-5.2873045e-05,1.3709068e-06,-5.722046e-06,1.0,3.216043e-05,2.6900321e-05,-3.2156706e-05,0.99999994,2.503395e-06,-2.6904047e-05,-2.4735928e-06,1.0,90,0.271,0,0,0.0,False,-0.2587460589717643,0.5371654966871136
0.2891225729836151,10:21:09.038975,10:20:03.098733,0,,0.09732728,0.02202946,0.03789626,-0.31370103,0.4310188,-0.8460582,-0.051609814,0.881979,0.46845427,0.9481181,0.19061932,-0.25443298,,0.057670906,0.018692628,0.027295172,-0.17674254,-0.3880979,0.90451205,-0.33826613,0.88695365,0.31446666,-0.9243041,-0.25038627,-0.28804278,,0.077464566,1.3301746,0.45620677,0.99824977,0.036690403,-0.046381548,-0.00161455,-0.76707846,-0.6415513,-0.05911706,0.6405033,-0.7656766,,-0.05346313,0.26960048,-0.08411974,0.23362538,-0.4792397,0.8460192,0.5781438,0.76804596,0.27541816,-0.781773,0.42477608,0.4565045,,0.007246742,0.45628285,-0.2981759,0.32580507,0.38518706,-0.863413,-0.8535197,0.51262516,-0.09337878,0.40663892,0.76736325,0.49578062,,1.2347723137940083,0.338719063863487,0.18935556175,1.8695955361080192,-0.7644812161876393,-0.46131049788518874,-0.40607334840981835,,-1.2900439129748331,0.33306602339955466,0.20405030519000003,1.0153187063520668,0.5394409010739589,-0.7875842805718452,0.3621337946196971,,-0.032535118918739295,-0.08714647121364187,0.07824560327999999,-0.058221254136848435,,-5.2873045e-05,1.3709068e-06,-5.722046e-06,1.0,3.216043e-05,2.6900321e-05,-3.2156706e-05,0.99999994,2.503395e-06,-2.6904047e-05,-2.4735928e-06,1.0,105,0.317,0,0,0.0,False,-0.25910352528289105,0.5371654966871136
0.32111823197919875,10:21:09.086816,10:20:03.098733,0,,0.09887481,0.023406163,0.0386319,-0.31665745,0.4446794,-0.83784735,-0.056036323,0.8729894,0.48450923,0.94688314,0.20037317,-0.2515205,,0.05767507,0.018693268,0.027296841,-0.1767228,-0.38816142,0.9044887,-0.3382601,0.88693136,0.31453604,-0.9243101,-0.25036684,-0.28804046,,0.077464566,1.3301746,0.45620677,0.99824977,0.036690403,-0.046381548,-0.00161455,-0.76707846,-0.6415513,-0.05911706,0.6405033,-0.7656766,,-0.055119388,0.27100003,-0.08376,0.23684405,-0.4933254,0.8369796,0.57418144,0.76601744,0.28902066,-0.7837222,0.41212535,0.46468496,,0.007242352,0.4562839,-0.29817632,0.32578623,0.38524783,-0.863393,-0.8535221,0.512631,-0.09332457,0.4066489,0.76732886,0.49582565,,1.2321002482195267,0.35048850876380516,0.18938148755,1.8748377846951323,-0.7651643986864665,-0.454709181596305,-0.4057466602775497,,-1.2900670811734558,0.3330583006666804,0.20405030519000003,1.0153187063520668,0.5394409010739589,-0.7875026018317046,0.36229713868583135,,-0.032535118918739295,-0.08714647121364187,0.07824560327999999,-0.058221254136848435,,-5.2873045e-05,1.3709068e-06,-5.722046e-06,1.0,3.216043e-05,2.6900321e-05,-3.2156706e-05,0.99999994,2.503395e-06,-2.6904047e-05,-2.4735928e-06,1.0,117,0.354,0,0,0.0,False,-0.2590439475643693,0.5369240956832164
0.36897264199797064,10:21:09.119520,10:20:03.098733,0,,0.10001706,0.02457942,0.038992956,-0.3191385,0.45433372,-0.8317039,-0.059889972,0.86617243,0.49614352,0.9458138,0.20814905,-0.24921903,,0.057683006,0.018688574,0.0272941,-0.17670108,-0.38835394,0.90441024,-0.33828178,0.88685644,0.31472382,-0.92430615,-0.2503336,-0.2880816,,0.077464566,1.3301746,0.45620677,0.99824977,0.036690403,-0.046381548,-0.00161455,-0.76707846,-0.6415513,-0.05911706,0.6405033,-0.7656766,,-0.056332458,0.27204144,-0.08325443,0.23955332,-0.5033374,0.8302203,0.5707277,0.7647747,0.2989809,-0.7854197,0.40220785,0.4704729,,0.007235114,0.4562776,-0.298177,0.32576507,0.3854361,-0.86331695,-0.85353786,0.5126259,-0.09320834,0.40663275,0.7672377,0.4959799,,1.2298915466174984,0.3593310379047922,0.18965630103000003,1.8781928237908847,-0.7661208541848247,-0.4496819617831207,-0.406073348409818,,-1.2900825266392044,0.3330119642694351,0.20405160148,1.0153187063520668,0.5394409010739589,-0.7872575656112829,0.36180710648742853,,-0.032535118918739295,-0.08714647121364187,0.07824560327999999,-0.058221254136848435,,-5.2873045e-05,1.3709068e-06,-5.722046e-06,1.0,3.216043e-05,2.6900321e-05,-3.2156706e-05,0.99999994,2.503395e-06,-2.6904047e-05,-2.4735928e-06,1.0,125,0.378,0,0,0.0,False,-0.259282258438454,0.537020656084775
0.40170347795356065,10:21:09.149892,10:20:03.098733,0,,0.10044159,0.025103718,0.038982287,-0.3205978,0.4577539,-0.82926375,-0.061188668,0.8636383,0.5003845,0.9452369,0.21116355,-0.24887133,,0.057688184,0.018681332,0.027292013,-0.17669146,-0.3883289,0.9044229,-0.3383108,0.88685644,0.31469283,-0.92429745,-0.2503725,-0.2880758,,0.077464566,1.3301746,0.45620677,0.99824977,0.036690403,-0.046381548,-0.00161455,-0.76707846,-0.6415513,-0.05911706,0.6405033,-0.7656766,,-0.05677436,0.27240655,-0.08289857,0.24110521,-0.5069018,0.8275982,0.56948054,0.7644042,0.30228814,-0.78585,0.39841786,0.47297257,,0.0072305985,0.45627028,-0.29818016,0.32575545,0.3854172,-0.863329,-0.85355383,0.5125958,-0.09322815,0.40660706,0.76726735,0.49595517,,1.228841254946604,0.3625977539105892,0.18992463306000001,1.8790315835648228,-0.76625749068459,-0.447610254116051,-0.40591000434368396,,-1.2900825266392044,0.33296562787218975,0.20405030519000003,1.0153187063520668,0.5394409010739589,-0.7872575656112829,0.36180710648742853,,-0.032535118918739295,-0.08714647121364187,0.07824560327999999,-0.058221254136848435,,-5.2873045e-05,1.3709068e-06,-5.722046e-06,1.0,3.216043e-05,2.6900321e-05,-3.2156706e-05,0.99999994,2.503395e-06,-2.6904047e-05,-2.4735928e-06,1.0,137,0.415,0,0,0.0,False,-0.25910352528289105,0.5368758154824369
0.4320656410418451,10:21:09.179603,10:20:03.098733,0,,0.10092357,0.025735885,0.03888102,-0.3223317,0.46257758,-0.82590806,-0.06327453,0.8599953,0.5063638,0.9445096,0.21547592,-0.24793445,,0.0576891,0.018680215,0.027291477,-0.17668988,-0.388177,0.9044884,-0.3383156,0.8869078,0.31454283,-0.924296,-0.25042608,-0.28803396,,0.077464566,1.3301746,0.45620677,0.99824977,0.036690403,-0.046381548,-0.00161455,-0.76707846,-0.6415513,-0.05911706,0.6405033,-0.7656766,,-0.0572699,0.27279407,-0.08240214,0.24297354,-0.5119315,0.8239478,0.567551,0.763866,0.30723694,-0.78667,0.39298198,0.4761465,,0.00722982,0.456269,-0.2981805,0.32575384,0.385273,-0.86339396,-0.85355645,0.5125755,-0.093315184,0.40660277,0.7673533,0.4958257,,1.2274434402963694,0.36621971562860045,0.19032518667,1.8794509634517917,-0.7670773096831827,-0.44342956086782814,-0.4062366924759525,,-1.2900825266392044,0.3329579051393155,0.20405030519000003,1.0153187063520668,0.5394409010739589,-0.7874209230915641,0.36180710648742853,,-0.032535118918739295,-0.08714647121364187,0.07824560327999999,-0.058221254136848435,,-5.2873045e-05,1.3709068e-06,-5.722046e-06,1.0,3.216043e-05,2.6900321e-05,-3.2156706e-05,0.99999994,2.503395e-06,-2.6904047e-05,-2.4735928e-06,1.0,148,0.448,0,0,0.0,False,-0.25910352528289105,0.5374551778917902
0.4617810830241069,10:21:09.219099,10:20:03.288234,0,,0.10150544,0.026506796,0.03859313,-0.32359177,0.4679943,-0.82235616,-0.0670903,0.85558146,0.51330215,0.9438151,0.22127235,-0.24546133,,0.057691358,0.018675253,0.027290165,-0.17685568,-0.38782507,0.9046069,-0.33826113,0.8870605,0.31417063,-0.9242842,-0.25043058,-0.28806782,,0.077464566,1.3301746,0.45620677,0.99824977,0.036690403,-0.046381548,-0.00161455,-0.76707846,-0.6415513,-0.05911706,0.6405033,-0.7656766,,-0.057854343,0.27316448,-0.08166932,0.24443382,-0.5176483,0.81993437,0.5642591,0.76360667,0.3138735,-0.7885834,0.3859341,0.47873905,,0.0072279787,0.4562643,-0.29818285,0.32591373,0.38491985,-0.8634911,-0.8534875,0.51263475,-0.09361993,0.4066194,0.7674909,0.49559897,,1.2252347386943412,0.370158309394455,0.19095129474000003,1.8798703433387607,-0.7702199491777878,-0.43817155065817187,-0.4067267246743552,,-1.2900748039063301,0.3329347369406928,0.20404900890000002,1.0155283962955515,0.5394409010739589,-0.7876659593119857,0.36229713868583147,,-0.032535118918739295,-0.08714647121364187,0.07824560327999999,-0.058221254136848435,,-5.2873045e-05,1.3709068e-06,-5.722046e-06,1.0,3.216043e-05,2.6900321e-05,-3.2156706e-05,0.99999994,2.503395e-06,-2.6904047e-05,-2.4735928e-06,1.0,160,0.485,0,0,0.0,False,-0.2588652144088064,0.5378414194980259
0.5012854590313509,10:21:09.256193,10:20:03.288234,0,,0.10217573,0.027307555,0.038223907,-0.3263055,0.47409153,-0.81777865,-0.07233423,0.850072,0.52167535,0.9424926,0.22937876,-0.24309018,,0.05769117,0.018674284,0.02728939,-0.17702629,-0.38763338,0.9046558,-0.33819216,0.88716173,0.3139588,-0.9242768,-0.2503686,-0.2881455,,0.077464566,1.3301746,0.45620677,0.99824977,0.036690403,-0.046381548,-0.00161455,-0.76707846,-0.6415513,-0.05911706,0.6405033,-0.7656766,,-0.058521044,0.2734999,-0.0808509,0.24744968,-0.5241971,0.8148534,0.559587,0.7638822,0.32147524,-0.7909684,0.37643245,0.48235628,,0.0072283167,0.4562631,-0.298183,0.32607841,0.38471717,-0.8635193,-0.85341054,0.5127243,-0.09383106,0.40664887,0.76753277,0.49550998,,1.2223850502637523,0.3743131396807878,0.19164869876,1.8779831338474002,-0.7741824076709856,-0.4297129920819797,-0.4064000365420867,,-1.2900670811734558,0.3329347369406928,0.20404900890000002,1.015738086239036,0.5394409010739589,-0.7877476380521262,0.36246048275196563,,-0.032535118918739295,-0.08714647121364187,0.07824560327999999,-0.058221254136848435,,-5.2873045e-05,1.3709068e-06,-5.722046e-06,1.0,3.216043e-05,2.6900321e-05,-3.2156706e-05,0.99999994,2.503395e-06,-2.6904047e-05,-2.4735928e-06,1.0,168,0.509,0,0,0.0,False,-0.259282258438454,0.5379862601003644
0.538353577023372,10:21:09.280983,10:20:03.288234,0,,0.102816,0.027943194,0.037966564,-0.32826862,0.47981718,-0.8136431,-0.076206595,0.8451161,0.5291231,0.9415052,0.23569936,-0.24085997,,0.057691343,0.018675938,0.027290642,-0.17702183,-0.38770935,0.9046241,-0.33818373,0.8871372,0.31403714,-0.92428076,-0.25033787,-0.28815967,,0.077464566,1.3301746,0.45620677,0.99824977,0.036690403,-0.046381548,-0.00161455,-0.76707846,-0.6415513,-0.05911706,0.6405033,-0.7656766,,-0.059161037,0.27377945,-0.08022444,0.24963702,-0.53024524,0.81026006,0.55612683,0.7635034,0.32830712,-0.79271954,0.36864975,0.4854823,,0.0072278916,0.45626512,-0.29818273,0.32607427,0.38478863,-0.86348903,-0.8534078,0.512738,-0.093780674,0.4066579,0.76748776,0.4955723,,1.2197129846892707,0.3779737150631702,0.19216073331000003,1.877563753960431,-0.7774616836653562,-0.4229550253862374,-0.407706789071161,,-1.2900748039063301,0.33294245967356706,0.20404900890000002,1.015738086239036,0.5394409010739589,-0.7876659593119857,0.3626238268180999,,-0.032535118918739295,-0.08714647121364187,0.07824560327999999,-0.058221254136848435,,-5.2873045e-05,1.3709068e-06,-5.722046e-06,1.0,3.216043e-05,2.6900321e-05,-3.2156706e-05,0.99999994,2.503395e-06,-2.6904047e-05,-2.4735928e-06,1.0,176,0.533,0,0,0.0,False,-0.2586269035347226,0.5382276611042616
0.563103724969551,10:21:09.309334,10:20:03.288234,0,,0.103340864,0.028410077,0.037805513,-0.32831267,0.48560646,-0.81018335,-0.077994645,0.8408619,0.53560054,0.9413434,0.23903427,-0.23819104,,0.057691343,0.018675938,0.027290642,-0.17702183,-0.38770935,0.9046241,-0.33818373,0.8871372,0.31403714,-0.92428076,-0.25033787,-0.28815967,,0.077464566,1.3301746,0.45620677,0.99824977,0.036690403,-0.046381548,-0.00161455,-0.76707846,-0.6415513,-0.05911706,0.6405033,-0.7656766,,-0.059687834,0.27399772,-0.0797837,0.24976334,-0.53612965,0.80633944,0.5546409,0.76179975,0.3347157,-0.7937202,0.36362913,0.4876291,,0.0072278916,0.45626512,-0.29818273,0.32607427,0.38478863,-0.86348903,-0.8534078,0.512738,-0.093780674,0.4066579,0.76748776,0.4955723,,1.217596955881733,0.3807925125622621,0.19250943532,1.8800800332822456,-0.779921140661134,-0.41874417713590684,-0.40525662807914675,,-1.2900748039063301,0.33294245967356706,0.20404900890000002,1.015738086239036,0.5394409010739589,-0.7876659593119857,0.3626238268180999,,-0.032535118918739295,-0.08714647121364187,0.07824560327999999,-0.058221254136848435,,-5.2873045e-05,1.3709068e-06,-5.722046e-06,1.0,3.216043e-05,2.6900321e-05,-3.2156706e-05,0.99999994,2.503395e-06,-2.6904047e-05,-2.4735928e-06,1.0,191,0.58,0,0,0.0,False,-0.2586269035347226,0.5381311007027025
0.5914625379955396,10:21:09.348854,10:20:03.288234,0,,0.10445031,0.029304996,0.037451833,-0.32984075,0.50036854,-0.80052245,-0.07938823,0.83027256,0.5516744,0.9406925,0.24551666,-0.23413448,,0.057692252,0.018674865,0.027290165,-0.17702022,-0.3876313,0.90465784,-0.33818862,0.8871629,0.3139595,-0.92427933,-0.25036782,-0.28813824,,0.077464566,1.3301746,0.45620677,0.99824977,0.036690403,-0.046381548,-0.00161455,-0.76707846,-0.6415513,-0.05911706,0.6405033,-0.7656766,,-0.060796715,0.27437937,-0.07889964,0.25139368,-0.5509721,0.79575807,0.5532795,0.7563941,0.3489265,-0.79415554,0.35255873,0.49499428,,0.0072271125,0.45626387,-0.29818302,0.32607266,0.38471493,-0.86352247,-0.8534105,0.51272535,-0.093825854,0.40665364,0.7675332,0.49550548,,1.2130096525544438,0.3863683256974522,0.19318609870000003,1.8853222818693585,-0.7825172341566774,-0.40674410940866684,-0.40656338060822106,,-1.2900748039063301,0.3329347369406928,0.20404900890000002,1.015738086239036,0.5394409010739589,-0.7877476380521263,0.3627871708842343,,-0.032535118918739295,-0.08714647121364187,0.07824560327999999,-0.058221254136848435,,-5.2873045e-05,1.3709068e-06,-5.722046e-06,1.0,3.216043e-05,2.6900321e-05,-3.2156706e-05,0.99999994,2.503395e-06,-2.6904047e-05,-2.4735928e-06,1.0,203,0.616,0,0,0.0,False,-0.2589843698458485,0.5383725017066001
0.6310314310248941,10:21:09.383328,10:20:03.288234,0,,0.10554302,0.030066252,0.037110284,-0.32760882,0.5152389,-0.79196036,-0.08101332,0.8198127,0.56687194,0.9413338,0.2498714,-0.22683674,,0.05761058,0.01866141,0.027278155,-0.17705761,-0.38752142,0.90469754,-0.33825347,0.887187,0.31382155,-0.92424834,-0.25045273,-0.28816372,,0.07747573,1.330172,0.45619965,0.9982497,0.036683377,-0.046387427,-0.0016236961,-0.76707876,-0.6415509,-0.05911706,0.6405033,-0.7656766,,-0.06189492,0.27466866,-0.07811621,0.24917853,-0.56573904,0.7860339,0.55222976,0.7497554,0.3645671,-0.79558307,0.34322903,0.49924088,,0.0073000323,0.45625868,-0.29819733,0.32610404,0.38462615,-0.8635502,-0.85343266,0.51266736,-0.093940765,0.4065819,0.7676164,0.49543542,,1.2083837355627833,0.3911950337438425,0.19378887355000002,1.8945486393826774,-0.7877094211477642,-0.3975278259196284,-0.40656338060822106,,-1.2900670811734558,0.3329270142078186,0.20404771261000001,1.015738086239036,0.5393042645741934,-0.787799577628711,0.36311385901650284,,-0.032535118918739295,-0.08714647121364187,0.07824560327999999,-0.058221254136848435,,-4.1309744e-05,-7.1525574e-07,9.536743e-07,0.99999994,2.5149435e-05,2.1032989e-05,-2.5138259e-05,0.99999994,1.937151e-06,-2.1032989e-05,-1.9669533e-06,1.0,211,0.64,0,0,0.0,False,-0.2589843698458485,0.5377931392972464
0.6654982239706442,10:21:09.417905,10:20:03.479646,0,,0.106334865,0.0305444,0.036846966,-0.32447478,0.5270975,-0.7854198,-0.07647288,0.81300986,0.57720596,0.9427979,0.24735194,-0.22349265,,0.05762361,0.018655747,0.027277201,-0.1771531,-0.38783154,0.90454584,-0.3386104,0.88699156,0.31398895,-0.9240993,-0.2506647,-0.28845719,,0.07747573,1.330172,0.45619965,0.9982497,0.036683377,-0.046387427,-0.0016236961,-0.76707876,-0.6415509,-0.05911706,0.6405033,-0.7656766,,-0.06267927,0.27480957,-0.077577725,0.24575923,-0.5770701,0.7788405,0.55640894,0.7419108,0.37413558,-0.79373264,0.34140652,0.5034184,,0.0072875274,0.45625228,-0.29819953,0.3261905,0.38497198,-0.8633634,-0.8535724,0.5124232,-0.09400289,0.40621895,0.7676061,0.49574906,,1.2049548421666276,0.39422234503053855,0.19417257539000002,1.9073397259352334,-0.7877094211477642,-0.3957308936365359,-0.4068900687404895,,-1.2901211403035755,0.33287295507769904,0.20404641632,1.015738086239036,0.5388943550748971,-0.7874653239176217,0.36311385901650284,,-0.032535118918739295,-0.08714647121364187,0.07824560327999999,-0.058221254136848435,,-4.1309744e-05,-7.1525574e-07,9.536743e-07,0.99999994,2.5149435e-05,2.1032989e-05,-2.5138259e-05,0.99999994,1.937151e-06,-2.1032989e-05,-1.9669533e-06,1.0,223,0.677,0,0,0.0,False,-0.25922268071993226,0.5379862601003644
0.700081549002789,10:21:09.450172,10:20:03.479646,0,,0.10695804,0.030897051,0.03655705,-0.32569733,0.5305118,-0.78261,-0.07424924,0.8108355,0.58054525,0.94255406,0.24719015,-0.22469693,,0.05763589,0.018653348,0.02727732,-0.17710721,-0.38779408,0.9045709,-0.33861777,0.8869982,0.31396216,-0.92410547,-0.25069895,-0.28840786,,0.07747573,1.330172,0.45619965,0.9982497,0.036683377,-0.046387427,-0.0016236961,-0.76707876,-0.6415509,-0.05911706,0.6405033,-0.7656766,,-0.063288584,0.27485043,-0.07710464,0.24691178,-0.5803722,0.7760172,0.5580854,0.7398366,0.3757426,-0.79219645,0.34030858,0.5065716,,0.0072754743,0.45624903,-0.29820037,0.3261464,0.38493982,-0.8633944,-0.8535879,0.5123995,-0.09399142,0.4062218,0.767638,0.49569723,,1.2019506990785542,0.3964851057626863,0.19451738853000003,1.9117432147484084,-0.7870262386489371,-0.396287983155018,-0.4068900687404895,,-1.2901674767008209,0.3328266186804537,0.20404771261000001,1.015738086239036,0.5388943550748971,-0.7874653239176217,0.36311385901650284,,-0.032535118918739295,-0.08714647121364187,0.07824560327999999,-0.058221254136848435,,-4.1309744e-05,-7.1525574e-07,9.536743e-07,0.99999994,2.5149435e-05,2.1032989e-05,-2.5138259e-05,0.99999994,1.937151e-06,-2.1032989e-05,-1.9669533e-06,1.0,238,0.723,0,0,0.0,False,-0.2593418361569748,0.5387587433128354
0.7323573180474341,10:21:09.491174,10:20:03.479646,0,,0.10755324,0.031207979,0.036200926,-0.32741806,0.53297323,-0.7802159,-0.07333982,0.80890447,0.5833478,0.94202894,0.24821937,-0.22576192,,0.05764597,0.01864396,0.027275115,-0.17708078,-0.3879741,0.9044989,-0.3386539,0.8869234,0.31413442,-0.92409736,-0.25068504,-0.28844607,,0.07747573,1.330172,0.45619965,0.9982497,0.036683377,-0.046387427,-0.0016236961,-0.76707876,-0.6415509,-0.05911706,0.6405033,-0.7656766,,-0.06386282,0.2748199,-0.07660756,0.24863476,-0.58283633,0.77361655,0.5586071,0.73877466,0.37705445,-0.7912893,0.33839887,0.5092616,,0.0072662155,0.45623946,-0.29820454,0.32612047,0.3851186,-0.86332446,-0.85361165,0.51237947,-0.09388515,0.4061928,0.7675617,0.49583915,,1.1987689331343738,0.39837717531687133,0.19489590521000003,1.9142594940702229,-0.7874361481482333,-0.3958720507037883,-0.40672672467435533,,-1.2901829221665693,0.3327571140845857,0.20404641632,1.015738086239036,0.5388943550748971,-0.7872202876972001,0.363277203082637,,-0.032535118918739295,-0.08714647121364187,0.07824560327999999,-0.058221254136848435,,-4.1309744e-05,-7.1525574e-07,9.536743e-07,0.99999994,2.5149435e-05,2.1032989e-05,-2.5138259e-05,0.99999994,1.937151e-06,-2.1032989e-05,-1.9669533e-06,1.0,246,0.747,0,0,0.0,False,-0.2589843698458485,0.5386621829112763
0.7732799149816856,10:21:09.519775,10:20:03.479646,0,,0.10779499,0.031292588,0.03600909,-0.32855636,0.5330032,-0.7797167,-0.07604188,0.80793947,0.58433837,0.9414183,0.2512791,-0.22492316,,0.057653606,0.01863274,0.027272433,-0.17706636,-0.38793665,0.9045177,-0.33869725,0.8869233,0.31408796,-0.9240842,-0.2507434,-0.28843743,,0.07747573,1.330172,0.45619965,0.9982497,0.036683377,-0.046387427,-0.0016236961,-0.76707876,-0.6415509,-0.05911706,0.6405033,-0.7656766,,-0.064090446,0.27474567,-0.07639525,0.24992384,-0.58308953,0.77301013,0.5562222,0.7399335,0.37830588,-0.7925623,0.33541772,0.50925434,,0.007259522,0.45622858,-0.2982099,0.326106,0.3850903,-0.8633425,-0.8536355,0.5123343,-0.09391487,0.4061543,0.767606,0.49580202,,1.1971394364979124,0.3989332120838155,0.19507349694,1.9123722845788622,-0.7903055146433074,-0.3935322747261635,-0.40672672467435533,,-1.2901829221665693,0.3326876094887177,0.20404382374000002,1.015738086239036,0.5388943550748971,-0.7872202876972001,0.363277203082637,,-0.032535118918739295,-0.08714647121364187,0.07824560327999999,-0.058221254136848435,,-4.1309744e-05,-7.1525574e-07,9.536743e-07,0.99999994,2.5149435e-05,2.1032989e-05,-2.5138259e-05,0.99999994,1.937151e-06,-2.1032989e-05,-1.9669533e-06,1.0,254,0.772,0,0,0.0,False,-0.2593418361569748,0.5389518641159534
0.8019611269701272,10:21:09.543444,10:20:03.479646,0,,0.10789156,0.031247884,0.035880044,-0.3286683,0.53280276,-0.77980655,-0.07699129,0.8078134,0.5843884,0.94130194,0.25210816,-0.22448155,,0.057663172,0.01861836,0.027266413,-0.17705318,-0.38788876,0.9045409,-0.33875865,0.886922,0.31402534,-0.92406416,-0.250822,-0.28843313,,0.07747573,1.330172,0.45619965,0.9982497,0.036683377,-0.046387427,-0.0016236961,-0.76707876,-0.6415509,-0.05911706,0.6405033,-0.7656766,,-0.06417389,0.27462232,-0.07631911,0.25008166,-0.58295566,0.7730601,0.5554216,0.74037004,0.37862796,-0.7930738,0.33468634,0.5089391,,0.0072515397,0.4562129,-0.2982149,0.32609248,0.3850547,-0.8633635,-0.8536674,0.512273,-0.0939597,0.4060982,0.7676648,0.495757,,1.1961818176215084,0.3987169755633372,0.19513312628,1.911952904691893,-0.7919451526404928,-0.39293036854307145,-0.40721675687275805,,-1.290175199433695,0.33259493669422696,0.20404252745,1.015738086239036,0.5388943550748971,-0.7872202876972001,0.363277203082637,,-0.032535118918739295,-0.08714647121364187,0.07824560327999999,-0.058221254136848435,,-4.1309744e-05,-7.1525574e-07,9.536743e-07,0.99999994,2.5149435e-05,2.1032989e-05,-2.5138259e-05,0.99999994,1.937151e-06,-2.1032989e-05,-1.9669533e-06,1.0,262,0.796,0,0,0.0,False,-0.2585077480976805,0.5385173423089382
0.8256077719852328,10:21:09.572204,10:20:03.637132,0,,0.10782839,0.031090051,0.035739496,-0.3286463,0.5295251,-0.7820451,-0.07598168,0.81053233,0.5807444,0.9413917,0.25028044,-0.2261444,,0.057668634,0.018605977,0.0272623,-0.17705086,-0.38785544,0.9045557,-0.33880925,0.8869196,0.3139775,-0.9240461,-0.2508819,-0.28843898,,0.07747573,1.330172,0.45619965,0.9982497,0.036683377,-0.046387427,-0.0016236961,-0.76707876,-0.6415509,-0.05911706,0.6405033,-0.7656766,,-0.06409297,0.27441725,-0.07631188,0.25001335,-0.5796412,0.7755704,0.5562599,0.74161327,0.37494627,-0.7925076,0.33767712,0.5078444,,0.007247255,0.4562005,-0.29822022,0.32608953,0.3850308,-0.8633753,-0.85369134,0.5122257,-0.093999825,0.40605018,0.76770836,0.49572888,,1.1958111264435458,0.3975894565637004,0.19513831144000002,1.911952904691893,-0.7918085161407274,-0.39671732975309315,-0.4073801009388923,,-1.2901597539679466,0.33252543209835894,0.20403993487000002,1.015738086239036,0.5388943550748971,-0.7872202876972001,0.363277203082637,,-0.032535118918739295,-0.08714647121364187,0.07824560327999999,-0.058221254136848435,,-4.1309744e-05,-7.1525574e-07,9.536743e-07,0.99999994,2.5149435e-05,2.1032989e-05,-2.5138259e-05,0.99999994,1.937151e-06,-2.1032989e-05,-1.9669533e-06,1.0,285,0.866,0,0,0.0,False,-0.25826943722359585,0.5379379798995849
0.8543190249474719,10:21:09.634881,10:20:03.637132,0,,0.107227415,0.030332148,0.035406604,-0.32307974,0.5267629,-0.7862189,-0.074445575,0.81405115,0.5760022,0.943439,0.24462503,-0.2237884,,0.057681523,0.018589333,0.027260572,-0.17685178,-0.38813445,0.9044749,-0.33894217,0.88676786,0.31426263,-0.92403543,-0.2509869,-0.2883817,,0.07747573,1.330172,0.45619965,0.9982497,0.036683377,-0.046387427,-0.0016236961,-0.76707876,-0.6415509,-0.05911706,0.6405033,-0.7656766,,-0.063437186,0.27367088,-0.07655535,0.24423787,-0.57654494,0.7797075,0.5582674,0.7410444,0.37308267,-0.7928968,0.3441644,0.5028574,,0.0072354423,0.45618573,-0.29822958,0.32589656,0.38532817,-0.86331546,-0.8538053,0.51208216,-0.09374618,0.40596542,0.7676549,0.49588108,,1.1962590449502508,0.39204453436000725,0.19498664551000003,1.9146788739571918,-0.795087792135098,-0.4004959205354834,-0.4062366924759525,,-1.290175199433695,0.3324173138381198,0.20403474971000002,1.0155283962955515,0.5388943550748971,-0.7869752514767784,0.3631138590165027,,-0.032535118918739295,-0.08714647121364187,0.07824560327999999,-0.058221254136848435,,-4.1309744e-05,-7.1525574e-07,9.536743e-07,0.99999994,2.5149435e-05,2.1032989e-05,-2.5138259e-05,0.99999994,1.937151e-06,-2.1032989e-05,-1.9669533e-06,1.0,293,0.891,0,0,0.0,True,-0.2580311263495121,0.5372620570886721
0.9170663109980524,10:21:09.664253,10:20:03.637132,0,,0.1069235,0.029928848,0.03528808,-0.3211751,0.5259491,-0.78754294,-0.07341233,0.8152716,0.57440627,0.9441701,0.2423003,-0.2232339,,0.05768375,0.018584952,0.027258903,-0.17689668,-0.38823983,0.90442085,-0.3390727,0.88670003,0.31431323,-0.9239789,-0.25106356,-0.2884959,,0.07747573,1.330172,0.45619965,0.9982497,0.036683377,-0.046387427,-0.0016236961,-0.76707876,-0.6415509,-0.05911706,0.6405033,-0.7656766,,-0.06310902,0.273309,-0.076729745,0.24223964,-0.57558376,0.7810399,0.5593676,0.7406083,0.37229994,-0.79273444,0.34670258,0.50136757,,0.0072336695,0.45618114,-0.29823127,0.32593775,0.38544646,-0.86324716,-0.85385376,0.51199496,-0.093781404,0.40583044,0.7676537,0.49599338,,1.1965911224638424,0.3893338551211544,0.19485701651,1.915098253844161,-0.7959076111336906,-0.4008892367351322,-0.4064000365420868,,-1.290175199433695,0.3323941456394971,0.20403345342,1.0155283962955515,0.5387577185751317,-0.7868638335730819,0.3631138590165027,,-0.032535118918739295,-0.08714647121364187,0.07824560327999999,-0.058221254136848435,,-4.1309744e-05,-7.1525574e-07,9.536743e-07,0.99999994,2.5149435e-05,2.1032989e-05,-2.5138259e-05,0.99999994,1.937151e-06,-2.1032989e-05,-1.9669533e-06,1.0,305,0.927,0,0,0.0,True,-0.25826943722359585,0.5369723758839955
0.9463926600292325,10:21:09.695155,10:20:03.760799,0,,0.106372714,0.029178321,0.035078973,-0.31897116,0.5241428,-0.7896402,-0.07154223,0.81746805,0.5715133,0.9450603,0.23878878,-0.2232505,,0.057686947,0.018584028,0.027264565,-0.17655002,-0.38755193,0.90478355,-0.33827785,0.8871219,0.31397882,-0.92433655,-0.25063536,-0.2877217,,0.07747573,1.330172,0.45619965,0.9982497,0.036683377,-0.046387427,-0.0016236961,-0.76707876,-0.6415509,-0.05911706,0.6405033,-0.7656766,,-0.062514015,0.27264145,-0.07706253,0.23989773,-0.5735708,0.7832405,0.56119215,0.74027175,0.3702177,-0.7921568,0.35073403,0.49947292,,0.007229702,0.456184,-0.2982357,0.32561663,0.3846861,-0.86370736,-0.853578,0.51249945,-0.093536,0.40666756,0.7676984,0.49523792,,1.1971703274294092,0.3844144742802734,0.19460423996,1.9142594940702229,-0.7967274301322832,-0.4005474442735161,-0.4064000365420868,,-1.2901674767008209,0.33237097744087446,0.20403345342,1.0155283962955515,0.5397141740734898,-0.7874804014186758,0.3621337946196971,,-0.032535118918739295,-0.08714647121364187,0.07824560327999999,-0.058221254136848435,,-4.1309744e-05,-7.1525574e-07,9.536743e-07,0.99999994,2.5149435e-05,2.1032989e-05,-2.5138259e-05,0.99999994,1.937151e-06,-2.1032989e-05,-1.9669533e-06,1.0,313,0.951,0,0,0.0,True,-0.2585077480976805,0.5319512350029321
0.9773330859607086,10:21:09.720707,10:20:03.760799,0,,0.10581217,0.028467774,0.034797683,-0.31670436,0.52189505,-0.79203767,-0.070002496,0.8198835,0.56823456,0.9459376,0.2354069,-0.22312686,,0.057685852,0.018583506,0.02726385,-0.17655604,-0.3876279,0.9047499,-0.3382814,0.8870952,0.3140506,-0.9243341,-0.25061262,-0.2877494,,0.07747573,1.330172,0.45619965,0.9982497,0.036683377,-0.046387427,-0.0016236961,-0.76707876,-0.6415509,-0.05911706,0.6405033,-0.7656766,,-0.0619047,0.2719607,-0.07731458,0.23750708,-0.57113785,0.78574294,0.5627468,0.7402229,0.3679485,-0.7917742,0.35478395,0.4972142,,0.0072309063,0.45618325,-0.29823568,0.32562235,0.38475886,-0.8636728,-0.85357803,0.51250607,-0.09349935,0.40666282,0.7676576,0.49530515,,1.197672305066234,0.37941786611065015,0.19443961113000002,1.9132110443528,-0.7979571586301722,-0.4004431492817945,-0.4062366924759526,,-1.2901597539679466,0.33237097744087446,0.20403345342,1.0155283962955515,0.5397141740734898,-0.7873987226785353,0.36229713868583135,,-0.032535118918739295,-0.08714647121364187,0.07824560327999999,-0.058221254136848435,,-4.1309744e-05,-7.1525574e-07,9.536743e-07,0.99999994,2.5149435e-05,2.1032989e-05,-2.5138259e-05,0.99999994,1.937151e-06,-2.1032989e-05,-1.9669533e-06,1.0,321,0.976,0,0,0.0,True,-0.2583290149421176,0.5268818139210887
1.0028758420376107,10:21:09.751176,10:20:03.760799,0,,0.10539053,0.027954891,0.03451927,-0.31481135,0.5205166,-0.7936978,-0.06809816,0.82167435,0.56587434,0.9467082,0.23219284,-0.22322631,,0.057686746,0.018583119,0.02726379,-0.17672056,-0.38750798,0.9047691,-0.33820882,0.887172,0.31391189,-0.9243292,-0.25052628,-0.2878402,,0.07747573,1.330172,0.45619965,0.9982497,0.036683377,-0.046387427,-0.0016236961,-0.76707876,-0.6415509,-0.05911706,0.6405033,-0.7656766,,-0.061441503,0.2714237,-0.07743868,0.23548357,-0.56956065,0.7874949,0.5645492,0.7397214,0.36619177,-0.79109526,0.35834745,0.49573722,,0.00723004,0.45618284,-0.29823586,0.32578126,0.38462445,-0.86367273,-0.853501,0.5126043,-0.093663365,0.40669712,0.7676593,0.49527425,,1.1979426007168317,0.37554105420778944,0.19437998179000002,1.9132110443528,-0.7985037046292339,-0.40073258632827374,-0.4060733484098181,,-1.2901597539679466,0.33237097744087446,0.20403345342,1.015738086239036,0.5397141740734898,-0.7873987226785353,0.36229713868583135,,-0.032535118918739295,-0.08714647121364187,0.07824560327999999,-0.058221254136848435,,-4.1309744e-05,-7.1525574e-07,9.536743e-07,0.99999994,2.5149435e-05,2.1032989e-05,-2.5138259e-05,0.99999994,1.937151e-06,-2.1032989e-05,-1.9669533e-06,1.0,337,1.025,0,0,0.0,True,-0.25815028178655464,0.5294889447631794
1.0333620780147612,10:21:09.786274,10:20:03.760799,0,,0.10519853,0.027695626,0.034379438,-0.31410092,0.51985,-0.7944158,-0.06690121,0.82256496,0.56472206,0.9470294,0.23052695,-0.22358993,,0.057689473,0.018580511,0.027262717,-0.17688182,-0.3873797,0.9047925,-0.33814588,0.8872487,0.3137629,-0.9243214,-0.25045297,-0.28792912,,0.07747573,1.330172,0.45619965,0.9982497,0.036683377,-0.046387427,-0.0016236961,-0.76707876,-0.6415509,-0.05911706,0.6405033,-0.7656766,,-0.06122849,0.27115104,-0.07750125,0.23470294,-0.5687894,0.78828496,0.5656201,0.7394283,0.3651297,-0.79056203,0.36017284,0.49526474,,0.007227617,0.4561799,-0.2982367,0.32593694,0.38448372,-0.86367667,-0.8534293,0.5126925,-0.093833975,0.4067229,0.7676709,0.49523512,,1.197988937114077,0.37364898465360447,0.19434498196000002,1.9132110443528,-0.7985037046292339,-0.4008959438085549,-0.4064000365420869,,-1.2901597539679466,0.332355531975126,0.20403345342,1.0159477761825206,0.5397141740734898,-0.7873987226785353,0.36229713868583135,,-0.032535118918739295,-0.08714647121364187,0.07824560327999999,-0.058221254136848435,,-4.1309744e-05,-7.1525574e-07,9.536743e-07,0.99999994,2.5149435e-05,2.1032989e-05,-2.5138259e-05,0.99999994,1.937151e-06,-2.1032989e-05,-1.9669533e-06,1.0,345,1.05,0,0,0.0,True,-0.2596993024681016,0.5407865117455728
1.068441207986325,10:21:09.821566,10:20:03.760799,0,,0.10528514,0.027789265,0.03445366,-0.3144156,0.5200098,-0.7941867,-0.06739533,0.82227623,0.5650836,0.94689,0.23119548,-0.22349036,,0.057691365,0.018580928,0.02726522,-0.17686978,-0.3873756,0.90479666,-0.33813858,0.88725096,0.31376427,-0.92432636,-0.25045136,-0.2879146,,0.07747573,1.330172,0.45619965,0.9982497,0.036683377,-0.046387427,-0.0016236961,-0.76707876,-0.6415509,-0.05911706,0.6405033,-0.7656766,,-0.061324626,0.27126288,-0.07749633,0.23504707,-0.56899434,0.7880345,0.56517553,0.7396082,0.36545357,-0.7907778,0.359479,0.49542442,,0.0072253663,0.45618165,-0.298238,0.32592547,0.3844793,-0.863683,-0.85342914,0.51269466,-0.09382355,0.4067324,0.7676717,0.4952261,,1.197950323449706,0.37444442613964957,0.19433720422000003,1.9132110443528,-0.7985037046292339,-0.4009776225486955,-0.4062366924759526,,-1.290175199433695,0.332355531975126,0.20403215713000003,1.0159477761825206,0.5397141740734898,-0.7873987226785353,0.36229713868583135,,-0.032535118918739295,-0.08714647121364187,0.07824560327999999,-0.058221254136848435,,-4.1309744e-05,-7.1525574e-07,9.536743e-07,0.99999994,2.5149435e-05,2.1032989e-05,-2.5138259e-05,0.99999994,1.937151e-06,-2.1032989e-05,-1.9669533e-06,1.0,353,1.074,0,0,0.0,True,-0.2594609915940169,0.5588915870378699
1.1037218170240521,10:21:09.845167,10:20:03.903548,0,,0.105409354,0.027940169,0.034564644,-0.31478685,0.5204263,-0.79376674,-0.068284005,0.8216975,0.5658184,0.94670296,0.23231366,-0.22312286,,0.05769027,0.018580362,0.027264506,-0.1768758,-0.38737762,0.90479463,-0.33814225,0.8872498,0.3137636,-0.9243239,-0.2504522,-0.28792185,,0.07747573,1.330172,0.45619965,0.9982497,0.036683377,-0.046387427,-0.0016236961,-0.76707876,-0.6415509,-0.05911706,0.6405033,-0.7656766,,-0.06146355,0.27143902,-0.07748239,0.23546678,-0.56948185,0.7875569,0.56439954,0.7398223,0.3662187,-0.791207,0.3582644,0.49561885,,0.0072265705,0.45618087,-0.29823798,0.3259312,0.38448152,-0.8636798,-0.85342926,0.5126936,-0.09382877,0.40672767,0.76767135,0.49523062,,1.1979348779839576,0.37565689520090284,0.19433461164000002,1.9132110443528,-0.7986403411289994,-0.4008662046449991,-0.4062366924759526,,-1.2901674767008209,0.332355531975126,0.20403215713000003,1.0159477761825206,0.5397141740734898,-0.7873987226785353,0.36229713868583135,,-0.032535118918739295,-0.08714647121364187,0.07824560327999999,-0.058221254136848435,,-4.1309744e-05,-7.1525574e-07,9.536743e-07,0.99999994,2.5149435e-05,2.1032989e-05,-2.5138259e-05,0.99999994,1.937151e-06,-2.1032989e-05,-1.9669533e-06,1.0,361,1.099,0,0,0.0,True,-0.2587460589717643,0.5677751439812901
1.1273408900015056,10:21:09.873865,10:20:03.903548,0,,0.105597965,0.028184041,0.034739926,-0.31544155,0.5209082,-0.79319054,-0.06953201,0.8209311,0.56677806,0.94639415,0.23393732,-0.22273606,,0.057691187,0.01857926,0.02726397,-0.17687418,-0.3873735,0.90479666,-0.338147,0.8872498,0.31375843,-0.9243224,-0.2504586,-0.2879209,,0.07747573,1.330172,0.45619965,0.9982497,0.036683377,-0.046387427,-0.0016236961,-0.76707876,-0.6415509,-0.05911706,0.6405033,-0.7656766,,-0.061675612,0.27172214,-0.077457175,0.23619281,-0.5700704,0.7869134,0.5632921,0.74020094,0.36715746,-0.79177964,0.35654214,0.4959463,,0.007225792,0.45617962,-0.2982383,0.32592958,0.38447836,-0.8636818,-0.8534319,0.5126886,-0.09383206,0.40672338,0.76767623,0.49522647,,1.1979657689154544,0.3775721329537105,0.19433461164000002,1.9132110443528,-0.7986403411289994,-0.40094788338513965,-0.40607334840981824,,-1.2901674767008209,0.33234780924225177,0.20403215713000003,1.0159477761825206,0.5397141740734898,-0.7873987226785353,0.36229713868583135,,-0.032535118918739295,-0.08714647121364187,0.07824560327999999,-0.058221254136848435,,-4.1309744e-05,-7.1525574e-07,9.536743e-07,0.99999994,2.5149435e-05,2.1032989e-05,-2.5138259e-05,0.99999994,1.937151e-06,-2.1032989e-05,-1.9669533e-06,1.0,369,1.123,0,0,0.0,True,-0.2587460589717643,0.5844800934509826
1.1559812610503286,10:21:09.899348,10:20:03.903548,0,,0.10573571,0.028356537,0.034863517,-0.31592783,0.5212959,-0.7927422,-0.070411414,0.82034963,0.56751084,0.9461669,0.2351104,-0.22246623,,0.05769027,0.018580362,0.027264506,-0.1768758,-0.38737762,0.90479463,-0.33814225,0.8872498,0.3137636,-0.9243239,-0.2504522,-0.28792185,,0.07747573,1.330172,0.45619965,0.9982497,0.036683377,-0.046387427,-0.0016236961,-0.76707876,-0.6415509,-0.05911706,0.6405033,-0.7656766,,-0.061829902,0.2719218,-0.07743885,0.23673011,-0.57053393,0.7864159,0.56250775,0.74044967,0.3678577,-0.79217666,0.35528204,0.49621648,,0.0072265705,0.45618087,-0.29823798,0.3259312,0.38448152,-0.8636798,-0.85342926,0.5126936,-0.09382877,0.40672767,0.76767135,0.49523062,,1.1979657689154544,0.37893905667244826,0.19433461164000002,1.9132110443528,-0.7986403411289994,-0.40094788338513965,-0.40607334840981824,,-1.2901674767008209,0.332355531975126,0.20403215713000003,1.0159477761825206,0.5397141740734898,-0.7873987226785353,0.36229713868583135,,-0.032535118918739295,-0.08714647121364187,0.07824560327999999,-0.058221254136848435,,-4.1309744e-05,-7.1525574e-07,9.536743e-07,0.99999994,2.5149435e-05,2.1032989e-05,-2.5138259e-05,0.99999994,1.937151e-06,-2.1032989e-05,-1.9669533e-06,1.0,381,1.161,0,0,0.0,True,-0.25910352528289105,0.6077028700259026
1.1814798030536622,10:21:09.925035,10:20:03.903548,0,,0.10576512,0.028389752,0.034886733,-0.31603706,0.5213713,-0.792649,-0.07057777,0.8202348,0.56765616,0.946118,0.2353437,-0.22242746,,0.057691187,0.01857926,0.02726397,-0.17687418,-0.3873735,0.90479666,-0.338147,0.8872498,0.31375843,-0.9243224,-0.2504586,-0.2879209,,0.07747573,1.330172,0.45619965,0.9982497,0.036683377,-0.046387427,-0.0016236961,-0.76707876,-0.6415509,-0.05911706,0.6405033,-0.7656766,,-0.061862428,0.27195966,-0.077434756,0.23684938,-0.5706245,0.78631425,0.5623571,0.74049985,0.367987,-0.79224795,0.3550319,0.49628168,,0.007225792,0.45617962,-0.2982383,0.32592958,0.38447836,-0.8636818,-0.8534319,0.5126886,-0.09383206,0.40672338,0.76767623,0.49522647,,1.197950323449706,0.3792093523230461,0.19433461164000002,1.9132110443528,-0.7986403411289994,-0.40094788338513965,-0.40607334840981824,,-1.2901674767008209,0.33234780924225177,0.20403215713000003,1.0159477761825206,0.5397141740734898,-0.7873987226785353,0.36229713868583135,,-0.032535118918739295,-0.08714647121364187,0.07824560327999999,-0.058221254136848435,,-4.1309744e-05,-7.1525574e-07,9.536743e-07,0.99999994,2.5149435e-05,2.1032989e-05,-2.5138259e-05,0.99999994,1.937151e-06,-2.1032989e-05,-1.9669533e-06,1.0,389,1.186,0,0,0.0,True,-0.2586269035347226,0.6204971232324588
1.2071616429602727,10:21:09.952856,10:20:03.903548,0,,0.10573602,0.028355122,0.03486219,-0.3159316,0.5212284,-0.792785,-0.07040271,0.82039946,0.5674399,0.9461663,0.23508632,-0.22249429,,0.057691015,0.01857762,0.027262717,-0.17687865,-0.38737142,0.90479666,-0.33815548,0.88724864,0.31375256,-0.92431855,-0.25046593,-0.28792718,,0.07747573,1.330172,0.45619965,0.9982497,0.036683377,-0.046387427,-0.0016236961,-0.76707876,-0.6415509,-0.05911706,0.6405033,-0.7656766,,-0.061830036,0.27191985,-0.0774387,0.23673356,-0.5704666,0.7864637,0.5625144,0.74047893,0.36778867,-0.7921709,0.35532925,0.4961919,,0.0072262175,0.4561776,-0.29823858,0.32593372,0.38447744,-0.86368066,-0.8534346,0.51268244,-0.09384058,0.40671435,0.76768076,0.49522686,,1.19795804618258,0.378931333939574,0.19433461164000002,1.9132110443528,-0.7986403411289994,-0.4010295621252802,-0.4062366924759524,,-1.2901597539679466,0.3323400865093776,0.20403215713000003,1.0159477761825206,0.5397141740734898,-0.7873987226785353,0.36229713868583135,,-0.032535118918739295,-0.08714647121364187,0.07824560327999999,-0.058221254136848435,,-4.1309744e-05,-7.1525574e-07,9.536743e-07,0.99999994,2.5149435e-05,2.1032989e-05,-2.5138259e-05,0.99999994,1.937151e-06,-2.1032989e-05,-1.9669533e-06,1.0,418,1.275,0,0,0.0,True,-0.26017592421626956,0.6401954451504777
1.2350416199769825,10:21:10.036073,10:20:04.066090,0,,0.10557032,0.02814725,0.03471677,-0.3153427,0.5207644,-0.7933242,-0.069353044,0.82109547,0.5665619,0.9464402,0.23368049,-0.22280994,,0.057691015,0.01857762,0.027262717,-0.17687865,-0.38737142,0.90479666,-0.33815548,0.88724864,0.31375256,-0.92431855,-0.25046593,-0.28792718,,0.07747573,1.330172,0.45619965,0.9982497,0.036683377,-0.046387427,-0.0016236961,-0.76707876,-0.6415509,-0.05911706,0.6405033,-0.7656766,,-0.061644707,0.27168143,-0.07746349,0.2360836,-0.5699117,0.7870611,0.5634516,0.74018013,0.3669546,-0.7916987,0.35683885,0.49586207,,0.0072262175,0.4561776,-0.29823858,0.32593372,0.38447744,-0.86368066,-0.8534346,0.51268244,-0.09384058,0.40671435,0.76768076,0.49522686,,1.1979657689154544,0.3772941145702384,0.19433201906000003,1.9132110443528,-0.7986403411289994,-0.4010295621252802,-0.4062366924759524,,-1.2901597539679466,0.3323400865093776,0.20403215713000003,1.0159477761825206,0.5397141740734898,-0.7873987226785353,0.36229713868583135,,-0.032535118918739295,-0.08714647121364187,0.07824560327999999,-0.058221254136848435,,-4.1309744e-05,-7.1525574e-07,9.536743e-07,0.99999994,2.5149435e-05,2.1032989e-05,-2.5138259e-05,0.99999994,1.937151e-06,-2.1032989e-05,-1.9669533e-06,1.0,422,1.287,0,0,0.0,True,-0.25910352528289105,0.7139193117407108
1.318258294952102,10:21:10.065341,10:20:04.066090,0,,0.10557909,0.028155074,0.03472297,-0.31530836,0.52078986,-0.79332113,-0.06950545,0.82104564,0.56661534,0.94644046,0.2337985,-0.22268492,,0.0576901,0.018578693,0.027263254,-0.17688024,-0.3873756,0.90479463,-0.33815065,0.8872487,0.3137577,-0.92432,-0.25045946,-0.28792813,,0.07747573,1.330172,0.45619965,0.9982497,0.036683377,-0.046387427,-0.0016236961,-0.76707876,-0.6415509,-0.05911706,0.6405033,-0.7656766,,-0.061654266,0.27169064,-0.077463016,0.23605525,-0.5699452,0.78704536,0.56333053,0.7402131,0.3670739,-0.7917933,0.35671696,0.49579874,,0.007226996,0.45617884,-0.29823828,0.32593533,0.3844806,-0.8636787,-0.85343194,0.5126875,-0.093837276,0.40671864,0.7676759,0.49523097,,1.197950323449706,0.37736361916610645,0.19433201906000003,1.9132110443528,-0.7987769776287649,-0.4009998229617243,-0.4064000365420868,,-1.2901597539679466,0.33234780924225177,0.20403215713000003,1.0159477761825206,0.5397141740734898,-0.7873987226785353,0.36229713868583135,,-0.032535118918739295,-0.08714647121364187,0.07824560327999999,-0.058221254136848435,,-4.1309744e-05,-7.1525574e-07,9.536743e-07,0.99999994,2.5149435e-05,2.1032989e-05,-2.5138259e-05,0.99999994,1.937151e-06,-2.1032989e-05,-1.9669533e-06,1.0,430,1.312,0,0,0.0,True,-0.2594014138754961,0.7459773650582715
1.3475199559470639,10:21:10.086338,10:20:04.066090,0,,0.10559681,0.0281737,0.034735665,-0.31537628,0.5207679,-0.79330856,-0.06959739,0.8210267,0.56663156,0.94641113,0.23391426,-0.22268835,,0.057691187,0.01857926,0.02726397,-0.17687418,-0.3873735,0.90479666,-0.338147,0.8872498,0.31375843,-0.9243224,-0.2504586,-0.2879209,,0.07747573,1.330172,0.45619965,0.9982497,0.036683377,-0.046387427,-0.0016236961,-0.76707876,-0.6415509,-0.05911706,0.6405033,-0.7656766,,-0.061673705,0.27171156,-0.07746041,0.23612891,-0.56993246,0.7870325,0.5632464,0.74027246,0.36708334,-0.7918312,0.35661423,0.49581215,,0.007225792,0.45617962,-0.2982383,0.32592958,0.38447836,-0.8636818,-0.8534319,0.5126886,-0.09383206,0.40672338,0.76767623,0.49522647,,1.1979348779839576,0.3775180738235909,0.19433201906000003,1.9132110443528,-0.7987769776287649,-0.4010815017018649,-0.4062366924759525,,-1.2901674767008209,0.33234780924225177,0.20403215713000003,1.0159477761825206,0.5397141740734898,-0.7873987226785353,0.36229713868583135,,-0.032535118918739295,-0.08714647121364187,0.07824560327999999,-0.058221254136848435,,-4.1309744e-05,-7.1525574e-07,9.536743e-07,0.99999994,2.5149435e-05,2.1032989e-05,-2.5138259e-05,0.99999994,1.937151e-06,-2.1032989e-05,-1.9669533e-06,1.0,438,1.336,0,0,0.0,True,-0.2584481703791588,0.7763938915493305
1.3685241610510275,10:21:10.110507,10:20:04.066090,0,,0.10560866,0.028192118,0.034749463,-0.31541273,0.5208084,-0.7932675,-0.06969434,0.8209673,0.5667056,0.94639176,0.23403221,-0.22264627,,0.057694092,0.01857765,0.027263671,-0.17686497,-0.38736308,0.904803,-0.3381531,0.8872509,0.3137488,-0.924322,-0.25047082,-0.2879117,,0.07747573,1.330172,0.45619965,0.9982497,0.036683377,-0.046387427,-0.0016236961,-0.76707876,-0.6415509,-0.05911706,0.6405033,-0.7656766,,-0.061687384,0.2717335,-0.077459045,0.23617058,-0.56998056,0.78698516,0.56316215,0.74029666,0.36716372,-0.7918787,0.356487,0.4958278,,0.0072230306,0.45617786,-0.29823896,0.32592064,0.38446987,-0.863689,-0.8534371,0.5126796,-0.09383345,0.40671957,0.7676865,0.49521372,,1.197950323449706,0.37765708301532697,0.19433201906000003,1.9132110443528,-0.7987769776287649,-0.4010815017018649,-0.4062366924759525,,-1.290175199433695,0.3323323637765033,0.20403215713000003,1.0159477761825206,0.5397141740734898,-0.7873987226785353,0.36229713868583135,,-0.032535118918739295,-0.08714647121364187,0.07824560327999999,-0.058221254136848435,,-4.1309744e-05,-7.1525574e-07,9.536743e-07,0.99999994,2.5149435e-05,2.1032989e-05,-2.5138259e-05,0.99999994,1.937151e-06,-2.1032989e-05,-1.9669533e-06,1.0,446,1.361,0,0,0.0,True,-0.25880563669028556,0.8290675905997196
1.3926616499666125,10:21:10.134111,10:20:04.066090,0,,0.10560852,0.028197348,0.034754172,-0.31540424,0.5208187,-0.79326403,-0.069725335,0.82095367,0.5667215,0.9463923,0.23405683,-0.22261813,,0.057693012,0.018577099,0.027262896,-0.17687099,-0.38736513,0.9048009,-0.3381567,0.8872498,0.3137481,-0.9243195,-0.25047165,-0.28791896,,0.07747573,1.330172,0.45619965,0.9982497,0.036683377,-0.046387427,-0.0016236961,-0.76707876,-0.6415509,-0.05911706,0.6405033,-0.7656766,,-0.061687857,0.2717405,-0.0774594,0.23616326,-0.5699924,0.7869787,0.5631377,0.7403006,0.3671933,-0.79189825,0.35645983,0.49581605,,0.0072242348,0.4561771,-0.29823893,0.32592636,0.38447207,-0.86368585,-0.8534372,0.5126785,-0.09383866,0.40671483,0.7676861,0.49521822,,1.1979734916483287,0.37768797394682385,0.19433201906000003,1.9132110443528,-0.7987769776287649,-0.4010815017018649,-0.4062366924759525,,-1.2901674767008209,0.3323323637765033,0.20403215713000003,1.0159477761825206,0.5397141740734898,-0.7873987226785353,0.36229713868583135,,-0.032535118918739295,-0.08714647121364187,0.07824560327999999,-0.058221254136848435,,-4.1309744e-05,-7.1525574e-07,9.536743e-07,0.99999994,2.5149435e-05,2.1032989e-05,-2.5138259e-05,0.99999994,1.937151e-06,-2.1032989e-05,-1.9669533e-06,1.0,454,1.385,0,0,0.0,True,-0.2589843698458485,0.8443724142468079
1.4162934309570119,10:21:10.163802,10:20:04.225139,0,,0.10560512,0.028194875,0.03475268,-0.3153895,0.5208127,-0.7932739,-0.06971407,0.82096344,0.5667088,0.94639814,0.23403627,-0.22261532,,0.057691187,0.01857926,0.02726397,-0.17687418,-0.3873735,0.90479666,-0.338147,0.8872498,0.31375843,-0.9243224,-0.2504586,-0.2879209,,0.07747573,1.330172,0.45619965,0.9982497,0.036683377,-0.046387427,-0.0016236961,-0.76707876,-0.6415509,-0.05911706,0.6405033,-0.7656766,,-0.06168424,0.27173793,-0.07745997,0.23614767,-0.56998503,0.7869888,0.5631488,0.7402958,0.36718604,-0.79189503,0.35648164,0.4958055,,0.007225792,0.45617962,-0.2982383,0.32592958,0.38447836,-0.8636818,-0.8534319,0.5126886,-0.09383206,0.40672338,0.76767623,0.49522647,,1.1979812143812028,0.3776648057482012,0.19433201906000003,1.9132110443528,-0.7987769776287649,-0.4010815017018649,-0.4062366924759525,,-1.2901674767008209,0.33234780924225177,0.20403215713000003,1.0159477761825206,0.5397141740734898,-0.7873987226785353,0.36229713868583135,,-0.032535118918739295,-0.08714647121364187,0.07824560327999999,-0.058221254136848435,,-4.1309744e-05,-7.1525574e-07,9.536743e-07,0.99999994,2.5149435e-05,2.1032989e-05,-2.5138259e-05,0.99999994,1.937151e-06,-2.1032989e-05,-1.9669533e-06,1.0,466,1.423,0,0,0.0,True,-0.2586269035347226,0.8511799225567116
1.4459858450572938,10:21:10.186496,10:20:04.225139,0,,0.10560045,0.028188989,0.03474848,-0.31537303,0.5207996,-0.793289,-0.0696843,0.8209832,0.56668395,0.9464058,0.23399651,-0.22262447,,0.057691015,0.01857762,0.027262717,-0.17687865,-0.38737142,0.90479666,-0.33815548,0.88724864,0.31375256,-0.92431855,-0.25046593,-0.28792718,,0.07747573,1.330172,0.45619965,0.9982497,0.036683377,-0.046387427,-0.0016236961,-0.76707876,-0.6415509,-0.05911706,0.6405033,-0.7656766,,-0.06167901,0.27173114,-0.0774606,0.23612946,-0.56996936,0.7870056,0.5631754,0.74028736,0.3671623,-0.79188156,0.35652435,0.49579632,,0.0072262175,0.4561776,-0.29823858,0.32593372,0.38447744,-0.86368066,-0.8534346,0.51268244,-0.09384058,0.40671435,0.76768076,0.49522686,,1.1979812143812028,0.37761846935095583,0.19433201906000003,1.9132110443528,-0.7987769776287649,-0.4010815017018649,-0.4062366924759525,,-1.2901597539679466,0.3323400865093776,0.20403215713000003,1.0159477761825206,0.5397141740734898,-0.7873987226785353,0.36229713868583135,,-0.032535118918739295,-0.08714647121364187,0.07824560327999999,-0.058221254136848435,,-4.1309744e-05,-7.1525574e-07,9.536743e-07,0.99999994,2.5149435e-05,2.1032989e-05,-2.5138259e-05,0.99999994,1.937151e-06,-2.1032989e-05,-1.9669533e-06,1.0,495,1.512,0,0,0.0,True,-0.25856732581620134,0.8612222043188389
1.4686777129536495,10:21:10.270870,10:20:04.225139,0,,0.10560602,0.028190613,0.03474869,-0.31540072,0.52080446,-0.79327476,-0.06968808,0.8209737,0.5666971,0.94639623,0.23401833,-0.22264194,,0.057694092,0.01857765,0.027263671,-0.17686497,-0.38736308,0.904803,-0.3381531,0.8872509,0.3137488,-0.924322,-0.25047082,-0.2879117,,0.07747573,1.330172,0.45619965,0.9982497,0.036683377,-0.046387427,-0.0016236961,-0.76707876,-0.6415509,-0.05911706,0.6405033,-0.7656766,,-0.061684635,0.27173206,-0.077459514,0.23615801,-0.5699758,0.7869924,0.56316876,0.74029326,0.3671604,-0.7918777,0.35650167,0.49581876,,0.0072230306,0.45617786,-0.29823896,0.32592064,0.38446987,-0.863689,-0.8534371,0.5126796,-0.09383345,0.40671957,0.7676865,0.49521372,,1.19795804618258,0.3776416375495785,0.19433201906000003,1.9132110443528,-0.7987769776287649,-0.4010815017018649,-0.4062366924759525,,-1.290175199433695,0.3323323637765033,0.20403215713000003,1.0159477761825206,0.5397141740734898,-0.7873987226785353,0.36229713868583135,,-0.032535118918739295,-0.08714647121364187,0.07824560327999999,-0.058221254136848435,,-4.1309744e-05,-7.1525574e-07,9.536743e-07,0.99999994,2.5149435e-05,2.1032989e-05,-2.5138259e-05,0.99999994,1.937151e-06,-2.1032989e-05,-1.9669533e-06,1.0,503,1.537,0,0,0.0,True,-0.2590439475643693,0.8901903247865142
1.553040291997604,10:21:10.309822,10:20:04.225139,0,,0.10560201,0.028190956,0.03474988,-0.31537852,0.5208039,-0.793284,-0.06969425,0.8209765,0.56669223,0.9464032,0.23400977,-0.22262143,,0.057693012,0.018577099,0.027262896,-0.17687099,-0.38736513,0.9048009,-0.3381567,0.8872498,0.3137481,-0.9243195,-0.25047165,-0.28791896,,0.07747573,1.330172,0.45619965,0.9982497,0.036683377,-0.046387427,-0.0016236961,-0.76707876,-0.6415509,-0.05911706,0.6405033,-0.7656766,,-0.061680753,0.2717334,-0.07746039,0.23613553,-0.56997454,0.787,0.5631665,0.74029016,0.3671702,-0.79188603,0.3565101,0.4957994,,0.0072242348,0.4561771,-0.29823893,0.32592636,0.38447207,-0.86368585,-0.8534372,0.5126785,-0.09383866,0.40671483,0.7676861,0.49521822,,1.1979812143812028,0.3776339148167043,0.19433201906000003,1.9132110443528,-0.7987769776287649,-0.4010815017018649,-0.4062366924759525,,-1.2901674767008209,0.3323323637765033,0.20403215713000003,1.0159477761825206,0.5397141740734898,-0.7873987226785353,0.36229713868583135,,-0.032535118918739295,-0.08714647121364187,0.07824560327999999,-0.058221254136848435,,-4.1309744e-05,-7.1525574e-07,9.536743e-07,0.99999994,2.5149435e-05,2.1032989e-05,-2.5138259e-05,0.99999994,1.937151e-06,-2.1032989e-05,-1.9669533e-06,1.0,515,1.574,0,0,0.0,True,-0.25880563669028556,0.884589821496097
1.5919729130109772,10:21:10.339917,10:20:04.392858,0,,0.10560416,0.028188929,0.0347476,-0.3155134,0.52051103,-0.7934226,-0.069761306,0.8211453,0.5664395,0.9463533,0.23406929,-0.22277093,,0.05769392,0.018576011,0.02726242,-0.17686938,-0.387361,0.9048029,-0.33816156,0.8872498,0.31374297,-0.9243181,-0.25047806,-0.287918,,0.07747573,1.330172,0.45619965,0.9982497,0.036683377,-0.046387427,-0.0016236961,-0.76707876,-0.6415509,-0.05911706,0.6405033,-0.7656766,,-0.061682627,0.2717302,-0.0774598,0.23627667,-0.5696945,0.7871604,0.5630945,0.7404828,0.3668921,-0.79189515,0.35655764,0.49575067,,0.007223456,0.45617583,-0.29823926,0.32592475,0.3844689,-0.8636878,-0.85343987,0.5126735,-0.093841955,0.40671054,0.767691,0.4952141,,1.19795804618258,0.3776339148167043,0.19433201906000003,1.9130013544093158,-0.7987769776287649,-0.401244859182146,-0.40656338060822106,,-1.2901674767008209,0.3323246410436291,0.20403215713000003,1.0159477761825206,0.5397141740734898,-0.7873987226785353,0.36229713868583135,,-0.032535118918739295,-0.08714647121364187,0.07824560327999999,-0.058221254136848435,,-4.1309744e-05,-7.1525574e-07,9.536743e-07,0.99999994,2.5149435e-05,2.1032989e-05,-2.5138259e-05,0.99999994,1.937151e-06,-2.1032989e-05,-1.9669533e-06,1.0,523,1.598,0,0,0.0,True,-0.2575545046013441,0.9132682607590952
1.6220671059563756,10:21:10.367326,10:20:04.392858,0,,0.10560446,0.028186321,0.03474523,-0.31563908,0.5202813,-0.79352325,-0.06982714,0.8212708,0.5662494,0.9463065,0.23413977,-0.22289549,,0.057692833,0.01857543,0.027261645,-0.17687543,-0.38736305,0.9048009,-0.33816516,0.88724864,0.31374222,-0.9243156,-0.2504789,-0.28792524,,0.07747573,1.330172,0.45619965,0.9982497,0.036683377,-0.046387427,-0.0016236961,-0.76707876,-0.6415509,-0.05911706,0.6405033,-0.7656766,,-0.061682627,0.2717267,-0.077459574,0.23640828,-0.5694766,0.7872786,0.56302464,0.74064344,0.36667505,-0.7919055,0.3565722,0.49572358,,0.0072246604,0.45617506,-0.2982392,0.3259305,0.38447115,-0.8636847,-0.8534399,0.5126724,-0.09384717,0.4067058,0.76769066,0.4952186,,1.1979426007168317,0.3776261920838301,0.19433201906000003,1.912791664465831,-0.7987769776287649,-0.4013265379222865,-0.4064000365420869,,-1.2901597539679466,0.3323246410436291,0.20403215713000003,1.0159477761825206,0.5397141740734898,-0.7873987226785353,0.36229713868583135,,-0.032535118918739295,-0.08714647121364187,0.07824560327999999,-0.058221254136848435,,-4.1309744e-05,-7.1525574e-07,9.536743e-07,0.99999994,2.5149435e-05,2.1032989e-05,-2.5138259e-05,0.99999994,1.937151e-06,-2.1032989e-05,-1.9669533e-06,1.0,535,1.636,0,0,0.0,True,-0.25695872741613357,0.9323389400669813
1.6495101740583777,10:21:10.399593,10:20:04.392858,0,,0.10560446,0.028186321,0.03474523,-0.31563908,0.5202813,-0.79352325,-0.06982714,0.8212708,0.5662494,0.9463065,0.23413977,-0.22289549,,0.057693742,0.018574327,0.027261168,-0.17687385,-0.3873589,0.904803,-0.33816993,0.88724864,0.3137371,-0.92431414,-0.25048542,-0.2879243,,0.07747573,1.330172,0.45619965,0.9982497,0.036683377,-0.046387427,-0.0016236961,-0.76707876,-0.6415509,-0.05911706,0.6405033,-0.7656766,,-0.061682627,0.2717267,-0.077459574,0.23640828,-0.5694766,0.7872786,0.56302464,0.74064344,0.36667505,-0.7919055,0.3565722,0.49572358,,0.007223882,0.4561738,-0.29823953,0.3259289,0.384468,-0.8636867,-0.85344255,0.5126674,-0.09385046,0.4067015,0.7676956,0.4952145,,1.1979426007168317,0.3776261920838301,0.19433201906000003,1.912791664465831,-0.7987769776287649,-0.4013265379222865,-0.4064000365420869,,-1.2901597539679466,0.3323169183107549,0.20403215713000003,1.0159477761825206,0.5397141740734898,-0.7873987226785353,0.36229713868583135,,-0.032535118918739295,-0.08714647121364187,0.07824560327999999,-0.058221254136848435,,-4.1309744e-05,-7.1525574e-07,9.536743e-07,0.99999994,2.5149435e-05,2.1032989e-05,-2.5138259e-05,0.99999994,1.937151e-06,-2.1032989e-05,-1.9669533e-06,1.0,568,1.738,0,0,0.0,True,-0.25683957197909146,0.9502508945561605
1.6817707179579884,10:21:10.510688,10:20:04.392858,0,,0.10559541,0.028182954,0.034759536,-0.31562474,0.5202709,-0.79353577,-0.06981844,0.82128286,0.5662328,0.94631195,0.23412043,-0.22289279,,0.057797447,0.018600479,0.02726233,-0.17683588,-0.38748643,0.9047558,-0.3381705,0.8872007,0.313872,-0.9243212,-0.250458,-0.28792554,,0.07746251,1.3301734,0.45620283,0.9982497,0.036683295,-0.046387494,-0.0016238025,-0.76707876,-0.64155084,-0.05911706,0.6405033,-0.7656766,,-0.061661307,0.2717334,-0.07747033,0.2363932,-0.569465,0.7872915,0.5630335,0.74064165,0.36666492,-0.79190373,0.3565944,0.49571052,,0.007133591,0.45617917,-0.29821107,0.32589245,0.38459194,-0.86364526,-0.85345286,0.5126689,-0.09374859,0.4067091,0.7676325,0.49530602,,1.197950323449706,0.3776339148167043,0.19433201906000003,1.912791664465831,-0.7987769776287649,-0.4013265379222865,-0.4064000365420869,,-1.2901597539679466,0.3323169183107549,0.20402956455000001,1.0159477761825206,0.5397141740734898,-0.7873987226785353,0.36229713868583135,,-0.032535118918739295,-0.08714647121364187,0.07824560327999999,-0.058221254136848435,,-5.468726e-05,-3.5762787e-07,-1.9073486e-06,0.99999994,2.5067478e-05,2.0962209e-05,-2.5056303e-05,0.99999994,1.8775463e-06,-2.0965934e-05,-1.9669533e-06,1.0,576,1.762,0,0,0.0,True,-0.2568991496976123,0.9497198123475863
1.7928577259881422,10:21:10.529095,10:20:04.392858,0,,0.10559502,0.028182074,0.034757674,-0.31569403,0.52019715,-0.7935566,-0.06969839,0.82135296,0.5661459,0.94629765,0.23403841,-0.22303939,,0.05779835,0.018599376,0.027261794,-0.17683429,-0.3874823,0.90475786,-0.33817536,0.8872006,0.31386688,-0.92431974,-0.25046453,-0.28792456,,0.07746251,1.3301734,0.45620283,0.9982497,0.036683295,-0.046387494,-0.0016238025,-0.76707876,-0.64155084,-0.05911706,0.6405033,-0.7656766,,-0.06166073,0.2717316,-0.07746945,0.2364588,-0.56938726,0.787328,0.56312364,0.740651,0.36650762,-0.79182005,0.35669905,0.49576885,,0.007132812,0.4561779,-0.29821137,0.32589084,0.3845888,-0.8636473,-0.85345554,0.51266384,-0.09375189,0.4067048,0.76763743,0.4953019,,1.197950323449706,0.3776261920838301,0.19433201906000003,1.912791664465831,-0.7986403411289994,-0.401437955825983,-0.4064000365420869,,-1.2901597539679466,0.33230919557788063,0.20402956455000001,1.0159477761825206,0.5397141740734898,-0.7873987226785353,0.36229713868583135,,-0.032535118918739295,-0.08714647121364187,0.07824560327999999,-0.058221254136848435,,-5.468726e-05,-3.5762787e-07,-1.9073486e-06,0.99999994,2.5067478e-05,2.0962209e-05,-2.5056303e-05,0.99999994,1.8775463e-06,-2.0965934e-05,-1.9669533e-06,1.0,584,1.787,0,0,0.0,True,-0.2557075953271921,0.9454228744782145
1.811279239016585,10:21:10.561891,10:20:04.622665,0,,0.1055958,0.028183013,0.03475836,-0.31569678,0.5201993,-0.79355407,-0.06970334,0.8213496,0.56615007,0.94629645,0.23404503,-0.2230379,,0.057798527,0.01860106,0.027263045,-0.17682986,-0.38755828,0.90472615,-0.33816695,0.88717616,0.3139452,-0.9243237,-0.25043374,-0.2879387,,0.07746251,1.3301734,0.45620283,0.9982497,0.036683295,-0.046387494,-0.0016238025,-0.76707876,-0.64155084,-0.05911706,0.6405033,-0.7656766,,-0.0616616,0.2717327,-0.07746935,0.23646183,-0.5693899,0.7873252,0.5631192,0.74065244,0.36651158,-0.7918223,0.35669193,0.4957704,,0.007132387,0.45617992,-0.2982111,0.3258867,0.38466027,-0.863617,-0.8534528,0.5126776,-0.09370151,0.40671384,0.76759243,0.49536422,,1.197950323449706,0.3776339148167043,0.19433201906000003,1.912791664465831,-0.7986403411289994,-0.401437955825983,-0.4064000365420869,,-1.2901674767008209,0.3323169183107549,0.20402956455000001,1.0159477761825206,0.5397141740734898,-0.7873170439383946,0.3621337946196971,,-0.032535118918739295,-0.08714647121364187,0.07824560327999999,-0.058221254136848435,,-5.468726e-05,-3.5762787e-07,-1.9073486e-06,0.99999994,2.5067478e-05,2.0962209e-05,-2.5056303e-05,0.99999994,1.8775463e-06,-2.0965934e-05,-1.9669533e-06,1.0,596,1.824,0,0,0.0,True,-0.25719703829021734,0.9470161211039367
1.8440771050518379,10:21:10.592497,10:20:04.622665,0,,0.1055955,0.028184459,0.0347597,-0.31569305,0.5202021,-0.79355377,-0.06971204,0.8213462,0.566154,0.946297,0.23405105,-0.22302905,,0.057797447,0.018600479,0.02726233,-0.17683588,-0.38756034,0.9047241,-0.3381705,0.88717496,0.3139445,-0.9243212,-0.25043452,-0.28794602,,0.07746251,1.3301734,0.45620283,0.9982497,0.036683295,-0.046387494,-0.0016238025,-0.76707876,-0.64155084,-0.05911706,0.6405033,-0.7656766,,-0.061661467,0.27173465,-0.077469505,0.23645839,-0.569393,0.787324,0.5631125,0.7406533,0.3665201,-0.7918281,0.35668525,0.49576598,,0.007133591,0.45617917,-0.29821107,0.32589245,0.38466248,-0.86361384,-0.85345286,0.51267654,-0.09370672,0.4067091,0.767592,0.49536872,,1.19795804618258,0.3776416375495785,0.19433201906000003,1.912791664465831,-0.7986403411289994,-0.401437955825983,-0.4064000365420869,,-1.2901597539679466,0.3323169183107549,0.20402956455000001,1.0159477761825206,0.5397141740734898,-0.7873170439383946,0.3621337946196971,,-0.032535118918739295,-0.08714647121364187,0.07824560327999999,-0.058221254136848435,,-5.468726e-05,-3.5762787e-07,-1.9073486e-06,0.99999994,2.5067478e-05,2.0962209e-05,-2.5056303e-05,0.99999994,1.8775463e-06,-2.0965934e-05,-1.9669533e-06,1.0,604,1.848,0,0,0.0,True,-0.257435349164302,0.9474023627101724
1.874637022963725,10:21:10.619161,10:20:04.622665,0,,0.10559688,0.02818261,0.03475775,-0.31570327,0.52019876,-0.7935518,-0.069699645,0.82134986,0.5661503,0.94629455,0.23404571,-0.22304524,,0.057799444,0.018599987,0.027262509,-0.17682824,-0.38748017,0.90475994,-0.33817178,0.8872017,0.31386757,-0.9243223,-0.25046375,-0.2879173,,0.07746251,1.3301734,0.45620283,0.9982497,0.036683295,-0.046387494,-0.0016238025,-0.76707876,-0.64155084,-0.05911706,0.6405033,-0.7656766,,-0.061662603,0.27173188,-0.077469096,0.23646832,-0.5693894,0.7873236,0.56312144,0.74065304,0.366507,-0.7918188,0.3566915,0.49577636,,0.007131608,0.45617867,-0.2982114,0.3258851,0.38458657,-0.86365044,-0.8534555,0.5126649,-0.09374668,0.40670958,0.76763785,0.49529737,,1.1979426007168317,0.3776339148167043,0.19433201906000003,1.912791664465831,-0.7986403411289994,-0.401437955825983,-0.4064000365420869,,-1.2901674767008209,0.33230919557788063,0.20402956455000001,1.0159477761825206,0.5397141740734898,-0.7873987226785353,0.36229713868583135,,-0.032535118918739295,-0.08714647121364187,0.07824560327999999,-0.058221254136848435,,-5.468726e-05,-3.5762787e-07,-1.9073486e-06,0.99999994,2.5067478e-05,2.0962209e-05,-2.5056303e-05,0.99999994,1.8775463e-06,-2.0965934e-05,-1.9669533e-06,1.0,612,1.874,0,0,0.0,True,-0.2566012611050077,0.9500094935522632
1.9013455050298944,10:21:10.647411,10:20:04.622665,0,,0.10559472,0.028183475,0.034758985,-0.31569028,0.5201999,-0.7935563,-0.069707066,0.82134956,0.56614983,0.94629836,0.23404443,-0.22303054,,0.057800353,0.0185989,0.027261972,-0.17682663,-0.38747603,0.9047621,-0.3381765,0.8872017,0.3138624,-0.9243208,-0.2504702,-0.28791636,,0.07746251,1.3301734,0.45620283,0.9982497,0.036683295,-0.046387494,-0.0016238025,-0.76707876,-0.64155084,-0.05911706,0.6405033,-0.7656766,,-0.061660595,0.27173352,-0.07746961,0.23645535,-0.56939036,0.7873268,0.56311697,0.7406519,0.36651617,-0.79182583,0.35669237,0.49576443,,0.0071308296,0.4561774,-0.29821172,0.32588348,0.38458344,-0.86365247,-0.8534581,0.5126599,-0.09374998,0.4067053,0.76764274,0.49529326,,1.19795804618258,0.3776339148167043,0.19433201906000003,1.912791664465831,-0.7986403411289994,-0.401437955825983,-0.4064000365420869,,-1.2901674767008209,0.33230147284500644,0.20402956455000001,1.0159477761825206,0.5397141740734898,-0.7873987226785353,0.36229713868583135,,-0.032535118918739295,-0.08714647121364187,0.07824560327999999,-0.058221254136848435,,-5.468726e-05,-3.5762787e-07,-1.9073486e-06,0.99999994,2.5067478e-05,2.0962209e-05,-2.5056303e-05,0.99999994,1.8775463e-06,-2.0965934e-05,-1.9669533e-06,1.0,645,1.975,0,0,0.0,True,-0.25672041654204936,0.9504922955600577
1.9295969130471349,10:21:10.746928,10:20:04.756958,0,,0.1055958,0.028183013,0.03475836,-0.31569678,0.5201993,-0.79355407,-0.06970334,0.8213496,0.56615007,0.94629645,0.23404503,-0.2230379,,0.057802476,0.018596709,0.02725941,-0.17665735,-0.38773125,0.90468574,-0.33826363,0.88707364,0.31413054,-0.9243213,-0.250529,-0.28786355,,0.07746251,1.3301734,0.45620283,0.9982497,0.036683295,-0.046387494,-0.0016238025,-0.76707876,-0.64155084,-0.05911706,0.6405033,-0.7656766,,-0.0616616,0.2717327,-0.07746935,0.23646183,-0.5693899,0.7873252,0.5631192,0.74065244,0.36651158,-0.7918223,0.35669193,0.4957704,,0.007129202,0.4561738,-0.29821122,0.32571977,0.3848495,-0.86359566,-0.8535431,0.51256186,-0.093512125,0.40665814,0.76757485,0.49543715,,1.197950323449706,0.3776339148167043,0.19433201906000003,1.912791664465831,-0.7986403411289994,-0.401437955825983,-0.4064000365420869,,-1.2901674767008209,0.33227830464638375,0.20403086084000002,1.015738086239036,0.5397141740734898,-0.7872353651982541,0.3626238268180999,,-0.032535118918739295,-0.08714647121364187,0.07824560327999999,-0.058221254136848435,,-5.468726e-05,-3.5762787e-07,-1.9073486e-06,0.99999994,2.5067478e-05,2.0962209e-05,-2.5056303e-05,0.99999994,1.8775463e-06,-2.0965934e-05,-1.9669533e-06,1.0,653,2.0,0,0,0.0,False,-0.2564821056679656,0.96811456884456
2.029109789058566,10:21:10.768635,10:20:04.756958,0,,0.10559035,0.02817376,0.034763575,-0.31684643,0.5182963,-0.7943407,-0.07191795,0.82195145,0.56499857,0.9457463,0.23614508,-0.22315766,,0.057786576,0.018600464,0.027253628,-0.17309868,-0.39289474,0.9031446,-0.3405196,0.8843113,0.31943694,-0.9241662,-0.25224447,-0.2868616,,0.07746251,1.3301734,0.45620283,0.9982497,0.036683295,-0.046387494,-0.0016238025,-0.76707876,-0.64155084,-0.05911706,0.6405033,-0.7656766,,-0.061656263,0.2717292,-0.07747945,0.23773833,-0.567697,0.7881628,0.5611516,0.7425898,0.3656081,-0.79283625,0.3553598,0.49510613,,0.0071456307,0.45617458,-0.29820573,0.322271,0.39031735,-0.8624348,-0.855519,0.5100946,-0.088830136,0.40525135,0.7664567,0.4983126,,1.1978885415867122,0.37768797394682385,0.19433072277000002,1.9096463153135634,-0.7998700696268883,-0.40059855217299634,-0.40607334840981824,,-1.2901829221665693,0.33224741371488686,0.20403086084000002,1.010915217538892,0.5390309915746625,-0.7846363071762579,0.36768749286826263,,-0.032535118918739295,-0.08714647121364187,0.07824560327999999,-0.058221254136848435,,-5.468726e-05,-3.5762787e-07,-1.9073486e-06,0.99999994,2.5067478e-05,2.0962209e-05,-2.5056303e-05,0.99999994,1.8775463e-06,-2.0965934e-05,-1.9669533e-06,1.0,661,2.024,0,0,0.0,False,-0.256065061638318,0.9819709864682649
2.050817016977817,10:21:10.795709,10:20:04.756958,0,,0.10562341,0.02816908,0.03477435,-0.32306263,0.50896114,-0.7978653,-0.07912123,0.8255956,0.5586873,0.9430643,0.243619,-0.22644952,,0.057733744,0.018614903,0.027230859,-0.16122851,-0.41388994,0.8959354,-0.3487481,0.8731365,0.34059852,-0.92324436,-0.25754172,-0.28511795,,0.07746251,1.3301734,0.45620283,0.9982497,0.036683295,-0.046387494,-0.0016238025,-0.76707876,-0.64155084,-0.05911706,0.6405033,-0.7656766,,-0.061689913,0.27172956,-0.07748937,0.24443227,-0.5591786,0.79219455,0.55440086,0.750865,0.3589449,-0.79554546,0.35145563,0.49354473,,0.0072006257,0.45617628,-0.29818365,0.31073523,0.41229793,-0.8564193,-0.862334,0.5012568,-0.0715659,0.39977953,0.76075757,0.5112967,,1.1974946822101267,0.37820539704939693,0.19433072277000002,1.8966455388175227,-0.8024661631224318,-0.39938007814431065,-0.40591000434368407,,-1.2902678722281857,0.3321624636532704,0.20403086084000002,0.994559401947099,0.5358883520800574,-0.7718638528736698,0.38385855541555625,,-0.032535118918739295,-0.08714647121364187,0.07824560327999999,-0.058221254136848435,,-5.468726e-05,-3.5762787e-07,-1.9073486e-06,0.99999994,2.5067478e-05,2.0962209e-05,-2.5056303e-05,0.99999994,1.8775463e-06,-2.0965934e-05,-1.9669533e-06,1.0,669,2.049,0,0,0.0,False,-0.2568991496976123,1.0113736287429549
2.077888478990644,10:21:10.820421,10:20:04.887343,0,,0.10576312,0.028225303,0.034814835,-0.32691926,0.50436884,-0.7992095,-0.084499955,0.8266899,0.5562763,0.94126695,0.24939048,-0.22764179,,0.057683796,0.018630907,0.027219474,-0.14952518,-0.43612418,0.8873768,-0.355089,0.8612808,0.36346525,-0.92279685,-0.2607507,-0.2836462,,0.07746251,1.3301734,0.45620283,0.9982497,0.036683295,-0.046387494,-0.0016238025,-0.76707876,-0.64155084,-0.05911706,0.6405033,-0.7656766,,-0.06183462,0.27178684,-0.07747957,0.2486316,-0.55513954,0.7937269,0.54942286,0.7557017,0.35644,-0.79769474,0.34746945,0.49289766,,0.0072510284,0.4561865,-0.2981683,0.2993593,0.43521914,-0.8490985,-0.86810523,0.49353266,-0.053092204,0.3959511,0.75300056,0.5255596,,1.196853695381566,0.3791784613915492,0.19433072277000002,1.888677320965111,-0.8049256201182097,-0.3972111983974937,-0.40525662807914675,,-1.2903296540911795,0.33208523632452813,0.20403086084000002,0.9792520360727287,0.5343853505826376,-0.7565078338886921,0.40133637049192405,,-0.032535118918739295,-0.08714647121364187,0.07824560327999999,-0.058221254136848435,,-5.468726e-05,-3.5762787e-07,-1.9073486e-06,0.99999994,2.5067478e-05,2.0962209e-05,-2.5056303e-05,0.99999994,1.8775463e-06,-2.0965934e-05,-1.9669533e-06,1.0,677,2.074,0,0,0.0,False,-0.2561246393568388,1.0231539977331428
2.1026061569573358,10:21:10.845789,10:20:04.887343,0,,0.1062292,0.028425425,0.03493549,-0.32988077,0.508101,-0.79562044,-0.08939651,0.82219696,0.5621389,0.93978024,0.25656444,-0.22580458,,0.05762911,0.018657282,0.027221262,-0.13288014,-0.47956464,0.8673871,-0.361939,0.8381874,0.40797302,-0.92268246,-0.2597299,-0.28495175,,0.07746251,1.3301734,0.45620283,0.9982497,0.036683295,-0.046387494,-0.0016238025,-0.76707876,-0.64155084,-0.05911706,0.6405033,-0.7656766,,-0.06231662,0.27197877,-0.07742776,0.25189474,-0.5592934,0.7897721,0.5449386,0.7563815,0.36184105,-0.7997443,0.33923146,0.49530905,,0.0073037543,0.45621377,-0.29815543,0.28317076,0.47891355,-0.8309369,-0.8751241,0.4835031,-0.019560263,0.3923929,0.7327118,0.5560227,,1.1951546941492366,0.3817346859729175,0.19431775987000002,1.8844835220954204,-0.8079316231130493,-0.38863409900563034,-0.4054199721452809,,-1.2904686632829157,0.33195394986566634,0.20403086084000002,0.9584927316677608,0.5341120775831066,-0.7196112437581866,0.43972222603347977,,-0.032535118918739295,-0.08714647121364187,0.07824560327999999,-0.058221254136848435,,-5.468726e-05,-3.5762787e-07,-1.9073486e-06,0.99999994,2.5067478e-05,2.0962209e-05,-2.5056303e-05,0.99999994,1.8775463e-06,-2.0965934e-05,-1.9669533e-06,1.0,685,2.099,0,0,0.0,False,-0.25642252794944387,1.0389899035888053
2.127969380002469,10:21:10.869499,10:20:04.887343,0,,0.10669297,0.028607294,0.035013914,-0.3354488,0.50964445,-0.7922982,-0.090625614,0.8196703,0.5656212,0.9376892,0.2615394,-0.22877064,,0.057588674,0.018679455,0.027229548,-0.12248311,-0.5111651,0.85071015,-0.36521012,0.8202337,0.4402706,-0.92283225,-0.25676236,-0.28714758,,0.07746251,1.3301734,0.45620283,0.9982497,0.036683295,-0.046387494,-0.0016238025,-0.76707876,-0.64155084,-0.05911706,0.6405033,-0.7656766,,-0.06279201,0.2721303,-0.07735476,0.25766358,-0.56115645,0.78658307,0.5431423,0.7573975,0.3624162,-0.7991282,0.3338451,0.49994156,,0.007341586,0.45624065,-0.298149,0.27305144,0.5104137,-0.8154267,-0.8789408,0.47691232,0.0042021098,0.39103186,0.7155644,0.578845,,1.1934711383826557,0.38416734682829823,0.19429701923,1.8798703433387607,-0.8064286216156294,-0.3829986817744838,-0.4050932840130125,,-1.2905304451459094,0.3319153362012952,0.20403086084000002,0.9457016451152049,0.5347952600819339,-0.6894571269838174,0.467327373210173,,-0.032535118918739295,-0.08714647121364187,0.07824560327999999,-0.058221254136848435,,-5.468726e-05,-3.5762787e-07,-1.9073486e-06,0.99999994,2.5067478e-05,2.0962209e-05,-2.5056303e-05,0.99999994,1.8775463e-06,-2.0965934e-05,-1.9669533e-06,1.0,714,2.188,0,0,0.0,False,-0.2564821056679656,1.0405348700137478
2.1516846190206707,10:21:10.953692,10:20:04.887343,0,,0.10943152,0.029643565,0.035381764,-0.3699254,0.50894755,-0.77725637,-0.08388087,0.81489086,0.5735127,0.9252671,0.27735382,-0.25875792,,0.057252407,0.018852502,0.02729112,-0.088339634,-0.6923569,0.7161269,-0.3718515,0.68988526,0.6211157,-0.9240793,-0.2114238,-0.3183983,,0.07746251,1.3301734,0.45620283,0.9982497,0.036683295,-0.046387494,-0.0016238025,-0.76707876,-0.64155084,-0.05911706,0.6405033,-0.7656766,,-0.06558972,0.27293658,-0.07687339,0.29278776,-0.5616248,0.77385587,0.5434959,0.7636196,0.34856468,-0.78669405,0.318532,0.52881926,,0.007657715,0.45645115,-0.29809833,0.23976804,0.6879117,-0.68504655,-0.8890659,0.4390253,0.12968618,0.38996542,0.577957,0.7168631,,1.183709604029636,0.3979447022759148,0.19416998281000003,1.8614176283121227,-0.7851133276522209,-0.37220070940263145,-0.40525662807914675,,-1.290105694837827,0.3327880050160826,0.20402956455000001,0.9052314860226917,0.5402607200725515,-0.4850613045922566,0.6682405745553364,,-0.032535118918739295,-0.08714647121364187,0.07824560327999999,-0.058221254136848435,,-5.468726e-05,-3.5762787e-07,-1.9073486e-06,0.99999994,2.5067478e-05,2.0962209e-05,-2.5056303e-05,0.99999994,1.8775463e-06,-2.0965934e-05,-1.9669533e-06,1.0,722,2.213,0,0,0.0,False,-0.25683957197909146,1.0249886453627624
2.2358773429878056,10:21:10.987849,10:20:05.041771,0,,0.11077936,0.030110344,0.03548786,-0.38483852,0.50423115,-0.7730783,-0.08037737,0.81609535,0.5723003,0.9194774,0.28238112,-0.27353624,,0.05708979,0.01896374,0.027390897,-0.085489646,-0.73964906,0.6675406,-0.36136928,0.6473902,0.67104256,-0.92849547,-0.18386157,-0.32263178,,0.07746251,1.3301734,0.45620283,0.9982497,0.036683295,-0.046387494,-0.0016238025,-0.76707876,-0.64155084,-0.05911706,0.6405033,-0.7656766,,-0.06695862,0.273253,-0.0766055,0.30799386,-0.5574032,0.7710003,0.543844,0.7680875,0.3380463,-0.7806238,0.3151877,0.5397066,,0.007799076,0.45662072,-0.29810432,0.23718962,0.73223746,-0.63841164,-0.88499504,0.43389904,0.16886517,0.4006556,0.52493805,0.7509428,,1.1785739866682767,0.40425417503415617,0.19416090878000003,1.8547075501206178,-0.7760953186677017,-0.3743268516775995,-0.4049299399468782,,-1.289549658070883,0.3335911692350019,0.20403086084000002,0.9054411759661761,0.551874822552614,-0.4166103083123561,0.7263910620991398,,-0.032535118918739295,-0.08714647121364187,0.07824560327999999,-0.058221254136848435,,-5.468726e-05,-3.5762787e-07,-1.9073486e-06,0.99999994,2.5067478e-05,2.0962209e-05,-2.5056303e-05,0.99999994,1.8775463e-06,-2.0965934e-05,-1.9669533e-06,1.0,734,2.25,0,0,0.0,False,-0.25576717304571295,1.022960876930025
2.2699551900150254,10:21:11.024838,10:20:05.041771,0,,0.111811385,0.030413225,0.035503685,-0.39463437,0.49528348,-0.7739237,-0.07519829,0.82205033,0.5644274,0.91575587,0.28094018,-0.2871649,,0.056800038,0.019068673,0.027405381,-0.09149155,-0.77767056,0.6219787,-0.35535213,0.60897315,0.7091379,-0.9302441,-0.15614145,-0.33206296,,0.07746251,1.3301734,0.45620283,0.9982497,0.036683295,-0.046387494,-0.0016238025,-0.76707876,-0.64155084,-0.05911706,0.6405033,-0.7656766,,-0.06799912,0.2734121,-0.07638387,0.31786475,-0.5486007,0.77330416,0.5463583,0.77255785,0.32349196,-0.77489007,0.31967443,0.5453014,,0.008079,0.45674405,-0.29806405,0.24313898,0.7672165,-0.5935169,-0.8811052,0.4305643,0.19562207,0.40563166,0.47538748,0.7806854,,1.174419156381944,0.40858662817659613,0.19416868652000002,1.8532397205162263,-0.7684436746808371,-0.38661048105500057,-0.4044399077484754,,-1.288352634475378,0.3349426474879912,0.20403345342,0.912990013931619,0.5559739175455772,-0.3537930659093933,0.7865016784365546,,-0.032535118918739295,-0.08714647121364187,0.07824560327999999,-0.058221254136848435,,-5.468726e-05,-3.5762787e-07,-1.9073486e-06,0.99999994,2.5067478e-05,2.0962209e-05,-2.5056303e-05,0.99999994,1.8775463e-06,-2.0965934e-05,-1.9669533e-06,1.0,746,2.287,0,0,0.0,False,-0.25546928445310746,1.0270646939962789
2.3070049800444394,10:21:11.055029,10:20:05.041771,0,,0.11229841,0.030498981,0.0354684,-0.39756894,0.48773354,-0.77720964,-0.07461357,0.8270388,0.55717087,0.91453356,0.27950412,-0.29241347,,0.056555547,0.019137993,0.027411401,-0.10097653,-0.79292953,0.60088784,-0.34778437,0.594003,0.72540087,-0.9321211,-0.13573101,-0.3357491,,0.07746251,1.3301734,0.45620283,0.9982497,0.036683295,-0.046387494,-0.0016238025,-0.76707876,-0.64155084,-0.05911706,0.6405033,-0.7656766,,-0.06848431,0.27341607,-0.076282024,0.32086805,-0.5411531,0.77730113,0.5462936,0.77616423,0.3148529,-0.77369696,0.3236084,0.54467475,,0.008316895,0.45683008,-0.29803917,0.25248677,0.77985406,-0.572781,-0.87573475,0.43592912,0.20749581,0.41150838,0.44921428,0.7930116,,1.1721255047182992,0.41026246121030285,0.19418553829000001,1.8530300305727416,-0.7677604921820099,-0.39647894694950675,-0.4055833162114153,,-1.2871556108798732,0.3360933346862507,0.20403474971000002,0.9251520306537214,0.5604829220378368,-0.3216128898096684,0.8178637391343362,,-0.032535118918739295,-0.08714647121364187,0.07824560327999999,-0.058221254136848435,,-5.468726e-05,-3.5762787e-07,-1.9073486e-06,0.99999994,2.5067478e-05,2.0962209e-05,-2.5056303e-05,0.99999994,1.8775463e-06,-2.0965934e-05,-1.9669533e-06,1.0,754,2.312,0,0,0.0,False,-0.25558843989015,1.0150429240021939
2.3371642030542716,10:21:11.081440,10:20:05.041771,0,,0.11261058,0.030524433,0.03540516,-0.39810348,0.48359165,-0.77952075,-0.07336283,0.83025604,0.55253285,0.91440225,0.277153,-0.29505026,,0.056343585,0.019194052,0.027470767,-0.11701232,-0.79771984,0.5915665,-0.32875302,0.59318876,0.73487985,-0.93713903,-0.108489335,-0.33166337,,0.07746251,1.3301734,0.45620283,0.9982497,0.036683295,-0.046387494,-0.0016238025,-0.76707876,-0.64155084,-0.05911706,0.6405033,-0.7656766,,-0.068790704,0.27337033,-0.07620379,0.3213634,-0.53695273,0.78000474,0.54722744,0.7775397,0.30979705,-0.77283096,0.32728255,0.543708,,0.008515251,0.45693898,-0.29805887,0.26831532,0.7805637,-0.5645593,-0.86346984,0.4547101,0.21830837,0.4271144,0.42890444,0.79599893,,1.170503730814712,0.4110424572305995,0.19420887151000002,1.855126930007587,-0.7676238556822444,-0.4040231302059945,-0.40476659588074404,,-1.2857114598323933,0.33722857641876164,0.20403734229,0.9492663741544418,0.5741465720143808,-0.29730610695830656,0.8382817474011212,,-0.032535118918739295,-0.08714647121364187,0.07824560327999999,-0.058221254136848435,,-5.468726e-05,-3.5762787e-07,-1.9073486e-06,0.99999994,2.5067478e-05,2.0962209e-05,-2.5056303e-05,0.99999994,1.8775463e-06,-2.0965934e-05,-1.9669533e-06,1.0,779,2.389,0,0,0.0,False,-0.2561246393568388,1.0099735029203507
2.3636043020524085,10:21:11.154255,10:20:05.199226,0,,0.11366677,0.030553818,0.035151795,-0.4052567,0.473506,-0.7820223,-0.072907865,0.83595014,0.5439408,0.911291,0.2774511,-0.3042522,,0.056070566,0.019106165,0.027562499,-0.18332377,-0.7591772,0.6245334,-0.26338953,0.6500047,0.7128253,-0.94711053,-0.033817798,-0.3191208,,0.07746251,1.3301734,0.45620283,0.9982497,0.036683295,-0.046387494,-0.0016238025,-0.76707876,-0.64155084,-0.05911706,0.6405033,-0.7656766,,-0.06982186,0.27314693,-0.07594412,0.32873267,-0.5271552,0.78360844,0.546234,0.78298825,0.29758662,-0.77043056,0.33020714,0.54534394,,0.008774864,0.45697546,-0.29820698,0.33269924,0.72908765,-0.5981157,-0.8148638,0.5415027,0.20681345,0.47466642,0.41857618,0.7742647,,1.164688512960421,0.41367590914071006,0.19428405633,1.852610650685773,-0.7673505826827136,-0.4144558085309573,-0.4049299399468782,,-1.2817883115322872,0.3393137142948023,0.20404252745,1.0494981671400443,0.612678064948235,-0.28396600620366924,0.8451421981787609,,-0.032535118918739295,-0.08714647121364187,0.07824560327999999,-0.058221254136848435,,-5.468726e-05,-3.5762787e-07,-1.9073486e-06,0.99999994,2.5067478e-05,2.0962209e-05,-2.5056303e-05,0.99999994,1.8775463e-06,-2.0965934e-05,-1.9669533e-06,1.0,787,2.414,0,0,0.0,False,-0.2552905512975445,1.0051454828424047
2.436432925052941,10:21:11.184552,10:20:05.199226,0,,0.114334084,0.030637309,0.03508626,-0.41309732,0.46448016,-0.78333175,-0.07308772,0.8404709,0.53690463,0.9077493,0.27904576,-0.31324857,,0.056043446,0.019041747,0.027563095,-0.20137633,-0.7391287,0.6427566,-0.24623081,0.6733267,0.6971381,-0.9480601,-0.017879397,-0.31758845,,0.07746251,1.3301734,0.45620283,0.9982497,0.036683295,-0.046387494,-0.0016238025,-0.76707876,-0.64155084,-0.05911706,0.6405033,-0.7656766,,-0.07048388,0.27311522,-0.075812645,0.33684736,-0.51847816,0.785948,0.54453593,0.788247,0.28661358,-0.768124,0.33143187,0.54784894,,0.008804142,0.4569335,-0.29825458,0.34998974,0.7059713,-0.61572045,-0.8008719,0.56645477,0.19425032,0.48591295,0.4251276,0.76364595,,1.1614140742217498,0.4159850062701032,0.19429572294000003,1.8467393322682062,-0.765027762186701,-0.42067888612124643,-0.4041132196162066,,-1.2808384153887575,0.33966896000701663,0.20404252745,1.0775966195669706,0.6212861644334576,-0.29221051523865227,0.8438354456496866,,-0.032535118918739295,-0.08714647121364187,0.07824560327999999,-0.058221254136848435,,-5.468726e-05,-3.5762787e-07,-1.9073486e-06,0.99999994,2.5067478e-05,2.0962209e-05,-2.5056303e-05,0.99999994,1.8775463e-06,-2.0965934e-05,-1.9669533e-06,1.0,795,2.438,0,0,0.0,False,-0.25582675076423333,1.0037453570198005
2.4667314590187743,10:21:11.213216,10:20:05.199226,0,,0.11504224,0.030785263,0.035083592,-0.42111135,0.4558068,-0.7841588,-0.07238954,0.8449068,0.5299925,0.90411556,0.27995074,-0.32280427,,0.05605451,0.01893039,0.02756238,-0.22799289,-0.7091497,0.6671773,-0.22055674,0.7050276,0.6740109,-0.9483533,0.0065191984,-0.3171492,,0.07746251,1.3301734,0.45620283,0.9982497,0.036683295,-0.046387494,-0.0016238025,-0.76707876,-0.64155084,-0.05911706,0.6405033,-0.7656766,,-0.071194395,0.27316943,-0.075687714,0.3451088,-0.5100901,0.7878502,0.5434768,0.7929797,0.27534735,-0.7652012,0.33315352,0.55088645,,0.008797788,0.456852,-0.29833102,0.3753029,0.6714479,-0.63898784,-0.7792134,0.6018893,0.17480186,0.5019703,0.43230426,0.749092,,1.1582709219419405,0.41879608103632093,0.19429572294000003,1.8417067736245774,-0.7616118496925651,-0.42771162820096614,-0.4037865314839383,,-1.279649114526127,0.34006281938360206,0.20404252745,1.1201636780943292,0.633173539913051,-0.3013321216792569,0.8413852846576724,,-0.032535118918739295,-0.08714647121364187,0.07824560327999999,-0.058221254136848435,,-5.468726e-05,-3.5762787e-07,-1.9073486e-06,0.99999994,2.5067478e-05,2.0962209e-05,-2.5056303e-05,0.99999994,1.8775463e-06,-2.0965934e-05,-1.9669533e-06,1.0,803,2.463,0,0,0.0,False,-0.2555288621716292,0.9992070181465313
2.495368708972819,10:21:11.236931,10:20:05.199226,0,,0.11583707,0.031004533,0.03514108,-0.42907506,0.44820032,-0.7842263,-0.07125166,0.8487093,0.5240376,0.9004541,0.28072882,-0.33222514,,0.056143045,0.018805876,0.027600765,-0.25286466,-0.67603564,0.69212353,-0.19005388,0.736142,0.6495956,-0.9486512,0.032718986,-0.31462765,,0.07746251,1.3301734,0.45620283,0.9982497,0.036683295,-0.046387494,-0.0016238025,-0.76707876,-0.64155084,-0.05911706,0.6405033,-0.7656766,,-0.071999066,0.27330938,-0.075560994,0.35330567,-0.50272906,0.78894776,0.54273766,0.7970525,0.26484534,-0.76197827,0.33462033,0.5544532,,0.008709581,0.45677778,-0.29843837,0.3986993,0.6335822,-0.6630328,-0.75434154,0.63772774,0.15579541,0.5215436,0.43803766,0.73219895,,1.1550119286690177,0.4222481426310993,0.19429053778000002,1.8377226646983715,-0.7577860276991327,-0.43475190903121297,-0.40378653148393817,,-1.2787301093140944,0.3402945013698288,0.20404252745,1.1648276360565328,0.6488867373860767,-0.30973452863675505,0.8373016830043154,,-0.032535118918739295,-0.08714647121364187,0.07824560327999999,-0.058221254136848435,,-5.468726e-05,-3.5762787e-07,-1.9073486e-06,0.99999994,2.5067478e-05,2.0962209e-05,-2.5056303e-05,0.99999994,1.8775463e-06,-2.0965934e-05,-1.9669533e-06,1.0,815,2.501,0,0,0.0,False,-0.2552905512975445,0.9989173369418547
2.5191177510423586,10:21:11.270166,10:20:05.327241,0,,0.11658272,0.03121695,0.03520918,-0.43944985,0.43483022,-0.7860065,-0.071837485,0.8552101,0.5132785,0.89539,0.28202486,-0.34458494,,0.05626726,0.01869823,0.02768457,-0.27063972,-0.645891,0.71384776,-0.15874192,0.761312,0.6286533,-0.9495026,0.05682093,-0.3085714,,0.07746251,1.3301734,0.45620283,0.9982497,0.036683295,-0.046387494,-0.0016238025,-0.76707876,-0.64155084,-0.05911706,0.6405033,-0.7656766,,-0.07275542,0.27345473,-0.07544889,0.3640886,-0.4897774,0.7921853,0.5399848,0.80402446,0.24891989,-0.7588517,0.33713913,0.5572085,,0.0085786935,0.45674205,-0.2985634,0.41513386,0.5992009,-0.6845598,-0.73021317,0.66827315,0.14212589,0.5426349,0.44087332,0.7149672,,1.1519691719165732,0.42570792695875187,0.19428016746000001,1.829125377015506,-0.7536869327061696,-0.4443837091329289,-0.40591000434368385,,-1.2781122906841564,0.34043351056156484,0.20404252745,1.2036202756011698,0.6676059378539421,-0.31593244128756254,0.8338714576154955,,-0.032535118918739295,-0.08714647121364187,0.07824560327999999,-0.058221254136848435,,-5.468726e-05,-3.5762787e-07,-1.9073486e-06,0.99999994,2.5067478e-05,2.0962209e-05,-2.5056303e-05,0.99999994,1.8775463e-06,-2.0965934e-05,-1.9669533e-06,1.0,844,2.59,0,0,0.0,False,-0.25439688551972894,0.9988207765402957
2.552351913996972,10:21:11.353427,10:20:05.327241,0,,0.11802349,0.031540707,0.035172105,-0.48368162,0.38443488,-0.78629625,-0.07168448,0.8779555,0.4733448,0.8723035,0.28531337,-0.39709303,,0.056671947,0.018490791,0.028113961,-0.28818303,-0.5637345,0.77405024,-0.069593936,0.8185365,0.57022333,-0.9550431,0.11045945,-0.27512094,,0.07746251,1.3301734,0.45620283,0.9982497,0.036683295,-0.046387494,-0.0016238025,-0.76707876,-0.64155084,-0.05911706,0.6405033,-0.7656766,,-0.07419917,0.27356294,-0.07515584,0.410086,-0.44075558,0.79847604,0.5293727,0.8279414,0.18514203,-0.7426938,0.34676725,0.5728512,,0.008123226,0.45683548,-0.29898173,0.42972004,0.5077476,-0.7466814,-0.6680424,0.7351172,0.11542105,0.60750306,0.44921613,0.6550915,,1.1458991038774327,0.43266610927842813,0.19423738989000003,1.7832032793923953,-0.7292289992481557,-0.46726794853964865,-0.40329649928553535,,-1.2772627900679916,0.34075014260940806,0.20405289777000002,1.2849799736731653,0.734284549739477,-0.3436771090055928,0.8284811034330644,,-0.032535118918739295,-0.08714647121364187,0.07824560327999999,-0.058221254136848435,,-5.468726e-05,-3.5762787e-07,-1.9073486e-06,0.99999994,2.5067478e-05,2.0962209e-05,-2.5056303e-05,0.99999994,1.8775463e-06,-2.0965934e-05,-1.9669533e-06,1.0,848,2.602,0,0,0.0,False,-0.25386068605304013,0.9996898201543258
2.635613593040034,10:21:11.385411,10:20:05.436083,0,,0.11850534,0.031628445,0.03504023,-0.4985311,0.37338802,-0.782335,-0.056758404,0.88648444,0.45926428,0.8650117,0.27336147,-0.42074722,,0.056764185,0.018458217,0.028285861,-0.28102803,-0.5433686,0.7910585,-0.04281956,0.83055574,0.5552869,-0.9587438,0.122178316,-0.2566764,,0.07746251,1.3301734,0.45620283,0.9982497,0.036683295,-0.046387494,-0.0016238025,-0.76707876,-0.64155084,-0.05911706,0.6405033,-0.7656766,,-0.07467105,0.27350855,-0.074978,0.4249179,-0.4290674,0.7970859,0.53764796,0.82802176,0.15910569,-0.72827154,0.36094478,0.5825285,,0.008007799,0.4569182,-0.29911944,0.42212874,0.48539877,-0.76563394,-0.6524173,0.749056,0.11518135,0.6294116,0.4508915,0.6328806,,1.1441383207821096,0.4342956059148895,0.19422961215,1.7790094805227048,-0.7087335242833396,-0.48300048921242494,-0.4023164348887297,,-1.2769847716845195,0.34078103354090494,0.20407882357,1.2973516803387524,0.7609286671937379,-0.3548670427482624,0.8278277271685273,,-0.032535118918739295,-0.08714647121364187,0.07824560327999999,-0.058221254136848435,,-5.468726e-05,-3.5762787e-07,-1.9073486e-06,0.99999994,2.5067478e-05,2.0962209e-05,-2.5056303e-05,0.99999994,1.8775463e-06,-2.0965934e-05,-1.9669533e-06,1.0,860,2.639,0,0,0.0,False,-0.2537415306159976,0.9993518587488699
2.667590972967446,10:21:11.408078,10:20:05.436083,0,,0.11888163,0.03166032,0.03493038,-0.5085396,0.3657935,-0.77947575,-0.04919812,0.89145064,0.4504387,0.85963184,0.26741463,-0.43534172,,0.05683863,0.018455416,0.028396308,-0.27104074,-0.52198195,0.8087469,-0.02178809,0.843309,0.53698707,-0.9623213,0.12792426,-0.2399442,,0.07746251,1.3301734,0.45620283,0.9982497,0.036683295,-0.046387494,-0.0016238025,-0.76707876,-0.64155084,-0.05911706,0.6405033,-0.7656766,,-0.075037576,0.27343336,-0.07485682,0.4350502,-0.42119065,0.7958202,0.54099363,0.8287977,0.1428997,-0.7197619,0.36836508,0.58843005,,0.007917907,0.45698225,-0.29919407,0.41195074,0.46290135,-0.7848687,-0.64118344,0.7592774,0.11127283,0.64744145,0.4574059,0.6095896,,1.1424856559470256,0.4354231249145263,0.19423220473000002,1.7743963017660451,-0.6972560583030426,-0.4913794482412377,-0.40264312302099814,,-1.2767299214996701,0.3406960834792885,0.20415141581000001,1.3025939289258652,0.7844301451533936,-0.37378588596362516,0.8270110068378558,,-0.032535118918739295,-0.08714647121364187,0.07824560327999999,-0.058221254136848435,,-5.468726e-05,-3.5762787e-07,-1.9073486e-06,0.99999994,2.5067478e-05,2.0962209e-05,-2.5056303e-05,0.99999994,1.8775463e-06,-2.0965934e-05,-1.9669533e-06,1.0,868,2.663,0,0,0.0,False,-0.25427773008268684,0.9999312211582232
2.690259565017186,10:21:11.433745,10:20:05.436083,0,,0.11915684,0.031673178,0.034798086,-0.5158443,0.3605908,-0.7770964,-0.03867528,0.8963727,0.44161075,0.85580885,0.25785673,-0.44844285,,0.05687888,0.018451184,0.028428555,-0.26623356,-0.5111982,0.8171877,-0.0129444,0.84960526,0.5272601,-0.96382165,0.12979624,-0.23281077,,0.07746251,1.3301734,0.45620283,0.9982497,0.036683295,-0.046387494,-0.0016238025,-0.76707876,-0.64155084,-0.05911706,0.6405033,-0.7656766,,-0.07530082,0.27333778,-0.07473442,0.44224414,-0.4153863,0.79490525,0.5473869,0.8270849,0.12766439,-0.71048415,0.37866187,0.59315044,,0.007873514,0.45699602,-0.29921675,0.4070701,0.45171562,-0.79388094,-0.63653743,0.7636306,0.10811259,0.655068,0.46132556,0.5983851,,1.1413272460158919,0.4359791616814705,0.19424387134,1.7746059917095298,-0.6848221368243875,-0.502253586138877,-0.4029698111532668,,-1.276614080506557,0.3405802424861751,0.20419678596000002,1.3042714484737414,0.7946778826358016,-0.38418419724437086,0.8268476627717216,,-0.032535118918739295,-0.08714647121364187,0.07824560327999999,-0.058221254136848435,,-5.468726e-05,-3.5762787e-07,-1.9073486e-06,0.99999994,2.5067478e-05,2.0962209e-05,-2.5056303e-05,0.99999994,1.8775463e-06,-2.0965934e-05,-1.9669533e-06,1.0,876,2.689,0,0,0.0,False,-0.25397984149008224,0.9997381003551054
2.715925164986402,10:21:11.459273,10:20:05.436083,0,,0.1193901,0.031669423,0.034642532,-0.5226598,0.35443214,-0.77537376,-0.03309387,0.9003651,0.4338748,0.8518987,0.25242892,-0.45885518,,0.05694226,0.01846774,0.02848339,-0.25513056,-0.49036935,0.83333427,0.00041523576,0.86180043,0.5072472,-0.9669064,0.12976027,-0.21966814,,0.07746251,1.3301734,0.45620283,0.9982497,0.036683295,-0.046387494,-0.0016238025,-0.76707876,-0.64155084,-0.05911706,0.6405033,-0.7656766,,-0.07551969,0.2732183,-0.0746062,0.4491483,-0.40894598,0.79437333,0.5498475,0.827309,0.11501093,-0.7042255,0.38512722,0.59644234,,0.007802059,0.45703715,-0.29923916,0.3960238,0.43065247,-0.81098926,-0.6305907,0.7695527,0.100717515,0.6674732,0.47151574,0.5763266,,1.140091608756016,0.4363575755923075,0.19429053778000002,1.7714606425572619,-0.6767605833382265,-0.5093989936379499,-0.4028064670871325,,-1.2764905167805691,0.34033311503419994,0.20429011884,1.3023842389823808,0.8124406276053089,-0.408878367242476,0.8266843187055872,,-0.032535118918739295,-0.08714647121364187,0.07824560327999999,-0.058221254136848435,,-5.468726e-05,-3.5762787e-07,-1.9073486e-06,0.99999994,2.5067478e-05,2.0962209e-05,-2.5056303e-05,0.99999994,1.8775463e-06,-2.0965934e-05,-1.9669533e-06,1.0,909,2.79,0,0,0.0,False,-0.25320533114930877,0.9998829409574437
2.741457390016876,10:21:11.554739,10:20:05.566738,0,,0.120468654,0.03173606,0.033285514,-0.5508059,0.3235773,-0.76935714,-0.0043773055,0.92065793,0.39034542,0.8346218,0.21837217,-0.5056876,,0.057090573,0.01856047,0.028590858,-0.20989716,-0.44651103,0.86981076,0.025166601,0.88686657,0.4613396,-0.97739947,0.11872396,-0.17491367,,0.07746251,1.3301734,0.45620283,0.9982497,0.036683295,-0.046387494,-0.0016238025,-0.76707876,-0.64155084,-0.05911706,0.6405033,-0.7656766,,-0.0764806,0.27233273,-0.07346531,0.4775389,-0.37610695,0.7940404,0.5637048,0.82437176,0.051459543,-0.67393875,0.42303047,0.6056829,,0.0076358123,0.45715758,-0.299239,0.35190177,0.38795736,-0.85185343,-0.6261267,0.77405024,0.0938699,0.6957948,0.5003352,0.5153001,,1.1331411491692138,0.4363961892566786,0.19504886743000002,1.7622342850439427,-0.6404152744006194,-0.5516146820028447,-0.40198974675646115,,-1.2764364576504497,0.3388812412538457,0.20460382102000002,1.2688338480248569,0.8599901295236821,-0.48457058827236477,0.8260309424410501,,-0.032535118918739295,-0.08714647121364187,0.07824560327999999,-0.058221254136848435,,-5.468726e-05,-3.5762787e-07,-1.9073486e-06,0.99999994,2.5067478e-05,2.0962209e-05,-2.5056303e-05,0.99999994,1.8775463e-06,-2.0965934e-05,-1.9669533e-06,1.0,917,2.815,0,0,0.0,False,-0.25350321974191337,0.9998829409574437
