AlexandreBanks6/ExpertPlaybackApp/resources/Motions/P_10/PC1/Data_PC1_5.csv
Task Time,PC1 Time,PC2 Time,Gaze Calib,s_T_psm1,Tx,Ty,Tz,R00,R01,R02,R10,R11,R12,R20,R21,R22,s_T_psm3,Tx,Ty,Tz,R00,R01,R02,R10,R11,R12,R20,R21,R22,cart_T_ecm,Tx,Ty,Tz,R00,R01,R02,R10,R11,R12,R20,R21,R22,ecm_T_psm1,Tx,Ty,Tz,R00,R01,R02,R10,R11,R12,R20,R21,R22,ecm_T_psm3,Tx,Ty,Tz,R00,R01,R02,R10,R11,R12,R20,R21,R22,psm1_joints,q1,q2,q3,q4,q5,q6,jaw,psm3_joints,q1,q2,q3,q4,q5,q6,jaw,ecm_joints,q1,q2,q3,q4,ecmi_T_ecm,Tx,Ty,Tz,R00,R01,R02,R10,R11,R12,R20,R21,R22,Sample #,Task Duration (s),Collisions (binary),Collisions (increments),Cumulative Collision Time (s),Clutch Press,MTMR Angle,MTML Angle
""
lci_T_si,,,,,-0.061405014,0.027400337,0.2485284,0.99760735,0.0015516733,0.06911746,0.046116903,-0.7597547,-0.64857227,0.051505942,0.65020794,-0.7580084
rci_T_si,,,,,-0.072011076,0.03243643,0.2623404,0.9976547,-0.011777193,0.067427725,0.035187066,-0.75671625,-0.6527958,0.058711756,0.65363735,-0.7545271
ecm_T_lc,,,,,-4.4061628e-05,-0.00034663224,-0.01840835,-0.99912,0.030754527,0.028518902,-0.031987965,-0.99852574,-0.043852776,0.027128186,-0.04472645,0.9986309
ecm_T_rc,,,,,-0.0043358393,0.01870579,-0.007592615,-0.99555075,-0.052743673,-0.078081585,0.04863213,-0.9973746,0.053654674,-0.08070653,0.04961868,0.9955021
cart_T_ecmi,,,,,0.07748984,1.3318874,0.4582016,0.9984689,0.027356012,-0.04807836,-0.00985114,-0.76732504,-0.64118266,-0.05443193,0.64067453,-0.7658807
ecmac_T_ecmrep_psm1,,,,,0.0028397094,-0.24236576,-0.3123762,0.99938005,0.032352094,0.013886033,-0.031258944,0.9968569,-0.072795466,-0.016197473,0.07231628,0.9972502
ecmac_T_ecmrep_psm3,,,,,-0.018767226,-0.44603547,-0.53896165,0.9994355,-0.013331066,-0.030837692,0.013906483,0.9997318,0.01852092,0.030582517,-0.018939309,0.9993528
""
0,09:28:04.651197,09:26:58.597856,0,,0.12935215,0.0066862255,0.030155584,0.75759,0.3001715,-0.57961565,0.5436367,0.20131412,0.8148202,0.36127052,-0.93239987,-0.0106707215,,0.05933536,-0.030223444,0.010199338,0.1376077,0.29765257,0.9447047,0.4972591,-0.84563303,0.19400579,0.85661983,0.44306633,-0.26437607,,0.07745315,1.3318857,0.45819288,0.99846935,0.027392212,-0.04804811,-0.009804035,-0.7673238,-0.6411849,-0.05443193,0.64067453,-0.7658807,,-0.08602005,0.2532928,-0.08177632,-0.78033733,-0.2246111,0.58362955,0.6154733,-0.44112995,0.65314394,0.110753104,0.868881,0.48247233,,0.00664729,0.4092508,-0.31688625,-0.2561887,-0.36138183,-0.89653254,0.93448955,-0.32976252,-0.13411167,-0.24717729,-0.87215817,0.42218897,,1.0389778672337944,0.39104057908635803,0.18120578652000002,3.4567387183423843,0.04181076892822477,-1.0633276830423297,-0.40917688566636945,,-1.180991202057909,0.08416234286329871,0.19872255329000002,-2.2019540965309905,-0.6260684419252481,0.7884695874353362,0.6339383206671377,,-0.03254820888812925,-0.08751299035656068,0.07561312771999999,-0.04775451182011164,,-3.614649e-05,-5.2452087e-06,9.417534e-06,0.99999994,3.6135316e-05,3.022328e-05,-3.6127865e-05,1.0,2.592802e-06,-3.0227005e-05,-2.503395e-06,1.0,34,0.101,0,0,0.0,False,-0.2616653671792948,0.802706600974135
0.11973222997039557,09:28:04.679822,09:26:58.597856,0,,0.1294038,0.006739512,0.030568033,0.7474619,0.33122343,-0.5758398,0.52968276,0.22598743,0.8175365,0.40091968,-0.9160899,-0.006526381,,0.05935163,-0.030230954,0.010218352,0.13731334,0.29833993,0.94453067,0.4949418,-0.8466544,0.19547133,0.8580079,0.44064692,-0.26391786,,0.07745315,1.3318857,0.45819288,0.99846935,0.027392212,-0.04804811,-0.009804035,-0.7673238,-0.6411849,-0.05443193,0.64067453,-0.7658807,,-0.08610368,0.25359043,-0.08205926,-0.77344716,-0.25669903,0.5795559,0.62991804,-0.4131015,0.65768564,0.07058816,0.87375784,0.48121154,,0.0066284407,0.40925696,-0.31690323,-0.25610512,-0.3617216,-0.89641935,0.9338128,-0.33223057,-0.13272725,-0.2498076,-0.87108,0.42286623,,1.0403293454867837,0.3905772151139046,0.18089856579000002,3.4405925926940757,0.0006831824988272023,-1.0646677160697269,-0.40803347720342964,,-1.1809834793250347,0.08406967006880801,0.198721257,-2.200695956870083,-0.6286645354207916,0.7865842693386806,0.6272412139556324,,-0.03254820888812925,-0.08751299035656068,0.07561312771999999,-0.04775451182011164,,-3.614649e-05,-5.2452087e-06,9.417534e-06,0.99999994,3.6135316e-05,3.022328e-05,-3.6127865e-05,1.0,2.592802e-06,-3.0227005e-05,-2.503395e-06,1.0,45,0.135,0,0,0.0,False,-0.26178452261633733,0.7962370540696879
0.148352290969342,09:28:04.711196,09:26:58.686779,0,,0.12936893,0.006746784,0.0309657,0.7344745,0.36157432,-0.5742918,0.5212095,0.24140453,0.8185748,0.43461218,-0.9005486,-0.011150539,,0.05935052,-0.030226469,0.010232002,0.1363067,0.30051923,0.94398546,0.4936275,-0.8467658,0.19829188,0.8589251,0.4389487,-0.2637644,,0.07745315,1.3318857,0.45819288,0.99846935,0.027392212,-0.04804811,-0.009804035,-0.7673238,-0.6411849,-0.05443193,0.64067453,-0.7658807,,-0.086100176,0.25384685,-0.08236525,-0.76320416,-0.2880842,0.578383,0.64502144,-0.3927247,0.6555263,0.038298517,0.8733698,0.4855496,,0.0066276146,0.40926972,-0.31690997,-0.25524515,-0.36363703,-0.8958895,0.93359935,-0.33369178,-0.13054512,-0.25147992,-0.8697229,0.4246645,,1.0417966647328865,0.390005732881212,0.18058745619000002,3.4217204977804685,-0.03251948694417483,-1.0582578867270587,-0.40721675687275805,,-1.180960311126412,0.08405422460305956,0.19871996071000003,-2.2009056468135677,-0.6305774464175076,0.7842235404636835,0.6210341394425297,,-0.03254820888812925,-0.08751299035656068,0.07561312771999999,-0.04775451182011164,,-3.614649e-05,-5.2452087e-06,9.417534e-06,0.99999994,3.6135316e-05,3.022328e-05,-3.6127865e-05,1.0,2.592802e-06,-3.0227005e-05,-2.503395e-06,1.0,57,0.171,0,0,0.0,False,-0.26196325577190027,0.7949817688494218
0.1797242428874597,09:28:04.734949,09:26:58.686779,0,,0.12930396,0.0067246556,0.03125967,0.72426665,0.37986183,-0.57545,0.5171452,0.25275022,0.81772745,0.4560685,-0.88984394,-0.013385206,,0.05931747,-0.030246362,0.010223657,0.13595948,0.300554,0.9440245,0.49329585,-0.8468906,0.19858396,0.8591707,0.438684,-0.26340488,,0.07745315,1.3318857,0.45819288,0.99846935,0.027392212,-0.04804811,-0.009804035,-0.7673238,-0.6411849,-0.05443193,0.64067453,-0.7658807,,-0.08605869,0.2540168,-0.08261131,-0.7547419,-0.30708784,0.57970834,0.6557625,-0.378007,0.6535184,0.018446242,0.87338865,0.48667437,,0.006661418,0.40925288,-0.31692138,-0.2549379,-0.36363426,-0.89597815,0.9335642,-0.33396733,-0.13009128,-0.25192177,-0.8696183,0.42461684,,1.0435342796295868,0.38931068692253173,0.18023227273000003,3.3994933637711084,-0.06531224688788054,-1.0521823110954798,-0.4070534128066239,,-1.1809062519962925,0.08403877913731111,0.19871866442000002,-2.201115336757052,-0.6311239924165695,0.7842608183777664,0.6202174191118583,,-0.03254820888812925,-0.08751299035656068,0.07561312771999999,-0.04775451182011164,,-3.614649e-05,-5.2452087e-06,9.417534e-06,0.99999994,3.6135316e-05,3.022328e-05,-3.6127865e-05,1.0,2.592802e-06,-3.0227005e-05,-2.503395e-06,1.0,65,0.196,0,0,0.0,False,-0.26160578946077395,0.7959473728650113
0.20348798693157732,09:28:04.763310,09:26:58.686779,0,,0.12922725,0.0067299455,0.031692863,0.7064974,0.41013786,-0.57675666,0.50980633,0.2703214,0.81671524,0.49087542,-0.87104136,-0.01810965,,0.059368968,-0.030257612,0.010232866,0.13563612,0.30079263,0.943995,0.49349517,-0.84670377,0.19888502,0.85910714,0.4388811,-0.26328334,,0.07739005,1.3318882,0.45819822,0.99847,0.02744465,-0.048004292,-0.0097358,-0.7673219,-0.6411882,-0.05443193,0.64067453,-0.7658807,,-0.08596263,0.25429195,-0.08294898,-0.7398473,-0.33866158,0.5813211,0.6726221,-0.3539282,0.6498572,-0.014335727,0.87180454,0.48964408,,0.0066648675,0.40924805,-0.31692585,-0.2546458,-0.3638422,-0.8959768,0.93368226,-0.33373606,-0.12983707,-0.25177956,-0.8696201,0.42469746,,1.0448394214853307,0.3887855410870845,0.18002616262,3.3837666180097696,-0.08676417735105468,-1.0489018009995996,-0.4077067890711611,,-1.1808830837976698,0.08400788820581422,0.19871607184,-2.201534716644021,-0.6311239924165695,0.784342497117907,0.6210341394425297,,-0.03254820888812925,-0.08751299035656068,0.07561312771999999,-0.04775451182011164,,-9.9461526e-05,-5.543232e-06,6.7949295e-06,0.99999994,8.847192e-05,7.400662e-05,-8.8468194e-05,0.99999994,6.3180923e-06,-7.400662e-05,-6.2584877e-06,1.0,72,0.217,0,0,0.0,False,-0.260652545964438,0.7963336144712465
0.23183953994885087,09:28:04.785679,09:26:58.686779,0,,0.12907317,0.006787464,0.03209272,0.68948466,0.43719876,-0.57746685,0.49883667,0.2914181,0.8162337,0.5251406,-0.85084224,-0.017162532,,0.059371486,-0.030277029,0.010230899,0.13549468,0.30119607,0.9438867,0.49365097,-0.84652376,0.19926392,0.8590399,0.43895152,-0.26338524,,0.07739005,1.3318882,0.45819822,0.99847,0.02744465,-0.048004292,-0.0097358,-0.7673219,-0.6411882,-0.05443193,0.64067453,-0.7658807,,-0.085840166,0.25459418,-0.08323288,-0.72565114,-0.36710036,0.5819517,0.68632305,-0.32606807,0.6501079,-0.048899,0.87115836,0.48856112,,0.0066625723,0.40923256,-0.3169377,-0.25449556,-0.3642508,-0.89585346,0.93376136,-0.33359718,-0.12962507,-0.25163814,-0.8695023,0.4250223,,1.046916836628497,0.38788970407367446,0.17977079349000002,3.3625879337178324,-0.12242630378983464,-1.0463673186805162,-0.40721675687275816,,-1.1808521928661728,0.0839074926784493,0.19871218297,-2.2017444065875056,-0.6311239924165695,0.7840157821573448,0.6216875157070668,,-0.03254820888812925,-0.08751299035656068,0.07561312771999999,-0.04775451182011164,,-9.9461526e-05,-5.543232e-06,6.7949295e-06,0.99999994,8.847192e-05,7.400662e-05,-8.8468194e-05,0.99999994,6.3180923e-06,-7.400662e-05,-6.2584877e-06,1.0,80,0.241,0,0,0.0,False,-0.26178452261633733,0.7965267352743646
0.2542059449478984,09:28:04.813956,09:26:58.686779,0,,0.12893969,0.0068431497,0.0323534,0.67512566,0.45564994,-0.5801624,0.49368846,0.30531055,0.81428313,0.54815763,-0.8361629,-0.018826276,,0.059375912,-0.0302971,0.010229409,0.1353464,0.30136085,0.94385535,0.49380878,-0.84639233,0.19943127,0.85897267,0.4390919,-0.26337084,,0.07739005,1.3318882,0.45819822,0.99847,0.02744465,-0.048004292,-0.0097358,-0.7673219,-0.6411882,-0.05443193,0.64067453,-0.7658807,,-0.08572728,0.25480685,-0.08340868,-0.71317977,-0.38656536,0.584758,0.69738525,-0.30688658,0.6476685,-0.07091182,0.8697056,0.4884503,,0.00665832,0.40921667,-0.31695014,-0.25433853,-0.36443335,-0.8958238,0.9338424,-0.33342195,-0.12949203,-0.25149608,-0.869493,0.42512536,,1.0484150468060969,0.38729505364235917,0.17962042385000002,3.3447642885216484,-0.14510796275089774,-1.043227549813336,-0.40787013313729537,,-1.1808290246675501,0.08379937441821016,0.19870829410000002,-2.2019540965309905,-0.6311239924165695,0.7839341034172043,0.6218508597732011,,-0.03254820888812925,-0.08751299035656068,0.07561312771999999,-0.04775451182011164,,-9.9461526e-05,-5.543232e-06,6.7949295e-06,0.99999994,8.847192e-05,7.400662e-05,-8.8468194e-05,0.99999994,6.3180923e-06,-7.400662e-05,-6.2584877e-06,1.0,88,0.265,0,0,0.0,False,-0.2616653671792948,0.7976371798922921
0.2824946149485186,09:28:04.826650,09:26:58.827353,0,,0.12876925,0.0068751425,0.0325962,0.6639164,0.46850953,-0.58284956,0.48861367,0.31824702,0.81238866,0.56610185,-0.8241465,-0.017630845,,0.059381634,-0.030319005,0.010229051,0.13504122,0.3016473,0.9438076,0.49405116,-0.8461749,0.19975375,0.85888135,0.43931428,-0.2632977,,0.07739005,1.3318882,0.45819822,0.99847,0.02744465,-0.048004292,-0.0097358,-0.7673219,-0.6411882,-0.05443193,0.64067453,-0.7658807,,-0.08557629,0.25499153,-0.08358791,-0.70344865,-0.4002524,0.58733124,0.7051844,-0.2898673,0.6470641,-0.08874084,0.8693532,0.48615852,,0.0066526225,0.40920016,-0.31696454,-0.25402245,-0.36474764,-0.89578557,0.9339827,-0.33314005,-0.12920558,-0.2512946,-0.8694693,0.42529303,,1.0499673161138159,0.38665406681379855,0.17946875792000003,3.331134442195154,-0.16369052671899764,-1.0427768881359238,-0.40852350940183246,,-1.1808135792018017,0.08367581069222256,0.19870310894,-2.202373476417959,-0.6311239924165695,0.7838524246770637,0.6220142038393354,,-0.03254820888812925,-0.08751299035656068,0.07561312771999999,-0.04775451182011164,,-9.9461526e-05,-5.543232e-06,6.7949295e-06,0.99999994,8.847192e-05,7.400662e-05,-8.8468194e-05,0.99999994,6.3180923e-06,-7.400662e-05,-6.2584877e-06,1.0,96,0.29,0,0,0.0,False,-0.26255903295711036,0.7975888996915126
0.29512810497544706,09:28:04.855191,09:26:58.827353,0,,0.12858519,0.006923467,0.032837152,0.6499242,0.48748368,-0.5830592,0.48329112,0.3269869,0.8121017,0.5865389,-0.8095919,-0.023079902,,0.059390187,-0.03033629,0.01022923,0.13481379,0.30199206,0.9437298,0.49409845,-0.84605294,0.2001526,0.8588898,0.43931228,-0.26327348,,0.07739005,1.3318882,0.45819822,0.99847,0.02744465,-0.048004292,-0.0097358,-0.7673219,-0.6411882,-0.05443193,0.64067453,-0.7658807,,-0.085411474,0.25518838,-0.08375632,-0.69114095,-0.4202601,0.58796734,0.7144776,-0.27479595,0.6434353,-0.10883912,0.86479396,0.49018916,,0.006644051,0.40918705,-0.31697583,-0.25379834,-0.36508808,-0.8957104,0.9340444,-0.33308718,-0.1288952,-0.25129154,-0.8693467,0.42554545,,1.0515968127502773,0.3859049617249988,0.17933524005,3.314359246716392,-0.18459591118311003,-1.034387895325271,-0.4062366924759525,,-1.1808135792018017,0.08356769243198342,0.19870051636000002,-2.202583166361444,-0.6312606289163348,0.7835554488800571,0.6231576123022753,,-0.03254820888812925,-0.08751299035656068,0.07561312771999999,-0.04775451182011164,,-9.9461526e-05,-5.543232e-06,6.7949295e-06,0.99999994,8.847192e-05,7.400662e-05,-8.8468194e-05,0.99999994,6.3180923e-06,-7.400662e-05,-6.2584877e-06,1.0,111,0.335,0,0,0.0,False,-0.26339312101640555,0.7929057202159049
0.32372916594613343,09:28:04.902755,09:26:58.827353,0,,0.12810749,0.0069976,0.03330727,0.6197933,0.5246972,-0.5835658,0.46637568,0.35178697,0.8116277,0.6311495,-0.77520233,-0.026670963,,0.05941049,-0.030382857,0.010226965,0.13487801,0.30092245,0.94406223,0.49410117,-0.84628475,0.19916344,0.8588782,0.4395996,-0.26283133,,0.07739005,1.3318882,0.45819822,0.99847,0.02744465,-0.048004292,-0.0097358,-0.7673219,-0.6411882,-0.05443193,0.64067453,-0.7658807,,-0.084971815,0.25556204,-0.084105276,-0.66471773,-0.4599144,0.58875215,0.73062354,-0.2356161,0.64083874,-0.15601148,0.85613304,0.4926425,,0.006624082,0.40915015,-0.3170045,-0.25386024,-0.36407134,-0.8961066,0.93403214,-0.33295226,-0.12933198,-0.25127465,-0.8698246,0.42457765,,1.0553500609271504,0.38351091453398917,0.17908894495000002,3.2797604060414454,-0.235151416096323,-1.0219958662272135,-0.4083601653356981,,-1.180790411003179,0.08330511951425978,0.19869403491,-2.202373476417959,-0.6313972654161003,0.7844019754450187,0.6177672581198441,,-0.03254820888812925,-0.08751299035656068,0.07561312771999999,-0.04775451182011164,,-9.9461526e-05,-5.543232e-06,6.7949295e-06,0.99999994,8.847192e-05,7.400662e-05,-8.8468194e-05,0.99999994,6.3180923e-06,-7.400662e-05,-6.2584877e-06,1.0,119,0.36,0,0,0.0,False,-0.26255903295711036,0.7924229182081106
0.3712881029350683,09:28:04.925908,09:26:58.827353,0,,0.12791777,0.0070219487,0.033503085,0.6039431,0.5413733,-0.5849509,0.4562424,0.366953,0.81067145,0.65352523,-0.7564789,-0.025378883,,0.05940783,-0.030390635,0.01022464,0.1341364,0.30187464,0.9438639,0.49453032,-0.84578323,0.20022593,0.8587473,0.43991184,-0.2627365,,0.07739005,1.3318882,0.45819822,0.99847,0.02744465,-0.048004292,-0.0097358,-0.7673219,-0.6411882,-0.05443193,0.64067453,-0.7658807,,-0.084797956,0.25571218,-0.08425413,-0.65073955,-0.4779205,0.5900255,0.73747224,-0.21282989,0.64096653,-0.180756,0.85222965,0.49094993,,0.006627008,0.4091432,-0.31700858,-0.25310573,-0.36505622,-0.8959193,0.9343212,-0.33246872,-0.12848508,-0.25096086,-0.8695968,0.42522952,,1.0567247073787622,0.38228300000698745,0.1790046861,3.2631949005061682,-0.2604291685529295,-1.0191078406538776,-0.40721675687275827,,-1.1807749655374307,0.08325106038414022,0.19869273862000003,-2.203421926135382,-0.6313972654161003,0.7840752604844565,0.6187473225166499,,-0.03254820888812925,-0.08751299035656068,0.07561312771999999,-0.04775451182011164,,-9.9461526e-05,-5.543232e-06,6.7949295e-06,0.99999994,8.847192e-05,7.400662e-05,-8.8468194e-05,0.99999994,6.3180923e-06,-7.400662e-05,-6.2584877e-06,1.0,127,0.384,0,0,0.0,False,-0.26196325577190027,0.7886570625473128
0.39439857995603234,09:28:04.952942,09:26:58.827353,0,,0.12761378,0.0070094466,0.033781916,0.5797568,0.5672076,-0.5849422,0.4406597,0.38558212,0.81064504,0.6853472,-0.7277375,-0.026401818,,0.059409156,-0.030396655,0.010224402,0.13413739,0.30201635,0.9438184,0.4945537,-0.8457413,0.20034531,0.85873365,0.4398952,-0.2628089,,0.07739005,1.3318882,0.45819822,0.99847,0.02744465,-0.048004292,-0.0097358,-0.7673219,-0.6411882,-0.05443193,0.64067453,-0.7658807,,-0.08451696,0.25589082,-0.084497936,-0.62922776,-0.50582385,0.5900972,0.74637437,-0.18148121,0.64030457,-0.21678975,0.8433308,0.49172696,,0.006625717,0.40913856,-0.31701243,-0.2531047,-0.36519396,-0.8958635,0.9343285,-0.33246377,-0.12844497,-0.25093484,-0.8695408,0.42535925,,1.058709449727438,0.3801438030008273,0.17886598307,3.2378224173445402,-0.29882402498701827,-1.0100160270334162,-0.40787013313729537,,-1.1807672428045564,0.08322016945264332,0.19869144233000002,-2.203421926135382,-0.6313972654161003,0.7839119030041752,0.6171138818553069,,-0.03254820888812925,-0.08751299035656068,0.07561312771999999,-0.04775451182011164,,-9.9461526e-05,-5.543232e-06,6.7949295e-06,0.99999994,8.847192e-05,7.400662e-05,-8.8468194e-05,0.99999994,6.3180923e-06,-7.400662e-05,-6.2584877e-06,1.0,135,0.409,0,0,0.0,False,-0.2622611443645053,0.7819461146389681
0.4214718509465456,09:28:04.983974,09:26:58.827353,0,,0.12721053,0.0069093555,0.033996254,0.5558567,0.5859793,-0.5896199,0.43548873,0.39889908,0.8069876,0.7080767,-0.7053423,-0.033456802,,0.05940801,-0.030400142,0.010224938,0.13408417,0.3032074,0.943444,0.4944691,-0.84552526,0.20146301,0.85879076,0.43949103,-0.2632983,,0.07739005,1.3318882,0.45819822,0.99847,0.02744465,-0.048004292,-0.0097358,-0.7673219,-0.6411882,-0.05443193,0.64067453,-0.7658807,,-0.084132425,0.25596532,-0.0847532,-0.60722256,-0.5262191,0.5952934,0.7576657,-0.15792625,0.6332472,-0.23921432,0.8355554,0.49459454,,0.0066267597,0.40913656,-0.31701538,-0.2530605,-0.3663143,-0.89541847,0.9343122,-0.3327023,-0.12794454,-0.25103986,-0.86897814,0.42644575,,1.060671023877491,0.377865596802931,0.17870005795000002,3.210353034748068,-0.3234185949447975,-0.999353859484225,-0.4119537347906521,,-1.180751797338808,0.08320472398689487,0.19869014604000002,-2.203421926135382,-0.6315339019158658,0.7826347823254822,0.6094367107469959,,-0.03254820888812925,-0.08751299035656068,0.07561312771999999,-0.04775451182011164,,-9.9461526e-05,-5.543232e-06,6.7949295e-06,0.99999994,8.847192e-05,7.400662e-05,-8.8468194e-05,0.99999994,6.3180923e-06,-7.400662e-05,-6.2584877e-06,1.0,143,0.433,0,0,0.0,False,-0.26178452261633733,0.7820909552413062
0.45250548294279724,09:28:05.003488,09:26:58.827353,0,,0.12694684,0.0068543106,0.034158036,0.54098964,0.60056555,-0.5887708,0.4292606,0.4048344,0.8073687,0.7232324,-0.68951434,-0.03878811,,0.05940745,-0.030394062,0.010232449,0.13350107,0.30328885,0.9435005,0.4938342,-0.8457687,0.20199761,0.85924673,0.4389661,-0.26268548,,0.07739005,1.3318882,0.45819822,0.99847,0.02744465,-0.048004292,-0.0097358,-0.7673219,-0.6411882,-0.05443193,0.64067453,-0.7658807,,-0.08388264,0.2560357,-0.08493035,-0.5936325,-0.5419699,0.59486896,0.7629838,-0.14404237,0.6301646,-0.25584394,0.8279616,0.49902248,,0.0066262535,0.4091462,-0.31701657,-0.25255102,-0.3663211,-0.8955595,0.93422747,-0.33324692,-0.12714368,-0.25186703,-0.86876655,0.4263891,,1.0620225021304803,0.3763828320910799,0.1785898733,3.1939972191562753,-0.3415912494136011,-0.9887008940397696,-0.4049299399468784,,-1.180751797338808,0.08321244671976909,0.19869014604000002,-2.2036316160788667,-0.6324903574142238,0.7825979202499515,0.6064965175565789,,-0.03254820888812925,-0.08751299035656068,0.07561312771999999,-0.04775451182011164,,-9.9461526e-05,-5.543232e-06,6.7949295e-06,0.99999994,8.847192e-05,7.400662e-05,-8.8468194e-05,0.99999994,6.3180923e-06,-7.400662e-05,-6.2584877e-06,1.0,154,0.466,0,0,0.0,False,-0.26285692154971585,0.7832979602607932
0.4720267769880593,09:28:05.027860,09:26:58.827353,0,,0.12652905,0.0067937374,0.034471065,0.51541305,0.6172896,-0.5943928,0.42027977,0.4223851,0.8030912,0.7468024,-0.6637351,-0.041731656,,0.05940464,-0.03039056,0.010235846,0.13277549,0.30396667,0.94338477,0.4939381,-0.8454907,0.20290563,0.85929954,0.4390329,-0.26240116,,0.07739005,1.3318882,0.45819822,0.99847,0.02744465,-0.048004292,-0.0097358,-0.7673219,-0.6411882,-0.05443193,0.64067453,-0.7658807,,-0.08349115,0.25620344,-0.085238256,-0.57004535,-0.5605647,0.6006792,0.7719129,-0.11498126,0.6252438,-0.28142273,0.82008934,0.49825165,,0.0066285813,0.4091513,-0.3170168,-0.25183994,-0.3670003,-0.89548165,0.93440825,-0.33306664,-0.12628484,-0.25190848,-0.86854905,0.42680758,,1.064285262862628,0.3743363078794104,0.17838376319000002,3.165060006955411,-0.36987500486504726,-0.980257882459771,-0.41015695006317543,,-1.1807595200716823,0.08321244671976909,0.19868884975,-2.2044703758528046,-0.6327636304137547,0.7824123623566415,0.608946678548593,,-0.03254820888812925,-0.08751299035656068,0.07561312771999999,-0.04775451182011164,,-9.9461526e-05,-5.543232e-06,6.7949295e-06,0.99999994,8.847192e-05,7.400662e-05,-8.8468194e-05,0.99999994,6.3180923e-06,-7.400662e-05,-6.2584877e-06,1.0,162,0.491,0,0,0.0,False,-0.2618441003348577,0.7807873898202611
0.49634630093351007,09:28:05.055845,09:26:58.827353,0,,0.12622285,0.0067957044,0.034747362,0.494308,0.6306745,-0.5982551,0.41274744,0.43540922,0.80003643,0.76504827,-0.6423927,-0.045083106,,0.05940391,-0.030389294,0.010236084,0.13277662,0.3038165,0.94343305,0.49393293,-0.8455257,0.20277208,0.8593023,0.43906936,-0.26233107,,0.07739005,1.3318882,0.45819822,0.99847,0.02744465,-0.048004292,-0.0097358,-0.7673219,-0.6411882,-0.05443193,0.64067453,-0.7658807,,-0.083207645,0.25639182,-0.085471146,-0.5504879,-0.57550895,0.6047748,0.7784321,-0.09207278,0.62093973,-0.30167308,0.81259584,0.49867958,,0.0066292714,0.40915242,-0.31701615,-0.2518415,-0.36685702,-0.89553994,0.9344064,-0.3330521,-0.12633698,-0.25191385,-0.8686151,0.4266699,,1.0659610958963348,0.37317789794827677,0.17824117129000003,3.141994113172113,-0.39064375282939423,-0.9719803075528145,-0.4083601653356981,,-1.1807595200716823,0.08322016945264332,0.19868884975,-2.204680065796289,-0.6327636304137547,0.7825757198369228,0.6086199904163244,,-0.03254820888812925,-0.08751299035656068,0.07561312771999999,-0.04775451182011164,,-9.9461526e-05,-5.543232e-06,6.7949295e-06,0.99999994,8.847192e-05,7.400662e-05,-8.8468194e-05,0.99999994,6.3180923e-06,-7.400662e-05,-6.2584877e-06,1.0,170,0.515,0,0,0.0,False,-0.26285692154971585,0.7752834469314025
0.5243849119869992,09:28:05.086268,09:26:59.074795,0,,0.12572818,0.0067450553,0.035072505,0.47756946,0.64231837,-0.59946173,0.40664005,0.4432274,0.79886997,0.7788266,-0.6252811,-0.04952064,,0.05940436,-0.030391335,0.010235429,0.1326254,0.30424964,0.94331473,0.49402028,-0.8453712,0.20320292,0.8592754,0.4390669,-0.26242325,,0.07739005,1.3318882,0.45819822,0.99847,0.02744465,-0.048004292,-0.0097358,-0.7673219,-0.6411882,-0.05443193,0.64067453,-0.7658807,,-0.08274041,0.25657833,-0.08578722,-0.534923,-0.58841616,0.6063199,0.7830647,-0.07578789,0.61730534,-0.3172807,0.8049985,0.5013086,,0.006628898,0.4091505,-0.3170171,-0.25168762,-0.36728477,-0.89540786,0.9344651,-0.33298475,-0.12608004,-0.25184986,-0.8684602,0.42702293,,1.0687103887995588,0.3715484013118154,0.17801432054000002,3.122283258484568,-0.4078599517998397,-0.9608004075919852,-0.410156950063175,,-1.1807595200716823,0.08320472398689487,0.19868884975,-2.204680065796289,-0.6327636304137547,0.7822490048763604,0.603066292167759,,-0.03254820888812925,-0.08751299035656068,0.07561312771999999,-0.04775451182011164,,-9.9461526e-05,-5.543232e-06,6.7949295e-06,0.99999994,8.847192e-05,7.400662e-05,-8.8468194e-05,0.99999994,6.3180923e-06,-7.400662e-05,-6.2584877e-06,1.0,178,0.54,0,0,0.0,False,-0.26196325577190027,0.7713244704674871
0.5548069209326059,09:28:05.110293,09:26:59.074795,0,,0.12517495,0.006751463,0.035426617,0.4497447,0.6574696,-0.6045357,0.40212002,0.45531914,0.7943449,0.7975141,-0.6003484,-0.059604436,,0.059401453,-0.030393526,0.01023674,0.1325169,0.30548382,0.94293094,0.49383253,-0.84518844,0.20441607,0.8594001,0.4385615,-0.26285967,,0.07739005,1.3318882,0.45819822,0.99847,0.02744465,-0.048004292,-0.0097358,-0.7673219,-0.6411882,-0.05443193,0.64067453,-0.7658807,,-0.08221675,0.25683,-0.08609371,-0.5086834,-0.6054094,0.61214435,0.792505,-0.0514339,0.6076926,-0.33641782,0.7942506,0.50595355,,0.006631587,0.4091501,-0.31701982,-0.2515988,-0.3684335,-0.89496076,0.9344268,-0.3333211,-0.12547368,-0.2520806,-0.86784434,0.42813733,,1.0716295818260155,0.36992662740822824,0.17781469188000001,3.0891522474140127,-0.42808215376512493,-0.9443922365850552,-0.4099936059970408,,-1.1807363518730596,0.08319700125402064,0.19868755346000003,-2.204680065796289,-0.6330369034132856,0.7809199446210826,0.5976759379853277,,-0.03254820888812925,-0.08751299035656068,0.07561312771999999,-0.04775451182011164,,-9.9461526e-05,-5.543232e-06,6.7949295e-06,0.99999994,8.847192e-05,7.400662e-05,-8.8468194e-05,0.99999994,6.3180923e-06,-7.400662e-05,-6.2584877e-06,1.0,186,0.564,0,0,0.0,False,-0.2629164992682367,0.7682828178183816
0.578824819996953,09:28:05.136353,09:26:59.074795,0,,0.124830045,0.00670512,0.035593674,0.4422413,0.66307676,-0.6039468,0.3984427,0.45803306,0.7946377,0.80353326,-0.59205985,-0.061637044,,0.059400186,-0.030390814,0.01023978,0.1319131,0.30531418,0.94307053,0.49348912,-0.8453336,0.20464498,0.8596902,0.43839988,-0.2621798,,0.07739005,1.3318882,0.45819822,0.99847,0.02744465,-0.048004292,-0.0097358,-0.7673219,-0.6411882,-0.05443193,0.64067453,-0.7658807,,-0.08188634,0.25691408,-0.08627475,-0.5016994,-0.6116351,0.6117191,0.79375213,-0.04437913,0.6066202,-0.34388265,0.7898943,0.50775164,,0.006632417,0.40915424,-0.31702027,-0.25104395,-0.36824316,-0.8951949,0.93443865,-0.3335204,-0.12485387,-0.2525892,-0.8678486,0.4278289,,1.0734675922500811,0.3687450492784719,0.17769024804000003,3.079925889900694,-0.43669025325034766,-0.9374545873923215,-0.4095035737986381,,-1.1807286291401853,0.08318927852114642,0.19868884975,-2.2050994456832584,-0.6337200859121127,0.7813136766592835,0.596695873588522,,-0.03254820888812925,-0.08751299035656068,0.07561312771999999,-0.04775451182011164,,-9.9461526e-05,-5.543232e-06,6.7949295e-06,0.99999994,8.847192e-05,7.400662e-05,-8.8468194e-05,0.99999994,6.3180923e-06,-7.400662e-05,-6.2584877e-06,1.0,197,0.597,0,0,0.0,False,-0.2629164992682367,0.7660619285825261
0.6048574498854578,09:28:05.157288,09:26:59.074795,0,,0.12438266,0.006656572,0.035783723,0.42236763,0.6711955,-0.6091814,0.3972102,0.4670482,0.7899936,0.81475717,-0.5756409,-0.06933981,,0.059400916,-0.03039214,0.0102395415,0.1319119,0.30584934,0.9428973,0.4934942,-0.8452146,0.20512371,0.85968745,0.4382562,-0.26242882,,0.07739005,1.3318882,0.45819822,0.99847,0.02744465,-0.048004292,-0.0097358,-0.7673219,-0.6411882,-0.05443193,0.64067453,-0.7658807,,-0.0814556,0.25701544,-0.0864817,-0.48277867,-0.6209664,0.61751556,0.8007168,-0.02743933,0.59841424,-0.35465094,0.7833568,0.5104654,,0.0066317273,0.4091531,-0.31702092,-0.25104237,-0.36875188,-0.8949859,0.93444055,-0.33358568,-0.124665454,-0.25258386,-0.8676074,0.42832085,,1.0755063937288762,0.36718505723787853,0.17756061904,3.055601856456489,-0.4483043557304101,-0.9266772057358765,-0.408850197534101,,-1.1807286291401853,0.08318155578827219,0.19868884975,-2.2050994456832584,-0.6337200859121127,0.7807419254782995,0.5926122719351652,,-0.03254820888812925,-0.08751299035656068,0.07561312771999999,-0.04775451182011164,,-9.9461526e-05,-5.543232e-06,6.7949295e-06,0.99999994,8.847192e-05,7.400662e-05,-8.8468194e-05,0.99999994,6.3180923e-06,-7.400662e-05,-6.2584877e-06,1.0,205,0.622,0,0,0.0,False,-0.2618441003348577,0.763792759145892
0.6258262969786301,09:28:05.186247,09:26:59.074795,0,,0.12377359,0.0065004528,0.035945475,0.40276518,0.68267655,-0.6096989,0.39392224,0.4719862,0.7887041,0.8261992,-0.55783653,-0.07882199,,0.05939956,-0.030398443,0.010236084,0.13186778,0.3059604,0.94286746,0.49342573,-0.84522045,0.20526429,0.85973346,0.43816748,-0.26242608,,0.07739005,1.3318882,0.45819822,0.99847,0.02744465,-0.048004292,-0.0097358,-0.7673219,-0.6411882,-0.05443193,0.64067453,-0.7658807,,-0.08086212,0.25702262,-0.086744785,-0.46415788,-0.63378316,0.61877,0.80620694,-0.012953744,0.5914918,-0.3668622,0.7734023,0.51697296,,0.006633528,0.4091463,-0.31702304,-0.25100553,-0.36884916,-0.8949562,0.93442744,-0.33366174,-0.12455984,-0.25266883,-0.86753684,0.42841372,,1.078039450111622,0.3644898234647742,0.17740376795,3.0314875129557683,-0.4625145517060159,-0.9096989469021715,-0.4090135416002354,,-1.1806977382086883,0.0831506648567753,0.19869014604000002,-2.2050994456832584,-0.6338567224118782,0.7806083071615744,0.5917955516044938,,-0.03254820888812925,-0.08751299035656068,0.07561312771999999,-0.04775451182011164,,-9.9461526e-05,-5.543232e-06,6.7949295e-06,0.99999994,8.847192e-05,7.400662e-05,-8.8468194e-05,0.99999994,6.3180923e-06,-7.400662e-05,-6.2584877e-06,1.0,213,0.646,0,0,0.0,False,-0.26285692154971585,0.7596889420796376
0.6547864609165117,09:28:05.216116,09:26:59.074795,0,,0.123167895,0.006286636,0.03604549,0.3786803,0.69557166,-0.61055815,0.3895967,0.47859398,0.7868686,0.83953273,-0.5358431,-0.089758396,,0.0594009,-0.03040114,0.0102363825,0.13165332,0.30634877,0.9427713,0.4934168,-0.8451165,0.20571312,0.8597715,0.43809652,-0.26242006,,0.07739005,1.3318882,0.45819822,0.99847,0.02744465,-0.048004292,-0.0097358,-0.7673219,-0.6411882,-0.05443193,0.64067453,-0.7658807,,-0.080267474,0.25694606,-0.08699604,-0.44122383,-0.6483292,0.62047625,0.8122759,0.005392875,0.5832485,-0.38148317,0.76134104,0.5242427,,0.006632155,0.40914443,-0.31702495,-0.25079873,-0.369223,-0.89485997,0.9344679,-0.33367354,-0.12422437,-0.25272462,-0.8673732,0.42871195,,1.0800936970561656,0.36129261205484525,0.17727543524000003,3.002550300754904,-0.47945747767693053,-0.8903289725142571,-0.40917688566636956,,-1.1806977382086883,0.08312749665815262,0.19869014604000002,-2.2053091356267425,-0.6339933589116437,0.780311331364568,0.586078509289794,,-0.03254820888812925,-0.08751299035656068,0.07561312771999999,-0.04775451182011164,,-9.9461526e-05,-5.543232e-06,6.7949295e-06,0.99999994,8.847192e-05,7.400662e-05,-8.8468194e-05,0.99999994,6.3180923e-06,-7.400662e-05,-6.2584877e-06,1.0,221,0.671,0,0,0.0,False,-0.26255903295711036,0.7530262743720724
0.6846519889077172,09:28:05.236603,09:26:59.239528,0,,0.12283079,0.0061525702,0.03610216,0.3619225,0.7036186,-0.6115005,0.38677844,0.4835021,0.7852567,0.8481829,-0.52071726,-0.09715435,,0.0593997,-0.030405551,0.01023674,0.13133053,0.30650795,0.9427645,0.49321976,-0.84514624,0.20606337,0.85993385,0.43792787,-0.2621693,,0.07739005,1.3318882,0.45819822,0.99847,0.02744465,-0.048004292,-0.0097358,-0.7673219,-0.6411882,-0.05443193,0.64067453,-0.7658807,,-0.07993669,0.25689235,-0.08714614,-0.42521623,-0.65751195,0.6219881,0.81625444,0.018330289,0.5774017,-0.39104974,0.7532211,0.5289027,,0.006633274,0.4091416,-0.3170284,-0.2505032,-0.36935666,-0.89488757,0.93446964,-0.33382654,-0.123799436,-0.25301108,-0.8672575,0.42877722,,1.081066761398318,0.35941598796640867,0.17720154671000002,2.9826297561238744,-0.4902517611584003,-0.8776880573356334,-0.4093402297325037,,-1.1806745700100658,0.08309660572665573,0.19869014604000002,-2.205518825570227,-0.63440326841094,0.7802371913749544,0.5803614669750942,,-0.03254820888812925,-0.08751299035656068,0.07561312771999999,-0.04775451182011164,,-9.9461526e-05,-5.543232e-06,6.7949295e-06,0.99999994,8.847192e-05,7.400662e-05,-8.8468194e-05,0.99999994,6.3180923e-06,-7.400662e-05,-6.2584877e-06,1.0,233,0.708,0,0,0.0,False,-0.26255903295711036,0.7498880613214074
0.7051390779670328,09:28:05.276601,09:26:59.239528,0,,0.12198749,0.0057621896,0.036150694,0.32188728,0.72242844,-0.6119523,0.38166565,0.492496,0.7821629,0.8664407,-0.48532957,-0.11719808,,0.059397697,-0.030413076,0.010234058,0.13113642,0.30651698,0.94278866,0.49323326,-0.84511566,0.20615593,0.8599557,0.43798035,-0.26200986,,0.07739005,1.3318882,0.45819822,0.99847,0.02744465,-0.048004292,-0.0097358,-0.7673219,-0.6411882,-0.05443193,0.64067453,-0.7658807,,-0.07910221,0.25665683,-0.087483846,-0.386774,-0.6789941,0.6239975,0.8255109,0.046662595,0.5624538,-0.4110202,0.7326593,0.5424692,,0.0066355956,0.4091346,-0.31703198,-0.25031415,-0.36937296,-0.89493376,0.93451315,-0.3337693,-0.12362535,-0.25303754,-0.86727256,0.42873105,,1.0831596220072328,0.3544657161940308,0.1770472882,2.934401069122434,-0.5132066931189944,-0.8441043188090522,-0.4093402297325037,,-1.1806436790785688,0.0830579920622846,0.19869014604000002,-2.205728515513712,-0.6345399049107054,0.7803486092786508,0.5761145212556029,,-0.03254820888812925,-0.08751299035656068,0.07561312771999999,-0.04775451182011164,,-9.9461526e-05,-5.543232e-06,6.7949295e-06,0.99999994,8.847192e-05,7.400662e-05,-8.8468194e-05,0.99999994,6.3180923e-06,-7.400662e-05,-6.2584877e-06,1.0,244,0.74,0,0,0.0,False,-0.26255903295711036,0.7494535395143922
0.7451128469547257,09:28:05.308092,09:26:59.239528,0,,0.121411726,0.005560726,0.036227763,0.28618655,0.73407745,-0.61581445,0.37625426,0.5049757,0.776809,0.88120914,-0.4540152,-0.13168263,,0.059398025,-0.030420363,0.010230124,0.13084312,0.30691984,0.94269836,0.49342376,-0.84489775,0.20659289,0.8598911,0.4381187,-0.26199064,,0.07739005,1.3318882,0.45819822,0.99847,0.02744465,-0.048004292,-0.0097358,-0.7673219,-0.6411882,-0.05443193,0.64067453,-0.7658807,,-0.07853553,0.25657415,-0.0877076,-0.3523799,-0.69299614,0.6289553,0.8321543,0.07547454,0.54938406,-0.42819116,0.71697974,0.550084,,0.0066358116,0.40912658,-0.31703418,-0.25001383,-0.3697905,-0.8948453,0.9346335,-0.3335563,-0.12328986,-0.25288984,-0.86717653,0.42901227,,1.0844879320615994,0.3514692958388317,0.17696302935000002,2.891624320651591,-0.5315159840875633,-0.8200263008179887,-0.40803347720342953,,-1.1806050654141977,0.08298848746641659,0.19869144233000002,-2.206147895400681,-0.6345399049107054,0.7801852517983696,0.5761145212556029,,-0.03254820888812925,-0.08751299035656068,0.07561312771999999,-0.04775451182011164,,-9.9461526e-05,-5.543232e-06,6.7949295e-06,0.99999994,8.847192e-05,7.400662e-05,-8.8468194e-05,0.99999994,6.3180923e-06,-7.400662e-05,-6.2584877e-06,1.0,252,0.765,0,0,0.0,False,-0.2629164992682367,0.7430805530115041
0.7766135409474373,09:28:05.331849,09:26:59.239528,0,,0.1208314,0.005434096,0.036349773,0.24921425,0.7493514,-0.61348575,0.36580104,0.51370865,0.7760753,0.896706,-0.41782284,-0.14609009,,0.05939485,-0.030439883,0.010223329,0.13088116,0.30706072,0.9426472,0.4935077,-0.8448284,0.20667624,0.8598372,0.4381538,-0.262109,,0.07739005,1.3318882,0.45819822,0.99847,0.02744465,-0.048004292,-0.0097358,-0.7673219,-0.6411882,-0.05443193,0.64067453,-0.7658807,,-0.077967376,0.25657806,-0.0879195,-0.31680596,-0.7110183,0.62776345,0.83538854,0.104266375,0.53968,-0.449177,0.69540024,0.5609444,,0.006639838,0.40910822,-0.31704333,-0.25004345,-0.36993468,-0.8947774,0.93465286,-0.33349586,-0.123306796,-0.2527891,-0.8671383,0.42914897,,1.0859784195063247,0.34881267573009844,0.17690988146000003,2.847379742576356,-0.5535144605497992,-0.7880392750186882,-0.4077067890711612,,-1.1805587290169524,0.08292670560342279,0.19869014604000002,-2.206147895400681,-0.6345399049107054,0.7800218943180885,0.5739910483958572,,-0.03254820888812925,-0.08751299035656068,0.07561312771999999,-0.04775451182011164,,-9.9461526e-05,-5.543232e-06,6.7949295e-06,0.99999994,8.847192e-05,7.400662e-05,-8.8468194e-05,0.99999994,6.3180923e-06,-7.400662e-05,-6.2584877e-06,1.0,260,0.79,0,0,0.0,False,-0.26339312101640555,0.7325071890408026
0.8002843259600922,09:28:05.356039,09:26:59.239528,0,,0.12040649,0.0053768307,0.036434323,0.22229257,0.75857776,-0.61249137,0.35993335,0.51998436,0.77463806,0.90610904,-0.39265245,-0.15744898,,0.059396327,-0.030450493,0.010219932,0.13088997,0.3072742,0.9425764,0.4935526,-0.8447597,0.20684983,0.8598101,0.43813667,-0.2622266,,0.07739005,1.3318882,0.45819822,0.99847,0.02744465,-0.048004292,-0.0097358,-0.7673219,-0.6411882,-0.05443193,0.64067453,-0.7658807,,-0.0775508,0.25660554,-0.08804866,-0.29074392,-0.72215927,0.62765753,0.83792156,0.12450979,0.53139883,-0.4619041,0.6804288,0.5689124,,0.006638815,0.40909815,-0.31704813,-0.2500481,-0.3701432,-0.89468986,0.9346655,-0.33347896,-0.123256534,-0.25273767,-0.86705583,0.42934588,,1.0871445521703327,0.34720634729225974,0.17688395566,2.814458421449286,-0.5662216550279852,-0.7648538477728528,-0.4114637025922494,,-1.1805278380854554,0.08286492374042899,0.19869014604000002,-2.206147895400681,-0.6345399049107054,0.7796951793575262,0.5658238450891433,,-0.03254820888812925,-0.08751299035656068,0.07561312771999999,-0.04775451182011164,,-9.9461526e-05,-5.543232e-06,6.7949295e-06,0.99999994,8.847192e-05,7.400662e-05,-8.8468194e-05,0.99999994,6.3180923e-06,-7.400662e-05,-6.2584877e-06,1.0,268,0.814,0,0,0.0,False,-0.2631548101423209,0.7271963669550621
0.8245772869559005,09:28:05.386170,09:26:59.239528,0,,0.11975586,0.00535883,0.036606595,0.17816824,0.7710941,-0.61128557,0.34747738,0.53189975,0.7722318,0.9206059,-0.34999514,-0.17317018,,0.059399,-0.030471072,0.010217965,0.13035943,0.30756566,0.94255483,0.49340117,-0.8447134,0.20739943,0.85997766,0.43802133,-0.26186964,,0.07739005,1.3318882,0.45819822,0.99847,0.02744465,-0.048004292,-0.0097358,-0.7673219,-0.6411882,-0.05443193,0.64067453,-0.7658807,,-0.07691587,0.25672862,-0.08823584,-0.24797371,-0.737922,0.6276784,0.8392912,0.15995243,0.51962054,-0.4838381,0.6556572,0.57966745,,0.006636367,0.40908173,-0.31706077,-0.24954751,-0.37041506,-0.8947171,0.9347235,-0.33355337,-0.12261387,-0.2530179,-0.8669111,0.42947307,,1.0890057307930208,0.34520615947783556,0.1768658076,2.7601487260867943,-0.587536948991394,-0.7281147933828979,-0.4096669178647723,,-1.1804892244210843,0.08274908274731563,0.19868884975,-2.2065672752876497,-0.6350864509097672,0.7796507785314686,0.5542264163936095,,-0.03254820888812925,-0.08751299035656068,0.07561312771999999,-0.04775451182011164,,-9.9461526e-05,-5.543232e-06,6.7949295e-06,0.99999994,8.847192e-05,7.400662e-05,-8.8468194e-05,0.99999994,6.3180923e-06,-7.400662e-05,-6.2584877e-06,1.0,276,0.839,0,0,0.0,False,-0.26285692154971585,0.7291275749862405
0.8547033399809152,09:28:05.407482,09:26:59.401661,0,,0.11932212,0.0053516626,0.036722243,0.15350454,0.78043526,-0.6060999,0.33740252,0.5351098,0.7744785,0.9287602,-0.32338566,-0.18117914,,0.05940049,-0.030488372,0.010214388,0.13016288,0.30770448,0.9425368,0.49345315,-0.8446343,0.20759773,0.85997754,0.43807632,-0.26177785,,0.07739005,1.3318882,0.45819822,0.99847,0.02744465,-0.048004292,-0.0097358,-0.7673219,-0.6411882,-0.05443193,0.64067453,-0.7658807,,-0.07649262,0.25681493,-0.08835819,-0.22408974,-0.7493091,0.623153,0.83766747,0.17870758,0.5161171,-0.4980934,0.6376515,0.5876253,,0.0066353334,0.40906668,-0.31707013,-0.24935275,-0.37055996,-0.89471143,0.9347797,-0.33347204,-0.122406505,-0.2530023,-0.8668805,0.4295441,,1.0903803772446328,0.34390101762209163,0.17685932615000002,2.7291146144510843,-0.6017471449669998,-0.7016618006928876,-0.4093402297325036,,-1.1804506107567132,0.08265640995282493,0.19868755346000003,-2.2067769652311346,-0.6352230874095326,0.779598838954884,0.5532463519968038,,-0.03254820888812925,-0.08751299035656068,0.07561312771999999,-0.04775451182011164,,-9.9461526e-05,-5.543232e-06,6.7949295e-06,0.99999994,8.847192e-05,7.400662e-05,-8.8468194e-05,0.99999994,6.3180923e-06,-7.400662e-05,-6.2584877e-06,1.0,291,0.884,1,1,0.009,False,-0.2626781883941529,0.7287413333800048
0.8760070248972625,09:28:05.448598,09:26:59.401661,0,,0.11834128,0.005282417,0.03685829,0.09862837,0.7989265,-0.5932864,0.3238578,0.53796756,0.7782718,0.94095063,-0.26890016,-0.20567983,,0.059408024,-0.030520469,0.010209501,0.12986676,0.30781925,0.9425401,0.493739,-0.84443,0.20774876,0.85985816,0.4383893,-0.2616458,,0.07739005,1.3318882,0.45819822,0.99847,0.02744465,-0.048004292,-0.0097358,-0.7673219,-0.6411882,-0.05443193,0.64067453,-0.7658807,,-0.075525984,0.25689024,-0.088570975,-0.1704263,-0.7720141,0.6123309,0.837226,0.21424872,0.5031403,-0.51962245,0.5984077,0.60983664,,0.0066284365,0.40903956,-0.31708822,-0.24904144,-0.37071732,-0.89473295,0.934931,-0.33312064,-0.12220738,-0.25274962,-0.86694825,0.42955595,,1.0932532338738443,0.3410513291915028,0.17685673357,2.6584491034967996,-0.6211495279336923,-0.6392018977477348,-0.40917688566636945,,-1.1804119970923421,0.08247878709671776,0.19868366459000003,-2.207196345118103,-0.6352230874095326,0.7796805176950246,0.5543897604597438,,-0.03254820888812925,-0.08751299035656068,0.07561312771999999,-0.04775451182011164,,-9.9461526e-05,-5.543232e-06,6.7949295e-06,0.99999994,8.847192e-05,7.400662e-05,-8.8468194e-05,0.99999994,6.3180923e-06,-7.400662e-05,-6.2584877e-06,1.0,304,0.925,1,1,0.05,False,-0.262797343831195,0.7235753518966028
0.9171350289834663,09:28:05.489827,09:26:59.401661,0,,0.1173427,0.0051469505,0.036929324,0.043071117,0.8133899,-0.5801221,0.311867,0.54069954,0.78127,0.94914883,-0.21457122,-0.2303811,,0.059418894,-0.03054592,0.0102110505,0.1296958,0.30810794,0.94246924,0.49391222,-0.84425884,0.20803277,0.8597846,0.43851626,-0.26167515,,0.07739005,1.3318882,0.45819822,0.99847,0.02744465,-0.048004292,-0.0097358,-0.7673219,-0.6411882,-0.05443193,0.64067453,-0.7658807,,-0.07453692,0.25687405,-0.08877607,-0.11576023,-0.79069215,0.60117006,0.835522,0.24977422,0.48940352,-0.53712434,0.5589443,0.6317268,,0.0066173486,0.40902135,-0.3171059,-0.24886101,-0.37102044,-0.8946575,0.9350209,-0.33293805,-0.12201702,-0.2525947,-0.86688876,0.42976716,,1.0959793585784454,0.3380703543020521,0.17684765954,2.584638243390247,-0.6353597239092981,-0.5749316483726443,-0.4088501975341011,,-1.1804119970923421,0.0823320551721075,0.19867718314000002,-2.207406035061588,-0.6352230874095326,0.779435481474603,0.5503061588063868,,-0.03254820888812925,-0.08751299035656068,0.07561312771999999,-0.04775451182011164,,-9.9461526e-05,-5.543232e-06,6.7949295e-06,0.99999994,8.847192e-05,7.400662e-05,-8.8468194e-05,0.99999994,6.3180923e-06,-7.400662e-05,-6.2584877e-06,1.0,312,0.949,1,1,0.074,False,-0.26255903295711036,0.724009873703618
0.9583643679507077,09:28:05.516652,09:26:59.401661,0,,0.11658341,0.005003378,0.036963657,0.00154927,0.8206042,-0.57149476,0.30035806,0.5447256,0.7829808,0.953825,-0.17286623,-0.2456313,,0.05942236,-0.030559793,0.010212898,0.12923655,0.3085398,0.9423911,0.49419796,-0.84396577,0.20854253,0.8596895,0.43877655,-0.26155105,,0.07739005,1.3318882,0.45819822,0.99847,0.02744465,-0.048004292,-0.0097358,-0.7673219,-0.6411882,-0.05443193,0.64067453,-0.7658807,,-0.07378358,0.25681785,-0.08894226,-0.074805655,-0.8011423,0.59378046,0.8313575,0.27871966,0.4807911,-0.55068034,0.5296097,0.6451858,,0.0066135996,0.40901232,-0.31711653,-0.24839169,-0.3714838,-0.8945956,0.9352046,-0.33258978,-0.12155809,-0.2523765,-0.866824,0.4300259,,1.0978405372011337,0.33578442537128167,0.17683728922000003,2.5303285480277555,-0.6460173708910025,-0.5298940125217732,-0.40852350940183246,,-1.1804119970923421,0.08224710511049103,0.19867199798000001,-2.2080351048920415,-0.6352230874095326,0.7793538027344624,0.5501428147402525,,-0.03254820888812925,-0.08751299035656068,0.07561312771999999,-0.04775451182011164,,-9.9461526e-05,-5.543232e-06,6.7949295e-06,0.99999994,8.847192e-05,7.400662e-05,-8.8468194e-05,0.99999994,6.3180923e-06,-7.400662e-05,-6.2584877e-06,1.0,320,0.974,1,1,0.099,False,-0.2629164992682367,0.7239615935028385
0.9851862859213725,09:28:05.539992,09:26:59.401661,0,,0.11610705,0.004904777,0.03698787,-0.025296934,0.8256489,-0.5636167,0.291506,0.54538727,0.78586066,0.9562342,-0.14441785,-0.25447828,,0.059424654,-0.030565038,0.010215461,0.12916993,0.30832964,0.94246906,0.494117,-0.8440462,0.2084094,0.8597461,0.43876994,-0.26137635,,0.07739005,1.3318882,0.45819822,0.99847,0.02744465,-0.048004292,-0.0097358,-0.7673219,-0.6411882,-0.05443193,0.64067453,-0.7658807,,-0.0733112,0.25677764,-0.08905396,-0.0482864,-0.80840653,0.5866407,0.82718223,0.2968369,0.47713453,-0.5598553,0.5082979,0.6543663,,0.006610934,0.4090101,-0.31712174,-0.24833414,-0.37127513,-0.89469826,0.9351919,-0.3326318,-0.12154061,-0.2524801,-0.8668973,0.42981735,,1.0989680562007704,0.3343634425224244,0.17682821519000003,2.4940521878049324,-0.6532591053785708,-0.4973615943400396,-0.408850197534101,,-1.1804119970923421,0.08221621417899413,0.19866940540000003,-2.2080351048920415,-0.6353597239092981,0.7795468993782992,0.5499794706741182,,-0.03254820888812925,-0.08751299035656068,0.07561312771999999,-0.04775451182011164,,-9.9461526e-05,-5.543232e-06,6.7949295e-06,0.99999994,8.847192e-05,7.400662e-05,-8.8468194e-05,0.99999994,6.3180923e-06,-7.400662e-05,-6.2584877e-06,1.0,333,1.015,1,1,0.14,False,-0.2620824112089424,0.7246375163137508
1.0085218899184838,09:28:05.581467,09:26:59.401661,0,,0.1152031,0.0046862513,0.036964506,-0.08346258,0.8336393,-0.5459664,0.2811973,0.545315,0.78965783,0.95601344,-0.08761755,-0.2799307,,0.05942189,-0.030568615,0.010216057,0.12872556,0.30879638,0.94237703,0.49436504,-0.843766,0.20895511,0.85967016,0.43898043,-0.26127243,,0.07739005,1.3318882,0.45819822,0.99847,0.02744465,-0.048004292,-0.0097358,-0.7673219,-0.6411882,-0.05443193,0.64067453,-0.7658807,,-0.072409555,0.25663346,-0.08923191,0.009652765,-0.82084334,0.57107186,0.8216276,0.33201936,0.46334782,-0.5699429,0.46473584,0.67763245,,0.0066135693,0.40900823,-0.317125,-0.24788246,-0.37176597,-0.89461964,0.9353603,-0.33233044,-0.1210685,-0.2523002,-0.86680245,0.43011403,,1.1015937853780067,0.33143652676309326,0.17678025246,2.395078534480237,-0.6562651083734105,-0.40530882252452155,-0.4096669178647725,,-1.1804042743594678,0.08219304598037146,0.19866681282,-2.208664174722495,-0.6353597239092981,0.7794652206381587,0.5507961910047897,,-0.03254820888812925,-0.08751299035656068,0.07561312771999999,-0.04775451182011164,,-9.9461526e-05,-5.543232e-06,6.7949295e-06,0.99999994,8.847192e-05,7.400662e-05,-8.8468194e-05,0.99999994,6.3180923e-06,-7.400662e-05,-6.2584877e-06,1.0,346,1.056,1,1,0.181,False,-0.2621419889274632,0.7231408300895876
1.049973300890997,09:28:05.622076,09:26:59.602010,0,,0.11411646,0.004435241,0.036941662,-0.15818226,0.84383816,-0.5127528,0.26711485,0.53649807,0.80051196,0.95059323,-0.010337204,-0.31026632,,0.05941859,-0.030566528,0.010219395,0.12836708,0.3090254,0.9423508,0.49441147,-0.84365076,0.20930994,0.8596971,0.43904075,-0.26108274,,0.07739005,1.3318882,0.45819822,0.99847,0.02744465,-0.048004292,-0.0097358,-0.7673219,-0.6411882,-0.05443193,0.64067453,-0.7658807,,-0.071326025,0.2564725,-0.089442566,0.08448071,-0.8371465,0.5404153,0.81061965,0.3731343,0.4512943,-0.5794469,0.39994562,0.7101301,,0.0066163754,0.40901238,-0.31712624,-0.24753127,-0.37200075,-0.8946193,0.93544674,-0.33222827,-0.12068054,-0.25232458,-0.86674094,0.43022376,,1.1036557550554247,0.3297684164622608,0.17673358602000003,2.3170738755039944,-0.6542155608769288,-0.33044711156826106,-0.408850197534101,,-1.1804042743594678,0.08220076871324568,0.19866422024000002,-2.2090835546094643,-0.6354963604090635,0.7794949598017145,0.5489994062773126,,-0.03254820888812925,-0.08751299035656068,0.07561312771999999,-0.04775451182011164,,-9.9461526e-05,-5.543232e-06,6.7949295e-06,0.99999994,8.847192e-05,7.400662e-05,-8.8468194e-05,0.99999994,6.3180923e-06,-7.400662e-05,-6.2584877e-06,1.0,355,1.085,1,1,0.21,False,-0.26243987752006825,0.7130985483274603
1.0906060569686815,09:28:05.651590,09:26:59.602010,0,,0.11372045,0.0043576956,0.036950767,-0.18368664,0.84460115,-0.5028995,0.26011983,0.5351316,0.8037237,0.94794333,0.01681906,-0.31799412,,0.059417382,-0.030567124,0.010218799,0.1283727,0.30925968,0.9422732,0.49441463,-0.84359777,0.20951615,0.8596944,0.4389776,-0.26119748,,0.07739005,1.3318882,0.45819822,0.99847,0.02744465,-0.048004292,-0.0097358,-0.7673219,-0.6411882,-0.05443193,0.64067453,-0.7658807,,-0.070932426,0.2564356,-0.0895241,0.11007179,-0.84005296,0.53122056,0.8046586,0.38905567,0.44850895,-0.5834456,0.37808296,0.71877986,,0.0066176434,0.40901166,-0.31712636,-0.24753647,-0.3722234,-0.89452523,0.9354466,-0.33225635,-0.12060427,-0.25231996,-0.86663455,0.4304407,,1.1047832740550614,0.32905792503783216,0.17671025280000002,2.282265344885563,-0.653942287877398,-0.2984885237602723,-0.40852350940183235,,-1.1803965516265937,0.08220076871324568,0.19866422024000002,-2.2090835546094643,-0.6354963604090635,0.7792499235812929,0.5455691808884926,,-0.03254820888812925,-0.08751299035656068,0.07561312771999999,-0.04775451182011164,,-9.9461526e-05,-5.543232e-06,6.7949295e-06,0.99999994,8.847192e-05,7.400662e-05,-8.8468194e-05,0.99999994,6.3180923e-06,-7.400662e-05,-6.2584877e-06,1.0,364,1.112,1,1,0.237,False,-0.2623802998015474,0.710346576883031
1.1201289629098028,09:28:05.681670,09:26:59.602010,0,,0.11308773,0.0042343736,0.03699425,-0.22906044,0.84241563,-0.4877163,0.24405769,0.53473616,0.8090074,0.94231987,0.066280514,-0.3280851,,0.059418082,-0.030570418,0.010220706,0.12837039,0.30932873,0.94225085,0.49442473,-0.8435769,0.20957595,0.8596889,0.438969,-0.2612301,,0.07739005,1.3318882,0.45819822,0.99847,0.02744465,-0.048004292,-0.0097358,-0.7673219,-0.6411882,-0.05443193,0.64067453,-0.7658807,,-0.07030586,0.25639525,-0.089676425,0.15564945,-0.8417698,0.51691085,0.7906695,0.41984287,0.44561604,-0.5921275,0.33934578,0.73091006,,0.006616666,0.40901053,-0.31712994,-0.24753334,-0.37229046,-0.8944982,0.9354503,-0.33225402,-0.12058173,-0.2523092,-0.86660665,0.43050316,,1.106551779883259,0.3281852562230448,0.1766584012,2.2181002221792987,-0.654898743375756,-0.24265712757965846,-0.408850197534101,,-1.1803965516265937,0.08218532324749724,0.19866162766,-2.2090835546094643,-0.6354963604090635,0.7791682448411523,0.5372386335156445,,-0.03254820888812925,-0.08751299035656068,0.07561312771999999,-0.04775451182011164,,-9.9461526e-05,-5.543232e-06,6.7949295e-06,0.99999994,8.847192e-05,7.400662e-05,-8.8468194e-05,0.99999994,6.3180923e-06,-7.400662e-05,-6.2584877e-06,1.0,377,1.154,1,1,0.279,False,-0.2620824112089424,0.7110707798947229
1.1501921369927004,09:28:05.720406,09:26:59.602010,0,,0.11228427,0.004047036,0.03700629,-0.28511763,0.84019434,-0.4612822,0.22860613,0.52697873,0.8185551,0.9308312,0.12793246,-0.34232467,,0.059409603,-0.0305731,0.010234296,0.12777479,0.3096285,0.94223344,0.4947303,-0.84328634,0.21002382,0.85960186,0.43931574,-0.26093337,,0.07739005,1.3318882,0.45819822,0.99847,0.02744465,-0.048004292,-0.0097358,-0.7673219,-0.6411882,-0.05443193,0.64067453,-0.7658807,,-0.06950699,0.256293,-0.089855716,0.21234258,-0.8444551,0.4917379,0.7739579,0.45254397,0.4429369,-0.59657335,0.28653008,0.7496671,,0.0066231214,0.40901875,-0.3171423,-0.24693014,-0.37263533,-0.89452136,0.93566686,-0.33183518,-0.12005397,-0.2520973,-0.8666189,0.43060264,,1.109069390800256,0.32710407362065336,0.17657025348000002,2.14261184252487,-0.6476570088881878,-0.1701506859406291,-0.40852350940183246,,-1.1803965516265937,0.08218532324749724,0.19864607218000002,-2.209922314383402,-0.6354963604090635,0.779413281061574,0.5357685369204359,,-0.03254820888812925,-0.08751299035656068,0.07561312771999999,-0.04775451182011164,,-9.9461526e-05,-5.543232e-06,6.7949295e-06,0.99999994,8.847192e-05,7.400662e-05,-8.8468194e-05,0.99999994,6.3180923e-06,-7.400662e-05,-6.2584877e-06,1.0,390,1.195,1,1,0.32,False,-0.26202283349042155,0.7058565182105414
1.188938810955733,09:28:05.758237,09:26:59.602010,0,,0.1115462,0.0038827956,0.037029117,-0.33340356,0.83577454,-0.43626004,0.21588066,0.5181194,0.8276156,0.91773486,0.18174976,-0.3531705,,0.05940716,-0.030575007,0.010248661,0.12776466,0.30954874,0.942261,0.4947189,-0.84330875,0.20996048,0.85960996,0.43932897,-0.2608847,,0.07739005,1.3318882,0.45819822,0.99847,0.02744465,-0.048004292,-0.0097358,-0.7673219,-0.6411882,-0.05443193,0.64067453,-0.7658807,,-0.06877401,0.25621256,-0.09002458,0.26143166,-0.8443388,0.46770233,0.75801176,0.47957626,0.44206873,-0.59755474,0.2389531,0.76539516,,0.006623481,0.40902758,-0.3171541,-0.2469213,-0.37255836,-0.89455587,0.93566525,-0.33183447,-0.12006849,-0.25211194,-0.86665225,0.43052688,,1.1118727428335995,0.32616190020999797,0.17646655028000002,2.076559510327245,-0.6369993619064833,-0.105330416302444,-0.4091768856663695,,-1.1804119970923421,0.08219304598037146,0.19863181299000002,-2.209922314383402,-0.6354963604090635,0.7794949598017145,0.532338311531616,,-0.03254820888812925,-0.08751299035656068,0.07561312771999999,-0.04775451182011164,,-9.9461526e-05,-5.543232e-06,6.7949295e-06,0.99999994,8.847192e-05,7.400662e-05,-8.8468194e-05,0.99999994,6.3180923e-06,-7.400662e-05,-6.2584877e-06,1.0,399,1.224,1,1,0.349,False,-0.26255903295711036,0.68726864091045
1.226756353978999,09:28:05.789811,09:26:59.776374,0,,0.111059405,0.0037755668,0.037059695,-0.36590138,0.8333393,-0.41432086,0.21132928,0.50796306,0.83505297,0.90634197,0.21798879,-0.36197343,,0.059402816,-0.030577779,0.010253429,0.12747127,0.30981338,0.9422137,0.49487972,-0.84313416,0.21028271,0.85956085,0.43947756,-0.2607957,,0.07739005,1.3318882,0.45819822,0.99847,0.02744465,-0.048004292,-0.0097358,-0.7673219,-0.6411882,-0.05443193,0.64067453,-0.7658807,,-0.06829179,0.2561701,-0.090147324,0.29469734,-0.84482497,0.44656947,0.74878573,0.49449447,0.441356,-0.5936947,0.2043184,0.77831906,,0.0066270875,0.40902928,-0.3171599,-0.24662325,-0.37284073,-0.8945204,0.93577504,-0.3316321,-0.11977136,-0.25199604,-0.8666083,0.43068323,,1.1141200580999988,0.3256753680389218,0.17635766192000002,2.034202141743371,-0.6238822579290011,-0.05925981065960967,-0.40868685346796685,,-1.1804042743594678,0.08218532324749724,0.19862533154000003,-2.210341694270371,-0.6354963604090635,0.7794949598017145,0.5169839693149938,,-0.03254820888812925,-0.08751299035656068,0.07561312771999999,-0.04775451182011164,,-9.9461526e-05,-5.543232e-06,6.7949295e-06,0.99999994,8.847192e-05,7.400662e-05,-8.8468194e-05,0.99999994,6.3180923e-06,-7.400662e-05,-6.2584877e-06,1.0,412,1.265,1,1,0.39,False,-0.2611887454311268,0.6851443120761536
1.2583506009541452,09:28:05.822460,09:26:59.776374,0,,0.11061695,0.0036949664,0.03705837,-0.39861083,0.8281445,-0.39406344,0.21156576,0.50111836,0.8391187,0.8923838,0.25111136,-0.3749584,,0.0593967,-0.030581102,0.010266125,0.12717332,0.3101554,0.9421414,0.4950322,-0.84294575,0.21067886,0.8595172,0.43959773,-0.26073718,,0.07739005,1.3318882,0.45819822,0.99847,0.02744465,-0.048004292,-0.0097358,-0.7673219,-0.6411882,-0.05443193,0.64067453,-0.7658807,,-0.067851104,0.25612637,-0.09022568,0.32840478,-0.84229493,0.42742193,0.74168646,0.5101596,0.4354748,-0.5848516,0.17400107,0.79225767,,0.006631319,0.40903622,-0.3171718,-0.2463215,-0.37319562,-0.89445555,0.93588305,-0.331447,-0.11943974,-0.2518902,-0.86652637,0.43090996,,1.1165063825581343,0.32537418145682706,0.17625784759000002,1.9945707424247956,-0.604616511462074,-0.01999994296620672,-0.40852350940183246,,-1.1804042743594678,0.08218532324749724,0.19861107235000003,-2.2107610741573405,-0.6354963604090635,0.7794132810615739,0.5109402388680254,,-0.03254820888812925,-0.08751299035656068,0.07561312771999999,-0.04775451182011164,,-9.9461526e-05,-5.543232e-06,6.7949295e-06,0.99999994,8.847192e-05,7.400662e-05,-8.8468194e-05,0.99999994,6.3180923e-06,-7.400662e-05,-6.2584877e-06,1.0,421,1.293,1,1,0.418,False,-0.26232072208302704,0.679785209789634
1.2909985788865015,09:28:05.860955,09:26:59.776374,0,,0.1101272,0.003676355,0.03701052,-0.4362738,0.82044536,-0.3695057,0.2215778,0.4959573,0.8396008,0.87210554,0.28442147,-0.39816582,,0.059395283,-0.030598536,0.010281742,0.12680764,0.31057492,0.9420525,0.49513698,-0.84275633,0.21118975,0.85951084,0.43966472,-0.26064512,,0.07739005,1.3318882,0.45819822,0.99847,0.02744465,-0.048004292,-0.0097358,-0.7673219,-0.6411882,-0.05443193,0.64067453,-0.7658807,,-0.06735923,0.25610384,-0.09023215,0.3676069,-0.837273,0.40477043,0.7384533,0.5273642,0.4202067,-0.56528914,0.1444332,0.81214976,,0.0066304235,0.4090346,-0.3171952,-0.2459582,-0.37361965,-0.89437854,0.9359891,-0.33130524,-0.11900113,-0.25185114,-0.86639786,0.43119115,,1.119904385022793,0.3252969541280848,0.17616451471000003,1.9547296531627358,-0.571140569019541,0.016902160378651943,-0.4075434450050267,,-1.1803965516265937,0.08210809591875498,0.19859162800000002,-2.2111804540443094,-0.6356329969088289,0.7791979840047081,0.5060399168839971,,-0.03254820888812925,-0.08751299035656068,0.07561312771999999,-0.04775451182011164,,-9.9461526e-05,-5.543232e-06,6.7949295e-06,0.99999994,8.847192e-05,7.400662e-05,-8.8468194e-05,0.99999994,6.3180923e-06,-7.400662e-05,-6.2584877e-06,1.0,434,1.334,1,1,0.459,False,-0.2618441003348577,0.6804128523997668
1.3294918549945578,09:28:05.900219,09:26:59.776374,0,,0.1097012,0.0037427545,0.036957487,-0.46221846,0.8170963,-0.34453967,0.23714736,0.48828283,0.8398457,0.85446763,0.30648547,-0.41946572,,0.05942066,-0.030620322,0.010314882,0.12602878,0.3106377,0.94213635,0.49530983,-0.8425644,0.21155003,0.85952586,0.43998814,-0.26004928,,0.07742713,1.3318858,0.4582004,0.99846965,0.027417086,-0.04802732,-0.0097716665,-0.7673229,-0.6411865,-0.05443193,0.64067453,-0.7658807,,-0.06696194,0.25613874,-0.09017407,0.39496097,-0.8356999,0.3815907,0.74066204,0.5353941,0.40592238,-0.5435307,0.12230622,0.8304309,,0.006567521,0.4090344,-0.3172303,-0.24516873,-0.37375608,-0.8945383,0.9362047,-0.33094192,-0.118314184,-0.25181955,-0.86647785,0.43104878,,1.1232637738230806,0.3252969541280848,0.17613729262000002,1.931873449322923,-0.5380745360763045,0.04360195995646737,-0.40672672467435533,,-1.1803270470307257,0.0819227503297736,0.19855792446,-2.2120192138182473,-0.6360429064081253,0.7796139164559379,0.5062032609501315,,-0.03254820888812925,-0.08751299035656068,0.07561312771999999,-0.04775451182011164,,-6.254017e-05,-1.3113022e-06,4.887581e-06,0.99999994,6.096065e-05,5.09955e-05,-6.096065e-05,0.99999994,4.351139e-06,-5.0991774e-05,-4.261732e-06,1.0,443,1.363,0,1,0.469,False,-0.2612483231496481,0.6804611326005463
1.3687482129316777,09:28:05.922760,09:26:59.776374,0,,0.109509856,0.0037671924,0.03690672,-0.4747273,0.8139504,-0.33484083,0.24292865,0.48684293,0.83902895,0.84594285,0.31696737,-0.42884976,,0.059410594,-0.030654281,0.010328054,0.12592337,0.31066728,0.94214064,0.49550146,-0.84244746,0.21156678,0.8594308,0.44019106,-0.26002,,0.07742713,1.3318858,0.4582004,0.99846965,0.027417086,-0.04802732,-0.0097716665,-0.7673229,-0.6411865,-0.05443193,0.64067453,-0.7658807,,-0.06676704,0.2561345,-0.09013182,0.40813693,-0.8333978,0.3726558,0.740377,0.5409835,0.39897212,-0.53410316,0.11307052,0.8378239,,0.0065754643,0.4090201,-0.31726435,-0.24505004,-0.3738138,-0.8945466,0.9362868,-0.33072087,-0.11828236,-0.25162965,-0.86653733,0.4310401,,1.1247619840006802,0.3251733904020972,0.17614895923,1.9201308124877896,-0.5235910671011678,0.054416673183582454,-0.4075434450050267,,-1.1802420969691092,0.081799186603786,0.19853199866000001,-2.212228903761732,-0.6360429064081253,0.7796955951960785,0.5063666050162656,,-0.03254820888812925,-0.08751299035656068,0.07561312771999999,-0.04775451182011164,,-6.254017e-05,-1.3113022e-06,4.887581e-06,0.99999994,6.096065e-05,5.09955e-05,-6.096065e-05,0.99999994,4.351139e-06,-5.0991774e-05,-4.261732e-06,1.0,456,1.404,0,1,0.469,False,-0.261427056305211,0.6782402433646912
1.3912991479737684,09:28:05.970190,09:26:59.939037,0,,0.1090889,0.0038422644,0.03668198,-0.4954322,0.8082854,-0.31815305,0.25032824,0.4835779,0.8387419,0.8317946,0.3358969,-0.44191694,,0.059385613,-0.03074038,0.010342598,0.12585601,0.31147853,0.94188184,0.49579576,-0.8421065,0.21223387,0.85927093,0.44027022,-0.26041391,,0.07742713,1.3318858,0.4582004,0.99846965,0.027417086,-0.04802732,-0.0097716665,-0.7673229,-0.6411865,-0.05443193,0.64067453,-0.7658807,,-0.06632925,0.2560709,-0.089937784,0.42993587,-0.8292603,0.3570469,0.7381934,0.5505598,0.3898132,-0.5198323,0.095975,0.8488599,,0.006597748,0.40897074,-0.3173373,-0.24495934,-0.37462658,-0.89423144,0.93639416,-0.33049974,-0.11805055,-0.25131837,-0.86627066,0.43175712,,1.1274803859724072,0.3243856716489263,0.17632266209000003,1.8993715080828215,-0.5011826811396356,0.07469650232371478,-0.40656338060822095,,-1.1799795240513855,0.08147483182306858,0.19848403593000002,-2.2124385937052162,-0.6361795429078907,0.7789085469582288,0.49999618643702876,,-0.03254820888812925,-0.08751299035656068,0.07561312771999999,-0.04775451182011164,,-6.254017e-05,-1.3113022e-06,4.887581e-06,0.99999994,6.096065e-05,5.09955e-05,-6.096065e-05,0.99999994,4.351139e-06,-5.0991774e-05,-4.261732e-06,1.0,469,1.445,0,1,0.469,False,-0.2611887454311268,0.6704671310391981
1.4387215949827805,09:28:06.012961,09:26:59.939037,0,,0.10882367,0.003810048,0.03625661,-0.5126377,0.79972327,-0.31248218,0.25281534,0.4884012,0.8351937,0.8205404,0.34915134,-0.45255536,,0.059371635,-0.030790776,0.010353804,0.1253,0.31132883,0.94200534,0.4959156,-0.84201455,0.21231852,0.85928303,0.44055182,-0.2598973,,0.07742713,1.3318858,0.4582004,0.99846965,0.027417086,-0.04802732,-0.0097716665,-0.7673229,-0.6411865,-0.05443193,0.64067453,-0.7658807,,-0.06603157,0.25579113,-0.08964551,0.44798863,-0.8217388,0.3522095,0.7338451,0.56300175,0.38013202,-0.5106638,0.088172406,0.8552474,,0.0066097714,0.40894365,-0.3173818,-0.24441025,-0.37451816,-0.89442706,0.93654203,-0.3302251,-0.11764532,-0.25130197,-0.86642224,0.4314624,,1.1282835501913266,0.3229260751356979,0.17661303105,1.880709103112699,-0.48710912166379516,0.08404853697882664,-0.4070534128066239,,-1.1798327921267753,0.08126631803546451,0.19845551755000002,-2.21306766353567,-0.6365894524071871,0.7794061581495992,0.49411580005619476,,-0.03254820888812925,-0.08751299035656068,0.07561312771999999,-0.04775451182011164,,-6.254017e-05,-1.3113022e-06,4.887581e-06,0.99999994,6.096065e-05,5.09955e-05,-6.096065e-05,0.99999994,4.351139e-06,-5.0991774e-05,-4.261732e-06,1.0,478,1.473,0,1,0.469,False,-0.26148663402373185,0.6647217871464428
1.481491970946081,09:28:06.042693,09:26:59.939037,0,,0.10871227,0.0037341267,0.035820097,-0.52484065,0.7972778,-0.2981445,0.26115042,0.48419335,0.8350791,0.81014955,0.36042288,-0.46233398,,0.059362218,-0.030810073,0.010367513,0.12511963,0.3114134,0.9420014,0.4959525,-0.8419558,0.21246564,0.85928816,0.44060445,-0.2597915,,0.07742713,1.3318858,0.4582004,0.99846965,0.027417086,-0.04802732,-0.0097716665,-0.7673229,-0.6411865,-0.05443193,0.64067453,-0.7658807,,-0.06588661,0.25546348,-0.089362025,0.46102214,-0.8202138,0.3386856,0.7343637,0.56690127,0.37327334,-0.49816522,0.076631114,0.86368924,,0.006617051,0.4089402,-0.317406,-0.24423227,-0.37460914,-0.89443755,0.9365893,-0.33015475,-0.11746638,-0.25129882,-0.8664097,0.43148935,,1.1283221638556977,0.3215514286840859,0.17686451131000003,1.871063365712411,-0.4712592876910041,0.097587971955584,-0.40672672467435533,,-1.1797787329966556,0.08120453617247073,0.19843477691000003,-2.2132773534791546,-0.6367260889069526,0.779435897313155,0.4903588865351063,,-0.03254820888812925,-0.08751299035656068,0.07561312771999999,-0.04775451182011164,,-6.254017e-05,-1.3113022e-06,4.887581e-06,0.99999994,6.096065e-05,5.09955e-05,-6.096065e-05,0.99999994,4.351139e-06,-5.0991774e-05,-4.261732e-06,1.0,491,1.515,0,1,0.469,False,-0.2618441003348577,0.6606662502809684
1.5112224268959835,09:28:06.082641,09:26:59.939037,0,,0.10856086,0.0036185086,0.035246,-0.5388331,0.7933569,-0.2832729,0.27031606,0.48131585,0.833825,0.7978645,0.37271917,-0.47380623,,0.059356555,-0.030813545,0.010383129,0.12481601,0.3117518,0.94192976,0.49610078,-0.8417681,0.21286237,0.8592466,0.44072366,-0.25972652,,0.07742713,1.3318858,0.4582004,0.99846965,0.027417086,-0.04802732,-0.0097716665,-0.7673229,-0.6411865,-0.05443193,0.64067453,-0.7658807,,-0.06569118,0.25502053,-0.08899943,0.47599363,-0.8172905,0.3247558,0.7344214,0.57254404,0.36444277,-0.4837926,0.065035164,0.8727629,,0.0066204215,0.40894902,-0.3174201,-0.2439252,-0.37496027,-0.89437425,0.93669635,-0.32997042,-0.11713,-0.25119793,-0.86632806,0.43171203,,1.1282449365269556,0.3195821318011587,0.17720154671000002,1.8597401087642467,-0.4533599062217314,0.11133474940012783,-0.4072167568727582,,-1.17978645572953,0.08120453617247073,0.19841792514,-2.213696733366124,-0.6367260889069526,0.7793542185730145,0.48333509169133226,,-0.03254820888812925,-0.08751299035656068,0.07561312771999999,-0.04775451182011164,,-6.254017e-05,-1.3113022e-06,4.887581e-06,0.99999994,6.096065e-05,5.09955e-05,-6.096065e-05,0.99999994,4.351139e-06,-5.0991774e-05,-4.261732e-06,1.0,504,1.556,0,1,0.469,False,-0.2618441003348577,0.6518309735383272
1.551175694912672,09:28:06.121375,09:27:00.108445,0,,0.108369544,0.0035544634,0.03466013,-0.55258644,0.78691095,-0.2746255,0.27650675,0.48392853,0.8302753,0.7862518,0.382863,-0.4849987,,0.059355065,-0.030813321,0.010389984,0.12450667,0.31200978,0.9418853,0.49624604,-0.84159935,0.21319082,0.85920763,0.4408633,-0.2596184,,0.07742713,1.3318858,0.4582004,0.99846965,0.027417086,-0.04802732,-0.0097716665,-0.7673229,-0.6411865,-0.05443193,0.64067453,-0.7658807,,-0.065454744,0.25461212,-0.088597886,0.49065578,-0.81164724,0.3169948,0.7325753,0.58122206,0.3542801,-0.47179484,0.058392968,0.87977266,,0.006620922,0.40895402,-0.31742495,-0.24361286,-0.3752348,-0.8943442,0.93680346,-0.32977787,-0.116815455,-0.2511017,-0.8662825,0.4318594,,1.1283607775200688,0.3176591713154768,0.17759561887000003,1.847158712155175,-0.4379199817482366,0.11932756879785392,-0.40721675687275816,,-1.1798019011952783,0.08120453617247073,0.19841144369000002,-2.2141161132530924,-0.6367260889069526,0.7793542185730145,0.4768013290459611,,-0.03254820888812925,-0.08751299035656068,0.07561312771999999,-0.04775451182011164,,-6.254017e-05,-1.3113022e-06,4.887581e-06,0.99999994,6.096065e-05,5.09955e-05,-6.096065e-05,0.99999994,4.351139e-06,-5.0991774e-05,-4.261732e-06,1.0,513,1.583,0,1,0.469,False,-0.26160578946077395,0.6511550507274149
1.5899125809082761,09:28:06.153762,09:27:00.108445,0,,0.108207636,0.0035651624,0.03421791,-0.563098,0.78263146,-0.2653461,0.28282636,0.48421225,0.8279781,0.77648544,0.39118576,-0.4940079,,0.05935341,-0.030812144,0.010394156,0.12435316,0.31221962,0.94183606,0.49631345,-0.8414994,0.21342835,0.8591909,0.44090557,-0.25960195,,0.07742713,1.3318858,0.4582004,0.99846965,0.027417086,-0.04802732,-0.0097716665,-0.7673229,-0.6411865,-0.05443193,0.64067453,-0.7658807,,-0.065258466,0.2543505,-0.08825886,0.5019417,-0.8080344,0.30843952,0.73184156,0.58685005,0.34643176,-0.46093655,0.051840313,0.88591766,,0.0066219615,0.40895793,-0.31742728,-0.24345824,-0.3754481,-0.8942968,0.9368551,-0.32969716,-0.11662896,-0.251059,-0.86622083,0.43200797,,1.1288086960267738,0.31640808858985237,0.17792358024000002,1.838351734528825,-0.4239830587721617,0.12683073159328884,-0.4093402297325037,,-1.1798096239281526,0.08121225890534495,0.19840755482000003,-2.2143258031965773,-0.6367260889069526,0.7792725398328739,0.4766379849798268,,-0.03254820888812925,-0.08751299035656068,0.07561312771999999,-0.04775451182011164,,-6.254017e-05,-1.3113022e-06,4.887581e-06,0.99999994,6.096065e-05,5.09955e-05,-6.096065e-05,0.99999994,4.351139e-06,-5.0991774e-05,-4.261732e-06,1.0,526,1.625,0,1,0.469,False,-0.2618441003348577,0.6475823158697351
1.622299611917697,09:28:06.186742,09:27:00.108445,0,,0.1080322,0.003597796,0.03371787,-0.57570887,0.7762376,-0.25693247,0.2907775,0.48805478,0.8229525,0.7642038,0.3990708,-0.5066901,,0.059345424,-0.030814305,0.01039505,0.12377264,0.312832,0.94170934,0.49663025,-0.84113014,0.21414587,0.85909164,0.44117615,-0.2594708,,0.07742713,1.3318858,0.4582004,0.99846965,0.027417086,-0.04802732,-0.0097716665,-0.7673229,-0.6411865,-0.05443193,0.64067453,-0.7658807,,-0.065044016,0.2540704,-0.08786211,0.5155283,-0.80225784,0.30101982,0.73089474,0.59506696,0.3341978,-0.44723976,0.047725376,0.8931399,,0.0066297394,0.40895778,-0.31743026,-0.24286819,-0.3760912,-0.89418703,0.93706983,-0.32930455,-0.11601142,-0.25082898,-0.8660912,0.4324013,,1.1296273057114417,0.314709087357523,0.17843302221000001,1.8261897178067223,-0.40184794581016037,0.13124268473312314,-0.40787013313729525,,-1.17978645572953,0.08120453617247073,0.19840366595000003,-2.2151645629705152,-0.6367260889069526,0.7791908610927334,0.4712476307973956,,-0.03254820888812925,-0.08751299035656068,0.07561312771999999,-0.04775451182011164,,-6.254017e-05,-1.3113022e-06,4.887581e-06,0.99999994,6.096065e-05,5.09955e-05,-6.096065e-05,0.99999994,4.351139e-06,-5.0991774e-05,-4.261732e-06,1.0,539,1.666,0,1,0.469,False,-0.26154621174225356,0.6414507303707437
1.655276830890216,09:28:06.227905,09:27:00.108445,0,,0.10766655,0.0037114173,0.03291343,-0.5895452,0.76637787,-0.25514945,0.29572,0.4987384,0.81474507,0.75165534,0.4048761,-0.5206623,,0.059345268,-0.030819848,0.010397315,0.123774834,0.31313115,0.94160956,0.49664867,-0.84105283,0.21440656,0.8590807,0.44111118,-0.2596174,,0.07742713,1.3318858,0.4582004,0.99846965,0.027417086,-0.04802732,-0.0097716665,-0.7673229,-0.6411865,-0.05443193,0.64067453,-0.7658807,,-0.0646155,0.25367102,-0.08719084,0.53033924,-0.7928209,0.30029222,0.72749496,0.6074579,0.31897646,-0.43530607,0.049295366,0.8989319,,0.0066295424,0.40895537,-0.31743574,-0.24286869,-0.37637776,-0.89406633,0.93707526,-0.3293227,-0.1159159,-0.25080818,-0.86595976,0.43267646,,1.1303995789988641,0.3128401860019607,0.17900209352000002,1.8144470809715894,-0.39050711632962876,0.13040790896079812,-0.407706789071161,,-1.1797787329966556,0.08118136797384805,0.19839977708,-2.2151645629705152,-0.6367260889069526,0.778864146132171,0.4663473088133672,,-0.03254820888812925,-0.08751299035656068,0.07561312771999999,-0.04775451182011164,,-6.254017e-05,-1.3113022e-06,4.887581e-06,0.99999994,6.096065e-05,5.09955e-05,-6.096065e-05,0.99999994,4.351139e-06,-5.0991774e-05,-4.261732e-06,1.0,548,1.694,0,1,0.469,False,-0.26255903295711036,0.6389884401309915
1.69629432389047,09:28:06.256616,09:27:00.108445,0,,0.10753141,0.0037445128,0.032524347,-0.5964915,0.76158065,-0.2533627,0.29898465,0.5037888,0.810435,0.7448528,0.40766597,-0.52820677,,0.059345275,-0.030818045,0.010399401,0.123465315,0.31315812,0.9416413,0.49679345,-0.8409362,0.21452887,0.8590416,0.4413145,-0.25940138,,0.07742713,1.3318858,0.4582004,0.99846965,0.027417086,-0.04802732,-0.0097716665,-0.7673229,-0.6411865,-0.05443193,0.64067453,-0.7658807,,-0.06444995,0.25345898,-0.086877175,0.5378192,-0.78822744,0.29907867,0.7260824,0.61335,0.31081533,-0.42843306,0.0499933,0.90218943,,0.006629243,0.4089581,-0.31743598,-0.24255615,-0.3764329,-0.89412796,0.93718195,-0.32910132,-0.115682185,-0.2507121,-0.86601996,0.43261167,,1.1306621519165878,0.3117821715981919,0.17932098086,1.8081563826670535,-0.3817623803446406,0.12989314107561264,-0.4078701331372953,,-1.1797941784624042,0.08118136797384805,0.19839848079000003,-2.215583942857484,-0.6367260889069526,0.7791091823525929,0.46520390035042725,,-0.03254820888812925,-0.08751299035656068,0.07561312771999999,-0.04775451182011164,,-6.254017e-05,-1.3113022e-06,4.887581e-06,0.99999994,6.096065e-05,5.09955e-05,-6.096065e-05,0.99999994,4.351139e-06,-5.0991774e-05,-4.261732e-06,1.0,561,1.736,0,1,0.469,False,-0.2620824112089424,0.6372503529029308
1.7251550999935716,09:28:06.296464,09:27:00.279781,0,,0.10731279,0.0037658215,0.03165303,-0.6103792,0.75354403,-0.2441484,0.30951434,0.510613,0.80216897,0.7291349,0.41405973,-0.5449004,,0.05934407,-0.030822247,0.010402501,0.12337534,0.31339917,0.9415728,0.49698067,-0.8407745,0.21472886,0.8589461,0.44145143,-0.25948423,,0.07742713,1.3318858,0.4582004,0.99846965,0.027417086,-0.04802732,-0.0097716665,-0.7673229,-0.6411865,-0.05443193,0.64067453,-0.7658807,,-0.064163305,0.25293928,-0.0862025,0.5529648,-0.7806777,0.29115686,0.7250453,0.6230256,0.29351053,-0.41053528,0.04880092,0.9105379,,0.0066299867,0.4089573,-0.3174412,-0.24245271,-0.37669033,-0.89404756,0.93725914,-0.32891405,-0.11558924,-0.25052345,-0.8659792,0.43280256,,1.130808883841198,0.30941129260580497,0.17999245908000003,1.797671885492827,-0.3604470863812319,0.13178813077214366,-0.4078701331372953,,-1.1797941784624042,0.08116592250809959,0.19839329563000002,-2.2157936328009686,-0.6365894524071871,0.7789977644488963,0.4635704596890845,,-0.03254820888812925,-0.08751299035656068,0.07561312771999999,-0.04775451182011164,,-6.254017e-05,-1.3113022e-06,4.887581e-06,0.99999994,6.096065e-05,5.09955e-05,-6.096065e-05,0.99999994,4.351139e-06,-5.0991774e-05,-4.261732e-06,1.0,574,1.777,0,1,0.469,False,-0.26154621174225356,0.6362364686865623
1.7649842479731888,09:28:06.345486,09:27:00.279781,0,,0.10699543,0.003787592,0.030571088,-0.62317294,0.74257356,-0.24543798,0.31470925,0.5253915,0.7905199,0.71597016,0.41538882,-0.5611048,,0.05934517,-0.030836344,0.010405719,0.12301532,0.313591,0.9415561,0.49708706,-0.84063375,0.21503323,0.8589362,0.44158316,-0.2592929,,0.07742713,1.3318858,0.4582004,0.99846965,0.027417086,-0.04802732,-0.0097716665,-0.7673229,-0.6411865,-0.05443193,0.64067453,-0.7658807,,-0.063761644,0.25229236,-0.08537065,0.5667864,-0.7697562,0.29364702,0.72140896,0.6358467,0.27435032,-0.39789736,0.056341574,0.9156983,,0.006628372,0.40894935,-0.3174532,-0.24209449,-0.37689838,-0.894057,0.93736327,-0.3287407,-0.11523724,-0.25048018,-0.8659545,0.432877,,1.1306621519165878,0.30617546753150493,0.18086875112,1.785509868770725,-0.34528043490726806,0.1252199340118208,-0.40705341280662394,,-1.1797787329966556,0.08108869517935735,0.19838681418,-2.216213012687938,-0.6367260889069526,0.7790275036124522,0.46210036309387603,,-0.03254820888812925,-0.08751299035656068,0.07561312771999999,-0.04775451182011164,,-6.254017e-05,-1.3113022e-06,4.887581e-06,0.99999994,6.096065e-05,5.09955e-05,-6.096065e-05,0.99999994,4.351139e-06,-5.0991774e-05,-4.261732e-06,1.0,583,1.804,0,1,0.469,False,-0.26154621174225356,0.6354639854740909
1.8139811299042776,09:28:06.373216,09:27:00.279781,0,,0.10682986,0.0037916154,0.029820949,-0.62984514,0.7390799,-0.23886375,0.32496998,0.53006727,0.7832133,0.7054709,0.41567945,-0.5740392,,0.05934398,-0.030853495,0.010409176,0.12287718,0.31377417,0.94151306,0.49722582,-0.8405043,0.21521828,0.85887563,0.4416994,-0.25929546,,0.07742713,1.3318858,0.4582004,0.99846965,0.027417086,-0.04802732,-0.0097716665,-0.7673229,-0.6411865,-0.05443193,0.64067453,-0.7658807,,-0.063537516,0.25183278,-0.084797315,0.57432663,-0.76626784,0.28806695,0.7231103,0.6398227,0.26026592,-0.38374516,0.058826543,0.9215634,,0.0066289767,0.40893954,-0.31746775,-0.24194854,-0.3770957,-0.8940133,0.9374344,-0.32858524,-0.115102105,-0.25035506,-0.8659276,0.4330032,,1.1305385881906003,0.30402082505959627,0.18145208162,1.7827838995054262,-0.3298405104337732,0.12373801955324157,-0.40836016533569813,,-1.1797478420651588,0.08101146785061511,0.19837774015,-2.2164227026314225,-0.6367260889069526,0.7789458248723117,0.4619370190277417,,-0.03254820888812925,-0.08751299035656068,0.07561312771999999,-0.04775451182011164,,-6.254017e-05,-1.3113022e-06,4.887581e-06,0.99999994,6.096065e-05,5.09955e-05,-6.096065e-05,0.99999994,4.351139e-06,-5.0991774e-05,-4.261732e-06,1.0,596,1.846,0,1,0.469,False,-0.26249945523859,0.6355122656748704
1.8417560399975628,09:28:06.407988,09:27:00.279781,0,,0.10666126,0.0037762672,0.028847516,-0.6375684,0.7360291,-0.22752479,0.3427409,0.53549397,0.7718644,0.68995273,0.41413426,-0.5936815,,0.059349135,-0.030874133,0.010414362,0.122505724,0.31401968,0.9414796,0.49735442,-0.8403383,0.2155692,0.8588543,0.44184077,-0.25912538,,0.07742713,1.3318858,0.4582004,0.99846965,0.027417086,-0.04802732,-0.0097716665,-0.7673229,-0.6411865,-0.05443193,0.64067453,-0.7658807,,-0.06329291,0.25121835,-0.08406323,0.5833554,-0.7630719,0.27824047,0.72755617,0.64321274,0.23861977,-0.36105186,0.06323545,0.9303993,,0.006623059,0.4089278,-0.3174852,-0.2415773,-0.37735817,-0.8940029,0.9375477,-0.32839224,-0.11472976,-0.2502894,-0.86588645,0.43312338,,1.130322351670122,0.301294700354995,0.18218578176000003,1.782364519618457,-0.3057924864750557,0.12054589527092444,-0.4068900687404896,,-1.1797401193322845,0.08089562685750173,0.19836866612,-2.2168420825183914,-0.6368627254067178,0.778893885295727,0.46063026649866745,,-0.03254820888812925,-0.08751299035656068,0.07561312771999999,-0.04775451182011164,,-6.254017e-05,-1.3113022e-06,4.887581e-06,0.99999994,6.096065e-05,5.09955e-05,-6.096065e-05,0.99999994,4.351139e-06,-5.0991774e-05,-4.261732e-06,1.0,609,1.887,0,1,0.469,False,-0.2620824112089424,0.6327120140296616
1.87652672897093,09:28:06.455384,09:27:00.279781,0,,0.106450155,0.0037442744,0.027919158,-0.64068425,0.7339511,-0.22547576,0.3553021,0.5437341,0.7603378,0.6806495,0.40702435,-0.60913634,,0.05935234,-0.03089267,0.010423243,0.12238033,0.31389964,0.94153595,0.49721855,-0.8404209,0.21556059,0.85895085,0.44176894,-0.25892776,,0.07742713,1.3318858,0.4582004,0.99846965,0.027417086,-0.04802732,-0.0097716665,-0.7673229,-0.6411865,-0.05443193,0.64067453,-0.7658807,,-0.06300959,0.2506211,-0.08337735,0.5872702,-0.7603906,0.2773442,0.73163766,0.64526063,0.21987511,-0.34615025,0.07378936,0.93527275,,0.00661854,0.40892032,-0.31750414,-0.24146752,-0.37722945,-0.8940869,0.93752885,-0.32848948,-0.11460503,-0.25046575,-0.86590564,0.432983,,1.1299284922935364,0.2983755073285382,0.18290781529000003,1.7842517291098179,-0.29103574450038816,0.11161655379705232,-0.4081968212695638,,-1.1797246738665361,0.08080295406301105,0.19835699951000002,-2.2168420825183914,-0.6371359984062488,0.7789533636228387,0.4576900733082505,,-0.03254820888812925,-0.08751299035656068,0.07561312771999999,-0.04775451182011164,,-6.254017e-05,-1.3113022e-06,4.887581e-06,0.99999994,6.096065e-05,5.09955e-05,-6.096065e-05,0.99999994,4.351139e-06,-5.0991774e-05,-4.261732e-06,1.0,618,1.915,0,1,0.469,False,-0.26249945523859,0.6323257724234259
1.9239221059251577,09:28:06.478306,09:27:00.454942,0,,0.106332324,0.0037083775,0.027430609,-0.64228964,0.7327456,-0.22482824,0.3606531,0.54776,0.7549094,0.6763083,0.4037853,-0.61608773,,0.059346758,-0.030899927,0.010425925,0.12194518,0.31436723,0.9414364,0.497474,-0.840131,0.21610075,0.8588648,0.44198787,-0.25883946,,0.07742713,1.3318858,0.4582004,0.99846965,0.027417086,-0.04802732,-0.0097716665,-0.7673229,-0.6411865,-0.05443193,0.64067453,-0.7658807,,-0.062853895,0.2502923,-0.08302881,0.58924484,-0.75890946,0.27721286,0.7331519,0.6464168,0.21126658,-0.33952725,0.07875141,0.9372937,,0.0066236435,0.40891755,-0.31751168,-0.24102345,-0.37772226,-0.8939987,0.93769467,-0.32817546,-0.11414698,-0.25027254,-0.8658099,0.43328613,,1.1296427511771903,0.2967460106920768,0.18328244310000003,1.7846711089967866,-0.28461382901141247,0.10768677216556954,-0.4095035737986381,,-1.1797015056679134,0.08077206313151415,0.19835051806,-2.2174711523488453,-0.6371359984062488,0.7788716848826982,0.4575267292421162,,-0.03254820888812925,-0.08751299035656068,0.07561312771999999,-0.04775451182011164,,-6.254017e-05,-1.3113022e-06,4.887581e-06,0.99999994,6.096065e-05,5.09955e-05,-6.096065e-05,0.99999994,4.351139e-06,-5.0991774e-05,-4.261732e-06,1.0,631,1.957,0,1,0.469,False,-0.26243987752006825,0.6312636080062779
1.9468356259167194,09:28:06.520296,09:27:00.454942,0,,0.10612571,0.0035816878,0.026538849,-0.64387596,0.7318195,-0.22330195,0.37209415,0.55450684,0.7443574,0.66855764,0.39618436,-0.6293396,,0.059318513,-0.030915871,0.010433257,0.121685885,0.31449527,0.94142723,0.49758384,-0.84001446,0.21630093,0.85883796,0.4421184,-0.2587057,,0.07742713,1.3318858,0.4582004,0.99846965,0.027417086,-0.04802732,-0.0097716665,-0.7673229,-0.6411865,-0.05443193,0.64067453,-0.7658807,,-0.06257851,0.2496441,-0.082430474,0.5915059,-0.7573469,0.27667022,0.7372665,0.6469437,0.19468425,-0.32643357,0.0888228,0.94103754,,0.006650493,0.40891382,-0.31753093,-0.24076253,-0.37786704,-0.8940078,0.93777996,-0.3280141,-0.11391015,-0.25020427,-0.8658079,0.43332964,,1.1289708734171326,0.29354107654927364,0.18393188439000002,1.7876067682055703,-0.2724531805322883,0.09981254724010202,-0.4090135416002353,,-1.1795624964761773,0.08076434039863992,0.19833107371000003,-2.217890532235814,-0.6372726349060143,0.7790647815265351,0.4576900733082505,,-0.03254820888812925,-0.08751299035656068,0.07561312771999999,-0.04775451182011164,,-6.254017e-05,-1.3113022e-06,4.887581e-06,0.99999994,6.096065e-05,5.09955e-05,-6.096065e-05,0.99999994,4.351139e-06,-5.0991774e-05,-4.261732e-06,1.0,644,1.998,0,1,0.469,False,-0.26160578946077395,0.6303945643922475
1.9888360259355977,09:28:06.557514,09:27:00.454942,0,,0.105910316,0.0033895075,0.025742888,-0.6420357,0.7334381,-0.22329023,0.38302302,0.559144,0.7352899,0.66414094,0.38655692,-0.6399143,,0.05930323,-0.030925006,0.0104320645,0.12159761,0.31450695,0.94143474,0.4976983,-0.8399423,0.21631747,0.85878414,0.44224697,-0.25866464,,0.07742713,1.3318858,0.4582004,0.99846965,0.027417086,-0.04802732,-0.0097716665,-0.7673229,-0.6411865,-0.05443193,0.64067453,-0.7658807,,-0.062302295,0.2490054,-0.08194812,0.5900855,-0.7581744,0.27743575,0.7429187,0.6444455,0.18100227,-0.3160235,0.0993054,0.9435399,,0.0066657537,0.40890795,-0.31753805,-0.24066702,-0.3778967,-0.894021,0.9378334,-0.3278748,-0.11387067,-0.2500956,-0.86584765,0.4333128,,1.1282372137940813,0.29021257868048284,0.18447891877000003,1.7938974665101057,-0.2639817175468309,0.09200617106937772,-0.4101569500631752,,-1.1794775464145608,0.0807566176657657,0.19832459226000002,-2.2181002221792987,-0.6372726349060143,0.7792281390068163,0.4557299445146391,,-0.03254820888812925,-0.08751299035656068,0.07561312771999999,-0.04775451182011164,,-6.254017e-05,-1.3113022e-06,4.887581e-06,0.99999994,6.096065e-05,5.09955e-05,-6.096065e-05,0.99999994,4.351139e-06,-5.0991774e-05,-4.261732e-06,1.0,653,2.026,0,1,0.469,False,-0.26255903295711036,0.6288978781680843
2.0260509829968214,09:28:06.589208,09:27:00.454942,0,,0.10574189,0.0032369047,0.025200695,-0.6362852,0.7375688,-0.22612692,0.39342606,0.5623758,0.727289,0.6635939,0.37379882,-0.64801025,,0.059291914,-0.030928358,0.010437131,0.121328555,0.314792,0.9413741,0.49785894,-0.83976215,0.21664706,0.858729,0.44238624,-0.25860924,,0.07742713,1.3318858,0.4582004,0.99846965,0.027417086,-0.04802732,-0.0097716665,-0.7673229,-0.6411865,-0.05443193,0.64067453,-0.7658807,,-0.062092643,0.24855444,-0.0816346,0.58445925,-0.7612683,0.28085217,0.750412,0.6387795,0.16983095,-0.30868953,0.11149557,0.94460547,,0.0066762124,0.40891013,-0.31754524,-0.24039216,-0.3781979,-0.8939675,0.9379366,-0.32767692,-0.11359014,-0.24997297,-0.8657911,0.43349662,,1.1277661270887536,0.2877181359621083,0.18484576884,1.8041722737408477,-0.25919944005504053,0.08198063892946086,-0.40803347720342953,,-1.1794389327501897,0.08076434039863992,0.19831551823000002,-2.2185196020662676,-0.6372726349060143,0.7792281390068163,0.4554032563823705,,-0.03254820888812925,-0.08751299035656068,0.07561312771999999,-0.04775451182011164,,-6.254017e-05,-1.3113022e-06,4.887581e-06,0.99999994,6.096065e-05,5.09955e-05,-6.096065e-05,0.99999994,4.351139e-06,-5.0991774e-05,-4.261732e-06,1.0,666,2.068,0,1,0.469,False,-0.26243987752006825,0.6278357137509367
2.0577452229335904,09:28:06.626463,09:27:00.454942,0,,0.10544817,0.0030603707,0.024595782,-0.62768155,0.7436117,-0.23034173,0.40448618,0.5643471,0.7196549,0.66513646,0.358544,-0.65501106,,0.05928667,-0.030928954,0.010439575,0.121191755,0.3148579,0.9413698,0.49793512,-0.8396915,0.21674572,0.8587042,0.44247335,-0.2585425,,0.07742713,1.3318858,0.4582004,0.99846965,0.027417086,-0.04802732,-0.0097716665,-0.7673229,-0.6411865,-0.05443193,0.64067453,-0.7658807,,-0.0617533,0.24805114,-0.08129563,0.5758284,-0.76607966,0.28555843,0.7595984,0.63048273,0.15969297,-0.3023772,0.12495397,0.94496274,,0.006681052,0.40891188,-0.3175479,-0.24025291,-0.37827522,-0.8939723,0.9379873,-0.32757246,-0.11347291,-0.2499167,-0.8657968,0.43351758,,1.127642563362766,0.2845595382165505,0.18527095196,1.8173827401803726,-0.2560568005604354,0.07157686809094918,-0.407706789071161,,-1.1794234872844414,0.08077206313151415,0.19831162936000002,-2.218729292009752,-0.6372726349060143,0.7793098177469567,0.4536064716548935,,-0.03254820888812925,-0.08751299035656068,0.07561312771999999,-0.04775451182011164,,-6.254017e-05,-1.3113022e-06,4.887581e-06,0.99999994,6.096065e-05,5.09955e-05,-6.096065e-05,0.99999994,4.351139e-06,-5.0991774e-05,-4.261732e-06,1.0,675,2.095,0,1,0.469,False,-0.26202283349042155,0.6275460325462596
2.094959534937516,09:28:06.657441,09:27:00.454942,0,,0.10521431,0.0029383749,0.024184346,-0.61541486,0.7531521,-0.2324355,0.41881198,0.56227833,0.7130495,0.667728,0.34147435,-0.6614637,,0.05928564,-0.030930445,0.010441542,0.12104134,0.31498593,0.9413462,0.49801517,-0.83960295,0.21690494,0.858679,0.44255042,-0.2584945,,0.07742713,1.3318858,0.4582004,0.99846965,0.027417086,-0.04802732,-0.0097716665,-0.7673229,-0.6411865,-0.05443193,0.64067453,-0.7658807,,-0.06148853,0.24770886,-0.08106854,0.5634831,-0.77425927,0.28811336,0.771819,0.6177491,0.15060389,-0.2945882,0.1375086,0.9456792,,0.0066817836,0.40891224,-0.31755045,-0.2401001,-0.37841254,-0.8939552,0.93804187,-0.32746807,-0.113323264,-0.24985884,-0.8657763,0.4335919,,1.12785107715037,0.28221955015566047,0.18556002463000001,1.8358354552070106,-0.25195770556747216,0.06161835302867094,-0.40983026193090666,,-1.1794234872844414,0.08076434039863992,0.19830903678000003,-2.2189389819532366,-0.6372726349060143,0.7793098177469567,0.4536064716548935,,-0.03254820888812925,-0.08751299035656068,0.07561312771999999,-0.04775451182011164,,-6.254017e-05,-1.3113022e-06,4.887581e-06,0.99999994,6.096065e-05,5.09955e-05,-6.096065e-05,0.99999994,4.351139e-06,-5.0991774e-05,-4.261732e-06,1.0,679,2.109,0,1,0.469,False,-0.26196325577190027,0.6279805543532748
2.1259806209709495,09:28:06.685489,09:27:00.656961,0,,0.104891226,0.0028318614,0.023760378,-0.60678726,0.75863093,-0.23725133,0.42701867,0.5628706,0.7076946,0.67042065,0.3281092,-0.6654924,,0.059283882,-0.030930743,0.010443747,0.120892085,0.31519473,0.9412955,0.4980901,-0.8394984,0.21713725,0.8586565,0.44260004,-0.25848413,,0.07742713,1.3318858,0.4582004,0.99846965,0.027417086,-0.04802732,-0.0097716665,-0.7673229,-0.6411865,-0.05443193,0.64067453,-0.7658807,,-0.061133735,0.24737476,-0.08082776,0.55472046,-0.77866536,0.2931987,0.77950513,0.6095889,0.14412858,-0.2909586,0.14859885,0.9451251,,0.0066832034,0.40891373,-0.31755242,-0.23994884,-0.37862587,-0.89390546,0.9380945,-0.32737896,-0.11314456,-0.24980639,-0.86571676,0.43374103,,1.128329886588572,0.27970193923866327,0.18588668971000002,1.847578092042144,-0.25086461356934864,0.05313088696602733,-0.4103202941293095,,-1.1794234872844414,0.08076434039863992,0.19830644420000001,-2.2191486718967215,-0.6372726349060143,0.7792281390068162,0.4534431275887592,,-0.03254820888812925,-0.08751299035656068,0.07561312771999999,-0.04775451182011164,,-6.254017e-05,-1.3113022e-06,4.887581e-06,0.99999994,6.096065e-05,5.09955e-05,-6.096065e-05,0.99999994,4.351139e-06,-5.0991774e-05,-4.261732e-06,1.0,688,2.137,0,1,0.469,False,-0.26232072208302704,0.627256351341583
2.15397837292403,09:28:06.710064,09:27:00.656961,0,,0.10458538,0.0027321428,0.023343384,-0.59404427,0.7677442,-0.24016695,0.44021386,0.5601398,0.7017515,0.6732925,0.3111465,-0.67071956,,0.059281126,-0.030930534,0.010445833,0.12059352,0.31538168,0.9412712,0.49824,-0.8393425,0.21739614,0.8586116,0.44276255,-0.25835505,,0.07742713,1.3318858,0.4582004,0.99846965,0.027417086,-0.04802732,-0.0097716665,-0.7673229,-0.6411865,-0.05443193,0.64067453,-0.7658807,,-0.06079662,0.24704953,-0.080587015,0.5418714,-0.7864316,0.29648054,0.7910005,0.5964263,0.13635951,-0.2840662,0.16062692,0.94525415,,0.0066856425,0.40891558,-0.317554,-0.23964629,-0.3788334,-0.8938987,0.93819976,-0.32717296,-0.11286741,-0.24970156,-0.8657038,0.4338272,,1.1288859233555162,0.2772461101846599,0.18620557705000002,1.8656114271818134,-0.24758533757497808,0.043840879325927645,-0.4098302619309066,,-1.1794234872844414,0.08076434039863992,0.19830385162000003,-2.21956805178369,-0.6372726349060143,0.7793098177469568,0.4532797835226249,,-0.03254820888812925,-0.08751299035656068,0.07561312771999999,-0.04775451182011164,,-6.254017e-05,-1.3113022e-06,4.887581e-06,0.99999994,6.096065e-05,5.09955e-05,-6.096065e-05,0.99999994,4.351139e-06,-5.0991774e-05,-4.261732e-06,1.0,701,2.178,0,1,0.469,False,-0.2618441003348577,0.6266769889322297
2.178574711899273,09:28:06.751430,09:27:00.656961,0,,0.10415979,0.0025487542,0.022772819,-0.57378864,0.7818404,-0.24390984,0.46081442,0.5543945,0.6930345,0.67706454,0.28525805,-0.67838866,,0.059276454,-0.030931383,0.010445356,0.12061159,0.31539586,0.9412642,0.49824423,-0.8393392,0.21739922,0.85860664,0.44275868,-0.25837827,,0.07742713,1.3318858,0.4582004,0.99846965,0.027417086,-0.04802732,-0.0097716665,-0.7673229,-0.6411865,-0.05443193,0.64067453,-0.7658807,,-0.060328558,0.24656832,-0.08028757,0.52150744,-0.79848105,0.30076236,0.80848503,0.5751019,0.12493916,-0.27273053,0.17800516,0.94547987,,0.0066903285,0.4089151,-0.3175548,-0.23966345,-0.37884688,-0.8938884,0.9381976,-0.3271746,-0.11288053,-0.24969314,-0.8656973,0.43384504,,1.129635028444316,0.27367048486389395,0.18661650098000002,1.893919569552224,-0.2421198775843605,0.03039950176260897,-0.41048363819544376,,-1.1794003190858187,0.08077206313151415,0.19830255533000002,-2.21956805178369,-0.6372726349060143,0.7793098177469568,0.4526264072580878,,-0.03254820888812925,-0.08751299035656068,0.07561312771999999,-0.04775451182011164,,-6.254017e-05,-1.3113022e-06,4.887581e-06,0.99999994,6.096065e-05,5.09955e-05,-6.096065e-05,0.99999994,4.351139e-06,-5.0991774e-05,-4.261732e-06,1.0,710,2.206,0,1,0.469,False,-0.26154621174225356,0.6274494721447006
2.2199566059280187,09:28:06.775906,09:27:00.656961,0,,0.10392277,0.0024472773,0.022513866,-0.56342924,0.78815687,-0.24770166,0.4702205,0.55245006,0.6882525,0.67929363,0.27130705,-0.68187416,,0.059276164,-0.030932158,0.010444999,0.12046114,0.3155238,0.94124055,0.49832416,-0.83925045,0.21755841,0.85858136,0.44283575,-0.25833026,,0.07742713,1.3318858,0.4582004,0.99846965,0.027417086,-0.04802732,-0.0097716665,-0.7673229,-0.6411865,-0.05443193,0.64067453,-0.7658807,,-0.060072515,0.2463377,-0.08016598,0.51106215,-0.8036915,0.30478764,0.81673634,0.56456363,0.11920416,-0.2678754,0.18801042,0.94493115,,0.00669066,0.40891433,-0.3175551,-0.23951058,-0.37898412,-0.8938712,0.93825203,-0.32707012,-0.11273091,-0.24963532,-0.8656767,0.43391937,,1.130121560615392,0.2718324744398285,0.18680057416,1.9077591058222025,-0.24020696658764432,0.02230535189961408,-0.4081968212695638,,-1.1794003190858187,0.08076434039863992,0.19830255533000002,-2.219777741727175,-0.6372726349060143,0.7793098177469568,0.4526264072580878,,-0.03254820888812925,-0.08751299035656068,0.07561312771999999,-0.04775451182011164,,-6.254017e-05,-1.3113022e-06,4.887581e-06,0.99999994,6.096065e-05,5.09955e-05,-6.096065e-05,0.99999994,4.351139e-06,-5.0991774e-05,-4.261732e-06,1.0,723,2.248,0,1,0.469,False,-0.26196325577190027,0.6277874335501572
2.24442400992848,09:28:06.809752,09:27:00.656961,0,,0.10356932,0.002284348,0.022175834,-0.5455882,0.79895276,-0.2529976,0.48296547,0.5464648,0.68419325,0.6848923,0.2510985,-0.6840115,,0.059272923,-0.03093043,0.010446787,0.11995199,0.31587982,0.94118613,0.49844682,-0.839044,0.2180731,0.85858136,0.44297314,-0.25809437,,0.07742713,1.3318858,0.4582004,0.99846965,0.027417086,-0.04802732,-0.0097716665,-0.7673229,-0.6411865,-0.05443193,0.64067453,-0.7658807,,-0.05969456,0.24601491,-0.08002925,0.49291363,-0.8128995,0.3102106,0.8293623,0.5467597,0.114943616,-0.26304826,0.20061968,0.94369346,,0.0066936216,0.40891713,-0.3175555,-0.23900613,-0.37935522,-0.8938488,0.9383891,-0.3268615,-0.11219364,-0.24960351,-0.86559296,0.4341047,,1.1307857156425754,0.2690909042694788,0.18703649894000002,1.9301959297750468,-0.24048023958717518,0.012645060149998888,-0.40966691786477233,,-1.1794003190858187,0.08076434039863992,0.19830125904,-2.2204068115576283,-0.6374092714057796,0.7793395569105127,0.4531164394564906,,-0.03254820888812925,-0.08751299035656068,0.07561312771999999,-0.04775451182011164,,-6.254017e-05,-1.3113022e-06,4.887581e-06,0.99999994,6.096065e-05,5.09955e-05,-6.096065e-05,0.99999994,4.351139e-06,-5.0991774e-05,-4.261732e-06,1.0,736,2.289,0,1,0.469,False,-0.26232072208302704,0.6277874335501572
2.2782767169410363,09:28:06.853205,09:27:00.812323,0,,0.10302296,0.0020279884,0.021810323,-0.5065897,0.8213996,-0.26204842,0.5074299,0.52976465,0.67960596,0.6970519,0.21131006,-0.68517613,,0.05926916,-0.030931473,0.010446608,0.11981393,0.3160185,0.9411572,0.49852777,-0.83895355,0.21823585,0.85855365,0.4430455,-0.25806236,,0.07742713,1.3318858,0.4582004,0.99846965,0.027417086,-0.04802732,-0.0097716665,-0.7673229,-0.6411865,-0.05443193,0.64067453,-0.7658807,,-0.05912269,0.24561083,-0.07994248,0.45322856,-0.832246,0.3192969,0.8542709,0.507828,0.111049764,-0.2545686,0.22243512,0.94112563,,0.006697374,0.4089166,-0.31755647,-0.2388652,-0.3795024,-0.89382404,0.9384414,-0.32676002,-0.11205201,-0.24954195,-0.8655668,0.43419233,,1.1321371938955647,0.2650210240447625,0.1872750163,1.9777955469460338,-0.24266642358342222,-0.004766757323890508,-0.40885019753410096,,-1.1793848736200703,0.08076434039863992,0.19829996275000003,-2.220616501501113,-0.6374092714057796,0.7793395569105127,0.4531164394564906,,-0.03254820888812925,-0.08751299035656068,0.07561312771999999,-0.04775451182011164,,-6.254017e-05,-1.3113022e-06,4.887581e-06,0.99999994,6.096065e-05,5.09955e-05,-6.096065e-05,0.99999994,4.351139e-06,-5.0991774e-05,-4.261732e-06,1.0,745,2.317,0,1,0.469,False,-0.26190367805337944,0.6275460325462596
2.321711259894073,09:28:06.879842,09:27:00.812323,0,,0.1028571,0.001962036,0.021718115,-0.48483047,0.83220154,-0.26903507,0.52014685,0.5216529,0.6762583,0.7031261,0.18793279,-0.6857804,,0.05926743,-0.030929714,0.010446668,0.11966574,0.3161542,0.94113046,0.49859744,-0.8388684,0.21840413,0.8585339,0.4431099,-0.25801754,,0.07742713,1.3318858,0.4582004,0.99846965,0.027417086,-0.04802732,-0.0097716665,-0.7673229,-0.6411865,-0.05443193,0.64067453,-0.7658807,,-0.05895049,0.24550916,-0.07992322,0.4311365,-0.8412234,0.32628894,0.86699766,0.48638362,0.108379304,-0.2498728,0.23616546,0.9390364,,0.006699082,0.40891808,-0.3175555,-0.2387154,-0.37964556,-0.89380324,0.938492,-0.32666758,-0.11189777,-0.24949504,-0.8655389,0.43427488,,1.132662339731012,0.2637390503876412,0.18733983080000002,2.004006789881599,-0.24375951558154577,-0.017434084957652446,-0.4101569500631752,,-1.1793848736200703,0.08077206313151415,0.19829996275000003,-2.2208261914445977,-0.6374092714057796,0.7793395569105127,0.4531164394564906,,-0.03254820888812925,-0.08751299035656068,0.07561312771999999,-0.04775451182011164,,-6.254017e-05,-1.3113022e-06,4.887581e-06,0.99999994,6.096065e-05,5.09955e-05,-6.096065e-05,0.99999994,4.351139e-06,-5.0991774e-05,-4.261732e-06,1.0,758,2.358,0,1,0.469,False,-0.26255903295711036,0.626290747325994
2.3483805749565363,09:28:06.922449,09:27:00.812323,0,,0.10247436,0.0019509047,0.021679536,-0.44085464,0.8473276,-0.29611322,0.5336106,0.51268816,0.67261463,0.7217386,0.138516,-0.678164,,0.0592613,-0.03092809,0.010445237,0.11923001,0.31656024,0.9410493,0.49882245,-0.83860564,0.21889885,0.85846376,0.44331735,-0.25789437,,0.07742713,1.3318858,0.4582004,0.99846965,0.027417086,-0.04802732,-0.0097716665,-0.7673229,-0.6411865,-0.05443193,0.64067453,-0.7658807,,-0.058565978,0.24549344,-0.07992521,0.38591474,-0.85246706,0.35266092,0.8871692,0.44776344,0.11152901,-0.25298348,0.2698292,0.929081,,0.0067053623,0.40891883,-0.31755397,-0.23827319,-0.3800759,-0.8937383,0.93864703,-0.32637498,-0.11145003,-0.24933435,-0.8654604,0.43452352,,1.1340138179840011,0.2616230215801037,0.18744871916000003,2.0520257869395553,-0.2579697115571516,-0.05044321508997157,-0.41015695006317515,,-1.1793694281543217,0.08077978586438837,0.19829996275000003,-2.221455261275051,-0.6374092714057796,0.7793395569105127,0.4531164394564906,,-0.03254820888812925,-0.08751299035656068,0.07561312771999999,-0.04775451182011164,,-6.254017e-05,-1.3113022e-06,4.887581e-06,0.99999994,6.096065e-05,5.09955e-05,-6.096065e-05,0.99999994,4.351139e-06,-5.0991774e-05,-4.261732e-06,1.0,767,2.386,0,1,0.469,False,-0.2623802998015474,0.6267735493337887
2.3909863859880716,09:28:06.953561,09:27:00.812323,0,,0.102153555,0.0019860566,0.021700785,-0.39051998,0.8614316,-0.32469916,0.54953134,0.50110567,0.6685119,0.7385858,0.08263473,-0.6690756,,0.059259534,-0.030926794,0.010445893,0.11917574,0.31637445,0.94111866,0.49871868,-0.8386959,0.21878941,0.8585316,0.4432792,-0.2577341,,0.07742713,1.3318858,0.4582004,0.99846965,0.027417086,-0.04802732,-0.0097716665,-0.7673229,-0.6411865,-0.05443193,0.64067453,-0.7658807,,-0.05824763,0.24554846,-0.07994046,0.33450794,-0.862199,0.38041732,0.9078616,0.40310118,0.11531162,-0.25276825,0.30679363,0.9175979,,0.0067070196,0.40892038,-0.31755373,-0.23822957,-0.37988693,-0.8938303,0.93862456,-0.3264482,-0.111424655,-0.24946052,-0.8655157,0.43434083,,1.1355043054287266,0.2599394658135228,0.18752260769,2.1069645521325007,-0.2701303600362758,-0.08830908464321902,-0.410646982261578,,-1.1793617054214476,0.0807875085972626,0.19829996275000003,-2.221455261275051,-0.6375459079055451,0.7795326535543496,0.45295309539035633,,-0.03254820888812925,-0.08751299035656068,0.07561312771999999,-0.04775451182011164,,-6.254017e-05,-1.3113022e-06,4.887581e-06,0.99999994,6.096065e-05,5.09955e-05,-6.096065e-05,0.99999994,4.351139e-06,-5.0991774e-05,-4.261732e-06,1.0,780,2.428,0,1,0.469,False,-0.2623802998015474,0.6251803027080665
2.4220939169172198,09:28:06.991604,09:27:00.812323,0,,0.101972796,0.0019653589,0.02169633,-0.34956485,0.8720088,-0.34264404,0.56736684,0.48805588,0.66324675,0.74558634,0.037442863,-0.6653561,,0.059264988,-0.030937232,0.010451317,0.118746854,0.31690866,0.94099325,0.4989645,-0.8383931,0.21938902,0.8584484,0.44347042,-0.2576827,,0.07742711,1.3318865,0.4581948,0.9984699,0.02743313,-0.048013914,-0.009750788,-0.7673223,-0.6411875,-0.05443193,0.64067453,-0.7658807,,-0.05807035,0.24554096,-0.07996605,0.2932266,-0.8692757,0.3979673,0.92429715,0.36413977,0.11435445,-0.24432127,0.3343083,0.9102445,,0.006698222,0.4089207,-0.31756753,-0.23780385,-0.3804248,-0.8937149,0.93878114,-0.3261555,-0.1109617,-0.24927747,-0.8653898,0.43469667,,1.1367167744899798,0.2587038285536469,0.18754982978,2.153096339699096,-0.2716333615336956,-0.11705958533414473,-0.41113701445998085,,-1.1793539826885733,0.08077978586438837,0.19829737017000001,-2.2220843311055045,-0.6375459079055451,0.7793692960740686,0.4503395903322079,,-0.03254820888812925,-0.08751299035656068,0.07561312771999999,-0.04775451182011164,,-6.226078e-05,-5.4836273e-06,8.702278e-06,1.0,7.69794e-05,6.439164e-05,-7.697195e-05,1.0,5.4836273e-06,-6.439164e-05,-5.4240227e-06,1.0,789,2.456,0,1,0.469,False,-0.26255903295711036,0.625228582908846
2.4601217759773135,09:28:07.020881,09:27:00.812323,0,,0.10173094,0.0019443929,0.021711692,-0.30841905,0.8783012,-0.3653279,0.57850814,0.47804856,0.6609069,0.7551198,-0.0075089335,-0.6555437,,0.05926445,-0.030934907,0.010452032,0.11859294,0.31704086,0.94096804,0.49903077,-0.8383095,0.21955773,0.8584311,0.44353408,-0.2576307,,0.07742711,1.3318865,0.4581948,0.9984699,0.02743313,-0.048013914,-0.009750788,-0.7673223,-0.6411875,-0.05443193,0.64067453,-0.7658807,,-0.057830594,0.24554509,-0.08000689,0.25152636,-0.87207085,0.41979384,0.937098,0.32790175,0.11969857,-0.24203677,0.36328065,0.8996918,,0.0066986643,0.4089229,-0.31756645,-0.23764876,-0.38056436,-0.8936967,0.9388316,-0.32606438,-0.110802345,-0.24923526,-0.8653628,0.43477467,,1.1378906298868618,0.25722106384179577,0.18757834816000002,2.1969215378873614,-0.2794216420203257,-0.14811762780782622,-0.4091768856663695,,-1.1793617054214476,0.0807875085972626,0.19829737017000001,-2.222294021048989,-0.6375459079055451,0.7793692960740686,0.4503395903322079,,-0.03254820888812925,-0.08751299035656068,0.07561312771999999,-0.04775451182011164,,-6.226078e-05,-5.4836273e-06,8.702278e-06,1.0,7.69794e-05,6.439164e-05,-7.697195e-05,1.0,5.4836273e-06,-6.439164e-05,-5.4240227e-06,1.0,802,2.497,0,1,0.469,False,-0.2616653671792948,0.6245043798971537
