AlexandreBanks6/ExpertPlaybackApp/resources/Motions/P_10/PC1/Data_PC1_9.csv
Task Time,PC1 Time,PC2 Time,Gaze Calib,s_T_psm1,Tx,Ty,Tz,R00,R01,R02,R10,R11,R12,R20,R21,R22,s_T_psm3,Tx,Ty,Tz,R00,R01,R02,R10,R11,R12,R20,R21,R22,cart_T_ecm,Tx,Ty,Tz,R00,R01,R02,R10,R11,R12,R20,R21,R22,ecm_T_psm1,Tx,Ty,Tz,R00,R01,R02,R10,R11,R12,R20,R21,R22,ecm_T_psm3,Tx,Ty,Tz,R00,R01,R02,R10,R11,R12,R20,R21,R22,psm1_joints,q1,q2,q3,q4,q5,q6,jaw,psm3_joints,q1,q2,q3,q4,q5,q6,jaw,ecm_joints,q1,q2,q3,q4,ecmi_T_ecm,Tx,Ty,Tz,R00,R01,R02,R10,R11,R12,R20,R21,R22,Sample #,Task Duration (s),Collisions (binary),Collisions (increments),Cumulative Collision Time (s),Clutch Press,MTMR Angle,MTML Angle
""
lci_T_si,,,,,-0.063657075,0.025385704,0.2469648,0.99608046,0.04609189,0.0754932,0.084081955,-0.75835806,-0.6463925,0.02745742,0.6502066,-0.75926113
rci_T_si,,,,,-0.07441909,0.030183764,0.26059738,0.9968228,0.032426473,0.07275223,0.07222477,-0.75309837,-0.6539315,0.033584893,0.65710837,-0.7530476
ecm_T_lc,,,,,-4.4061628e-05,-0.00034663224,-0.01840835,-0.99912,0.030754527,0.028518902,-0.031987965,-0.99852574,-0.043852776,0.027128186,-0.04472645,0.9986309
ecm_T_rc,,,,,-0.0043358393,0.01870579,-0.007592615,-0.99555075,-0.052743673,-0.078081585,0.04863213,-0.9973746,0.053654674,-0.08070653,0.04961868,0.9955021
cart_T_ecmi,,,,,0.07751704,1.3301718,0.45619854,0.9982497,0.036658186,-0.046408493,-0.0016564787,-0.76707995,-0.64154935,-0.05911706,0.6405033,-0.7656766
ecmac_T_ecmrep_psm1,,,,,0.0028397094,-0.24236576,-0.3123762,0.99938005,0.032352094,0.013886033,-0.031258944,0.9968569,-0.072795466,-0.016197473,0.07231628,0.9972502
ecmac_T_ecmrep_psm3,,,,,-0.018767226,-0.44603547,-0.53896165,0.9994355,-0.013331066,-0.030837692,0.013906483,0.9997318,0.01852092,0.030582517,-0.018939309,0.9993528
""
0,10:17:30.853481,10:16:24.916366,0,,0.09357424,0.010337219,0.038331687,-0.24007095,0.306671,-0.92104226,0.34711382,0.9131795,0.2135773,0.9065747,-0.26843292,-0.32567763,,0.06847619,0.009390205,0.03708327,0.463665,0.1739986,0.86875725,-0.21547759,-0.9289429,0.30105555,0.85940915,-0.32678667,-0.39322555,,0.0774888,1.330176,0.45620704,0.9982497,0.03666001,-0.046406966,-0.0016540996,-0.7670799,-0.64154947,-0.05911706,0.6405033,-0.7656766,,-0.04933298,0.26110637,-0.09196558,0.1485487,-0.3175311,0.93654007,0.85570085,0.5159827,0.039215937,-0.4956907,0.7955727,0.3483602,,-0.0045320904,0.45493647,-0.31078324,-0.57744706,-0.08606854,-0.81187874,0.37550128,-0.9110046,-0.17049748,-0.7249508,-0.40331477,0.5583758,,1.2469124498722894,0.27782531515022674,0.18112800912000002,2.1484831609424364,-0.4653839182010902,-0.8450382921972979,0.7670637345665755,,-1.331213801927324,0.3002752996155974,0.19499701583,-1.3319505210136986,-0.7386569177319711,0.27789723154454093,-0.15485017469529672,,-0.03254166390343428,-0.08714647121364187,0.07824560327999999,-0.058221254136848435,,-2.8695911e-05,1.4305115e-06,-7.867813e-06,1.0,1.8291175e-06,1.5236437e-06,-1.8179417e-06,1.0,1.1920929e-07,-1.527369e-06,-1.1920929e-07,1.0,34,0.102,0,0,0.0,False,0.9394214382047346,0.0024139928538304822
0.12947653303854167,10:17:30.880963,10:16:24.916366,0,,0.093542494,0.0104032755,0.038238898,-0.2395486,0.3072394,-0.92098874,0.34645227,0.91320705,0.21453144,0.906966,-0.26768804,-0.32520124,,0.067202784,0.009441465,0.038033426,0.44826624,0.19374646,0.8726509,-0.21874267,-0.9227736,0.31723922,0.8667231,-0.3330936,-0.37126762,,0.0774888,1.330176,0.45620704,0.9982497,0.03666001,-0.046406966,-0.0016540996,-0.7670799,-0.64154947,-0.05911706,0.6405033,-0.7656766,,-0.049296007,0.26110238,-0.091853335,0.14802073,-0.3181615,0.9364097,0.85538787,0.5164219,0.04024993,-0.49638844,0.79503566,0.3485926,,-0.003417428,0.45579505,-0.31152308,-0.56319064,-0.10488833,-0.8196431,0.3802387,-0.91355234,-0.14436272,-0.7336449,-0.39296377,0.55438673,,1.2468892816736667,0.27777125602010716,0.18124986038000002,2.1486928508859213,-0.4663403736994482,-0.8443400456115634,0.7662470142359039,,-1.3278853040585332,0.30590517188090705,0.19403127978,-1.3466288170576155,-0.7590157561970217,0.2691780897517334,-0.15681030348890806,,-0.03254166390343428,-0.08714647121364187,0.07824560327999999,-0.058221254136848435,,-2.8695911e-05,1.4305115e-06,-7.867813e-06,1.0,1.8291175e-06,1.5236437e-06,-1.8179417e-06,1.0,1.1920929e-07,-1.527369e-06,-1.1920929e-07,1.0,42,0.126,0,0,0.0,False,0.938527772426919,0.0011587076335648483
0.15695969795342535,10:17:30.905626,10:16:24.916366,0,,0.093513206,0.010449842,0.0381677,-0.23961952,0.30668983,-0.9211535,0.34576303,0.913543,0.21421273,0.9072102,-0.26717135,-0.32494473,,0.065943465,0.009638637,0.03887105,0.43930072,0.20700474,0.87416464,-0.22100392,-0.9182788,0.32851392,0.8707308,-0.3375102,-0.3576517,,0.0774888,1.330176,0.45620704,0.9982497,0.03666001,-0.046406966,-0.0016540996,-0.7670799,-0.64154947,-0.05911706,0.6405033,-0.7656766,,-0.049262576,0.2610965,-0.09177001,0.148097,-0.31767118,0.9365641,0.85501105,0.5170512,0.04017633,-0.4970145,0.79482263,0.3481861,,-0.0023057722,0.45667857,-0.31207988,-0.5548385,-0.11751048,-0.8236174,0.38256744,-0.9151363,-0.12715253,-0.7387804,-0.3856383,0.5527085,,1.2468815589407924,0.2777094741571134,0.18134189697000003,2.148273470998952,-0.46702355619827546,-0.8445180647543463,0.7644502295084268,,-1.324850270038963,0.31198296265292175,0.19320683934000002,-1.3577423840622953,-0.7725427696738003,0.2654246102522374,-0.15795371195184804,,-0.03254166390343428,-0.08714647121364187,0.07824560327999999,-0.058221254136848435,,-2.8695911e-05,1.4305115e-06,-7.867813e-06,1.0,1.8291175e-06,1.5236437e-06,-1.8179417e-06,1.0,1.1920929e-07,-1.527369e-06,-1.1920929e-07,1.0,53,0.159,0,0,0.0,False,0.9373362180564984,0.002896794861625196
0.1815841969801113,10:17:30.927076,10:16:24.916366,0,,0.09347136,0.010506406,0.038070723,-0.23924246,0.3069446,-0.92116666,0.34505835,0.9136651,0.21482755,0.9075779,-0.26646042,-0.3245013,,0.06498171,0.009908333,0.039509535,0.4300483,0.22176053,0.87514603,-0.22049007,-0.91420937,0.3400082,0.87546706,-0.33918098,-0.34425813,,0.0774888,1.330176,0.45620704,0.9982497,0.03666001,-0.046406966,-0.0016540996,-0.7670799,-0.64154947,-0.05911706,0.6405033,-0.7656766,,-0.04921483,0.26108336,-0.09166091,0.14771736,-0.31799003,0.93651587,0.854662,0.51756877,0.040931813,-0.49772725,0.7943582,0.3482279,,-0.0014613728,0.45743752,-0.31242096,-0.54642236,-0.13200401,-0.82704145,0.38741654,-0.91533464,-0.109867804,-0.7425167,-0.38044378,0.5512998,,1.2468738362079181,0.27757818769825154,0.18146374823000003,2.148273470998952,-0.4679800116966335,-0.8439831756488931,0.7642868854422925,,-1.3227033502999286,0.3169409571581739,0.19265721238000003,-1.3717916102757584,-0.7837469626545664,0.26312585473566513,-0.1546868306291625,,-0.03254166390343428,-0.08714647121364187,0.07824560327999999,-0.058221254136848435,,-2.8695911e-05,1.4305115e-06,-7.867813e-06,1.0,1.8291175e-06,1.5236437e-06,-1.8179417e-06,1.0,1.1920929e-07,-1.527369e-06,-1.1920929e-07,1.0,61,0.184,0,0,0.0,False,0.9375149512120613,0.0015449492398005304
0.2030417650239542,10:17:30.957137,10:16:25.009252,0,,0.09342086,0.010581493,0.037951663,-0.2389273,0.307164,-0.9211753,0.3440442,0.9138894,0.21549901,0.9080458,-0.26543653,-0.3240311,,0.0634693,0.01045233,0.04052919,0.415483,0.243433,0.8764213,-0.22577518,-0.90576994,0.35861757,0.8811353,-0.34687364,-0.32137087,,0.0774888,1.330176,0.45620704,0.9982497,0.03666001,-0.046406966,-0.0016540996,-0.7670799,-0.64154947,-0.05911706,0.6405033,-0.7656766,,-0.049157307,0.26107153,-0.0915234,0.14740264,-0.3183042,0.9364587,0.8541404,0.5183641,0.04174759,-0.49871495,0.7937135,0.34828472,,-0.00014062967,0.4587273,-0.31288463,-0.5326635,-0.15260997,-0.8324541,0.38946977,-0.91746926,-0.08101514,-0.7513873,-0.3673695,0.5481394,,1.246866113475044,0.27744690123938975,0.18161671045000002,2.1480637810554675,-0.4692097401945225,-0.8433071294761876,0.7636335091777554,,-1.3195679207529936,0.3255209133814373,0.19187943838000002,-1.3875183560370978,-0.804105801119617,0.2546517491632794,-0.15583023909210242,,-0.03254166390343428,-0.08714647121364187,0.07824560327999999,-0.058221254136848435,,-2.8695911e-05,1.4305115e-06,-7.867813e-06,1.0,1.8291175e-06,1.5236437e-06,-1.8179417e-06,1.0,1.1920929e-07,-1.527369e-06,-1.1920929e-07,1.0,69,0.208,0,0,0.0,False,0.937157484900935,0.0012069878343448082
0.23310765495989472,10:17:30.984450,10:16:25.009252,0,,0.09338662,0.010627404,0.037868008,-0.23866192,0.30742455,-0.9211572,0.3435588,0.913952,0.21600753,0.9082994,-0.26491892,-0.32374388,,0.061952427,0.011210203,0.041428387,0.40747714,0.26694566,0.8733282,-0.23144588,-0.89491177,0.38153097,0.8833997,-0.35759342,-0.30287266,,0.0774888,1.330176,0.45620704,0.9982497,0.03666001,-0.046406966,-0.0016540996,-0.7670799,-0.64154947,-0.05911706,0.6405033,-0.7656766,,-0.049117856,0.2610578,-0.091431014,0.14713547,-0.31861007,0.9363967,0.85389966,0.5187142,0.042320356,-0.49920592,0.79336196,0.34838226,,0.001193882,0.46008766,-0.31311354,-0.52486354,-0.17468025,-0.8330697,0.38803837,-0.92020166,-0.051527657,-0.75759125,-0.35030797,0.55076295,,1.2468506680092954,0.27733106024627635,0.18171911736000002,2.1480637810554675,-0.4698929226933497,-0.8428317186978459,0.7634701651116211,,-1.31676456871965,0.33495037022086543,0.19129610788,-1.398002853211324,-0.8184526335949883,0.2397233597655804,-0.15779036788571366,,-0.03254166390343428,-0.08714647121364187,0.07824560327999999,-0.058221254136848435,,-2.8695911e-05,1.4305115e-06,-7.867813e-06,1.0,1.8291175e-06,1.5236437e-06,-1.8179417e-06,1.0,1.1920929e-07,-1.527369e-06,-1.1920929e-07,1.0,76,0.229,0,0,0.0,False,0.9376936843676247,0.0028002344600661644
0.2603199810255319,10:17:31.007293,10:16:25.009252,0,,0.09333118,0.0106934905,0.03774555,-0.23843776,0.30775714,-0.9211042,0.34280008,0.9140794,0.21667254,0.9086448,-0.2640918,-0.32345024,,0.06074573,0.011915758,0.042063117,0.40463728,0.28031346,0.87045556,-0.23472542,-0.8881351,0.39512053,0.8838397,-0.36419857,-0.29357588,,0.0774888,1.330176,0.45620704,0.9982497,0.03666001,-0.046406966,-0.0016540996,-0.7670799,-0.64154947,-0.05911706,0.6405033,-0.7656766,,-0.049054768,0.26103726,-0.09129671,0.14691201,-0.3190165,0.9362934,0.8535075,0.519302,0.043015767,-0.49994177,0.79281396,0.34857467,,0.0022633865,0.46118772,-0.31316665,-0.5219918,-0.18717614,-0.83215964,0.38637552,-0.92167526,-0.035052452,-0.76041996,-0.3398232,0.5534272,,1.2468506680092954,0.277145714657295,0.18186948700000002,2.147854091111983,-0.4708493781917078,-0.8420517933719709,0.7634701651116211,,-1.3146562626449867,0.3427657758895806,0.19094222071000003,-1.4051323112897978,-0.8259676410820875,0.23319113974709638,-0.1556668950259682,,-0.03254166390343428,-0.08714647121364187,0.07824560327999999,-0.058221254136848435,,-2.8695911e-05,1.4305115e-06,-7.867813e-06,1.0,1.8291175e-06,1.5236437e-06,-1.8179417e-06,1.0,1.1920929e-07,-1.527369e-06,-1.1920929e-07,1.0,88,0.266,0,0,0.0,False,0.9375149512120613,0.0015932294405800462
0.2832862409995869,10:17:31.036273,10:16:25.009252,0,,0.093296655,0.010735646,0.037669227,-0.23816043,0.30801216,-0.92109066,0.34230754,0.9141433,0.21718077,0.90890324,-0.2635725,-0.32314765,,0.059033416,0.013061941,0.04285288,0.40641364,0.29957938,0.86318016,-0.23529243,-0.87854195,0.4156943,0.8828734,-0.3720436,-0.28656268,,0.0774888,1.330176,0.45620704,0.9982497,0.03666001,-0.046406966,-0.0016540996,-0.7670799,-0.64154947,-0.05911706,0.6405033,-0.7656766,,-0.04901552,0.26102522,-0.0912124,0.1466328,-0.31931704,0.9362347,0.85326326,0.5196547,0.043598276,-0.5004405,0.79246175,0.34865993,,0.0037917497,0.462776,-0.31306177,-0.5235803,-0.20542778,-0.8268392,0.38507092,-0.9227719,-0.014576686,-0.7599895,-0.3260238,0.5622495,,1.2468506680092954,0.27702987366418164,0.18196411617000002,2.147854091111983,-0.471532560690535,-0.8415763825936294,0.7633068210454869,,-1.311906969741763,0.35421086600918134,0.19058314838,-1.4154071185205395,-0.8291102805766927,0.224563764132857,-0.15713699162117667,,-0.03254166390343428,-0.08714647121364187,0.07824560327999999,-0.058221254136848435,,-2.8695911e-05,1.4305115e-06,-7.867813e-06,1.0,1.8291175e-06,1.5236437e-06,-1.8179417e-06,1.0,1.1920929e-07,-1.527369e-06,-1.1920929e-07,1.0,92,0.278,0,0,0.0,False,0.9379319952417084,0.002317432452272339
0.31226186302956194,10:17:31.055373,10:16:25.009252,0,,0.093263015,0.0107720345,0.037589684,-0.238311,0.3076788,-0.92116314,0.3423007,0.91423416,0.21680894,0.90886635,-0.263647,-0.32319072,,0.0579208,0.01385583,0.043368757,0.4090639,0.30928305,0.85849315,-0.23583001,-0.87301403,0.42688513,0.8815049,-0.37708175,-0.28418034,,0.0774888,1.330176,0.45620704,0.9982497,0.03666001,-0.046406966,-0.0016540996,-0.7670799,-0.64154947,-0.05911706,0.6405033,-0.7656766,,-0.048976652,0.2610066,-0.091129184,0.14678611,-0.31898224,0.93632483,0.85324746,0.5197065,0.043288685,-0.5004224,0.7925626,0.34845647,,0.004782465,0.46384495,-0.31296122,-0.5259736,-0.21448669,-0.82301104,0.3833951,-0.92357427,-0.004327194,-0.7591837,-0.3178144,0.5680089,,1.2468506680092954,0.27690630993819404,0.18205485647000003,2.1476444011684985,-0.471532560690535,-0.8417397400739106,0.7629801329132182,,-1.3102851958381756,0.3619104306847832,0.19038222343000002,-1.4206493671076525,-0.8297934630755199,0.22087355916403,-0.15583023909210242,,-0.03254166390343428,-0.08714647121364187,0.07824560327999999,-0.058221254136848435,,-2.8695911e-05,1.4305115e-06,-7.867813e-06,1.0,1.8291175e-06,1.5236437e-06,-1.8179417e-06,1.0,1.1920929e-07,-1.527369e-06,-1.1920929e-07,1.0,100,0.302,0,0,0.0,False,0.938349039271356,0.002027751247595244
0.33136869699228555,10:17:31.085215,10:16:25.150875,0,,0.09320704,0.010838032,0.037461445,-0.23906454,0.30557555,-0.9216679,0.34186688,0.9149037,0.21465866,0.9088318,-0.2637705,-0.32318717,,0.056387953,0.015065074,0.044109643,0.41365412,0.32811323,0.8492537,-0.23711693,-0.8617827,0.44844866,0.87901413,-0.38687512,-0.27867877,,0.0774888,1.330176,0.45620704,0.9982497,0.03666001,-0.046406966,-0.0016540996,-0.7670799,-0.64154947,-0.05911706,0.6405033,-0.7656766,,-0.048912536,0.26098245,-0.09099046,0.14755596,-0.3169034,0.93690956,0.8529517,0.5203245,0.041663054,-0.5007002,0.7929909,0.3470803,,0.0061382577,0.46542087,-0.31276336,-0.5300866,-0.23208335,-0.8155646,0.38015556,-0.9247829,0.016076397,-0.75795114,-0.3015195,0.57844275,,1.2468583907421698,0.2767441325478353,0.18220652240000001,2.1465959514510757,-0.4716691971903004,-0.8432618969730253,0.7633068210454869,,-1.3084317399483618,0.37308522515378606,0.19016574300000003,-1.4267303754687037,-0.8299300995752852,0.2084064510860797,-0.15550355095983381,,-0.03254166390343428,-0.08714647121364187,0.07824560327999999,-0.058221254136848435,,-2.8695911e-05,1.4305115e-06,-7.867813e-06,1.0,1.8291175e-06,1.5236437e-06,-1.8179417e-06,1.0,1.1920929e-07,-1.527369e-06,-1.1920929e-07,1.0,111,0.336,0,0,0.0,False,0.9381107283972718,0.0019794710468157284
0.3612027750350535,10:17:31.107948,10:16:25.150875,0,,0.09314865,0.010915592,0.037315845,-0.23890394,0.3036716,-0.92233855,0.34030887,0.91578615,0.21336754,0.9094584,-0.26290575,-0.32212707,,0.055500127,0.01582615,0.04456097,0.4167861,0.34166843,0.842349,-0.23848301,-0.8531116,0.46403295,0.8771631,-0.39428848,-0.27408293,,0.0774888,1.330176,0.45620704,0.9982497,0.03666001,-0.046406966,-0.0016540996,-0.7670799,-0.64154947,-0.05911706,0.6405033,-0.7656766,,-0.04884499,0.26095662,-0.090831116,0.14740251,-0.31511524,0.9375366,0.8521198,0.52170837,0.041378282,-0.50215966,0.7927943,0.34541705,,0.0069178035,0.46639222,-0.31262213,-0.53285086,-0.24471994,-0.81005067,0.37749255,-0.9254842,0.031278547,-0.7573436,-0.2891213,0.585525,,1.2467888861463017,0.27653561876023125,0.18238541042,2.1459668816206223,-0.47344547168725115,-0.8445088626496104,0.7634701651116212,,-1.307574516599323,0.37988123008310365,0.19006981754000002,-1.429246654790518,-0.8297934630755199,0.19702336704298584,-0.15779036788571377,,-0.03254166390343428,-0.08714647121364187,0.07824560327999999,-0.058221254136848435,,-2.8695911e-05,1.4305115e-06,-7.867813e-06,1.0,1.8291175e-06,1.5236437e-06,-1.8179417e-06,1.0,1.1920929e-07,-1.527369e-06,-1.1920929e-07,1.0,119,0.36,0,0,0.0,False,0.9379319952417084,0.0034278770701998695
0.3839430049993098,10:17:31.133470,10:16:25.150875,0,,0.09310681,0.010960028,0.037228987,-0.23889631,0.3018896,-0.9229253,0.33862746,0.9166814,0.21219462,0.9100878,-0.26183543,-0.32121992,,0.05476193,0.016509384,0.044979215,0.41701764,0.35270607,0.8376721,-0.2400881,-0.84615177,0.47579938,0.87661505,-0.39953184,-0.26817966,,0.0774888,1.330176,0.45620704,0.9982497,0.03666001,-0.046406966,-0.0016540996,-0.7670799,-0.64154947,-0.05911706,0.6405033,-0.7656766,,-0.048797645,0.26094037,-0.090737514,0.14740588,-0.31346646,0.93808866,0.8512064,0.5232206,0.04108278,-0.5037054,0.7924512,0.34395048,,0.0075575407,0.46726543,-0.31250003,-0.5329338,-0.25512365,-0.80677974,0.375939,-0.9255821,0.04435818,-0.75805765,-0.27966002,0.5891849,,1.2467425497490563,0.2763734413698725,0.18249559507000002,2.145128121846684,-0.4752217461842019,-0.8455107921057738,0.7634701651116212,,-1.3070184798323787,0.38575050706751424,0.19000889191,-1.4334404536602083,-0.8318430105720014,0.18987333166325127,-0.15517686282756538,,-0.03254166390343428,-0.08714647121364187,0.07824560327999999,-0.058221254136848435,,-2.8695911e-05,1.4305115e-06,-7.867813e-06,1.0,1.8291175e-06,1.5236437e-06,-1.8179417e-06,1.0,1.1920929e-07,-1.527369e-06,-1.1920929e-07,1.0,131,0.397,0,0,0.0,False,0.9372170626194563,0.002317432452272339
0.40944768697954714,10:17:31.165441,10:16:25.150875,0,,0.093055785,0.011009365,0.0371051,-0.23799329,0.29995173,-0.92379004,0.33682346,0.9175841,0.21116188,0.91099346,-0.2608991,-0.31940967,,0.053474344,0.017795473,0.045625985,0.42513633,0.374679,0.8239384,-0.23763564,-0.8321624,0.5010342,0.87337756,-0.40880495,-0.26474538,,0.0774888,1.330176,0.45620704,0.9982497,0.03666001,-0.046406966,-0.0016540996,-0.7670799,-0.64154947,-0.05911706,0.6405033,-0.7656766,,-0.048738193,0.26090556,-0.09061242,0.14649896,-0.31165138,0.93883514,0.8502958,0.52466774,0.0414833,-0.50550485,0.7922103,0.34185913,,0.008681946,0.468799,-0.31216222,-0.5405716,-0.27601334,-0.79473203,0.37438858,-0.92488015,0.06655759,-0.75340265,-0.26155946,0.60330015,,1.246626708755943,0.27608770025352625,0.18264207584000003,2.145128121846684,-0.4776812031799798,-0.8470174556652824,0.763306821045487,,-1.3063852157366922,0.3961839191805916,0.18997518837000002,-1.439311772077775,-0.8255577315827912,0.17339476321367786,-0.15599358315823675,,-0.03254166390343428,-0.08714647121364187,0.07824560327999999,-0.058221254136848435,,-2.8695911e-05,1.4305115e-06,-7.867813e-06,1.0,1.8291175e-06,1.5236437e-06,-1.8179417e-06,1.0,1.1920929e-07,-1.527369e-06,-1.1920929e-07,1.0,135,0.409,0,0,0.0,False,0.9375149512120613,0.0016897898421390778
0.44143796095158905,10:17:31.188370,10:16:25.150875,0,,0.09298173,0.011062518,0.036967352,-0.2377191,0.29736853,-0.9246954,0.33067235,0.9198978,0.21081705,0.91331553,-0.255656,-0.31700885,,0.052849457,0.0184713,0.045921385,0.42993203,0.3877623,0.8153518,-0.23424977,-0.8242431,0.51550984,0.8719435,-0.41263023,-0.26353532,,0.0774888,1.330176,0.45620704,0.9982497,0.03666001,-0.046406966,-0.0016540996,-0.7670799,-0.64154947,-0.05911706,0.6405033,-0.7656766,,-0.048654784,0.260867,-0.090475194,0.14626442,-0.30961445,0.93954545,0.8469462,0.52995396,0.04279018,-0.51116425,0.7894857,0.3397402,,0.009228318,0.46956748,-0.31194907,-0.545232,-0.2886878,-0.78700787,0.3751847,-0.92358917,0.07886351,-0.7496389,-0.25227442,0.6118816,,1.246387304036842,0.2756706726783181,0.18282355644,2.1424021525813854,-0.484239755168721,-0.8467334781765691,0.763306821045487,,-1.3062153156134593,0.4014739911994354,0.18999981788000003,-1.4441346407779192,-0.8200922715921736,0.16403732265738713,-0.15664695942277385,,-0.03254166390343428,-0.08714647121364187,0.07824560327999999,-0.058221254136848435,,-2.8695911e-05,1.4305115e-06,-7.867813e-06,1.0,1.8291175e-06,1.5236437e-06,-1.8179417e-06,1.0,1.1920929e-07,-1.527369e-06,-1.1920929e-07,1.0,154,0.467,0,0,0.0,False,0.9373362180564984,0.0019311908460366567
0.4643000769428909,10:17:31.238413,10:16:25.283814,0,,0.092923574,0.011102304,0.03674592,-0.23897919,0.29268244,-0.92586493,0.32679254,0.9221153,0.20714726,0.9143826,-0.2530619,-0.31601283,,0.051694497,0.019849926,0.046248734,0.43868756,0.41232395,0.79846233,-0.22638988,-0.8091573,0.54222894,0.86965555,-0.41863292,-0.2616213,,0.0774888,1.330176,0.45620704,0.9982497,0.03666001,-0.046406966,-0.0016540996,-0.7670799,-0.64154947,-0.05911706,0.6405033,-0.7656766,,-0.04857956,0.26076445,-0.0902807,0.14757708,-0.3052547,0.940766,0.84470445,0.5336864,0.0406597,-0.51448554,0.78866875,0.3366099,,0.010265532,0.47092995,-0.31130913,-0.5538569,-0.3126661,-0.7716751,0.37806374,-0.9201991,0.10149587,-0.74182904,-0.23552819,0.6278663,,1.24590849459864,0.2751378041099966,0.18304651832000002,2.1392568034291175,-0.48806557716215326,-0.8490045737223464,0.7624901007148156,,-1.3055666060520246,0.4107721615800017,0.19029666829000003,-1.4541997580651764,-0.8101178071092964,0.14871608655517898,-0.1559935831582367,,-0.03254166390343428,-0.08714647121364187,0.07824560327999999,-0.058221254136848435,,-2.8695911e-05,1.4305115e-06,-7.867813e-06,1.0,1.8291175e-06,1.5236437e-06,-1.8179417e-06,1.0,1.1920929e-07,-1.527369e-06,-1.1920929e-07,1.0,162,0.491,0,0,0.0,False,0.9370383294638933,0.0016897898421390778
0.5144089659443125,10:17:31.266732,10:16:25.283814,0,,0.09291491,0.011123434,0.03656687,-0.23982479,0.2922815,-0.92577285,0.326639,0.9222996,0.20656796,0.91421604,-0.25285354,-0.31666088,,0.051268965,0.020369425,0.0462209,0.44439825,0.419803,0.7913757,-0.22257823,-0.80395573,0.5514656,0.8677379,-0.4212134,-0.26383752,,0.0774888,1.330176,0.45620704,0.9982497,0.03666001,-0.046406966,-0.0016540996,-0.7670799,-0.64154947,-0.05911706,0.6405033,-0.7656766,,-0.0485565,0.26066977,-0.090128765,0.14843905,-0.30488032,0.94075173,0.8445517,0.53399307,0.03979746,-0.5144884,0.788606,0.33675262,,0.010669315,0.47133815,-0.31095973,-0.5593664,-0.3198798,-0.7647131,0.37871027,-0.91925013,0.107506685,-0.73735183,-0.22946906,0.63533944,,1.245452853359061,0.2748134493292792,0.18319948054000001,2.1384180436551796,-0.48833885016168416,-0.8488634166550941,0.762816788847084,,-1.305002846552206,0.4140234321200502,0.19051444501,-1.456086967556537,-0.8039691646198516,0.14264045726701263,-0.15746367975344516,,-0.03254166390343428,-0.08714647121364187,0.07824560327999999,-0.058221254136848435,,-2.8695911e-05,1.4305115e-06,-7.867813e-06,1.0,1.8291175e-06,1.5236437e-06,-1.8179417e-06,1.0,1.1920929e-07,-1.527369e-06,-1.1920929e-07,1.0,170,0.516,0,0,0.0,False,0.9374553734935405,0.0018829106452566968
0.5427237199619412,10:17:31.289212,10:16:25.283814,0,,0.09291762,0.01114209,0.0364708,-0.23957933,0.29282126,-0.925666,0.32637474,0.9222369,0.20726474,0.91437477,-0.2524577,-0.31651837,,0.050664537,0.021085411,0.046121657,0.45207825,0.43081892,0.78103787,-0.2178097,-0.79579926,0.5650333,0.8649764,-0.42555696,-0.26592702,,0.0774888,1.330176,0.45620704,0.9982497,0.03666001,-0.046406966,-0.0016540996,-0.7670799,-0.64154947,-0.05911706,0.6405033,-0.7656766,,-0.048551746,0.26062405,-0.09004232,0.14819129,-0.30544898,0.94060636,0.84442514,0.53414655,0.04041867,-0.51476747,0.7882819,0.33708465,,0.01125263,0.47186124,-0.31043637,-0.5667344,-0.3304439,-0.75473106,0.37919888,-0.91787213,0.117128074,-0.73145086,-0.21981265,0.6454937,,1.245174834975589,0.2746667174046689,0.18328633197000002,2.138627733598664,-0.48902203266051136,-0.8483063271366119,0.762816788847084,,-1.3039371094155632,0.4184408353241066,0.19086444331000002,-1.4581838669913822,-0.7961808841332215,0.1324507359697103,-0.15730033568731094,,-0.03254166390343428,-0.08714647121364187,0.07824560327999999,-0.058221254136848435,,-2.8695911e-05,1.4305115e-06,-7.867813e-06,1.0,1.8291175e-06,1.5236437e-06,-1.8179417e-06,1.0,1.1920929e-07,-1.527369e-06,-1.1920929e-07,1.0,178,0.54,0,0,0.0,False,0.9379319952417084,0.0024139928538304822
0.5651975509244949,10:17:31.318489,10:16:25.283814,0,,0.0929444,0.011182174,0.036346987,-0.2381725,0.29381683,-0.9257134,0.32824975,0.9214064,0.20799594,0.9140711,-0.2543264,-0.31589895,,0.050292708,0.021520644,0.046025217,0.4573106,0.43914023,0.7733193,-0.21522099,-0.7890755,0.5753608,0.8628713,-0.42955312,-0.26634035,,0.0774888,1.330176,0.45620704,0.9982497,0.03666001,-0.046406966,-0.0016540996,-0.7670799,-0.64154947,-0.05911706,0.6405033,-0.7656766,,-0.048569407,0.26057562,-0.089919865,0.14674449,-0.3062493,0.9405729,0.8455744,0.5322517,0.041377254,-0.5132933,0.78925246,0.33706155,,0.011616947,0.47215497,-0.3100929,-0.5716944,-0.33833995,-0.7474568,0.37890673,-0.91692114,0.12524098,-0.72773296,-0.21161684,0.65239793,,1.2448273119962487,0.27461265827454934,0.18339910920000002,2.1413537028639626,-0.48806557716215326,-0.8491679312026276,0.7629801329132184,,-1.3031725588610148,0.42108973269996564,0.19110425696000002,-1.458393556934867,-0.7912619701416657,0.1228038583669403,-0.15681030348890818,,-0.03254166390343428,-0.08714647121364187,0.07824560327999999,-0.058221254136848435,,-2.8695911e-05,1.4305115e-06,-7.867813e-06,1.0,1.8291175e-06,1.5236437e-06,-1.8179417e-06,1.0,1.1920929e-07,-1.527369e-06,-1.1920929e-07,1.0,186,0.564,0,0,0.0,False,0.9381703061157931,0.002655393857728061
0.5944826470222324,10:17:31.342229,10:16:25.283814,0,,0.09295047,0.011239648,0.036227554,-0.2386472,0.29279023,-0.9259165,0.32943285,0.9213357,0.20643318,0.91352147,-0.2557627,-0.31632888,,0.049771547,0.022114605,0.045844257,0.46457827,0.45015374,0.76258016,-0.21267986,-0.7792291,0.5895502,0.8596129,-0.4360777,-0.26627418,,0.0774888,1.330176,0.45620704,0.9982497,0.03666001,-0.046406966,-0.0016540996,-0.7670799,-0.64154947,-0.05911706,0.6405033,-0.7656766,,-0.048567493,0.26054516,-0.08979075,0.14721848,-0.30510223,0.9408716,0.8461895,0.53138536,0.03991207,-0.51214266,0.79027987,0.33640406,,0.012135022,0.47252378,-0.3095902,-0.57849175,-0.34864464,-0.737424,0.37751797,-0.9158355,0.13684137,-0.7230681,-0.19922921,0.66142285,,1.2446265209415188,0.27463582647317203,0.18351447901,2.1413537028639626,-0.48697248516402974,-0.8506310256131828,0.7631434769793526,,-1.3018983079367679,0.42468080348648,0.19147240332,-1.4573451072174441,-0.7852499641519863,0.10818170052757092,-0.15664695942277368,,-0.03254166390343428,-0.08714647121364187,0.07824560327999999,-0.058221254136848435,,-2.8695911e-05,1.4305115e-06,-7.867813e-06,1.0,1.8291175e-06,1.5236437e-06,-1.8179417e-06,1.0,1.1920929e-07,-1.527369e-06,-1.1920929e-07,1.0,201,0.61,0,0,0.0,False,0.9382894615528348,0.002655393857728061
0.6181692089885473,10:17:31.386872,10:16:25.283814,0,,0.09292159,0.011321306,0.036121562,-0.2387733,0.2923131,-0.9260347,0.32922825,0.921507,0.20599413,0.9135622,-0.25569093,-0.31626904,,0.049221143,0.022782072,0.045551956,0.47267723,0.4625032,0.75011116,-0.2101892,-0.7674665,0.6056533,0.8558017,-0.44394386,-0.26555076,,0.0774888,1.330176,0.45620704,0.9982497,0.03666001,-0.046406966,-0.0016540996,-0.7670799,-0.64154947,-0.05911706,0.6405033,-0.7656766,,-0.04853285,0.26054478,-0.08965832,0.14734843,-0.3046399,0.94100106,0.8460666,0.531603,0.039618343,-0.5123083,0.7903118,0.33607653,,0.012695655,0.47287235,-0.30895922,-0.58602625,-0.36014625,-0.72585666,0.37560302,-0.9144809,0.15048927,-0.7179802,-0.1844433,0.67118186,,1.2446110754757704,0.27465899467179467,0.18365188575000002,2.141144012920478,-0.48710912166379516,-0.8510096801503297,0.7637968532438896,,-1.300353761361923,0.42840316073185625,0.19196499352000002,-1.4554578977260835,-0.7788280486630106,0.09044821181233303,-0.15615692722437108,,-0.03254166390343428,-0.08714647121364187,0.07824560327999999,-0.058221254136848435,,-2.8695911e-05,1.4305115e-06,-7.867813e-06,1.0,1.8291175e-06,1.5236437e-06,-1.8179417e-06,1.0,1.1920929e-07,-1.527369e-06,-1.1920929e-07,1.0,209,0.635,0,0,0.0,False,0.9389448164565666,0.0024139928538304822
0.6628370189573616,10:17:31.411120,10:16:25.283814,0,,0.09289391,0.011368543,0.036055148,-0.23864387,0.29244128,-0.9260276,0.32901546,0.92153,0.20623128,0.9136727,-0.25546163,-0.3161352,,0.048842847,0.023318216,0.04531437,0.47792453,0.47248286,0.74050516,-0.2052342,-0.7596189,0.61713725,0.8540884,-0.446922,-0.26607084,,0.0774888,1.330176,0.45620704,0.9982497,0.03666001,-0.046406966,-0.0016540996,-0.7670799,-0.64154947,-0.05911706,0.6405033,-0.7656766,,-0.048501454,0.2605423,-0.08957822,0.14721833,-0.30478787,0.9409735,0.84595954,0.53175336,0.03988552,-0.5125224,0.7901536,0.33612204,,0.013083331,0.47314197,-0.3084454,-0.5911541,-0.36987743,-0.7167479,0.3772678,-0.9122474,0.15960467,-0.71288556,-0.17605494,0.6788217,,1.2446342436743931,0.2746203810074236,0.18373873718000003,2.141144012920478,-0.4873823946633261,-0.8507868443429369,0.7634701651116212,,-1.299427033417016,0.43099799897759566,0.19237073229,-1.4581838669913822,-0.7725427696738003,0.0808306575345667,-0.15697364755504245,,-0.03254166390343428,-0.08714647121364187,0.07824560327999999,-0.058221254136848435,,-2.8695911e-05,1.4305115e-06,-7.867813e-06,1.0,1.8291175e-06,1.5236437e-06,-1.8179417e-06,1.0,1.1920929e-07,-1.527369e-06,-1.1920929e-07,1.0,217,0.659,0,0,0.0,False,0.9382894615528348,0.0021243116491542757
0.6870907139964402,10:17:31.436974,10:16:25.283814,0,,0.09287982,0.011392996,0.0360194,-0.23846437,0.29224065,-0.92613715,0.32910678,0.92153794,0.20605007,0.91368663,-0.2556625,-0.3159324,,0.04860556,0.023668587,0.045211077,0.47971833,0.47797275,0.73580724,-0.20309842,-0.7553366,0.6230713,0.85359323,-0.44834,-0.26527327,,0.0774888,1.330176,0.45620704,0.9982497,0.03666001,-0.046406966,-0.0016540996,-0.7670799,-0.64154947,-0.05911706,0.6405033,-0.7656766,,-0.048485316,0.26054016,-0.08953568,0.14703494,-0.30457136,0.9410723,0.8460242,0.5316508,0.03988054,-0.5124683,0.7903061,0.335846,,0.013319133,0.47335258,-0.30814576,-0.5929382,-0.37526202,-0.7124624,0.3782147,-0.9108921,0.16501264,-0.7108994,-0.17162144,0.68203235,,1.2446496891401415,0.2745972128088009,0.18378410733000003,2.1413537028639626,-0.4873823946633261,-0.8511135593034991,0.7634701651116214,,-1.2989482239788142,0.43275878207291885,0.19261184223000002,-1.460490456369712,-0.7703565856775533,0.07643425139092597,-0.15664695942277385,,-0.03254166390343428,-0.08714647121364187,0.07824560327999999,-0.058221254136848435,,-2.8695911e-05,1.4305115e-06,-7.867813e-06,1.0,1.8291175e-06,1.5236437e-06,-1.8179417e-06,1.0,1.1920929e-07,-1.527369e-06,-1.1920929e-07,1.0,225,0.684,0,0,0.0,False,0.9382894615528348,0.0017380700429185936
0.712939849938266,10:17:31.458913,10:16:25.283814,0,,0.09286692,0.01140894,0.035987794,-0.23850663,0.29054958,-0.92665815,0.3292407,0.9218775,0.20430948,0.9136274,-0.25636455,-0.31553465,,0.04837186,0.024036974,0.045106173,0.4822462,0.48426515,0.7300176,-0.20138371,-0.74972034,0.6303683,0.85257447,-0.4510064,-0.2640267,,0.0774888,1.330176,0.45620704,0.9982497,0.03666001,-0.046406966,-0.0016540996,-0.7670799,-0.64154947,-0.05911706,0.6405033,-0.7656766,,-0.0484704,0.26053387,-0.089501664,0.1470769,-0.30284095,0.941624,0.8460947,0.531617,0.038820602,-0.51233983,0.7909935,0.33442074,,0.013550901,0.47357446,-0.30783212,-0.5953529,-0.38130707,-0.70721984,0.37840363,-0.90954894,0.1718472,-0.7087776,-0.16530484,0.68579054,,1.2446574118730158,0.27455859914442976,0.18382040345000003,2.1413537028639626,-0.48724575816356064,-0.8529402307501475,0.763306821045487,,-1.2985466418693543,0.4346045152298585,0.19286461878000002,-1.4615389060871349,-0.7677604921820099,0.06949826555240085,-0.15713699162117672,,-0.03254166390343428,-0.08714647121364187,0.07824560327999999,-0.058221254136848435,,-2.8695911e-05,1.4305115e-06,-7.867813e-06,1.0,1.8291175e-06,1.5236437e-06,-1.8179417e-06,1.0,1.1920929e-07,-1.527369e-06,-1.1920929e-07,1.0,233,0.707,0,0,0.0,False,0.9387065055824824,0.0021243116491542757
0.7348746600328013,10:17:31.488566,10:16:25.559911,0,,0.0928569,0.011416197,0.035922483,-0.2368479,0.2887479,-0.9276462,0.33147195,0.92153966,0.20221525,0.913252,-0.25959453,-0.3139766,,0.04800076,0.024608344,0.044966996,0.485722,0.49303457,0.72179705,-0.2018511,-0.74016535,0.64141375,0.8504882,-0.45724425,-0.25999507,,0.0774888,1.330176,0.45620704,0.9982497,0.03666001,-0.046406966,-0.0016540996,-0.7670799,-0.64154947,-0.05911706,0.6405033,-0.7656766,,-0.048455145,0.26049957,-0.0894468,0.14537175,-0.30075932,0.9425555,0.8474549,0.52948767,0.03824957,-0.5105754,0.7932129,0.3318525,,0.013915406,0.47393596,-0.30736306,-0.5984578,-0.38942546,-0.70014006,0.3761751,-0.90817684,0.18359503,-0.7073476,-0.15350139,0.6899977,,1.2446187982086447,0.27438869902119684,0.18387225505000002,2.1440796721292616,-0.4860160296656717,-0.8567200690481944,0.7636335091777555,,-1.297874764109297,0.43764727198230297,0.19325350578000003,-1.4602807664262276,-0.7661208541848247,0.0564811908679434,-0.1576270238195795,,-0.03254166390343428,-0.08714647121364187,0.07824560327999999,-0.058221254136848435,,-2.8695911e-05,1.4305115e-06,-7.867813e-06,1.0,1.8291175e-06,1.5236437e-06,-1.8179417e-06,1.0,1.1920929e-07,-1.527369e-06,-1.1920929e-07,1.0,248,0.753,0,0,0.0,False,0.938349039271356,0.0023657126530514105
0.7645609190221876,10:17:31.522392,10:16:25.559911,0,,0.09280013,0.011385009,0.035847023,-0.23745647,0.2878058,-0.9277835,0.33142972,0.9217941,0.2011219,0.9131094,-0.2597374,-0.31427336,,0.047465444,0.025378525,0.044812143,0.48762175,0.5004512,0.7153834,-0.20272115,-0.73210484,0.6503282,0.8491931,-0.46213752,-0.25553828,,0.0774888,1.330176,0.45620704,0.9982497,0.03666001,-0.046406966,-0.0016540996,-0.7670799,-0.64154947,-0.05911706,0.6405033,-0.7656766,,-0.048391003,0.26043293,-0.08941022,0.14599141,-0.2998189,0.94275934,0.8473837,0.52967453,0.03722656,-0.5105168,0.7934441,0.33138958,,0.014436534,0.4744504,-0.30675688,-0.6001072,-0.39634767,-0.6948236,0.3744118,-0.90676826,0.19387403,-0.7068855,-0.14380495,0.6925554,,1.2446033527428961,0.2739330577816176,0.18392540294,2.1432409123553238,-0.4860160296656717,-0.856965105268616,0.7637968532438897,,-1.2967935815069054,0.44183299320013264,0.19376554033,-1.4615389060871349,-0.7665307636841209,0.04815749812413306,-0.15795371195184799,,-0.03254166390343428,-0.08714647121364187,0.07824560327999999,-0.058221254136848435,,-2.8695911e-05,1.4305115e-06,-7.867813e-06,1.0,1.8291175e-06,1.5236437e-06,-1.8179417e-06,1.0,1.1920929e-07,-1.527369e-06,-1.1920929e-07,1.0,256,0.778,0,0,0.0,False,0.9387065055824824,0.002703674058508021
0.7983882839325815,10:17:31.555902,10:16:25.559911,0,,0.092732534,0.011331633,0.03577645,-0.23803148,0.28626224,-0.92811364,0.33144867,0.92215717,0.19941908,0.91295266,-0.26015407,-0.31438366,,0.04703878,0.025864318,0.04464513,0.4897541,0.5070536,0.70925134,-0.20277959,-0.7249367,0.6582912,0.84795123,-0.46622252,-0.25222057,,0.0774888,1.330176,0.45620704,0.9982497,0.03666001,-0.046406966,-0.0016540996,-0.7670799,-0.64154947,-0.05911706,0.6405033,-0.7656766,,-0.048315644,0.26035306,-0.08939186,0.14657651,-0.29826057,0.94316274,0.8473485,0.52982485,0.03586281,-0.5104075,0.7939309,0.3303905,,0.014863508,0.47473902,-0.3063322,-0.60202676,-0.40255,-0.68957764,0.3732337,-0.9053332,0.20265333,-0.70587564,-0.1353709,0.69528,,1.2446110754757704,0.273361575548925,0.18396429164000003,2.1424021525813854,-0.4860160296656717,-0.8577818926700217,0.7637968532438896,,-1.2955193305826584,0.4446131770348535,0.19412202008,-1.4621679759175883,-0.76625749068459,0.039685109562543286,-0.15681030348890812,,-0.03254166390343428,-0.08714647121364187,0.07824560327999999,-0.058221254136848435,,-2.8695911e-05,1.4305115e-06,-7.867813e-06,1.0,1.8291175e-06,1.5236437e-06,-1.8179417e-06,1.0,1.1920929e-07,-1.527369e-06,-1.1920929e-07,1.0,264,0.802,0,0,0.0,False,0.9387065055824824,0.0019311908460366567
0.8318933229893446,10:17:31.580288,10:16:25.559911,0,,0.09268016,0.011282846,0.03573124,-0.23808242,0.28548083,-0.9283412,0.3311231,0.9224206,0.19874032,0.91305757,-0.26007876,-0.31414145,,0.046760425,0.026130766,0.04449761,0.48870695,0.51016897,0.7077379,-0.20359337,-0.72212464,0.66112477,0.8483603,-0.46718702,-0.24904026,,0.0774888,1.330176,0.45620704,0.9982497,0.03666001,-0.046406966,-0.0016540996,-0.7670799,-0.64154947,-0.05911706,0.6405033,-0.7656766,,-0.048257783,0.2602913,-0.08938963,0.14663081,-0.2974991,0.9433948,0.8471654,0.5301416,0.035505913,-0.51069576,0.79400516,0.32976604,,0.015149837,0.47486472,-0.306063,-0.60102046,-0.4055971,-0.6886693,0.37307262,-0.90440124,0.20706345,-0.7068177,-0.13247429,0.6948808,,1.2446110754757704,0.2728904888435973,0.18398503228000002,2.141982772694416,-0.48656257566473343,-0.8579896509763604,0.7634701651116211,,-1.294337752452902,0.446111387212453,0.19436831518000003,-1.4642648753524337,-0.7688535841801334,0.0374730765053255,-0.15664695942277385,,-0.03254166390343428,-0.08714647121364187,0.07824560327999999,-0.058221254136848435,,-2.8695911e-05,1.4305115e-06,-7.867813e-06,1.0,1.8291175e-06,1.5236437e-06,-1.8179417e-06,1.0,1.1920929e-07,-1.527369e-06,-1.1920929e-07,1.0,276,0.838,0,0,0.0,False,0.9390043941750874,0.002510553255389514
0.856280918000266,10:17:31.618889,10:16:25.559911,0,,0.0925866,0.011182234,0.03564781,-0.23794723,0.2831019,-0.92910403,0.33167663,0.9227602,0.19622523,0.91289186,-0.26147094,-0.31346652,,0.04627095,0.026348636,0.04411,0.48238438,0.510213,0.7120307,-0.20692664,-0.7234789,0.65860444,0.8511678,-0.46503863,-0.24341829,,0.0774888,1.330176,0.45620704,0.9982497,0.03666001,-0.046406966,-0.0016540996,-0.7670799,-0.64154947,-0.05911706,0.6405033,-0.7656766,,-0.04815367,0.26016885,-0.08939207,0.14648905,-0.2950251,0.94419336,0.84748054,0.5297341,0.03403777,-0.5102134,0.79519933,0.32762828,,0.015682442,0.47481868,-0.30567378,-0.595058,-0.40590626,-0.6936469,0.37346047,-0.90389717,0.20855981,-0.7116412,-0.13494451,0.68946123,,1.2446265209415188,0.27199465183018723,0.18401225437000002,2.141982772694416,-0.48656257566473343,-0.8600316194798746,0.7636335091777555,,-1.2910478682484825,0.44751692459556186,0.19477146137,-1.4701361937700004,-0.7792379581623068,0.04275536632077159,-0.15648361535663957,,-0.03254166390343428,-0.08714647121364187,0.07824560327999999,-0.058221254136848435,,-2.8695911e-05,1.4305115e-06,-7.867813e-06,1.0,1.8291175e-06,1.5236437e-06,-1.8179417e-06,1.0,1.1920929e-07,-1.527369e-06,-1.1920929e-07,1.0,295,0.897,0,0,0.0,False,0.9389448164565666,0.002510553255389514
0.8948552199872211,10:17:31.670939,10:16:25.732052,0,,0.09251007,0.011100769,0.035588607,-0.23778714,0.28230208,-0.92938834,0.33158284,0.922946,0.19550864,0.9129677,-0.2616798,-0.31307122,,0.04585526,0.026075765,0.0436424,0.45686233,0.5112251,0.7279599,-0.2208418,-0.72755134,0.64953685,0.86168766,-0.45751292,-0.21949092,,0.0774888,1.330176,0.45620704,0.9982497,0.03666001,-0.046406966,-0.0016540996,-0.7670799,-0.64154947,-0.05911706,0.6405033,-0.7656766,,-0.048069306,0.260075,-0.08940057,0.14632683,-0.29421812,0.9444703,0.8474417,0.52981454,0.033751823,-0.5103245,0.79544467,0.3268588,,0.016173705,0.4743575,-0.30556488,-0.5708502,-0.4078636,-0.712585,0.374139,-0.90176547,0.21642329,-0.7308557,-0.14306056,0.6673707,,1.2446419664072674,0.27127643767288434,0.18403040243000002,2.1417730827509316,-0.48710912166379516,-0.8602393777862134,0.7642868854422926,,-1.2857655189625128,0.44655930571915803,0.19508257097,-1.4841854199834634,-0.813397083103667,0.05386570051606182,-0.15468683062916244,,-0.03254166390343428,-0.08714647121364187,0.07824560327999999,-0.058221254136848435,,-2.8695911e-05,1.4305115e-06,-7.867813e-06,1.0,1.8291175e-06,1.5236437e-06,-1.8179417e-06,1.0,1.1920929e-07,-1.527369e-06,-1.1920929e-07,1.0,303,0.921,0,0,0.0,False,0.9394810159232558,0.002703674058508021
0.9469147779745981,10:17:31.693372,10:16:25.732052,0,,0.09249914,0.011093855,0.035574958,-0.23777436,0.28225273,-0.9294066,0.3316409,0.92293894,0.19544339,0.9129499,-0.26175785,-0.31305772,,0.045741983,0.025665164,0.04335791,0.43632296,0.51437986,0.7382651,-0.23097825,-0.7289624,0.644409,0.8696386,-0.45169368,-0.19925246,,0.0774888,1.330176,0.45620704,0.9982497,0.03666001,-0.046406966,-0.0016540996,-0.7670799,-0.64154947,-0.05911706,0.6405033,-0.7656766,,-0.048056994,0.260062,-0.08939477,0.14631337,-0.2941621,0.94448984,0.8474746,0.5297645,0.03371108,-0.5102737,0.7954987,0.32680652,,0.016344426,0.47388375,-0.30565858,-0.5513343,-0.41179058,-0.7255749,0.37508923,-0.89919066,0.2253092,-0.7452104,-0.14793465,0.6502129,,1.2446419664072674,0.2711837648783937,0.18403947646000002,2.1417730827509316,-0.48710912166379516,-0.8602393777862134,0.7642868854422926,,-1.2824447438265962,0.44455139517185965,0.19517590385000003,-1.4950892970446585,-0.8390847450595699,0.059129948304001145,-0.1563202712905053,,-0.03254166390343428,-0.08714647121364187,0.07824560327999999,-0.058221254136848435,,-2.8695911e-05,1.4305115e-06,-7.867813e-06,1.0,1.8291175e-06,1.5236437e-06,-1.8179417e-06,1.0,1.1920929e-07,-1.527369e-06,-1.1920929e-07,1.0,311,0.946,0,0,0.0,True,0.9391235496121295,0.002703674058508021
0.9693685789825395,10:17:31.722380,10:16:25.732052,0,,0.09250661,0.011105448,0.03557886,-0.23773715,0.28237575,-0.9293787,0.33148295,0.9229561,0.19563024,0.9130169,-0.26156467,-0.31302372,,0.04576189,0.025143996,0.043109477,0.41193616,0.51832646,0.74943054,-0.24150315,-0.73093873,0.6382829,0.8786267,-0.4439217,-0.17592257,,0.0774888,1.330176,0.45620704,0.9982497,0.03666001,-0.046406966,-0.0016540996,-0.7670799,-0.64154947,-0.05911706,0.6405033,-0.7656766,,-0.048065215,0.26007283,-0.089390196,0.1462767,-0.29430166,0.94445205,0.8473907,0.52988815,0.03387512,-0.5104234,0.79536474,0.32689878,,0.01638261,0.47333822,-0.30584475,-0.52815586,-0.41676795,-0.739835,0.37698498,-0.8957819,0.23549353,-0.76087695,-0.15452941,0.6302277,,1.2446342436743931,0.2712609922071359,0.18404206904,2.1417730827509316,-0.48724575816356064,-0.8601279598825169,0.7642868854422926,,-1.2795023826015168,0.44165537034402547,0.19521868142,-1.5089288333146373,-0.8675051370107815,0.0663775179454471,-0.15550355095983392,,-0.03254166390343428,-0.08714647121364187,0.07824560327999999,-0.058221254136848435,,-2.8695911e-05,1.4305115e-06,-7.867813e-06,1.0,1.8291175e-06,1.5236437e-06,-1.8179417e-06,1.0,1.1920929e-07,-1.527369e-06,-1.1920929e-07,1.0,323,0.982,0,0,0.0,True,0.9398384822343817,0.0025588334561694737
0.998374780989252,10:17:31.753849,10:16:25.732052,0,,0.09251323,0.011113167,0.03557934,-0.23775615,0.28241044,-0.9293633,0.33145615,0.92295766,0.1956685,0.9130217,-0.2615219,-0.31304553,,0.04588072,0.024598017,0.04279846,0.39664376,0.52312183,0.7543321,-0.24272329,-0.73272526,0.6357667,0.88530165,-0.43526694,-0.16365707,,0.0774888,1.330176,0.45620704,0.9982497,0.03666001,-0.046406966,-0.0016540996,-0.7670799,-0.64154947,-0.05911706,0.6405033,-0.7656766,,-0.048072148,0.26007858,-0.08938542,0.14629622,-0.2943399,0.9444371,0.84737444,0.5299132,0.033889942,-0.5104448,0.7953339,0.32694042,,0.01633338,0.47271878,-0.3059959,-0.5139913,-0.4227231,-0.74640346,0.38272923,-0.8917433,0.24147932,-0.76767915,-0.16155213,0.6201368,,1.2446187982086447,0.2713150513372555,0.18404466162000002,2.1417730827509316,-0.48724575816356064,-0.8601279598825169,0.7642868854422926,,-1.2772936809994886,0.43814152688625335,0.19522127400000003,-1.5225586796411312,-0.8819886059859181,0.07279701888799062,-0.1574636797534451,,-0.03254166390343428,-0.08714647121364187,0.07824560327999999,-0.058221254136848435,,-2.8695911e-05,1.4305115e-06,-7.867813e-06,1.0,1.8291175e-06,1.5236437e-06,-1.8179417e-06,1.0,1.1920929e-07,-1.527369e-06,-1.1920929e-07,1.0,331,1.006,0,0,0.0,True,0.9408513034492394,0.0019794710468157284
1.0298449150286615,10:17:31.784045,10:16:25.732052,0,,0.09251115,0.011113331,0.035578415,-0.23774932,0.28240338,-0.92936724,0.33145747,0.9229584,0.19566298,0.91302305,-0.26152703,-0.31303743,,0.046101674,0.024105757,0.042456448,0.3940842,0.5216545,0.75668633,-0.24156246,-0.73557764,0.63290864,0.88676107,-0.43220627,-0.16386735,,0.0774888,1.330176,0.45620704,0.9982497,0.03666001,-0.046406966,-0.0016540996,-0.7670799,-0.64154947,-0.05911706,0.6405033,-0.7656766,,-0.04807,0.2600783,-0.08938471,0.14628926,-0.29433244,0.9444405,0.84737575,0.5299111,0.033891022,-0.5104447,0.7953381,0.3269305,,0.016185684,0.4721029,-0.3060795,-0.511726,-0.4216147,-0.7485837,0.38490057,-0.89148146,0.23898202,-0.76810676,-0.16583695,0.618474,,1.2446265209415188,0.2713073286043812,0.18404595791000003,2.1417730827509316,-0.48724575816356064,-0.8601279598825169,0.7642868854422926,,-1.2760580437396127,0.4348439199489595,0.19521868142,-1.5236071293585538,-0.8841747899821651,0.07449802660699284,-0.15730033568731083,,-0.03254166390343428,-0.08714647121364187,0.07824560327999999,-0.058221254136848435,,-2.8695911e-05,1.4305115e-06,-7.867813e-06,1.0,1.8291175e-06,1.5236437e-06,-1.8179417e-06,1.0,1.1920929e-07,-1.527369e-06,-1.1920929e-07,1.0,339,1.031,0,0,0.0,True,0.9427577904419122,0.002462273054610442
1.060039873002097,10:17:31.805702,10:16:25.875248,0,,0.09250727,0.011112899,0.03557764,-0.23773569,0.28246516,-0.9293519,0.33146015,0.9229436,0.19572727,0.9130256,-0.26151183,-0.3130426,,0.04626164,0.023878425,0.04230064,0.39375755,0.5213507,0.75706553,-0.24032098,-0.73656833,0.63222873,0.8872434,-0.4308836,-0.16473785,,0.0774888,1.330176,0.45620704,0.9982497,0.03666001,-0.046406966,-0.0016540996,-0.7670799,-0.64154947,-0.05911706,0.6405033,-0.7656766,,-0.048066057,0.2600778,-0.08938453,0.14627536,-0.2943947,0.94442326,0.8473783,0.52990407,0.03393646,-0.51044446,0.7953197,0.32697558,,0.016059943,0.47181228,-0.30611506,-0.51152486,-0.4214718,-0.7488016,0.3861619,-0.8912393,0.23784782,-0.76760757,-0.16749357,0.6186474,,1.2446419664072674,0.2712841604057586,0.1840472542,2.1417730827509316,-0.48724575816356064,-0.8600462811423764,0.7641235413761585,,-1.2758109162876374,0.4331449187166301,0.19521738513000003,-1.5236071293585538,-0.8837648804828687,0.07440880911632514,-0.15746367975344522,,-0.03254166390343428,-0.08714647121364187,0.07824560327999999,-0.058221254136848435,,-2.8695911e-05,1.4305115e-06,-7.867813e-06,1.0,1.8291175e-06,1.5236437e-06,-1.8179417e-06,1.0,1.1920929e-07,-1.527369e-06,-1.1920929e-07,1.0,347,1.056,0,0,0.0,True,0.9433535676271227,0.002510553255389514
1.0816809670068324,10:17:31.824962,10:16:25.875248,0,,0.09250727,0.011112899,0.03557764,-0.23773569,0.28246516,-0.9293519,0.33146015,0.9229436,0.19572727,0.9130256,-0.26151183,-0.3130426,,0.046389997,0.023737952,0.042211115,0.39350182,0.52129245,0.7572386,-0.2394774,-0.7371296,0.63189447,0.8875848,-0.42999318,-0.16522405,,0.0774888,1.330176,0.45620704,0.9982497,0.03666001,-0.046406966,-0.0016540996,-0.7670799,-0.64154947,-0.05911706,0.6405033,-0.7656766,,-0.048066057,0.2600778,-0.08938453,0.14627536,-0.2943947,0.94442326,0.8473783,0.52990407,0.03393646,-0.51044446,0.7953197,0.32697558,,0.015952084,0.47163337,-0.30613947,-0.5113568,-0.42152438,-0.7488868,0.38703284,-0.89102024,0.23725198,-0.7672808,-0.1685234,0.618773,,1.2446419664072674,0.2712918831386328,0.1840472542,2.1417730827509316,-0.48724575816356064,-0.8600462811423764,0.7641235413761585,,-1.2758186390205117,0.4320096769841191,0.19521608884000002,-1.5236071293585538,-0.8833549709835725,0.07423791288551712,-0.15746367975344522,,-0.03254166390343428,-0.08714647121364187,0.07824560327999999,-0.058221254136848435,,-2.8695911e-05,1.4305115e-06,-7.867813e-06,1.0,1.8291175e-06,1.5236437e-06,-1.8179417e-06,1.0,1.1920929e-07,-1.527369e-06,-1.1920929e-07,1.0,355,1.081,0,0,0.0,True,0.9432939899086019,0.0019311908460366567
1.1009558399673551,10:17:31.856300,10:16:25.875248,0,,0.09251043,0.011111632,0.035575673,-0.23775294,0.28247404,-0.92934483,0.33147064,0.9229399,0.19572757,0.9130173,-0.26151577,-0.3130635,,0.046483494,0.023669735,0.042177916,0.39306557,0.5211116,0.7575896,-0.23923966,-0.7375716,0.63146865,0.88784224,-0.42945412,-0.16524342,,0.0774888,1.330176,0.45620704,0.9982497,0.03666001,-0.046406966,-0.0016540996,-0.7670799,-0.64154947,-0.05911706,0.6405033,-0.7656766,,-0.04806898,0.26007533,-0.08938366,0.14629285,-0.29440305,0.94441795,0.84738266,0.5298979,0.033923037,-0.5104321,0.79532075,0.3269923,,0.015867371,0.47154948,-0.3061562,-0.5109736,-0.4214083,-0.74921364,0.38743734,-0.89094126,0.23688813,-0.76733196,-0.16922975,0.61851674,,1.2446187982086447,0.2712918831386328,0.1840472542,2.1417730827509316,-0.48724575816356064,-0.8600462811423764,0.7641235413761585,,-1.2759885391437447,0.43137641288843265,0.19521479255000002,-1.5236071293585538,-0.8833549709835725,0.07440127036579824,-0.15746367975344522,,-0.03254166390343428,-0.08714647121364187,0.07824560327999999,-0.058221254136848435,,-2.8695911e-05,1.4305115e-06,-7.867813e-06,1.0,1.8291175e-06,1.5236437e-06,-1.8179417e-06,1.0,1.1920929e-07,-1.527369e-06,-1.1920929e-07,1.0,363,1.106,0,0,0.0,True,0.9440089225308541,0.002269152251492379
1.1322896409546956,10:17:31.877863,10:16:25.875248,0,,0.09247186,0.011118248,0.035567075,-0.23774718,0.28250414,-0.9293372,0.33145848,0.92293656,0.19576328,0.91302323,-0.26149458,-0.31306398,,0.04638794,0.023680866,0.042212248,0.39299643,0.521132,0.7576115,-0.23951066,-0.7374515,0.6315062,0.88779974,-0.42963573,-0.16499913,,0.07749052,1.3301743,0.45619932,0.99824977,0.036689043,-0.046382684,-0.0016163215,-0.7670785,-0.6415512,-0.05911706,0.6405033,-0.7656766,,-0.048037644,0.26008087,-0.089381844,0.14627488,-0.29446933,0.9444001,0.84738183,0.52989584,0.033976484,-0.5104387,0.79529756,0.3270384,,0.0159478,0.47159863,-0.30618566,-0.5108807,-0.4213762,-0.749295,0.38721076,-0.8909949,0.23705685,-0.7675081,-0.16902731,0.6183535,,1.2446110754757704,0.27129960587150703,0.18404855049000002,2.1417730827509316,-0.48724575816356064,-0.8600462811423764,0.7641235413761585,,-1.2761661619998517,0.43161581760753365,0.19521349626,-1.5236071293585538,-0.8833549709835725,0.07440127036579824,-0.15746367975344522,,-0.03254166390343428,-0.08714647121364187,0.07824560327999999,-0.058221254136848435,,-2.6520342e-05,-2.3245811e-06,-1.0728836e-06,1.0,3.0804425e-05,2.5764108e-05,-3.0796975e-05,1.0,2.3543835e-06,-2.5767833e-05,-2.3841858e-06,1.0,371,1.13,0,0,0.0,True,0.9448430105901484,0.0015449492398005304
1.1538416439434513,10:17:31.903531,10:16:25.875248,0,,0.09247154,0.011119664,0.035568282,-0.23774248,0.2824294,-0.9293611,0.33145013,0.92295444,0.19569325,0.91302747,-0.26151234,-0.31303677,,0.0463321,0.023785084,0.042286575,0.39318034,0.5213307,0.7573793,-0.23996913,-0.73698944,0.6318714,0.8875946,-0.43018702,-0.16466656,,0.07749052,1.3301743,0.45619932,0.99824977,0.036689043,-0.046382684,-0.0016163215,-0.7670785,-0.6415512,-0.05911706,0.6405033,-0.7656766,,-0.048037484,0.26008275,-0.089381896,0.14627017,-0.29439408,0.9444243,0.84737766,0.52990484,0.033941075,-0.510447,0.79531944,0.32697225,,0.01598773,0.47173157,-0.30617005,-0.5110135,-0.421509,-0.7491297,0.38671798,-0.8910703,0.23757707,-0.7676682,-0.16829684,0.6183541,,1.2446187982086447,0.2713073286043812,0.18404855049000002,2.1417730827509316,-0.48724575816356064,-0.8601279598825169,0.7642868854422926,,-1.276374675787456,0.43234175449771073,0.19521349626,-1.5236071293585538,-0.8833549709835725,0.07440127036579824,-0.15746367975344522,,-0.03254166390343428,-0.08714647121364187,0.07824560327999999,-0.058221254136848435,,-2.6520342e-05,-2.3245811e-06,-1.0728836e-06,1.0,3.0804425e-05,2.5764108e-05,-3.0796975e-05,1.0,2.3543835e-06,-2.5767833e-05,-2.3841858e-06,1.0,404,1.232,0,0,0.0,True,0.9453196323383168,0.0016897898421390778
1.1795195159502327,10:17:32.003084,10:16:26.020982,0,,0.0924687,0.0111195,0.03556907,-0.2377299,0.28241938,-0.92936736,0.331448,0.92295635,0.19568762,0.9130316,-0.2615162,-0.3130217,,0.046087638,0.024123132,0.04251182,0.39412686,0.52183276,0.7565412,-0.24138758,-0.7354963,0.63306975,0.8867898,-0.43212947,-0.16391495,,0.07749052,1.3301743,0.45619932,0.99824977,0.036689043,-0.046382684,-0.0016163215,-0.7670785,-0.6415512,-0.05911706,0.6405033,-0.7656766,,-0.04803472,0.26008335,-0.08938272,0.14625739,-0.29438385,0.9444294,0.8473775,0.5299048,0.03394663,-0.510451,0.79532325,0.32695675,,0.016182186,0.47216013,-0.3061131,-0.51177204,-0.42177564,-0.74846154,0.38502643,-0.89140606,0.2390605,-0.76801306,-0.165833,0.6185914,,1.2446342436743931,0.27129960587150703,0.18404855049000002,2.1417730827509316,-0.48724575816356064,-0.8601279598825169,0.7642868854422926,,-1.2767144760339217,0.4348748108804564,0.19521479255000002,-1.5236071293585538,-0.8833549709835725,0.07448294910593883,-0.15730033568731094,,-0.03254166390343428,-0.08714647121364187,0.07824560327999999,-0.058221254136848435,,-2.6520342e-05,-2.3245811e-06,-1.0728836e-06,1.0,3.0804425e-05,2.5764108e-05,-3.0796975e-05,1.0,2.3543835e-06,-2.5767833e-05,-2.3841858e-06,1.0,412,1.256,0,0,0.0,True,0.9495496503533101,0.00207603144837476
1.2790736589813605,10:17:32.030578,10:16:26.020982,0,,0.0924708,0.011118665,0.035567746,-0.23774141,0.28242528,-0.9293626,0.33145493,0.92295384,0.1956878,0.913026,-0.2615188,-0.31303567,,0.046127938,0.024077594,0.042482913,0.39395908,0.52176565,0.7566748,-0.24120346,-0.7357105,0.6328911,0.8869145,-0.4318457,-0.1639882,,0.07749052,1.3301743,0.45619932,0.99824977,0.036689043,-0.046382684,-0.0016163215,-0.7670785,-0.6415512,-0.05911706,0.6405033,-0.7656766,,-0.04803667,0.2600817,-0.089382134,0.14626905,-0.29438943,0.9444259,0.8473804,0.52990067,0.033937678,-0.5104428,0.7953239,0.3269679,,0.016148489,0.47210243,-0.3061212,-0.5116322,-0.42174307,-0.7485755,0.38526586,-0.89135504,0.23886487,-0.7679862,-0.16618964,0.61852914,,1.2446187982086447,0.27129960587150703,0.18404855049000002,2.1417730827509316,-0.48724575816356064,-0.8601279598825169,0.7642868854422926,,-1.2767067533010474,0.43451184243536783,0.19521479255000002,-1.5236071293585538,-0.8833549709835725,0.07448294910593883,-0.15730033568731094,,-0.03254166390343428,-0.08714647121364187,0.07824560327999999,-0.058221254136848435,,-2.6520342e-05,-2.3245811e-06,-1.0728836e-06,1.0,3.0804425e-05,2.5764108e-05,-3.0796975e-05,1.0,2.3543835e-06,-2.5767833e-05,-2.3841858e-06,1.0,420,1.281,0,0,0.0,True,0.9518731813756305,0.00207603144837476
1.3065695109544322,10:17:32.055909,10:16:26.020982,0,,0.09246977,0.011118397,0.03556618,-0.23774035,0.28242117,-0.92936414,0.33145982,0.92295325,0.19568236,0.91302454,-0.26152533,-0.3130345,,0.046180733,0.024019435,0.042444646,0.3937395,0.5216793,0.7568486,-0.2409653,-0.7359879,0.6326592,0.8870766,-0.43147722,-0.16408092,,0.07749052,1.3301743,0.45619932,0.99824977,0.036689043,-0.046382684,-0.0016163215,-0.7670785,-0.6415512,-0.05911706,0.6405033,-0.7656766,,-0.04803549,0.2600806,-0.089381136,0.14626794,-0.29438475,0.9444275,0.84738314,0.5298965,0.033934284,-0.51043856,0.79532844,0.32696354,,0.016104355,0.4720276,-0.3061305,-0.5114489,-0.4217015,-0.7487241,0.38557646,-0.89128834,0.23861252,-0.7679523,-0.16665228,0.61844665,,1.2446187982086447,0.2712918831386328,0.18404984678000003,2.1417730827509316,-0.48724575816356064,-0.8601279598825169,0.7642868854422926,,-1.2766990305681734,0.43404075573004014,0.19521608884000002,-1.5236071293585538,-0.8833549709835725,0.07448294910593883,-0.15730033568731094,,-0.03254166390343428,-0.08714647121364187,0.07824560327999999,-0.058221254136848435,,-2.6520342e-05,-2.3245811e-06,-1.0728836e-06,1.0,3.0804425e-05,2.5764108e-05,-3.0796975e-05,1.0,2.3543835e-06,-2.5767833e-05,-2.3841858e-06,1.0,428,1.306,0,0,0.0,True,0.9535413574942195,0.002510553255389514
1.3318586809327826,10:17:32.075751,10:16:26.154452,0,,0.092467666,0.011119232,0.035567507,-0.23772883,0.28241527,-0.9293689,0.33145285,0.9229559,0.19568215,0.91303,-0.26152277,-0.31302056,,0.04620149,0.023992002,0.042426407,0.39365777,0.5216345,0.75692195,-0.24085084,-0.7361142,0.63255584,0.88714397,-0.43131587,-0.16414109,,0.07749052,1.3301743,0.45619932,0.99824977,0.036689043,-0.046382684,-0.0016163215,-0.7670785,-0.6415512,-0.05911706,0.6405033,-0.7656766,,-0.048033543,0.26008224,-0.08938172,0.14625627,-0.29437917,0.94443107,0.8473802,0.5299006,0.033943232,-0.5104468,0.7953278,0.32695237,,0.016087657,0.47199273,-0.3061351,-0.5113828,-0.4216762,-0.7487835,0.38571537,-0.89126164,0.23848762,-0.7679266,-0.16685882,0.6184229,,1.2446342436743931,0.2712918831386328,0.18404984678000003,2.1417730827509316,-0.48724575816356064,-0.8601279598825169,0.7642868854422926,,-1.2766758623695507,0.4338322419424361,0.19521608884000002,-1.5236071293585538,-0.8833549709835725,0.07448294910593883,-0.15730033568731094,,-0.03254166390343428,-0.08714647121364187,0.07824560327999999,-0.058221254136848435,,-2.6520342e-05,-2.3245811e-06,-1.0728836e-06,1.0,3.0804425e-05,2.5764108e-05,-3.0796975e-05,1.0,2.3543835e-06,-2.5767833e-05,-2.3841858e-06,1.0,436,1.331,0,0,0.0,True,0.9560436216721029,0.0016897898421390778
1.3517152919666842,10:17:32.106660,10:16:26.154452,0,,0.092467666,0.011119232,0.035567507,-0.23772883,0.28241527,-0.9293689,0.33145285,0.9229559,0.19568215,0.91303,-0.26152277,-0.31302056,,0.046210162,0.023980975,0.042419136,0.3936232,0.5216168,0.7569521,-0.24080497,-0.73616534,0.63251376,0.8871718,-0.4312499,-0.16416389,,0.07749052,1.3301743,0.45619932,0.99824977,0.036689043,-0.046382684,-0.0016163215,-0.7670785,-0.6415512,-0.05911706,0.6405033,-0.7656766,,-0.048033543,0.26008224,-0.08938172,0.14625627,-0.29437917,0.94443107,0.8473802,0.5299006,0.033943232,-0.5104468,0.7953278,0.32695237,,0.01608061,0.4719787,-0.30613697,-0.5113546,-0.42166647,-0.74880826,0.3857718,-0.8912505,0.23843789,-0.76791704,-0.16694282,0.6184121,,1.2446342436743931,0.2712918831386328,0.18404984678000003,2.1417730827509316,-0.48724575816356064,-0.8601279598825169,0.7642868854422926,,-1.2766681396366764,0.43374729188081956,0.19521608884000002,-1.5236071293585538,-0.8833549709835725,0.07448294910593883,-0.15730033568731094,,-0.03254166390343428,-0.08714647121364187,0.07824560327999999,-0.058221254136848435,,-2.6520342e-05,-2.3245811e-06,-1.0728836e-06,1.0,3.0804425e-05,2.5764108e-05,-3.0796975e-05,1.0,2.3543835e-06,-2.5767833e-05,-2.3841858e-06,1.0,444,1.355,0,0,0.0,True,0.9608694168723066,0.0015449492398005304
1.3826469579944387,10:17:32.125600,10:16:26.154452,0,,0.092468396,0.01112026,0.03556806,-0.2377299,0.28241938,-0.92936736,0.331448,0.92295635,0.19568762,0.9130316,-0.2615162,-0.3130217,,0.0462095,0.02398485,0.042422295,0.39362216,0.52162606,0.7569463,-0.24082363,-0.73614895,0.6325257,0.88716716,-0.43126675,-0.16414472,,0.07749052,1.3301743,0.45619932,0.99824977,0.036689043,-0.046382684,-0.0016163215,-0.7670785,-0.6415512,-0.05911706,0.6405033,-0.7656766,,-0.04803436,0.26008332,-0.08938148,0.14625739,-0.29438385,0.9444294,0.8473775,0.5299048,0.03394663,-0.510451,0.79532325,0.32695675,,0.01608064,0.47198373,-0.30613655,-0.5113522,-0.42167377,-0.7488058,0.38575545,-0.89125156,0.23846038,-0.7679269,-0.1669187,0.6184064,,1.2446342436743931,0.27129960587150703,0.18404984678000003,2.1417730827509316,-0.48724575816356064,-0.8601279598825169,0.7642868854422926,,-1.2766835851024247,0.43377046007944225,0.19521608884000002,-1.5236071293585538,-0.8833549709835725,0.07448294910593883,-0.15730033568731094,,-0.03254166390343428,-0.08714647121364187,0.07824560327999999,-0.058221254136848435,,-2.6520342e-05,-2.3245811e-06,-1.0728836e-06,1.0,3.0804425e-05,2.5764108e-05,-3.0796975e-05,1.0,2.3543835e-06,-2.5767833e-05,-2.3841858e-06,1.0,448,1.368,0,0,0.0,True,0.9625971707094165,0.002027751247595244
1.4015843060333282,10:17:32.150175,10:16:26.154452,0,,0.092467666,0.011119232,0.035567507,-0.23772883,0.28241527,-0.9293689,0.33145285,0.9229559,0.19568215,0.91303,-0.26152277,-0.31302056,,0.046193615,0.024002746,0.042435348,0.3936864,0.5216548,0.7568932,-0.24090028,-0.7360617,0.63259816,0.88711786,-0.43138105,-0.16411069,,0.07749052,1.3301743,0.45619932,0.99824977,0.036689043,-0.046382684,-0.0016163215,-0.7670785,-0.6415512,-0.05911706,0.6405033,-0.7656766,,-0.048033543,0.26008224,-0.08938172,0.14625627,-0.29437917,0.94443107,0.8473802,0.5299006,0.033943232,-0.5104468,0.7953278,0.32695237,,0.016093684,0.4720076,-0.30613455,-0.5114052,-0.4216886,-0.7487613,0.38565832,-0.89127165,0.23854253,-0.76794034,-0.16677414,0.61842865,,1.2446342436743931,0.2712918831386328,0.18404984678000003,2.1417730827509316,-0.48724575816356064,-0.8601279598825169,0.7642868854422926,,-1.276691307835299,0.43391719200405254,0.19521479255000002,-1.5236071293585538,-0.8833549709835725,0.07448294910593883,-0.15730033568731094,,-0.03254166390343428,-0.08714647121364187,0.07824560327999999,-0.058221254136848435,,-2.6520342e-05,-2.3245811e-06,-1.0728836e-06,1.0,3.0804425e-05,2.5764108e-05,-3.0796975e-05,1.0,2.3543835e-06,-2.5767833e-05,-2.3841858e-06,1.0,481,1.469,0,0,0.0,True,0.9621205489612481,0.002510553255389514
1.4261538969585672,10:17:32.237557,10:16:26.269031,0,,0.09246977,0.011118397,0.03556618,-0.23774035,0.28242117,-0.92936414,0.33145982,0.92295325,0.19568236,0.91302454,-0.26152533,-0.3130345,,0.046189055,0.02400598,0.042436957,0.393868,0.5213106,0.75703585,-0.2411026,-0.73617697,0.63238686,0.8869823,-0.43160027,-0.16426727,,0.07749052,1.3301743,0.45619932,0.99824977,0.036689043,-0.046382684,-0.0016163215,-0.7670785,-0.6415512,-0.05911706,0.6405033,-0.7656766,,-0.04803549,0.2600806,-0.089381136,0.14626794,-0.29438475,0.9444275,0.84738314,0.5298965,0.033934284,-0.51043856,0.79532844,0.32696354,,0.016097818,0.47201163,-0.3061338,-0.5115564,-0.4213113,-0.74887043,0.38539657,-0.89145905,0.23826511,-0.7679711,-0.16672604,0.6184035,,1.2446187982086447,0.2712918831386328,0.18404984678000003,2.1417730827509316,-0.48724575816356064,-0.8601279598825169,0.7642868854422926,,-1.2766835851024247,0.43396352840129787,0.19521479255000002,-1.5231877494715849,-0.8833549709835725,0.07448294910593883,-0.15730033568731094,,-0.03254166390343428,-0.08714647121364187,0.07824560327999999,-0.058221254136848435,,-2.6520342e-05,-2.3245811e-06,-1.0728836e-06,1.0,3.0804425e-05,2.5764108e-05,-3.0796975e-05,1.0,2.3543835e-06,-2.5767833e-05,-2.3841858e-06,1.0,485,1.481,0,0,0.0,True,0.9592608184722389,0.003331316668640838
1.5135531240375713,10:17:32.261746,10:16:26.269031,0,,0.092468396,0.01112026,0.03556806,-0.2377299,0.28241938,-0.92936736,0.331448,0.92295635,0.19568762,0.9130316,-0.2615162,-0.3130217,,0.04619257,0.024002135,0.042434573,0.39385325,0.5213051,0.7570473,-0.24108723,-0.736195,0.63237166,0.886993,-0.43157604,-0.16427281,,0.07749052,1.3301743,0.45619932,0.99824977,0.036689043,-0.046382684,-0.0016163215,-0.7670785,-0.6415512,-0.05911706,0.6405033,-0.7656766,,-0.04803436,0.26008332,-0.08938148,0.14625739,-0.29438385,0.9444294,0.8473775,0.5299048,0.03394663,-0.510451,0.79532325,0.32695675,,0.016094856,0.47200677,-0.3061345,-0.511544,-0.42130873,-0.7488803,0.3854169,-0.8914546,0.23824891,-0.76796913,-0.16675633,0.6183977,,1.2446342436743931,0.27129960587150703,0.18404984678000003,2.1417730827509316,-0.48724575816356064,-0.8601279598825169,0.7642868854422926,,-1.2766835851024247,0.433932637469801,0.19521479255000002,-1.5231877494715849,-0.8833549709835725,0.07448294910593883,-0.15730033568731094,,-0.03254166390343428,-0.08714647121364187,0.07824560327999999,-0.058221254136848435,,-2.6520342e-05,-2.3245811e-06,-1.0728836e-06,1.0,3.0804425e-05,2.5764108e-05,-3.0796975e-05,1.0,2.3543835e-06,-2.5767833e-05,-2.3841858e-06,1.0,497,1.518,0,0,0.0,True,0.9593203961907597,0.002896794861625196
1.5377203579992056,10:17:32.293675,10:16:26.269031,0,,0.09246872,0.011118799,0.03556685,-0.23773459,0.28241822,-0.9293665,0.33145627,0.9229545,0.19568227,0.9130273,-0.26152408,-0.31302756,,0.046187848,0.024002507,0.04243374,0.3938788,0.5213002,0.75703734,-0.24108425,-0.73619026,0.63237834,0.88698256,-0.4315902,-0.16429251,,0.07749052,1.3301743,0.45619932,0.99824977,0.036689043,-0.046382684,-0.0016163215,-0.7670785,-0.6415512,-0.05911706,0.6405033,-0.7656766,,-0.04803452,0.2600814,-0.08938143,0.1462621,-0.29438198,0.9444293,0.84738165,0.5298985,0.033938758,-0.5104427,0.7953281,0.32695797,,0.016099622,0.4720071,-0.30613405,-0.5115678,-0.42130193,-0.74886787,0.3854084,-0.89146024,0.23824151,-0.76795757,-0.1667433,0.6184156,,1.2446265209415188,0.2712918831386328,0.18404984678000003,2.1417730827509316,-0.48724575816356064,-0.8601279598825169,0.7642868854422926,,-1.276660416903802,0.43394808293554943,0.19521479255000002,-1.5231877494715849,-0.8833549709835725,0.07448294910593883,-0.15730033568731094,,-0.03254166390343428,-0.08714647121364187,0.07824560327999999,-0.058221254136848435,,-2.6520342e-05,-2.3245811e-06,-1.0728836e-06,1.0,3.0804425e-05,2.5764108e-05,-3.0796975e-05,1.0,2.3543835e-06,-2.5767833e-05,-2.3841858e-06,1.0,505,1.544,0,0,0.0,True,0.9589033521611126,0.0018346304444776251
1.5696251519257203,10:17:32.320455,10:16:26.269031,0,,0.092468396,0.01112026,0.03556806,-0.2377299,0.28241938,-0.92936736,0.331448,0.92295635,0.19568762,0.9130316,-0.2615162,-0.3130217,,0.04618817,0.024006948,0.042437613,0.39387175,0.521312,0.7570329,-0.24110642,-0.73617244,0.6323906,0.88697964,-0.4316063,-0.16426587,,0.07749052,1.3301743,0.45619932,0.99824977,0.036689043,-0.046382684,-0.0016163215,-0.7670785,-0.6415512,-0.05911706,0.6405033,-0.7656766,,-0.04803436,0.26008332,-0.08938148,0.14625739,-0.29438385,0.9444294,0.8473775,0.5299048,0.03394663,-0.510451,0.79532325,0.32695675,,0.016098557,0.47201285,-0.30613363,-0.5115595,-0.42131191,-0.7488679,0.38539147,-0.8914602,0.23826917,-0.7679716,-0.16671847,0.6184049,,1.2446342436743931,0.27129960587150703,0.18404984678000003,2.1417730827509316,-0.48724575816356064,-0.8601279598825169,0.7642868854422926,,-1.2766835851024247,0.4339712511341721,0.19521479255000002,-1.5231877494715849,-0.8833549709835725,0.07448294910593883,-0.15730033568731094,,-0.03254166390343428,-0.08714647121364187,0.07824560327999999,-0.058221254136848435,,-2.6520342e-05,-2.3245811e-06,-1.0728836e-06,1.0,3.0804425e-05,2.5764108e-05,-3.0796975e-05,1.0,2.3543835e-06,-2.5767833e-05,-2.3841858e-06,1.0,513,1.568,0,0,0.0,True,0.9587246190055492,0.002945075062405156
1.5964269120013341,10:17:32.351458,10:16:26.269031,0,,0.09246913,0.011121258,0.03556858,-0.23773098,0.2824235,-0.9293659,0.33144313,0.92295694,0.19569305,0.91303307,-0.26150972,-0.31302282,,0.04618652,0.024010345,0.042440057,0.39387673,0.5213187,0.75702566,-0.24112156,-0.73615754,0.6324023,0.88697326,-0.43162376,-0.16425419,,0.07749052,1.3301743,0.45619932,0.99824977,0.036689043,-0.046382684,-0.0016163215,-0.7670785,-0.6415512,-0.05911706,0.6405033,-0.7656766,,-0.048035175,0.2600844,-0.08938123,0.14625852,-0.29438853,0.9444278,0.84737474,0.52990896,0.033950023,-0.51045525,0.7953187,0.3269611,,0.016099682,0.47201717,-0.30613315,-0.5115629,-0.42131653,-0.748863,0.38537568,-0.8914624,0.2382865,-0.76797724,-0.16669506,0.6184042,,1.2446342436743931,0.27129960587150703,0.18404984678000003,2.1417730827509316,-0.48724575816356064,-0.8601279598825169,0.7642868854422926,,-1.276691307835299,0.43399441933279476,0.19521479255000002,-1.5231877494715849,-0.8833549709835725,0.07448294910593883,-0.15730033568731094,,-0.03254166390343428,-0.08714647121364187,0.07824560327999999,-0.058221254136848435,,-2.6520342e-05,-2.3245811e-06,-1.0728836e-06,1.0,3.0804425e-05,2.5764108e-05,-3.0796975e-05,1.0,2.3543835e-06,-2.5767833e-05,-2.3841858e-06,1.0,525,1.605,0,0,0.0,True,0.9587841967240704,0.002945075062405156
1.6274429549230263,10:17:32.375348,10:16:26.269031,0,,0.09246841,0.011119559,0.03556581,-0.23773459,0.28241822,-0.9293665,0.33145627,0.9229545,0.19568227,0.9130273,-0.26152408,-0.31302756,,0.046189263,0.024008915,0.04243952,0.39386338,0.52131844,0.75703275,-0.24111742,-0.7361651,0.632395,0.88698035,-0.431611,-0.16424954,,0.07749052,1.3301743,0.45619932,0.99824977,0.036689043,-0.046382684,-0.0016163215,-0.7670785,-0.6415512,-0.05911706,0.6405033,-0.7656766,,-0.048034158,0.26008138,-0.08938018,0.1462621,-0.29438198,0.9444293,0.84738165,0.5298985,0.033938758,-0.5104427,0.7953281,0.32695797,,0.016097106,0.47201544,-0.30613354,-0.51155084,-0.42131793,-0.74887043,0.38538527,-0.891459,0.23828356,-0.7679804,-0.1667095,0.61839634,,1.2446265209415188,0.2712918831386328,0.18405114307,2.1417730827509316,-0.48724575816356064,-0.8601279598825169,0.7642868854422926,,-1.2766990305681734,0.4339789738670463,0.19521479255000002,-1.5231877494715849,-0.8833549709835725,0.07448294910593883,-0.15730033568731094,,-0.03254166390343428,-0.08714647121364187,0.07824560327999999,-0.058221254136848435,,-2.6520342e-05,-2.3245811e-06,-1.0728836e-06,1.0,3.0804425e-05,2.5764108e-05,-3.0796975e-05,1.0,2.3543835e-06,-2.5767833e-05,-2.3841858e-06,1.0,558,1.707,0,0,0.0,True,0.9584863081314654,0.0028485146608461243
1.651336334994994,10:17:32.478785,10:16:26.460187,0,,0.09246914,0.011120558,0.035566345,-0.23773566,0.2824223,-0.92936504,0.33145148,0.92295516,0.19568771,0.9130287,-0.26151752,-0.3130287,,0.04618708,0.024004936,0.042435646,0.39388007,0.52130544,0.757033,-0.24109548,-0.73617977,0.63238627,0.88697886,-0.43160164,-0.16428223,,0.07749052,1.3301743,0.45619932,0.99824977,0.036689043,-0.046382684,-0.0016163215,-0.7670785,-0.6415512,-0.05911706,0.6405033,-0.7656766,,-0.04803497,0.26008245,-0.08937994,0.14626323,-0.29438663,0.94442767,0.8473789,0.5299027,0.03394215,-0.5104469,0.7953236,0.32696232,,0.016100008,0.47201023,-0.30613372,-0.51156807,-0.4213059,-0.7488654,0.38539767,-0.8914613,0.23825479,-0.7679627,-0.16672745,0.6184135,,1.2446265209415188,0.27129960587150703,0.18405114307,2.1417730827509316,-0.48724575816356064,-0.8601279598825169,0.7642868854422926,,-1.2766681396366764,0.43396352840129787,0.19521479255000002,-1.5231877494715849,-0.8833549709835725,0.07448294910593883,-0.15730033568731094,,-0.03254166390343428,-0.08714647121364187,0.07824560327999999,-0.058221254136848435,,-2.6520342e-05,-2.3245811e-06,-1.0728836e-06,1.0,3.0804425e-05,2.5764108e-05,-3.0796975e-05,1.0,2.3543835e-06,-2.5767833e-05,-2.3841858e-06,1.0,566,1.731,0,0,0.0,True,0.9587841967240704,0.002945075062405156
1.7547466580290347,10:17:32.503865,10:16:26.460187,0,,0.09246736,0.011119977,0.035566464,-0.23772883,0.28241527,-0.9293689,0.33145285,0.9229559,0.19568215,0.91303,-0.26152277,-0.31302056,,0.04619004,0.0240065,0.042437673,0.39386198,0.5213132,0.7570371,-0.24110618,-0.73617554,0.6323871,0.886984,-0.43159956,-0.16425973,,0.07749052,1.3301743,0.45619932,0.99824977,0.036689043,-0.046382684,-0.0016163215,-0.7670785,-0.6415512,-0.05911706,0.6405033,-0.7656766,,-0.04803318,0.26008222,-0.08938047,0.14625627,-0.29437917,0.94443107,0.8473802,0.5299006,0.033943232,-0.5104468,0.7953278,0.32695237,,0.01609672,0.4720123,-0.30613384,-0.5115505,-0.42131397,-0.7488729,0.385396,-0.8914579,0.23827028,-0.7679753,-0.16672534,0.6183984,,1.2446342436743931,0.2712918831386328,0.18405114307,2.1417730827509316,-0.48724575816356064,-0.8601279598825169,0.7642868854422926,,-1.276691307835299,0.43396352840129787,0.19521479255000002,-1.5231877494715849,-0.8833549709835725,0.07448294910593883,-0.15730033568731094,,-0.03254166390343428,-0.08714647121364187,0.07824560327999999,-0.058221254136848435,,-2.6520342e-05,-2.3245811e-06,-1.0728836e-06,1.0,3.0804425e-05,2.5764108e-05,-3.0796975e-05,1.0,2.3543835e-06,-2.5767833e-05,-2.3841858e-06,1.0,574,1.756,0,0,0.0,True,0.9585458858499862,0.0031864760663022906
1.779860051930882,10:17:32.524556,10:16:26.460187,0,,0.0924681,0.01112099,0.03556703,-0.2377299,0.28241938,-0.92936736,0.331448,0.92295635,0.19568762,0.9130316,-0.2615162,-0.3130217,,0.04619299,0.02400805,0.04243964,0.3938438,0.5213208,0.7570413,-0.24111685,-0.7361713,0.632388,0.88698924,-0.43159747,-0.16423732,,0.07749052,1.3301743,0.45619932,0.99824977,0.036689043,-0.046382684,-0.0016163215,-0.7670785,-0.6415512,-0.05911706,0.6405033,-0.7656766,,-0.048033997,0.2600833,-0.089380234,0.14625739,-0.29438385,0.9444294,0.8473775,0.5299048,0.03394663,-0.510451,0.79532325,0.32695675,,0.016093435,0.47201443,-0.30613396,-0.5115329,-0.42132205,-0.7488804,0.38539433,-0.89145446,0.23828578,-0.76798785,-0.16672324,0.6183834,,1.2446342436743931,0.27129960587150703,0.18405114307,2.1417730827509316,-0.48724575816356064,-0.8601279598825169,0.7642868854422926,,-1.2767144760339217,0.43396352840129787,0.19521479255000002,-1.5231877494715849,-0.8833549709835725,0.07448294910593883,-0.15730033568731094,,-0.03254166390343428,-0.08714647121364187,0.07824560327999999,-0.058221254136848435,,-2.6520342e-05,-2.3245811e-06,-1.0728836e-06,1.0,3.0804425e-05,2.5764108e-05,-3.0796975e-05,1.0,2.3543835e-06,-2.5767833e-05,-2.3841858e-06,1.0,582,1.781,0,0,0.0,True,0.9586650412870283,0.0034278770701998695
1.800553084933199,10:17:32.553575,10:16:26.460187,0,,0.09246861,0.011119321,0.035565585,-0.23807068,0.28218526,-0.9293512,0.33128676,0.9230724,0.19541349,0.9130013,-0.26135957,-0.31324074,,0.04619102,0.024006993,0.04243833,0.39385593,0.5213157,0.7570385,-0.24110973,-0.73617417,0.6323874,0.88698566,-0.43159893,-0.16425228,,0.07749052,1.3301743,0.45619932,0.99824977,0.036689043,-0.046382684,-0.0016163215,-0.7670785,-0.6415512,-0.05911706,0.6405033,-0.7656766,,-0.048034325,0.26008105,-0.08938013,0.14660545,-0.29416856,0.9444425,0.8472617,0.53011215,0.033595625,-0.5105432,0.7952647,0.3269551,,0.016095625,0.47201303,-0.3061339,-0.51154464,-0.42131668,-0.7488754,0.38539544,-0.8914568,0.23827545,-0.76797944,-0.16672464,0.6183934,,1.2446187982086447,0.27129960587150703,0.18405114307,2.1413537028639626,-0.48724575816356064,-0.8601279598825169,0.7642868854422926,,-1.2766990305681734,0.43396352840129787,0.19521479255000002,-1.5231877494715849,-0.8833549709835725,0.07448294910593883,-0.15730033568731094,,-0.03254166390343428,-0.08714647121364187,0.07824560327999999,-0.058221254136848435,,-2.6520342e-05,-2.3245811e-06,-1.0728836e-06,1.0,3.0804425e-05,2.5764108e-05,-3.0796975e-05,1.0,2.3543835e-06,-2.5767833e-05,-2.3841858e-06,1.0,590,1.806,0,0,0.0,True,0.9583075749759025,0.003910679077993695
1.8295694119296968,10:17:32.584814,10:16:26.641338,0,,0.092467874,0.0111183375,0.035565063,-0.23806962,0.28218117,-0.92935276,0.3312916,0.92307186,0.19540806,0.91299975,-0.2613661,-0.3132396,,0.04618817,0.024006948,0.042437613,0.39387175,0.521312,0.7570329,-0.24110642,-0.73617244,0.6323906,0.88697964,-0.4316063,-0.16426587,,0.07749052,1.3301743,0.45619932,0.99824977,0.036689043,-0.046382684,-0.0016163215,-0.7670785,-0.6415512,-0.05911706,0.6405033,-0.7656766,,-0.04803351,0.26008,-0.089380376,0.14660433,-0.2941639,0.9444442,0.84726447,0.530108,0.033592228,-0.510539,0.79526925,0.32695076,,0.016098557,0.47201285,-0.30613363,-0.5115595,-0.42131191,-0.7488679,0.38539147,-0.8914602,0.23826917,-0.7679716,-0.16671847,0.6184049,,1.2446187982086447,0.2712918831386328,0.18405114307,2.1413537028639626,-0.48724575816356064,-0.8601279598825169,0.7642868854422926,,-1.2766835851024247,0.4339712511341721,0.19521479255000002,-1.5231877494715849,-0.8833549709835725,0.07448294910593883,-0.15730033568731094,,-0.03254166390343428,-0.08714647121364187,0.07824560327999999,-0.058221254136848435,,-2.6520342e-05,-2.3245811e-06,-1.0728836e-06,1.0,3.0804425e-05,2.5764108e-05,-3.0796975e-05,1.0,2.3543835e-06,-2.5767833e-05,-2.3841858e-06,1.0,598,1.831,0,0,0.0,True,0.9584863081314654,0.003910679077993695
1.8608069189358503,10:17:32.605639,10:16:26.641338,0,,0.09246577,0.011119172,0.035566375,-0.23805812,0.28217527,-0.9293575,0.3312846,0.92307436,0.19540785,0.91300535,-0.26136348,-0.3132257,,0.046188064,0.024005473,0.0424363,0.39387405,0.52130806,0.75703436,-0.241099,-0.73617834,0.63238657,0.88698053,-0.43160096,-0.16427478,,0.07749052,1.3301743,0.45619932,0.99824977,0.036689043,-0.046382684,-0.0016163215,-0.7670785,-0.6415512,-0.05911706,0.6405033,-0.7656766,,-0.04803156,0.26008165,-0.08938096,0.14659268,-0.29415834,0.9444477,0.84726155,0.5301121,0.03360118,-0.5105472,0.79526854,0.3269396,,0.016098913,0.4720109,-0.30613378,-0.5115622,-0.4213086,-0.7488679,0.3853971,-0.8914602,0.23825994,-0.76796687,-0.16672674,0.6184085,,1.2446342436743931,0.2712918831386328,0.18405114307,2.1413537028639626,-0.48724575816356064,-0.8601279598825169,0.7642868854422926,,-1.2766758623695507,0.43396352840129787,0.19521479255000002,-1.5231877494715849,-0.8833549709835725,0.07448294910593883,-0.15730033568731094,,-0.03254166390343428,-0.08714647121364187,0.07824560327999999,-0.058221254136848435,,-2.6520342e-05,-2.3245811e-06,-1.0728836e-06,1.0,3.0804425e-05,2.5764108e-05,-3.0796975e-05,1.0,2.3543835e-06,-2.5767833e-05,-2.3841858e-06,1.0,606,1.855,0,0,0.0,True,0.9574734869166077,0.003524437471758457
1.8816354839364067,10:17:32.625014,10:16:26.641338,0,,0.09246861,0.011119321,0.035565585,-0.23807068,0.2821094,-0.9293743,0.33128676,0.9230883,0.1953381,0.9130013,-0.26138517,-0.31321937,,0.046188064,0.024005473,0.0424363,0.39387405,0.52130806,0.75703436,-0.241099,-0.73617834,0.63238657,0.88698053,-0.43160096,-0.16427478,,0.07749052,1.3301743,0.45619932,0.99824977,0.036689043,-0.046382684,-0.0016163215,-0.7670785,-0.6415512,-0.05911706,0.6405033,-0.7656766,,-0.048034325,0.26008105,-0.08938013,0.14660545,-0.29409143,0.94446653,0.8472617,0.5301149,0.033552326,-0.5105432,0.7952914,0.32689014,,0.016098913,0.4720109,-0.30613378,-0.5115622,-0.4213086,-0.7488679,0.3853971,-0.8914602,0.23825994,-0.76796687,-0.16672674,0.6184085,,1.2446187982086447,0.27129960587150703,0.18405114307,2.1413537028639626,-0.48724575816356064,-0.8602096386226573,0.7644502295084268,,-1.2766758623695507,0.43396352840129787,0.19521479255000002,-1.5231877494715849,-0.8833549709835725,0.07448294910593883,-0.15730033568731094,,-0.03254166390343428,-0.08714647121364187,0.07824560327999999,-0.058221254136848435,,-2.6520342e-05,-2.3245811e-06,-1.0728836e-06,1.0,3.0804425e-05,2.5764108e-05,-3.0796975e-05,1.0,2.3543835e-06,-2.5767833e-05,-2.3841858e-06,1.0,631,1.932,0,0,0.0,True,0.9571160206054814,0.003572717672537973
1.9010100789600983,10:17:32.704400,10:16:26.771311,0,,0.09246756,0.011119768,0.035566255,-0.23806494,0.28210643,-0.92937666,0.3312832,0.9230896,0.19533798,0.91300404,-0.26138383,-0.3132124,,0.04618915,0.02400744,0.04243827,0.39386564,0.5213145,0.7570343,-0.24111,-0.736171,0.632391,0.8869813,-0.4316056,-0.16425839,,0.07749052,1.3301743,0.45619932,0.99824977,0.036689043,-0.046382684,-0.0016163215,-0.7670785,-0.6415512,-0.05911706,0.6405033,-0.7656766,,-0.04803335,0.2600819,-0.08938042,0.14659962,-0.29408866,0.9444683,0.8472603,0.5301169,0.0335568,-0.51054734,0.79529107,0.32688457,,0.016097462,0.47201353,-0.3061337,-0.5115536,-0.42131463,-0.74887043,0.3853909,-0.891459,0.23827434,-0.76797575,-0.16671777,0.6183999,,1.2446265209415188,0.27129960587150703,0.18405114307,2.1413537028639626,-0.48724575816356064,-0.8602096386226573,0.7644502295084268,,-1.276691307835299,0.4339712511341721,0.19521479255000002,-1.5231877494715849,-0.8833549709835725,0.07448294910593883,-0.15730033568731094,,-0.03254166390343428,-0.08714647121364187,0.07824560327999999,-0.058221254136848435,,-2.6520342e-05,-2.3245811e-06,-1.0728836e-06,1.0,3.0804425e-05,2.5764108e-05,-3.0796975e-05,1.0,2.3543835e-06,-2.5767833e-05,-2.3841858e-06,1.0,639,1.957,0,0,0.0,True,0.9567585542943551,0.003958959278773655
1.9803914489457384,10:17:32.732200,10:16:26.771311,0,,0.09246756,0.011119768,0.035566255,-0.23806494,0.28210643,-0.92937666,0.3312832,0.9230896,0.19533798,0.91300404,-0.26138383,-0.3132124,,0.04618915,0.02400744,0.04243827,0.39386564,0.5213145,0.7570343,-0.24111,-0.736171,0.632391,0.8869813,-0.4316056,-0.16425839,,0.07749052,1.3301743,0.45619932,0.99824977,0.036689043,-0.046382684,-0.0016163215,-0.7670785,-0.6415512,-0.05911706,0.6405033,-0.7656766,,-0.04803335,0.2600819,-0.08938042,0.14659962,-0.29408866,0.9444683,0.8472603,0.5301169,0.0335568,-0.51054734,0.79529107,0.32688457,,0.016097462,0.47201353,-0.3061337,-0.5115536,-0.42131463,-0.74887043,0.3853909,-0.891459,0.23827434,-0.76797575,-0.16671777,0.6183999,,1.2446265209415188,0.27129960587150703,0.18405114307,2.1413537028639626,-0.48724575816356064,-0.8602096386226573,0.7644502295084268,,-1.276691307835299,0.4339712511341721,0.19521479255000002,-1.5231877494715849,-0.8833549709835725,0.07448294910593883,-0.15730033568731094,,-0.03254166390343428,-0.08714647121364187,0.07824560327999999,-0.058221254136848435,,-2.6520342e-05,-2.3245811e-06,-1.0728836e-06,1.0,3.0804425e-05,2.5764108e-05,-3.0796975e-05,1.0,2.3543835e-06,-2.5767833e-05,-2.3841858e-06,1.0,647,1.981,0,0,0.0,False,0.9569372874499185,0.0036209978733174886
2.008192157954909,10:17:32.753648,10:16:26.771311,0,,0.092466824,0.01111874,0.03556569,-0.23806387,0.28217825,-0.92935514,0.3312881,0.92307305,0.19540796,0.9130026,-0.26136482,-0.31323266,,0.046186447,0.024006829,0.042435348,0.39372304,0.52165395,0.7568746,-0.24090877,-0.7360433,0.6326163,0.88709927,-0.43141338,-0.16412619,,0.07749052,1.3301743,0.45619932,0.99824977,0.036689043,-0.046382684,-0.0016163215,-0.7670785,-0.6415512,-0.05911706,0.6405033,-0.7656766,,-0.048032533,0.2600808,-0.08938067,0.1465985,-0.29416114,0.9444459,0.84726304,0.53011,0.033596702,-0.5105431,0.7952689,0.3269452,,0.016100595,0.47201145,-0.30613226,-0.5114383,-0.42168373,-0.7487414,0.3856346,-0.89128065,0.23854728,-0.7679302,-0.16673838,0.6184509,,1.2446265209415188,0.2712918831386328,0.18405114307,2.1413537028639626,-0.48724575816356064,-0.8601279598825169,0.764613573574561,,-1.2766681396366764,0.4339558056684236,0.19521608884000002,-1.5236071293585538,-0.8833549709835725,0.07448294910593883,-0.15730033568731094,,-0.03254166390343428,-0.08714647121364187,0.07824560327999999,-0.058221254136848435,,-2.6520342e-05,-2.3245811e-06,-1.0728836e-06,1.0,3.0804425e-05,2.5764108e-05,-3.0796975e-05,1.0,2.3543835e-06,-2.5767833e-05,-2.3841858e-06,1.0,655,2.007,0,0,0.0,False,0.9571160206054814,0.003765838475655592
2.0296390620060265,10:17:32.781651,10:16:26.771311,0,,0.092463,0.011117101,0.03556566,-0.23938823,0.28206348,-0.92904973,0.33060804,0.9233711,0.19515166,0.91290283,-0.26043445,-0.31429666,,0.046183333,0.02402161,0.04248172,0.38776764,0.5220814,0.7596494,-0.24197936,-0.73756945,0.6304264,0.88942814,-0.4282784,-0.15967268,,0.07749052,1.3301743,0.45619932,0.99824977,0.036689043,-0.046382684,-0.0016163215,-0.7670785,-0.6415512,-0.05911706,0.6405033,-0.7656766,,-0.048028655,0.26007983,-0.08938183,0.14795169,-0.2941375,0.94424224,0.846783,0.530932,0.032707762,-0.510949,0.7947291,0.32762295,,0.016096173,0.4720543,-0.30615515,-0.50585794,-0.42251164,-0.75205827,0.3872606,-0.89027184,0.23967741,-0.77080286,-0.16999981,0.6139732,,1.2446187982086447,0.2713073286043812,0.18405114307,2.1396761833160864,-0.48724575816356064,-0.8592294937409708,0.7700039277569924,,-1.2766295259723053,0.4339094692711783,0.19522775545,-1.5298978276630897,-0.8892303404734865,0.08058077880713393,-0.1576270238195795,,-0.03254166390343428,-0.08714647121364187,0.07824560327999999,-0.058221254136848435,,-2.6520342e-05,-2.3245811e-06,-1.0728836e-06,1.0,3.0804425e-05,2.5764108e-05,-3.0796975e-05,1.0,2.3543835e-06,-2.5767833e-05,-2.3841858e-06,1.0,663,2.031,0,0,0.0,False,0.9575330646351286,0.003524437471758457
2.0576156239258125,10:17:32.806157,10:16:26.771311,0,,0.092443354,0.011115864,0.035575792,-0.24167983,0.2864,-0.9271278,0.328144,0.92328334,0.19967318,0.9131879,-0.2559745,-0.31711942,,0.04619547,0.024134964,0.042599916,0.36579803,0.52359176,0.7694435,-0.24760583,-0.74219686,0.6227642,0.89715284,-0.4183246,-0.14184979,,0.07749052,1.3301743,0.45619932,0.99824977,0.036689043,-0.046382684,-0.0016163215,-0.7670785,-0.6415512,-0.05911706,0.6405033,-0.7656766,,-0.048009913,0.26008683,-0.0893913,0.15030366,-0.29883125,0.9423952,0.8452385,0.5332876,0.034296185,-0.5128164,0.7913939,0.33273876,,0.01606205,0.47221488,-0.30615896,-0.48507565,-0.42530054,-0.76408184,0.39146575,-0.8869334,0.24516058,-0.7819566,-0.18019046,0.5967204,,1.2446419664072674,0.2713073286043812,0.18405243936000001,2.1361114542768496,-0.4884754866614496,-0.8521008270971607,0.7783344751298407,,-1.27658318957506,0.43380135101093914,0.19535349558,-1.5493989924071505,-0.9091792694392407,0.09888976125032539,-0.15746367975344522,,-0.03254166390343428,-0.08714647121364187,0.07824560327999999,-0.058221254136848435,,-2.6520342e-05,-2.3245811e-06,-1.0728836e-06,1.0,3.0804425e-05,2.5764108e-05,-3.0796975e-05,1.0,2.3543835e-06,-2.5767833e-05,-2.3841858e-06,1.0,671,2.056,0,0,0.0,False,0.9573543314795656,0.0034761572709789412
2.082153133000247,10:17:32.836513,10:16:26.908204,0,,0.09242978,0.011104494,0.035554722,-0.2451679,0.28954297,-0.9252337,0.3295171,0.9224297,0.20135021,0.91176265,-0.2555158,-0.32155952,,0.04618793,0.024367347,0.04272306,0.33413857,0.52887756,0.78015375,-0.25418866,-0.7464936,0.61492735,0.907601,-0.40377712,-0.114997655,,0.07749052,1.3301743,0.45619932,0.99824977,0.036689043,-0.046382684,-0.0016163215,-0.7670785,-0.6415512,-0.05911706,0.6405033,-0.7656766,,-0.04799417,0.26006597,-0.08938267,0.15384506,-0.30196676,0.9408229,0.84570545,0.53264916,0.032667927,-0.5109932,0.79063326,0.33732036,,0.016041849,0.47246647,-0.30608466,-0.45508662,-0.4325168,-0.77834785,0.39814472,-0.8807013,0.25660476,-0.79647785,-0.1931177,0.57299966,,1.2447114710031353,0.2713073286043812,0.18405243936000001,2.133175795068066,-0.48533284716684444,-0.8474757097498089,0.7822547327170633,,-1.2765445759106888,0.43370095548357424,0.19560497584000003,-1.581271863816798,-0.937189751891156,0.1246708661531521,-0.15746367975344522,,-0.03254166390343428,-0.08714647121364187,0.07824560327999999,-0.058221254136848435,,-2.6520342e-05,-2.3245811e-06,-1.0728836e-06,1.0,3.0804425e-05,2.5764108e-05,-3.0796975e-05,1.0,2.3543835e-06,-2.5767833e-05,-2.3841858e-06,1.0,700,2.145,0,0,0.0,False,0.9575926423536494,0.003572717672537973
2.1125063289655373,10:17:32.919505,10:16:26.908204,0,,0.09238666,0.011125669,0.035526022,-0.24631836,0.28707606,-0.92569673,0.33004677,0.9228834,0.19838154,0.91126084,-0.2566583,-0.32207167,,0.045949824,0.025367528,0.042934537,0.25254136,0.50387704,0.8260331,-0.27357036,-0.78168905,0.56046546,0.9281068,-0.36751893,-0.05956301,,0.07749052,1.3301743,0.45619932,0.99824977,0.036689043,-0.046382684,-0.0016163215,-0.7670785,-0.6415512,-0.05911706,0.6405033,-0.7656766,,-0.04794961,0.2600681,-0.089348875,0.15501285,-0.29943082,0.94144154,0.8458993,0.53249365,0.030081274,-0.51031893,0.79170173,0.33583167,,0.01620553,0.4733576,-0.30555466,-0.37674147,-0.41180313,-0.8297494,0.40921864,-0.87759197,0.24974468,-0.83102703,-0.24545974,0.49914283,,1.2449122620578652,0.2712532694742617,0.18409262435,2.1321273453506437,-0.4841031186689555,-0.8496219732450445,0.7816013564525262,,-1.2765445759106888,0.4348670881475821,0.19656293415,-1.6701803998542366,-1.008240731769185,0.24288708629902617,-0.15485017469529683,,-0.03254166390343428,-0.08714647121364187,0.07824560327999999,-0.058221254136848435,,-2.6520342e-05,-2.3245811e-06,-1.0728836e-06,1.0,3.0804425e-05,2.5764108e-05,-3.0796975e-05,1.0,2.3543835e-06,-2.5767833e-05,-2.3841858e-06,1.0,708,2.17,0,0,0.0,False,0.9568181320128764,0.0036209978733174886
2.1954980440204963,10:17:32.942343,10:16:26.908204,0,,0.09237744,0.011132643,0.035518438,-0.24650687,0.28670776,-0.92576075,0.3300612,0.9229696,0.19795631,0.9112047,-0.25676024,-0.32214946,,0.045685187,0.02602537,0.04295212,0.22594112,0.4747013,0.8506522,-0.27779537,-0.8055765,0.523332,0.93369186,-0.35454947,-0.050143033,,0.07749052,1.3301743,0.45619932,0.99824977,0.036689043,-0.046382684,-0.0016163215,-0.7670785,-0.6415512,-0.05911706,0.6405033,-0.7656766,,-0.04794005,0.26006955,-0.08933899,0.15520474,-0.29905877,0.9415282,0.8458911,0.5325276,0.02970781,-0.5102742,0.7918196,0.33562195,,0.016438026,0.47387445,-0.3051282,-0.35112152,-0.38394988,-0.8539884,0.4135674,-0.8818649,0.22644278,-0.84004503,-0.27367282,0.46843088,,1.2449508757222363,0.27124554674138746,0.18410429096000003,2.1319176554071593,-0.4839664821691901,-0.8498967486290221,0.7819280445847947,,-1.2765986350408083,0.43654292118128885,0.19708015386000002,-1.7072955198509974,-1.0287362067340011,0.31350774034626044,-0.15648361535663952,,-0.03254166390343428,-0.08714647121364187,0.07824560327999999,-0.058221254136848435,,-2.6520342e-05,-2.3245811e-06,-1.0728836e-06,1.0,3.0804425e-05,2.5764108e-05,-3.0796975e-05,1.0,2.3543835e-06,-2.5767833e-05,-2.3841858e-06,1.0,716,2.194,0,0,0.0,False,0.9570564428869601,0.0033795968694199097
2.2183402039809152,10:17:32.972562,10:16:27.040567,0,,0.09237322,0.011137009,0.035510346,-0.24645063,0.28670177,-0.9257775,0.32995817,0.9229965,0.19800256,0.9112571,-0.25667015,-0.32207268,,0.045453347,0.026563302,0.042910516,0.21400812,0.44796273,0.86806095,-0.27715823,-0.8242833,0.49370074,0.9366877,-0.34624612,-0.05224681,,0.07749052,1.3301743,0.45619932,0.99824977,0.036689043,-0.046382684,-0.0016163215,-0.7670785,-0.6415512,-0.05911706,0.6405033,-0.7656766,,-0.047935333,0.26006824,-0.08933015,0.15514827,-0.2990615,0.9415366,0.8458392,0.5326053,0.02979305,-0.51037735,0.7917663,0.33559075,,0.01665172,0.4742607,-0.3047409,-0.33980283,-0.35801765,-0.8696881,0.4176637,-0.8859696,0.20153138,-0.842669,-0.2947562,0.45058596,,1.2449508757222363,0.271230101275639,0.18411466128,2.1319176554071593,-0.4841031186689555,-0.8498670094654663,0.7817647005186604,,-1.2766835851024247,0.4381878632834987,0.19746904086000003,-1.729522653860357,-1.035568031722273,0.36637062607246695,-0.15566689502596814,,-0.03254166390343428,-0.08714647121364187,0.07824560327999999,-0.058221254136848435,,-2.6520342e-05,-2.3245811e-06,-1.0728836e-06,1.0,3.0804425e-05,2.5764108e-05,-3.0796975e-05,1.0,2.3543835e-06,-2.5767833e-05,-2.3841858e-06,1.0,724,2.22,0,0,0.0,False,0.9574139091980864,0.003958959278773655
2.2485577559564263,10:17:33.001209,10:16:27.040567,0,,0.09236524,0.0111486465,0.03550616,-0.24645217,0.28671378,-0.9257734,0.329986,0.9229861,0.19800425,0.9112466,-0.2566939,-0.32208353,,0.045036204,0.027614169,0.042821914,0.20131037,0.39990592,0.89417505,-0.27267274,-0.8539027,0.44328302,0.9408101,-0.33305466,-0.06285611,,0.07745013,1.3301717,0.45620415,0.99824977,0.036712047,-0.046363447,-0.0015863837,-0.7670774,-0.6415526,-0.05911706,0.6405033,-0.7656766,,-0.047891133,0.2600707,-0.089320235,0.15514,-0.2990985,0.94152623,0.8458589,0.53257316,0.02980828,-0.51034725,0.7917739,0.33561853,,0.017070513,0.47500265,-0.3039749,-0.3280441,-0.31128573,-0.8919015,0.42537755,-0.89168644,0.1547555,-0.8434696,-0.32862824,0.42492643,,1.2449508757222363,0.27121465580989057,0.18412114273000002,2.1319176554071593,-0.4841031186689555,-0.8498670094654663,0.7817647005186604,,-1.2768843761571547,0.4418716068645038,0.19815996343000003,-1.7618149051569736,-1.0391205807161745,0.45315155769293125,-0.15550355095983387,,-0.03254166390343428,-0.08714647121364187,0.07824560327999999,-0.058221254136848435,,-6.7126006e-05,1.3709068e-06,-1.1920929e-06,0.99999994,5.3767115e-05,4.496798e-05,-5.3759664e-05,0.99999994,4.142523e-06,-4.497543e-05,-4.142523e-06,1.0,732,2.244,0,0,0.0,False,0.9571755983240027,0.004152080081891274
2.2771624899469316,10:17:33.023792,10:16:27.040567,0,,0.092366725,0.011149988,0.035505027,-0.24645898,0.28687203,-0.9257226,0.3299847,0.922953,0.19816056,0.9112452,-0.25663605,-0.32213348,,0.044474214,0.028827302,0.042797476,0.18572855,0.36953735,0.91046506,-0.27339205,-0.87056506,0.40911287,0.9438018,-0.32489783,-0.060660273,,0.07745013,1.3301717,0.45620415,0.99824977,0.036712047,-0.046363447,-0.0015863837,-0.7670774,-0.6415526,-0.05911706,0.6405033,-0.7656766,,-0.04789256,0.26007092,-0.089318454,0.15514696,-0.2992597,0.9414739,0.8458576,0.5325704,0.029894223,-0.51034725,0.79171485,0.33575776,,0.01758076,0.47592655,-0.3031538,-0.31306517,-0.28182653,-0.90695316,0.4289864,-0.8939501,0.12970696,-0.84732574,-0.34846383,0.40076438,,1.244943152989362,0.27122237854276476,0.18412243902000003,2.1319176554071593,-0.4841031186689555,-0.8497036519851852,0.7820913886509291,,-1.2772550673351175,0.4465670284520323,0.19893773743,-1.7941071564535904,-1.0477286802013974,0.5184895060861674,-0.15648361535663952,,-0.03254166390343428,-0.08714647121364187,0.07824560327999999,-0.058221254136848435,,-6.7126006e-05,1.3709068e-06,-1.1920929e-06,0.99999994,5.3767115e-05,4.496798e-05,-5.3759664e-05,0.99999994,4.142523e-06,-4.497543e-05,-4.142523e-06,1.0,744,2.281,0,0,0.0,False,0.9566393988573134,0.004586601888906472
2.29974426003173,10:17:33.055361,10:16:27.040567,0,,0.09236957,0.011149123,0.035504162,-0.24642216,0.28680745,-0.9257524,0.32988262,0.92299336,0.19814256,0.91129214,-0.2565631,-0.32205883,,0.043870904,0.030277856,0.04277745,0.16950116,0.34892768,0.9216932,-0.28204,-0.8789365,0.38460886,0.9443108,-0.32514596,-0.050569266,,0.07745013,1.3301717,0.45620415,0.99824977,0.036712047,-0.046363447,-0.0015863837,-0.7670774,-0.6415526,-0.05911706,0.6405033,-0.7656766,,-0.047895294,0.2600695,-0.08931821,0.15511021,-0.29920313,0.9414979,0.8458046,0.5326527,0.029929362,-0.51044637,0.7916809,0.33568722,,0.018121658,0.47702852,-0.30217323,-0.2967608,-0.26109064,-0.91856664,0.42531288,-0.89736575,0.117658965,-0.8550099,-0.35576165,0.37734818,,1.2449199847907395,0.27122237854276476,0.18412243902000003,2.1319176554071593,-0.484239755168721,-0.8497555915617698,0.7817647005186604,,-1.2778497177664327,0.45241313723782023,0.19991514009000003,-1.8201087094456714,-1.0623487856762996,0.5662681887033914,-0.15697364755504237,,-0.03254166390343428,-0.08714647121364187,0.07824560327999999,-0.058221254136848435,,-6.7126006e-05,1.3709068e-06,-1.1920929e-06,0.99999994,5.3767115e-05,4.496798e-05,-5.3759664e-05,0.99999994,4.142523e-06,-4.497543e-05,-4.142523e-06,1.0,769,2.358,0,0,0.0,False,0.9566393988573134,0.004779722692024091
2.3313517989590764,10:17:33.130869,10:16:27.168371,0,,0.09236607,0.011147603,0.035503626,-0.24689552,0.28481135,-0.9262424,0.33003885,0.9234025,0.19596425,0.91110736,-0.25731352,-0.3219828,,0.042289898,0.03408564,0.042691022,0.13970521,0.35042554,0.9261123,-0.28404224,-0.8817959,0.37650508,0.9485792,-0.31565475,-0.023655832,,0.07745013,1.3301717,0.45620415,0.99824977,0.036712047,-0.046363447,-0.0015863837,-0.7670774,-0.6415526,-0.05911706,0.6405033,-0.7656766,,-0.047891703,0.26006827,-0.08931891,0.15559122,-0.29716766,0.94206303,0.84585,0.5326682,0.028326046,-0.5102246,0.7924367,0.33423775,,0.019543892,0.4798976,-0.29957476,-0.26787642,-0.26386908,-0.926615,0.43076786,-0.8930812,0.12978849,-0.8617896,-0.3643887,0.3529017,,1.244943152989362,0.27122237854276476,0.18412114273000002,2.1314982755201903,-0.4838298456694246,-0.8517234200756704,0.7811113242541233,,-1.280266933156065,0.4673102889521993,0.20234179497000002,-1.8945486393826774,-1.0738262516565964,0.6390916737031076,-0.1564836153566395,,-0.03254166390343428,-0.08714647121364187,0.07824560327999999,-0.058221254136848435,,-6.7126006e-05,1.3709068e-06,-1.1920929e-06,0.99999994,5.3767115e-05,4.496798e-05,-5.3759664e-05,0.99999994,4.142523e-06,-4.497543e-05,-4.142523e-06,1.0,777,2.382,0,0,0.0,False,0.9566393988573134,0.004731442491245019
2.406857050023973,10:17:33.156252,10:16:27.168371,0,,0.09236677,0.011148527,0.03550245,-0.2470665,0.28469783,-0.9262317,0.32995203,0.9234612,0.19583364,0.9110925,-0.25722829,-0.322093,,0.04175985,0.03556361,0.042705923,0.12889719,0.36362648,0.9225839,-0.2816147,-0.8786195,0.38564372,0.9508306,-0.30952156,-0.010849088,,0.07745013,1.3301717,0.45620415,0.99824977,0.036712047,-0.046363447,-0.0015863837,-0.7670774,-0.6415526,-0.05911706,0.6405033,-0.7656766,,-0.04789233,0.26006818,-0.08931737,0.15576605,-0.29706413,0.9420668,0.8457875,0.5327765,0.028154891,-0.5102748,0.79240274,0.33424163,,0.020006107,0.48103338,-0.298594,-0.25763026,-0.2779527,-0.92540205,0.43548185,-0.888347,0.14558554,-0.86254406,-0.36548856,0.3499084,,1.244935430256488,0.271230101275639,0.18412243902000003,2.1312885855767054,-0.4838298456694246,-0.8517234200756704,0.7811113242541233,,-1.2819273207240232,0.47280115202577294,0.20324271652000003,-1.925163371131418,-1.0738262516565964,0.6555907792115012,-0.15550355095983384,,-0.03254166390343428,-0.08714647121364187,0.07824560327999999,-0.058221254136848435,,-6.7126006e-05,1.3709068e-06,-1.1920929e-06,0.99999994,5.3767115e-05,4.496798e-05,-5.3759664e-05,0.99999994,4.142523e-06,-4.497543e-05,-4.142523e-06,1.0,785,2.408,0,0,0.0,False,0.956162777109145,0.005214244499039733
2.4322442390257493,10:17:33.184136,10:16:27.256809,0,,0.09236782,0.01114811,0.035501778,-0.24707225,0.28470075,-0.9262292,0.32995555,0.92346,0.19583368,0.9110896,-0.2572296,-0.32209998,,0.041428946,0.036549635,0.042740554,0.116868995,0.3780372,0.91838396,-0.28059718,-0.8744768,0.395671,0.95268404,-0.30393758,0.003876865,,0.07745013,1.3301717,0.45620415,0.99824977,0.036712047,-0.046363447,-0.0015863837,-0.7670774,-0.6415526,-0.05911706,0.6405033,-0.7656766,,-0.047893304,0.26006734,-0.089317076,0.15577188,-0.2970669,0.94206494,0.84578896,0.53277445,0.028150396,-0.51027066,0.7924031,0.33424717,,0.020288348,0.48180512,-0.29795548,-0.2460627,-0.29318863,-0.92384714,0.43907726,-0.88346094,0.16342549,-0.8640974,-0.36542737,0.34611925,,1.2449277075236136,0.271230101275639,0.18412243902000003,2.1312885855767054,-0.4838298456694246,-0.8517234200756704,0.7811113242541233,,-1.2833019671756352,0.47611420442881525,0.20385326911,-1.9530521336148599,-1.0762857086523743,0.667071035334342,-0.15419679843075962,,-0.03254166390343428,-0.08714647121364187,0.07824560327999999,-0.058221254136848435,,-6.7126006e-05,1.3709068e-06,-1.1920929e-06,0.99999994,5.3767115e-05,4.496798e-05,-5.3759664e-05,0.99999994,4.142523e-06,-4.497543e-05,-4.142523e-06,1.0,793,2.433,0,0,0.0,False,0.9568777097313972,0.005600486105275415
2.4601006009615958,10:17:33.206014,10:16:27.256809,0,,0.09236782,0.01114811,0.035501778,-0.24707225,0.28462514,-0.9262525,0.32995555,0.923476,0.19575827,0.9110896,-0.2572559,-0.32207894,,0.041130826,0.03777077,0.04273942,0.10525191,0.38648996,0.91626805,-0.28255343,-0.8717886,0.40018514,0.9534598,-0.30101496,0.017446592,,0.07745013,1.3301717,0.45620415,0.99824977,0.036712047,-0.046363447,-0.0015863837,-0.7670774,-0.6415526,-0.05911706,0.6405033,-0.7656766,,-0.047893304,0.26006734,-0.089317076,0.15577188,-0.29698995,0.9420892,0.84578896,0.5327767,0.02810688,-0.51027066,0.7924304,0.33418244,,0.020534089,0.4827158,-0.29712462,-0.23462158,-0.30208325,-0.923958,0.4397539,-0.880653,0.17625776,-0.8669309,-0.36496025,0.3394625,,1.2449277075236136,0.271230101275639,0.18412243902000003,2.1312885855767054,-0.4838298456694246,-0.8518050988158109,0.780947980187989,,-1.285224927661317,0.4800991345919151,0.20466993181,-1.9777955469460338,-1.0802481671455724,0.6822272506020604,-0.15615692722437097,,-0.03254166390343428,-0.08714647121364187,0.07824560327999999,-0.058221254136848435,,-6.7126006e-05,1.3709068e-06,-1.1920929e-06,0.99999994,5.3767115e-05,4.496798e-05,-5.3759664e-05,0.99999994,4.142523e-06,-4.497543e-05,-4.142523e-06,1.0,801,2.457,0,0,0.0,False,0.9568777097313972,0.004634882089685988
2.4820051939459518,10:17:33.232523,10:16:27.256809,0,,0.09236604,0.011147842,0.03549975,-0.24711953,0.2845403,-0.92626595,0.33006936,0.92346454,0.19562013,0.91103554,-0.25739068,-0.32212418,,0.04095906,0.038489573,0.042709142,0.09749141,0.39332753,0.9142146,-0.28201473,-0.8700218,0.40438813,0.9544439,-0.29724643,0.026104465,,0.07745013,1.3301717,0.45620415,0.99824977,0.036712047,-0.046363447,-0.0015863837,-0.7670774,-0.6415526,-0.05911706,0.6405033,-0.7656766,,-0.047891345,0.26006603,-0.089315735,0.15581918,-0.29689357,0.9421118,0.84584755,0.53269076,0.027972471,-0.5101591,0.7925243,0.33413014,,0.020679483,0.48323098,-0.29661417,-0.22712202,-0.30947104,-0.9233868,0.44184393,-0.87770724,0.18548293,-0.8678649,-0.36586562,0.33608454,,1.244935430256488,0.27122237854276476,0.18412373531,2.1312885855767054,-0.4836932091696592,-0.8519165167195073,0.780947980187989,,-1.286391060325325,0.4822383315980753,0.20516511459000003,-1.9956191921422182,-1.0813412591436957,0.6921032552470936,-0.15485017469529674,,-0.03254166390343428,-0.08714647121364187,0.07824560327999999,-0.058221254136848435,,-6.7126006e-05,1.3709068e-06,-1.1920929e-06,0.99999994,5.3767115e-05,4.496798e-05,-5.3759664e-05,0.99999994,4.142523e-06,-4.497543e-05,-4.142523e-06,1.0,809,2.482,0,0,0.0,False,0.9568181320128764,0.005214244499039733
