AlexandreBanks6/ExpertPlaybackApp/resources/Motions/P_16/PC1/Data_PC1_4.csv
Task Time,PC1 Time,PC2 Time,Gaze Calib,s_T_psm1,Tx,Ty,Tz,R00,R01,R02,R10,R11,R12,R20,R21,R22,s_T_psm3,Tx,Ty,Tz,R00,R01,R02,R10,R11,R12,R20,R21,R22,cart_T_ecm,Tx,Ty,Tz,R00,R01,R02,R10,R11,R12,R20,R21,R22,ecm_T_psm1,Tx,Ty,Tz,R00,R01,R02,R10,R11,R12,R20,R21,R22,ecm_T_psm3,Tx,Ty,Tz,R00,R01,R02,R10,R11,R12,R20,R21,R22,psm1_joints,q1,q2,q3,q4,q5,q6,jaw,psm3_joints,q1,q2,q3,q4,q5,q6,jaw,ecm_joints,q1,q2,q3,q4,ecmi_T_ecm,Tx,Ty,Tz,R00,R01,R02,R10,R11,R12,R20,R21,R22,Sample #,Task Duration (s),Collisions (binary),Collisions (increments),Cumulative Collision Time (s),Clutch Press,MTMR Angle,MTML Angle
""
lci_T_si,,,,,-0.057824805,0.033623017,0.23225968,0.99702215,-0.012819277,0.07604288,0.048720323,-0.65965104,-0.7499912,0.059776112,0.7514627,-0.6570622
rci_T_si,,,,,-0.06734889,0.03764145,0.24189119,0.9919741,-0.042941336,0.118926115,0.062775895,-0.649194,-0.758028,0.10975685,0.7594098,-0.6412879
ecm_T_lc,,,,,-4.4061628e-05,-0.00034663224,-0.01840835,-0.99912,0.030754527,0.028518902,-0.031987965,-0.99852574,-0.043852776,0.027128186,-0.04472645,0.9986309
ecm_T_rc,,,,,-0.0043358393,0.01870579,-0.007592615,-0.99555075,-0.052743673,-0.078081585,0.04863213,-0.9973746,0.053654674,-0.08070653,0.04961868,0.9955021
cart_T_ecmi,,,,,0.057426013,1.3232883,0.4341485,0.9967947,0.07827243,-0.016545301,0.041212782,-0.6796525,-0.73237556,-0.068569876,0.7293462,-0.6806998
ecmac_T_ecmrep_psm1,,,,,-0.0012004398,-0.28172868,-0.2751139,0.9977453,0.05981805,0.030433392,-0.056875188,0.9943363,-0.089780115,-0.035631496,0.08784678,0.9954965
ecmac_T_ecmrep_psm3,,,,,-0.035388503,-0.5052441,-0.50078297,0.9946279,0.028167607,0.09960877,-0.04494542,0.98434234,0.17044082,-0.09324822,-0.17400216,0.9803204
""
0,14:38:41.926922,14:37:24.763256,0,,0.118172385,0.0031631142,0.01199685,0.9139323,0.28416297,-0.28979152,0.14727265,0.43315637,0.8892055,0.3782043,-0.8553519,0.35402608,,0.042934928,-0.041843414,0.029194057,0.510471,0.6579472,0.55364686,-0.063975304,-0.6130105,0.78748035,0.8575118,-0.4374056,-0.27083164,,0.05737338,1.3232865,0.4341482,0.9967918,0.07832095,-0.016493019,0.04128394,-0.6796469,-0.73237675,-0.068569876,0.7293462,-0.6806998,,-0.07803059,0.27694687,-0.046098076,-0.9283807,-0.22685704,0.29435536,0.35682353,-0.32278654,0.8766332,-0.10385646,0.9188823,0.38061675,,0.0054412703,0.4467512,-0.32564974,-0.5335551,-0.62242514,-0.5726307,0.6978694,-0.7064914,0.11767831,-0.4778046,-0.3368336,0.8113235,,1.1720714455881796,0.29339434462466335,0.20462326537000003,3.5808751648852226,-0.3063390324741175,-1.2813507225876029,-0.41195373479065234,,-1.1016787354396231,-0.0849191706849727,0.17559414711000002,-1.6263552016659708,-0.7752754996691091,-0.6898669023416453,0.8722573131570512,,0.023856469213197493,0.03659955441432109,0.08941130016,-0.1167695939710949,,-5.2519143e-05,-3.0994415e-06,2.3841858e-06,1.0,4.8592687e-05,5.2064657e-05,-4.8596412e-05,1.0,4.917383e-06,-5.2064657e-05,-4.887581e-06,0.99999994,35,0.105,0,0,0.0,False,-0.26154621174225356,1.046038812902606
0.11801415899981293,14:38:41.948932,14:37:24.763256,0,,0.11815202,0.0031394511,0.012095183,0.9139704,0.2831385,-0.29067302,0.14671299,0.43729287,0.88727117,0.37832987,-0.853585,0.35813266,,0.04294014,-0.041842952,0.029194355,0.5104451,0.6579553,0.5536613,-0.063982636,-0.6130141,0.78747696,0.85752666,-0.43738848,-0.27081233,,0.05737338,1.3232865,0.4341482,0.9967918,0.07832095,-0.016493019,0.04128394,-0.6796469,-0.73237675,-0.068569876,0.7293462,-0.6806998,,-0.0780161,0.27700183,-0.046184175,-0.92844033,-0.2258171,0.29496646,0.35652596,-0.31862825,0.878274,-0.10434466,0.9205882,0.37633696,,0.005436037,0.44675148,-0.32564956,-0.53352946,-0.62243354,-0.5726455,0.69788,-0.7064785,0.117692985,-0.47781777,-0.33684516,0.811311,,1.1723417412387775,0.29341751282328604,0.20453382136,3.5810848548287066,-0.30688557847317927,-1.2858057753812508,-0.4119537347906521,,-1.1017096263711201,-0.0849191706849727,0.17559544340000002,-1.6263552016659708,-0.7752754996691091,-0.6898669023416453,0.8722573131570512,,0.023856469213197493,0.03659955441432109,0.08941130016,-0.1167695939710949,,-5.2519143e-05,-3.0994415e-06,2.3841858e-06,1.0,4.8592687e-05,5.2064657e-05,-4.8596412e-05,1.0,4.917383e-06,-5.2064657e-05,-4.887581e-06,0.99999994,43,0.129,0,0,0.0,False,-0.2608312791200009,1.045797411898709
0.14002347699988604,14:38:41.980802,14:37:24.844950,0,,0.11816388,0.003110662,0.012237862,0.9133515,0.28467166,-0.29112065,0.14300793,0.445154,0.8839607,0.38123208,-0.8489994,0.36587167,,0.042949613,-0.041842178,0.02919507,0.5105089,0.65794337,0.5536166,-0.063967615,-0.6129924,0.78749514,0.8574898,-0.43743676,-0.27085096,,0.05737338,1.3232865,0.4341482,0.9967918,0.07832095,-0.016493019,0.04128394,-0.6796469,-0.73237675,-0.068569876,0.7293462,-0.6806998,,-0.07803625,0.2770846,-0.04630279,-0.928075,-0.2273797,0.29491562,0.356067,-0.30990848,0.88157415,-0.10905521,0.9231767,0.36858073,,0.005426527,0.44675207,-0.3256494,-0.5335926,-0.62242097,-0.5726003,0.6978522,-0.7065098,0.11766982,-0.47778788,-0.33680263,0.81134623,,1.172673818752369,0.2934561264876571,0.20441456268000002,3.5817139246591605,-0.31166785596496965,-1.2939129235525388,-0.41113701445998085,,-1.101771408234114,-0.0849191706849727,0.17559673969000003,-1.6263552016659708,-0.7751388631693437,-0.689896641505201,0.8720939690909169,,0.023856469213197493,0.03659955441432109,0.08941130016,-0.1167695939710949,,-5.2519143e-05,-3.0994415e-06,2.3841858e-06,1.0,4.8592687e-05,5.2064657e-05,-4.8596412e-05,1.0,4.917383e-06,-5.2064657e-05,-4.887581e-06,0.99999994,54,0.162,0,0,0.0,False,-0.2622611443645053,1.046038812902606
0.17189116600002308,14:38:42.010995,14:37:24.844950,0,,0.11820109,0.0030676574,0.01245828,0.9114932,0.29236537,-0.28931424,0.13583201,0.44996664,0.8826549,0.3882395,-0.843832,0.37042886,,0.042962164,-0.041841403,0.029197752,0.51044416,0.6579634,0.5536524,-0.06398597,-0.61300147,0.78748655,0.85752696,-0.43739393,-0.27080256,,0.05737338,1.3232865,0.4341482,0.9967918,0.07832095,-0.016493019,0.04128394,-0.6796469,-0.73237675,-0.068569876,0.7293462,-0.6806998,,-0.07808619,0.2772131,-0.04648393,-0.9267824,-0.23520432,0.29283655,0.35619122,-0.30300048,0.8839222,-0.11917273,0.9235094,0.36459324,,0.0054138824,0.4467542,-0.3256502,-0.5335284,-0.622442,-0.57263726,0.6978787,-0.7064775,0.11770653,-0.4778208,-0.33683157,0.8113148,,1.1731680736563195,0.29346384922053137,0.20423826724000002,3.581923614602645,-0.32205222994714316,-1.2975336164124138,-0.41244376698905527,,-1.101848635562856,-0.0849191706849727,0.17559803598,-1.6263552016659708,-0.7751388631693437,-0.689896641505201,0.8720939690909169,,0.023856469213197493,0.03659955441432109,0.08941130016,-0.1167695939710949,,-5.2519143e-05,-3.0994415e-06,2.3841858e-06,1.0,4.8592687e-05,5.2064657e-05,-4.8596412e-05,1.0,4.917383e-06,-5.2064657e-05,-4.887581e-06,0.99999994,62,0.187,0,0,0.0,False,-0.26160578946077395,1.0455560108948116
0.20208896999974968,14:38:42.034420,14:37:24.844950,0,,0.11819841,0.003047347,0.012551069,0.9106239,0.29465616,-0.2897275,0.13502108,0.45047885,0.88251805,0.39055544,-0.8427612,0.3704319,,0.04297225,-0.041837886,0.029198766,0.51036966,0.65812075,0.55353415,-0.06386009,-0.61289597,0.78757894,0.8575807,-0.4373051,-0.27077577,,0.05737338,1.3232865,0.4341482,0.9967918,0.07832095,-0.016493019,0.04128394,-0.6796469,-0.73237675,-0.068569876,0.7293462,-0.6806998,,-0.07808897,0.27726603,-0.046562802,-0.92605877,-0.23753396,0.29324526,0.35731766,-0.3019185,0.8838378,-0.121405326,0.9232675,0.36446935,,0.0054036514,0.44675633,-0.32564777,-0.53346,-0.62260556,-0.5725232,0.6979896,-0.7063558,0.117779545,-0.47773525,-0.33678454,0.81138474,,1.1733843101767978,0.29346384922053137,0.20415919355,3.580665474941738,-0.3245116869429211,-1.2971616689486896,-0.41244376698905505,,-1.1019104174258498,-0.08491144795209848,0.17560062856000003,-1.6265648916094555,-0.7751388631693437,-0.6898966415052011,0.8717672809586484,,0.023856469213197493,0.03659955441432109,0.08941130016,-0.1167695939710949,,-5.2519143e-05,-3.0994415e-06,2.3841858e-06,1.0,4.8592687e-05,5.2064657e-05,-4.8596412e-05,1.0,4.917383e-06,-5.2064657e-05,-4.887581e-06,0.99999994,70,0.211,0,0,0.0,False,-0.2620824112089424,1.0454594504932526
0.22547739099991304,14:38:42.061773,14:37:24.844950,0,,0.11814399,0.0030471385,0.012668699,0.90963906,0.29726157,-0.29015937,0.13369551,0.45183587,0.8820259,0.39329687,-0.8411181,0.37126502,,0.04291036,-0.04187997,0.029209793,0.51033384,0.6581237,0.55356354,-0.06372312,-0.6129875,0.78751874,0.8576122,-0.43717223,-0.2708906,,0.057411417,1.3232864,0.4341453,0.9967938,0.07828713,-0.016529463,0.041234337,-0.6796508,-0.7323759,-0.068569876,0.7293462,-0.6806998,,-0.07807128,0.2773534,-0.04664688,-0.92524844,-0.24016201,0.2936623,0.35842797,-0.29983363,0.88409793,-0.124276906,0.923267,0.36350137,,0.0054318183,0.44674626,-0.3256922,-0.5334237,-0.62264544,-0.5725136,0.69810104,-0.7062637,0.11767094,-0.47761285,-0.33690387,0.81140727,,1.1736546058273956,0.2934561264876571,0.20405937922000003,3.579407335280831,-0.32765432643752623,-1.2976211705488727,-0.4126071110551892,,-1.1019721992888438,-0.08491144795209848,0.17560322114000002,-1.62677458155294,-0.7751388631693437,-0.6897332840249201,0.8714405928263796,,0.023856469213197493,0.03659955441432109,0.08941130016,-0.1167695939710949,,-1.4401972e-05,-2.2053719e-06,3.9339066e-06,1.0,1.4714897e-05,1.577288e-05,-1.4726073e-05,1.0,1.4901161e-06,-1.577288e-05,-1.5199184e-06,0.99999994,81,0.244,0,0,0.0,False,-0.26136747858668974,1.045797411898709
0.25285123000003296,14:38:42.082582,14:37:24.844950,0,,0.11813098,0.003007114,0.012804732,0.90940887,0.296791,-0.29136005,0.13262182,0.45703846,0.87950385,0.39419162,-0.8384693,0.37627393,,0.04292413,-0.04187352,0.029203415,0.5103861,0.6582093,0.5534134,-0.06372777,-0.6128252,0.7876447,0.8575808,-0.43727067,-0.27083126,,0.057411417,1.3232864,0.4341453,0.9967938,0.07828713,-0.016529463,0.041234337,-0.6796508,-0.7323759,-0.068569876,0.7293462,-0.6806998,,-0.07806656,0.2774241,-0.046770405,-0.9250947,-0.23969285,0.29452848,0.3583347,-0.29431212,0.88598907,-0.12568194,0.9251636,0.35815686,,0.0054180324,0.4467432,-0.32568368,-0.5334748,-0.62273383,-0.5723698,0.69806904,-0.7062756,0.117790006,-0.47760263,-0.33671564,0.81149143,,1.1739635151423646,0.29348701741915406,0.20393234280000003,3.579407335280831,-0.32915732793494606,-1.3030932302997382,-0.41195373479065234,,-1.102049426617586,-0.0848882797534758,0.17561359146000002,-1.62677458155294,-0.7750022266695782,-0.689926380668757,0.8712772487602453,,0.023856469213197493,0.03659955441432109,0.08941130016,-0.1167695939710949,,-1.4401972e-05,-2.2053719e-06,3.9339066e-06,1.0,1.4714897e-05,1.577288e-05,-1.4726073e-05,1.0,1.4901161e-06,-1.577288e-05,-1.5199184e-06,0.99999994,85,0.256,0,0,0.0,False,-0.2620824112089424,1.0463767743080625
0.27367640599959486,14:38:42.109673,14:37:24.979717,0,,0.11812754,0.0029482841,0.013042718,0.9082939,0.29961407,-0.29194817,0.12847984,0.46436313,0.876276,0.3981146,-0.8334255,0.38328385,,0.04294862,-0.041865442,0.029194593,0.5102537,0.65838575,0.55332565,-0.06362373,-0.61272323,0.78773236,0.85766727,-0.43714797,-0.27075535,,0.057411417,1.3232864,0.4341453,0.9967938,0.07828713,-0.016529463,0.041234337,-0.6796508,-0.7323759,-0.068569876,0.7293462,-0.6806998,,-0.07807729,0.2775551,-0.046977352,-0.92430013,-0.24258131,0.29465842,0.35831934,-0.2856585,0.8888231,-0.13144018,0.9271211,0.35095578,,0.0053935484,0.4467383,-0.32567278,-0.53334886,-0.6229173,-0.57228756,0.6982005,-0.70612675,0.11790248,-0.47755104,-0.33668834,0.8115331,,1.174527274642183,0.2935101856177767,0.20372493640000003,3.579407335280831,-0.3351693339246254,-1.3101976173377583,-0.4127704551213236,,-1.1021807130764478,-0.08487283428772736,0.17563044323000002,-1.6269842714964244,-0.7750022266695782,-0.6899263806687571,0.8716039368925143,,0.023856469213197493,0.03659955441432109,0.08941130016,-0.1167695939710949,,-1.4401972e-05,-2.2053719e-06,3.9339066e-06,1.0,1.4714897e-05,1.577288e-05,-1.4726073e-05,1.0,1.4901161e-06,-1.577288e-05,-1.5199184e-06,0.99999994,93,0.281,0,0,0.0,False,-0.2617249448978165,1.0455077306940321
0.3007616589998179,14:38:42.130983,14:37:24.979717,0,,0.11812624,0.0029062629,0.013192639,0.90748125,0.30151176,-0.29252112,0.12558624,0.46976906,0.87381065,0.40088153,-0.82970333,0.3884409,,0.042964328,-0.04186066,0.029191196,0.5102926,0.6584292,0.5532381,-0.06362671,-0.6126316,0.78780335,0.85764396,-0.43721086,-0.27072772,,0.057411417,1.3232864,0.4341453,0.9967938,0.07828713,-0.016529463,0.041234337,-0.6796508,-0.7323759,-0.068569876,0.7293462,-0.6806998,,-0.07808504,0.2776342,-0.047111243,-0.92371273,-0.24452752,0.29489166,0.35832828,-0.2792683,0.8908479,-0.13548295,0.9285556,0.34558478,,0.0053777928,0.44673696,-0.3256672,-0.5333868,-0.62296206,-0.5722034,0.69817704,-0.7061396,0.11796465,-0.47754303,-0.3365785,0.8115834,,1.174874797621523,0.29349474015202826,0.20359271482000002,3.579407335280831,-0.3394050654173541,-1.31556496625835,-0.41244376698905527,,-1.1022733858709386,-0.08485738882197891,0.17563822097,-1.6269842714964244,-0.7748655901698127,-0.6900377985724536,0.8716039368925143,,0.023856469213197493,0.03659955441432109,0.08941130016,-0.1167695939710949,,-1.4401972e-05,-2.2053719e-06,3.9339066e-06,1.0,1.4714897e-05,1.577288e-05,-1.4726073e-05,1.0,1.4901161e-06,-1.577288e-05,-1.5199184e-06,0.99999994,101,0.305,0,0,0.0,False,-0.2631548101423209,1.0462802139065033
0.32207149499981824,14:38:42.151594,14:37:24.979717,0,,0.11812469,0.002869472,0.013353616,0.9065465,0.3044461,-0.29238015,0.12230129,0.47351056,0.87225574,0.40399992,-0.82649875,0.3920252,,0.04298415,-0.04185732,0.029190958,0.5101959,0.6585056,0.5532363,-0.06365955,-0.61257625,0.7878437,0.85769904,-0.43717343,-0.2706138,,0.057411417,1.3232864,0.4341453,0.9967938,0.07828713,-0.016529463,0.041234337,-0.6796508,-0.7323759,-0.068569876,0.7293462,-0.6806998,,-0.07809298,0.2777249,-0.047249034,-0.9230325,-0.24752584,0.29451978,0.35832226,-0.27442408,0.89235455,-0.14005749,0.92920524,0.34199637,,0.0053578787,0.44673753,-0.3256645,-0.53329086,-0.6230414,-0.5722065,0.6982136,-0.70608354,0.11808388,-0.47759673,-0.3365493,0.81156385,,1.1752763797309829,0.29349474015202826,0.20345660437000002,3.579407335280831,-0.3441873429091445,-1.3189347475014852,-0.4126071110551892,,-1.1023892268640518,-0.08484966608910469,0.17564470242000002,-1.6269842714964244,-0.7748655901698127,-0.690119477312594,0.8717672809586484,,0.023856469213197493,0.03659955441432109,0.08941130016,-0.1167695939710949,,-1.4401972e-05,-2.2053719e-06,3.9339066e-06,1.0,1.4714897e-05,1.577288e-05,-1.4726073e-05,1.0,1.4901161e-06,-1.577288e-05,-1.5199184e-06,0.99999994,109,0.329,0,0,0.0,False,-0.2621419889274632,1.0474389387252105
0.34264552900003764,14:38:42.181294,14:37:25.064023,0,,0.11808553,0.0028089285,0.01353766,0.90687144,0.3039419,-0.29189673,0.120641045,0.4764274,0.8708976,0.40376988,-0.8250068,0.39539057,,0.043012455,-0.041850183,0.0291965,0.50993985,0.6579486,0.55413437,-0.06375098,-0.6135074,0.7871115,0.8578445,-0.43670613,-0.27090698,,0.057411417,1.3232864,0.4341453,0.9967938,0.07828713,-0.016529463,0.041234337,-0.6796508,-0.7323759,-0.068569876,0.7293462,-0.6806998,,-0.07806526,0.2778165,-0.047421947,-0.9233892,-0.24702324,0.2938229,0.35700062,-0.27131867,0.8938326,-0.14107779,0.93025035,0.33872017,,0.0053291856,0.44674456,-0.32566136,-0.5330362,-0.6224664,-0.5730689,0.6983081,-0.70609814,0.11743592,-0.47774282,-0.3375811,0.8110492,,1.175762911902059,0.29348701741915406,0.20328030893000001,3.580665474941738,-0.34528043490726806,-1.3222906987592231,-0.412933799187458,,-1.1025591269872848,-0.08481877515760779,0.17564988758000002,-1.6269842714964244,-0.7750022266695782,-0.6889462357870703,0.8732373775538568,,0.023856469213197493,0.03659955441432109,0.08941130016,-0.1167695939710949,,-1.4401972e-05,-2.2053719e-06,3.9339066e-06,1.0,1.4714897e-05,1.577288e-05,-1.4726073e-05,1.0,1.4901161e-06,-1.577288e-05,-1.5199184e-06,0.99999994,120,0.363,0,0,0.0,False,-0.26202283349042155,1.047728619929887
0.3723726899997928,14:38:42.212742,14:37:25.064023,0,,0.118038535,0.002747953,0.013720393,0.90713954,0.30216956,-0.29290205,0.12061283,0.48012838,0.8688666,0.4031756,-0.82351094,0.39909792,,0.043029748,-0.0418475,0.029199064,0.5097167,0.6574634,0.554915,-0.063658625,-0.61440396,0.7864194,0.8579839,-0.43617624,-0.27131876,,0.057411417,1.3232864,0.4341453,0.9967938,0.07828713,-0.016529463,0.041234337,-0.6796508,-0.7323759,-0.068569876,0.7293462,-0.6806998,,-0.07802963,0.27790704,-0.04759475,-0.9236262,-0.24523388,0.29457605,0.35654715,-0.26764286,0.8951209,-0.14067279,0.9317874,0.33463937,,0.005311739,0.44674733,-0.32566053,-0.53282076,-0.62196606,-0.573812,0.6984843,-0.70604444,0.11670848,-0.4777255,-0.33861402,0.8106287,,1.1762339986073866,0.29349474015202826,0.20310142091000002,3.5808751648852226,-0.3450071619077371,-1.3263524353532223,-0.41440389578266656,,-1.1026595225146498,-0.08481877515760779,0.17565377645000002,-1.6271939614399091,-0.7751388631693437,-0.6876913155214059,0.8729106894215881,,0.023856469213197493,0.03659955441432109,0.08941130016,-0.1167695939710949,,-1.4401972e-05,-2.2053719e-06,3.9339066e-06,1.0,1.4714897e-05,1.577288e-05,-1.4726073e-05,1.0,1.4901161e-06,-1.577288e-05,-1.5199184e-06,0.99999994,128,0.387,0,0,0.0,False,-0.2611887454311268,1.048114861536123
0.4038295779996588,14:38:42.232176,14:37:25.064023,0,,0.11804359,0.0027208328,0.013861477,0.9065447,0.3047663,-0.29205203,0.1177402,0.4818555,0.8683044,0.40535676,-0.82154286,0.4009403,,0.04303433,-0.041846935,0.029198349,0.50980645,0.657353,0.5549634,-0.063636184,-0.6145071,0.7863406,0.8579323,-0.43619728,-0.27144825,,0.057411417,1.3232864,0.4341453,0.9967938,0.07828713,-0.016529463,0.041234337,-0.6796508,-0.7323759,-0.068569876,0.7293462,-0.6806998,,-0.078042865,0.27798995,-0.04771143,-0.9232247,-0.24788381,0.29361504,0.35614374,-0.26507846,0.89604414,-0.1442838,0.9318192,0.33300924,,0.0053071673,0.44674674,-0.32565975,-0.53290963,-0.62185156,-0.5738537,0.69844604,-0.7061077,0.116555095,-0.47768244,-0.33869246,0.8106213,,1.1765737988538525,0.2935565220150221,0.20298345852000002,3.581294544772191,-0.34869634740140404,-1.3277548039210094,-0.40950357379863833,,-1.1026904134461466,-0.08481877515760779,0.17565507274000003,-1.6271939614399091,-0.7750022266695782,-0.6875576972046807,0.8730740334877226,,0.023856469213197493,0.03659955441432109,0.08941130016,-0.1167695939710949,,-1.4401972e-05,-2.2053719e-06,3.9339066e-06,1.0,1.4714897e-05,1.577288e-05,-1.4726073e-05,1.0,1.4901161e-06,-1.577288e-05,-1.5199184e-06,0.99999994,136,0.412,0,0,0.0,False,-0.26255903295711036,1.0471009773197542
0.4232546769999317,14:38:42.259469,14:37:25.149055,0,,0.118067786,0.0026700646,0.014082089,0.9048661,0.30943182,-0.2923512,0.11227891,0.48896256,0.8650485,0.41062233,-0.815578,0.40770304,,0.043035556,-0.04184689,0.029198706,0.50979996,0.657355,0.554967,-0.06363803,-0.614508,0.7863397,0.857936,-0.43619287,-0.27144337,,0.057411417,1.3232864,0.4341453,0.9967938,0.07828713,-0.016529463,0.041234337,-0.6796508,-0.7323759,-0.068569876,0.7293462,-0.6806998,,-0.078080036,0.27811348,-0.047899023,-0.9219739,-0.252666,0.2934689,0.3561947,-0.2559471,0.8986748,-0.15195204,0.9330868,0.32597485,,0.0053059314,0.44674703,-0.3256599,-0.5329032,-0.62185365,-0.57385737,0.69844866,-0.70610446,0.11655877,-0.47768572,-0.33869535,0.81061816,,1.1770526082920545,0.29359513567939316,0.20279938534000003,3.581294544772191,-0.35662126438779956,-1.3346062001495287,-0.4122804229229209,,-1.102698136179021,-0.08481877515760779,0.17565507274000003,-1.6271939614399091,-0.7750022266695782,-0.6875576972046806,0.873400721619991,,0.023856469213197493,0.03659955441432109,0.08941130016,-0.1167695939710949,,-1.4401972e-05,-2.2053719e-06,3.9339066e-06,1.0,1.4714897e-05,1.577288e-05,-1.4726073e-05,1.0,1.4901161e-06,-1.577288e-05,-1.5199184e-06,0.99999994,144,0.437,0,0,0.0,False,-0.2616653671792948,1.047294098122872
0.45056246299964187,14:38:42.285261,14:37:25.149055,0,,0.1181016,0.0026423335,0.014266476,0.90289164,0.31531534,-0.2921694,0.10616417,0.49505386,0.86235183,0.41655236,-0.8096282,0.41350478,,0.04303433,-0.041846935,0.029198349,0.50980645,0.6573983,0.55490965,-0.063636184,-0.6144429,0.7863908,0.8579323,-0.4362194,-0.2714126,,0.057411417,1.3232864,0.4341453,0.9967938,0.07828713,-0.016529463,0.041234337,-0.6796508,-0.7323759,-0.068569876,0.7293462,-0.6806998,,-0.07812429,0.27822664,-0.04804446,-0.92048025,-0.25869045,0.2929084,0.35627848,-0.24755372,0.9009899,-0.16056693,0.9337004,0.32003415,,0.0053071673,0.44674674,-0.32565975,-0.53290963,-0.6218984,-0.5738028,0.69844604,-0.7060982,0.11661277,-0.47768244,-0.33862624,0.810649,,1.1774850813330109,0.2936337493437643,0.20266068231,3.581294544772191,-0.3655026368725532,-1.3402692773514702,-0.41326048731972653,,-1.1026904134461466,-0.08481877515760779,0.17565507274000003,-1.6271939614399091,-0.7750022266695782,-0.6876393759448214,0.8735640656861257,,0.023856469213197493,0.03659955441432109,0.08941130016,-0.1167695939710949,,-1.4401972e-05,-2.2053719e-06,3.9339066e-06,1.0,1.4714897e-05,1.577288e-05,-1.4726073e-05,1.0,1.4901161e-06,-1.577288e-05,-1.5199184e-06,0.99999994,163,0.494,0,0,0.0,False,-0.2611887454311268,1.047390658524431
0.47630533999972613,14:38:42.343310,14:37:25.149055,0,,0.118038535,0.002625063,0.01448223,0.9041888,0.31099793,-0.29278472,0.10737757,0.49794933,0.86053264,0.41341582,-0.8095225,0.41684598,,0.04303433,-0.041846935,0.029198349,0.50980645,0.6573983,0.55490965,-0.063636184,-0.6144429,0.7863908,0.8579323,-0.4362194,-0.2714126,,0.057411417,1.3232864,0.4341453,0.9967938,0.07828713,-0.016529463,0.041234337,-0.6796508,-0.7323759,-0.068569876,0.7293462,-0.6806998,,-0.0780732,0.27837157,-0.048209406,-0.9215768,-0.2543086,0.29329726,0.3548303,-0.24538843,0.90215296,-0.15745352,0.93547404,0.3163807,,0.0053071673,0.44674674,-0.32565975,-0.53290963,-0.6218984,-0.5738028,0.69844604,-0.7060982,0.11661277,-0.47768244,-0.33862624,0.810649,,1.1781801272916912,0.2939117677272364,0.20247401655000002,3.582342994489614,-0.36222336087818263,-1.3438417731817305,-0.41179039072451795,,-1.1026904134461466,-0.08481877515760779,0.17565507274000003,-1.6271939614399091,-0.7750022266695782,-0.6876393759448214,0.8735640656861257,,0.023856469213197493,0.03659955441432109,0.08941130016,-0.1167695939710949,,-1.4401972e-05,-2.2053719e-06,3.9339066e-06,1.0,1.4714897e-05,1.577288e-05,-1.4726073e-05,1.0,1.4901161e-06,-1.577288e-05,-1.5199184e-06,0.99999994,171,0.518,0,0,0.0,False,-0.26190367805337944,1.0472458179220927
0.5343823089997386,14:38:42.365242,14:37:25.149055,0,,0.118028015,0.0026337802,0.014540046,0.90426683,0.31077245,-0.2927833,0.1073624,0.4981928,0.8603936,0.41324914,-0.80945927,0.41713396,,0.043033108,-0.04184701,0.02919799,0.5098129,0.6574417,0.5548524,-0.063634396,-0.61437774,0.7864418,0.85792863,-0.43624586,-0.27138186,,0.057411417,1.3232864,0.4341453,0.9967938,0.07828713,-0.016529463,0.041234337,-0.6796508,-0.7323759,-0.068569876,0.7293462,-0.6806998,,-0.07806553,0.27841952,-0.04824362,-0.92164624,-0.25408036,0.29327688,0.35469803,-0.2451698,0.9022644,-0.15734503,0.93559337,0.31608164,,0.0053084027,0.44674644,-0.3256596,-0.532916,-0.6219432,-0.57374835,0.69844335,-0.7060919,0.116666764,-0.47767916,-0.33855715,0.8106798,,1.1783886410792952,0.2940198859874755,0.20243383156000003,3.582342994489614,-0.36208672437841716,-1.3439531910854268,-0.41179039072451795,,-1.1026826907132723,-0.08481877515760779,0.17565507274000003,-1.6271939614399091,-0.7750022266695782,-0.6877210546849619,0.8734007216199914,,0.023856469213197493,0.03659955441432109,0.08941130016,-0.1167695939710949,,-1.4401972e-05,-2.2053719e-06,3.9339066e-06,1.0,1.4714897e-05,1.577288e-05,-1.4726073e-05,1.0,1.4901161e-06,-1.577288e-05,-1.5199184e-06,0.99999994,179,0.543,0,0,0.0,False,-0.26154621174225356,1.04748721892599
0.5563360490000377,14:38:42.393352,14:37:25.279058,0,,0.11801557,0.002665192,0.014601648,0.9042958,0.310835,-0.2926275,0.10710487,0.4983468,0.86033654,0.4132527,-0.80934036,0.417361,,0.04303467,-0.041849498,0.029197872,0.50982934,0.6573021,0.5550027,-0.06377673,-0.6144912,0.7863416,0.85790825,-0.43629616,-0.27136505,,0.057411417,1.3232864,0.4341453,0.9967938,0.07828713,-0.016529463,0.041234337,-0.6796508,-0.7323759,-0.068569876,0.7293462,-0.6806998,,-0.078055516,0.27848595,-0.048264205,-0.92168224,-0.25414497,0.29310784,0.35452175,-0.2449787,0.9023856,-0.15753157,0.93562585,0.31589243,,0.005306932,0.4467451,-0.32566178,-0.5329268,-0.6217983,-0.5738954,0.6983564,-0.7061845,0.11662673,-0.47779435,-0.33863,0.81058145,,1.1786821049285159,0.29418978611070845,0.20240531318000002,3.582342994489614,-0.36222336087818263,-1.3438417731817305,-0.41179039072451795,,-1.1026904134461466,-0.08482649789048201,0.17565507274000003,-1.6269842714964244,-0.7750022266695782,-0.6877210546849619,0.8734007216199914,,0.023856469213197493,0.03659955441432109,0.08941130016,-0.1167695939710949,,-1.4401972e-05,-2.2053719e-06,3.9339066e-06,1.0,1.4714897e-05,1.577288e-05,-1.4726073e-05,1.0,1.4901161e-06,-1.577288e-05,-1.5199184e-06,0.99999994,187,0.568,0,0,0.0,False,-0.2620824112089424,1.047294098122872
0.5843917089996467,14:38:42.415823,14:37:25.279058,0,,0.11801848,0.0026818067,0.014635712,0.9042808,0.31098372,-0.29251567,0.106905,0.49838692,0.86033815,0.4133371,-0.8092586,0.41743606,,0.04303467,-0.041849498,0.029197872,0.50982934,0.6573021,0.5550027,-0.06377673,-0.6144912,0.7863416,0.85790825,-0.43629616,-0.27136505,,0.057411417,1.3232864,0.4341453,0.9967938,0.07828713,-0.016529463,0.041234337,-0.6796508,-0.7323759,-0.068569876,0.7293462,-0.6806998,,-0.07805977,0.27852196,-0.048275594,-0.9216771,-0.25429666,0.29299226,0.3544446,-0.2448948,0.9024387,-0.15773486,0.9356066,0.31584802,,0.005306932,0.4467451,-0.32566178,-0.5329268,-0.6217983,-0.5738954,0.6983564,-0.7061845,0.11662673,-0.47779435,-0.33863,0.81058145,,1.1788056686545034,0.29431334983669605,0.20238716512000002,3.582342994489614,-0.36235999737794805,-1.343730355278034,-0.41179039072451795,,-1.1026904134461466,-0.08481877515760779,0.17565507274000003,-1.6269842714964244,-0.7750022266695782,-0.6877210546849619,0.8734007216199914,,0.023856469213197493,0.03659955441432109,0.08941130016,-0.1167695939710949,,-1.4401972e-05,-2.2053719e-06,3.9339066e-06,1.0,1.4714897e-05,1.577288e-05,-1.4726073e-05,1.0,1.4901161e-06,-1.577288e-05,-1.5199184e-06,0.99999994,195,0.592,0,0,0.0,False,-0.26243987752006825,1.0471975377213132
0.6069017549998534,14:38:42.444679,14:37:25.279058,0,,0.11803442,0.0026801825,0.014675811,0.9042402,0.3112383,-0.29237044,0.1067172,0.49823964,0.8604467,0.41347453,-0.8092514,0.41731384,,0.043034166,-0.04185066,0.02919656,0.50994444,0.65727335,0.554931,-0.063741714,-0.6144669,0.7863635,0.85784245,-0.4363739,-0.27144825,,0.057411417,1.3232864,0.4341453,0.9967938,0.07828713,-0.016529463,0.041234337,-0.6796508,-0.7323759,-0.068569876,0.7293462,-0.6806998,,-0.07807786,0.27854946,-0.048303552,-0.92164886,-0.2545551,0.2928567,0.3544145,-0.2449966,0.90242285,-0.15796743,0.9355097,0.31601888,,0.0053075147,0.44674343,-0.32566217,-0.533041,-0.62176806,-0.5738221,0.6983106,-0.7062396,0.11656749,-0.4777338,-0.33857077,0.8106419,,1.1788442823188745,0.29443691356268364,0.20235475787,3.582342994489614,-0.3624966338777135,-1.3434555798940564,-0.4121170788567865,,-1.1026904134461466,-0.08483422062335624,0.17565507274000003,-1.6269842714964244,-0.7748655901698127,-0.6877507938485179,0.8735640656861257,,0.023856469213197493,0.03659955441432109,0.08941130016,-0.1167695939710949,,-1.4401972e-05,-2.2053719e-06,3.9339066e-06,1.0,1.4714897e-05,1.577288e-05,-1.4726073e-05,1.0,1.4901161e-06,-1.577288e-05,-1.5199184e-06,0.99999994,210,0.637,0,0,0.0,False,-0.2626781883941529,1.0471492575205337
0.6357475569998314,14:38:42.483281,14:37:25.362586,0,,0.11804779,0.0026250184,0.014748514,0.90439504,0.31082097,-0.29233545,0.1068342,0.49834627,0.86037046,0.4131055,-0.80934614,0.4174956,,0.043032363,-0.041850243,0.029193342,0.50995743,0.657224,0.5549775,-0.06373805,-0.6145293,0.78631496,0.85783505,-0.4363603,-0.2714936,,0.057411417,1.3232864,0.4341453,0.9967938,0.07828713,-0.016529463,0.041234337,-0.6796508,-0.7323759,-0.068569876,0.7293462,-0.6806998,,-0.07809651,0.27856344,-0.048392795,-0.9217808,-0.25413066,0.2928101,0.35422623,-0.24498294,0.9025005,-0.15761955,0.93562865,0.3158403,,0.0053094,0.44674087,-0.32566023,-0.5330539,-0.621717,-0.5738655,0.6983053,-0.70625556,0.11650245,-0.4777272,-0.3386312,0.81062055,,1.1788211141202518,0.29446780449418053,0.20226142499000002,3.582552684433099,-0.36208672437841716,-1.3437081548650052,-0.41195373479065234,,-1.1026749679803982,-0.08483422062335624,0.17565766532000002,-1.6269842714964244,-0.7748655901698127,-0.6876691151083772,0.8730740334877226,,0.023856469213197493,0.03659955441432109,0.08941130016,-0.1167695939710949,,-1.4401972e-05,-2.2053719e-06,3.9339066e-06,1.0,1.4714897e-05,1.577288e-05,-1.4726073e-05,1.0,1.4901161e-06,-1.577288e-05,-1.5199184e-06,0.99999994,222,0.674,0,0,0.0,False,-0.26178452261633733,1.047390658524431
0.6743755069996951,14:38:42.515798,14:37:25.362586,0,,0.11805804,0.0025726557,0.014823586,0.9043025,0.31112605,-0.29229727,0.10655357,0.49853146,0.86029804,0.4133805,-0.8091149,0.41767162,,0.043033585,-0.041850213,0.0291937,0.50995094,0.6572714,0.5549274,-0.063739836,-0.61446595,0.7863643,0.85783875,-0.43637818,-0.27145308,,0.057411417,1.3232864,0.4341453,0.9967938,0.07828713,-0.016529463,0.041234337,-0.6796508,-0.7323759,-0.068569876,0.7293462,-0.6806998,,-0.078112125,0.27858117,-0.048481815,-0.9217105,-0.25444245,0.29276076,0.3542322,-0.24469388,0.90257657,-0.15801704,0.93561953,0.3156686,,0.0053081647,0.44674116,-0.32566038,-0.53304744,-0.621766,-0.5738184,0.69830793,-0.7062428,0.11656381,-0.47773048,-0.33856788,0.81064504,,1.1788365595860002,0.29446780449418053,0.20217068469000002,3.582552684433099,-0.3624966338777135,-1.343863973594759,-0.4122804229229209,,-1.1026826907132723,-0.08483422062335624,0.17565766532000002,-1.6269842714964244,-0.7748655901698127,-0.6877507938485179,0.8729106894215882,,0.023856469213197493,0.03659955441432109,0.08941130016,-0.1167695939710949,,-1.4401972e-05,-2.2053719e-06,3.9339066e-06,1.0,1.4714897e-05,1.577288e-05,-1.4726073e-05,1.0,1.4901161e-06,-1.577288e-05,-1.5199184e-06,0.99999994,230,0.699,0,0,0.0,False,-0.2623802998015474,1.0473423783236515
0.7068813849996332,14:38:42.547054,14:37:25.362586,0,,0.118074,0.0025122166,0.014949456,0.9037025,0.31321657,-0.2919201,0.10435228,0.50011694,0.8596473,0.41524997,-0.80732787,0.41927195,,0.043032624,-0.04185279,0.029192865,0.5099564,0.6572672,0.55492723,-0.06372732,-0.61447424,0.78635883,0.85783637,-0.43637276,-0.27146924,,0.057411417,1.3232864,0.4341453,0.9967938,0.07828713,-0.016529463,0.041234337,-0.6796508,-0.7323759,-0.068569876,0.7293462,-0.6806998,,-0.078136325,0.2786298,-0.048611414,-0.92126936,-0.25658128,0.29228216,0.35406876,-0.24234825,0.9032733,-0.16092893,0.935646,0.31411543,,0.00530924,0.44673923,-0.32566223,-0.53305334,-0.6217617,-0.5738175,0.6983117,-0.70624185,0.1165471,-0.47771847,-0.33857766,0.810648,,1.1789910142434847,0.29446008176130634,0.20204235198,3.5827623743765833,-0.3655026368725532,-1.3453333592401848,-0.411300358526115,,-1.1026749679803982,-0.08484966608910469,0.17565766532000002,-1.6269842714964244,-0.7748655901698127,-0.6877507938485179,0.8729106894215882,,0.023856469213197493,0.03659955441432109,0.08941130016,-0.1167695939710949,,-1.4401972e-05,-2.2053719e-06,3.9339066e-06,1.0,1.4714897e-05,1.577288e-05,-1.4726073e-05,1.0,1.4901161e-06,-1.577288e-05,-1.5199184e-06,0.99999994,238,0.723,0,0,0.0,False,-0.26255903295711036,1.0469561367174158
0.7381468739999946,14:38:42.579746,14:37:25.450542,0,,0.11809683,0.0024542063,0.015150011,0.90219253,0.31682727,-0.29269293,0.09972502,0.50697684,0.85617125,0.41964695,-0.8016201,0.42579514,,0.043033846,-0.041852716,0.029193282,0.5099499,0.65722394,0.55498445,-0.06372917,-0.6145394,0.7863078,0.85784006,-0.43634632,-0.2715,,0.057411417,1.3232864,0.4341453,0.9967938,0.07828713,-0.016529463,0.041234337,-0.6796508,-0.7323759,-0.068569876,0.7293462,-0.6806998,,-0.078171276,0.27873388,-0.04879046,-0.9201186,-0.26030353,0.29261562,0.35406718,-0.2335528,0.9055879,-0.16738653,0.9368539,0.3070612,,0.0053080046,0.44673955,-0.32566237,-0.5330469,-0.6217169,-0.57387197,0.6983143,-0.70624816,0.11649309,-0.47772175,-0.33864674,0.8106172,,1.1793848736200703,0.294483249959929,0.20186735283,3.5827623743765833,-0.3721978253610598,-1.3522890504604257,-0.41228042292292066,,-1.1026826907132723,-0.08484966608910469,0.17565766532000002,-1.6269842714964244,-0.7748655901698127,-0.6876691151083772,0.8730740334877226,,0.023856469213197493,0.03659955441432109,0.08941130016,-0.1167695939710949,,-1.4401972e-05,-2.2053719e-06,3.9339066e-06,1.0,1.4714897e-05,1.577288e-05,-1.4726073e-05,1.0,1.4901161e-06,-1.577288e-05,-1.5199184e-06,0.99999994,253,0.768,0,0,0.0,False,-0.26196325577190027,1.0468112961150775
0.7708366599999863,14:38:42.616618,14:37:25.450542,0,,0.11808038,0.0024203956,0.015303075,0.90224177,0.31712127,-0.29222244,0.09810727,0.5089286,0.8551997,0.41992235,-0.8002659,0.42806476,,0.043034308,-0.04185133,0.029192805,0.51005954,0.65733516,0.55475193,-0.06370664,-0.6143141,0.7864856,0.85777664,-0.43649584,-0.27146018,,0.057411417,1.3232864,0.4341453,0.9967938,0.07828713,-0.016529463,0.041234337,-0.6796508,-0.7323759,-0.068569876,0.7293462,-0.6806998,,-0.07816384,0.27882123,-0.048921462,-0.9202256,-0.26061624,0.29199997,0.353145,-0.23123056,0.90654343,-0.16874063,0.9373428,0.3048196,,0.005307512,0.4467398,-0.32566094,-0.53315526,-0.62183154,-0.57364714,0.69826484,-0.7062755,0.11662363,-0.4776732,-0.3383791,0.8107576,,1.17978645572953,0.2945682000215455,0.20173124238,3.5836011341505216,-0.3735641903587142,-1.354442021029084,-0.4122804229229209,,-1.1026904134461466,-0.08484194335623046,0.17565766532000002,-1.6269842714964244,-0.7747289536700473,-0.6879438904923547,0.872747345355454,,0.023856469213197493,0.03659955441432109,0.08941130016,-0.1167695939710949,,-1.4401972e-05,-2.2053719e-06,3.9339066e-06,1.0,1.4714897e-05,1.577288e-05,-1.4726073e-05,1.0,1.4901161e-06,-1.577288e-05,-1.5199184e-06,0.99999994,261,0.793,0,0,0.0,False,-0.26160578946077395,1.0464733347096211
0.8077104770000005,14:38:42.639948,14:37:25.450542,0,,0.11803681,0.0024049878,0.015434906,0.90237546,0.3168181,-0.2921384,0.0979999,0.5092746,0.855006,0.41966006,-0.80016595,0.42850876,,0.043034438,-0.041852567,0.029192567,0.5100591,0.6573794,0.55469996,-0.06370127,-0.6142544,0.7865327,0.8577773,-0.43651325,-0.27143013,,0.057411417,1.3232864,0.4341453,0.9967938,0.07828713,-0.016529463,0.041234337,-0.6796508,-0.7323759,-0.068569876,0.7293462,-0.6806998,,-0.07812774,0.27890652,-0.049026027,-0.9203481,-0.26030964,0.2918874,0.35287884,-0.23091294,0.906728,-0.16862947,0.9375063,0.30437806,,0.0053074323,0.446739,-0.32566193,-0.533155,-0.62187725,-0.5735978,0.698268,-0.70626396,0.1166748,-0.47766882,-0.3383192,0.8107852,,1.1802498197019833,0.29462225915166507,0.20162105773000003,3.5836011341505216,-0.3735641903587142,-1.3545236997692245,-0.41244376698905505,,-1.1026904134461466,-0.08484966608910469,0.17565766532000002,-1.6269842714964244,-0.7747289536700473,-0.6880255692324951,0.8722573131570511,,0.023856469213197493,0.03659955441432109,0.08941130016,-0.1167695939710949,,-1.4401972e-05,-2.2053719e-06,3.9339066e-06,1.0,1.4714897e-05,1.577288e-05,-1.4726073e-05,1.0,1.4901161e-06,-1.577288e-05,-1.5199184e-06,0.99999994,269,0.817,0,0,0.0,False,-0.2622015666459845,1.0458456920994883
0.831037140999797,14:38:42.667747,14:37:25.541262,0,,0.11800285,0.0024123043,0.0154953,0.90243435,0.31679535,-0.2919813,0.09785029,0.50929797,0.85500926,0.41956842,-0.8001601,0.42860937,,0.043034308,-0.04185133,0.029192805,0.51005954,0.6573805,0.5546982,-0.06370664,-0.6142498,0.7865358,0.85777664,-0.43651807,-0.2714245,,0.057411417,1.3232864,0.4341453,0.9967938,0.07828713,-0.016529463,0.041234337,-0.6796508,-0.7323759,-0.068569876,0.7293462,-0.6806998,,-0.07809684,0.27895582,-0.04906436,-0.920406,-0.26028663,0.2917253,0.352708,-0.23089215,0.9067998,-0.16867077,0.9375178,0.3043197,,0.005307512,0.4467398,-0.32566094,-0.53315526,-0.6218784,-0.57359636,0.69826484,-0.70626605,0.11668132,-0.4776732,-0.3383129,0.81078523,,1.1805587290169524,0.2946377046174135,0.20158087274000003,3.5836011341505216,-0.37370082685847966,-1.3543306031253874,-0.4122804229229209,,-1.1026904134461466,-0.08484194335623046,0.17565766532000002,-1.6269842714964244,-0.7747289536700473,-0.6880255692324951,0.8722573131570511,,0.023856469213197493,0.03659955441432109,0.08941130016,-0.1167695939710949,,-1.4401972e-05,-2.2053719e-06,3.9339066e-06,1.0,1.4714897e-05,1.577288e-05,-1.4726073e-05,1.0,1.4901161e-06,-1.577288e-05,-1.5199184e-06,0.99999994,277,0.842,0,0,0.0,False,-0.262797343831195,1.0457491316979295
0.8588386419996823,14:38:42.688708,14:37:25.541262,0,,0.11795992,0.0024294853,0.0155401975,0.90289986,0.31545097,-0.29199764,0.09814949,0.51005983,0.8545207,0.41849566,-0.80020595,0.4295716,,0.04303295,-0.041850124,0.029192626,0.51006645,0.65728897,0.5548003,-0.06371012,-0.61437285,0.78643954,0.85777223,-0.4364828,-0.27149504,,0.057411417,1.3232864,0.4341453,0.9967938,0.07828713,-0.016529463,0.041234337,-0.6796508,-0.7323759,-0.068569876,0.7293462,-0.6806998,,-0.07805589,0.27900094,-0.049085375,-0.920806,-0.25892174,0.29167768,0.35213208,-0.23037142,0.907156,-0.1676882,0.93802375,0.30330205,,0.0053088274,0.4467403,-0.32565978,-0.53316194,-0.6217837,-0.5736928,0.698259,-0.70629036,0.11656878,-0.47767428,-0.33843613,0.8107332,,1.1808753610647955,0.2946685955489104,0.20155624323000002,3.58402051403749,-0.37274437136012156,-1.3552738859315436,-0.41260711105518943,,-1.1026826907132723,-0.08483422062335624,0.17565766532000002,-1.6269842714964244,-0.7747289536700473,-0.6878622117522141,0.8719306250247828,,0.023856469213197493,0.03659955441432109,0.08941130016,-0.1167695939710949,,-1.4401972e-05,-2.2053719e-06,3.9339066e-06,1.0,1.4714897e-05,1.577288e-05,-1.4726073e-05,1.0,1.4901161e-06,-1.577288e-05,-1.5199184e-06,0.99999994,285,0.867,0,0,0.0,False,-0.26273776611267374,1.0458939723002678
0.879766699999891,14:38:42.721088,14:37:25.541262,0,,0.11791611,0.0024440587,0.015626848,0.9033643,0.314668,-0.29140535,0.097648345,0.5107085,0.8541906,0.4176097,-0.80010045,0.43062904,,0.043034043,-0.041848812,0.029193282,0.51006055,0.65724665,0.5548559,-0.063717306,-0.6144334,0.7863916,0.8577753,-0.4364612,-0.2715202,,0.057411417,1.3232864,0.4341453,0.9967938,0.07828713,-0.016529463,0.041234337,-0.6796508,-0.7323759,-0.068569876,0.7293462,-0.6806998,,-0.078016356,0.2790744,-0.049137153,-0.9212362,-0.25812837,0.29102167,0.35113692,-0.22983089,0.9076787,-0.16741188,0.93837494,0.30236694,,0.0053076716,0.44674143,-0.32565895,-0.5331558,-0.62174,-0.57374585,0.69825846,-0.70629877,0.11652129,-0.47768193,-0.3384989,0.81070244,,1.1813155568386264,0.29474582287765266,0.20149920647000003,3.5848592738114284,-0.37247109836059067,-1.3560684729199204,-0.41309714325359237,,-1.1026904134461466,-0.08482649789048201,0.17565766532000002,-1.6269842714964244,-0.7747289536700473,-0.6877805330120734,0.8717672809586484,,0.023856469213197493,0.03659955441432109,0.08941130016,-0.1167695939710949,,-1.4401972e-05,-2.2053719e-06,3.9339066e-06,1.0,1.4714897e-05,1.577288e-05,-1.4726073e-05,1.0,1.4901161e-06,-1.577288e-05,-1.5199184e-06,0.99999994,300,0.912,0,0,0.0,False,-0.26160578946077395,1.0452663296901348
0.9121336809998866,14:38:42.758176,14:37:25.541262,0,,0.117896095,0.0024376214,0.015699908,0.9039631,0.31264213,-0.29172894,0.09771769,0.513144,0.8527217,0.41629574,-0.79933596,0.43331254,,0.04303745,-0.041846145,0.029194891,0.5100421,0.65720946,0.5549169,-0.06373352,-0.61449116,0.7863451,0.85778505,-0.43643582,-0.27153006,,0.057411417,1.3232864,0.4341453,0.9967938,0.07828713,-0.016529463,0.041234337,-0.6796508,-0.7323759,-0.068569876,0.7293462,-0.6806998,,-0.078000404,0.27912304,-0.04919334,-0.9217626,-0.2560812,0.29116347,0.3502253,-0.22755374,0.90860415,-0.1664211,0.93949014,0.29943663,,0.005304125,0.446744,-0.32565746,-0.5331371,-0.62170154,-0.5738049,0.69826007,-0.7063027,0.11648766,-0.47770053,-0.33856115,0.8106655,,1.1815549615577272,0.29484621840501757,0.20143568826000002,3.5856980335853663,-0.37137800636246715,-1.3591651421332869,-0.41260711105518943,,-1.1027135816447693,-0.08481105242473357,0.17565766532000002,-1.6269842714964244,-0.7747289536700473,-0.687698854271933,0.8716039368925143,,0.023856469213197493,0.03659955441432109,0.08941130016,-0.1167695939710949,,-1.4401972e-05,-2.2053719e-06,3.9339066e-06,1.0,1.4714897e-05,1.577288e-05,-1.4726073e-05,1.0,1.4901161e-06,-1.577288e-05,-1.5199184e-06,0.99999994,308,0.936,0,0,0.0,False,-0.262797343831195,1.045169769288576
0.9492567089996555,14:38:42.780135,14:37:25.541262,0,,0.11789696,0.0024147332,0.015800178,0.9043033,0.3113161,-0.29209238,0.097436585,0.51564723,0.85124254,0.41562214,-0.79824185,0.43596792,,0.043039765,-0.041844774,0.029195845,0.51002955,0.6570785,0.55508333,-0.06374249,-0.61468107,0.786196,0.8577918,-0.4363656,-0.2716217,,0.057411417,1.3232864,0.4341453,0.9967938,0.07828713,-0.016529463,0.041234337,-0.6796508,-0.7323759,-0.068569876,0.7293462,-0.6806998,,-0.07800719,0.2791795,-0.049279034,-0.92207414,-0.25474823,0.29134625,0.34953812,-0.2250056,0.9095029,-0.1661397,0.94046575,0.29651606,,0.0053017344,0.44674543,-0.32565677,-0.5331245,-0.6215662,-0.57396317,0.69826216,-0.7063269,0.11632846,-0.47771147,-0.3387592,0.8105763,,1.1817480298795828,0.2949929503296278,0.20134105909000002,3.58632710341582,-0.37096809686317084,-1.3621947942690147,-0.41309714325359215,,-1.1027290271105177,-0.08480332969185934,0.17565766532000002,-1.6269842714964244,-0.7747289536700473,-0.6874538180515113,0.8711139046941113,,0.023856469213197493,0.03659955441432109,0.08941130016,-0.1167695939710949,,-1.4401972e-05,-2.2053719e-06,3.9339066e-06,1.0,1.4714897e-05,1.577288e-05,-1.4726073e-05,1.0,1.4901161e-06,-1.577288e-05,-1.5199184e-06,0.99999994,316,0.961,0,0,0.0,False,-0.2622015666459845,1.0449283682846786
0.9711937629999738,14:38:42.806533,14:37:25.541262,0,,0.11790356,0.0023994595,0.015889823,0.9048059,0.31003234,-0.29190117,0.09662195,0.5181387,0.8498213,0.4147174,-0.7971274,0.4388591,,0.043040037,-0.04184491,0.029196441,0.51013863,0.6570982,0.55495995,-0.06371465,-0.61458886,0.78627026,0.85772896,-0.43646592,-0.27165878,,0.057411417,1.3232864,0.4341453,0.9967938,0.07828713,-0.016529463,0.041234337,-0.6796508,-0.7323759,-0.068569876,0.7293462,-0.6806998,,-0.07801892,0.2792335,-0.04935159,-0.9225499,-0.25345886,0.29096445,0.34831166,-0.2224517,0.910601,-0.16607435,0.9414212,0.29350546,,0.0053014546,0.4467458,-0.32565716,-0.53323257,-0.621586,-0.57384133,0.69821584,-0.70637125,0.116337106,-0.47765854,-0.33863038,0.8106613,,1.18192565273569,0.2951628504528608,0.20125939282000002,3.587585243076727,-0.3706948238636399,-1.3654397434616086,-0.41326048731972653,,-1.102736749843392,-0.08480332969185934,0.17565636903,-1.6269842714964244,-0.7745923171702819,-0.6875652359552078,0.8711139046941113,,0.023856469213197493,0.03659955441432109,0.08941130016,-0.1167695939710949,,-1.4401972e-05,-2.2053719e-06,3.9339066e-06,1.0,1.4714897e-05,1.577288e-05,-1.4726073e-05,1.0,1.4901161e-06,-1.577288e-05,-1.5199184e-06,0.99999994,324,0.985,0,0,0.0,False,-0.2622015666459845,1.045411170292473
0.9975881669997761,14:38:42.831074,14:37:25.541262,0,,0.1179412,0.002408728,0.016053945,0.90373284,0.3147485,-0.29017305,0.093182474,0.5169404,0.85093457,0.41783255,-0.7960565,0.43784696,,0.043040834,-0.041846085,0.029195487,0.510271,0.65693194,0.55503494,-0.06383276,-0.6146687,0.78619826,0.8576414,-0.43660364,-0.27171394,,0.057411417,1.3232864,0.4341453,0.9967938,0.07828713,-0.016529463,0.041234337,-0.6796508,-0.7323759,-0.068569876,0.7293462,-0.6806998,,-0.078064926,0.27935755,-0.04945613,-0.9217356,-0.25825548,0.2893227,0.348199,-0.2226012,0.9106076,-0.17076582,0.9400813,0.29510376,,0.005300727,0.44674444,-0.32565776,-0.53335804,-0.621413,-0.5739121,0.6980766,-0.706523,0.11625088,-0.47772193,-0.33863127,0.8106236,,1.1823195121122756,0.2954640370349555,0.20114661559000002,3.587585243076727,-0.37534046485566486,-1.3631217520584604,-0.412933799187458,,-1.1027444725762663,-0.08480332969185934,0.17565636903,-1.62677458155294,-0.7744556806705164,-0.6875949751187636,0.8709505606279769,,0.023856469213197493,0.03659955441432109,0.08941130016,-0.1167695939710949,,-1.4401972e-05,-2.2053719e-06,3.9339066e-06,1.0,1.4714897e-05,1.577288e-05,-1.4726073e-05,1.0,1.4901161e-06,-1.577288e-05,-1.5199184e-06,0.99999994,332,1.01,0,0,0.0,False,-0.2631548101423209,1.044735247481561
1.0221131250000326,14:38:42.858282,14:37:25.541262,0,,0.11794117,0.0024362952,0.016169056,0.9031403,0.3163135,-0.29031593,0.09175234,0.51836944,0.8502202,0.4194271,-0.79450536,0.4391378,,0.043047268,-0.04184555,0.029196203,0.51023877,0.65698725,0.55499923,-0.06384185,-0.614609,0.78624415,0.85766006,-0.43660438,-0.271654,,0.057411417,1.3232864,0.4341453,0.9967938,0.07828713,-0.016529463,0.041234337,-0.6796508,-0.7323759,-0.068569876,0.7293462,-0.6806998,,-0.078070246,0.27945969,-0.049515735,-0.92126673,-0.25986144,0.28937793,0.34837094,-0.22052373,0.91104716,-0.17293134,0.9401283,0.29368934,,0.0052942573,0.446745,-0.32565773,-0.53332597,-0.62147033,-0.57387984,0.6980899,-0.7064974,0.11632698,-0.47773838,-0.3385795,0.8106355,,1.1827288169546095,0.29568799628830805,0.20107920851000002,3.587165863189758,-0.37752664885191195,-1.3640344640239561,-0.4127704551213234,,-1.1027830862406374,-0.08480332969185934,0.17565766532000002,-1.62677458155294,-0.7744556806705164,-0.6876766538589042,0.8711139046941113,,0.023856469213197493,0.03659955441432109,0.08941130016,-0.1167695939710949,,-1.4401972e-05,-2.2053719e-06,3.9339066e-06,1.0,1.4714897e-05,1.577288e-05,-1.4726073e-05,1.0,1.4901161e-06,-1.577288e-05,-1.5199184e-06,0.99999994,340,1.035,0,0,0.0,False,-0.2629164992682367,1.0444455662768841
1.0493554539998513,14:38:42.881791,14:37:25.770394,0,,0.117929205,0.0024671555,0.016305536,0.90260947,0.31787473,-0.29026186,0.09038587,0.51931745,0.849788,0.4208642,-0.7932621,0.4400095,,0.04305478,-0.0418409,0.02919674,0.5101775,0.65696055,0.5550871,-0.063717574,-0.6147543,0.7861407,0.8577056,-0.4364401,-0.27177387,,0.057411417,1.3232864,0.4341453,0.9967938,0.07828713,-0.016529463,0.041234337,-0.6796508,-0.7323759,-0.068569876,0.7293462,-0.6806998,,-0.07806469,0.27957973,-0.049588393,-0.9208494,-0.2614602,0.2892663,0.34847215,-0.21900122,0.9113757,-0.17493881,0.94004095,0.29277873,,0.005286573,0.44674736,-0.32565403,-0.53327054,-0.62144345,-0.57396036,0.6981923,-0.70642227,0.116168454,-0.4776505,-0.3387855,0.81060123,,1.1832462400571824,0.295927401007409,0.20099754224000002,3.5867464833027887,-0.37957619634839357,-1.3643234852318833,-0.4114637025922492,,-1.1028294226378828,-0.08478788422611089,0.1756602579,-1.6269842714964244,-0.7744556806705164,-0.6873499388983418,0.8704605284295742,,0.023856469213197493,0.03659955441432109,0.08941130016,-0.1167695939710949,,-1.4401972e-05,-2.2053719e-06,3.9339066e-06,1.0,1.4714897e-05,1.577288e-05,-1.4726073e-05,1.0,1.4901161e-06,-1.577288e-05,-1.5199184e-06,0.99999994,348,1.059,0,0,0.0,False,-0.26243987752006825,1.04391448406831
1.0728856749997249,14:38:42.911412,14:37:25.770394,0,,0.11783932,0.0025802404,0.016604751,0.90238756,0.31562838,-0.29338628,0.09150195,0.52495843,0.846195,0.42109877,-0.79044116,0.44483534,,0.043069668,-0.041835774,0.029197812,0.51032585,0.6568889,0.5550354,-0.063697994,-0.61475873,0.7861389,0.8576188,-0.43654162,-0.2718848,,0.057411417,1.3232864,0.4341453,0.9967938,0.07828713,-0.016529463,0.041234337,-0.6796508,-0.7323759,-0.068569876,0.7293462,-0.6806998,,-0.07798775,0.27987564,-0.04971847,-0.92061037,-0.25921577,0.2920338,0.3494183,-0.2130172,0.9124311,-0.17430831,0.9420355,0.28668058,,0.005271492,0.44675013,-0.3256503,-0.53341687,-0.6213687,-0.57390535,0.6981193,-0.7065102,0.11607267,-0.4775939,-0.33873925,0.8106539,,1.184636331974543,0.2965606651030954,0.20083550599000002,3.584649583867944,-0.37902965034933184,-1.369016451333978,-0.4121170788567865,,-1.1029298181652476,-0.08476471602748822,0.17566285048000002,-1.6269842714964244,-0.7741824076709856,-0.6873277384853131,0.8702971843634397,,0.023856469213197493,0.03659955441432109,0.08941130016,-0.1167695939710949,,-1.4401972e-05,-2.2053719e-06,3.9339066e-06,1.0,1.4714897e-05,1.577288e-05,-1.4726073e-05,1.0,1.4901161e-06,-1.577288e-05,-1.5199184e-06,0.99999994,360,1.096,0,0,0.0,False,-0.26339312101640555,1.043721363265192
1.1024814399997922,14:38:42.940705,14:37:25.770394,0,,0.11779654,0.0027108788,0.016835079,0.9010118,0.31880182,-0.294182,0.08939086,0.52715415,0.84505486,0.42448434,-0.78770155,0.4464742,,0.043088973,-0.04182661,0.02920115,0.51042604,0.65701324,0.55479616,-0.06355032,-0.6145855,0.78628623,0.8575702,-0.43659836,-0.27194703,,0.057411417,1.3232864,0.4341453,0.9967938,0.07828713,-0.016529463,0.041234337,-0.6796508,-0.7323759,-0.068569876,0.7293462,-0.6806998,,-0.077953726,0.28013307,-0.049785685,-0.91947263,-0.26246965,0.29271096,0.3504263,-0.2095831,0.9128397,-0.17824546,0.9419048,0.2846822,,0.005251784,0.4467566,-0.3256442,-0.53352064,-0.6214973,-0.5736696,0.69814336,-0.70648193,0.11609947,-0.47744274,-0.3385622,0.8108169,,1.185810187371425,0.29710125640429114,0.20074995085000003,3.5827623743765833,-0.383128745342295,-1.3694311362695515,-0.4134238313858607,,-1.1030611046241094,-0.08472610236311709,0.17566544306,-1.6271939614399091,-0.7739091346714547,-0.6873872168124248,0.8693171199666342,,0.023856469213197493,0.03659955441432109,0.08941130016,-0.1167695939710949,,-1.4401972e-05,-2.2053719e-06,3.9339066e-06,1.0,1.4714897e-05,1.577288e-05,-1.4726073e-05,1.0,1.4901161e-06,-1.577288e-05,-1.5199184e-06,0.99999994,397,1.21,0,0,0.0,False,-0.2629164992682367,1.0433351216589564
1.131769255999643,14:38:43.061205,14:37:25.909378,0,,0.11773978,0.003203258,0.01744993,0.900877,0.3179639,-0.2954989,0.08779128,0.53322315,0.84140694,0.4251039,-0.7839464,0.452454,,0.04320906,-0.04179092,0.029215872,0.5097114,0.6558423,0.5568349,-0.063859224,-0.6165967,0.784685,0.8579722,-0.4355218,-0.27240476,,0.057411417,1.3232864,0.4341453,0.9967938,0.07828713,-0.016529463,0.041234337,-0.6796508,-0.7323759,-0.068569876,0.7293462,-0.6806998,,-0.07791636,0.28091857,-0.049858343,-0.9194137,-0.261669,0.29361162,0.34976858,-0.20265645,0.9146542,-0.17983437,0.9436417,0.27784872,,0.0051301233,0.4467815,-0.325622,-0.532808,-0.6202893,-0.57563597,0.6983778,-0.7064561,0.11483983,-0.4778955,-0.34082383,0.8096018,,1.188976507849857,0.299642035519911,0.20057235912000002,3.5810848548287066,-0.3836752913413568,-1.372661007961091,-0.412933799187458,,-1.1037870415142865,-0.08457164770563261,0.17569396144000002,-1.6271939614399091,-0.7740457711712202,-0.6848254367045112,0.8689904318343655,,0.023856469213197493,0.03659955441432109,0.08941130016,-0.1167695939710949,,-1.4401972e-05,-2.2053719e-06,3.9339066e-06,1.0,1.4714897e-05,1.577288e-05,-1.4726073e-05,1.0,1.4901161e-06,-1.577288e-05,-1.5199184e-06,0.99999994,405,1.235,0,0,0.0,False,-0.26285692154971585,1.0434799622612947
1.252277034999679,14:38:43.082312,14:37:25.909378,0,,0.11779882,0.0032679737,0.017501503,0.9009157,0.31811,-0.29522362,0.08734517,0.5334263,0.84132457,0.4251138,-0.78374887,0.4527868,,0.0432422,-0.041774753,0.029224455,0.5096508,0.65574586,0.5570038,-0.06393954,-0.6167351,0.78456974,0.8580022,-0.43547118,-0.27239147,,0.057411417,1.3232864,0.4341453,0.9967938,0.07828713,-0.016529463,0.041234337,-0.6796508,-0.7323759,-0.068569876,0.7293462,-0.6806998,,-0.077976294,0.28099942,-0.049843978,-0.91946477,-0.26181984,0.293317,0.34946615,-0.20237617,0.9148318,-0.18016075,0.94366,0.27757493,,0.0050961897,0.44679534,-0.32561252,-0.5327456,-0.62018967,-0.5758011,0.698368,-0.7064741,0.114788674,-0.4779793,-0.3409679,0.80949163,,1.1890614579114736,0.30016718135535825,0.20056587767000003,3.581294544772191,-0.38353865484159133,-1.372690747124647,-0.4127704551213238,,-1.1040032780347648,-0.08448669764401613,0.17569785031000001,-1.6271939614399091,-0.7739091346714547,-0.6846101396476456,0.8686637437020969,,0.023856469213197493,0.03659955441432109,0.08941130016,-0.1167695939710949,,-1.4401972e-05,-2.2053719e-06,3.9339066e-06,1.0,1.4714897e-05,1.577288e-05,-1.4726073e-05,1.0,1.4901161e-06,-1.577288e-05,-1.5199184e-06,0.99999994,417,1.272,0,0,0.0,False,-0.26297607698675796,1.0440593246706484
1.2733880719997615,14:38:43.120939,14:37:26.007026,0,,0.11784838,0.0032969266,0.017536685,0.90070075,0.3175422,-0.29648787,0.08835,0.5343143,0.84065586,0.42536145,-0.7833741,0.45320255,,0.043277454,-0.041752715,0.02923125,0.5093847,0.65392685,0.55938065,-0.06425211,-0.6193193,0.78250575,0.85813683,-0.4345379,-0.27345568,,0.057411417,1.3232864,0.4341453,0.9967938,0.07828713,-0.016529463,0.041234337,-0.6796508,-0.7323759,-0.068569876,0.7293462,-0.6806998,,-0.078026846,0.2810439,-0.04984462,-0.9192364,-0.2612491,0.29453912,0.35034463,-0.20147997,0.91469365,-0.17961915,0.9440099,0.27673495,,0.005059997,0.44681033,-0.32559705,-0.53247285,-0.6183098,-0.57807064,0.6983471,-0.7068213,0.11276072,-0.47831368,-0.34365192,0.80815804,,1.1890073987813539,0.3005301498004468,0.2005490259,3.5802460950547688,-0.3827188358429987,-1.3732775758066849,-0.4129337991874582,,-1.1043044646168596,-0.08430135205503475,0.17570951692000003,-1.6269842714964244,-0.7739091346714547,-0.6809345963413203,0.869807152165037,,0.023856469213197493,0.03659955441432109,0.08941130016,-0.1167695939710949,,-1.4401972e-05,-2.2053719e-06,3.9339066e-06,1.0,1.4714897e-05,1.577288e-05,-1.4726073e-05,1.0,1.4901161e-06,-1.577288e-05,-1.5199184e-06,0.99999994,429,1.309,0,0,0.0,False,-0.26339312101640555,1.043817923666751
1.3120101709996561,14:38:43.162186,14:37:26.007026,0,,0.11787172,0.0032759309,0.017576665,0.9006047,0.31797945,-0.29631105,0.08810486,0.53402716,0.84086406,0.42561567,-0.78339255,0.4529319,,0.043315366,-0.04170491,0.029240072,0.50999475,0.65352464,0.55929494,-0.064450026,-0.6193493,0.7824658,0.8577596,-0.43509996,-0.27374527,,0.057411417,1.3232864,0.4341453,0.9967938,0.07828713,-0.016529463,0.041234337,-0.6796508,-0.7323759,-0.068569876,0.7293462,-0.6806998,,-0.07805281,0.28105772,-0.049886048,-0.91916054,-0.2616923,0.2943825,0.35036018,-0.20170069,0.91463906,-0.17997682,0.94384,0.27708185,,0.0050201723,0.44683942,-0.32556006,-0.5330639,-0.61788994,-0.57797486,0.6978951,-0.70731044,0.11249164,-0.47831511,-0.3434006,0.808264,,1.1889687851169828,0.30061509986206325,0.20050365575,3.5802460950547688,-0.3829921088425296,-1.3728913825190108,-0.41326048731972653,,-1.1045052556715893,-0.08408511553455646,0.17571340579000003,-1.62677458155294,-0.773089315672862,-0.6812763888029365,0.8691537759004997,,0.023856469213197493,0.03659955441432109,0.08941130016,-0.1167695939710949,,-1.4401972e-05,-2.2053719e-06,3.9339066e-06,1.0,1.4714897e-05,1.577288e-05,-1.4726073e-05,1.0,1.4901161e-06,-1.577288e-05,-1.5199184e-06,0.99999994,437,1.334,0,0,0.0,False,-0.26309523242380006,1.0436248028636332
1.3532709119999708,14:38:43.182673,14:37:26.007026,0,,0.11790967,0.0032411218,0.01759763,0.90077055,0.31779724,-0.29600257,0.08793011,0.53399986,0.8408997,0.4253009,-0.78348523,0.45306715,,0.043361828,-0.041636482,0.029242873,0.5098898,0.6534251,0.5595069,-0.06465039,-0.61946136,0.7823607,0.8578069,-0.43508992,-0.27361286,,0.05740099,1.3232888,0.4341455,0.9967925,0.078308746,-0.01650617,0.04126604,-0.67964834,-0.73237646,-0.068569876,0.7293462,-0.6806998,,-0.07808737,0.28104866,-0.049922913,-0.9193174,-0.26152372,0.29404214,0.3499894,-0.20179063,0.9147611,-0.17989679,0.9438675,0.27704018,,0.0049794535,0.44687584,-0.32549936,-0.5329574,-0.61776364,-0.578208,0.6978342,-0.70736384,0.11253351,-0.47852257,-0.3435178,0.8080914,,1.1889996760484798,0.3006228225949375,0.20046735963,3.580665474941738,-0.3828554723427641,-1.3730028004227073,-0.41326048731972653,,-1.1046674330619481,-0.08386115628120396,0.17571729466000002,-1.62677458155294,-0.773089315672862,-0.6809496738423744,0.8694804640327684,,0.023856469213197493,0.03659955441432109,0.08941130016,-0.1167695939710949,,-2.4713576e-05,-4.4107437e-06,2.1457672e-06,1.0,3.6366284e-05,3.8966537e-05,-3.637746e-05,1.0,3.6656857e-06,-3.8966537e-05,-3.6656857e-06,1.0,474,1.447,0,0,0.0,False,-0.26309523242380006,1.0441558850722072
1.3737515679999888,14:38:43.292334,14:37:26.122693,0,,0.11788015,0.0031655729,0.018149331,0.90181243,0.31610563,-0.29463816,0.086907595,0.5352268,0.84022576,0.4232983,-0.7833323,0.45520216,,0.043392025,-0.04160224,0.029258728,0.5098363,0.6532989,0.55970305,-0.06481069,-0.61959445,0.78224194,0.8578267,-0.43508998,-0.27355102,,0.05740099,1.3232888,0.4341455,0.9967925,0.078308746,-0.01650617,0.04126604,-0.67964834,-0.73237646,-0.068569876,0.7293462,-0.6806998,,-0.07808908,0.28139493,-0.050359994,-0.920279,-0.25981033,0.29254922,0.34781644,-0.20079766,0.91580784,-0.17919315,0.94455224,0.2751562,,0.0049476046,0.44690487,-0.32547748,-0.5328989,-0.61763287,-0.5784016,0.6977767,-0.70742244,0.112522036,-0.4786716,-0.34363228,0.80795443,,1.1903588770343432,0.30142598681385685,0.19998643604000002,3.5821333045461294,-0.3817623803446406,-1.3738941436522787,-0.41326048731972653,,-1.1048836695824265,-0.08366036522647412,0.17571729466000002,-1.62677458155294,-0.7729526791730965,-0.680652698045368,0.8696438080989027,,0.023856469213197493,0.03659955441432109,0.08941130016,-0.1167695939710949,,-2.4713576e-05,-4.4107437e-06,2.1457672e-06,1.0,3.6366284e-05,3.8966537e-05,-3.637746e-05,1.0,3.6656857e-06,-3.8966537e-05,-3.6656857e-06,1.0,482,1.473,0,0,0.0,False,-0.2629164992682367,1.044107604871428
1.4834057039997788,14:38:43.320012,14:37:26.211989,0,,0.117885366,0.0031729639,0.018405974,0.90199393,0.31571832,-0.294498,0.08658002,0.53597987,0.83977944,0.4229787,-0.78297347,0.4561155,,0.04338971,-0.041603595,0.029257774,0.5098487,0.6532938,0.5596975,-0.06480166,-0.6195972,0.7822405,0.8578199,-0.4350937,-0.27356637,,0.05740099,1.3232888,0.4341455,0.9967925,0.078308746,-0.01650617,0.04126604,-0.67964834,-0.73237646,-0.068569876,0.7293462,-0.6806998,,-0.07810766,0.2815851,-0.05053159,-0.92045206,-0.2594225,0.29234904,0.34735554,-0.20000996,0.9161551,-0.17919855,0.9448259,0.27421144,,0.004949996,0.44690344,-0.32547817,-0.5329115,-0.61762756,-0.5783956,0.6977745,-0.7074268,0.11250813,-0.47866067,-0.34363288,0.8079606,,1.1910307547944008,0.3019897463136752,0.19978810367000002,3.5821333045461294,-0.38148910734510977,-1.3741169794596715,-0.41326048731972653,,-1.1048682241166778,-0.08366808795934834,0.17571729466000002,-1.62677458155294,-0.7729526791730965,-0.680652698045368,0.8696438080989027,,0.023856469213197493,0.03659955441432109,0.08941130016,-0.1167695939710949,,-2.4713576e-05,-4.4107437e-06,2.1457672e-06,1.0,3.6366284e-05,3.8966537e-05,-3.637746e-05,1.0,3.6656857e-06,-3.8966537e-05,-3.6656857e-06,1.0,490,1.497,0,0,0.0,False,-0.26202283349042155,1.0443972860761046
1.5111054009998952,14:38:43.343105,14:37:26.211989,0,,0.11788991,0.0031965822,0.018590763,0.9019727,0.31525385,-0.29505995,0.086857736,0.53690034,0.83916247,0.422967,-0.78252983,0.4568871,,0.043387987,-0.041604847,0.029256046,0.5099704,0.6531722,0.5597288,-0.06476474,-0.61969984,0.78216225,0.8577504,-0.43513018,-0.27372608,,0.05740099,1.3232888,0.4341455,0.9967925,0.078308746,-0.01650617,0.04126604,-0.67964834,-0.73237646,-0.068569876,0.7293462,-0.6806998,,-0.07812133,0.28173465,-0.0506419,-0.92042285,-0.25895768,0.2928527,0.34753975,-0.1990436,0.91629565,-0.17899136,0.9451574,0.27320236,,0.0049518137,0.44690144,-0.3254784,-0.5330322,-0.6175013,-0.57841927,0.6977262,-0.70750284,0.112329304,-0.47859678,-0.34370315,0.8079686,,1.1915481778969739,0.3024608330190029,0.19965588209000001,3.5815042347156765,-0.3810791978458134,-1.3744512331707608,-0.41326048731972653,,-1.1048605013838038,-0.08367581069222256,0.17571729466000002,-1.62677458155294,-0.7728160426733313,-0.6805190797286427,0.8701338402973056,,0.023856469213197493,0.03659955441432109,0.08941130016,-0.1167695939710949,,-2.4713576e-05,-4.4107437e-06,2.1457672e-06,1.0,3.6366284e-05,3.8966537e-05,-3.637746e-05,1.0,3.6656857e-06,-3.8966537e-05,-3.6656857e-06,1.0,498,1.522,0,0,0.0,False,-0.26196325577190027,1.0446869672807815
1.534198454000034,14:38:43.365062,14:37:26.211989,0,,0.11790462,0.003227532,0.018916458,0.901763,0.314938,-0.29603672,0.08716281,0.53833294,0.83821255,0.4233513,-0.78167236,0.45799768,,0.043388356,-0.041602388,0.029257596,0.5098557,0.6518737,0.5613446,-0.06480524,-0.6215704,0.7806732,0.8578155,-0.43440866,-0.27466646,,0.05740099,1.3232888,0.4341455,0.9967925,0.078308746,-0.01650617,0.04126604,-0.67964834,-0.73237646,-0.068569876,0.7293462,-0.6806998,,-0.0781524,0.28199074,-0.05084365,-0.9202256,-0.25864935,0.29374364,0.3480323,-0.19742711,0.9164584,-0.17904843,0.9455808,0.27169582,,0.0049513113,0.44690394,-0.325477,-0.53291816,-0.61616015,-0.5799525,0.6977687,-0.7077147,0.11071933,-0.47866175,-0.34566838,0.8070913,,1.1924131239788869,0.30326399723792224,0.19941736473000002,3.5802460950547688,-0.38080592484628256,-1.3747557477182941,-0.4134238313858607,,-1.1048605013838038,-0.08366036522647412,0.17571729466000002,-1.62677458155294,-0.7729526791730965,-0.6781206571010105,0.8698071521650369,,0.023856469213197493,0.03659955441432109,0.08941130016,-0.1167695939710949,,-2.4713576e-05,-4.4107437e-06,2.1457672e-06,1.0,3.6366284e-05,3.8966537e-05,-3.637746e-05,1.0,3.6656857e-06,-3.8966537e-05,-3.6656857e-06,1.0,506,1.547,0,0,0.0,False,-0.2618441003348577,1.044349005875325
1.5561566619999212,14:38:43.395240,14:37:26.211989,0,,0.11792047,0.003258109,0.019113079,0.9016107,0.31599647,-0.29537195,0.08604036,0.5381995,0.8384142,0.4239049,-0.781337,0.45805782,,0.04339214,-0.041600674,0.029257774,0.50981295,0.65183794,0.5614249,-0.06466454,-0.6217214,0.7805646,0.85785156,-0.43424612,-0.27481088,,0.05740099,1.3232888,0.4341455,0.9967925,0.078308746,-0.01650617,0.04126604,-0.67964834,-0.73237646,-0.068569876,0.7293462,-0.6806998,,-0.07817781,0.28215343,-0.05095649,-0.9201329,-0.25972724,0.29308227,0.34765768,-0.19729838,0.9166283,-0.18024871,0.94531214,0.2718369,,0.004947464,0.44690475,-0.32547563,-0.5328815,-0.61612403,-0.58002454,0.6978698,-0.70764345,0.110537164,-0.4785552,-0.34587842,0.8070645,,1.1929768834787053,0.3037736976076211,0.19928384686000003,3.5802460950547688,-0.3817623803446406,-1.3738941436522787,-0.41326048731972653,,-1.1048836695824265,-0.08366036522647412,0.17571859095000003,-1.6269842714964244,-0.7729526791730965,-0.6777939421404484,0.8701338402973056,,0.023856469213197493,0.03659955441432109,0.08941130016,-0.1167695939710949,,-2.4713576e-05,-4.4107437e-06,2.1457672e-06,1.0,3.6366284e-05,3.8966537e-05,-3.637746e-05,1.0,3.6656857e-06,-3.8966537e-05,-3.6656857e-06,1.0,518,1.583,0,0,0.0,False,-0.26148663402373185,1.0442524454737663
1.5863233259997287,14:38:43.423122,14:37:26.299595,0,,0.11792283,0.0032973737,0.019433185,0.90073264,0.31843042,-0.29543686,0.08476362,0.5382161,0.8385335,0.42602342,-0.7803368,0.45779738,,0.04339201,-0.041599423,0.029258013,0.50981337,0.65183914,0.56142324,-0.06466988,-0.62171686,0.7805678,0.8578509,-0.43425098,-0.27480528,,0.05740099,1.3232888,0.4341455,0.9967925,0.078308746,-0.01650617,0.04126604,-0.67964834,-0.73237646,-0.068569876,0.7293462,-0.6806998,,-0.078196034,0.2824115,-0.05114906,-0.9194026,-0.26220936,0.29316404,0.3483194,-0.19661307,0.91652435,-0.18268138,0.94476956,0.27209917,,0.004947544,0.44690555,-0.32547465,-0.53288174,-0.61612517,-0.5800231,0.6978666,-0.7076456,0.11054366,-0.47855955,-0.34587207,0.8070646,,1.1939499478208577,0.30444557536767863,0.19906477385000002,3.578778265450377,-0.38408520084065306,-1.3721633967697207,-0.41260711105518943,,-1.1048836695824265,-0.08365264249359988,0.17571859095000003,-1.6269842714964244,-0.7729526791730965,-0.6777939421404484,0.8701338402973056,,0.023856469213197493,0.03659955441432109,0.08941130016,-0.1167695939710949,,-2.4713576e-05,-4.4107437e-06,2.1457672e-06,1.0,3.6366284e-05,3.8966537e-05,-3.637746e-05,1.0,3.6656857e-06,-3.8966537e-05,-3.6656857e-06,1.0,547,1.672,0,0,0.0,False,-0.2622611443645053,1.04478352768234
1.614194451000003,14:38:43.515215,14:37:26.299595,0,,0.1179079,0.003347531,0.020355925,0.8994122,0.31987554,-0.29788828,0.08452353,0.54136705,0.836527,0.42885137,-0.7775611,0.45987505,,0.04339036,-0.04160072,0.029256344,0.50995886,0.6516224,0.56154263,-0.06478444,-0.62185764,0.7804462,0.8577558,-0.43437457,-0.27490687,,0.05740099,1.3232888,0.4341455,0.9967925,0.078308746,-0.01650617,0.04126604,-0.67964834,-0.73237646,-0.068569876,0.7293462,-0.6806998,,-0.07822857,0.28311217,-0.05175088,-0.9182404,-0.2637143,0.2954476,0.35021922,-0.19245785,0.9166823,-0.18488106,0.94520617,0.2690804,,0.0049492875,0.44690356,-0.32547495,-0.53302014,-0.61590004,-0.58013505,0.6977219,-0.7078121,0.11039099,-0.47861642,-0.34593233,0.80700505,,1.1965833997309683,0.3063067539903667,0.19838162902000003,3.5745844665806867,-0.3858614753376038,-1.3715317514230727,-0.412933799187458,,-1.1048759468495521,-0.08365264249359988,0.17571859095000003,-1.62677458155294,-0.7728160426733313,-0.6777420025638636,0.8701338402973057,,0.023856469213197493,0.03659955441432109,0.08941130016,-0.1167695939710949,,-2.4713576e-05,-4.4107437e-06,2.1457672e-06,1.0,3.6366284e-05,3.8966537e-05,-3.637746e-05,1.0,3.6656857e-06,-3.8966537e-05,-3.6656857e-06,1.0,555,1.698,0,0,0.0,False,-0.2626186106756321,1.0446869672807815
1.7063101339999776,14:38:43.547095,14:37:26.423443,0,,0.117955774,0.003371358,0.020741776,0.8993831,0.31991708,-0.29793134,0.08389594,0.54253525,0.8358331,0.42903545,-0.77672946,0.4611072,,0.04339036,-0.04160072,0.029256344,0.50995886,0.6516224,0.56154263,-0.06478444,-0.62185764,0.7804462,0.8577558,-0.43437457,-0.27490687,,0.05740099,1.3232888,0.4341455,0.9967925,0.078308746,-0.01650617,0.04126604,-0.67964834,-0.73237646,-0.068569876,0.7293462,-0.6806998,,-0.07829612,0.28340608,-0.051997434,-0.918238,-0.2637685,0.29540685,0.34991816,-0.19105008,0.91709167,-0.18546239,0.94547665,0.2677268,,0.0049492875,0.44690356,-0.32547495,-0.53302014,-0.61590004,-0.58013505,0.6977219,-0.7078121,0.11039099,-0.47861642,-0.34593233,0.80700505,,1.1974946822101267,0.30733387746263857,0.19809126006000002,3.574165086693718,-0.3858614753376038,-1.3716951089033538,-0.41260711105518943,,-1.1048759468495521,-0.08365264249359988,0.17571859095000003,-1.62677458155294,-0.7728160426733313,-0.6777420025638636,0.869807152165037,,0.023856469213197493,0.03659955441432109,0.08941130016,-0.1167695939710949,,-2.4713576e-05,-4.4107437e-06,2.1457672e-06,1.0,3.6366284e-05,3.8966537e-05,-3.637746e-05,1.0,3.6656857e-06,-3.8966537e-05,-3.6656857e-06,1.0,563,1.723,0,0,0.0,False,-0.26285692154971585,1.0444938464776636
1.7381682579998596,14:38:43.572615,14:37:26.423443,0,,0.11799519,0.0033950955,0.020911023,0.8987424,0.32056057,-0.29917088,0.08426523,0.54330754,0.83529407,0.4303041,-0.7759239,0.4612813,,0.04339179,-0.041601956,0.029256463,0.50997573,0.6514826,0.5616897,-0.064932436,-0.6219652,0.7803482,0.8577347,-0.4344304,-0.27488485,,0.05740099,1.3232888,0.4341455,0.9967925,0.078308746,-0.01650617,0.04126604,-0.67964834,-0.73237646,-0.068569876,0.7293462,-0.6806998,,-0.07834378,0.28354383,-0.05209499,-0.91765547,-0.26443276,0.29662058,0.35110155,-0.18994696,0.9168685,-0.18610787,0.94551337,0.2671486,,0.0049478975,0.44690305,-0.32547614,-0.5330311,-0.61575484,-0.5802791,0.6976314,-0.70790666,0.11035675,-0.47873613,-0.34599733,0.80690616,,1.1978422051894668,0.3078667460309601,0.19797200138,3.572487567145841,-0.38627138483690016,-1.371442533932405,-0.4127704551213238,,-1.1048836695824265,-0.08365264249359988,0.17571859095000003,-1.6265648916094555,-0.7728160426733313,-0.6777420025638636,0.869807152165037,,0.023856469213197493,0.03659955441432109,0.08941130016,-0.1167695939710949,,-2.4713576e-05,-4.4107437e-06,2.1457672e-06,1.0,3.6366284e-05,3.8966537e-05,-3.637746e-05,1.0,3.6656857e-06,-3.8966537e-05,-3.6656857e-06,1.0,571,1.747,0,0,0.0,False,-0.2623802998015474,1.0451214890877965
1.7636872650000441,14:38:43.597099,14:37:26.423443,0,,0.1180733,0.0034314096,0.021167353,0.8982308,0.322277,-0.29886305,0.08277306,0.5437687,0.8351432,0.43165976,-0.7748891,0.4617538,,0.043391287,-0.04160312,0.029255211,0.5100908,0.6513627,0.5617241,-0.06489733,-0.6220685,0.7802687,0.8576688,-0.43446225,-0.27503976,,0.05740099,1.3232888,0.4341455,0.9967925,0.078308746,-0.01650617,0.04126604,-0.67964834,-0.73237646,-0.068569876,0.7293462,-0.6806998,,-0.07843433,0.28375235,-0.052241422,-0.9172564,-0.26618853,0.2962843,0.35105667,-0.18891494,0.9170989,-0.18814868,0.9452274,0.2667307,,0.0049484805,0.44690135,-0.32547653,-0.53314537,-0.6156305,-0.58030605,0.6975857,-0.707979,0.110181406,-0.4786755,-0.34607047,0.80691075,,1.1983519055591656,0.308723969379999,0.19779311336000002,3.5720681872588727,-0.38777438633432,-1.3709520456530095,-0.41326048731972675,,-1.1048836695824265,-0.08366036522647412,0.17571859095000003,-1.6265648916094555,-0.7726794061735658,-0.6776083842471383,0.87029718436344,,0.023856469213197493,0.03659955441432109,0.08941130016,-0.1167695939710949,,-2.4713576e-05,-4.4107437e-06,2.1457672e-06,1.0,3.6366284e-05,3.8966537e-05,-3.637746e-05,1.0,3.6656857e-06,-3.8966537e-05,-3.6656857e-06,1.0,579,1.772,0,0,0.0,False,-0.2626186106756321,1.044880088083899
1.7881744549999894,14:38:43.624583,14:37:26.505474,0,,0.11811952,0.0034447908,0.021336123,0.89830273,0.32222584,-0.2987019,0.082170695,0.54463184,0.83464015,0.43162513,-0.77430403,0.46276662,,0.04339061,-0.04160282,0.02925235,0.5104311,0.6514212,0.561347,-0.06480983,-0.62179184,0.7804965,0.85747296,-0.4347704,-0.27516344,,0.05740099,1.3232888,0.4341455,0.9967925,0.078308746,-0.01650617,0.04126604,-0.67964834,-0.73237646,-0.068569876,0.7293462,-0.6806998,,-0.07848902,0.28388247,-0.052345738,-0.91734254,-0.2661453,0.2960564,0.35061327,-0.18789437,0.9174781,-0.18855515,0.945443,0.26567757,,0.0049492344,0.44689906,-0.3254749,-0.53348243,-0.6156894,-0.57993364,0.6974415,-0.70811826,0.11019906,-0.47851002,-0.34568056,0.807176,,1.1986685376070088,0.3092800061469432,0.19766607694000002,3.5722778772023567,-0.38777438633432,-1.371605475574134,-0.41260711105518943,,-1.1048913923153005,-0.08366036522647412,0.17571859095000003,-1.6265648916094555,-0.7722694966742695,-0.6779426379582276,0.87029718436344,,0.023856469213197493,0.03659955441432109,0.08941130016,-0.1167695939710949,,-2.4713576e-05,-4.4107437e-06,2.1457672e-06,1.0,3.6366284e-05,3.8966537e-05,-3.637746e-05,1.0,3.6656857e-06,-3.8966537e-05,-3.6656857e-06,1.0,587,1.796,0,0,0.0,False,-0.262797343831195,1.0445904068792222
1.8156592739996995,14:38:43.646313,14:37:26.505474,0,,0.11816782,0.003460437,0.021496609,0.89808667,0.32233617,-0.29923216,0.08213131,0.54547524,0.834093,0.432082,-0.77366406,0.46341008,,0.043387346,-0.041601375,0.029249072,0.5107847,0.6515224,0.5609078,-0.064724,-0.62144506,0.7807797,0.8572688,-0.43511444,-0.2752555,,0.05740099,1.3232888,0.4341455,0.9967925,0.078308746,-0.01650617,0.04126604,-0.67964834,-0.73237646,-0.068569876,0.7293462,-0.6806998,,-0.07854531,0.28400812,-0.052442558,-0.91715205,-0.26626667,0.29653704,0.35091984,-0.18685102,0.9175739,-0.18891111,0.94561553,0.26480904,,0.0049525406,0.44689697,-0.32547197,-0.5338325,-0.61579233,-0.5795021,0.69728875,-0.7082571,0.1102738,-0.4783422,-0.34521255,0.8074757,,1.1989465559904808,0.3098283201810131,0.19754681826,3.571648807371903,-0.38777438633432,-1.3719321905346964,-0.41326048731972675,,-1.1048836695824265,-0.08365264249359988,0.17571859095000003,-1.6265648916094555,-0.771859587174973,-0.6783585704094575,0.8704605284295743,,0.023856469213197493,0.03659955441432109,0.08941130016,-0.1167695939710949,,-2.4713576e-05,-4.4107437e-06,2.1457672e-06,1.0,3.6366284e-05,3.8966537e-05,-3.637746e-05,1.0,3.6656857e-06,-3.8966537e-05,-3.6656857e-06,1.0,595,1.821,0,0,0.0,False,-0.26249945523859,1.044976648485458
1.8373394389996065,14:38:43.667261,14:37:26.505474,0,,0.11821094,0.0034809262,0.021649435,0.8977411,0.32283148,-0.29973468,0.08205849,0.5459472,0.8337914,0.4328134,-0.7731245,0.463628,,0.04338676,-0.041601524,0.029249668,0.5106756,0.6515017,0.5610311,-0.06475195,-0.62153673,0.7807045,0.8573317,-0.43501455,-0.27521765,,0.05740099,1.3232888,0.4341455,0.9967925,0.078308746,-0.01650617,0.04126604,-0.67964834,-0.73237646,-0.068569876,0.7293462,-0.6806998,,-0.078595884,0.2841317,-0.052530903,-0.9168477,-0.26677704,0.2970191,0.35140383,-0.18614486,0.91753227,-0.18948796,0.94561094,0.26441294,,0.0049531125,0.44689754,-0.32547238,-0.5337244,-0.6157715,-0.57962376,0.69733506,-0.7082128,0.110265374,-0.47839522,-0.34534067,0.8073895,,1.1992400198397015,0.31034574328358616,0.19743792990000003,3.5708100475979654,-0.3880476593338508,-1.3717093547273036,-0.41326048731972675,,-1.1048759468495521,-0.08365264249359988,0.17571859095000003,-1.6265648916094555,-0.7719962236747385,-0.6782471525057612,0.8704605284295743,,0.023856469213197493,0.03659955441432109,0.08941130016,-0.1167695939710949,,-2.4713576e-05,-4.4107437e-06,2.1457672e-06,1.0,3.6366284e-05,3.8966537e-05,-3.637746e-05,1.0,3.6656857e-06,-3.8966537e-05,-3.6656857e-06,1.0,624,1.91,0,0,0.0,False,-0.2623802998015474,1.044880088083899
1.8583482839999306,14:38:43.756263,14:37:26.593698,0,,0.11827496,0.0036431104,0.022311047,0.8969823,0.32477966,-0.29990187,0.07966688,0.54854,0.83232033,0.43482882,-0.7704687,0.4661563,,0.043389544,-0.041603968,0.029250026,0.5106855,0.65117943,0.5613962,-0.06489658,-0.6219047,0.7803993,0.8573148,-0.43497133,-0.2753384,,0.05740099,1.3232888,0.4341455,0.9967925,0.078308746,-0.01650617,0.04126604,-0.67964834,-0.73237646,-0.068569876,0.7293462,-0.6806998,,-0.07869042,0.28472,-0.0528672,-0.9162608,-0.26879278,0.29701293,0.3512171,-0.1824724,0.9183411,-0.19264679,0.9457559,0.26159692,,0.0049504074,0.4468965,-0.32547474,-0.5337287,-0.6154378,-0.5799741,0.6972503,-0.70833796,0.109997004,-0.47851396,-0.34567857,0.8071745,,1.2012633758527482,0.31235365383088454,0.19702700597000003,3.569342217993573,-0.3902338433300979,-1.3718052792913937,-0.4127704551213236,,-1.1048913923153005,-0.08366036522647412,0.17571859095000003,-1.6263552016659708,-0.7719962236747385,-0.6779204375451987,0.8701338402973054,,0.023856469213197493,0.03659955441432109,0.08941130016,-0.1167695939710949,,-2.4713576e-05,-4.4107437e-06,2.1457672e-06,1.0,3.6366284e-05,3.8966537e-05,-3.637746e-05,1.0,3.6656857e-06,-3.8966537e-05,-3.6656857e-06,1.0,632,1.936,0,0,0.0,False,-0.2621419889274632,1.0450249286862374
1.9473037699999622,14:38:43.784551,14:37:26.593698,0,,0.11828722,0.0037415028,0.022543445,0.8949193,0.32782155,-0.30274191,0.07987413,0.5498061,0.83146465,0.4390213,-0.76827496,0.46584743,,0.043389544,-0.041603968,0.029250026,0.5106855,0.65108764,0.5615025,-0.06489658,-0.62203217,0.7802978,0.8573148,-0.43492633,-0.27540946,,0.05740099,1.3232888,0.4341455,0.9967925,0.078308746,-0.01650617,0.04126604,-0.67964834,-0.73237646,-0.068569876,0.7293462,-0.6806998,,-0.078712314,0.28495553,-0.052956033,-0.9144175,-0.27191138,0.2998414,0.35442552,-0.18007305,0.91758174,-0.19550756,0.94532424,0.26103428,,0.0049504074,0.4468965,-0.32547474,-0.5337287,-0.61534303,-0.5800746,0.6972503,-0.7083559,0.10988129,-0.47851396,-0.3458104,0.80711806,,1.2021051537360388,0.3130409770566905,0.19691682132000002,3.5649387291803984,-0.39310320982517216,-1.3704456481954554,-0.4134238313858609,,-1.1048913923153005,-0.08366036522647412,0.17571859095000003,-1.6263552016659708,-0.7719962236747385,-0.6777570800649176,0.8704605284295739,,0.023856469213197493,0.03659955441432109,0.08941130016,-0.1167695939710949,,-2.4713576e-05,-4.4107437e-06,2.1457672e-06,1.0,3.6366284e-05,3.8966537e-05,-3.637746e-05,1.0,3.6656857e-06,-3.8966537e-05,-3.6656857e-06,1.0,640,1.96,0,0,0.0,False,-0.2618441003348577,1.0448318078831196
1.9756423339999856,14:38:43.806085,14:37:26.593698,0,,0.118283644,0.0037931204,0.022687584,0.8943067,0.32729286,-0.30511466,0.08083074,0.552503,0.8295823,0.44009307,-0.76656365,0.46765167,,0.043388188,-0.04160276,0.029249847,0.5106925,0.65108675,0.5614972,-0.06490013,-0.6220267,0.7803018,0.8573104,-0.43493542,-0.27540874,,0.05740099,1.3232888,0.4341455,0.9967925,0.078308746,-0.01650617,0.04126604,-0.67964834,-0.73237646,-0.068569876,0.7293462,-0.6806998,,-0.07871499,0.2850953,-0.053018544,-0.9138371,-0.27140188,0.3020642,0.35587293,-0.17696127,0.9176269,-0.195592,0.946058,0.25829837,,0.004951723,0.446897,-0.32547358,-0.5337354,-0.6153421,-0.5800695,0.69724447,-0.7083612,0.10988408,-0.47851503,-0.34580123,0.80712134,,1.2026225768386118,0.3134734500976471,0.19683774763000003,3.5628418297455533,-0.39310320982517216,-1.3723242592186884,-0.4122804229229209,,-1.1048836695824265,-0.08365264249359988,0.17571859095000003,-1.6263552016659708,-0.7719962236747385,-0.6777570800649176,0.8704605284295739,,0.023856469213197493,0.03659955441432109,0.08941130016,-0.1167695939710949,,-2.4713576e-05,-4.4107437e-06,2.1457672e-06,1.0,3.6366284e-05,3.8966537e-05,-3.637746e-05,1.0,3.6656857e-06,-3.8966537e-05,-3.6656857e-06,1.0,648,1.985,0,0,0.0,False,-0.26297607698675796,1.0452663296901348
1.9971642880000218,14:38:43.829303,14:37:26.593698,0,,0.11830689,0.0038883537,0.02291745,0.8908601,0.33058774,-0.31157708,0.08338088,0.5552285,0.8275077,0.44656032,-0.7631731,0.46706593,,0.04338651,-0.04160419,0.029249907,0.51058936,0.65106297,0.5616186,-0.06492084,-0.62212193,0.7802241,0.8573703,-0.43483487,-0.2753813,,0.05740099,1.3232888,0.4341455,0.9967925,0.078308746,-0.01650617,0.04126604,-0.67964834,-0.73237646,-0.068569876,0.7293462,-0.6806998,,-0.0787478,0.2853266,-0.053107277,-0.91067004,-0.2747973,0.3084907,0.3623714,-0.17269334,0.91589516,-0.19841124,0.9458665,0.25684533,,0.00495345,0.44689643,-0.32547486,-0.53363353,-0.61531794,-0.5801888,0.6972914,-0.708318,0.10986546,-0.47856036,-0.34593278,0.80703807,,1.2033407909959146,0.31415305059057885,0.19672756298000002,3.554663921949657,-0.3961092128200118,-1.371261603919757,-0.4127704551213236,,-1.1048682241166778,-0.08366036522647412,0.17571859095000003,-1.6263552016659708,-0.772132860174504,-0.6776456621612211,0.8704605284295739,,0.023856469213197493,0.03659955441432109,0.08941130016,-0.1167695939710949,,-2.4713576e-05,-4.4107437e-06,2.1457672e-06,1.0,3.6366284e-05,3.8966537e-05,-3.637746e-05,1.0,3.6656857e-06,-3.8966537e-05,-3.6656857e-06,1.0,656,2.009,0,0,0.0,False,-0.26327396557936344,1.0450249286862374
2.0203887349998695,14:38:43.858052,14:37:26.739912,0,,0.11831185,0.0039565563,0.023062348,0.8879926,0.33083308,-0.31940362,0.087624356,0.56011504,0.82376754,0.45143232,-0.7594871,0.4683889,,0.043387733,-0.041604146,0.029250324,0.51058286,0.65106493,0.56162226,-0.06492272,-0.6221228,0.7802233,0.8573741,-0.43483067,-0.27537644,,0.05740099,1.3232888,0.4341455,0.9967925,0.078308746,-0.01650617,0.04126604,-0.67964834,-0.73237646,-0.068569876,0.7293462,-0.6806998,,-0.07875858,0.28547826,-0.053157855,-0.90795165,-0.27510622,0.31613344,0.36887988,-0.16665636,0.91441417,-0.19887538,0.9468591,0.25279707,,0.0049522147,0.44689676,-0.325475,-0.5336271,-0.61532,-0.58019257,0.697294,-0.7083148,0.10986917,-0.47856367,-0.3459356,0.8070349,,1.2037809867697455,0.31460096909728386,0.19666015590000002,3.5466957040972447,-0.39679239531883903,-1.3733999128259131,-0.41326048731972653,,-1.1048759468495521,-0.08366036522647412,0.17571859095000003,-1.6263552016659708,-0.772132860174504,-0.6776456621612211,0.8704605284295739,,0.023856469213197493,0.03659955441432109,0.08941130016,-0.1167695939710949,,-2.4713576e-05,-4.4107437e-06,2.1457672e-06,1.0,3.6366284e-05,3.8966537e-05,-3.637746e-05,1.0,3.6656857e-06,-3.8966537e-05,-3.6656857e-06,1.0,664,2.034,0,0,0.0,False,-0.26297607698675796,1.045073208887017
2.0491301699998985,14:38:43.880302,14:37:26.739912,0,,0.118306875,0.0040423274,0.023271158,0.88374543,0.3308068,-0.331,0.09509522,0.56560683,0.8191738,0.4582041,-0.75541764,0.46839416,,0.04338664,-0.041605443,0.029249668,0.5105889,0.65106183,0.56162035,-0.06491551,-0.62212646,0.7802209,0.857371,-0.43482998,-0.2753869,,0.05740099,1.3232888,0.4341455,0.9967925,0.078308746,-0.01650617,0.04126604,-0.67964834,-0.73237646,-0.068569876,0.7293462,-0.6806998,,-0.07876235,0.28568834,-0.05324048,-0.9038699,-0.2751481,0.32758617,0.3790201,-0.15991852,0.91146576,-0.19840097,0.94800824,0.2488322,,0.00495337,0.44689563,-0.32547584,-0.5336333,-0.6153168,-0.58019024,0.69729453,-0.70831585,0.10985896,-0.478556,-0.3459391,0.80703795,,1.2043910826668092,0.31520334226147334,0.19655256383000003,3.5343239974316583,-0.39665575881907367,-1.3744097968711557,-0.4127704551213238,,-1.1048682241166778,-0.08366808795934834,0.17571859095000003,-1.6263552016659708,-0.772132860174504,-0.6776456621612211,0.8704605284295739,,0.023856469213197493,0.03659955441432109,0.08941130016,-0.1167695939710949,,-2.4713576e-05,-4.4107437e-06,2.1457672e-06,1.0,3.6366284e-05,3.8966537e-05,-3.637746e-05,1.0,3.6656857e-06,-3.8966537e-05,-3.6656857e-06,1.0,689,2.111,0,0,0.0,False,-0.2626781883941529,1.0458456920994883
2.0713567139996485,14:38:43.954850,14:37:26.838781,0,,0.11836022,0.004154682,0.023775026,0.878278,0.33594567,-0.3402477,0.09880212,0.5687256,0.81657165,0.46783122,-0.75079405,0.46630684,,0.04338795,-0.041604847,0.029246569,0.51072174,0.65085006,0.56174505,-0.06503925,-0.6222643,0.7801007,0.8572825,-0.43494976,-0.27547318,,0.05740099,1.3232888,0.4341455,0.9967925,0.078308746,-0.01650617,0.04126604,-0.67964834,-0.73237646,-0.068569876,0.7293462,-0.6806998,,-0.078839235,0.28612858,-0.053504366,-0.8988218,-0.28043887,0.3368583,0.38863856,-0.15452509,0.9083403,-0.20268086,0.9473521,0.24787986,,0.0049521336,0.44689313,-0.32547382,-0.53375894,-0.6150968,-0.58030796,0.6971518,-0.70847785,0.1097202,-0.4786239,-0.3459986,0.8069722,,1.2057348381869242,0.3165393750487142,0.19624404681000002,3.5217426008225865,-0.40089149031180227,-1.371119199336848,-0.41244376698905505,,-1.1048759468495521,-0.08366036522647412,0.17572118353000002,-1.6261455117224866,-0.7719962236747385,-0.6775937225846365,0.8707872165618425,,0.023856469213197493,0.03659955441432109,0.08941130016,-0.1167695939710949,,-2.4713576e-05,-4.4107437e-06,2.1457672e-06,1.0,3.6366284e-05,3.8966537e-05,-3.637746e-05,1.0,3.6656857e-06,-3.8966537e-05,-3.6656857e-06,1.0,697,2.136,0,0,0.0,False,-0.26196325577190027,1.044976648485458
2.145928148999701,14:38:43.980551,14:37:26.838781,0,,0.11840153,0.00423564,0.023987815,0.87349105,0.3461908,-0.34229434,0.094494075,0.56916183,0.8167776,0.4775817,-0.7457926,0.4644447,,0.04338795,-0.041604847,0.029246569,0.51072174,0.6508042,0.5617982,-0.06503925,-0.62232804,0.7800499,0.8572825,-0.43492728,-0.2755087,,0.05740099,1.3232888,0.4341455,0.9967925,0.078308746,-0.01650617,0.04126604,-0.67964834,-0.73237646,-0.068569876,0.7293462,-0.6806998,,-0.07888955,0.28633732,-0.05359062,-0.89467406,-0.29091874,0.3390053,0.39278436,-0.15081628,0.90717965,-0.21278803,0.9447861,0.24919975,,0.0049521336,0.44689313,-0.32547382,-0.53375894,-0.6150494,-0.5803582,0.6971518,-0.70848686,0.10966233,-0.4786239,-0.34606448,0.80694395,,1.2064607750771013,0.3169177889595512,0.19616367683000002,3.51587128240502,-0.4114125007937412,-1.3673590664205166,-0.4135871754519951,,-1.1048759468495521,-0.08366036522647412,0.17572118353000002,-1.6261455117224866,-0.7719962236747385,-0.6775120438444959,0.8709505606279767,,0.023856469213197493,0.03659955441432109,0.08941130016,-0.1167695939710949,,-2.4713576e-05,-4.4107437e-06,2.1457672e-06,1.0,3.6366284e-05,3.8966537e-05,-3.637746e-05,1.0,3.6656857e-06,-3.8966537e-05,-3.6656857e-06,1.0,705,2.161,0,0,0.0,False,-0.26273776611267374,1.0455077306940321
2.1716294069997275,14:38:44.010656,14:37:26.838781,0,,0.118442506,0.004294127,0.024142683,0.8683371,0.35703528,-0.34426257,0.0883522,0.57165915,0.8157203,0.4880417,-0.7387365,0.46484783,,0.043389175,-0.041604802,0.029246926,0.51071525,0.65080607,0.56180173,-0.065041095,-0.6223289,0.7800491,0.8572862,-0.43492305,-0.2755038,,0.05740099,1.3232888,0.4341455,0.9967925,0.078308746,-0.01650617,0.04126604,-0.67964834,-0.73237646,-0.068569876,0.7293462,-0.6806998,,-0.078937076,0.2864887,-0.05365308,-0.8902465,-0.30205032,0.34092045,0.39617977,-0.14421025,0.90677726,-0.22472814,0.94232106,0.24804889,,0.0049508982,0.44689342,-0.325474,-0.5337525,-0.61505145,-0.5803619,0.6971544,-0.70848364,0.10966604,-0.4786272,-0.34606734,0.8069408,,1.2070245345769197,0.31702590721979035,0.19612089926,3.5108387237613914,-0.424392968271458,-1.3664941356460834,-0.41048363819544376,,-1.1048759468495521,-0.08366036522647412,0.17572118353000002,-1.6261455117224866,-0.7719962236747385,-0.6775120438444959,0.8709505606279767,,0.023856469213197493,0.03659955441432109,0.08941130016,-0.1167695939710949,,-2.4713576e-05,-4.4107437e-06,2.1457672e-06,1.0,3.6366284e-05,3.8966537e-05,-3.637746e-05,1.0,3.6656857e-06,-3.8966537e-05,-3.6656857e-06,1.0,713,2.186,0,0,0.0,False,-0.26160578946077395,1.045073208887017
2.2017496999997093,14:38:44.030000,14:37:26.838781,0,,0.118459865,0.004372284,0.024384469,0.86064523,0.3690276,-0.35086846,0.08023694,0.5821615,0.8091044,0.5028439,-0.7245044,0.4714247,,0.043388158,-0.041606143,0.02924633,0.510745,0.6506622,0.56194144,-0.06518558,-0.6224345,0.7799527,0.8572575,-0.43498743,-0.27549154,,0.05740099,1.3232888,0.4341455,0.9967925,0.078308746,-0.01650617,0.04126604,-0.67964834,-0.73237646,-0.068569876,0.7293462,-0.6806998,,-0.0789651,0.2867169,-0.05376269,-0.8835679,-0.31449282,0.34698993,0.40139145,-0.12690856,0.9070717,-0.24123156,0.94073826,0.23836705,,0.00495198,0.4468923,-0.32547486,-0.5337762,-0.614902,-0.5804984,0.6970585,-0.7085845,0.10962435,-0.47874042,-0.34612647,0.8068482,,1.207966707987575,0.3170645208841615,0.19604830702,3.5028705059089797,-0.4416091672419035,-1.3735285947365994,-0.41489392798106906,,-1.1048759468495521,-0.08366036522647412,0.17572118353000002,-1.6259358217790016,-0.7719962236747385,-0.6775120438444959,0.8709505606279767,,0.023856469213197493,0.03659955441432109,0.08941130016,-0.1167695939710949,,-2.4713576e-05,-4.4107437e-06,2.1457672e-06,1.0,3.6366284e-05,3.8966537e-05,-3.637746e-05,1.0,3.6656857e-06,-3.8966537e-05,-3.6656857e-06,1.0,721,2.21,0,0,0.0,False,-0.2618441003348577,1.0450249286862374
2.221044093999808,14:38:44.057737,14:37:26.932044,0,,0.11848791,0.0044133067,0.02456683,0.8546323,0.38184747,-0.35184696,0.07153994,0.58456975,0.8081833,0.5142818,-0.71587056,0.47227466,,0.043387067,-0.04160747,0.029245734,0.51075107,0.6506591,0.5619396,-0.065178394,-0.6224382,0.77995044,0.85725445,-0.43498677,-0.27550203,,0.05740099,1.3232888,0.4341455,0.9967925,0.078308746,-0.01650617,0.04126604,-0.67964834,-0.73237646,-0.068569876,0.7293462,-0.6806998,,-0.07900163,0.2868763,-0.053857464,-0.8784031,-0.3276821,0.34789714,0.40374035,-0.11926483,0.90706646,-0.25573757,0.9372301,0.2370611,,0.0049531357,0.4468912,-0.3254757,-0.5337824,-0.61489886,-0.58049613,0.69705904,-0.70858556,0.10961414,-0.47873276,-0.34612995,0.80685127,,1.2086617539462554,0.3170181844869161,0.19598738139000002,3.498467017095804,-0.4574590012146946,-1.3726108927084772,-0.4121170788567865,,-1.1048682241166778,-0.08366808795934834,0.17572118353000002,-1.6259358217790016,-0.7719962236747385,-0.6775120438444959,0.8709505606279767,,0.023856469213197493,0.03659955441432109,0.08941130016,-0.1167695939710949,,-2.4713576e-05,-4.4107437e-06,2.1457672e-06,1.0,3.6366284e-05,3.8966537e-05,-3.637746e-05,1.0,3.6656857e-06,-3.8966537e-05,-3.6656857e-06,1.0,729,2.235,0,0,0.0,False,-0.2632143878608417,1.045073208887017
2.248818067999764,14:38:44.081435,14:37:26.932044,0,,0.118446514,0.004472658,0.024795726,0.8461668,0.39438266,-0.358419,0.06874342,0.58616376,0.8072709,0.52846587,-0.70772475,0.46888092,,0.043388423,-0.04160866,0.029245853,0.51074404,0.65066004,0.5619449,-0.06517494,-0.6224437,0.7799464,0.8572589,-0.43497753,-0.2755027,,0.05740099,1.3232888,0.4341455,0.9967925,0.078308746,-0.01650617,0.04126604,-0.67964834,-0.73237646,-0.068569876,0.7293462,-0.6806998,,-0.07897082,0.28708333,-0.053975042,-0.8707772,-0.34058324,0.35461262,0.41220313,-0.11253119,0.90411574,-0.2680217,0.9334558,0.23837909,,0.00495182,0.44689065,-0.32547683,-0.53377575,-0.6148998,-0.58050126,0.6970649,-0.7085802,0.109611355,-0.47873172,-0.34613916,0.806848,,1.2095653136925395,0.3168868980280543,0.1959083077,3.4863050003737017,-0.4707127416919423,-1.3673575103794824,-0.4122804229229209,,-1.1048759468495521,-0.08366808795934834,0.17572118353000002,-1.6259358217790016,-0.7719962236747385,-0.6775120438444959,0.8709505606279767,,0.023856469213197493,0.03659955441432109,0.08941130016,-0.1167695939710949,,-2.4713576e-05,-4.4107437e-06,2.1457672e-06,1.0,3.6366284e-05,3.8966537e-05,-3.637746e-05,1.0,3.6656857e-06,-3.8966537e-05,-3.6656857e-06,1.0,758,2.324,0,0,0.0,False,-0.2622015666459845,1.0458939723002678
2.2725126649997947,14:38:44.171718,14:37:27.013208,0,,0.118450105,0.00474602,0.025582552,0.80230546,0.45919585,-0.38137293,0.059075147,0.5746883,0.81623733,0.5939833,-0.6774013,0.43394834,,0.04338839,-0.04161367,0.029243827,0.51088136,0.6505336,0.56196636,-0.06527555,-0.6224713,0.77991587,0.85716933,-0.43512714,-0.27554512,,0.05740099,1.3232888,0.4341455,0.9967925,0.078308746,-0.01650617,0.04126604,-0.67964834,-0.73237646,-0.068569876,0.7293462,-0.6806998,,-0.07900869,0.2878401,-0.054320995,-0.83071536,-0.4071928,0.37961298,0.45363605,-0.09987254,0.88557315,-0.3226861,0.90786535,0.267683,,0.0049520903,0.4468865,-0.32548025,-0.5339067,-0.614768,-0.5805204,0.6969321,-0.70871896,0.109558634,-0.47877896,-0.3460892,0.8068414,,1.211920747219178,0.31653165231583996,0.19573071597000002,3.4242367771022826,-0.531106074588267,-1.316477222142853,-0.41326048731972653,,-1.1048759468495521,-0.08369897889084524,0.17572118353000002,-1.6257261318355174,-0.771859587174973,-0.6776234617481924,0.8709505606279767,,0.023856469213197493,0.03659955441432109,0.08941130016,-0.1167695939710949,,-2.4713576e-05,-4.4107437e-06,2.1457672e-06,1.0,3.6366284e-05,3.8966537e-05,-3.637746e-05,1.0,3.6656857e-06,-3.8966537e-05,-3.6656857e-06,1.0,766,2.349,0,0,0.0,False,-0.2630356547052788,1.0454594504932526
2.3627880929998355,14:38:44.199466,14:37:27.096729,0,,0.118437305,0.004765421,0.02569373,0.7944908,0.47024173,-0.3842617,0.057800993,0.57133377,0.81867987,0.60451907,-0.67264444,0.42673892,,0.043388516,-0.04161492,0.029243648,0.5108809,0.6505325,0.5619681,-0.065270185,-0.62247586,0.77991265,0.8571701,-0.4351222,-0.2755507,,0.05740099,1.3232888,0.4341455,0.9967925,0.078308746,-0.01650617,0.04126604,-0.67964834,-0.73237646,-0.068569876,0.7293462,-0.6806998,,-0.07900126,0.287934,-0.054384492,-0.82350564,-0.41856053,0.3829432,0.460508,-0.098980084,0.8821198,-0.3313168,0.90277904,0.27426115,,0.0049520102,0.4468857,-0.32548124,-0.5339064,-0.6147669,-0.5805218,0.6969353,-0.7087168,0.10955214,-0.4787746,-0.34609556,0.8068412,,1.2121833201369017,0.3163154157953617,0.19570219759000002,3.413332900041087,-0.5408072660716132,-1.3058711525557687,-0.41375051951812925,,-1.1048759468495521,-0.08370670162371946,0.17572118353000002,-1.6257261318355174,-0.771859587174973,-0.6776234617481924,0.8709505606279767,,0.023856469213197493,0.03659955441432109,0.08941130016,-0.1167695939710949,,-2.4713576e-05,-4.4107437e-06,2.1457672e-06,1.0,3.6366284e-05,3.8966537e-05,-3.637746e-05,1.0,3.6656857e-06,-3.8966537e-05,-3.6656857e-06,1.0,778,2.386,0,0,0.0,False,-0.26255903295711036,1.045169769288576
2.390559932999622,14:38:44.232923,14:37:27.096729,0,,0.11845592,0.0047911704,0.025909454,0.77426034,0.49777997,-0.39081475,0.053854108,0.563468,0.82438076,0.6305717,-0.6593322,0.40946323,,0.043388557,-0.04161991,0.029241681,0.51104194,0.6502651,0.56213117,-0.06552258,-0.6226052,0.7797882,0.8570548,-0.43533668,-0.27557036,,0.05740099,1.3232888,0.4341455,0.9967925,0.078308746,-0.01650617,0.04126604,-0.67964834,-0.73237646,-0.068569876,0.7293462,-0.6806998,,-0.07903056,0.28810707,-0.05451384,-0.8047936,-0.4469647,0.39055064,0.4769675,-0.09536257,0.8737322,-0.35328355,0.88945407,0.2899348,,0.0049522086,0.44688156,-0.3254847,-0.5340549,-0.6144888,-0.5806798,0.696706,-0.7089552,0.10946793,-0.47894275,-0.34610116,0.806739,,1.212360942993009,0.31575937902841755,0.19566460518,3.3862828973315837,-0.5654018360293926,-1.2800984180805735,-0.41309714325359237,,-1.1048759468495521,-0.08372214708946792,0.17572118353000002,-1.6253067519485482,-0.7717229506752076,-0.6777348796518889,0.8709505606279767,,0.023856469213197493,0.03659955441432109,0.08941130016,-0.1167695939710949,,-2.4713576e-05,-4.4107437e-06,2.1457672e-06,1.0,3.6366284e-05,3.8966537e-05,-3.637746e-05,1.0,3.6656857e-06,-3.8966537e-05,-3.6656857e-06,1.0,786,2.411,0,0,0.0,False,-0.26190367805337944,1.0457491316979295
2.4239958119997027,14:38:44.250067,14:37:27.096729,0,,0.118452325,0.0047950596,0.025952578,0.7693352,0.50354844,-0.39314428,0.05413583,0.561798,0.8255012,0.6365475,-0.6563703,0.4049508,,0.043386877,-0.041618973,0.029242754,0.5110489,0.65026426,0.56212586,-0.0655261,-0.62259984,0.7797923,0.8570504,-0.43534583,-0.2755697,,0.05740099,1.3232888,0.4341455,0.9967925,0.078308746,-0.01650617,0.04126604,-0.67964834,-0.73237646,-0.068569876,0.7293462,-0.6806998,,-0.07902915,0.28814095,-0.054541014,-0.8001855,-0.45292437,0.39314464,0.48157015,-0.09449514,0.8712984,-0.35748202,0.886527,0.2937285,,0.00495382,0.44688302,-0.32548434,-0.53406155,-0.6144878,-0.5806746,0.69670016,-0.70896053,0.10947072,-0.47894382,-0.346092,0.8067423,,1.212360942993009,0.315604924370933,0.19565682744000001,3.378314679479172,-0.5705940230204792,-1.2732508180556115,-0.41309714325359215,,-1.1048682241166778,-0.08371442435659368,0.17571988724,-1.6253067519485482,-0.7717229506752076,-0.6777348796518889,0.8709505606279767,,0.023856469213197493,0.03659955441432109,0.08941130016,-0.1167695939710949,,-2.4713576e-05,-4.4107437e-06,2.1457672e-06,1.0,3.6366284e-05,3.8966537e-05,-3.637746e-05,1.0,3.6656857e-06,-3.8966537e-05,-3.6656857e-06,1.0,790,2.423,0,0,0.0,False,-0.26339312101640555,1.045797411898709
2.4411617099999603,14:38:44.272900,14:37:27.096729,0,,0.11844663,0.0047938824,0.026086837,0.75301015,0.52429914,-0.3976007,0.052573055,0.5543784,0.8306026,0.6559054,-0.6463552,0.38988838,,0.043387778,-0.041619197,0.029244363,0.51104236,0.6502662,0.5621295,-0.065527946,-0.6226007,0.7797914,0.8570541,-0.4353416,-0.27556482,,0.05740099,1.3232888,0.4341455,0.9967925,0.078308746,-0.01650617,0.04126604,-0.67964834,-0.73237646,-0.068569876,0.7293462,-0.6806998,,-0.079030596,0.2882371,-0.054634873,-0.7849543,-0.47436666,0.39852607,0.49477375,-0.09281393,0.8640512,-0.37288833,0.8754209,0.30755886,,0.0049528796,0.4468843,-0.32548532,-0.5340551,-0.61448985,-0.58067834,0.6967028,-0.7089574,0.10947443,-0.4789471,-0.34609485,0.80673915,,1.2123146065957635,0.31504116487111467,0.19563738309000003,3.356506925356782,-0.5876735854911594,-1.251237384819643,-0.4132604873197263,,-1.1048759468495521,-0.08371442435659368,0.17571859095000003,-1.6253067519485482,-0.7717229506752076,-0.6777348796518889,0.8709505606279767,,0.023856469213197493,0.03659955441432109,0.08941130016,-0.1167695939710949,,-2.4713576e-05,-4.4107437e-06,2.1457672e-06,1.0,3.6366284e-05,3.8966537e-05,-3.637746e-05,1.0,3.6656857e-06,-3.8966537e-05,-3.6656857e-06,1.0,823,2.524,0,0,0.0,False,-0.26333354329788383,1.045604291095591
2.4639663109996945,14:38:44.371685,14:37:27.189117,0,,0.11842883,0.0047375113,0.026400805,0.71036935,0.5733376,-0.40823942,0.04147935,0.54491526,0.8374646,0.7026057,-0.6118425,0.36330932,,0.04344249,-0.04161464,0.029230356,0.511191,0.6501808,0.56209314,-0.065610886,-0.6225723,0.7798071,0.8569591,-0.4355097,-0.27559432,,0.057381235,1.3232895,0.4341506,0.99679154,0.07832471,-0.016488966,0.041289456,-0.6796465,-0.7323769,-0.068569876,0.7293462,-0.6806998,,-0.079014584,0.28842205,-0.05489067,-0.7451555,-0.5254102,0.41071567,0.52161,-0.07544022,0.8498422,-0.41553128,0.847498,0.33027393,,0.004916937,0.4468708,-0.3254711,-0.53420067,-0.6143833,-0.58065724,0.6965655,-0.7090965,0.10944712,-0.4789845,-0.34599912,0.806758,,1.2122991611300151,0.31308731345393587,0.19563349422,3.3032456797117122,-0.6365894524071871,-1.2062040146674686,-0.41375051951812947,,-1.104837333185181,-0.08373759255521636,0.17571599837000001,-1.6250970620050638,-0.7715863141754422,-0.6778462975555852,0.8709505606279767,,0.023856469213197493,0.03659955441432109,0.08941130016,-0.1167695939710949,,-4.4733286e-05,-2.7418137e-06,-1.4305115e-06,1.0,5.235523e-05,5.6102872e-05,-5.237013e-05,1.0,5.3346157e-06,-5.6102872e-05,-5.2452087e-06,1.0,831,2.55,0,0,0.0,False,-0.2629164992682367,1.0454594504932526
2.5627388939997218,14:38:44.394113,14:37:27.277536,0,,0.1184046,0.0047242343,0.026435345,0.7050558,0.5797368,-0.40841365,0.039635897,0.5428027,0.8389245,0.70804334,-0.6076764,0.35972762,,0.043441534,-0.04161719,0.029229462,0.51119643,0.6501767,0.562093,-0.06559843,-0.6225805,0.7798016,0.8569568,-0.43550414,-0.2756104,,0.057381235,1.3232895,0.4341506,0.99679154,0.07832471,-0.016488966,0.041289456,-0.6796465,-0.7323769,-0.068569876,0.7293462,-0.6806998,,-0.078992575,0.28843826,-0.054925438,-0.74018806,-0.53207487,0.41111794,0.524361,-0.07402295,0.84827244,-0.4209123,0.8434554,0.3337902,,0.0049180123,0.44686884,-0.32547292,-0.5342065,-0.614379,-0.5806564,0.69656926,-0.7090954,0.10943042,-0.47897252,-0.34600893,0.8067609,,1.2123068838628892,0.3127552359403442,0.19563349422,3.2969549814071764,-0.6428747313963974,-1.1996085737749032,-0.41244376698905505,,-1.1048296104523068,-0.0837530380209648,0.17571599837000001,-1.6250970620050638,-0.7715863141754422,-0.6778462975555852,0.8709505606279767,,0.023856469213197493,0.03659955441432109,0.08941130016,-0.1167695939710949,,-4.4733286e-05,-2.7418137e-06,-1.4305115e-06,1.0,5.235523e-05,5.6102872e-05,-5.237013e-05,1.0,5.3346157e-06,-5.6102872e-05,-5.2452087e-06,1.0,839,2.575,0,0,0.0,False,-0.2618441003348577,1.0450249286862374
2.5851790029996664,14:38:44.416044,14:37:27.277536,0,,0.11838277,0.004717663,0.026446551,0.70241857,0.582342,-0.40925077,0.039673418,0.54205364,0.8394069,0.7106576,-0.60585123,0.3576449,,0.043442756,-0.041617174,0.02922988,0.51119,0.65022457,0.5620434,-0.06560022,-0.6225177,0.7798516,0.8569604,-0.43552244,-0.27556992,,0.057381235,1.3232895,0.4341506,0.99679154,0.07832471,-0.016488966,0.041289456,-0.6796465,-0.7323769,-0.068569876,0.7293462,-0.6806998,,-0.07897155,0.28844222,-0.054939136,-0.73769265,-0.53479195,0.41207662,0.5263248,-0.073276065,0.8471203,-0.4228378,0.8418006,0.33552948,,0.004916777,0.44686916,-0.3254731,-0.53420013,-0.61442846,-0.5806099,0.6965719,-0.70908326,0.10949204,-0.4789758,-0.3459459,0.806786,,1.2123068838628892,0.3125698903513628,0.19563479051000002,3.293180562424455,-0.6451975518924098,-1.1963259308296745,-0.4132604873197263,,-1.104837333185181,-0.0837530380209648,0.17571599837000001,-1.6250970620050638,-0.7715863141754422,-0.6779279762957258,0.8711139046941113,,0.023856469213197493,0.03659955441432109,0.08941130016,-0.1167695939710949,,-4.4733286e-05,-2.7418137e-06,-1.4305115e-06,1.0,5.235523e-05,5.6102872e-05,-5.237013e-05,1.0,5.3346157e-06,-5.6102872e-05,-5.2452087e-06,1.0,847,2.599,0,0,0.0,False,-0.2631548101423209,1.04478352768234
2.6071362220000083,14:38:44.449624,14:37:27.277536,0,,0.118402615,0.0047291517,0.026507825,0.6966899,0.58991873,-0.40819013,0.03603962,0.5395067,0.84120977,0.71646655,-0.60077316,0.3546084,,0.043442756,-0.041617174,0.02922988,0.51119,0.6501787,0.5620966,-0.06560022,-0.62258136,0.7798007,0.8569604,-0.4354999,-0.27560547,,0.057381235,1.3232895,0.4341506,0.99679154,0.07832471,-0.016488966,0.041289456,-0.6796465,-0.7323769,-0.068569876,0.7293462,-0.6806998,,-0.0789943,0.288494,-0.05497205,-0.73237836,-0.542692,0.4112266,0.5281125,-0.071524784,0.8461569,-0.42978966,0.83688086,0.3389856,,0.004916777,0.44686916,-0.3254731,-0.53420013,-0.6143811,-0.5806601,0.6965719,-0.7090922,0.10943413,-0.4789758,-0.3460118,0.8067577,,1.2123068838628892,0.3124849402897463,0.19563479051000002,3.2875189339503725,-0.6529858323790398,-1.1894850378781352,-0.4139138635842634,,-1.104837333185181,-0.0837530380209648,0.17571599837000001,-1.6250970620050638,-0.7715863141754422,-0.6778462975555852,0.8709505606279767,,0.023856469213197493,0.03659955441432109,0.08941130016,-0.1167695939710949,,-4.4733286e-05,-2.7418137e-06,-1.4305115e-06,1.0,5.235523e-05,5.6102872e-05,-5.237013e-05,1.0,5.3346157e-06,-5.6102872e-05,-5.2452087e-06,1.0,855,2.624,0,0,0.0,False,-0.26309523242380006,1.044976648485458
