AlexandreBanks6/ExpertPlaybackApp/resources/Motions/P_16/PC1/Data_PC1_1.csv
Task Time,PC1 Time,PC2 Time,Gaze Calib,s_T_psm1,Tx,Ty,Tz,R00,R01,R02,R10,R11,R12,R20,R21,R22,s_T_psm3,Tx,Ty,Tz,R00,R01,R02,R10,R11,R12,R20,R21,R22,cart_T_ecm,Tx,Ty,Tz,R00,R01,R02,R10,R11,R12,R20,R21,R22,ecm_T_psm1,Tx,Ty,Tz,R00,R01,R02,R10,R11,R12,R20,R21,R22,ecm_T_psm3,Tx,Ty,Tz,R00,R01,R02,R10,R11,R12,R20,R21,R22,psm1_joints,q1,q2,q3,q4,q5,q6,jaw,psm3_joints,q1,q2,q3,q4,q5,q6,jaw,ecm_joints,q1,q2,q3,q4,ecmi_T_ecm,Tx,Ty,Tz,R00,R01,R02,R10,R11,R12,R20,R21,R22,Sample #,Task Duration (s),Collisions (binary),Collisions (increments),Cumulative Collision Time (s),Clutch Press,MTMR Angle,MTML Angle
""
lci_T_si,,,,,-0.057824805,0.033623017,0.23225968,0.99702215,-0.012819277,0.07604288,0.048720323,-0.65965104,-0.7499912,0.059776112,0.7514627,-0.6570622
rci_T_si,,,,,-0.06734889,0.03764145,0.24189119,0.9919741,-0.042941336,0.118926115,0.062775895,-0.649194,-0.758028,0.10975685,0.7594098,-0.6412879
ecm_T_lc,,,,,-4.4061628e-05,-0.00034663224,-0.01840835,-0.99912,0.030754527,0.028518902,-0.031987965,-0.99852574,-0.043852776,0.027128186,-0.04472645,0.9986309
ecm_T_rc,,,,,-0.0043358393,0.01870579,-0.007592615,-0.99555075,-0.052743673,-0.078081585,0.04863213,-0.9973746,0.053654674,-0.08070653,0.04961868,0.9955021
cart_T_ecmi,,,,,0.057426013,1.3232883,0.4341485,0.9967947,0.07827243,-0.016545301,0.041212782,-0.6796525,-0.73237556,-0.068569876,0.7293462,-0.6806998
ecmac_T_ecmrep_psm1,,,,,-0.0012004398,-0.28172868,-0.2751139,0.9977453,0.05981805,0.030433392,-0.056875188,0.9943363,-0.089780115,-0.035631496,0.08784678,0.9954965
ecmac_T_ecmrep_psm3,,,,,-0.035388503,-0.5052441,-0.50078297,0.9946279,0.028167607,0.09960877,-0.04494542,0.98434234,0.17044082,-0.09324822,-0.17400216,0.9803204
""
0,14:36:11.948321,14:34:54.815366,0,,0.12025505,0.0025806427,0.015359774,0.934887,0.16381603,-0.31488222,0.34831536,-0.2527446,0.90266085,0.068285525,-0.95356405,-0.29334736,,0.048208825,-0.04496763,0.03820741,0.1404898,0.77192307,0.6199979,-0.021868914,-0.6236365,0.7814086,0.9898406,-0.123338595,-0.07073346,,0.057415757,1.3232864,0.43414506,0.9967927,0.07830548,-0.016509688,0.041261252,-0.6796487,-0.7323764,-0.068569876,0.7293462,-0.6806998,,-0.080341905,0.27892885,-0.04872447,-0.9275276,-0.11988461,0.35400602,0.27202117,-0.8660773,0.4194217,0.25631437,0.48532233,0.83592176,,-2.9900546e-05,0.45290935,-0.33282033,-0.169447,-0.7454008,-0.6447212,0.8500658,-0.44155207,0.28708866,-0.49867406,-0.49940914,0.7084594,,1.1620627837831847,0.3221769700468981,0.20104420868000003,3.6261681926778797,0.09345936583956126,-0.6358725735714847,-0.415873992377875,,-1.138964089756379,-0.1088287516635718,0.17062546754000002,-1.8498846814204737,-1.111264652592327,-0.5315473731911811,0.8627833573212631,,0.023856469213197493,0.036593009429626115,0.08941130016,-0.1167695939710949,,-1.0065734e-05,-2.026558e-06,3.9339066e-06,1.0,3.309548e-05,3.5464764e-05,-3.311038e-05,1.0,3.3676624e-06,-3.5464764e-05,-3.33786e-06,1.0,35,0.105,0,0,0.0,False,-0.26196325577190027,1.0374449371638625
0.12374199899977611,14:36:11.971256,14:34:54.815366,0,,0.120228544,0.0024873465,0.015554249,0.934888,0.16261242,-0.31550246,0.34833705,-0.24964014,0.903516,0.06816083,-0.9545872,-0.29002956,,0.04826435,-0.044944704,0.03819722,0.14050242,0.7719764,0.6199286,-0.021902084,-0.6235631,0.78146625,0.9898381,-0.12337558,-0.07070422,,0.05740431,1.3232858,0.4341474,0.99679244,0.07830992,-0.016504902,0.041267764,-0.67964816,-0.7323765,-0.068569876,0.7293462,-0.6806998,,-0.08031763,0.27900356,-0.048926834,-0.92752385,-0.11854437,0.3544668,0.27194196,-0.8646436,0.42242044,0.25641188,0.48819944,0.83421475,,-7.470461e-05,0.452908,-0.33279508,-0.16945978,-0.7454512,-0.6446595,0.8500466,-0.44155455,0.28714177,-0.49870253,-0.49933165,0.70849395,,1.162448920426896,0.322207860978395,0.20083032083000002,3.6261681926778797,0.09345936583956126,-0.6390580444369667,-0.4157106483117407,,-1.138956367023505,-0.1088287516635718,0.17062546754000002,-1.8498846814204737,-1.111264652592327,-0.5315473731911811,0.8627833573212631,,0.023856469213197493,0.036593009429626115,0.08941130016,-0.1167695939710949,,-2.1658838e-05,-8.34465e-07,2.9802322e-06,1.0,3.7543476e-05,4.022941e-05,-3.7550926e-05,1.0,3.8444996e-06,-4.022941e-05,-3.784895e-06,1.0,43,0.129,0,0,0.0,False,-0.2611887454311268,1.0373000965615242
0.14671559099997467,14:36:12.003953,14:34:54.815366,0,,0.120190464,0.0023574978,0.015866876,0.9352533,0.15938655,-0.31606528,0.34740937,-0.24207073,0.9059296,0.067882806,-0.9570776,-0.28176984,,0.048265383,-0.044943467,0.038197875,0.14049542,0.77202815,0.6198658,-0.02191025,-0.623498,0.7815179,0.9898389,-0.12338106,-0.07068333,,0.05740431,1.3232858,0.4341474,0.99679244,0.07830992,-0.016504902,0.041267764,-0.67964816,-0.7323765,-0.068569876,0.7293462,-0.6806998,,-0.08029962,0.27913994,-0.04923845,-0.9278987,-0.114989884,0.35465664,0.27109206,-0.8611369,0.43006086,0.25595528,0.49519753,0.83022064,,-7.5798715e-05,0.4529091,-0.3327943,-0.16945252,-0.745505,-0.64459926,0.85004365,-0.4415303,0.2871877,-0.49870998,-0.49927282,0.7085302,,1.1630204026595885,0.32229281104001145,0.20050624833000003,3.627006952451818,0.0929128198404995,-0.6470252830566587,-0.4152206161133378,,-1.138964089756379,-0.10882102893069756,0.17062546754000002,-1.8498846814204737,-1.111264652592327,-0.5316290519313217,0.8626200132551287,,0.023856469213197493,0.036593009429626115,0.08941130016,-0.1167695939710949,,-2.1658838e-05,-8.34465e-07,2.9802322e-06,1.0,3.7543476e-05,4.022941e-05,-3.7550926e-05,1.0,3.8444996e-06,-4.022941e-05,-3.784895e-06,1.0,54,0.163,0,0,0.0,False,-0.2618441003348577,1.0379760193724363
0.1793941400001131,14:36:12.038410,14:34:54.900362,0,,0.12013346,0.002216667,0.016224802,0.9355474,0.1569277,-0.31642503,0.3465781,-0.23519167,0.9080576,0.06807883,-0.9591968,-0.2744207,,0.04826435,-0.044944704,0.03819722,0.14050242,0.772027,0.61986554,-0.021902084,-0.6234993,0.7815172,0.9898381,-0.12338135,-0.07069418,,0.05740431,1.3232858,0.4341474,0.99679244,0.07830992,-0.016504902,0.041267764,-0.67964816,-0.7323765,-0.068569876,0.7293462,-0.6806998,,-0.08026542,0.2793018,-0.04959037,-0.9282249,-0.11223918,0.35468414,0.27065223,-0.8578554,0.43684262,0.25523686,0.5014843,0.8266606,,-7.470461e-05,0.452908,-0.33279508,-0.16945978,-0.74550384,-0.6445986,0.8500466,-0.4415311,0.28717783,-0.49870253,-0.49927378,0.7085348,,1.163761785015514,0.3223545929030053,0.20014069455000003,3.6274263323387865,0.09195636434214143,-0.6539231593039967,-0.415873992377875,,-1.138956367023505,-0.1088287516635718,0.17062546754000002,-1.8498846814204737,-1.111264652592327,-0.5316290519313217,0.8626200132551287,,0.023856469213197493,0.036593009429626115,0.08941130016,-0.1167695939710949,,-2.1658838e-05,-8.34465e-07,2.9802322e-06,1.0,3.7543476e-05,4.022941e-05,-3.7550926e-05,1.0,3.8444996e-06,-4.022941e-05,-3.784895e-06,1.0,66,0.199,0,0,0.0,False,-0.26202283349042155,1.0374449371638625
0.21387231000016982,14:36:12.070998,14:34:54.900362,0,,0.120106116,0.0021222979,0.016513556,0.9356432,0.15601185,-0.31659475,0.3463688,-0.23348796,0.90857697,0.06782766,-0.9597623,-0.2724991,,0.048264466,-0.04494591,0.03819704,0.14050205,0.77207625,0.6198043,-0.02189508,-0.6234381,0.78156614,0.9898383,-0.12338227,-0.07068965,,0.05740431,1.3232858,0.4341474,0.99679244,0.07830992,-0.016504902,0.041267764,-0.67964816,-0.7323765,-0.068569876,0.7293462,-0.6806998,,-0.08025591,0.2794453,-0.049859326,-0.92831284,-0.11124944,0.3547659,0.27032426,-0.857066,0.43859172,0.2552647,0.5030522,0.8256988,,-7.477353e-05,0.45290723,-0.33279604,-0.16945966,-0.74555516,-0.6445393,0.85005015,-0.44150463,0.28720802,-0.4986965,-0.49922055,0.7085765,,1.1643255445153324,0.32256310669060934,0.19985680704000003,3.627636022282271,0.09195636434214143,-0.6553116978863862,-0.4160373364440092,,-1.138956367023505,-0.10883647439644602,0.17062546754000002,-1.8498846814204737,-1.111264652592327,-0.5317107306714624,0.8627833573212631,,0.023856469213197493,0.036593009429626115,0.08941130016,-0.1167695939710949,,-2.1658838e-05,-8.34465e-07,2.9802322e-06,1.0,3.7543476e-05,4.022941e-05,-3.7550926e-05,1.0,3.8444996e-06,-4.022941e-05,-3.784895e-06,1.0,81,0.245,0,0,0.0,False,-0.2622611443645053,1.0371552559591857
0.2464626649998536,14:36:12.103394,14:34:54.900362,0,,0.12007809,0.0020274967,0.016846582,0.9357093,0.15433984,-0.31721833,0.34627813,-0.2300972,0.90947604,0.06737733,-0.96085083,-0.2687486,,0.04826435,-0.044944704,0.03819722,0.14050242,0.7720776,0.6198025,-0.021902084,-0.62343544,0.7815681,0.9898381,-0.12338713,-0.070684075,,0.05740431,1.3232858,0.4341474,0.99679244,0.07830992,-0.016504902,0.041267764,-0.67964816,-0.7323765,-0.068569876,0.7293462,-0.6806998,,-0.08024807,0.27962047,-0.050159223,-0.9283574,-0.10943205,0.35521418,0.26993537,-0.8554712,0.44193202,0.255514,0.5061557,0.8237226,,-7.470461e-05,0.452908,-0.33279508,-0.16945978,-0.7455565,-0.64453775,0.8500466,-0.44150764,0.2872139,-0.49870253,-0.4992159,0.70857555,,1.16499742227539,0.3228720160055783,0.1995379197,3.627845712225756,0.0922296373416723,-0.6584749683388393,-0.41571064831174065,,-1.138956367023505,-0.1088287516635718,0.17062546754000002,-1.8498846814204737,-1.111264652592327,-0.5317107306714624,0.8627833573212631,,0.023856469213197493,0.036593009429626115,0.08941130016,-0.1167695939710949,,-2.1658838e-05,-8.34465e-07,2.9802322e-06,1.0,3.7543476e-05,4.022941e-05,-3.7550926e-05,1.0,3.8444996e-06,-4.022941e-05,-3.784895e-06,1.0,85,0.257,0,0,0.0,False,-0.26232072208302704,1.036865574754509
0.2788598719998845,14:36:12.124660,14:34:54.900362,0,,0.1200587,0.002002731,0.017057657,0.9356663,0.15311977,-0.31793562,0.34648466,-0.22779536,0.9099767,0.066911176,-0.9615942,-0.26619408,,0.04826435,-0.044944704,0.03819722,0.14050242,0.7720776,0.6198025,-0.021902084,-0.62343544,0.7815681,0.9898381,-0.12338713,-0.070684075,,0.05740431,1.3232858,0.4341474,0.99679244,0.07830992,-0.016504902,0.041267764,-0.67964816,-0.7323765,-0.068569876,0.7293462,-0.6806998,,-0.08024054,0.27975598,-0.050323904,-0.92828435,-0.10811321,0.35580856,0.26974288,-0.8543901,0.44413552,0.2559824,0.50826085,0.8222797,,-7.470461e-05,0.452908,-0.33279508,-0.16945978,-0.7455565,-0.64453775,0.8500466,-0.44150764,0.2872139,-0.49870253,-0.4992159,0.70857555,,1.1655225681108372,0.3231886480534215,0.19935773539,3.627845712225756,0.09277618334073406,-0.6605542147564363,-0.4162006805101435,,-1.138956367023505,-0.1088287516635718,0.17062546754000002,-1.8498846814204737,-1.111264652592327,-0.5317107306714624,0.8627833573212631,,0.023856469213197493,0.036593009429626115,0.08941130016,-0.1167695939710949,,-2.1658838e-05,-8.34465e-07,2.9802322e-06,1.0,3.7543476e-05,4.022941e-05,-3.7550926e-05,1.0,3.8444996e-06,-4.022941e-05,-3.784895e-06,1.0,93,0.281,0,0,0.0,False,-0.2626781883941529,1.0369138549552883
0.3001228140001331,14:36:12.142180,14:34:54.900362,0,,0.120047435,0.0020005405,0.01723075,0.9353785,0.15297928,-0.31884867,0.34714133,-0.22501883,0.9104172,0.06752801,-0.9622701,-0.26358327,,0.048264466,-0.04494591,0.03819704,0.14050205,0.7721269,0.6197412,-0.02189508,-0.6233743,0.78161705,0.9898383,-0.12338805,-0.070679545,,0.05740431,1.3232858,0.4341474,0.99679244,0.07830992,-0.016504902,0.041267764,-0.67964816,-0.7323765,-0.068569876,0.7293462,-0.6806998,,-0.080238506,0.27987954,-0.050445627,-0.9280121,-0.10786292,0.3565938,0.2706481,-0.8529529,0.44634178,0.25601396,0.510722,0.8207435,,-7.477353e-05,0.45290723,-0.33279604,-0.16945966,-0.7456078,-0.6444784,0.85005015,-0.44148117,0.28724408,-0.4986965,-0.49916267,0.70861727,,1.1660013775490392,0.3235052801012647,0.19922032865000003,3.6267972625083336,0.09277618334073406,-0.662841219480372,-0.4163640245762778,,-1.138956367023505,-0.10883647439644602,0.17062546754000002,-1.8498846814204737,-1.111264652592327,-0.5317924094116029,0.8629467013873973,,0.023856469213197493,0.036593009429626115,0.08941130016,-0.1167695939710949,,-2.1658838e-05,-8.34465e-07,2.9802322e-06,1.0,3.7543476e-05,4.022941e-05,-3.7550926e-05,1.0,3.8444996e-06,-4.022941e-05,-3.784895e-06,1.0,101,0.305,0,0,0.0,False,-0.26327396557936344,1.0373000965615242
0.31764119299987215,14:36:12.171569,14:34:55.049468,0,,0.12000604,0.0020049065,0.017475724,0.93536484,0.15142214,-0.31963134,0.34717694,-0.22052374,0.91150284,0.067535385,-0.9635562,-0.25884047,,0.04826435,-0.044944704,0.03819722,0.14050242,0.7721283,0.6197394,-0.021902084,-0.6233716,0.781619,0.9898381,-0.123392925,-0.07067403,,0.05740431,1.3232858,0.4341474,0.99679244,0.07830992,-0.016504902,0.041267764,-0.67964816,-0.7323765,-0.068569876,0.7293462,-0.6806998,,-0.08021002,0.2800601,-0.050613955,-0.9279978,-0.106120184,0.35715342,0.27067834,-0.8507384,0.45053017,0.25603378,0.5147647,0.8182078,,-7.470461e-05,0.452908,-0.33279508,-0.16945978,-0.74560916,-0.64447683,0.8500466,-0.44148418,0.28724995,-0.49870253,-0.49915802,0.7086163,,1.1667968190350844,0.3238836940121017,0.1990323666,3.626587572564848,0.09277618334073406,-0.6669251564874001,-0.41669071270854646,,-1.138956367023505,-0.1088287516635718,0.17062546754000002,-1.8498846814204737,-1.111264652592327,-0.5317924094116029,0.8629467013873973,,0.023856469213197493,0.036593009429626115,0.08941130016,-0.1167695939710949,,-2.1658838e-05,-8.34465e-07,2.9802322e-06,1.0,3.7543476e-05,4.022941e-05,-3.7550926e-05,1.0,3.8444996e-06,-4.022941e-05,-3.784895e-06,1.0,116,0.351,0,0,0.0,False,-0.2611887454311268,1.0373000965615242
0.3470227469997553,14:36:12.211704,14:34:55.049468,0,,0.11997054,0.0020296574,0.017914176,0.9361846,0.15024973,-0.31777927,0.34471983,-0.21561217,0.9136081,0.06875229,-0.9648503,-0.25364685,,0.048265383,-0.044943467,0.038197875,0.14049542,0.77202815,0.6198658,-0.02191025,-0.623498,0.7815179,0.9898389,-0.12338106,-0.07068333,,0.05740431,1.3232858,0.4341474,0.99679244,0.07830992,-0.016504902,0.041267764,-0.67964816,-0.7323765,-0.068569876,0.7293462,-0.6806998,,-0.080197096,0.28039426,-0.05090084,-0.92894626,-0.10474995,0.3550864,0.2698392,-0.848249,0.45569772,0.25346735,0.5191349,0.81624335,,-7.5798715e-05,0.4529091,-0.3327943,-0.16945252,-0.745505,-0.64459926,0.85004365,-0.4415303,0.2871877,-0.49870998,-0.49927282,0.7085302,,1.1681714654866961,0.3246482445666499,0.19870181265000003,3.627636022282271,0.09031672634495613,-0.6704737885504228,-0.4145672398488008,,-1.138964089756379,-0.10882102893069756,0.17062546754000002,-1.8498846814204737,-1.111264652592327,-0.5316290519313217,0.8629467013873975,,0.023856469213197493,0.036593009429626115,0.08941130016,-0.1167695939710949,,-2.1658838e-05,-8.34465e-07,2.9802322e-06,1.0,3.7543476e-05,4.022941e-05,-3.7550926e-05,1.0,3.8444996e-06,-4.022941e-05,-3.784895e-06,1.0,124,0.376,0,0,0.0,False,-0.2618441003348577,1.0365276133490526
0.3871675380000852,14:36:12.240100,14:34:55.049468,0,,0.11994795,0.002035886,0.018199697,0.9363605,0.14941253,-0.3176555,0.3441425,-0.21220985,0.91462183,0.06924632,-0.9657343,-0.25012416,,0.048265383,-0.044943467,0.038197875,0.14049542,0.77202815,0.6198658,-0.02191025,-0.623498,0.7815179,0.9898389,-0.12338106,-0.07068333,,0.05740431,1.3232858,0.4341474,0.99679244,0.07830992,-0.016504902,0.041267764,-0.67964816,-0.7323765,-0.068569876,0.7293462,-0.6806998,,-0.080189474,0.28060496,-0.051094774,-0.92916346,-0.10377641,0.35480374,0.2697925,-0.846515,0.45893836,0.2527197,0.5221521,0.8145489,,-7.5798715e-05,0.4529091,-0.3327943,-0.16945252,-0.745505,-0.64459926,0.85004365,-0.4415303,0.2871877,-0.49870998,-0.49927282,0.7085302,,1.169020966102861,0.32515794493634875,0.19848144335,3.627636022282271,0.08963354384612894,-0.6731021698974227,-0.4165273686424121,,-1.138964089756379,-0.10882102893069756,0.17062546754000002,-1.8498846814204737,-1.111264652592327,-0.5316290519313217,0.8629467013873975,,0.023856469213197493,0.036593009429626115,0.08941130016,-0.1167695939710949,,-2.1658838e-05,-8.34465e-07,2.9802322e-06,1.0,3.7543476e-05,4.022941e-05,-3.7550926e-05,1.0,3.8444996e-06,-4.022941e-05,-3.784895e-06,1.0,132,0.399,0,0,0.0,False,-0.26095043455704303,1.0369621351560678
0.4155597150001995,14:36:12.262248,14:34:55.049468,0,,0.11993121,0.0020370185,0.018370703,0.9367036,0.15036541,-0.31619084,0.34280795,-0.21023294,0.91557896,0.07119766,-0.9660187,-0.24847245,,0.048265383,-0.044943467,0.038197875,0.14049542,0.7719775,0.61992896,-0.02191025,-0.62356186,0.781467,0.9898389,-0.1233753,-0.0706934,,0.05740431,1.3232858,0.4341474,0.99679244,0.07830992,-0.016504902,0.041267764,-0.67964816,-0.7323765,-0.068569876,0.7293462,-0.6806998,,-0.08018178,0.28072944,-0.051212985,-0.9296449,-0.10465967,0.35327995,0.2702696,-0.8453704,0.4607637,0.25042903,0.52382743,0.8141806,,-7.5798715e-05,0.4529091,-0.3327943,-0.16945252,-0.7454523,-0.6446602,0.85004365,-0.44155374,0.28715163,-0.49870998,-0.4993307,0.7084894,,1.1695847256026792,0.3253587359910786,0.19834662919,3.6274263323387865,0.08717408685035101,-0.6741187610160879,-0.4153839601794722,,-1.138964089756379,-0.10882102893069756,0.17062546754000002,-1.8498846814204737,-1.111264652592327,-0.5315473731911811,0.8627833573212631,,0.023856469213197493,0.036593009429626115,0.08941130016,-0.1167695939710949,,-2.1658838e-05,-8.34465e-07,2.9802322e-06,1.0,3.7543476e-05,4.022941e-05,-3.7550926e-05,1.0,3.8444996e-06,-4.022941e-05,-3.784895e-06,1.0,140,0.424,0,0,0.0,False,-0.2618441003348577,1.0371069757584064
0.4377126370000042,14:36:12.286208,14:34:55.049468,0,,0.119906016,0.002024904,0.018562287,0.9367362,0.15122199,-0.3156854,0.34225476,-0.20658568,0.9166156,0.07339634,-0.96667165,-0.24527279,,0.048265383,-0.044943467,0.038197875,0.14049542,0.7719775,0.61992896,-0.02191025,-0.62356186,0.781467,0.9898389,-0.1233753,-0.0706934,,0.05740431,1.3232858,0.4341474,0.99679244,0.07830992,-0.016504902,0.041267764,-0.67964816,-0.7323765,-0.068569876,0.7293462,-0.6806998,,-0.08016708,0.28085977,-0.051355403,-0.9298085,-0.10538259,0.35263398,0.27147216,-0.8433335,0.4637796,0.24851374,0.5269565,0.81274706,,-7.5798715e-05,0.4529091,-0.3327943,-0.16945252,-0.7454523,-0.6446602,0.85004365,-0.44155374,0.28715163,-0.49870998,-0.4993307,0.7084894,,1.170194821499743,0.32554408158006,0.19818848181,3.626377882621364,0.08498790285410396,-0.676828405264676,-0.4153839601794721,,-1.138964089756379,-0.10882102893069756,0.17062546754000002,-1.8498846814204737,-1.111264652592327,-0.5315473731911811,0.8627833573212631,,0.023856469213197493,0.036593009429626115,0.08941130016,-0.1167695939710949,,-2.1658838e-05,-8.34465e-07,2.9802322e-06,1.0,3.7543476e-05,4.022941e-05,-3.7550926e-05,1.0,3.8444996e-06,-4.022941e-05,-3.784895e-06,1.0,148,0.449,0,0,0.0,False,-0.26112916771260597,1.0370586955576269
0.4616688319997593,14:36:12.308387,14:34:55.201966,0,,0.11988915,0.0020056367,0.018873766,0.93696433,0.1527359,-0.31427634,0.34104973,-0.20399714,0.91764385,0.07604568,-0.9669833,-0.24322861,,0.048264116,-0.04494232,0.038197637,0.14050314,0.7719792,0.61992496,-0.021916002,-0.62355775,0.7814702,0.98983765,-0.123385265,-0.070693135,,0.05740431,1.3232858,0.4341474,0.99679244,0.07830992,-0.016504902,0.041267764,-0.67964816,-0.7323765,-0.068569876,0.7293462,-0.6806998,,-0.08016722,0.28107145,-0.0515853,-0.9302085,-0.10680807,0.35114688,0.27254474,-0.84179616,0.46593842,0.24582809,0.5291231,0.8121559,,-7.4566735e-05,0.45290953,-0.33279318,-0.16946,-0.7454539,-0.64465636,0.8500395,-0.44156057,0.2871535,-0.49871454,-0.49932232,0.7084921,,1.1710752130474047,0.3259611091552681,0.1979305201,3.6255391228474263,0.08211853635902971,-0.6779191363729548,-0.41620068051014353,,-1.138956367023505,-0.10881330619782334,0.17062546754000002,-1.8498846814204737,-1.111264652592327,-0.5315473731911811,0.8627833573212631,,0.023856469213197493,0.036593009429626115,0.08941130016,-0.1167695939710949,,-2.1658838e-05,-8.34465e-07,2.9802322e-06,1.0,3.7543476e-05,4.022941e-05,-3.7550926e-05,1.0,3.8444996e-06,-4.022941e-05,-3.784895e-06,1.0,163,0.495,0,0,0.0,False,-0.2622015666459845,1.0371552559591857
0.4838491669997893,14:36:12.357161,14:34:55.201966,0,,0.11978756,0.0019394159,0.019390076,0.93629307,0.15330935,-0.31599307,0.3425941,-0.2004889,0.91784173,0.077360585,-0.96762604,-0.24023929,,0.048263744,-0.0449425,0.03819889,0.14050314,0.7719792,0.61992496,-0.021916002,-0.62355775,0.7814702,0.98983765,-0.123385265,-0.070693135,,0.05740431,1.3232858,0.4341474,0.99679244,0.07830992,-0.016504902,0.041267764,-0.67964816,-0.7323765,-0.068569876,0.7293462,-0.6806998,,-0.08009488,0.28140008,-0.05199526,-0.92956656,-0.1072526,0.35270786,0.27457556,-0.83984256,0.46826562,0.24599639,0.53212905,0.8101385,,-7.4226875e-05,0.4529105,-0.33279395,-0.16946,-0.7454539,-0.64465636,0.8500395,-0.44156057,0.2871535,-0.49871454,-0.49932232,0.7084921,,1.172635205087998,0.32647080952496693,0.19749107779000002,3.6230228435256118,0.08184526335949882,-0.6797382690690761,-0.41620068051014353,,-1.138956367023505,-0.10881330619782334,0.17062417125,-1.8498846814204737,-1.111264652592327,-0.5315473731911811,0.8627833573212631,,0.023856469213197493,0.036593009429626115,0.08941130016,-0.1167695939710949,,-2.1658838e-05,-8.34465e-07,2.9802322e-06,1.0,3.7543476e-05,4.022941e-05,-3.7550926e-05,1.0,3.8444996e-06,-4.022941e-05,-3.784895e-06,1.0,171,0.519,0,0,0.0,False,-0.2620824112089424,1.0370586955576269
0.5326029910002035,14:36:12.381688,14:34:55.201966,0,,0.11974393,0.0019217134,0.01958111,0.9360718,0.15381466,-0.31640288,0.3430009,-0.19902489,0.91800845,0.07823108,-0.96784806,-0.23906022,,0.048263624,-0.044941306,0.038199067,0.14050353,0.7719806,0.6199232,-0.021922976,-0.62355506,0.7814721,0.9898374,-0.12339009,-0.07068756,,0.05740431,1.3232858,0.4341474,0.99679244,0.07830992,-0.016504902,0.041267764,-0.67964816,-0.7323765,-0.068569876,0.7293462,-0.6806998,,-0.0800619,0.2815265,-0.052142363,-0.92938083,-0.10770611,0.35305905,0.27548948,-0.8389992,0.46923965,0.2456763,0.5333664,0.80942166,,-7.4157935e-05,0.4529113,-0.332793,-0.16946012,-0.7454552,-0.6446548,0.8500359,-0.44156358,0.2871594,-0.49872056,-0.49931768,0.70849115,,1.1732684691836843,0.32664070964819986,0.19733293041000002,3.621974393808189,0.08129871736043706,-0.6804360998162582,-0.4163640245762778,,-1.138956367023505,-0.10880558346494912,0.17062417125,-1.8498846814204737,-1.111264652592327,-0.5315473731911811,0.8627833573212631,,0.023856469213197493,0.036593009429626115,0.08941130016,-0.1167695939710949,,-2.1658838e-05,-8.34465e-07,2.9802322e-06,1.0,3.7543476e-05,4.022941e-05,-3.7550926e-05,1.0,3.8444996e-06,-4.022941e-05,-3.784895e-06,1.0,179,0.543,0,0,0.0,False,-0.2617249448978165,1.0370586955576269
0.5571517690000292,14:36:12.407310,14:34:55.201966,0,,0.119714,0.0018966198,0.019788072,0.93594307,0.1540111,-0.31668806,0.34314382,-0.19675839,0.91844356,0.079139456,-0.9682802,-0.23700264,,0.048263997,-0.044941112,0.038197815,0.14050353,0.7720312,0.6198601,-0.021922976,-0.6234912,0.781523,0.9898374,-0.12339586,-0.07067752,,0.05740431,1.3232858,0.4341474,0.99679244,0.07830992,-0.016504902,0.041267764,-0.67964816,-0.7323765,-0.068569876,0.7293462,-0.6806998,,-0.08004363,0.281659,-0.05230506,-0.9292965,-0.107818685,0.3532466,0.27624625,-0.83774585,0.47103074,0.24514495,0.53531027,0.80829877,,-7.4497795e-05,0.4529103,-0.33279222,-0.16946012,-0.74550784,-0.6445939,0.8500359,-0.44154012,0.28719547,-0.49872056,-0.4992598,0.7085319,,1.1738708423478739,0.32686466890155236,0.19715663497000002,3.6211356340342506,0.08061553486160986,-0.6820026575414306,-0.41603733644400914,,-1.138956367023505,-0.10880558346494912,0.17062546754000002,-1.8498846814204737,-1.111264652592327,-0.5316290519313217,0.8626200132551287,,0.023856469213197493,0.036593009429626115,0.08941130016,-0.1167695939710949,,-2.1658838e-05,-8.34465e-07,2.9802322e-06,1.0,3.7543476e-05,4.022941e-05,-3.7550926e-05,1.0,3.8444996e-06,-4.022941e-05,-3.784895e-06,1.0,187,0.567,0,0,0.0,False,-0.261427056305211,1.0373483767623035
0.5827753749999829,14:36:12.432686,14:34:55.201966,0,,0.11967973,0.0018386543,0.020117223,0.93569607,0.15513355,-0.31687012,0.34322083,-0.19231021,0.9193564,0.08168562,-0.9689945,-0.23318905,,0.048264965,-0.04494247,0.038196504,0.14053617,0.77190346,0.6200118,-0.02200982,-0.62363636,0.7814048,0.98983085,-0.12346196,-0.070654005,,0.05740431,1.3232858,0.4341474,0.99679244,0.07830992,-0.016504902,0.041267764,-0.67964816,-0.7323765,-0.068569876,0.7293462,-0.6806998,,-0.08002838,0.281857,-0.052576043,-0.9291824,-0.10878232,0.35325122,0.27814123,-0.83520395,0.4744174,0.24342857,0.53907406,0.80631363,,-7.537765e-05,0.45290843,-0.3327928,-0.16948949,-0.74537313,-0.644742,0.849987,-0.44166225,0.28715256,-0.498794,-0.49935296,0.70841455,,1.1747512338955355,0.3271735782165214,0.19686367343000002,3.6192484245428904,0.07856598736512826,-0.6851504346542776,-0.41620068051014353,,-1.138956367023505,-0.10880558346494912,0.17062676383000003,-1.8496749914769892,-1.111264652592327,-0.5316290519313217,0.8626200132551287,,0.023856469213197493,0.036593009429626115,0.08941130016,-0.1167695939710949,,-2.1658838e-05,-8.34465e-07,2.9802322e-06,1.0,3.7543476e-05,4.022941e-05,-3.7550926e-05,1.0,3.8444996e-06,-4.022941e-05,-3.784895e-06,1.0,202,0.613,0,0,0.0,False,-0.260652545964438,1.0373000965615242
0.6081138139998075,14:36:12.476408,14:34:55.201966,0,,0.119614795,0.0017543435,0.020474166,0.93526685,0.15699062,-0.31722233,0.34343013,-0.1856919,0.920638,0.08562589,-0.9699857,-0.22758684,,0.04826687,-0.044938102,0.03819388,0.14052993,0.7719072,0.62000847,-0.022031933,-0.62362975,0.78140944,0.98983127,-0.123471364,-0.07063204,,0.05740431,1.3232858,0.4341474,0.99679244,0.07830992,-0.016504902,0.041267764,-0.67964816,-0.7323765,-0.068569876,0.7293462,-0.6806998,,-0.07998469,0.28205743,-0.05288696,-0.92895675,-0.11040656,0.35334092,0.28113705,-0.831374,0.47935292,0.24083474,0.54463536,0.80334985,,-7.735347e-05,0.45290816,-0.33278775,-0.16948245,-0.7453769,-0.6447395,0.84997696,-0.44166747,0.2871742,-0.49881345,-0.4993427,0.70840806,,1.1757860801006816,0.3272971419425089,0.19653441577000003,3.616312765334107,0.07528671137075768,-0.6901542065387762,-0.41391386358426363,,-1.138964089756379,-0.10878241526632644,0.17063065270000002,-1.8496749914769892,-1.111264652592327,-0.5316290519313217,0.8626200132551287,,0.023856469213197493,0.036593009429626115,0.08941130016,-0.1167695939710949,,-2.1658838e-05,-8.34465e-07,2.9802322e-06,1.0,3.7543476e-05,4.022941e-05,-3.7550926e-05,1.0,3.8444996e-06,-4.022941e-05,-3.784895e-06,1.0,210,0.638,0,0,0.0,False,-0.26202283349042155,1.0370586955576269
0.6518713840000601,14:36:12.498786,14:34:55.201966,0,,0.119559206,0.0016486347,0.020794705,0.9346616,0.15667057,-0.31915838,0.34477517,-0.18018907,0.9212285,0.0868205,-0.9710747,-0.22243199,,0.04826712,-0.04493667,0.038192928,0.14053029,0.77190864,0.6200067,-0.022038907,-0.62362707,0.78141135,0.989831,-0.12347621,-0.07062644,,0.05740431,1.3232858,0.4341474,0.99679244,0.07830992,-0.016504902,0.041267764,-0.67964816,-0.7323765,-0.068569876,0.7293462,-0.6806998,,-0.07994897,0.28221658,-0.05318763,-0.9283797,-0.109882206,0.35501686,0.28294182,-0.82834405,0.48351842,0.24094602,0.5493378,0.8001081,,-7.762438e-05,0.45290795,-0.332786,-0.16948257,-0.7453782,-0.6447379,0.8499734,-0.44167048,0.28718007,-0.49881947,-0.49933806,0.7084071,,1.176558353388104,0.327436151134245,0.19622200988000002,3.614215865899262,0.07501343837122681,-0.6949954526200983,-0.41456723984880084,,-1.138964089756379,-0.10877469253345222,0.17063194899,-1.8496749914769892,-1.111264652592327,-0.5316290519313217,0.8626200132551287,,0.023856469213197493,0.036593009429626115,0.08941130016,-0.1167695939710949,,-2.1658838e-05,-8.34465e-07,2.9802322e-06,1.0,3.7543476e-05,4.022941e-05,-3.7550926e-05,1.0,3.8444996e-06,-4.022941e-05,-3.784895e-06,1.0,218,0.662,0,0,0.0,False,-0.26297607698675796,1.0371552559591857
0.6741627329997755,14:36:12.524493,14:34:55.201966,0,,0.119559065,0.0015906394,0.02100584,0.9351268,0.15815598,-0.31705642,0.3427942,-0.17752373,0.9224844,0.08961134,-0.9713248,-0.2202222,,0.048267677,-0.044937626,0.038188696,0.14057028,0.77178115,0.6201562,-0.0221245,-0.6237707,0.7812943,0.9898235,-0.12354739,-0.07060832,,0.05740431,1.3232858,0.4341474,0.99679244,0.07830992,-0.016504902,0.041267764,-0.67964816,-0.7323765,-0.068569876,0.7293462,-0.6806998,,-0.07996153,0.28232875,-0.053375233,-0.9290446,-0.111280434,0.3528354,0.2835747,-0.82670856,0.48594064,0.23761636,0.5515157,0.7996054,,-7.802053e-05,0.4529038,-0.3327848,-0.16951929,-0.74524367,-0.64488375,0.84992385,-0.4417964,0.28713313,-0.49889147,-0.49942747,0.7082934,,1.1770294400934318,0.32755199212735836,0.19601849235000002,3.6140061759557773,0.07146088937732537,-0.6965909178317222,-0.4170174008408149,,-1.138956367023505,-0.10877469253345222,0.17063583786000003,-1.849465301533505,-1.111264652592327,-0.5316290519313217,0.8626200132551287,,0.023856469213197493,0.036593009429626115,0.08941130016,-0.1167695939710949,,-2.1658838e-05,-8.34465e-07,2.9802322e-06,1.0,3.7543476e-05,4.022941e-05,-3.7550926e-05,1.0,3.8444996e-06,-4.022941e-05,-3.784895e-06,1.0,226,0.686,0,0,0.0,False,-0.26196325577190027,1.0374449371638625
0.6999547219998021,14:36:12.549555,14:34:55.415835,0,,0.119550146,0.0015023947,0.021324426,0.9348218,0.16298649,-0.3155056,0.34171128,-0.17104161,0.92410934,0.096652746,-0.9716892,-0.2155878,,0.048269078,-0.044936135,0.03818804,0.1405633,0.7717823,0.6201566,-0.022132695,-0.6237695,0.78129506,0.9898243,-0.12354715,-0.07059744,,0.05740431,1.3232858,0.4341474,0.99679244,0.07830992,-0.016504902,0.041267764,-0.67964816,-0.7323765,-0.068569876,0.7293462,-0.6806998,,-0.07997184,0.28249764,-0.05365936,-0.9291414,-0.115909666,0.35108578,0.2879107,-0.8225792,0.49037832,0.23195627,0.55671215,0.797664,,-7.945456e-05,0.45290393,-0.33278325,-0.16951203,-0.7452448,-0.6448844,0.8499209,-0.44179562,0.287143,-0.49889892,-0.49942654,0.7082888,,1.1778094361137283,0.32765238765472326,0.19571127162000002,3.6102317569730555,0.06503897388834966,-0.7006656527340146,-0.41571064831174065,,-1.138964089756379,-0.108766969800578,0.17063713415,-1.849465301533505,-1.111264652592327,-0.5316290519313217,0.8626200132551287,,0.023856469213197493,0.036593009429626115,0.08941130016,-0.1167695939710949,,-2.1658838e-05,-8.34465e-07,2.9802322e-06,1.0,3.7543476e-05,4.022941e-05,-3.7550926e-05,1.0,3.8444996e-06,-4.022941e-05,-3.784895e-06,1.0,234,0.711,0,0,0.0,False,-0.26285692154971585,1.036431052947494
0.7249867470000027,14:36:12.580757,14:34:55.415835,0,,0.11951998,0.0014322698,0.021672636,0.93530935,0.16455075,-0.3132405,0.33926165,-0.16563529,0.9259949,0.10048942,-0.972362,-0.21074608,,0.048270125,-0.04493104,0.03818816,0.1405574,0.77178746,0.6201514,-0.022161812,-0.6237602,0.7813016,0.9898245,-0.12356137,-0.07056987,,0.05740431,1.3232858,0.4341474,0.99679244,0.07830992,-0.016504902,0.041267764,-0.67964816,-0.7323765,-0.068569876,0.7293462,-0.6806998,,-0.07996201,0.2827009,-0.053952064,-0.9298965,-0.1172909,0.34861922,0.28897315,-0.81935275,0.49513188,0.22756767,0.561163,0.7958072,,-8.068175e-05,0.45290637,-0.33277884,-0.16950513,-0.74524987,-0.6448803,0.84990734,-0.44180384,0.28717053,-0.4989244,-0.49941164,0.70828134,,1.178759332257258,0.3278609014423273,0.19539497686,3.6096026871426026,0.06025669639655924,-0.7044438276778526,-0.4163640245762778,,-1.1389718124892534,-0.1087360788690811,0.17063843044000002,-1.849465301533505,-1.111264652592327,-0.5316290519313217,0.8626200132551287,,0.023856469213197493,0.036593009429626115,0.08941130016,-0.1167695939710949,,-2.1658838e-05,-8.34465e-07,2.9802322e-06,1.0,3.7543476e-05,4.022941e-05,-3.7550926e-05,1.0,3.8444996e-06,-4.022941e-05,-3.784895e-06,1.0,249,0.757,0,0,0.0,False,-0.26273776611267374,1.0372518163607447
0.7562015130001782,14:36:12.617198,14:34:55.415835,0,,0.119472325,0.0013753176,0.022069693,0.934817,0.16738346,-0.31320933,0.33962485,-0.16361162,0.92622143,0.10378942,-0.97222114,-0.20979461,,0.048270024,-0.044926018,0.038187742,0.14055888,0.77174234,0.6202072,-0.022189736,-0.62381333,0.7812584,0.98982364,-0.123575,-0.07055777,,0.05740431,1.3232858,0.4341474,0.99679244,0.07830992,-0.016504902,0.041267764,-0.67964816,-0.7323765,-0.068569876,0.7293462,-0.6806998,,-0.07993695,0.28294885,-0.05426996,-0.9295698,-0.12007192,0.34854382,0.29161486,-0.8179059,0.49597448,0.22552344,0.56268346,0.7953153,,-8.0745755e-05,0.45290846,-0.33277425,-0.1695056,-0.74520254,-0.6449349,0.8498931,-0.44183937,0.28715795,-0.49894845,-0.49945086,0.70823675,,1.1799022967226434,0.3282547608189128,0.19505146001,3.606876717877303,0.057797239400781304,-0.7043985951746905,-0.41701740084081484,,-1.1389718124892534,-0.1087051879375842,0.17063972673000002,-1.849465301533505,-1.111264652592327,-0.5315473731911812,0.8624566691889946,,0.023856469213197493,0.036593009429626115,0.08941130016,-0.1167695939710949,,-2.1658838e-05,-8.34465e-07,2.9802322e-06,1.0,3.7543476e-05,4.022941e-05,-3.7550926e-05,1.0,3.8444996e-06,-4.022941e-05,-3.784895e-06,1.0,257,0.781,0,0,0.0,False,-0.26255903295711036,1.0370586955576269
0.7926587030001429,14:36:12.643524,14:34:55.415835,0,,0.11940923,0.0013548732,0.022513062,0.9337973,0.1733373,-0.31301278,0.3405466,-0.16216025,0.9261383,0.109776065,-0.97142065,-0.21045429,,0.048270095,-0.04492396,0.038187027,0.1407191,0.77162737,0.62031394,-0.022248656,-0.62392557,0.78116715,0.9897996,-0.12372628,-0.07063058,,0.05740431,1.3232858,0.4341474,0.99679244,0.07830992,-0.016504902,0.041267764,-0.67964816,-0.7323765,-0.068569876,0.7293462,-0.6806998,,-0.07989796,0.2832558,-0.05459439,-0.9288436,-0.12601875,0.34838024,0.29659173,-0.8164407,0.49543715,0.22199742,0.5635103,0.7957218,,-8.086735e-05,0.4529088,-0.3327721,-0.16966285,-0.74507916,-0.6450361,0.8498367,-0.44202083,0.28704563,-0.4989911,-0.49947435,0.70819014,,1.1813850614344943,0.3287335702571147,0.19469498026,3.6018441592336745,0.053561507908052655,-0.7024965362227722,-0.41620068051014353,,-1.1389718124892534,-0.10868201973896152,0.17063972673000002,-1.8492556115900203,-1.1111280160925618,-0.531577112354737,0.8622933251228604,,0.023856469213197493,0.036593009429626115,0.08941130016,-0.1167695939710949,,-2.1658838e-05,-8.34465e-07,2.9802322e-06,1.0,3.7543476e-05,4.022941e-05,-3.7550926e-05,1.0,3.8444996e-06,-4.022941e-05,-3.784895e-06,1.0,265,0.805,0,0,0.0,False,-0.2632143878608417,1.0371069757584064
0.8189814050001587,14:36:12.669790,14:34:55.415835,0,,0.11933074,0.0013868213,0.022976622,0.9333686,0.17737947,-0.31202534,0.3398416,-0.1570982,0.92726904,0.11545983,-0.9715228,-0.2069115,,0.048272762,-0.04492365,0.03818667,0.1407044,0.771576,0.6203811,-0.0222511,-0.6239922,0.78111374,0.9898016,-0.12371026,-0.070629984,,0.05740431,1.3232858,0.4341474,0.99679244,0.07830992,-0.016504902,0.041267764,-0.67964816,-0.7323765,-0.068569876,0.7293462,-0.6806998,,-0.07984326,0.28361386,-0.05489584,-0.928735,-0.12991291,0.34723756,0.30021238,-0.8130896,0.49875626,0.21754038,0.56745744,0.79414624,,-8.353356e-05,0.45290852,-0.3327717,-0.16964811,-0.745026,-0.64510137,0.84983796,-0.44203666,0.28701755,-0.498994,-0.4995396,0.70814204,,1.1831535672626918,0.32932822068843,0.19435664857,3.5982794301944376,0.04850595741673135,-0.7043366218162657,-0.4150572720472035,,-1.1389872579550018,-0.10868201973896152,0.17064102302,-1.8492556115900203,-1.1111280160925618,-0.5314954336145964,0.8624566691889948,,0.023856469213197493,0.036593009429626115,0.08941130016,-0.1167695939710949,,-2.1658838e-05,-8.34465e-07,2.9802322e-06,1.0,3.7543476e-05,4.022941e-05,-3.7550926e-05,1.0,3.8444996e-06,-4.022941e-05,-3.784895e-06,1.0,273,0.829,0,0,0.0,False,-0.26255903295711036,1.0370104153568473
0.8452455910000936,14:36:12.699922,14:34:55.576923,0,,0.119311444,0.0014253855,0.023295164,0.9326799,0.18335097,-0.31062973,0.33907223,-0.1519086,0.9284147,0.12303838,-0.97123945,-0.2038514,,0.048273016,-0.044922233,0.038185656,0.14070475,0.7715775,0.62037927,-0.022258073,-0.6239896,0.7811157,0.98980135,-0.12371512,-0.07062444,,0.05740431,1.3232858,0.4341474,0.99679244,0.07830992,-0.016504902,0.041267764,-0.67964816,-0.7323765,-0.068569876,0.7293462,-0.6806998,,-0.079839796,0.28387073,-0.05508903,-0.92846876,-0.13574998,0.3457133,0.30516046,-0.80941004,0.5017295,0.21171404,0.5713382,0.79293746,,-8.380447e-05,0.4529083,-0.33276996,-0.16964823,-0.74502736,-0.64509976,0.8498344,-0.44203967,0.28702343,-0.499,-0.49953496,0.7081411,,1.1843505908581966,0.3297915846608835,0.19413109411,3.5936662514377784,0.04208404192775565,-0.7062060307347627,-0.41783412117148633,,-1.1389872579550018,-0.1086742970060873,0.17064231931,-1.8492556115900203,-1.1111280160925618,-0.5314954336145964,0.8624566691889948,,0.023856469213197493,0.036593009429626115,0.08941130016,-0.1167695939710949,,-2.1658838e-05,-8.34465e-07,2.9802322e-06,1.0,3.7543476e-05,4.022941e-05,-3.7550926e-05,1.0,3.8444996e-06,-4.022941e-05,-3.784895e-06,1.0,281,0.854,0,0,0.0,False,-0.2626186106756321,1.0375897777662009
0.8753774769998017,14:36:12.724164,14:34:55.576923,0,,0.11927194,0.0014980286,0.023797601,0.93244576,0.18888232,-0.30800754,0.3362372,-0.14160126,0.9310713,0.13224863,-0.9717368,-0.19554481,,0.0482729,-0.044921026,0.038185835,0.14070512,0.77162945,0.6203145,-0.022265047,-0.62392306,0.78116864,0.9898011,-0.12372573,-0.070608795,,0.05740431,1.3232858,0.4341474,0.99679244,0.07830992,-0.016504902,0.041267764,-0.67964816,-0.7323765,-0.068569876,0.7293462,-0.6806998,,-0.079824984,0.28428423,-0.05538578,-0.92879784,-0.14096938,0.34272766,0.30984682,-0.8027423,0.5095094,0.20329677,0.57942426,0.7892642,,-8.37355e-05,0.45290905,-0.332769,-0.16964835,-0.74508137,-0.64503735,0.8498308,-0.44201925,0.28706542,-0.499006,-0.49947247,0.70818096,,1.1862812740767528,0.33057158068118014,0.19378498468000002,3.589472452568088,0.03306603294323659,-0.7123294412139917,-0.41767077710535205,,-1.1389872579550018,-0.10866657427321308,0.17064231931,-1.8492556115900203,-1.1111280160925618,-0.5315771123547369,0.8626200132551289,,0.023856469213197493,0.036593009429626115,0.08941130016,-0.1167695939710949,,-2.1658838e-05,-8.34465e-07,2.9802322e-06,1.0,3.7543476e-05,4.022941e-05,-3.7550926e-05,1.0,3.8444996e-06,-4.022941e-05,-3.784895e-06,1.0,292,0.888,0,0,0.0,False,-0.26297607698675796,1.0373483767623035
0.8995990509997682,14:36:12.754308,14:34:55.576923,0,,0.11919417,0.0015798956,0.02427417,0.9318863,0.19351067,-0.30682495,0.33514118,-0.13561696,0.9323564,0.1388102,-0.9716797,-0.19123307,,0.0482752,-0.04492098,0.03818667,0.14069039,0.7715781,0.62038165,-0.02226749,-0.6239897,0.7811153,0.9898032,-0.12370972,-0.07060823,,0.05740431,1.3232858,0.4341474,0.99679244,0.07830992,-0.016504902,0.041267764,-0.67964816,-0.7323765,-0.068569876,0.7293462,-0.6806998,,-0.07977036,0.28468624,-0.055660155,-0.9286157,-0.14543243,0.34135363,0.31383264,-0.79864943,0.51348627,0.19794433,0.5839593,0.78727984,,-8.606185e-05,0.45290974,-0.3327694,-0.1696336,-0.7450282,-0.6451026,0.84983206,-0.44203508,0.2870373,-0.4990089,-0.49953774,0.70813286,,1.188258293692554,0.3313206857699799,0.19346998621000003,3.585488343641882,0.02719066345332265,-0.714562843007134,-0.41669071270854635,,-1.1390027034207502,-0.10866657427321308,0.17064231931,-1.8492556115900203,-1.1111280160925618,-0.5314954336145964,0.8624566691889948,,0.023856469213197493,0.036593009429626115,0.08941130016,-0.1167695939710949,,-2.1658838e-05,-8.34465e-07,2.9802322e-06,1.0,3.7543476e-05,4.022941e-05,-3.7550926e-05,1.0,3.8444996e-06,-4.022941e-05,-3.784895e-06,1.0,300,0.912,0,0,0.0,False,-0.26232072208302704,1.036865574754509
0.9297728149999784,14:36:12.776871,14:34:55.576923,0,,0.11910073,0.0016338527,0.024600789,0.9307512,0.19527514,-0.30914396,0.33734137,-0.13237649,0.9320286,0.1410786,-0.9717736,-0.18908402,,0.04827623,-0.04491973,0.038187325,0.14068337,0.7715792,0.620382,-0.022275686,-0.62398845,0.78111607,0.98980397,-0.12370944,-0.07059735,,0.05740431,1.3232858,0.4341474,0.99679244,0.07830992,-0.016504902,0.041267764,-0.67964816,-0.7323765,-0.068569876,0.7293462,-0.6806998,,-0.0796929,0.28496104,-0.055852007,-0.9275435,-0.1471021,0.34354618,0.3170144,-0.7965086,0.5148552,0.1979012,0.5864597,0.7854299,,-8.715605e-05,0.45291084,-0.33276862,-0.16962634,-0.74502933,-0.6451033,0.84982914,-0.44203427,0.2870472,-0.49901634,-0.49953678,0.7081283,,1.1896947220071599,0.33183810887255294,0.19325739465000003,3.5817139246591605,0.026780753954026328,-0.7156988066185748,-0.4160373364440092,,-1.1390104261536245,-0.10865885154033886,0.17064231931,-1.8492556115900203,-1.1111280160925618,-0.5314954336145964,0.8624566691889948,,0.023856469213197493,0.036593009429626115,0.08941130016,-0.1167695939710949,,-2.1658838e-05,-8.34465e-07,2.9802322e-06,1.0,3.7543476e-05,4.022941e-05,-3.7550926e-05,1.0,3.8444996e-06,-4.022941e-05,-3.784895e-06,1.0,308,0.936,0,0,0.0,False,-0.2630356547052788,1.0373483767623035
0.9523305819998313,14:36:12.798312,14:34:55.576923,0,,0.119026,0.0016934425,0.02491507,0.93026346,0.19678503,-0.3096543,0.33764282,-0.12894827,0.9324,0.14355293,-0.97192997,-0.18639901,,0.048273932,-0.044919774,0.03818649,0.14069812,0.77157986,0.62037784,-0.022273213,-0.62398565,0.7811184,0.989802,-0.12371966,-0.07060799,,0.05740431,1.3232858,0.4341474,0.99679244,0.07830992,-0.016504902,0.041267764,-0.67964816,-0.7323765,-0.068569876,0.7293462,-0.6806998,,-0.079633325,0.2852305,-0.05603022,-0.92717934,-0.1485093,0.3439236,0.31901762,-0.79427797,0.51705927,0.19638284,0.5891244,0.7838152,,-8.48297e-05,0.45291016,-0.33276823,-0.16964109,-0.7450298,-0.64509887,0.8498279,-0.4420419,0.2870392,-0.49901345,-0.49952936,0.70813555,,1.1917489689517036,0.3326103821599754,0.19295406279000002,3.578149195619923,0.023364841459890314,-0.7189575857965658,-0.4163640245762778,,-1.138994980687876,-0.10865885154033886,0.17064231931,-1.8492556115900203,-1.1111280160925618,-0.5314954336145964,0.8626200132551289,,0.023856469213197493,0.036593009429626115,0.08941130016,-0.1167695939710949,,-2.1658838e-05,-8.34465e-07,2.9802322e-06,1.0,3.7543476e-05,4.022941e-05,-3.7550926e-05,1.0,3.8444996e-06,-4.022941e-05,-3.784895e-06,1.0,316,0.961,0,0,0.0,False,-0.26381016504605226,1.0375414975654216
0.9737027529999978,14:36:12.826933,14:34:55.576923,0,,0.11896496,0.0017922819,0.025397748,0.92985135,0.20119105,-0.30805647,0.33525348,-0.11832163,0.9346685,0.15159716,-0.97237957,-0.17747152,,0.0482752,-0.04492098,0.03818667,0.14069039,0.7715274,0.62044466,-0.02226749,-0.6240535,0.78106433,0.9898032,-0.12370397,-0.07061833,,0.05740431,1.3232858,0.4341474,0.99679244,0.07830992,-0.016504902,0.041267764,-0.67964816,-0.7323765,-0.068569876,0.7293462,-0.6806998,,-0.07959526,0.28564832,-0.05629563,-0.92725724,-0.15259935,0.34191737,0.32317483,-0.7873326,0.5250385,0.18908216,0.5973448,0.7793761,,-8.606185e-05,0.45290974,-0.3327694,-0.1696336,-0.7449755,-0.6451635,0.84983206,-0.4420585,0.28700122,-0.4990089,-0.49959555,0.7080921,,1.1931004472046929,0.3331509734611711,0.19274795268000003,3.5754232263546246,0.017216198970445497,-0.7237452289470944,-0.41636402457627786,,-1.1390027034207502,-0.10866657427321308,0.17064231931,-1.8492556115900203,-1.1111280160925618,-0.531413754874456,0.8626200132551289,,0.023856469213197493,0.036593009429626115,0.08941130016,-0.1167695939710949,,-2.1658838e-05,-8.34465e-07,2.9802322e-06,1.0,3.7543476e-05,4.022941e-05,-3.7550926e-05,1.0,3.8444996e-06,-4.022941e-05,-3.784895e-06,1.0,324,0.985,0,0,0.0,False,-0.2631548101423209,1.0367207341521705
1.0023977299997568,14:36:12.851295,14:34:55.576923,0,,0.118916996,0.0019074231,0.025865242,0.93030274,0.20532483,-0.30393878,0.32979536,-0.10556355,0.9381319,0.16053683,-0.97298396,-0.16592136,,0.0482775,-0.044920877,0.038187504,0.14067565,0.77147603,0.62051195,-0.022269934,-0.6241202,0.781011,0.9898052,-0.12368794,-0.070617765,,0.05740431,1.3232858,0.4341474,0.99679244,0.07830992,-0.016504902,0.041267764,-0.67964816,-0.7323765,-0.068569876,0.7293462,-0.6806998,,-0.07956902,0.2860662,-0.05653809,-0.9283265,-0.15635239,0.33728904,0.32583672,-0.7790182,0.5356874,0.1789983,0.60719395,0.7741286,,-8.83882e-05,0.4529104,-0.33276975,-0.16961886,-0.74492234,-0.64522874,0.8498333,-0.44207433,0.28697312,-0.49901175,-0.49966082,0.708044,,1.1951469714163625,0.3338923558170967,0.19246147259000002,3.5733263269197795,0.006695188488506582,-0.7324819432722691,-0.41636402457627775,,-1.1390181488864988,-0.10866657427321308,0.17064231931,-1.8492556115900203,-1.1111280160925618,-0.5313320761343153,0.8627833573212631,,0.023856469213197493,0.036593009429626115,0.08941130016,-0.1167695939710949,,-2.1658838e-05,-8.34465e-07,2.9802322e-06,1.0,3.7543476e-05,4.022941e-05,-3.7550926e-05,1.0,3.8444996e-06,-4.022941e-05,-3.784895e-06,1.0,332,1.01,0,0,0.0,False,-0.2620824112089424,1.0375414975654216
1.0267480500001511,14:36:12.873820,14:34:55.754020,0,,0.118855596,0.0019647777,0.026144877,0.93003994,0.20776574,-0.30308285,0.32893598,-0.10308182,0.9387094,0.16378929,-0.97273195,-0.1642119,,0.04827787,-0.044920653,0.038186252,0.14067565,0.7715268,0.6204488,-0.022269934,-0.62405634,0.781062,0.9898052,-0.123693734,-0.07060769,,0.05740431,1.3232858,0.4341474,0.99679244,0.07830992,-0.016504902,0.041267764,-0.67964816,-0.7323765,-0.068569876,0.7293462,-0.6806998,,-0.07952097,0.28630885,-0.056693256,-0.92825913,-0.1587359,0.33635968,0.32759327,-0.77716637,0.53730357,0.17611806,0.60894614,0.7734126,,-8.872812e-05,0.4529094,-0.33276898,-0.16961886,-0.7449751,-0.6451679,0.8498333,-0.4420509,0.28700924,-0.49901175,-0.499603,0.7080848,,1.196405776874861,0.334317106125179,0.19228647344000002,3.571439117428419,0.0035525489939014516,-0.7327780873921712,-0.4158739923778749,,-1.1390181488864988,-0.10866657427321308,0.17064361560000002,-1.8492556115900203,-1.1111280160925618,-0.5314137548744559,0.8629467013873973,,0.023856469213197493,0.036593009429626115,0.08941130016,-0.1167695939710949,,-2.1658838e-05,-8.34465e-07,2.9802322e-06,1.0,3.7543476e-05,4.022941e-05,-3.7550926e-05,1.0,3.8444996e-06,-4.022941e-05,-3.784895e-06,1.0,340,1.034,0,0,0.0,False,-0.2623802998015474,1.0378311787700982
1.0492381310000383,14:36:12.900364,14:34:55.754020,0,,0.118767716,0.0020088255,0.026428849,0.9301035,0.20699719,-0.3034137,0.32886034,-0.10142174,0.9389167,0.16358031,-0.97307026,-0.16240591,,0.04827787,-0.044920653,0.038186252,0.14067565,0.7715268,0.6204488,-0.022269934,-0.62405634,0.781062,0.9898052,-0.123693734,-0.07060769,,0.05740431,1.3232858,0.4341474,0.99679244,0.07830992,-0.016504902,0.041267764,-0.67964816,-0.7323765,-0.068569876,0.7293462,-0.6806998,,-0.07944708,0.28654593,-0.056862485,-0.92831355,-0.15790637,0.3366,0.32738894,-0.77624613,0.5387564,0.17621137,0.610334,0.77229655,,-8.872812e-05,0.4529094,-0.33276898,-0.16961886,-0.7449751,-0.6451679,0.8498333,-0.4420509,0.28700924,-0.49901175,-0.499603,0.7080848,,1.197680027799108,0.3347495791661356,0.19210240026000003,3.5712294274849343,0.0035525489939014516,-0.733349838573155,-0.4166907127085465,,-1.1390181488864988,-0.10866657427321308,0.17064361560000002,-1.8492556115900203,-1.1111280160925618,-0.5314137548744559,0.8629467013873973,,0.023856469213197493,0.036593009429626115,0.08941130016,-0.1167695939710949,,-2.1658838e-05,-8.34465e-07,2.9802322e-06,1.0,3.7543476e-05,4.022941e-05,-3.7550926e-05,1.0,3.8444996e-06,-4.022941e-05,-3.784895e-06,1.0,348,1.059,0,0,0.0,False,-0.2631548101423209,1.038024299573216
1.0758160760001374,14:36:12.921797,14:34:55.754020,0,,0.118697785,0.002053231,0.026692986,0.9295022,0.20844425,-0.30426458,0.32958013,-0.09916183,0.9389057,0.16553804,-0.97299427,-0.16087031,,0.04827787,-0.044920653,0.038186252,0.14067565,0.7715268,0.6204488,-0.022269934,-0.62405634,0.781062,0.9898052,-0.123693734,-0.07060769,,0.05740431,1.3232858,0.4341474,0.99679244,0.07830992,-0.016504902,0.041267764,-0.67964816,-0.7323765,-0.068569876,0.7293462,-0.6806998,,-0.07939004,0.2867686,-0.057016768,-0.9277975,-0.15929443,0.33736792,0.3293113,-0.77465534,0.5398733,0.17534503,0.6119922,0.7711807,,-8.872812e-05,0.4529094,-0.33276898,-0.16961886,-0.7449751,-0.6451679,0.8498333,-0.4420509,0.28700924,-0.49901175,-0.499603,0.7080848,,1.1994717018259282,0.33535967506319936,0.19183536452000002,3.567874388389182,0.0005465459990617618,-0.7340841155573157,-0.4162006805101436,,-1.1390181488864988,-0.10866657427321308,0.17064361560000002,-1.8492556115900203,-1.1111280160925618,-0.531413754874456,0.8626200132551289,,0.023856469213197493,0.036593009429626115,0.08941130016,-0.1167695939710949,,-2.1658838e-05,-8.34465e-07,2.9802322e-06,1.0,3.7543476e-05,4.022941e-05,-3.7550926e-05,1.0,3.8444996e-06,-4.022941e-05,-3.784895e-06,1.0,356,1.083,0,0,0.0,False,-0.2631548101423209,1.0382174203763337
1.0972575219998362,14:36:12.949888,14:34:55.754020,0,,0.11862793,0.0021260083,0.02710557,0.92928034,0.21316582,-0.30165944,0.32651868,-0.09224138,0.9406791,0.17269509,-0.97265184,-0.1553208,,0.04827775,-0.044919446,0.03818649,0.14067602,0.7715282,0.6204471,-0.022276878,-0.6240537,0.7810639,0.989805,-0.12369858,-0.07060212,,0.05740431,1.3232858,0.4341474,0.99679244,0.07830992,-0.016504902,0.041267764,-0.67964816,-0.7323765,-0.068569876,0.7293462,-0.6806998,,-0.07934018,0.28711796,-0.057253063,-0.92803645,-0.16384053,0.33452144,0.3323595,-0.7697105,0.5450532,0.16818286,0.6170106,0.7687734,,-8.8659144e-05,0.45291018,-0.33276802,-0.16961898,-0.7449764,-0.64516634,0.8498298,-0.4420539,0.2870151,-0.49901778,-0.49959832,0.70808387,,1.200668725421433,0.335691752576791,0.19166684682000001,3.5659871788978212,-0.005192186991086737,-0.7370823651752788,-0.416527368642412,,-1.1390181488864988,-0.10865885154033886,0.17064361560000002,-1.8492556115900203,-1.1111280160925618,-0.5314137548744559,0.8629467013873973,,0.023856469213197493,0.036593009429626115,0.08941130016,-0.1167695939710949,,-2.1658838e-05,-8.34465e-07,2.9802322e-06,1.0,3.7543476e-05,4.022941e-05,-3.7550926e-05,1.0,3.8444996e-06,-4.022941e-05,-3.784895e-06,1.0,364,1.109,0,0,0.0,False,-0.26136747858668974,1.0377828985693187
1.1253451110001151,14:36:12.972176,14:34:55.754020,0,,0.11858766,0.0022242218,0.027505964,0.92909837,0.22037904,-0.29700097,0.32107598,-0.082105696,0.9434876,0.18353938,-0.9719525,-0.14704275,,0.048276603,-0.04491949,0.038186133,0.14068337,0.77152854,0.620445,-0.022275686,-0.6240523,0.7810651,0.98980397,-0.12370367,-0.07060745,,0.05740431,1.3232858,0.4341474,0.99679244,0.07830992,-0.016504902,0.041267764,-0.67964816,-0.7323765,-0.068569876,0.7293462,-0.6806998,,-0.07931851,0.2874756,-0.057460964,-0.92857367,-0.17080674,0.32950875,0.33641848,-0.76233125,0.5528776,0.15675959,0.62424046,0.76534325,,-8.749596e-05,0.45290986,-0.33276784,-0.16962634,-0.74497664,-0.64516413,0.84982914,-0.44205773,0.2870111,-0.49901634,-0.49959463,0.7080875,,1.202499013112624,0.3361937302136156,0.19142573688000003,3.5624224498585844,-0.017216198970445497,-0.742551514056279,-0.4160373364440092,,-1.1390104261536245,-0.10865885154033886,0.17064361560000002,-1.8492556115900203,-1.1111280160925618,-0.5314137548744559,0.8629467013873973,,0.023856469213197493,0.036593009429626115,0.08941130016,-0.1167695939710949,,-2.1658838e-05,-8.34465e-07,2.9802322e-06,1.0,3.7543476e-05,4.022941e-05,-3.7550926e-05,1.0,3.8444996e-06,-4.022941e-05,-3.784895e-06,1.0,372,1.134,0,0,0.0,False,-0.26202283349042155,1.038024299573216
1.1476210830001037,14:36:12.998375,14:34:55.754020,0,,0.11852326,0.00227876,0.027763069,0.92892414,0.22161317,-0.29662716,0.31988373,-0.07685682,0.94433445,0.18647903,-0.9721011,-0.14228469,,0.048276603,-0.04491949,0.038186133,0.14068337,0.7714778,0.62050796,-0.022275686,-0.62411606,0.78101414,0.98980397,-0.12369794,-0.07061756,,0.05740431,1.3232858,0.4341474,0.99679244,0.07830992,-0.016504902,0.041267764,-0.67964816,-0.7323765,-0.068569876,0.7293462,-0.6806998,,-0.079266354,0.2877001,-0.05760275,-0.92858714,-0.17189032,0.32890671,0.33771724,-0.75882924,0.55688894,0.15386021,0.6281974,0.7626894,,-8.749596e-05,0.45290986,-0.33276784,-0.16962634,-0.74492395,-0.6452249,0.84982914,-0.44208115,0.286975,-0.49901634,-0.49965245,0.7080467,,1.2037114821738775,0.3365489759258299,0.19126888579,3.560954620254193,-0.020358838465050627,-0.7459514503015221,-0.416527368642412,,-1.1390104261536245,-0.10865885154033886,0.17064361560000002,-1.8492556115900203,-1.1111280160925618,-0.5313320761343152,0.8634367335858002,,0.023856469213197493,0.036593009429626115,0.08941130016,-0.1167695939710949,,-2.1658838e-05,-8.34465e-07,2.9802322e-06,1.0,3.7543476e-05,4.022941e-05,-3.7550926e-05,1.0,3.8444996e-06,-4.022941e-05,-3.784895e-06,1.0,397,1.21,0,0,0.0,False,-0.26190367805337944,1.0379277391716573
1.1738196450000942,14:36:13.072563,14:34:55.914707,0,,0.11819654,0.0025444627,0.028706253,0.92647773,0.22538291,-0.30139965,0.32385054,-0.06945026,0.94355583,0.19172904,-0.9717916,-0.13733453,,0.04827787,-0.044920653,0.038186252,0.14067565,0.7715268,0.6204488,-0.022269934,-0.62405634,0.781062,0.9898052,-0.123693734,-0.07060769,,0.05740431,1.3232858,0.4341474,0.99679244,0.07830992,-0.016504902,0.041267764,-0.67964816,-0.7323765,-0.068569876,0.7293462,-0.6806998,,-0.078982964,0.28857085,-0.05808067,-0.9263164,-0.17547154,0.3333883,0.34429863,-0.7535529,0.5600147,0.15295908,0.6335359,0.758443,,-8.872812e-05,0.4529094,-0.33276898,-0.16961886,-0.7449751,-0.6451679,0.8498333,-0.4420509,0.28700924,-0.49901175,-0.499603,0.7080848,,1.2085227447545193,0.33816302709654283,0.19074388834000003,3.5523573325713276,-0.021998476462235912,-0.7468197614409603,-0.4166907127085463,,-1.1390181488864988,-0.10866657427321308,0.17064361560000002,-1.8492556115900203,-1.1111280160925618,-0.5314137548744559,0.8636000776519346,,0.023856469213197493,0.036593009429626115,0.08941130016,-0.1167695939710949,,-2.1658838e-05,-8.34465e-07,2.9802322e-06,1.0,3.7543476e-05,4.022941e-05,-3.7550926e-05,1.0,3.8444996e-06,-4.022941e-05,-3.784895e-06,1.0,405,1.235,0,0,0.0,False,-0.262797343831195,1.0382174203763337
1.247966303999874,14:36:13.103038,14:34:55.914707,0,,0.1182015,0.0026051998,0.029011577,0.9258436,0.22690025,-0.30220854,0.32412356,-0.06558809,0.9437383,0.1943132,-0.97170687,-0.1342681,,0.04827331,-0.044938672,0.038185596,0.1407244,0.77156687,0.62038785,-0.02221179,-0.6240054,0.7811043,0.9897996,-0.123700336,-0.070674896,,0.057378378,1.323287,0.43414342,0.9967922,0.0783133,-0.016501268,0.04127271,-0.6796478,-0.7323766,-0.068569876,0.7293462,-0.6806998,,-0.07897767,0.28883848,-0.05824988,-0.9258144,-0.17688707,0.33403388,0.3463611,-0.7508488,0.56237,0.15133296,0.6363466,0.75641346,,-5.831328e-05,0.45290613,-0.3327865,-0.1696705,-0.7450135,-0.64510995,0.8498539,-0.44203627,0.286971,-0.49895927,-0.49955866,0.70815307,,1.209990064000622,0.33877312299360657,0.19057018548000002,3.5498410532495126,-0.023774750959186637,-0.7483934420781077,-0.4155473042456064,,-1.1390104261536245,-0.1086742970060873,0.17064361560000002,-1.8492556115900203,-1.1111280160925618,-0.5314954336145965,0.8634367335858002,,0.023856469213197493,0.036593009429626115,0.08941130016,-0.1167695939710949,,-4.7191978e-05,-6.4969063e-06,5.2452087e-06,1.0,4.092604e-05,4.3850392e-05,-4.093349e-05,1.0,4.142523e-06,-4.3846667e-05,-4.1127205e-06,0.99999994,413,1.26,0,0,0.0,False,-0.2630356547052788,1.0379277391716573
1.278478386000188,14:36:13.122115,14:34:55.914707,0,,0.11815446,0.002650395,0.029194176,0.9254984,0.2267853,-0.3033498,0.32468337,-0.06265417,0.9437452,0.19502142,-0.97192734,-0.13161978,,0.0482752,-0.044938195,0.03818357,0.14071704,0.7715665,0.62038994,-0.022213012,-0.62400687,0.78110313,0.9898006,-0.123695225,-0.07066959,,0.057378378,1.323287,0.43414342,0.9967922,0.0783133,-0.016501268,0.04127271,-0.6796478,-0.7323766,-0.068569876,0.7293462,-0.6806998,,-0.07893915,0.2890024,-0.058345966,-0.92549235,-0.17668216,0.33503333,0.34726632,-0.74897456,0.5643077,0.15122834,0.6386082,0.754526,,-6.0156213e-05,0.45290452,-0.33278513,-0.16966315,-0.74501324,-0.64511216,0.84985447,-0.4420325,0.286975,-0.4989607,-0.49956238,0.70814943,,1.2108395646167867,0.3391360914386951,0.19046388970000003,3.548582913588606,-0.023911387458952077,-0.7503239926779253,-0.4160373364440093,,-1.1390181488864988,-0.1086742970060873,0.17064620818,-1.8492556115900203,-1.1111280160925618,-0.5314954336145965,0.8634367335858002,,0.023856469213197493,0.036593009429626115,0.08941130016,-0.1167695939710949,,-4.7191978e-05,-6.4969063e-06,5.2452087e-06,1.0,4.092604e-05,4.3850392e-05,-4.093349e-05,1.0,4.142523e-06,-4.3846667e-05,-4.1127205e-06,0.99999994,421,1.284,0,0,0.0,False,-0.26351227645344677,1.0378794589708777
1.2975039809998634,14:36:13.150856,14:34:55.914707,0,,0.11813319,0.0026838332,0.029361308,0.9252962,0.22836706,-0.30277961,0.32369757,-0.059581906,0.94428265,0.19760287,-0.97175014,-0.12905282,,0.048276305,-0.04493751,0.038179874,0.14071704,0.7715665,0.62038994,-0.022213012,-0.62400687,0.78110313,0.9898006,-0.123695225,-0.07066959,,0.057378378,1.323287,0.43414342,0.9967922,0.0783133,-0.016501268,0.04127271,-0.6796478,-0.7323766,-0.068569876,0.7293462,-0.6806998,,-0.078925855,0.28914654,-0.05843848,-0.9254533,-0.17818828,0.33434284,0.34845012,-0.7467511,0.56652033,0.14872362,0.6407899,0.753173,,-6.117582e-05,0.4529016,-0.33278278,-0.16966315,-0.74501324,-0.64511216,0.84985447,-0.4420325,0.286975,-0.4989607,-0.49956238,0.70814943,,1.2115577787740894,0.3394141098221672,0.19036018650000003,3.5473247739276985,-0.026507480954495448,-0.7519642745541592,-0.41701740084081484,,-1.1390181488864988,-0.1086742970060873,0.17065009705,-1.8492556115900203,-1.1111280160925618,-0.5314954336145965,0.8634367335858002,,0.023856469213197493,0.036593009429626115,0.08941130016,-0.1167695939710949,,-4.7191978e-05,-6.4969063e-06,5.2452087e-06,1.0,4.092604e-05,4.3850392e-05,-4.093349e-05,1.0,4.142523e-06,-4.3846667e-05,-4.1127205e-06,0.99999994,429,1.31,0,0,0.0,False,-0.26333354329788383,1.0378794589708777
1.3263112109998474,14:36:13.173036,14:34:55.914707,0,,0.11814585,0.002707675,0.029543698,0.9242364,0.23476028,-0.3011226,0.3220021,-0.05542013,0.94511545,0.20518732,-0.9704721,-0.12681466,,0.048277456,-0.044937465,0.03818035,0.14070967,0.7715663,0.620392,-0.022214204,-0.6240083,0.78110194,0.98980165,-0.12369008,-0.07066423,,0.057378378,1.323287,0.43414342,0.9967922,0.0783133,-0.016501268,0.04127271,-0.6796478,-0.7323766,-0.068569876,0.7293462,-0.6806998,,-0.07894751,0.2892944,-0.058546513,-0.92484164,-0.18452644,0.3325927,0.35276872,-0.74307376,0.56867886,0.14220463,0.6432662,0.7523207,,-6.2339066e-05,0.45290193,-0.33278295,-0.16965577,-0.745013,-0.64511436,0.8498551,-0.44202867,0.28697902,-0.49896213,-0.4995661,0.7081458,,1.2122373792670214,0.3396303463426455,0.19023703895000002,3.5431309750580082,-0.03333930594276747,-0.7530093573207237,-0.41440389578266656,,-1.1390258716193729,-0.1086742970060873,0.17065009705,-1.8492556115900203,-1.1111280160925618,-0.5314954336145965,0.8634367335858002,,0.023856469213197493,0.036593009429626115,0.08941130016,-0.1167695939710949,,-4.7191978e-05,-6.4969063e-06,5.2452087e-06,1.0,4.092604e-05,4.3850392e-05,-4.093349e-05,1.0,4.142523e-06,-4.3846667e-05,-4.1127205e-06,0.99999994,458,1.399,0,0,0.0,False,-0.26243987752006825,1.03768633816776
1.3484988629998043,14:36:13.263884,14:34:56.145950,0,,0.11799364,0.002828464,0.030361176,0.9168987,0.2680231,-0.29573703,0.3169513,-0.038637668,0.9476544,0.24256669,-0.96263736,-0.12037718,,0.048286796,-0.04493456,0.038182855,0.14065146,0.77156633,0.6204051,-0.022237867,-0.6240143,0.78109646,0.9898094,-0.123658836,-0.07061055,,0.057378378,1.323287,0.43414342,0.9967922,0.0783133,-0.016501268,0.04127271,-0.6796478,-0.7323766,-0.068569876,0.7293462,-0.6806998,,-0.07883553,0.2899707,-0.059032366,-0.9196282,-0.21769583,0.3269442,0.37638193,-0.7264577,0.57497466,0.11234154,0.6518188,0.75000775,,-7.184696e-05,0.45290515,-0.3327818,-0.16959703,-0.74501383,-0.64512885,0.84985304,-0.44200423,0.28702283,-0.49898565,-0.4995865,0.70811486,,1.2161759730328758,0.33974618733575884,0.18971981924000003,3.519016631557288,-0.06572215638717686,-0.7533939409107762,-0.41652736864241213,,-1.1390876534823666,-0.10865885154033886,0.17065139334,-1.8492556115900203,-1.1111280160925618,-0.5314954336145965,0.8634367335858002,,0.023856469213197493,0.036593009429626115,0.08941130016,-0.1167695939710949,,-4.7191978e-05,-6.4969063e-06,5.2452087e-06,1.0,4.092604e-05,4.3850392e-05,-4.093349e-05,1.0,4.142523e-06,-4.3846667e-05,-4.1127205e-06,0.99999994,466,1.423,0,0,0.0,False,-0.26309523242380006,1.0379760193724363
1.4392425679998269,14:36:13.284472,14:34:56.145950,0,,0.11792795,0.0028845817,0.030522168,0.9155664,0.27459216,-0.2938325,0.31547418,-0.037235588,0.9482033,0.24942818,-0.9608395,-0.12071845,,0.048288062,-0.044935737,0.038183093,0.14064372,0.77156454,0.6204091,-0.022232145,-0.62401843,0.7810933,0.9898106,-0.12364887,-0.07061076,,0.057378378,1.323287,0.43414342,0.9967922,0.0783133,-0.016501268,0.04127271,-0.6796478,-0.7323766,-0.068569876,0.7293462,-0.6806998,,-0.07877698,0.29012698,-0.05910675,-0.9187004,-0.22431087,0.32507575,0.38033545,-0.7243192,0.575071,0.106463924,0.6519558,0.7507457,,-7.3079136e-05,0.45290473,-0.33278295,-0.16958953,-0.7450122,-0.64513266,0.8498572,-0.4419974,0.28702095,-0.4989811,-0.49959487,0.7081122,,1.2171876510393993,0.3397307418700104,0.18964333813,3.5148228326875977,-0.07214407187615256,-0.7514244490426669,-0.4162006805101435,,-1.139095376215241,-0.10866657427321308,0.17065139334,-1.8492556115900203,-1.1111280160925618,-0.5314954336145965,0.8634367335858002,,0.023856469213197493,0.036593009429626115,0.08941130016,-0.1167695939710949,,-4.7191978e-05,-6.4969063e-06,5.2452087e-06,1.0,4.092604e-05,4.3850392e-05,-4.093349e-05,1.0,4.142523e-06,-4.3846667e-05,-4.1127205e-06,0.99999994,474,1.448,0,0,0.0,False,-0.2630356547052788,1.0378794589708777
1.4599285909998798,14:36:13.313471,14:34:56.145950,0,,0.11785443,0.0029930621,0.030766964,0.9110904,0.28919864,-0.2937321,0.31447425,-0.02696091,0.948883,0.26649636,-0.95688933,-0.11550936,,0.048288062,-0.044935737,0.038183093,0.14064372,0.77156454,0.6204091,-0.022232145,-0.62401843,0.7810933,0.9898106,-0.12364887,-0.07061076,,0.057378378,1.323287,0.43414342,0.9967922,0.0783133,-0.016501268,0.04127271,-0.6796478,-0.7323766,-0.068569876,0.7293462,-0.6806998,,-0.078713626,0.29038012,-0.059201654,-0.9151614,-0.2388255,0.32471836,0.39204416,-0.71464396,0.57929736,0.093707025,0.6574545,0.74764466,,-7.3079136e-05,0.45290473,-0.33278295,-0.16958953,-0.7450122,-0.64513266,0.8498572,-0.4419974,0.28702095,-0.4989811,-0.49959487,0.7081122,,1.218732197614244,0.33968440547276507,0.18954352380000003,3.5024511260220104,-0.08594435835246203,-0.7541383053333643,-0.4173440889730834,,-1.139095376215241,-0.10866657427321308,0.17065139334,-1.8492556115900203,-1.1111280160925618,-0.5314954336145965,0.8634367335858002,,0.023856469213197493,0.036593009429626115,0.08941130016,-0.1167695939710949,,-4.7191978e-05,-6.4969063e-06,5.2452087e-06,1.0,4.092604e-05,4.3850392e-05,-4.093349e-05,1.0,4.142523e-06,-4.3846667e-05,-4.1127205e-06,0.99999994,482,1.473,0,0,0.0,False,-0.2622611443645053,1.0382174203763337
1.4888592429997516,14:36:13.339956,14:34:56.145950,0,,0.11780883,0.0030730218,0.030917138,0.9086182,0.29921654,-0.29134598,0.31139177,-0.020520449,0.95006,0.2782951,-0.9539645,-0.11181882,,0.048286915,-0.044935767,0.038182676,0.14065109,0.7715649,0.620407,-0.022230923,-0.62401706,0.78109455,0.9898095,-0.12365399,-0.07061607,,0.057378378,1.323287,0.43414342,0.9967922,0.0783133,-0.016501268,0.04127271,-0.6796478,-0.7323766,-0.068569876,0.7293462,-0.6806998,,-0.0786739,0.2905447,-0.059250217,-0.9133998,-0.24880807,0.32217282,0.39847052,-0.7082724,0.5827276,0.0831988,0.66063964,0.74607855,,-7.1915914e-05,0.45290437,-0.33278275,-0.16959691,-0.74501246,-0.64513046,0.84985656,-0.44200122,0.28701696,-0.49897966,-0.49959117,0.7081158,,1.2197670438193902,0.33956856447965167,0.18949426478000003,3.4957410478305055,-0.09714855133322817,-0.7555385947083904,-0.41587399237787503,,-1.1390876534823666,-0.10866657427321308,0.17065139334,-1.8492556115900203,-1.1111280160925618,-0.5314954336145965,0.8634367335858002,,0.023856469213197493,0.036593009429626115,0.08941130016,-0.1167695939710949,,-4.7191978e-05,-6.4969063e-06,5.2452087e-06,1.0,4.092604e-05,4.3850392e-05,-4.093349e-05,1.0,4.142523e-06,-4.3846667e-05,-4.1127205e-06,0.99999994,490,1.497,0,0,0.0,False,-0.26249945523859,1.038024299573216
1.5154190620000918,14:36:13.363585,14:34:56.145950,0,,0.11775444,0.0031327754,0.031033099,0.90510404,0.31074774,-0.2902113,0.31107596,-0.018654376,0.95020187,0.28985935,-0.9503093,-0.113550335,,0.048286915,-0.044935767,0.038182676,0.14065109,0.7715649,0.620407,-0.022230923,-0.62401706,0.78109455,0.9898095,-0.12365399,-0.07061607,,0.057378378,1.323287,0.43414342,0.9967922,0.0783133,-0.016501268,0.04127271,-0.6796478,-0.7323766,-0.068569876,0.7293462,-0.6806998,,-0.07862413,0.29067078,-0.059290245,-0.9105116,-0.26046228,0.32113546,0.4066634,-0.70457035,0.5815544,0.074789524,0.6601061,0.7474399,,-7.1915914e-05,0.45290437,-0.33278275,-0.16959691,-0.74501246,-0.64513046,0.84985656,-0.44200122,0.28701696,-0.49897966,-0.49959117,0.7081158,,1.220624267168429,0.33936777342492186,0.18945796866000003,3.4869340702041556,-0.10630319681751266,-0.7519941746874772,-0.4162006805101436,,-1.1390876534823666,-0.10866657427321308,0.17065139334,-1.8492556115900203,-1.1111280160925618,-0.5314954336145965,0.8634367335858002,,0.023856469213197493,0.036593009429626115,0.08941130016,-0.1167695939710949,,-4.7191978e-05,-6.4969063e-06,5.2452087e-06,1.0,4.092604e-05,4.3850392e-05,-4.093349e-05,1.0,4.142523e-06,-4.3846667e-05,-4.1127205e-06,0.99999994,498,1.523,0,0,0.0,False,-0.26309523242380006,1.0374449371638625
1.5390276650000487,14:36:13.383312,14:34:56.145950,0,,0.11767078,0.0031582713,0.03111893,0.9016452,0.3193507,-0.29163545,0.31337872,-0.017721623,0.9494628,0.2980433,-0.9474709,-0.11605629,,0.048286915,-0.044935767,0.038182676,0.14065109,0.7716156,0.6203439,-0.022230923,-0.6239532,0.78114545,0.9898095,-0.12365973,-0.07060596,,0.057378378,1.323287,0.43414342,0.9967922,0.0783133,-0.016501268,0.04127271,-0.6796478,-0.7323766,-0.068569876,0.7293462,-0.6806998,,-0.07854448,0.290752,-0.059335817,-0.9074298,-0.2691752,0.3226698,0.4142293,-0.702046,0.579263,0.07060583,0.6592998,0.7485577,,-7.1915914e-05,0.45290437,-0.33278275,-0.16959691,-0.74506515,-0.6450696,0.84985656,-0.44197777,0.28705305,-0.49897966,-0.49953333,0.7081566,,1.2213347585928578,0.33907430957570134,0.18942167254000003,3.4785464724647746,-0.11122211080906853,-0.7486365600755305,-0.4160373364440092,,-1.1390876534823666,-0.10866657427321308,0.17065139334,-1.8492556115900203,-1.1111280160925618,-0.531577112354737,0.8632733895196658,,0.023856469213197493,0.036593009429626115,0.08941130016,-0.1167695939710949,,-4.7191978e-05,-6.4969063e-06,5.2452087e-06,1.0,4.092604e-05,4.3850392e-05,-4.093349e-05,1.0,4.142523e-06,-4.3846667e-05,-4.1127205e-06,0.99999994,519,1.587,0,0,0.0,False,-0.2629164992682367,1.0379760193724363
1.5587716959998943,14:36:13.449783,14:34:56.322122,0,,0.11763756,0.0031852424,0.03130111,0.88177127,0.3749999,-0.2861025,0.3085732,0.00013300776,0.9512005,0.35673815,-0.9270247,-0.115597665,,0.048288062,-0.044935737,0.038183093,0.14064372,0.77161527,0.620346,-0.022232145,-0.62395465,0.78114426,0.9898106,-0.123654604,-0.07060069,,0.057378378,1.323287,0.43414342,0.9967922,0.0783133,-0.016501268,0.04127271,-0.6796478,-0.7323766,-0.068569876,0.7293462,-0.6806998,,-0.07852023,0.29090273,-0.059444,-0.8908224,-0.3253297,0.31716886,0.45363554,-0.6760297,0.58068806,0.025500499,0.661169,0.7498035,,-7.3079136e-05,0.45290473,-0.33278295,-0.16958953,-0.7450649,-0.6450718,0.8498572,-0.44197395,0.28705704,-0.4989811,-0.49953705,0.70815295,,1.222585841318482,0.3370818444941514,0.18936074691000002,3.435979413937416,-0.15959143172603446,-0.740967652081676,-0.4160373364440092,,-1.139095376215241,-0.10866657427321308,0.17065139334,-1.8492556115900203,-1.1111280160925618,-0.531577112354737,0.8632733895196658,,0.023856469213197493,0.036593009429626115,0.08941130016,-0.1167695939710949,,-4.7191978e-05,-6.4969063e-06,5.2452087e-06,1.0,4.092604e-05,4.3850392e-05,-4.093349e-05,1.0,4.142523e-06,-4.3846667e-05,-4.1127205e-06,0.99999994,527,1.612,0,0,0.0,False,-0.26333354329788383,1.0377828985693187
1.6252414559999124,14:36:13.475448,14:34:56.322122,0,,0.11765875,0.0031637698,0.03133872,0.87189907,0.4036411,-0.27724713,0.29982722,0.0075922012,0.9539632,0.3871637,-0.9148859,-0.11440301,,0.048289467,-0.04493429,0.038182497,0.14063673,0.7716163,0.62034625,-0.02224034,-0.62395346,0.78114504,0.98981136,-0.123654336,-0.07058975,,0.057378378,1.323287,0.43414342,0.9967922,0.0783133,-0.016501268,0.04127271,-0.6796478,-0.7323766,-0.068569876,0.7293462,-0.6806998,,-0.078543946,0.2909146,-0.05948427,-0.88281006,-0.35436267,0.30833983,0.46972412,-0.66267174,0.58328843,-0.0023675475,0.65976757,0.751466,,-7.451339e-05,0.45290485,-0.3327814,-0.16958229,-0.74506605,-0.6450724,0.8498543,-0.44197318,0.28706694,-0.49898854,-0.4995361,0.70814836,,1.222825246037583,0.33574581170691054,0.18936074691000002,3.4181557687412316,-0.18910491567536958,-0.7356874951155783,-0.4166907127085463,,-1.1391030989481152,-0.10865885154033886,0.17065268963000002,-1.8492556115900203,-1.1111280160925618,-0.531577112354737,0.8632733895196658,,0.023856469213197493,0.036593009429626115,0.08941130016,-0.1167695939710949,,-4.7191978e-05,-6.4969063e-06,5.2452087e-06,1.0,4.092604e-05,4.3850392e-05,-4.093349e-05,1.0,4.142523e-06,-4.3846667e-05,-4.1127205e-06,0.99999994,535,1.636,0,0,0.0,False,-0.2626781883941529,1.0372518163607447
1.6509109190001254,14:36:13.497307,14:34:56.322122,0,,0.11762307,0.0031259805,0.03134063,0.8662891,0.41880572,-0.27229598,0.29468897,0.011697054,0.9555215,0.40336293,-0.90800047,-0.11328447,,0.04828728,-0.04493553,0.038181424,0.14065109,0.7715649,0.620407,-0.022230923,-0.62401706,0.78109455,0.9898095,-0.12365399,-0.07061607,,0.057378378,1.323287,0.43414342,0.9967922,0.0783133,-0.016501268,0.04127271,-0.6796478,-0.7323766,-0.068569876,0.7293462,-0.6806998,,-0.07850943,0.2908905,-0.05951484,-0.87820387,-0.36975476,0.30337995,0.47796357,-0.655161,0.5850768,-0.017572226,0.6588213,0.7520942,,-7.225587e-05,0.45290342,-0.33278197,-0.16959691,-0.74501246,-0.64513046,0.84985656,-0.44200122,0.28701696,-0.49897966,-0.49959117,0.7081158,,1.2230105916265646,0.3346569063716449,0.18936593207000002,3.4085100313409433,-0.2060478416462842,-0.7328166262360575,-0.41636402457627786,,-1.1390876534823666,-0.10866657427321308,0.17065268963000002,-1.8492556115900203,-1.1111280160925618,-0.5314954336145965,0.8634367335858002,,0.023856469213197493,0.036593009429626115,0.08941130016,-0.1167695939710949,,-4.7191978e-05,-6.4969063e-06,5.2452087e-06,1.0,4.092604e-05,4.3850392e-05,-4.093349e-05,1.0,4.142523e-06,-4.3846667e-05,-4.1127205e-06,0.99999994,543,1.661,0,0,0.0,False,-0.26202283349042155,1.0381691401755546
1.6727497840001888,14:36:13.524259,14:34:56.322122,0,,0.11758383,0.0030924827,0.031351447,0.85907054,0.4378878,-0.26505125,0.28891554,0.012622267,0.9572713,0.42252296,-0.8989409,-0.11566931,,0.04828728,-0.04493553,0.038181424,0.14065109,0.77151424,0.62047,-0.022230923,-0.6240808,0.7810435,0.9898095,-0.1236482,-0.0706262,,0.057378378,1.323287,0.43414342,0.9967922,0.0783133,-0.016501268,0.04127271,-0.6796478,-0.7323766,-0.068569876,0.7293462,-0.6806998,,-0.07847174,0.2908759,-0.05954867,-0.87216544,-0.38925746,0.29632086,0.48793077,-0.6483599,0.58442533,-0.03536935,0.6542997,0.7554078,,-7.225587e-05,0.45290342,-0.33278197,-0.16959691,-0.7449598,-0.6451913,0.84985656,-0.44202465,0.28698084,-0.49897966,-0.499649,0.708075,,1.2232268281470429,0.3335293873720081,0.18937500610000002,3.3969770844492944,-0.2246304056143841,-0.7252599141664164,-0.41620068051014336,,-1.1390876534823666,-0.10866657427321308,0.17065268963000002,-1.8492556115900203,-1.1111280160925618,-0.5314137548744559,0.8632733895196658,,0.023856469213197493,0.036593009429626115,0.08941130016,-0.1167695939710949,,-4.7191978e-05,-6.4969063e-06,5.2452087e-06,1.0,4.092604e-05,4.3850392e-05,-4.093349e-05,1.0,4.142523e-06,-4.3846667e-05,-4.1127205e-06,0.99999994,551,1.686,0,0,0.0,False,-0.262797343831195,1.038120859974775
1.6997159460001967,14:36:13.551687,14:34:56.322122,0,,0.117448375,0.0030419081,0.03135732,0.84618306,0.46485573,-0.2605446,0.28501317,0.018326402,0.9583483,0.45026854,-0.8851967,-0.11698255,,0.048288435,-0.0449355,0.03818184,0.14064372,0.7715139,0.6204721,-0.022232145,-0.62408227,0.78104234,0.9898106,-0.123643056,-0.070620835,,0.057378378,1.323287,0.43414342,0.9967922,0.0783133,-0.016501268,0.04127271,-0.6796478,-0.7323766,-0.068569876,0.7293462,-0.6806998,,-0.07833818,0.29084778,-0.059596766,-0.86087185,-0.41675195,0.29192036,0.50549823,-0.6350259,0.58413494,-0.058062367,0.6504305,0.7573433,,-7.3419105e-05,0.45290375,-0.33278215,-0.16958953,-0.74495953,-0.6451935,0.8498572,-0.44202083,0.28698486,-0.4989811,-0.4996527,0.70807135,,1.2237056375852446,0.3316295950849489,0.1894009319,3.375588710213873,-0.24949824857169425,-0.7170703092344709,-0.41489392798106917,,-1.139095376215241,-0.10866657427321308,0.17065268963000002,-1.8492556115900203,-1.1111280160925618,-0.5314137548744559,0.8629467013873973,,0.023856469213197493,0.036593009429626115,0.08941130016,-0.1167695939710949,,-4.7191978e-05,-6.4969063e-06,5.2452087e-06,1.0,4.092604e-05,4.3850392e-05,-4.093349e-05,1.0,4.142523e-06,-4.3846667e-05,-4.1127205e-06,0.99999994,563,1.723,0,0,0.0,False,-0.2622015666459845,1.0382174203763337
1.7271018729998104,14:36:13.586690,14:34:56.322122,0,,0.11726068,0.0030027926,0.0313918,0.8273605,0.5029057,-0.2501212,0.27464402,0.026215553,0.96118844,0.48994422,-0.8639436,-0.11643037,,0.048288316,-0.044934306,0.03818208,0.14064409,0.771566,0.62040716,-0.022239119,-0.6240158,0.78109527,0.98981035,-0.123653695,-0.07060522,,0.057378378,1.323287,0.43414342,0.9967922,0.0783133,-0.016501268,0.04127271,-0.6796478,-0.7323766,-0.068569876,0.7293462,-0.6806998,,-0.07815369,0.29084927,-0.059659287,-0.8444573,-0.4556475,0.28156212,0.52731204,-0.6149802,0.5862946,-0.09398854,0.64357185,0.75959295,,-7.335015e-05,0.45290452,-0.3327812,-0.16958965,-0.7450136,-0.64513105,0.84985363,-0.44200042,0.28702682,-0.4989871,-0.49959022,0.7081112,,1.224508801804164,0.328949806777593,0.18945667237000002,3.3472805678434625,-0.28843965100484475,-0.7048374255745853,-0.415383960179472,,-1.139095376215241,-0.10865885154033886,0.17065268963000002,-1.8492556115900203,-1.1111280160925618,-0.5314954336145964,0.8631100454535314,,0.023856469213197493,0.036593009429626115,0.08941130016,-0.1167695939710949,,-4.7191978e-05,-6.4969063e-06,5.2452087e-06,1.0,4.092604e-05,4.3850392e-05,-4.093349e-05,1.0,4.142523e-06,-4.3846667e-05,-4.1127205e-06,0.99999994,584,1.788,0,0,0.0,False,-0.2623802998015474,1.0377828985693187
1.7621213309998893,14:36:13.650437,14:34:56.322122,0,,0.11689048,0.00302504,0.031451613,0.7834411,0.5714225,-0.24432862,0.2653836,0.04788837,0.96295285,0.56195337,-0.8192576,-0.11412847,,0.0482897,-0.04493669,0.03818208,0.140636,0.7715629,0.62041295,-0.022226363,-0.62402254,0.7810902,0.9898118,-0.1236389,-0.070611,,0.057378378,1.323287,0.43414342,0.9967922,0.0783133,-0.016501268,0.04127271,-0.6796478,-0.7323766,-0.068569876,0.7293462,-0.6806998,,-0.07778671,0.2909151,-0.059705235,-0.8046698,-0.52582616,0.27570522,0.5737117,-0.56908697,0.58906275,-0.15284435,0.63217634,0.7595997,,-7.465129e-05,0.4529033,-0.3327833,-0.16958205,-0.7450107,-0.6451364,0.8498614,-0.44199058,0.28701907,-0.4989765,-0.49960324,0.7081095,,1.2257521617969143,0.32459418543653035,0.1896342641,3.2824863753067444,-0.3519756233957746,-0.682922519247195,-0.41767077710535194,,-1.1391030989481152,-0.1086742970060873,0.17065268963000002,-1.8492556115900203,-1.1111280160925618,-0.5314954336145964,0.8631100454535314,,0.023856469213197493,0.036593009429626115,0.08941130016,-0.1167695939710949,,-4.7191978e-05,-6.4969063e-06,5.2452087e-06,1.0,4.092604e-05,4.3850392e-05,-4.093349e-05,1.0,4.142523e-06,-4.3846667e-05,-4.1127205e-06,0.99999994,592,1.813,0,0,0.0,False,-0.26243987752006825,1.0372518163607447
1.8258818660001452,14:36:13.673385,14:34:56.322122,0,,0.11676704,0.003036961,0.031463146,0.7664604,0.5944343,-0.24328277,0.26314288,0.054908812,0.963193,0.58591324,-0.8022673,-0.114335746,,0.0482897,-0.04493669,0.03818208,0.140636,0.7715629,0.62041295,-0.022226363,-0.62402254,0.7810902,0.9898118,-0.1236389,-0.070611,,0.057378378,1.323287,0.43414342,0.9967922,0.0783133,-0.016501268,0.04127271,-0.6796478,-0.7323766,-0.068569876,0.7293462,-0.6806998,,-0.07766377,0.2909341,-0.05971149,-0.7890455,-0.54950786,0.27467862,0.58977884,-0.5524224,0.58905894,-0.17195387,0.6267939,0.7599745,,-7.465129e-05,0.4529033,-0.3327833,-0.16958205,-0.7450107,-0.6451364,0.8498614,-0.44199058,0.28701907,-0.4989765,-0.49960324,0.7081095,,1.2260070119817637,0.32318092532054726,0.18970815263000002,3.2583720318060236,-0.37247109836059067,-0.6735609203053823,-0.4147305839149349,,-1.1391030989481152,-0.1086742970060873,0.17065268963000002,-1.8492556115900203,-1.1111280160925618,-0.5314954336145965,0.8634367335858002,,0.023856469213197493,0.036593009429626115,0.08941130016,-0.1167695939710949,,-4.7191978e-05,-6.4969063e-06,5.2452087e-06,1.0,4.092604e-05,4.3850392e-05,-4.093349e-05,1.0,4.142523e-06,-4.3846667e-05,-4.1127205e-06,0.99999994,600,1.837,0,0,0.0,False,-0.26154621174225356,1.0371552559591857
1.8488455319998138,14:36:13.704322,14:34:56.589462,0,,0.11659083,0.0030606985,0.031473875,0.73704344,0.63055086,-0.24325432,0.2610339,0.066403955,0.963043,0.62340057,-0.7733021,-0.11565262,,0.04828867,-0.044937912,0.038181424,0.14064299,0.77156186,0.62041265,-0.022218168,-0.6240238,0.7810894,0.989811,-0.12363915,-0.07062188,,0.057378378,1.323287,0.43414342,0.9967922,0.0783133,-0.016501268,0.04127271,-0.6796478,-0.7323766,-0.068569876,0.7293462,-0.6806998,,-0.0774878,0.2909617,-0.059711613,-0.7617185,-0.58678454,0.2747158,0.6159401,-0.524279,0.5880045,-0.20100424,0.61710244,0.7607772,,-7.3557e-05,0.4529022,-0.33278406,-0.16958931,-0.7450096,-0.6451358,0.8498643,-0.44199136,0.2870092,-0.49896905,-0.4996042,0.7081141,,1.2261537439063739,0.3211112329102551,0.18983389276,3.217272802883057,-0.4033509473075802,-0.6570384205248907,-0.41375051951812936,,-1.139095376215241,-0.10868201973896152,0.17065268963000002,-1.8492556115900203,-1.1111280160925618,-0.5314954336145964,0.8631100454535314,,0.023856469213197493,0.036593009429626115,0.08941130016,-0.1167695939710949,,-4.7191978e-05,-6.4969063e-06,5.2452087e-06,1.0,4.092604e-05,4.3850392e-05,-4.093349e-05,1.0,4.142523e-06,-4.3846667e-05,-4.1127205e-06,0.99999994,608,1.862,0,0,0.0,False,-0.2620824112089424,1.0373483767623035
1.8797813679998399,14:36:13.723650,14:34:56.589462,0,,0.116467185,0.003068313,0.03145063,0.7181593,0.6517131,-0.24396177,0.26048803,0.07332575,0.96268845,0.64528537,-0.7549128,-0.117103964,,0.04828867,-0.044937912,0.038181424,0.14064299,0.77156186,0.62041265,-0.022218168,-0.6240238,0.7810894,0.989811,-0.12363915,-0.07062188,,0.057378378,1.323287,0.43414342,0.9967922,0.0783133,-0.016501268,0.04127271,-0.6796478,-0.7323766,-0.068569876,0.7293462,-0.6806998,,-0.07736294,0.29095265,-0.05969698,-0.7440391,-0.6086965,0.27548927,0.6317209,-0.50663716,0.58672607,-0.21756501,0.6105795,0.76148415,,-7.3557e-05,0.4529022,-0.33278406,-0.16958931,-0.7450096,-0.6451358,0.8498643,-0.44199136,0.2870092,-0.49896905,-0.4996042,0.7081141,,1.2261151302420028,0.31977520012301425,0.18992981822000002,3.1912712498909763,-0.42097705577732203,-0.6460960180339559,-0.4173440889730835,,-1.139095376215241,-0.10868201973896152,0.17065268963000002,-1.8492556115900203,-1.1111280160925618,-0.5314954336145964,0.8631100454535314,,0.023856469213197493,0.036593009429626115,0.08941130016,-0.1167695939710949,,-4.7191978e-05,-6.4969063e-06,5.2452087e-06,1.0,4.092604e-05,4.3850392e-05,-4.093349e-05,1.0,4.142523e-06,-4.3846667e-05,-4.1127205e-06,0.99999994,616,1.886,0,0,0.0,False,-0.26202283349042155,1.0366241737506119
1.8990958750000573,14:36:13.748539,14:34:56.589462,0,,0.11630943,0.00311099,0.031454355,0.6835832,0.687634,-0.24469095,0.25723016,0.08676693,0.9624469,0.6830423,-0.72085434,-0.11756784,,0.04828982,-0.044937897,0.03818184,0.14063561,0.77151084,0.6204778,-0.02221942,-0.624089,0.7810373,0.989812,-0.12362826,-0.07062665,,0.057378378,1.323287,0.43414342,0.9967922,0.0783133,-0.016501268,0.04127271,-0.6796478,-0.7323766,-0.068569876,0.7293462,-0.6806998,,-0.07720452,0.29098797,-0.05967762,-0.711607,-0.6459951,0.27623522,0.65738267,-0.47346854,0.5862385,-0.24791849,0.59876364,0.76158947,,-7.472023e-05,0.45290253,-0.33278427,-0.16958193,-0.7449567,-0.6451988,0.84986496,-0.442011,0.2869771,-0.4989705,-0.49966574,0.7080696,,1.2259066164543986,0.3178599623702066,0.19008666931,3.145349152267865,-0.45267672372290424,-0.627026399808053,-0.4152206161133377,,-1.1391030989481152,-0.10868201973896152,0.17065268963000002,-1.8492556115900203,-1.1111280160925618,-0.531413754874456,0.8626200132551289,,0.023856469213197493,0.036593009429626115,0.08941130016,-0.1167695939710949,,-4.7191978e-05,-6.4969063e-06,5.2452087e-06,1.0,4.092604e-05,4.3850392e-05,-4.093349e-05,1.0,4.142523e-06,-4.3846667e-05,-4.1127205e-06,0.99999994,624,1.912,0,0,0.0,False,-0.2630356547052788,1.0366241737506119
1.923964117000196,14:36:13.773864,14:34:56.589462,0,,0.116202496,0.0031463653,0.03146109,0.65835017,0.71159387,-0.2453759,0.25349367,0.09734309,0.96242666,0.70874256,-0.69581497,-0.116298735,,0.04828982,-0.044937897,0.03818184,0.14063561,0.77151084,0.6204778,-0.02221942,-0.624089,0.7810373,0.989812,-0.12362826,-0.07062665,,0.057378378,1.323287,0.43414342,0.9967922,0.0783133,-0.016501268,0.04127271,-0.6796478,-0.7323766,-0.068569876,0.7293462,-0.6806998,,-0.07709718,0.2910194,-0.059662744,-0.68787694,-0.6709535,0.27685133,0.673832,-0.44855458,0.5871535,-0.2697698,0.59044063,0.7606603,,-7.472023e-05,0.45290253,-0.33278427,-0.16958193,-0.7449567,-0.6451988,0.84986496,-0.442011,0.2869771,-0.4989705,-0.49966574,0.7080696,,1.2256826572010462,0.31657798871308535,0.19020333541,3.112847211027764,-0.4753583826839673,-0.6140035033838647,-0.4166907127085464,,-1.1391030989481152,-0.10868201973896152,0.17065268963000002,-1.8492556115900203,-1.1111280160925618,-0.5314137548744557,0.8622933251228602,,0.023856469213197493,0.036593009429626115,0.08941130016,-0.1167695939710949,,-4.7191978e-05,-6.4969063e-06,5.2452087e-06,1.0,4.092604e-05,4.3850392e-05,-4.093349e-05,1.0,4.142523e-06,-4.3846667e-05,-4.1127205e-06,0.99999994,649,1.989,0,0,0.0,False,-0.26285692154971585,1.0367207341521705
1.9493262729997696,14:36:13.846885,14:34:56.711779,0,,0.11570529,0.0032487065,0.0313991,0.56236845,0.7873835,-0.25252545,0.2447643,0.13319468,0.9603902,0.7898304,-0.60190237,-0.11781898,,0.04828752,-0.044937942,0.038181007,0.14065036,0.7714608,0.6205366,-0.022216976,-0.62415,0.7809887,0.98981,-0.123632744,-0.07064742,,0.057378378,1.323287,0.43414342,0.9967922,0.0783133,-0.016501268,0.04127271,-0.6796478,-0.7323766,-0.068569876,0.7293462,-0.6806998,,-0.07659484,0.29105532,-0.059573922,-0.59658426,-0.7506152,0.2840142,0.72817147,-0.357477,0.58478755,-0.33742186,0.5556861,0.75984174,,-7.239376e-05,0.45290187,-0.33278388,-0.16959669,-0.7449044,-0.64525527,0.8498637,-0.44204205,0.28693298,-0.49896762,-0.49971613,0.70803607,,1.2243775153453023,0.31215286277615467,0.19066092578000002,2.9897592142023486,-0.5446330880650456,-0.558984843532309,-0.41701740084081496,,-1.1390876534823666,-0.10868201973896152,0.17065268963000002,-1.8492556115900203,-1.1111280160925618,-0.5313320761343153,0.8624566691889943,,0.023856469213197493,0.036593009429626115,0.08941130016,-0.1167695939710949,,-4.7191978e-05,-6.4969063e-06,5.2452087e-06,1.0,4.092604e-05,4.3850392e-05,-4.093349e-05,1.0,4.142523e-06,-4.3846667e-05,-4.1127205e-06,0.99999994,657,2.013,0,0,0.0,False,-0.26232072208302704,1.036865574754509
2.022275572000126,14:36:13.876915,14:34:56.711779,0,,0.11551607,0.0032478422,0.031326205,0.5272543,0.8108949,-0.25387487,0.23941818,0.1448975,0.96004355,0.81528014,-0.5669693,-0.11774522,,0.04828867,-0.044937912,0.038181424,0.14064299,0.7714605,0.6205387,-0.022218168,-0.6241514,0.78098744,0.989811,-0.12362765,-0.070642054,,0.057378378,1.323287,0.43414342,0.9967922,0.0783133,-0.016501268,0.04127271,-0.6796478,-0.7323766,-0.068569876,0.7293462,-0.6806998,,-0.076402105,0.29100585,-0.05953479,-0.56302035,-0.77561885,0.28534806,0.7435199,-0.324637,0.5846272,-0.36081335,0.54131895,0.7594653,,-7.3557e-05,0.4529022,-0.33278406,-0.16958931,-0.74490416,-0.6452575,0.8498643,-0.44203827,0.286937,-0.49896905,-0.49971986,0.7080324,,1.2234894010647663,0.31039980241370574,0.19085536928000002,2.9429983568052993,-0.5697742040218867,-0.5359519083078101,-0.4166907127085464,,-1.139095376215241,-0.10868201973896152,0.17065268963000002,-1.8492556115900203,-1.1111280160925618,-0.5313320761343153,0.8624566691889943,,0.023856469213197493,0.036593009429626115,0.08941130016,-0.1167695939710949,,-4.7191978e-05,-6.4969063e-06,5.2452087e-06,1.0,4.092604e-05,4.3850392e-05,-4.093349e-05,1.0,4.142523e-06,-4.3846667e-05,-4.1127205e-06,0.99999994,665,2.038,0,0,0.0,False,-0.26297607698675796,1.0373483767623035
2.0523741669999254,14:36:13.904286,14:34:56.711779,0,,0.11528806,0.0032781959,0.03129199,0.4758936,0.8409467,-0.25755405,0.2313205,0.16285124,0.9591508,0.84853756,-0.51603127,-0.117028296,,0.04828982,-0.044937897,0.03818184,0.14063561,0.7714601,0.6205408,-0.02221942,-0.62415284,0.7809863,0.989812,-0.12362254,-0.07063672,,0.057378378,1.323287,0.43414342,0.9967922,0.0783133,-0.016501268,0.04127271,-0.6796478,-0.7323766,-0.068569876,0.7293462,-0.6806998,,-0.07617188,0.29100665,-0.059502013,-0.5137248,-0.80783015,0.28895897,0.76291513,-0.2760524,0.58459866,-0.3924886,0.520774,0.7581208,,-7.472023e-05,0.45290253,-0.33278427,-0.16958193,-0.7449039,-0.6452597,0.84986496,-0.44203445,0.286941,-0.4989705,-0.49972358,0.7080288,,1.2223309911336326,0.3087625830443701,0.19106536826,2.881768893307818,-0.599970870470049,-0.5058560760014832,-0.41636402457627764,,-1.1391030989481152,-0.10868201973896152,0.17065268963000002,-1.8492556115900203,-1.1111280160925618,-0.5313320761343153,0.8624566691889943,,0.023856469213197493,0.036593009429626115,0.08941130016,-0.1167695939710949,,-4.7191978e-05,-6.4969063e-06,5.2452087e-06,1.0,4.092604e-05,4.3850392e-05,-4.093349e-05,1.0,4.142523e-06,-4.3846667e-05,-4.1127205e-06,0.99999994,673,2.062,0,0,0.0,False,-0.2626781883941529,1.0369138549552883
2.079747234000024,14:36:13.930378,14:34:56.711779,0,,0.11509414,0.0032866448,0.03121382,0.42912152,0.86428577,-0.26242143,0.22383565,0.17971443,0.95791453,0.8750727,-0.46980095,-0.11633864,,0.04828867,-0.044937912,0.038181424,0.14064299,0.7714605,0.6205387,-0.022218168,-0.6241514,0.78098744,0.989811,-0.12362765,-0.070642054,,0.057378378,1.323287,0.43414342,0.9967922,0.0783133,-0.016501268,0.04127271,-0.6796478,-0.7323766,-0.068569876,0.7293462,-0.6806998,,-0.07597394,0.29095992,-0.05945278,-0.468638,-0.8331209,0.29374823,0.7777951,-0.231487,0.58433604,-0.41882366,0.502318,0.75648093,,-7.3557e-05,0.4529022,-0.33278406,-0.16958931,-0.74490416,-0.6452575,0.8498643,-0.44203827,0.286937,-0.49896905,-0.49971986,0.7080324,,1.2209022855519012,0.3073647683941355,0.19127925611000002,2.823265399075636,-0.6256585324259518,-0.4773950660136243,-0.41701740084081496,,-1.139095376215241,-0.10868201973896152,0.17065268963000002,-1.8492556115900203,-1.1111280160925618,-0.5313320761343153,0.8624566691889943,,0.023856469213197493,0.036593009429626115,0.08941130016,-0.1167695939710949,,-4.7191978e-05,-6.4969063e-06,5.2452087e-06,1.0,4.092604e-05,4.3850392e-05,-4.093349e-05,1.0,4.142523e-06,-4.3846667e-05,-4.1127205e-06,0.99999994,685,2.1,0,0,0.0,False,-0.26255903295711036,1.036865574754509
2.105778445999931,14:36:13.966451,14:34:56.711779,0,,0.1149611,0.0032861084,0.031121135,0.38668633,0.8834898,-0.26442325,0.2142528,0.19281712,0.9575579,0.8969779,-0.42692792,-0.11473042,,0.04829007,-0.044936437,0.038180828,0.140636,0.7714615,0.620539,-0.022226363,-0.62415016,0.7809882,0.9898118,-0.123627365,-0.070631206,,0.057378378,1.323287,0.43414342,0.9967922,0.0783133,-0.016501268,0.04127271,-0.6796478,-0.7323766,-0.068569876,0.7293462,-0.6806998,,-0.075836256,0.2908953,-0.05939663,-0.42769188,-0.854207,0.29565197,0.78779745,-0.19186544,0.5852887,-0.4432323,0.4832371,0.75500137,,-7.499126e-05,0.45290235,-0.3327825,-0.16958205,-0.7449053,-0.6452581,0.8498614,-0.44203746,0.28694686,-0.4989765,-0.4997189,0.70802784,,1.219280511648314,0.3062990312574925,0.19148666251000002,2.77063322326102,-0.6494332833851385,-0.4491870468352664,-0.41832415336988926,,-1.1391030989481152,-0.1086742970060873,0.17065398592000003,-1.8492556115900203,-1.1111280160925618,-0.5313320761343153,0.8624566691889943,,0.023856469213197493,0.036593009429626115,0.08941130016,-0.1167695939710949,,-4.7191978e-05,-6.4969063e-06,5.2452087e-06,1.0,4.092604e-05,4.3850392e-05,-4.093349e-05,1.0,4.142523e-06,-4.3846667e-05,-4.1127205e-06,0.99999994,710,2.177,0,0,0.0,False,-0.2630356547052788,1.0366724539513914
2.141911494999931,14:36:14.039843,14:34:56.889385,0,,0.11464496,0.0032665431,0.030917972,0.26421025,0.92654026,-0.26779872,0.18379539,0.22420713,0.95705295,0.94679046,-0.3020833,-0.11105609,,0.04828904,-0.044937674,0.038180232,0.14064299,0.7714605,0.6205387,-0.022218168,-0.6241514,0.78098744,0.989811,-0.12362765,-0.070642054,,0.057378378,1.323287,0.43414342,0.9967922,0.0783133,-0.016501268,0.04127271,-0.6796478,-0.7323766,-0.068569876,0.7293462,-0.6806998,,-0.07551045,0.2907414,-0.059288125,-0.30887952,-0.9029417,0.2988138,0.8050543,-0.08091891,0.5876561,-0.5064395,0.42207626,0.75191134,,-7.389696e-05,0.45290124,-0.33278328,-0.16958931,-0.74490416,-0.6452575,0.8498643,-0.44203827,0.286937,-0.49896905,-0.49971986,0.7080324,,1.2142761807458164,0.30466953462103114,0.19198573416000003,2.6156723550259566,-0.7084602512838087,-0.35809149512447647,-0.41636402457627775,,-1.139095376215241,-0.10868201973896152,0.17065398592000003,-1.8492556115900203,-1.1111280160925618,-0.5313320761343153,0.8624566691889943,,0.023856469213197493,0.036593009429626115,0.08941130016,-0.1167695939710949,,-4.7191978e-05,-6.4969063e-06,5.2452087e-06,1.0,4.092604e-05,4.3850392e-05,-4.093349e-05,1.0,4.142523e-06,-4.3846667e-05,-4.1127205e-06,0.99999994,718,2.202,1,1,0.0,False,-0.2618441003348577,1.0365758935498322
2.2153048619998117,14:36:14.066367,14:34:56.889385,0,,0.114583686,0.003250286,0.030876964,0.23581338,0.9342061,-0.26767707,0.17555794,0.22996077,0.95723426,0.95580924,-0.2727214,-0.10977951,,0.04829134,-0.044937614,0.038181067,0.14062826,0.7714598,0.6205428,-0.022220641,-0.6241542,0.7809851,0.98981297,-0.123617396,-0.070631385,,0.057378378,1.323287,0.43414342,0.9967922,0.0783133,-0.016501268,0.04127271,-0.6796478,-0.7323766,-0.068569876,0.7293462,-0.6806998,,-0.07544755,0.29070178,-0.059274964,-0.28122982,-0.9119924,0.2986297,0.80641603,-0.055904943,0.5887001,-0.5201951,0.40637982,0.7511674,,-7.622344e-05,0.4529019,-0.33278367,-0.16957457,-0.74490374,-0.6452619,0.84986556,-0.44203064,0.28694502,-0.49897194,-0.49972728,0.70802516,,1.2130250980201922,0.30452280269642085,0.19208425220000003,2.578976614916165,-0.7208941727624638,-0.334720509985331,-0.4166907127085465,,-1.1391108216809893,-0.10868201973896152,0.17065398592000003,-1.8492556115900203,-1.1111280160925618,-0.5313320761343153,0.8624566691889943,,0.023856469213197493,0.036593009429626115,0.08941130016,-0.1167695939710949,,-4.7191978e-05,-6.4969063e-06,5.2452087e-06,1.0,4.092604e-05,4.3850392e-05,-4.093349e-05,1.0,4.142523e-06,-4.3846667e-05,-4.1127205e-06,0.99999994,726,2.226,1,1,0.024,False,-0.262797343831195,1.0372035361599652
2.2418268960000205,14:36:14.090064,14:34:56.889385,0,,0.114462145,0.0032375902,0.030829132,0.19202456,0.945097,-0.2644207,0.16382173,0.23478553,0.95814306,0.96762013,-0.22730483,-0.10974291,,0.04829134,-0.044937614,0.038181067,0.14062826,0.7714598,0.6205428,-0.022220641,-0.6241542,0.7809851,0.98981297,-0.123617396,-0.070631385,,0.057378378,1.323287,0.43414342,0.9967922,0.0783133,-0.016501268,0.04127271,-0.6796478,-0.7323766,-0.068569876,0.7293462,-0.6806998,,-0.075324036,0.2906609,-0.059257865,-0.23845646,-0.9251359,0.29540145,0.8076724,-0.02001551,0.5892917,-0.5392623,0.379108,0.7519796,,-7.622344e-05,0.4529019,-0.33278367,-0.16957457,-0.74490374,-0.6452619,0.84986556,-0.44203064,0.28694502,-0.49897194,-0.49972728,0.70802516,,1.2113183740549887,0.30449191176492396,0.19222036265000003,2.5213118804579207,-0.7371539162345512,-0.2936910077976658,-0.41571064831174065,,-1.1391108216809893,-0.10868201973896152,0.17065398592000003,-1.8492556115900203,-1.1111280160925618,-0.5313320761343153,0.8624566691889943,,0.023856469213197493,0.036593009429626115,0.08941130016,-0.1167695939710949,,-4.7191978e-05,-6.4969063e-06,5.2452087e-06,1.0,4.092604e-05,4.3850392e-05,-4.093349e-05,1.0,4.142523e-06,-4.3846667e-05,-4.1127205e-06,0.99999994,735,2.255,1,1,0.053,False,-0.26255903295711036,1.0366241737506119
2.2655240149997553,14:36:14.116255,14:34:56.889385,0,,0.114373006,0.0032104999,0.030768424,0.1640612,0.95116067,-0.26149058,0.15892133,0.23613432,0.95863676,0.9735645,-0.19883151,-0.11241931,,0.04829122,-0.044936407,0.038181305,0.1406286,0.7714611,0.6205411,-0.022227585,-0.6241516,0.7809871,0.98981285,-0.123622224,-0.07062584,,0.057378378,1.323287,0.43414342,0.9967922,0.0783133,-0.016501268,0.04127271,-0.6796478,-0.7323766,-0.068569876,0.7293462,-0.6806998,,-0.07523258,0.29060006,-0.05924047,-0.21098763,-0.93265814,0.29263118,0.8091177,0.001339694,0.5876451,-0.54846406,0.36075893,0.7543475,,-7.61545e-05,0.45290267,-0.33278272,-0.16957468,-0.74490505,-0.64526033,0.84986204,-0.44203365,0.2869509,-0.49897793,-0.49972263,0.7080242,,1.2102140232539744,0.30449191176492396,0.19229814005,2.4839870705176756,-0.7438491047230578,-0.2654431620173245,-0.41554730424560626,,-1.1391108216809893,-0.1086742970060873,0.17065398592000003,-1.8492556115900203,-1.1111280160925618,-0.5313320761343153,0.8624566691889943,,0.023856469213197493,0.036593009429626115,0.08941130016,-0.1167695939710949,,-4.7191978e-05,-6.4969063e-06,5.2452087e-06,1.0,4.092604e-05,4.3850392e-05,-4.093349e-05,1.0,4.142523e-06,-4.3846667e-05,-4.1127205e-06,0.99999994,743,2.279,1,1,0.077,False,-0.2623802998015474,1.036865574754509
2.2917050000000927,14:36:14.145329,14:34:57.035037,0,,0.114201345,0.0031769723,0.030728042,0.12033658,0.95999104,-0.25285655,0.14576933,0.23485963,0.961037,0.9819727,-0.15250659,-0.111675054,,0.04829007,-0.044936437,0.038180828,0.140636,0.7714615,0.620539,-0.022226363,-0.62415016,0.7809882,0.9898118,-0.123627365,-0.070631206,,0.057378378,1.323287,0.43414342,0.9967922,0.0783133,-0.016501268,0.04127271,-0.6796478,-0.7323766,-0.068569876,0.7293462,-0.6806998,,-0.07505998,0.29055113,-0.059246384,-0.16813634,-0.9439561,0.28403723,0.8069379,0.033702604,0.58967394,-0.56619906,0.328346,0.75604725,,-7.499126e-05,0.45290235,-0.3327825,-0.16958205,-0.7449053,-0.6452581,0.8498614,-0.44203746,0.28694686,-0.4989765,-0.4997189,0.70802784,,1.2087158130763749,0.3045305254292951,0.19241091728,2.4246448165115555,-0.7580593006986637,-0.21677355200908116,-0.4162006805101436,,-1.1391030989481152,-0.1086742970060873,0.17065398592000003,-1.8492556115900203,-1.1111280160925618,-0.5313320761343153,0.8624566691889943,,0.023856469213197493,0.036593009429626115,0.08941130016,-0.1167695939710949,,-4.7191978e-05,-6.4969063e-06,5.2452087e-06,1.0,4.092604e-05,4.3850392e-05,-4.093349e-05,1.0,4.142523e-06,-4.3846667e-05,-4.1127205e-06,0.99999994,752,2.308,1,1,0.106,False,-0.2622015666459845,1.0365276133490526
2.3207932569998775,14:36:14.170721,14:34:57.035037,0,,0.114031784,0.0031230748,0.03065306,0.07956334,0.96572846,-0.24705918,0.13412824,0.23521939,0.9626429,0.9877648,-0.10972869,-0.11081666,,0.04828789,-0.04493775,0.038179815,0.14065036,0.7714608,0.6205366,-0.022216976,-0.62415,0.7809887,0.98981,-0.123632744,-0.07064742,,0.057378378,1.323287,0.43414342,0.9967922,0.0783133,-0.016501268,0.04127271,-0.6796478,-0.7323766,-0.068569876,0.7293462,-0.6806998,,-0.074888185,0.29046303,-0.05924293,-0.12805252,-0.9519353,0.27824762,0.8038588,0.06469889,0.591291,-0.5808731,0.2993881,0.7569367,,-7.273372e-05,0.4529009,-0.3327831,-0.16959669,-0.7449044,-0.64525527,0.8498637,-0.44204205,0.28693298,-0.49896762,-0.49971613,0.70803607,,1.2072639392960207,0.3045845845594147,0.19251721306000003,2.3684479116577024,-0.7688535841801334,-0.17252296439605996,-0.4162006805101436,,-1.1390876534823666,-0.10868201973896152,0.17065398592000003,-1.8492556115900203,-1.1111280160925618,-0.5313320761343153,0.8624566691889943,,0.023856469213197493,0.036593009429626115,0.08941130016,-0.1167695939710949,,-4.7191978e-05,-6.4969063e-06,5.2452087e-06,1.0,4.092604e-05,4.3850392e-05,-4.093349e-05,1.0,4.142523e-06,-4.3846667e-05,-4.1127205e-06,0.99999994,761,2.337,1,1,0.135,False,-0.26190367805337944,1.0369138549552883
2.3461510639999688,14:36:14.197465,14:34:57.035037,0,,0.11387322,0.0030399412,0.030623019,0.04031696,0.97126645,-0.23455527,0.11808199,0.22846967,0.9663633,0.992185,-0.06665757,-0.10547793,,0.04828789,-0.04493775,0.038179815,0.14065036,0.7714608,0.6205366,-0.022216976,-0.62415,0.7809887,0.98981,-0.123632744,-0.07064742,,0.057378378,1.323287,0.43414342,0.9967922,0.0783133,-0.016501268,0.04127271,-0.6796478,-0.7323766,-0.068569876,0.7293462,-0.6806998,,-0.074730545,0.29038695,-0.059291,-0.08953824,-0.9599211,0.26558304,0.7967107,0.090989135,0.5974722,-0.59769136,0.26508945,0.75663245,,-7.273372e-05,0.4529009,-0.3327831,-0.16959669,-0.7449044,-0.64525527,0.8498637,-0.44204205,0.28693298,-0.49896762,-0.49971613,0.70803607,,1.2058043427827922,0.30470814828540227,0.19258721272,2.3128800766343036,-0.7823805976569119,-0.12155168800137928,-0.41571064831174076,,-1.1390876534823666,-0.10868201973896152,0.17065398592000003,-1.8492556115900203,-1.1111280160925618,-0.5313320761343153,0.8624566691889943,,0.023856469213197493,0.036593009429626115,0.08941130016,-0.1167695939710949,,-4.7191978e-05,-6.4969063e-06,5.2452087e-06,1.0,4.092604e-05,4.3850392e-05,-4.093349e-05,1.0,4.142523e-06,-4.3846667e-05,-4.1127205e-06,0.99999994,774,2.378,1,1,0.176,False,-0.26202283349042155,1.0369138549552883
2.3728441029998066,14:36:14.241955,14:34:57.035037,0,,0.11365155,0.0029071867,0.030544147,-0.013701333,0.9748714,-0.22234653,0.10099766,0.22257945,0.969669,0.9947922,-0.009170726,-0.10150951,,0.048351854,-0.044915453,0.038187146,0.14057912,0.77149266,0.62051314,-0.022251636,-0.6241168,0.7810143,0.98981935,-0.123601705,-0.07057083,,0.05739152,1.3232865,0.43415728,0.99679226,0.078312434,-0.016502196,0.041271448,-0.67964786,-0.7323766,-0.068569876,0.7293462,-0.6806998,,-0.07452058,0.29023117,-0.059335366,-0.036209825,-0.96671623,0.25327566,0.7878263,0.12831269,0.60238326,-0.61483216,0.2213494,0.7569583,,-0.00014967579,0.45290384,-0.33275887,-0.1695243,-0.7449392,-0.64523417,0.8498584,-0.44199964,0.28701395,-0.4990012,-0.49970183,0.70802253,,1.203796432235494,0.30511745312773614,0.19265721238000003,2.2357141774319986,-0.7930382446386164,-0.05503254349354031,-0.4157106483117406,,-1.1391108216809893,-0.1086742970060873,0.17065528221,-1.8492556115900203,-1.1111280160925618,-0.5313320761343153,0.8624566691889943,,0.023856469213197493,0.036593009429626115,0.08941130016,-0.1167695939710949,,-3.5062432e-05,4.887581e-06,-4.053116e-06,1.0,4.005432e-05,4.292652e-05,-4.0069222e-05,1.0,4.082918e-06,-4.292652e-05,-4.053116e-06,1.0,783,2.406,1,1,0.204,False,-0.2622015666459845,1.0366724539513914
2.417419111000072,14:36:14.267426,14:34:57.035037,0,,0.113572896,0.00282979,0.030467406,-0.039694764,0.9758708,-0.21471035,0.09575635,0.21760593,0.97132814,0.99461293,0.017996728,-0.1020838,,0.04834663,-0.0449173,0.038187683,0.14060822,0.7714926,0.6205066,-0.022239774,-0.62411374,0.78101707,0.98981553,-0.12361729,-0.07059771,,0.05739152,1.3232865,0.43415728,0.99679226,0.078312434,-0.016502196,0.041271448,-0.67964786,-0.7323766,-0.068569876,0.7293462,-0.6806998,,-0.07444008,0.2901238,-0.059342578,-0.010392873,-0.96928316,0.24572767,0.78457934,0.14444877,0.6029675,-0.61994135,0.19905943,0.7589783,,-0.00014441187,0.4529037,-0.33276066,-0.16955367,-0.7449388,-0.6452269,0.8498595,-0.44201183,0.28699204,-0.49898943,-0.49969164,0.70803803,,1.2028233678933415,0.30542636244270516,0.19268054560000003,2.199018437322207,-0.7939947001369744,-0.021417764631159353,-0.4158739923778749,,-1.1390799307494925,-0.10868201973896152,0.17065268963000002,-1.8492556115900203,-1.1111280160925618,-0.5313320761343153,0.8624566691889943,,0.023856469213197493,0.036593009429626115,0.08941130016,-0.1167695939710949,,-3.5062432e-05,4.887581e-06,-4.053116e-06,1.0,4.005432e-05,4.292652e-05,-4.0069222e-05,1.0,4.082918e-06,-4.292652e-05,-4.053116e-06,1.0,796,2.447,1,1,0.245,False,-0.2623802998015474,1.0369621351560678
