AlexandreBanks6/ExpertPlaybackApp/resources/Motions/P_16/PC1/Data_PC1_2.csv
Task Time,PC1 Time,PC2 Time,Gaze Calib,s_T_psm1,Tx,Ty,Tz,R00,R01,R02,R10,R11,R12,R20,R21,R22,s_T_psm3,Tx,Ty,Tz,R00,R01,R02,R10,R11,R12,R20,R21,R22,cart_T_ecm,Tx,Ty,Tz,R00,R01,R02,R10,R11,R12,R20,R21,R22,ecm_T_psm1,Tx,Ty,Tz,R00,R01,R02,R10,R11,R12,R20,R21,R22,ecm_T_psm3,Tx,Ty,Tz,R00,R01,R02,R10,R11,R12,R20,R21,R22,psm1_joints,q1,q2,q3,q4,q5,q6,jaw,psm3_joints,q1,q2,q3,q4,q5,q6,jaw,ecm_joints,q1,q2,q3,q4,ecmi_T_ecm,Tx,Ty,Tz,R00,R01,R02,R10,R11,R12,R20,R21,R22,Sample #,Task Duration (s),Collisions (binary),Collisions (increments),Cumulative Collision Time (s),Clutch Press,MTMR Angle,MTML Angle
""
lci_T_si,,,,,-0.057824805,0.033623017,0.23225968,0.99702215,-0.012819277,0.07604288,0.048720323,-0.65965104,-0.7499912,0.059776112,0.7514627,-0.6570622
rci_T_si,,,,,-0.06734889,0.03764145,0.24189119,0.9919741,-0.042941336,0.118926115,0.062775895,-0.649194,-0.758028,0.10975685,0.7594098,-0.6412879
ecm_T_lc,,,,,-4.4061628e-05,-0.00034663224,-0.01840835,-0.99912,0.030754527,0.028518902,-0.031987965,-0.99852574,-0.043852776,0.027128186,-0.04472645,0.9986309
ecm_T_rc,,,,,-0.0043358393,0.01870579,-0.007592615,-0.99555075,-0.052743673,-0.078081585,0.04863213,-0.9973746,0.053654674,-0.08070653,0.04961868,0.9955021
cart_T_ecmi,,,,,0.057426013,1.3232883,0.4341485,0.9967947,0.07827243,-0.016545301,0.041212782,-0.6796525,-0.73237556,-0.068569876,0.7293462,-0.6806998
ecmac_T_ecmrep_psm1,,,,,-0.0012004398,-0.28172868,-0.2751139,0.9977453,0.05981805,0.030433392,-0.056875188,0.9943363,-0.089780115,-0.035631496,0.08784678,0.9954965
ecmac_T_ecmrep_psm3,,,,,-0.035388503,-0.5052441,-0.50078297,0.9946279,0.028167607,0.09960877,-0.04494542,0.98434234,0.17044082,-0.09324822,-0.17400216,0.9803204
""
0,14:37:12.504774,14:35:55.363615,0,,0.117749535,0.0021826476,0.017558321,0.8847304,0.14548054,-0.44281772,0.31420454,0.51558065,0.79715246,0.3442784,-0.8444004,0.41043907,,0.040682342,-0.04355428,0.030584157,0.49649626,0.71951884,0.48557597,-0.028465867,-0.54559755,0.8375639,0.867572,-0.4296696,-0.25040543,,0.057390142,1.3232905,0.4341443,0.99679226,0.078312404,-0.016502231,0.0412714,-0.67964786,-0.7323766,-0.068569876,0.7293462,-0.6806998,,-0.077943936,0.28029343,-0.050668027,-0.8929665,-0.08678549,0.44167754,0.448488,-0.25510168,0.85661054,0.03833132,0.9630116,0.26671952,,0.0076934476,0.44724703,-0.3277817,-0.52114874,-0.68654853,-0.50700605,0.72437304,-0.6699539,0.16262084,-0.45131776,-0.28251186,0.84646285,,1.1813618932358716,0.3051020076619877,0.19935125394000003,3.4617712769860125,-0.1651935282164175,-1.3675311430962473,-0.411300358526115,,-1.0893609765052352,-0.09403199547655763,0.17345137974000002,-1.6716482294586281,-0.7967274301322832,-0.7476820898709056,0.8732373775538569,,0.023856469213197493,0.03659955441432109,0.08941130016,-0.1167695939710949,,-3.5375357e-05,-7.390976e-06,1.9073486e-06,1.0,4.002452e-05,4.2892992e-05,-4.0035695e-05,1.0,4.082918e-06,-4.2892992e-05,-4.053116e-06,1.0,36,0.108,0,0,0.0,False,-0.2635718541719685,1.047680339729108
0.119146744000318,14:37:12.535616,14:35:55.363615,0,,0.11777362,0.0022125244,0.017833054,0.8835541,0.15187111,-0.4430209,0.30939752,0.5208465,0.79560804,0.3515757,-0.8400322,0.41320738,,0.04068113,-0.043554354,0.030583799,0.4965027,0.71951675,0.48557243,-0.02846402,-0.5455965,0.8375646,0.8675684,-0.4296744,-0.2504098,,0.057390142,1.3232905,0.4341443,0.99679226,0.078312404,-0.016502231,0.0412714,-0.67964786,-0.7323766,-0.068569876,0.7293462,-0.6806998,,-0.0779817,0.28051183,-0.05083484,-0.8923066,-0.0932548,0.44169268,0.45044777,-0.24843082,0.8575424,0.029760132,0.96415025,0.26368287,,0.007694669,0.44724673,-0.3277816,-0.5211551,-0.6865463,-0.5070024,0.7243704,-0.66995746,0.1626175,-0.4513145,-0.2825086,0.84646565,,1.1821805029205394,0.3054495306413278,0.19916329189,3.4598840674946523,-0.17380162770164026,-1.369578155318975,-0.41162704665838357,,-1.089353253772361,-0.09403199547655763,0.17345137974000002,-1.6716482294586281,-0.7967274301322832,-0.7476820898709056,0.8732373775538569,,0.023856469213197493,0.03659955441432109,0.08941130016,-0.1167695939710949,,-3.5375357e-05,-7.390976e-06,1.9073486e-06,1.0,4.002452e-05,4.2892992e-05,-4.0035695e-05,1.0,4.082918e-06,-4.2892992e-05,-4.053116e-06,1.0,44,0.133,0,0,0.0,False,-0.2631548101423209,1.0479217407330053
0.14998450700022659,14:37:12.562262,14:35:55.363615,0,,0.11773113,0.0022104234,0.01805067,0.8819505,0.15373075,-0.44556743,0.30891228,0.52546537,0.7927543,0.3560009,-0.8368113,0.41594493,,0.04068113,-0.043554354,0.030583799,0.4965027,0.7194771,0.48563123,-0.02846402,-0.5456649,0.83752006,0.8675684,-0.4296539,-0.2504449,,0.057390142,1.3232905,0.4341443,0.99679226,0.078312404,-0.016502231,0.0412714,-0.67964786,-0.7323766,-0.068569876,0.7293462,-0.6806998,,-0.07795085,0.2806682,-0.05098901,-0.8909528,-0.095157824,0.44401363,0.4533357,-0.24294636,0.85759187,0.026264915,0.9653611,0.25959218,,0.007694669,0.44724673,-0.3277816,-0.5211551,-0.6865049,-0.5070585,0.7243704,-0.66997075,0.16256279,-0.4513145,-0.28257775,0.8464426,,1.1829373307422135,0.30554992616869275,0.19899995935000003,3.456529028398899,-0.17762744969507258,-1.372502680785877,-0.4121170788567865,,-1.089353253772361,-0.09403199547655763,0.17345137974000002,-1.6716482294586281,-0.7967274301322832,-0.747600411130765,0.8734007216199912,,0.023856469213197493,0.03659955441432109,0.08941130016,-0.1167695939710949,,-3.5375357e-05,-7.390976e-06,1.9073486e-06,1.0,4.002452e-05,4.2892992e-05,-4.0035695e-05,1.0,4.082918e-06,-4.2892992e-05,-4.053116e-06,1.0,55,0.166,0,0,0.0,False,-0.2632143878608417,1.0480665813353434
0.17663163100041857,14:37:12.593872,14:35:55.456579,0,,0.11767467,0.0021634847,0.01831469,0.8812127,0.15748939,-0.44571432,0.3071298,0.5260143,0.7930828,0.35935423,-0.83576673,0.41516078,,0.04068113,-0.043554354,0.030583799,0.4965027,0.7194771,0.48563123,-0.02846402,-0.5456649,0.83752006,0.8675684,-0.4296539,-0.2504449,,0.057390142,1.3232905,0.4341443,0.99679226,0.078312404,-0.016502231,0.0412714,-0.67964786,-0.7323766,-0.068569876,0.7293462,-0.6806998,,-0.0779097,0.28082728,-0.05120831,-0.89044136,-0.098950386,0.44421053,0.45453537,-0.24188666,0.85725635,0.02262276,0.9652459,0.26036233,,0.007694669,0.44724673,-0.3277816,-0.5211551,-0.6865049,-0.5070585,0.7243704,-0.66997075,0.16256279,-0.4513145,-0.28257775,0.8464426,,1.1837636631597555,0.30554992616869275,0.19877440489,3.4550611987945077,-0.18158990818827037,-1.3707417789012108,-0.4114637025922496,,-1.089353253772361,-0.09403199547655763,0.17345137974000002,-1.6716482294586281,-0.7967274301322832,-0.747600411130765,0.8734007216199912,,0.023856469213197493,0.03659955441432109,0.08941130016,-0.1167695939710949,,-3.5375357e-05,-7.390976e-06,1.9073486e-06,1.0,4.002452e-05,4.2892992e-05,-4.0035695e-05,1.0,4.082918e-06,-4.2892992e-05,-4.053116e-06,1.0,63,0.19,0,0,0.0,False,-0.26333354329788383,1.0483079823392407
0.2082040070004041,14:37:12.616128,14:35:55.456579,0,,0.11761352,0.0021247268,0.018493637,0.8809234,0.15796778,-0.44611686,0.30716774,0.526271,0.7928978,0.3600306,-0.8355149,0.41508168,,0.040679924,-0.0435544,0.0305835,0.4965092,0.7194751,0.48562774,-0.028462201,-0.5456639,0.8375207,0.8675648,-0.42965877,-0.25044927,,0.057390142,1.3232905,0.4341443,0.99679226,0.078312404,-0.016502231,0.0412714,-0.67964786,-0.7323766,-0.068569876,0.7293462,-0.6806998,,-0.077859156,0.28093076,-0.051363237,-0.89018726,-0.09943439,0.44461158,0.45505524,-0.2415367,0.8570792,0.02216687,0.9652838,0.26026103,,0.00769589,0.44724646,-0.32778144,-0.52116156,-0.68650275,-0.50705487,0.72436786,-0.6699744,0.16255945,-0.45131126,-0.2825745,0.8464454,,1.184366036323945,0.30553448070294426,0.19861625751000003,3.4542224390205694,-0.18227309068709754,-1.3701846893827285,-0.4108103263277123,,-1.0893455310394866,-0.09403199547655763,0.17345137974000002,-1.6716482294586281,-0.7967274301322832,-0.747600411130765,0.8734007216199912,,0.023856469213197493,0.03659955441432109,0.08941130016,-0.1167695939710949,,-3.5375357e-05,-7.390976e-06,1.9073486e-06,1.0,4.002452e-05,4.2892992e-05,-4.0035695e-05,1.0,4.082918e-06,-4.2892992e-05,-4.053116e-06,1.0,71,0.214,0,0,0.0,False,-0.2630356547052788,1.0478251803314462
0.23045779700032654,14:37:12.638093,14:35:55.456579,0,,0.11758016,0.0020652264,0.018765897,0.88071376,0.16390617,-0.4443851,0.30321953,0.5256553,0.79482347,0.36386988,-0.8347582,0.41325223,,0.040679924,-0.0435544,0.0305835,0.4965092,0.7194751,0.48562774,-0.028462201,-0.5456639,0.8375207,0.8675648,-0.42965877,-0.25044927,,0.057390142,1.3232905,0.4341443,0.99679226,0.078312404,-0.016502231,0.0412714,-0.67964786,-0.7323766,-0.068569876,0.7293462,-0.6806998,,-0.07784184,0.28108662,-0.051595993,-0.8902866,-0.10541882,0.44303113,0.4550959,-0.24153367,0.85705847,0.016656835,0.9646493,0.26300985,,0.00769589,0.44724646,-0.32778144,-0.52116156,-0.68650275,-0.50705487,0.72436786,-0.6699744,0.16255945,-0.45131126,-0.2825745,0.8464454,,1.1851305868784932,0.3055190352371958,0.19837774015,3.4542224390205694,-0.18801182367724606,-1.3667303185295874,-0.4106469822615777,,-1.0893455310394866,-0.09403199547655763,0.17345137974000002,-1.6716482294586281,-0.7967274301322832,-0.747600411130765,0.8734007216199912,,0.023856469213197493,0.03659955441432109,0.08941130016,-0.1167695939710949,,-3.5375357e-05,-7.390976e-06,1.9073486e-06,1.0,4.002452e-05,4.2892992e-05,-4.0035695e-05,1.0,4.082918e-06,-4.2892992e-05,-4.053116e-06,1.0,78,0.236,0,0,0.0,False,-0.26309523242380006,1.0483079823392407
0.25246513800038883,14:37:12.664671,14:35:55.456579,0,,0.117559984,0.0020250082,0.0189552,0.8805815,0.16623805,-0.44378057,0.30074096,0.5276851,0.7944201,0.36623922,-0.83301467,0.414675,,0.040678587,-0.043553237,0.030583262,0.49651608,0.7194738,0.4856225,-0.028465927,-0.54565823,0.8375243,0.8675606,-0.4296679,-0.2504476,,0.057390142,1.3232905,0.4341443,0.99679226,0.078312404,-0.016502231,0.0412714,-0.67964786,-0.7323766,-0.068569876,0.7293462,-0.6806998,,-0.07783278,0.28119573,-0.05175685,-0.8903462,-0.10778445,0.44234166,0.45509198,-0.23891659,0.85779375,0.013225933,0.96503955,0.2617703,,0.0076971897,0.44724694,-0.3277803,-0.52116823,-0.68650144,-0.5070498,0.7243622,-0.66997963,0.16256285,-0.45131266,-0.28256512,0.84644777,,1.1856480099810662,0.3055422034358185,0.19821181503000002,3.4542224390205694,-0.1915643726711475,-1.3675906750799462,-0.40868685346796685,,-1.0893378083066125,-0.0940242727436834,0.17345137974000002,-1.6716482294586281,-0.7967274301322832,-0.747600411130765,0.8734007216199912,,0.023856469213197493,0.03659955441432109,0.08941130016,-0.1167695939710949,,-3.5375357e-05,-7.390976e-06,1.9073486e-06,1.0,4.002452e-05,4.2892992e-05,-4.0035695e-05,1.0,4.082918e-06,-4.2892992e-05,-4.053116e-06,1.0,86,0.261,0,0,0.0,False,-0.26333354329788383,1.0479700209337843
0.2790326690001166,14:37:12.688263,14:35:55.566001,0,,0.11752954,0.0019597113,0.019261166,0.87972814,0.16930003,-0.4443151,0.29822463,0.5313375,0.79293287,0.37032482,-0.8300711,0.41694295,,0.040678456,-0.043551985,0.0305835,0.49651647,0.7194747,0.48562077,-0.02847144,-0.54565364,0.8375271,0.86756027,-0.42967227,-0.25044155,,0.057390142,1.3232905,0.4341443,0.99679226,0.078312404,-0.016502231,0.0412714,-0.67964786,-0.7323766,-0.068569876,0.7293462,-0.6806998,,-0.07782032,0.28137186,-0.05201692,-0.8897777,-0.11089891,0.44271553,0.45631418,-0.2343249,0.85841084,0.008542441,0.9658122,0.25910184,,0.007697268,0.44724774,-0.32777932,-0.5211684,-0.68650234,-0.50704837,0.72435915,-0.6699813,0.16256957,-0.4513173,-0.28255898,0.84644735,,1.1864511741999857,0.3056194307645608,0.19794218671000002,3.452754609416178,-0.19648328666270337,-1.3693788210968552,-0.40983026193090644,,-1.0893378083066125,-0.09401655001080918,0.17345137974000002,-1.6716482294586281,-0.7967274301322832,-0.747600411130765,0.8737274097522597,,0.023856469213197493,0.03659955441432109,0.08941130016,-0.1167695939710949,,-3.5375357e-05,-7.390976e-06,1.9073486e-06,1.0,4.002452e-05,4.2892992e-05,-4.0035695e-05,1.0,4.082918e-06,-4.2892992e-05,-4.053116e-06,1.0,94,0.284,0,0,0.0,False,-0.26297607698675796,1.048114861536123
0.30260199800022747,14:37:12.715520,14:35:55.566001,0,,0.11750515,0.0019105822,0.019455299,0.8797559,0.1712706,-0.44350418,0.29632792,0.53194714,0.7932352,0.37177858,-0.82927597,0.4172313,,0.04067833,-0.043550733,0.03058374,0.4965169,0.71947557,0.485619,-0.028476924,-0.54564905,0.8375299,0.8675598,-0.4296767,-0.25043553,,0.057390142,1.3232905,0.4341443,0.99679226,0.078312404,-0.016502231,0.0412714,-0.67964786,-0.7323766,-0.068569876,0.7293462,-0.6806998,,-0.077807546,0.28147838,-0.052187756,-0.88993305,-0.11289172,0.44189888,0.4560494,-0.23336802,0.85881215,0.0061722957,0.96581304,0.25916612,,0.007697346,0.44724855,-0.32777834,-0.52116865,-0.68650323,-0.5070469,0.7243561,-0.66998297,0.16257627,-0.45132193,-0.28255284,0.84644693,,1.1869608745696845,0.30565804442893185,0.19776589127000002,3.4529642993596625,-0.1989427436584813,-1.3689251948929901,-0.41064698226157814,,-1.0893378083066125,-0.09400882727793496,0.17345137974000002,-1.6716482294586281,-0.7967274301322832,-0.747600411130765,0.8737274097522597,,0.023856469213197493,0.03659955441432109,0.08941130016,-0.1167695939710949,,-3.5375357e-05,-7.390976e-06,1.9073486e-06,1.0,4.002452e-05,4.2892992e-05,-4.0035695e-05,1.0,4.082918e-06,-4.2892992e-05,-4.053116e-06,1.0,102,0.309,0,0,0.0,False,-0.26285692154971585,1.0478251803314462
0.32988934800005154,14:37:12.738109,14:35:55.566001,0,,0.11745422,0.0018184781,0.01976408,0.879234,0.17277864,-0.443954,0.29589757,0.53228486,0.79316926,0.37335265,-0.8287463,0.4168781,,0.040680744,-0.043550644,0.030584455,0.49650395,0.7194798,0.4856261,-0.02848056,-0.54565114,0.8375284,0.86756706,-0.42966706,-0.25042677,,0.057390142,1.3232905,0.4341443,0.99679226,0.078312404,-0.016502231,0.0412714,-0.67964786,-0.7323766,-0.068569876,0.7293462,-0.6806998,,-0.0777755,0.28163838,-0.052470244,-0.8895068,-0.11441608,0.4423648,0.4568973,-0.23278172,0.85852057,0.004745888,0.96577513,0.2593373,,0.0076949038,0.44724914,-0.32777864,-0.5211558,-0.68650764,-0.50705415,0.7243613,-0.66997576,0.16258293,-0.45132843,-0.28255937,0.84644127,,1.187733147857107,0.30572754902479987,0.19747422602000003,3.4517061596987553,-0.20058238165566658,-1.3678332162690547,-0.410156950063175,,-1.089353253772361,-0.09400882727793496,0.17345137974000002,-1.6716482294586281,-0.7967274301322832,-0.747600411130765,0.8737274097522597,,0.023856469213197493,0.03659955441432109,0.08941130016,-0.1167695939710949,,-3.5375357e-05,-7.390976e-06,1.9073486e-06,1.0,4.002452e-05,4.2892992e-05,-4.0035695e-05,1.0,4.082918e-06,-4.2892992e-05,-4.053116e-06,1.0,113,0.342,0,0,0.0,False,-0.26297607698675796,1.0477769001306665
0.35248005900029966,14:37:12.767148,14:35:55.566001,0,,0.117432445,0.0017651767,0.019963607,0.87919897,0.17449118,-0.44335312,0.29448596,0.5324886,0.79355776,0.37454924,-0.8282565,0.41677815,,0.040680878,-0.04355188,0.030584276,0.4965036,0.7194788,0.48562777,-0.028475076,-0.5456557,0.8375256,0.86756754,-0.42966267,-0.2504328,,0.057390142,1.3232905,0.4341443,0.99679226,0.078312404,-0.016502231,0.0412714,-0.67964786,-0.7323766,-0.068569876,0.7293462,-0.6806998,,-0.07776573,0.28174582,-0.052647658,-0.88957286,-0.11614605,0.4417807,0.45678404,-0.23232098,0.8587056,0.0028996645,0.9656796,0.25972012,,0.0076948255,0.44724834,-0.32777962,-0.5211556,-0.6865067,-0.5070556,0.72436434,-0.6699741,0.16257623,-0.45132378,-0.2825655,0.84644175,,1.1882274027610573,0.3057970536206679,0.19729015284,3.4517061596987553,-0.20249529265238275,-1.36700847427857,-0.4099936059970408,,-1.089353253772361,-0.09401655001080918,0.17345137974000002,-1.6716482294586281,-0.7967274301322832,-0.747600411130765,0.8737274097522597,,0.023856469213197493,0.03659955441432109,0.08941130016,-0.1167695939710949,,-3.5375357e-05,-7.390976e-06,1.9073486e-06,1.0,4.002452e-05,4.2892992e-05,-4.0035695e-05,1.0,4.082918e-06,-4.2892992e-05,-4.053116e-06,1.0,121,0.367,0,0,0.0,False,-0.26243987752006825,1.047680339729108
0.38149986900043587,14:37:12.795642,14:35:55.685356,0,,0.11741022,0.0016837865,0.020323992,0.87860554,0.1774181,-0.44336805,0.29230458,0.53438604,0.7930886,0.37763795,-0.82641053,0.4176543,,0.040679537,-0.043550674,0.030584097,0.49651048,0.71947765,0.48562253,-0.028478771,-0.5456501,0.8375292,0.8675634,-0.42967185,-0.25043115,,0.057390142,1.3232905,0.4341443,0.99679226,0.078312404,-0.016502231,0.0412714,-0.67964786,-0.7323766,-0.068569876,0.7293462,-0.6806998,,-0.07776477,0.2819499,-0.05295646,-0.8892021,-0.11911462,0.4417367,0.45751384,-0.22973333,0.8590132,-0.000839389,0.965937,0.25877595,,0.0076961247,0.44724885,-0.3277785,-0.5211622,-0.68650544,-0.5070505,0.7243587,-0.6699794,0.16257961,-0.45132518,-0.28255612,0.84644413,,1.1890923488429703,0.3060132901411462,0.19696608034000002,3.450657709981333,-0.20632111464581507,-1.3669925651004116,-0.41097367039384647,,-1.0893455310394866,-0.09400882727793496,0.17345137974000002,-1.6716482294586281,-0.7967274301322832,-0.747600411130765,0.8735640656861253,,0.023856469213197493,0.03659955441432109,0.08941130016,-0.1167695939710949,,-3.5375357e-05,-7.390976e-06,1.9073486e-06,1.0,4.002452e-05,4.2892992e-05,-4.0035695e-05,1.0,4.082918e-06,-4.2892992e-05,-4.053116e-06,1.0,129,0.391,0,0,0.0,False,-0.26404847592013647,1.0475837793275489
0.41001400200002536,14:37:12.817045,14:35:55.685356,0,,0.11742136,0.0016364455,0.02060701,0.8780653,0.18065962,-0.44312927,0.2892779,0.5372723,0.792248,0.38120824,-0.8238329,0.4194991,,0.04067833,-0.043550733,0.03058374,0.4965169,0.71947557,0.485619,-0.028476924,-0.54564905,0.8375299,0.8675598,-0.4296767,-0.25043553,,0.057390142,1.3232905,0.4341443,0.99679226,0.078312404,-0.016502231,0.0412714,-0.67964786,-0.7323766,-0.068569876,0.7293462,-0.6806998,,-0.07779212,0.2821211,-0.0531854,-0.8889326,-0.12240947,0.44137833,0.45800486,-0.2259396,0.8597574,-0.005517607,0.9664198,0.25690922,,0.007697346,0.44724855,-0.32777834,-0.52116865,-0.68650323,-0.5070469,0.7243561,-0.66998297,0.16257627,-0.45132193,-0.28255284,0.84644693,,1.1897333356715312,0.3062681403259956,0.19672237782000002,3.450028640150879,-0.21096675563784006,-1.3681867595233075,-0.41048363819544376,,-1.0893378083066125,-0.09400882727793496,0.17345137974000002,-1.6716482294586281,-0.7967274301322832,-0.747600411130765,0.8734007216199912,,0.023856469213197493,0.03659955441432109,0.08941130016,-0.1167695939710949,,-3.5375357e-05,-7.390976e-06,1.9073486e-06,1.0,4.002452e-05,4.2892992e-05,-4.0035695e-05,1.0,4.082918e-06,-4.2892992e-05,-4.053116e-06,1.0,137,0.415,0,0,0.0,False,-0.26339312101640555,1.0479217407330053
0.4314158380002482,14:37:12.837378,14:35:55.685356,0,,0.117428765,0.0016208738,0.020865843,0.8776835,0.1828763,-0.44297624,0.28660873,0.54051524,0.7910112,0.38409257,-0.8212184,0.42198724,,0.040680744,-0.043550644,0.030584455,0.49650395,0.7194798,0.4856261,-0.02848056,-0.54565114,0.8375284,0.86756706,-0.42966706,-0.25042677,,0.057390142,1.3232905,0.4341443,0.99679226,0.078312404,-0.016502231,0.0412714,-0.67964786,-0.7323766,-0.068569876,0.7293462,-0.6806998,,-0.07781362,0.2822969,-0.053374924,-0.8887754,-0.12467369,0.4410609,0.4582454,-0.22185203,0.8606932,-0.009455536,0.96707714,0.25430778,,0.0076949038,0.44724914,-0.32777864,-0.5211558,-0.68650764,-0.50705415,0.7243613,-0.66997576,0.16258293,-0.45132843,-0.28255937,0.84644127,,1.1904052134315886,0.30660021783958724,0.19651626771000003,3.44960926026391,-0.21479257763127238,-1.3701311401085223,-0.41113701445998085,,-1.089353253772361,-0.09400882727793496,0.17345137974000002,-1.6716482294586281,-0.7967274301322832,-0.747600411130765,0.8730740334877225,,0.023856469213197493,0.03659955441432109,0.08941130016,-0.1167695939710949,,-3.5375357e-05,-7.390976e-06,1.9073486e-06,1.0,4.002452e-05,4.2892992e-05,-4.0035695e-05,1.0,4.082918e-06,-4.2892992e-05,-4.053116e-06,1.0,145,0.44,0,0,0.0,False,-0.26273776611267374,1.04748721892599
0.45174728400024833,14:37:12.868132,14:35:55.685356,0,,0.11741031,0.0016037673,0.021432713,0.8758605,0.18586767,-0.4453332,0.28585872,0.5436651,0.7891217,0.3887843,-0.81846285,0.42304277,,0.040680878,-0.04355188,0.030584276,0.4965036,0.7194788,0.48562777,-0.028475076,-0.5456557,0.8375256,0.86756754,-0.42966267,-0.2504328,,0.057390142,1.3232905,0.4341443,0.99679226,0.078312404,-0.016502231,0.0412714,-0.67964786,-0.7323766,-0.068569876,0.7293462,-0.6806998,,-0.07782562,0.28269434,-0.053779718,-0.88722366,-0.12772113,0.4433074,0.46114665,-0.21774255,0.86019295,-0.013337941,0.9676133,0.25208452,,0.0076948255,0.44724834,-0.32777962,-0.5211556,-0.6865067,-0.5070556,0.72436434,-0.6699741,0.16257623,-0.45132378,-0.2825655,0.84644175,,1.1919652054721819,0.30745744118862617,0.19607034395000003,3.445625151337704,-0.21848176312493928,-1.3700632913537794,-0.410156950063175,,-1.089353253772361,-0.09401655001080918,0.17345137974000002,-1.6716482294586281,-0.7967274301322832,-0.747600411130765,0.8730740334877225,,0.023856469213197493,0.03659955441432109,0.08941130016,-0.1167695939710949,,-3.5375357e-05,-7.390976e-06,1.9073486e-06,1.0,4.002452e-05,4.2892992e-05,-4.0035695e-05,1.0,4.082918e-06,-4.2892992e-05,-4.053116e-06,1.0,156,0.474,0,0,0.0,False,-0.26386974276457353,1.048114861536123
0.4824162590002743,14:37:12.898890,14:35:55.685356,0,,0.117406555,0.001644358,0.021881625,0.8735727,0.19265775,-0.44693837,0.28306615,0.54589665,0.7885877,0.39590964,-0.8154017,0.4223454,,0.040681046,-0.043556977,0.030581832,0.4966256,0.7190115,0.48619485,-0.029041767,-0.5460762,0.8372321,0.86747885,-0.42991078,-0.25031406,,0.057390142,1.3232905,0.4341443,0.99679226,0.078312404,-0.016502231,0.0412714,-0.67964786,-0.7323766,-0.068569876,0.7293462,-0.6806998,,-0.077844515,0.28304636,-0.05406064,-0.8853913,-0.13460141,0.44493225,0.46439865,-0.21412282,0.8593517,-0.020399807,0.96748847,0.2520912,,0.0076949056,0.44724378,-0.32778293,-0.52125484,-0.6860176,-0.5076153,0.7240088,-0.67037326,0.16251437,-0.45177945,-0.28280655,0.8461181,,1.1933939110539136,0.3081833780788033,0.19575145661,3.4414313524680136,-0.22558686111274218,-1.3678634249277501,-0.4108103263277123,,-1.0893455310394866,-0.09401655001080918,0.17345267603000003,-1.6708094696846902,-0.7967274301322832,-0.7476820898709056,0.8732373775538569,,0.023856469213197493,0.03659955441432109,0.08941130016,-0.1167695939710949,,-3.5375357e-05,-7.390976e-06,1.9073486e-06,1.0,4.002452e-05,4.2892992e-05,-4.0035695e-05,1.0,4.082918e-06,-4.2892992e-05,-4.053116e-06,1.0,164,0.498,0,0,0.0,False,-0.26327396557936344,1.0482597021384612
0.513262004000353,14:37:12.928261,14:35:55.817060,0,,0.11739204,0.0016891807,0.022333667,0.8721294,0.19939888,-0.4468002,0.27727723,0.5509671,0.78711665,0.40312234,-0.8103551,0.4252258,,0.040684626,-0.0435717,0.030582547,0.4966006,0.717873,0.4878996,-0.030702561,-0.54722995,0.8364191,0.86743593,-0.430346,-0.24971418,,0.057390142,1.3232905,0.4341443,0.99679226,0.078312404,-0.016502231,0.0412714,-0.67964786,-0.7323766,-0.068569876,0.7293462,-0.6806998,,-0.077852726,0.28340378,-0.054341253,-0.88448685,-0.14146177,0.4446027,0.46562293,-0.20710462,0.8604086,-0.029635651,0.9680373,0.24904917,,0.0076918295,0.44723713,-0.32779622,-0.5211701,-0.68482655,-0.5093077,0.72317326,-0.67126,0.16257441,-0.45321316,-0.28358877,0.8450889,,1.1948843984986388,0.30877030577724435,0.19545201362000003,3.4395441429766533,-0.23460487009726125,-1.3690861109985453,-0.4122804229229211,,-1.0893378083066125,-0.09401655001080918,0.17345267603000003,-1.6685028803063602,-0.7971373396315795,-0.7479195873408002,0.8737274097522597,,0.023856469213197493,0.03659955441432109,0.08941130016,-0.1167695939710949,,-3.5375357e-05,-7.390976e-06,1.9073486e-06,1.0,4.002452e-05,4.2892992e-05,-4.0035695e-05,1.0,4.082918e-06,-4.2892992e-05,-4.053116e-06,1.0,176,0.534,0,0,0.0,False,-0.2632143878608417,1.047680339729108
0.5426097320000736,14:37:12.958651,14:35:55.817060,0,,0.11735692,0.0017197877,0.022622004,0.8707786,0.2039005,-0.44740283,0.27406514,0.5541885,0.7859793,0.40820703,-0.8070314,0.42669338,,0.04068645,-0.043566246,0.030584633,0.49627784,0.7185178,0.48727867,-0.030349523,-0.5465734,0.83686113,0.8676331,-0.43010423,-0.24944559,,0.057390142,1.3232905,0.4341443,0.99679226,0.078312404,-0.016502231,0.0412714,-0.67964786,-0.7323766,-0.068569876,0.7293462,-0.6806998,,-0.07783209,0.28363365,-0.054520242,-0.8834932,-0.14604497,0.44509625,0.467094,-0.2025654,0.86069185,-0.03553861,0.96831715,0.24718188,,0.0076897526,0.44724151,-0.3277925,-0.52086604,-0.68550104,-0.50871104,0.72352976,-0.67076045,0.16304922,-0.45299366,-0.28314078,0.84535676,,1.195957858368156,0.3090560468935907,0.19526145899000003,3.4374472435418078,-0.24061687608694063,-1.3695745200851799,-0.4116270466583838,,-1.0893455310394866,-0.09400882727793496,0.17345397232,-1.669131950136814,-0.7974106126311105,-0.7482685027143914,0.8729106894215883,,0.023856469213197493,0.03659955441432109,0.08941130016,-0.1167695939710949,,-3.5375357e-05,-7.390976e-06,1.9073486e-06,1.0,4.002452e-05,4.2892992e-05,-4.0035695e-05,1.0,4.082918e-06,-4.2892992e-05,-4.053116e-06,1.0,184,0.559,0,0,0.0,False,-0.2636314318904893,1.0484045427407995
0.5730243830003019,14:37:12.981164,14:35:55.817060,0,,0.11726231,0.0017384589,0.023039773,0.8694655,0.20997778,-0.4471457,0.26940903,0.55714965,0.7854954,0.41406363,-0.80342615,0.4278524,,0.040685236,-0.043566305,0.030584276,0.49628428,0.71867484,0.4870403,-0.030347645,-0.546299,0.8370404,0.8676294,-0.4301905,-0.24930947,,0.057390142,1.3232905,0.4341443,0.99679226,0.078312404,-0.016502231,0.0412714,-0.67964786,-0.7323766,-0.068569876,0.7293462,-0.6806998,,-0.077759236,0.28394982,-0.054800536,-0.8826166,-0.1522229,0.44476533,0.4681216,-0.19803411,0.86118793,-0.043013822,0.96830297,0.246047,,0.0076909736,0.44724125,-0.32779235,-0.5208724,-0.685665,-0.5084834,0.7235272,-0.6707108,0.16326502,-0.4529904,-0.28286132,0.8454521,,1.1976182459361142,0.3092722834140689,0.19497238632000002,3.435560034050447,-0.24840515657357073,-1.3688595326441828,-0.41048363819544376,,-1.0893378083066125,-0.09400882727793496,0.17345397232,-1.669131950136814,-0.7974106126311105,-0.7485952176749535,0.8735640656861254,,0.023856469213197493,0.03659955441432109,0.08941130016,-0.1167695939710949,,-3.5375357e-05,-7.390976e-06,1.9073486e-06,1.0,4.002452e-05,4.2892992e-05,-4.0035695e-05,1.0,4.082918e-06,-4.2892992e-05,-4.053116e-06,1.0,203,0.617,0,0,0.0,False,-0.26190367805337944,1.0484045427407995
0.5954463060002126,14:37:13.038252,14:35:55.817060,0,,0.117079765,0.0017101467,0.023642585,0.86914164,0.21678254,-0.44452024,0.26231536,0.5599015,0.78593963,0.41926548,-0.7996973,0.42976815,,0.040682532,-0.04356626,0.030583024,0.49618816,0.71870035,0.48710075,-0.030375242,-0.54632354,0.8370234,0.86768353,-0.43011683,-0.24924856,,0.057390142,1.3232905,0.4341443,0.99679226,0.078312404,-0.016502231,0.0412714,-0.67964786,-0.7323766,-0.068569876,0.7293462,-0.6806998,,-0.077609636,0.2843687,-0.055247385,-0.8827582,-0.1591392,0.4420551,0.46697003,-0.19357285,0.86282593,-0.051739555,0.9680931,0.24519126,,0.0076937126,0.4472403,-0.32779166,-0.52077705,-0.6856918,-0.50854504,0.7235654,-0.6706592,0.1633075,-0.45303902,-0.2829188,0.8454068,,1.2000586295243691,0.30933406527706275,0.19452257369,3.4357697239939315,-0.2576964385576207,-1.36765405692379,-0.40983026193090644,,-1.0893146401079898,-0.09400882727793496,0.17345526861000002,-1.669131950136814,-0.7975472491308759,-0.7485654785113975,0.8737274097522598,,0.023856469213197493,0.03659955441432109,0.08941130016,-0.1167695939710949,,-3.5375357e-05,-7.390976e-06,1.9073486e-06,1.0,4.002452e-05,4.2892992e-05,-4.0035695e-05,1.0,4.082918e-06,-4.2892992e-05,-4.053116e-06,1.0,207,0.629,0,0,0.0,False,-0.26339312101640555,1.04835626254002
0.652625573000023,14:37:13.059390,14:35:55.956495,0,,0.11704743,0.0016860515,0.023986489,0.86779255,0.22697483,-0.4420616,0.2540839,0.5618427,0.7872574,0.4270567,-0.7954969,0.42989212,,0.040685218,-0.043567482,0.03058356,0.4962037,0.7185781,0.4872651,-0.030520916,-0.546448,0.8369369,0.86766946,-0.4301629,-0.24921784,,0.057390142,1.3232905,0.4341443,0.99679226,0.078312404,-0.016502231,0.0412714,-0.67964786,-0.7323766,-0.068569876,0.7293462,-0.6806998,,-0.07759619,0.28460073,-0.055504054,-0.8820437,-0.16948368,0.43962952,0.46691898,-0.18939911,0.8637793,-0.06313105,0.9671625,0.24619345,,0.0076910574,0.44724005,-0.32779303,-0.52078706,-0.6855639,-0.5087071,0.7234824,-0.67075413,0.16328564,-0.45316014,-0.28300357,0.8453135,,1.2012324849212515,0.3093186198113143,0.19426979714,3.4353503441069626,-0.26944717753744857,-1.3654232038185483,-0.4068900687404895,,-1.0893300855737382,-0.09400882727793496,0.17345526861000002,-1.6689222601933293,-0.7975472491308759,-0.7485654785113975,0.8737274097522598,,0.023856469213197493,0.03659955441432109,0.08941130016,-0.1167695939710949,,-3.5375357e-05,-7.390976e-06,1.9073486e-06,1.0,4.002452e-05,4.2892992e-05,-4.0035695e-05,1.0,4.082918e-06,-4.2892992e-05,-4.053116e-06,1.0,219,0.665,0,0,0.0,False,-0.26309523242380006,1.047680339729108
0.6737583080002878,14:37:13.092249,14:35:55.956495,0,,0.11705512,0.0016711801,0.024320826,0.8655839,0.23672687,-0.4412765,0.24405427,0.5700449,0.7845294,0.43726653,-0.7867714,0.43564728,,0.040684626,-0.04356757,0.030584276,0.49609458,0.7185281,0.48745,-0.03055209,-0.5466113,0.836829,0.86773074,-0.4300389,-0.24921843,,0.057390142,1.3232905,0.4341443,0.99679226,0.078312404,-0.016502231,0.0412714,-0.67964786,-0.7323766,-0.068569876,0.7293462,-0.6806998,,-0.07762193,0.2848315,-0.0557452,-0.8806471,-0.1794603,0.43846852,0.46738482,-0.1776183,0.86602724,-0.077537484,0.9675979,0.24029607,,0.007691631,0.44724065,-0.32779345,-0.5206788,-0.68551195,-0.508888,0.72352576,-0.67072195,0.16322522,-0.45321518,-0.28320566,0.8452163,,1.202282776592146,0.3093263425441885,0.19403516865,3.43430189438954,-0.28420391951211615,-1.3702158906882906,-0.410156950063175,,-1.089322362840864,-0.09400882727793496,0.17345526861000002,-1.6689222601933293,-0.7976838856306414,-0.7483723818675606,0.8738907538183941,,0.023856469213197493,0.03659955441432109,0.08941130016,-0.1167695939710949,,-3.5375357e-05,-7.390976e-06,1.9073486e-06,1.0,4.002452e-05,4.2892992e-05,-4.0035695e-05,1.0,4.082918e-06,-4.2892992e-05,-4.053116e-06,1.0,227,0.69,0,0,0.0,False,-0.26333354329788383,1.0479217407330053
0.70662260600011,14:37:13.109775,14:35:55.956495,0,,0.11703654,0.0016453713,0.024525091,0.864708,0.24046752,-0.4409712,0.23990783,0.57358813,0.7832247,0.44127592,-0.78305304,0.43829608,,0.040683288,-0.043566395,0.030584157,0.49610153,0.71852684,0.48744476,-0.030555755,-0.5466057,0.8368325,0.86772674,-0.43004808,-0.24921678,,0.057390142,1.3232905,0.4341443,0.99679226,0.078312404,-0.016502231,0.0412714,-0.67964786,-0.7323766,-0.068569876,0.7293462,-0.6806998,,-0.07761487,0.28496134,-0.055905912,-0.88009566,-0.18329613,0.43798882,0.46742404,-0.17255649,0.86702883,-0.08334523,0.9677948,0.23754324,,0.0076929303,0.44724116,-0.32779232,-0.5206855,-0.68551064,-0.50888294,0.72352016,-0.67072725,0.16322859,-0.45321658,-0.28319627,0.84521866,,1.2029314861535807,0.3093263425441885,0.19387702127000003,3.4338825145025704,-0.2902159255017955,-1.3723378745777364,-0.4114637025922496,,-1.0893146401079898,-0.09400110454506073,0.17345526861000002,-1.6689222601933293,-0.7976838856306414,-0.7483723818675606,0.8738907538183941,,0.023856469213197493,0.03659955441432109,0.08941130016,-0.1167695939710949,,-3.5375357e-05,-7.390976e-06,1.9073486e-06,1.0,4.002452e-05,4.2892992e-05,-4.0035695e-05,1.0,4.082918e-06,-4.2892992e-05,-4.053116e-06,1.0,235,0.714,0,0,0.0,False,-0.26255903295711036,1.048452822941579
0.7241183350001847,14:37:13.138407,14:35:55.956495,0,,0.116978966,0.0016305,0.02470164,0.8634692,0.2418442,-0.44264257,0.23999485,0.57487595,0.78225327,0.44364792,-0.7816835,0.43834615,,0.040683288,-0.043566395,0.030584157,0.49610153,0.71852684,0.48744476,-0.030555755,-0.5466057,0.8368325,0.86772674,-0.43004808,-0.24921678,,0.057390142,1.3232905,0.4341443,0.99679226,0.078312404,-0.016502231,0.0412714,-0.67964786,-0.7323766,-0.068569876,0.7293462,-0.6806998,,-0.07756713,0.28507954,-0.05604175,-0.8789821,-0.18470834,0.4396286,0.4692198,-0.17070411,0.86642534,-0.084989585,0.9678548,0.23671466,,0.0076929303,0.44724116,-0.32779232,-0.5206855,-0.68551064,-0.50888294,0.72352016,-0.67072725,0.16322859,-0.45321658,-0.28319627,0.84521866,,1.2036033639136383,0.30933406527706275,0.19374091082000003,3.4313662351807563,-0.2921288364985117,-1.3720848837682356,-0.41113701445998085,,-1.0893146401079898,-0.09400110454506073,0.17345526861000002,-1.6689222601933293,-0.7976838856306414,-0.7483723818675606,0.8738907538183941,,0.023856469213197493,0.03659955441432109,0.08941130016,-0.1167695939710949,,-3.5375357e-05,-7.390976e-06,1.9073486e-06,1.0,4.002452e-05,4.2892992e-05,-4.0035695e-05,1.0,4.082918e-06,-4.2892992e-05,-4.053116e-06,1.0,246,0.748,0,0,0.0,False,-0.2635718541719685,1.0485011031423586
0.752776367000024,14:37:13.169699,14:35:55.956495,0,,0.11693185,0.0016144067,0.024964556,0.86114705,0.24941464,-0.44296533,0.23692542,0.5740317,0.78380734,0.44976914,-0.7799231,0.43523282,,0.040682077,-0.043566424,0.03058374,0.49610797,0.71852475,0.48744127,-0.030553967,-0.5466047,0.8368333,0.8677231,-0.43005288,-0.24922118,,0.057390142,1.3232905,0.4341443,0.99679226,0.078312404,-0.016502231,0.0412714,-0.67964786,-0.7323766,-0.068569876,0.7293462,-0.6806998,,-0.07753442,0.28525898,-0.05623751,-0.8770698,-0.19238111,0.440157,0.47155645,-0.17016728,0.86526155,-0.09155967,0.9664536,0.23996714,,0.0076941513,0.44724086,-0.32779217,-0.5206919,-0.68550843,-0.5088793,0.72351754,-0.6707309,0.16322525,-0.45321333,-0.28319302,0.8452215,,1.2045300918585453,0.3093263425441885,0.19354905990000001,3.4280111960850044,-0.29909729798654916,-1.367137679340983,-0.4096669178647725,,-1.0893069173751155,-0.09400110454506073,0.17345526861000002,-1.6689222601933293,-0.7976838856306414,-0.7483723818675606,0.8738907538183941,,0.023856469213197493,0.03659955441432109,0.08941130016,-0.1167695939710949,,-3.5375357e-05,-7.390976e-06,1.9073486e-06,1.0,4.002452e-05,4.2892992e-05,-4.0035695e-05,1.0,4.082918e-06,-4.2892992e-05,-4.053116e-06,1.0,254,0.773,0,0,0.0,False,-0.2635718541719685,1.0479700209337843
0.7840709520000928,14:37:13.195743,14:35:55.956495,0,,0.11686732,0.0015937984,0.02525869,0.8593899,0.2543475,-0.44357237,0.23343682,0.5766571,0.78292644,0.45492452,-0.7763852,0.43619916,,0.04068195,-0.043565173,0.030583978,0.4961084,0.71848583,0.48749822,-0.03055945,-0.5466684,0.8367914,0.86772263,-0.4300369,-0.24925028,,0.057390142,1.3232905,0.4341443,0.99679226,0.078312404,-0.016502231,0.0412714,-0.67964786,-0.7323766,-0.068569876,0.7293462,-0.6806998,,-0.07748612,0.28545818,-0.05645909,-0.87568164,-0.19742209,0.44068828,0.47289512,-0.16589446,0.86536074,-0.09773359,0.96617985,0.23863067,,0.0076942295,0.44724166,-0.32779118,-0.5206921,-0.6854678,-0.50893384,0.7235145,-0.67074585,0.16317718,-0.45321795,-0.28325593,0.8451979,,1.2056112744609366,0.3093263425441885,0.19333128318,3.4257046067066743,-0.30565584997529033,-1.367017059332551,-0.41130035852611524,,-1.0893069173751155,-0.09399338181218651,0.17345526861000002,-1.6689222601933293,-0.7976838856306414,-0.74829070312742,0.8737274097522597,,0.023856469213197493,0.03659955441432109,0.08941130016,-0.1167695939710949,,-3.5375357e-05,-7.390976e-06,1.9073486e-06,1.0,4.002452e-05,4.2892992e-05,-4.0035695e-05,1.0,4.082918e-06,-4.2892992e-05,-4.053116e-06,1.0,262,0.796,0,0,0.0,False,-0.26196325577190027,1.0480665813353434
0.8100970740001685,14:37:13.226406,14:35:55.956495,0,,0.11684112,0.0016043484,0.025576338,0.8566615,0.26365453,-0.44341564,0.22510576,0.58234274,0.7811558,0.4641751,-0.7690015,0.43952027,,0.04068195,-0.043565173,0.030583978,0.4961084,0.71848583,0.48749822,-0.03055945,-0.5466684,0.8367914,0.86772263,-0.4300369,-0.24925028,,0.057390142,1.3232905,0.4341443,0.99679226,0.078312404,-0.016502231,0.0412714,-0.67964786,-0.7323766,-0.068569876,0.7293462,-0.6806998,,-0.077476464,0.28569514,-0.056672297,-0.8736701,-0.20695093,0.44030887,0.47385496,-0.15681493,0.86652786,-0.11028175,0.965702,0.23506923,,0.0076942295,0.44724166,-0.32779118,-0.5206921,-0.6854678,-0.50893384,0.7235145,-0.67074585,0.16317718,-0.45321795,-0.28325593,0.8451979,,1.2068160207893157,0.30933406527706275,0.19312387678,3.423607707271829,-0.318909590452538,-1.369278121096488,-0.41130035852611524,,-1.0893069173751155,-0.09399338181218651,0.17345526861000002,-1.6689222601933293,-0.7976838856306414,-0.74829070312742,0.8737274097522597,,0.023856469213197493,0.03659955441432109,0.08941130016,-0.1167695939710949,,-3.5375357e-05,-7.390976e-06,1.9073486e-06,1.0,4.002452e-05,4.2892992e-05,-4.0035695e-05,1.0,4.082918e-06,-4.2892992e-05,-4.053116e-06,1.0,270,0.821,0,0,0.0,False,-0.2626186106756321,1.0485011031423586
0.8407749950001744,14:37:13.256460,14:35:56.122411,0,,0.116776764,0.0016483217,0.025875464,0.85374874,0.27163538,-0.44421554,0.21829608,0.58780956,0.7789908,0.47271556,-0.7620329,0.4425446,,0.04068195,-0.043565173,0.030583978,0.4961084,0.7184459,0.48755687,-0.03055945,-0.5467368,0.83674675,0.86772263,-0.43001658,-0.24928537,,0.057390142,1.3232905,0.4341443,0.99679226,0.078312404,-0.016502231,0.0412714,-0.67964786,-0.7323766,-0.068569876,0.7293462,-0.6806998,,-0.077426866,0.28594264,-0.05685074,-0.8713962,-0.2151398,0.4408895,0.47535932,-0.14816019,0.86722666,-0.1212527,0.9652789,0.23137493,,0.0076942295,0.44724166,-0.32779118,-0.5206921,-0.6854262,-0.5089898,0.7235145,-0.6707592,0.16312239,-0.45321795,-0.28332496,0.8451748,,1.2081211626450596,0.30933406527706275,0.19296313682000002,3.4206720480630457,-0.33011378343330416,-1.3708417679517948,-0.41048363819544353,,-1.0893069173751155,-0.09399338181218651,0.17345526861000002,-1.6689222601933293,-0.7976838856306414,-0.7482090243872795,0.8735640656861253,,0.023856469213197493,0.03659955441432109,0.08941130016,-0.1167695939710949,,-3.5375357e-05,-7.390976e-06,1.9073486e-06,1.0,4.002452e-05,4.2892992e-05,-4.0035695e-05,1.0,4.082918e-06,-4.2892992e-05,-4.053116e-06,1.0,282,0.858,0,0,0.0,False,-0.26351227645344677,1.0481631417369022
0.870831771000212,14:37:13.275843,14:35:56.122411,0,,0.116671406,0.0016634613,0.026057586,0.8536625,0.27141863,-0.44451353,0.2179982,0.58891237,0.778241,0.4730086,-0.7612583,0.44356352,,0.04068303,-0.043563906,0.030584574,0.49610236,0.7184489,0.48755872,-0.030566812,-0.5467332,0.8367489,0.86772585,-0.4300161,-0.24927495,,0.057390142,1.3232905,0.4341443,0.99679226,0.078312404,-0.016502231,0.0412714,-0.67964786,-0.7323766,-0.068569876,0.7293462,-0.6806998,,-0.07733091,0.28608656,-0.056971442,-0.8713336,-0.21493489,0.44111305,0.4753662,-0.1468337,0.86744845,-0.12167467,0.96552724,0.23011391,,0.0076930868,0.44724274,-0.32779035,-0.5206859,-0.6854293,-0.508992,0.723514,-0.67075723,0.16313244,-0.45322582,-0.2833221,0.8451716,,1.2091019497200861,0.30933406527706275,0.19284387814,3.4200429782325927,-0.3307969659321313,-1.371183144574859,-0.4086868534679664,,-1.0893146401079898,-0.09398565907931228,0.17345526861000002,-1.6689222601933293,-0.7976838856306414,-0.7482090243872795,0.8735640656861253,,0.023856469213197493,0.03659955441432109,0.08941130016,-0.1167695939710949,,-3.5375357e-05,-7.390976e-06,1.9073486e-06,1.0,4.002452e-05,4.2892992e-05,-4.0035695e-05,1.0,4.082918e-06,-4.2892992e-05,-4.053116e-06,1.0,293,0.891,0,0,0.0,False,-0.26297607698675796,1.047728619929887
0.8902169050002158,14:37:13.309092,14:35:56.122411,0,,0.11651864,0.0016857833,0.026315108,0.85263014,0.2710007,-0.44674444,0.21955091,0.5900414,0.7769483,0.4741512,-0.7605326,0.4435885,,0.040683158,-0.043565143,0.030584335,0.49610192,0.71844804,0.4875604,-0.030561298,-0.5467378,0.8367461,0.86772627,-0.43001175,-0.24928099,,0.057390142,1.3232905,0.4341443,0.99679226,0.078312404,-0.016502231,0.0412714,-0.67964786,-0.7323766,-0.068569876,0.7293462,-0.6806998,,-0.077191435,0.2862908,-0.057141725,-0.87032187,-0.21452583,0.44330412,0.4772856,-0.14552045,0.8666154,-0.12140158,0.965817,0.22903971,,0.0076930085,0.44724196,-0.32779133,-0.5206857,-0.6854284,-0.50899345,0.72351706,-0.67075557,0.16312574,-0.4532212,-0.28332824,0.845172,,1.2104611507059497,0.3093495107428112,0.19267406415000002,3.416897629080325,-0.3309336024318968,-1.3704999754901785,-0.40983026193090644,,-1.0893146401079898,-0.09399338181218651,0.17345526861000002,-1.6689222601933293,-0.7976838856306414,-0.7482090243872795,0.8735640656861253,,0.023856469213197493,0.03659955441432109,0.08941130016,-0.1167695939710949,,-3.5375357e-05,-7.390976e-06,1.9073486e-06,1.0,4.002452e-05,4.2892992e-05,-4.0035695e-05,1.0,4.082918e-06,-4.2892992e-05,-4.053116e-06,1.0,297,0.904,0,0,0.0,False,-0.2632143878608417,1.04835626254002
0.9234650340004009,14:37:13.330149,14:35:56.122411,0,,0.116447605,0.0016952604,0.02647315,0.8525533,0.27278122,-0.44580644,0.21799453,0.58964807,0.77768475,0.4750067,-0.76020104,0.4432414,,0.040683158,-0.043565143,0.030584335,0.49610192,0.71844804,0.4875604,-0.030561298,-0.5467378,0.8367461,0.86772627,-0.43001175,-0.24928099,,0.057390142,1.3232905,0.4341443,0.99679226,0.078312404,-0.016502231,0.0412714,-0.67964786,-0.7323766,-0.068569876,0.7293462,-0.6806998,,-0.07712862,0.28641278,-0.057247974,-0.87033206,-0.2163313,0.44240582,0.47682688,-0.1455885,0.86685646,-0.12311899,0.9654039,0.22986293,,0.0076930085,0.44724196,-0.32779133,-0.5206857,-0.6854284,-0.50899345,0.72351706,-0.67075557,0.16312574,-0.4532212,-0.28332824,0.845172,,1.2112488694591206,0.3093572334756854,0.19257036095000002,3.416897629080325,-0.33284651342861293,-1.3689401248384288,-0.41015695006317543,,-1.0893146401079898,-0.09399338181218651,0.17345526861000002,-1.6689222601933293,-0.7976838856306414,-0.7482090243872795,0.8735640656861253,,0.023856469213197493,0.03659955441432109,0.08941130016,-0.1167695939710949,,-3.5375357e-05,-7.390976e-06,1.9073486e-06,1.0,4.002452e-05,4.2892992e-05,-4.0035695e-05,1.0,4.082918e-06,-4.2892992e-05,-4.053116e-06,1.0,305,0.928,0,0,0.0,False,-0.26255903295711036,1.0482597021384612
0.9445182860004024,14:37:13.356412,14:35:56.122411,0,,0.11635402,0.0017261207,0.026723579,0.85024303,0.27846122,-0.44670594,0.21561843,0.58992356,0.7781381,0.4802036,-0.75792456,0.44153687,,0.04068195,-0.043565173,0.030583978,0.4961084,0.7184459,0.48755687,-0.03055945,-0.5467368,0.83674675,0.86772263,-0.43001658,-0.24928537,,0.057390142,1.3232905,0.4341443,0.99679226,0.078312404,-0.016502231,0.0412714,-0.67964786,-0.7323766,-0.068569876,0.7293462,-0.6806998,,-0.077047616,0.28661662,-0.057403866,-0.8683642,-0.2221143,0.443406,0.4789765,-0.14386712,0.8659583,-0.12855017,0.9643482,0.23131658,,0.0076942295,0.44724166,-0.32779118,-0.5206921,-0.6854262,-0.5089898,0.7235145,-0.6707592,0.16312239,-0.45321795,-0.28332496,0.8451748,,1.2124613385203737,0.3093495107428112,0.19241869502000003,3.413332900041087,-0.3388585194182923,-1.3655079543983164,-0.4093402297325035,,-1.0893069173751155,-0.09399338181218651,0.17345526861000002,-1.6689222601933293,-0.7976838856306414,-0.7482090243872795,0.8735640656861253,,0.023856469213197493,0.03659955441432109,0.08941130016,-0.1167695939710949,,-3.5375357e-05,-7.390976e-06,1.9073486e-06,1.0,4.002452e-05,4.2892992e-05,-4.0035695e-05,1.0,4.082918e-06,-4.2892992e-05,-4.053116e-06,1.0,313,0.952,0,0,0.0,False,-0.26232072208302704,1.0486459437446969
0.9707698310003252,14:37:13.383639,14:35:56.270348,0,,0.11631614,0.0017358661,0.026972458,0.8483267,0.28481868,-0.44634107,0.20953616,0.59357584,0.77702147,0.48624745,-0.7526926,0.44386625,,0.04068195,-0.043565173,0.030583978,0.4961084,0.7184459,0.48755687,-0.03055945,-0.5467368,0.83674675,0.86772263,-0.43001658,-0.24928537,,0.057390142,1.3232905,0.4341443,0.99679226,0.078312404,-0.016502231,0.0412714,-0.67964786,-0.7323766,-0.068569876,0.7293462,-0.6806998,,-0.077022694,0.28680363,-0.0575708,-0.86693347,-0.22863941,0.44288874,0.47916377,-0.13768941,0.86685854,-0.13721694,0.96372485,0.22892328,,0.0076942295,0.44724166,-0.32779118,-0.5206921,-0.6854262,-0.5089898,0.7235145,-0.6707592,0.16312239,-0.45321795,-0.28332496,0.8451748,,1.2134344028625261,0.3093495107428112,0.19226702909,3.41207476038018,-0.34773989190304594,-1.366678700892527,-0.41048363819544353,,-1.0893069173751155,-0.09399338181218651,0.17345526861000002,-1.6689222601933293,-0.7976838856306414,-0.7482090243872795,0.8735640656861253,,0.023856469213197493,0.03659955441432109,0.08941130016,-0.1167695939710949,,-3.5375357e-05,-7.390976e-06,1.9073486e-06,1.0,4.002452e-05,4.2892992e-05,-4.0035695e-05,1.0,4.082918e-06,-4.2892992e-05,-4.053116e-06,1.0,325,0.989,0,0,0.0,False,-0.26339312101640555,1.0486942239454764
0.9979976310000893,14:37:13.410727,14:35:56.270348,0,,0.11629486,0.001749903,0.027127787,0.84592086,0.28768972,-0.44905752,0.2068544,0.5991082,0.773486,0.49155796,-0.7471975,0.44728804,,0.040683158,-0.043565143,0.030584335,0.49610192,0.71844804,0.4875604,-0.030561298,-0.5467378,0.8367461,0.86772627,-0.43001175,-0.24928099,,0.057390142,1.3232905,0.4341443,0.99679226,0.078312404,-0.016502231,0.0412714,-0.67964786,-0.7323766,-0.068569876,0.7293462,-0.6806998,,-0.07700929,0.28692585,-0.05766913,-0.86488444,-0.23164782,0.44532487,0.48118562,-0.12995191,0.86693305,-0.14295234,0.9640808,0.22385898,,0.0076930085,0.44724196,-0.32779133,-0.5206857,-0.6854284,-0.50899345,0.72351706,-0.67075557,0.16312574,-0.4532212,-0.28332824,0.845172,,1.2140290532938414,0.3093572334756854,0.19217628879,3.4089294112279123,-0.3537518978927253,-1.370597617065065,-0.4103202941293096,,-1.0893146401079898,-0.09399338181218651,0.17345526861000002,-1.6689222601933293,-0.7976838856306414,-0.7482090243872795,0.8735640656861253,,0.023856469213197493,0.03659955441432109,0.08941130016,-0.1167695939710949,,-3.5375357e-05,-7.390976e-06,1.9073486e-06,1.0,4.002452e-05,4.2892992e-05,-4.0035695e-05,1.0,4.082918e-06,-4.2892992e-05,-4.053116e-06,1.0,329,1.001,0,0,0.0,False,-0.26333354329788383,1.048452822941579
1.0250777490000473,14:37:13.431956,14:35:56.270348,0,,0.116277955,0.0017533749,0.027299657,0.8449703,0.2916181,-0.44831264,0.20223519,0.6017933,0.7726227,0.49510223,-0.7435078,0.44952184,,0.040683776,-0.043565203,0.030585468,0.4959863,0.7184797,0.4876315,-0.03059426,-0.54676557,0.8367267,0.8677912,-0.42992365,-0.24920687,,0.057390142,1.3232905,0.4341443,0.99679226,0.078312404,-0.016502231,0.0412714,-0.67964786,-0.7323766,-0.068569876,0.7293462,-0.6806998,,-0.07700141,0.28705257,-0.057786245,-0.86424655,-0.23569249,0.4444401,0.4805635,-0.12550865,0.8679322,-0.14878403,0.9636891,0.22173561,,0.0076923613,0.44724286,-0.3277919,-0.520571,-0.68546164,-0.509066,0.7235631,-0.67069316,0.16317824,-0.4532795,-0.2833955,0.84511817,,1.2146777628552763,0.3093958471400565,0.19206610414000003,3.4089294112279123,-0.3597639038824047,-1.3720661710333864,-0.41097367039384647,,-1.0893146401079898,-0.09399338181218651,0.17345526861000002,-1.6689222601933293,-0.7978205221304068,-0.7481792852237237,0.873400721619991,,0.023856469213197493,0.03659955441432109,0.08941130016,-0.1167695939710949,,-3.5375357e-05,-7.390976e-06,1.9073486e-06,1.0,4.002452e-05,4.2892992e-05,-4.0035695e-05,1.0,4.082918e-06,-4.2892992e-05,-4.053116e-06,1.0,341,1.038,0,0,0.0,False,-0.26297607698675796,1.0481631417369022
1.0462862630001837,14:37:13.462230,14:35:56.270348,0,,0.11622694,0.0017928481,0.027513191,0.84205073,0.2982782,-0.44942257,0.19919017,0.6023477,0.77298164,0.50127214,-0.7404104,0.44779307,,0.04068257,-0.043565232,0.03058505,0.4959928,0.7184776,0.48762792,-0.030592471,-0.5467645,0.83672744,0.8677876,-0.4299285,-0.24921128,,0.057390142,1.3232905,0.4341443,0.99679226,0.078312404,-0.016502231,0.0412714,-0.67964786,-0.7323766,-0.068569876,0.7293462,-0.6806998,,-0.07696072,0.28723493,-0.057908073,-0.8617398,-0.24248978,0.44564912,0.48296395,-0.12302119,0.86695534,-0.15540354,0.9623225,0.2231261,,0.007693582,0.44724256,-0.32779175,-0.52057743,-0.68545943,-0.50906235,0.7235605,-0.6706968,0.1631749,-0.45327628,-0.28339222,0.84512097,,1.2156276589988058,0.3094499062701761,0.19195332691000003,3.404945302301707,-0.3667323653704421,-1.3687525414089452,-0.41032029412930915,,-1.0893069173751155,-0.09399338181218651,0.17345526861000002,-1.6689222601933293,-0.7978205221304068,-0.7481792852237237,0.873400721619991,,0.023856469213197493,0.03659955441432109,0.08941130016,-0.1167695939710949,,-3.5375357e-05,-7.390976e-06,1.9073486e-06,1.0,4.002452e-05,4.2892992e-05,-4.0035695e-05,1.0,4.082918e-06,-4.2892992e-05,-4.053116e-06,1.0,349,1.062,0,0,0.0,False,-0.2631548101423209,1.0486459437446969
1.0765713850000793,14:37:13.490368,14:35:56.270348,0,,0.11614971,0.0018637031,0.027814224,0.8373475,0.30821338,-0.4515016,0.19388735,0.60478187,0.77242905,0.51113296,-0.73433197,0.44665384,,0.04068136,-0.043565292,0.030584693,0.4959993,0.7184756,0.48762435,-0.030590653,-0.5467634,0.8367282,0.8677839,-0.42993325,-0.24921569,,0.057390142,1.3232905,0.4341443,0.99679226,0.078312404,-0.016502231,0.0412714,-0.67964786,-0.7323766,-0.068569876,0.7293462,-0.6806998,,-0.07689764,0.28750268,-0.058069166,-0.85770804,-0.25266373,0.44776994,0.48649907,-0.11714634,0.8657918,-0.16629958,0.9604362,0.22339804,,0.0076948036,0.44724226,-0.3277916,-0.52058387,-0.6854573,-0.5090587,0.7235579,-0.6707004,0.16317156,-0.45327303,-0.28338897,0.8451238,,1.2170409191147888,0.309480797201673,0.19181073501,3.3988642939406555,-0.37820983135073916,-1.3656010217491286,-0.41113701445998063,,-1.0892991946422412,-0.09399338181218651,0.17345526861000002,-1.6689222601933293,-0.7978205221304068,-0.7481792852237237,0.873400721619991,,0.023856469213197493,0.03659955441432109,0.08941130016,-0.1167695939710949,,-3.5375357e-05,-7.390976e-06,1.9073486e-06,1.0,4.002452e-05,4.2892992e-05,-4.0035695e-05,1.0,4.082918e-06,-4.2892992e-05,-4.053116e-06,1.0,361,1.099,0,0,0.0,False,-0.2634526987349264,1.04835626254002
1.1047362610001983,14:37:13.523036,14:35:56.270348,0,,0.11609722,0.0019399524,0.028059945,0.83434504,0.31643948,-0.45136952,0.18567427,0.6096496,0.77061826,0.5190312,-0.72676927,0.4499033,,0.040683646,-0.04356395,0.030585647,0.49598676,0.7185204,0.48757103,-0.030599773,-0.5466926,0.83677423,0.8677908,-0.4299485,-0.24916573,,0.057390142,1.3232905,0.4341443,0.99679226,0.078312404,-0.016502231,0.0412714,-0.67964786,-0.7323766,-0.068569876,0.7293462,-0.6806998,,-0.07685619,0.28773373,-0.058186773,-0.8553482,-0.2611449,0.44741783,0.48657045,-0.10848258,0.8668799,-0.17784423,0.95918447,0.21985577,,0.0076924395,0.44724366,-0.32779092,-0.52057123,-0.68550414,-0.5090085,0.72356004,-0.67068154,0.16323973,-0.45328414,-0.28332034,0.8451409,,1.2182920018404133,0.3095039654002957,0.19171480955000003,3.3969770844492944,-0.3902338433300979,-1.3673946273238033,-0.41309714325359215,,-1.0893146401079898,-0.09398565907931228,0.17345526861000002,-1.6689222601933293,-0.7978205221304068,-0.7482609639638642,0.8735640656861254,,0.023856469213197493,0.03659955441432109,0.08941130016,-0.1167695939710949,,-3.5375357e-05,-7.390976e-06,1.9073486e-06,1.0,4.002452e-05,4.2892992e-05,-4.0035695e-05,1.0,4.082918e-06,-4.2892992e-05,-4.053116e-06,1.0,369,1.125,0,0,0.0,False,-0.26297607698675796,1.0478734605322257
1.1373850220002168,14:37:13.553859,14:35:56.439237,0,,0.116064146,0.0020166487,0.028363481,0.828756,0.32781827,-0.45354018,0.17529038,0.6176001,0.7667095,0.5314478,-0.71491635,0.45437628,,0.040683646,-0.04356395,0.030585647,0.49598676,0.71856016,0.48751235,-0.030599773,-0.54662424,0.8368188,0.8677908,-0.4299688,-0.2491306,,0.057390142,1.3232905,0.4341443,0.99679226,0.078312404,-0.016502231,0.0412714,-0.67964786,-0.7323766,-0.068569876,0.7293462,-0.6806998,,-0.07683717,0.28800645,-0.0583429,-0.85070336,-0.2729175,0.44924358,0.4884494,-0.09465173,0.8674435,-0.19421884,0.95736986,0.21382694,,0.0076924395,0.44724366,-0.32779092,-0.52057123,-0.6855457,-0.50895256,0.72356004,-0.6706682,0.16329451,-0.45328414,-0.2832513,0.845164,,1.2196357573605283,0.30948851993454723,0.19159166200000002,3.3921542157491507,-0.40731340580077796,-1.3708649610116905,-0.41130035852611524,,-1.0893146401079898,-0.09398565907931228,0.17345526861000002,-1.6689222601933293,-0.7978205221304068,-0.7483426427040047,0.8737274097522598,,0.023856469213197493,0.03659955441432109,0.08941130016,-0.1167695939710949,,-3.5375357e-05,-7.390976e-06,1.9073486e-06,1.0,4.002452e-05,4.2892992e-05,-4.0035695e-05,1.0,4.082918e-06,-4.2892992e-05,-4.053116e-06,1.0,377,1.149,0,0,0.0,False,-0.26243987752006825,1.0482597021384612
1.1682304130004013,14:37:13.576001,14:35:56.439237,0,,0.115997605,0.0020825118,0.028651342,0.82434297,0.3391627,-0.453241,0.16685995,0.6195013,0.7670567,0.5409404,-0.7079455,0.45408875,,0.04068654,-0.043569762,0.030585408,0.49598643,0.71856457,0.48750615,-0.030605644,-0.54661405,0.83682525,0.86779076,-0.42997438,-0.24912101,,0.057390142,1.3232905,0.4341443,0.99679226,0.078312404,-0.016502231,0.0412714,-0.67964786,-0.7323766,-0.068569876,0.7293462,-0.6806998,,-0.07678419,0.28826103,-0.058497895,-0.8470256,-0.2845596,0.4489694,0.4895481,-0.08852979,0.86747056,-0.20709991,0.9545618,0.2142926,,0.007689763,0.44724053,-0.32779595,-0.5205707,-0.6855503,-0.5089469,0.7235572,-0.67066836,0.16330628,-0.45328924,-0.2832397,0.84516513,,1.2210181265450146,0.309480797201673,0.19148147735,3.388379796766429,-0.42084041927755655,-1.3678391050795198,-0.4070534128066239,,-1.0893146401079898,-0.09397793634643806,0.17345526861000002,-1.6689222601933293,-0.7978205221304068,-0.7483426427040047,0.8737274097522598,,0.023856469213197493,0.03659955441432109,0.08941130016,-0.1167695939710949,,-3.5375357e-05,-7.390976e-06,1.9073486e-06,1.0,4.002452e-05,4.2892992e-05,-4.0035695e-05,1.0,4.082918e-06,-4.2892992e-05,-4.053116e-06,1.0,410,1.251,0,0,0.0,False,-0.26249945523859,1.0484045427407995
1.1903741180003635,14:37:13.675332,14:35:56.439237,0,,0.115768865,0.0022795051,0.02954726,0.807684,0.3615683,-0.4657413,0.15098315,0.6367395,0.75615263,0.56995666,-0.68105155,0.4596934,,0.04073076,-0.04357002,0.03058523,0.49586847,0.71858305,0.48759905,-0.03061077,-0.5466802,0.8367819,0.867858,-0.42985946,-0.24908507,,0.05734249,1.3232875,0.43414554,0.99679035,0.07834414,-0.016468033,0.041317943,-0.6796442,-0.73237735,-0.068569876,0.7293462,-0.6806998,,-0.07655743,0.28904667,-0.0589912,-0.83236253,-0.30791673,0.46082526,0.49979147,-0.05764842,0.86422515,-0.23954354,0.9496652,0.20187855,,0.0076902583,0.44724032,-0.32779735,-0.5204622,-0.6855389,-0.5090732,0.72360367,-0.6706212,0.16329396,-0.45333967,-0.28337887,0.84509146,,1.2252270159614669,0.3093572334756854,0.19107573858000002,3.3678301823049455,-0.455409453718213,-1.3712600478787227,-0.41048363819544353,,-1.0893069173751155,-0.09398565907931228,0.17345526861000002,-1.6689222601933293,-0.7979571586301722,-0.7482312248003085,0.8737274097522598,,0.023856469213197493,0.03659955441432109,0.08941130016,-0.1167695939710949,,-8.3081424e-05,-8.106232e-06,4.172325e-06,1.0,7.181242e-05,7.69496e-05,-7.181615e-05,1.0,7.301569e-06,-7.694587e-05,-7.2419643e-06,1.0,418,1.275,0,0,0.0,False,-0.26273776611267374,1.0482597021384612
1.2897011840000232,14:37:13.700764,14:35:56.439237,0,,0.115703315,0.0023005009,0.029758438,0.8042521,0.36684054,-0.4675539,0.14770178,0.63867533,0.7551674,0.57564116,-0.6764036,0.45947284,,0.04072955,-0.04357005,0.030584812,0.4958749,0.71858096,0.48759556,-0.030609012,-0.54667914,0.83678263,0.8678543,-0.4298643,-0.24908943,,0.05734249,1.3232875,0.43414554,0.99679035,0.07834414,-0.016468033,0.041317943,-0.6796442,-0.73237735,-0.068569876,0.7293462,-0.6806998,,-0.0765026,0.28921485,-0.059125535,-0.8293248,-0.3133737,0.46262005,0.5016883,-0.053059045,0.8634197,-0.24602686,0.9481464,0.20121911,,0.0076914798,0.44724002,-0.3277972,-0.52046865,-0.6855367,-0.50906956,0.72360104,-0.67062485,0.16329062,-0.45333642,-0.28337562,0.84509426,,1.2261537439063739,0.3092954516126916,0.19096166506,3.363636383435255,-0.46237791520625043,-1.369906708017655,-0.40999360599704104,,-1.0892991946422412,-0.09398565907931228,0.17345526861000002,-1.6689222601933293,-0.7979571586301722,-0.7482312248003085,0.8737274097522598,,0.023856469213197493,0.03659955441432109,0.08941130016,-0.1167695939710949,,-8.3081424e-05,-8.106232e-06,4.172325e-06,1.0,7.181242e-05,7.69496e-05,-7.181615e-05,1.0,7.301569e-06,-7.694587e-05,-7.2419643e-06,1.0,426,1.3,0,0,0.0,False,-0.2637505873275314,1.048452822941579
1.3150968040004045,14:37:13.729921,14:35:56.599125,0,,0.115544006,0.0023224503,0.030033574,0.8009658,0.36909446,-0.47140542,0.14822729,0.64060664,0.7534266,0.58007103,-0.6733441,0.45839408,,0.040731966,-0.043569945,0.030585587,0.49586198,0.71858513,0.48760262,-0.030612618,-0.5466812,0.83678114,0.8678616,-0.42985475,-0.24908061,,0.05734249,1.3232875,0.43414554,0.99679035,0.07834414,-0.016468033,0.041317943,-0.6796442,-0.73237735,-0.068569876,0.7293462,-0.6806998,,-0.07635753,0.28943166,-0.05930859,-0.82626444,-0.31573382,0.46647528,0.50531244,-0.049559347,0.8615122,-0.24889033,0.9475526,0.20049335,,0.0076890374,0.44724062,-0.3277975,-0.5204558,-0.6855411,-0.50907683,0.7236062,-0.67061764,0.16329731,-0.45334288,-0.28338212,0.8450886,,1.227567004022357,0.3091564424209556,0.19079573994000001,3.3573456851307193,-0.46579382770038646,-1.3679380478266503,-0.4090135416002354,,-1.0893146401079898,-0.09398565907931228,0.17345526861000002,-1.6689222601933293,-0.7979571586301722,-0.7482312248003085,0.8737274097522598,,0.023856469213197493,0.03659955441432109,0.08941130016,-0.1167695939710949,,-8.3081424e-05,-8.106232e-06,4.172325e-06,1.0,7.181242e-05,7.69496e-05,-7.181615e-05,1.0,7.301569e-06,-7.694587e-05,-7.2419643e-06,1.0,434,1.325,0,0,0.0,False,-0.2636314318904893,1.0486459437446969
1.3442350250002164,14:37:13.755371,14:35:56.599125,0,,0.11547065,0.002361089,0.030286714,0.79563046,0.38051447,-0.47136068,0.14162046,0.639705,0.75546086,0.5889955,-0.667822,0.45508003,,0.040731966,-0.043569945,0.030585587,0.49586198,0.7185453,0.4876613,-0.030612618,-0.5467496,0.8367365,0.8678616,-0.4298344,-0.24911575,,0.05734249,1.3232875,0.43414554,0.99679035,0.07834414,-0.016468033,0.041317943,-0.6796442,-0.73237735,-0.068569876,0.7293462,-0.6806998,,-0.07629665,0.28964245,-0.0594596,-0.8215868,-0.32744977,0.4666602,0.507282,-0.04642457,0.8605287,-0.26011544,0.9437274,0.2042512,,0.0076890374,0.44724062,-0.3277975,-0.5204558,-0.6854995,-0.5091328,0.7236062,-0.670631,0.16324253,-0.45334288,-0.28345114,0.8450655,,1.2287176912206164,0.30898654229772266,0.19068296271000001,3.3518937466001217,-0.4778178396797452,-1.361155385686566,-0.410483638195444,,-1.0893146401079898,-0.09398565907931228,0.17345526861000002,-1.6689222601933293,-0.7979571586301722,-0.7481495460601677,0.8735640656861254,,0.023856469213197493,0.03659955441432109,0.08941130016,-0.1167695939710949,,-8.3081424e-05,-8.106232e-06,4.172325e-06,1.0,7.181242e-05,7.69496e-05,-7.181615e-05,1.0,7.301569e-06,-7.694587e-05,-7.2419643e-06,1.0,446,1.361,0,0,0.0,False,-0.26309523242380006,1.0484045427407995
1.3697210260002066,14:37:13.788926,14:35:56.599125,0,,0.11544219,0.0023868978,0.030574545,0.78699577,0.3872389,-0.4802955,0.13449599,0.65208244,0.74612284,0.60212004,-0.6517933,0.4611039,,0.04073076,-0.04357002,0.03058523,0.49586847,0.7185432,0.48765773,-0.03061077,-0.5467486,0.8367373,0.867858,-0.42983913,-0.24912018,,0.05734249,1.3232875,0.43414554,0.99679035,0.07834414,-0.016468033,0.041317943,-0.6796442,-0.73237735,-0.068569876,0.7293462,-0.6806998,,-0.07628276,0.28986853,-0.059641343,-0.8138514,-0.33467907,0.47501138,0.5119881,-0.02642565,0.85858595,-0.27479827,0.9419616,0.19285825,,0.0076902583,0.44724032,-0.32779735,-0.5204622,-0.6854973,-0.50912917,0.72360367,-0.67063457,0.1632392,-0.45333967,-0.2834479,0.84506834,,1.2296753100970201,0.3088475331059866,0.19054685226,3.342038319256349,-0.49339440065300544,-1.3693635021411579,-0.41179039072451773,,-1.0893069173751155,-0.09398565907931228,0.17345526861000002,-1.6689222601933293,-0.7979571586301722,-0.7481495460601677,0.8735640656861254,,0.023856469213197493,0.03659955441432109,0.08941130016,-0.1167695939710949,,-8.3081424e-05,-8.106232e-06,4.172325e-06,1.0,7.181242e-05,7.69496e-05,-7.181615e-05,1.0,7.301569e-06,-7.694587e-05,-7.2419643e-06,1.0,454,1.387,0,0,0.0,False,-0.26333354329788383,1.04835626254002
1.4032973250000396,14:37:13.814822,14:35:56.599125,0,,0.11548659,0.0023612082,0.030902192,0.7788058,0.40225306,-0.48130453,0.11913946,0.6584791,0.743109,0.6158469,-0.63607997,0.46490294,,0.04073076,-0.04357002,0.03058523,0.49586847,0.7185432,0.48765773,-0.03061077,-0.5467486,0.8367373,0.867858,-0.42983913,-0.24912018,,0.05734249,1.3232875,0.43414554,0.99679035,0.07834414,-0.016468033,0.041317943,-0.6796442,-0.73237735,-0.068569876,0.7293462,-0.6806998,,-0.0763451,0.29008624,-0.059883617,-0.8068118,-0.35032663,0.47573727,0.5114214,-0.010957444,0.8592602,-0.29580888,0.9365635,0.18800512,,0.0076902583,0.44724032,-0.32779735,-0.5204622,-0.6854973,-0.50912917,0.72360367,-0.67063457,0.1632392,-0.45333967,-0.2834479,0.84506834,,1.230493919781688,0.30864674205125675,0.19037055682,3.337634830443174,-0.5156661501147722,-1.371540390133641,-0.40868685346796685,,-1.0893069173751155,-0.09398565907931228,0.17345526861000002,-1.6689222601933293,-0.7979571586301722,-0.7481495460601677,0.8735640656861254,,0.023856469213197493,0.03659955441432109,0.08941130016,-0.1167695939710949,,-8.3081424e-05,-8.106232e-06,4.172325e-06,1.0,7.181242e-05,7.69496e-05,-7.181615e-05,1.0,7.301569e-06,-7.694587e-05,-7.2419643e-06,1.0,483,1.476,0,0,0.0,False,-0.2636314318904893,1.048114861536123
1.4291502310002215,14:37:13.895545,14:35:56.760060,0,,0.11532886,0.0021961331,0.031531975,0.7676915,0.41304085,-0.48994607,0.114984795,0.6633659,0.739408,0.6304192,-0.62397355,0.46176684,,0.040731244,-0.043568797,0.03058654,0.49575326,0.7185757,0.48772705,-0.030649304,-0.54677165,0.8367207,0.8679224,-0.42975545,-0.24903998,,0.05734249,1.3232875,0.43414554,0.99679035,0.07834414,-0.016468033,0.041317943,-0.6796442,-0.73237735,-0.068569876,0.7293462,-0.6806998,,-0.076225355,0.29042938,-0.060446348,-0.7965984,-0.3616049,0.48443052,0.5192765,0.0009467165,0.8546058,-0.30948827,0.93233097,0.18701877,,0.0076896898,0.44724202,-0.32779694,-0.5203477,-0.68553144,-0.5092003,0.7236466,-0.67057383,0.16329843,-0.45340258,-0.28350905,0.84501404,,1.2322855938085082,0.3080984280171868,0.18986889259000003,3.3221177746253194,-0.5308328015887361,-1.36668744691627,-0.41032029412930937,,-1.0893069173751155,-0.09397793634643806,0.17345526861000002,-1.6689222601933293,-0.7980937951299377,-0.748119806896612,0.8737274097522598,,0.023856469213197493,0.03659955441432109,0.08941130016,-0.1167695939710949,,-8.3081424e-05,-8.106232e-06,4.172325e-06,1.0,7.181242e-05,7.69496e-05,-7.181615e-05,1.0,7.301569e-06,-7.694587e-05,-7.2419643e-06,1.0,491,1.501,0,0,0.0,False,-0.2620824112089424,1.048742504146256
1.509913735000282,14:37:13.923126,14:35:56.760060,0,,0.11532387,0.0021876693,0.03166099,0.76440316,0.41887328,-0.49013573,0.11032611,0.66401595,0.73953426,0.635229,-0.61937714,0.46136308,,0.040732455,-0.043568753,0.030586898,0.49574673,0.71857774,0.48773056,-0.030651122,-0.5467727,0.83672,0.86792606,-0.42975062,-0.2490356,,0.05734249,1.3232875,0.43414554,0.99679035,0.07834414,-0.016468033,0.041317943,-0.6796442,-0.73237735,-0.068569876,0.7293462,-0.6806998,,-0.07622741,0.2905167,-0.060541812,-0.7936946,-0.3676527,0.48464456,0.5195861,0.004597789,0.8544057,-0.31635287,0.9299518,0.187378,,0.0076884683,0.44724232,-0.32779709,-0.5203413,-0.68553364,-0.50920385,0.72364914,-0.67057025,0.16330177,-0.4534058,-0.2835123,0.84501123,,1.2326640077193451,0.3079980324898219,0.18979889293000002,3.319601495303505,-0.53821117257607,-1.3649181746039725,-0.40999360599704104,,-1.0893146401079898,-0.09397793634643806,0.17345526861000002,-1.6689222601933293,-0.7980937951299377,-0.748119806896612,0.8737274097522598,,0.023856469213197493,0.03659955441432109,0.08941130016,-0.1167695939710949,,-8.3081424e-05,-8.106232e-06,4.172325e-06,1.0,7.181242e-05,7.69496e-05,-7.181615e-05,1.0,7.301569e-06,-7.694587e-05,-7.2419643e-06,1.0,495,1.513,0,0,0.0,False,-0.26285692154971585,1.0487907843470352
1.537489502000426,14:37:13.947141,14:35:56.760060,0,,0.1153425,0.002162099,0.031918094,0.7575156,0.42753354,-0.49334082,0.101342365,0.6695351,0.7358345,0.64490294,-0.60740244,0.46385592,,0.040731244,-0.043568797,0.03058654,0.49575326,0.7185757,0.48772705,-0.030649304,-0.54677165,0.8367207,0.8679224,-0.42975545,-0.24903998,,0.05734249,1.3232875,0.43414554,0.99679035,0.07834414,-0.016468033,0.041317943,-0.6796442,-0.73237735,-0.068569876,0.7293462,-0.6806998,,-0.07626028,0.2906841,-0.060736723,-0.7875706,-0.37678337,0.4876134,0.52048147,0.016886525,0.85370594,-0.3298963,0.92614746,0.18280943,,0.0076896898,0.44724202,-0.32779694,-0.5203477,-0.68553144,-0.5092003,0.7236466,-0.67057383,0.16329843,-0.45340258,-0.28350905,0.84501404,,1.2332586581506604,0.30788991422958273,0.18965111587000003,3.3141495567729073,-0.5526946415512066,-1.3670749413761882,-0.40983026193090666,,-1.0893069173751155,-0.09397793634643806,0.17345526861000002,-1.6689222601933293,-0.7980937951299377,-0.748119806896612,0.8737274097522598,,0.023856469213197493,0.03659955441432109,0.08941130016,-0.1167695939710949,,-8.3081424e-05,-8.106232e-06,4.172325e-06,1.0,7.181242e-05,7.69496e-05,-7.181615e-05,1.0,7.301569e-06,-7.694587e-05,-7.2419643e-06,1.0,507,1.55,0,0,0.0,False,-0.26339312101640555,1.048742504146256
1.5615058110001883,14:37:13.974736,14:35:56.760060,0,,0.115344286,0.0021607727,0.032087997,0.75237554,0.43330908,-0.4961596,0.09678708,0.67231095,0.7339143,0.6515852,-0.600201,0.4638914,,0.040731244,-0.043568797,0.03058654,0.49575326,0.7185757,0.48772705,-0.030649304,-0.54677165,0.8367207,0.8679224,-0.42975545,-0.24903998,,0.05734249,1.3232875,0.43414554,0.99679035,0.07834414,-0.016468033,0.041317943,-0.6796442,-0.73237735,-0.068569876,0.7293462,-0.6806998,,-0.07627109,0.29080573,-0.060854923,-0.7829145,-0.3828553,0.49037406,0.5222499,0.02388948,0.8524578,-0.3380828,0.9234994,0.1812427,,0.0076896898,0.44724202,-0.32779694,-0.5203477,-0.68553144,-0.5092003,0.7236466,-0.67057383,0.16329843,-0.45340258,-0.28350905,0.84501404,,1.2336834084587427,0.30785902329808584,0.18956167186000003,3.3089073081857943,-0.5614393775361948,-1.3665601734910025,-0.40868685346796685,,-1.0893069173751155,-0.09397793634643806,0.17345526861000002,-1.6689222601933293,-0.7980937951299377,-0.748119806896612,0.8737274097522598,,0.023856469213197493,0.03659955441432109,0.08941130016,-0.1167695939710949,,-8.3081424e-05,-8.106232e-06,4.172325e-06,1.0,7.181242e-05,7.69496e-05,-7.181615e-05,1.0,7.301569e-06,-7.694587e-05,-7.2419643e-06,1.0,515,1.574,0,0,0.0,False,-0.2636314318904893,1.0486459437446969
1.5891088780003884,14:37:14.006212,14:35:56.898128,0,,0.11532889,0.0021403283,0.03226547,0.7477723,0.43897977,-0.49812993,0.093220055,0.67340094,0.7333765,0.65737855,-0.5948343,0.4626287,,0.040731113,-0.043567576,0.03058678,0.4957537,0.7185765,0.48772526,-0.030654848,-0.54676706,0.83672357,0.86792195,-0.42975986,-0.24903393,,0.05734249,1.3232875,0.43414554,0.99679035,0.07834414,-0.016468033,0.041317943,-0.6796442,-0.73237735,-0.068569876,0.7293462,-0.6806998,,-0.07626565,0.2909199,-0.06099308,-0.7787209,-0.3887706,0.4923933,0.52405053,0.028404027,0.8512134,-0.34491268,0.92089665,0.18161663,,0.007689768,0.44724283,-0.32779595,-0.52034795,-0.68553233,-0.5091988,0.7236435,-0.6705755,0.16330513,-0.4534072,-0.2835029,0.8450136,,1.234139049698322,0.3077740732364694,0.18945019092,3.303874749542166,-0.5688177485235285,-1.3640557925174401,-0.40999360599704104,,-1.0893069173751155,-0.09397021361356384,0.17345526861000002,-1.6689222601933293,-0.7980937951299377,-0.748119806896612,0.8737274097522598,,0.023856469213197493,0.03659955441432109,0.08941130016,-0.1167695939710949,,-8.3081424e-05,-8.106232e-06,4.172325e-06,1.0,7.181242e-05,7.69496e-05,-7.181615e-05,1.0,7.301569e-06,-7.694587e-05,-7.2419643e-06,1.0,523,1.6,0,0,0.0,False,-0.26309523242380006,1.0486942239454764
1.6205839930003094,14:37:14.035041,14:35:56.898128,0,,0.11535555,0.0021404624,0.03249608,0.7382753,0.45124078,-0.50132966,0.08371171,0.6762168,0.7319312,0.6692847,-0.58233386,0.46145985,,0.040731113,-0.043567576,0.03058678,0.4957537,0.7185367,0.487784,-0.030654848,-0.5468354,0.83667886,0.86792195,-0.4297395,-0.24906904,,0.05734249,1.3232875,0.43414554,0.99679035,0.07834414,-0.016468033,0.041317943,-0.6796442,-0.73237735,-0.068569876,0.7293462,-0.6806998,,-0.07630445,0.29108584,-0.061150737,-0.770124,-0.40159568,0.49561062,0.5262444,0.039129846,0.8494326,-0.3605216,0.91498077,0.18120264,,0.007689768,0.44724283,-0.32779595,-0.52034795,-0.6854907,-0.5092548,0.7236435,-0.67058885,0.16325036,-0.4534072,-0.28357193,0.84499043,,1.2346024136707754,0.3076273413118591,0.18935296917000002,3.2952774618593006,-0.5856240379946778,-1.360806269100772,-0.41048363819544376,,-1.0893069173751155,-0.09397021361356384,0.17345526861000002,-1.6689222601933293,-0.7980937951299377,-0.7480381281564713,0.8738907538183941,,0.023856469213197493,0.03659955441432109,0.08941130016,-0.1167695939710949,,-8.3081424e-05,-8.106232e-06,4.172325e-06,1.0,7.181242e-05,7.69496e-05,-7.181615e-05,1.0,7.301569e-06,-7.694587e-05,-7.2419643e-06,1.0,556,1.701,0,0,0.0,False,-0.26285692154971585,1.048742504146256
1.6493618070003322,14:37:14.126037,14:35:56.898128,0,,0.11536811,0.0021852553,0.033209637,0.6972214,0.4810484,-0.5314836,0.056444556,0.7022676,0.709672,0.71463025,-0.5247978,0.4624832,,0.040731113,-0.043567576,0.03058678,0.4957537,0.7185367,0.487784,-0.030654848,-0.5468354,0.83667886,0.86792195,-0.4297395,-0.24906904,,0.05734249,1.3232875,0.43414554,0.99679035,0.07834414,-0.016468033,0.041317943,-0.6796442,-0.73237735,-0.068569876,0.7293462,-0.6806998,,-0.07635351,0.29163137,-0.06161043,-0.732268,-0.4336966,0.52506274,0.540889,0.098083206,0.83535546,-0.41379064,0.89570475,0.16275853,,0.007689768,0.44724283,-0.32779595,-0.52034795,-0.6854907,-0.5092548,0.7236435,-0.67058885,0.16325036,-0.4534072,-0.28357193,0.84499043,,1.2358457736635255,0.30679328616144286,0.18913389616,3.2512425737275503,-0.6436945503949899,-1.364747908838066,-0.4088501975341008,,-1.0893069173751155,-0.09397021361356384,0.17345526861000002,-1.6689222601933293,-0.7980937951299377,-0.7480381281564713,0.8738907538183941,,0.023856469213197493,0.03659955441432109,0.08941130016,-0.1167695939710949,,-8.3081424e-05,-8.106232e-06,4.172325e-06,1.0,7.181242e-05,7.69496e-05,-7.181615e-05,1.0,7.301569e-06,-7.694587e-05,-7.2419643e-06,1.0,564,1.726,0,0,0.0,False,-0.26273776611267374,1.0488390645478147
1.7404068530004224,14:37:14.146645,14:35:56.898128,0,,0.1153615,0.0022049844,0.033372834,0.6862636,0.49041313,-0.5371566,0.048723817,0.7058542,0.7066794,0.7257191,-0.5111408,0.4605071,,0.040729903,-0.043567605,0.030586362,0.49576017,0.7185347,0.48778054,-0.030653,-0.5468344,0.8366796,0.8679184,-0.4297443,-0.24907346,,0.05734249,1.3232875,0.43414554,0.99679035,0.07834414,-0.016468033,0.041317943,-0.6796442,-0.73237735,-0.068569876,0.7293462,-0.6806998,,-0.076355,0.29176286,-0.06170924,-0.72212195,-0.44367102,0.5307503,0.5437595,0.11023395,0.83197,-0.42762768,0.8893843,0.16164799,,0.007690989,0.44724253,-0.3277958,-0.5203544,-0.6854886,-0.5092512,0.7236409,-0.6705925,0.16324702,-0.45340395,-0.28356868,0.8449933,,1.236131514779872,0.3065307132437192,0.18910537778000003,3.239919316779386,-0.6589978383687193,-1.3615804800000908,-0.40917688566637,,-1.0892991946422412,-0.09397021361356384,0.17345526861000002,-1.6689222601933293,-0.7980937951299377,-0.7480381281564713,0.8738907538183941,,0.023856469213197493,0.03659955441432109,0.08941130016,-0.1167695939710949,,-8.3081424e-05,-8.106232e-06,4.172325e-06,1.0,7.181242e-05,7.69496e-05,-7.181615e-05,1.0,7.301569e-06,-7.694587e-05,-7.2419643e-06,1.0,568,1.738,0,0,0.0,False,-0.26333354329788383,1.0486459437446969
1.7610040650001793,14:37:14.175064,14:35:57.044988,0,,0.115346566,0.002260968,0.033649758,0.66753703,0.5113904,-0.5411786,0.036414534,0.70353496,0.7097271,0.7436856,-0.4934759,0.4510134,,0.040727485,-0.04356771,0.030585647,0.49577314,0.7185305,0.48777342,-0.030649394,-0.5468323,0.83668107,0.8679111,-0.42975384,-0.24908225,,0.05734249,1.3232875,0.43414554,0.99679035,0.07834414,-0.016468033,0.041317943,-0.6796442,-0.73237735,-0.068569876,0.7293462,-0.6806998,,-0.076353244,0.2920017,-0.06186093,-0.7047069,-0.46560726,0.5353485,0.54856807,0.12095919,0.8273101,-0.4499569,0.8766862,0.1701765,,0.0076934313,0.44724193,-0.3277955,-0.52036726,-0.6854842,-0.5092439,0.72363573,-0.6705997,0.16324033,-0.45339748,-0.28356218,0.84499896,,1.2366334924166966,0.306214081195876,0.18906908166000003,3.2199987721483563,-0.6837290448262641,-1.3440275591155366,-0.41015695006317543,,-1.0892837491764928,-0.09397021361356384,0.17345526861000002,-1.6689222601933293,-0.7980937951299377,-0.7480381281564713,0.8738907538183941,,0.023856469213197493,0.03659955441432109,0.08941130016,-0.1167695939710949,,-8.3081424e-05,-8.106232e-06,4.172325e-06,1.0,7.181242e-05,7.69496e-05,-7.181615e-05,1.0,7.301569e-06,-7.694587e-05,-7.2419643e-06,1.0,580,1.775,0,0,0.0,False,-0.2634526987349264,1.0482597021384612
1.78941366700019,14:37:14.199594,14:35:57.044988,0,,0.11532582,0.002308786,0.033844247,0.65486556,0.52384466,-0.54473656,0.03016141,0.70210373,0.71143556,0.7551432,-0.4823247,0.44398355,,0.040729903,-0.043567605,0.030586362,0.49576017,0.7184948,0.48783922,-0.030653,-0.5469027,0.8366349,0.8679184,-0.4297239,-0.24910855,,0.05734249,1.3232875,0.43414554,0.99679035,0.07834414,-0.016468033,0.041317943,-0.6796442,-0.73237735,-0.068569876,0.7293462,-0.6806998,,-0.07634154,0.2921755,-0.061961897,-0.6928305,-0.4786674,0.53931755,0.5527543,0.12776789,0.8234914,-0.46308595,0.86865,0.17606397,,0.007690989,0.44724253,-0.3277958,-0.5203544,-0.685447,-0.50930715,0.7236409,-0.6706058,0.16319224,-0.45340395,-0.2836377,0.8449701,,1.2369887381289109,0.3061059629356369,0.18903667441000002,3.205110786160955,-0.6982125138014007,-1.3315638314025915,-0.4114637025922496,,-1.0892991946422412,-0.09397021361356384,0.17345526861000002,-1.6689222601933293,-0.7980937951299377,-0.7479564494163308,0.8740540978845283,,0.023856469213197493,0.03659955441432109,0.08941130016,-0.1167695939710949,,-8.3081424e-05,-8.106232e-06,4.172325e-06,1.0,7.181242e-05,7.69496e-05,-7.181615e-05,1.0,7.301569e-06,-7.694587e-05,-7.2419643e-06,1.0,588,1.8,1,1,0.013,False,-0.2631548101423209,1.048549383343138
1.8139112370004113,14:37:14.225559,14:35:57.044988,0,,0.115305856,0.0023621917,0.034042522,0.6397821,0.53667766,-0.5501418,0.024353862,0.7012957,0.71245426,0.76817036,-0.46921363,0.43560606,,0.04073125,-0.043567635,0.03058678,0.49578264,0.7183713,0.48799825,-0.03080231,-0.54702145,0.83655185,0.8679002,-0.42977923,-0.24907623,,0.05734249,1.3232875,0.43414554,0.99679035,0.07834414,-0.016468033,0.041317943,-0.6796442,-0.73237735,-0.068569876,0.7293462,-0.6806998,,-0.07633066,0.2923559,-0.06206141,-0.67861736,-0.4921926,0.5451834,0.5584286,0.13641438,0.8182595,-0.4771121,0.8597311,0.18228126,,0.007689633,0.4472428,-0.32779604,-0.520371,-0.68531775,-0.5094641,0.7235522,-0.670706,0.16317365,-0.45352638,-0.283713,0.84487915,,1.2372204201151376,0.30599784467539776,0.1890120449,3.1864483811908326,-0.7136524382748954,-1.317503390962366,-0.4108103263277125,,-1.0893069173751155,-0.09396249088068961,0.17345526861000002,-1.6687125702498449,-0.7980937951299377,-0.7479564494163308,0.8740540978845283,,0.023856469213197493,0.03659955441432109,0.08941130016,-0.1167695939710949,,-8.3081424e-05,-8.106232e-06,4.172325e-06,1.0,7.181242e-05,7.69496e-05,-7.181615e-05,1.0,7.301569e-06,-7.694587e-05,-7.2419643e-06,1.0,601,1.841,0,1,0.035,False,-0.2630356547052788,1.0491287457524916
1.839931615000296,14:37:14.267074,14:35:57.044988,0,,0.11525257,0.0024668723,0.034393594,0.6094704,0.5621371,-0.5590596,0.013516426,0.69769317,0.7162691,0.7926935,-0.44410142,0.4176252,,0.040728666,-0.043568097,0.030587256,0.49582452,0.7182415,0.48814663,-0.030946225,-0.5471371,0.83647084,0.86787117,-0.42984897,-0.24905714,,0.05734249,1.3232875,0.43414554,0.99679035,0.07834414,-0.016468033,0.041317943,-0.6796442,-0.73237735,-0.068569876,0.7293462,-0.6806998,,-0.076293245,0.29268268,-0.062231284,-0.64994496,-0.51903117,0.555138,0.56921387,0.15153559,0.8081043,-0.50355446,0.84121555,0.19694993,,0.0076922174,0.44724315,-0.32779664,-0.5204069,-0.6851819,-0.50961006,0.7234557,-0.670817,0.16314498,-0.4536391,-0.28377855,0.8447966,,1.2374907157657353,0.3057429944905483,0.18899260055000003,3.1482848114766484,-0.7428926492246997,-1.2859821579981188,-0.4111370144599811,,-1.0892914719093671,-0.09395476814781538,0.17345397232,-1.6685028803063602,-0.7980937951299377,-0.7479564494163308,0.8740540978845283,,0.023856469213197493,0.03659955441432109,0.08941130016,-0.1167695939710949,,-8.3081424e-05,-8.106232e-06,4.172325e-06,1.0,7.181242e-05,7.69496e-05,-7.181615e-05,1.0,7.301569e-06,-7.694587e-05,-7.2419643e-06,1.0,609,1.865,0,1,0.035,False,-0.26339312101640555,1.049080465551712
1.8814349870003753,14:37:14.293690,14:35:57.044988,0,,0.115170166,0.002547294,0.03464274,0.58291775,0.5790214,-0.57003623,0.009488612,0.6966573,0.71734136,0.8124757,-0.42355987,0.4005996,,0.040728536,-0.043566845,0.030587494,0.495825,0.7182424,0.48814493,-0.030951768,-0.5471325,0.8364737,0.8678707,-0.42985338,-0.2490511,,0.05734249,1.3232875,0.43414554,0.99679035,0.07834414,-0.016468033,0.041317943,-0.6796442,-0.73237735,-0.068569876,0.7293462,-0.6806998,,-0.076222,0.29291973,-0.062349938,-0.62459224,-0.53699934,0.56702405,0.581219,0.16530493,0.7967802,-0.52160233,0.8272279,0.20886604,,0.0076922956,0.44724396,-0.32779565,-0.52040714,-0.6851828,-0.5096086,0.7234527,-0.6708187,0.16315168,-0.45364374,-0.28377244,0.8447962,,1.2374598248342386,0.30550358977144737,0.18898482281,3.111169691479888,-0.7625683051909231,-1.258747992466577,-0.4103202941293096,,-1.0892914719093671,-0.09394704541494116,0.17345397232,-1.6685028803063602,-0.7980937951299377,-0.7479564494163308,0.8740540978845283,,0.023856469213197493,0.03659955441432109,0.08941130016,-0.1167695939710949,,-8.3081424e-05,-8.106232e-06,4.172325e-06,1.0,7.181242e-05,7.69496e-05,-7.181615e-05,1.0,7.301569e-06,-7.694587e-05,-7.2419643e-06,1.0,622,1.906,0,1,0.035,False,-0.26327396557936344,1.0489356249493738
1.9080599940002685,14:37:14.330154,14:35:57.044988,0,,0.115008205,0.002609834,0.034948245,0.54589266,0.6029705,-0.58174556,0.0041534603,0.69237113,0.72152954,0.8378447,-0.396294,0.37545577,,0.040728666,-0.043568097,0.030587256,0.49582452,0.7182415,0.48814663,-0.030946225,-0.5471371,0.83647084,0.86787117,-0.42984897,-0.24905714,,0.05734249,1.3232875,0.43414554,0.99679035,0.07834414,-0.016468033,0.041317943,-0.6796442,-0.73237735,-0.068569876,0.7293462,-0.6806998,,-0.0760748,0.29318658,-0.06252484,-0.58911586,-0.56246233,0.580154,0.59655553,0.1815363,0.7817711,-0.5450358,0.80664784,0.22859411,,0.0076922174,0.44724315,-0.32779664,-0.5204069,-0.6851819,-0.50961006,0.7234557,-0.670817,0.16314498,-0.4536391,-0.28377855,0.8447966,,1.2372281428480119,0.3049012166072579,0.18897185991,3.058747205608757,-0.788255967146826,-1.2158298454738385,-0.41113701445998085,,-1.0892914719093671,-0.09395476814781538,0.17345397232,-1.6685028803063602,-0.7980937951299377,-0.7479564494163308,0.8740540978845283,,0.023856469213197493,0.03659955441432109,0.08941130016,-0.1167695939710949,,-8.3081424e-05,-8.106232e-06,4.172325e-06,1.0,7.181242e-05,7.69496e-05,-7.181615e-05,1.0,7.301569e-06,-7.694587e-05,-7.2419643e-06,1.0,630,1.931,0,1,0.035,False,-0.26243987752006825,1.0486459437446969
1.94448516500006,14:37:14.369690,14:35:57.263761,0,,0.11488932,0.002646938,0.035189793,0.5147461,0.6231603,-0.58881885,-0.0037786365,0.6884375,0.7252857,0.85733426,-0.37111315,0.3567251,,0.04073144,-0.04356552,0.03058952,0.49569678,0.71827894,0.4882213,-0.03099382,-0.54715776,0.83645564,0.86794245,-0.4297602,-0.24896212,,0.05734249,1.3232875,0.43414554,0.99679035,0.07834414,-0.016468033,0.041317943,-0.6796442,-0.73237735,-0.068569876,0.7293462,-0.6806998,,-0.075967915,0.29338884,-0.06267152,-0.55926627,-0.58405304,0.5883054,0.60573715,0.1965815,0.7709982,-0.5659538,0.78755176,0.24384123,,0.0076892846,0.44724625,-0.32779554,-0.52027977,-0.68522125,-0.50968695,0.7235008,-0.6707508,0.1632176,-0.45371306,-0.2838401,0.8447362,,1.2368497289371747,0.30441468443618175,0.18897445249000003,3.0161801470813985,-0.8114841721069508,-1.1799813026363504,-0.41032029412930937,,-1.0893069173751155,-0.09393932268206694,0.17345397232,-1.6685028803063602,-0.7982304316297031,-0.7479267102527749,0.8738907538183941,,0.023856469213197493,0.03659955441432109,0.08941130016,-0.1167695939710949,,-8.3081424e-05,-8.106232e-06,4.172325e-06,1.0,7.181242e-05,7.69496e-05,-7.181615e-05,1.0,7.301569e-06,-7.694587e-05,-7.2419643e-06,1.0,643,1.972,1,2,0.041,False,-0.26309523242380006,1.0487907843470352
1.984060729000248,14:37:14.399612,14:35:57.263761,0,,0.11473073,0.0026811957,0.03546907,0.47674716,0.6448888,-0.59735304,-0.01221782,0.6843468,0.7290543,0.8789555,-0.34027627,0.3341394,,0.040730104,-0.043564357,0.030589402,0.49570373,0.7182379,0.48827475,-0.030997545,-0.5472204,0.83641446,0.8679384,-0.42974895,-0.24899556,,0.05734249,1.3232875,0.43414554,0.99679035,0.07834414,-0.016468033,0.041317943,-0.6796442,-0.73237735,-0.068569876,0.7293462,-0.6806998,,-0.07582344,0.29361716,-0.06284851,-0.5227025,-0.60748285,0.59811926,0.61624044,0.21556795,0.75748146,-0.5890923,0.7645228,0.26167756,,0.007690584,0.44724673,-0.3277944,-0.52028644,-0.68517834,-0.50973785,0.7234951,-0.6707694,0.16316618,-0.45371446,-0.2838997,0.8447154,,1.2362319103072368,0.3039358749979798,0.18896926733000002,2.96249952154936,-0.8368985610633227,-1.1355707379080529,-0.4116270466583838,,-1.0892991946422412,-0.09393159994919272,0.17345397232,-1.6685028803063602,-0.7982304316297031,-0.7478450315126344,0.8740540978845283,,0.023856469213197493,0.03659955441432109,0.08941130016,-0.1167695939710949,,-8.3081424e-05,-8.106232e-06,4.172325e-06,1.0,7.181242e-05,7.69496e-05,-7.181615e-05,1.0,7.301569e-06,-7.694587e-05,-7.2419643e-06,1.0,664,2.037,0,2,0.05,False,-0.26232072208302704,1.0486459437446969
2.013945070000318,14:37:14.467304,14:35:57.263761,0,,0.11453217,0.0026625693,0.03584586,0.42169064,0.6746889,-0.60578203,-0.02804339,0.6774727,0.7350131,0.9063059,-0.29296005,0.30460426,,0.04072786,-0.04356297,0.030587673,0.4957171,0.7182346,0.48826596,-0.030999392,-0.54721373,0.83641875,0.86793065,-0.42976293,-0.24899833,,0.05734249,1.3232875,0.43414554,0.99679035,0.07834414,-0.016468033,0.041317943,-0.6796442,-0.73237735,-0.068569876,0.7293462,-0.6806998,,-0.07564565,0.29388002,-0.06313321,-0.4696114,-0.6399157,0.6082541,0.6260992,0.24435697,0.74046564,-0.62246674,0.72855854,0.28589794,,0.007692828,0.447246,-0.32779232,-0.5202995,-0.6851749,-0.50972915,0.7234869,-0.6707783,0.1631662,-0.4537126,-0.28388706,0.84472066,,1.234795481992631,0.30333350183379026,0.18894334153000003,2.8847045525166015,-0.8739270524997571,-1.0694378403444755,-0.41179039072451795,,-1.0892837491764928,-0.0939238772163185,0.17345526861000002,-1.6685028803063602,-0.7982304316297031,-0.7478450315126344,0.8740540978845283,,0.023856469213197493,0.03659955441432109,0.08941130016,-0.1167695939710949,,-8.3081424e-05,-8.106232e-06,4.172325e-06,1.0,7.181242e-05,7.69496e-05,-7.181615e-05,1.0,7.301569e-06,-7.694587e-05,-7.2419643e-06,1.0,672,2.062,0,2,0.05,False,-0.2622015666459845,1.0485976635439174
2.081675383000402,14:37:14.490993,14:35:57.263761,0,,0.114434004,0.0026237965,0.035996452,0.3958139,0.6871561,-0.6092191,-0.03465885,0.6741036,0.73782307,0.9176764,-0.27092588,0.29063547,,0.04072678,-0.043564253,0.030587077,0.49572307,0.7182317,0.4882641,-0.03099209,-0.5472173,0.8364167,0.8679275,-0.42976338,-0.24900879,,0.05734249,1.3232875,0.43414554,0.99679035,0.07834414,-0.016468033,0.041317943,-0.6796442,-0.73237735,-0.068569876,0.7293462,-0.6806998,,-0.07555665,0.29396373,-0.06327065,-0.44455796,-0.65361583,0.61249864,0.63023156,0.25767493,0.7324014,-0.6365347,0.71161085,0.29737788,,0.0076939706,0.44724488,-0.32779315,-0.5203057,-0.6851718,-0.50972694,0.7234874,-0.67078024,0.16315614,-0.45370474,-0.28388995,0.84472394,,1.233891922246347,0.30306320618319244,0.1889213046,2.8467506727459027,-0.8893669769732518,-1.0369180046324826,-0.4122804229229211,,-1.0892760264436185,-0.09393159994919272,0.17345526861000002,-1.6685028803063602,-0.7982304316297031,-0.7478450315126344,0.8740540978845283,,0.023856469213197493,0.03659955441432109,0.08941130016,-0.1167695939710949,,-8.3081424e-05,-8.106232e-06,4.172325e-06,1.0,7.181242e-05,7.69496e-05,-7.181615e-05,1.0,7.301569e-06,-7.694587e-05,-7.2419643e-06,1.0,685,2.103,1,3,0.056,False,-0.2626186106756321,1.0487907843470352
2.1053456180002286,14:37:14.527759,14:35:57.263761,0,,0.11434361,0.0025672764,0.036128387,0.37339947,0.6992636,-0.60959274,-0.041152686,0.66896105,0.74215734,0.92675734,-0.25203487,0.27856612,,0.040727988,-0.043564223,0.030587435,0.49571666,0.71831346,0.48815033,-0.030993879,-0.5470817,0.83650535,0.86793107,-0.4297992,-0.24893416,,0.05734249,1.3232875,0.43414554,0.99679035,0.07834414,-0.016468033,0.041317943,-0.6796442,-0.73237735,-0.068569876,0.7293462,-0.6806998,,-0.075474896,0.29402155,-0.06340755,-0.42283645,-0.66683817,0.61362547,0.6327283,0.26750478,0.7267022,-0.64874053,0.69553435,0.30881658,,0.0076927496,0.44724518,-0.3277933,-0.52029926,-0.68525726,-0.50961864,0.72348994,-0.67074996,0.16326906,-0.453708,-0.2837552,0.84476745,,1.233042421630182,0.30279291053259455,0.18888889735000003,2.8136196616753475,-0.9028939904500305,-1.0054679471313965,-0.411300358526115,,-1.0892837491764928,-0.09393159994919272,0.17345526861000002,-1.6685028803063602,-0.7982304316297031,-0.7480083889929154,0.8740540978845283,,0.023856469213197493,0.03659955441432109,0.08941130016,-0.1167695939710949,,-8.3081424e-05,-8.106232e-06,4.172325e-06,1.0,7.181242e-05,7.69496e-05,-7.181615e-05,1.0,7.301569e-06,-7.694587e-05,-7.2419643e-06,1.0,693,2.127,1,3,0.08,False,-0.2620824112089424,1.0491287457524916
2.142104209000081,14:37:14.557625,14:35:57.430400,0,,0.1142699,0.0024861544,0.036260203,0.35086042,0.7108545,-0.6095759,-0.04819694,0.6638044,0.7463516,0.93518656,-0.23248564,0.26716363,,0.040730283,-0.043562837,0.030588329,0.4957041,0.71831846,0.4881557,-0.031003028,-0.5470792,0.8365067,0.8679379,-0.42979407,-0.24891934,,0.05734249,1.3232875,0.43414554,0.99679035,0.07834414,-0.016468033,0.041317943,-0.6796442,-0.73237735,-0.068569876,0.7293462,-0.6806998,,-0.075410455,0.29406193,-0.06356118,-0.40097082,-0.67958,0.61432356,0.6343762,0.27780995,0.7213795,-0.6609003,0.67896444,0.3197157,,0.0076903854,0.44724655,-0.3277926,-0.5202866,-0.6852625,-0.5096245,0.7234921,-0.6707444,0.16328245,-0.45371908,-0.28375557,0.8447614,,1.2320230208907845,0.30256895127924205,0.18883963833000003,2.780069270717824,-0.9164210039268091,-0.9736911746697479,-0.4126071110551892,,-1.0892991946422412,-0.0939238772163185,0.17345526861000002,-1.6685028803063602,-0.7982304316297031,-0.7480083889929154,0.8740540978845283,,0.023856469213197493,0.03659955441432109,0.08941130016,-0.1167695939710949,,-8.3081424e-05,-8.106232e-06,4.172325e-06,1.0,7.181242e-05,7.69496e-05,-7.181615e-05,1.0,7.301569e-06,-7.694587e-05,-7.2419643e-06,1.0,702,2.156,1,3,0.109,False,-0.26243987752006825,1.0492253061540504
2.171994492000067,14:37:14.587211,14:35:57.430400,0,,0.11419627,0.002406165,0.03636603,0.33179337,0.71933484,-0.61030364,-0.052556247,0.6600427,0.74938744,0.9418869,-0.21656656,0.25680315,,0.04073041,-0.043564074,0.03058815,0.49570373,0.71835756,0.48809874,-0.030997545,-0.5470154,0.83654857,0.8679384,-0.42980996,-0.24889028,,0.05734249,1.3232875,0.43414554,0.99679035,0.07834414,-0.016468033,0.041317943,-0.6796442,-0.73237735,-0.068569876,0.7293462,-0.6806998,,-0.07534468,0.29408437,-0.06369608,-0.3824079,-0.6889875,0.61567885,0.63656735,0.28652307,0.71602136,-0.66973597,0.6657333,0.32901827,,0.007690307,0.44724578,-0.3277936,-0.52028644,-0.6853033,-0.50956994,0.7234951,-0.6707294,0.16333054,-0.45371446,-0.28369272,0.844785,,1.2311271838773745,0.3024067738888834,0.18878260157,2.750502988686506,-0.9258489224106246,-0.946563799161241,-0.411300358526115,,-1.0892991946422412,-0.09393159994919272,0.17345526861000002,-1.6685028803063602,-0.7982304316297031,-0.7480900677330561,0.8742174419506626,,0.023856469213197493,0.03659955441432109,0.08941130016,-0.1167695939710949,,-8.3081424e-05,-8.106232e-06,4.172325e-06,1.0,7.181242e-05,7.69496e-05,-7.181615e-05,1.0,7.301569e-06,-7.694587e-05,-7.2419643e-06,1.0,715,2.197,0,3,0.144,False,-0.26249945523859,1.049080465551712
2.2015759079999953,14:37:14.621567,14:35:57.430400,0,,0.114130735,0.0023413897,0.036493048,0.3137109,0.7269727,-0.610816,-0.05843568,0.65685236,0.7517514,0.9477186,-0.2001392,0.24854279,,0.040729687,-0.043562956,0.030589163,0.49559495,0.718348,0.48822317,-0.031034172,-0.5471059,0.836488,0.86799914,-0.4297108,-0.24884957,,0.05734249,1.3232875,0.43414554,0.99679035,0.07834414,-0.016468033,0.041317943,-0.6796442,-0.73237735,-0.068569876,0.7293462,-0.6806998,,-0.075287715,0.29413244,-0.06383415,-0.36482257,-0.6975656,0.61669016,0.63706017,0.29601502,0.71170884,-0.67901313,0.6525162,0.3363983,,0.0076909596,0.44724718,-0.32779303,-0.5201783,-0.68529356,-0.5096933,0.7235355,-0.67068565,0.16333163,-0.4537741,-0.28381962,0.8447103,,1.2303626333228261,0.30236816022451224,0.18872426852000002,2.7226142262030644,-0.935960023393267,-0.9214930538187499,-0.4116270466583838,,-1.0892914719093671,-0.0939238772163185,0.17345526861000002,-1.6685028803063602,-0.7983670681294684,-0.7479786498293597,0.8742174419506626,,0.023856469213197493,0.03659955441432109,0.08941130016,-0.1167695939710949,,-8.3081424e-05,-8.106232e-06,4.172325e-06,1.0,7.181242e-05,7.69496e-05,-7.181615e-05,1.0,7.301569e-06,-7.694587e-05,-7.2419643e-06,1.0,724,2.226,0,3,0.144,False,-0.2621419889274632,1.0492253061540504
2.2359363630002917,14:37:14.654051,14:35:57.430400,0,,0.11403845,0.0022578835,0.036624447,0.2909914,0.7355916,-0.61174256,-0.061986268,0.65256494,0.7551932,0.9547155,-0.18183511,0.23548727,,0.04072788,-0.04356257,0.030585945,0.49560788,0.71834385,0.4882161,-0.031030536,-0.5471039,0.8364895,0.8679919,-0.42972037,-0.24885839,,0.05734249,1.3232875,0.43414554,0.99679035,0.07834414,-0.016468033,0.041317943,-0.6796442,-0.73237735,-0.068569876,0.7293462,-0.6806998,,-0.07520477,0.29417124,-0.06399024,-0.3426077,-0.70725155,0.61839724,0.64009684,0.3060821,0.7046913,-0.68767434,0.6372668,0.3478434,,0.0076928483,0.44724464,-0.32779112,-0.5201912,-0.68528914,-0.50968605,0.7235303,-0.67069286,0.16332494,-0.45376763,-0.28381312,0.84471595,,1.2293355098505543,0.3024222193546318,0.18864130596,2.685708796149788,-0.944294849878959,-0.8879059349271639,-0.41162704665838334,,-1.0892760264436185,-0.0939238772163185,0.17345786119,-1.6685028803063602,-0.7983670681294684,-0.7479786498293597,0.8742174419506626,,0.023856469213197493,0.03659955441432109,0.08941130016,-0.1167695939710949,,-8.3081424e-05,-8.106232e-06,4.172325e-06,1.0,7.181242e-05,7.69496e-05,-7.181615e-05,1.0,7.301569e-06,-7.694587e-05,-7.2419643e-06,1.0,737,2.267,0,3,0.144,False,-0.2631548101423209,1.048549383343138
2.2684203470003013,14:37:14.699033,14:35:57.430400,0,,0.11383633,0.0022175908,0.03673975,0.26473024,0.74112165,-0.6169738,-0.06030956,0.65127206,0.75644386,0.96243465,-0.16304421,0.21710804,,0.04072801,-0.04356382,0.030585706,0.49560747,0.7183031,0.48827654,-0.031025022,-0.5471768,0.836442,0.86799234,-0.4296956,-0.24889952,,0.05734249,1.3232875,0.43414554,0.99679035,0.07834414,-0.016468033,0.041317943,-0.6796442,-0.73237735,-0.068569876,0.7293462,-0.6806998,,-0.075010166,0.2942305,-0.06411021,-0.31675595,-0.71379983,0.6246243,0.64734286,0.3186341,0.6924013,-0.69326246,0.6236683,0.36114398,,0.00769277,0.44724384,-0.3277921,-0.52019095,-0.68524665,-0.5097435,0.72353333,-0.6707045,0.16326346,-0.45376298,-0.28388825,0.8446932,,1.2286018502275031,0.30253033761487097,0.18857260259000003,2.6402060784136463,-0.9471642163740331,-0.8510977306102219,-0.4109736703938467,,-1.0892760264436185,-0.09393159994919272,0.17345786119,-1.6685028803063602,-0.7983670681294684,-0.7478969710892192,0.8743807860167968,,0.023856469213197493,0.03659955441432109,0.08941130016,-0.1167695939710949,,-8.3081424e-05,-8.106232e-06,4.172325e-06,1.0,7.181242e-05,7.69496e-05,-7.181615e-05,1.0,7.301569e-06,-7.694587e-05,-7.2419643e-06,1.0,746,2.295,0,3,0.144,False,-0.2629164992682367,1.048983905150153
2.313399572000435,14:37:14.723498,14:35:57.430400,0,,0.11365105,0.0022043139,0.03681904,0.24570361,0.74825436,-0.6162348,-0.059072584,0.64609945,0.7609638,0.96754336,-0.15056896,0.20295024,,0.04075913,-0.043544717,0.030595422,0.4955756,0.71832496,0.4882765,-0.031028152,-0.54716456,0.83644974,0.86801034,-0.42967445,-0.24887307,,0.057415873,1.3232862,0.43415192,0.9967932,0.07829703,-0.0165188,0.04124885,-0.67964965,-0.73237616,-0.068569876,0.7293462,-0.6806998,,-0.07489177,0.2942741,-0.064177886,-0.2980042,-0.72167146,0.624807,0.6522696,0.32394958,0.6852744,-0.696949,0.6117573,0.374186,,0.007592592,0.44724697,-0.32777846,-0.5201484,-0.6853156,-0.5096942,0.7235714,-0.67065006,0.16331846,-0.45375112,-0.2838503,0.8447123,,1.2280689816591814,0.3026770695394812,0.18852593615000002,2.607284757286576,-0.9485305813716876,-0.8188639515797034,-0.41179039072451773,,-1.0892837491764928,-0.0939238772163185,0.17345786119,-1.6685028803063602,-0.7983670681294684,-0.7478969710892192,0.8743807860167968,,0.023856469213197493,0.03659955441432109,0.08941130016,-0.1167695939710949,,-1.0430813e-05,3.1590462e-06,-4.7683716e-07,1.0,2.4627894e-05,2.6389956e-05,-2.4635345e-05,1.0,2.503395e-06,-2.6389956e-05,-2.4735928e-06,0.99999994,759,2.336,0,3,0.144,False,-0.2626186106756321,1.0484045427407995
2.3378508010000587,14:37:14.763536,14:35:57.620572,0,,0.11343118,0.0021873415,0.036899894,0.21951911,0.7518273,-0.62174535,-0.056230932,0.6459808,0.76127976,0.97398627,-0.13215414,0.18408099,,0.040745854,-0.043545954,0.030596793,0.4953064,0.7182749,0.48862335,-0.03110525,-0.54744035,0.83626646,0.86816126,-0.42940682,-0.24880861,,0.057415873,1.3232862,0.43415192,0.9967932,0.07829703,-0.0165188,0.04124885,-0.67964965,-0.73237616,-0.068569876,0.7293462,-0.6806998,,-0.07467702,0.294325,-0.06425823,-0.27213022,-0.72621477,0.6313139,0.6593986,0.3370818,0.6719891,-0.7008128,0.5991561,0.38713488,,0.007605859,0.44724813,-0.32778,-0.5198813,-0.6852639,-0.5100361,0.7236781,-0.6705463,0.16327165,-0.453887,-0.2842201,0.84451497,,1.2274897766936146,0.30293191972433064,0.18847926971,2.561782039550434,-0.9483939448719222,-0.7833634387821147,-0.4114637025922494,,-1.089191076382002,-0.0939238772163185,0.17345526861000002,-1.6685028803063602,-0.7987769776287649,-0.7475627173781298,0.8743807860167968,,0.023856469213197493,0.03659955441432109,0.08941130016,-0.1167695939710949,,-1.0430813e-05,3.1590462e-06,-4.7683716e-07,1.0,2.4627894e-05,2.6389956e-05,-2.4635345e-05,1.0,2.503395e-06,-2.6389956e-05,-2.4735928e-06,0.99999994,772,2.377,0,3,0.144,False,-0.2629164992682367,1.0485011031423586
2.377891441000429,14:37:14.802743,14:35:57.620572,0,,0.11318251,0.0021820068,0.036985636,0.18869877,0.7598781,-0.6220758,-0.055315524,0.6406744,0.7658174,0.9804758,-0.11009833,0.16292742,,0.04072378,-0.043547235,0.030591488,0.4954231,0.71827734,0.48850125,-0.031072557,-0.54735345,0.8363246,0.8680959,-0.42951354,-0.24885279,,0.057415873,1.3232862,0.43415192,0.9967932,0.07829703,-0.0165188,0.04124885,-0.67964965,-0.73237616,-0.068569876,0.7293462,-0.6806998,,-0.07443346,0.29438803,-0.064335205,-0.2416826,-0.7355596,0.6328836,0.6653188,0.3491615,0.6598766,-0.7063571,0.58055,0.40499535,,0.007628116,0.44724384,-0.3277782,-0.51999706,-0.6852662,-0.50991493,0.7236315,-0.670598,0.1632662,-0.45382875,-0.28409258,0.8445892,,1.226848789865054,0.30334894729953876,0.18844815875,2.508940173792334,-0.9493504003702803,-0.7354548803951354,-0.41097367039384647,,-1.0890520671902661,-0.0939238772163185,0.17345397232,-1.6685028803063602,-0.7987769776287649,-0.7476443961182704,0.8742174419506626,,0.023856469213197493,0.03659955441432109,0.08941130016,-0.1167695939710949,,-1.0430813e-05,3.1590462e-06,-4.7683716e-07,1.0,2.4627894e-05,2.6389956e-05,-2.4635345e-05,1.0,2.503395e-06,-2.6389956e-05,-2.4735928e-06,0.99999994,781,2.406,0,3,0.144,False,-0.2626781883941529,1.0481631417369022
2.4171131920002153,14:37:14.833301,14:35:57.620572,0,,0.11298315,0.0021831393,0.037016213,0.1645504,0.7649989,-0.62265545,-0.051147103,0.6370287,0.76914126,0.9850416,-0.094715476,0.14395076,,0.040713154,-0.0435502,0.030587792,0.49548063,0.7182569,0.48847312,-0.031045198,-0.5473533,0.83632565,0.86806405,-0.4295479,-0.24890448,,0.057415873,1.3232862,0.43415192,0.9967932,0.07829703,-0.0165188,0.04124885,-0.67964965,-0.73237616,-0.068569876,0.7293462,-0.6806998,,-0.074236035,0.2944148,-0.064366646,-0.2177064,-0.7415824,0.6345545,0.6719721,0.35763445,0.64849913,-0.7078541,0.56758535,0.42046335,,0.0076389494,0.4472396,-0.32777885,-0.5200545,-0.68524474,-0.50988525,0.7236143,-0.6706271,0.16322269,-0.45379037,-0.28407556,0.8446155,,1.2264085940912233,0.3037659748747469,0.18842352924000003,2.4676312549258825,-0.9456612148766134,-0.6985222598662035,-0.4108103263277123,,-1.088982562594398,-0.09393932268206694,0.17345397232,-1.6685028803063602,-0.7987769776287649,-0.7476443961182704,0.8742174419506626,,0.023856469213197493,0.03659955441432109,0.08941130016,-0.1167695939710949,,-1.0430813e-05,3.1590462e-06,-4.7683716e-07,1.0,2.4627894e-05,2.6389956e-05,-2.4635345e-05,1.0,2.503395e-06,-2.6389956e-05,-2.4735928e-06,0.99999994,794,2.447,0,3,0.144,False,-0.26273776611267374,1.0485011031423586
2.447671888000059,14:37:14.874594,14:35:57.760675,0,,0.112727635,0.0021832138,0.037050694,0.13374361,0.76978886,-0.62412965,-0.049446136,0.6341866,0.7715972,0.9897816,-0.07233539,0.12288144,,0.040710732,-0.043550335,0.030587077,0.49549356,0.7182528,0.4884661,-0.031041592,-0.54735124,0.83632714,0.8680568,-0.4295575,-0.2489133,,0.057415873,1.3232862,0.43415192,0.9967932,0.07829703,-0.0165188,0.04124885,-0.67964965,-0.73237616,-0.068569876,0.7293462,-0.6806998,,-0.07398279,0.29444474,-0.064404674,-0.18715878,-0.74762315,0.6372058,0.6771737,0.37171802,0.6350288,-0.71162313,0.5503502,0.4367004,,0.007641392,0.44723904,-0.32777858,-0.52006733,-0.6852404,-0.50987804,0.7236091,-0.6706343,0.163216,-0.4537839,-0.28406906,0.8446212,,1.2258834482557759,0.3042756752444457,0.18841315892000002,2.4156281489417206,-0.9434750308803663,-0.6544831731064913,-0.41195373479065234,,-1.0889671171286497,-0.09393932268206694,0.17345397232,-1.6685028803063602,-0.7987769776287649,-0.7476443961182704,0.8742174419506626,,0.023856469213197493,0.03659955441432109,0.08941130016,-0.1167695939710949,,-1.0430813e-05,3.1590462e-06,-4.7683716e-07,1.0,2.4627894e-05,2.6389956e-05,-2.4635345e-05,1.0,2.503395e-06,-2.6389956e-05,-2.4735928e-06,0.99999994,803,2.475,0,3,0.144,False,-0.26178452261633733,1.04835626254002
2.4889636170000813,14:37:14.903352,14:35:57.760675,0,,0.112644546,0.002187714,0.037038118,0.12195893,0.7730263,-0.6225405,-0.047369838,0.63104105,0.77430177,0.99140406,-0.06494334,0.11357921,,0.040711943,-0.043550305,0.030587375,0.49548712,0.7182548,0.4884696,-0.03104338,-0.5473523,0.8363264,0.86806035,-0.4295527,-0.24890894,,0.057415873,1.3232862,0.43415192,0.9967932,0.07829703,-0.0165188,0.04124885,-0.67964965,-0.73237616,-0.068569876,0.7293462,-0.6806998,,-0.07389907,0.29444042,-0.0643974,-0.17542495,-0.7513299,0.63618356,0.6800127,0.37480962,0.63015914,-0.71190506,0.54315853,0.4451629,,0.0076401704,0.4472393,-0.32777873,-0.52006096,-0.68524253,-0.5098816,0.7236117,-0.67063075,0.16321933,-0.45378712,-0.2840723,0.8446184,,1.2256285980709265,0.3045382481621693,0.18841704779000001,2.39612698419766,-0.9408789373848229,-0.6352819621000365,-0.41113701445998085,,-1.088974839861524,-0.09393932268206694,0.17345397232,-1.6685028803063602,-0.7987769776287649,-0.7476443961182704,0.8742174419506626,,0.023856469213197493,0.03659955441432109,0.08941130016,-0.1167695939710949,,-1.0430813e-05,3.1590462e-06,-4.7683716e-07,1.0,2.4627894e-05,2.6389956e-05,-2.4635345e-05,1.0,2.503395e-06,-2.6389956e-05,-2.4735928e-06,0.99999994,816,2.516,0,3,0.144,False,-0.26243987752006825,1.0479700209337843
