AlexandreBanks6/ExpertPlaybackApp/resources/Motions/P_16/PC1/Data_PC1_3.csv
Task Time,PC1 Time,PC2 Time,Gaze Calib,s_T_psm1,Tx,Ty,Tz,R00,R01,R02,R10,R11,R12,R20,R21,R22,s_T_psm3,Tx,Ty,Tz,R00,R01,R02,R10,R11,R12,R20,R21,R22,cart_T_ecm,Tx,Ty,Tz,R00,R01,R02,R10,R11,R12,R20,R21,R22,ecm_T_psm1,Tx,Ty,Tz,R00,R01,R02,R10,R11,R12,R20,R21,R22,ecm_T_psm3,Tx,Ty,Tz,R00,R01,R02,R10,R11,R12,R20,R21,R22,psm1_joints,q1,q2,q3,q4,q5,q6,jaw,psm3_joints,q1,q2,q3,q4,q5,q6,jaw,ecm_joints,q1,q2,q3,q4,ecmi_T_ecm,Tx,Ty,Tz,R00,R01,R02,R10,R11,R12,R20,R21,R22,Sample #,Task Duration (s),Collisions (binary),Collisions (increments),Cumulative Collision Time (s),Clutch Press,MTMR Angle,MTML Angle
""
lci_T_si,,,,,-0.057824805,0.033623017,0.23225968,0.99702215,-0.012819277,0.07604288,0.048720323,-0.65965104,-0.7499912,0.059776112,0.7514627,-0.6570622
rci_T_si,,,,,-0.06734889,0.03764145,0.24189119,0.9919741,-0.042941336,0.118926115,0.062775895,-0.649194,-0.758028,0.10975685,0.7594098,-0.6412879
ecm_T_lc,,,,,-4.4061628e-05,-0.00034663224,-0.01840835,-0.99912,0.030754527,0.028518902,-0.031987965,-0.99852574,-0.043852776,0.027128186,-0.04472645,0.9986309
ecm_T_rc,,,,,-0.0043358393,0.01870579,-0.007592615,-0.99555075,-0.052743673,-0.078081585,0.04863213,-0.9973746,0.053654674,-0.08070653,0.04961868,0.9955021
cart_T_ecmi,,,,,0.057426013,1.3232883,0.4341485,0.9967947,0.07827243,-0.016545301,0.041212782,-0.6796525,-0.73237556,-0.068569876,0.7293462,-0.6806998
ecmac_T_ecmrep_psm1,,,,,-0.0012004398,-0.28172868,-0.2751139,0.9977453,0.05981805,0.030433392,-0.056875188,0.9943363,-0.089780115,-0.035631496,0.08784678,0.9954965
ecmac_T_ecmrep_psm3,,,,,-0.035388503,-0.5052441,-0.50078297,0.9946279,0.028167607,0.09960877,-0.04494542,0.98434234,0.17044082,-0.09324822,-0.17400216,0.9803204
""
0,14:37:57.224043,14:36:40.091509,0,,0.11842619,-0.00013573468,0.016121984,0.8458129,0.14793071,-0.5125595,0.37635285,0.5154891,0.7698244,0.37809938,-0.84403056,0.38033307,,0.041810073,-0.042663664,0.030425072,0.57162344,0.64913684,0.5018647,-0.06606352,-0.57324827,0.8167142,0.81785214,-0.50000787,-0.28479788,,0.057423674,1.3232865,0.4341423,0.9967952,0.07826474,-0.016553588,0.041201502,-0.6796534,-0.7323754,-0.068569876,0.7293462,-0.6806998,,-0.07862829,0.27763864,-0.051311392,-0.8542143,-0.08921627,0.51220936,0.51671356,-0.25493747,0.81732124,0.057663,0.962833,0.26387048,,0.0065115876,0.44748145,-0.3269495,-0.59336144,-0.61319387,-0.5214552,0.6595138,-0.74175924,0.12179797,-0.46148,-0.2716367,0.84454113,,1.167847110705979,0.2976109567739899,0.19901810741000003,3.3875410369924905,-0.1546725177344786,-1.3682691626273775,-0.41260711105518966,,-1.0993387473787333,-0.08664134011592478,0.17355508294000002,-1.6009827185043435,-0.7069572497863889,-0.7527635833222255,0.8585364116017717,,0.023856469213197493,0.03659955441432109,0.08941130016,-0.1167695939710949,,-1.9818544e-06,-3.4570694e-06,5.6028366e-06,1.0,-7.7039e-06,-8.255243e-06,7.7039e-06,1.0,-7.4505806e-07,8.255243e-06,8.046627e-07,1.0,40,0.121,0,0,0.0,False,-0.2631548101423209,1.0339687627077414
0.12803090299985342,14:37:57.259470,14:36:40.091509,0,,0.11838316,-0.00017093122,0.016376227,0.8471606,0.1490086,-0.51001525,0.37289128,0.5170575,0.77045685,0.37851185,-0.8428807,0.38246647,,0.041752122,-0.04266541,0.03041029,0.5715604,0.64971083,0.50119305,-0.06596157,-0.57243824,0.8172905,0.81790453,-0.5001904,-0.28432706,,0.057401244,1.3232875,0.43414876,0.99679285,0.078302935,-0.016512437,0.04125751,-0.679649,-0.73237634,-0.068569876,0.7293462,-0.6806998,,-0.07858547,0.27779347,-0.051512223,-0.8556962,-0.09034076,0.50953174,0.5145555,-0.25305063,0.81926674,0.054924145,0.9632258,0.2630198,,0.0065890355,0.4474694,-0.32693633,-0.59330994,-0.6137508,-0.52085817,0.6595904,-0.7415766,0.12249338,-0.46143666,-0.27087653,0.84480894,,1.1683490883428034,0.29779630236297133,0.19879255295,3.3900573163143055,-0.15713197473025653,-1.3692857537460428,-0.4127704551213238,,-1.0993387473787333,-0.086649062848799,0.17355897181000002,-1.601192408447828,-0.7069572497863889,-0.7536620494637717,0.8593531319324432,,0.023856469213197493,0.03659955441432109,0.08941130016,-0.1167695939710949,,-2.4743378e-05,-1.1920929e-06,9.536743e-07,1.0,3.053993e-05,3.2726675e-05,-3.055483e-05,1.0,3.1292439e-06,-3.27304e-05,-3.0398369e-06,1.0,47,0.142,0,0,0.0,False,-0.26351227645344677,1.0334376804991676
0.16342341799963833,14:37:57.279562,14:36:40.091509,0,,0.118394256,-0.00019469857,0.01647988,0.8472479,0.15043598,-0.50945085,0.3717593,0.5171229,0.7709598,0.37942874,-0.842587,0.38220513,,0.041753843,-0.042663608,0.030408442,0.57155466,0.6497553,0.501142,-0.065968454,-0.57236725,0.81733966,0.8179079,-0.5002138,-0.28427586,,0.057401244,1.3232875,0.43414876,0.99679285,0.078302935,-0.016512437,0.04125751,-0.679649,-0.73237634,-0.068569876,0.7293462,-0.6806998,,-0.07860266,0.27785158,-0.05160033,-0.85586214,-0.091779396,0.5089956,0.51443166,-0.25282145,0.8194153,0.053479567,0.96314996,0.26359454,,0.006587312,0.44746858,-0.32693386,-0.5933041,-0.613797,-0.5208104,0.65959036,-0.7415649,0.122564085,-0.46144423,-0.27080378,0.8448281,,1.1685189884660363,0.2979044206232105,0.19869662749000003,3.39026700625779,-0.15849833972791091,-1.3685799684097815,-0.41326048731972653,,-1.0993464701116074,-0.08664134011592478,0.17356156439,-1.601192408447828,-0.7069572497863889,-0.7537437282039123,0.8591897878663088,,0.023856469213197493,0.03659955441432109,0.08941130016,-0.1167695939710949,,-2.4743378e-05,-1.1920929e-06,9.536743e-07,1.0,3.053993e-05,3.2726675e-05,-3.055483e-05,1.0,3.1292439e-06,-3.27304e-05,-3.0398369e-06,1.0,55,0.166,0,0,0.0,False,-0.26392932048309437,1.0334859606999471
0.1835527049997836,14:37:57.307647,14:36:40.091509,0,,0.11839797,-0.00022570789,0.01657702,0.8488047,0.15013337,-0.50694245,0.36959982,0.5171286,0.7719935,0.37805638,-0.8426375,0.38345182,,0.041758113,-0.042662952,0.030407071,0.5715361,0.6499266,0.500941,-0.065974206,-0.5721027,0.8175244,0.81792045,-0.5002939,-0.28409895,,0.057401244,1.3232875,0.43414876,0.99679285,0.078302935,-0.016512437,0.04125751,-0.679649,-0.73237634,-0.068569876,0.7293462,-0.6806998,,-0.078612335,0.27790013,-0.051689558,-0.85740155,-0.0914745,0.50645334,0.51191616,-0.25284797,0.82098097,0.052956868,0.963172,0.2636195,,0.0065830615,0.44746754,-0.3269327,-0.59328574,-0.61397505,-0.5206214,0.65959936,-0.7415152,0.12281657,-0.461455,-0.2705362,0.84490794,,1.1686888885892692,0.2980048161505754,0.19860070203000002,3.3932026654665735,-0.1587716127274418,-1.3690105625235132,-0.41228042292292066,,-1.09936963831023,-0.08664134011592478,0.17356415697000002,-1.601192408447828,-0.7069572497863889,-0.7540704431644745,0.8588630997340401,,0.023856469213197493,0.03659955441432109,0.08941130016,-0.1167695939710949,,-2.4743378e-05,-1.1920929e-06,9.536743e-07,1.0,3.053993e-05,3.2726675e-05,-3.055483e-05,1.0,3.1292439e-06,-3.27304e-05,-3.0398369e-06,1.0,67,0.203,0,0,0.0,False,-0.264167631357179,1.0344515647155361
0.2116360279997025,14:37:57.339488,14:36:40.203811,0,,0.11838884,-0.0002590865,0.016735315,0.8499003,0.14863855,-0.5055455,0.3687368,0.5176041,0.7720876,0.37643436,-0.8426106,0.38510317,,0.041764364,-0.042661164,0.030407906,0.57150567,0.65002215,0.5008517,-0.06598875,-0.5719683,0.8176173,0.8179405,-0.5003235,-0.28398895,,0.057401244,1.3232875,0.43414876,0.99679285,0.078302935,-0.016512437,0.04125751,-0.679649,-0.73237634,-0.068569876,0.7293462,-0.6806998,,-0.07861248,0.27799138,-0.051823433,-0.85843253,-0.08997099,0.50497407,0.5101271,-0.25247005,0.82220995,0.05351579,0.96341276,0.26262516,,0.006576729,0.44746888,-0.32693166,-0.5932554,-0.61407435,-0.52053887,0.6596113,-0.7414806,0.12296145,-0.46147692,-0.27040577,0.84493774,,1.1690364115686094,0.29822105267105364,0.19845422126,3.3950898749579337,-0.15795179372884915,-1.3700874636463944,-0.4130971432535919,,-1.0994082519746011,-0.08663361738305055,0.17356545326000003,-1.601192408447828,-0.7069572497863889,-0.7542338006447555,0.8588630997340403,,0.023856469213197493,0.03659955441432109,0.08941130016,-0.1167695939710949,,-2.4743378e-05,-1.1920929e-06,9.536743e-07,1.0,3.053993e-05,3.2726675e-05,-3.055483e-05,1.0,3.1292439e-06,-3.27304e-05,-3.0398369e-06,1.0,74,0.224,0,0,0.0,False,-0.2639888982016152,1.0337273617038443
0.24347434099991005,14:37:57.361006,14:36:40.203811,0,,0.11840999,-0.00027623773,0.016868725,0.85171187,0.14755155,-0.50280774,0.36677706,0.5174369,0.7731323,0.3742481,-0.8429042,0.38658845,,0.041767105,-0.042660777,0.030407488,0.5714933,0.6500273,0.50085914,-0.065992594,-0.5719699,0.8176158,0.8179488,-0.50031483,-0.28398,,0.057401244,1.3232875,0.43414876,0.99679285,0.078302935,-0.016512437,0.04125751,-0.679649,-0.73237634,-0.068569876,0.7293462,-0.6806998,,-0.07864111,0.27807534,-0.05192674,-0.8601778,-0.08887486,0.5021906,0.5071578,-0.2527763,0.82395095,0.053713355,0.96343416,0.26250613,,0.0065739914,0.44746852,-0.32693115,-0.5932432,-0.61407965,-0.52054656,0.65961725,-0.7414741,0.12296826,-0.4614841,-0.27041143,0.844932,,1.169260370821962,0.2985454074517711,0.19833496258000002,3.3984449140536865,-0.15726861123002195,-1.3706445531648765,-0.4130971432535919,,-1.0994236974403497,-0.08663361738305055,0.17356674955,-1.601192408447828,-0.7069572497863889,-0.7542338006447555,0.8588630997340403,,0.023856469213197493,0.03659955441432109,0.08941130016,-0.1167695939710949,,-2.4743378e-05,-1.1920929e-06,9.536743e-07,1.0,3.053993e-05,3.2726675e-05,-3.055483e-05,1.0,3.1292439e-06,-3.27304e-05,-3.0398369e-06,1.0,82,0.248,0,0,0.0,False,-0.2635718541719685,1.0341618835108592
0.2649703049996788,14:37:57.390338,14:36:40.203811,0,,0.118431926,-0.00028941035,0.016956031,0.85280794,0.14759359,-0.50093395,0.3651766,0.5171711,0.7740673,0.37331584,-0.84306,0.3871497,,0.041765444,-0.04266161,0.030404031,0.57150525,0.6500212,0.5008535,-0.06598377,-0.5719733,0.81761414,0.81794125,-0.5003189,-0.28399485,,0.057401244,1.3232875,0.43414876,0.99679285,0.078302935,-0.016512437,0.04125751,-0.679649,-0.73237634,-0.068569876,0.7293462,-0.6806998,,-0.07866797,0.27812877,-0.0519953,-0.8612656,-0.088915706,0.5003155,0.50535583,-0.25307357,0.8249662,0.05326418,0.9633524,0.26289764,,0.0065757837,0.44746518,-0.3269302,-0.59325516,-0.61407334,-0.52054036,0.6596143,-0.741479,0.12295472,-0.46147293,-0.27041233,0.8449378,,1.1693762118150752,0.29875392123937516,0.19825588889,3.4005418134885312,-0.1574052477297874,-1.3705331352611803,-0.4130971432535919,,-1.0994082519746011,-0.08664134011592478,0.17356934213000003,-1.601192408447828,-0.7069572497863889,-0.7542338006447555,0.8588630997340403,,0.023856469213197493,0.03659955441432109,0.08941130016,-0.1167695939710949,,-2.4743378e-05,-1.1920929e-06,9.536743e-07,1.0,3.053993e-05,3.2726675e-05,-3.055483e-05,1.0,3.1292439e-06,-3.27304e-05,-3.0398369e-06,1.0,90,0.273,0,0,0.0,False,-0.2622611443645053,1.0341618835108592
0.29431609499988554,14:37:57.419519,14:36:40.203811,0,,0.11845687,-0.0003015548,0.01711683,0.853689,0.14856131,-0.49914393,0.36319932,0.5170552,0.77507436,0.37323093,-0.84296113,0.38744682,,0.0417678,-0.0426575,0.03040415,0.5714943,0.6500292,0.5008556,-0.06600246,-0.57195985,0.817622,0.8179474,-0.50032395,-0.2839682,,0.057401244,1.3232875,0.43414876,0.99679285,0.078302935,-0.016512437,0.04125751,-0.679649,-0.73237634,-0.068569876,0.7293462,-0.6806998,,-0.0787017,0.27823588,-0.052113697,-0.8621936,-0.08989006,0.49853984,0.5039085,-0.2531014,0.82584256,0.051946096,0.96325463,0.26351878,,0.006573282,0.4474672,-0.32692674,-0.5932437,-0.6140816,-0.52054363,0.6596112,-0.74147725,0.12298171,-0.4614921,-0.2703983,0.84493184,,1.1696928438629184,0.29910144421871526,0.19811459328000003,3.4020096430929234,-0.1583617032281455,-1.3699165674155864,-0.4127704551213236,,-1.0994236974403497,-0.0866181719173021,0.17357063842,-1.601192408447828,-0.7069572497863889,-0.7542338006447555,0.8588630997340403,,0.023856469213197493,0.03659955441432109,0.08941130016,-0.1167695939710949,,-2.4743378e-05,-1.1920929e-06,9.536743e-07,1.0,3.053993e-05,3.2726675e-05,-3.055483e-05,1.0,3.1292439e-06,-3.27304e-05,-3.0398369e-06,1.0,98,0.296,0,0,0.0,False,-0.262797343831195,1.0344515647155361
0.3234909319999133,14:37:57.448179,14:36:40.203811,0,,0.118456505,-0.00032444298,0.017285705,0.8535831,0.1475308,-0.49963072,0.3636836,0.5179314,0.77426183,0.37300178,-0.84260416,0.3884427,,0.04176595,-0.042656455,0.030404747,0.5713964,0.6501044,0.50086963,-0.066031486,-0.57191694,0.8176498,0.8180134,-0.50027525,-0.28386387,,0.057401244,1.3232875,0.43414876,0.99679285,0.078302935,-0.016512437,0.04125751,-0.679649,-0.73237634,-0.068569876,0.7293462,-0.6806998,,-0.07871087,0.27834186,-0.05224683,-0.8620627,-0.088856764,0.49895135,0.50408053,-0.2522171,0.8260081,0.05244766,0.9635824,0.26221794,,0.006575072,0.44746825,-0.32692602,-0.5931469,-0.6141598,-0.52056164,0.6596593,-0.7414172,0.123085834,-0.46154773,-0.27038535,0.8449056,,1.1700326441093842,0.29937946260218734,0.19797070509000003,3.401799953149439,-0.15767852072931826,-1.3708003718946307,-0.4121170788567865,,-1.0994082519746011,-0.08661044918442788,0.17357063842,-1.601192408447828,-0.7070938862861543,-0.7542857402213403,0.8591897878663088,,0.023856469213197493,0.03659955441432109,0.08941130016,-0.1167695939710949,,-2.4743378e-05,-1.1920929e-06,9.536743e-07,1.0,3.053993e-05,3.2726675e-05,-3.055483e-05,1.0,3.1292439e-06,-3.27304e-05,-3.0398369e-06,1.0,117,0.355,0,0,0.0,False,-0.26327396557936344,1.034017042908521
0.35216916799981846,14:37:57.492037,14:36:40.203811,0,,0.11842852,-0.0003643334,0.017604828,0.8548873,0.14878228,-0.49702275,0.36085773,0.5177871,0.77567923,0.3727592,-0.8424728,0.38896018,,0.04176697,-0.04265525,0.030405343,0.571348,0.6504161,0.50052005,-0.06571704,-0.5716485,0.81786275,0.81807256,-0.5001769,-0.28386676,,0.057401244,1.3232875,0.43414876,0.99679285,0.078302935,-0.016512437,0.04125751,-0.679649,-0.73237634,-0.068569876,0.7293462,-0.6806998,,-0.07870088,0.27854502,-0.052497525,-0.8634275,-0.09011687,0.49635857,0.50192374,-0.2522468,0.8273114,0.05065015,0.9634576,0.26302865,,0.006573995,0.4474693,-0.32692525,-0.59311146,-0.6144836,-0.5202199,0.6598645,-0.7412155,0.12320097,-0.46130002,-0.27020273,0.8450993,,1.170882144725549,0.29972698558152744,0.19769718790000002,3.4041065425277686,-0.15918152222673815,-1.3696564536941105,-0.41228042292292066,,-1.0994159747074754,-0.0866181719173021,0.17357063842,-1.601611788334797,-0.7070938862861543,-0.7543674189614809,0.8593531319324432,,0.023856469213197493,0.03659955441432109,0.08941130016,-0.1167695939710949,,-2.4743378e-05,-1.1920929e-06,9.536743e-07,1.0,3.053993e-05,3.2726675e-05,-3.055483e-05,1.0,3.1292439e-06,-3.27304e-05,-3.0398369e-06,1.0,125,0.379,0,0,0.0,False,-0.264167631357179,1.0344998449163156
0.39601304799998616,14:37:57.520767,14:36:40.405468,0,,0.11841143,-0.00037951767,0.017763734,0.8557179,0.14893033,-0.4955469,0.35945043,0.51780117,0.776323,0.37221268,-0.8424379,0.38955855,,0.04176684,-0.042653996,0.030405521,0.5713484,0.650417,0.5005183,-0.06572199,-0.5716435,0.8178659,0.8180719,-0.50018144,-0.28386086,,0.057401244,1.3232875,0.43414876,0.99679285,0.078302935,-0.016512437,0.04125751,-0.679649,-0.73237634,-0.068569876,0.7293462,-0.6806998,,-0.07869262,0.27864948,-0.052619155,-0.86426544,-0.09026611,0.49487096,0.500539,-0.25221485,0.82815963,0.050059054,0.963452,0.26316229,,0.0065740743,0.4474701,-0.32692426,-0.5931117,-0.61448455,-0.52021843,0.65986145,-0.7412171,0.123207696,-0.461304,-0.27019614,0.8450992,,1.171330063232254,0.29992005390338305,0.19756367003000003,3.40557437213216,-0.15959143172603446,-1.369403878723162,-0.41244376698905527,,-1.0994159747074754,-0.08661044918442788,0.17357063842,-1.601611788334797,-0.7070938862861543,-0.7543674189614809,0.8593531319324432,,0.023856469213197493,0.03659955441432109,0.08941130016,-0.1167695939710949,,-2.4743378e-05,-1.1920929e-06,9.536743e-07,1.0,3.053993e-05,3.2726675e-05,-3.055483e-05,1.0,3.1292439e-06,-3.27304e-05,-3.0398369e-06,1.0,133,0.404,0,0,0.0,False,-0.26351227645344677,1.0341618835108592
0.4247431239996331,14:37:57.542244,14:36:40.405468,0,,0.11839477,-0.00038604438,0.017930105,0.8561454,0.1486237,-0.49490023,0.3588136,0.5182065,0.77634716,0.371844,-0.84224284,0.3903317,,0.04176684,-0.042653996,0.030405521,0.5713484,0.650417,0.5005183,-0.06572199,-0.5716435,0.8178659,0.8180719,-0.50018144,-0.28386086,,0.057401244,1.3232875,0.43414876,0.99679285,0.078302935,-0.016512437,0.04125751,-0.679649,-0.73237634,-0.068569876,0.7293462,-0.6806998,,-0.07868496,0.2787653,-0.052739672,-0.8646897,-0.089959495,0.49418518,0.4998238,-0.25178754,0.8287214,0.049878307,0.9635924,0.262682,,0.0065740743,0.4474701,-0.32692426,-0.5931117,-0.61448455,-0.52021843,0.65986145,-0.7412171,0.123207696,-0.461304,-0.27019614,0.8450992,,1.171808872670456,0.30017490408823244,0.19742885587000003,3.4062034419626137,-0.15959143172603446,-1.369567236203443,-0.4127704551213236,,-1.0994159747074754,-0.08661044918442788,0.17357063842,-1.601611788334797,-0.7070938862861543,-0.7543674189614809,0.8593531319324432,,0.023856469213197493,0.03659955441432109,0.08941130016,-0.1167695939710949,,-2.4743378e-05,-1.1920929e-06,9.536743e-07,1.0,3.053993e-05,3.2726675e-05,-3.055483e-05,1.0,3.1292439e-06,-3.27304e-05,-3.0398369e-06,1.0,141,0.427,0,0,0.0,False,-0.2632143878608417,1.0339687627077414
0.4462285059998976,14:37:57.571612,14:36:40.405468,0,,0.11838024,-0.00037769973,0.01819405,0.8571673,0.14822581,-0.49324787,0.3572906,0.5186433,0.7767578,0.37095517,-0.842044,0.3916043,,0.04176671,-0.04265276,0.03040576,0.5713489,0.65037715,0.5005697,-0.065726936,-0.5717052,0.8178223,0.8180711,-0.5001628,-0.28389582,,0.057401244,1.3232875,0.43414876,0.99679285,0.078302935,-0.016512437,0.04125751,-0.679649,-0.73237634,-0.068569876,0.7293462,-0.6806998,,-0.07868419,0.27896178,-0.052916713,-0.86570364,-0.08956111,0.49247944,0.49810824,-0.25133386,0.82989126,0.04945078,0.9637479,0.26219177,,0.006574153,0.4474709,-0.32692328,-0.593112,-0.61444306,-0.5202672,0.6598584,-0.7412287,0.12315389,-0.461308,-0.2702586,0.84507704,,1.1725811459578783,0.30068460445793127,0.19722533834000003,3.4078809615104895,-0.15959143172603446,-1.3696489149435833,-0.41260711105518943,,-1.0994159747074754,-0.08660272645155365,0.17357063842,-1.601611788334797,-0.7070938862861543,-0.7542857402213403,0.8591897878663088,,0.023856469213197493,0.03659955441432109,0.08941130016,-0.1167695939710949,,-2.4743378e-05,-1.1920929e-06,9.536743e-07,1.0,3.053993e-05,3.2726675e-05,-3.055483e-05,1.0,3.1292439e-06,-3.27304e-05,-3.0398369e-06,1.0,160,0.486,0,0,0.0,False,-0.2629164992682367,1.0340653231093004
0.475569443999575,14:37:57.620844,14:36:40.405468,0,,0.11839343,-0.00030253828,0.018688262,0.85809165,0.14853173,-0.49154565,0.35508814,0.5198488,0.77696186,0.37093285,-0.84124637,0.39333597,,0.041767925,-0.042652685,0.030406117,0.57134277,0.6504205,0.5005202,-0.0657289,-0.5716393,0.81786823,0.8180753,-0.5001816,-0.2838505,,0.057401244,1.3232875,0.43414876,0.99679285,0.078302935,-0.016512437,0.04125751,-0.679649,-0.73237634,-0.068569876,0.7293462,-0.6806998,,-0.07872147,0.27937007,-0.053203035,-0.8666842,-0.08987638,0.49069414,0.49654934,-0.24992995,0.83124834,0.047929566,0.9640836,0.2612384,,0.0065729283,0.4474712,-0.32692343,-0.59310585,-0.6144882,-0.5202208,0.6598614,-0.7412154,0.12321783,-0.4613116,-0.2701924,0.84509623,,1.1740330197382327,0.3019511326493041,0.19687793262000003,3.4091391011713967,-0.1601379777250962,-1.369366600809079,-0.41228042292292066,,-1.0994236974403497,-0.08660272645155365,0.17357063842,-1.601611788334797,-0.7070938862861543,-0.7543674189614809,0.8593531319324432,,0.023856469213197493,0.03659955441432109,0.08941130016,-0.1167695939710949,,-2.4743378e-05,-1.1920929e-06,9.536743e-07,1.0,3.053993e-05,3.2726675e-05,-3.055483e-05,1.0,3.1292439e-06,-3.27304e-05,-3.0398369e-06,1.0,168,0.51,0,0,0.0,False,-0.2631548101423209,1.033823922105403
0.5248205999996571,14:37:57.651614,14:36:40.532002,0,,0.11843315,-0.00024569035,0.019021004,0.8584194,0.14995778,-0.4905394,0.35308182,0.520959,0.7771326,0.37208793,-0.8403061,0.39425382,,0.0417655,-0.04265279,0.030405343,0.57135504,0.6504154,0.5005128,-0.06572503,-0.57163763,0.8178697,0.818067,-0.50019026,-0.28385943,,0.057401244,1.3232875,0.43414876,0.99679285,0.078302935,-0.016512437,0.04125751,-0.679649,-0.73237634,-0.068569876,0.7293462,-0.6806998,,-0.07877719,0.2796487,-0.053389568,-0.86712617,-0.0913199,0.4896457,0.49598733,-0.2485111,0.8320089,0.045703433,0.96431476,0.260784,,0.006575377,0.4474706,-0.32692313,-0.5931181,-0.6144829,-0.5202131,0.6598554,-0.7412219,0.123211026,-0.46130443,-0.27018675,0.84510195,,1.1749211340187684,0.30288558332708526,0.19664719300000003,3.409558481058366,-0.16164097922251605,-1.3689577912698239,-0.41195373479065234,,-1.0994082519746011,-0.08660272645155365,0.17357063842,-1.601611788334797,-0.7070938862861543,-0.7543674189614809,0.8593531319324432,,0.023856469213197493,0.03659955441432109,0.08941130016,-0.1167695939710949,,-2.4743378e-05,-1.1920929e-06,9.536743e-07,1.0,3.053993e-05,3.2726675e-05,-3.055483e-05,1.0,3.1292439e-06,-3.27304e-05,-3.0398369e-06,1.0,176,0.535,0,0,0.0,False,-0.2636314318904893,1.0337273617038443
0.5555616639999243,14:37:57.678781,14:36:40.532002,0,,0.11849211,-0.00019305944,0.019356772,0.8592829,0.1524935,-0.48824042,0.3491722,0.5226438,0.7777675,0.37378025,-0.83880216,0.3958522,,0.04176787,-0.042653833,0.030405343,0.5712377,0.6503739,0.5007008,-0.06574994,-0.5718075,0.8177489,0.8181469,-0.50005007,-0.28387594,,0.057401244,1.3232875,0.43414876,0.99679285,0.078302935,-0.016512437,0.04125751,-0.679649,-0.73237634,-0.068569876,0.7293462,-0.6806998,,-0.078852385,0.27992618,-0.05358016,-0.8681823,-0.09388556,0.48728326,0.49448484,-0.24630965,0.8335564,0.041763656,0.9646331,0.2602667,,0.006573048,0.44746995,-0.32692403,-0.5930024,-0.6144396,-0.5203962,0.6599185,-0.7411791,0.123130284,-0.46136287,-0.2704025,0.84500104,,1.175762911902059,0.3038123112719922,0.19641256451000003,3.411236000606242,-0.16478361871712116,-1.3689272204291636,-0.41179039072451773,,-1.0994159747074754,-0.08661044918442788,0.17357193471000001,-1.601611788334797,-0.7072305227859198,-0.7541743223176438,0.8595164759985774,,0.023856469213197493,0.03659955441432109,0.08941130016,-0.1167695939710949,,-2.4743378e-05,-1.1920929e-06,9.536743e-07,1.0,3.053993e-05,3.2726675e-05,-3.055483e-05,1.0,3.1292439e-06,-3.27304e-05,-3.0398369e-06,1.0,184,0.559,0,0,0.0,False,-0.2623802998015474,1.0342584439124183
0.5827378789999784,14:37:57.703573,14:36:40.532002,0,,0.11851982,-0.0001770854,0.019572526,0.85934055,0.15265179,-0.48808947,0.3481009,0.5245857,0.77693987,0.37464598,-0.83756024,0.3976594,,0.041768823,-0.042651255,0.030406177,0.5712325,0.6503783,0.500701,-0.065761745,-0.5717983,0.81775445,0.81814957,-0.5000548,-0.28385973,,0.057401244,1.3232875,0.43414876,0.99679285,0.078302935,-0.016512437,0.04125751,-0.679649,-0.73237634,-0.068569876,0.7293462,-0.6806998,,-0.078891024,0.28009233,-0.053716067,-0.8683143,-0.09405721,0.48701486,0.49436662,-0.24407256,0.83428425,0.040396515,0.96518487,0.25843045,,0.0065719807,0.44747186,-0.3269222,-0.59299684,-0.6144442,-0.52039707,0.65991545,-0.74117905,0.123147145,-0.46137446,-0.27039218,0.84499806,,1.1762726122717577,0.30436062530606217,0.19625052826000003,3.411236000606242,-0.16574007421547926,-1.3702709423469432,-0.4127704551213238,,-1.0994236974403497,-0.08659500371867943,0.17357193471000001,-1.601611788334797,-0.7072305227859198,-0.7541743223176438,0.8595164759985774,,0.023856469213197493,0.03659955441432109,0.08941130016,-0.1167695939710949,,-2.4743378e-05,-1.1920929e-06,9.536743e-07,1.0,3.053993e-05,3.2726675e-05,-3.055483e-05,1.0,3.1292439e-06,-3.27304e-05,-3.0398369e-06,1.0,192,0.583,0,0,0.0,False,-0.26339312101640555,1.034017042908521
0.6075427699997817,14:37:57.732175,14:36:40.532002,0,,0.11856712,-0.00016751885,0.019895017,0.85964876,0.15562198,-0.4866065,0.34510037,0.5254382,0.7777021,0.37670907,-0.83647865,0.39798695,,0.041771248,-0.042651165,0.030406892,0.5712201,0.6503834,0.50070846,-0.06576559,-0.5718,0.8177529,0.8181579,-0.5000464,-0.28385073,,0.057401244,1.3232875,0.43414876,0.99679285,0.078302935,-0.016512437,0.04125751,-0.679649,-0.73237634,-0.068569876,0.7293462,-0.6806998,,-0.07895503,0.2803307,-0.053929213,-0.8688114,-0.09705653,0.4855376,0.49377182,-0.24276052,0.835019,0.036825307,0.96521884,0.2588369,,0.0065695317,0.44747245,-0.3269225,-0.59298456,-0.6144495,-0.52040476,0.6599214,-0.7411726,0.123153955,-0.4613816,-0.27039784,0.8449923,,1.1769985491619348,0.30508656219623925,0.19600164058000002,3.4118650704366957,-0.16874607721031895,-1.3692082870480116,-0.41260711105518943,,-1.0994391429060981,-0.08659500371867943,0.17357193471000001,-1.601611788334797,-0.7072305227859198,-0.7541743223176438,0.8591897878663088,,0.023856469213197493,0.03659955441432109,0.08941130016,-0.1167695939710949,,-2.4743378e-05,-1.1920929e-06,9.536743e-07,1.0,3.053993e-05,3.2726675e-05,-3.055483e-05,1.0,3.1292439e-06,-3.27304e-05,-3.0398369e-06,1.0,203,0.617,0,0,0.0,False,-0.26285692154971585,1.0344515647155361
0.6361358039998777,14:37:57.759817,14:36:40.532002,0,,0.11858287,-0.00021389127,0.020231828,0.8603805,0.15577577,-0.4852623,0.34317935,0.5268568,0.7775923,0.3767937,-0.8355572,0.39983803,,0.041770034,-0.04265124,0.030406535,0.5712263,0.6503808,0.5007047,-0.06576368,-0.57179916,0.8177537,0.81815374,-0.50005054,-0.28385523,,0.057401244,1.3232875,0.43414876,0.99679285,0.078302935,-0.016512437,0.04125751,-0.679649,-0.73237634,-0.068569876,0.7293462,-0.6806998,,-0.0789898,0.28054124,-0.054194342,-0.86959773,-0.09722077,0.48409498,0.49248868,-0.24111679,0.8362521,0.03542236,0.9656142,0.25755474,,0.0065707564,0.44747216,-0.32692236,-0.5929907,-0.6144468,-0.5204009,0.6599184,-0.74117583,0.12315055,-0.46137804,-0.270395,0.8449952,,1.1777090405863635,0.3056425989631834,0.19570738275000002,3.413123210097603,-0.16970253270867705,-1.370061936524948,-0.4122804229229211,,-1.0994314201732238,-0.08659500371867943,0.17357193471000001,-1.601611788334797,-0.7072305227859198,-0.7541743223176438,0.8591897878663088,,0.023856469213197493,0.03659955441432109,0.08941130016,-0.1167695939710949,,-2.4743378e-05,-1.1920929e-06,9.536743e-07,1.0,3.053993e-05,3.2726675e-05,-3.055483e-05,1.0,3.1292439e-06,-3.27304e-05,-3.0398369e-06,1.0,211,0.642,0,0,0.0,False,-0.26386974276457353,1.0337273617038443
0.6638045689996943,14:37:57.780850,14:36:40.532002,0,,0.11858874,-0.00024484098,0.020452455,0.8598505,0.15793192,-0.48550466,0.34223112,0.52737534,0.77765876,0.3788603,-0.834825,0.3994145,,0.041770034,-0.04265124,0.030406535,0.5712263,0.65042174,0.50065154,-0.06576368,-0.5717323,0.8178004,0.81815374,-0.5000738,-0.28381437,,0.057401244,1.3232875,0.43414876,0.99679285,0.078302935,-0.016512437,0.04125751,-0.679649,-0.73237634,-0.068569876,0.7293462,-0.6806998,,-0.079008155,0.28067887,-0.05436868,-0.8692033,-0.099397965,0.48436108,0.4933335,-0.24027194,0.8359973,0.03328195,0.9656032,0.25788152,,0.0065707564,0.44747216,-0.32692236,-0.5929907,-0.6144894,-0.5203507,0.6599184,-0.74116576,0.12321109,-0.46137804,-0.270326,0.84501725,,1.1781955727574396,0.3059206173466555,0.19551682812,3.41207476038018,-0.17175208020515864,-1.369044097890626,-0.412933799187458,,-1.0994314201732238,-0.08659500371867943,0.17357193471000001,-1.601611788334797,-0.7072305227859198,-0.7542560010577843,0.8593531319324432,,0.023856469213197493,0.03659955441432109,0.08941130016,-0.1167695939710949,,-2.4743378e-05,-1.1920929e-06,9.536743e-07,1.0,3.053993e-05,3.2726675e-05,-3.055483e-05,1.0,3.1292439e-06,-3.27304e-05,-3.0398369e-06,1.0,219,0.666,0,0,0.0,False,-0.2629164992682367,1.0337756419046236
0.6848095859995738,14:37:57.805412,14:36:40.532002,0,,0.11858745,-0.00030614436,0.020800933,0.85926145,0.16125202,-0.4854561,0.3397387,0.5295845,0.7772503,0.38242313,-0.8327893,0.40026784,,0.04176761,-0.04265133,0.03040576,0.57123864,0.6504166,0.5006441,-0.06575981,-0.5717307,0.81780183,0.8181454,-0.50008225,-0.28382334,,0.057401244,1.3232875,0.43414876,0.99679285,0.078302935,-0.016512437,0.04125751,-0.679649,-0.73237634,-0.068569876,0.7293462,-0.6806998,,-0.07902694,0.28088784,-0.05465358,-0.86887044,-0.10276069,0.48425657,0.49418995,-0.23733933,0.8363291,0.028991383,0.96597636,0.25700042,,0.0065732053,0.44747156,-0.32692206,-0.5930029,-0.6144841,-0.520343,0.65991247,-0.74117225,0.12320428,-0.46137086,-0.27032033,0.845023,,1.1789910142434847,0.3062372493944987,0.19521090368000002,3.4110263106627574,-0.1759878116978873,-1.3690206499619406,-0.41293379918745776,,-1.0994159747074754,-0.08659500371867943,0.17357193471000001,-1.601611788334797,-0.7072305227859198,-0.7542560010577843,0.8593531319324432,,0.023856469213197493,0.03659955441432109,0.08941130016,-0.1167695939710949,,-2.4743378e-05,-1.1920929e-06,9.536743e-07,1.0,3.053993e-05,3.2726675e-05,-3.055483e-05,1.0,3.1292439e-06,-3.27304e-05,-3.0398369e-06,1.0,227,0.691,0,0,0.0,False,-0.26273776611267374,1.0344032845147566
0.7093992609998168,14:37:57.836228,14:36:40.720592,0,,0.11857537,-0.00035437942,0.021164536,0.85858387,0.16484708,-0.48544753,0.33604306,0.5341552,0.7757276,0.38718066,-0.8291584,0.40322113,,0.041771412,-0.042652357,0.030406654,0.571241,0.6502898,0.50080633,-0.06592131,-0.57183695,0.8177146,0.8181309,-0.5001259,-0.28378874,,0.057401244,1.3232875,0.43414876,0.99679285,0.078302935,-0.016512437,0.04125751,-0.679649,-0.73237634,-0.068569876,0.7293462,-0.6806998,,-0.07903539,0.281117,-0.054940112,-0.8685445,-0.10641896,0.48405108,0.49507707,-0.23162659,0.83740544,0.023003288,0.96696645,0.25386357,,0.0065694186,0.44747168,-0.32692346,-0.59299916,-0.6143522,-0.520503,0.65982187,-0.741256,0.12318553,-0.46150526,-0.27039033,0.8449272,,1.1799331876541401,0.3065075450450966,0.19490497924000003,3.409977860945335,-0.18199981768756668,-1.371224312591527,-0.41375051951812925,,-1.0994391429060981,-0.08659500371867943,0.17357193471000001,-1.6014020983913126,-0.7072305227859198,-0.7542560010577843,0.8590264438001746,,0.023856469213197493,0.03659955441432109,0.08941130016,-0.1167695939710949,,-2.4743378e-05,-1.1920929e-06,9.536743e-07,1.0,3.053993e-05,3.2726675e-05,-3.055483e-05,1.0,3.1292439e-06,-3.27304e-05,-3.0398369e-06,1.0,263,0.8,1,1,0.049,False,-0.2637505873275314,1.0341618835108592
0.7401984149996679,14:37:57.936185,14:36:40.720592,0,,0.11833463,-0.00055244565,0.022657469,0.85780215,0.1750467,-0.48325375,0.32660756,0.54034287,0.7754722,0.39686647,-0.82303596,0.40633553,,0.041772574,-0.04263978,0.030409753,0.5712546,0.6501297,0.50099844,-0.06613517,-0.57195383,0.81761557,0.8181041,-0.5002003,-0.2837348,,0.057401244,1.3232875,0.43414876,0.99679285,0.078302935,-0.016512437,0.04125751,-0.679649,-0.73237634,-0.068569876,0.7293462,-0.6806998,,-0.0788793,0.2820616,-0.05612728,-0.8685289,-0.11675863,0.4816897,0.4955481,-0.22312681,0.83943224,0.009466922,0.9677716,0.25165161,,0.006567722,0.44748035,-0.32691392,-0.5930044,-0.614186,-0.5206931,0.6596949,-0.74137044,0.12317682,-0.46167997,-0.27045423,0.8448113,,1.1844818773170585,0.3074265502571293,0.19365146681,3.408090651453974,-0.19580010416387617,-1.3691191232139315,-0.4124437669890548,,-1.0994545883718465,-0.08651005365706296,0.17357193471000001,-1.601192408447828,-0.7072305227859198,-0.7541743223176438,0.8595164759985774,,0.023856469213197493,0.03659955441432109,0.08941130016,-0.1167695939710949,,-2.4743378e-05,-1.1920929e-06,9.536743e-07,1.0,3.053993e-05,3.2726675e-05,-3.055483e-05,1.0,3.1292439e-06,-3.27304e-05,-3.0398369e-06,1.0,271,0.825,1,1,0.074,False,-0.26273776611267374,1.0336790815030648
0.840145284999835,14:37:57.973953,14:36:40.720592,0,,0.11826177,-0.000593096,0.023178056,0.8579246,0.17805487,-0.48193565,0.32349688,0.541528,0.7759493,0.3991431,-0.82161057,0.4069898,,0.041772313,-0.042637292,0.03041017,0.57125556,0.6501316,0.5009949,-0.06614509,-0.57194376,0.81762177,0.81810254,-0.50020933,-0.283723,,0.057401244,1.3232875,0.43414876,0.99679285,0.078302935,-0.016512437,0.04125751,-0.679649,-0.73237634,-0.068569876,0.7293462,-0.6806998,,-0.07883518,0.28241044,-0.05652013,-0.86885476,-0.11980514,0.48035207,0.49503472,-0.22133711,0.8402086,0.005658427,0.9678102,0.25161752,,0.0065678796,0.44748196,-0.32691196,-0.59300494,-0.61418796,-0.5206902,0.65968883,-0.7413736,0.12319028,-0.46168795,-0.2704411,0.84481114,,1.1861113739535198,0.3079362506268281,0.19323017256000002,3.408090651453974,-0.19948928965754306,-1.3676627358767988,-0.41195373479065234,,-1.0994545883718465,-0.0864946081913145,0.17357193471000001,-1.601192408447828,-0.7072305227859198,-0.7541743223176438,0.8591897878663088,,0.023856469213197493,0.03659955441432109,0.08941130016,-0.1167695939710949,,-2.4743378e-05,-1.1920929e-06,9.536743e-07,1.0,3.053993e-05,3.2726675e-05,-3.055483e-05,1.0,3.1292439e-06,-3.27304e-05,-3.0398369e-06,1.0,283,0.863,1,1,0.112,False,-0.26351227645344677,1.0343067241131978
0.8779399569998532,14:37:58.006291,14:36:40.893231,0,,0.11819639,-0.00063073635,0.023716286,0.8578765,0.18027493,-0.48119545,0.32094452,0.5433446,0.7757392,0.4013012,-0.8199253,0.40826416,,0.041774478,-0.042634685,0.030411363,0.5712442,0.6501795,0.50094587,-0.0661588,-0.5718686,0.8176733,0.8181095,-0.50023305,-0.28366143,,0.057401244,1.3232875,0.43414876,0.99679285,0.078302935,-0.016512437,0.04125751,-0.679649,-0.73237634,-0.068569876,0.7293462,-0.6806998,,-0.078799374,0.28277394,-0.05692258,-0.86898917,-0.12206174,0.47954017,0.49482566,-0.21890742,0.84096795,0.0023248896,0.9680808,0.25062746,,0.0065655885,0.44748417,-0.3269103,-0.59299326,-0.6142377,-0.5206448,0.6596888,-0.74136025,0.12327109,-0.4617031,-0.27036458,0.84482735,,1.187764038788604,0.30854634652389185,0.19279591541000002,3.4076712715670054,-0.2026319291521482,-1.3670604138551545,-0.4116270466583838,,-1.099470033837595,-0.08647916272556606,0.17357193471000001,-1.601192408447828,-0.7072305227859198,-0.7542560010577843,0.8590264438001746,,0.023856469213197493,0.03659955441432109,0.08941130016,-0.1167695939710949,,-2.4743378e-05,-1.1920929e-06,9.536743e-07,1.0,3.053993e-05,3.2726675e-05,-3.055483e-05,1.0,3.1292439e-06,-3.27304e-05,-3.0398369e-06,1.0,296,0.903,1,1,0.152,False,-0.26196325577190027,1.034017042908521
0.9102836689999094,14:37:58.044920,14:36:40.893231,0,,0.118148945,-0.0006545186,0.0244371,0.8568853,0.18611676,-0.48073724,0.3152397,0.5486848,0.7743184,0.40788674,-0.81504935,0.41148838,,0.041781873,-0.042628843,0.030412078,0.57120895,0.65011674,0.50106746,-0.06619012,-0.57198703,0.8175879,0.81813157,-0.5001792,-0.28369272,,0.057401244,1.3232875,0.43414876,0.99679285,0.078302935,-0.016512437,0.04125751,-0.679649,-0.73237634,-0.068569876,0.7293462,-0.6806998,,-0.078790754,0.28327844,-0.0574401,-0.86850065,-0.12800805,0.4788743,0.49564683,-0.21180797,0.84230137,-0.0063919662,0.9688918,0.24740215,,0.0065579787,0.44748726,-0.32690564,-0.5929576,-0.6141725,-0.5207623,0.65969455,-0.74136734,0.12319733,-0.46174058,-0.27049327,0.84476566,,1.190003631322129,0.3094190153386792,0.19222295523000002,3.4057840620756443,-0.21124002863737093,-1.3680456024560552,-0.4116270466583838,,-1.0995163702348403,-0.08644827179406916,0.17357452729000003,-1.601192408447828,-0.7072305227859198,-0.7540926435775033,0.8590264438001747,,0.023856469213197493,0.03659955441432109,0.08941130016,-0.1167695939710949,,-2.4743378e-05,-1.1920929e-06,9.536743e-07,1.0,3.053993e-05,3.2726675e-05,-3.055483e-05,1.0,3.1292439e-06,-3.27304e-05,-3.0398369e-06,1.0,317,0.968,1,1,0.217,False,-0.26381016504605226,1.0333411200976084
0.9488780339997902,14:37:58.107335,14:36:40.893231,0,,0.118044265,-0.0006649196,0.025432765,0.8545149,0.19384268,-0.48190194,0.30893064,0.55616957,0.77151626,0.41757187,-0.80814624,0.4153711,,0.041794762,-0.042611066,0.030414224,0.5711256,0.6502499,0.5009897,-0.0661149,-0.5718989,0.8176556,0.8181959,-0.50010693,-0.28363478,,0.057401244,1.3232875,0.43414876,0.99679285,0.078302935,-0.016512437,0.04125751,-0.679649,-0.73237634,-0.068569876,0.7293462,-0.6806998,,-0.07873918,0.28399155,-0.05814096,-0.8668154,-0.1358849,0.47975662,0.4983128,-0.2017985,0.8431855,-0.017762,0.96995497,0.24263522,,0.006544411,0.44749713,-0.3268913,-0.59287894,-0.6143108,-0.5206888,0.65979064,-0.74126744,0.12328398,-0.4617043,-0.2704531,0.8447983,,1.1931853972663093,0.3105388116054418,0.19148147735,3.4015902632059536,-0.22230758511837162,-1.3689855585537936,-0.41097367039384647,,-1.0996013202964567,-0.08635559899957847,0.17357971245,-1.6014020983913126,-0.7072305227859198,-0.7540109648373627,0.8591897878663088,,0.023856469213197493,0.03659955441432109,0.08941130016,-0.1167695939710949,,-2.4743378e-05,-1.1920929e-06,9.536743e-07,1.0,3.053993e-05,3.2726675e-05,-3.055483e-05,1.0,3.1292439e-06,-3.27304e-05,-3.0398369e-06,1.0,325,0.994,1,1,0.243,False,-0.2634526987349264,1.0337273617038443
1.0113267459996678,14:37:58.139588,14:36:41.027149,0,,0.11796866,-0.0006785989,0.02614528,0.8524068,0.19990379,-0.48315763,0.30434996,0.5616826,0.76933986,0.42517507,-0.8028394,0.4179411,,0.04181103,-0.042590637,0.03041792,0.57102454,0.6504334,0.5008665,-0.06605533,-0.57173634,0.81777406,0.8182711,-0.5000539,-0.28351086,,0.057401244,1.3232875,0.43414876,0.99679285,0.078302935,-0.016512437,0.04125751,-0.679649,-0.73237634,-0.068569876,0.7293462,-0.6806998,,-0.07870174,0.2844976,-0.05864704,-0.86523557,-0.14206828,0.48081598,0.5006682,-0.1942728,0.8435576,-0.02643331,0.9706053,0.23922081,,0.0065273275,0.4475095,-0.32687545,-0.59278244,-0.6145015,-0.5205736,0.6598896,-0.74115086,0.12345483,-0.4616868,-0.27033925,0.84484434,,1.1955022171285767,0.31130336215999,0.19094092442000002,3.3978158442232327,-0.23091568460359435,-1.3695623534539914,-0.41179039072451795,,-1.099709438556696,-0.08624748073933933,0.17358489761,-1.601611788334797,-0.7072305227859198,-0.7540109648373627,0.8591897878663088,,0.023856469213197493,0.03659955441432109,0.08941130016,-0.1167695939710949,,-2.4743378e-05,-1.1920929e-06,9.536743e-07,1.0,3.053993e-05,3.2726675e-05,-3.055483e-05,1.0,3.1292439e-06,-3.27304e-05,-3.0398369e-06,1.0,334,1.021,1,1,0.27,False,-0.2621419889274632,1.0334376804991676
1.043542423999952,14:37:58.167908,14:36:41.027149,0,,0.11793398,-0.0006649494,0.026464432,0.8508911,0.20346637,-0.48434064,0.30251947,0.5639726,0.7683859,0.42949548,-0.8003351,0.41832656,,0.04182925,-0.042573575,0.030420065,0.5709374,0.6504831,0.50090146,-0.06614342,-0.5716885,0.8178004,0.81832486,-0.50004417,-0.28337306,,0.057401244,1.3232875,0.43414876,0.99679285,0.078302935,-0.016512437,0.04125751,-0.679649,-0.73237634,-0.068569876,0.7293462,-0.6806998,,-0.07868363,0.28473794,-0.058859505,-0.864,-0.14569566,0.481951,0.50254756,-0.19095093,0.8431985,-0.03082136,0.9707268,0.23820059,,0.006508459,0.4475188,-0.32686186,-0.59269387,-0.61455303,-0.5206136,0.65989804,-0.7411214,0.12358664,-0.46178845,-0.27030286,0.8448004,,1.1965988451967167,0.311681776070827,0.19071277738000003,3.3950898749579337,-0.23528805259608845,-1.3690190939209068,-0.4126071110551892,,-1.0998252795498094,-0.08615480794484863,0.17359137906000002,-1.601611788334797,-0.7072305227859198,-0.7540109648373627,0.8591897878663088,,0.023856469213197493,0.03659955441432109,0.08941130016,-0.1167695939710949,,-2.4743378e-05,-1.1920929e-06,9.536743e-07,1.0,3.053993e-05,3.2726675e-05,-3.055483e-05,1.0,3.1292439e-06,-3.27304e-05,-3.0398369e-06,1.0,343,1.05,1,1,0.299,False,-0.2632143878608417,1.0338722023061826
1.0718589469997823,14:37:58.196225,14:36:41.027149,0,,0.117865056,-0.0006457418,0.026937723,0.8495579,0.2073618,-0.48502845,0.29982102,0.5667022,0.7674347,0.43400326,-0.79740185,0.4192747,,0.04184725,-0.042558048,0.030423224,0.57082826,0.6506654,0.500789,-0.066066,-0.5715469,0.8179056,0.8184072,-0.49996877,-0.28326824,,0.057401244,1.3232875,0.43414876,0.99679285,0.078302935,-0.016512437,0.04125751,-0.679649,-0.73237634,-0.068569876,0.7293462,-0.6806998,,-0.07863933,0.28509402,-0.059176337,-0.8629797,-0.14966623,0.482562,0.5039577,-0.18702179,0.8432375,-0.03595458,0.97088766,0.23682146,,0.0064898347,0.44752827,-0.3268501,-0.5925901,-0.6147424,-0.52050817,0.6600121,-0.7409952,0.123733945,-0.46175855,-0.27021816,0.84484386,,1.1982978464290461,0.3122455355706454,0.19037314940000002,3.3925735956361196,-0.24034360308740974,-1.3683271385700428,-0.41228042292292066,,-1.0999411205429226,-0.08607758061610639,0.17359656422000003,-1.6018214782782818,-0.7072305227859198,-0.7540109648373627,0.8591897878663088,,0.023856469213197493,0.03659955441432109,0.08941130016,-0.1167695939710949,,-2.4743378e-05,-1.1920929e-06,9.536743e-07,1.0,3.053993e-05,3.2726675e-05,-3.055483e-05,1.0,3.1292439e-06,-3.27304e-05,-3.0398369e-06,1.0,356,1.091,1,1,0.34,False,-0.26333354329788383,1.0333894002983879
1.1002140969999346,14:37:58.228821,14:36:41.027149,0,,0.11779514,-0.0005739778,0.027566373,0.84610635,0.21456358,-0.4879206,0.2959498,0.5722165,0.7648412,0.44330326,-0.7915369,0.42065588,,0.04188825,-0.042530764,0.030431628,0.57062674,0.6507701,0.5008825,-0.0662252,-0.5714796,0.81793976,0.81853485,-0.49990934,-0.28300416,,0.057401244,1.3232875,0.43414876,0.99679285,0.078302935,-0.016512437,0.04125751,-0.679649,-0.73237634,-0.068569876,0.7293462,-0.6806998,,-0.078600846,0.28559858,-0.059562564,-0.8601296,-0.15701772,0.48530662,0.5080546,-0.17911495,0.8424953,-0.045361016,0.9712174,0.23383565,,0.00644767,0.447547,-0.3268309,-0.592387,-0.61485124,-0.52061075,0.66005605,-0.74091536,0.123977534,-0.46195626,-0.2701896,0.8447449,,1.2006069435584392,0.3131027589196843,0.18995574402,3.386492587275068,-0.2496348850714597,-1.3679384502510554,-0.41195373479065234,,-1.1002036934606463,-0.08593084869149611,0.17360563825000003,-1.6018214782782818,-0.7072305227859198,-0.7540109648373627,0.8591897878663088,,0.023856469213197493,0.03659955441432109,0.08941130016,-0.1167695939710949,,-2.4743378e-05,-1.1920929e-06,9.536743e-07,1.0,3.053993e-05,3.2726675e-05,-3.055483e-05,1.0,3.1292439e-06,-3.27304e-05,-3.0398369e-06,1.0,365,1.12,1,1,0.369,False,-0.26333354329788383,1.0335825211015057
1.132803328999671,14:37:58.257026,14:36:41.027149,0,,0.117769286,-0.00051407516,0.02785039,0.84419537,0.21890907,-0.48929873,0.29345176,0.575139,0.7636107,0.44857597,-0.788222,0.4212902,,0.04191012,-0.042520303,0.030436218,0.57051855,0.6508227,0.50093746,-0.06629434,-0.5714594,0.8179483,0.81860465,-0.499864,-0.28288233,,0.057401244,1.3232875,0.43414876,0.99679285,0.078302935,-0.016512437,0.04125751,-0.679649,-0.73237634,-0.068569876,0.7293462,-0.6806998,,-0.07858845,0.28584546,-0.05971692,-0.85856754,-0.16145256,0.48661578,0.51016665,-0.17478588,0.8421282,-0.05091019,0.971279,0.23243318,,0.0064253104,0.44755512,-0.3268243,-0.59227866,-0.61490583,-0.5206696,0.6600886,-0.7408682,0.12408592,-0.46204868,-0.2701946,0.84469277,,1.2017190170923275,0.3135429546935151,0.18978722632000003,3.3833472381228002,-0.25510034506207735,-1.3676473498503674,-0.41179039072451795,,-1.1003504253852565,-0.08587678956137655,0.17360952712000002,-1.6018214782782818,-0.7072305227859198,-0.7540109648373627,0.8591897878663088,,0.023856469213197493,0.03659955441432109,0.08941130016,-0.1167695939710949,,-2.4743378e-05,-1.1920929e-06,9.536743e-07,1.0,3.053993e-05,3.2726675e-05,-3.055483e-05,1.0,3.1292439e-06,-3.27304e-05,-3.0398369e-06,1.0,378,1.161,1,1,0.41,False,-0.26351227645344677,1.0333411200976084
1.1609938519995922,14:37:58.302009,14:36:41.185031,0,,0.11766672,-0.0003475994,0.028528363,0.8393216,0.2278448,-0.49358502,0.288025,0.5836594,0.7591992,0.46106502,-0.7793769,0.4242528,,0.041965872,-0.042497564,0.03044951,0.57024086,0.65087247,0.50118893,-0.066456705,-0.57155585,0.81786776,0.81878495,-0.49968898,-0.28266963,,0.057401244,1.3232875,0.43414876,0.99679285,0.078302935,-0.016512437,0.04125751,-0.679649,-0.73237634,-0.068569876,0.7293462,-0.6806998,,-0.07851745,0.2864518,-0.06007075,-0.8545079,-0.17061202,0.4906198,0.51551527,-0.16268232,0.8412957,-0.06371999,0.9718158,0.22696644,,0.006368424,0.4475752,-0.3268117,-0.59200096,-0.6149574,-0.52092445,0.66018045,-0.7407635,0.12422247,-0.46227333,-0.2703643,0.84451556,,1.2045995964544132,0.31453146450141584,0.18940482077,3.375169330326904,-0.26780753954026326,-1.3688021871664193,-0.4142405517165322,,-1.1006979483645967,-0.08576094856826318,0.17361730486000002,-1.6018214782782818,-0.7072305227859198,-0.7538476073570817,0.8588630997340401,,0.023856469213197493,0.03659955441432109,0.08941130016,-0.1167695939710949,,-2.4743378e-05,-1.1920929e-06,9.536743e-07,1.0,3.053993e-05,3.2726675e-05,-3.055483e-05,1.0,3.1292439e-06,-3.27304e-05,-3.0398369e-06,1.0,387,1.189,1,1,0.438,False,-0.26339312101640555,1.0340653231093004
1.2059619919996294,14:37:58.338121,14:36:41.185031,0,,0.1176444,-0.00023640692,0.028882176,0.83632153,0.23712192,-0.49430713,0.28112438,0.5885837,0.757983,0.4706754,-0.7728793,0.42558432,,0.04198558,-0.042489756,0.030452907,0.5701442,0.650918,0.50123984,-0.06651208,-0.57154405,0.81787145,0.81884784,-0.49964315,-0.2825685,,0.057401244,1.3232875,0.43414876,0.99679285,0.078302935,-0.016512437,0.04125751,-0.679649,-0.73237634,-0.068569876,0.7293462,-0.6806998,,-0.078510895,0.28678444,-0.060236085,-0.852206,-0.18008447,0.4912377,0.51773024,-0.15476827,0.84142864,-0.07550021,0.9713992,0.22512963,,0.0063483543,0.44758114,-0.3268068,-0.5919043,-0.6150047,-0.52097845,0.66021305,-0.7407197,0.12431061,-0.46235058,-0.27037677,0.84446925,,1.2061132520977613,0.3150102739396177,0.18923111791000002,3.3713949113441823,-0.2795582785200912,-1.36836826634427,-0.41195373479065234,,-1.1008215120905842,-0.08572233490389206,0.17362119373,-1.6018214782782818,-0.7072305227859198,-0.7538476073570817,0.8585364116017717,,0.023856469213197493,0.03659955441432109,0.08941130016,-0.1167695939710949,,-2.4743378e-05,-1.1920929e-06,9.536743e-07,1.0,3.053993e-05,3.2726675e-05,-3.055483e-05,1.0,3.1292439e-06,-3.27304e-05,-3.0398369e-06,1.0,422,1.3,1,1,0.549,False,-0.26297607698675796,1.0335825211015057
1.2421117079998112,14:37:58.436984,14:36:41.335544,0,,0.11752473,-6.137788e-05,0.029712439,0.82551926,0.25309053,-0.5044435,0.27416632,0.6014202,0.7504176,0.49330607,-0.7577855,0.42709494,,0.042033758,-0.04247176,0.030464113,0.5701431,0.6512023,0.5008716,-0.06621072,-0.5712648,0.8180909,0.818873,-0.499592,-0.2825861,,0.057406813,1.3232875,0.43415684,0.99679285,0.07830276,-0.016512616,0.041257266,-0.679649,-0.73237634,-0.068569876,0.7293462,-0.6806998,,-0.0784356,0.2875006,-0.06068425,-0.8428053,-0.19647907,0.501074,0.52945155,-0.13530712,0.8374802,-0.09674844,0.97112715,0.2180637,,0.0062942784,0.44759116,-0.3267916,-0.5919146,-0.6153003,-0.5206176,0.6603802,-0.7405528,0.12441694,-0.4620986,-0.27016136,0.8446761,,1.20971204561715,0.31574393356266905,0.18879297189000002,3.3542003359784514,-0.3012834819827962,-1.3685404637473224,-0.41113701445998085,,-1.100844680289207,-0.0856373848422756,0.17362378631000003,-1.6022408581652505,-0.7072305227859198,-0.7538476073570817,0.8588630997340401,,0.023856469213197493,0.03659955441432109,0.08941130016,-0.1167695939710949,,-1.975149e-05,5.1259995e-06,-4.6491623e-06,1.0,3.0376017e-05,3.254786e-05,-3.0383468e-05,1.0,3.0994415e-06,-3.254786e-05,-3.0398369e-06,1.0,431,1.329,1,1,0.578,False,-0.2639888982016152,1.0331479992944907
1.340971929999796,14:37:58.475291,14:36:41.335544,0,,0.11752242,-5.9455633e-06,0.029987454,0.82206386,0.26220456,-0.5054304,0.26769596,0.6054673,0.7494987,0.50254345,-0.7514374,0.4275415,,0.042033758,-0.04247176,0.030464113,0.5701431,0.6511205,0.500978,-0.06621072,-0.57139844,0.81799763,0.818873,-0.4995458,-0.2826677,,0.057406813,1.3232875,0.43415684,0.99679285,0.07830276,-0.016512616,0.041257266,-0.679649,-0.73237634,-0.068569876,0.7293462,-0.6806998,,-0.07844634,0.2877374,-0.060834315,-0.8400176,-0.20580429,0.50201094,0.5317042,-0.12810506,0.8371856,-0.10798625,0.970172,0.21703751,,0.0062942784,0.44759116,-0.3267916,-0.5919146,-0.61521524,-0.52071816,0.6603802,-0.7405731,0.124295965,-0.4620986,-0.27029935,0.84463197,,1.2107391690894218,0.3159678928160216,0.18864649112,3.350216227052246,-0.31262431146332775,-1.3676240092348566,-0.41244376698905505,,-1.100844680289207,-0.0856373848422756,0.17362378631000003,-1.6022408581652505,-0.7072305227859198,-0.7536842498768005,0.8588630997340403,,0.023856469213197493,0.03659955441432109,0.08941130016,-0.1167695939710949,,-1.975149e-05,5.1259995e-06,-4.6491623e-06,1.0,3.0376017e-05,3.254786e-05,-3.0383468e-05,1.0,3.0994415e-06,-3.254786e-05,-3.0398369e-06,1.0,444,1.37,0,1,0.591,False,-0.26249945523859,1.0336790815030648
1.3792829699996219,14:37:58.511324,14:36:41.335544,0,,0.11755988,9.857118e-05,0.03030622,0.817326,0.2748717,-0.5063832,0.25604355,0.6140507,0.7465812,0.5161588,-0.73985624,0.43150032,,0.042036053,-0.042470403,0.030465126,0.5701312,0.65112656,0.5009837,-0.06621948,-0.5713951,0.81799924,0.8188807,-0.4995417,-0.28265285,,0.057406813,1.3232875,0.43415684,0.99679285,0.07830276,-0.016512616,0.041257266,-0.679649,-0.73237634,-0.068569876,0.7293462,-0.6806998,,-0.07849779,0.28803897,-0.060976945,-0.8363199,-0.21883154,0.5026746,0.53355306,-0.114057355,0.8380406,-0.12605597,0.9690736,0.21214667,,0.006291908,0.4475926,-0.32679096,-0.5919026,-0.6152215,-0.52072436,0.66038316,-0.7405682,0.1243095,-0.46210977,-0.27029845,0.8446261,,1.2119361926849266,0.31628452486386477,0.18851426954000003,3.3460224281825552,-0.3307969659321313,-1.370284678433313,-0.41179039072451795,,-1.1008601257549555,-0.08562966210940136,0.17362378631000003,-1.6022408581652505,-0.7072305227859198,-0.7536842498768004,0.8585364116017715,,0.023856469213197493,0.03659955441432109,0.08941130016,-0.1167695939710949,,-1.975149e-05,5.1259995e-06,-4.6491623e-06,1.0,3.0376017e-05,3.254786e-05,-3.0383468e-05,1.0,3.0994415e-06,-3.254786e-05,-3.0398369e-06,1.0,457,1.411,0,1,0.591,False,-0.26285692154971585,1.0340653231093004
1.4152941599995756,14:37:58.549607,14:36:41.335544,0,,0.11750966,0.0001553297,0.030519217,0.8146709,0.27900463,-0.5083974,0.25396082,0.61649144,0.74528,0.5213591,-0.7362708,0.43138123,,0.042035922,-0.04246915,0.030465364,0.5701316,0.65116835,0.50092876,-0.066224456,-0.5713232,0.8180491,0.8188799,-0.49956933,-0.28260615,,0.057406813,1.3232875,0.43415684,0.99679285,0.07830276,-0.016512616,0.041257266,-0.679649,-0.73237634,-0.068569876,0.7293462,-0.6806998,,-0.07845741,0.28823292,-0.061085887,-0.8340002,-0.2230814,0.50465673,0.5359149,-0.10986236,0.8370935,-0.1312972,0.9685891,0.21117787,,0.0062919874,0.4475934,-0.32678998,-0.59190285,-0.615265,-0.5206726,0.6603801,-0.74055964,0.12437672,-0.46211377,-0.2702229,0.8446481,,1.212916979759953,0.3164775931857204,0.18840667747,3.342038319256349,-0.3361257894229835,-1.3694515660151967,-0.41195373479065234,,-1.1008601257549555,-0.08562193937652714,0.17362378631000003,-1.6022408581652505,-0.7072305227859198,-0.7537659286169411,0.8586997556679059,,0.023856469213197493,0.03659955441432109,0.08941130016,-0.1167695939710949,,-1.975149e-05,5.1259995e-06,-4.6491623e-06,1.0,3.0376017e-05,3.254786e-05,-3.0383468e-05,1.0,3.0994415e-06,-3.254786e-05,-3.0398369e-06,1.0,466,1.439,0,1,0.591,False,-0.2621419889274632,1.034017042908521
1.4535955009996542,14:37:58.581249,14:36:41.335544,0,,0.11746313,0.00025095046,0.030743897,0.80865866,0.28837577,-0.5127481,0.2510001,0.6191548,0.7440741,0.53204334,-0.7304018,0.42830235,,0.04203445,-0.042466708,0.030465424,0.57013875,0.6511268,0.50097466,-0.06623244,-0.5713791,0.8180094,0.81887424,-0.49955955,-0.28263968,,0.057406813,1.3232875,0.43415684,0.99679285,0.07830276,-0.016512616,0.041257266,-0.679649,-0.73237634,-0.068569876,0.7293462,-0.6806998,,-0.07842027,0.2884621,-0.06117469,-0.82864267,-0.23267503,0.5091303,0.541691,-0.103968784,0.8341231,-0.14114596,0.9669813,0.21219094,,0.0062933695,0.4475947,-0.32678786,-0.5919095,-0.6152218,-0.5207161,0.66037107,-0.74057615,0.12432629,-0.46211815,-0.27027592,0.84462875,,1.2139904396294703,0.316601156911708,0.18832890007000003,3.333231341629999,-0.34623689040562605,-1.36537225688883,-0.4108103263277123,,-1.1008524030220812,-0.0856064939107787,0.17362378631000003,-1.6022408581652505,-0.7072305227859198,-0.7536842498768005,0.8588630997340403,,0.023856469213197493,0.03659955441432109,0.08941130016,-0.1167695939710949,,-1.975149e-05,5.1259995e-06,-4.6491623e-06,1.0,3.0376017e-05,3.254786e-05,-3.0383468e-05,1.0,3.0994415e-06,-3.254786e-05,-3.0398369e-06,1.0,479,1.48,0,1,0.591,False,-0.26249945523859,1.0340653231093004
1.4852294359998268,14:37:58.619507,14:36:41.500192,0,,0.11743483,0.00038975477,0.031077653,0.7975839,0.2997123,-0.5234813,0.2436277,0.63384104,0.7340921,0.5518202,-0.7130345,0.4325229,,0.042033106,-0.04246553,0.030465305,0.5701454,0.65112525,0.5009692,-0.06623548,-0.5713733,0.8180132,0.8188694,-0.4995684,-0.28263825,,0.057406813,1.3232875,0.43415684,0.99679285,0.07830276,-0.016512616,0.041257266,-0.679649,-0.73237634,-0.068569876,0.7293462,-0.6806998,,-0.07840594,0.2887995,-0.061306626,-0.81883025,-0.24451646,0.5193541,0.551072,-0.08149619,0.83046854,-0.16073786,0.9662143,0.20147772,,0.006294673,0.4475952,-0.32678673,-0.5919159,-0.6152202,-0.52071077,0.66036505,-0.740581,0.12432961,-0.46211857,-0.2702665,0.84463155,,1.2154036997454534,0.3166938297061987,0.18822519687000003,3.3183433556425976,-0.36632245587114587,-1.3715371573242514,-0.4127704551213236,,-1.100844680289207,-0.08559877117790446,0.17362378631000003,-1.6022408581652505,-0.7072305227859198,-0.7536842498768005,0.8588630997340403,,0.023856469213197493,0.03659955441432109,0.08941130016,-0.1167695939710949,,-1.975149e-05,5.1259995e-06,-4.6491623e-06,1.0,3.0376017e-05,3.254786e-05,-3.0383468e-05,1.0,3.0994415e-06,-3.254786e-05,-3.0398369e-06,1.0,492,1.521,0,1,0.591,False,-0.26297607698675796,1.0337273617038443
1.5234931709997,14:37:58.663162,14:36:41.500192,0,,0.11737937,0.0005198121,0.03140667,0.78185755,0.31457248,-0.5382778,0.24159639,0.643045,0.72672164,0.57474345,-0.69823873,0.42676988,,0.042031895,-0.04246556,0.030464888,0.5701516,0.6511226,0.5009654,-0.066233546,-0.57137245,0.81801397,0.81886524,-0.4995726,-0.28264275,,0.057406813,1.3232875,0.43415684,0.99679285,0.07830276,-0.016512616,0.041257266,-0.679649,-0.73237634,-0.068569876,0.7293462,-0.6806998,,-0.07836449,0.28912798,-0.061443094,-0.8043978,-0.25988623,0.5342315,0.5665114,-0.06474288,0.8215067,-0.1789106,0.9634664,0.19930755,,0.0062958975,0.4475949,-0.32678655,-0.59192204,-0.6152175,-0.52070695,0.66036206,-0.7405842,0.12432621,-0.462115,-0.27026367,0.8446344,,1.2166856734025746,0.31668610697332444,0.18812149367000003,3.2950677719158152,-0.38504165633901116,-1.3672178556966772,-0.4121170788567865,,-1.1008369575563328,-0.08559877117790446,0.17362378631000003,-1.6022408581652505,-0.7072305227859198,-0.7536842498768005,0.8591897878663087,,0.023856469213197493,0.03659955441432109,0.08941130016,-0.1167695939710949,,-1.975149e-05,5.1259995e-06,-4.6491623e-06,1.0,3.0376017e-05,3.254786e-05,-3.0383468e-05,1.0,3.0994415e-06,-3.254786e-05,-3.0398369e-06,1.0,501,1.55,0,1,0.591,False,-0.262797343831195,1.0343550043139773
1.567112287999862,14:37:58.690254,14:36:41.500192,0,,0.11741507,0.0006015003,0.03163573,0.76893157,0.32747915,-0.54909176,0.23546466,0.6534234,0.7194402,0.594391,-0.6824919,0.4253279,,0.042033933,-0.04246173,0.030466378,0.5701406,0.6511306,0.5009676,-0.06625223,-0.57135904,0.8180219,0.8188714,-0.49957764,-0.28261614,,0.057406813,1.3232875,0.43415684,0.99679285,0.07830276,-0.016512616,0.041257266,-0.679649,-0.73237634,-0.068569876,0.7293462,-0.6806998,,-0.07841005,0.28934908,-0.061540376,-0.7926974,-0.2733248,0.5449076,0.5766943,-0.046452228,0.8156383,-0.197622,0.9607995,0.19444741,,0.006293685,0.44759792,-0.32678393,-0.5919106,-0.6152258,-0.5207102,0.6603589,-0.74058247,0.1243532,-0.46213412,-0.27024963,0.84462845,,1.217249432902393,0.3166629387747018,0.18805927175,3.278292576437054,-0.4041707663061728,-1.3675467035065876,-0.41391386358426385,,-1.1008524030220812,-0.0855756029792818,0.17362378631000003,-1.6022408581652505,-0.7072305227859198,-0.7536842498768005,0.8591897878663087,,0.023856469213197493,0.03659955441432109,0.08941130016,-0.1167695939710949,,-1.975149e-05,5.1259995e-06,-4.6491623e-06,1.0,3.0376017e-05,3.254786e-05,-3.0383468e-05,1.0,3.0994415e-06,-3.254786e-05,-3.0398369e-06,1.0,514,1.591,0,1,0.591,False,-0.26339312101640555,1.0332928398968293
1.5942279969999618,14:37:58.733055,14:36:41.500192,0,,0.11748178,0.00070893764,0.03193274,0.7503972,0.34337285,-0.5648001,0.22587094,0.6698339,0.7073223,0.62119746,-0.6583446,0.42508337,,0.042034496,-0.042455472,0.030467868,0.5701367,0.65109706,0.5010157,-0.066278875,-0.57140154,0.81798995,0.8188719,-0.49957287,-0.282623,,0.057406813,1.3232875,0.43415684,0.99679285,0.07830276,-0.016512616,0.041257266,-0.679649,-0.73237634,-0.068569876,0.7293462,-0.6806998,,-0.078489475,0.2896364,-0.061664253,-0.7758698,-0.29002765,0.56027675,0.5897552,-0.01798439,0.8073818,-0.22408682,0.9568493,0.18499885,,0.0062928554,0.44760224,-0.32677916,-0.59190583,-0.61519086,-0.5207569,0.66034675,-0.74059725,0.12432976,-0.46215767,-0.27028862,0.84460306,,1.217836360600834,0.3166243251103307,0.18799056838000003,3.2552266826537557,-0.43122479325973007,-1.370888046758411,-0.41440389578266656,,-1.1008601257549555,-0.08553698931491067,0.17362378631000003,-1.6022408581652505,-0.7072305227859198,-0.75360257113666,0.8590264438001746,,0.023856469213197493,0.03659955441432109,0.08941130016,-0.1167695939710949,,-1.975149e-05,5.1259995e-06,-4.6491623e-06,1.0,3.0376017e-05,3.254786e-05,-3.0383468e-05,1.0,3.0994415e-06,-3.254786e-05,-3.0398369e-06,1.0,527,1.632,0,1,0.591,False,-0.26255903295711036,1.033823922105403
1.6370271149999098,14:37:58.773353,14:36:41.500192,0,,0.117581874,0.00082173944,0.032266766,0.73003334,0.3791656,-0.56858146,0.20933722,0.66791695,0.71418834,0.65056074,-0.6404065,0.408228,,0.04203367,-0.04245176,0.030469239,0.57007647,0.6507865,0.50148743,-0.066641,-0.57174706,0.817719,0.8188845,-0.49958193,-0.28257048,,0.057406813,1.3232875,0.43415684,0.99679285,0.07830276,-0.016512616,0.041257266,-0.679649,-0.73237634,-0.068569876,0.7293462,-0.6806998,,-0.07860402,0.28995347,-0.061807938,-0.7575367,-0.32675713,0.5651264,0.5998923,-0.0070736045,0.8000495,-0.25742438,0.9450819,0.20137762,,0.0062935106,0.44760525,-0.3267766,-0.59183323,-0.6148683,-0.52122015,0.6601861,-0.740758,0.12422493,-0.46247995,-0.27058187,0.8443327,,1.2184001201006525,0.3165084841172173,0.18792834646,3.2329995486443965,-0.4655205547008556,-1.3466793749770751,-0.4127704551213238,,-1.1008524030220812,-0.08549837565053954,0.17362378631000003,-1.6018214782782818,-0.7073671592856852,-0.753409474492823,0.8588630997340402,,0.023856469213197493,0.03659955441432109,0.08941130016,-0.1167695939710949,,-1.975149e-05,5.1259995e-06,-4.6491623e-06,1.0,3.0376017e-05,3.254786e-05,-3.0383468e-05,1.0,3.0994415e-06,-3.254786e-05,-3.0398369e-06,1.0,536,1.66,0,1,0.591,False,-0.26232072208302704,1.0333894002983879
1.6773425219998899,14:37:58.808970,14:36:41.678327,0,,0.11756255,0.0008935034,0.03247282,0.71488917,0.40053326,-0.57315505,0.20431338,0.66426027,0.7190371,0.6687223,-0.6311351,0.393038,,0.04201257,-0.042476363,0.030428886,0.57452756,0.64730406,0.50091463,-0.07005954,-0.5708636,0.8180505,0.8154813,-0.50508636,-0.28262705,,0.057406813,1.3232875,0.43415684,0.99679285,0.07830276,-0.016512616,0.041257266,-0.679649,-0.73237634,-0.068569876,0.7293462,-0.6806998,,-0.0785937,0.2901522,-0.06189955,-0.7435139,-0.34867528,0.5706248,0.6098137,-0.0033360238,0.7925378,-0.27443472,0.9372377,0.21510734,,0.00631667,0.447559,-0.32677832,-0.5960564,-0.6112545,-0.52065796,0.6553684,-0.7450013,0.124359705,-0.4639063,-0.26709735,0.8446597,,1.218902097737477,0.316292247596739,0.18788945776000002,3.2137080738438204,-0.4831466631705974,-1.3264255961101163,-0.4114637025922494,,-1.1008524030220812,-0.08545976198616842,0.17362378631000003,-1.595950159860715,-0.7025848817938948,-0.7577174948229005,0.8593531319324432,,0.023856469213197493,0.03659955441432109,0.08941130016,-0.1167695939710949,,-1.975149e-05,5.1259995e-06,-4.6491623e-06,1.0,3.0376017e-05,3.254786e-05,-3.0383468e-05,1.0,3.0994415e-06,-3.254786e-05,-3.0398369e-06,1.0,549,1.701,0,1,0.591,False,-0.2629164992682367,1.0333411200976084
1.7129570949996378,14:37:58.841438,14:36:41.678327,0,,0.11754233,0.0009918362,0.03274274,0.69197786,0.4281505,-0.5812521,0.19777511,0.66191494,0.72301704,0.69429946,-0.6152689,0.37335277,,0.042015214,-0.042464413,0.030435503,0.5739805,0.6478134,0.50088334,-0.06941512,-0.5709833,0.8180219,0.81592155,-0.50429744,-0.28276524,,0.057406813,1.3232875,0.43415684,0.99679285,0.07830276,-0.016512616,0.041257266,-0.679649,-0.73237634,-0.068569876,0.7293462,-0.6806998,,-0.078585155,0.29041538,-0.062016148,-0.72217,-0.3771456,0.5798549,0.62418884,0.005944069,0.7812509,-0.29809204,0.9261349,0.23111743,,0.0063134115,0.44757044,-0.3267711,-0.59554595,-0.6117829,-0.5206215,0.65608764,-0.74439025,0.124226324,-0.4635451,-0.26759085,0.84470177,,1.2194040753743016,0.3159987837475185,0.18785056906000003,3.1845611716994715,-0.5076045966286112,-1.3006826007984769,-0.41228042292292066,,-1.1008601257549555,-0.0854211483217973,0.17362378631000003,-1.5969986095781377,-0.7031314277929566,-0.7569451082475527,0.8583730675356374,,0.023856469213197493,0.03659955441432109,0.08941130016,-0.1167695939710949,,-1.975149e-05,5.1259995e-06,-4.6491623e-06,1.0,3.0376017e-05,3.254786e-05,-3.0383468e-05,1.0,3.0994415e-06,-3.254786e-05,-3.0398369e-06,1.0,562,1.742,0,1,0.591,False,-0.2626781883941529,1.0337756419046236
1.7453955419996419,14:37:58.890278,14:36:41.678327,0,,0.11746901,0.0011170506,0.033175528,0.65394217,0.4723651,-0.5909577,0.18488266,0.65766346,0.73027194,0.7336062,-0.58681345,0.3427416,,0.04201621,-0.042450584,0.03043878,0.57397336,0.6478698,0.50081855,-0.06947303,-0.5708624,0.8181013,0.8159216,-0.5043616,-0.28265032,,0.057406813,1.3232875,0.43415684,0.99679285,0.07830276,-0.016512616,0.041257266,-0.679649,-0.73237634,-0.068569876,0.7293462,-0.6806998,,-0.0785315,0.2908157,-0.062228784,-0.6866244,-0.42290065,0.59135604,0.6443668,0.022660645,0.76438075,-0.33665764,0.90589267,0.2569438,,0.0063118306,0.44757992,-0.3267606,-0.5955367,-0.6118416,-0.520563,0.65606016,-0.7443908,0.12436796,-0.46359578,-0.26745495,0.84471697,,1.220137734997353,0.31528829232308986,0.18778575456000002,3.1375906243589378,-0.5477757275596508,-1.257715894594159,-0.41244376698905505,,-1.100875571220704,-0.08533619826018084,0.17362378631000003,-1.5969986095781377,-0.7031314277929566,-0.7570267869876932,0.8588630997340403,,0.023856469213197493,0.03659955441432109,0.08941130016,-0.1167695939710949,,-1.975149e-05,5.1259995e-06,-4.6491623e-06,1.0,3.0376017e-05,3.254786e-05,-3.0383468e-05,1.0,3.0994415e-06,-3.254786e-05,-3.0398369e-06,1.0,575,1.783,0,1,0.591,False,-0.2626781883941529,1.0332928398968293
1.7942609059996357,14:37:58.921892,14:36:41.678327,0,,0.117398426,0.0011445284,0.03343141,0.6308549,0.49924457,-0.5939504,0.17560887,0.6537632,0.73604035,0.7557668,-0.5686375,0.32475775,,0.042014863,-0.042449407,0.030438662,0.5739799,0.6478683,0.500813,-0.06947604,-0.5708566,0.81810516,0.81591666,-0.50437045,-0.28264892,,0.057406813,1.3232875,0.43415684,0.99679285,0.07830276,-0.016512616,0.041257266,-0.679649,-0.73237634,-0.068569876,0.7293462,-0.6806998,,-0.07847383,0.2910207,-0.06238961,-0.66499764,-0.4507982,0.5954487,0.65438706,0.032544974,0.7554591,-0.35993847,0.8920324,0.2733542,,0.0063131345,0.44758043,-0.32675946,-0.5955431,-0.61183995,-0.5205577,0.65605414,-0.74439555,0.12437128,-0.46359614,-0.26744556,0.84471977,,1.2204698125109446,0.3146164145630323,0.18773001409,3.1099115518189806,-0.57237029751743,-1.2300645490957305,-0.4116270466583838,,-1.1008678484878296,-0.0853284755273066,0.17362378631000003,-1.5969986095781377,-0.7031314277929566,-0.7570267869876932,0.8591897878663087,,0.023856469213197493,0.03659955441432109,0.08941130016,-0.1167695939710949,,-1.975149e-05,5.1259995e-06,-4.6491623e-06,1.0,3.0376017e-05,3.254786e-05,-3.0383468e-05,1.0,3.0994415e-06,-3.254786e-05,-3.0398369e-06,1.0,584,1.812,0,1,0.591,False,-0.2620824112089424,1.0341618835108592
1.8258652389999952,14:37:58.953755,14:36:41.678327,0,,0.11733356,0.0011805296,0.033745825,0.59902066,0.5319302,-0.5985186,0.16549152,0.6490825,0.7424988,0.78344536,-0.5438219,0.30078375,,0.042013522,-0.042448215,0.030438542,0.5739866,0.64786655,0.50080746,-0.06947902,-0.5708507,0.81810904,0.8159117,-0.50437915,-0.28264755,,0.057406813,1.3232875,0.43415684,0.99679285,0.07830276,-0.016512616,0.041257266,-0.679649,-0.73237634,-0.068569876,0.7293462,-0.6806998,,-0.07842474,0.2912737,-0.06258436,-0.63495356,-0.4848636,0.60144925,0.6679757,0.04656507,0.7427248,-0.38812676,0.8733493,0.29431048,,0.006314438,0.44758093,-0.32675833,-0.59554946,-0.6118382,-0.52055234,0.65604806,-0.7444003,0.124374606,-0.4635965,-0.26743615,0.84472257,,1.2205624853054353,0.3139754277344717,0.18766390330000002,3.070909222330859,-0.6018837814667652,-1.1931747196952351,-0.4114637025922492,,-1.1008601257549555,-0.08532075279443238,0.17362378631000003,-1.5969986095781377,-0.7031314277929566,-0.7570267869876932,0.8591897878663087,,0.023856469213197493,0.03659955441432109,0.08941130016,-0.1167695939710949,,-1.975149e-05,5.1259995e-06,-4.6491623e-06,1.0,3.0376017e-05,3.254786e-05,-3.0383468e-05,1.0,3.0994415e-06,-3.254786e-05,-3.0398369e-06,1.0,597,1.853,0,1,0.591,False,-0.26190367805337944,1.0334376804991676
1.8577439579999009,14:37:58.993008,14:36:41.678327,0,,0.11721715,0.001184091,0.034127265,0.5592993,0.56460667,-0.6069626,0.15242118,0.64966667,0.74478257,0.81483245,-0.50907034,0.27729994,,0.042013522,-0.042448215,0.030438542,0.5739866,0.64786655,0.50080746,-0.06947902,-0.5708507,0.81810904,0.8159117,-0.50437915,-0.28264755,,0.057406813,1.3232875,0.43415684,0.99679285,0.07830276,-0.016512616,0.041257266,-0.679649,-0.73237634,-0.068569876,0.7293462,-0.6806998,,-0.0783286,0.29155365,-0.06285169,-0.5973113,-0.5193042,0.6111811,0.6823504,0.0713976,0.72753024,-0.4214464,0.8516017,0.31170085,,0.006314438,0.44758093,-0.32675833,-0.59554946,-0.6118382,-0.52055234,0.65604806,-0.7444003,0.124374606,-0.4635965,-0.26743615,0.84472257,,1.220547039839687,0.31304869978956473,0.18756668155000003,3.0222611554424494,-0.6369993619064833,-1.1556373357699337,-0.41228042292292066,,-1.1008601257549555,-0.08532075279443238,0.17362378631000003,-1.5969986095781377,-0.7031314277929566,-0.7570267869876932,0.8591897878663087,,0.023856469213197493,0.03659955441432109,0.08941130016,-0.1167695939710949,,-1.975149e-05,5.1259995e-06,-4.6491623e-06,1.0,3.0376017e-05,3.254786e-05,-3.0383468e-05,1.0,3.0994415e-06,-3.254786e-05,-3.0398369e-06,1.0,606,1.882,0,1,0.591,False,-0.26255903295711036,1.0335825211015057
1.8969920999998067,14:37:59.023378,14:36:41.902647,0,,0.117187575,0.001152575,0.03439942,0.5379377,0.5904568,-0.60165095,0.13533032,0.64396936,0.7529869,0.8320508,-0.48648167,0.2665085,,0.042014346,-0.042444415,0.030439556,0.5739818,0.647872,0.500806,-0.06949571,-0.57083637,0.81811756,0.81591374,-0.5043885,-0.28262538,,0.057406813,1.3232875,0.43415684,0.99679285,0.07830276,-0.016512616,0.041257266,-0.679649,-0.73237634,-0.068569876,0.7293462,-0.6806998,,-0.07831431,0.29172873,-0.063063994,-0.5773552,-0.5464556,0.60666895,0.68336016,0.083241604,0.72532046,-0.44685555,0.83334094,0.32536602,,0.00631345,0.44758365,-0.32675552,-0.5955442,-0.6118439,-0.5205518,0.656042,-0.7444018,0.1243982,-0.46361196,-0.2674192,0.8447194,,1.2205238716410642,0.3123922674952556,0.18749020044000003,3.00003402143309,-0.6647365713588678,-1.128363813131548,-0.41309714325359215,,-1.1008678484878296,-0.0852975845958097,0.17362378631000003,-1.5969986095781377,-0.7031314277929566,-0.7570267869876932,0.8591897878663087,,0.023856469213197493,0.03659955441432109,0.08941130016,-0.1167695939710949,,-1.975149e-05,5.1259995e-06,-4.6491623e-06,1.0,3.0376017e-05,3.254786e-05,-3.0383468e-05,1.0,3.0994415e-06,-3.254786e-05,-3.0398369e-06,1.0,619,1.923,0,1,0.591,False,-0.26196325577190027,1.0336308013022852
1.9273137779996432,14:37:59.062592,14:36:41.902647,0,,0.11706875,0.0011331141,0.03481683,0.5000077,0.6250079,-0.59946436,0.11319491,0.63910055,0.76074797,0.8585913,-0.44823605,0.24880725,,0.04201504,-0.04243938,0.030440867,0.57397765,0.64787835,0.50080264,-0.069517255,-0.5708169,0.81812936,0.81591487,-0.5044023,-0.28259736,,0.057406813,1.3232875,0.43415684,0.99679285,0.07830276,-0.016512616,0.041257266,-0.679649,-0.73237634,-0.068569876,0.7293462,-0.6806998,,-0.07821828,0.2920187,-0.06337289,-0.5414877,-0.58309835,0.60562974,0.68792814,0.10678318,0.71788037,-0.48326597,0.8053531,0.343308,,0.006312541,0.44758716,-0.32675174,-0.5955392,-0.6118505,-0.5205497,0.6560328,-0.7444048,0.12442852,-0.46363136,-0.26739562,0.84471625,,1.2204852579766932,0.3114500940846002,0.18739297869000002,2.956418513188309,-0.7043611562908455,-1.0860878147624373,-0.4114637025922492,,-1.100875571220704,-0.08526669366431282,0.17362378631000003,-1.5969986095781377,-0.7031314277929566,-0.7570267869876932,0.8591897878663087,,0.023856469213197493,0.03659955441432109,0.08941130016,-0.1167695939710949,,-1.975149e-05,5.1259995e-06,-4.6491623e-06,1.0,3.0376017e-05,3.254786e-05,-3.0383468e-05,1.0,3.0994415e-06,-3.254786e-05,-3.0398369e-06,1.0,632,1.963,0,1,0.591,False,-0.2631548101423209,1.0336308013022852
1.9665411759997369,14:37:59.104491,14:36:41.902647,0,,0.11688636,0.0011080056,0.035184503,0.46436438,0.65241563,-0.59893215,0.0980818,0.63422346,0.7669032,0.88019633,-0.4148668,0.23052059,,0.042014778,-0.04243689,0.030441284,0.57397854,0.64783937,0.500852,-0.06952712,-0.5708736,0.81808895,0.8159134,-0.5043882,-0.2826268,,0.057406813,1.3232875,0.43415684,0.99679285,0.07830276,-0.016512616,0.041257266,-0.679649,-0.73237634,-0.068569876,0.7293462,-0.6806998,,-0.07805632,0.29227015,-0.06365507,-0.5074539,-0.61235255,0.6062301,0.6937518,0.12694152,0.70893884,-0.5110763,0.78032696,0.36040372,,0.006312699,0.44758877,-0.32674977,-0.59553975,-0.61180997,-0.52059674,0.6560267,-0.7444181,0.12438118,-0.4636393,-0.26745144,0.84469426,,1.2204852579766932,0.31062376166705824,0.18729057178000003,2.9119642451695897,-0.7344211862392425,-1.044505019259847,-0.4119537347906521,,-1.100875571220704,-0.08525124819856436,0.17362378631000003,-1.5969986095781377,-0.7031314277929566,-0.7569451082475527,0.8590264438001746,,0.023856469213197493,0.03659955441432109,0.08941130016,-0.1167695939710949,,-1.975149e-05,5.1259995e-06,-4.6491623e-06,1.0,3.0376017e-05,3.254786e-05,-3.0383468e-05,1.0,3.0994415e-06,-3.254786e-05,-3.0398369e-06,1.0,641,1.992,1,2,0.6,False,-0.26196325577190027,1.0335825211015057
2.0084640689997286,14:37:59.137714,14:36:41.902647,0,,0.116710454,0.0010752976,0.03554523,0.4296495,0.6780703,-0.5963406,0.0821954,0.62829345,0.7736223,0.899247,-0.3814028,0.21421161,,0.042013563,-0.04243695,0.030440927,0.5739847,0.6478368,0.5008483,-0.06952521,-0.5708728,0.8180897,0.8159092,-0.5043925,-0.28263128,,0.057406813,1.3232875,0.43415684,0.99679285,0.07830276,-0.016512616,0.041257266,-0.679649,-0.73237634,-0.068569876,0.7293462,-0.6806998,,-0.07790066,0.2925112,-0.063937604,-0.4742326,-0.63989,0.6046852,0.6971793,0.1464737,0.7017738,-0.53762853,0.754378,0.37665546,,0.006313924,0.44758847,-0.32674962,-0.5955458,-0.6118073,-0.5205929,0.6560237,-0.7444213,0.12437777,-0.46363568,-0.26744863,0.8446971,,1.2203694169835797,0.30993643844125224,0.18718686858000003,2.8681390469813244,-0.7632514876897504,-1.0021280526074323,-0.4114637025922494,,-1.1008678484878296,-0.08525124819856436,0.17362378631000003,-1.5969986095781377,-0.7031314277929566,-0.7569451082475527,0.8590264438001746,,0.023856469213197493,0.03659955441432109,0.08941130016,-0.1167695939710949,,-1.975149e-05,5.1259995e-06,-4.6491623e-06,1.0,3.0376017e-05,3.254786e-05,-3.0383468e-05,1.0,3.0994415e-06,-3.254786e-05,-3.0398369e-06,1.0,654,2.033,1,2,0.641,False,-0.26333354329788383,1.0335825211015057
2.041672467999888,14:37:59.175586,14:36:42.040186,0,,0.11652318,0.0010287166,0.03591335,0.39487332,0.7026456,-0.5919158,0.06675443,0.62062633,0.7812598,0.9163071,-0.3480116,0.19816393,,0.042013563,-0.04243695,0.030440927,0.5739847,0.6478368,0.5008483,-0.06952521,-0.5708728,0.8180897,0.8159092,-0.5043925,-0.28263128,,0.057406813,1.3232875,0.43415684,0.99679285,0.07830276,-0.016512616,0.041257266,-0.679649,-0.73237634,-0.068569876,0.7293462,-0.6806998,,-0.07773442,0.29274818,-0.064235836,-0.44083297,-0.66639274,0.60132104,0.6994804,0.16477211,0.6953972,-0.56248856,0.7271663,0.39349172,,0.006313924,0.44758847,-0.32674962,-0.5955458,-0.6118073,-0.5205929,0.6560237,-0.7444213,0.12437777,-0.46363568,-0.26744863,0.8446971,,1.2201840713945984,0.30937267894143383,0.18706372103000002,2.822846019188667,-0.7901688781435422,-0.9566552484187553,-0.4121170788567865,,-1.1008678484878296,-0.08525124819856436,0.17362378631000003,-1.5969986095781377,-0.7031314277929566,-0.7569451082475527,0.8590264438001746,,0.023856469213197493,0.03659955441432109,0.08941130016,-0.1167695939710949,,-1.975149e-05,5.1259995e-06,-4.6491623e-06,1.0,3.0376017e-05,3.254786e-05,-3.0383468e-05,1.0,3.0994415e-06,-3.254786e-05,-3.0398369e-06,1.0,663,2.062,1,2,0.67,False,-0.26232072208302704,1.0334859606999471
2.079553850999673,14:37:59.206403,14:36:42.040186,0,,0.11642079,0.0010047853,0.036081344,0.3772126,0.7119903,-0.59226745,0.060175896,0.6193161,0.7828323,0.92416954,-0.33093444,0.19076905,,0.042014778,-0.04243689,0.030441284,0.57397854,0.64783937,0.500852,-0.06952712,-0.5708736,0.81808895,0.8159134,-0.5043882,-0.2826268,,0.057406813,1.3232875,0.43415684,0.99679285,0.07830276,-0.016512616,0.041257266,-0.679649,-0.73237634,-0.068569876,0.7293462,-0.6806998,,-0.07764174,0.29285482,-0.06437481,-0.4237951,-0.6766588,0.60210514,0.7009452,0.17600109,0.69115806,-0.57364935,0.7149521,0.39971232,,0.006312699,0.44758877,-0.32674977,-0.59553975,-0.61180997,-0.52059674,0.6560267,-0.7444181,0.12438118,-0.4636393,-0.26745144,0.84469426,,1.2200296167371139,0.3091332742223329,0.18700668427000003,2.798941365631431,-0.8020562536231354,-0.9363436545788937,-0.4127704551213236,,-1.100875571220704,-0.08525124819856436,0.17362378631000003,-1.5969986095781377,-0.7031314277929566,-0.7569451082475527,0.8590264438001746,,0.023856469213197493,0.03659955441432109,0.08941130016,-0.1167695939710949,,-1.975149e-05,5.1259995e-06,-4.6491623e-06,1.0,3.0376017e-05,3.254786e-05,-3.0383468e-05,1.0,3.0994415e-06,-3.254786e-05,-3.0398369e-06,1.0,672,2.09,1,2,0.698,False,-0.26196325577190027,1.0333894002983879
2.110369465999611,14:37:59.227459,14:36:42.040186,0,,0.11628091,0.0009634644,0.036348134,0.3515017,0.72980785,-0.5863678,0.04614231,0.6120693,0.78945684,0.9350494,-0.30455178,0.18146825,,0.042013437,-0.042435713,0.030441165,0.57398516,0.6478378,0.5008465,-0.0695301,-0.5708678,0.81809276,0.81590843,-0.504397,-0.28262538,,0.057406813,1.3232875,0.43415684,0.99679285,0.07830276,-0.016512616,0.041257266,-0.679649,-0.73237634,-0.068569876,0.7293462,-0.6806998,,-0.07751732,0.29302144,-0.06459666,-0.39908037,-0.6960339,0.59688497,0.69958407,0.18966714,0.68891835,-0.59272003,0.692505,0.41124177,,0.006314003,0.44758928,-0.32674864,-0.5955461,-0.6118083,-0.52059144,0.65602064,-0.74442285,0.1243845,-0.46363962,-0.26744205,0.844697,,1.2197747665522645,0.30877030577724435,0.18692761058000001,2.764971594786938,-0.8230982745870132,-0.9003991871773154,-0.41375051951812925,,-1.1008678484878296,-0.08524352546569014,0.17362378631000003,-1.5969986095781377,-0.7031314277929566,-0.7569451082475527,0.8590264438001746,,0.023856469213197493,0.03659955441432109,0.08941130016,-0.1167695939710949,,-1.975149e-05,5.1259995e-06,-4.6491623e-06,1.0,3.0376017e-05,3.254786e-05,-3.0383468e-05,1.0,3.0994415e-06,-3.254786e-05,-3.0398369e-06,1.0,685,2.131,1,2,0.739,False,-0.26351227645344677,1.0334859606999471
2.1314291229996343,14:37:59.267699,14:36:42.040186,0,,0.11605008,0.00089758635,0.036669374,0.3167042,0.75028616,-0.5803182,0.030094236,0.60355544,0.7967529,0.9480467,-0.26979923,0.16856915,,0.042013437,-0.042435713,0.030441165,0.57398516,0.64775586,0.5009523,-0.0695301,-0.5710014,0.8179995,0.81590843,-0.50435084,-0.28270775,,0.057406813,1.3232875,0.43415684,0.99679285,0.07830276,-0.016512616,0.041257266,-0.679649,-0.73237634,-0.068569876,0.7293462,-0.6806998,,-0.07730564,0.29321212,-0.06487889,-0.36546093,-0.71854144,0.5917233,0.6985344,0.20844187,0.68454486,-0.61521375,0.66351354,0.42574856,,0.006314003,0.44758928,-0.32674864,-0.5955461,-0.61172324,-0.5206914,0.65602064,-0.7444432,0.12426289,-0.46363962,-0.26758003,0.8446533,,1.2193731844428046,0.30826832814041977,0.18682520367000002,2.7156944580680746,-0.847829481044558,-0.8510732363780824,-0.4134238313858607,,-1.1008678484878296,-0.08524352546569014,0.17362378631000003,-1.5969986095781377,-0.7031314277929566,-0.7567817507672715,0.858699755667906,,0.023856469213197493,0.03659955441432109,0.08941130016,-0.1167695939710949,,-1.975149e-05,5.1259995e-06,-4.6491623e-06,1.0,3.0376017e-05,3.254786e-05,-3.0383468e-05,1.0,3.0994415e-06,-3.254786e-05,-3.0398369e-06,1.0,694,2.16,1,2,0.768,False,-0.2611887454311268,1.0333411200976084
2.1716474549998566,14:37:59.306882,14:36:42.188868,0,,0.11582312,0.00085020065,0.036861837,0.28861666,0.7611988,-0.5807554,0.024145663,0.60058844,0.79919374,0.9571401,-0.24468338,0.15496007,,0.04201586,-0.04243558,0.03044194,0.5739728,0.6477611,0.50095975,-0.069533974,-0.571003,0.81799805,0.81591684,-0.5043423,-0.2826988,,0.057406813,1.3232875,0.43415684,0.99679285,0.07830276,-0.016512616,0.041257266,-0.679649,-0.73237634,-0.068569876,0.7293462,-0.6806998,,-0.07709052,0.2933226,-0.06505866,-0.33806276,-0.7308422,0.59294456,0.701528,0.2242923,0.67642546,-0.62735313,0.6446415,0.4368814,,0.0063115535,0.44758987,-0.32674894,-0.5955339,-0.6117286,-0.520699,0.65602666,-0.74443674,0.1242697,-0.46364683,-0.26758564,0.8446476,,1.2190256614634647,0.30797486429119925,0.18675001885,2.673337089484201,-0.8599901295236821,-0.8139580224822935,-0.4121170788567865,,-1.100883293953578,-0.08524352546569014,0.17362378631000003,-1.5969986095781377,-0.7031314277929566,-0.7567817507672715,0.858699755667906,,0.023856469213197493,0.03659955441432109,0.08941130016,-0.1167695939710949,,-1.975149e-05,5.1259995e-06,-4.6491623e-06,1.0,3.0376017e-05,3.254786e-05,-3.0383468e-05,1.0,3.0994415e-06,-3.254786e-05,-3.0398369e-06,1.0,707,2.201,1,2,0.809,False,-0.2626186106756321,1.0336308013022852
2.2108656539999174,14:37:59.342997,14:36:42.188868,0,,0.11554912,0.00078979135,0.037118495,0.25251973,0.78018206,-0.5723198,0.010721803,0.5891964,0.8079188,0.9675322,-0.2101517,0.14041859,,0.042015597,-0.04243309,0.030442357,0.5739738,0.64776295,0.5009563,-0.06954378,-0.5709929,0.81800425,0.8159153,-0.5043513,-0.282687,,0.057406813,1.3232875,0.43415684,0.99679285,0.07830276,-0.016512616,0.041257266,-0.679649,-0.73237634,-0.068569876,0.7293462,-0.6806998,,-0.07683219,0.2934713,-0.06529476,-0.30293813,-0.7519226,0.58552617,0.70044106,0.24094467,0.6718095,-0.64622813,0.6136433,0.45368615,,0.0063117114,0.4475915,-0.32674697,-0.59553444,-0.6117306,-0.5206961,0.6560206,-0.74443984,0.12428316,-0.46365473,-0.26757246,0.8446474,,1.2185005156280173,0.3076891231748529,0.18668001919000002,2.6204952237261008,-0.8787093299915476,-0.7594062956682736,-0.41162704665838334,,-1.100883293953578,-0.08522807999994168,0.17362378631000003,-1.5969986095781377,-0.7031314277929566,-0.7567817507672715,0.858699755667906,,0.023856469213197493,0.03659955441432109,0.08941130016,-0.1167695939710949,,-1.975149e-05,5.1259995e-06,-4.6491623e-06,1.0,3.0376017e-05,3.254786e-05,-3.0383468e-05,1.0,3.0994415e-06,-3.254786e-05,-3.0398369e-06,1.0,716,2.23,1,2,0.838,False,-0.2630356547052788,1.0336308013022852
2.2469560499998806,14:37:59.377309,14:36:42.188868,0,,0.11537765,0.00074627995,0.037302673,0.22735241,0.7934256,-0.5646121,-0.0015219152,0.5800842,0.81455517,0.97381127,-0.1843318,0.13309094,,0.042015597,-0.04243309,0.030442357,0.5739738,0.64776295,0.5009563,-0.06954378,-0.5709929,0.81800425,0.8159153,-0.5043513,-0.282687,,0.057406813,1.3232875,0.43415684,0.99679285,0.07830276,-0.016512616,0.041257266,-0.679649,-0.73237634,-0.068569876,0.7293462,-0.6806998,,-0.07667191,0.29357743,-0.065462895,-0.2784749,-0.76675195,0.5783971,0.6969893,0.25300324,0.67096597,-0.6608008,0.58998376,0.46396282,,0.0063117114,0.4475915,-0.32674697,-0.59553444,-0.6117306,-0.5206961,0.6560206,-0.74443984,0.12428316,-0.46365473,-0.26757246,0.8446474,,1.218006260724067,0.30761189584611065,0.18663724162,2.582541343955402,-0.8941492544650423,-0.7187185859422244,-0.4106469822615779,,-1.100883293953578,-0.08522807999994168,0.17362378631000003,-1.5969986095781377,-0.7031314277929566,-0.7567817507672715,0.858699755667906,,0.023856469213197493,0.03659955441432109,0.08941130016,-0.1167695939710949,,-1.975149e-05,5.1259995e-06,-4.6491623e-06,1.0,3.0376017e-05,3.254786e-05,-3.0383468e-05,1.0,3.0994415e-06,-3.254786e-05,-3.0398369e-06,1.0,729,2.271,1,2,0.879,False,-0.2623802998015474,1.0334859606999471
2.2812994409996463,14:37:59.414044,14:36:42.188868,0,,0.11512864,0.0006887913,0.037513196,0.19385067,0.80686635,-0.55802214,-0.015697062,0.57129014,0.8205981,0.98090535,-0.15031417,0.123410374,,0.042013176,-0.04243321,0.030441642,0.57398605,0.6477578,0.5009488,-0.069539994,-0.5709912,0.8180057,0.81590694,-0.50435984,-0.28269598,,0.057406813,1.3232875,0.43415684,0.99679285,0.07830276,-0.016512616,0.041257266,-0.679649,-0.73237634,-0.068569876,0.7293462,-0.6806998,,-0.07643602,0.2936944,-0.06566365,-0.24578668,-0.7822029,0.57249236,0.6929521,0.27119204,0.66803616,-0.6777952,0.56090415,0.47537372,,0.0063141612,0.4475909,-0.32674667,-0.59554666,-0.6117252,-0.5206884,0.65601456,-0.7444463,0.12427635,-0.46364754,-0.26756683,0.8446531,,1.2173343829640095,0.30760417311323646,0.1865879826,2.5301188580842706,-0.9113654534354878,-0.6673527458322386,-0.4117903907245182,,-1.1008678484878296,-0.08522807999994168,0.17362378631000003,-1.5969986095781377,-0.7031314277929566,-0.7567817507672715,0.858699755667906,,0.023856469213197493,0.03659955441432109,0.08941130016,-0.1167695939710949,,-1.975149e-05,5.1259995e-06,-4.6491623e-06,1.0,3.0376017e-05,3.254786e-05,-3.0383468e-05,1.0,3.0994415e-06,-3.254786e-05,-3.0398369e-06,1.0,751,2.34,1,2,0.948,False,-0.26190367805337944,1.0336308013022852
2.318032048999612,14:37:59.478818,14:36:42.350268,0,,0.11468436,0.0005899817,0.037754714,0.14160451,0.82225704,-0.5512183,-0.03451729,0.5605919,0.82737255,0.98932123,-0.09813318,0.107764274,,0.042013936,-0.04243218,0.03044349,0.5739804,0.64776134,0.50095075,-0.06954679,-0.570987,0.8180081,0.8159104,-0.5043601,-0.2826856,,0.057406813,1.3232875,0.43415684,0.99679285,0.07830276,-0.016512616,0.041257266,-0.679649,-0.73237634,-0.068569876,0.7293462,-0.6806998,,-0.07600793,0.29380894,-0.06592651,-0.19458126,-0.8006117,0.566709,0.687021,0.3011274,0.66130507,-0.7001002,0.51801854,0.4914433,,0.006313306,0.44759297,-0.32674667,-0.5955408,-0.6117289,-0.5206908,0.65601456,-0.7444446,0.12428649,-0.46365508,-0.26756305,0.8446502,,1.216291814025989,0.30765823224335603,0.18653742729000003,2.4447750510860695,-0.9321342013998347,-0.5882597032234145,-0.41358717545199486,,-1.100875571220704,-0.08522035726706746,0.17362249002000002,-1.5969986095781377,-0.7031314277929566,-0.7567817507672715,0.858699755667906,,0.023856469213197493,0.03659955441432109,0.08941130016,-0.1167695939710949,,-1.975149e-05,5.1259995e-06,-4.6491623e-06,1.0,3.0376017e-05,3.254786e-05,-3.0383468e-05,1.0,3.0994415e-06,-3.254786e-05,-3.0398369e-06,1.0,760,2.369,1,2,0.977,False,-0.2626186106756321,1.033823922105403
2.382808912999735,14:37:59.509357,14:36:42.350268,0,,0.11437273,0.00047810376,0.037832692,0.1072982,0.83168405,-0.5447832,-0.042930454,0.5513111,0.83319443,0.99329954,-0.0660125,0.09485918,,0.04193993,-0.042440493,0.030449629,0.57393116,0.6477234,0.5010563,-0.06959936,-0.5710662,0.81794834,0.8159405,-0.50431913,-0.28267154,,0.05738584,1.3232882,0.43414906,0.9967909,0.078335434,-0.016477412,0.04130518,-0.67964524,-0.7323771,-0.068569876,0.7293462,-0.6806998,,-0.07569093,0.29379937,-0.06608524,-0.16076834,-0.81199634,0.5610842,0.68473756,0.31766146,0.6559159,-0.7108361,0.48964596,0.5049345,,0.006404495,0.4476066,-0.32675913,-0.5954959,-0.61165565,-0.5208282,0.65599984,-0.7444644,0.12424567,-0.4637336,-0.26767543,0.8445715,,1.2155890453344347,0.30772773683922405,0.18650242746,2.387110316627825,-0.9399224818864649,-0.5323298874473973,-0.4134238313858607,,-1.100883293953578,-0.08522035726706746,0.17362119373,-1.5969986095781377,-0.7031314277929566,-0.7567817507672715,0.858699755667906,,0.023856469213197493,0.03659955441432109,0.08941130016,-0.1167695939710949,,-4.0091574e-05,-2.6226044e-06,4.7683716e-07,1.0,6.309152e-05,6.760657e-05,-6.310642e-05,1.0,6.377697e-06,-6.760657e-05,-6.3478947e-06,1.0,769,2.398,1,2,1.006,False,-0.2626781883941529,1.0335342409007262
2.413339437999639,14:37:59.539645,14:36:42.350268,0,,0.11413726,0.00041638315,0.03789185,0.08118591,0.8382785,-0.53916425,-0.049726725,0.54368293,0.83781624,0.99545765,-0.04120809,0.08582404,,0.04195009,-0.042439435,0.03044951,0.5737773,0.6477395,0.5012116,-0.06964049,-0.5711696,0.81787264,0.8160452,-0.5041813,-0.28261527,,0.05738584,1.3232882,0.43414906,0.9967909,0.078335434,-0.016477412,0.04130518,-0.67964524,-0.7323771,-0.068569876,0.7293462,-0.6806998,,-0.07546066,0.29380393,-0.06618377,-0.13499767,-0.82009435,0.55607635,0.6821034,0.33014515,0.65248686,-0.7186867,0.4673858,0.51482034,,0.0063943095,0.44760662,-0.32675835,-0.59534395,-0.6116723,-0.5209823,0.6560784,-0.7443942,0.124251746,-0.46381757,-0.26783273,0.8444755,,1.2150638994989875,0.3079053596953312,0.18648168682000002,2.342656048609106,-0.9451146688775516,-0.4888085330993228,-0.4122804229229209,,-1.1009373530836977,-0.08522035726706746,0.1736250826,-1.5969986095781377,-0.7032680642927219,-0.7566703328635751,0.858699755667906,,0.023856469213197493,0.03659955441432109,0.08941130016,-0.1167695939710949,,-4.0091574e-05,-2.6226044e-06,4.7683716e-07,1.0,6.309152e-05,6.760657e-05,-6.310642e-05,1.0,6.377697e-06,-6.760657e-05,-6.3478947e-06,1.0,783,2.443,1,2,1.051,False,-0.26136747858668974,1.0334859606999471
2.4436362599999484,14:37:59.588167,14:36:42.350268,0,,0.11380106,0.00033243,0.037978873,0.045861736,0.8435921,-0.5350225,-0.06100917,0.5369516,0.8414041,0.997083,-0.005946994,0.07609233,,0.0419709,-0.04243702,0.030454874,0.57367283,0.6478253,0.50122035,-0.0696781,-0.57111174,0.81790984,0.81611544,-0.50413656,-0.28249207,,0.05738584,1.3232882,0.43414906,0.9967909,0.078335434,-0.016477412,0.04130518,-0.67964524,-0.7323771,-0.068569876,0.7293462,-0.6806998,,-0.07513188,0.29381523,-0.06632319,-0.100123055,-0.82744265,0.5525523,0.6761604,0.35081828,0.6478686,-0.7299195,0.43848056,0.5243589,,0.006373277,0.44761157,-0.32675916,-0.59524035,-0.6117614,-0.5209961,0.6561264,-0.7443309,0.12437717,-0.46388265,-0.26780498,0.84444857,,1.2144846945334207,0.30822971447604863,0.18645446473000002,2.2812168951681406,-0.9526296763646508,-0.43342826809126067,-0.4132604873197264,,-1.1010686395425595,-0.08521263453419324,0.17362637889000002,-1.5969986095781377,-0.7032680642927219,-0.7567520116037156,0.8588630997340402,,0.023856469213197493,0.03659955441432109,0.08941130016,-0.1167695939710949,,-4.0091574e-05,-2.6226044e-06,4.7683716e-07,1.0,6.309152e-05,6.760657e-05,-6.310642e-05,1.0,6.377697e-06,-6.760657e-05,-6.3478947e-06,1.0,792,2.471,1,2,1.079,False,-0.2618441003348577,1.0340653231093004
2.492156113999954,14:37:59.623449,14:36:42.350268,0,,0.11354326,0.00028569996,0.03802304,0.016732182,0.84872407,-0.5285712,-0.068582475,0.5283743,0.84623694,0.99750507,0.02209133,0.06704834,,0.041984558,-0.042436156,0.030457795,0.57360494,0.6478538,0.5012614,-0.0696992,-0.5711208,0.8179018,0.8161614,-0.50408983,-0.2824428,,0.05738584,1.3232882,0.43414906,0.9967909,0.078335434,-0.016477412,0.04130518,-0.67964524,-0.7323771,-0.068569876,0.7293462,-0.6806998,,-0.07487812,0.2938198,-0.06640179,-0.071269415,-0.83427715,0.5467196,0.67179525,0.36500666,0.64456284,-0.73730034,0.41322124,0.53444964,,0.006359514,0.44761392,-0.32676002,-0.5951731,-0.6117909,-0.5210383,0.6561594,-0.74429554,0.12441463,-0.4639222,-0.26783594,0.84441704,,1.2140676669582124,0.30874713757862166,0.18644279812000003,2.2304719288448855,-0.9556356793594905,-0.3843385135896783,-0.4129337991874579,,-1.101153589604176,-0.08521263453419324,0.17362767518000002,-1.5969986095781377,-0.7032680642927219,-0.7567520116037156,0.8588630997340402,,0.023856469213197493,0.03659955441432109,0.08941130016,-0.1167695939710949,,-4.0091574e-05,-2.6226044e-06,4.7683716e-07,1.0,6.309152e-05,6.760657e-05,-6.310642e-05,1.0,6.377697e-06,-6.760657e-05,-6.3478947e-06,1.0,806,2.516,1,2,1.124,False,-0.262797343831195,1.0336790815030648
2.5274346229998628,14:37:59.658109,14:36:42.350268,0,,0.113364324,0.00025974214,0.03808005,-0.0020266026,0.85237354,-0.5229294,-0.076538265,0.5212643,0.8499561,0.9970645,0.041746616,0.06418276,,0.041999243,-0.042436782,0.030462027,0.57353026,0.64788383,0.5013079,-0.06971732,-0.57113576,0.8178898,0.8162123,-0.5040343,-0.2823949,,0.05738584,1.3232882,0.43414906,0.9967909,0.078335434,-0.016477412,0.04130518,-0.67964524,-0.7323771,-0.068569876,0.7293462,-0.6806998,,-0.07470321,0.2938465,-0.06646989,-0.05273296,-0.8391494,0.5413386,0.66633904,0.37419236,0.6449592,-0.74378186,0.39472568,0.53942573,,0.006344739,0.4476167,-0.32676286,-0.59509945,-0.61182207,-0.5210858,0.6561985,-0.74425536,0.124448776,-0.4639614,-0.2678763,0.8443827,,1.2139054895678538,0.30914871968808133,0.18643502038,2.196502158000393,-0.9598714108522192,-0.3500916735420972,-0.4134238313858608,,-1.1012462623986667,-0.08522035726706746,0.17362767518000002,-1.5969986095781377,-0.7032680642927219,-0.7567520116037156,0.8588630997340402,,0.023856469213197493,0.03659955441432109,0.08941130016,-0.1167695939710949,,-4.0091574e-05,-2.6226044e-06,4.7683716e-07,1.0,6.309152e-05,6.760657e-05,-6.310642e-05,1.0,6.377697e-06,-6.760657e-05,-6.3478947e-06,1.0,829,2.59,1,2,1.198,False,-0.2622015666459845,1.0340653231093004
2.5620963069995923,14:37:59.728967,14:36:42.350268,0,,0.1128097,0.000203982,0.03812574,-0.05645033,0.8536196,-0.51782906,-0.090405494,0.5121551,0.8541217,0.9943038,0.09503001,0.04826042,,0.04200684,-0.042436186,0.0304631,0.57349324,0.64798117,0.5012244,-0.06972885,-0.571007,0.8179786,0.81623733,-0.50405484,-0.28228566,,0.05738584,1.3232882,0.43414906,0.9967909,0.078335434,-0.016477412,0.04130518,-0.67964524,-0.7323771,-0.068569876,0.7293462,-0.6806998,,-0.07415347,0.29385176,-0.06657264,0.0013704459,-0.8434536,0.53720033,0.6558184,0.40630072,0.63625616,-0.75491744,0.3514339,0.5537092,,0.0063370997,0.44761756,-0.32676294,-0.5950628,-0.6119233,-0.52100885,0.6562165,-0.7442157,0.12459079,-0.46398297,-0.26775524,0.8444092,,1.2138668759034827,0.31028396142059234,0.18643242780000002,2.099835094054027,-0.9600080473519845,-0.2660145107739029,-0.4134238313858608,,-1.101292598795912,-0.08522035726706746,0.17362897147,-1.5969986095781377,-0.7032680642927219,-0.7569153690839968,0.8588630997340403,,0.023856469213197493,0.03659955441432109,0.08941130016,-0.1167695939710949,,-4.0091574e-05,-2.6226044e-06,4.7683716e-07,1.0,6.309152e-05,6.760657e-05,-6.310642e-05,1.0,6.377697e-06,-6.760657e-05,-6.3478947e-06,1.0,843,2.635,1,2,1.243,False,-0.2626781883941529,1.0333894002983879
2.6329574399997,14:37:59.776255,14:36:42.350268,0,,0.11250676,0.00021313131,0.03813772,-0.08792561,0.8558917,-0.50962585,-0.09683195,0.50184053,0.8595229,0.9914094,0.12492207,0.038752913,,0.042004414,-0.042436305,0.030462265,0.5735055,0.6479351,0.5012699,-0.06972501,-0.5710722,0.81793344,0.81622905,-0.50404036,-0.28233582,,0.05738584,1.3232882,0.43414906,0.9967909,0.078335434,-0.016477412,0.04130518,-0.67964524,-0.7323771,-0.068569876,0.7293462,-0.6806998,,-0.07385146,0.29387268,-0.066591226,0.032771673,-0.84757763,0.52965856,0.64990073,0.42068002,0.632975,-0.7593122,0.32348186,0.5646277,,0.006339549,0.44761693,-0.32676265,-0.595075,-0.61187536,-0.5210511,0.6562105,-0.74423236,0.12452319,-0.46397576,-0.26781857,0.8443931,,1.2141371715540805,0.3112261348312477,0.18644020554000001,2.0448963288610815,-0.9563188618583177,-0.21282782095699948,-0.4127704551213236,,-1.1012771533301635,-0.08522035726706746,0.17362897147,-1.5969986095781377,-0.7032680642927219,-0.7568336903438563,0.8590264438001746,,0.023856469213197493,0.03659955441432109,0.08941130016,-0.1167695939710949,,-4.0091574e-05,-2.6226044e-06,4.7683716e-07,1.0,6.309152e-05,6.760657e-05,-6.310642e-05,1.0,6.377697e-06,-6.760657e-05,-6.3478947e-06,1.0,852,2.664,1,2,1.269,False,-0.26243987752006825,1.0336790815030648
2.6802288369999587,14:37:59.808114,14:36:42.350268,0,,0.11233182,0.00024008751,0.038150832,-0.104235925,0.8565773,-0.5053814,-0.10105786,0.4963972,0.8621931,0.9894049,0.14094424,0.03482136,,0.042004786,-0.04243492,0.030461907,0.57361037,0.6479407,0.5011426,-0.069704145,-0.5709703,0.8180064,0.8161571,-0.5041486,-0.28235033,,0.05738584,1.3232882,0.43414906,0.9967909,0.078335434,-0.016477412,0.04130518,-0.67964524,-0.7323771,-0.068569876,0.7293462,-0.6806998,,-0.07367679,0.29390424,-0.06659064,0.04904635,-0.8492545,0.52570075,0.6458501,0.42845684,0.63190377,-0.7618872,0.3085313,0.56950533,,0.006339143,0.44761723,-0.32676125,-0.5951783,-0.61188126,-0.5209262,0.656153,-0.7442784,0.124551065,-0.46392456,-0.2676772,0.84446603,,1.2144769718005464,0.31176672613244344,0.18645705731,2.015959116660217,-0.954542587361367,-0.18503526473473175,-0.4134238313858608,,-1.1012848760630378,-0.08521263453419324,0.17362897147,-1.5969986095781377,-0.7031314277929566,-0.7569451082475527,0.8590264438001746,,0.023856469213197493,0.03659955441432109,0.08941130016,-0.1167695939710949,,-4.0091574e-05,-2.6226044e-06,4.7683716e-07,1.0,6.309152e-05,6.760657e-05,-6.310642e-05,1.0,6.377697e-06,-6.760657e-05,-6.3478947e-06,1.0,866,2.709,0,2,1.269,False,-0.26273776611267374,1.0336790815030648
2.7120374759997503,14:37:59.852259,14:36:42.715140,0,,0.1119867,0.00031739473,0.038155034,-0.1339418,0.8555274,-0.5001323,-0.10935497,0.48883778,0.8654935,0.9849371,0.17061768,0.028080255,,0.042005867,-0.042447034,0.030453205,0.5739689,0.64677536,0.5022364,-0.07155478,-0.57136387,0.8175717,0.81574476,-0.505198,-0.2816652,,0.05738584,1.3232882,0.43414906,0.9967909,0.078335434,-0.016477412,0.04130518,-0.67964524,-0.7323771,-0.068569876,0.7293462,-0.6806998,,-0.07333042,0.29396757,-0.06655706,0.07871446,-0.8499773,0.5209055,0.6374676,0.44465095,0.62922215,-0.7664457,0.28253153,0.5768335,,0.0063387514,0.4476038,-0.3267677,-0.5954587,-0.6106716,-0.52202415,0.65488607,-0.74533594,0.12489429,-0.4653527,-0.26749697,0.84373707,,1.2153341951495853,0.31274751320746996,0.18652057552,1.9629075609586324,-0.9507167653679346,-0.1372691109306613,-0.4139138635842635,,-1.1012771533301635,-0.08520491180131902,0.17363415663,-1.5944823302563231,-0.7029947912931911,-0.7579549922927951,0.8595164759985773,,0.023856469213197493,0.03659955441432109,0.08941130016,-0.1167695939710949,,-4.0091574e-05,-2.6226044e-06,4.7683716e-07,1.0,6.309152e-05,6.760657e-05,-6.310642e-05,1.0,6.377697e-06,-6.760657e-05,-6.3478947e-06,1.0,875,2.738,0,2,1.269,False,-0.26255903295711036,1.0343550043139773
2.7561423839997587,14:37:59.880836,14:36:42.715140,0,,0.11188784,0.0003825873,0.038160816,-0.14186232,0.85673094,-0.4958701,-0.11152956,0.48391318,0.8679799,0.98358333,0.1784378,0.026901662,,0.042006332,-0.042441983,0.03045392,0.57381934,0.64712673,0.50195456,-0.071279556,-0.5711129,0.8177711,0.8158741,-0.5050318,-0.28158873,,0.05738584,1.3232882,0.43414906,0.9967909,0.078335434,-0.016477412,0.04130518,-0.67964524,-0.7323771,-0.068569876,0.7293462,-0.6806998,,-0.07323031,0.29401883,-0.066519566,0.086634494,-0.8517238,0.5167795,0.6351415,0.4468597,0.6300093,-0.7675218,0.27364755,0.5796786,,0.006338087,0.4476068,-0.32676363,-0.5953229,-0.6110364,-0.52175194,0.6551382,-0.74508494,0.12506944,-0.46517152,-0.26736295,0.84387946,,1.2157743909234162,0.31314909531692964,0.18656076051,1.9488583347451691,-0.9492137638705148,-0.12142385118194438,-0.4121170788567866,,-1.1012771533301635,-0.08518946633557056,0.17363545292000002,-1.5949017101432923,-0.7031314277929566,-0.75800693186938,0.8596798200647116,,0.023856469213197493,0.03659955441432109,0.08941130016,-0.1167695939710949,,-4.0091574e-05,-2.6226044e-06,4.7683716e-07,1.0,6.309152e-05,6.760657e-05,-6.310642e-05,1.0,6.377697e-06,-6.760657e-05,-6.3478947e-06,1.0,912,2.856,1,3,1.3,False,-0.2623802998015474,1.0349343667233308
2.7847952779998195,14:37:59.997887,14:36:42.877412,0,,0.11119953,0.0012653917,0.038156822,-0.1836775,0.8576358,-0.4803367,-0.12097648,0.46521294,0.87689304,0.9755138,0.21917494,0.018304527,,0.04200985,-0.04244179,0.03045553,0.5733973,0.6473948,0.5020911,-0.07155067,-0.57093376,0.8178724,0.816147,-0.5048907,-0.28105038,,0.05738584,1.3232882,0.43414906,0.9967909,0.078335434,-0.016477412,0.04130518,-0.67964524,-0.7323771,-0.068569876,0.7293462,-0.6806998,,-0.0725194,0.2946406,-0.065918624,0.12855029,-0.8552805,0.5019662,0.623603,0.46328464,0.6296719,-0.7710993,0.23208308,0.5929108,,0.006334519,0.44760814,-0.3267643,-0.5949,-0.61131483,-0.52190816,0.6552651,-0.7448868,0.12558365,-0.46553367,-0.2672785,0.8437065,,1.2206319899013034,0.31633086126111015,0.18713372069,1.8765153042430085,-0.9354134773942053,-0.04911970829148765,-0.4139138635842635,,-1.1012771533301635,-0.08518174360269634,0.1736380455,-1.5946920201998076,-0.7036779737920182,-0.7583780476559998,0.8595164759985774,,0.023856469213197493,0.03659955441432109,0.08941130016,-0.1167695939710949,,-4.0091574e-05,-2.6226044e-06,4.7683716e-07,1.0,6.309152e-05,6.760657e-05,-6.310642e-05,1.0,6.377697e-06,-6.760657e-05,-6.3478947e-06,1.0,921,2.885,1,3,1.329,False,-0.2621419889274632,1.0349343667233308
2.9018791959997543,14:38:00.029083,14:36:42.877412,0,,0.11108419,0.0016311854,0.038176134,-0.1856335,0.8584901,-0.47805324,-0.118231,0.4634604,0.87819463,0.9754802,0.219543,0.015466273,,0.04201138,-0.042441446,0.030454695,0.5733911,0.6475204,0.5019362,-0.071552575,-0.57073414,0.8180116,0.81615126,-0.5049553,-0.28092214,,0.05738584,1.3232882,0.43414906,0.9967909,0.078335434,-0.016477412,0.04130518,-0.67964524,-0.7323771,-0.068569876,0.7293462,-0.6806998,,-0.072395496,0.29491,-0.06567459,0.13057803,-0.8561996,0.49987155,0.6255177,0.46232015,0.62848043,-0.7692054,0.23061278,0.5959369,,0.0063330033,0.4476075,-0.3267636,-0.5948939,-0.6114454,-0.5217622,0.65526813,-0.7448528,0.12576959,-0.46553725,-0.26707456,0.8437691,,1.2224004957295007,0.31721897554164596,0.18733853451000002,1.875466854525586,-0.9302212904031185,-0.0469826469009878,-0.4126071110551893,,-1.1012848760630378,-0.08518174360269634,0.17363934179,-1.5946920201998076,-0.7036779737920182,-0.7586230838764216,0.8600065081969801,,0.023856469213197493,0.03659955441432109,0.08941130016,-0.1167695939710949,,-4.0091574e-05,-2.6226044e-06,4.7683716e-07,1.0,6.309152e-05,6.760657e-05,-6.310642e-05,1.0,6.377697e-06,-6.760657e-05,-6.3478947e-06,1.0,935,2.93,1,3,1.374,False,-0.26255903295711036,1.035079207325669
2.933046443999956,14:38:00.070836,14:36:42.877412,0,,0.11090107,0.0020672828,0.038231745,-0.18573564,0.8576523,-0.47951514,-0.12005484,0.46454275,0.8773749,0.97523797,0.2205279,0.016683042,,0.04200978,-0.04243778,0.030454993,0.57339865,0.6475206,0.5019272,-0.07156539,-0.5707181,0.81802166,0.81614476,-0.504973,-0.280909,,0.05738584,1.3232882,0.43414906,0.9967909,0.078335434,-0.016477412,0.04130518,-0.67964524,-0.7323771,-0.068569876,0.7293462,-0.6806998,,-0.07220399,0.2952556,-0.06540873,0.13064407,-0.85538644,0.50124466,0.62408245,0.46379638,0.6288195,-0.77035916,0.23066646,0.5944239,,0.006334464,0.4476096,-0.3267605,-0.59490085,-0.61144567,-0.5217539,0.655256,-0.74486065,0.12578635,-0.4655455,-0.26705196,0.8437717,,1.2246169200644033,0.31813798075367866,0.18760427396,1.8735796450342252,-0.9295381079042914,-0.0475397364194699,-0.4126071110551893,,-1.1012771533301635,-0.08515857540407366,0.17363934179,-1.5946920201998076,-0.7036779737920182,-0.7586230838764216,0.8600065081969801,,0.023856469213197493,0.03659955441432109,0.08941130016,-0.1167695939710949,,-4.0091574e-05,-2.6226044e-06,4.7683716e-07,1.0,6.309152e-05,6.760657e-05,-6.310642e-05,1.0,6.377697e-06,-6.760657e-05,-6.3478947e-06,1.0,949,2.975,1,3,1.419,False,-0.262797343831195,1.0349343667233308
