AlexandreBanks6/ExpertPlaybackApp/resources/Motions/P_16/PC1/Data_PC1_5.csv
Task Time,PC1 Time,PC2 Time,Gaze Calib,s_T_psm1,Tx,Ty,Tz,R00,R01,R02,R10,R11,R12,R20,R21,R22,s_T_psm3,Tx,Ty,Tz,R00,R01,R02,R10,R11,R12,R20,R21,R22,cart_T_ecm,Tx,Ty,Tz,R00,R01,R02,R10,R11,R12,R20,R21,R22,ecm_T_psm1,Tx,Ty,Tz,R00,R01,R02,R10,R11,R12,R20,R21,R22,ecm_T_psm3,Tx,Ty,Tz,R00,R01,R02,R10,R11,R12,R20,R21,R22,psm1_joints,q1,q2,q3,q4,q5,q6,jaw,psm3_joints,q1,q2,q3,q4,q5,q6,jaw,ecm_joints,q1,q2,q3,q4,ecmi_T_ecm,Tx,Ty,Tz,R00,R01,R02,R10,R11,R12,R20,R21,R22,Sample #,Task Duration (s),Collisions (binary),Collisions (increments),Cumulative Collision Time (s),Clutch Press,MTMR Angle,MTML Angle
""
lci_T_si,,,,,-0.057824805,0.033623017,0.23225968,0.99702215,-0.012819277,0.07604288,0.048720323,-0.65965104,-0.7499912,0.059776112,0.7514627,-0.6570622
rci_T_si,,,,,-0.06734889,0.03764145,0.24189119,0.9919741,-0.042941336,0.118926115,0.062775895,-0.649194,-0.758028,0.10975685,0.7594098,-0.6412879
ecm_T_lc,,,,,-4.4061628e-05,-0.00034663224,-0.01840835,-0.99912,0.030754527,0.028518902,-0.031987965,-0.99852574,-0.043852776,0.027128186,-0.04472645,0.9986309
ecm_T_rc,,,,,-0.0043358393,0.01870579,-0.007592615,-0.99555075,-0.052743673,-0.078081585,0.04863213,-0.9973746,0.053654674,-0.08070653,0.04961868,0.9955021
cart_T_ecmi,,,,,0.057426013,1.3232883,0.4341485,0.9967947,0.07827243,-0.016545301,0.041212782,-0.6796525,-0.73237556,-0.068569876,0.7293462,-0.6806998
ecmac_T_ecmrep_psm1,,,,,-0.0012004398,-0.28172868,-0.2751139,0.9977453,0.05981805,0.030433392,-0.056875188,0.9943363,-0.089780115,-0.035631496,0.08784678,0.9954965
ecmac_T_ecmrep_psm3,,,,,-0.035388503,-0.5052441,-0.50078297,0.9946279,0.028167607,0.09960877,-0.04494542,0.98434234,0.17044082,-0.09324822,-0.17400216,0.9803204
""
0,14:39:41.107541,14:38:23.986487,0,,0.120712996,0.0031954944,0.024762765,0.64325213,0.60224086,-0.47279245,0.15395021,0.50315577,0.85037255,0.75001734,-0.61979055,0.23094082,,0.047625985,-0.047668166,0.03912151,0.3585808,0.8705433,0.33700773,-0.29795933,-0.2353968,0.9250993,0.88466954,-0.43213737,0.17497769,,0.057342026,1.3232874,0.4341481,0.99678975,0.07835401,-0.016457401,0.041332416,-0.6796431,-0.7323776,-0.068569876,0.7293462,-0.6806998,,-0.081217065,0.2861293,-0.054749493,-0.67766136,-0.5549821,0.4824624,0.63497007,-0.11066829,0.76456887,-0.37092876,0.82446796,0.42739263,,0.00068899407,0.45244163,-0.33561325,-0.37439683,-0.84824336,-0.3745801,0.61566424,-0.52946824,0.58362734,-0.6933863,-0.012107336,0.72046435,,1.1893703672264424,0.3150643330697373,0.19541960637000003,3.165689076785864,-0.5842576729970234,-1.0903386371703667,-0.4152206161133376,,-1.141813778186968,-0.09734504787959994,0.16745733478000002,-1.2816249345774129,-0.9022108079512033,-1.3963677357816253,0.8358315864091066,,0.023856469213197493,0.03659955441432109,0.08941130016,-0.1167695939710949,,-8.3729625e-05,-6.198883e-06,2.3841858e-06,1.0,8.1695616e-05,8.7533146e-05,-8.169934e-05,1.0,8.255243e-06,-8.753687e-05,-8.225441e-06,1.0,37,0.111,0,0,0.0,False,-0.2623802998015474,1.0095389811133355
0.12721893299976728,14:39:41.139896,14:38:23.986487,0,,0.12055721,0.0031491518,0.024936795,0.63598436,0.611794,-0.47035307,0.14775032,0.5016912,0.85233545,0.7574257,-0.61156684,0.22867495,,0.04762496,-0.047669403,0.039120913,0.35858697,0.87054014,0.33700922,-0.29795203,-0.23540069,0.9251006,0.8846694,-0.4321416,0.17496759,,0.057342026,1.3232874,0.4341481,0.99678975,0.07835401,-0.016457401,0.041332416,-0.6796431,-0.7323776,-0.068569876,0.7293462,-0.6806998,,-0.081071995,0.28622583,-0.054911792,-0.6709635,-0.5649923,0.48019952,0.63616574,-0.10593757,0.764245,-0.3809214,0.818267,0.430509,,0.0006900816,0.45244056,-0.33561403,-0.37440324,-0.84823996,-0.37458134,0.6156674,-0.52947366,0.5836191,-0.69338,-0.012108631,0.72047037,,1.1901426405138649,0.31423027791932107,0.19532368091000002,3.1583499287639056,-0.5958717754770858,-1.0819299389779984,-0.41571064831174054,,-1.1418060554540939,-0.09735277061247417,0.16745733478000002,-1.2816249345774129,-0.9022108079512033,-1.3963677357816253,0.8358315864091066,,0.023856469213197493,0.03659955441432109,0.08941130016,-0.1167695939710949,,-8.3729625e-05,-6.198883e-06,2.3841858e-06,1.0,8.1695616e-05,8.7533146e-05,-8.169934e-05,1.0,8.255243e-06,-8.753687e-05,-8.225441e-06,1.0,45,0.136,0,0,0.0,False,-0.2620824112089424,1.0099252227195712
0.15957578600000488,14:39:41.163866,14:38:23.986487,0,,0.12039921,0.0030843914,0.025103077,0.6261587,0.62028384,-0.47241223,0.14165914,0.5053048,0.8512343,0.7667189,-0.5999293,0.22853202,,0.04762496,-0.047669403,0.039120913,0.35858697,0.87054014,0.33700922,-0.29795203,-0.23540069,0.9251006,0.8846694,-0.4321416,0.17496759,,0.057342026,1.3232874,0.4341481,0.99678975,0.07835401,-0.016457401,0.041332416,-0.6796431,-0.7323776,-0.068569876,0.7293462,-0.6806998,,-0.080924794,0.28630406,-0.05508213,-0.6618091,-0.57398593,0.4822332,0.6388467,-0.09520796,0.76342016,-0.39227998,0.8133115,0.42969853,,0.0006900816,0.45244056,-0.33561403,-0.37440324,-0.84823996,-0.37458134,0.6156674,-0.52947366,0.5836191,-0.69338,-0.012108631,0.72047037,,1.1907450136780544,0.31324949084429454,0.19523164432,3.1476557416461954,-0.6091255159543335,-1.0772483078299877,-0.41456723984880073,,-1.1418060554540939,-0.09735277061247417,0.16745733478000002,-1.2816249345774129,-0.9022108079512033,-1.3963677357816253,0.8358315864091066,,0.023856469213197493,0.03659955441432109,0.08941130016,-0.1167695939710949,,-8.3729625e-05,-6.198883e-06,2.3841858e-06,1.0,8.1695616e-05,8.7533146e-05,-8.169934e-05,1.0,8.255243e-06,-8.753687e-05,-8.225441e-06,1.0,53,0.159,0,0,0.0,False,-0.262797343831195,1.0095872613141148
0.18348893099982888,14:39:41.184433,14:38:23.986487,0,,0.12029055,0.0030245036,0.025187999,0.6218283,0.6225366,-0.4751608,0.14024886,0.5083993,0.8496237,0.77049315,-0.59496087,0.22882694,,0.04762382,-0.04766942,0.039120495,0.3585941,0.87056494,0.33693758,-0.29795048,-0.2353238,0.9251207,0.88466704,-0.43213356,0.17499954,,0.057342026,1.3232874,0.4341481,0.99678975,0.07835401,-0.016457401,0.041332416,-0.6796431,-0.7323776,-0.068569876,0.7293462,-0.6806998,,-0.08082241,0.286326,-0.055190027,-0.6577235,-0.57641476,0.48491836,0.64067847,-0.08952595,0.7625721,-0.39614502,0.81223834,0.42817986,,0.0006912321,0.45244023,-0.33561385,-0.37441036,-0.8482677,-0.37451142,0.6156658,-0.5294307,0.5836598,-0.6933776,-0.012045571,0.7204737,,1.1910848139245203,0.3126393949472308,0.19516034837000001,3.142203803115597,-0.6139077934461239,-1.0766158308062355,-0.41620068051014325,,-1.1417983327212196,-0.09735277061247417,0.16745733478000002,-1.2816249345774129,-0.9022108079512033,-1.3964494145217659,0.8356682423429722,,0.023856469213197493,0.03659955441432109,0.08941130016,-0.1167695939710949,,-8.3729625e-05,-6.198883e-06,2.3841858e-06,1.0,8.1695616e-05,8.7533146e-05,-8.169934e-05,1.0,8.255243e-06,-8.753687e-05,-8.225441e-06,1.0,64,0.193,0,0,0.0,False,-0.2626186106756321,1.0095389811133355
0.20407582699999693,14:39:41.220854,14:38:23.986487,0,,0.12013994,0.0029222518,0.02537626,0.6147579,0.62803304,-0.47712412,0.138531,0.5095546,0.8492133,0.77645475,-0.588157,0.22625056,,0.047623932,-0.04767061,0.039120317,0.35859314,0.87056446,0.33693966,-0.2979448,-0.23532899,0.92512125,0.8846693,-0.43213153,0.17499289,,0.057342026,1.3232874,0.4341481,0.99678975,0.07835401,-0.016457401,0.041332416,-0.6796431,-0.7323776,-0.068569876,0.7293462,-0.6806998,,-0.08068475,0.286394,-0.05540217,-0.6510265,-0.5822304,0.48700342,0.6439291,-0.08392609,0.7604681,-0.40189534,0.80868053,0.42955318,,0.0006911692,0.4524395,-0.3356148,-0.37440968,-0.84826714,-0.37451333,0.61567056,-0.5294314,0.58365417,-0.69337374,-0.012051079,0.72047734,,1.1916408506914644,0.3118671216598084,0.19499701583,3.1329774456022785,-0.6208762549341614,-1.0708518389775774,-0.41571064831174076,,-1.1417983327212196,-0.0973604933453484,0.16745733478000002,-1.2816249345774129,-0.9022108079512033,-1.3964494145217659,0.8356682423429722,,0.023856469213197493,0.03659955441432109,0.08941130016,-0.1167695939710949,,-8.3729625e-05,-6.198883e-06,2.3841858e-06,1.0,8.1695616e-05,8.7533146e-05,-8.169934e-05,1.0,8.255243e-06,-8.753687e-05,-8.225441e-06,1.0,72,0.217,0,0,0.0,False,-0.2626781883941529,1.0098286623180122
0.2405253659999289,14:39:41.248318,14:38:24.129316,0,,0.12004674,0.0028917342,0.025600031,0.60389394,0.63994557,-0.47516507,0.13164848,0.5078745,0.85131204,0.78611743,-0.576657,0.2224544,,0.04762496,-0.047669403,0.039120913,0.35858697,0.8705677,0.33693817,-0.29795203,-0.23532511,0.9251199,0.8846694,-0.4321273,0.17500293,,0.057342026,1.3232874,0.4341481,0.99678975,0.07835401,-0.016457401,0.041332416,-0.6796431,-0.7323776,-0.068569876,0.7293462,-0.6806998,,-0.08060436,0.28653613,-0.0555839,-0.64087623,-0.59477484,0.48530456,0.6463494,-0.07702754,0.75914377,-0.41413778,0.80019355,0.43379745,,0.0006900816,0.45244056,-0.33561403,-0.37440324,-0.84827054,-0.37451208,0.6156674,-0.529426,0.5836624,-0.69338,-0.012049784,0.7204713,,1.1921814419926602,0.3113496985572353,0.19488294231000003,3.121234808767145,-0.6346765414104709,-1.0591085582633952,-0.4160373364440093,,-1.1418060554540939,-0.09735277061247417,0.16745733478000002,-1.2816249345774129,-0.9022108079512033,-1.3964494145217659,0.8356682423429722,,0.023856469213197493,0.03659955441432109,0.08941130016,-0.1167695939710949,,-8.3729625e-05,-6.198883e-06,2.3841858e-06,1.0,8.1695616e-05,8.7533146e-05,-8.169934e-05,1.0,8.255243e-06,-8.753687e-05,-8.225441e-06,1.0,80,0.241,0,0,0.0,False,-0.26255903295711036,1.0097803821172329
0.2679988760000924,14:39:41.271746,14:38:24.129316,0,,0.11999431,0.0028811544,0.02574864,0.5965303,0.6467734,-0.4752218,0.12784246,0.5079777,0.85183036,0.79234326,-0.5688962,0.22033888,,0.047625985,-0.047668166,0.03912151,0.3585808,0.87057084,0.33693662,-0.29795933,-0.23532127,0.9251185,0.88466954,-0.43212306,0.17501307,,0.057342026,1.3232874,0.4341481,0.99678975,0.07835401,-0.016457401,0.041332416,-0.6796431,-0.7323776,-0.068569876,0.7293462,-0.6806998,,-0.08056016,0.28663704,-0.055697087,-0.6339563,-0.6019982,0.4854869,0.6483509,-0.071491875,0.7579776,-0.4215928,0.7952905,0.4356288,,0.00068899407,0.45244163,-0.33561325,-0.37439683,-0.84827393,-0.3745108,0.61566424,-0.52942055,0.5836706,-0.6933863,-0.012048489,0.7204653,,1.1925057967733776,0.3111102938381344,0.19480905378000002,3.112847211027764,-0.6430113678961628,-1.052475423618195,-0.415383960179472,,-1.141813778186968,-0.09734504787959994,0.16745733478000002,-1.2816249345774129,-0.9022108079512033,-1.3964494145217659,0.8356682423429722,,0.023856469213197493,0.03659955441432109,0.08941130016,-0.1167695939710949,,-8.3729625e-05,-6.198883e-06,2.3841858e-06,1.0,8.1695616e-05,8.7533146e-05,-8.169934e-05,1.0,8.255243e-06,-8.753687e-05,-8.225441e-06,1.0,91,0.275,0,0,0.0,False,-0.26255903295711036,1.0091527395071
0.2914196799997626,14:39:41.301502,14:38:24.129316,0,,0.11992458,0.0029075742,0.02600354,0.5847663,0.6584248,-0.47384083,0.12023154,0.50732297,0.8533275,0.8022423,-0.5559678,0.21750191,,0.047625985,-0.047668166,0.03912151,0.3585808,0.8705433,0.33700773,-0.29795933,-0.2353968,0.9250993,0.88466954,-0.43213737,0.17497769,,0.057342026,1.3232874,0.4341481,0.99678975,0.07835401,-0.016457401,0.041332416,-0.6796431,-0.7323776,-0.068569876,0.7293462,-0.6806998,,-0.08050332,0.2868406,-0.05585794,-0.6229395,-0.6143301,0.4842983,0.65045506,-0.06284792,0.7569401,-0.43457398,0.7865422,0.4387446,,0.00068899407,0.45244163,-0.33561325,-0.37439683,-0.84824336,-0.3745801,0.61566424,-0.52946824,0.58362734,-0.6933863,-0.012107336,0.72046435,,1.1931467836019383,0.310924948249153,0.19471053574000002,3.1000561244752083,-0.6573582003715339,-1.0411032586906326,-0.415383960179472,,-1.141813778186968,-0.09734504787959994,0.16745733478000002,-1.2816249345774129,-0.9022108079512033,-1.3963677357816255,0.8355048982768383,,0.023856469213197493,0.03659955441432109,0.08941130016,-0.1167695939710949,,-8.3729625e-05,-6.198883e-06,2.3841858e-06,1.0,8.1695616e-05,8.7533146e-05,-8.169934e-05,1.0,8.255243e-06,-8.753687e-05,-8.225441e-06,1.0,99,0.299,0,0,0.0,False,-0.2626781883941529,1.0094424207117765
0.3211410439998872,14:39:41.323978,14:38:24.129316,0,,0.11986958,0.0029423237,0.026261866,0.5728444,0.66812253,-0.474828,0.11422303,0.50857437,0.853408,0.81166637,-0.5431063,0.21501884,,0.04762371,-0.047668226,0.039120674,0.35859507,0.8705103,0.33707774,-0.29795623,-0.2354697,0.92508173,0.8846648,-0.43216413,0.17493564,,0.057342026,1.3232874,0.4341481,0.99678975,0.07835401,-0.016457401,0.041332416,-0.6796431,-0.7323776,-0.068569876,0.7293462,-0.6806998,,-0.08046115,0.2870521,-0.056014318,-0.61169714,-0.62465733,0.48541716,0.653329,-0.052894276,0.75522405,-0.44608045,0.77910554,0.44046205,,0.000691295,0.45244098,-0.3356129,-0.37441105,-0.848207,-0.3746481,0.61566097,-0.5295253,0.58357906,-0.69338155,-0.012157757,0.7204681,,1.1937182658346308,0.3109095027834045,0.19460553625000002,3.0862165882052297,-0.6699287583499546,-1.0315062414716865,-0.4147305839149349,,-1.1417983327212196,-0.09734504787959994,0.16745733478000002,-1.2816249345774129,-0.9022108079512033,-1.396286057041485,0.8353415542107039,,0.023856469213197493,0.03659955441432109,0.08941130016,-0.1167695939710949,,-8.3729625e-05,-6.198883e-06,2.3841858e-06,1.0,8.1695616e-05,8.7533146e-05,-8.169934e-05,1.0,8.255243e-06,-8.753687e-05,-8.225441e-06,1.0,107,0.324,0,0,0.0,False,-0.26243987752006825,1.009345860310218
0.3436572079999678,14:39:41.352048,14:38:24.129316,0,,0.11986318,0.002952382,0.026414394,0.56734425,0.674805,-0.47197333,0.10831362,0.5070142,0.85510504,0.81632626,-0.5362601,0.21456087,,0.04762496,-0.047669403,0.039120913,0.35858697,0.8705126,0.33708036,-0.29795203,-0.23547627,0.9250815,0.8846694,-0.4321559,0.1749323,,0.057342026,1.3232874,0.4341481,0.99678975,0.07835401,-0.016457401,0.041332416,-0.6796431,-0.7323776,-0.068569876,0.7293462,-0.6806998,,-0.08046256,0.2871692,-0.056112736,-0.60661083,-0.6317316,0.48263702,0.65270823,-0.049167007,0.75601226,-0.45386705,0.7736264,0.44216165,,0.0006900816,0.45244056,-0.33561403,-0.37440324,-0.8482094,-0.37465063,0.6156674,-0.52952135,0.5835759,-0.69338,-0.012167479,0.72046936,,1.1940194524167256,0.31091722551627876,0.19454201804000001,3.0813937195050856,-0.6785368578351773,-1.0253037009402177,-0.41636402457627764,,-1.1418060554540939,-0.09735277061247417,0.16745733478000002,-1.2816249345774129,-0.9022108079512033,-1.396286057041485,0.8353415542107039,,0.023856469213197493,0.03659955441432109,0.08941130016,-0.1167695939710949,,-8.3729625e-05,-6.198883e-06,2.3841858e-06,1.0,8.1695616e-05,8.7533146e-05,-8.169934e-05,1.0,8.255243e-06,-8.753687e-05,-8.225441e-06,1.0,115,0.347,0,0,0.0,False,-0.26101001227556386,1.009056179105541
0.37166469899966614,14:39:41.375178,14:38:24.129316,0,,0.11981374,0.0029556751,0.026580304,0.56191415,0.6777302,-0.4742724,0.106304914,0.5094306,0.8539202,0.82033634,-0.53024733,0.21421006,,0.047625072,-0.04767058,0.039120734,0.358586,0.87051225,0.33708248,-0.29794636,-0.23548144,0.92508197,0.8846718,-0.43215388,0.1749256,,0.057342026,1.3232874,0.4341481,0.99678975,0.07835401,-0.016457401,0.041332416,-0.6796431,-0.7323776,-0.068569876,0.7293462,-0.6806998,,-0.08042188,0.28729215,-0.056227677,-0.60145587,-0.6349051,0.48491895,0.6543175,-0.043214206,0.7549842,-0.45838794,0.7713806,0.4414209,,0.00069001864,0.4524398,-0.33561498,-0.37440255,-0.84820884,-0.37465253,0.61567223,-0.52952206,0.5835702,-0.6933761,-0.012172988,0.720473,,1.1944519254576822,0.31091722551627876,0.19444738887000002,3.0744739513700963,-0.6834557718267331,-1.022681194989536,-0.4148939279810695,,-1.1418060554540939,-0.0973604933453484,0.16745733478000002,-1.2816249345774129,-0.9022108079512033,-1.396286057041485,0.8353415542107039,,0.023856469213197493,0.03659955441432109,0.08941130016,-0.1167695939710949,,-8.3729625e-05,-6.198883e-06,2.3841858e-06,1.0,8.1695616e-05,8.7533146e-05,-8.169934e-05,1.0,8.255243e-06,-8.753687e-05,-8.225441e-06,1.0,126,0.381,0,0,0.0,False,-0.2618441003348577,1.0095389811133355
0.39483948799988866,14:39:41.411952,14:38:24.296097,0,,0.119800895,0.0029379278,0.026770711,0.5582087,0.6828013,-0.47136545,0.10165942,0.5075492,0.8556045,0.823449,-0.5255247,0.21390513,,0.04762496,-0.047669403,0.039120913,0.35858697,0.8705126,0.33708036,-0.29795203,-0.23547627,0.9250815,0.8846694,-0.4321559,0.1749323,,0.057342026,1.3232874,0.4341481,0.99678975,0.07835401,-0.016457401,0.041332416,-0.6796431,-0.7323776,-0.068569876,0.7293462,-0.6806998,,-0.0804196,0.28741747,-0.056372676,-0.5980456,-0.6402672,0.4820782,0.6534201,-0.04120951,0.755873,-0.46409446,0.7670461,0.4430086,,0.0006900816,0.45244056,-0.33561403,-0.37440324,-0.8482094,-0.37465063,0.6156674,-0.52952135,0.5835759,-0.69338,-0.012167479,0.72046936,,1.1948612303000161,0.31097900737927253,0.19432553761000002,3.0713286022178283,-0.6897410508159434,-1.0174742926793598,-0.4150572720472039,,-1.1418060554540939,-0.09735277061247417,0.16745733478000002,-1.2816249345774129,-0.9022108079512033,-1.396286057041485,0.8353415542107039,,0.023856469213197493,0.03659955441432109,0.08941130016,-0.1167695939710949,,-8.3729625e-05,-6.198883e-06,2.3841858e-06,1.0,8.1695616e-05,8.7533146e-05,-8.169934e-05,1.0,8.255243e-06,-8.753687e-05,-8.225441e-06,1.0,134,0.406,0,0,0.0,False,-0.2631548101423209,1.009394140510997
0.4316338650000944,14:39:41.432338,14:38:24.296097,0,,0.11977443,0.0029463917,0.02687481,0.5548659,0.6839745,-0.4736061,0.101067126,0.50964445,0.8544284,0.82577795,-0.52195925,0.2136569,,0.0476261,-0.04766936,0.03912133,0.3585798,0.87051535,0.33708093,-0.29795358,-0.23547758,0.9250806,0.8846718,-0.43214968,0.17493573,,0.057342026,1.3232874,0.4341481,0.99678975,0.07835401,-0.016457401,0.041332416,-0.6796431,-0.7323776,-0.068569876,0.7293462,-0.6806998,,-0.08039846,0.28749895,-0.05643993,-0.59484756,-0.64157087,0.48429665,0.65475595,-0.03721005,0.7549239,-0.46631643,0.7661607,0.44220665,,0.0006889311,0.4524409,-0.3356142,-0.37439612,-0.84821224,-0.37465125,0.6156691,-0.52951664,0.5835784,-0.6933824,-0.012171691,0.720467,,1.1951238032177398,0.31104851197514055,0.19426590827,3.0667154234611687,-0.6920638713119559,-1.0163969757179265,-0.41603733644400953,,-1.141813778186968,-0.09735277061247417,0.16745733478000002,-1.2816249345774129,-0.9022108079512033,-1.396286057041485,0.8356682423429727,,0.023856469213197493,0.03659955441432109,0.08941130016,-0.1167695939710949,,-8.3729625e-05,-6.198883e-06,2.3841858e-06,1.0,8.1695616e-05,8.7533146e-05,-8.169934e-05,1.0,8.255243e-06,-8.753687e-05,-8.225441e-06,1.0,142,0.43,0,0,0.0,False,-0.26249945523859,1.0092010197078791
0.45202027599998473,14:39:41.454539,14:38:24.296097,0,,0.1197432,0.002951607,0.026983261,0.5515003,0.6850198,-0.47602043,0.10077134,0.5117585,0.8531989,0.8280655,-0.5185087,0.2132045,,0.047625985,-0.047668166,0.03912151,0.3585808,0.87051576,0.33707884,-0.29795933,-0.2354724,0.92508006,0.88466954,-0.43215168,0.17494243,,0.057342026,1.3232874,0.4341481,0.99678975,0.07835401,-0.016457401,0.041332416,-0.6796431,-0.7323776,-0.068569876,0.7293462,-0.6806998,,-0.08037287,0.2875814,-0.05651278,-0.5916167,-0.6427402,0.48669782,0.6562677,-0.033277974,0.7537939,-0.4682973,0.76536113,0.44149742,,0.00068899407,0.45244163,-0.33561325,-0.37439683,-0.8482128,-0.37464938,0.61566424,-0.5295159,0.58358413,-0.6933863,-0.0121661825,0.72046334,,1.195401821601212,0.3111102938381344,0.19419979748000002,3.061892554761025,-0.6941134188084375,-1.0152157796033237,-0.41522061611333805,,-1.141813778186968,-0.09734504787959994,0.16745733478000002,-1.2816249345774129,-0.9022108079512033,-1.396286057041485,0.8356682423429727,,0.023856469213197493,0.03659955441432109,0.08941130016,-0.1167695939710949,,-8.3729625e-05,-6.198883e-06,2.3841858e-06,1.0,8.1695616e-05,8.7533146e-05,-8.169934e-05,1.0,8.255243e-06,-8.753687e-05,-8.225441e-06,1.0,150,0.455,0,0,0.0,False,-0.26232072208302704,1.0091527395071
0.4742143949997626,14:39:41.478507,14:38:24.296097,0,,0.11973004,0.0029913038,0.027154505,0.5477192,0.6906139,-0.47228816,0.09522468,0.50936604,0.8552652,0.8312255,-0.5134187,0.2132259,,0.04762522,-0.047667943,0.0391199,0.35858792,0.8704855,0.33714935,-0.29795778,-0.2355466,0.92506164,0.88466716,-0.43217215,0.17490378,,0.057342026,1.3232874,0.4341481,0.99678975,0.07835401,-0.016457401,0.041332416,-0.6796431,-0.7323776,-0.068569876,0.7293462,-0.6806998,,-0.08036774,0.2877327,-0.056603167,-0.5881574,-0.64865756,0.48302615,0.6547822,-0.031372376,0.75516623,-0.47469062,0.76043355,0.4431813,,0.00068980193,0.45244035,-0.33561227,-0.37440392,-0.8481793,-0.374718,0.61566263,-0.52956825,0.58353835,-0.69338393,-0.012220817,0.7204647,,1.195926967436659,0.31129563942711574,0.19413368669000003,3.058956895552241,-0.701081880296475,-1.0094517877746656,-0.4155473042456064,,-1.1418060554540939,-0.09734504787959994,0.16745863107000003,-1.2816249345774129,-0.9022108079512033,-1.3962043783013445,0.8355048982768383,,0.023856469213197493,0.03659955441432109,0.08941130016,-0.1167695939710949,,-8.3729625e-05,-6.198883e-06,2.3841858e-06,1.0,8.1695616e-05,8.7533146e-05,-8.169934e-05,1.0,8.255243e-06,-8.753687e-05,-8.225441e-06,1.0,158,0.479,0,0,0.0,False,-0.26333354329788383,1.0087664979008641
0.49812242000007245,14:39:41.505833,14:38:24.296097,0,,0.11969195,0.0030689389,0.027315855,0.5417593,0.69437486,-0.473646,0.092173845,0.5110285,0.8546074,0.83546436,-0.5066493,0.2128512,,0.047625102,-0.04766608,0.039118826,0.35864106,0.87060946,0.3367726,-0.29770303,-0.23525947,0.9252168,0.88473135,-0.43207893,0.17480934,,0.057342026,1.3232874,0.4341481,0.99678975,0.07835401,-0.016457401,0.041332416,-0.6796431,-0.7323776,-0.068569876,0.7293462,-0.6806998,,-0.08033617,0.28790358,-0.0566607,-0.5825136,-0.6527253,0.48438382,0.65584546,-0.025412133,0.7544673,-0.48015064,0.7571684,0.4428898,,0.00068988354,0.45244032,-0.33561012,-0.37446794,-0.8483161,-0.37434426,0.61583906,-0.52935386,0.5835467,-0.6931926,-0.012016291,0.7206522,,1.1964907269364775,0.3115504896119652,0.19409479799,3.0516177475302833,-0.7068206132866234,-1.005507344480681,-0.41652736864241224,,-1.1417983327212196,-0.09735277061247417,0.16745992736,-1.282044314464382,-0.9022108079512033,-1.3962043783013445,0.8351782101445699,,0.023856469213197493,0.03659955441432109,0.08941130016,-0.1167695939710949,,-8.3729625e-05,-6.198883e-06,2.3841858e-06,1.0,8.1695616e-05,8.7533146e-05,-8.169934e-05,1.0,8.255243e-06,-8.753687e-05,-8.225441e-06,1.0,169,0.512,0,0,0.0,False,-0.26309523242380006,1.009394140510997
0.5254566759999761,14:39:41.536962,14:38:24.296097,0,,0.1197599,0.0030949712,0.027481094,0.53768384,0.6978848,-0.47313088,0.08891153,0.5110891,0.8549169,0.83844537,-0.5017417,0.21275422,,0.04765521,-0.047660217,0.039135516,0.3586564,0.87058055,0.33683082,-0.29767144,-0.23533359,0.92520803,0.8847357,-0.43209672,0.17474303,,0.057388406,1.323289,0.4341468,0.9967923,0.07831132,-0.016503403,0.041269805,-0.67964804,-0.7323765,-0.068569876,0.7293462,-0.6806998,,-0.080448724,0.2880411,-0.056748863,-0.57868415,-0.6564534,0.48393562,0.6558406,-0.021867696,0.75458264,-0.48476574,0.7540496,0.44318324,,0.0006166711,0.45245346,-0.3356146,-0.37448996,-0.84830725,-0.37434217,0.6158705,-0.5293676,0.58350104,-0.6931528,-0.012031025,0.72069025,,1.1970158727719247,0.3118439534611857,0.19404683526000002,3.0470045687736236,-0.7117395272781792,-1.0015779786877503,-0.4162006805101437,,-1.1418060554540939,-0.09735277061247417,0.16745992736,-1.282044314464382,-0.9022108079512033,-1.3961226995612037,0.8350148660784351,,0.023856469213197493,0.03659955441432109,0.08941130016,-0.1167695939710949,,-3.733486e-05,-4.6491623e-06,1.4305115e-06,0.99999994,3.8936734e-05,4.172325e-05,-3.8944185e-05,1.0,3.963709e-06,-4.172325e-05,-3.9041042e-06,1.0,177,0.537,0,0,0.0,False,-0.2623802998015474,1.0091527395071
0.5566240519997336,14:39:41.563807,14:38:24.455381,0,,0.11972529,0.003150016,0.027594611,0.53366965,0.70039886,-0.47396,0.08684483,0.5120895,0.8545306,0.84122205,-0.497198,0.2124604,,0.047652554,-0.04766053,0.039134562,0.35864818,0.87053955,0.33694565,-0.29779774,-0.23539566,0.92515165,0.8846965,-0.43214557,0.17482045,,0.057388406,1.323289,0.4341468,0.9967923,0.07831132,-0.016503403,0.041269805,-0.67964804,-0.7323765,-0.068569876,0.7293462,-0.6806998,,-0.0804187,0.28816178,-0.056789473,-0.5748791,-0.6591764,0.4847685,0.6564919,-0.017946703,0.7541196,-0.48839784,0.7517742,0.44306114,,0.0006193666,0.45245254,-0.33561432,-0.37447613,-0.8482626,-0.37445724,0.61577576,-0.5294385,0.5835367,-0.6932444,-0.012061153,0.7206016,,1.1974483458128813,0.31200613085154444,0.19401961317000002,3.041972010129995,-0.7155653492716116,-0.9987033136046722,-0.41571064831174076,,-1.1417906099883453,-0.09734504787959994,0.16745992736,-1.2818346245208974,-0.9022108079512033,-1.3962043783013445,0.8351782101445699,,0.023856469213197493,0.03659955441432109,0.08941130016,-0.1167695939710949,,-3.733486e-05,-4.6491623e-06,1.4305115e-06,0.99999994,3.8936734e-05,4.172325e-05,-3.8944185e-05,1.0,3.963709e-06,-4.172325e-05,-3.9041042e-06,1.0,189,0.574,0,0,0.0,False,-0.2626781883941529,1.0089596187039818
0.5834912949999307,14:39:41.595039,14:38:24.455381,0,,0.119687915,0.0032289773,0.02774261,0.5295443,0.70497036,-0.47180444,0.08037102,0.51199037,0.8552231,0.84446615,-0.4907979,0.21446234,,0.04765153,-0.04765734,0.039135814,0.35853308,0.8705487,0.3370444,-0.29780352,-0.23552191,0.9251176,0.88474125,-0.43205824,0.17481002,,0.057388406,1.323289,0.4341468,0.9967923,0.07831132,-0.016503403,0.041269805,-0.67964804,-0.7323765,-0.068569876,0.7293462,-0.6806998,,-0.0803871,0.28832394,-0.05683682,-0.57110584,-0.6640809,0.48252943,0.65443176,-0.013488106,0.75600076,-0.49553725,0.74753904,0.44229877,,0.0006202407,0.45245522,-0.33561212,-0.3743623,-0.84826994,-0.37455434,0.6158171,-0.5294232,0.58350694,-0.69326913,-0.0122139845,0.7205753,,1.1981047781071905,0.31215286277615467,0.19400535398000002,3.038826660977727,-0.7234902662580072,-0.9954265460557618,-0.41587399237787515,,-1.1417828872554712,-0.09732187968097727,0.16745992736,-1.2818346245208974,-0.9023474444509687,-1.396092960397648,0.8351782101445699,,0.023856469213197493,0.03659955441432109,0.08941130016,-0.1167695939710949,,-3.733486e-05,-4.6491623e-06,1.4305115e-06,0.99999994,3.8936734e-05,4.172325e-05,-3.8944185e-05,1.0,3.963709e-06,-4.172325e-05,-3.9041042e-06,1.0,193,0.586,0,0,0.0,False,-0.2620824112089424,1.0092010197078791
0.6147209709997696,14:39:41.620903,14:38:24.455381,0,,0.119620144,0.0033115447,0.027911767,0.5235671,0.7065855,-0.47604036,0.07507649,0.5183066,0.8518932,0.84867,-0.48176268,0.21832022,,0.04765028,-0.04765618,0.039135575,0.3585412,0.8705188,0.33711284,-0.29780766,-0.23559093,0.92509866,0.88473654,-0.43208078,0.17477813,,0.057388406,1.323289,0.4341468,0.9967923,0.07831132,-0.016503403,0.041269805,-0.67964804,-0.7323765,-0.068569876,0.7293462,-0.6806998,,-0.08032619,0.28850445,-0.05689784,-0.56550306,-0.66600174,0.4864648,0.6539168,-0.0026294186,0.75656193,-0.50259244,0.7459456,0.43699667,,0.00062145427,0.45245564,-0.335611,-0.3743701,-0.84823704,-0.3746211,0.6158107,-0.5294748,0.5834669,-0.6932707,-0.012263118,0.72057295,,1.1988384377302417,0.3122609810363938,0.19397942818000002,3.0323262727297067,-0.7312785467446373,-0.9973252782992624,-0.4153839601794722,,-1.1417751645225969,-0.09731415694810305,0.16745992736,-1.2818346245208974,-0.9023474444509687,-1.3960112816575072,0.8350148660784351,,0.023856469213197493,0.03659955441432109,0.08941130016,-0.1167695939710949,,-3.733486e-05,-4.6491623e-06,1.4305115e-06,0.99999994,3.8936734e-05,4.172325e-05,-3.8944185e-05,1.0,3.963709e-06,-4.172325e-05,-3.9041042e-06,1.0,205,0.622,0,0,0.0,False,-0.26136747858668974,1.0090078989047615
0.640529955999682,14:39:41.649996,14:38:24.455381,0,,0.11955573,0.0033780038,0.028043255,0.5229324,0.7085038,-0.47388184,0.07164058,0.517455,0.8527063,0.8493581,-0.47985694,0.21983626,,0.04764903,-0.047655,0.039135337,0.35854933,0.8705165,0.3371102,-0.2978118,-0.23558438,0.9250991,0.8847319,-0.43208894,0.17478147,,0.057388406,1.323289,0.4341468,0.9967923,0.07831132,-0.016503403,0.041269805,-0.67964804,-0.7323765,-0.068569876,0.7293462,-0.6806998,,-0.08026705,0.28864658,-0.056944326,-0.56499785,-0.6680402,0.48425168,0.6520471,-0.0018818253,0.75817615,-0.5055809,0.74412274,0.43665692,,0.0006226679,0.4524561,-0.33560982,-0.3743779,-0.8482347,-0.37461856,0.61580426,-0.5294787,0.5834701,-0.6932722,-0.012253397,0.7205717,,1.1996493246820354,0.3123922674952556,0.19394572464,3.0323262727297067,-0.7345578227390079,-0.9957130722323755,-0.4162006805101435,,-1.1417674417897226,-0.09730643421522882,0.16745992736,-1.2818346245208974,-0.9023474444509687,-1.3960112816575072,0.8350148660784351,,0.023856469213197493,0.03659955441432109,0.08941130016,-0.1167695939710949,,-3.733486e-05,-4.6491623e-06,1.4305115e-06,0.99999994,3.8936734e-05,4.172325e-05,-3.8944185e-05,1.0,3.963709e-06,-4.172325e-05,-3.9041042e-06,1.0,216,0.656,0,0,0.0,False,-0.26112916771260597,1.0091044593063205
0.6696591790000639,14:39:41.681166,14:38:24.455381,0,,0.11947489,0.0034761429,0.028197303,0.5192082,0.71186393,-0.47294024,0.06806731,0.5171735,0.8531697,0.85193276,-0.4751645,0.22006595,,0.047648005,-0.047656238,0.03913474,0.35855547,0.8705134,0.3371117,-0.2978045,-0.23558825,0.9251004,0.88473177,-0.43209317,0.17477137,,0.057388406,1.323289,0.4341468,0.9967923,0.07831132,-0.016503403,0.041269805,-0.67964804,-0.7323765,-0.068569876,0.7293462,-0.6806998,,-0.08019188,0.28882724,-0.05698445,-0.56151193,-0.67165005,0.483312,0.6515041,0.0012424324,0.7586441,-0.5101439,0.7408675,0.43688512,,0.00062375533,0.452455,-0.3356106,-0.37438434,-0.8482313,-0.37461984,0.6158074,-0.52948415,0.5834619,-0.69326586,-0.012254693,0.7205777,,1.2005219934968228,0.3125698903513628,0.19392628029000003,3.027922783916532,-0.7394767367305638,-0.9915386702190232,-0.4158739923778749,,-1.1417597190568485,-0.09731415694810305,0.16745992736,-1.2818346245208974,-0.9023474444509687,-1.3960112816575072,0.8350148660784351,,0.023856469213197493,0.03659955441432109,0.08941130016,-0.1167695939710949,,-3.733486e-05,-4.6491623e-06,1.4305115e-06,0.99999994,3.8936734e-05,4.172325e-05,-3.8944185e-05,1.0,3.963709e-06,-4.172325e-05,-3.9041042e-06,1.0,224,0.68,0,0,0.0,False,-0.2621419889274632,1.0088147781016437
0.70083625999996,14:39:41.706397,14:38:24.455381,0,,0.119391456,0.0035981387,0.028351143,0.51440084,0.71315485,-0.47623706,0.06711173,0.5201646,0.8514252,0.85491955,-0.46993494,0.21971199,,0.047645725,-0.047656313,0.039133966,0.3585698,0.87050796,0.3371106,-0.29780143,-0.23558557,0.9251021,0.884727,-0.43210563,0.17476466,,0.057388406,1.323289,0.4341468,0.9967923,0.07831132,-0.016503403,0.041269805,-0.67964804,-0.7323765,-0.068569876,0.7293462,-0.6806998,,-0.080113456,0.28902432,-0.05700735,-0.5568965,-0.67313516,0.48657507,0.6530917,0.0070602205,0.7572459,-0.51316416,0.73948574,0.4356872,,0.0006260564,0.45245436,-0.33561024,-0.3743986,-0.8482256,-0.37461856,0.61580414,-0.5294935,0.5834568,-0.6932611,-0.012246268,0.7205824,,1.2013792168458617,0.31290196786495444,0.19391072481000002,3.0205836358945732,-0.742346103225638,-0.989280572981539,-0.41571064831174054,,-1.1417442735910999,-0.09731415694810305,0.16745992736,-1.2818346245208974,-0.9023474444509687,-1.3960112816575072,0.8350148660784351,,0.023856469213197493,0.03659955441432109,0.08941130016,-0.1167695939710949,,-3.733486e-05,-4.6491623e-06,1.4305115e-06,0.99999994,3.8936734e-05,4.172325e-05,-3.8944185e-05,1.0,3.963709e-06,-4.172325e-05,-3.9041042e-06,1.0,232,0.705,0,0,0.0,False,-0.26243987752006825,1.0088147781016437
0.7260156799998185,14:39:41.729751,14:38:24.455381,0,,0.119367495,0.0036747754,0.028436407,0.51436275,0.71393377,-0.47510988,0.06584337,0.51950425,0.85192716,0.85504115,-0.4694825,0.22020572,,0.047645357,-0.04765658,0.039135158,0.3585698,0.87050796,0.3371106,-0.29780143,-0.23558557,0.9251021,0.884727,-0.43210563,0.17476466,,0.057388406,1.323289,0.4341468,0.9967923,0.07831132,-0.016503403,0.041269805,-0.67964804,-0.7323765,-0.068569876,0.7293462,-0.6806998,,-0.08009199,0.28913933,-0.05701228,-0.55689883,-0.6739543,0.48543718,0.65230215,0.006914224,0.7579275,-0.5141649,0.7387407,0.43577132,,0.00062639895,0.4524553,-0.33561105,-0.3743986,-0.8482256,-0.37461856,0.61580414,-0.5294935,0.5834568,-0.6932611,-0.012246268,0.7205824,,1.2019352536128058,0.31321087717992346,0.19390165078000002,3.0205836358945732,-0.7431659222242306,-0.9882036718586577,-0.41554730424560615,,-1.1417442735910999,-0.09731415694810305,0.16745863107000003,-1.2818346245208974,-0.9023474444509687,-1.3960112816575072,0.8350148660784351,,0.023856469213197493,0.03659955441432109,0.08941130016,-0.1167695939710949,,-3.733486e-05,-4.6491623e-06,1.4305115e-06,0.99999994,3.8936734e-05,4.172325e-05,-3.8944185e-05,1.0,3.963709e-06,-4.172325e-05,-3.9041042e-06,1.0,240,0.729,0,0,0.0,False,-0.2631548101423209,1.0087664979008641
0.7494330669996998,14:39:41.752655,14:38:24.455381,0,,0.11935115,0.003742218,0.02850549,0.51444876,0.71433944,-0.47440666,0.06512889,0.5190839,0.8522383,0.8550442,-0.46933055,0.22051781,,0.04764601,-0.047655568,0.039136946,0.3585636,0.87051105,0.3371091,-0.2978087,-0.23558173,0.92510074,0.8847272,-0.43210146,0.17477465,,0.057388406,1.323289,0.4341468,0.9967923,0.07831132,-0.016503403,0.041269805,-0.67964804,-0.7323765,-0.068569876,0.7293462,-0.6806998,,-0.080077514,0.2892362,-0.057012286,-0.557004,-0.67437845,0.48472703,0.651808,0.0067248736,0.7583542,-0.51467746,0.7383553,0.43581948,,0.000625654,0.45245734,-0.33561105,-0.37439215,-0.848229,-0.3746173,0.615801,-0.52948815,0.58346504,-0.6932674,-0.0122449715,0.72057647,,1.202390894852385,0.313504341029144,0.19389516933,3.0205836358945732,-0.7434391952237615,-0.9874907636104213,-0.4158739923778749,,-1.1417519963239742,-0.09730643421522882,0.16745733478000002,-1.2818346245208974,-0.9023474444509687,-1.3960112816575072,0.8350148660784351,,0.023856469213197493,0.03659955441432109,0.08941130016,-0.1167695939710949,,-3.733486e-05,-4.6491623e-06,1.4305115e-06,0.99999994,3.8936734e-05,4.172325e-05,-3.8944185e-05,1.0,3.963709e-06,-4.172325e-05,-3.9041042e-06,1.0,248,0.753,0,0,0.0,False,-0.2626781883941529,1.0089596187039818
0.7723012159999598,14:39:41.781265,14:38:24.455381,0,,0.11932433,0.003864482,0.028645977,0.50894904,0.71739346,-0.47572833,0.06247449,0.5204185,0.85162294,0.8585264,-0.46315357,0.22004762,,0.04764726,-0.04765676,0.039137185,0.35855547,0.8705134,0.3371117,-0.2978045,-0.23558825,0.9251004,0.88473177,-0.43209317,0.17477137,,0.057388406,1.323289,0.4341468,0.9967923,0.07831132,-0.016503403,0.041269805,-0.67964804,-0.7323765,-0.068569876,0.7293462,-0.6806998,,-0.08005491,0.2894227,-0.05702262,-0.5517691,-0.677718,0.48605475,0.65259063,0.012044815,0.7576149,-0.5193037,0.7352233,0.43562645,,0.00062444044,0.45245692,-0.3356122,-0.37438434,-0.8482313,-0.37461984,0.6158074,-0.52948415,0.5834619,-0.69326586,-0.012254693,0.7205777,,1.202977822550826,0.31395998226872324,0.19389646562,3.0134541778160995,-0.7480848362157865,-0.9834575186643213,-0.41636402457627764,,-1.1417597190568485,-0.09731415694810305,0.16745733478000002,-1.2818346245208974,-0.9023474444509687,-1.3960112816575072,0.8350148660784351,,0.023856469213197493,0.03659955441432109,0.08941130016,-0.1167695939710949,,-3.733486e-05,-4.6491623e-06,1.4305115e-06,0.99999994,3.8936734e-05,4.172325e-05,-3.8944185e-05,1.0,3.963709e-06,-4.172325e-05,-3.9041042e-06,1.0,259,0.787,0,0,0.0,False,-0.26255903295711036,1.0087664979008641
0.8009332379997431,14:39:41.808323,14:38:24.455381,0,,0.11934139,0.003955692,0.028738663,0.50634557,0.7204648,-0.47386116,0.0590595,0.51924837,0.85258037,0.86030567,-0.45968634,0.22036874,,0.047645096,-0.04765798,0.03913617,0.3585688,0.87050754,0.3371127,-0.2977957,-0.23559079,0.9251026,0.8847294,-0.43210363,0.17475796,,0.057388406,1.323289,0.4341468,0.9967923,0.07831132,-0.016503403,0.041269805,-0.67964804,-0.7323765,-0.068569876,0.7293462,-0.6806998,,-0.080074385,0.28955236,-0.057019886,-0.5493557,-0.6809986,0.48419952,0.6515614,0.01367574,0.7584727,-0.5231406,0.732157,0.43619955,,0.00062667846,0.45245552,-0.33561277,-0.37439787,-0.84822506,-0.37462047,0.61580896,-0.5294942,0.5834511,-0.6932572,-0.012251777,0.7205861,,1.2033330682630403,0.31438473257680555,0.19390683594000002,3.0111475884377694,-0.7520472947089842,-0.9800630419768442,-0.41636402457627764,,-1.1417442735910999,-0.09732187968097727,0.16745733478000002,-1.2818346245208974,-0.9023474444509687,-1.3960112816575072,0.8350148660784351,,0.023856469213197493,0.03659955441432109,0.08941130016,-0.1167695939710949,,-3.733486e-05,-4.6491623e-06,1.4305115e-06,0.99999994,3.8936734e-05,4.172325e-05,-3.8944185e-05,1.0,3.963709e-06,-4.172325e-05,-3.9041042e-06,1.0,267,0.811,0,0,0.0,False,-0.26202283349042155,1.0085733770977463
0.8280037559998163,14:39:41.836165,14:38:24.455381,0,,0.119344264,0.0039910823,0.028754398,0.50633615,0.7199023,-0.4747255,0.059588343,0.51998585,0.85209394,0.8602748,-0.45973414,0.22038975,,0.047646232,-0.04765798,0.03913659,0.35856166,0.87053776,0.3370421,-0.2977973,-0.23551656,0.92512107,0.88473177,-0.43208313,0.17479658,,0.057388406,1.323289,0.4341468,0.9967923,0.07831132,-0.016503403,0.041269805,-0.67964804,-0.7323765,-0.068569876,0.7293462,-0.6806998,,-0.08007714,0.28958815,-0.05700505,-0.5493305,-0.68041474,0.4850482,0.65190536,0.014162795,0.7581681,-0.5227384,0.7326904,0.43578595,,0.00062552793,0.45245585,-0.33561298,-0.37439075,-0.8482585,-0.3745518,0.6158106,-0.5294419,0.58349687,-0.6932596,-0.012197132,0.72058475,,1.203456631989028,0.31457007816578697,0.19391331739,3.010728208550801,-0.751364112210157,-0.9806201314953263,-0.41636402457627764,,-1.1417519963239742,-0.09732187968097727,0.16745733478000002,-1.2818346245208974,-0.9023474444509687,-1.396092960397648,0.8350148660784351,,0.023856469213197493,0.03659955441432109,0.08941130016,-0.1167695939710949,,-3.733486e-05,-4.6491623e-06,1.4305115e-06,0.99999994,3.8936734e-05,4.172325e-05,-3.8944185e-05,1.0,3.963709e-06,-4.172325e-05,-3.9041042e-06,1.0,275,0.836,0,0,0.0,False,-0.2620824112089424,1.0092010197078791
0.855815112000073,14:39:41.858666,14:38:24.455381,0,,0.11933459,0.0040429235,0.02879031,0.5027694,0.7213802,-0.47627026,0.05877152,0.52116907,0.85142744,0.8624202,-0.45606282,0.21963117,,0.047646344,-0.047659174,0.03913635,0.3585607,0.8705374,0.3370442,-0.29779166,-0.23552172,0.9251215,0.88473403,-0.4320811,0.17478988,,0.057388406,1.323289,0.4341468,0.9967923,0.07831132,-0.016503403,0.041269805,-0.67964804,-0.7323765,-0.068569876,0.7293462,-0.6806998,,-0.08006801,0.28965014,-0.056993015,-0.5459053,-0.6820525,0.48661256,0.6529577,0.01760132,0.7571898,-0.52500826,0.7310913,0.4357428,,0.0006254649,0.4524551,-0.33561394,-0.37439007,-0.84825796,-0.3745537,0.6158154,-0.5294426,0.58349115,-0.6932557,-0.012202641,0.7205884,,1.2035647502492672,0.3147168100903972,0.19393405803000002,3.0059053398506568,-0.7536869327061696,-0.9783993121719248,-0.4157106483117403,,-1.1417519963239742,-0.0973296024138515,0.16745733478000002,-1.2818346245208974,-0.9023474444509687,-1.396092960397648,0.834851522012301,,0.023856469213197493,0.03659955441432109,0.08941130016,-0.1167695939710949,,-3.733486e-05,-4.6491623e-06,1.4305115e-06,0.99999994,3.8936734e-05,4.172325e-05,-3.8944185e-05,1.0,3.963709e-06,-4.172325e-05,-3.9041042e-06,1.0,283,0.86,0,0,0.0,False,-0.26202283349042155,1.0088630583024232
0.878271840999787,14:39:41.891830,14:38:24.782374,0,,0.11931905,0.00409998,0.028824255,0.49647248,0.72540134,-0.4767683,0.055357754,0.52166295,0.8513539,0.8662854,-0.44906658,0.21883458,,0.047645316,-0.047660396,0.039135814,0.35856688,0.87053424,0.33704573,-0.29778442,-0.23552561,0.92512286,0.88473403,-0.43208534,0.17477977,,0.057388406,1.323289,0.4341468,0.9967923,0.07831132,-0.016503403,0.041269805,-0.67964804,-0.7323765,-0.068569876,0.7293462,-0.6806998,,-0.080052756,0.28971443,-0.05697614,-0.5399151,-0.6864232,0.4871498,0.6535066,0.022911271,0.75657403,-0.5304911,0.72684133,0.43621188,,0.0006265523,0.45245403,-0.3356147,-0.3743965,-0.84825456,-0.37455496,0.61581856,-0.52944803,0.5834829,-0.69324946,-0.012203936,0.7205944,,1.203595641180764,0.31473225555614565,0.19398331705000002,2.998566191828698,-0.7598355751956144,-0.9733855065055858,-0.415383960179472,,-1.1417442735910999,-0.09733732514672572,0.16745733478000002,-1.2818346245208974,-0.9023474444509687,-1.396092960397648,0.834851522012301,,0.023856469213197493,0.03659955441432109,0.08941130016,-0.1167695939710949,,-3.733486e-05,-4.6491623e-06,1.4305115e-06,0.99999994,3.8936734e-05,4.172325e-05,-3.8944185e-05,1.0,3.963709e-06,-4.172325e-05,-3.9041042e-06,1.0,291,0.885,0,0,0.0,False,-0.26232072208302704,1.009345860310218
0.9115119019998019,14:39:41.912261,14:38:24.782374,0,,0.11930741,0.004131198,0.028795525,0.4961243,0.72565264,-0.4767483,0.055104047,0.5216677,0.85136735,0.8665011,-0.44865474,0.21882549,,0.047645688,-0.047660157,0.03913462,0.35856688,0.87053424,0.33704573,-0.29778442,-0.23552561,0.92512286,0.88473403,-0.43208534,0.17477977,,0.057388406,1.323289,0.4341468,0.9967923,0.07831132,-0.016503403,0.041269805,-0.67964804,-0.7323765,-0.068569876,0.7293462,-0.6806998,,-0.08003879,0.28971556,-0.05693448,-0.5395857,-0.6866957,0.4871307,0.65349334,0.023206731,0.7565764,-0.5308425,0.7265745,0.43622902,,0.0006262098,0.45245308,-0.3356139,-0.3743965,-0.84825456,-0.37455496,0.61581856,-0.52944803,0.5834829,-0.69324946,-0.012203936,0.7205944,,1.203634254845135,0.3147168100903972,0.19402868720000002,2.998146811941729,-0.7602454846949106,-0.9730512527944966,-0.4157106483117403,,-1.1417442735910999,-0.09733732514672572,0.16745863107000003,-1.2818346245208974,-0.9023474444509687,-1.396092960397648,0.834851522012301,,0.023856469213197493,0.03659955441432109,0.08941130016,-0.1167695939710949,,-3.733486e-05,-4.6491623e-06,1.4305115e-06,0.99999994,3.8936734e-05,4.172325e-05,-3.8944185e-05,1.0,3.963709e-06,-4.172325e-05,-3.9041042e-06,1.0,310,0.942,0,0,0.0,False,-0.26255903295711036,1.0085733770977463
0.9319407549996868,14:39:41.963370,14:38:24.782374,0,,0.1192871,0.0042372793,0.028825775,0.48813733,0.73289454,-0.47390664,0.047907084,0.5196746,0.8530201,0.8714509,-0.43909448,0.21856156,,0.047644436,-0.04765898,0.039134383,0.358575,0.870587,0.3369009,-0.2977885,-0.23536794,0.92516166,0.8847293,-0.43206498,0.17485368,,0.057388406,1.323289,0.4341468,0.9967923,0.07831132,-0.016503403,0.041269805,-0.67964804,-0.7323765,-0.068569876,0.7293462,-0.6806998,,-0.08001727,0.2898112,-0.056879986,-0.5320671,-0.69448364,0.48435223,0.652239,0.028581563,0.7574743,-0.5398971,0.7189406,0.43776202,,0.00062742335,0.4524535,-0.33561277,-0.3744043,-0.84831345,-0.37441388,0.6158121,-0.52935666,0.58357257,-0.69325095,-0.012076501,0.7205951,,1.203765541303997,0.31472453282327145,0.19413887185,2.990178594089317,-0.7706298586770841,-0.9644201346332874,-0.4160373364440091,,-1.1417365508582258,-0.0973296024138515,0.16745863107000003,-1.2818346245208974,-0.9023474444509687,-1.3962563178779293,0.8348515220123014,,0.023856469213197493,0.03659955441432109,0.08941130016,-0.1167695939710949,,-3.733486e-05,-4.6491623e-06,1.4305115e-06,0.99999994,3.8936734e-05,4.172325e-05,-3.8944185e-05,1.0,3.963709e-06,-4.172325e-05,-3.9041042e-06,1.0,322,0.979,0,0,0.0,False,-0.26196325577190027,1.0090078989047615
0.9830489669998315,14:39:41.997327,14:38:24.782374,0,,0.119234666,0.0043096393,0.02880983,0.48298347,0.73349196,-0.4782431,0.048129708,0.52310675,0.8509071,0.8743056,-0.4339918,0.21734905,,0.047645688,-0.047660157,0.03913462,0.35856688,0.8705893,0.3369035,-0.29778442,-0.23537447,0.9251613,0.88473403,-0.43205678,0.1748504,,0.057388406,1.323289,0.4341468,0.9967923,0.07831132,-0.016503403,0.041269805,-0.67964804,-0.7323765,-0.068569876,0.7293462,-0.6806998,,-0.079962134,0.2898508,-0.056819715,-0.52706724,-0.6952579,0.48868862,0.6545538,0.03462681,0.7552221,-0.5419958,0.7179258,0.436833,,0.0006262098,0.45245308,-0.3356139,-0.3743965,-0.8483158,-0.37441638,0.61581856,-0.5293527,0.5835694,-0.69324946,-0.012086222,0.7205964,,1.2038504913656134,0.31469364189177457,0.19421535296000003,2.98242006618039,-0.7728160426733313,-0.9627191269142851,-0.4158739923778749,,-1.1417442735910999,-0.09733732514672572,0.16745863107000003,-1.2818346245208974,-0.9023474444509687,-1.3962563178779293,0.8348515220123014,,0.023856469213197493,0.03659955441432109,0.08941130016,-0.1167695939710949,,-3.733486e-05,-4.6491623e-06,1.4305115e-06,0.99999994,3.8936734e-05,4.172325e-05,-3.8944185e-05,1.0,3.963709e-06,-4.172325e-05,-3.9041042e-06,1.0,326,0.992,0,0,0.0,False,-0.2629164992682367,1.0082836958930697
1.0170068239999637,14:39:42.021192,14:38:24.782374,0,,0.11920759,0.0043917894,0.028829083,0.47734132,0.73806334,-0.47687277,0.043218285,0.5223155,0.8516565,0.87765443,-0.42714044,0.21742484,,0.047644548,-0.047660157,0.039134204,0.358574,0.87058663,0.33690295,-0.29778284,-0.23537311,0.9251622,0.88473165,-0.43206298,0.17484704,,0.057388406,1.323289,0.4341468,0.9967923,0.07831132,-0.016503403,0.041269805,-0.67964804,-0.7323765,-0.068569876,0.7293462,-0.6806998,,-0.07993393,0.28992212,-0.056775305,-0.52174354,-0.7002047,0.48733675,0.6536805,0.038931813,0.7557686,-0.54816556,0.7128799,0.43739772,,0.0006273603,0.45245275,-0.33561373,-0.3744036,-0.8483129,-0.37441576,0.6158169,-0.5293574,0.5835669,-0.6932471,-0.012082009,0.72059876,,1.2039972232902236,0.3146859191589003,0.19429961181000002,2.9765487477628234,-0.779921140661134,-0.9571704321424931,-0.4163640245762781,,-1.1417365508582258,-0.09733732514672572,0.16745863107000003,-1.2818346245208974,-0.9023474444509687,-1.396256317877929,0.8345248338800324,,0.023856469213197493,0.03659955441432109,0.08941130016,-0.1167695939710949,,-3.733486e-05,-4.6491623e-06,1.4305115e-06,0.99999994,3.8936734e-05,4.172325e-05,-3.8944185e-05,1.0,3.963709e-06,-4.172325e-05,-3.9041042e-06,1.0,338,1.028,0,0,0.0,False,-0.2632143878608417,1.0076077730821573
1.0408661429996755,14:39:42.051259,14:38:24.782374,0,,0.11916517,0.0044579506,0.028851733,0.47058254,0.7423712,-0.4769035,0.038761526,0.52257425,0.85171235,0.88150406,-0.41928643,0.21713874,,0.047644995,-0.047660545,0.039135277,0.35844886,0.8706248,0.33693737,-0.2977731,-0.2354407,0.92514807,0.88478565,-0.4319491,0.17485514,,0.057388406,1.323289,0.4341468,0.9967923,0.07831132,-0.016503403,0.041269805,-0.67964804,-0.7323765,-0.068569876,0.7293462,-0.6806998,,-0.07989101,0.28998506,-0.05674558,-0.5153194,-0.7049132,0.48738408,0.65350527,0.04469221,0.7556014,-0.5544157,0.70788413,0.43763372,,0.0006268949,0.45245352,-0.3356146,-0.37428057,-0.84835213,-0.37444988,0.6158743,-0.52929187,0.5835658,-0.6932625,-0.012196722,0.72058195,,1.2040976188175887,0.3145855236315354,0.19437350034000003,2.968790219853896,-0.7871628751487024,-0.9515103194670043,-0.4168540567746808,,-1.1417365508582258,-0.09733732514672572,0.16745863107000003,-1.2818346245208974,-0.9024840809507342,-1.3962265787143733,0.8337081135493614,,0.023856469213197493,0.03659955441432109,0.08941130016,-0.1167695939710949,,-3.733486e-05,-4.6491623e-06,1.4305115e-06,0.99999994,3.8936734e-05,4.172325e-05,-3.8944185e-05,1.0,3.963709e-06,-4.172325e-05,-3.9041042e-06,1.0,346,1.053,0,0,0.0,False,-0.2630356547052788,1.007511212680598
1.0708742889996756,14:39:42.081108,14:38:24.973474,0,,0.11913529,0.0045286715,0.028876647,0.46284539,0.74788606,-0.4758576,0.032794386,0.5220051,0.85231173,0.8858321,-0.41009402,0.2170811,,0.047644995,-0.047660545,0.039135277,0.35844886,0.8706523,0.33686626,-0.2977731,-0.23536514,0.9251673,0.88478565,-0.4319348,0.17489046,,0.057388406,1.323289,0.4341468,0.9967923,0.07831132,-0.016503403,0.041269805,-0.67964804,-0.7323765,-0.068569876,0.7293462,-0.6806998,,-0.07986061,0.2900526,-0.056713462,-0.5079844,-0.7109196,0.4863591,0.65264875,0.050821267,0.75595427,-0.56214005,0.7014346,0.43816435,,0.0006268949,0.45245352,-0.3356146,-0.37428057,-0.8483827,-0.3743806,0.6158743,-0.5292442,0.583609,-0.6932625,-0.012137867,0.7205829,,1.2041285097490855,0.31450057356991895,0.19445905548000003,2.9604026221145148,-0.7961808841332215,-0.9444017740434623,-0.41636402457627764,,-1.1417365508582258,-0.09733732514672572,0.16745863107000003,-1.2818346245208974,-0.9024840809507342,-1.3963082574545138,0.8335447694832268,,0.023856469213197493,0.03659955441432109,0.08941130016,-0.1167695939710949,,-3.733486e-05,-4.6491623e-06,1.4305115e-06,0.99999994,3.8936734e-05,4.172325e-05,-3.8944185e-05,1.0,3.963709e-06,-4.172325e-05,-3.9041042e-06,1.0,383,1.167,0,0,0.0,False,-0.2629164992682367,1.0066904492673474
1.100774820999959,14:39:42.189425,14:38:24.973474,0,,0.119003505,0.004742682,0.02897714,0.433131,0.763072,-0.47970682,0.015064836,0.52601737,0.8503405,0.90120494,-0.37553555,0.2163387,,0.04764422,-0.047652185,0.03913665,0.35845563,0.8706552,0.3368517,-0.2978129,-0.23532882,0.92516375,0.88476944,-0.4319489,0.17493737,,0.057388406,1.323289,0.4341468,0.9967923,0.07831132,-0.016503403,0.041269805,-0.67964804,-0.7323765,-0.068569876,0.7293462,-0.6806998,,-0.07972865,0.2902758,-0.056635868,-0.4796095,-0.7277984,0.490188,0.6520493,0.07823089,0.7541297,-0.58720225,0.6813145,0.43704015,,0.00062733627,0.45245874,-0.3356079,-0.37428543,-0.8483864,-0.37436733,0.6158407,-0.5292392,0.583649,-0.6932897,-0.012099317,0.7205574,,1.204043559687469,0.31419166425494993,0.19471831348000002,2.92496502166563,-0.8254210950830257,-0.9223552749355204,-0.4157106483117403,,-1.1417365508582258,-0.09728326601660615,0.16745863107000003,-1.2818346245208974,-0.9024840809507342,-1.3963082574545136,0.8325647050864209,,0.023856469213197493,0.03659955441432109,0.08941130016,-0.1167695939710949,,-3.733486e-05,-4.6491623e-06,1.4305115e-06,0.99999994,3.8936734e-05,4.172325e-05,-3.8944185e-05,1.0,3.963709e-06,-4.172325e-05,-3.9041042e-06,1.0,391,1.191,0,0,0.0,False,-0.26178452261633733,1.0070284106728038
1.2091009629998553,14:39:42.218724,14:38:24.973474,0,,0.118958846,0.0048142225,0.029068694,0.41994935,0.7721575,-0.4768808,0.003530413,0.5240671,0.8516698,0.90754056,-0.3593418,0.21735546,,0.04764275,-0.04764864,0.039136767,0.35846567,0.87068117,0.33677378,-0.29782838,-0.23523635,0.9251822,0.88476026,-0.43194687,0.17498943,,0.057388406,1.323289,0.4341468,0.9967923,0.07831132,-0.016503403,0.041269805,-0.67964804,-0.7323765,-0.068569876,0.7293462,-0.6806998,,-0.07968699,0.29039225,-0.05664999,-0.4670947,-0.7377762,0.48734877,0.64889413,0.08838455,0.7557278,-0.60063213,0.6692342,0.4374547,,0.00062867603,0.45246065,-0.33560482,-0.37429464,-0.84841573,-0.37429172,0.6158247,-0.529194,0.58370686,-0.693299,-0.012019728,0.7205498,,1.2040281142217206,0.3140449323303397,0.19480386862000001,2.9107061055086825,-0.8415442020553477,-0.9092896410394833,-0.4158739923778749,,-1.1417288281253515,-0.09726009781798348,0.16745863107000003,-1.2818346245208974,-0.9024840809507342,-1.3963899361946543,0.8327280491525557,,0.023856469213197493,0.03659955441432109,0.08941130016,-0.1167695939710949,,-3.733486e-05,-4.6491623e-06,1.4305115e-06,0.99999994,3.8936734e-05,4.172325e-05,-3.8944185e-05,1.0,3.963709e-06,-4.172325e-05,-3.9041042e-06,1.0,399,1.217,0,0,0.0,False,-0.26243987752006825,1.0071249710743626
1.2383975150000879,14:39:42.241454,14:38:24.973474,0,,0.118921965,0.004843235,0.029106364,0.41286764,0.7758965,-0.47699574,-0.0014533997,0.52427655,0.8515469,0.91078985,-0.3508829,0.21758437,,0.04764366,-0.047646195,0.039137542,0.3584605,0.8706572,0.33684126,-0.2978413,-0.23530288,0.9251612,0.884758,-0.43195894,0.17497095,,0.057388406,1.323289,0.4341468,0.9967923,0.07831132,-0.016503403,0.041269805,-0.67964804,-0.7323765,-0.068569876,0.7293462,-0.6806998,,-0.07965139,0.29044026,-0.056657143,-0.46033058,-0.7419502,0.48744813,0.6479272,0.09455832,0.7558102,-0.6068658,0.66375345,0.43720165,,0.00062765164,0.4524625,-0.3356031,-0.37428892,-0.8483891,-0.37435785,0.6158167,-0.52923554,0.5836776,-0.6933091,-0.012071782,0.72053915,,1.2039663323587269,0.31384414127560983,0.19486868312000002,2.8974956390691573,-0.8528850315358792,-0.9001236337728209,-0.4160373364440091,,-1.1417365508582258,-0.09724465235223502,0.16745863107000003,-1.2818346245208974,-0.9024840809507342,-1.3963082574545136,0.8325647050864209,,0.023856469213197493,0.03659955441432109,0.08941130016,-0.1167695939710949,,-3.733486e-05,-4.6491623e-06,1.4305115e-06,0.99999994,3.8936734e-05,4.172325e-05,-3.8944185e-05,1.0,3.963709e-06,-4.172325e-05,-3.9041042e-06,1.0,407,1.241,0,0,0.0,False,-0.2626781883941529,1.006545608665009
1.2610934189997351,14:39:42.263443,14:38:25.143529,0,,0.11882271,0.004894078,0.02917625,0.39785606,0.7806989,-0.48189184,-0.008340001,0.5283085,0.8490116,0.91740984,-0.3337654,0.21670166,,0.04764366,-0.047646195,0.039137542,0.3584605,0.8706572,0.33684126,-0.2978413,-0.23530288,0.9251612,0.884758,-0.43195894,0.17497095,,0.057388406,1.323289,0.4341468,0.9967923,0.07831132,-0.016503403,0.041269805,-0.67964804,-0.7323765,-0.068569876,0.7293462,-0.6806998,,-0.07955463,0.29052782,-0.05667428,-0.44587967,-0.7475412,0.49231443,0.6482306,0.109603636,0.7535145,-0.6172426,0.65511006,0.43570903,,0.00062765164,0.4524625,-0.3356031,-0.37428892,-0.8483891,-0.37435785,0.6158167,-0.52923554,0.5836776,-0.6933091,-0.012071782,0.72053915,,1.203873659564236,0.3136510729537542,0.19491664585000001,2.882397963138272,-0.8613564945213367,-0.8930523662633616,-0.41603733644400953,,-1.1417365508582258,-0.09724465235223502,0.16745863107000003,-1.2818346245208974,-0.9024840809507342,-1.3963082574545136,0.8325647050864209,,0.023856469213197493,0.03659955441432109,0.08941130016,-0.1167695939710949,,-3.733486e-05,-4.6491623e-06,1.4305115e-06,0.99999994,3.8936734e-05,4.172325e-05,-3.8944185e-05,1.0,3.963709e-06,-4.172325e-05,-3.9041042e-06,1.0,415,1.266,0,0,0.0,False,-0.2622611443645053,1.0063524878618912
1.283125316999758,14:39:42.293674,14:38:25.143529,0,,0.118707046,0.0049319267,0.029263064,0.3804853,0.7862354,-0.486893,-0.015307307,0.5317743,0.8467479,0.92466015,-0.31472206,0.21436736,,0.047643885,-0.047648594,0.039137185,0.35845855,0.8706839,0.33677435,-0.29782996,-0.2352377,0.9251814,0.8847625,-0.43194064,0.17499277,,0.057388406,1.323289,0.4341468,0.9967923,0.07831132,-0.016503403,0.041269805,-0.67964804,-0.7323765,-0.068569876,0.7293462,-0.6806998,,-0.079442754,0.29061893,-0.056713406,-0.42910922,-0.75398195,0.49736962,0.6489791,0.12563191,0.75036174,-0.62824464,0.6447696,0.4354087,,0.0006275255,0.45246097,-0.335605,-0.37428752,-0.8484186,-0.37429234,0.6158263,-0.52918935,0.58370936,-0.6933014,-0.012023943,0.72054744,,1.203665145776632,0.31336533183740795,0.19497238632000002,2.858493309581036,-0.8743369619990534,-0.8792005158065792,-0.41571064831174076,,-1.1417365508582258,-0.09726009781798348,0.16745863107000003,-1.2818346245208974,-0.9024840809507342,-1.3963899361946543,0.8327280491525557,,0.023856469213197493,0.03659955441432109,0.08941130016,-0.1167695939710949,,-3.733486e-05,-4.6491623e-06,1.4305115e-06,0.99999994,3.8936734e-05,4.172325e-05,-3.8944185e-05,1.0,3.963709e-06,-4.172325e-05,-3.9041042e-06,1.0,423,1.291,0,0,0.0,False,-0.26202283349042155,1.0069801304720243
1.31335137699989,14:39:42.318841,14:38:25.143529,0,,0.11860329,0.004959166,0.029313222,0.36700734,0.7891225,-0.4925354,-0.017998427,0.53540874,0.84440136,0.9300438,-0.30103663,0.21070182,,0.04764411,-0.047651008,0.039136827,0.3584566,0.8706831,0.3367785,-0.29781863,-0.23524807,0.92518234,0.8847672,-0.43193662,0.17497933,,0.057388406,1.323289,0.4341468,0.9967923,0.07831132,-0.016503403,0.041269805,-0.67964804,-0.7323765,-0.068569876,0.7293462,-0.6806998,,-0.079341106,0.290676,-0.0567342,-0.4160116,-0.7574902,0.5031331,0.6512647,0.13796376,0.7462039,-0.6346563,0.6381023,0.43593213,,0.00062739936,0.45245948,-0.33560693,-0.37428614,-0.8484175,-0.37429613,0.6158359,-0.5291908,0.5836979,-0.69329363,-0.012034956,0.7205547,,1.2034643547219022,0.31317226351555233,0.19500997873000003,2.8383630750065216,-0.8815786964866218,-0.8683129637620945,-0.41652736864241224,,-1.1417365508582258,-0.09727554328373192,0.16745863107000003,-1.2818346245208974,-0.9024840809507342,-1.3963899361946543,0.8327280491525557,,0.023856469213197493,0.03659955441432109,0.08941130016,-0.1167695939710949,,-3.733486e-05,-4.6491623e-06,1.4305115e-06,0.99999994,3.8936734e-05,4.172325e-05,-3.8944185e-05,1.0,3.963709e-06,-4.172325e-05,-3.9041042e-06,1.0,431,1.315,0,0,0.0,False,-0.261427056305211,1.006545608665009
1.3384956639997654,14:39:42.334884,14:38:25.143529,0,,0.11852512,0.0049683005,0.02936785,0.35432586,0.7943672,-0.4933902,-0.02216348,0.5346069,0.8448101,0.9348593,-0.2884029,0.20703086,,0.047643367,-0.04765521,0.039136708,0.3583132,0.87059915,0.33714792,-0.29791963,-0.23562136,0.9250549,0.88479125,-0.43190232,0.17494228,,0.057388406,1.323289,0.4341468,0.9967923,0.07831132,-0.016503403,0.041269805,-0.67964804,-0.7323765,-0.068569876,0.7293462,-0.6806998,,-0.07926571,0.29072326,-0.05676969,-0.40371847,-0.763415,0.5041914,0.65210444,0.14641964,0.74385554,-0.641694,0.62909365,0.43871397,,0.0006282902,0.45245743,-0.33561057,-0.37414005,-0.84832156,-0.3746595,0.6158146,-0.5293367,0.58358806,-0.6933914,-0.012377128,0.7204549,,1.203178613605556,0.31299464065944516,0.19503720082,2.820120049923368,-0.8897768864725483,-0.8536233730065341,-0.41652736864241224,,-1.1417288281253515,-0.09729098874948038,0.16745863107000003,-1.2816249345774129,-0.9026207174504995,-1.3961968395508175,0.8328913932186901,,0.023856469213197493,0.03659955441432109,0.08941130016,-0.1167695939710949,,-3.733486e-05,-4.6491623e-06,1.4305115e-06,0.99999994,3.8936734e-05,4.172325e-05,-3.8944185e-05,1.0,3.963709e-06,-4.172325e-05,-3.9041042e-06,1.0,460,1.404,0,0,0.0,False,-0.2621419889274632,1.0068352898696857
1.354543804000059,14:39:42.430368,14:38:25.143529,0,,0.11818378,0.00503245,0.029636934,0.2877624,0.81437004,-0.5039783,-0.043426603,0.53679156,0.8425966,0.95671666,-0.22058158,0.18983361,,0.047634594,-0.04765907,0.039132893,0.3583674,0.8705486,0.33722073,-0.29789013,-0.2357018,0.92504394,0.8847792,-0.4319603,0.17485997,,0.057388406,1.323289,0.4341468,0.9967923,0.07831132,-0.016503403,0.041269805,-0.67964804,-0.7323765,-0.068569876,0.7293462,-0.6806998,,-0.07893748,0.29096848,-0.056928318,-0.33899662,-0.78690964,0.5156108,0.65446067,0.1964653,0.73012507,-0.6758421,0.5849569,0.44840032,,0.00063730526,0.4524526,-0.33561197,-0.3741949,-0.8482665,-0.3747294,0.61581594,-0.52942395,0.58350754,-0.6933606,-0.0124187935,0.7204838,,1.201255653119874,0.3127938496047153,0.19517590385000003,2.720936706655188,-0.9287182889056987,-0.781193257863054,-0.41652736864241224,,-1.1416670462623577,-0.09731415694810305,0.16745863107000003,-1.2816249345774129,-0.9026207174504995,-1.3961151608106768,0.832401361020287,,0.023856469213197493,0.03659955441432109,0.08941130016,-0.1167695939710949,,-3.733486e-05,-4.6491623e-06,1.4305115e-06,0.99999994,3.8936734e-05,4.172325e-05,-3.8944185e-05,1.0,3.963709e-06,-4.172325e-05,-3.9041042e-06,1.0,472,1.442,0,0,0.0,False,-0.26041423509035333,1.006545608665009
1.4475968570000077,14:39:42.469789,14:38:25.143529,0,,0.11801858,0.0050500035,0.029743567,0.254858,0.82390726,-0.5061859,-0.05628699,0.5352243,0.8428326,0.9653388,-0.18631098,0.18278128,,0.047634818,-0.04766147,0.039132535,0.3583655,0.8705478,0.3372249,-0.2978787,-0.23571216,0.92504495,0.88478374,-0.4319563,0.17484659,,0.057388406,1.323289,0.4341468,0.9967923,0.07831132,-0.016503403,0.041269805,-0.67964804,-0.7323765,-0.068569876,0.7293462,-0.6806998,,-0.07877774,0.2910608,-0.05699853,-0.30695003,-0.7982838,0.51819366,0.6524245,0.2199158,0.7252443,-0.6929097,0.560696,0.45331678,,0.0006371791,0.45245108,-0.33561388,-0.37419352,-0.8482654,-0.37473318,0.61582553,-0.5294254,0.5834961,-0.6933528,-0.012429809,0.72049105,,1.2000817977229918,0.3128092950704638,0.19526275528,2.6695626705014797,-0.9488038543712184,-0.7400661677570897,-0.41620068051014325,,-1.1416670462623577,-0.0973296024138515,0.16745863107000003,-1.2816249345774129,-0.9026207174504995,-1.3961151608106768,0.832401361020287,,0.023856469213197493,0.03659955441432109,0.08941130016,-0.1167695939710949,,-3.733486e-05,-4.6491623e-06,1.4305115e-06,0.99999994,3.8936734e-05,4.172325e-05,-3.8944185e-05,1.0,3.963709e-06,-4.172325e-05,-3.9041042e-06,1.0,480,1.467,0,0,0.0,False,-0.26136747858668974,1.007076690873583
1.489467513999898,14:39:42.494064,14:38:25.370593,0,,0.11794664,0.0050471276,0.02976115,0.24031876,0.8292742,-0.50453067,-0.06110412,0.5316559,0.8447535,0.96876884,-0.17218125,0.17843884,,0.047634818,-0.04766147,0.039132535,0.3583655,0.87057537,0.33715376,-0.2978787,-0.23563662,0.9250642,0.88478374,-0.43194205,0.17488179,,0.057388406,1.323289,0.4341468,0.9967923,0.07831132,-0.016503403,0.041269805,-0.67964804,-0.7323765,-0.068569876,0.7293462,-0.6806998,,-0.078706935,0.2910729,-0.05701675,-0.29274666,-0.8044838,0.5168223,0.65184987,0.22753337,0.7234088,-0.69956493,0.54866606,0.457793,,0.0006371791,0.45245108,-0.33561388,-0.37419352,-0.84829605,-0.3746639,0.61582553,-0.52937776,0.5835393,-0.6933528,-0.012370961,0.72049206,,1.1994562563601798,0.3128092950704638,0.19530682914000003,2.64733553649212,-0.9559089523590214,-0.7191618698388716,-0.41456723984880073,,-1.1416670462623577,-0.0973296024138515,0.16745863107000003,-1.2816249345774129,-0.9026207174504995,-1.3961968395508173,0.832401361020287,,0.023856469213197493,0.03659955441432109,0.08941130016,-0.1167695939710949,,-3.733486e-05,-4.6491623e-06,1.4305115e-06,0.99999994,3.8936734e-05,4.172325e-05,-3.8944185e-05,1.0,3.963709e-06,-4.172325e-05,-3.9041042e-06,1.0,488,1.491,0,0,0.0,False,-0.2630356547052788,1.006738729468127
1.5136971140000242,14:39:42.513618,14:38:25.370593,0,,0.117812485,0.0050436556,0.029796407,0.22076139,0.8315653,-0.50966996,-0.06599453,0.534101,0.842841,0.97309244,-0.15243134,0.17278749,,0.047635958,-0.047661424,0.039132893,0.35835835,0.8705505,0.33722547,-0.29788026,-0.23571353,0.9250441,0.8847862,-0.43195006,0.17484987,,0.057388406,1.323289,0.4341468,0.9967923,0.07831132,-0.016503403,0.041269805,-0.67964804,-0.7323765,-0.068569876,0.7293462,-0.6806998,,-0.07857497,0.29109856,-0.0570511,-0.2735831,-0.8077495,0.52220017,0.65196776,0.24342856,0.718109,-0.7071706,0.5369202,0.4600287,,0.0006360286,0.4524514,-0.33561406,-0.3741864,-0.8482683,-0.37473384,0.61582714,-0.52942073,0.5834986,-0.6933552,-0.0124340225,0.72048867,,1.1987689331343738,0.3128092950704638,0.19534831042000003,2.615043285195503,-0.9639705058451824,-0.6972326103743572,-0.4145672398488005,,-1.141674768995232,-0.0973296024138515,0.16745863107000003,-1.2816249345774129,-0.9026207174504995,-1.3961151608106768,0.832401361020287,,0.023856469213197493,0.03659955441432109,0.08941130016,-0.1167695939710949,,-3.733486e-05,-4.6491623e-06,1.4305115e-06,0.99999994,3.8936734e-05,4.172325e-05,-3.8944185e-05,1.0,3.963709e-06,-4.172325e-05,-3.9041042e-06,1.0,496,1.516,0,0,0.0,False,-0.2623802998015474,1.0068352898696857
1.5333028459999696,14:39:42.544889,14:38:25.370593,0,,0.11758119,0.0050141364,0.029849932,0.18546113,0.8396405,-0.5104978,-0.07875922,0.53054047,0.8439928,0.9794902,-0.116321474,0.16452399,,0.047635958,-0.047661424,0.039132893,0.35835835,0.8705505,0.33722547,-0.29788026,-0.23571353,0.9250441,0.8847862,-0.43195006,0.17484987,,0.057388406,1.323289,0.4341468,0.9967923,0.07831132,-0.016503403,0.041269805,-0.67964804,-0.7323765,-0.068569876,0.7293462,-0.6806998,,-0.0783477,0.2911213,-0.05712229,-0.23902479,-0.81781477,0.5234942,0.64844024,0.26685482,0.71296126,-0.72276723,0.5098701,0.46651906,,0.0006360286,0.4524514,-0.33561406,-0.3741864,-0.8482683,-0.37473384,0.61582714,-0.52942073,0.5834986,-0.6933552,-0.0124340225,0.72048867,,1.1973556730183907,0.312817017803338,0.19543645814000002,2.5563301010198365,-0.9813233413153933,-0.64796067834447,-0.41456723984880073,,-1.141674768995232,-0.0973296024138515,0.16745863107000003,-1.2816249345774129,-0.9026207174504995,-1.3961151608106768,0.832401361020287,,0.023856469213197493,0.03659955441432109,0.08941130016,-0.1167695939710949,,-3.733486e-05,-4.6491623e-06,1.4305115e-06,0.99999994,3.8936734e-05,4.172325e-05,-3.8944185e-05,1.0,3.963709e-06,-4.172325e-05,-3.9041042e-06,1.0,504,1.54,0,0,0.0,False,-0.2622015666459845,1.006545608665009
1.5645688059998974,14:39:42.574080,14:38:25.370593,0,,0.11746828,0.004991561,0.029874697,0.16869947,0.845255,-0.5070349,-0.08586198,0.5250543,0.84672654,0.98192054,-0.09930731,0.16115162,,0.047635958,-0.047661424,0.039132893,0.35835835,0.8705505,0.33722547,-0.29788026,-0.23571353,0.9250441,0.8847862,-0.43195006,0.17484987,,0.057388406,1.323289,0.4341468,0.9967923,0.07831132,-0.016503403,0.041269805,-0.67964804,-0.7323765,-0.068569876,0.7293462,-0.6806998,,-0.078236915,0.29112577,-0.057161976,-0.22261117,-0.82446575,0.5202888,0.6456059,0.27522078,0.7123528,-0.73050475,0.49447924,0.47101277,,0.0006360286,0.4524514,-0.33561406,-0.3741864,-0.8482683,-0.37473384,0.61582714,-0.52942073,0.5834986,-0.6933552,-0.0124340225,0.72048867,,1.1966529043268361,0.3128401860019607,0.19547793942000002,2.527812268705941,-0.9900680773003815,-0.6195934600713527,-0.416527368642412,,-1.141674768995232,-0.0973296024138515,0.16745863107000003,-1.2816249345774129,-0.9026207174504995,-1.3961151608106768,0.832401361020287,,0.023856469213197493,0.03659955441432109,0.08941130016,-0.1167695939710949,,-3.733486e-05,-4.6491623e-06,1.4305115e-06,0.99999994,3.8936734e-05,4.172325e-05,-3.8944185e-05,1.0,3.963709e-06,-4.172325e-05,-3.9041042e-06,1.0,533,1.63,0,0,0.0,False,-0.2620824112089424,1.007076690873583
1.5937535859998206,14:39:42.657490,14:38:25.544999,0,,0.1167029,0.004826769,0.029922366,0.08836578,0.8569365,-0.50779045,-0.10330644,0.51491994,0.8509907,0.9907166,-0.022740453,0.13402826,,0.047489695,-0.0476886,0.03911841,0.35827252,0.87041825,0.33765757,-0.29818735,-0.2360408,0.92486167,0.88471746,-0.43203774,0.17498073,,0.057414375,1.3232894,0.43414345,0.9967931,0.07829852,-0.016517198,0.04125103,-0.6796495,-0.7323762,-0.068569876,0.7293462,-0.6806998,,-0.07750297,0.2910627,-0.057357233,-0.1433527,-0.8404357,0.5226068,0.64145434,0.32322252,0.6957467,-0.7536487,0.43496555,0.49276632,,0.00075859966,0.45243222,-0.33563048,-0.37408945,-0.84812903,-0.37514564,0.61562693,-0.52963835,0.58351237,-0.6935853,-0.012663952,0.7202632,,1.1939962842181029,0.3131799862484265,0.19555053166000003,2.3827068278146504,-1.0096070967668394,-0.49470126049525454,-0.4158739923778749,,-1.1416670462623577,-0.0973296024138515,0.16745863107000003,-1.281205554690444,-0.9026207174504995,-1.3961968395508173,0.8325647050864209,,0.023856469213197493,0.03659955441432109,0.08941130016,-0.1167695939710949,,-1.1213124e-05,-5.364418e-06,2.861023e-06,0.99999994,2.611801e-05,2.798438e-05,-2.6121736e-05,1.0,2.6524067e-06,-2.798438e-05,-2.6524067e-06,1.0,541,1.654,0,0,0.0,False,-0.2626781883941529,1.006642169066568
1.6771570440000687,14:39:42.681243,14:38:25.544999,0,,0.11655232,0.0047934055,0.029921979,0.07174632,0.8617888,-0.5021677,-0.1052461,0.5071956,0.85538054,0.9918547,-0.008519262,0.12708923,,0.04749301,-0.047687333,0.03912121,0.35827467,0.8705176,0.33739904,-0.29806834,-0.23582375,0.9249554,0.8847568,-0.43195602,0.17498401,,0.057414375,1.3232894,0.43414345,0.9967931,0.07829852,-0.016517198,0.04125103,-0.6796495,-0.7323762,-0.068569876,0.7293462,-0.6806998,,-0.07735353,0.2910423,-0.057389453,-0.12687458,-0.8462382,0.5174783,0.64125896,0.32803932,0.6936694,-0.75676274,0.4198466,0.50103796,,0.0007551581,0.45243517,-0.33563077,-0.37409693,-0.8482384,-0.3748908,0.6157185,-0.5294667,0.58357155,-0.6935,-0.0125148455,0.72034794,,1.1935251975127752,0.3133807773031564,0.19555182795,2.3520920960659097,-1.010700188764963,-0.4617101723904421,-0.4170174008408152,,-1.1416902144609804,-0.0973296024138515,0.16745733478000002,-1.2814152446339282,-0.9026207174504995,-1.3962785182909578,0.8324013610202867,,0.023856469213197493,0.03659955441432109,0.08941130016,-0.1167695939710949,,-1.1213124e-05,-5.364418e-06,2.861023e-06,0.99999994,2.611801e-05,2.798438e-05,-2.6121736e-05,1.0,2.6524067e-06,-2.798438e-05,-2.6524067e-06,1.0,549,1.68,0,0,0.0,False,-0.26285692154971585,1.006738729468127
1.7009234419997483,14:39:42.700151,14:38:25.544999,0,,0.11635232,0.0047562122,0.029920846,0.05083091,0.8628935,-0.5028228,-0.10697588,0.5052814,0.8562983,0.9929614,0.010263473,0.11799267,,0.047499403,-0.04768608,0.039123297,0.3581148,0.87051463,0.33757636,-0.298072,-0.23604397,0.9248981,0.8848203,-0.4318417,0.1749452,,0.057414375,1.3232894,0.43414345,0.9967931,0.07829852,-0.016517198,0.04125103,-0.6796495,-0.7323762,-0.068569876,0.7293462,-0.6806998,,-0.07715482,0.29101968,-0.057426687,-0.106100775,-0.84838516,0.51863784,0.64127046,0.34024242,0.6877553,-0.75994396,0.4055585,0.50794435,,0.0007486608,0.45243734,-0.3356308,-0.373939,-0.84823114,-0.37506473,0.6157792,-0.5294724,0.5835023,-0.6935312,-0.012762816,0.7203135,,1.1930541108074475,0.3136742411523769,0.19554793908,2.313509146464757,-1.010700188764963,-0.4292837125546388,-0.4155473042456064,,-1.1417288281253515,-0.09732187968097727,0.16745863107000003,-1.2814152446339282,-0.902757353950265,-1.3960854216471208,0.8322380169541528,,0.023856469213197493,0.03659955441432109,0.08941130016,-0.1167695939710949,,-1.1213124e-05,-5.364418e-06,2.861023e-06,0.99999994,2.611801e-05,2.798438e-05,-2.6121736e-05,1.0,2.6524067e-06,-2.798438e-05,-2.6524067e-06,1.0,557,1.704,0,0,0.0,False,-0.2632143878608417,1.00644904826345
1.719834623999759,14:39:42.726130,14:38:25.544999,0,,0.116115496,0.0047085136,0.029943138,0.023363803,0.86337817,-0.5040159,-0.1116834,0.5032519,0.8568922,0.9934691,0.036269903,0.10818282,,0.047505356,-0.047684472,0.03912437,0.35808003,0.87052864,0.33757707,-0.29808545,-0.23604545,0.9248933,0.88482976,-0.4318126,0.17496872,,0.057414375,1.3232894,0.43414345,0.9967931,0.07829852,-0.016517198,0.04125103,-0.6796495,-0.7323762,-0.068569876,0.7293462,-0.6806998,,-0.076920874,0.29100737,-0.057489697,-0.078834884,-0.85029817,0.5203634,0.63891715,0.35758904,0.681113,-0.7652254,0.38616458,0.5150796,,0.00074262865,0.45243877,-0.33562997,-0.3739041,-0.848246,-0.37506598,0.6157826,-0.5294483,0.5835206,-0.693547,-0.012778374,0.720298,,1.1924362921775096,0.31426116885081795,0.19553367989,2.2625544901980175,-1.0120665537626174,-0.38733016344739357,-0.4168540567746808,,-1.1417674417897226,-0.09731415694810305,0.16745992736,-1.2814152446339282,-0.902757353950265,-1.3960854216471208,0.8322380169541528,,0.023856469213197493,0.03659955441432109,0.08941130016,-0.1167695939710949,,-1.1213124e-05,-5.364418e-06,2.861023e-06,0.99999994,2.611801e-05,2.798438e-05,-2.6121736e-05,1.0,2.6524067e-06,-2.798438e-05,-2.6524067e-06,1.0,565,1.729,0,0,0.0,False,-0.2631548101423209,1.0070284106728038
1.7458070539996697,14:39:42.754987,14:38:25.544999,0,,0.11595775,0.0046761483,0.029990286,0.005544953,0.8640503,-0.50337476,-0.11809543,0.5004257,0.85768723,0.9929868,0.05469036,0.104815096,,0.047508,-0.047684144,0.039123952,0.35806572,0.8705342,0.3375782,-0.29808855,-0.23604813,0.9248917,0.8848345,-0.4318002,0.17497551,,0.057414375,1.3232894,0.43414345,0.9967931,0.07829852,-0.016517198,0.04125103,-0.6796495,-0.7323762,-0.068569876,0.7293462,-0.6806998,,-0.07676676,0.2910221,-0.057554424,-0.061193608,-0.85201865,0.5199227,0.63448036,0.36890793,0.67922133,-0.7705129,0.3714447,0.51801425,,0.0007399851,0.45243844,-0.33562955,-0.37388986,-0.8482517,-0.37506726,0.6157859,-0.5294389,0.58352566,-0.6935518,-0.012786801,0.7202933,,1.1920964919310437,0.31472453282327145,0.19551942070000003,2.2283750294100404,-1.015619102756519,-0.3577243499253228,-0.4160373364440093,,-1.1417828872554712,-0.09731415694810305,0.16746122365000002,-1.2814152446339282,-0.902757353950265,-1.3960854216471208,0.8322380169541528,,0.023856469213197493,0.03659955441432109,0.08941130016,-0.1167695939710949,,-1.1213124e-05,-5.364418e-06,2.861023e-06,0.99999994,2.611801e-05,2.798438e-05,-2.6121736e-05,1.0,2.6524067e-06,-2.798438e-05,-2.6524067e-06,1.0,573,1.753,0,0,0.0,False,-0.2632143878608417,1.0059662462556558
1.7746606939999765,14:39:42.783104,14:38:25.544999,0,,0.11576083,0.0046331733,0.030026585,-0.020795349,0.864597,-0.5020352,-0.12228948,0.49617362,0.8595679,0.9922766,0.079268605,0.09541297,,0.047511898,-0.04768498,0.039123774,0.35804334,0.8705694,0.33751082,-0.2980875,-0.2359818,0.92490894,0.88484395,-0.43176526,0.17501417,,0.057414375,1.3232894,0.43414345,0.9967931,0.07829852,-0.016517198,0.04125103,-0.6796495,-0.7323762,-0.068569876,0.7293462,-0.6806998,,-0.07657326,0.2910224,-0.0576215,-0.034974393,-0.8539777,0.5191328,0.6315817,0.38368443,0.67371416,-0.77452004,0.35143754,0.52593756,,0.000736128,0.45243773,-0.33563027,-0.3738678,-0.8482904,-0.37500176,0.6157956,-0.52937794,0.5835707,-0.69355506,-0.012746117,0.72029084,,1.191617682492842,0.3155894789051846,0.19547664313000002,2.179517272578146,-1.0146626472581608,-0.3151328642365592,-0.41652736864241213,,-1.1418060554540939,-0.09732187968097727,0.16746251994000003,-1.2814152446339282,-0.902757353950265,-1.3961671003872613,0.8324013610202867,,0.023856469213197493,0.03659955441432109,0.08941130016,-0.1167695939710949,,-1.1213124e-05,-5.364418e-06,2.861023e-06,0.99999994,2.611801e-05,2.798438e-05,-2.6121736e-05,1.0,2.6524067e-06,-2.798438e-05,-2.6524067e-06,1.0,581,1.778,0,0,0.0,False,-0.2632143878608417,1.006642169066568
1.8027867189998688,14:39:42.800057,14:38:25.544999,0,,0.11558795,0.00458543,0.03005758,-0.041881543,0.86249036,-0.50433743,-0.12621212,0.4961695,0.85900307,0.9911188,0.09962982,0.08807635,,0.047512926,-0.04768377,0.03912437,0.3580371,0.870545,0.3375804,-0.2980948,-0.23605348,0.9248884,0.884844,-0.4317753,0.17498896,,0.057414375,1.3232894,0.43414345,0.9967931,0.07829852,-0.016517198,0.04125103,-0.6796495,-0.7323762,-0.068569876,0.7293462,-0.6806998,,-0.076403596,0.2910151,-0.057687003,-0.013969125,-0.8529512,0.52180374,0.62844497,0.39841148,0.66807574,-0.7777286,0.33725736,0.53046745,,0.0007350404,0.4524388,-0.3356295,-0.37386137,-0.84826314,-0.37506977,0.61579245,-0.5294202,0.58353573,-0.6935614,-0.012803655,0.7202838,,1.1913242186436213,0.31623818846661944,0.19543256927000002,2.140095563203056,-1.0137061917598027,-0.28487486830902053,-0.41652736864241213,,-1.141813778186968,-0.09731415694810305,0.16746251994000003,-1.2814152446339282,-0.902757353950265,-1.3960854216471208,0.8322380169541528,,0.023856469213197493,0.03659955441432109,0.08941130016,-0.1167695939710949,,-1.1213124e-05,-5.364418e-06,2.861023e-06,0.99999994,2.611801e-05,2.798438e-05,-2.6121736e-05,1.0,2.6524067e-06,-2.798438e-05,-2.6524067e-06,1.0,610,1.867,0,0,0.0,False,-0.26202283349042155,1.006738729468127
1.8197409069998685,14:39:42.887734,14:38:25.740776,0,,0.115032434,0.004380867,0.0302656,-0.12327406,0.8613191,-0.49288204,-0.13780388,0.47700083,0.8680324,0.98275816,0.17492692,0.059891254,,0.047509514,-0.04768389,0.039123178,0.35805857,0.87053686,0.33757874,-0.29809013,-0.23604947,0.9248909,0.8848368,-0.43179402,0.1749788,,0.057414375,1.3232894,0.43414345,0.9967931,0.07829852,-0.016517198,0.04125103,-0.6796495,-0.7323762,-0.068569876,0.7293462,-0.6806998,,-0.07586554,0.29103446,-0.05800923,0.06741183,-0.8562761,0.5121004,0.61598706,0.43948442,0.65376866,-0.78486663,0.27137548,0.55708146,,0.00073849194,0.45243782,-0.33562896,-0.37388274,-0.84825456,-0.3750679,0.6157875,-0.52943426,0.58352816,-0.69355416,-0.012791014,0.7202909,,1.1908222410067968,0.31952034993816486,0.19509683016,1.992264153046466,-0.9999059052834932,-0.15098495535258005,-0.41636402457627775,,-1.1417906099883453,-0.09731415694810305,0.16746251994000003,-1.2814152446339282,-0.902757353950265,-1.3960854216471208,0.8322380169541528,,0.023856469213197493,0.03659955441432109,0.08941130016,-0.1167695939710949,,-1.1213124e-05,-5.364418e-06,2.861023e-06,0.99999994,2.611801e-05,2.798438e-05,-2.6121736e-05,1.0,2.6524067e-06,-2.798438e-05,-2.6524067e-06,1.0,618,1.892,0,0,0.0,False,-0.2616653671792948,1.0068352898696857
1.90737561800006,14:39:42.924573,14:38:25.740776,0,,0.11488514,0.0043259114,0.030357867,-0.14755735,0.8593334,-0.48966604,-0.14153919,0.47164303,0.87035596,0.9788736,0.19773427,0.052034795,,0.04751087,-0.047686215,0.039123178,0.3580495,0.8705388,0.33758348,-0.2980803,-0.23606119,0.924891,0.88484395,-0.4317837,0.17496881,,0.057414375,1.3232894,0.43414345,0.9967931,0.07829852,-0.016517198,0.04125103,-0.6796495,-0.7323762,-0.068569876,0.7293462,-0.6806998,,-0.07572484,0.29106587,-0.058120813,0.091757745,-0.8556431,0.50936764,0.6110757,0.4522677,0.64964634,-0.786236,0.25165212,0.5643618,,0.0007372156,0.45243666,-0.33563104,-0.37387425,-0.84825635,-0.3750723,0.6157988,-0.529431,0.5835192,-0.6935488,-0.012806244,0.7202958,,1.19093808199991,0.320694205335047,0.19496331229000002,1.949068024688654,-0.9940305357935793,-0.11289458663773094,-0.4168540567746807,,-1.1417983327212196,-0.0973296024138515,0.16746251994000003,-1.2814152446339282,-0.902757353950265,-1.3960854216471208,0.8322380169541528,,0.023856469213197493,0.03659955441432109,0.08941130016,-0.1167695939710949,,-1.1213124e-05,-5.364418e-06,2.861023e-06,0.99999994,2.611801e-05,2.798438e-05,-2.6121736e-05,1.0,2.6524067e-06,-2.798438e-05,-2.6524067e-06,1.0,626,1.917,0,0,0.0,False,-0.26309523242380006,1.0063042076611117
1.9442465739998624,14:39:42.946781,14:38:25.740776,0,,0.11479662,0.0042899996,0.030399144,-0.16335148,0.857902,-0.4871554,-0.14263886,0.4680624,0.8721076,0.9762021,0.2119473,0.04591143,,0.047511205,-0.047689836,0.03912258,0.35804662,0.87053746,0.33758968,-0.2980632,-0.23607676,0.92489254,0.8848508,-0.4317777,0.17494869,,0.057414375,1.3232894,0.43414345,0.9967931,0.07829852,-0.016517198,0.04125103,-0.6796495,-0.7323762,-0.068569876,0.7293462,-0.6806998,,-0.075639635,0.29107252,-0.058180157,0.10763589,-0.85506153,0.507232,0.60869724,0.46007037,0.6463922,-0.78606755,0.23917572,0.5699937,,0.0007370269,0.4524344,-0.33563393,-0.37387216,-0.84825474,-0.37507796,0.61581314,-0.52943313,0.5835021,-0.6935371,-0.012822769,0.72030675,,1.191038477527275,0.3214201422252241,0.19487775715000002,1.9222277119226348,-0.9885650758029616,-0.08909045869695326,-0.41652736864241213,,-1.1417983327212196,-0.09735277061247417,0.16746251994000003,-1.2814152446339282,-0.902757353950265,-1.3960854216471208,0.8322380169541528,,0.023856469213197493,0.03659955441432109,0.08941130016,-0.1167695939710949,,-1.1213124e-05,-5.364418e-06,2.861023e-06,0.99999994,2.611801e-05,2.798438e-05,-2.6121736e-05,1.0,2.6524067e-06,-2.798438e-05,-2.6524067e-06,1.0,634,1.942,0,0,0.0,False,-0.26178452261633733,1.0064973284642296
1.9664634969999497,14:39:42.964875,14:38:25.740776,0,,0.11471255,0.0042562634,0.03044787,-0.18122843,0.85742736,-0.48163727,-0.14347431,0.46145546,0.87548494,0.9729189,0.22776535,0.039389938,,0.047512457,-0.047690984,0.03912282,0.35803849,0.87053984,0.33759233,-0.29805914,-0.23608327,0.9248922,0.8848554,-0.4317695,0.17494535,,0.057414375,1.3232894,0.43414345,0.9967931,0.07829852,-0.016517198,0.04125103,-0.6796495,-0.7323762,-0.068569876,0.7293462,-0.6806998,,-0.075559184,0.29108596,-0.058242828,0.12563261,-0.85560095,0.5021588,0.6061014,0.46691722,0.64391726,-0.7854028,0.22346215,0.57724094,,0.0007358135,0.45243397,-0.33563507,-0.37386432,-0.84825706,-0.3750805,0.6158196,-0.5294292,0.5834989,-0.6935356,-0.01283249,0.720308,,1.1911852094518853,0.3223082565057599,0.19477664653,1.892661429891317,-0.9815966143149242,-0.06005930722573177,-0.41636402457627786,,-1.1418060554540939,-0.0973604933453484,0.16746251994000003,-1.2814152446339282,-0.902757353950265,-1.3960854216471208,0.8322380169541528,,0.023856469213197493,0.03659955441432109,0.08941130016,-0.1167695939710949,,-1.1213124e-05,-5.364418e-06,2.861023e-06,0.99999994,2.611801e-05,2.798438e-05,-2.6121736e-05,1.0,2.6524067e-06,-2.798438e-05,-2.6524067e-06,1.0,642,1.966,0,0,0.0,False,-0.26232072208302704,1.0061110868579939
1.9845556360000955,14:39:42.995659,14:38:25.885521,0,,0.11458032,0.0042013973,0.030496359,-0.20561641,0.85284346,-0.47997895,-0.14597046,0.45824507,0.87675774,0.9676852,0.2503385,0.030267179,,0.04751176,-0.047695782,0.039121628,0.35804176,0.87061816,0.3373868,-0.29803476,-0.23587604,0.92495286,0.8848623,-0.43172473,0.17502102,,0.057414375,1.3232894,0.43414345,0.9967931,0.07829852,-0.016517198,0.04125103,-0.6796495,-0.7323762,-0.068569876,0.7293462,-0.6806998,,-0.07543123,0.29108554,-0.058323264,0.15018755,-0.85230446,0.5010198,0.60107654,0.48106906,0.6381846,-0.7849527,0.20530383,0.5845508,,0.00073671254,0.45243067,-0.3356387,-0.37386867,-0.84834397,-0.37487957,0.61583716,-0.5292937,0.58360326,-0.6935177,-0.012673804,0.7203281,,1.1914246141709863,0.3234048845738998,0.19465349898,1.8517718909118346,-0.9727152418301706,-0.026952173336561358,-0.4160373364440094,,-1.1417983327212196,-0.0973913842768453,0.16746251994000003,-1.2814152446339282,-0.902757353950265,-1.3963304578675424,0.8320746728880182,,0.023856469213197493,0.03659955441432109,0.08941130016,-0.1167695939710949,,-1.1213124e-05,-5.364418e-06,2.861023e-06,0.99999994,2.611801e-05,2.798438e-05,-2.6121736e-05,1.0,2.6524067e-06,-2.798438e-05,-2.6524067e-06,1.0,650,1.991,0,0,0.0,False,-0.2618441003348577,1.0063524878618912
2.015340776999892,14:39:43.019471,14:38:25.885521,0,,0.11448254,0.0041734874,0.030579507,-0.22570932,0.8502157,-0.47559273,-0.14896125,0.4523295,0.8793228,0.96273875,0.26931623,0.024554133,,0.04751209,-0.047699403,0.03912109,0.35803887,0.8705894,0.33746415,-0.29801774,-0.23596717,0.9249352,0.8848692,-0.431733,0.17496562,,0.057414375,1.3232894,0.43414345,0.9967931,0.07829852,-0.016517198,0.04125103,-0.6796495,-0.7323762,-0.068569876,0.7293462,-0.6806998,,-0.07533876,0.29112813,-0.058406267,0.17042655,-0.850843,0.49701205,0.5958322,0.49071616,0.6357528,-0.78481764,0.18778665,0.5905908,,0.0007365239,0.45242843,-0.3356416,-0.3738666,-0.8483118,-0.37495455,0.6158515,-0.52934355,0.5835429,-0.69350606,-0.012749162,0.720338,,1.1918030280818233,0.3245015126420397,0.19453035143000003,1.818011810010826,-0.9654735073426023,0.00365307461035963,-0.4162006805101435,,-1.1417983327212196,-0.09741455247546797,0.16746251994000003,-1.2814152446339282,-0.902757353950265,-1.3962487791274019,0.8315846406896157,,0.023856469213197493,0.03659955441432109,0.08941130016,-0.1167695939710949,,-1.1213124e-05,-5.364418e-06,2.861023e-06,0.99999994,2.611801e-05,2.798438e-05,-2.6121736e-05,1.0,2.6524067e-06,-2.798438e-05,-2.6524067e-06,1.0,679,2.08,0,0,0.0,False,-0.26243987752006825,1.0057731254525375
2.0391460239998196,14:39:43.100339,14:38:25.885521,0,,0.114221826,0.004138723,0.030947208,-0.26660243,0.835864,-0.47984824,-0.15673152,0.45364177,0.87729377,0.95097756,0.30909598,0.010064155,,0.04751209,-0.047699403,0.03912109,0.35803887,0.8705894,0.33746415,-0.29801774,-0.23596717,0.9249352,0.8848692,-0.431733,0.17496562,,0.057414375,1.3232894,0.43414345,0.9967931,0.07829852,-0.016517198,0.04125103,-0.6796495,-0.7323762,-0.068569876,0.7293462,-0.6806998,,-0.07509887,0.29137444,-0.058699816,0.2116614,-0.8385844,0.5019717,0.5827716,0.5206034,0.6239787,-0.78458697,0.16046265,0.59889483,,0.0007365239,0.45242843,-0.3356416,-0.3738666,-0.8483118,-0.37495455,0.6158515,-0.52934355,0.5835429,-0.69350606,-0.012749162,0.720338,,1.1936410385058887,0.3270036780932884,0.19414405701,1.7490238186044176,-0.9496236733698111,0.04970064816306058,-0.41718074490694923,,-1.1417983327212196,-0.09741455247546797,0.16746251994000003,-1.2814152446339282,-0.902757353950265,-1.3962487791274019,0.8315846406896157,,0.023856469213197493,0.03659955441432109,0.08941130016,-0.1167695939710949,,-1.1213124e-05,-5.364418e-06,2.861023e-06,0.99999994,2.611801e-05,2.798438e-05,-2.6121736e-05,1.0,2.6524067e-06,-2.798438e-05,-2.6524067e-06,1.0,687,2.105,0,0,0.0,False,-0.26160578946077395,1.0059179660548763
2.120022011999936,14:39:43.127797,14:38:25.885521,0,,0.11412425,0.0041237324,0.031053811,-0.27392122,0.8306765,-0.48470974,-0.16243348,0.4567878,0.8746201,0.94793594,0.31831002,0.009805709,,0.047513228,-0.047699343,0.03912145,0.35803172,0.8705921,0.3374647,-0.29801926,-0.23596853,0.92493427,0.8848716,-0.43172684,0.17496893,,0.057414375,1.3232894,0.43414345,0.9967931,0.07829852,-0.016517198,0.04125103,-0.6796495,-0.7323762,-0.068569876,0.7293462,-0.6806998,,-0.07500751,0.2914429,-0.05878972,0.2189754,-0.83380884,0.50676674,0.5767739,0.52953005,0.6220368,-0.78700805,0.15607908,0.5968732,,0.0007353734,0.45242876,-0.33564177,-0.37385947,-0.84831464,-0.37495518,0.6158532,-0.5293389,0.5835454,-0.69350845,-0.012753375,0.7203356,,1.194166184341336,0.32745931933286765,0.1940675759,1.732668003012625,-0.9500335828691073,0.0573043097466599,-0.41571064831174076,,-1.1418060554540939,-0.09741455247546797,0.16746251994000003,-1.2814152446339282,-0.902757353950265,-1.3962487791274019,0.8315846406896157,,0.023856469213197493,0.03659955441432109,0.08941130016,-0.1167695939710949,,-1.1213124e-05,-5.364418e-06,2.861023e-06,0.99999994,2.611801e-05,2.798438e-05,-2.6121736e-05,1.0,2.6524067e-06,-2.798438e-05,-2.6524067e-06,1.0,695,2.13,0,0,0.0,False,-0.26148663402373185,1.0057248452517584
2.1474700489998213,14:39:43.159262,14:38:25.885521,0,,0.114010975,0.004090175,0.031198293,-0.28288296,0.8277988,-0.48448566,-0.16695407,0.4549103,0.87474734,0.94451237,0.32833797,0.009517908,,0.04751198,-0.04769818,0.03912127,0.35803983,0.87058985,0.33746204,-0.2980234,-0.23596197,0.9249346,0.88486695,-0.431735,0.17497233,,0.057414375,1.3232894,0.43414345,0.9967931,0.07829852,-0.016517198,0.04125103,-0.6796495,-0.7323762,-0.068569876,0.7293462,-0.6806998,,-0.07490297,0.2915261,-0.058919996,0.22798128,-0.83151656,0.5065617,0.5713507,0.535521,0.6219129,-0.7884053,0.14763987,0.5971763,,0.00073658675,0.45242918,-0.3356406,-0.37386727,-0.8483123,-0.37495264,0.61584675,-0.52934283,0.5835486,-0.69350994,-0.012743654,0.72033435,,1.1948766757657645,0.3279458515039438,0.19393665061,1.7148443578164403,-0.9482573083721567,0.0715381951055944,-0.4157106483117406,,-1.1417983327212196,-0.09740682974259374,0.16746251994000003,-1.2814152446339282,-0.902757353950265,-1.3962487791274019,0.8315846406896157,,0.023856469213197493,0.03659955441432109,0.08941130016,-0.1167695939710949,,-1.1213124e-05,-5.364418e-06,2.861023e-06,0.99999994,2.611801e-05,2.798438e-05,-2.6121736e-05,1.0,2.6524067e-06,-2.798438e-05,-2.6524067e-06,1.0,703,2.155,0,0,0.0,False,-0.26249945523859,1.0060628066572144
2.1789379739998367,14:39:43.184576,14:38:25.885521,0,,0.11391123,0.00403063,0.03129518,-0.2922959,0.823697,-0.4858872,-0.1694085,0.45544297,0.8739979,0.94120336,0.33777946,0.006417066,,0.047511213,-0.047698002,0.0391196,0.35804698,0.8705871,0.33746147,-0.29802185,-0.23596066,0.92493546,0.88486457,-0.43174127,0.17496893,,0.057414375,1.3232894,0.43414345,0.9967931,0.07829852,-0.016517198,0.04125103,-0.6796495,-0.7323762,-0.068569876,0.7293462,-0.6806998,,-0.07481011,0.29155675,-0.059035428,0.23748688,-0.82790685,0.50810456,0.56744933,0.5427813,0.61918473,-0.7884169,0.14127535,0.5986986,,0.0007373946,0.45242786,-0.33563966,-0.3738744,-0.84830946,-0.37495202,0.61584514,-0.52934754,0.58354604,-0.69350755,-0.01273944,0.72033674,,1.195401821601212,0.3282547608189128,0.19380961419,1.698278852281163,-0.9445681228784898,0.08217026130926491,-0.41718074490694934,,-1.1417906099883453,-0.09740682974259374,0.16746381623,-1.2814152446339282,-0.902757353950265,-1.3962487791274019,0.8315846406896157,,0.023856469213197493,0.03659955441432109,0.08941130016,-0.1167695939710949,,-1.1213124e-05,-5.364418e-06,2.861023e-06,0.99999994,2.611801e-05,2.798438e-05,-2.6121736e-05,1.0,2.6524067e-06,-2.798438e-05,-2.6524067e-06,1.0,711,2.179,0,0,0.0,False,-0.2617249448978165,1.0064007680626708
2.2042492259997744,14:39:43.210710,14:38:25.885521,0,,0.113801315,0.003945157,0.03133765,-0.3003847,0.8172797,-0.49175498,-0.17522529,0.45950615,0.8707182,0.9375847,0.34771836,0.0051793456,,0.047511213,-0.047698002,0.0391196,0.35804698,0.8705871,0.33746147,-0.29802185,-0.23596066,0.92493546,0.88486457,-0.43174127,0.17496893,,0.057414375,1.3232894,0.43414345,0.9967931,0.07829852,-0.016517198,0.04125103,-0.6796495,-0.7323762,-0.068569876,0.7293462,-0.6806998,,-0.07470493,0.29153037,-0.05913253,0.24559698,-0.8219174,0.5139396,0.56097096,0.5528899,0.6161366,-0.79056543,0.13698392,0.5968599,,0.0007373946,0.45242786,-0.33563966,-0.3738744,-0.84830946,-0.37495202,0.61584514,-0.52934754,0.58354604,-0.69350755,-0.01273944,0.72033674,,1.1956335035874386,0.32837060181202615,0.19373442937000002,1.6802455171414936,-0.9445681228784898,0.0899297416226183,-0.41473058391493506,,-1.1417906099883453,-0.09740682974259374,0.16746381623,-1.2814152446339282,-0.902757353950265,-1.3962487791274019,0.8315846406896157,,0.023856469213197493,0.03659955441432109,0.08941130016,-0.1167695939710949,,-1.1213124e-05,-5.364418e-06,2.861023e-06,0.99999994,2.611801e-05,2.798438e-05,-2.6121736e-05,1.0,2.6524067e-06,-2.798438e-05,-2.6524067e-06,1.0,723,2.216,0,0,0.0,False,-0.26178452261633733,1.0061110868579939
2.230374940999809,14:39:43.239644,14:38:25.885521,0,,0.11373502,0.003858909,0.031354368,-0.30909857,0.8156313,-0.48908454,-0.17603287,0.456314,0.8722327,0.9345964,0.3557008,0.0025318563,,0.047513973,-0.04769885,0.039119065,0.35803172,0.8705921,0.3374647,-0.29801926,-0.23596853,0.92493427,0.8848716,-0.43172684,0.17496893,,0.057414375,1.3232894,0.43414345,0.9967931,0.07829852,-0.016517198,0.04125103,-0.6796495,-0.7323762,-0.068569876,0.7293462,-0.6806998,,-0.07464194,0.29148403,-0.05920999,0.25443184,-0.82077944,0.5114544,0.5584272,0.55647105,0.6152227,-0.7895717,0.12907779,0.5999295,,0.0007346881,0.45242682,-0.33564016,-0.37385947,-0.84831464,-0.37495518,0.6158532,-0.5293389,0.5835454,-0.69350845,-0.012753375,0.7203356,,1.1957802355120488,0.3284401064078942,0.19364109649000003,1.6664059808715153,-0.9400591183862304,0.10299709252945177,-0.4148939279810692,,-1.1418060554540939,-0.09741455247546797,0.16746511252000001,-1.2814152446339282,-0.902757353950265,-1.3962487791274019,0.8315846406896157,,0.023856469213197493,0.03659955441432109,0.08941130016,-0.1167695939710949,,-1.1213124e-05,-5.364418e-06,2.861023e-06,0.99999994,2.611801e-05,2.798438e-05,-2.6121736e-05,1.0,2.6524067e-06,-2.798438e-05,-2.6524067e-06,1.0,748,2.293,0,0,0.0,False,-0.26136747858668974,1.006545608665009
2.2592940320000707,14:39:43.315315,14:38:25.885521,0,,0.11353451,0.003603235,0.031261444,-0.34641814,0.8018334,-0.4868856,-0.17689887,0.45387346,0.87333024,0.92124987,0.3886669,-0.015386671,,0.047516398,-0.047696155,0.039119005,0.35801938,0.87059844,0.33746165,-0.2980337,-0.23596078,0.9249316,0.8848717,-0.43171838,0.1749891,,0.057414375,1.3232894,0.43414345,0.9967931,0.07829852,-0.016517198,0.04125103,-0.6796495,-0.7323762,-0.068569876,0.7293462,-0.6806998,,-0.07444371,0.29124394,-0.0593414,0.29236823,-0.808814,0.510236,0.54893214,0.5788342,0.60301286,-0.7830673,0.10378312,0.6132167,,0.0007321701,0.452428,-0.33563784,-0.37384662,-0.84832144,-0.37495264,0.6158469,-0.52932805,0.58356184,-0.69352096,-0.012750788,0.72032356,,1.1961354812242633,0.32886485671597654,0.19341165316000003,1.6114672156785694,-0.9179240054242289,0.14228586770930612,-0.4152206161133377,,-1.1418215009198422,-0.09739910700971952,0.16746640881000002,-1.2814152446339282,-0.902757353950265,-1.3962487791274019,0.8315846406896157,,0.023856469213197493,0.03659955441432109,0.08941130016,-0.1167695939710949,,-1.1213124e-05,-5.364418e-06,2.861023e-06,0.99999994,2.611801e-05,2.798438e-05,-2.6121736e-05,1.0,2.6524067e-06,-2.798438e-05,-2.6524067e-06,1.0,756,2.319,0,0,0.0,False,-0.26148663402373185,1.0061110868579939
2.3349975999999515,14:39:43.348209,14:38:26.237958,0,,0.11346619,0.0035879165,0.031223476,-0.36231822,0.7948158,-0.48681965,-0.17476141,0.45511255,0.87311566,0.9155238,0.40142298,-0.025992513,,0.04751791,-0.047695886,0.03911817,0.35801226,0.87060106,0.33746222,-0.2980353,-0.23596214,0.9249308,0.8848741,-0.43171215,0.17499247,,0.057414375,1.3232894,0.43414345,0.9967931,0.07829852,-0.016517198,0.04125103,-0.6796495,-0.7323762,-0.068569876,0.7293462,-0.6806998,,-0.07437392,0.29120728,-0.05933006,0.30860028,-0.8024498,0.5107251,0.5465931,0.5890319,0.59521204,-0.77846116,0.09547623,0.620389,,0.0007306769,0.45242736,-0.33563724,-0.3738395,-0.84832424,-0.3749533,0.6158485,-0.5293234,0.5835644,-0.69352335,-0.012755002,0.72032124,,1.1966297361282137,0.32925871609256196,0.19335332011000003,1.5915466710475397,-0.9057633569451047,0.1534427892365896,-0.4139138635842636,,-1.1418292236527163,-0.09739910700971952,0.1674677051,-1.2814152446339282,-0.902757353950265,-1.3962487791274019,0.8315846406896157,,0.023856469213197493,0.03659955441432109,0.08941130016,-0.1167695939710949,,-1.1213124e-05,-5.364418e-06,2.861023e-06,0.99999994,2.611801e-05,2.798438e-05,-2.6121736e-05,1.0,2.6524067e-06,-2.798438e-05,-2.6524067e-06,1.0,764,2.343,0,0,0.0,False,-0.2613079008681689,1.0057248452517584
2.367891643999883,14:39:43.368027,14:38:26.237958,0,,0.11343387,0.0036039203,0.031210482,-0.37253112,0.7931519,-0.4817992,-0.17227471,0.45103994,0.8757193,0.9118892,0.40923452,-0.031386495,,0.04751791,-0.047695886,0.03911817,0.35801226,0.87062865,0.33739108,-0.2980353,-0.2358866,0.92495006,0.8848741,-0.43169788,0.17502776,,0.057414375,1.3232894,0.43414345,0.9967931,0.07829852,-0.016517198,0.04125103,-0.6796495,-0.7323762,-0.068569876,0.7293462,-0.6806998,,-0.07434054,0.29120964,-0.059311375,0.31905404,-0.80131096,0.5060684,0.545893,0.59188056,0.5930247,-0.7747292,0.08705229,0.62627196,,0.0007306769,0.45242736,-0.33563724,-0.3738395,-0.8483549,-0.374884,0.6158485,-0.5292757,0.5836076,-0.69352335,-0.0126961665,0.72032225,,1.197054486436296,0.32959851633902787,0.19331572770000002,1.5802234140993754,-0.8968819844603511,0.16498673572865152,-0.41685405677468057,,-1.1418292236527163,-0.09739910700971952,0.1674677051,-1.2814152446339282,-0.902757353950265,-1.3963304578675424,0.8317479847557501,,0.023856469213197493,0.03659955441432109,0.08941130016,-0.1167695939710949,,-1.1213124e-05,-5.364418e-06,2.861023e-06,0.99999994,2.611801e-05,2.798438e-05,-2.6121736e-05,1.0,2.6524067e-06,-2.798438e-05,-2.6524067e-06,1.0,772,2.368,0,0,0.0,False,-0.26160578946077395,1.0059179660548763
2.387701492999895,14:39:43.391517,14:38:26.237958,0,,0.113394916,0.003623739,0.031195283,-0.38335207,0.7902067,-0.47813654,-0.16993129,0.4485039,0.877478,0.90783507,0.41763332,-0.03765419,,0.047520667,-0.047696736,0.039117634,0.357997,0.87063366,0.33739427,-0.2980327,-0.23589446,0.92494893,0.88488114,-0.43168345,0.17502779,,0.057414375,1.3232894,0.43414345,0.9967931,0.07829852,-0.016517198,0.04125103,-0.6796495,-0.7323762,-0.068569876,0.7293462,-0.6806998,,-0.07430032,0.29121315,-0.059288744,0.33013305,-0.79888284,0.50279063,0.54480296,0.5962417,0.58964866,-0.77084494,0.07925933,0.63207287,,0.0007279703,0.4524263,-0.33563775,-0.37382457,-0.84836006,-0.37488714,0.6158566,-0.5292671,0.58360696,-0.69352424,-0.012710102,0.7203212,,1.1975332958744977,0.32994603931836797,0.19328072787000003,1.5680613973772732,-0.8875907024763011,0.1752162836279375,-0.41424055171653223,,-1.141844669118465,-0.09740682974259374,0.16746900139,-1.2814152446339282,-0.902757353950265,-1.3963304578675424,0.8317479847557501,,0.023856469213197493,0.03659955441432109,0.08941130016,-0.1167695939710949,,-1.1213124e-05,-5.364418e-06,2.861023e-06,0.99999994,2.611801e-05,2.798438e-05,-2.6121736e-05,1.0,2.6524067e-06,-2.798438e-05,-2.6524067e-06,1.0,780,2.392,0,0,0.0,False,-0.2607121236829584,1.0051454828424047
2.411198334999881,14:39:43.415290,14:38:26.237958,0,,0.11332366,0.003672719,0.031196982,-0.4001568,0.7831646,-0.4759491,-0.16597238,0.44882342,0.8780721,0.9012922,0.4303609,-0.0496161,,0.04752309,-0.04770353,0.039115787,0.35785758,0.87029576,0.33841246,-0.2986555,-0.23670149,0.9245418,0.8847276,-0.43192297,0.17521313,,0.057414375,1.3232894,0.43414345,0.9967931,0.07829852,-0.016517198,0.04125103,-0.6796495,-0.7323762,-0.068569876,0.7293462,-0.6806998,,-0.074227974,0.2912497,-0.059258584,0.34736016,-0.7925175,0.50125533,0.54315335,0.6057828,0.58138764,-0.7644118,0.070307605,0.6408833,,0.000725842,0.45242134,-0.33564284,-0.37365875,-0.8479869,-0.37589547,0.6154285,-0.5298504,0.5835292,-0.69399345,-0.013296018,0.7198585,,1.1984831920180274,0.33051752155106057,0.19321720966000003,1.5498183722941195,-0.8725606875021027,0.18558532524026689,-0.41636402457627786,,-1.1418678373170876,-0.09740682974259374,0.16747029768000002,-1.2803667949165056,-0.902757353950265,-1.396248779127402,0.8309312644250786,,0.023856469213197493,0.03659955441432109,0.08941130016,-0.1167695939710949,,-1.1213124e-05,-5.364418e-06,2.861023e-06,0.99999994,2.611801e-05,2.798438e-05,-2.6121736e-05,1.0,2.6524067e-06,-2.798438e-05,-2.6524067e-06,1.0,809,2.481,0,0,0.0,False,-0.26101001227556386,1.0054351640470816
2.4349634909999622,14:39:43.500299,14:38:26.237958,0,,0.113036245,0.003730446,0.03111288,-0.44936803,0.7595685,-0.47023815,-0.15019321,0.45464945,0.8779156,0.8806306,0.4651338,-0.090222985,,0.04753593,-0.04770727,0.039111614,0.35780928,0.87006,0.3390692,-0.2991769,-0.23715468,0.9242569,0.8845709,-0.4321494,0.1754457,,0.057414375,1.3232894,0.43414345,0.9967931,0.07829852,-0.016517198,0.04125103,-0.6796495,-0.7323762,-0.068569876,0.7293462,-0.6806998,,-0.07393507,0.2912346,-0.05917495,0.39799985,-0.7706451,0.49769697,0.5401371,0.6353641,0.55187345,-0.74151736,0.049179036,0.66912884,,0.00071327476,0.45241532,-0.3356443,-0.3735874,-0.84772855,-0.3765485,0.61504257,-0.53025645,0.58356726,-0.69437385,-0.013579974,0.7194863,,1.2013483259143647,0.33111217198237586,0.19303184019000003,1.5015896852926789,-0.8241913665851368,0.2067490125160309,-0.4137505195181294,,-1.141952787378704,-0.09740682974259374,0.16747677913,-1.2795280351425675,-0.9026207174504995,-1.3963601970310986,0.8309312644250786,,0.023856469213197493,0.03659955441432109,0.08941130016,-0.1167695939710949,,-1.1213124e-05,-5.364418e-06,2.861023e-06,0.99999994,2.611801e-05,2.798438e-05,-2.6121736e-05,1.0,2.6524067e-06,-2.798438e-05,-2.6524067e-06,1.0,813,2.494,0,0,0.0,False,-0.2608312791200009,1.0049040818385075
2.519981472999916,14:39:43.523481,14:38:26.407755,0,,0.11286904,0.003728643,0.031072378,-0.4693701,0.7526079,-0.4618148,-0.14338955,0.4510989,0.88087976,0.87128127,0.47967803,-0.10381633,,0.047541223,-0.047706615,0.03911084,0.3577807,0.87004316,0.3391425,-0.2991831,-0.23723552,0.9242343,0.8845804,-0.43213886,0.17542389,,0.057414375,1.3232894,0.43414345,0.9967931,0.07829852,-0.016517198,0.04125103,-0.6796495,-0.7323762,-0.068569876,0.7293462,-0.6806998,,-0.07376607,0.29120743,-0.059157643,0.4186433,-0.7645607,0.4900864,0.5384949,0.64353514,0.54395384,-0.73127353,0.036186416,0.68112373,,0.0007079868,0.45241472,-0.33564347,-0.37355894,-0.84770924,-0.37662023,0.6150491,-0.5302854,0.58353406,-0.6943834,-0.013655581,0.7194756,,1.2027075269002283,0.33098860825638826,0.19294887763000002,1.4827175903790717,-0.8035592551205553,0.2214529027521282,-0.4134238313858608,,-1.1419836783102009,-0.09740682974259374,0.16747937171000002,-1.2795280351425675,-0.9026207174504995,-1.3962785182909578,0.8307679203589438,,0.023856469213197493,0.03659955441432109,0.08941130016,-0.1167695939710949,,-1.1213124e-05,-5.364418e-06,2.861023e-06,0.99999994,2.611801e-05,2.798438e-05,-2.6121736e-05,1.0,2.6524067e-06,-2.798438e-05,-2.6524067e-06,1.0,825,2.532,0,0,0.0,False,-0.26160578946077395,1.0051937630431842
2.5431401480000204,14:39:43.553845,14:38:26.407755,0,,0.11273979,0.003778249,0.031038523,-0.48617253,0.7451243,-0.456537,-0.13188404,0.45388752,0.881245,0.8638535,0.488647,-0.12239772,,0.047546506,-0.04770602,0.039108634,0.35772932,0.8699629,0.33940262,-0.29931867,-0.23745652,0.92413354,0.8845552,-0.43217924,0.17545086,,0.057414375,1.3232894,0.43414345,0.9967931,0.07829852,-0.016517198,0.04125103,-0.6796495,-0.7323762,-0.068569876,0.7293462,-0.6806998,,-0.073633924,0.2912199,-0.059105728,0.43611702,-0.7574897,0.48581,0.54143095,0.6520826,0.5306984,-0.71878684,0.031585973,0.69451267,,0.0007027539,0.45241287,-0.33564195,-0.37350208,-0.84761995,-0.3768774,0.6149642,-0.5304236,0.58349794,-0.6944892,-0.013828414,0.71937025,,1.2041207870162114,0.330841876331778,0.19288406313,1.4728621630352992,-0.7815607786583194,0.22328087537102043,-0.4160373364440093,,-1.1420145692416979,-0.09739910700971952,0.16748326058000002,-1.279318345199083,-0.9026207174504995,-1.396196839550817,0.8306045762928098,,0.023856469213197493,0.03659955441432109,0.08941130016,-0.1167695939710949,,-1.1213124e-05,-5.364418e-06,2.861023e-06,0.99999994,2.611801e-05,2.798438e-05,-2.6121736e-05,1.0,2.6524067e-06,-2.798438e-05,-2.6524067e-06,1.0,833,2.556,0,0,0.0,False,-0.26112916771260597,1.004759241236169
