AlexandreBanks6/ExpertPlaybackApp/resources/Motions/Pilot_03/PC1/Data_PC1_1.csv
Task Time,PC1 Time,PC2 Time,Gaze Calib,s_T_psm1,Tx,Ty,Tz,R00,R01,R02,R10,R11,R12,R20,R21,R22,s_T_psm3,Tx,Ty,Tz,R00,R01,R02,R10,R11,R12,R20,R21,R22,cart_T_ecm,Tx,Ty,Tz,R00,R01,R02,R10,R11,R12,R20,R21,R22,ecm_T_psm1,Tx,Ty,Tz,R00,R01,R02,R10,R11,R12,R20,R21,R22,ecm_T_psm3,Tx,Ty,Tz,R00,R01,R02,R10,R11,R12,R20,R21,R22,psm1_joints,q1,q2,q3,q4,q5,q6,jaw,psm3_joints,q1,q2,q3,q4,q5,q6,jaw,ecm_joints,q1,q2,q3,q4,ecmi_T_ecm,Tx,Ty,Tz,R00,R01,R02,R10,R11,R12,R20,R21,R22,Sample #,Task Duration (s),Collisions (binary),Collisions (increments),Cumulative Collision Time (s),Clutch Press,MTMR Angle,MTML Angle
""
lci_T_si,,,,,-0.071118124,0.013903125,0.25454396,0.9901862,-0.08084544,0.11399696,0.013384873,-0.7570853,-0.6531789,0.13911195,0.64829457,-0.7485733
rci_T_si,,,,,-0.08147662,0.01856703,0.26535848,0.98740834,-0.096447565,0.12539017,0.012030307,-0.74456626,-0.6674401,0.15773426,0.6605444,-0.73403066
ecm_T_lc,,,,,-4.4061628e-05,-0.00034663224,-0.01840835,-0.99912,0.030754527,0.028518902,-0.031987965,-0.99852574,-0.043852776,0.027128186,-0.04472645,0.9986309
ecm_T_rc,,,,,-0.0043358393,0.01870579,-0.007592615,-0.99555075,-0.052743673,-0.078081585,0.04863213,-0.9973746,0.053654674,-0.08070653,0.04961868,0.9955021
cart_T_ecmi,,,,,0.10934876,1.3586837,0.45858383,0.9961387,0.033234157,-0.08125972,-0.025833456,-0.77364326,-0.6330946,-0.0839064,0.63274926,-0.76979744
ecmac_T_ecmrep_psm1,,,,,0.011947535,-0.24624088,-0.3140189,0.99787813,0.060519684,0.024013558,-0.059408683,0.9972389,-0.04455629,-0.026643785,0.04303513,0.9987182
ecmac_T_ecmrep_psm3,,,,,-0.020729378,-0.4297972,-0.5440064,0.99962926,-0.018584386,0.019899037,0.019259674,0.999226,-0.034299888,-0.019246193,0.03467042,0.99921346
""
0,10:47:23.253073,10:47:07.055659,0,,0.1297001,-0.004919529,0.015509665,-0.8781943,-0.42896664,-0.21157087,-0.08163665,-0.30141652,0.9499912,-0.47128558,0.85154897,0.22968271,,0.023921683,-0.010714039,0.012893289,0.13687977,-0.5889472,0.7964955,-0.4276159,0.6901568,0.5838047,-0.8935369,-0.4205054,-0.15737483,,0.109374546,1.3586822,0.45858026,0.9961382,0.0332195,-0.08127171,-0.025852324,-0.77364385,-0.63309306,-0.0839064,0.63274926,-0.76979744,,-0.08744262,0.25137186,-0.06268876,0.9066487,0.30993444,0.28623202,-0.38395488,0.325016,0.86425877,0.1748336,-0.8934793,0.41367617,,0.03947174,0.43924958,-0.30222124,-0.019340014,0.6783064,-0.7345246,-0.9156399,0.28303075,0.28547722,0.40153408,0.67808115,0.61561054,,1.2397071401006379,0.12255204798106874,0.18857778775000003,0.6882023945162089,0.5405339930720824,1.374785808821374,-0.40868685346796685,,-0.5753049854653548,-0.2446639001883067,0.19032648296000002,0.4260899651605535,1.2342375023812235,-0.5340080911167625,0.712506816477726,,-0.03987204676181046,-0.09379617566374027,0.05836094732,-0.08765896690267068,,2.6036054e-05,-2.3841858e-07,1.5497208e-06,0.99999994,-1.4588237e-05,-1.1980534e-05,1.4577061e-05,0.99999994,-1.5795231e-06,1.1987984e-05,1.5795231e-06,1.0,38,0.115,1,1,0.09,False,-0.2602950796533112,0.8869555513342902
0.1259778469975572,10:47:23.287165,10:47:07.055659,0,,0.12990688,-0.0051055253,0.01564242,-0.87786025,-0.42903325,-0.2128182,-0.08289292,-0.30154988,0.9498402,-0.47168833,0.8514682,0.22915474,,0.023918211,-0.010718569,0.012892693,0.13686034,-0.5889532,0.7964945,-0.42763937,0.69014806,0.5837978,-0.8935287,-0.4205113,-0.15740573,,0.109374546,1.3586822,0.45858026,0.9961382,0.0332195,-0.08127171,-0.025852324,-0.77364385,-0.63309306,-0.0839064,0.63274926,-0.76979744,,-0.08767968,0.25132173,-0.06287921,0.9062262,0.3099943,0.28750232,-0.38516194,0.3248614,0.8637797,0.17436838,-0.89351475,0.41379592,,0.039475042,0.43924597,-0.30222425,-0.01932322,0.6783128,-0.7345192,-0.9156509,0.28302068,0.28545186,0.40150976,0.67807895,0.6156288,,1.238440611909265,0.12255204798106874,0.18836001103000002,0.6873636347422708,0.5395775375737243,1.375239019186687,-0.4093402297325037,,-0.5752818172667322,-0.24468706838692936,0.19032648296000002,0.4260899651605535,1.2342375023812235,-0.5340080911167625,0.712506816477726,,-0.03987204676181046,-0.09379617566374027,0.05836094732,-0.08765896690267068,,2.6036054e-05,-2.3841858e-07,1.5497208e-06,0.99999994,-1.4588237e-05,-1.1980534e-05,1.4577061e-05,0.99999994,-1.5795231e-06,1.1987984e-05,1.5795231e-06,1.0,55,0.167,1,1,0.142,False,-0.25922268071993226,0.8868589909327316
0.16008559000329114,10:47:23.332407,10:47:07.055659,0,,0.13019218,-0.0053807497,0.01589702,-0.8772298,-0.43010104,-0.21326223,-0.08356196,-0.3006509,0.95006645,-0.47274205,0.85124743,0.22779971,,0.023938,-0.010719433,0.012897104,0.1369053,-0.5892341,0.7962789,-0.427756,0.6898716,0.58403903,-0.8934659,-0.4205714,-0.15760154,,0.109374546,1.3586822,0.45858026,0.9961382,0.0332195,-0.08127171,-0.025852324,-0.77364385,-0.63309306,-0.0839064,0.63274926,-0.76979744,,-0.08801565,0.25128543,-0.06320748,0.9056352,0.31116658,0.28809768,-0.38634875,0.32537878,0.86305463,0.1748129,-0.8929188,0.41489327,,0.039454788,0.43924695,-0.30222523,-0.019382706,0.6785861,-0.7342651,-0.9157007,0.28279126,0.28551948,0.4013933,0.67790115,0.6159005,,1.2368033925399295,0.12254432524819452,0.18799186467,0.6869442548553018,0.5393042645741934,1.3749717825532364,-0.40901354160023495,,-0.5753976582598456,-0.24470251385267783,0.19032648296000002,0.4260899651605535,1.234100865881458,-0.5335699582525038,0.7121801283454575,,-0.03987204676181046,-0.09379617566374027,0.05836094732,-0.08765896690267068,,2.6036054e-05,-2.3841858e-07,1.5497208e-06,0.99999994,-1.4588237e-05,-1.1980534e-05,1.4577061e-05,0.99999994,-1.5795231e-06,1.1987984e-05,1.5795231e-06,1.0,59,0.181,1,1,0.156,False,-0.2599971910607066,0.8869555513342902
0.20532927800377365,10:47:23.360556,10:47:07.055659,0,,0.13027641,-0.0054843277,0.016035512,-0.87706614,-0.4304542,-0.21322301,-0.08363,-0.30026788,0.9501816,-0.47303373,0.8512041,0.22735572,,0.02394703,-0.010718331,0.012899548,0.13695084,-0.58927345,0.796242,-0.42774966,0.68983006,0.58409286,-0.89346206,-0.4205844,-0.15758887,,0.109374546,1.3586822,0.45858026,0.9961382,0.0332195,-0.08127171,-0.025852324,-0.77364385,-0.63309306,-0.0839064,0.63274926,-0.76979744,,-0.08812336,0.25129944,-0.06336625,0.9054945,0.3115604,0.28811425,-0.38658905,0.32563403,0.8628507,0.17501032,-0.8926884,0.41530567,,0.039445553,0.43924883,-0.30222502,-0.019427955,0.678625,-0.73422796,-0.91569626,0.28275394,0.28557068,0.40140125,0.67787784,0.615921,,1.236370919498973,0.12252887978244607,0.18781686552000001,0.6869442548553018,0.5393042645741934,1.3748084250729553,-0.4090135416002354,,-0.5754517173899651,-0.24470251385267783,0.19032648296000002,0.4260899651605535,1.234100865881458,-0.5334882795123632,0.7120167842793232,,-0.03987204676181046,-0.09379617566374027,0.05836094732,-0.08765896690267068,,2.6036054e-05,-2.3841858e-07,1.5497208e-06,0.99999994,-1.4588237e-05,-1.1980534e-05,1.4577061e-05,0.99999994,-1.5795231e-06,1.1987984e-05,1.5795231e-06,1.0,71,0.217,1,1,0.192,False,-0.26005676877922745,0.8868107107319521
0.23350047999701928,10:47:23.389761,10:47:07.189303,0,,0.13037671,-0.005607441,0.016242802,-0.87654227,-0.43187097,-0.21251094,-0.08299867,-0.29927954,0.9505487,-0.4741146,0.85083437,0.22648633,,0.023954764,-0.010717362,0.012901753,0.13698986,-0.5893165,0.79620343,-0.42774412,0.68978757,0.584147,-0.89345866,-0.42059377,-0.15758288,,0.109374546,1.3586822,0.45858026,0.9961382,0.0332195,-0.08127171,-0.025852324,-0.77364385,-0.63309306,-0.0839064,0.63274926,-0.76979744,,-0.08825573,0.25134408,-0.06358686,0.90514755,0.31310195,0.28753272,-0.38681424,0.3261159,0.8625678,0.17630264,-0.89197284,0.41629532,,0.039437637,0.43925044,-0.30222484,-0.019466741,0.67866683,-0.73418826,-0.91569245,0.2827186,0.2856179,0.40140805,0.67785066,0.6159465,,1.235961614656639,0.1225366025153203,0.18757445929000002,0.6871539447987863,0.5403973565723169,1.3739987605835244,-0.408850197534101,,-0.5754980537872104,-0.24470251385267783,0.19032648296000002,0.4260899651605535,1.234100865881458,-0.5334066007722227,0.7121801283454575,,-0.03987204676181046,-0.09379617566374027,0.05836094732,-0.08765896690267068,,2.6036054e-05,-2.3841858e-07,1.5497208e-06,0.99999994,-1.4588237e-05,-1.1980534e-05,1.4577061e-05,0.99999994,-1.5795231e-06,1.1987984e-05,1.5795231e-06,1.0,88,0.271,1,1,0.246,False,-0.2599376133421849,0.8863761889249369
0.2626604880060768,10:47:23.438024,10:47:07.189303,0,,0.13042854,-0.005699098,0.016515926,-0.87622315,-0.43328863,-0.21093556,-0.08165064,-0.29789934,0.95109886,-0.47493795,0.850598,0.22564784,,0.023955911,-0.010715827,0.012901932,0.13699634,-0.58931446,0.7962038,-0.42773637,0.6897905,0.5841493,-0.89346135,-0.42059177,-0.1575726,,0.109374546,1.3586822,0.45858026,0.9961382,0.0332195,-0.08127171,-0.025852324,-0.77364385,-0.63309306,-0.0839064,0.63274926,-0.76979744,,-0.08834326,0.25145495,-0.06384325,0.9050529,0.31467235,0.28611287,-0.3863328,0.32698092,0.8624561,0.17783764,-0.89110315,0.41750327,,0.039436538,0.43925166,-0.30222383,-0.01947234,0.6786647,-0.73419005,-0.91568875,0.28272197,0.28562632,0.40141615,0.6778514,0.6159404,,1.2359925055881358,0.12262927530981099,0.18728927549000002,0.6879927045727244,0.5417637215699714,1.37280290280642,-0.4086868534679666,,-0.5755057765200847,-0.24469479111980358,0.19032648296000002,0.4260899651605535,1.234100865881458,-0.5334066007722227,0.7121801283454575,,-0.03987204676181046,-0.09379617566374027,0.05836094732,-0.08765896690267068,,2.6036054e-05,-2.3841858e-07,1.5497208e-06,0.99999994,-1.4588237e-05,-1.1980534e-05,1.4577061e-05,0.99999994,-1.5795231e-06,1.1987984e-05,1.5795231e-06,1.0,92,0.283,1,1,0.258,False,-0.25922268071993226,0.8868107107319521
0.31096355900808703,10:47:23.466897,10:47:07.189303,0,,0.13043657,-0.005722791,0.016692266,-0.8763933,-0.43397194,-0.2088136,-0.07986107,-0.2966263,0.9516486,-0.47492838,0.85069454,0.22530365,,0.023961544,-0.0107167065,0.01290223,0.1370224,-0.5892981,0.7962114,-0.42773956,0.68979204,0.5841452,-0.89345586,-0.4206123,-0.15754935,,0.109374546,1.3586822,0.45858026,0.9961382,0.0332195,-0.08127171,-0.025852324,-0.77364385,-0.63309306,-0.0839064,0.63274926,-0.76979744,,-0.08837089,0.2515529,-0.06398941,0.9054073,0.3154722,0.28410372,-0.38497895,0.3279945,0.86267656,0.17896599,-0.8904476,0.41841877,,0.039430894,0.43925083,-0.3022238,-0.019499063,0.67865175,-0.7342014,-0.91568923,0.28270862,0.28563794,0.40141374,0.67787,0.61592156,,1.2362473557729854,0.12279145270016971,0.18712075779,0.6896702241206006,0.5425835405685641,1.3720527166441006,-0.408850197534101,,-0.5755366674515816,-0.24470251385267783,0.19032777925000002,0.4260899651605535,1.234100865881458,-0.5334066007722227,0.7121801283454575,,-0.03987204676181046,-0.09379617566374027,0.05836094732,-0.08765896690267068,,2.6036054e-05,-2.3841858e-07,1.5497208e-06,0.99999994,-1.4588237e-05,-1.1980534e-05,1.4577061e-05,0.99999994,-1.5795231e-06,1.1987984e-05,1.5795231e-06,1.0,113,0.348,1,1,0.323,False,-0.2594014138754961,0.8862796285233783
0.33983665599953383,10:47:23.519765,10:47:07.335762,0,,0.13051344,-0.0057216287,0.01698783,-0.87472266,-0.4391445,-0.20496881,-0.075842924,-0.29368657,0.9528882,-0.47865224,0.84905845,0.22358811,,0.023969151,-0.010714382,0.012904197,0.1370614,-0.58921266,0.79626787,-0.4277272,0.689847,0.5840893,-0.8934558,-0.42064166,-0.15747106,,0.109374546,1.3586822,0.45858026,0.9961382,0.0332195,-0.08127171,-0.025852324,-0.77364385,-0.63309306,-0.0839064,0.63274926,-0.76979744,,-0.08847572,0.2517489,-0.064198874,0.90453726,0.32105848,0.28059545,-0.3843664,0.32906148,0.86254334,0.18459369,-0.8880541,0.42105246,,0.039423198,0.4392534,-0.30222264,-0.019536985,0.67857456,-0.7342717,-0.9156824,0.2827253,0.2856434,0.4014275,0.67794025,0.6158352,,1.2365948787523253,0.123455607727353,0.18682001851000002,0.6911380537249923,0.5484589100584779,1.3693037152886687,-0.4083601653356983,,-0.5755830038488269,-0.24469479111980358,0.19032777925000002,0.4260899651605535,1.234100865881458,-0.5334882795123632,0.7123434724115918,,-0.03987204676181046,-0.09379617566374027,0.05836094732,-0.08765896690267068,,2.6036054e-05,-2.3841858e-07,1.5497208e-06,0.99999994,-1.4588237e-05,-1.1980534e-05,1.4577061e-05,0.99999994,-1.5795231e-06,1.1987984e-05,1.5795231e-06,1.0,134,0.414,1,1,0.389,False,-0.25922268071993226,0.8861347879210393
0.3926808910036925,10:47:23.585953,10:47:07.335762,0,,0.13064915,-0.005625516,0.017247796,-0.8744564,-0.439827,-0.20464136,-0.07430921,-0.29542312,0.95247215,-0.47937876,0.8481022,0.22565126,,0.023969784,-0.010716423,0.012902051,0.1370087,-0.5898104,0.79583436,-0.42785075,0.6893683,0.5845637,-0.8934048,-0.42058882,-0.1579015,,0.109374546,1.3586822,0.45858026,0.9961382,0.0332195,-0.08127171,-0.025852324,-0.77364385,-0.63309306,-0.0839064,0.63274926,-0.76979744,,-0.08862537,0.251994,-0.06431179,0.9045049,0.3216459,0.2800265,-0.38368213,0.32711372,0.8635882,0.18616909,-0.88856095,0.41928574,,0.039422806,0.43925035,-0.30222225,-0.019498615,0.6791337,-0.7337556,-0.9157387,0.28243783,0.28574732,0.40130097,0.6775,0.61640185,,1.2366643833481934,0.12448273119962487,0.18665150081,0.6917671235554459,0.5484589100584779,1.3702021814302148,-0.40787013313729537,,-0.5755830038488269,-0.24470251385267783,0.19032907554000003,0.4260899651605535,1.2339642293816928,-0.5327234316875424,0.710710031750249,,-0.03987204676181046,-0.09379617566374027,0.05836094732,-0.08765896690267068,,2.6036054e-05,-2.3841858e-07,1.5497208e-06,0.99999994,-1.4588237e-05,-1.1980534e-05,1.4577061e-05,0.99999994,-1.5795231e-06,1.1987984e-05,1.5795231e-06,1.0,142,0.439,1,1,0.414,False,-0.2590439475643693,0.884589821496097
0.4588884179975139,10:47:23.611380,10:47:07.335762,0,,0.13068734,-0.0055810213,0.017287388,-0.8743835,-0.44000304,-0.20457424,-0.07406348,-0.2956381,0.9524245,-0.4795497,0.847936,0.22591278,,0.02397006,-0.01071918,0.01290229,0.13700877,-0.589807,0.79583687,-0.42786446,0.6893643,0.58455837,-0.8933981,-0.42060018,-0.15790868,,0.109374546,1.3586822,0.45858026,0.9961382,0.0332195,-0.08127171,-0.025852324,-0.77364385,-0.63309306,-0.0839064,0.63274926,-0.76979744,,-0.088662386,0.25205413,-0.06430715,0.90447515,0.32181388,0.27992958,-0.38360783,0.32683977,0.86372495,0.18646657,-0.8886009,0.41906878,,0.039422367,0.43924847,-0.30222422,-0.019500347,0.6791319,-0.7337572,-0.9157447,0.28242716,0.28573844,0.40128705,0.67750627,0.61640406,,1.2366721060810677,0.12485342237758765,0.18662816759,0.6917671235554459,0.5484589100584779,1.3702021814302148,-0.40787013313729537,,-0.5755830038488269,-0.24471795931842627,0.19032907554000003,0.4260899651605535,1.2339642293816928,-0.5327234316875424,0.710710031750249,,-0.03987204676181046,-0.09379617566374027,0.05836094732,-0.08765896690267068,,2.6036054e-05,-2.3841858e-07,1.5497208e-06,0.99999994,-1.4588237e-05,-1.1980534e-05,1.4577061e-05,0.99999994,-1.5795231e-06,1.1987984e-05,1.5795231e-06,1.0,155,0.479,1,1,0.454,False,-0.2589843698458485,0.8840587392875228
0.48432034700817894,10:47:23.652182,10:47:07.335762,0,,0.1307586,-0.0054955035,0.01733686,-0.8742924,-0.44044387,-0.20401433,-0.07324252,-0.29578465,0.9524425,-0.47984183,0.8476559,0.22634292,,0.023971885,-0.010724425,0.012903243,0.1370154,-0.5896015,0.7959879,-0.4278912,0.6895003,0.5843784,-0.89338434,-0.42066526,-0.15781331,,0.109374546,1.3586822,0.45858026,0.9961382,0.0332195,-0.08127171,-0.025852324,-0.77364385,-0.63309306,-0.0839064,0.63274926,-0.76979744,,-0.08872881,0.25215217,-0.06427862,0.90449923,0.32226223,0.2793353,-0.38317886,0.32653886,0.8640291,0.18723013,-0.88854903,0.4188382,,0.039420173,0.439245,-0.3022281,-0.019510273,0.6789455,-0.7339294,-0.9157563,0.28247377,0.28565547,0.4012603,0.67767364,0.61623746,,1.2366643833481934,0.12552530013764518,0.18660872324000002,0.692186503442415,0.5485955465582434,1.370172442266659,-0.4080334772034293,,-0.5755907265817012,-0.24474885024992316,0.19032907554000003,0.4260899651605535,1.2339642293816928,-0.532968467907964,0.7102199995518462,,-0.03987204676181046,-0.09379617566374027,0.05836094732,-0.08765896690267068,,2.6036054e-05,-2.3841858e-07,1.5497208e-06,0.99999994,-1.4588237e-05,-1.1980534e-05,1.4577061e-05,0.99999994,-1.5795231e-06,1.1987984e-05,1.5795231e-06,1.0,163,0.504,1,1,0.479,False,-0.2594014138754961,0.8826103332641391
0.5251159750041552,10:47:23.681903,10:47:07.335762,0,,0.13112661,-0.005702406,0.017964825,-0.86859983,-0.4620876,-0.178911,-0.04344715,-0.28864875,0.95644873,-0.49360555,0.8385445,0.23064372,,0.023972154,-0.010727182,0.012903541,0.13701548,-0.5896632,0.7959423,-0.42790502,0.68944854,0.5844294,-0.8933778,-0.4206637,-0.15785483,,0.109374546,1.3586822,0.45858026,0.9961382,0.0332195,-0.08127171,-0.025852324,-0.77364385,-0.63309306,-0.0839064,0.63274926,-0.76979744,,-0.08917596,0.25241366,-0.06483021,0.903322,0.3453186,0.25448865,-0.36964786,0.3256204,0.87024814,0.21764617,-0.8801854,0.42178634,,0.039419733,0.4392431,-0.30223006,-0.019512003,0.67900366,-0.7338756,-0.9157623,0.28243974,0.28566965,0.40124637,0.6776296,0.616295,,1.2366798288139418,0.12611995056896047,0.18604094822000003,0.714623327395259,0.5753763005122697,1.3729198339244695,-0.41113701445998085,,-0.5755907265817012,-0.2447642957156716,0.19032907554000003,0.4260899651605535,1.2339642293816928,-0.5328867891678236,0.7094032792211746,,-0.03987204676181046,-0.09379617566374027,0.05836094732,-0.08765896690267068,,2.6036054e-05,-2.3841858e-07,1.5497208e-06,0.99999994,-1.4588237e-05,-1.1980534e-05,1.4577061e-05,0.99999994,-1.5795231e-06,1.1987984e-05,1.5795231e-06,1.0,176,0.544,0,1,0.498,False,-0.2596993024681016,0.881548168846991
0.5548178440076299,10:47:23.719367,10:47:07.526388,0,,0.13175544,-0.005422324,0.018409997,-0.8569898,-0.4759352,-0.19762102,-0.044071823,-0.31438956,0.94827044,-0.51344526,0.8213677,0.24845311,,0.023969822,-0.0107296705,0.012901753,0.13707227,-0.5899428,0.7957252,-0.42794034,0.68920684,0.58468854,-0.8933521,-0.4206676,-0.15798926,,0.109374546,1.3586822,0.45858026,0.9961382,0.0332195,-0.08127171,-0.025852324,-0.77364385,-0.63309306,-0.0839064,0.63274926,-0.76979744,,-0.08981252,0.25292647,-0.06489239,0.89370275,0.35801128,0.27041328,-0.3829653,0.2947227,0.8754862,0.233737,-0.88598335,0.4005004,,0.03942219,0.4392402,-0.30223072,-0.019573644,0.6792688,-0.7336285,-0.91577584,0.28227317,0.285791,0.40121254,0.6774332,0.6165328,,1.2353978551568205,0.12913181638990803,0.18575965329000002,0.7003644112383114,0.5921825899834189,1.3901716742830827,-0.40999360599704104,,-0.5755830038488269,-0.24477974118142007,0.19033037183,0.425880275217069,1.2339642293816928,-0.5327234316875424,0.7074431504275633,,-0.03987204676181046,-0.09379617566374027,0.05836094732,-0.08765896690267068,,2.6036054e-05,-2.3841858e-07,1.5497208e-06,0.99999994,-1.4588237e-05,-1.1980534e-05,1.4577061e-05,0.99999994,-1.5795231e-06,1.1987984e-05,1.5795231e-06,1.0,184,0.57,0,1,0.498,False,-0.25922268071993226,0.8807274054337402
0.5923085990070831,10:47:23.740512,10:47:07.526388,0,,0.13188887,-0.005439982,0.018397957,-0.859016,-0.472347,-0.19743273,-0.04580258,-0.31319425,0.94858384,-0.50989556,0.82389176,0.24740401,,0.023968443,-0.010731846,0.012901455,0.13713557,-0.59002376,0.7956543,-0.4279746,0.6891093,0.58477837,-0.893326,-0.420714,-0.15801391,,0.109374546,1.3586822,0.45858026,0.9961382,0.0332195,-0.08127171,-0.025852324,-0.77364385,-0.63309306,-0.0839064,0.63274926,-0.76979744,,-0.08994525,0.25290725,-0.064875826,0.89518076,0.3543384,0.2703621,-0.3819718,0.29733434,0.875037,0.2296713,-0.886587,0.40151528,,0.039423477,0.4392385,-0.30223218,-0.019641751,0.6793511,-0.7335505,-0.9157887,0.2821746,0.28584716,0.40117988,0.67739177,0.6165996,,1.2345715227392786,0.1296337940267326,0.18572594975,0.7012031710122495,0.5868537664925667,1.3897796055990908,-0.4093402297325037,,-0.5755830038488269,-0.2447951866471685,0.19033037183,0.4256705852735844,1.2339642293816928,-0.532805110427683,0.7076064944936976,,-0.03987204676181046,-0.09379617566374027,0.05836094732,-0.08765896690267068,,2.6036054e-05,-2.3841858e-07,1.5497208e-06,0.99999994,-1.4588237e-05,-1.1980534e-05,1.4577061e-05,0.99999994,-1.5795231e-06,1.1987984e-05,1.5795231e-06,1.0,201,0.622,0,1,0.498,False,-0.2589843698458485,0.8801963232251659
0.6134536860045046,10:47:23.790906,10:47:07.526388,0,,0.13222042,-0.004956037,0.018576652,-0.85983896,-0.47108716,-0.19685957,-0.04610154,-0.31236088,0.94884413,-0.50847954,0.8249288,0.24686202,,0.023975588,-0.010742277,0.012903005,0.13702235,-0.589706,0.79590935,-0.42797995,0.6893794,0.5844561,-0.8933408,-0.42071694,-0.15792212,,0.109374546,1.3586822,0.45858026,0.9961382,0.0332195,-0.08127171,-0.025852324,-0.77364385,-0.63309306,-0.0839064,0.63274926,-0.76979744,,-0.09024027,0.25339454,-0.06464877,0.8958258,0.35307738,0.26987496,-0.38128042,0.29866236,0.8748863,0.22830106,-0.88664377,0.40217096,,0.039415706,0.43923116,-0.3022391,-0.019527989,0.67905074,-0.7338316,-0.9157951,0.2823556,0.28564787,0.40117085,0.67761743,0.6163575,,1.2344788499447878,0.13320941934749858,0.18569613508000002,0.7003644112383114,0.5824813985000726,1.38664732182585,-0.40803347720342953,,-0.5755984493145754,-0.2448492457772881,0.19033166812000002,0.4260899651605535,1.2339642293816928,-0.532805110427683,0.7056463657000864,,-0.03987204676181046,-0.09379617566374027,0.05836094732,-0.08765896690267068,,2.6036054e-05,-2.3841858e-07,1.5497208e-06,0.99999994,-1.4588237e-05,-1.1980534e-05,1.4577061e-05,0.99999994,-1.5795231e-06,1.1987984e-05,1.5795231e-06,1.0,209,0.647,0,1,0.498,False,-0.2593418361569748,0.8786996370010027
0.66381448500033,10:47:23.821922,10:47:07.526388,0,,0.13235186,-0.0047028363,0.018646061,-0.8601883,-0.47074354,-0.19615427,-0.044840932,-0.31332868,0.9485854,-0.50800127,0.82475793,0.24841297,,0.023975775,-0.010755524,0.012902826,0.1370077,-0.5898984,0.7957693,-0.4280432,0.68921345,0.5846056,-0.8933127,-0.42071927,-0.15807456,,0.109374546,1.3586822,0.45858026,0.9961382,0.0332195,-0.08127171,-0.025852324,-0.77364385,-0.63309306,-0.0839064,0.63274926,-0.76979744,,-0.09035068,0.25363308,-0.06451793,0.89625657,0.35265285,0.26899844,-0.38002074,0.29782522,0.87571937,0.2287104,-0.8870942,0.4009432,,0.039414912,0.43922105,-0.3022476,-0.01952081,0.6792331,-0.73366296,-0.9158234,0.28224146,0.2856698,0.4011065,0.67748225,0.616548,,1.2346487500680208,0.13490069784695374,0.18571298685,0.7012031710122495,0.5813883065019492,1.3871302713547187,-0.41015695006317543,,-0.5755830038488269,-0.2449187503731561,0.19033296441000003,0.4260899651605535,1.2339642293816928,-0.5325600742072614,0.7041762691048778,,-0.03987204676181046,-0.09379617566374027,0.05836094732,-0.08765896690267068,,2.6036054e-05,-2.3841858e-07,1.5497208e-06,0.99999994,-1.4588237e-05,-1.1980534e-05,1.4577061e-05,0.99999994,-1.5795231e-06,1.1987984e-05,1.5795231e-06,1.0,222,0.687,0,1,0.498,False,-0.25963972474957986,0.8759476655565739
0.6948264829989057,10:47:23.861778,10:47:07.652953,0,,0.1326843,-0.0044099838,0.018663019,-0.8597902,-0.4712283,-0.19673477,-0.04408978,-0.31532216,0.9479598,-0.50874037,0.8237207,0.25033438,,0.023973703,-0.010765374,0.012906522,0.1372756,-0.5900446,0.79561466,-0.42766014,0.6891936,0.58490914,-0.893455,-0.42054662,-0.15772921,,0.109374546,1.3586822,0.45858026,0.9961382,0.0332195,-0.08127171,-0.025852324,-0.77364385,-0.63309306,-0.0839064,0.63274926,-0.76979744,,-0.09065077,0.2538701,-0.06429358,0.8960132,0.35302562,0.26932004,-0.37993315,0.29563344,0.87649965,0.22980681,-0.88767886,0.3990176,,0.039415933,0.43921614,-0.3022571,-0.019745363,0.6793502,-0.7335485,-0.9156452,0.28234893,0.2861345,0.40150216,0.67732,0.61646867,,1.23386103131485,0.13729474503796332,0.18577520877,0.7009934810687649,0.5801585780040601,1.3882147112281267,-0.4096669178647723,,-0.5755752811159527,-0.24498825496902413,0.1903342607,0.425880275217069,1.2345107753807543,-0.5325973521213441,0.7010727318483265,,-0.03987859174650544,-0.09379617566374027,0.05836094732,-0.08765896690267068,,2.6036054e-05,-2.3841858e-07,1.5497208e-06,0.99999994,-1.4588237e-05,-1.1980534e-05,1.4577061e-05,0.99999994,-1.5795231e-06,1.1987984e-05,1.5795231e-06,1.0,230,0.713,0,1,0.498,False,-0.2590439475643693,0.8750303417417644
0.7347171370056458,10:47:23.883858,10:47:07.652953,0,,0.1329686,-0.004233539,0.018646687,-0.8592071,-0.472327,-0.19664764,-0.04330769,-0.31583488,0.94782525,-0.5097916,0.82289463,0.25091204,,0.024014905,-0.01077044,0.012918562,0.13676828,-0.58782595,0.7973425,-0.4274505,0.6910937,0.5828167,-0.8936331,-0.42053545,-0.15674698,,0.109374546,1.3586822,0.45858026,0.9961382,0.0332195,-0.08127171,-0.025852324,-0.77364385,-0.63309306,-0.0839064,0.63274926,-0.76979744,,-0.090912126,0.25399673,-0.06412659,0.8956204,0.35414007,0.26916334,-0.38002428,0.29468817,0.8767784,0.23118313,-0.8875493,0.39851055,,0.03937318,0.43921757,-0.30226335,-0.019207433,0.6772487,-0.7355034,-0.915571,0.2836446,0.2850887,0.40169752,0.67888135,0.6146212,,1.2329574715685656,0.13894740987304738,0.18583224553000002,0.7009934810687649,0.5797486685047639,1.3883039287187944,-0.40950357379863767,,-0.5757220130405629,-0.24500370043477257,0.1903342607,0.4279771746519142,1.2345107753807543,-0.5334141395227496,0.7017261081128636,,-0.03987859174650544,-0.09379617566374027,0.05836094732,-0.08765896690267068,,2.6036054e-05,-2.3841858e-07,1.5497208e-06,0.99999994,-1.4588237e-05,-1.1980534e-05,1.4577061e-05,0.99999994,-1.5795231e-06,1.1987984e-05,1.5795231e-06,1.0,247,0.765,0,1,0.498,False,-0.2594014138754961,0.8750786219425435
0.7568006159999641,10:47:23.933203,10:47:07.652953,0,,0.13310176,-0.0039428473,0.018564582,-0.8594297,-0.47190845,-0.19667982,-0.043118894,-0.31642467,0.9476371,-0.5094323,0.82290816,0.25159657,,0.024137579,-0.010792255,0.0129344165,0.13592955,-0.5865666,0.79841256,-0.42852923,0.6917924,0.58119345,-0.8932446,-0.42114455,-0.15732598,,0.109346665,1.3586845,0.45858788,0.9961382,0.033218186,-0.08127279,-0.02585402,-0.7736439,-0.6330929,-0.0839064,0.63274926,-0.76979744,,-0.09097677,0.254162,-0.06385266,0.8958251,0.3536623,0.2691103,-0.37965047,0.29425764,0.8770849,0.2310041,-0.88788253,0.39787143,,0.039277367,0.43920118,-0.30226642,-0.01849076,0.67613274,-0.73654777,-0.91607517,0.28369042,0.28341854,0.4005801,0.6799738,0.6141427,,1.2324323257331185,0.14057690650950874,0.18596835598000003,0.7009934810687649,0.5778357575080477,1.3883935620480141,-0.40950357379863833,,-0.5758224085679279,-0.2450809277635148,0.19033555699000002,0.4294450042563059,1.2331444103831002,-0.5335251415878942,0.7018894521789979,,-0.03987859174650544,-0.09379617566374027,0.05836094732,-0.08765896690267068,,-2.4400651e-06,1.9669533e-06,-3.5762787e-06,0.99999994,-1.5895814e-05,-1.3060868e-05,1.5888363e-05,1.0,-1.7881393e-06,1.3060868e-05,1.7285347e-06,1.0,251,0.779,0,1,0.498,False,-0.2591631030014119,0.8749820615409845
0.806139553009416,10:47:23.954256,10:47:07.652953,0,,0.13326076,-0.003802836,0.018550232,-0.85956,-0.47171938,-0.19656405,-0.042635918,-0.3171018,0.94743264,-0.50925314,0.82275593,0.25245577,,0.024138235,-0.010794863,0.012933582,0.13580659,-0.5851931,0.79944074,-0.42863256,0.6927839,0.57993484,-0.8932137,-0.42142537,-0.15674832,,0.109346665,1.3586845,0.45858788,0.9961382,0.033218186,-0.08127279,-0.02585402,-0.7736439,-0.6330929,-0.0839064,0.63274926,-0.76979744,,-0.091118105,0.2542606,-0.063728586,0.89598703,0.35341927,0.26889044,-0.37917045,0.29364973,0.8774962,0.23116446,-0.88818055,0.39711252,,0.03927672,0.43919864,-0.30226743,-0.01837901,0.6748668,-0.73771065,-0.9161249,0.284165,0.2827816,0.40047145,0.68103236,0.6130396,,1.2320152981579102,0.14171214824201975,0.18601761500000003,0.701412860955734,0.576742665509924,1.3889581903170234,-0.4095035737986381,,-0.5758146858350537,-0.24508865049638903,0.19033555699000002,0.42965469419979047,1.2330077738833345,-0.5350472984870089,0.7004193555837894,,-0.03987859174650544,-0.09379617566374027,0.05836094732,-0.08765896690267068,,-2.4400651e-06,1.9669533e-06,-3.5762787e-06,0.99999994,-1.5895814e-05,-1.3060868e-05,1.5888363e-05,1.0,-1.7881393e-06,1.3060868e-05,1.7285347e-06,1.0,272,0.843,0,1,0.498,False,-0.2593418361569748,0.8749337813402049
0.8271467500017025,10:47:24.015372,10:47:07.826597,0,,0.13370125,-0.003573373,0.018415093,-0.85879767,-0.47299325,-0.19683474,-0.04193695,-0.31801358,0.9471581,-0.5105955,0.8216719,0.2532735,,0.024205752,-0.010815695,0.0129446685,0.13532683,-0.58440894,0.8000954,-0.42938647,0.6931602,0.5789266,-0.8929243,-0.42189455,-0.1571342,,0.109346665,1.3586845,0.45858788,0.9961382,0.033218186,-0.08127279,-0.02585402,-0.7736439,-0.6330929,-0.0839064,0.63274926,-0.76979744,,-0.091516905,0.2543516,-0.06341613,0.89543664,0.35469058,0.26904985,-0.37951267,0.2922315,0.8778217,0.23273024,-0.8881415,0.39628434,,0.039207384,0.43918583,-0.30227944,-0.017985368,0.67418206,-0.73834616,-0.9164727,0.28409094,0.28172708,0.39969277,0.68174106,0.61275995,,1.2303008514598324,0.14392084984404796,0.18619002157000003,0.701412860955734,0.5756495735118006,1.389604497326173,-0.4099936059970408,,-0.5762239906773876,-0.24521221422237663,0.19033944586,0.43091283386069756,1.2320513183849764,-0.5346757668618365,0.700746043716058,,-0.03987859174650544,-0.09379617566374027,0.05836094732,-0.08765896690267068,,-2.4400651e-06,1.9669533e-06,-3.5762787e-06,0.99999994,-1.5895814e-05,-1.3060868e-05,1.5888363e-05,1.0,-1.7881393e-06,1.3060868e-05,1.7285347e-06,1.0,280,0.869,0,1,0.498,False,-0.25922268071993226,0.875223462544882
0.8882509270042647,10:47:24.041029,10:47:07.826597,0,,0.13386486,-0.0034938902,0.018368304,-0.85867274,-0.47345626,-0.19626585,-0.041445285,-0.31754193,0.9473381,-0.5108458,0.8215877,0.25304198,,0.02425208,-0.010821775,0.012946337,0.13548815,-0.5844205,0.8000596,-0.4295208,0.6930331,0.5789791,-0.8928353,-0.42208716,-0.15712312,,0.109346665,1.3586845,0.45858788,0.9961382,0.033218186,-0.08127279,-0.02585402,-0.7736439,-0.6330929,-0.0839064,0.63274926,-0.76979744,,-0.09166596,0.2543833,-0.06330635,0.8953888,0.35520637,0.26852822,-0.3793041,0.29252517,0.877814,0.23325385,-0.88783866,0.396655,,0.03916111,0.43917936,-0.3022779,-0.01816458,0.6742168,-0.73831004,-0.9165261,0.28386995,0.2817762,0.39956227,0.68179876,0.6127809,,1.2296598646312717,0.14473173679584153,0.18624835462000003,0.701832240842703,0.5751030275127388,1.389233381539553,-0.4099936059970408,,-0.5763938908006205,-0.24525855061962198,0.19034722360000003,0.43091283386069756,1.2319146818852111,-0.5344009914778591,0.7010727318483265,,-0.03987859174650544,-0.09379617566374027,0.05836094732,-0.08765896690267068,,-2.4400651e-06,1.9669533e-06,-3.5762787e-06,0.99999994,-1.5895814e-05,-1.3060868e-05,1.5888363e-05,1.0,-1.7881393e-06,1.3060868e-05,1.7285347e-06,1.0,297,0.921,0,1,0.498,False,-0.25952056931253775,0.8748855011394254
0.9139158800098812,10:47:24.091176,10:47:07.826597,0,,0.13405327,-0.003359273,0.018312052,-0.8586083,-0.47353864,-0.196349,-0.041313052,-0.31785697,0.94723815,-0.51096475,0.82141834,0.2533513,,0.024292521,-0.010855064,0.012952417,0.13566436,-0.58466715,0.7998495,-0.42968208,0.69271797,0.5792365,-0.89273095,-0.4222629,-0.15724403,,0.109346665,1.3586845,0.45858788,0.9961382,0.033218186,-0.08127279,-0.02585402,-0.7736439,-0.6330929,-0.0839064,0.63274926,-0.76979744,,-0.09183289,0.25445074,-0.06315023,0.89535046,0.3552715,0.2685699,-0.37928146,0.2921751,0.87794036,0.23343773,-0.88792783,0.39634702,,0.03911868,0.4391556,-0.30229834,-0.018362112,0.6744721,-0.7380719,-0.9165907,0.28353342,0.28190467,0.3994049,0.6816863,0.6130086,,1.2290111550698368,0.14585925579547832,0.18633261347000002,0.701832240842703,0.5740099355146153,1.3893079373677186,-0.4099936059970408,,-0.5766024045882245,-0.24546706440722604,0.19035500134000002,0.43091283386069756,1.2319146818852111,-0.5339109190370157,0.700746043716058,,-0.03987859174650544,-0.09379617566374027,0.05836094732,-0.08765896690267068,,-2.4400651e-06,1.9669533e-06,-3.5762787e-06,0.99999994,-1.5895814e-05,-1.3060868e-05,1.5888363e-05,1.0,-1.7881393e-06,1.3060868e-05,1.7285347e-06,1.0,305,0.946,0,1,0.498,False,-0.25910352528289105,0.8749820615409845
0.9640943270060234,10:47:24.121920,10:47:07.826597,0,,0.13408339,-0.0033134073,0.018305048,-0.8584296,-0.4737112,-0.19671379,-0.04143904,-0.3182068,0.9471152,-0.5112548,0.8211833,0.25352794,,0.024305642,-0.010869399,0.01295194,0.13571665,-0.58461905,0.79987586,-0.4297506,0.69270253,0.5792042,-0.89269006,-0.42235482,-0.15722924,,0.109346665,1.3586845,0.45858788,0.9961382,0.033218186,-0.08127279,-0.02585402,-0.7736439,-0.6330929,-0.0839064,0.63274926,-0.76979744,,-0.09185722,0.2544812,-0.063110985,0.8951887,0.35542873,0.26890084,-0.3795642,0.29175442,0.87795806,0.23359852,-0.88800323,0.39608327,,0.03910512,0.43914363,-0.30230543,-0.018423209,0.6744378,-0.7381017,-0.91661894,0.28345853,0.28188828,0.39933735,0.6817513,0.6129803,,1.2289725414054657,0.1461372741789504,0.18635465040000002,0.701412860955734,0.5740099355146153,1.3893079373677186,-0.4099936059970408,,-0.5766641864512183,-0.2455520144688425,0.19036018650000003,0.43091283386069756,1.2319146818852111,-0.5339109190370157,0.700746043716058,,-0.03987859174650544,-0.09379617566374027,0.05836094732,-0.08765896690267068,,-2.4400651e-06,1.9669533e-06,-3.5762787e-06,0.99999994,-1.5895814e-05,-1.3060868e-05,1.5888363e-05,1.0,-1.7881393e-06,1.3060868e-05,1.7285347e-06,1.0,318,0.986,0,1,0.498,False,-0.25880563669028556,0.8749820615409845
0.9948228260036558,10:47:24.155627,10:47:07.826597,0,,0.13408552,-0.0033065677,0.018292949,-0.8584765,-0.47362858,-0.19670808,-0.041491926,-0.3181569,0.9471296,-0.51117176,0.8212504,0.2534784,,0.024318293,-0.010878295,0.012954861,0.13584529,-0.58471864,0.79978126,-0.4298175,0.6925546,0.5793313,-0.8926382,-0.4224595,-0.15724212,,0.109346665,1.3586845,0.45858788,0.9961382,0.033218186,-0.08127279,-0.02585402,-0.7736439,-0.6330929,-0.0839064,0.63274926,-0.76979744,,-0.09185742,0.25447845,-0.0630972,0.8952215,0.3553456,0.26890153,-0.37955028,0.29183725,0.87793654,0.23349543,-0.8880093,0.3961305,,0.039091747,0.43913805,-0.30231163,-0.018561289,0.67454505,-0.73800033,-0.9166438,0.28328505,0.28198174,0.39927384,0.68171734,0.6130594,,1.2289570959397174,0.14616044237757306,0.1863676133,0.701412860955734,0.5738732990148498,1.3892559977911343,-0.4096669178647725,,-0.5767414137799606,-0.2456137963318363,0.19036148279,0.430703143917213,1.2319146818852111,-0.5339109190370157,0.700746043716058,,-0.03987859174650544,-0.09379617566374027,0.05836094732,-0.08765896690267068,,-2.4400651e-06,1.9669533e-06,-3.5762787e-06,0.99999994,-1.5895814e-05,-1.3060868e-05,1.5888363e-05,1.0,-1.7881393e-06,1.3060868e-05,1.7285347e-06,1.0,331,1.027,0,1,0.498,False,-0.2589247921273281,0.8749337813402049
1.0285589220002294,10:47:24.203119,10:47:07.826597,0,,0.13407041,-0.0032946765,0.018270358,-0.8585668,-0.47346708,-0.19670291,-0.041564032,-0.31812024,0.9471388,-0.5110142,0.82135767,0.25344825,,0.024321213,-0.010882035,0.01295194,0.13578188,-0.5846959,0.7998086,-0.42981026,0.6925963,0.5792869,-0.8926513,-0.4224227,-0.15726638,,0.109346665,1.3586845,0.45858788,0.9961382,0.033218186,-0.08127279,-0.02585402,-0.7736439,-0.6330929,-0.0839064,0.63274926,-0.76979744,,-0.091839015,0.25447237,-0.06307473,0.89528793,0.3551791,0.2689003,-0.37950265,0.29193777,0.8779237,0.233318,-0.88804287,0.39615977,,0.039089143,0.43913314,-0.30231148,-0.018496351,0.67451894,-0.7380258,-0.91664284,0.28333902,0.28193063,0.39927906,0.68172073,0.61305225,,1.2290188778027111,0.1461372741789504,0.1863935391,0.701412860955734,0.5737366625150844,1.3892040582145495,-0.4096669178647723,,-0.5767414137799606,-0.24562924179758475,0.19036537166000003,0.43091283386069756,1.2319146818852111,-0.5337475615567346,0.7010727318483265,,-0.03987859174650544,-0.09379617566374027,0.05836094732,-0.08765896690267068,,-2.4400651e-06,1.9669533e-06,-3.5762787e-06,0.99999994,-1.5895814e-05,-1.3060868e-05,1.5888363e-05,1.0,-1.7881393e-06,1.3060868e-05,1.7285347e-06,1.0,344,1.068,0,1,0.498,False,-0.2589843698458485,0.8750303417417644
1.0760489189997315,10:47:24.235683,10:47:08.031435,0,,0.13402234,-0.0032625347,0.018263474,-0.8585916,-0.47337788,-0.19680884,-0.04162036,-0.31826633,0.9470872,-0.5109678,0.8213525,0.2535586,,0.02431897,-0.010882527,0.012950033,0.13576889,-0.5847686,0.79975766,-0.42981213,0.6925472,0.5793442,-0.8926524,-0.42240262,-0.15731436,,0.109346665,1.3586845,0.45858788,0.9961382,0.033218186,-0.08127279,-0.02585402,-0.7736439,-0.6330929,-0.0839064,0.63274926,-0.76979744,,-0.091787405,0.2544914,-0.06305559,0.8953021,0.35507607,0.26898897,-0.37951505,0.29182544,0.87795573,0.23324324,-0.888121,0.39602867,,0.03909163,0.43913165,-0.30231068,-0.018483441,0.67458534,-0.73796546,-0.9166441,0.28331992,0.28194574,0.39927676,0.68166304,0.61311793,,1.229320064384806,0.14611410598032773,0.18641687232,0.7012031710122495,0.5738732990148498,1.389092640310853,-0.4096669178647723,,-0.5767259683142122,-0.24562924179758475,0.19036666795,0.43091283386069756,1.2319146818852111,-0.5336658828165941,0.7009093877821923,,-0.03987859174650544,-0.09379617566374027,0.05836094732,-0.08765896690267068,,-2.4400651e-06,1.9669533e-06,-3.5762787e-06,0.99999994,-1.5895814e-05,-1.3060868e-05,1.5888363e-05,1.0,-1.7881393e-06,1.3060868e-05,1.7285347e-06,1.0,357,1.11,0,1,0.498,False,-0.2590439475643693,0.8752717427456611
1.1086082350084325,10:47:24.283052,10:47:08.031435,0,,0.13394609,-0.003219664,0.018229693,-0.85882246,-0.47342935,-0.19567455,-0.040798932,-0.317547,0.9473644,-0.510646,0.8216012,0.25340104,,0.024328947,-0.010881081,0.012954086,0.13582087,-0.5848044,0.79972273,-0.42980483,0.6925069,0.5793978,-0.8926481,-0.42241907,-0.15729499,,0.109346665,1.3586845,0.45858788,0.9961382,0.033218186,-0.08127279,-0.02585402,-0.7736439,-0.6330929,-0.0839064,0.63274926,-0.76979744,,-0.09170416,0.25450042,-0.063013375,0.895585,0.35517788,0.2679107,-0.37868762,0.2925306,0.87807834,0.23350193,-0.88784826,0.39648747,,0.039081227,0.43913475,-0.3023113,-0.018535081,0.6746213,-0.7379313,-0.9166391,0.2832811,0.28200108,0.3992859,0.68164355,0.6131336,,1.229767982891511,0.14602143318583702,0.18647261279000002,0.7020419307861875,0.5742832085141462,1.3885950291194826,-0.4099936059970408,,-0.576787750177206,-0.24562924179758475,0.19036537166000003,0.43091283386069756,1.2319146818852111,-0.5335842040764536,0.700746043716058,,-0.03987859174650544,-0.09379617566374027,0.05836094732,-0.08765896690267068,,-2.4400651e-06,1.9669533e-06,-3.5762787e-06,0.99999994,-1.5895814e-05,-1.3060868e-05,1.5888363e-05,1.0,-1.7881393e-06,1.3060868e-05,1.7285347e-06,1.0,366,1.138,0,1,0.498,False,-0.2594014138754961,0.8750303417417644
1.1559481220028829,10:47:24.310298,10:47:08.031435,0,,0.1339147,-0.00320898,0.018207267,-0.85867584,-0.4738165,-0.19538072,-0.04057817,-0.31716892,0.94750047,-0.51091015,0.821524,0.2531187,,0.024329081,-0.010882467,0.012954205,0.1358209,-0.5847374,0.7997717,-0.42981172,0.6925522,0.57933855,-0.89264476,-0.42243758,-0.157264,,0.109346665,1.3586845,0.45858788,0.9961382,0.033218186,-0.08127279,-0.02585402,-0.7736439,-0.6330929,-0.0839064,0.63274926,-0.76979744,,-0.09166978,0.2544933,-0.062994145,0.89548874,0.3556081,0.2676617,-0.3786922,0.2927594,0.8780001,0.23386347,-0.8876006,0.39682877,,0.039081007,0.4391338,-0.30231228,-0.01853594,0.67456007,-0.7379872,-0.9166421,0.28329876,0.28197354,0.39927894,0.6816968,0.61307895,,1.2299224375489954,0.1459210376584721,0.18650242746,0.7020419307861875,0.5748297545132081,1.3881493575046968,-0.4099936059970408,,-0.576787750177206,-0.24563696453045897,0.19036537166000003,0.43091283386069756,1.2319146818852111,-0.5336658828165941,0.7005826996499238,,-0.03987859174650544,-0.09379617566374027,0.05836094732,-0.08765896690267068,,-2.4400651e-06,1.9669533e-06,-3.5762787e-06,0.99999994,-1.5895814e-05,-1.3060868e-05,1.5888363e-05,1.0,-1.7881393e-06,1.3060868e-05,1.7285347e-06,1.0,379,1.179,0,1,0.498,False,-0.2589843698458485,0.8754165833479997
1.1832181250065332,10:47:24.353241,10:47:08.031435,0,,0.13384455,-0.0031740814,0.018148378,-0.8588791,-0.4738602,-0.19437887,-0.0398082,-0.3166053,0.9477216,-0.510629,0.82171625,0.25306207,,0.024327986,-0.010881394,0.012952477,0.13581438,-0.58493876,0.7996256,-0.42980567,0.69241136,0.5795113,-0.8926485,-0.42238975,-0.15737072,,0.109346665,1.3586845,0.45858788,0.9961382,0.033218186,-0.08127279,-0.02585402,-0.7736439,-0.6330929,-0.0839064,0.63274926,-0.76979744,,-0.09159098,0.25447994,-0.06293743,0.8957429,0.35569146,0.26669875,-0.3779299,0.29331008,0.87814474,0.23412317,-0.88738537,0.39715686,,0.039082397,0.43913352,-0.30231047,-0.018528627,0.67474484,-0.7378185,-0.9166397,0.28323698,0.28204334,0.39928478,0.6815396,0.61324996,,1.2302776832612097,0.14577430573386185,0.18657761228000003,0.7028806905601256,0.5752396640125043,1.3878967825337485,-0.40983026193090644,,-0.5767800274443318,-0.24562924179758475,0.19036666795,0.43091283386069756,1.2319146818852111,-0.5334208465961725,0.7010727318483265,,-0.03987859174650544,-0.09379617566374027,0.05836094732,-0.08765896690267068,,-2.4400651e-06,1.9669533e-06,-3.5762787e-06,0.99999994,-1.5895814e-05,-1.3060868e-05,1.5888363e-05,1.0,-1.7881393e-06,1.3060868e-05,1.7285347e-06,1.0,392,1.22,0,1,0.498,False,-0.2594014138754961,0.8755614239503382
1.2261816050013294,10:47:24.390903,10:47:08.184710,0,,0.13372886,-0.0031148791,0.018133596,-0.85907394,-0.47368214,-0.19395155,-0.03943114,-0.31655067,0.94775563,-0.51033044,0.8218399,0.25326264,,0.024328128,-0.010882795,0.012952656,0.1358144,-0.58493704,0.79962677,-0.42981264,0.6924093,0.5795086,-0.89264524,-0.42239538,-0.15737423,,0.109346665,1.3586845,0.45858788,0.9961382,0.033218186,-0.08127279,-0.02585402,-0.7736439,-0.6330929,-0.0839064,0.63274926,-0.76979744,,-0.091468856,0.25451317,-0.06290447,0.89594597,0.35550886,0.2662598,-0.3774524,0.2934351,0.87830836,0.23411642,-0.8874172,0.39708966,,0.03908218,0.43913257,-0.30231145,-0.018529486,0.67474395,-0.73781925,-0.9166427,0.28323162,0.2820389,0.3992778,0.6815427,0.613251,,1.23097272921989,0.14565074200787426,0.18662557501000002,0.7030903805036102,0.5756495735118006,1.3876442075627997,-0.4099936059970408,,-0.5767800274443318,-0.24563696453045897,0.19036666795,0.43091283386069756,1.2319146818852111,-0.5334208465961725,0.7010727318483265,,-0.03987859174650544,-0.09379617566374027,0.05836094732,-0.08765896690267068,,-2.4400651e-06,1.9669533e-06,-3.5762787e-06,0.99999994,-1.5895814e-05,-1.3060868e-05,1.5888363e-05,1.0,-1.7881393e-06,1.3060868e-05,1.7285347e-06,1.0,405,1.262,0,1,0.498,False,-0.2591631030014119,0.8754165833479997
1.2638004230102524,10:47:24.431784,10:47:08.184710,0,,0.13363364,-0.0030609518,0.018141016,-0.85927683,-0.47346073,-0.19359265,-0.039080143,-0.31659976,0.9477538,-0.5100156,0.8219486,0.25354385,,0.024329543,-0.010883957,0.012953132,0.13582093,-0.58486634,0.7996774,-0.42981854,0.69245553,0.579449,-0.89264137,-0.42241758,-0.15733653,,0.109346665,1.3586845,0.45858788,0.9961382,0.033218186,-0.08127279,-0.02585402,-0.7736439,-0.6330929,-0.0839064,0.63274926,-0.76979744,,-0.09136969,0.2545573,-0.06288861,0.8961528,0.355274,0.26587692,-0.37698403,0.29347274,0.8784969,0.23407947,-0.8874988,0.39692906,,0.039080642,0.43913192,-0.3023124,-0.018536799,0.67467976,-0.7378778,-0.9166451,0.28324732,0.28201538,0.39927197,0.68159974,0.61319137,,1.231590547849828,0.1456044056106289,0.18664890823000002,0.7033000704470947,0.5759228465113315,1.3875030504955475,-0.40983026193090666,,-0.576787750177206,-0.24564468726333322,0.19036666795,0.43091283386069756,1.2319146818852111,-0.533502525336313,0.7009093877821923,,-0.03987859174650544,-0.09379617566374027,0.05836094732,-0.08765896690267068,,-2.4400651e-06,1.9669533e-06,-3.5762787e-06,0.99999994,-1.5895814e-05,-1.3060868e-05,1.5888363e-05,1.0,-1.7881393e-06,1.3060868e-05,1.7285347e-06,1.0,414,1.29,0,1,0.498,False,-0.2594609915940169,0.8757062645526763
1.3046877400047379,10:47:24.459675,10:47:08.184710,0,,0.13360487,-0.0030420572,0.018151656,-0.85941005,-0.4732945,-0.19340792,-0.038883463,-0.31667957,0.9477352,-0.50980616,0.8220136,0.25375426,,0.02433084,-0.010883778,0.01295349,0.13582742,-0.58486265,0.799679,-0.42981774,0.69245636,0.57944864,-0.8926408,-0.42242128,-0.1573298,,0.109346665,1.3586845,0.45858788,0.9961382,0.033218186,-0.08127279,-0.02585402,-0.7736439,-0.6330929,-0.0839064,0.63274926,-0.76979744,,-0.09134029,0.2545781,-0.06288841,0.8962847,0.35509476,0.2656716,-0.3767002,0.29345766,0.87862366,0.23403129,-0.8875755,0.39678589,,0.03907932,0.43913218,-0.30231237,-0.018543255,0.6746767,-0.7378804,-0.9166445,0.28324533,0.2820194,0.3992731,0.68160355,0.61318636,,1.231799061637432,0.14561985107637734,0.18664890823000002,0.7035097603905792,0.5759228465113315,1.387584729235688,-0.40999360599704104,,-0.5767954729100802,-0.24564468726333322,0.19036666795,0.43091283386069756,1.2319146818852111,-0.533502525336313,0.7012360759144608,,-0.03987859174650544,-0.09379617566374027,0.05836094732,-0.08765896690267068,,-2.4400651e-06,1.9669533e-06,-3.5762787e-06,0.99999994,-1.5895814e-05,-1.3060868e-05,1.5888363e-05,1.0,-1.7881393e-06,1.3060868e-05,1.7285347e-06,1.0,427,1.33,0,1,0.498,False,-0.259580147031059,0.8753200229464406
1.3325769119983306,10:47:24.499507,10:47:08.318885,0,,0.13359204,-0.0030364841,0.018166512,-0.8594507,-0.47320896,-0.1934365,-0.038862586,-0.316811,0.94769216,-0.5097393,0.8220122,0.25389335,,0.024333023,-0.010883838,0.012952775,0.135694,-0.584568,0.7999171,-0.42976964,0.6927383,0.5791473,-0.8926842,-0.42236698,-0.15722921,,0.109346665,1.3586845,0.45858788,0.9961382,0.033218186,-0.08127279,-0.02585402,-0.7736439,-0.6330929,-0.0839064,0.63274926,-0.76979744,,-0.09132844,0.25459188,-0.062897734,0.8963206,0.35499656,0.26568183,-0.37664115,0.29335883,0.878682,0.23398896,-0.88764745,0.39664987,,0.03907727,0.43913153,-0.30231154,-0.018402642,0.674391,-0.7381451,-0.91662806,0.28347424,0.28184274,0.3993173,0.6817912,0.612949,,1.231899457164797,0.1456275738092516,0.18663853791,0.7035097603905792,0.5759228465113315,1.3876664079758285,-0.4098302619309069,,-0.576787750177206,-0.24563696453045897,0.19036796424000002,0.4313322137476666,1.2319146818852111,-0.533502525336313,0.7015627640467295,,-0.03987859174650544,-0.09379617566374027,0.05836094732,-0.08765896690267068,,-2.4400651e-06,1.9669533e-06,-3.5762787e-06,0.99999994,-1.5895814e-05,-1.3060868e-05,1.5888363e-05,1.0,-1.7881393e-06,1.3060868e-05,1.7285347e-06,1.0,440,1.372,0,1,0.498,False,-0.25910352528289105,0.875126902143323
1.3724156429962022,10:47:24.539068,10:47:08.318885,0,,0.13359378,-0.003043279,0.018180385,-0.8594007,-0.47320053,-0.19367978,-0.039022744,-0.31698987,0.94762576,-0.5098115,0.8219482,0.25395563,,0.024331734,-0.010884002,0.012952417,0.1356875,-0.5846369,0.7998677,-0.42977056,0.6926901,0.5792042,-0.8926848,-0.42235047,-0.15727043,,0.109346665,1.3586845,0.45858788,0.9961382,0.033218186,-0.08127279,-0.02585402,-0.7736439,-0.6330929,-0.0839064,0.63274926,-0.76979744,,-0.09133224,0.25459588,-0.0629123,0.89626133,0.35497573,0.26590955,-0.37680864,0.293182,0.8786692,0.23394635,-0.88771427,0.3965256,,0.03907859,0.43913126,-0.30231157,-0.018396186,0.6744543,-0.7380874,-0.9166287,0.2834532,0.28186187,0.39931616,0.6817373,0.6130097,,1.2318917344319227,0.14561985107637734,0.18662298243000003,0.7033000704470947,0.5759228465113315,1.3877480867159693,-0.4096669178647723,,-0.5767800274443318,-0.24563696453045897,0.19036796424000002,0.4313322137476666,1.2319146818852111,-0.5334208465961725,0.7013994199805952,,-0.03987859174650544,-0.09379617566374027,0.05836094732,-0.08765896690267068,,-2.4400651e-06,1.9669533e-06,-3.5762787e-06,0.99999994,-1.5895814e-05,-1.3060868e-05,1.5888363e-05,1.0,-1.7881393e-06,1.3060868e-05,1.7285347e-06,1.0,449,1.4,0,1,0.498,False,-0.25952056931253775,0.8754165833479997
1.4120093960082158,10:47:24.567863,10:47:08.318885,0,,0.13359581,-0.0030510873,0.018196672,-0.85935044,-0.47320777,-0.19388431,-0.03918287,-0.3170913,0.9475852,-0.50988376,0.8219048,0.25395095,,0.024335772,-0.010884076,0.012952417,0.13565351,-0.58470565,0.79982334,-0.42988408,0.69259834,0.5792297,-0.8926353,-0.4224059,-0.15740237,,0.109346665,1.3586845,0.45858788,0.9961382,0.033218186,-0.08127279,-0.02585402,-0.7736439,-0.6330929,-0.0839064,0.63274926,-0.76979744,,-0.09133666,0.2546007,-0.06292925,0.896202,0.35497656,0.26610824,-0.3769761,0.2930769,0.8786324,0.23390375,-0.8877486,0.3964738,,0.039074607,0.43913093,-0.302311,-0.018375572,0.6745261,-0.73802227,-0.9166797,0.28335217,0.28179768,0.3992001,0.6817082,0.61311764,,1.2318840116990484,0.14561212834350312,0.18660483437000003,0.7030903805036102,0.5759228465113315,1.3877480867159693,-0.4096669178647723,,-0.5768031956429545,-0.24563696453045897,0.19036796424000002,0.4313322137476666,1.2317780453854457,-0.5333094286924762,0.7013994199805952,,-0.03987859174650544,-0.09379617566374027,0.05836094732,-0.08765896690267068,,-2.4400651e-06,1.9669533e-06,-3.5762787e-06,0.99999994,-1.5895814e-05,-1.3060868e-05,1.5888363e-05,1.0,-1.7881393e-06,1.3060868e-05,1.7285347e-06,1.0,462,1.441,0,1,0.498,False,-0.2593418361569748,0.8752717427456611
1.44077374500921,10:47:24.615951,10:47:08.318885,0,,0.13359933,-0.0030774921,0.018257186,-0.85945934,-0.47317633,-0.19347821,-0.038877055,-0.3168797,0.94766855,-0.50972366,0.8220045,0.25394943,,0.024342552,-0.010883436,0.012952894,0.13568601,-0.5848178,0.7997358,-0.4298795,0.69250804,0.57934105,-0.8926326,-0.42239854,-0.15743762,,0.109346665,1.3586845,0.45858788,0.9961382,0.033218186,-0.08127279,-0.02585402,-0.7736439,-0.6330929,-0.0839064,0.63274926,-0.76979744,,-0.091348805,0.25462055,-0.06299112,0.89632607,0.3549578,0.26571515,-0.37664196,0.29330245,0.87870044,0.23396666,-0.8876816,0.39658663,,0.039067864,0.43913132,-0.30231,-0.018407846,0.6746315,-0.7379252,-0.9166765,0.28329626,0.2818641,0.39920583,0.68162715,0.61320394,,1.231907179897671,0.1456044056106289,0.18653872358,0.7035097603905792,0.5759228465113315,1.3877480867159693,-0.4096669178647723,,-0.5768418093073255,-0.24563696453045897,0.19036926053000003,0.4313322137476666,1.2317780453854457,-0.5331460712121949,0.7010727318483266,,-0.03987859174650544,-0.09379617566374027,0.05836094732,-0.08765896690267068,,-2.4400651e-06,1.9669533e-06,-3.5762787e-06,0.99999994,-1.5895814e-05,-1.3060868e-05,1.5888363e-05,1.0,-1.7881393e-06,1.3060868e-05,1.7285347e-06,1.0,475,1.482,0,1,0.498,False,-0.2590439475643693,0.8750303417417644
1.4888932559988461,10:47:24.658747,10:47:08.473356,0,,0.13355947,-0.0030882657,0.018357232,-0.85904783,-0.4731276,-0.19541502,-0.040344834,-0.31798273,0.94723773,-0.5103029,0.8216066,0.25407407,,0.024346888,-0.010884419,0.012952834,0.13570552,-0.5848051,0.7997418,-0.4298836,0.6925087,0.57933724,-0.8926276,-0.42241526,-0.15742093,,0.109346665,1.3586845,0.45858788,0.9961382,0.033218186,-0.08127279,-0.02585402,-0.7736439,-0.6330929,-0.0839064,0.63274926,-0.76979744,,-0.09132025,0.25467747,-0.06307864,0.895822,0.3548332,0.2675749,-0.37812325,0.2922099,0.8784283,0.23350745,-0.8880917,0.39593872,,0.03906354,0.43913025,-0.30231,-0.018428067,0.67462146,-0.7379338,-0.91667765,0.28328496,0.28187177,0.3992023,0.6816418,0.61319,,1.2321929210140175,0.1455426237476351,0.18644668699000003,0.701412860955734,0.576059483011097,1.3876366688122728,-0.4096669178647723,,-0.5768649775059482,-0.24564468726333322,0.19037055682,0.4313322137476666,1.2317780453854457,-0.5331460712121949,0.7010727318483266,,-0.03987859174650544,-0.09379617566374027,0.05836094732,-0.08765896690267068,,-2.4400651e-06,1.9669533e-06,-3.5762787e-06,0.99999994,-1.5895814e-05,-1.3060868e-05,1.5888363e-05,1.0,-1.7881393e-06,1.3060868e-05,1.7285347e-06,1.0,488,1.524,0,1,0.498,False,-0.2585077480976805,0.8750303417417644
1.5316402550088242,10:47:24.697584,10:47:08.473356,0,,0.13350639,-0.0031070411,0.018479109,-0.85903907,-0.47266978,-0.19655812,-0.04117231,-0.31893083,0.9468832,-0.5102515,0.8215025,0.25451314,,0.024347357,-0.010885999,0.0129517615,0.13570555,-0.5848687,0.79969525,-0.4298905,0.6924593,0.5793911,-0.8926244,-0.42240807,-0.15745902,,0.109346665,1.3586845,0.45858788,0.9961382,0.033218186,-0.08127279,-0.02585402,-0.7736439,-0.6330929,-0.0839064,0.63274926,-0.76979744,,-0.09128157,0.2547425,-0.06318954,0.89572185,0.35429114,0.26862633,-0.37871367,0.29143313,0.8784319,0.23293403,-0.88856316,0.39521793,,0.03906317,0.43912834,-0.3023101,-0.018428925,0.6746808,-0.7378795,-0.9166807,0.28325656,0.28189048,0.3991953,0.68159485,0.61324674,,1.2325713349248544,0.14546539641889286,0.18633131718,0.7003644112383114,0.5759228465113315,1.3879114441962503,-0.40934022973250395,,-0.5768649775059482,-0.24565240999620744,0.19037185311000002,0.4313322137476666,1.2317780453854457,-0.5330643924720544,0.7009093877821924,,-0.03987859174650544,-0.09379617566374027,0.05836094732,-0.08765896690267068,,-2.4400651e-06,1.9669533e-06,-3.5762787e-06,0.99999994,-1.5895814e-05,-1.3060868e-05,1.5888363e-05,1.0,-1.7881393e-06,1.3060868e-05,1.7285347e-06,1.0,497,1.552,0,1,0.498,False,-0.2591631030014119,0.875126902143323
1.5704904860031093,10:47:24.724092,10:47:08.473356,0,,0.13347062,-0.0031263381,0.018591419,-0.85899585,-0.47195417,-0.19845746,-0.04265268,-0.320311,0.9463517,-0.51020277,0.821377,0.2550157,,0.024355724,-0.0108870715,0.012951702,0.13569106,-0.5849245,0.79965687,-0.43000823,0.6923681,0.57941276,-0.8925698,-0.4224802,-0.15757427,,0.109346665,1.3586845,0.45858788,0.9961382,0.033218186,-0.08127279,-0.02585402,-0.7736439,-0.6330929,-0.0839064,0.63274926,-0.76979744,,-0.09125915,0.25480112,-0.06329118,0.8955196,0.35345095,0.27040157,-0.37979785,0.29032025,0.8783324,0.23194437,-0.88926184,0.3942274,,0.039054863,0.43912694,-0.30230957,-0.018428523,0.6747426,-0.737823,-0.9167328,0.28314427,0.2818339,0.3990757,0.6815803,0.61334074,,1.2328261851097038,0.14542678275452176,0.18622113253000003,0.6986868916904352,0.5753763005122697,1.388357115811036,-0.40934022973250395,,-0.5769113139031935,-0.24566013272908166,0.19037314940000002,0.4313322137476666,1.2316414088856802,-0.5329529745683577,0.7005826996499237,,-0.03987859174650544,-0.09379617566374027,0.05836094732,-0.08765896690267068,,-2.4400651e-06,1.9669533e-06,-3.5762787e-06,0.99999994,-1.5895814e-05,-1.3060868e-05,1.5888363e-05,1.0,-1.7881393e-06,1.3060868e-05,1.7285347e-06,1.0,510,1.593,0,1,0.498,False,-0.2586269035347226,0.8749337813402049
1.597005743009504,10:47:24.766764,10:47:08.588444,0,,0.13345397,-0.0031523257,0.01874943,-0.85844207,-0.47173965,-0.20134269,-0.044818953,-0.322057,0.94565874,-0.5109486,0.82081723,0.2553244,,0.024369225,-0.010888353,0.012954265,0.13575609,-0.5848843,0.79967535,-0.4300128,0.6923728,0.57940376,-0.89255774,-0.4225283,-0.15751398,,0.109346665,1.3586845,0.45858788,0.9961382,0.033218186,-0.08127279,-0.02585402,-0.7736439,-0.6330929,-0.0839064,0.63274926,-0.76979744,,-0.0912608,0.25488496,-0.06342861,0.894818,0.35311082,0.27315462,-0.38191327,0.28863895,0.87796915,0.23117736,-0.88994396,0.39313704,,0.039041083,0.4391268,-0.30231035,-0.01849478,0.6747104,-0.73785084,-0.91673255,0.28311375,0.28186533,0.39907318,0.6816249,0.6132928,,1.233034698897308,0.14544995095314442,0.18606687402000002,0.6957512324816518,0.5752396640125043,1.388468533714732,-0.40966691786477205,,-0.5769885412319358,-0.2456755781948301,0.19037444569000003,0.4313322137476666,1.2316414088856802,-0.5329529745683577,0.7005826996499237,,-0.03987859174650544,-0.09379617566374027,0.05836094732,-0.08765896690267068,,-2.4400651e-06,1.9669533e-06,-3.5762787e-06,0.99999994,-1.5895814e-05,-1.3060868e-05,1.5888363e-05,1.0,-1.7881393e-06,1.3060868e-05,1.7285347e-06,1.0,523,1.635,0,1,0.498,False,-0.25922268071993226,0.8753200229464406
1.6397042500029784,10:47:24.806672,10:47:08.588444,0,,0.1334285,-0.0031767339,0.018911049,-0.85800534,-0.47160769,-0.20350215,-0.046450973,-0.3233283,0.9451461,-0.5115362,0.8203932,0.2555107,,0.024376005,-0.010887727,0.012954801,0.13578857,-0.58493114,0.7996355,-0.43000826,0.6923299,0.5794585,-0.892555,-0.42253372,-0.15751481,,0.109346665,1.3586845,0.45858788,0.9961382,0.033218186,-0.08127279,-0.02585402,-0.7736439,-0.6330929,-0.0839064,0.63274926,-0.76979744,,-0.09125394,0.25497222,-0.06356898,0.89427257,0.3528888,0.27522013,-0.38352358,0.28740355,0.87767243,0.23062152,-0.89043176,0.3923583,,0.039034337,0.43912718,-0.30230933,-0.018527051,0.67475545,-0.7378088,-0.9167294,0.28308085,0.2819086,0.3990789,0.68159395,0.6133235,,1.23331271728078,0.14546539641889286,0.18591131922,0.693444643103322,0.5752396640125043,1.3883868549745917,-0.4098302619309062,,-0.577027154896307,-0.2456755781948301,0.19037574198,0.4313322137476666,1.2316414088856802,-0.5328712958282171,0.7007460437160581,,-0.03987859174650544,-0.09379617566374027,0.05836094732,-0.08765896690267068,,-2.4400651e-06,1.9669533e-06,-3.5762787e-06,0.99999994,-1.5895814e-05,-1.3060868e-05,1.5888363e-05,1.0,-1.7881393e-06,1.3060868e-05,1.7285347e-06,1.0,532,1.662,0,1,0.498,False,-0.2585077480976805,0.8755614239503382
1.6795909450011095,10:47:24.837993,10:47:08.588444,0,,0.13340925,-0.0031957328,0.019044742,-0.85742676,-0.4717684,-0.20555753,-0.0479611,-0.32444805,0.9446868,-0.5123662,0.81985855,0.25556388,,0.024390325,-0.0108873695,0.012958914,0.13586007,-0.5849542,0.79960644,-0.43000507,0.6922901,0.5795083,-0.8925457,-0.42256692,-0.15747875,,0.109346665,1.3586845,0.45858788,0.9961382,0.033218186,-0.08127279,-0.02585402,-0.7736439,-0.6330929,-0.0839064,0.63274926,-0.76979744,,-0.09124991,0.25504532,-0.063684046,0.89362323,0.3529831,0.27720118,-0.3851989,0.2862055,0.8773302,0.23034622,-0.8907802,0.39172855,,0.039019607,0.4391292,-0.30231002,-0.018598905,0.6747814,-0.7377833,-0.9167255,0.2830307,0.2819716,0.3990845,0.6815891,0.61332524,,1.2335366765341325,0.14547311915176708,0.1857842828,0.6911380537249923,0.5755129370120351,1.3881640191671987,-0.4098302619309062,,-0.5771121049579234,-0.24568330092770432,0.19037574198,0.4313322137476666,1.2316414088856802,-0.5327896170880766,0.7009093877821923,,-0.03987859174650544,-0.09379617566374027,0.05836094732,-0.08765896690267068,,-2.4400651e-06,1.9669533e-06,-3.5762787e-06,0.99999994,-1.5895814e-05,-1.3060868e-05,1.5888363e-05,1.0,-1.7881393e-06,1.3060868e-05,1.7285347e-06,1.0,545,1.703,0,1,0.498,False,-0.25952056931253775,0.8752717427456611
1.710923656995874,10:47:24.868365,10:47:08.588444,0,,0.13341661,-0.003248468,0.019266978,-0.8562926,-0.47344452,-0.20642972,-0.048410848,-0.32434645,0.9446988,-0.5142172,0.818932,0.25481558,,0.024399675,-0.010886401,0.012960166,0.13590556,-0.5849937,0.7995698,-0.42999864,0.69224894,0.5795622,-0.89254177,-0.42257977,-0.15746611,,0.109346665,1.3586845,0.45858788,0.9961382,0.033218186,-0.08127279,-0.02585402,-0.7736439,-0.6330929,-0.0839064,0.63274926,-0.76979744,,-0.091284394,0.25515148,-0.06388346,0.89263445,0.354743,0.27813873,-0.38673598,0.28564915,0.87683517,0.23160106,-0.8902595,0.39217216,,0.039010223,0.43913016,-0.30230895,-0.018644085,0.67482036,-0.7377465,-0.9167211,0.28299382,0.2820229,0.3990925,0.6815658,0.61334586,,1.2337451903217365,0.145504010083264,0.18556780237,0.6892508442336316,0.5772892115089859,1.3867972651592861,-0.40934022973250395,,-0.577166164088043,-0.24568330092770432,0.19037703827000002,0.4313322137476666,1.2316414088856802,-0.5327079383479361,0.7010727318483265,,-0.03987859174650544,-0.09379617566374027,0.05836094732,-0.08765896690267068,,-2.4400651e-06,1.9669533e-06,-3.5762787e-06,0.99999994,-1.5895814e-05,-1.3060868e-05,1.5888363e-05,1.0,-1.7881393e-06,1.3060868e-05,1.7285347e-06,1.0,558,1.745,0,1,0.498,False,-0.2580311263495121,0.8758993853557944
1.7413030910101952,10:47:24.919067,10:47:08.737628,0,,0.13343634,-0.0033433288,0.01973471,-0.8547561,-0.4742058,-0.21099964,-0.051390275,-0.32720703,0.94355416,-0.51647943,0.81735206,0.25531262,,0.02441968,-0.010888189,0.012960583,0.13592659,-0.5847271,0.7997613,-0.4299794,0.69244397,0.57934344,-0.89254785,-0.42262915,-0.15729913,,0.109346665,1.3586845,0.45858788,0.9961382,0.033218186,-0.08127279,-0.02585402,-0.7736439,-0.6330929,-0.0839064,0.63274926,-0.76979744,,-0.0913595,0.25538716,-0.064292096,0.8910233,0.35535184,0.2824936,-0.39044532,0.2824429,0.8762297,0.23158151,-0.8910393,0.39040866,,0.03899032,0.43912777,-0.30230755,-0.018663013,0.67457396,-0.73797137,-0.9167119,0.28309125,0.28195485,0.39911264,0.68176925,0.61310667,,1.234108158766825,0.1457279693366165,0.18510502684000002,0.684218285590003,0.578245667007344,1.3866707697545355,-0.40868685346796685,,-0.5772665596154078,-0.24569874639345277,0.19038222343000002,0.43154190369115114,1.2316414088856802,-0.5327896170880766,0.7012360759144608,,-0.03987859174650544,-0.09379617566374027,0.05836094732,-0.08765896690267068,,-2.4400651e-06,1.9669533e-06,-3.5762787e-06,0.99999994,-1.5895814e-05,-1.3060868e-05,1.5888363e-05,1.0,-1.7881393e-06,1.3060868e-05,1.7285347e-06,1.0,567,1.773,0,1,0.498,False,-0.25761408231986493,0.8755614239503382
1.7919893360085553,10:47:24.947167,10:47:08.737628,0,,0.13350503,-0.0033644438,0.019939631,-0.8538402,-0.47472095,-0.21353441,-0.05277367,-0.32916084,0.9427979,-0.51785314,0.8162678,0.25599796,,0.024430007,-0.010891616,0.012959927,0.13556209,-0.58418363,0.80022025,-0.42998916,0.69295764,0.5787217,-0.8925986,-0.4225388,-0.15725389,,0.109346665,1.3586845,0.45858788,0.9961382,0.033218186,-0.08127279,-0.02585402,-0.7736439,-0.6330929,-0.0839064,0.63274926,-0.76979744,,-0.0914497,0.25550672,-0.06444933,0.8901063,0.3557634,0.28485638,-0.39237678,0.2802497,0.8760711,0.23184313,-0.8915674,0.38904533,,0.038980078,0.43912408,-0.30230778,-0.018295912,0.6740481,-0.73846084,-0.9167289,0.2835023,0.2814863,0.39909068,0.6821184,0.61273247,,1.2340309314380828,0.1460986605145793,0.18490539818,0.6817020062681887,0.5786555765066402,1.3871533034448518,-0.4083601653356981,,-0.5772742823482822,-0.24569874639345277,0.19038481601,0.4325903534085737,1.2315047723859147,-0.5325148417040992,0.7009093877821923,,-0.03987859174650544,-0.09379617566374027,0.05836094732,-0.08765896690267068,,-2.4400651e-06,1.9669533e-06,-3.5762787e-06,0.99999994,-1.5895814e-05,-1.3060868e-05,1.5888363e-05,1.0,-1.7881393e-06,1.3060868e-05,1.7285347e-06,1.0,580,1.814,0,1,0.498,False,-0.2586269035347226,0.8753683031472201
1.820111752997036,10:47:24.986498,10:47:08.737628,0,,0.13355559,-0.003350407,0.020097643,-0.8534507,-0.4745149,-0.21553995,-0.05404277,-0.3307619,0.9421655,-0.518364,0.8157402,0.25664485,,0.024428882,-0.0108959675,0.012958556,0.13569564,-0.58473456,0.79979503,-0.4300581,0.69248056,0.5792414,-0.8925451,-0.42255893,-0.15750328,,0.109346665,1.3586845,0.45858788,0.9961382,0.033218186,-0.08127279,-0.02585402,-0.7736439,-0.6330929,-0.0839064,0.63274926,-0.76979744,,-0.09151369,0.25562176,-0.06455127,0.8896381,0.3554437,0.28671208,-0.39366364,0.2786987,0.87598854,0.23145832,-0.8921809,0.38786626,,0.038981173,0.43912002,-0.3023098,-0.018439185,0.6745724,-0.7379784,-0.9167545,0.28316525,0.28174222,0.39902535,0.6817401,0.6131959,,1.2340463769038312,0.14653885628841007,0.1847602137,0.679814796776828,0.578245667007344,1.3875692358960816,-0.40819682126956347,,-0.5772820050811563,-0.24572963732494968,0.19038611230000002,0.43217097352160466,1.2315047723859147,-0.532188126743537,0.7005826996499237,,-0.03987859174650544,-0.09379617566374027,0.05836094732,-0.08765896690267068,,-2.4400651e-06,1.9669533e-06,-3.5762787e-06,0.99999994,-1.5895814e-05,-1.3060868e-05,1.5888363e-05,1.0,-1.7881393e-06,1.3060868e-05,1.7285347e-06,1.0,593,1.856,0,1,0.498,False,-0.2590439475643693,0.875126902143323
1.8594324440055061,10:47:25.028879,10:47:08.737628,0,,0.13351858,-0.0034131259,0.02028051,-0.8526292,-0.47428244,-0.21927063,-0.056997195,-0.33271837,0.9413021,-0.51939845,0.81507957,0.2566526,,0.02443096,-0.010896385,0.012953848,0.13584214,-0.58502173,0.79956007,-0.43010443,0.6922003,0.5795418,-0.8925004,-0.42262062,-0.15759057,,0.109346665,1.3586845,0.45858788,0.9961382,0.033218186,-0.08127279,-0.02585402,-0.7736439,-0.6330929,-0.0839064,0.63274926,-0.76979744,,-0.091501474,0.25569388,-0.06473402,0.88861734,0.35507372,0.29031345,-0.3965591,0.27679265,0.87528664,0.23043464,-0.8929213,0.38677046,,0.038979836,0.43911645,-0.30230626,-0.018592812,0.67485195,-0.7377189,-0.9167697,0.28293222,0.28192672,0.39898324,0.68156016,0.6134233,,1.2342935043558065,0.14650024262403896,0.18458910342,0.675830687850622,0.5781090305075786,1.3873539388392158,-0.4088501975341008,,-0.577305173279779,-0.2457373600578239,0.19039129746000003,0.4317515936346356,1.2315047723859147,-0.532188126743537,0.7005826996499237,,-0.03987859174650544,-0.09379617566374027,0.05836094732,-0.08765896690267068,,-2.4400651e-06,1.9669533e-06,-3.5762787e-06,0.99999994,-1.5895814e-05,-1.3060868e-05,1.5888363e-05,1.0,-1.7881393e-06,1.3060868e-05,1.7285347e-06,1.0,602,1.883,0,1,0.498,False,-0.25785239319394915,0.8751751823441025
1.9018204809981398,10:47:25.058528,10:47:08.737628,0,,0.13351896,-0.003494218,0.02041854,-0.85123724,-0.47635865,-0.22017598,-0.05759582,-0.3322188,0.94144225,-0.52161074,0.814072,0.25536063,,0.024447992,-0.010902286,0.012945801,0.13588499,-0.58496237,0.79959625,-0.43009084,0.6922351,0.57951045,-0.8925005,-0.42264587,-0.15752268,,0.10931937,1.3586853,0.45858955,0.9961391,0.03324508,-0.08125078,-0.025819391,-0.7736428,-0.63309574,-0.0839064,0.63274926,-0.76979744,,-0.09150188,0.2557215,-0.064891644,0.8873987,0.3572914,0.29131833,-0.39841864,0.2764896,0.87453765,0.23191829,-0.89213026,0.38770807,,0.038986202,0.43910807,-0.30230018,-0.018618692,0.67477626,-0.7377875,-0.9167639,0.2829542,0.28192362,0.39899543,0.68162596,0.6133423,,1.2344247908146684,0.14616044237757306,0.18444521523000001,0.6737337884157768,0.580431851003591,1.3856231919566577,-0.40852350940183224,,-0.5773360642112759,-0.2457373600578239,0.19039259375,0.4317515936346356,1.2315047723859147,-0.5322698054836775,0.700746043716058,,-0.03987859174650544,-0.09379617566374027,0.05836094732,-0.08765896690267068,,-2.9791147e-05,1.4901161e-06,-2.9802322e-06,0.99999994,1.08629465e-05,8.940697e-06,-1.0870397e-05,1.0,1.1920929e-06,-8.933246e-06,-1.1920929e-06,1.0,615,1.924,0,1,0.498,False,-0.2584481703791588,0.8753200229464406
1.9314354710077168,10:47:25.099199,10:47:08.892063,0,,0.13345774,-0.0035661012,0.020581424,-0.84953034,-0.47690403,-0.22552332,-0.061363965,-0.33526504,0.9401233,-0.5239587,0.8125023,0.25555298,,0.024453908,-0.010906398,0.012947768,0.13584104,-0.58479625,0.7997253,-0.4300876,0.6923721,0.5793492,-0.89250875,-0.42265138,-0.15746117,,0.10931937,1.3586853,0.45858955,0.9961391,0.03324508,-0.08125078,-0.025819391,-0.7736428,-0.63309574,-0.0839064,0.63274926,-0.76979744,,-0.091464676,0.25577328,-0.06506881,0.8855449,0.35766622,0.29645422,-0.40277678,0.27315328,0.8735892,0.23147592,-0.8930074,0.38594913,,0.038979866,0.4391059,-0.30230352,-0.018573916,0.6746196,-0.73793185,-0.916764,0.28304303,0.281834,0.3989972,0.6817441,0.6132098,,1.2347028091981405,0.14575886026811338,0.18427799382,0.6680721599416947,0.5815249430017145,1.3857119936087732,-0.408850197534101,,-0.5773592324098986,-0.24576052825644656,0.19039259375,0.4319612835781202,1.2315047723859147,-0.5322698054836775,0.700746043716058,,-0.03987859174650544,-0.09379617566374027,0.05836094732,-0.08765896690267068,,-2.9791147e-05,1.4901161e-06,-2.9802322e-06,0.99999994,1.08629465e-05,8.940697e-06,-1.0870397e-05,1.0,1.1920929e-06,-8.933246e-06,-1.1920929e-06,1.0,628,1.966,0,1,0.498,False,-0.2587460589717643,0.8755131437495587
1.9721396039967658,10:47:25.138625,10:47:08.892063,0,,0.13333149,-0.003595829,0.020816818,-0.847796,-0.47902608,-0.22754309,-0.06248997,-0.33584028,0.9398438,-0.52662784,0.811015,0.25478965,,0.024463266,-0.0109054595,0.01294902,0.13588652,-0.58477044,0.7997364,-0.43008113,0.6923782,0.5793466,-0.8925049,-0.42267704,-0.15741393,,0.10931937,1.3586853,0.45858955,0.9961391,0.03324508,-0.08125078,-0.025819391,-0.7736428,-0.63309574,-0.0839064,0.63274926,-0.76979744,,-0.091365814,0.25590342,-0.065282136,0.8839714,0.35985157,0.29849854,-0.40535197,0.27171174,0.8728474,0.23298995,-0.89256907,0.38605195,,0.03897048,0.43910682,-0.30230245,-0.018619092,0.67459834,-0.73795015,-0.9167596,0.28302917,0.2818622,0.3990052,0.6817709,0.61317474,,1.2356295371430472,0.14542678275452176,0.18407577258000002,0.6645074309024577,0.5845309459965543,1.3838325509084357,-0.40934022973250417,,-0.5774132915400182,-0.24576052825644656,0.19039389004,0.4319612835781202,1.2315047723859147,-0.5322698054836775,0.700746043716058,,-0.03987859174650544,-0.09379617566374027,0.05836094732,-0.08765896690267068,,-2.9791147e-05,1.4901161e-06,-2.9802322e-06,0.99999994,1.08629465e-05,8.940697e-06,-1.0870397e-05,1.0,1.1920929e-06,-8.933246e-06,-1.1920929e-06,1.0,637,1.994,0,1,0.498,False,-0.25880563669028556,0.8749337813402049
2.0115425460098777,10:47:25.168781,10:47:08.892063,0,,0.13339579,-0.0035532266,0.021218106,-0.8431045,-0.48248792,-0.23744519,-0.06651589,-0.3445933,0.9363926,-0.5336201,0.8052707,0.2584349,,0.024465367,-0.010907546,0.012948424,0.13582306,-0.58468413,0.79981035,-0.430067,0.6924693,0.57924837,-0.89252144,-0.42264733,-0.15740007,,0.10931937,1.3586853,0.45858955,0.9961391,0.03324508,-0.08125078,-0.025819391,-0.7736428,-0.63309574,-0.0839064,0.63274926,-0.76979744,,-0.09146418,0.25619987,-0.065545656,0.87959015,0.3629244,0.3075826,-0.4129079,0.26128718,0.87248844,0.23627995,-0.8944355,0.37967998,,0.03896839,0.43910474,-0.30230308,-0.018553246,0.6745129,-0.7380299,-0.9167556,0.28311166,0.28179246,0.3990175,0.6818212,0.61311084,,1.2360388419853812,0.14609093778170504,0.18374392234,0.654652003558685,0.5894498599881101,1.3866825205471718,-0.40787013313729514,,-0.5774132915400182,-0.24576825098932079,0.19039518633000002,0.43217097352160466,1.2315047723859147,-0.532188126743537,0.7005826996499237,,-0.03987859174650544,-0.09379617566374027,0.05836094732,-0.08765896690267068,,-2.9791147e-05,1.4901161e-06,-2.9802322e-06,0.99999994,1.08629465e-05,8.940697e-06,-1.0870397e-05,1.0,1.1920929e-06,-8.933246e-06,-1.1920929e-06,1.0,650,2.036,1,2,0.517,False,-0.25856732581620134,0.875126902143323
2.0417195030022413,10:47:25.209569,10:47:08.892063,0,,0.13362448,-0.0035708696,0.02129604,-0.8439668,-0.4835273,-0.23220977,-0.062185615,-0.34178934,0.9377169,-0.53277856,0.80584204,0.25839028,,0.024468005,-0.010914475,0.012947053,0.13582966,-0.5849331,0.79962707,-0.43010044,0.6922707,0.5794608,-0.8925042,-0.42262802,-0.15754923,,0.10931937,1.3586853,0.45858955,0.9961391,0.03324508,-0.08125078,-0.025819391,-0.7736428,-0.63309574,-0.0839064,0.63274926,-0.76979744,,-0.09169997,0.2562411,-0.06558288,0.8808138,0.3641902,0.3025436,-0.40910164,0.26376203,0.87353617,0.2383338,-0.8931938,0.38131604,,0.03896568,0.43909842,-0.3023062,-0.018563977,0.6747464,-0.73781615,-0.91677004,0.28299075,0.28186682,0.39898378,0.6816403,0.6133339,,1.2351584504377195,0.14694043839786974,0.18364670059000002,0.6601039420892826,0.5894498599881101,1.3867641992873123,-0.4081968212695639,,-0.5774210142728924,-0.24580686465369192,0.19039777891,0.43217097352160466,1.2315047723859147,-0.5318614117829746,0.7005826996499238,,-0.03987859174650544,-0.09379617566374027,0.05836094732,-0.08765896690267068,,-2.9791147e-05,1.4901161e-06,-2.9802322e-06,0.99999994,1.08629465e-05,8.940697e-06,-1.0870397e-05,1.0,1.1920929e-06,-8.933246e-06,-1.1920929e-06,1.0,659,2.064,1,2,0.545,False,-0.2585077480976805,0.8749337813402049
2.0825117290078197,10:47:25.238784,10:47:08.892063,0,,0.13360152,-0.0034912378,0.021308616,-0.8419354,-0.48350376,-0.23951802,-0.06757197,-0.34592485,0.9358259,-0.53533053,0.80408967,0.25857493,,0.02448222,-0.010926485,0.012952119,0.13589485,-0.5850099,0.79955983,-0.4301602,0.6921644,0.5795434,-0.89246553,-0.42269582,-0.15758649,,0.10931937,1.3586853,0.45858955,0.9961391,0.03324508,-0.08125078,-0.025819391,-0.7736428,-0.63309574,-0.0839064,0.63274926,-0.76979744,,-0.09167016,0.2563091,-0.065543935,0.87848973,0.36390603,0.30956125,-0.41480964,0.25949246,0.87212193,0.23704161,-0.89455914,0.3789132,,0.038950298,0.43909174,-0.30231574,-0.018637067,0.6748274,-0.7377402,-0.91679394,0.28287128,0.28190905,0.39892545,0.6816097,0.6134058,,1.2353283505609525,0.1471103385211027,0.18366873752,0.6523454141803553,0.5894498599881101,1.3866008418070312,-0.40787013313729514,,-0.5774982416016347,-0.24588409198243416,0.19039777891,0.43217097352160466,1.2315047723859147,-0.5316980543026936,0.7009093877821923,,-0.03987859174650544,-0.09379617566374027,0.05836094732,-0.08765896690267068,,-2.9791147e-05,1.4901161e-06,-2.9802322e-06,0.99999994,1.08629465e-05,8.940697e-06,-1.0870397e-05,1.0,1.1920929e-06,-8.933246e-06,-1.1920929e-06,1.0,672,2.106,1,2,0.587,False,-0.25826943722359585,0.8755131437495587
2.111711520003155,10:47:25.278792,10:47:09.089912,0,,0.13356054,-0.0035015792,0.021243304,-0.8428297,-0.48349154,-0.23637672,-0.06539434,-0.34395486,0.93670624,-0.5341925,0.8049416,0.2582776,,0.024512403,-0.010925114,0.012953907,0.1360378,-0.5849923,0.7995484,-0.430147,0.6921344,0.5795891,-0.8924502,-0.42276943,-0.1574763,,0.10931937,1.3586853,0.45858955,0.9961391,0.03324508,-0.08125078,-0.025819391,-0.7736428,-0.63309574,-0.0839064,0.63274926,-0.76979744,,-0.091624305,0.25625783,-0.06550761,0.87949127,0.36401653,0.30657318,-0.4124333,0.2615379,0.87263775,0.23747407,-0.8939183,0.38015285,,0.038920306,0.43909198,-0.30231175,-0.0187799,0.6748198,-0.7377435,-0.91678315,0.28279936,0.28201634,0.3989436,0.68164706,0.61335254,,1.2354596370198143,0.14688637926775017,0.18372836686000002,0.6554907633326231,0.5895864964878755,1.3863260664230537,-0.40787013313729537,,-0.5776681417248676,-0.24589181471530838,0.19040426036000002,0.43217097352160466,1.2315047723859147,-0.5316163755625529,0.7010727318483266,,-0.03987859174650544,-0.09379617566374027,0.05836094732,-0.08765896690267068,,-2.9791147e-05,1.4901161e-06,-2.9802322e-06,0.99999994,1.08629465e-05,8.940697e-06,-1.0870397e-05,1.0,1.1920929e-06,-8.933246e-06,-1.1920929e-06,1.0,681,2.133,1,2,0.614,False,-0.25856732581620134,0.8753200229464406
2.1517345210013445,10:47:25.309311,10:47:09.089912,0,,0.13349,-0.003520891,0.021179661,-0.8429443,-0.48328543,-0.2363896,-0.06557879,-0.34380913,0.93674684,-0.53398895,0.8051276,0.25811863,,0.024517536,-0.010934308,0.012954742,0.13605744,-0.58496934,0.79956186,-0.4301924,0.6921227,0.5795693,-0.8924253,-0.42282027,-0.15748101,,0.10931937,1.3586853,0.45858955,0.9961391,0.03324508,-0.08125078,-0.025819391,-0.7736428,-0.63309574,-0.0839064,0.63274926,-0.76979744,,-0.0915503,0.25620043,-0.065482534,0.87956554,0.36380956,0.3066057,-0.4124406,0.26177296,0.87256384,0.23718597,-0.8939337,0.38029632,,0.038914666,0.43908527,-0.30231768,-0.01880524,0.67480433,-0.737757,-0.91680235,0.28275585,0.2819974,0.3988982,0.68168044,0.61334497,,1.2356372598759215,0.14647707442541627,0.18378540362,0.6554907633326231,0.5897231329876409,1.386296327259498,-0.40787013313729537,,-0.5776913099234903,-0.24594587384542796,0.19040555665000003,0.43217097352160466,1.2315047723859147,-0.531616375562553,0.700746043716058,,-0.03987859174650544,-0.09379617566374027,0.05836094732,-0.08765896690267068,,-2.9791147e-05,1.4901161e-06,-2.9802322e-06,0.99999994,1.08629465e-05,8.940697e-06,-1.0870397e-05,1.0,1.1920929e-06,-8.933246e-06,-1.1920929e-06,1.0,694,2.175,1,2,0.656,False,-0.25826943722359585,0.8753200229464406
2.182229312005802,10:47:25.346989,10:47:09.089912,0,,0.13350156,-0.0034981072,0.021052465,-0.84280837,-0.48366055,-0.23610674,-0.06536728,-0.34345275,0.9368924,-0.5342294,0.8050544,0.25784928,,0.0245227,-0.010933697,0.012956172,0.13608342,-0.5850852,0.79947263,-0.43018872,0.69203156,0.5796808,-0.89242303,-0.42280918,-0.15752313,,0.10931937,1.3586853,0.45858955,0.9961391,0.03324508,-0.08125078,-0.025819391,-0.7736428,-0.63309574,-0.0839064,0.63274926,-0.76979744,,-0.09154693,0.25613433,-0.06537096,0.8794766,0.3642252,0.30636725,-0.41243675,0.26198825,0.8725011,0.23752226,-0.8937014,0.3806324,,0.038909387,0.43908635,-0.30231756,-0.018831054,0.6749127,-0.73765725,-0.91679984,0.28270188,0.2820597,0.39890277,0.68159556,0.6134363,,1.2354364688211916,0.14641529256242247,0.18391114375,0.6557004532761077,0.5899964059871718,1.3861551701922457,-0.40819682126956414,,-0.5777222008549872,-0.24594587384542796,0.19040555665000003,0.43217097352160466,1.2315047723859147,-0.5314530180822719,0.7004193555837894,,-0.03987859174650544,-0.09379617566374027,0.05836094732,-0.08765896690267068,,-2.9791147e-05,1.4901161e-06,-2.9802322e-06,0.99999994,1.08629465e-05,8.940697e-06,-1.0870397e-05,1.0,1.1920929e-06,-8.933246e-06,-1.1920929e-06,1.0,703,2.203,1,2,0.684,False,-0.25856732581620134,0.8756579843518972
2.2199074890086195,10:47:25.372087,10:47:09.089912,0,,0.13349529,-0.0034932941,0.021040946,-0.84282225,-0.48363638,-0.23610704,-0.06537403,-0.3434561,0.9368907,-0.5342068,0.8050676,0.25785497,,0.024546288,-0.010931805,0.012955993,0.13619387,-0.5851531,0.79940414,-0.4301732,0.69195175,0.5797876,-0.8924137,-0.42284584,-0.15747768,,0.10931937,1.3586853,0.45858955,0.9961391,0.03324508,-0.08125078,-0.025819391,-0.7736428,-0.63309574,-0.0839064,0.63274926,-0.76979744,,-0.0915391,0.2561303,-0.065360114,0.87948734,0.36419964,0.3063668,-0.41242725,0.26199475,0.8725036,0.23749901,-0.8937099,0.38062695,,0.038886208,0.43908617,-0.30231276,-0.018940762,0.6749815,-0.7375915,-0.9167892,0.28262216,0.28217435,0.39892218,0.6815605,0.6134626,,1.2354596370198143,0.14639984709667403,0.18392410665000003,0.6557004532761077,0.5899964059871718,1.3861551701922457,-0.40819682126956414,,-0.5778534873138489,-0.24594587384542796,0.19041203810000001,0.43217097352160466,1.2315047723859147,-0.5312896606019907,0.700746043716058,,-0.03987859174650544,-0.09379617566374027,0.05836094732,-0.08765896690267068,,-2.9791147e-05,1.4901161e-06,-2.9802322e-06,0.99999994,1.08629465e-05,8.940697e-06,-1.0870397e-05,1.0,1.1920929e-06,-8.933246e-06,-1.1920929e-06,1.0,712,2.232,1,2,0.713,False,-0.2584481703791588,0.8753683031472201
2.245013927007676,10:47:25.402545,10:47:09.089912,0,,0.1334444,-0.003433764,0.021021828,-0.84210837,-0.48370865,-0.23849374,-0.0671062,-0.34480375,0.936273,-0.5351169,0.8044478,0.2579022,,0.024550289,-0.010932654,0.012957245,0.13621336,-0.58520555,0.7993624,-0.4301774,0.69190496,0.57984036,-0.8924087,-0.42284968,-0.15749556,,0.10931937,1.3586853,0.45858955,0.9961391,0.03324508,-0.08125078,-0.025819391,-0.7736428,-0.63309574,-0.0839064,0.63274926,-0.76979744,,-0.09148065,0.25616193,-0.06531446,0.8786888,0.36419094,0.30865985,-0.41432062,0.26057023,0.872033,0.23715895,-0.8941298,0.37985197,,0.038882032,0.43908605,-0.30231366,-0.018960975,0.67503166,-0.7375451,-0.9167903,0.2825878,0.28220508,0.3989186,0.681525,0.61350435,,1.2357762690676577,0.1464230152952967,0.18397077309,0.6529744840108088,0.5902696789867028,1.3858506556447119,-0.4080334772034293,,-0.5778766555124716,-0.24595359657830218,0.19041203810000001,0.43217097352160466,1.2315047723859147,-0.5312079818618503,0.7012360759144607,,-0.03987859174650544,-0.09379617566374027,0.05836094732,-0.08765896690267068,,-2.9791147e-05,1.4901161e-06,-2.9802322e-06,0.99999994,1.08629465e-05,8.940697e-06,-1.0870397e-05,1.0,1.1920929e-06,-8.933246e-06,-1.1920929e-06,1.0,725,2.273,1,2,0.754,False,-0.25880563669028556,0.8753200229464406
2.275423707003938,10:47:25.440740,10:47:09.089912,0,,0.13338213,-0.0033881217,0.0210374,-0.8424702,-0.48338032,-0.23788077,-0.06654675,-0.34479654,0.9363156,-0.534617,0.8046483,0.25831336,,0.024536923,-0.010936096,0.012950927,0.13614193,-0.5854403,0.7992027,-0.4301943,0.69175124,0.58001125,-0.8924114,-0.42277634,-0.15767685,,0.10931937,1.3586853,0.45858955,0.9961391,0.03324508,-0.08125078,-0.025819391,-0.7736428,-0.63309574,-0.0839064,0.63274926,-0.76979744,,-0.09141577,0.25620565,-0.06530539,0.8790566,0.36384717,0.30801752,-0.41357592,0.2607121,0.8723441,0.23709601,-0.8942284,0.3796591,,0.038896024,0.43908024,-0.3023132,-0.018890841,0.6752449,-0.7373516,-0.9168002,0.28253508,0.28222558,0.39889908,0.6813356,0.6137274,,1.236239633040111,0.14646935169254205,0.18397984712,0.6536035538412625,0.5902696789867028,1.3859323343848526,-0.40819682126956414,,-0.5777917054508551,-0.2459613193111764,0.19041463068000003,0.43217097352160466,1.2315047723859147,-0.5309629456414285,0.7002560115176552,,-0.03987859174650544,-0.09379617566374027,0.05836094732,-0.08765896690267068,,-2.9791147e-05,1.4901161e-06,-2.9802322e-06,0.99999994,1.08629465e-05,8.940697e-06,-1.0870397e-05,1.0,1.1920929e-06,-8.933246e-06,-1.1920929e-06,1.0,734,2.301,1,2,0.782,False,-0.2586269035347226,0.8753683031472201
2.3136648290092126,10:47:25.472080,10:47:09.089912,0,,0.13336885,-0.0033863932,0.02103652,-0.8424502,-0.48331627,-0.23808187,-0.06671232,-0.34491807,0.9362591,-0.534628,0.8046347,0.2583331,,0.02454736,-0.010936186,0.012953967,0.13619392,-0.5852132,0.79936016,-0.4301939,0.6918983,0.5798361,-0.8924037,-0.42284998,-0.15752289,,0.10931937,1.3586853,0.45858955,0.9961391,0.03324508,-0.08125078,-0.025819391,-0.7736428,-0.63309574,-0.0839064,0.63274926,-0.76979744,,-0.09140235,0.25620618,-0.0653055,0.8790205,0.36377242,0.3082087,-0.41370773,0.26061246,0.87231135,0.23699978,-0.8942879,0.37957913,,0.03888525,0.43908146,-0.30231398,-0.018943323,0.675039,-0.7375388,-0.91679823,0.28258303,0.28218412,0.39890122,0.68151975,0.61352146,,1.2363014149031049,0.14643073802817091,0.18398243970000003,0.653393863897778,0.5902696789867028,1.3859323343848526,-0.40819682126956414,,-0.5778534873138489,-0.24596904204405062,0.19041463068000003,0.43217097352160466,1.2315047723859147,-0.5312079818618501,0.7005826996499238,,-0.03987859174650544,-0.09379617566374027,0.05836094732,-0.08765896690267068,,-2.9791147e-05,1.4901161e-06,-2.9802322e-06,0.99999994,1.08629465e-05,8.940697e-06,-1.0870397e-05,1.0,1.1920929e-06,-8.933246e-06,-1.1920929e-06,1.0,747,2.343,1,2,0.824,False,-0.2587460589717643,0.8752717427456611
2.344998355009011,10:47:25.521549,10:47:09.321704,0,,0.13339895,-0.0033919513,0.02101861,-0.8419535,-0.4834788,-0.2395047,-0.06778462,-0.34559646,0.9359318,-0.5352752,0.8042458,0.25820366,,0.024565756,-0.010934114,0.012957662,0.13628487,-0.585031,0.79947805,-0.43018106,0.6920053,0.5797179,-0.89239603,-0.42292714,-0.15735948,,0.10931937,1.3586853,0.45858955,0.9961391,0.03324508,-0.08125078,-0.025819391,-0.7736428,-0.63309574,-0.0839064,0.63274926,-0.76979744,,-0.09143098,0.25619066,-0.06529143,0.8784801,0.36390036,0.30959538,-0.414934,0.25984302,0.8719584,0.23685977,-0.89445966,0.37926155,,0.038866628,0.43908426,-0.3023127,-0.01903367,0.6748759,-0.73768574,-0.9167894,0.28260142,0.28219435,0.3989172,0.68167365,0.61334014,,1.2360774556497522,0.14644618349391939,0.18399410631000002,0.6519260342933862,0.5902696789867028,1.3859323343848526,-0.40819682126956414,,-0.577961605574088,-0.24596904204405062,0.19041592697,0.43217097352160466,1.2315047723859147,-0.5313713393421313,0.7009093877821924,,-0.03987859174650544,-0.09379617566374027,0.05836094732,-0.08765896690267068,,-2.9791147e-05,1.4901161e-06,-2.9802322e-06,0.99999994,1.08629465e-05,8.940697e-06,-1.0870397e-05,1.0,1.1920929e-06,-8.933246e-06,-1.1920929e-06,1.0,756,2.371,1,2,0.852,False,-0.2585077480976805,0.8753683031472201
2.3944693930097856,10:47:25.542556,10:47:09.321704,0,,0.13338159,-0.0033835024,0.021022454,-0.8413095,-0.48339993,-0.24191482,-0.06960252,-0.34693152,0.9353042,-0.5360539,0.8037182,0.25823078,,0.024560593,-0.01093477,0.012956291,0.13625889,-0.58504575,0.7994716,-0.43018475,0.6920018,0.57971936,-0.89239824,-0.42291248,-0.15738636,,0.10931937,1.3586853,0.45858955,0.9961391,0.03324508,-0.08125078,-0.025819391,-0.7736428,-0.63309574,-0.0839064,0.63274926,-0.76979744,,-0.0914133,0.2561993,-0.06529128,0.8777288,0.3637344,0.3119125,-0.41680688,0.25849083,0.8714669,0.23635595,-0.89491886,0.37849185,,0.038871907,0.4390832,-0.30231282,-0.019007856,0.6748881,-0.73767525,-0.9167919,0.2826093,0.28217825,0.39891264,0.6816583,0.6133601,,1.236131514779872,0.1463921243637998,0.18399540260000002,0.6494097549715719,0.5902696789867028,1.3859323343848526,-0.40819682126956414,,-0.5779307146425912,-0.24596904204405062,0.19041592697,0.43217097352160466,1.2315047723859147,-0.5313713393421313,0.7009093877821924,,-0.03987859174650544,-0.09379617566374027,0.05836094732,-0.08765896690267068,,-2.9791147e-05,1.4901161e-06,-2.9802322e-06,0.99999994,1.08629465e-05,8.940697e-06,-1.0870397e-05,1.0,1.1920929e-06,-8.933246e-06,-1.1920929e-06,1.0,769,2.413,1,2,0.894,False,-0.2583290149421176,0.8753200229464406
2.41549647100328,10:47:25.582406,10:47:09.321704,0,,0.13332698,-0.0033619553,0.021031812,-0.84152716,-0.48299468,-0.24196735,-0.06965317,-0.3471604,0.93521553,-0.53570557,0.80386317,0.2585027,,0.024552032,-0.010937393,0.012952715,0.13621342,-0.58513516,0.7994139,-0.43019795,0.69194627,0.5797758,-0.8923987,-0.42287964,-0.15747172,,0.10931937,1.3586853,0.45858955,0.9961391,0.03324508,-0.08125078,-0.025819391,-0.7736428,-0.63309574,-0.0839064,0.63274926,-0.76979744,,-0.09135791,0.2562209,-0.0652921,0.87790495,0.3632952,0.31192872,-0.41661975,0.25841925,0.87157756,0.23603155,-0.89511794,0.37822348,,0.038880773,0.4390794,-0.30231315,-0.018963536,0.6749687,-0.7376026,-0.9167993,0.28259477,0.28216872,0.39889768,0.68158454,0.6134519,,1.2364635922934635,0.14633806523368023,0.18399929147000002,0.6494097549715719,0.5901330424869373,1.3860437522885491,-0.40819682126956414,,-0.5778766555124716,-0.24597676477692484,0.19041722326000002,0.43217097352160466,1.2315047723859147,-0.5312896606019907,0.700746043716058,,-0.03987859174650544,-0.09379617566374027,0.05836094732,-0.08765896690267068,,-2.9791147e-05,1.4901161e-06,-2.9802322e-06,0.99999994,1.08629465e-05,8.940697e-06,-1.0870397e-05,1.0,1.1920929e-06,-8.933246e-06,-1.1920929e-06,1.0,778,2.441,1,2,0.922,False,-0.2580907040680329,0.8755614239503382
2.455328149997513,10:47:25.613790,10:47:09.321704,0,,0.13329172,-0.003338486,0.021043837,-0.8412856,-0.4828412,-0.2431109,-0.07051411,-0.34785742,0.93489194,-0.53597236,0.8036539,0.25860023,,0.024562351,-0.010936096,0.012955517,0.1362654,-0.585171,0.7993789,-0.43019068,0.6919059,0.57982934,-0.8923943,-0.42289606,-0.15745229,,0.10931937,1.3586853,0.45858955,0.9961391,0.03324508,-0.08125078,-0.025819391,-0.7736428,-0.63309574,-0.0839064,0.63274926,-0.76979744,,-0.09132173,0.25624597,-0.0652909,0.877602,0.36309096,0.3130172,-0.4174407,0.25775838,0.87138045,0.23570757,-0.8953913,0.37777823,,0.03887022,0.43908158,-0.3023129,-0.019015163,0.6750046,-0.73756844,-0.9167943,0.28255588,0.282224,0.3989068,0.68156505,0.6134675,,1.236687551546816,0.146330342500806,0.18400058776000003,0.6481516153106648,0.5901330424869373,1.3859620735484088,-0.4083601653356983,,-0.5779384373754654,-0.24597676477692484,0.19041722326000002,0.43217097352160466,1.2315047723859147,-0.5312079818618501,0.7005826996499238,,-0.03987859174650544,-0.09379617566374027,0.05836094732,-0.08765896690267068,,-2.9791147e-05,1.4901161e-06,-2.9802322e-06,0.99999994,1.08629465e-05,8.940697e-06,-1.0870397e-05,1.0,1.1920929e-06,-8.933246e-06,-1.1920929e-06,1.0,787,2.469,1,2,0.95,False,-0.25785239319394915,0.8751751823441025
2.486733775003813,10:47:25.642682,10:47:09.321704,0,,0.13327745,-0.0033346415,0.021048233,-0.84103584,-0.48277056,-0.24411319,-0.0712751,-0.3484242,0.9346231,-0.53626347,0.8034508,0.25862768,,0.02456364,-0.010935932,0.012955934,0.1362719,-0.58516717,0.79938054,-0.4301898,0.6919068,0.579829,-0.8923938,-0.4228998,-0.15744558,,0.10931937,1.3586853,0.45858955,0.9961391,0.03324508,-0.08125078,-0.025819391,-0.7736428,-0.63309574,-0.0839064,0.63274926,-0.76979744,,-0.09130764,0.25625154,-0.06529372,0.8773038,0.36298165,0.31397843,-0.41820216,0.25719857,0.8711807,0.2354678,-0.89559656,0.37744096,,0.0388689,0.43908185,-0.30231288,-0.019021617,0.67500156,-0.73757106,-0.91679364,0.2825539,0.28222802,0.39890796,0.6815689,0.6134625,,1.2367493334098099,0.14629172883643488,0.18399929147000002,0.6471031655932422,0.5901330424869373,1.3859620735484088,-0.4083601653356983,,-0.5779461601083397,-0.24597676477692484,0.19041722326000002,0.43217097352160466,1.2315047723859147,-0.5312079818618501,0.7005826996499238,,-0.03987859174650544,-0.09379617566374027,0.05836094732,-0.08765896690267068,,-2.9791147e-05,1.4901161e-06,-2.9802322e-06,0.99999994,1.08629465e-05,8.940697e-06,-1.0870397e-05,1.0,1.1920929e-06,-8.933246e-06,-1.1920929e-06,1.0,800,2.51,1,2,0.991,False,-0.2587460589717643,0.8754648635487792
2.515619551006239,10:47:25.681664,10:47:09.321704,0,,0.13322788,-0.0033175051,0.02105388,-0.8400652,-0.48266137,-0.24764577,-0.07394372,-0.35036355,0.9336903,-0.5374223,0.8026726,0.2586383,,0.024558604,-0.010937408,0.012953252,0.1363159,-0.5853265,0.7992564,-0.43022048,0.6917615,0.5799794,-0.89237225,-0.42291695,-0.15752143,,0.10931937,1.3586853,0.45858955,0.9961391,0.03324508,-0.08125078,-0.025819391,-0.7736428,-0.63309574,-0.0839064,0.63274926,-0.76979744,,-0.09125734,0.25626743,-0.0652939,0.8761775,0.36274698,0.31737626,-0.42096144,0.25522652,0.8704314,0.23474354,-0.89625555,0.3763262,,0.03887421,0.4390793,-0.30231258,-0.019069804,0.67515445,-0.73742986,-0.91680557,0.2824435,0.2822998,0.39887825,0.6814632,0.61359924,,1.2369578471974139,0.14615271964469884,0.18400577292,0.6433287466105208,0.5902696789867028,1.3858506556447123,-0.4083601653356983,,-0.577922991909717,-0.2459844875097991,0.19041851955000003,0.4319612835781202,1.2315047723859147,-0.5312079818618501,0.7005826996499238,,-0.03987859174650544,-0.09379617566374027,0.05836094732,-0.08765896690267068,,-2.9791147e-05,1.4901161e-06,-2.9802322e-06,0.99999994,1.08629465e-05,8.940697e-06,-1.0870397e-05,1.0,1.1920929e-06,-8.933246e-06,-1.1920929e-06,1.0,814,2.555,1,2,1.036,False,-0.25975888018662197,0.8747889407378668
2.554596843998297,10:47:25.726037,10:47:09.554784,0,,0.13312684,-0.0033029765,0.021058947,-0.8390572,-0.4823765,-0.25158688,-0.076702416,-0.35293362,0.9324991,-0.53860915,0.8017174,0.25913188,,0.02455996,-0.010945052,0.012952834,0.13624603,-0.5854329,0.7991903,-0.4302347,0.6917016,0.5800404,-0.89237607,-0.42286772,-0.15763205,,0.10931937,1.3586853,0.45858955,0.9961391,0.03324508,-0.08125078,-0.025819391,-0.7736428,-0.63309574,-0.0839064,0.63274926,-0.76979744,,-0.09115632,0.2562802,-0.06530265,0.8750075,0.36228985,0.3211043,-0.42380646,0.25266498,0.86979795,0.23398717,-0.8971658,0.37462455,,0.038872562,0.43907323,-0.30231714,-0.019000923,0.6752492,-0.73734486,-0.91681427,0.2824374,0.28227764,0.39886153,0.68137187,0.61371154,,1.2374057657041189,0.14582836486398143,0.18401743953000002,0.6393446376843147,0.5906795884859991,1.386251510594888,-0.40950357379863833,,-0.5779152691768428,-0.2460231011741702,0.19041981584,0.43217097352160466,1.2315047723859147,-0.5308812669012879,0.6999293233853866,,-0.03987859174650544,-0.09379617566374027,0.05836094732,-0.08765896690267068,,-2.9791147e-05,1.4901161e-06,-2.9802322e-06,0.99999994,1.08629465e-05,8.940697e-06,-1.0870397e-05,1.0,1.1920929e-06,-8.933246e-06,-1.1920929e-06,1.0,823,2.584,1,2,1.065,False,-0.25868648125324345,0.875126902143323
2.598953161999816,10:47:25.751791,10:47:09.554784,0,,0.13302945,-0.0032863468,0.021069631,-0.83711374,-0.48214507,-0.25841177,-0.08192462,-0.35656536,0.9306716,-0.54085934,0.80024827,0.25898615,,0.024564907,-0.010949537,0.012953311,0.13619561,-0.5854012,0.79922223,-0.4302324,0.6917431,0.57999265,-0.8923849,-0.42284384,-0.15764624,,0.10931937,1.3586853,0.45858955,0.9961391,0.03324508,-0.08125078,-0.025819391,-0.7736428,-0.63309574,-0.0839064,0.63274926,-0.76979744,,-0.09105923,0.25629833,-0.065313704,0.87275827,0.36182487,0.32768235,-0.42919388,0.24896449,0.86822194,0.23256302,-0.89838713,0.37257883,,0.0388674,0.43906984,-0.30231968,-0.018949699,0.6752162,-0.73737645,-0.91681504,0.28248227,0.2822303,0.3988622,0.681386,0.6136954,,1.2377687341492074,0.1454808418846413,0.18402392098,0.6320054896623565,0.5909528614855298,1.385946996047355,-0.4096669178647725,,-0.5779307146425912,-0.2460462693727929,0.19042111213000001,0.43238066346508924,1.2315047723859147,-0.5307179094210068,0.700256011517655,,-0.03987859174650544,-0.09379617566374027,0.05836094732,-0.08765896690267068,,-2.9791147e-05,1.4901161e-06,-2.9802322e-06,0.99999994,1.08629465e-05,8.940697e-06,-1.0870397e-05,1.0,1.1920929e-06,-8.933246e-06,-1.1920929e-06,1.0,837,2.629,1,2,1.11,False,-0.25868648125324345,0.875223462544882
2.624732780997874,10:47:25.804404,10:47:09.554784,0,,0.13288236,-0.0033036321,0.02106814,-0.83537674,-0.4814841,-0.26517662,-0.087253526,-0.36015236,0.9288041,-0.5427084,0.79903907,0.2588516,,0.02456659,-0.010953456,0.012954086,0.13620216,-0.58539236,0.79922754,-0.43025213,0.69173783,0.5799842,-0.8923743,-0.42286456,-0.15765023,,0.10931937,1.3586853,0.45858955,0.9961391,0.03324508,-0.08125078,-0.025819391,-0.7736428,-0.63309574,-0.0839064,0.63274926,-0.76979744,,-0.09091531,0.25628212,-0.0653447,0.87066305,0.36091408,0.33419582,-0.43440163,0.24547471,0.8666241,0.23074022,-0.89971286,0.37050742,,0.038865425,0.43906727,-0.3023226,-0.01895871,0.6752104,-0.7373815,-0.91682345,0.28246418,0.28222102,0.39884242,0.6813992,0.6136936,,1.2382552663202837,0.144816686857458,0.18403169872000003,0.6248760315838826,0.5910894979852953,1.385835578143658,-0.4093402297325035,,-0.5779384373754654,-0.24606943757141556,0.19042111213000001,0.43238066346508924,1.2315047723859147,-0.5307179094210068,0.7005826996499237,,-0.03987859174650544,-0.09379617566374027,0.05836094732,-0.08765896690267068,,-2.9791147e-05,1.4901161e-06,-2.9802322e-06,0.99999994,1.08629465e-05,8.940697e-06,-1.0870397e-05,1.0,1.1920929e-06,-8.933246e-06,-1.1920929e-06,1.0,851,2.674,1,2,1.155,False,-0.2583885926606384,0.8750303417417644
2.677345490010339,10:47:25.853642,10:47:09.554784,0,,0.13275924,-0.0033133328,0.021104619,-0.833326,-0.48030144,-0.2736389,-0.0937836,-0.36500293,0.9262708,-0.5447682,0.7975484,0.25912187,,0.024564348,-0.010953933,0.012952179,0.13618918,-0.58546495,0.79917645,-0.43025404,0.6916887,0.58004147,-0.89237547,-0.42284435,-0.15769827,,0.10931937,1.3586853,0.45858955,0.9961391,0.03324508,-0.08125078,-0.025819391,-0.7736428,-0.63309574,-0.0839064,0.63274926,-0.76979744,,-0.09079804,0.2562969,-0.06539579,0.8681524,0.35938248,0.34228018,-0.4406492,0.24085477,0.8647643,0.22834131,-0.90157264,0.36746025,,0.038867913,0.43906578,-0.3023218,-0.018945804,0.6752767,-0.7373211,-0.91682476,0.2824451,0.28223604,0.39884016,0.6813414,0.6137593,,1.2386645711626176,0.1443147092206334,0.18400318034000002,0.6162787439010171,0.5906795884859991,1.3862515105948878,-0.40917688566636934,,-0.577922991909717,-0.24606943757141556,0.19042240842000002,0.43238066346508924,1.2315047723859147,-0.5306362306808663,0.7004193555837894,,-0.03987859174650544,-0.09379617566374027,0.05836094732,-0.08765896690267068,,-2.9791147e-05,1.4901161e-06,-2.9802322e-06,0.99999994,1.08629465e-05,8.940697e-06,-1.0870397e-05,1.0,1.1920929e-06,-8.933246e-06,-1.1920929e-06,1.0,860,2.703,1,2,1.184,False,-0.2593418361569748,0.8753200229464406
2.726558174996171,10:47:25.876496,10:47:09.699416,0,,0.13272366,-0.003318578,0.021136895,-0.8331035,-0.47983015,-0.27513912,-0.09499678,-0.36591688,0.92578644,-0.5448983,0.7974133,0.25926426,,0.02456306,-0.010954112,0.0129517615,0.13618268,-0.5854687,0.7991749,-0.43025497,0.6916878,0.5800418,-0.89237595,-0.42284065,-0.15770495,,0.10931937,1.3586853,0.45858955,0.9961391,0.03324508,-0.08125078,-0.025819391,-0.7736428,-0.63309574,-0.0839064,0.63274926,-0.76979744,,-0.09076652,0.2563136,-0.0654284,0.8678181,0.35883373,0.3437005,-0.4416465,0.24008358,0.86446995,0.22768413,-0.9019968,0.36682653,,0.038869232,0.43906552,-0.30232182,-0.018939352,0.67527974,-0.73731846,-0.91682535,0.28244707,0.28223202,0.39883903,0.6813376,0.6137642,,1.2388344712858506,0.14421431369326848,0.18397336567000003,0.6148109142966254,0.5904063154864682,1.38639266766214,-0.4090135416002354,,-0.5779152691768428,-0.24606943757141556,0.19042240842000002,0.43238066346508924,1.2315047723859147,-0.5306362306808663,0.700256011517655,,-0.03987859174650544,-0.09379617566374027,0.05836094732,-0.08765896690267068,,-2.9791147e-05,1.4901161e-06,-2.9802322e-06,0.99999994,1.08629465e-05,8.940697e-06,-1.0870397e-05,1.0,1.1920929e-06,-8.933246e-06,-1.1920929e-06,1.0,874,2.748,1,2,1.229,False,-0.2586269035347226,0.8753683031472201
2.749439542996697,10:47:25.924380,10:47:09.699416,0,,0.13269374,-0.0033204705,0.021256685,-0.8317616,-0.47953075,-0.27968347,-0.09832913,-0.3685838,0.92437947,-0.5463551,0.7963644,0.25942189,,0.024567872,-0.010956645,0.012950689,0.13620222,-0.58538896,0.79923,-0.430266,0.69173384,0.5799788,-0.8923677,-0.42287594,-0.15765736,,0.10931937,1.3586853,0.45858955,0.9961391,0.03324508,-0.08125078,-0.025819391,-0.7736428,-0.63309574,-0.0839064,0.63274926,-0.76979744,,-0.09074879,0.25639033,-0.0655235,0.8662842,0.35836124,0.34803578,-0.44509655,0.23738779,0.8634443,0.22680554,-0.9028977,0.36515066,,0.038864534,0.43906254,-0.30232197,-0.018960416,0.67520857,-0.7373831,-0.9168295,0.28245348,0.28221214,0.39882848,0.6814055,0.61369574,,1.2390661532720773,0.14421431369326848,0.18386577360000003,0.6099880455964813,0.5904063154864682,1.38639266766214,-0.4090135416002354,,-0.5779384373754654,-0.246084883037164,0.190425001,0.43238066346508924,1.2315047723859147,-0.5307179094210068,0.700256011517655,,-0.03987859174650544,-0.09379617566374027,0.05836094732,-0.08765896690267068,,-2.9791147e-05,1.4901161e-06,-2.9802322e-06,0.99999994,1.08629465e-05,8.940697e-06,-1.0870397e-05,1.0,1.1920929e-06,-8.933246e-06,-1.1920929e-06,1.0,883,2.776,1,2,1.257,False,-0.25815028178655464,0.8753200229464406
2.7972544040094363,10:47:25.952746,10:47:09.699416,0,,0.13269296,-0.0033502579,0.021415561,-0.83123934,-0.480227,-0.28004128,-0.09839921,-0.36869395,0.9243281,-0.5471368,0.7958938,0.25921887,,0.024567403,-0.01095514,0.0129517615,0.13620219,-0.5853907,0.7992288,-0.43025908,0.6917358,0.57998157,-0.89237094,-0.42287025,-0.15765378,,0.10931937,1.3586853,0.45858955,0.9961391,0.03324508,-0.08125078,-0.025819391,-0.7736428,-0.63309574,-0.0839064,0.63274926,-0.76979744,,-0.09076664,0.2564721,-0.06566179,0.8658363,0.35908478,0.3484044,-0.44565457,0.23698549,0.863267,0.22741924,-0.9027159,0.3652184,,0.038864903,0.43906444,-0.30232185,-0.018959563,0.6752095,-0.7373823,-0.9168265,0.28245884,0.28221658,0.39883545,0.6814023,0.61369467,,1.2392669443268072,0.14427609555626228,0.18371281138,0.6091492858225432,0.5912261344850608,1.3858058389801022,-0.40917688566636934,,-0.5779307146425912,-0.24607716030428978,0.19042370471000003,0.43238066346508924,1.2315047723859147,-0.5307995881611475,0.7004193555837893,,-0.03987859174650544,-0.09379617566374027,0.05836094732,-0.08765896690267068,,-2.9791147e-05,1.4901161e-06,-2.9802322e-06,0.99999994,1.08629465e-05,8.940697e-06,-1.0870397e-05,1.0,1.1920929e-06,-8.933246e-06,-1.1920929e-06,1.0,897,2.821,1,2,1.302,False,-0.2580907040680329,0.8755131437495587
2.8256790520099457,10:47:25.994617,10:47:09.699416,0,,0.13266492,-0.0033795387,0.02164033,-0.8303163,-0.48001072,-0.28313342,-0.10055609,-0.37066936,0.9233053,-0.5481453,0.7951063,0.25950474,,0.024567738,-0.010955289,0.01295051,0.13620219,-0.58526015,0.7993244,-0.43025908,0.6918306,0.57986856,-0.89237094,-0.42289603,-0.1575847,,0.10931937,1.3586853,0.45858955,0.9961391,0.03324508,-0.08125078,-0.025819391,-0.7736428,-0.63309574,-0.0839064,0.63274926,-0.76979744,,-0.0907639,0.2565971,-0.06585294,0.86479586,0.35874128,0.35133004,-0.44792986,0.23498163,0.8626369,0.22690736,-0.9033761,0.36390206,,0.038864754,0.4390635,-0.302321,-0.018959563,0.67508906,-0.7374926,-0.9168265,0.28250492,0.28217044,0.39883545,0.6815026,0.6135833,,1.2396376355047698,0.14433787741925608,0.18349892353000002,0.6057942467267908,0.5913627709848263,1.3857760998165465,-0.40901354160023495,,-0.5779384373754654,-0.24607716030428978,0.190425001,0.43238066346508924,1.2315047723859147,-0.530881266901288,0.7005826996499236,,-0.03987859174650544,-0.09379617566374027,0.05836094732,-0.08765896690267068,,-2.9791147e-05,1.4901161e-06,-2.9802322e-06,0.99999994,1.08629465e-05,8.940697e-06,-1.0870397e-05,1.0,1.1920929e-06,-8.933246e-06,-1.1920929e-06,1.0,911,2.866,1,2,1.347,False,-0.25826943722359585,0.8745475397339697
