AlexandreBanks6/ExpertPlaybackApp/resources/Motions/Pilot_03/PC1/Data_PC1_11.csv
Task Time,PC1 Time,PC2 Time,Gaze Calib,s_T_psm1,Tx,Ty,Tz,R00,R01,R02,R10,R11,R12,R20,R21,R22,s_T_psm3,Tx,Ty,Tz,R00,R01,R02,R10,R11,R12,R20,R21,R22,cart_T_ecm,Tx,Ty,Tz,R00,R01,R02,R10,R11,R12,R20,R21,R22,ecm_T_psm1,Tx,Ty,Tz,R00,R01,R02,R10,R11,R12,R20,R21,R22,ecm_T_psm3,Tx,Ty,Tz,R00,R01,R02,R10,R11,R12,R20,R21,R22,psm1_joints,q1,q2,q3,q4,q5,q6,jaw,psm3_joints,q1,q2,q3,q4,q5,q6,jaw,ecm_joints,q1,q2,q3,q4,ecmi_T_ecm,Tx,Ty,Tz,R00,R01,R02,R10,R11,R12,R20,R21,R22,Sample #,Task Duration (s),Collisions (binary),Collisions (increments),Cumulative Collision Time (s),Clutch Press,MTMR Angle,MTML Angle
""
lci_T_si,,,,,-0.07072591,0.01445765,0.25301564,0.99407005,-0.048530098,0.09731171,0.027213672,-0.755387,-0.6547136,0.10528132,0.65347934,-0.74958694
rci_T_si,,,,,-0.08048779,0.01901884,0.26158583,0.9921338,-0.068095215,0.105040655,0.018127188,-0.7521092,-0.6587891,0.12386244,0.655511,-0.74495864
ecm_T_lc,,,,,-4.4061628e-05,-0.00034663224,-0.01840835,-0.99912,0.030754527,0.028518902,-0.031987965,-0.99852574,-0.043852776,0.027128186,-0.04472645,0.9986309
ecm_T_rc,,,,,-0.0043358393,0.01870579,-0.007592615,-0.99555075,-0.052743673,-0.078081585,0.04863213,-0.9973746,0.053654674,-0.08070653,0.04961868,0.9955021
cart_T_ecmi,,,,,0.10914613,1.3569756,0.4565894,0.9959767,0.036802545,-0.08170723,-0.0234074,-0.77328336,-0.63362837,-0.08650198,0.6329916,-0.7693108
ecmac_T_ecmrep_psm1,,,,,0.011947535,-0.24624088,-0.3140189,0.99787813,0.060519684,0.024013558,-0.059408683,0.9972389,-0.04455629,-0.026643785,0.04303513,0.9987182
ecmac_T_ecmrep_psm3,,,,,-0.020729378,-0.4297972,-0.5440064,0.99962926,-0.018584386,0.019899037,0.019259674,0.999226,-0.034299888,-0.019246193,0.03467042,0.99921346
""
0,12:07:27.200938,12:07:11.146743,0,,0.07193774,-0.029102989,0.034175888,-0.4206397,0.46388832,-0.7796602,0.16047463,0.88388115,0.43931973,0.8929223,0.059679598,-0.44623783,,0.04578246,-0.013632894,0.012009919,0.2736133,-0.031982772,0.9613081,0.12195492,0.99253416,-0.0016898662,-0.9540769,0.11769846,0.27547097,,0.109123684,1.3569776,0.4565866,0.9959775,0.036830902,-0.08168399,-0.023370873,-0.77328205,-0.63363135,-0.08650198,0.6329916,-0.7693108,,-0.033796992,0.24304758,-0.10469269,0.3574887,-0.40226302,0.8428442,0.7073541,0.70589656,0.036881033,-0.60979664,0.5830047,0.5368924,,0.018031726,0.43395638,-0.30346128,-0.13962789,0.030971648,-0.98971957,-0.55639344,0.824348,0.10429162,0.8191034,0.5652355,-0.097869545,,1.44692350858183,-0.148979239876665,0.17929894393,1.5158486014496266,-0.5733267530157882,0.08067901060448147,0.8716039368925141,,-0.6851068014710789,-0.1873534995286866,0.19972069659000002,2.9031572675432398,1.3947853896056162,1.192368744096187,0.8720939690909169,,-0.04023202092003429,-0.09250026869413448,0.06086840708,-0.09125690957404896,,-2.2161752e-05,-4.1127205e-06,2.7418137e-06,1.0000001,2.8215349e-05,2.3208559e-05,-2.8215349e-05,1.0,3.1292439e-06,-2.321601e-05,-3.1590462e-06,1.0,34,0.101,0,0,0.0,False,1.0460059766388632,1.046666455512739
0.12760365799476858,12:07:27.230573,12:07:11.146743,0,,0.07193656,-0.029102407,0.034173653,-0.4206397,0.46388832,-0.7796602,0.16047463,0.88388115,0.43931973,0.8929223,0.059679598,-0.44623783,,0.045782328,-0.013631478,0.01200974,0.27361202,-0.031828135,0.9613136,0.12196252,0.9925329,-0.0018515438,-0.9540763,0.117750645,0.27545074,,0.109123684,1.3569776,0.4565866,0.9959775,0.036830902,-0.08168399,-0.023370873,-0.77328205,-0.63363135,-0.08650198,0.6329916,-0.7693108,,-0.033795595,0.24304655,-0.104690775,0.3574887,-0.40226302,0.8428442,0.7073541,0.70589656,0.036881033,-0.60979664,0.5830047,0.5368924,,0.01803191,0.43395734,-0.3034602,-0.13962656,0.030811353,-0.98972476,-0.55638725,0.8243692,0.104156606,0.81910783,0.56521326,-0.09796079,,1.44692350858183,-0.148979239876665,0.17930153651000003,1.5158486014496266,-0.5733267530157882,0.08067901060448147,0.8716039368925141,,-0.6851068014710789,-0.18734577679581238,0.19972069659000002,2.9031572675432398,1.3947853896056162,1.192205386615906,0.8724206572231856,,-0.04023202092003429,-0.09250026869413448,0.06086840708,-0.09125690957404896,,-2.2161752e-05,-4.1127205e-06,2.7418137e-06,1.0000001,2.8215349e-05,2.3208559e-05,-2.8215349e-05,1.0,3.1292439e-06,-2.321601e-05,-3.1590462e-06,1.0,45,0.135,0,0,0.0,False,1.0457080880462577,1.0467147357135185
0.15722694499709178,12:07:27.260081,12:07:11.146743,0,,0.07193597,-0.029102124,0.034172535,-0.4206397,0.46388832,-0.7796602,0.16047463,0.88388115,0.43931973,0.8929223,0.059679598,-0.44623783,,0.045782186,-0.013630047,0.012009621,0.2736107,-0.03183052,0.9613139,0.12197,0.992532,-0.0018510967,-0.9540757,0.11775786,0.2754497,,0.109123684,1.3569776,0.4565866,0.9959775,0.036830902,-0.08168399,-0.023370873,-0.77328205,-0.63363135,-0.08650198,0.6329916,-0.7693108,,-0.033794895,0.24304603,-0.104689814,0.3574887,-0.40226302,0.8428442,0.7073541,0.70589656,0.036881033,-0.60979664,0.5830047,0.5368924,,0.018032096,0.4339583,-0.30345917,-0.13962524,0.030812735,-0.9897249,-0.5563811,0.8243734,0.104156256,0.81911224,0.56520706,-0.097959705,,1.44692350858183,-0.148979239876665,0.1793028328,1.5158486014496266,-0.5733267530157882,0.08067901060448147,0.8716039368925141,,-0.6851068014710789,-0.18733805406293816,0.19972069659000002,2.9031572675432398,1.3947853896056162,1.192205386615906,0.8724206572231856,,-0.04023202092003429,-0.09250026869413448,0.06086840708,-0.09125690957404896,,-2.2161752e-05,-4.1127205e-06,2.7418137e-06,1.0000001,2.8215349e-05,2.3208559e-05,-2.8215349e-05,1.0,3.1292439e-06,-2.321601e-05,-3.1590462e-06,1.0,57,0.171,0,0,0.0,False,1.0465421761055524,1.0471009773197542
0.18674385698977858,12:07:27.292000,12:07:11.240224,0,,0.0719338,-0.029102549,0.034172118,-0.42063197,0.46388456,-0.7796666,0.16047448,0.8838835,0.43931505,0.892926,0.05967334,-0.44623134,,0.045782186,-0.013630047,0.012009621,0.2736107,-0.031987563,0.9613087,0.12197,0.99253225,-0.0016889721,-0.9540757,0.117712885,0.27546895,,0.109123684,1.3569776,0.4565866,0.9959775,0.036830902,-0.08168399,-0.023370873,-0.77328205,-0.63363135,-0.08650198,0.6329916,-0.7693108,,-0.033792734,0.24304543,-0.10469001,0.35748067,-0.4022586,0.8428497,0.7073564,0.70589423,0.036881775,-0.6097987,0.58301055,0.5368838,,0.018032096,0.4339583,-0.30345917,-0.13962524,0.030974412,-0.98971987,-0.5563811,0.8243564,0.10429092,0.81911224,0.56522304,-0.09786738,,1.4469312313147042,-0.14898696260953925,0.17930412909000001,1.5158486014496266,-0.5733267530157882,0.08067901060448147,0.8716039368925141,,-0.6851068014710789,-0.18733805406293816,0.19972069659000002,2.9031572675432398,1.3947853896056162,1.192368744096187,0.8720939690909169,,-0.04023202092003429,-0.09250026869413448,0.06086840708,-0.09125690957404896,,-2.2161752e-05,-4.1127205e-06,2.7418137e-06,1.0000001,2.8215349e-05,2.3208559e-05,-2.8215349e-05,1.0,3.1292439e-06,-2.321601e-05,-3.1590462e-06,1.0,68,0.205,0,0,0.0,False,1.0463634429499895,1.0469561367174158
0.21861805400112644,12:07:27.327462,12:07:11.240224,0,,0.07193309,-0.029103734,0.034171417,-0.42052442,0.46397322,-0.7796719,0.16043192,0.8838347,0.43942863,0.8929843,0.05970618,-0.44611022,,0.045784786,-0.01362969,0.012010515,0.2736253,-0.031987935,0.9613045,0.12197226,0.992532,-0.0016910732,-0.9540712,0.11771509,0.2754835,,0.109123684,1.3569776,0.4565866,0.9959775,0.036830902,-0.08168399,-0.023370873,-0.77328205,-0.63363135,-0.08650198,0.6329916,-0.7693108,,-0.033792064,0.24304408,-0.104690336,0.35736597,-0.40235293,0.8428533,0.7073628,0.70587915,0.03704699,-0.6098586,0.5829637,0.53686666,,0.018029397,0.43395898,-0.30345932,-0.13964029,0.030974476,-0.9897177,-0.55637765,0.8243577,0.10429922,0.819112,0.5652212,-0.097880036,,1.44692350858183,-0.14899468534241347,0.17930542538000002,1.5158486014496266,-0.5734633895155536,0.08079042850817787,0.8716039368925141,,-0.6851222469368273,-0.18733805406293816,0.19972069659000002,2.9031572675432398,1.3947853896056162,1.192368744096187,0.8720939690909169,,-0.04023202092003429,-0.09250026869413448,0.06086840708,-0.09125690957404896,,-2.2161752e-05,-4.1127205e-06,2.7418137e-06,1.0000001,2.8215349e-05,2.3208559e-05,-2.8215349e-05,1.0,3.1292439e-06,-2.321601e-05,-3.1590462e-06,1.0,76,0.228,0,0,0.0,False,1.0463038652314682,1.0470044169181953
0.25409735400171485,12:07:27.353975,12:07:11.240224,0,,0.07193039,-0.02910395,0.034172118,-0.42040533,0.46406102,-0.7796838,0.16038159,0.88378644,0.43954426,0.89304936,0.05973974,-0.44597542,,0.04578492,-0.01363112,0.012010694,0.27362663,-0.03198553,0.9613042,0.12196466,0.99253297,-0.0016915277,-0.95407176,0.11770788,0.27548453,,0.109123684,1.3569776,0.4565866,0.9959775,0.036830902,-0.08168399,-0.023370873,-0.77328205,-0.63363135,-0.08650198,0.6329916,-0.7693108,,-0.033789456,0.24304438,-0.10469129,0.3572387,-0.40244642,0.8428626,0.7073678,0.7058649,0.037222717,-0.6099273,0.5829165,0.5368399,,0.018029211,0.43395802,-0.3034604,-0.13964161,0.030973092,-0.9897176,-0.55638385,0.82435346,0.10429957,0.8191076,0.56522745,-0.097881116,,1.4469312313147042,-0.1490024080752877,0.17930672167000003,1.5158486014496266,-0.5736000260153189,0.08090184641187421,0.8716039368925141,,-0.6851222469368273,-0.18734577679581238,0.19972069659000002,2.9031572675432398,1.3947853896056162,1.192368744096187,0.8720939690909169,,-0.04023202092003429,-0.09250026869413448,0.06086840708,-0.09125690957404896,,-2.2161752e-05,-4.1127205e-06,2.7418137e-06,1.0000001,2.8215349e-05,2.3208559e-05,-2.8215349e-05,1.0,3.1292439e-06,-2.321601e-05,-3.1590462e-06,1.0,84,0.253,0,0,0.0,False,1.0463038652314682,1.0466181753119597
0.280644154001493,12:07:27.381056,12:07:11.240224,0,,0.07193081,-0.02910415,0.0341703,-0.42041108,0.46406147,-0.7796805,0.16038546,0.8837862,0.43954325,0.8930459,0.05973935,-0.44598225,,0.045783624,-0.013631299,0.012010217,0.2736193,-0.031985343,0.9613063,0.12196353,0.99253297,-0.0016904697,-0.9540741,0.117706746,0.27547723,,0.109123684,1.3569776,0.4565866,0.9959775,0.036830902,-0.08168399,-0.023370873,-0.77328205,-0.63363135,-0.08650198,0.6329916,-0.7693108,,-0.033789728,0.24304304,-0.10469002,0.35724497,-0.40244684,0.84285975,0.7073685,0.7058645,0.037217464,-0.6099228,0.5829167,0.53684473,,0.018030562,0.43395767,-0.3034603,-0.13963409,0.030973062,-0.9897186,-0.5563856,0.8243528,0.10429542,0.8191077,0.56522834,-0.09787479,,1.44692350858183,-0.1490024080752877,0.17930801796,1.5158486014496266,-0.5736000260153189,0.08090184641187421,0.8716039368925141,,-0.6851145242039531,-0.18734577679581238,0.19972069659000002,2.9031572675432398,1.3947853896056162,1.1922870653560462,0.8719306250247825,,-0.04023202092003429,-0.09250026869413448,0.06086840708,-0.09125690957404896,,-2.2161752e-05,-4.1127205e-06,2.7418137e-06,1.0000001,2.8215349e-05,2.3208559e-05,-2.8215349e-05,1.0,3.1292439e-06,-2.321601e-05,-3.1590462e-06,1.0,95,0.287,0,0,0.0,False,1.0460059766388632,1.0465216149104006
0.30767783099145163,12:07:27.411643,12:07:11.240224,0,,0.07193081,-0.02910415,0.0341703,-0.42041108,0.46406147,-0.7796805,0.16038546,0.8837862,0.43954325,0.8930459,0.05973935,-0.44598225,,0.045786224,-0.0136309415,0.01201117,0.27363393,-0.031907193,0.9613047,0.121965766,0.9925326,-0.001773648,-0.9540696,0.11773142,0.27548218,,0.109123684,1.3569776,0.4565866,0.9959775,0.036830902,-0.08168399,-0.023370873,-0.77328205,-0.63363135,-0.08650198,0.6329916,-0.7693108,,-0.033789728,0.24304304,-0.10469002,0.35724497,-0.40244684,0.84285975,0.7073685,0.7058645,0.037217464,-0.6099228,0.5829167,0.53684473,,0.01802786,0.43395838,-0.30346048,-0.13964914,0.030892285,-0.98971903,-0.5563821,0.8243626,0.10423639,0.8191075,0.5652185,-0.09793361,,1.44692350858183,-0.1490024080752877,0.17930801796,1.5158486014496266,-0.5736000260153189,0.08090184641187421,0.8716039368925141,,-0.6851299696697016,-0.18734577679581238,0.19972069659000002,2.9031572675432398,1.3947853896056162,1.1922870653560462,0.8719306250247825,,-0.04023202092003429,-0.09250026869413448,0.06086840708,-0.09125690957404896,,-2.2161752e-05,-4.1127205e-06,2.7418137e-06,1.0000001,2.8215349e-05,2.3208559e-05,-2.8215349e-05,1.0,3.1292439e-06,-2.321601e-05,-3.1590462e-06,1.0,103,0.311,0,0,0.0,False,1.0464825983870312,1.0466181753119597
0.3383094489981886,12:07:27.432281,12:07:11.240224,0,,0.07192904,-0.029104762,0.03416808,-0.42040902,0.4640582,-0.7796836,0.16038916,0.8837884,0.43953753,0.89304626,0.059732735,-0.44598258,,0.045784786,-0.01362969,0.012010515,0.2736253,-0.031909414,0.9613071,0.12197226,0.9925319,-0.0017721355,-0.9540712,0.11773759,0.2754739,,0.109123684,1.3569776,0.4565866,0.9959775,0.036830902,-0.08168399,-0.023370873,-0.77328205,-0.63363135,-0.08650198,0.6329916,-0.7693108,,-0.033787835,0.24304111,-0.10468894,0.3572432,-0.40244287,0.8428624,0.7073715,0.70586175,0.03721295,-0.60992044,0.5829227,0.5368409,,0.018029397,0.43395898,-0.30345932,-0.13964029,0.030893637,-0.9897202,-0.55637765,0.8243662,0.10423189,0.819112,0.5652132,-0.0979262,,1.44692350858183,-0.14901013080816192,0.17931061054000003,1.5158486014496266,-0.5736000260153189,0.08090184641187421,0.8716039368925141,,-0.6851222469368273,-0.18733805406293816,0.19972069659000002,2.9031572675432398,1.3947853896056162,1.1922870653560462,0.8719306250247825,,-0.04023202092003429,-0.09250026869413448,0.06086840708,-0.09125690957404896,,-2.2161752e-05,-4.1127205e-06,2.7418137e-06,1.0000001,2.8215349e-05,2.3208559e-05,-2.8215349e-05,1.0,3.1292439e-06,-2.321601e-05,-3.1590462e-06,1.0,111,0.335,0,0,0.0,False,1.045886821201821,1.0469078565166363
0.3589190359925851,12:07:27.457158,12:07:11.386849,0,,0.07192904,-0.029104762,0.03416808,-0.42040902,0.4640582,-0.7796836,0.16038916,0.8837884,0.43953753,0.89304626,0.059732735,-0.44598258,,0.04578147,-0.013631031,0.012009382,0.27369004,-0.031519912,0.9613015,0.121999025,0.9925277,-0.0021902844,-0.9540492,0.117877215,0.27549034,,0.109123684,1.3569776,0.4565866,0.9959775,0.036830902,-0.08168399,-0.023370873,-0.77328205,-0.63363135,-0.08650198,0.6329916,-0.7693108,,-0.033787835,0.24304111,-0.10468894,0.3572432,-0.40244287,0.8428624,0.7073715,0.70586175,0.03721295,-0.60992044,0.5829227,0.5368409,,0.01803281,0.4339575,-0.30345976,-0.13970698,0.03048877,-0.9897234,-0.5563482,0.82442427,0.10392945,0.81912065,0.5651505,-0.09821546,,1.44692350858183,-0.14901013080816192,0.17931061054000003,1.5158486014496266,-0.5736000260153189,0.08090184641187421,0.8716039368925141,,-0.6851222469368273,-0.18733805406293816,0.19972069659000002,2.9035766474302087,1.3947853896056162,1.1922870653560462,0.8719306250247825,,-0.04023202092003429,-0.09250026869413448,0.06086840708,-0.09125690957404896,,-2.2161752e-05,-4.1127205e-06,2.7418137e-06,1.0000001,2.8215349e-05,2.3208559e-05,-2.8215349e-05,1.0,3.1292439e-06,-2.321601e-05,-3.1590462e-06,1.0,119,0.359,0,0,0.0,False,1.04642302066851,1.046425054508842
0.38382597400050145,12:07:27.487093,12:07:11.386849,0,,0.07192744,-0.029103994,0.034167647,-0.42040333,0.46405774,-0.77968687,0.16038528,0.8837886,0.43953857,0.89304966,0.059733093,-0.44597572,,0.045782775,-0.013630882,0.012009859,0.27369738,-0.031441577,0.96130204,0.1220001,0.9925275,-0.0022724122,-0.95404696,0.11790076,0.275488,,0.109123684,1.3569776,0.4565866,0.9959775,0.036830902,-0.08168399,-0.023370873,-0.77328205,-0.63363135,-0.08650198,0.6329916,-0.7693108,,-0.033786166,0.24304141,-0.104688294,0.35723695,-0.40244246,0.8428652,0.70737076,0.70586216,0.037218206,-0.6099249,0.5829225,0.5368361,,0.01803146,0.43395782,-0.30345985,-0.13971452,0.030407963,-0.9897248,-0.5563465,0.8244334,0.103866264,0.8191205,0.56514156,-0.09826795,,1.4469312313147042,-0.14901013080816192,0.17931190683,1.5158486014496266,-0.5736000260153189,0.08090184641187421,0.8716039368925141,,-0.6851299696697016,-0.18733805406293816,0.19972069659000002,2.9035766474302087,1.3947853896056162,1.1922053866159055,0.8720939690909171,,-0.04023202092003429,-0.09250026869413448,0.06086840708,-0.09125690957404896,,-2.2161752e-05,-4.1127205e-06,2.7418137e-06,1.0000001,2.8215349e-05,2.3208559e-05,-2.8215349e-05,1.0,3.1292439e-06,-2.321601e-05,-3.1590462e-06,1.0,127,0.384,0,0,0.0,False,1.046244287512947,1.0468112961150775
0.41375349900044966,12:07:27.511607,12:07:11.386849,0,,0.07192709,-0.029104136,0.034164757,-0.42033663,0.46421745,-0.7796278,0.16055423,0.8837124,0.4396301,0.8930507,0.059620053,-0.44598877,,0.045782417,-0.013631374,0.0120097995,0.27373704,-0.031168506,0.9612996,0.12201461,0.992525,-0.0025636032,-0.95403373,0.11799428,0.27549383,,0.109123684,1.3569776,0.4565866,0.9959775,0.036830902,-0.08168399,-0.023370873,-0.77328205,-0.63363135,-0.08650198,0.6329916,-0.7693108,,-0.03378559,0.24303938,-0.10468626,0.35718277,-0.40259755,0.84281415,0.70749885,0.7057306,0.037278682,-0.609808,0.58297473,0.5369121,,0.018031817,0.43395743,-0.30346015,-0.1397554,0.030124722,-0.9897277,-0.55633,0.8244715,0.103651844,0.8191247,0.56510115,-0.098465055,,1.44692350858183,-0.14901785354103614,0.17931449941000002,1.516058291393111,-0.5736000260153189,0.08090184641187421,0.8716039368925141,,-0.6851376924025758,-0.18733805406293816,0.19972069659000002,2.903786337373693,1.3947853896056162,1.1921237078757652,0.8722573131570512,,-0.04023202092003429,-0.09250026869413448,0.06086840708,-0.09125690957404896,,-2.2161752e-05,-4.1127205e-06,2.7418137e-06,1.0000001,2.8215349e-05,2.3208559e-05,-2.8215349e-05,1.0,3.1292439e-06,-2.321601e-05,-3.1590462e-06,1.0,142,0.43,0,0,0.0,False,1.0461251320759053,1.0465216149104006
0.43821125000249594,12:07:27.551491,12:07:11.386849,0,,0.07192451,-0.029104032,0.034163207,-0.4204013,0.46405447,-0.7796899,0.16038898,0.88379073,0.43953282,0.8930499,0.059726477,-0.44597602,,0.04578112,-0.013631552,0.012009323,0.27372974,-0.031168312,0.9613016,0.12201348,0.9925251,-0.0025625378,-0.95403594,0.117993146,0.27548656,,0.109123684,1.3569776,0.4565866,0.9959775,0.036830902,-0.08168399,-0.023370873,-0.77328205,-0.63363135,-0.08650198,0.6329916,-0.7693108,,-0.033782877,0.24303845,-0.1046853,0.3572352,-0.4024385,0.8428679,0.70737374,0.7058594,0.037213694,-0.60992247,0.58292854,0.5368322,,0.018033167,0.43395707,-0.30346006,-0.13974787,0.03012469,-0.98972875,-0.55633175,0.8244708,0.1036477,0.8191248,0.5651021,-0.09845872,,1.4469312313147042,-0.14901785354103614,0.17931709199,1.5158486014496266,-0.5736000260153189,0.08090184641187421,0.8716039368925141,,-0.6851299696697016,-0.18733805406293816,0.19972069659000002,2.903786337373693,1.3947853896056162,1.1921237078757652,0.8722573131570512,,-0.04023202092003429,-0.09250026869413448,0.06086840708,-0.09125690957404896,,-2.2161752e-05,-4.1127205e-06,2.7418137e-06,1.0000001,2.8215349e-05,2.3208559e-05,-2.8215349e-05,1.0,3.1292439e-06,-2.321601e-05,-3.1590462e-06,1.0,150,0.455,0,0,0.0,False,1.0461847097944261,1.0469078565166363
0.4781594679952832,12:07:27.578936,12:07:11.386849,0,,0.0719239,-0.029104888,0.03416024,-0.42047736,0.4638924,-0.77974534,0.16023141,0.8838687,0.43943354,0.8930423,0.059832126,-0.44597697,,0.04578112,-0.013631552,0.012009323,0.27372974,-0.031168312,0.9613016,0.12201348,0.9925251,-0.0025625378,-0.95403594,0.117993146,0.27548656,,0.109123684,1.3569776,0.4565866,0.9959775,0.036830902,-0.08168399,-0.023370873,-0.77328205,-0.63363135,-0.08650198,0.6329916,-0.7693108,,-0.033782102,0.24303585,-0.10468371,0.35730007,-0.4022803,0.8429159,0.70724994,0.70598745,0.03713818,-0.61002797,0.58288276,0.53676206,,0.018033167,0.43395707,-0.30346006,-0.13974787,0.03012469,-0.98972875,-0.55633175,0.8244708,0.1036477,0.8191248,0.5651021,-0.09845872,,1.44692350858183,-0.14901785354103614,0.17931968457000003,1.5156389115061422,-0.5736000260153189,0.08090184641187421,0.8716039368925141,,-0.6851299696697016,-0.18733805406293816,0.19972069659000002,2.903786337373693,1.3947853896056162,1.1921237078757652,0.8722573131570512,,-0.04023202092003429,-0.09250026869413448,0.06086840708,-0.09125690957404896,,-2.2161752e-05,-4.1127205e-06,2.7418137e-06,1.0000001,2.8215349e-05,2.3208559e-05,-2.8215349e-05,1.0,3.1292439e-06,-2.321601e-05,-3.1590462e-06,1.0,162,0.491,0,0,0.0,False,1.0461251320759053,1.0471492575205337
0.5055494010011898,12:07:27.614241,12:07:11.558853,0,,0.071921304,-0.029104784,0.034158677,-0.420542,0.46372938,-0.77980745,0.16006607,0.883947,0.43933624,0.8930416,0.05993852,-0.44596425,,0.04578112,-0.013631552,0.012009323,0.27372974,-0.031168312,0.9613016,0.12201348,0.9925251,-0.0025625378,-0.95403594,0.117993146,0.27548656,,0.109123684,1.3569776,0.4565866,0.9959775,0.036830902,-0.08168399,-0.023370873,-0.77328205,-0.63363135,-0.08650198,0.6329916,-0.7693108,,-0.03377939,0.2430349,-0.10468275,0.35735244,-0.40212122,0.8429696,0.70712477,0.7061162,0.037073154,-0.6101424,0.5828365,0.53668225,,0.018033167,0.43395707,-0.30346006,-0.13974787,0.03012469,-0.98972875,-0.55633175,0.8244708,0.1036477,0.8191248,0.5651021,-0.09845872,,1.4469312313147042,-0.14901785354103614,0.17932227715000001,1.5154292215626575,-0.5736000260153189,0.08090184641187421,0.8716039368925141,,-0.6851299696697016,-0.18733805406293816,0.19972069659000002,2.903786337373693,1.3947853896056162,1.1921237078757652,0.8722573131570512,,-0.04023202092003429,-0.09250026869413448,0.06086840708,-0.09125690957404896,,-2.2161752e-05,-4.1127205e-06,2.7418137e-06,1.0000001,2.8215349e-05,2.3208559e-05,-2.8215349e-05,1.0,3.1292439e-06,-2.321601e-05,-3.1590462e-06,1.0,174,0.527,0,0,0.0,False,1.0460059766388632,1.046666455512739
0.5408862909971504,12:07:27.648879,12:07:11.558853,0,,0.071920715,-0.029104494,0.034157544,-0.420542,0.46372938,-0.77980745,0.16006607,0.883947,0.43933624,0.8930416,0.05993852,-0.44596425,,0.04578112,-0.013631552,0.012009323,0.27372974,-0.031168312,0.9613016,0.12201348,0.9925251,-0.0025625378,-0.95403594,0.117993146,0.27548656,,0.109123684,1.3569776,0.4565866,0.9959775,0.036830902,-0.08168399,-0.023370873,-0.77328205,-0.63363135,-0.08650198,0.6329916,-0.7693108,,-0.033778694,0.24303438,-0.10468179,0.35735244,-0.40212122,0.8429696,0.70712477,0.7061162,0.037073154,-0.6101424,0.5828365,0.53668225,,0.018033167,0.43395707,-0.30346006,-0.13974787,0.03012469,-0.98972875,-0.55633175,0.8244708,0.1036477,0.8191248,0.5651021,-0.09845872,,1.4469312313147042,-0.14901785354103614,0.17932357344000002,1.5154292215626575,-0.5736000260153189,0.08090184641187421,0.8716039368925141,,-0.6851299696697016,-0.18733805406293816,0.19972069659000002,2.903786337373693,1.3947853896056162,1.1921237078757652,0.8722573131570512,,-0.04023202092003429,-0.09250026869413448,0.06086840708,-0.09125690957404896,,-2.2161752e-05,-4.1127205e-06,2.7418137e-06,1.0000001,2.8215349e-05,2.3208559e-05,-2.8215349e-05,1.0,3.1292439e-06,-2.321601e-05,-3.1590462e-06,1.0,189,0.574,0,0,0.0,False,1.046244287512947,1.046859576315857
0.5755491469899425,12:07:27.692118,12:07:11.558853,0,,0.07191954,-0.029105388,0.03415644,-0.42053998,0.46372607,-0.77981055,0.16006976,0.88394916,0.43933052,0.8930419,0.059931844,-0.44596452,,0.04578407,-0.013630673,0.012010336,0.27370468,-0.03136325,0.9613025,0.1220012,0.9925271,-0.0023545325,-0.95404476,0.11792439,0.27548566,,0.109123684,1.3569776,0.4565866,0.9959775,0.036830902,-0.08168399,-0.023370873,-0.77328205,-0.63363135,-0.08650198,0.6329916,-0.7693108,,-0.033777498,0.24303298,-0.10468167,0.35735068,-0.40211725,0.8429723,0.70712775,0.70611346,0.037068646,-0.61014,0.5828426,0.5366784,,0.01803011,0.43395817,-0.30345994,-0.13972205,0.030327154,-0.98972625,-0.55634475,0.8244425,0.103803076,0.8191204,0.5651326,-0.09832044,,1.4469312313147042,-0.14902557627391036,0.17932486973000003,1.5154292215626575,-0.5736000260153189,0.08090184641187421,0.8716039368925141,,-0.6851376924025758,-0.18733805406293816,0.19972069659000002,2.9035766474302087,1.3947853896056162,1.1921237078757652,0.8722573131570512,,-0.04023202092003429,-0.09250026869413448,0.06086840708,-0.09125690957404896,,-2.2161752e-05,-4.1127205e-06,2.7418137e-06,1.0000001,2.8215349e-05,2.3208559e-05,-2.8215349e-05,1.0,3.1292439e-06,-2.321601e-05,-3.1590462e-06,1.0,197,0.597,0,0,0.0,False,1.0460059766388632,1.046859576315857
0.6187574899959145,12:07:27.720595,12:07:11.558853,0,,0.07191837,-0.029106297,0.03415534,-0.42053795,0.46372277,-0.7798136,0.16007349,0.88395137,0.43932483,0.89304215,0.05992523,-0.44596484,,0.045785815,-0.013630539,0.012009561,0.27371198,-0.031363428,0.9613004,0.1220023,0.99252695,-0.0023555756,-0.95404255,0.117925435,0.2754929,,0.109123684,1.3569776,0.4565866,0.9959775,0.036830902,-0.08168399,-0.023370873,-0.77328205,-0.63363135,-0.08650198,0.6329916,-0.7693108,,-0.033776306,0.24303156,-0.10468156,0.3573489,-0.4021133,0.8429749,0.70713073,0.7061108,0.037064135,-0.6101376,0.5828486,0.53667456,,0.018028492,0.43395764,-0.3034591,-0.13972957,0.030327188,-0.9897252,-0.5563431,0.8244431,0.103807226,0.8191203,0.56513166,-0.098326765,,1.4469312313147042,-0.14903329900678458,0.17932616602,1.5154292215626575,-0.5736000260153189,0.08090184641187421,0.8716039368925141,,-0.68514541513545,-0.18733805406293816,0.19972199288000003,2.9035766474302087,1.3947853896056162,1.1921237078757652,0.8722573131570512,,-0.04023202092003429,-0.09250026869413448,0.06086840708,-0.09125690957404896,,-2.2161752e-05,-4.1127205e-06,2.7418137e-06,1.0000001,2.8215349e-05,2.3208559e-05,-2.8215349e-05,1.0,3.1292439e-06,-2.321601e-05,-3.1590462e-06,1.0,205,0.622,0,0,0.0,False,1.0455293548906948,1.0466181753119597
0.6472630919888616,12:07:27.753911,12:07:11.687534,0,,0.07191936,-0.02910678,0.034154654,-0.42054367,0.46372324,-0.7798102,0.16007733,0.8839512,0.43932378,0.89303875,0.05992484,-0.44597167,,0.045784503,-0.013630748,0.012009144,0.27370468,-0.03136325,0.9613025,0.1220012,0.9925271,-0.0023545325,-0.95404476,0.11792439,0.27548566,,0.109123684,1.3569776,0.4565866,0.9959775,0.036830902,-0.08168399,-0.023370873,-0.77328205,-0.63363135,-0.08650198,0.6329916,-0.7693108,,-0.033777274,0.24303074,-0.104681246,0.35735515,-0.40211374,0.84297204,0.7071314,0.70611036,0.03705888,-0.6101332,0.58284885,0.5366794,,0.018029843,0.4339573,-0.30345902,-0.13972205,0.030327154,-0.98972625,-0.55634475,0.8244425,0.103803076,0.8191204,0.5651326,-0.09832044,,1.44692350858183,-0.14903329900678458,0.17932616602,1.5154292215626575,-0.5736000260153189,0.08090184641187421,0.8716039368925141,,-0.6851376924025758,-0.18733805406293816,0.19972199288000003,2.9035766474302087,1.3947853896056162,1.1921237078757652,0.8722573131570512,,-0.04023202092003429,-0.09250026869413448,0.06086840708,-0.09125690957404896,,-2.2161752e-05,-4.1127205e-06,2.7418137e-06,1.0000001,2.8215349e-05,2.3208559e-05,-2.8215349e-05,1.0,3.1292439e-06,-2.321601e-05,-3.1590462e-06,1.0,217,0.658,0,0,0.0,False,1.0464825983870312,1.0471975377213132
0.680578808998689,12:07:27.784953,12:07:11.687534,0,,0.07191759,-0.029108867,0.03415355,-0.42053965,0.4637167,-0.77981627,0.16008466,0.8839555,0.4393124,0.89303935,0.05991158,-0.4459723,,0.045785815,-0.013630539,0.012009561,0.27371198,-0.031363428,0.9613004,0.1220023,0.99252695,-0.0023555756,-0.95404255,0.117925435,0.2754929,,0.109123684,1.3569776,0.4565866,0.9959775,0.036830902,-0.08168399,-0.023370873,-0.77328205,-0.63363135,-0.08650198,0.6329916,-0.7693108,,-0.033775583,0.24302845,-0.104681976,0.35735163,-0.4021058,0.8429773,0.70713735,0.7061049,0.037049856,-0.61012834,0.5828609,0.53667176,,0.018028492,0.43395764,-0.3034591,-0.13972957,0.030327188,-0.9897252,-0.5563431,0.8244431,0.103807226,0.8191203,0.56513166,-0.098326765,,1.44692350858183,-0.14904874447253302,0.17932746231000002,1.5154292215626575,-0.5736000260153189,0.08090184641187421,0.8716039368925141,,-0.68514541513545,-0.18733805406293816,0.19972199288000003,2.9035766474302087,1.3947853896056162,1.1921237078757652,0.8722573131570512,,-0.04023202092003429,-0.09250026869413448,0.06086840708,-0.09125690957404896,,-2.2161752e-05,-4.1127205e-06,2.7418137e-06,1.0000001,2.8215349e-05,2.3208559e-05,-2.8215349e-05,1.0,3.1292439e-06,-2.321601e-05,-3.1590462e-06,1.0,236,0.717,0,0,0.0,False,1.0461847097944261,1.0469078565166363
0.7116219299932709,12:07:27.839679,12:07:11.687534,0,,0.071916595,-0.029106908,0.034153104,-0.42053592,0.4637195,-0.7798166,0.16007715,0.8839536,0.43931913,0.89304245,0.059918642,-0.44596517,,0.045784503,-0.013630748,0.012009144,0.27370468,-0.03136325,0.9613025,0.1220012,0.9925271,-0.0023545325,-0.95404476,0.11792439,0.27548566,,0.109123684,1.3569776,0.4565866,0.9959775,0.036830902,-0.08168399,-0.023370873,-0.77328205,-0.63363135,-0.08650198,0.6329916,-0.7693108,,-0.033774413,0.24302964,-0.10468048,0.35734713,-0.40210932,0.8429775,0.7071337,0.70610803,0.037059624,-0.6101352,0.5828546,0.53667074,,0.018029843,0.4339573,-0.30345902,-0.13972205,0.030327154,-0.98972625,-0.55634475,0.8244425,0.103803076,0.8191204,0.5651326,-0.09832044,,1.4469312313147042,-0.1490410217396588,0.17932875860000003,1.5154292215626575,-0.5736000260153189,0.08090184641187421,0.8716039368925141,,-0.6851376924025758,-0.18733805406293816,0.19972199288000003,2.9035766474302087,1.3947853896056162,1.1921237078757652,0.8722573131570512,,-0.04023202092003429,-0.09250026869413448,0.06086840708,-0.09125690957404896,,-2.2161752e-05,-4.1127205e-06,2.7418137e-06,1.0000001,2.8215349e-05,2.3208559e-05,-2.8215349e-05,1.0,3.1292439e-06,-2.321601e-05,-3.1590462e-06,1.0,244,0.74,0,0,0.0,False,1.0463038652314682,1.0471492575205337
0.7662928490026388,12:07:27.862020,12:07:11.687534,0,,0.07191759,-0.029107407,0.034152403,-0.42054167,0.46371996,-0.77981323,0.16008109,0.88395333,0.43931812,0.89303905,0.059918195,-0.445972,,0.045784503,-0.013630748,0.012009144,0.27370468,-0.03136325,0.9613025,0.1220012,0.9925271,-0.0023545325,-0.95404476,0.11792439,0.27548566,,0.109123684,1.3569776,0.4565866,0.9959775,0.036830902,-0.08168399,-0.023370873,-0.77328205,-0.63363135,-0.08650198,0.6329916,-0.7693108,,-0.03377538,0.2430288,-0.10468017,0.3573534,-0.40210977,0.84297466,0.70713437,0.7061076,0.037054367,-0.6101307,0.58285487,0.5366756,,0.018029843,0.4339573,-0.30345902,-0.13972205,0.030327154,-0.98972625,-0.55634475,0.8244425,0.103803076,0.8191204,0.5651326,-0.09832044,,1.44692350858183,-0.1490410217396588,0.17932875860000003,1.5154292215626575,-0.5736000260153189,0.08090184641187421,0.8716039368925141,,-0.6851376924025758,-0.18733805406293816,0.19972199288000003,2.9035766474302087,1.3947853896056162,1.1921237078757652,0.8722573131570512,,-0.04023202092003429,-0.09250026869413448,0.06086840708,-0.09125690957404896,,-2.2161752e-05,-4.1127205e-06,2.7418137e-06,1.0000001,2.8215349e-05,2.3208559e-05,-2.8215349e-05,1.0,3.1292439e-06,-2.321601e-05,-3.1590462e-06,1.0,256,0.777,0,0,0.0,False,1.0461251320759053,1.0469561367174158
0.7886734130006516,12:07:27.907415,12:07:11.840686,0,,0.07191601,-0.029106632,0.034151986,-0.42053592,0.4637195,-0.7798166,0.16007715,0.8839536,0.43931913,0.89304245,0.059918642,-0.44596517,,0.045784503,-0.013630748,0.012009144,0.27370468,-0.03136325,0.9613025,0.1220012,0.9925271,-0.0023545325,-0.95404476,0.11792439,0.27548566,,0.109123684,1.3569776,0.4565866,0.9959775,0.036830902,-0.08168399,-0.023370873,-0.77328205,-0.63363135,-0.08650198,0.6329916,-0.7693108,,-0.033773713,0.24302912,-0.10467952,0.35734713,-0.40210932,0.8429775,0.7071337,0.70610803,0.037059624,-0.6101352,0.5828546,0.53667074,,0.018029843,0.4339573,-0.30345902,-0.13972205,0.030327154,-0.98972625,-0.55634475,0.8244425,0.103803076,0.8191204,0.5651326,-0.09832044,,1.44692350858183,-0.1490410217396588,0.17933005489,1.5154292215626575,-0.5736000260153189,0.08090184641187421,0.8716039368925141,,-0.6851376924025758,-0.18733805406293816,0.19972199288000003,2.9035766474302087,1.3947853896056162,1.1921237078757652,0.8722573131570512,,-0.04023202092003429,-0.09250026869413448,0.06086840708,-0.09125690957404896,,-2.2161752e-05,-4.1127205e-06,2.7418137e-06,1.0000001,2.8215349e-05,2.3208559e-05,-2.8215349e-05,1.0,3.1292439e-06,-2.321601e-05,-3.1590462e-06,1.0,268,0.814,0,0,0.0,False,1.0455293548906948,1.0470526971189749
0.8340572949964553,12:07:27.933113,12:07:11.840686,0,,0.07192104,-0.029115714,0.034157246,-0.42051217,0.46383017,-0.77976334,0.16007525,0.8838919,0.43944377,0.8930539,0.05997047,-0.4459352,,0.045845866,-0.013601586,0.012015313,0.27366507,-0.031426594,0.9613116,0.122020215,0.9925249,-0.002289541,-0.95405364,0.11792576,0.2754541,,0.10907054,1.3569821,0.4565804,0.99597853,0.036863744,-0.08165708,-0.023328574,-0.77328044,-0.6336348,-0.08650198,0.6329916,-0.7693108,,-0.03373243,0.24303445,-0.10469505,0.3573158,-0.4022668,0.84291565,0.7071538,0.70608056,0.037198894,-0.61013025,0.5827793,0.53675824,,0.018015143,0.4339896,-0.30344155,-0.13968518,0.030347561,-0.98973083,-0.55634093,0.82444566,0.10379843,0.8191293,0.5651269,-0.098279245,,1.44692350858183,-0.1490410217396588,0.17933005489,1.5154292215626575,-0.5736000260153189,0.08106520389215537,0.8716039368925141,,-0.68514541513545,-0.18733033133006394,0.19972199288000003,2.9035766474302087,1.3947853896056162,1.1921237078757652,0.8722573131570512,,-0.04023202092003429,-0.09250026869413448,0.06086840708,-0.09125690957404896,,-7.465854e-05,-1.3530254e-05,8.940697e-06,1.0,6.0886145e-05,5.0097704e-05,-6.088242e-05,0.9999999,6.824732e-06,-5.0097704e-05,-6.8843365e-06,1.0,279,0.848,0,0,0.0,False,1.0463038652314682,1.046763015914298
0.8597634589968948,12:07:27.964885,12:07:11.840686,0,,0.071922444,-0.029117867,0.034155875,-0.42052162,0.4638278,-0.77975976,0.16008669,0.88389367,0.43943602,0.89304745,0.059963048,-0.44594914,,0.045844704,-0.013603181,0.012015015,0.27365908,-0.031424016,0.96131337,0.12201148,0.9925259,-0.0022889376,-0.9540565,0.11791742,0.27544782,,0.10907054,1.3569821,0.4565804,0.99597853,0.036863744,-0.08165708,-0.023328574,-0.77328044,-0.6336348,-0.08650198,0.6329916,-0.7693108,,-0.03373387,0.24303192,-0.104695275,0.35732654,-0.4022637,0.8429126,0.70715815,0.706077,0.037183877,-0.6101189,0.5827857,0.5367641,,0.018016307,0.4339883,-0.30344254,-0.13967898,0.030346148,-0.9897317,-0.55634886,0.8244408,0.103794634,0.819125,0.56513405,-0.09827401,,1.4469080631160816,-0.14904874447253302,0.17933005489,1.5154292215626575,-0.5736000260153189,0.0810652038921554,0.8712772487602455,,-0.6851376924025758,-0.18733805406293816,0.19972199288000003,2.9035766474302087,1.3947853896056162,1.1921237078757652,0.8722573131570512,,-0.04023202092003429,-0.09250026869413448,0.06086840708,-0.09125690957404896,,-7.465854e-05,-1.3530254e-05,8.940697e-06,1.0,6.0886145e-05,5.0097704e-05,-6.088242e-05,0.9999999,6.824732e-06,-5.0097704e-05,-6.8843365e-06,1.0,287,0.871,0,0,0.0,False,1.0461847097944261,1.0473423783236515
0.8915265349933179,12:07:27.994645,12:07:11.840686,0,,0.07192303,-0.02911669,0.03415586,-0.42052364,0.4638311,-0.7797567,0.160083,0.88389146,0.43944177,0.8930471,0.059969664,-0.4459489,,0.045846507,-0.013603881,0.01201579,0.273628,-0.031694897,0.9613133,0.1219905,0.99252915,-0.001999244,-0.9540681,0.11781797,0.27545023,,0.10907054,1.3569821,0.4565804,0.99597853,0.036863744,-0.08165708,-0.023328574,-0.77328044,-0.6336348,-0.08650198,0.6329916,-0.7693108,,-0.033734366,0.24303281,-0.10469443,0.35732833,-0.40226766,0.84291,0.70715517,0.7060797,0.03718839,-0.6101213,0.5827797,0.53676796,,0.018014414,0.43398812,-0.30344337,-0.13964696,0.03062804,-0.98972756,-0.5563698,0.8243991,0.10401355,0.81911623,0.56517965,-0.09808431,,1.4469080631160816,-0.1490410217396588,0.17933005489,1.5154292215626575,-0.5736000260153189,0.0810652038921554,0.8712772487602455,,-0.6851376924025758,-0.18734577679581238,0.19972199288000003,2.9033669574867242,1.3947853896056162,1.1922053866159055,0.8720939690909171,,-0.04023202092003429,-0.09250026869413448,0.06086840708,-0.09125690957404896,,-7.465854e-05,-1.3530254e-05,8.940697e-06,1.0,6.0886145e-05,5.0097704e-05,-6.088242e-05,0.9999999,6.824732e-06,-5.0097704e-05,-6.8843365e-06,1.0,295,0.896,0,0,0.0,False,1.0455293548906948,1.046859576315857
0.921267004989204,12:07:28.025060,12:07:11.840686,0,,0.07192361,-0.02911549,0.03415586,-0.42052564,0.46383438,-0.7797536,0.16007939,0.88388926,0.43944746,0.89304686,0.05997634,-0.44594857,,0.045835607,-0.013608053,0.012010723,0.27376252,-0.03098216,0.96129817,0.1221959,0.9925019,-0.0028115883,-0.9540032,0.118236154,0.2754957,,0.10907054,1.3569821,0.4565804,0.99597853,0.036863744,-0.08165708,-0.023328574,-0.77328044,-0.6336348,-0.08650198,0.6329916,-0.7693108,,-0.03373486,0.2430337,-0.10469359,0.35733008,-0.40227163,0.8429073,0.70715225,0.70608246,0.0371929,-0.6101237,0.5827736,0.5367718,,0.018025832,0.43398255,-0.30344358,-0.13978587,0.029864792,-0.98973125,-0.55618364,0.8245974,0.103435196,0.81921893,0.56493115,-0.09865676,,1.4469080631160816,-0.14903329900678458,0.17933005489,1.5154292215626575,-0.5736000260153189,0.0810652038921554,0.8712772487602455,,-0.6851299696697016,-0.18734577679581238,0.19972199288000003,2.904625097147631,1.3946487531058507,1.1926435194801646,0.8727473453554542,,-0.04023202092003429,-0.09250026869413448,0.06086840708,-0.09125690957404896,,-7.465854e-05,-1.3530254e-05,8.940697e-06,1.0,6.0886145e-05,5.0097704e-05,-6.088242e-05,0.9999999,6.824732e-06,-5.0097704e-05,-6.8843365e-06,1.0,307,0.933,0,0,0.0,False,1.0460059766388632,1.0470526971189749
0.9516578999900958,12:07:28.063276,12:07:11.996622,0,,0.07192461,-0.029115997,0.03415516,-0.4205314,0.46383482,-0.7797502,0.16008326,0.88388914,0.43944645,0.8930434,0.059975922,-0.4459554,,0.045821294,-0.013615906,0.011996895,0.27381474,-0.031652197,0.9612616,0.123093665,0.9923921,-0.002385877,-0.9538728,0.11897829,0.2756278,,0.10907054,1.3569821,0.4565804,0.99597853,0.036863744,-0.08165708,-0.023328574,-0.77328044,-0.6336348,-0.08650198,0.6329916,-0.7693108,,-0.03373583,0.24303287,-0.10469328,0.35733634,-0.40227205,0.84290445,0.7071529,0.70608205,0.037187643,-0.6101192,0.58277386,0.5367766,,0.018041773,0.43396866,-0.3034401,-0.13984156,0.030426094,-0.98970634,-0.5554286,0.8250548,0.103844136,0.8197215,0.56423295,-0.09847742,,1.4469003403832073,-0.14903329900678458,0.17933005489,1.5154292215626575,-0.5736000260153189,0.0810652038921554,0.8712772487602455,,-0.6851376924025758,-0.1873534995286866,0.19972328917,2.906931686525961,1.393828934107258,1.1953539954058572,0.872257313157051,,-0.04023202092003429,-0.09250026869413448,0.06086840708,-0.09125690957404896,,-7.465854e-05,-1.3530254e-05,8.940697e-06,1.0,6.0886145e-05,5.0097704e-05,-6.088242e-05,0.9999999,6.824732e-06,-5.0097704e-05,-6.8843365e-06,1.0,315,0.958,0,0,0.0,False,1.0460059766388632,1.0474389387252105
0.9899463929905323,12:07:28.082727,12:07:11.996622,0,,0.07192461,-0.029115997,0.03415516,-0.4205314,0.46383482,-0.7797502,0.16008326,0.88388914,0.43944645,0.8930434,0.059975922,-0.4459554,,0.045823574,-0.013615355,0.012000233,0.2738939,-0.031955846,0.9612289,0.1228289,0.99242574,-0.002006039,-0.95388424,0.118615925,0.27574447,,0.10907054,1.3569821,0.4565804,0.99597853,0.036863744,-0.08165708,-0.023328574,-0.77328044,-0.6336348,-0.08650198,0.6329916,-0.7693108,,-0.03373583,0.24303287,-0.10469328,0.35733634,-0.40227205,0.84290445,0.7071529,0.70608205,0.037187643,-0.6101192,0.58277386,0.5367766,,0.018039063,0.43397114,-0.303442,-0.13992245,0.030776616,-0.98968405,-0.55564094,0.82486594,0.10420824,0.8195638,0.5644901,-0.09831652,,1.4469003403832073,-0.14903329900678458,0.17933005489,1.5154292215626575,-0.5736000260153189,0.0810652038921554,0.8712772487602455,,-0.68514541513545,-0.1873534995286866,0.19972328917,2.9067219965824767,1.394102207106789,1.195539553299167,0.872747345355454,,-0.04023202092003429,-0.09250026869413448,0.06086840708,-0.09125690957404896,,-7.465854e-05,-1.3530254e-05,8.940697e-06,1.0,6.0886145e-05,5.0097704e-05,-6.088242e-05,0.9999999,6.824732e-06,-5.0097704e-05,-6.8843365e-06,1.0,326,0.991,0,0,0.0,False,1.0457080880462577,1.0470526971189749
1.0093760509917047,12:07:28.113127,12:07:11.996622,0,,0.07192361,-0.02911549,0.03415586,-0.42052564,0.46383438,-0.7797536,0.16007939,0.88388926,0.43944746,0.89304686,0.05997634,-0.44594857,,0.045822278,-0.013615534,0.011999756,0.27388656,-0.03195566,0.961231,0.12282777,0.99242586,-0.0020049885,-0.9538864,0.11861485,0.2757372,,0.10907054,1.3569821,0.4565804,0.99597853,0.036863744,-0.08165708,-0.023328574,-0.77328044,-0.6336348,-0.08650198,0.6329916,-0.7693108,,-0.03373486,0.2430337,-0.10469359,0.35733008,-0.40227163,0.8429073,0.70715225,0.70608246,0.0371929,-0.6101237,0.5827736,0.5367718,,0.018040411,0.4339708,-0.3034419,-0.13991493,0.030776579,-0.9896851,-0.55564266,0.8248653,0.10420409,0.8195639,0.564491,-0.09831019,,1.4469080631160816,-0.14903329900678458,0.17933005489,1.5154292215626575,-0.5736000260153189,0.0810652038921554,0.8712772487602455,,-0.6851376924025758,-0.1873534995286866,0.19972328917,2.9067219965824767,1.394102207106789,1.1955395532991666,0.8730740334877225,,-0.04023202092003429,-0.09250026869413448,0.06086840708,-0.09125690957404896,,-7.465854e-05,-1.3530254e-05,8.940697e-06,1.0,6.0886145e-05,5.0097704e-05,-6.088242e-05,0.9999999,6.824732e-06,-5.0097704e-05,-6.8843365e-06,1.0,347,1.056,0,0,0.0,False,1.046244287512947,1.047390658524431
1.0397692970000207,12:07:28.175697,12:07:11.996622,0,,0.07192402,-0.029117174,0.03415516,-0.42052937,0.4638315,-0.7797533,0.16008693,0.8838913,0.43944076,0.89304376,0.059969276,-0.44595572,,0.045823574,-0.013615355,0.012000233,0.2738939,-0.03219138,0.9612211,0.1228289,0.9924262,-0.0017628521,-0.95388424,0.118548274,0.27577353,,0.10907054,1.3569821,0.4565804,0.99597853,0.036863744,-0.08165708,-0.023328574,-0.77328044,-0.6336348,-0.08650198,0.6329916,-0.7693108,,-0.033735335,0.24303198,-0.10469412,0.35733458,-0.40226808,0.84290713,0.7071559,0.7060793,0.037183132,-0.61011684,0.5827799,0.5367728,,0.018039063,0.43397114,-0.303442,-0.13992245,0.031019123,-0.9896765,-0.55564094,0.82484037,0.10441036,0.8195638,0.56451416,-0.09817819,,1.4469003403832073,-0.1490410217396588,0.17933005489,1.5154292215626575,-0.5736000260153189,0.0810652038921554,0.8712772487602455,,-0.68514541513545,-0.1873534995286866,0.19972328917,2.9067219965824767,1.394102207106789,1.1957845895195884,0.8725840012893196,,-0.04023202092003429,-0.09250026869413448,0.06086840708,-0.09125690957404896,,-7.465854e-05,-1.3530254e-05,8.940697e-06,1.0,6.0886145e-05,5.0097704e-05,-6.088242e-05,0.9999999,6.824732e-06,-5.0097704e-05,-6.8843365e-06,1.0,355,1.08,0,0,0.0,False,1.0456485103277364,1.0472458179220927
1.1023527779907454,12:07:28.206383,12:07:12.138586,0,,0.07192344,-0.029118352,0.034155175,-0.42052734,0.46382824,-0.77975637,0.16009063,0.8838934,0.43943503,0.89304405,0.05996263,-0.44595605,,0.045823097,-0.013614103,0.012001246,0.2739448,-0.032051854,0.9612112,0.1227102,0.99244064,-0.0018791258,-0.95388484,0.11846495,0.27580705,,0.10907054,1.3569821,0.4565804,0.99597853,0.036863744,-0.08165708,-0.023328574,-0.77328044,-0.6336348,-0.08650198,0.6329916,-0.7693108,,-0.03373484,0.2430311,-0.10469497,0.3573328,-0.40226412,0.84290975,0.70715886,0.70607656,0.03717862,-0.61011446,0.58278596,0.536769,,0.018039422,0.43397278,-0.30344197,-0.13997461,0.030892445,-0.9896731,-0.5557344,0.82478553,0.10434592,0.8194915,0.5646012,-0.09828103,,1.446892617650333,-0.14904874447253302,0.17933005489,1.5154292215626575,-0.5736000260153189,0.0810652038921554,0.8712772487602455,,-0.68514541513545,-0.18734577679581238,0.19972328917,2.9067219965824767,1.3942388436065543,1.1956731716158921,0.8725840012893196,,-0.04023202092003429,-0.09250026869413448,0.06086840708,-0.09125690957404896,,-7.465854e-05,-1.3530254e-05,8.940697e-06,1.0,6.0886145e-05,5.0097704e-05,-6.088242e-05,0.9999999,6.824732e-06,-5.0097704e-05,-6.8843365e-06,1.0,367,1.117,0,0,0.0,False,1.045767665764779,1.047294098122872
1.133008290998987,12:07:28.240240,12:07:12.138586,0,,0.07192344,-0.029118352,0.034155175,-0.42052734,0.46382824,-0.77975637,0.16009063,0.8838934,0.43943503,0.89304405,0.05996263,-0.44595605,,0.045821793,-0.013614282,0.012000769,0.27393746,-0.032051668,0.9612133,0.122709155,0.9924408,-0.0018780679,-0.95388716,0.11846393,0.27579978,,0.10907054,1.3569821,0.4565804,0.99597853,0.036863744,-0.08165708,-0.023328574,-0.77328044,-0.6336348,-0.08650198,0.6329916,-0.7693108,,-0.03373484,0.2430311,-0.10469497,0.3573328,-0.40226412,0.84290975,0.70715886,0.70607656,0.03717862,-0.61011446,0.58278596,0.536769,,0.018040773,0.43397245,-0.30344188,-0.13996707,0.030892408,-0.98967415,-0.5557361,0.82478493,0.10434177,0.8194917,0.5646021,-0.0982747,,1.4469003403832073,-0.14904874447253302,0.17933005489,1.5154292215626575,-0.5736000260153189,0.0810652038921554,0.8712772487602455,,-0.6851376924025758,-0.18734577679581238,0.19972328917,2.9067219965824767,1.3942388436065543,1.1956731716158921,0.8725840012893196,,-0.04023202092003429,-0.09250026869413448,0.06086840708,-0.09125690957404896,,-7.465854e-05,-1.3530254e-05,8.940697e-06,1.0,6.0886145e-05,5.0097704e-05,-6.088242e-05,0.9999999,6.824732e-06,-5.0097704e-05,-6.8843365e-06,1.0,375,1.142,0,0,0.0,False,1.0461847097944261,1.0470526971189749
1.1668732919933973,12:07:28.271760,12:07:12.138586,0,,0.07192443,-0.02911885,0.034154475,-0.42053306,0.46382868,-0.77975297,0.16009444,0.88389325,0.43943405,0.89304066,0.059962243,-0.4459629,,0.045821927,-0.0136157125,0.012000948,0.27393878,-0.03204927,0.961213,0.122701555,0.9924417,-0.0018785223,-0.95388776,0.11845669,0.27580076,,0.10907054,1.3569821,0.4565804,0.99597853,0.036863744,-0.08165708,-0.023328574,-0.77328044,-0.6336348,-0.08650198,0.6329916,-0.7693108,,-0.033735808,0.24303026,-0.10469466,0.35733905,-0.40226457,0.8429069,0.7071595,0.70607615,0.037173368,-0.61011,0.58278614,0.5367738,,0.018040586,0.4339715,-0.30344296,-0.13996841,0.030891027,-0.989674,-0.5557423,0.8247807,0.104342125,0.8194872,0.5646083,-0.09827579,,1.446892617650333,-0.14904874447253302,0.17933005489,1.5154292215626575,-0.5736000260153189,0.0810652038921554,0.8712772487602455,,-0.6851376924025758,-0.1873534995286866,0.19972328917,2.9067219965824767,1.3942388436065543,1.1956731716158921,0.8725840012893196,,-0.04023202092003429,-0.09250026869413448,0.06086840708,-0.09125690957404896,,-7.465854e-05,-1.3530254e-05,8.940697e-06,1.0,6.0886145e-05,5.0097704e-05,-6.088242e-05,0.9999999,6.824732e-06,-5.0097704e-05,-6.8843365e-06,1.0,387,1.179,0,0,0.0,False,1.0451718885795684,1.0469078565166363
1.1984133130026748,12:07:28.303474,12:07:12.138586,0,,0.07192344,-0.029118352,0.034155175,-0.42052734,0.46382824,-0.77975637,0.16009063,0.8838934,0.43943503,0.89304405,0.05996263,-0.44595605,,0.045824885,-0.013614804,0.012002021,0.2739136,-0.032244183,0.96121365,0.12268928,0.9924437,-0.0016704947,-0.9538965,0.11838797,0.2757998,,0.10907054,1.3569821,0.4565804,0.99597853,0.036863744,-0.08165708,-0.023328574,-0.77328044,-0.6336348,-0.08650198,0.6329916,-0.7693108,,-0.03373484,0.2430311,-0.10469497,0.3573328,-0.40226412,0.84290975,0.70715886,0.70607656,0.03717862,-0.61011446,0.58278596,0.536769,,0.018037528,0.4339726,-0.3034428,-0.13994244,0.031093473,-0.9896713,-0.5557553,0.8247523,0.104497485,0.81948286,0.56463873,-0.098137476,,1.4469003403832073,-0.14904874447253302,0.17933005489,1.5154292215626575,-0.5736000260153189,0.0810652038921554,0.8712772487602455,,-0.68514541513545,-0.1873534995286866,0.19972328917,2.906512306638992,1.3942388436065543,1.1956731716158921,0.8725840012893196,,-0.04023202092003429,-0.09250026869413448,0.06086840708,-0.09125690957404896,,-7.465854e-05,-1.3530254e-05,8.940697e-06,1.0,6.0886145e-05,5.0097704e-05,-6.088242e-05,0.9999999,6.824732e-06,-5.0097704e-05,-6.8843365e-06,1.0,395,1.203,0,0,0.0,False,1.0455293548906948,1.046666455512739
1.2301420089934254,12:07:28.328940,12:07:12.138586,0,,0.071924366,-0.029117279,0.034151107,-0.42064643,0.4631034,-0.7801228,0.1601409,0.88430035,0.43859732,0.8929789,0.05956471,-0.44613966,,0.045826405,-0.0136127025,0.012002379,0.27387977,-0.032441318,0.9612167,0.122683525,0.99244463,-0.0014609694,-0.953907,0.11832541,0.27579054,,0.10907054,1.3569821,0.4565804,0.99597853,0.036863744,-0.08165708,-0.023328574,-0.77328044,-0.6336348,-0.08650198,0.6329916,-0.7693108,,-0.03373535,0.24302924,-0.10469113,0.35746008,-0.40148205,0.8432286,0.7071538,0.70612085,0.036426164,-0.61004573,0.58327144,0.53631955,,0.018036004,0.4339743,-0.30344152,-0.13990761,0.031297263,-0.9896698,-0.55576384,0.8247274,0.10464834,0.81948304,0.56466377,-0.09799175,,1.446892617650333,-0.1490410217396588,0.17933264747000002,1.5154292215626575,-0.5734633895155536,0.08013699858705339,0.8706238724957084,,-0.68514541513545,-0.18734577679581238,0.19972328917,2.9063026166955077,1.3942388436065543,1.1956731716158921,0.8725840012893196,,-0.04023202092003429,-0.09250026869413448,0.06086840708,-0.09125690957404896,,-7.465854e-05,-1.3530254e-05,8.940697e-06,1.0,6.0886145e-05,5.0097704e-05,-6.088242e-05,0.9999999,6.824732e-06,-5.0097704e-05,-6.8843365e-06,1.0,432,1.318,0,0,0.0,False,1.0451123108610472,1.0470044169181953
1.2555993129935814,12:07:28.439573,12:07:12.290482,0,,0.07188367,-0.029137209,0.034108266,-0.42083403,0.461668,-0.7808721,0.15936416,0.8850469,0.43737257,0.8930295,0.059618056,-0.44603133,,0.045826845,-0.013612807,0.012001187,0.27387977,-0.032362796,0.9612193,0.122683525,0.9924445,-0.0015420467,-0.953907,0.11834791,0.2757809,,0.10907054,1.3569821,0.4565804,0.99597853,0.036863744,-0.08165708,-0.023328574,-0.77328044,-0.6336348,-0.08650198,0.6329916,-0.7693108,,-0.03369287,0.24298602,-0.104676455,0.35758653,-0.40000564,0.84387636,0.7066015,0.70671695,0.035573483,-0.6106114,0.5835637,0.53535706,,0.018035738,0.4339734,-0.30344063,-0.13990761,0.03121643,-0.98967236,-0.55576384,0.82473594,0.104580976,0.81948304,0.5646558,-0.098037876,,1.4469003403832073,-0.14921864459576598,0.17938449907,1.514380771845235,-0.5736000260153189,0.07943162908934412,0.870950560627977,,-0.68514541513545,-0.18734577679581238,0.19972458546000002,2.9063026166955077,1.3942388436065543,1.1955914928757516,0.8727473453554537,,-0.04023202092003429,-0.09250026869413448,0.06086840708,-0.09125690957404896,,-7.465854e-05,-1.3530254e-05,8.940697e-06,1.0,6.0886145e-05,5.0097704e-05,-6.088242e-05,0.9999999,6.824732e-06,-5.0097704e-05,-6.8843365e-06,1.0,440,1.343,0,0,0.0,False,1.0454697771721735,1.0469078565166363
1.3662197119992925,12:07:28.465692,12:07:12.290482,0,,0.071870506,-0.029149316,0.03409715,-0.420952,0.4613064,-0.7810222,0.15908161,0.88522613,0.4371127,0.89302427,0.059757054,-0.4460232,,0.04582554,-0.013612956,0.01200071,0.27387246,-0.03236261,0.9612214,0.12268245,0.99244463,-0.0015409887,-0.9539093,0.11834687,0.27577358,,0.10907054,1.3569821,0.4565804,0.99597853,0.036863744,-0.08165708,-0.023328574,-0.77328044,-0.6336348,-0.08650198,0.6329916,-0.7693108,,-0.03367975,0.24296957,-0.104677446,0.35768387,-0.39964443,0.84400624,0.70638496,0.706943,0.03538282,-0.61080486,0.58353746,0.5351649,,0.018037086,0.43397307,-0.30344054,-0.13990009,0.031216392,-0.98967344,-0.55576557,0.82473534,0.104576826,0.81948316,0.5646567,-0.09803154,,1.4469003403832073,-0.14930359465738244,0.17939746197,1.513961391958266,-0.5736000260153189,0.07943162908934412,0.870950560627977,,-0.6851376924025758,-0.18734577679581238,0.19972458546000002,2.9063026166955077,1.3942388436065543,1.1955914928757516,0.8727473453554537,,-0.04023202092003429,-0.09250026869413448,0.06086840708,-0.09125690957404896,,-7.465854e-05,-1.3530254e-05,8.940697e-06,1.0,6.0886145e-05,5.0097704e-05,-6.088242e-05,0.9999999,6.824732e-06,-5.0097704e-05,-6.8843365e-06,1.0,452,1.379,0,0,0.0,False,1.0455293548906948,1.0463284941072828
1.3923391499993159,12:07:28.503843,12:07:12.441573,0,,0.071860515,-0.029159196,0.034089416,-0.4209318,0.46127346,-0.78105253,0.15911835,0.8852477,0.43705553,0.8930273,0.059690624,-0.44602612,,0.04582554,-0.013612956,0.01200071,0.27387246,-0.032441117,0.9612188,0.12268245,0.9924448,-0.0014599189,-0.9539093,0.11832428,0.27578327,,0.10907054,1.3569821,0.4565804,0.99597853,0.036863744,-0.08165708,-0.023328574,-0.77328044,-0.6336348,-0.08650198,0.6329916,-0.7693108,,-0.033669904,0.24295703,-0.10467918,0.3576662,-0.3996048,0.8440325,0.70641464,0.70691556,0.03533778,-0.6107809,0.5835978,0.53512645,,0.018037086,0.43397307,-0.30344054,-0.13990009,0.03129723,-0.9896709,-0.55576557,0.82472676,0.10464419,0.81948316,0.5646647,-0.097985424,,1.4469003403832073,-0.14938082198612468,0.179406536,1.513961391958266,-0.5736000260153189,0.07943162908934412,0.870950560627977,,-0.6851376924025758,-0.18734577679581238,0.19972458546000002,2.9063026166955077,1.3942388436065543,1.1956731716158921,0.8725840012893196,,-0.04023202092003429,-0.09250026869413448,0.06086840708,-0.09125690957404896,,-7.465854e-05,-1.3530254e-05,8.940697e-06,1.0,6.0886145e-05,5.0097704e-05,-6.088242e-05,0.9999999,6.824732e-06,-5.0097704e-05,-6.8843365e-06,1.0,460,1.404,0,0,0.0,False,1.0456485103277364,1.0465216149104006
1.4304998669977067,12:07:28.528628,12:07:12.441573,0,,0.07185523,-0.029166915,0.03408721,-0.42091763,0.46125048,-0.78107375,0.15914413,0.8852629,0.43701553,0.89302933,0.059644103,-0.44602817,,0.04582554,-0.013612956,0.01200071,0.27387246,-0.032441117,0.9612188,0.12268245,0.9924448,-0.0014599189,-0.9539093,0.11832428,0.27578327,,0.10907054,1.3569821,0.4565804,0.99597853,0.036863744,-0.08165708,-0.023328574,-0.77328044,-0.6336348,-0.08650198,0.6329916,-0.7693108,,-0.03366504,0.24294975,-0.104683176,0.3576538,-0.39957708,0.8440509,0.70643544,0.70689636,0.035306253,-0.6107641,0.58364004,0.53509957,,0.018037086,0.43397307,-0.30344054,-0.13990009,0.03129723,-0.9896709,-0.55576557,0.82472676,0.10464419,0.81948316,0.5646647,-0.097985424,,1.4469003403832073,-0.14943488111624426,0.17940912858000002,1.513961391958266,-0.5736000260153189,0.07943162908934412,0.870950560627977,,-0.6851376924025758,-0.18734577679581238,0.19972458546000002,2.9063026166955077,1.3942388436065543,1.1956731716158921,0.8725840012893196,,-0.04023202092003429,-0.09250026869413448,0.06086840708,-0.09125690957404896,,-7.465854e-05,-1.3530254e-05,8.940697e-06,1.0,6.0886145e-05,5.0097704e-05,-6.088242e-05,0.9999999,6.824732e-06,-5.0097704e-05,-6.8843365e-06,1.0,472,1.441,0,0,0.0,False,1.0456485103277364,1.0472458179220927
1.4552797560027102,12:07:28.561753,12:07:12.441573,0,,0.0718482,-0.029176772,0.034083948,-0.42089945,0.46122086,-0.78110105,0.15917724,0.88528234,0.4369641,0.8930321,0.05958432,-0.44603083,,0.04582554,-0.013612956,0.01200071,0.27387246,-0.032441117,0.9612188,0.12268245,0.9924448,-0.0014599189,-0.9539093,0.11832428,0.27578327,,0.10907054,1.3569821,0.4565804,0.99597853,0.036863744,-0.08165708,-0.023328574,-0.77328044,-0.6336348,-0.08650198,0.6329916,-0.7693108,,-0.033658486,0.24294017,-0.10468791,0.35763788,-0.3995414,0.84407455,0.70646214,0.7068717,0.03526572,-0.6107425,0.58369434,0.535065,,0.018037086,0.43397307,-0.30344054,-0.13990009,0.03129723,-0.9896709,-0.55576557,0.82472676,0.10464419,0.81948316,0.5646647,-0.097985424,,1.4469003403832073,-0.14950438571211228,0.17941301745000002,1.513961391958266,-0.5736000260153189,0.07943162908934412,0.870950560627977,,-0.6851376924025758,-0.18734577679581238,0.19972458546000002,2.9063026166955077,1.3942388436065543,1.1956731716158921,0.8725840012893196,,-0.04023202092003429,-0.09250026869413448,0.06086840708,-0.09125690957404896,,-7.465854e-05,-1.3530254e-05,8.940697e-06,1.0,6.0886145e-05,5.0097704e-05,-6.088242e-05,0.9999999,6.824732e-06,-5.0097704e-05,-6.8843365e-06,1.0,480,1.465,0,0,0.0,False,1.045767665764779,1.046859576315857
1.48837321899191,12:07:28.597840,12:07:12.441573,0,,0.071844265,-0.02917926,0.034082443,-0.42088765,0.46121055,-0.78111356,0.1591844,0.885289,0.4369479,0.8930363,0.0595648,-0.44602484,,0.045824386,-0.013614565,0.012000412,0.27386647,-0.03243853,0.96122056,0.12267378,0.9924459,-0.001459308,-0.95391214,0.118315995,0.275777,,0.10907054,1.3569821,0.4565804,0.99597853,0.036863744,-0.08165708,-0.023328574,-0.77328044,-0.6336348,-0.08650198,0.6329916,-0.7693108,,-0.033654634,0.2429373,-0.10468884,0.35762632,-0.3995291,0.8440853,0.7064704,0.7068639,0.035257462,-0.61073977,0.5837122,0.5350486,,0.01803825,0.43397176,-0.3034415,-0.13989389,0.03129581,-0.9896718,-0.55577344,0.82472193,0.104640394,0.81947887,0.5646719,-0.09798017,,1.4469080631160816,-0.14952755391073497,0.17941561003,1.513961391958266,-0.5736000260153189,0.07943162908934412,0.870950560627977,,-0.6851299696697016,-0.1873534995286866,0.19972458546000002,2.9063026166955077,1.3942388436065543,1.1956731716158921,0.8725840012893196,,-0.04023202092003429,-0.09250026869413448,0.06086840708,-0.09125690957404896,,-7.465854e-05,-1.3530254e-05,8.940697e-06,1.0,6.0886145e-05,5.0097704e-05,-6.088242e-05,0.9999999,6.824732e-06,-5.0097704e-05,-6.8843365e-06,1.0,509,1.556,0,0,0.0,False,1.045767665764779,1.0469078565166363
1.5244953979999991,12:07:28.677393,12:07:12.600194,0,,0.071841866,-0.02918116,0.034081727,-0.42066655,0.4613876,-0.78112805,0.15909576,0.8851923,0.4371761,0.8931563,0.05963108,-0.44577572,,0.04582432,-0.013613701,0.011998922,0.27390495,-0.03224639,0.96121603,0.1226958,0.99244285,-0.0016689897,-0.9538982,0.11839405,0.27579153,,0.10907054,1.3569821,0.4565804,0.99597853,0.036863744,-0.08165708,-0.023328574,-0.77328044,-0.6336348,-0.08650198,0.6329916,-0.7693108,,-0.033652328,0.2429354,-0.104689814,0.3573904,-0.39971745,0.844096,0.7064827,0.70683473,0.035593167,-0.61086357,0.5836185,0.53500944,,0.018038528,0.43397143,-0.30343983,-0.13993357,0.031094817,-0.98967254,-0.55575085,0.82475585,0.104492985,0.8194874,0.5646334,-0.09813006,,1.4469003403832073,-0.1495429993764834,0.17941820261000002,1.513961391958266,-0.5738732990148498,0.07965446489673703,0.870950560627977,,-0.6851376924025758,-0.18734577679581238,0.19972588175000003,2.906512306638992,1.3942388436065543,1.1956731716158921,0.8725840012893196,,-0.04023202092003429,-0.09250026869413448,0.06086840708,-0.09125690957404896,,-7.465854e-05,-1.3530254e-05,8.940697e-06,1.0,6.0886145e-05,5.0097704e-05,-6.088242e-05,0.9999999,6.824732e-06,-5.0097704e-05,-6.8843365e-06,1.0,517,1.58,0,0,0.0,False,1.0454697771721735,1.0468112961150775
1.6040144639991922,12:07:28.702032,12:07:12.600194,0,,0.07184069,-0.029182069,0.034080625,-0.4206645,0.46138433,-0.7811311,0.1590994,0.8851944,0.4371704,0.8931565,0.059624404,-0.445776,,0.045823023,-0.01361388,0.011998445,0.27389765,-0.032246202,0.9612182,0.1226947,0.99244297,-0.0016679391,-0.9539004,0.118393034,0.27578425,,0.10907054,1.3569821,0.4565804,0.99597853,0.036863744,-0.08165708,-0.023328574,-0.77328044,-0.6336348,-0.08650198,0.6329916,-0.7693108,,-0.033651132,0.24293399,-0.1046897,0.35738865,-0.3997135,0.8440986,0.7064856,0.706832,0.035588663,-0.6108612,0.5836246,0.53500557,,0.018039877,0.43397108,-0.30343974,-0.13992605,0.031094782,-0.9896736,-0.5557526,0.82475525,0.104488835,0.8194875,0.5646343,-0.09812374,,1.4469003403832073,-0.14955072210935763,0.17941949890000003,1.513961391958266,-0.5738732990148498,0.07965446489673703,0.870950560627977,,-0.6851299696697016,-0.18734577679581238,0.19972588175000003,2.906512306638992,1.3942388436065543,1.1956731716158921,0.8725840012893196,,-0.04023202092003429,-0.09250026869413448,0.06086840708,-0.09125690957404896,,-7.465854e-05,-1.3530254e-05,8.940697e-06,1.0,6.0886145e-05,5.0097704e-05,-6.088242e-05,0.9999999,6.824732e-06,-5.0097704e-05,-6.8843365e-06,1.0,525,1.605,0,0,0.0,False,1.0452910440166105,1.0470044169181953
1.6286781629896723,12:07:28.727792,12:07:12.600194,0,,0.07183968,-0.029182732,0.034079492,-0.42073455,0.46122158,-0.7811895,0.1589379,0.88527215,0.43707183,0.8931523,0.05973044,-0.4457703,,0.04582476,-0.013613746,0.01199773,0.27390495,-0.03224639,0.96121603,0.1226958,0.99244285,-0.0016689897,-0.9538982,0.11839405,0.27579153,,0.10907054,1.3569821,0.4565804,0.99597853,0.036863744,-0.08165708,-0.023328574,-0.77328044,-0.6336348,-0.08650198,0.6329916,-0.7693108,,-0.03365009,0.24293274,-0.10468939,0.35744697,-0.39955467,0.8441491,0.70636106,0.70696,0.035518087,-0.6109711,0.5835782,0.5349306,,0.01803826,0.43397057,-0.3034389,-0.13993357,0.031094817,-0.98967254,-0.55575085,0.82475585,0.104492985,0.8194874,0.5646334,-0.09813006,,1.4469003403832073,-0.14955072210935763,0.17942079519,1.5137517020147813,-0.5738732990148498,0.07965446489673703,0.870950560627977,,-0.6851376924025758,-0.18734577679581238,0.19972717804,2.906512306638992,1.3942388436065543,1.1956731716158921,0.8725840012893196,,-0.04023202092003429,-0.09250026869413448,0.06086840708,-0.09125690957404896,,-7.465854e-05,-1.3530254e-05,8.940697e-06,1.0,6.0886145e-05,5.0097704e-05,-6.088242e-05,0.9999999,6.824732e-06,-5.0097704e-05,-6.8843365e-06,1.0,533,1.629,0,0,0.0,False,1.0454697771721735,1.0472458179220927
1.6544609459961066,12:07:28.757265,12:07:12.600194,0,,0.07183769,-0.029181749,0.034080893,-0.42072305,0.46122068,-0.7811962,0.15893015,0.88527256,0.43707383,0.8931591,0.059731275,-0.44575655,,0.04582476,-0.013613746,0.01199773,0.27390495,-0.03224639,0.96121603,0.1226958,0.99244285,-0.0016689897,-0.9538982,0.11839405,0.27579153,,0.10907054,1.3569821,0.4565804,0.99597853,0.036863744,-0.08165708,-0.023328574,-0.77328044,-0.6336348,-0.08650198,0.6329916,-0.7693108,,-0.033648152,0.24293439,-0.10469001,0.35743445,-0.3995538,0.84415483,0.7063597,0.7069609,0.035528593,-0.61098003,0.5835778,0.5349209,,0.01803826,0.43397057,-0.3034389,-0.13993357,0.031094817,-0.98967254,-0.55575085,0.82475585,0.104492985,0.8194874,0.5646334,-0.09813006,,1.4469157858489556,-0.14955072210935763,0.17942079519,1.5137517020147813,-0.5738732990148498,0.07965446489673703,0.870950560627977,,-0.6851376924025758,-0.18734577679581238,0.19972717804,2.906512306638992,1.3942388436065543,1.1956731716158921,0.8725840012893196,,-0.04023202092003429,-0.09250026869413448,0.06086840708,-0.09125690957404896,,-7.465854e-05,-1.3530254e-05,8.940697e-06,1.0,6.0886145e-05,5.0097704e-05,-6.088242e-05,0.9999999,6.824732e-06,-5.0097704e-05,-6.8843365e-06,1.0,541,1.654,0,0,0.0,False,1.0457080880462577,1.0470044169181953
1.6839353800023673,12:07:28.787956,12:07:12.600194,0,,0.07183668,-0.029182427,0.034079745,-0.4207931,0.46105787,-0.7812546,0.15876853,0.8853502,0.43697524,0.89315486,0.05983731,-0.44575083,,0.045823455,-0.013613939,0.011997253,0.27389765,-0.032246202,0.9612182,0.1226947,0.99244297,-0.0016679391,-0.9539004,0.118393034,0.27578425,,0.10907054,1.3569821,0.4565804,0.99597853,0.036863744,-0.08165708,-0.023328574,-0.77328044,-0.6336348,-0.08650198,0.6329916,-0.7693108,,-0.03364711,0.24293314,-0.104689695,0.35749274,-0.39939496,0.8442053,0.70623505,0.70708895,0.035458002,-0.61109,0.58353144,0.5348459,,0.01803961,0.4339702,-0.30343884,-0.13992605,0.031094782,-0.9896736,-0.5557526,0.82475525,0.104488835,0.8194875,0.5646343,-0.09812374,,1.4469157858489556,-0.14955072210935763,0.17942209148000002,1.5135420120712968,-0.5738732990148498,0.07965446489673703,0.870950560627977,,-0.6851299696697016,-0.18734577679581238,0.19972717804,2.906512306638992,1.3942388436065543,1.1956731716158921,0.8725840012893196,,-0.04023202092003429,-0.09250026869413448,0.06086840708,-0.09125690957404896,,-7.465854e-05,-1.3530254e-05,8.940697e-06,1.0,6.0886145e-05,5.0097704e-05,-6.088242e-05,0.9999999,6.824732e-06,-5.0097704e-05,-6.8843365e-06,1.0,553,1.691,0,0,0.0,False,1.0451718885795684,1.0465216149104006
1.7146110350004165,12:07:28.819001,12:07:12.734712,0,,0.07183868,-0.029183395,0.034078345,-0.42080456,0.46105877,-0.7812479,0.15877634,0.88534975,0.43697327,0.8931481,0.059836507,-0.44576454,,0.0458218,-0.013614625,0.011996657,0.27393016,-0.03205148,0.9612154,0.12270799,0.99244094,-0.0018770099,-0.9538894,0.11846283,0.27579248,,0.10907054,1.3569821,0.4565804,0.99597853,0.036863744,-0.08165708,-0.023328574,-0.77328044,-0.6336348,-0.08650198,0.6329916,-0.7693108,,-0.03364905,0.24293149,-0.10468908,0.35750526,-0.39939582,0.8441996,0.7062365,0.70708805,0.035447497,-0.61108106,0.58353186,0.5348556,,0.018041318,0.43396947,-0.30343905,-0.13995954,0.030892372,-0.98967516,-0.55573785,0.8247843,0.104337625,0.8194918,0.564603,-0.098268375,,1.4469003403832073,-0.14955072210935763,0.17942209148000002,1.5135420120712968,-0.5738732990148498,0.07965446489673703,0.870950560627977,,-0.6851299696697016,-0.18734577679581238,0.19972717804,2.9067219965824767,1.3942388436065543,1.1956731716158921,0.8725840012893196,,-0.04023202092003429,-0.09250026869413448,0.06086840708,-0.09125690957404896,,-7.465854e-05,-1.3530254e-05,8.940697e-06,1.0,6.0886145e-05,5.0097704e-05,-6.088242e-05,0.9999999,6.824732e-06,-5.0097704e-05,-6.8843365e-06,1.0,586,1.793,0,0,0.0,False,1.0455293548906948,1.0472458179220927
1.7456331779976608,12:07:28.912099,12:07:12.823858,0,,0.07183493,-0.029184513,0.034078628,-0.420789,0.4611789,-0.7811853,0.15877599,0.8852831,0.43710846,0.89315546,0.059896827,-0.44574165,,0.045823395,-0.01361306,0.011995703,0.27393615,-0.032132573,0.96121097,0.122716725,0.99244,-0.0017965585,-0.9538865,0.118448585,0.27580842,,0.10907054,1.3569821,0.4565804,0.99597853,0.036863744,-0.08165708,-0.023328574,-0.77328044,-0.6336348,-0.08650198,0.6329916,-0.7693108,,-0.03364542,0.24293083,-0.104690425,0.3574892,-0.39952493,0.8441453,0.706241,0.7070776,0.035564505,-0.6110852,0.5834561,0.5349335,,0.018039886,0.4339699,-0.30343714,-0.13996574,0.030974625,-0.98967177,-0.5557299,0.8247806,0.104408786,0.8194961,0.56460387,-0.0982275,,1.4469157858489556,-0.14956616757510607,0.17942338777000003,1.5135420120712968,-0.5738732990148498,0.07981782237701818,0.8709505606279769,,-0.6851376924025758,-0.18733805406293816,0.19972847433000002,2.9067219965824767,1.3942388436065543,1.1957548503560327,0.8724206572231854,,-0.04023202092003429,-0.09250026869413448,0.06086840708,-0.09125690957404896,,-7.465854e-05,-1.3530254e-05,8.940697e-06,1.0,6.0886145e-05,5.0097704e-05,-6.088242e-05,0.9999999,6.824732e-06,-5.0097704e-05,-6.8843365e-06,1.0,594,1.818,0,0,0.0,False,1.0452910440166105,1.0475837793275489
1.8387317229935434,12:07:28.949002,12:07:12.823858,0,,0.07183692,-0.029185481,0.034077227,-0.4208005,0.4611798,-0.7811786,0.15878373,0.8852827,0.43710646,0.89314866,0.059896022,-0.44575536,,0.0458221,-0.013613254,0.011995226,0.27392885,-0.032053873,0.9612157,0.12271559,0.99244,-0.0018765628,-0.9538888,0.11847001,0.2757915,,0.10907054,1.3569821,0.4565804,0.99597853,0.036863744,-0.08165708,-0.023328574,-0.77328044,-0.6336348,-0.08650198,0.6329916,-0.7693108,,-0.03364736,0.24292919,-0.10468981,0.35750172,-0.3995258,0.8441396,0.7062424,0.7070768,0.035554,-0.61107624,0.5834566,0.5349432,,0.018041236,0.43396953,-0.30343708,-0.13995822,0.030893752,-0.98967534,-0.55573165,0.8247885,0.10433727,0.8194962,0.5645968,-0.09826729,,1.4469003403832073,-0.14956616757510607,0.17942338777000003,1.5135420120712968,-0.5738732990148498,0.07981782237701818,0.8709505606279769,,-0.6851299696697016,-0.18733805406293816,0.19972847433000002,2.9067219965824767,1.3942388436065543,1.1956731716158921,0.8725840012893196,,-0.04023202092003429,-0.09250026869413448,0.06086840708,-0.09125690957404896,,-7.465854e-05,-1.3530254e-05,8.940697e-06,1.0,6.0886145e-05,5.0097704e-05,-6.088242e-05,0.9999999,6.824732e-06,-5.0097704e-05,-6.8843365e-06,1.0,606,1.855,0,0,0.0,False,1.0454101994536527,1.0471009773197542
1.875666955995257,12:07:28.980140,12:07:12.823858,0,,0.07183651,-0.02918382,0.034077942,-0.42079678,0.46118262,-0.78117895,0.15877622,0.8852807,0.43711317,0.89315176,0.059903055,-0.4457482,,0.04582254,-0.013613299,0.011994034,0.27392885,-0.032053873,0.9612157,0.12271559,0.99244,-0.0018765628,-0.9538888,0.11847001,0.2757915,,0.10907054,1.3569821,0.4565804,0.99597853,0.036863744,-0.08165708,-0.023328574,-0.77328044,-0.6336348,-0.08650198,0.6329916,-0.7693108,,-0.033646885,0.2429309,-0.10468927,0.35749722,-0.3995293,0.8441398,0.70623875,0.70707995,0.035563756,-0.6110831,0.5834503,0.5349422,,0.018040968,0.43396866,-0.30343616,-0.13995822,0.030893752,-0.98967534,-0.55573165,0.8247885,0.10433727,0.8194962,0.5645968,-0.09826729,,1.4469080631160816,-0.14955844484223185,0.17942338777000003,1.5135420120712968,-0.5738732990148498,0.07981782237701818,0.8709505606279769,,-0.6851299696697016,-0.18733805406293816,0.19972977062000002,2.9067219965824767,1.3942388436065543,1.1956731716158921,0.8725840012893196,,-0.04023202092003429,-0.09250026869413448,0.06086840708,-0.09125690957404896,,-7.465854e-05,-1.3530254e-05,8.940697e-06,1.0,6.0886145e-05,5.0097704e-05,-6.088242e-05,0.9999999,6.824732e-06,-5.0097704e-05,-6.8843365e-06,1.0,614,1.879,0,0,0.0,False,1.0452910440166105,1.04748721892599
1.9067840759962564,12:07:29.011770,12:07:12.950955,0,,0.07183691,-0.029184021,0.034076124,-0.42080253,0.4611831,-0.78117555,0.15877998,0.88528055,0.43711215,0.8931484,0.05990264,-0.44575503,,0.045823835,-0.01361312,0.011994511,0.27393615,-0.031975545,0.9612162,0.122716725,0.9924397,-0.0019586906,-0.9538865,0.11849362,0.27578908,,0.10907054,1.3569821,0.4565804,0.99597853,0.036863744,-0.08165708,-0.023328574,-0.77328044,-0.6336348,-0.08650198,0.6329916,-0.7693108,,-0.033647154,0.24292956,-0.104688,0.35750347,-0.39952976,0.84413695,0.7062394,0.7070795,0.035558503,-0.6110787,0.58345056,0.53494704,,0.01803962,0.43396902,-0.30343625,-0.13996574,0.030812955,-0.9896768,-0.5557299,0.82479763,0.10427405,0.8194961,0.56458783,-0.09831973,,1.4469003403832073,-0.14955844484223185,0.17942468406,1.5135420120712968,-0.5738732990148498,0.07981782237701818,0.8709505606279769,,-0.6851376924025758,-0.18733805406293816,0.19972977062000002,2.9067219965824767,1.3942388436065543,1.1955914928757516,0.8727473453554537,,-0.04023202092003429,-0.09250026869413448,0.06086840708,-0.09125690957404896,,-7.465854e-05,-1.3530254e-05,8.940697e-06,1.0,6.0886145e-05,5.0097704e-05,-6.088242e-05,0.9999999,6.824732e-06,-5.0097704e-05,-6.8843365e-06,1.0,626,1.916,0,0,0.0,False,1.0456485103277364,1.046859576315857
1.9384064269979717,12:07:29.044276,12:07:12.950955,0,,0.07183592,-0.029183514,0.03407681,-0.42079678,0.46118262,-0.78117895,0.15877622,0.8852807,0.43711317,0.89315176,0.059903055,-0.4457482,,0.04582254,-0.013613299,0.011994034,0.27392885,-0.031975366,0.9612183,0.12271559,0.9924398,-0.0019576252,-0.9538888,0.11849254,0.27578178,,0.10907054,1.3569821,0.4565804,0.99597853,0.036863744,-0.08165708,-0.023328574,-0.77328044,-0.6336348,-0.08650198,0.6329916,-0.7693108,,-0.033646185,0.24293038,-0.10468831,0.35749722,-0.3995293,0.8441398,0.70623875,0.70707995,0.035563756,-0.6110831,0.5834503,0.5349422,,0.018040968,0.43396866,-0.30343616,-0.13995822,0.030812917,-0.98967785,-0.55573165,0.82479703,0.1042699,0.8194962,0.5645887,-0.098313406,,1.4469080631160816,-0.14955844484223185,0.17942468406,1.5135420120712968,-0.5738732990148498,0.07981782237701818,0.8709505606279769,,-0.6851299696697016,-0.18733805406293816,0.19972977062000002,2.9067219965824767,1.3942388436065543,1.1955914928757516,0.8727473453554537,,-0.04023202092003429,-0.09250026869413448,0.06086840708,-0.09125690957404896,,-7.465854e-05,-1.3530254e-05,8.940697e-06,1.0,6.0886145e-05,5.0097704e-05,-6.088242e-05,0.9999999,6.824732e-06,-5.0097704e-05,-6.8843365e-06,1.0,659,2.018,0,0,0.0,False,1.045886821201821,1.047390658524431
1.9708929999906104,12:07:29.142450,12:07:13.067048,0,,0.07181949,-0.02917236,0.034049883,-0.42078757,0.46117243,-0.78119,0.15879199,0.8852879,0.43709305,0.8931533,0.05987656,-0.44574872,,0.045833893,-0.013616189,0.011974931,0.27388155,-0.032174274,0.9612251,0.122702,0.992442,-0.0017422587,-0.9539041,0.11842129,0.27575937,,0.10911768,1.3569782,0.45658782,0.9959778,0.03684068,-0.081675984,-0.023358282,-0.7732816,-0.6336324,-0.08650198,0.6329916,-0.7693108,,-0.033669665,0.24291214,-0.104655474,0.35749376,-0.39948925,0.84416026,0.7062419,0.7070785,0.035530232,-0.61108154,0.58347946,0.5349122,,0.017990088,0.4339424,-0.3034169,-0.13990673,0.03104925,-0.9896777,-0.55574286,0.8247681,0.10443864,0.8194974,0.56461805,-0.09813521,,1.4469312313147042,-0.14964339490384831,0.17942598035000001,1.5135420120712968,-0.5738732990148498,0.07981782237701818,0.8709505606279769,,-0.6851145242039531,-0.18734577679581238,0.19972847433000002,2.906512306638992,1.3942388436065543,1.1955914928757516,0.8727473453554537,,-0.04023202092003429,-0.09250026869413448,0.06086840708,-0.09125690957404896,,-2.8267503e-05,-4.1127205e-06,1.7881393e-06,1.0,3.794208e-05,3.1210482e-05,-3.794208e-05,1.0,4.261732e-06,-3.1217933e-05,-4.2915344e-06,1.0,667,2.043,0,0,0.0,False,1.0452314662980897,1.0475837793275489
2.0690260249975836,12:07:29.164608,12:07:13.067048,0,,0.07181674,-0.02917543,0.0340506,-0.4207758,0.46116215,-0.78120244,0.15879914,0.88529456,0.43707693,0.8931576,0.05985701,-0.44574273,,0.045833893,-0.013616189,0.011974931,0.27388155,-0.032174274,0.9612251,0.122702,0.992442,-0.0017422587,-0.9539041,0.11842129,0.27575937,,0.10911768,1.3569782,0.45658782,0.9959778,0.03684068,-0.081675984,-0.023358282,-0.7732816,-0.6336324,-0.08650198,0.6329916,-0.7693108,,-0.033667214,0.2429103,-0.10465832,0.3574822,-0.39947695,0.844171,0.7062501,0.7070707,0.035521973,-0.6110788,0.58349735,0.53489584,,0.017990088,0.4339424,-0.3034169,-0.13990673,0.03104925,-0.9896777,-0.55574286,0.8247681,0.10443864,0.8194974,0.56461805,-0.09813521,,1.4469389540475783,-0.149666563102471,0.17942598035000001,1.5135420120712968,-0.5738732990148498,0.07981782237701818,0.8709505606279769,,-0.6851145242039531,-0.18734577679581238,0.19972847433000002,2.906512306638992,1.3942388436065543,1.1955914928757516,0.8727473453554537,,-0.04023202092003429,-0.09250026869413448,0.06086840708,-0.09125690957404896,,-2.8267503e-05,-4.1127205e-06,1.7881393e-06,1.0,3.794208e-05,3.1210482e-05,-3.794208e-05,1.0,4.261732e-06,-3.1217933e-05,-4.2915344e-06,1.0,675,2.068,0,0,0.0,False,1.0454101994536527,1.04748721892599
2.0912749609997263,12:07:29.194565,12:07:13.067048,0,,0.07181616,-0.029176608,0.034050614,-0.42077374,0.4611588,-0.7812054,0.15880278,0.8852968,0.43707117,0.8931579,0.059850365,-0.445743,,0.045832597,-0.013616368,0.011974454,0.27387422,-0.032174088,0.96122724,0.12270096,0.99244213,-0.0017412081,-0.9539064,0.11842021,0.27575207,,0.10911768,1.3569782,0.45658782,0.9959778,0.03684068,-0.081675984,-0.023358282,-0.7732816,-0.6336324,-0.08650198,0.6329916,-0.7693108,,-0.03366672,0.2429094,-0.10465917,0.3574804,-0.39947298,0.8441736,0.70625305,0.70706797,0.035517473,-0.6110764,0.5835034,0.53489196,,0.017991437,0.43394205,-0.30341682,-0.1398992,0.031049212,-0.9896788,-0.5557446,0.8247675,0.10443449,0.8194975,0.56461895,-0.09812888,,1.4469389540475783,-0.14967428583534523,0.17942598035000001,1.5135420120712968,-0.5738732990148498,0.07981782237701818,0.8709505606279769,,-0.6851068014710789,-0.18734577679581238,0.19972847433000002,2.906512306638992,1.3942388436065543,1.1955914928757516,0.8727473453554537,,-0.04023202092003429,-0.09250026869413448,0.06086840708,-0.09125690957404896,,-2.8267503e-05,-4.1127205e-06,1.7881393e-06,1.0,3.794208e-05,3.1210482e-05,-3.794208e-05,1.0,4.261732e-06,-3.1217933e-05,-4.2915344e-06,1.0,687,2.104,0,0,0.0,False,1.0454697771721735,1.0472458179220927
2.121224089001771,12:07:29.230546,12:07:13.067048,0,,0.07181656,-0.029178299,0.034049913,-0.42077747,0.461156,-0.78120506,0.1588104,0.8852987,0.43706447,0.89315474,0.0598433,-0.44575015,,0.045832254,-0.013616532,0.011975646,0.27392644,-0.03203217,0.96121716,0.12257469,0.9924575,-0.0018579215,-0.9539076,0.118329704,0.2757867,,0.10911768,1.3569782,0.45658782,0.9959778,0.03684068,-0.081675984,-0.023358282,-0.7732816,-0.6336324,-0.08650198,0.6329916,-0.7693108,,-0.033667192,0.24290769,-0.1046597,0.3574849,-0.39946947,0.8441734,0.70625675,0.7070648,0.035507716,-0.6110695,0.5835097,0.534893,,0.017991612,0.43394274,-0.30341783,-0.1399527,0.030921157,-0.9896753,-0.5558442,0.82470846,0.10437044,0.8194208,0.56471217,-0.09823283,,1.4469312313147042,-0.14968200856821945,0.17942598035000001,1.5135420120712968,-0.5738732990148498,0.07981782237701818,0.8709505606279769,,-0.6851068014710789,-0.18734577679581238,0.19972847433000002,2.906512306638992,1.3943754801063197,1.1954800749720553,0.8727473453554537,,-0.04023202092003429,-0.09250026869413448,0.06086840708,-0.09125690957404896,,-2.8267503e-05,-4.1127205e-06,1.7881393e-06,1.0,3.794208e-05,3.1210482e-05,-3.794208e-05,1.0,4.261732e-06,-3.1217933e-05,-4.2915344e-06,1.0,695,2.129,0,0,0.0,False,1.0452910440166105,1.0474389387252105
2.1571841559925815,12:07:29.263914,12:07:13.200313,0,,0.07181756,-0.029178783,0.034049213,-0.42078322,0.46115646,-0.7812017,0.15881425,0.88529855,0.4370635,0.8931514,0.059842914,-0.44575703,,0.045834854,-0.013616145,0.0119766,0.27394104,-0.031954035,0.96121556,0.12257683,0.9924571,-0.0019410998,-0.95390314,0.11835435,0.27579156,,0.10911768,1.3569782,0.45658782,0.9959778,0.03684068,-0.081675984,-0.023358282,-0.7732816,-0.6336324,-0.08650198,0.6329916,-0.7693108,,-0.03366816,0.24290685,-0.10465939,0.35749117,-0.39946988,0.8441705,0.7062574,0.7070644,0.035502464,-0.6110651,0.58350986,0.53489786,,0.01798891,0.43394345,-0.303418,-0.13996775,0.030840393,-0.98967564,-0.5558408,0.82471824,0.10431137,0.8194206,0.56470233,-0.09829161,,1.44692350858183,-0.14968200856821945,0.17942598035000001,1.5135420120712968,-0.5738732990148498,0.07981782237701818,0.8709505606279769,,-0.6851222469368273,-0.18734577679581238,0.19972847433000002,2.906512306638992,1.3943754801063197,1.1953983962319148,0.8729106894215883,,-0.04023202092003429,-0.09250026869413448,0.06086840708,-0.09125690957404896,,-2.8267503e-05,-4.1127205e-06,1.7881393e-06,1.0,3.794208e-05,3.1210482e-05,-3.794208e-05,1.0,4.261732e-06,-3.1217933e-05,-4.2915344e-06,1.0,728,2.231,0,0,0.0,False,1.0454101994536527,1.0473423783236515
2.1905819340026937,12:07:29.356070,12:07:13.200313,0,,0.071814805,-0.029181875,0.034049943,-0.42077142,0.46114615,-0.7812142,0.1588214,0.8853052,0.43704733,0.8931557,0.059823424,-0.44575104,,0.045832254,-0.013616532,0.011975646,0.27392644,-0.031953655,0.96121967,0.12257469,0.9924574,-0.0019389763,-0.9539076,0.118352205,0.275777,,0.10911768,1.3569782,0.45658782,0.9959778,0.03684068,-0.081675984,-0.023358282,-0.7732816,-0.6336324,-0.08650198,0.6329916,-0.7693108,,-0.033665705,0.242905,-0.10466224,0.3574796,-0.39945757,0.84418124,0.7062656,0.7070566,0.03549421,-0.61106235,0.58352774,0.5348815,,0.017991612,0.43394274,-0.30341783,-0.1399527,0.03084032,-0.9896778,-0.5558442,0.824717,0.10430308,0.8194208,0.5647042,-0.098278955,,1.4469312313147042,-0.1497051767668421,0.17942598035000001,1.5135420120712968,-0.5738732990148498,0.07981782237701818,0.8709505606279769,,-0.6851068014710789,-0.18734577679581238,0.19972847433000002,2.906512306638992,1.3943754801063197,1.1953983962319148,0.8729106894215883,,-0.04023202092003429,-0.09250026869413448,0.06086840708,-0.09125690957404896,,-2.8267503e-05,-4.1127205e-06,1.7881393e-06,1.0,3.794208e-05,3.1210482e-05,-3.794208e-05,1.0,4.261732e-06,-3.1217933e-05,-4.2915344e-06,1.0,740,2.268,0,0,0.0,False,1.0458272434832998,1.0476320595283284
2.2827192499971716,12:07:29.395540,12:07:13.200313,0,,0.07181581,-0.029182345,0.034049258,-0.42077717,0.46108282,-0.78124857,0.15882528,0.8853407,0.436974,0.8931523,0.05978653,-0.44576275,,0.045832254,-0.013616532,0.011975646,0.27392644,-0.03203217,0.96121716,0.12257469,0.9924575,-0.0018579215,-0.9539076,0.118329704,0.2757867,,0.10911768,1.3569782,0.45658782,0.9959778,0.03684068,-0.081675984,-0.023358282,-0.7732816,-0.6336324,-0.08650198,0.6329916,-0.7693108,,-0.033666678,0.24290419,-0.10466193,0.35748586,-0.39938906,0.84421104,0.70626634,0.707059,0.035431203,-0.6110579,0.5835717,0.5348386,,0.017991612,0.43394274,-0.30341783,-0.1399527,0.030921157,-0.9896753,-0.5558442,0.82470846,0.10437044,0.8194208,0.56471217,-0.09823283,,1.44692350858183,-0.1497051767668421,0.17942598035000001,1.5135420120712968,-0.5738732990148498,0.07973614363687762,0.8707872165618427,,-0.6851068014710789,-0.18734577679581238,0.19972847433000002,2.906512306638992,1.3943754801063197,1.1954800749720553,0.8727473453554537,,-0.04023202092003429,-0.09250026869413448,0.06086840708,-0.09125690957404896,,-2.8267503e-05,-4.1127205e-06,1.7881393e-06,1.0,3.794208e-05,3.1210482e-05,-3.794208e-05,1.0,4.261732e-06,-3.1217933e-05,-4.2915344e-06,1.0,752,2.305,0,0,0.0,False,1.0450527331425268,1.0476320595283284
2.3221909049898386,12:07:29.425325,12:07:13.200313,0,,0.071814805,-0.029181875,0.034049943,-0.42077142,0.46108234,-0.78125185,0.1588214,0.88534087,0.436975,0.8931557,0.059786975,-0.4457559,,0.045832254,-0.013616532,0.011975646,0.27392644,-0.03203217,0.96121716,0.12257469,0.9924575,-0.0018579215,-0.9539076,0.118329704,0.2757867,,0.10911768,1.3569782,0.45658782,0.9959778,0.03684068,-0.081675984,-0.023358282,-0.7732816,-0.6336324,-0.08650198,0.6329916,-0.7693108,,-0.033665705,0.242905,-0.10466224,0.3574796,-0.3993886,0.8442139,0.7062656,0.70705944,0.035436455,-0.61106235,0.58357143,0.5348338,,0.017991612,0.43394274,-0.30341783,-0.1399527,0.030921157,-0.9896753,-0.5558442,0.82470846,0.10437044,0.8194208,0.56471217,-0.09823283,,1.4469312313147042,-0.1497051767668421,0.17942598035000001,1.5135420120712968,-0.5738732990148498,0.07973614363687762,0.8707872165618427,,-0.6851068014710789,-0.18734577679581238,0.19972847433000002,2.906512306638992,1.3943754801063197,1.1954800749720553,0.8727473453554537,,-0.04023202092003429,-0.09250026869413448,0.06086840708,-0.09125690957404896,,-2.8267503e-05,-4.1127205e-06,1.7881393e-06,1.0,3.794208e-05,3.1210482e-05,-3.794208e-05,1.0,4.261732e-06,-3.1217933e-05,-4.2915344e-06,1.0,760,2.33,0,0,0.0,False,1.0450527331425268,1.0480665813353434
2.3519820279907435,12:07:29.464571,12:07:13.375679,0,,0.071814805,-0.029181875,0.034049943,-0.42077142,0.46108234,-0.78125185,0.1588214,0.88534087,0.436975,0.8931557,0.059786975,-0.4457559,,0.045832112,-0.013615131,0.011975467,0.27392513,-0.031799026,0.9612253,0.12258223,0.9924561,-0.0021006614,-0.953907,0.11840439,0.27575666,,0.10911768,1.3569782,0.45658782,0.9959778,0.03684068,-0.081675984,-0.023358282,-0.7732816,-0.6336324,-0.08650198,0.6329916,-0.7693108,,-0.033665705,0.242905,-0.10466224,0.3574796,-0.3993886,0.8442139,0.7062656,0.70705944,0.035436455,-0.61106235,0.58357143,0.5348338,,0.017991798,0.4339437,-0.3034168,-0.13995138,0.03068003,-0.989683,-0.55583805,0.8247382,0.10416799,0.8194252,0.5646819,-0.09837012,,1.4469312313147042,-0.1497051767668421,0.17942598035000001,1.5135420120712968,-0.5738732990148498,0.07973614363687762,0.8707872165618427,,-0.6851068014710789,-0.18733805406293816,0.19972847433000002,2.906512306638992,1.3943754801063197,1.1952350387516337,0.8729106894215881,,-0.04023202092003429,-0.09250026869413448,0.06086840708,-0.09125690957404896,,-2.8267503e-05,-4.1127205e-06,1.7881393e-06,1.0,3.794208e-05,3.1210482e-05,-3.794208e-05,1.0,4.261732e-06,-3.1217933e-05,-4.2915344e-06,1.0,789,2.42,0,0,0.0,False,1.0458272434832998,1.0479217407330053
2.3911950629990315,12:07:29.543293,12:07:13.375679,0,,0.071813226,-0.02918256,0.03405066,-0.4207636,0.46114242,-0.78122056,0.15882125,0.8853076,0.4370426,0.8931594,0.059817135,-0.44574445,,0.045835093,-0.013613924,0.011977792,0.27391243,-0.03196808,0.9612232,0.12242931,0.9924755,-0.0018802881,-0.95393026,0.118196845,0.27576518,,0.10911768,1.3569782,0.45658782,0.9959778,0.03684068,-0.081675984,-0.023358282,-0.7732816,-0.6336324,-0.08650198,0.6329916,-0.7693108,,-0.03366424,0.24290495,-0.104663394,0.35747156,-0.3994532,0.8441867,0.70626795,0.70705426,0.035494957,-0.6110644,0.5835336,0.5348728,,0.017988555,0.4339459,-0.30341735,-0.13993798,0.030875975,-0.98967874,-0.55596703,0.82462966,0.104339056,0.81934,0.56482977,-0.09823099,,1.4469389540475783,-0.14971289949971633,0.17942598035000001,1.5135420120712968,-0.5738732990148498,0.07981782237701815,0.8706238724957083,,-0.6851068014710789,-0.18733805406293816,0.19972847433000002,2.906092926752023,1.3945121166060852,1.1950419421077967,0.8730740334877225,,-0.04023202092003429,-0.09250026869413448,0.06086840708,-0.09125690957404896,,-2.8267503e-05,-4.1127205e-06,1.7881393e-06,1.0,3.794208e-05,3.1210482e-05,-3.794208e-05,1.0,4.261732e-06,-3.1217933e-05,-4.2915344e-06,1.0,797,2.444,0,0,0.0,False,1.0452910440166105,1.0477769001306665
2.4699401249963557,12:07:29.573256,12:07:13.375679,0,,0.071813226,-0.02918256,0.03405066,-0.4207636,0.46114242,-0.78122056,0.15882125,0.8853076,0.4370426,0.8931594,0.059817135,-0.44574445,,0.045835093,-0.013613924,0.011977792,0.27391243,-0.03196808,0.9612232,0.12242931,0.9924755,-0.0018802881,-0.95393026,0.118196845,0.27576518,,0.10911768,1.3569782,0.45658782,0.9959778,0.03684068,-0.081675984,-0.023358282,-0.7732816,-0.6336324,-0.08650198,0.6329916,-0.7693108,,-0.03366424,0.24290495,-0.104663394,0.35747156,-0.3994532,0.8441867,0.70626795,0.70705426,0.035494957,-0.6110644,0.5835336,0.5348728,,0.017988555,0.4339459,-0.30341735,-0.13993798,0.030875975,-0.98967874,-0.55596703,0.82462966,0.104339056,0.81934,0.56482977,-0.09823099,,1.4469389540475783,-0.14971289949971633,0.17942598035000001,1.5135420120712968,-0.5738732990148498,0.07981782237701815,0.8706238724957083,,-0.6851068014710789,-0.18733805406293816,0.19972847433000002,2.906092926752023,1.3945121166060852,1.1950419421077967,0.8730740334877225,,-0.04023202092003429,-0.09250026869413448,0.06086840708,-0.09125690957404896,,-2.8267503e-05,-4.1127205e-06,1.7881393e-06,1.0,3.794208e-05,3.1210482e-05,-3.794208e-05,1.0,4.261732e-06,-3.1217933e-05,-4.2915344e-06,1.0,809,2.481,0,0,0.0,False,1.045588932609216,1.0471492575205337
2.4998499560024356,12:07:29.606121,12:07:13.532781,0,,0.071813226,-0.02918256,0.03405066,-0.4207636,0.46114242,-0.78122056,0.15882125,0.8853076,0.4370426,0.8931594,0.059817135,-0.44574445,,0.04583639,-0.013613716,0.011978269,0.27391976,-0.032046773,0.96121854,0.122430414,0.99247545,-0.0018002838,-0.953928,0.11817539,0.2757821,,0.10911768,1.3569782,0.45658782,0.9959778,0.03684068,-0.081675984,-0.023358282,-0.7732816,-0.6336324,-0.08650198,0.6329916,-0.7693108,,-0.03366424,0.24290495,-0.104663394,0.35747156,-0.3994532,0.8441867,0.70626795,0.70705426,0.035494957,-0.6110644,0.5835336,0.5348728,,0.017987205,0.43394622,-0.30341744,-0.13994552,0.030956846,-0.98967516,-0.5559653,0.82462174,0.10441056,0.8193399,0.56483686,-0.09819118,,1.4469389540475783,-0.14971289949971633,0.17942598035000001,1.5135420120712968,-0.5738732990148498,0.07981782237701815,0.8706238724957083,,-0.6851145242039531,-0.18733805406293816,0.19972847433000002,2.906092926752023,1.3945121166060852,1.1951236208479372,0.8729106894215881,,-0.04023202092003429,-0.09250026869413448,0.06086840708,-0.09125690957404896,,-2.8267503e-05,-4.1127205e-06,1.7881393e-06,1.0,3.794208e-05,3.1210482e-05,-3.794208e-05,1.0,4.261732e-06,-3.1217933e-05,-4.2915344e-06,1.0,821,2.518,0,0,0.0,False,1.0452910440166105,1.0481631417369022
2.5327434279897716,12:07:29.646353,12:07:13.532781,0,,0.07181464,-0.029184721,0.034049273,-0.4207731,0.46114004,-0.78121686,0.1588327,0.8853094,0.43703488,0.89315295,0.059809685,-0.44575846,,0.04583639,-0.013613716,0.011978269,0.27391976,-0.032125294,0.9612159,0.122430414,0.9924756,-0.0017192289,-0.953928,0.118152946,0.27579176,,0.10911768,1.3569782,0.45658782,0.9959778,0.03684068,-0.081675984,-0.023358282,-0.7732816,-0.6336324,-0.08650198,0.6329916,-0.7693108,,-0.033665687,0.24290241,-0.104663625,0.3574823,-0.39945006,0.8441836,0.7062723,0.7070507,0.03547995,-0.61105305,0.5835401,0.5348786,,0.017987205,0.43394622,-0.30341744,-0.13994552,0.03103768,-0.9896726,-0.5559653,0.8246132,0.10447791,0.8193399,0.56484485,-0.098145045,,1.44692350858183,-0.14972062223259056,0.17942598035000001,1.5135420120712968,-0.5738732990148498,0.07981782237701815,0.8706238724957083,,-0.6851145242039531,-0.18733805406293816,0.19972847433000002,2.906092926752023,1.3945121166060852,1.1952052995880775,0.8730740334877225,,-0.04023202092003429,-0.09250026869413448,0.06086840708,-0.09125690957404896,,-2.8267503e-05,-4.1127205e-06,1.7881393e-06,1.0,3.794208e-05,3.1210482e-05,-3.794208e-05,1.0,4.261732e-06,-3.1217933e-05,-4.2915344e-06,1.0,833,2.555,0,0,0.0,False,1.0452910440166105,1.0473423783236515
2.5730104019894497,12:07:29.678361,12:07:13.532781,0,,0.07181405,-0.029185914,0.034049273,-0.42077106,0.46113676,-0.7812199,0.15883636,0.8853115,0.43702918,0.8931532,0.05980304,-0.44575876,,0.045835093,-0.013613924,0.011977792,0.27391243,-0.03204658,0.9612207,0.12242931,0.99247557,-0.0017992258,-0.95393026,0.118174285,0.27577484,,0.10911768,1.3569782,0.45658782,0.9959778,0.03684068,-0.081675984,-0.023358282,-0.7732816,-0.6336324,-0.08650198,0.6329916,-0.7693108,,-0.03366519,0.24290152,-0.10466447,0.35748053,-0.39944613,0.84418625,0.7062753,0.70704794,0.035475448,-0.61105067,0.5835461,0.5348748,,0.017988555,0.4339459,-0.30341735,-0.13993798,0.03095681,-0.98967624,-0.55596703,0.8246211,0.10440642,0.81934,0.56483775,-0.098184854,,1.44692350858183,-0.1497283449654648,0.17942598035000001,1.5135420120712968,-0.5738732990148498,0.07981782237701815,0.8706238724957083,,-0.6851068014710789,-0.18733805406293816,0.19972847433000002,2.906092926752023,1.3945121166060852,1.195123620847937,0.8732373775538569,,-0.04023202092003429,-0.09250026869413448,0.06086840708,-0.09125690957404896,,-2.8267503e-05,-4.1127205e-06,1.7881393e-06,1.0,3.794208e-05,3.1210482e-05,-3.794208e-05,1.0,4.261732e-06,-3.1217933e-05,-4.2915344e-06,1.0,854,2.62,0,0,0.0,False,1.0453506217351318,1.047680339729108
2.605005960998824,12:07:29.738759,12:07:13.532781,0,,0.071812645,-0.029183753,0.03405066,-0.42076162,0.46113914,-0.7812236,0.15882489,0.88530976,0.43703687,0.8931596,0.05981052,-0.44574475,,0.045835093,-0.013613924,0.011977792,0.27391243,-0.03204658,0.9612207,0.12242931,0.99247557,-0.0017992258,-0.95393026,0.118174285,0.27577484,,0.10911768,1.3569782,0.45658782,0.9959778,0.03684068,-0.081675984,-0.023358282,-0.7732816,-0.6336324,-0.08650198,0.6329916,-0.7693108,,-0.03366375,0.24290405,-0.104664244,0.3574698,-0.39944923,0.84418935,0.7062709,0.7070515,0.035490453,-0.611062,0.5835396,0.5348689,,0.017988555,0.4339459,-0.30341735,-0.13993798,0.03095681,-0.98967624,-0.55596703,0.8246211,0.10440642,0.81934,0.56483775,-0.098184854,,1.4469389540475783,-0.14972062223259056,0.17942598035000001,1.5135420120712968,-0.5738732990148498,0.07981782237701815,0.8706238724957083,,-0.6851068014710789,-0.18733805406293816,0.19972847433000002,2.906092926752023,1.3945121166060852,1.195123620847937,0.8732373775538569,,-0.04023202092003429,-0.09250026869413448,0.06086840708,-0.09125690957404896,,-2.8267503e-05,-4.1127205e-06,1.7881393e-06,1.0,3.794208e-05,3.1210482e-05,-3.794208e-05,1.0,4.261732e-06,-3.1217933e-05,-4.2915344e-06,1.0,862,2.645,0,0,0.0,False,1.0453506217351318,1.0479217407330053
2.6653305619984167,12:07:29.769143,12:07:13.700559,0,,0.07181364,-0.029184237,0.034049943,-0.42076737,0.4611396,-0.7812202,0.15882882,0.8853096,0.4370359,0.8931563,0.059810102,-0.44575164,,0.04583639,-0.013613716,0.011978269,0.27391976,-0.032046773,0.96121854,0.122430414,0.99247545,-0.0018002838,-0.953928,0.11817539,0.2757821,,0.10911768,1.3569782,0.45658782,0.9959778,0.03684068,-0.081675984,-0.023358282,-0.7732816,-0.6336324,-0.08650198,0.6329916,-0.7693108,,-0.03366472,0.24290323,-0.10466393,0.35747606,-0.39944965,0.8441865,0.7062716,0.7070511,0.0354852,-0.6110575,0.58353984,0.5348738,,0.017987205,0.43394622,-0.30341744,-0.13994552,0.030956846,-0.98967516,-0.5559653,0.82462174,0.10441056,0.8193399,0.56483686,-0.09819118,,1.44692350858183,-0.14972062223259056,0.17942468406,1.5135420120712968,-0.5738732990148498,0.07981782237701815,0.8706238724957083,,-0.6851145242039531,-0.18733805406293816,0.19972847433000002,2.906092926752023,1.3945121166060852,1.195123620847937,0.8732373775538569,,-0.04023202092003429,-0.09250026869413448,0.06086840708,-0.09125690957404896,,-2.8267503e-05,-4.1127205e-06,1.7881393e-06,1.0,3.794208e-05,3.1210482e-05,-3.794208e-05,1.0,4.261732e-06,-3.1217933e-05,-4.2915344e-06,1.0,870,2.67,0,0,0.0,False,1.0455293548906948,1.0476320595283284
2.69578593299957,12:07:29.803139,12:07:13.700559,0,,0.07181465,-0.029186197,0.03405039,-0.42077106,0.46113676,-0.7812199,0.15883636,0.8853115,0.43702918,0.8931532,0.05980304,-0.44575876,,0.045835093,-0.013613924,0.011977792,0.27391243,-0.03204658,0.9612207,0.12242931,0.99247557,-0.0017992258,-0.95393026,0.118174285,0.27577484,,0.10911768,1.3569782,0.45658782,0.9959778,0.03684068,-0.081675984,-0.023358282,-0.7732816,-0.6336324,-0.08650198,0.6329916,-0.7693108,,-0.03366589,0.24290204,-0.10466543,0.35748053,-0.39944613,0.84418625,0.7062753,0.70704794,0.035475448,-0.61105067,0.5835461,0.5348748,,0.017988555,0.4339459,-0.30341735,-0.13993798,0.03095681,-0.98967624,-0.55596703,0.8246211,0.10440642,0.81934,0.56483775,-0.098184854,,1.44692350858183,-0.1497283449654648,0.17942468406,1.5135420120712968,-0.5738732990148498,0.07981782237701815,0.8706238724957083,,-0.6851068014710789,-0.18733805406293816,0.19972847433000002,2.906092926752023,1.3945121166060852,1.195123620847937,0.8732373775538569,,-0.04023202092003429,-0.09250026869413448,0.06086840708,-0.09125690957404896,,-2.8267503e-05,-4.1127205e-06,1.7881393e-06,1.0,3.794208e-05,3.1210482e-05,-3.794208e-05,1.0,4.261732e-06,-3.1217933e-05,-4.2915344e-06,1.0,882,2.706,0,0,0.0,False,1.0457080880462577,1.0475354991267694
2.729802556001232,12:07:29.829206,12:07:13.700559,0,,0.07181465,-0.029186197,0.03405039,-0.42077106,0.46113676,-0.7812199,0.15883636,0.8853115,0.43702918,0.8931532,0.05980304,-0.44575876,,0.045835227,-0.013615355,0.011977971,0.27391374,-0.032044187,0.9612203,0.12242174,0.99247646,-0.0017996803,-0.95393085,0.1181671,0.27577585,,0.10911768,1.3569782,0.45658782,0.9959778,0.03684068,-0.081675984,-0.023358282,-0.7732816,-0.6336324,-0.08650198,0.6329916,-0.7693108,,-0.03366589,0.24290204,-0.10466543,0.35748053,-0.39944613,0.84418625,0.7062753,0.70704794,0.035475448,-0.61105067,0.5835461,0.5348748,,0.017988369,0.43394494,-0.30341843,-0.13993932,0.03095543,-0.98967606,-0.5559732,0.8246169,0.10440677,0.8193356,0.564844,-0.098185934,,1.44692350858183,-0.1497283449654648,0.17942468406,1.5135420120712968,-0.5738732990148498,0.07981782237701815,0.8706238724957083,,-0.6851068014710789,-0.18734577679581238,0.19972847433000002,2.906092926752023,1.3945121166060852,1.195123620847937,0.8732373775538569,,-0.04023202092003429,-0.09250026869413448,0.06086840708,-0.09125690957404896,,-2.8267503e-05,-4.1127205e-06,1.7881393e-06,1.0,3.794208e-05,3.1210482e-05,-3.794208e-05,1.0,4.261732e-06,-3.1217933e-05,-4.2915344e-06,1.0,890,2.731,0,0,0.0,False,1.0455293548906948,1.0475354991267694
2.7558618530019885,12:07:29.859970,12:07:13.700559,0,,0.07181465,-0.029186197,0.03405039,-0.42077106,0.46113676,-0.7812199,0.15883636,0.8853115,0.43702918,0.8931532,0.05980304,-0.44575876,,0.045835376,-0.013616756,0.011978149,0.27391505,-0.032041796,0.9612201,0.12241423,0.9924774,-0.0018001199,-0.95393145,0.11815992,0.27577686,,0.10911768,1.3569782,0.45658782,0.9959778,0.03684068,-0.081675984,-0.023358282,-0.7732816,-0.6336324,-0.08650198,0.6329916,-0.7693108,,-0.03366589,0.24290204,-0.10466543,0.35748053,-0.39944613,0.84418625,0.7062753,0.70704794,0.035475448,-0.61105067,0.5835461,0.5348748,,0.017988183,0.433944,-0.30341947,-0.13994065,0.030954048,-0.98967594,-0.5559794,0.8246127,0.104407124,0.81933117,0.5648502,-0.09818702,,1.44692350858183,-0.1497283449654648,0.17942468406,1.5135420120712968,-0.5738732990148498,0.07981782237701815,0.8706238724957083,,-0.6851068014710789,-0.1873534995286866,0.19972847433000002,2.906092926752023,1.3945121166060852,1.195123620847937,0.8732373775538569,,-0.04023202092003429,-0.09250026869413448,0.06086840708,-0.09125690957404896,,-2.8267503e-05,-4.1127205e-06,1.7881393e-06,1.0,3.794208e-05,3.1210482e-05,-3.794208e-05,1.0,4.261732e-06,-3.1217933e-05,-4.2915344e-06,1.0,919,2.821,0,0,0.0,False,1.0458272434832998,1.0476320595283284
2.7866271139937453,12:07:29.939616,12:07:13.858714,0,,0.07181406,-0.029187389,0.03405039,-0.42076904,0.46113348,-0.781223,0.15884,0.88531363,0.43702343,0.8931535,0.059796423,-0.44575906,,0.045835376,-0.013616756,0.011978149,0.27391505,-0.032198817,0.9612148,0.12241423,0.9924777,-0.0016380027,-0.95393145,0.11811489,0.27579618,,0.10911768,1.3569782,0.45658782,0.9959778,0.03684068,-0.081675984,-0.023358282,-0.7732816,-0.6336324,-0.08650198,0.6329916,-0.7693108,,-0.033665396,0.24290115,-0.10466627,0.35747877,-0.39944217,0.8441889,0.7062782,0.7070452,0.035470944,-0.6110483,0.5835521,0.5348709,,0.017988183,0.433944,-0.30341947,-0.13994065,0.031115718,-0.9896709,-0.5559794,0.82459563,0.10454182,0.81933117,0.56486624,-0.09809475,,1.44692350858183,-0.14973606769833903,0.17942468406,1.5135420120712968,-0.5738732990148498,0.07981782237701815,0.8706238724957083,,-0.6851068014710789,-0.1873534995286866,0.19972847433000002,2.906092926752023,1.3945121166060852,1.1952869783282183,0.8729106894215883,,-0.04023202092003429,-0.09250026869413448,0.06086840708,-0.09125690957404896,,-2.8267503e-05,-4.1127205e-06,1.7881393e-06,1.0,3.794208e-05,3.1210482e-05,-3.794208e-05,1.0,4.261732e-06,-3.1217933e-05,-4.2915344e-06,1.0,927,2.846,0,0,0.0,False,1.0457080880462577,1.0476320595283284
2.8662673109938623,12:07:29.975127,12:07:13.858714,0,,0.07181207,-0.029186413,0.03405179,-0.4207576,0.46119633,-0.781192,0.15883225,0.88527834,0.43709776,0.8931603,0.059833616,-0.44574046,,0.045835376,-0.013616756,0.011978149,0.27391505,-0.032198817,0.9612148,0.12241423,0.9924777,-0.0016380027,-0.95393145,0.11811489,0.27579618,,0.10911768,1.3569782,0.45658782,0.9959778,0.03684068,-0.081675984,-0.023358282,-0.7732816,-0.6336324,-0.08650198,0.6329916,-0.7693108,,-0.03366346,0.2429028,-0.104666896,0.35746625,-0.39951023,0.844162,0.70627683,0.7070431,0.0355392,-0.6110572,0.583508,0.5349089,,0.017988183,0.433944,-0.30341947,-0.13994065,0.031115718,-0.9896709,-0.5559794,0.82459563,0.10454182,0.81933117,0.56486624,-0.09809475,,1.4469389540475783,-0.14973606769833903,0.17942468406,1.5135420120712968,-0.5738732990148498,0.07989950111715871,0.8707872165618427,,-0.6851068014710789,-0.1873534995286866,0.19972847433000002,2.906092926752023,1.3945121166060852,1.1952869783282183,0.8729106894215883,,-0.04023202092003429,-0.09250026869413448,0.06086840708,-0.09125690957404896,,-2.8267503e-05,-4.1127205e-06,1.7881393e-06,1.0,3.794208e-05,3.1210482e-05,-3.794208e-05,1.0,4.261732e-06,-3.1217933e-05,-4.2915344e-06,1.0,935,2.87,0,0,0.0,False,1.0455293548906948,1.0474389387252105
2.901790637988597,12:07:29.994711,12:07:13.858714,0,,0.07181207,-0.029186413,0.03405179,-0.4207576,0.46119633,-0.781192,0.15883225,0.88527834,0.43709776,0.8931603,0.059833616,-0.44574046,,0.045835376,-0.013616756,0.011978149,0.27391505,-0.032198817,0.9612148,0.12241423,0.9924777,-0.0016380027,-0.95393145,0.11811489,0.27579618,,0.10911768,1.3569782,0.45658782,0.9959778,0.03684068,-0.081675984,-0.023358282,-0.7732816,-0.6336324,-0.08650198,0.6329916,-0.7693108,,-0.03366346,0.2429028,-0.104666896,0.35746625,-0.39951023,0.844162,0.70627683,0.7070431,0.0355392,-0.6110572,0.583508,0.5349089,,0.017988183,0.433944,-0.30341947,-0.13994065,0.031115718,-0.9896709,-0.5559794,0.82459563,0.10454182,0.81933117,0.56486624,-0.09809475,,1.4469389540475783,-0.14973606769833903,0.17942468406,1.5135420120712968,-0.5738732990148498,0.07989950111715871,0.8707872165618427,,-0.6851068014710789,-0.1873534995286866,0.19972847433000002,2.906092926752023,1.3945121166060852,1.1952869783282183,0.8729106894215883,,-0.04023202092003429,-0.09250026869413448,0.06086840708,-0.09125690957404896,,-2.8267503e-05,-4.1127205e-06,1.7881393e-06,1.0,3.794208e-05,3.1210482e-05,-3.794208e-05,1.0,4.261732e-06,-3.1217933e-05,-4.2915344e-06,1.0,943,2.895,0,0,0.0,False,1.0454101994536527,1.0478251803314462
2.9213530049892142,12:07:30.019173,12:07:13.858714,0,,0.07181148,-0.029187582,0.03405179,-0.42075554,0.46125686,-0.7811574,0.158836,0.88524485,0.43716434,0.8931606,0.05986339,-0.44573587,,0.045835376,-0.013616756,0.011978149,0.27391505,-0.032198817,0.9612148,0.12241423,0.9924777,-0.0016380027,-0.95393145,0.11811489,0.27579618,,0.10911768,1.3569782,0.45658782,0.9959778,0.03684068,-0.081675984,-0.023358282,-0.7732816,-0.6336324,-0.08650198,0.6329916,-0.7693108,,-0.033662964,0.2429019,-0.10466774,0.35746446,-0.39957523,0.84413195,0.7062798,0.7070375,0.035592448,-0.6110548,0.58347034,0.5349527,,0.017988183,0.433944,-0.30341947,-0.13994065,0.031115718,-0.9896709,-0.5559794,0.82459563,0.10454182,0.81933117,0.56486624,-0.09809475,,1.4469389540475783,-0.14974379043121325,0.17942468406,1.5135420120712968,-0.5738732990148498,0.07998117985729927,0.8709505606279769,,-0.6851068014710789,-0.1873534995286866,0.19972847433000002,2.906092926752023,1.3945121166060852,1.1952869783282183,0.8729106894215883,,-0.04023202092003429,-0.09250026869413448,0.06086840708,-0.09125690957404896,,-2.8267503e-05,-4.1127205e-06,1.7881393e-06,1.0,3.794208e-05,3.1210482e-05,-3.794208e-05,1.0,4.261732e-06,-3.1217933e-05,-4.2915344e-06,1.0,951,2.919,0,0,0.0,False,1.045946398920342,1.0471009773197542
