AlexandreBanks6/ExpertPlaybackApp/resources/Motions/Pilot_03/PC1/Data_PC1_8.csv
Task Time,PC1 Time,PC2 Time,Gaze Calib,s_T_psm1,Tx,Ty,Tz,R00,R01,R02,R10,R11,R12,R20,R21,R22,s_T_psm3,Tx,Ty,Tz,R00,R01,R02,R10,R11,R12,R20,R21,R22,cart_T_ecm,Tx,Ty,Tz,R00,R01,R02,R10,R11,R12,R20,R21,R22,ecm_T_psm1,Tx,Ty,Tz,R00,R01,R02,R10,R11,R12,R20,R21,R22,ecm_T_psm3,Tx,Ty,Tz,R00,R01,R02,R10,R11,R12,R20,R21,R22,psm1_joints,q1,q2,q3,q4,q5,q6,jaw,psm3_joints,q1,q2,q3,q4,q5,q6,jaw,ecm_joints,q1,q2,q3,q4,ecmi_T_ecm,Tx,Ty,Tz,R00,R01,R02,R10,R11,R12,R20,R21,R22,Sample #,Task Duration (s),Collisions (binary),Collisions (increments),Cumulative Collision Time (s),Clutch Press,MTMR Angle,MTML Angle
""
lci_T_si,,,,,-0.07072591,0.01445765,0.25301564,0.99407005,-0.048530098,0.09731171,0.027213672,-0.755387,-0.6547136,0.10528132,0.65347934,-0.74958694
rci_T_si,,,,,-0.08048779,0.01901884,0.26158583,0.9921338,-0.068095215,0.105040655,0.018127188,-0.7521092,-0.6587891,0.12386244,0.655511,-0.74495864
ecm_T_lc,,,,,-4.4061628e-05,-0.00034663224,-0.01840835,-0.99912,0.030754527,0.028518902,-0.031987965,-0.99852574,-0.043852776,0.027128186,-0.04472645,0.9986309
ecm_T_rc,,,,,-0.0043358393,0.01870579,-0.007592615,-0.99555075,-0.052743673,-0.078081585,0.04863213,-0.9973746,0.053654674,-0.08070653,0.04961868,0.9955021
cart_T_ecmi,,,,,0.10914613,1.3569756,0.4565894,0.9959767,0.036802545,-0.08170723,-0.0234074,-0.77328336,-0.63362837,-0.08650198,0.6329916,-0.7693108
ecmac_T_ecmrep_psm1,,,,,0.011947535,-0.24624088,-0.3140189,0.99787813,0.060519684,0.024013558,-0.059408683,0.9972389,-0.04455629,-0.026643785,0.04303513,0.9987182
ecmac_T_ecmrep_psm3,,,,,-0.020729378,-0.4297972,-0.5440064,0.99962926,-0.018584386,0.019899037,0.019259674,0.999226,-0.034299888,-0.019246193,0.03467042,0.99921346
""
0,11:52:38.969245,11:52:22.847431,0,,0.09175636,0.002475381,0.012059972,-0.86684227,0.31450284,-0.3868755,0.20615254,0.93260294,0.29623097,0.45396674,0.17703009,-0.8732552,,0.073550954,0.006311238,0.018362463,-0.9035805,-0.3053382,0.30051807,-0.1808103,0.90771675,0.37862602,-0.38839427,0.28778216,-0.8754035,,0.109153785,1.356975,0.4565929,0.9959768,0.03680784,-0.081702895,-0.023400582,-0.7732831,-0.6336289,-0.08650198,0.6329916,-0.7693108,,-0.04945794,0.252327,-0.06533734,0.8398756,-0.2597107,0.4766124,0.45272315,0.8195816,-0.3511805,-0.29941744,0.5107214,0.80592364,,-0.010056653,0.45090568,-0.29187626,0.94505227,0.27739158,-0.1730032,-0.31988558,0.8938081,-0.31429324,0.06744937,0.35236478,0.933429,,1.395876244283206,0.04491541439648975,0.19870570152000003,1.3648718421407688,-0.039897857931508615,-0.08916729493008266,-0.39953958576444704,,-0.8647452908584152,-0.14578202846673607,0.19777885417000002,1.4978152663099575,-0.11067556481000676,0.3938483790965711,0.837138338938181,,-0.04023202092003429,-0.09250026869413448,0.06086840708,-0.09125690957404896,,7.3350966e-06,2.9206276e-06,-2.861023e-06,1.0000001,5.2712858e-06,4.3287873e-06,-5.2675605e-06,1.0,5.364418e-07,-4.3287873e-06,-6.2584877e-07,1.0,37,0.112,0,0,0.0,False,-0.2604738128088746,1.0107942663336016
0.13186564399802592,11:52:39.003599,11:52:22.847431,0,,0.091672555,0.0025229454,0.012206063,-0.8716654,0.28299928,-0.40013868,0.16609088,0.9387003,0.30208492,0.4611001,0.19685748,-0.8652364,,0.073551595,0.0063112825,0.01836133,-0.9035805,-0.3053382,0.30051807,-0.1808103,0.90771675,0.37862602,-0.38839427,0.28778216,-0.8754035,,0.109153785,1.356975,0.4565929,0.9959768,0.03680784,-0.081702895,-0.023400582,-0.7732831,-0.6336289,-0.08650198,0.6329916,-0.7693108,,-0.049383014,0.25245875,-0.065424815,0.84120387,-0.22955714,0.48957083,0.42721385,0.8371718,-0.34151378,-0.33145797,0.49643415,0.8023022,,-0.010057131,0.4509049,-0.2918753,0.94505227,0.27739158,-0.1730032,-0.31988558,0.8938081,-0.31429324,0.06744937,0.35236478,0.933429,,1.3957835714887152,0.0453092737730752,0.19863181299000002,1.3288051718614309,-0.059573513897732036,-0.08472149789775782,-0.4014997145580584,,-0.8647452908584152,-0.14578202846673607,0.19778015046000003,1.4978152663099575,-0.11067556481000676,0.3938483790965711,0.837138338938181,,-0.04023202092003429,-0.09250026869413448,0.06086840708,-0.09125690957404896,,7.3350966e-06,2.9206276e-06,-2.861023e-06,1.0000001,5.2712858e-06,4.3287873e-06,-5.2675605e-06,1.0,5.364418e-07,-4.3287873e-06,-6.2584877e-07,1.0,48,0.145,0,0,0.0,False,-0.2602355019347904,1.0113736287429549
0.16620813999907114,11:52:39.037181,11:52:22.847431,0,,0.0916182,0.0025767982,0.012364745,-0.8713646,0.26265192,-0.41441268,0.13927585,0.94231254,0.30438307,0.47045308,0.20751092,-0.85767895,,0.073555104,0.0063132197,0.018360198,-0.90352345,-0.3053814,0.3006459,-0.1808098,0.9077153,0.3786298,-0.38852736,0.287741,-0.875358,,0.109153785,1.356975,0.4565929,0.9959768,0.03680784,-0.081702895,-0.023400582,-0.7732831,-0.6336289,-0.08650198,0.6329916,-0.7693108,,-0.049337935,0.25260356,-0.06551441,0.8382141,-0.20993105,0.5033151,0.41315275,0.8468723,-0.33483136,-0.3559521,0.4886064,0.7965939,,-0.01006043,0.45090535,-0.29187283,0.94501376,0.27743992,-0.17313595,-0.31997705,0.8937834,-0.31427053,0.06755484,0.3523895,0.933412,,1.395675453228476,0.04581897414277401,0.19854236898000002,1.3069974177390402,-0.07801944136606649,-0.08389218168319876,-0.40345984335166973,,-0.8647530135912894,-0.14577430573386185,0.19778274304000001,1.4978152663099575,-0.11053892831024133,0.3938186399330153,0.8373016830043154,,-0.04023202092003429,-0.09250026869413448,0.06086840708,-0.09125690957404896,,7.3350966e-06,2.9206276e-06,-2.861023e-06,1.0000001,5.2712858e-06,4.3287873e-06,-5.2675605e-06,1.0,5.364418e-07,-4.3287873e-06,-6.2584877e-07,1.0,56,0.169,0,0,0.0,False,-0.2594014138754961,1.0123392327585439
0.19974381499923766,11:52:39.066691,11:52:22.948482,0,,0.09154238,0.0026428849,0.012576371,-0.8717498,0.23172678,-0.43168864,0.09633836,0.9449542,0.31269825,0.48038658,0.23100635,-0.84608793,,0.073557004,0.0063133836,0.01835984,-0.90352064,-0.30540746,0.30062786,-0.18080862,0.90768427,0.3787049,-0.38853443,0.28781143,-0.87533176,,0.109153785,1.356975,0.4565929,0.9959768,0.03680784,-0.081702895,-0.023400582,-0.7732831,-0.6336289,-0.08650198,0.6329916,-0.7693108,,-0.049274914,0.2527924,-0.065638036,0.8346966,-0.18089847,0.5201512,0.38732186,0.86426973,-0.3209666,-0.3914886,0.46937567,0.791469,,-0.010062257,0.45090505,-0.2918722,0.945012,0.27745572,-0.17312048,-0.31998104,0.8938083,-0.3141955,0.06756118,0.3523138,0.93344015,,1.3955518895024885,0.04656035649869957,0.19842699917,1.2703016776292486,-0.10288728432337665,-0.07513082557026934,-0.39970292983058137,,-0.8647607363241637,-0.14577430573386185,0.19778403933000002,1.4978152663099575,-0.11053892831024133,0.3939003186731559,0.8381184033349869,,-0.04023202092003429,-0.09250026869413448,0.06086840708,-0.09125690957404896,,7.3350966e-06,2.9206276e-06,-2.861023e-06,1.0000001,5.2712858e-06,4.3287873e-06,-5.2675605e-06,1.0,5.364418e-07,-4.3287873e-06,-6.2584877e-07,1.0,68,0.205,0,0,0.0,False,-0.26053339052739544,1.0124840733608826
0.22932280199893285,11:52:39.097416,11:52:22.948482,0,,0.09156809,0.0027177483,0.012760907,-0.8723087,0.2082496,-0.44239113,0.06465316,0.9459478,0.31780875,0.48466247,0.24862531,-0.83862257,,0.07356022,0.0063168257,0.01835841,-0.9034119,-0.3055399,0.30081975,-0.18080993,0.9076197,0.37885875,-0.38878638,0.28787416,-0.87519914,,0.109153785,1.356975,0.4565929,0.9959768,0.03680784,-0.081702895,-0.023400582,-0.7732831,-0.6336289,-0.08650198,0.6329916,-0.7693108,,-0.049310002,0.25297013,-0.0657246,0.832621,-0.15891337,0.53055525,0.3662523,0.87657136,-0.3122209,-0.41545343,0.45427877,0.7880541,,-0.010065201,0.4509065,-0.29186854,0.94493854,0.2775774,-0.17332622,-0.32015598,0.8938115,-0.3140081,0.06775944,0.35220978,0.933465,,1.3953819893792556,0.04748708444360651,0.19830125904,1.2422032252023223,-0.11873711829616776,-0.0685772904724483,-0.4003563060951184,,-0.8647607363241637,-0.14575886026811338,0.19778663191,1.4978152663099575,-0.11026565531071043,0.3940041978263253,0.8384450914672554,,-0.04023202092003429,-0.09250026869413448,0.06086840708,-0.09125690957404896,,7.3350966e-06,2.9206276e-06,-2.861023e-06,1.0000001,5.2712858e-06,4.3287873e-06,-5.2675605e-06,1.0,5.364418e-07,-4.3287873e-06,-6.2584877e-07,1.0,79,0.239,0,0,0.0,False,-0.26053339052739544,1.0132565565733538
0.2600507850002032,11:52:39.130370,11:52:22.948482,0,,0.091544256,0.0028041303,0.013027415,-0.86751294,0.18634859,-0.4611894,0.02892232,0.94450116,0.327232,0.49657318,0.27053925,-0.8247567,,0.073561646,0.0063201934,0.018357635,-0.90339196,-0.3054424,0.30097878,-0.1806064,0.9076104,0.37897807,-0.38892746,0.2880069,-0.87509286,,0.109153785,1.356975,0.4565929,0.9959768,0.03680784,-0.081702895,-0.023400582,-0.7732831,-0.6336289,-0.08650198,0.6329916,-0.7693108,,-0.049301643,0.25321037,-0.06587044,0.82431287,-0.13901868,0.5488006,0.34715837,0.88985884,-0.2960276,-0.4472017,0.4345401,0.7817836,,-0.0100664515,0.4509084,-0.29186556,0.944941,0.27746266,-0.17349637,-0.32009748,0.89388406,-0.31386125,0.06800086,0.3521161,0.9334828,,1.3952120892560227,0.04860688071036907,0.19813922279,1.2138950828319115,-0.14469805325160143,-0.057045980106714606,-0.4010096823596555,,-0.8647607363241637,-0.14574341480236494,0.19778792820000002,1.498024956253442,-0.110129018810945,0.39405613740290996,0.8390984677317925,,-0.04023202092003429,-0.09250026869413448,0.06086840708,-0.09125690957404896,,7.3350966e-06,2.9206276e-06,-2.861023e-06,1.0000001,5.2712858e-06,4.3287873e-06,-5.2675605e-06,1.0,5.364418e-07,-4.3287873e-06,-6.2584877e-07,1.0,87,0.263,0,0,0.0,False,-0.2599971910607066,1.0139807595850459
0.2929929189995164,11:52:39.150561,11:52:22.948482,0,,0.09151168,0.0028598756,0.013258323,-0.8605625,0.17204398,-0.4794092,0.0060389936,0.9446071,0.32814762,0.5093092,0.27949637,-0.8139324,,0.073562615,0.0063231885,0.01835531,-0.9033912,-0.3054734,0.3009495,-0.18060806,0.90757334,0.37906617,-0.38892835,0.28809103,-0.87506473,,0.109153785,1.356975,0.4565929,0.9959768,0.03680784,-0.081702895,-0.023400582,-0.7732831,-0.6336289,-0.08650198,0.6329916,-0.7693108,,-0.049283918,0.2534041,-0.06601059,0.81472254,-0.1255154,0.56610334,0.33829185,0.895809,-0.2882445,-0.47094136,0.42634746,0.7722966,,-0.010067046,0.45090902,-0.2918617,0.9449404,0.27748138,-0.17346981,-0.32009938,0.89391387,-0.3137744,0.06800052,0.3520257,0.9335169,,1.3950730800642865,0.04944865859365954,0.19800051976000002,1.1981683370705722,-0.1672430757128991,-0.054752737804495855,-0.4024797789548641,,-0.8647607363241637,-0.1457279693366165,0.19779052078,1.498024956253442,-0.110129018810945,0.39413781614305055,0.8392618117979267,,-0.04023202092003429,-0.09250026869413448,0.06086840708,-0.09125690957404896,,7.3350966e-06,2.9206276e-06,-2.861023e-06,1.0000001,5.2712858e-06,4.3287873e-06,-5.2675605e-06,1.0,5.364418e-07,-4.3287873e-06,-6.2584877e-07,1.0,95,0.288,0,0,0.0,False,-0.2599971910607066,1.0137393585811485
0.31319270699168555,11:52:39.175071,11:52:22.948482,0,,0.091517136,0.0029504,0.013678253,-0.8486359,0.1502847,-0.5071802,-0.030484945,0.9433052,0.33052343,0.52809846,0.29595536,-0.79594123,,0.07356306,0.006324902,0.018354118,-0.9034255,-0.30533427,0.3009877,-0.1804039,0.9075653,0.3791826,-0.3889434,0.28826383,-0.87500113,,0.109153785,1.356975,0.4565929,0.9959768,0.03680784,-0.081702895,-0.023400582,-0.7732831,-0.6336289,-0.08650198,0.6329916,-0.7693108,,-0.049316794,0.25374836,-0.066265486,0.79871184,-0.105309814,0.5924266,0.32312977,0.9056203,-0.27466166,-0.507589,0.41080618,0.7573584,,-0.010067303,0.4509095,-0.29185966,0.94497955,0.27731997,-0.17351446,-0.3199534,0.89401037,-0.31364828,0.0681428,0.35190776,0.933551,,1.3948105071465629,0.05105498703149823,0.19772440999000002,1.1725861639654602,-0.20249529265238275,-0.04846857218947373,-0.4026431230209983,,-0.8647607363241637,-0.14572024660374228,0.19779181707000001,1.4982346461969265,-0.110129018810945,0.39421949488319113,0.8394251558640611,,-0.04023202092003429,-0.09250026869413448,0.06086840708,-0.09125690957404896,,7.3350966e-06,2.9206276e-06,-2.861023e-06,1.0000001,5.2712858e-06,4.3287873e-06,-5.2675605e-06,1.0,5.364418e-07,-4.3287873e-06,-6.2584877e-07,1.0,102,0.308,0,0,0.0,False,-0.26112916771260597,1.0142704407897223
0.33770777699828614,11:52:39.199199,11:52:22.948482,0,,0.09154312,0.003031522,0.013904914,-0.843331,0.14062509,-0.518669,-0.04776925,0.9417176,0.3329955,0.5352672,0.3056018,-0.7874621,,0.07348263,0.006344989,0.018327743,-0.9034802,-0.30524334,0.30091593,-0.18033987,0.90758145,0.3791747,-0.3888462,0.2883095,-0.87502927,,0.10916533,1.3569764,0.456598,0.9959767,0.036803238,-0.081706665,-0.023406506,-0.77328336,-0.6336284,-0.08650198,0.6329916,-0.7693108,,-0.049365222,0.25395608,-0.06637364,0.79161114,-0.0965964,0.6033415,0.31481785,0.9107534,-0.2672414,-0.5236808,0.40149394,0.7513728,,-0.0099938065,0.45091084,-0.2918302,0.94502026,0.27722934,-0.1734376,-0.31984156,0.8940443,-0.31366584,0.068103515,0.3518931,0.9335594,,1.3946560524890785,0.052120724168141216,0.19755848487000002,1.1597950774129042,-0.21779858062611207,-0.04350421106840627,-0.400682994227387,,-0.8647530135912894,-0.14570480113799383,0.19779570594,1.4982346461969265,-0.110129018810945,0.3942194948831911,0.8397518439963296,,-0.04023202092003429,-0.09250026869413448,0.06086840708,-0.09125690957404896,,1.8365681e-05,5.543232e-06,-8.702278e-06,1.0000001,6.92904e-07,5.662441e-07,-6.891787e-07,1.0,2.9802322e-08,-5.662441e-07,-8.940697e-08,1.0,113,0.341,0,0,0.0,False,-0.2607121236829584,1.0139324793842663
0.3618367839953862,11:52:39.227084,11:52:23.100566,0,,0.09166065,0.0031416863,0.014266953,-0.83346456,0.13972291,-0.5346163,-0.063029855,0.93714917,0.34318894,0.5489665,0.31973258,-0.77227384,,0.073488355,0.0063455254,0.018326491,-0.9034717,-0.30527252,0.30091166,-0.18033637,0.90755,0.37925172,-0.3888674,0.28837764,-0.8749974,,0.10916533,1.3569764,0.456598,0.9959767,0.036803238,-0.081706665,-0.023406506,-0.77328336,-0.6336284,-0.08650198,0.6329916,-0.7693108,,-0.049503405,0.2542772,-0.066560194,0.7795937,-0.09717229,0.6187013,0.3123328,0.91659725,-0.24959514,-0.54284614,0.3878235,0.74492353,,-0.009999287,0.45090997,-0.29182827,0.94501483,0.2772485,-0.17343654,-0.31985354,0.8940677,-0.31358677,0.06812254,0.35181844,0.9335862,,1.3943625886398578,0.053742498071728366,0.19729144913000002,1.1520365495039768,-0.24007033008787887,-0.030978925835588367,-0.40378653148393834,,-0.8647761817899121,-0.14570480113799383,0.19779959481,1.4982346461969265,-0.110129018810945,0.3943011736233316,0.8399151880624639,,-0.04023202092003429,-0.09250026869413448,0.06086840708,-0.09125690957404896,,1.8365681e-05,5.543232e-06,-8.702278e-06,1.0000001,6.92904e-07,5.662441e-07,-6.891787e-07,1.0,2.9802322e-08,-5.662441e-07,-8.940697e-08,1.0,121,0.366,0,0,0.0,False,-0.26059296824591627,1.0144152813920608
0.3897180789936101,11:52:39.258073,11:52:23.100566,0,,0.091742694,0.0032456517,0.01467894,-0.81926113,0.13911526,-0.5562898,-0.07920569,0.9333715,0.35006285,0.567924,0.33085412,-0.7536562,,0.07349746,0.006344557,0.018325597,-0.9033886,-0.3056354,0.30079278,-0.18073967,0.90746915,0.3792529,-0.38887322,0.28824735,-0.87503767,,0.10916533,1.3569764,0.456598,0.9959767,0.036803238,-0.081706665,-0.023406506,-0.77328336,-0.6336284,-0.08650198,0.6329916,-0.7693108,,-0.049610805,0.25462645,-0.0667921,0.76277345,-0.09774049,0.6392366,0.31261936,0.92105955,-0.23220342,-0.5660793,0.37695634,0.7331153,,-0.010008206,0.45090795,-0.29182726,0.9449271,0.2776244,-0.17331325,-0.3201664,0.89395,-0.31360304,0.06786951,0.3518211,0.9336036,,1.3940459565920147,0.05541060837256086,0.1970101542,1.1459555411429256,-0.26903726803815226,-0.02132539481598314,-0.4023164348887298,,-0.8648147954542833,-0.14571252387086805,0.19780477997,1.4978152663099575,-0.110129018810945,0.3943828523634722,0.8400785321285982,,-0.04023202092003429,-0.09250026869413448,0.06086840708,-0.09125690957404896,,1.8365681e-05,5.543232e-06,-8.702278e-06,1.0000001,6.92904e-07,5.662441e-07,-6.891787e-07,1.0,2.9802322e-08,-5.662441e-07,-8.940697e-08,1.0,132,0.399,0,0,0.0,False,-0.2602355019347904,1.0142704407897223
0.4206712159939343,11:52:39.285709,11:52:23.100566,0,,0.09177864,0.003312558,0.015199363,-0.7974028,0.13219485,-0.5887898,-0.09869203,0.93400353,0.34336156,0.5953223,0.3319063,-0.73173046,,0.07350127,0.0063449293,0.018324763,-0.90338296,-0.30566302,0.30078158,-0.18073735,0.90743786,0.37932897,-0.38888738,0.2883167,-0.8750086,,0.10916533,1.3569764,0.456598,0.9959767,0.036803238,-0.081706665,-0.023406506,-0.77328336,-0.6336284,-0.08650198,0.6329916,-0.7693108,,-0.049683817,0.25501898,-0.067134425,0.73742175,-0.090900384,0.6692879,0.31596798,0.9222192,-0.22288103,-0.5969702,0.3758309,0.70878613,,-0.01001186,0.45090738,-0.29182598,0.94492346,0.2776419,-0.17330495,-0.3201744,0.8939742,-0.313526,0.067882195,0.35174587,0.933631,,1.3936212062839324,0.057117332337764476,0.19667441509000003,1.140922982499297,-0.30989158146801893,-0.024603517193725027,-0.40035630609511846,,-0.8648302409200317,-0.14571252387086805,0.19780737255000003,1.4978152663099575,-0.110129018810945,0.3944645311036128,0.8402418761947326,,-0.04023202092003429,-0.09250026869413448,0.06086840708,-0.09125690957404896,,1.8365681e-05,5.543232e-06,-8.702278e-06,1.0000001,6.92904e-07,5.662441e-07,-6.891787e-07,1.0,2.9802322e-08,-5.662441e-07,-8.940697e-08,1.0,139,0.419,0,0,0.0,False,-0.26053339052739544,1.0139807595850459
0.44834487698972225,11:52:39.310690,11:52:23.100566,0,,0.091817126,0.0033365637,0.015560448,-0.7822495,0.12757744,-0.60976213,-0.10988188,0.93520284,0.33663258,0.61319804,0.3303324,-0.7175435,,0.07350522,0.0063438118,0.018323988,-0.9033777,-0.30566287,0.30079755,-0.18073416,0.9074406,0.3793239,-0.3889011,0.28830814,-0.87500536,,0.10916533,1.3569764,0.456598,0.9959767,0.036803238,-0.081706665,-0.023406506,-0.77328336,-0.6336284,-0.08650198,0.6329916,-0.7693108,,-0.049749557,0.25527444,-0.06738512,0.72010434,-0.086096354,0.68850356,0.31930223,0.9220831,-0.21865235,-0.61603236,0.37729323,0.6914868,,-0.010015696,0.45090574,-0.29182568,0.9449202,0.27764297,-0.17332128,-0.32018143,0.8939706,-0.3135289,0.06789505,0.351754,0.933627,,1.393296851503215,0.05819079220728168,0.19643200886,1.1392454629514208,-0.33653569892227986,-0.029177580298183903,-0.403623187417804,,-0.8648456863857802,-0.14572024660374228,0.19780996513000002,1.4978152663099575,-0.110129018810945,0.3944645311036128,0.8402418761947326,,-0.04023202092003429,-0.09250026869413448,0.06086840708,-0.09125690957404896,,1.8365681e-05,5.543232e-06,-8.702278e-06,1.0000001,6.92904e-07,5.662441e-07,-6.891787e-07,1.0,2.9802322e-08,-5.662441e-07,-8.940697e-08,1.0,150,0.452,0,0,0.0,False,-0.2612483231496481,1.014029039785825
0.47330634998797905,11:52:39.347489,11:52:23.227407,0,,0.09216001,0.0033636242,0.01628451,-0.7665545,0.12450498,-0.6299944,-0.12177315,0.9350445,0.33296084,0.6305281,0.33194897,-0.70160115,,0.07350713,0.0063440055,0.01832357,-0.9033749,-0.30566442,0.30080444,-0.180733,0.9074404,0.37932485,-0.38890818,0.28830704,-0.8750025,,0.10916533,1.3569764,0.456598,0.9959767,0.036803238,-0.081706665,-0.023406506,-0.77328336,-0.6336284,-0.08650198,0.6329916,-0.7693108,,-0.050147045,0.25577116,-0.067872815,0.70224196,-0.0831842,0.70706195,0.3217498,0.9230227,-0.210965,-0.6350853,0.37564552,0.67494977,,-0.010017523,0.45090544,-0.29182503,0.94491833,0.27764463,-0.17332847,-0.32018542,0.8939699,-0.31352687,0.06790139,0.35175455,0.93362635,,1.3925554691472894,0.060492166603800586,0.19578645644,1.1371485635165755,-0.3642729083746642,-0.030818331669557386,-0.4050932840130126,,-0.8648534091186544,-0.14572024660374228,0.19781126142000002,1.4978152663099575,-0.110129018810945,0.39446453110361285,0.8405685643270011,,-0.04023202092003429,-0.09250026869413448,0.06086840708,-0.09125690957404896,,1.8365681e-05,5.543232e-06,-8.702278e-06,1.0000001,6.92904e-07,5.662441e-07,-6.891787e-07,1.0,2.9802322e-08,-5.662441e-07,-8.940697e-08,1.0,165,0.497,0,0,0.0,False,-0.26095043455704303,1.013401397175692
0.5101076439896133,11:52:39.392196,11:52:23.227407,0,,0.09265133,0.0033881813,0.01708658,-0.759507,0.13086857,-0.63719904,-0.1267831,0.93098813,0.34232593,0.63802445,0.34078494,-0.6905001,,0.073509306,0.006346166,0.018321723,-0.90338993,-0.3053723,0.30105594,-0.18032363,0.9074912,0.37939835,-0.3890633,0.28845698,-0.8748841,,0.10916533,1.3569764,0.456598,0.9959767,0.036803238,-0.081706665,-0.023406506,-0.77328336,-0.6336284,-0.08650198,0.6329916,-0.7693108,,-0.050698593,0.25631744,-0.06840449,0.69426817,-0.09051776,0.71400154,0.3229097,0.9257809,-0.1966191,-0.6432115,0.36706442,0.6719693,,-0.010019394,0.45090568,-0.291822,0.9449606,0.2773357,-0.17359257,-0.319979,0.8940835,-0.3134137,0.068285435,0.3517096,0.93361527,,1.3919685414488483,0.06297888658930087,0.19498275664000003,1.136938873573091,-0.37725337585238106,-0.02105041821980297,-0.40280646708713264,,-0.8648534091186544,-0.14571252387086805,0.197813854,1.4982346461969265,-0.10999238231117957,0.394434791940057,0.8400785321285982,,-0.04023202092003429,-0.09250026869413448,0.06086840708,-0.09125690957404896,,1.8365681e-05,5.543232e-06,-8.702278e-06,1.0000001,6.92904e-07,5.662441e-07,-6.891787e-07,1.0,2.9802322e-08,-5.662441e-07,-8.940697e-08,1.0,176,0.53,0,0,0.0,False,-0.26112916771260597,1.0133048367741333
0.554832711990457,11:52:39.417869,11:52:23.227407,0,,0.09298943,0.003403157,0.017755926,-0.7526771,0.13363037,-0.64468616,-0.12970051,0.92990327,0.3441767,0.64548814,0.34267,-0.68258494,,0.07350755,0.006350532,0.018318206,-0.9042849,-0.3015047,0.30226487,-0.175607,0.9080114,0.3803648,-0.38914168,0.29087818,-0.87404716,,0.10916533,1.3569764,0.456598,0.9959767,0.036803238,-0.081706665,-0.023406506,-0.77328336,-0.6336284,-0.08650198,0.6329916,-0.7693108,,-0.05108777,0.25676906,-0.06885961,0.6866642,-0.09349404,0.7209376,0.3256249,0.9262056,-0.19003071,-0.6499697,0.36524254,0.66643625,,-0.010017097,0.45090675,-0.29181665,0.94593054,0.27318364,-0.1748889,-0.31642213,0.8957606,-0.31223387,0.0713614,0.35069028,0.93376863,,1.3917291367297473,0.06482461974624053,0.19433720422000003,1.1386163931209674,-0.3887308418326781,-0.019695830843078577,-0.402479778954864,,-0.8648534091186544,-0.14571252387086805,0.19781774287,1.5030575148970706,-0.11026565531071043,0.3946576277474498,0.8400785321285982,,-0.04023202092003429,-0.09250026869413448,0.06086840708,-0.09125690957404896,,1.8365681e-05,5.543232e-06,-8.702278e-06,1.0000001,6.92904e-07,5.662441e-07,-6.891787e-07,1.0,2.9802322e-08,-5.662441e-07,-8.940697e-08,1.0,183,0.55,0,0,0.0,False,-0.260652545964438,1.0133048367741333
0.580501042000833,11:52:39.439782,11:52:23.227407,0,,0.09319726,0.0034166723,0.018231168,-0.7472702,0.13685584,-0.65027523,-0.13239571,0.9282828,0.34750867,0.6511979,0.3457764,-0.6755589,,0.07350795,0.0063504577,0.018315881,-0.9044749,-0.3012252,0.3019751,-0.17540032,0.90802974,0.3804164,-0.38879332,0.2911104,-0.87412494,,0.10916533,1.3569764,0.456598,0.9959767,0.036803238,-0.081706665,-0.023406506,-0.77328336,-0.6336284,-0.08650198,0.6329916,-0.7693108,,-0.051331855,0.25709188,-0.06918435,0.6806328,-0.09706871,0.7261657,0.32735303,0.92702997,-0.18290813,-0.65542275,0.36220583,0.6627428,,-0.010017184,0.45090517,-0.29181495,0.9460746,0.27287552,-0.17459047,-0.31602347,0.89590496,-0.3122235,0.071218304,0.3505614,0.93382794,,1.3916750775996278,0.06608342520473913,0.19389387304000003,1.1394551528949053,-0.3976122143174317,-0.01629256788941763,-0.40002961796284986,,-0.8648688545844029,-0.14571252387086805,0.19781903916000002,1.503267204840555,-0.11067556481000676,0.39474684523811737,0.8395884999301952,,-0.04023202092003429,-0.09250026869413448,0.06086840708,-0.09125690957404896,,1.8365681e-05,5.543232e-06,-8.702278e-06,1.0000001,6.92904e-07,5.662441e-07,-6.891787e-07,1.0,2.9802322e-08,-5.662441e-07,-8.940697e-08,1.0,194,0.583,0,0,0.0,False,-0.2608908568385213,1.0130151555694564
0.6024054039880866,11:52:39.474223,11:52:23.227407,0,,0.09366403,0.0034219027,0.01921396,-0.7429979,0.14381613,-0.6536599,-0.13215262,0.92588985,0.35392576,0.65611726,0.34934893,-0.66892856,,0.07352134,0.0063514262,0.018315941,-0.9043847,-0.3014977,0.30197307,-0.17580129,0.9080716,0.3801314,-0.3888218,0.2906976,-0.87424964,,0.10916533,1.3569764,0.456598,0.9959767,0.036803238,-0.081706665,-0.023406506,-0.77328336,-0.6336284,-0.08650198,0.6329916,-0.7693108,,-0.051875006,0.25774235,-0.06986674,0.67600524,-0.10444963,0.7294568,0.3307747,0.927583,-0.17371795,-0.6584869,0.35872006,0.66160023,,-0.010030445,0.4509049,-0.29181287,0.945983,0.27320212,-0.17457594,-0.31635004,0.8956866,-0.31251904,0.07098447,0.3508648,0.9337318,,1.3918140867913638,0.06845430419712606,0.19291906296000003,1.1432295718776269,-0.4044440393057037,-0.012028532546845605,-0.4023164348887298,,-0.8649306364473967,-0.14571252387086805,0.19782552061000003,1.502847824953586,-0.11067556481000676,0.39450180901769566,0.8390984677317925,,-0.04023202092003429,-0.09250026869413448,0.06086840708,-0.09125690957404896,,1.8365681e-05,5.543232e-06,-8.702278e-06,1.0000001,6.92904e-07,5.662441e-07,-6.891787e-07,1.0,2.9802322e-08,-5.662441e-07,-8.940697e-08,1.0,205,0.616,0,0,0.0,False,-0.2607717014014801,1.0122909525577648
0.6368430909933522,11:52:39.511631,11:52:23.390824,0,,0.09397861,0.0033923835,0.019983575,-0.73871803,0.15130621,-0.6568122,-0.13145807,0.92342013,0.36057445,0.66107064,0.35270607,-0.66225666,,0.0735272,0.0063519627,0.018314987,-0.90442735,-0.3015147,0.30182832,-0.1757969,0.9080066,0.38028842,-0.38872463,0.29088256,-0.87423134,,0.10916533,1.3569764,0.456598,0.9959767,0.036803238,-0.081706665,-0.023406506,-0.77328336,-0.6336284,-0.08650198,0.6329916,-0.7693108,,-0.05225214,0.25822634,-0.070428595,0.67139995,-0.112345345,0.7325303,0.33455902,0.92793715,-0.16432564,-0.6612808,0.35540286,0.6606031,,-0.010036101,0.45090416,-0.2918111,0.94601214,0.27319285,-0.17443262,-0.3162796,0.8957607,-0.3123779,0.07091048,0.35068277,0.9338058,,1.3920226005789678,0.07002974170346786,0.19216332589000001,1.147213680803833,-0.410729318294914,-0.00698498771695083,-0.4024797789548641,,-0.8649615273788935,-0.14571252387086805,0.19782940948000002,1.502847824953586,-0.11081220130977221,0.39469490566153265,0.8389351236656581,,-0.04023202092003429,-0.09250026869413448,0.06086840708,-0.09125690957404896,,1.8365681e-05,5.543232e-06,-8.702278e-06,1.0000001,6.92904e-07,5.662441e-07,-6.891787e-07,1.0,2.9802322e-08,-5.662441e-07,-8.940697e-08,1.0,216,0.648,0,0,0.0,False,-0.26095043455704303,1.0124357931601031
0.6742344300000696,11:52:39.533963,11:52:23.390824,0,,0.094199255,0.003332004,0.020558923,-0.73513484,0.15712894,-0.65945995,-0.13112429,0.921441,0.36572218,0.66511893,0.3553263,-0.65678,,0.073530376,0.006352216,0.018312246,-0.90442455,-0.30151623,0.30183524,-0.17579572,0.9080064,0.3802894,-0.3887317,0.29088148,-0.87422854,,0.10916533,1.3569764,0.456598,0.9959767,0.036803238,-0.081706665,-0.023406506,-0.77328336,-0.6336284,-0.08650198,0.6329916,-0.7693108,,-0.052522384,0.25855926,-0.07087522,0.6675344,-0.118488505,0.7350907,0.33747572,0.92817473,-0.15684949,-0.66370773,0.35277766,0.6595756,,-0.010038884,0.45090234,-0.2918086,0.9460103,0.27319452,-0.17443982,-0.31628358,0.89576,-0.31237587,0.07091683,0.35068324,0.93380517,,1.3921384415720812,0.07101052877849437,0.19159036571000002,1.150149340012616,-0.4159215052860007,-0.0027511073764868166,-0.4024797789548641,,-0.8649692501117677,-0.14571252387086805,0.19783329835000002,1.502847824953586,-0.11081220130977221,0.39469490566153265,0.8389351236656581,,-0.04023202092003429,-0.09250026869413448,0.06086840708,-0.09125690957404896,,1.8365681e-05,5.543232e-06,-8.702278e-06,1.0000001,6.92904e-07,5.662441e-07,-6.891787e-07,1.0,2.9802322e-08,-5.662441e-07,-8.940697e-08,1.0,227,0.681,0,0,0.0,False,-0.2611887454311268,1.0121943921562058
0.6965961659880122,11:52:39.568382,11:52:23.390824,0,,0.09462997,0.0031789541,0.021713614,-0.7278911,0.16978008,-0.66434145,-0.12908873,0.9176074,0.37594223,0.6734321,0.3594039,-0.6460016,,0.07353173,0.0063517094,0.01830706,-0.9043597,-0.30184865,0.30169737,-0.17620718,0.90795654,0.3802181,-0.38869634,0.29069242,-0.8743071,,0.10916533,1.3569764,0.456598,0.9959767,0.036803238,-0.081706665,-0.023406506,-0.77328336,-0.6336284,-0.08650198,0.6329916,-0.7693108,,-0.053055014,0.25920337,-0.07179372,0.65980756,-0.1316715,0.7398085,0.34448248,0.9279808,-0.14206855,-0.6678217,0.34858897,0.65764725,,-0.010039527,0.45089847,-0.2918049,0.9459349,0.27354872,-0.17429368,-0.31657413,0.89562446,-0.31247014,0.07062588,0.35075328,0.9338009,,1.3923624008254338,0.07277903460669177,0.19043148245000002,1.1574884880345744,-0.4258959697688779,0.005137363372930359,-0.40231643488872976,,-0.8649615273788935,-0.14571252387086805,0.19783848351000002,1.502428445066617,-0.11081220130977221,0.39469490566153265,0.8389351236656581,,-0.04023202092003429,-0.09250026869413448,0.06086840708,-0.09125690957404896,,1.8365681e-05,5.543232e-06,-8.702278e-06,1.0000001,6.92904e-07,5.662441e-07,-6.891787e-07,1.0,2.9802322e-08,-5.662441e-07,-8.940697e-08,1.0,238,0.714,0,0,0.0,False,-0.26136747858668974,1.011711590148411
0.7310156899911817,11:52:39.602192,11:52:23.390824,0,,0.09493918,0.0030294657,0.022578686,-0.72202957,0.17917691,-0.66825825,-0.12759668,0.91482955,0.3831526,0.6799945,0.361915,-0.63767153,,0.07353617,0.0063521266,0.018305093,-0.90435404,-0.301901,0.30166185,-0.17620483,0.9078941,0.38036832,-0.38871053,0.29083318,-0.874254,,0.10916533,1.3569764,0.456598,0.9959767,0.036803238,-0.081706665,-0.023406506,-0.77328336,-0.6336284,-0.08650198,0.6329916,-0.7693108,,-0.05344318,0.25965968,-0.07250608,0.65355724,-0.14141652,0.74354845,0.3499273,0.9275489,-0.13116398,-0.6711288,0.3459111,0.65569174,,-0.010043661,0.45089713,-0.2918027,0.94593126,0.27358055,-0.17426337,-0.3165821,0.8956741,-0.31231982,0.07063857,0.35060173,0.93385684,,1.3924936872842957,0.07392199907207701,0.18955648670000003,1.1631501165086566,-0.43382088675527347,0.010701135645776627,-0.40247977895486403,,-0.864976972844642,-0.14571252387086805,0.19784237238000002,1.502428445066617,-0.11081220130977221,0.39485826314181377,0.838281747401121,,-0.04023202092003429,-0.09250026869413448,0.06086840708,-0.09125690957404896,,1.8365681e-05,5.543232e-06,-8.702278e-06,1.0000001,6.92904e-07,5.662441e-07,-6.891787e-07,1.0,2.9802322e-08,-5.662441e-07,-8.940697e-08,1.0,249,0.747,0,0,0.0,False,-0.26011634649774784,1.0121943921562058
0.7648168209998403,11:52:39.631318,11:52:23.518019,0,,0.09522252,0.002866149,0.023436546,-0.7156262,0.18843487,-0.6725857,-0.12714887,0.9116904,0.39070904,0.68681324,0.36512008,-0.6284703,,0.07353746,0.006352082,0.018299907,-0.90435684,-0.3018995,0.30165496,-0.17620601,0.9078943,0.38036737,-0.38870344,0.29083425,-0.87425685,,0.10916533,1.3569764,0.456598,0.9959767,0.036803238,-0.081706665,-0.023406506,-0.77328336,-0.6336284,-0.08650198,0.6329916,-0.7693108,,-0.053806026,0.26010078,-0.07322485,0.64667225,-0.15110566,0.74765104,0.3547542,0.9273008,-0.119426444,-0.6752514,0.34246212,0.65326506,,-0.0100442255,0.45089355,-0.2917987,0.94593304,0.27357888,-0.17425619,-0.31657812,0.8956748,-0.3123218,0.07063223,0.35060126,0.9338575,,1.3926635874075286,0.07495684527722309,0.18869445385000003,1.1679729852088008,-0.4425656227402616,0.01717845156122305,-0.402479778954864,,-0.8649692501117677,-0.14571252387086805,0.19784755754000002,1.502428445066617,-0.11081220130977221,0.39485826314181377,0.838281747401121,,-0.04023202092003429,-0.09250026869413448,0.06086840708,-0.09125690957404896,,1.8365681e-05,5.543232e-06,-8.702278e-06,1.0000001,6.92904e-07,5.662441e-07,-6.891787e-07,1.0,2.9802322e-08,-5.662441e-07,-8.940697e-08,1.0,253,0.759,0,0,0.0,False,-0.26160578946077395,1.011470189144514
0.7939554139884422,11:52:39.651565,11:52:23.518019,0,,0.09540579,0.0027583092,0.024017945,-0.7115917,0.19462664,-0.6750984,-0.12659922,0.90962046,0.39568058,0.6910933,0.36703,-0.62263876,,0.07354127,0.0063524246,0.018299013,-0.9043512,-0.3019026,0.30166873,-0.17620367,0.9078939,0.3803693,-0.38871762,0.29083207,-0.87425125,,0.10916533,1.3569764,0.456598,0.9959767,0.036803238,-0.081706665,-0.023406506,-0.77328336,-0.6336284,-0.08650198,0.6329916,-0.7693108,,-0.05404304,0.26040187,-0.07371107,0.6423549,-0.15756476,0.7500357,0.35798645,0.92700344,-0.111849725,-0.6776621,0.34034982,0.6518712,,-0.01004788,0.45089298,-0.29179743,0.94592947,0.27358225,-0.17427057,-0.3165861,0.8956734,-0.3123178,0.070644915,0.35060224,0.9338562,,1.39284893299651,0.07563644577015485,0.18811241964000003,1.171328024304553,-0.4478944462311138,0.021278713584961806,-0.4029698111532669,,-0.8649846955775162,-0.14571252387086805,0.19785015012,1.502428445066617,-0.11081220130977221,0.39485826314181377,0.838281747401121,,-0.04023202092003429,-0.09250026869413448,0.06086840708,-0.09125690957404896,,1.8365681e-05,5.543232e-06,-8.702278e-06,1.0000001,6.92904e-07,5.662441e-07,-6.891787e-07,1.0,2.9802322e-08,-5.662441e-07,-8.940697e-08,1.0,260,0.78,0,0,0.0,False,-0.26148663402373185,1.0113736287429549
0.8142022999963956,11:52:39.678927,11:52:23.518019,0,,0.09568738,0.002595067,0.024944723,-0.70537055,0.20523712,-0.67847645,-0.1247547,0.90628016,0.40384692,0.6977742,0.36950475,-0.613659,,0.07354256,0.0063524097,0.018293828,-0.90435404,-0.30192566,0.3016372,-0.17620483,0.907863,0.38044244,-0.38871053,0.29090455,-0.87423027,,0.10916533,1.3569764,0.456598,0.9959767,0.036803238,-0.081706665,-0.023406506,-0.77328336,-0.6336284,-0.08650198,0.6329916,-0.7693108,,-0.05440973,0.26088834,-0.07448162,0.6357629,-0.16855389,0.7532563,0.36377516,0.92612535,-0.099796996,-0.68078864,0.3374632,0.65011185,,-0.010048445,0.45088944,-0.29179344,0.94593126,0.2735948,-0.17424104,-0.3165821,0.8956996,-0.31224665,0.07063857,0.35052547,0.93388546,,1.3932350696402211,0.07670218290679783,0.18718946116000001,1.1776187226090888,-0.4556827267177439,0.027547855355517237,-0.4031331552194012,,-0.864976972844642,-0.14571252387086805,0.19785533528000002,1.502428445066617,-0.11081220130977221,0.39493994188195436,0.8381184033349868,,-0.04023202092003429,-0.09250026869413448,0.06086840708,-0.09125690957404896,,1.8365681e-05,5.543232e-06,-8.702278e-06,1.0000001,6.92904e-07,5.662441e-07,-6.891787e-07,1.0,2.9802322e-08,-5.662441e-07,-8.940697e-08,1.0,271,0.812,0,0,0.0,False,-0.2612483231496481,1.011083947538278
0.8415610149968415,11:52:39.701575,11:52:23.518019,0,,0.0958631,0.0024876148,0.025572672,-0.70136166,0.2114754,-0.680713,-0.12423429,0.9040943,0.40887555,0.70189583,0.37133753,-0.60782456,,0.07354335,0.0063522756,0.018289953,-0.90440786,-0.3019117,0.30148947,-0.17620511,0.9078299,0.3805214,-0.38858503,0.29102245,-0.8742469,,0.10916533,1.3569764,0.456598,0.9959767,0.036803238,-0.081706665,-0.023406506,-0.77328336,-0.6336284,-0.08650198,0.6329916,-0.7693108,,-0.05464296,0.2612203,-0.0750033,0.6314817,-0.17506137,0.7553704,0.36688125,0.92569,-0.092174955,-0.6831025,0.335338,0.648783,,-0.010048704,0.45088673,-0.29179057,0.9459676,0.27356446,-0.17409125,-0.31649566,0.89575106,-0.31218678,0.07053921,0.3504177,0.93393344,,1.3935903153524354,0.07741267433122649,0.18656983454,1.1809737617048413,-0.46073827720906524,0.03158863905214426,-0.4029698111532669,,-0.864976972844642,-0.14571252387086805,0.19785922415,1.502428445066617,-0.11094883780953764,0.39505135978565076,0.8381184033349868,,-0.04023202092003429,-0.09250026869413448,0.06086840708,-0.09125690957404896,,1.8365681e-05,5.543232e-06,-8.702278e-06,1.0000001,6.92904e-07,5.662441e-07,-6.891787e-07,1.0,2.9802322e-08,-5.662441e-07,-8.940697e-08,1.0,282,0.845,0,0,0.0,False,-0.26011634649774784,1.0115667495460727
0.8641994329955196,11:52:39.735000,11:52:23.518019,0,,0.096091,0.0023620427,0.02639927,-0.6964246,0.2202411,-0.6829983,-0.12322092,0.9009074,0.41615173,0.706972,0.37397796,-0.6002759,,0.07354926,0.0063509196,0.0182828,-0.9043716,-0.30210164,0.30140835,-0.17640822,0.90777665,0.38055432,-0.38857752,0.29099137,-0.8742605,,0.10916533,1.3569764,0.456598,0.9959767,0.036803238,-0.081706665,-0.023406506,-0.77328336,-0.6336284,-0.08650198,0.6329916,-0.7693108,,-0.054945458,0.26166925,-0.07567999,0.6262362,-0.18421891,0.7575563,0.3709873,0.92503417,-0.08173239,-0.6857089,0.33222756,0.6476328,,-0.010053623,0.4508806,-0.2917855,0.94592744,0.273756,-0.17400852,-0.31664595,0.8957056,-0.3121647,0.07040345,0.35038424,0.9339562,,1.3941386293865055,0.07840118413912722,0.18575965329000002,1.1855869404615007,-0.46675028319874456,0.03738949295633298,-0.4041132196162069,,-0.8649846955775162,-0.14572024660374228,0.19786829818,1.5022187551231325,-0.11094883780953764,0.39513303852579135,0.8376283711365841,,-0.04023202092003429,-0.09250026869413448,0.06086840708,-0.09125690957404896,,1.8365681e-05,5.543232e-06,-8.702278e-06,1.0000001,6.92904e-07,5.662441e-07,-6.891787e-07,1.0,2.9802322e-08,-5.662441e-07,-8.940697e-08,1.0,293,0.878,0,0,0.0,False,-0.26190367805337944,1.0106011455304837
0.8976233279972803,11:52:39.764610,11:52:23.652733,0,,0.09634365,0.0022330433,0.02735503,-0.69114435,0.23074885,-0.6848902,-0.122715324,0.89643055,0.4258556,0.7122222,0.3783742,-0.59124655,,0.073553145,0.0063507855,0.018273145,-0.90434045,-0.30231628,0.30128655,-0.17661454,0.9076896,0.38066643,-0.38855627,0.2910402,-0.8742537,,0.10916533,1.3569764,0.456598,0.9959767,0.036803238,-0.081706665,-0.023406506,-0.77328336,-0.6336284,-0.08650198,0.6329916,-0.7693108,,-0.055283252,0.26220053,-0.076453015,0.62059873,-0.19534335,0.75940645,0.3748255,0.9245623,-0.068486586,-0.6887402,0.3271476,0.64700186,,-0.01005614,0.4508738,-0.29177794,0.94589055,0.27396062,-0.17388704,-0.3167892,0.89568913,-0.31206658,0.07025478,0.35026637,0.93401164,,1.3948954572081793,0.07960593046750625,0.18483150965000003,1.189990429274676,-0.47317219868772026,0.04581160529554673,-0.403623187417804,,-0.864976972844642,-0.14572024660374228,0.19787866850000002,1.5020090651796478,-0.11094883780953764,0.39529639600607247,0.8373016830043155,,-0.04023202092003429,-0.09250026869413448,0.06086840708,-0.09125690957404896,,1.8365681e-05,5.543232e-06,-8.702278e-06,1.0000001,6.92904e-07,5.662441e-07,-6.891787e-07,1.0,2.9802322e-08,-5.662441e-07,-8.940697e-08,1.0,301,0.902,0,0,0.0,False,-0.26136747858668974,1.01002178312113
0.9272350629908033,11:52:39.794693,11:52:23.652733,0,,0.09657717,0.0021259934,0.028285757,-0.6853552,0.24244504,-0.686665,-0.12175393,0.8915266,0.43629843,0.71795845,0.38262355,-0.5814937,,0.07356335,0.006351337,0.018263966,-0.90429795,-0.30256167,0.30116755,-0.17681617,0.9075706,0.3808564,-0.3885633,0.2911562,-0.8742119,,0.10916533,1.3569764,0.456598,0.9959767,0.036803238,-0.081706665,-0.023406506,-0.77328336,-0.6336284,-0.08650198,0.6329916,-0.7693108,,-0.055598415,0.26273188,-0.07719505,0.6144489,-0.20766814,0.761135,0.37932727,0.9236733,-0.054208122,-0.6917828,0.3220274,0.6463242,,-0.010065012,0.4508674,-0.29176968,0.9458463,0.27418613,-0.1737719,-0.3169484,0.89569527,-0.3118873,0.07013149,0.3500742,0.93409294,,1.3957063441599729,0.08082612226163371,0.18394225471000003,1.1952326778617888,-0.48000402367599226,0.054731328826130854,-0.4031331552194012,,-0.8650001410432646,-0.14572024660374228,0.19789163140000002,1.5017993752361634,-0.11094883780953764,0.3955414322264941,0.8368116508059127,,-0.04023202092003429,-0.09250026869413448,0.06086840708,-0.09125690957404896,,1.8365681e-05,5.543232e-06,-8.702278e-06,1.0000001,6.92904e-07,5.662441e-07,-6.891787e-07,1.0,2.9802322e-08,-5.662441e-07,-8.940697e-08,1.0,312,0.935,0,0,0.0,False,-0.26041423509035333,1.0101666237234685
0.9573294769943459,11:52:39.825666,11:52:23.652733,0,,0.096806705,0.0020401627,0.02919744,-0.67898774,0.25392982,-0.6888363,-0.12078324,0.8868543,0.44598278,0.72414577,0.38601667,-0.57149273,,0.073587954,0.006354511,0.018250316,-0.90411323,-0.30181903,0.30246475,-0.17619245,0.90821415,0.37960917,-0.389276,0.28991744,-0.87430656,,0.10916533,1.3569764,0.456598,0.9959767,0.036803238,-0.081706665,-0.023406506,-0.77328336,-0.6336284,-0.08650198,0.6329916,-0.7693108,,-0.05590655,0.2632667,-0.07790936,0.6076884,-0.21969679,0.7631829,0.38413322,0.92239606,-0.04033875,-0.6950946,0.3176773,0.6449222,,-0.0100874845,0.4508589,-0.2917547,0.94576967,0.2736286,-0.17506333,-0.31696296,0.8953065,-0.31298667,0.071093254,0.35150188,0.9334839,,1.396532676577515,0.08215443231600034,0.18306337009,1.200894306335871,-0.487655667662857,0.06293102119650401,-0.4031331552194012,,-0.86504647744051,-0.14572024660374228,0.19791496462000002,1.502428445066617,-0.11026565531071043,0.3939225190861847,0.8366483067397783,,-0.04023202092003429,-0.09250026869413448,0.06086840708,-0.09125690957404896,,1.8365681e-05,5.543232e-06,-8.702278e-06,1.0000001,6.92904e-07,5.662441e-07,-6.891787e-07,1.0,2.9802322e-08,-5.662441e-07,-8.940697e-08,1.0,323,0.968,0,0,0.0,False,-0.2604738128088746,1.0096355415148943
0.9883031829958782,11:52:39.862062,11:52:23.652733,0,,0.09714612,0.0019716173,0.030367807,-0.67392725,0.27021372,-0.68760943,-0.11848673,0.8791354,0.46160787,0.72923446,0.39256266,-0.5604566,,0.073604904,0.0063583404,0.018228263,-0.9052352,-0.29776752,0.3031239,-0.17146282,0.908705,0.38059902,-0.38878015,0.29255694,-0.87364775,,0.10916533,1.3569764,0.456598,0.9959767,0.036803238,-0.081706665,-0.023406506,-0.77328336,-0.6336284,-0.08650198,0.6329916,-0.7693108,,-0.056343604,0.2639847,-0.07879429,0.6024117,-0.23697113,0.7621974,0.38921472,0.9209006,-0.021307647,-0.6968587,0.3094944,0.64699394,,-0.010101215,0.45084596,-0.2917339,0.9468867,0.26926425,-0.17579047,-0.3130015,0.89709055,-0.31186315,0.07372637,0.35032174,0.9337233,,1.397637027378529,0.08407739280168224,0.18196541246000003,1.2076043845273758,-0.4928478546539437,0.07590452673200815,-0.40329649928553546,,-0.8651159820363781,-0.1457279693366165,0.19794348300000003,1.5072513137667611,-0.11122211080906853,0.39429405071135687,0.8361582745413755,,-0.04023202092003429,-0.09250026869413448,0.06086840708,-0.09125690957404896,,1.8365681e-05,5.543232e-06,-8.702278e-06,1.0000001,6.92904e-07,5.662441e-07,-6.891787e-07,1.0,2.9802322e-08,-5.662441e-07,-8.940697e-08,1.0,334,1.001,0,0,0.0,False,-0.26101001227556386,1.009345860310218
1.0246913849987322,11:52:39.895585,11:52:23.652733,0,,0.097376995,0.001966238,0.031264707,-0.6673162,0.2835337,-0.68869287,-0.11886576,0.8723011,0.4743012,0.7352279,0.3983708,-0.54839826,,0.07363561,0.006358549,0.018212587,-0.90498215,-0.2983847,0.30327234,-0.17247409,0.9089285,0.37960726,-0.38892183,0.29123092,-0.8740276,,0.10916533,1.3569764,0.456598,0.9959767,0.036803238,-0.081706665,-0.023406506,-0.77328336,-0.6336284,-0.08650198,0.6329916,-0.7693108,,-0.05664606,0.26457044,-0.07944482,0.5953274,-0.25117546,0.7632144,0.39287624,0.91958344,-0.0038169753,-0.7008806,0.30212113,0.6461341,,-0.010129495,0.4508334,-0.2917187,0.9466397,0.27005914,-0.17590125,-0.31387296,0.89643586,-0.3128682,0.07319127,0.35138413,0.93336606,,1.3985869235220587,0.0857995622326343,0.18115523121000002,1.2122175632840353,-0.5009094081401047,0.08754226493881179,-0.4032964992855355,,-0.8652086548308687,-0.14573569206949072,0.19797200138,1.5062028640493386,-0.11108547430930309,0.3933658454062548,0.8361582745413754,,-0.04023202092003429,-0.09250026869413448,0.06086840708,-0.09125690957404896,,1.8365681e-05,5.543232e-06,-8.702278e-06,1.0000001,6.92904e-07,5.662441e-07,-6.891787e-07,1.0,2.9802322e-08,-5.662441e-07,-8.940697e-08,1.0,342,1.025,0,0,0.0,False,-0.2611887454311268,1.0091527395071
1.0581941489945166,11:52:39.915728,11:52:23.652733,0,,0.097547784,0.0019859076,0.031803206,-0.6657609,0.28966445,-0.68764615,-0.11845666,0.86885595,0.48068404,0.73670244,0.4014768,-0.5441376,,0.07365407,0.006358519,0.018197507,-0.9049145,-0.2982541,0.3036026,-0.1724671,0.90914977,0.37907997,-0.38908237,0.29067335,-0.87414175,,0.10916533,1.3569764,0.456598,0.9959767,0.036803238,-0.081706665,-0.023406506,-0.77328336,-0.6336284,-0.08650198,0.6329916,-0.7693108,,-0.05685799,0.2649394,-0.079816945,0.59369135,-0.25776985,0.7622895,0.39415565,0.91903585,0.003795077,-0.70154965,0.2982076,0.6472251,,-0.010145741,0.45082206,-0.29170543,0.9465946,0.2700089,-0.17622104,-0.31397843,0.8962255,-0.31336454,0.073322594,0.35195878,0.9331392,,1.399212464884871,0.08701203129388756,0.18065486327000002,1.2143144627188807,-0.50254904613729,0.0928815380500565,-0.40313315521940124,,-0.8652472684952398,-0.14574341480236494,0.19799403831,1.5062028640493386,-0.11094883780953764,0.39276435506171503,0.8355048982768384,,-0.04023202092003429,-0.09250026869413448,0.06086840708,-0.09125690957404896,,1.8365681e-05,5.543232e-06,-8.702278e-06,1.0000001,6.92904e-07,5.662441e-07,-6.891787e-07,1.0,2.9802322e-08,-5.662441e-07,-8.940697e-08,1.0,350,1.05,0,0,0.0,False,-0.259580147031059,1.0092975801094384
1.0783658059954178,11:52:39.943797,11:52:23.652733,0,,0.097817324,0.0020903498,0.03261958,-0.6637653,0.30175424,-0.6843684,-0.11709896,0.86179316,0.4935587,0.73871744,0.40774596,-0.5366934,,0.07368754,0.006360501,0.018173605,-0.9045532,-0.2978629,0.3050599,-0.17225173,0.9098101,0.3775909,-0.39001685,0.28900373,-0.8742789,,0.10916533,1.3569764,0.456598,0.9959767,0.036803238,-0.081706665,-0.023406506,-0.77328336,-0.6336284,-0.08650198,0.6329916,-0.7693108,,-0.057184465,0.26555502,-0.080331214,0.5916425,-0.27080506,0.75935745,0.39650565,0.917848,0.018394884,-0.70195615,0.29020634,0.65041363,,-0.010175629,0.45080525,-0.2916827,0.94636685,0.26985824,-0.17766903,-0.31445876,0.89559394,-0.31468582,0.074198745,0.3536778,0.9324197,,1.400316815685885,0.08922073289591576,0.17992116313,1.2182985716450865,-0.5043253206342407,0.10388638339455569,-0.403623187417804,,-0.8652936048924852,-0.14575113753523916,0.19803033443,1.5064125539928228,-0.10999238231117957,0.39092260611401275,0.8359949304752412,,-0.04023202092003429,-0.09250026869413448,0.06086840708,-0.09125690957404896,,1.8365681e-05,5.543232e-06,-8.702278e-06,1.0000001,6.92904e-07,5.662441e-07,-6.891787e-07,1.0,2.9802322e-08,-5.662441e-07,-8.940697e-08,1.0,358,1.074,0,0,0.0,False,-0.259282258438454,1.0089596187039818
1.1063541469920892,11:52:39.965911,11:52:23.652733,0,,0.09799466,0.0022038072,0.0331389,-0.6619538,0.3084242,-0.6831485,-0.11611381,0.85822,0.49997592,0.7404963,0.41028392,-0.5322897,,0.073701605,0.006361082,0.01815477,-0.9045143,-0.2978588,0.30517906,-0.17245467,0.9100009,0.37703794,-0.39001724,0.28840643,-0.87447596,,0.10916533,1.3569764,0.456598,0.9959767,0.036803238,-0.081706665,-0.023406506,-0.77328336,-0.6336284,-0.08650198,0.6329916,-0.7693108,,-0.057394587,0.2659821,-0.080626994,0.58976877,-0.27789882,0.7582513,0.39841947,0.91683114,0.026127113,-0.7024491,0.28669313,0.65143865,,-0.010186986,0.4507922,-0.29166672,0.9463253,0.26993823,-0.17776884,-0.3146143,0.8953446,-0.31523934,0.074069224,0.35424757,0.9322137,,1.401073643507559,0.09087339773099981,0.17947523937,1.2214439207973542,-0.5061015951311915,0.10843860826795054,-0.40460325181460965,,-0.8653090503582337,-0.14575113753523916,0.19805366765000001,1.5062028640493386,-0.10999238231117957,0.39035085493302885,0.8351782101445698,,-0.04023202092003429,-0.09250026869413448,0.06086840708,-0.09125690957404896,,1.8365681e-05,5.543232e-06,-8.702278e-06,1.0000001,6.92904e-07,5.662441e-07,-6.891787e-07,1.0,2.9802322e-08,-5.662441e-07,-8.940697e-08,1.0,395,1.188,0,0,0.0,False,-0.26011634649774784,1.0089113385032027
1.1285339679889148,11:52:40.069145,11:52:23.910073,0,,0.09913945,0.0034849942,0.035667583,-0.648684,0.35681278,-0.67223054,-0.10893616,0.83065665,0.54602414,0.75322104,0.4274273,-0.49996388,,0.07372618,0.006362185,0.018131882,-0.9041663,-0.29740468,0.30664983,-0.17224497,0.91072017,0.3753935,-0.39091593,0.28659907,-0.87466884,,0.10916533,1.3569764,0.456598,0.9959767,0.036803238,-0.081706665,-0.023406506,-0.77328336,-0.6336284,-0.08650198,0.6329916,-0.7693108,,-0.05864481,0.26861107,-0.08156061,0.5760654,-0.3293774,0.74810374,0.41220838,0.90738374,0.08209119,-0.70585614,0.26108474,0.6584845,,-0.010208207,0.45077604,-0.29164624,0.9461058,0.26974484,-0.17922498,-0.31507432,0.8946619,-0.31671476,0.07491359,0.35611483,0.93143445,,1.4049118417460487,0.10331472039137549,0.17755413759000002,1.2447195045241366,-0.5203117911067973,0.14158925764948688,-0.40362318741780406,,-0.8653167730911079,-0.14575886026811338,0.19808477861,1.5064125539928228,-0.10903592681282148,0.38834574850504544,0.8343614898138983,,-0.04023202092003429,-0.09250026869413448,0.06086840708,-0.09125690957404896,,1.8365681e-05,5.543232e-06,-8.702278e-06,1.0000001,6.92904e-07,5.662441e-07,-6.891787e-07,1.0,2.9802322e-08,-5.662441e-07,-8.940697e-08,1.0,403,1.213,0,0,0.0,False,-0.2607121236829584,1.0084768166961875
1.2317807090003043,11:52:40.100491,11:52:23.910073,0,,0.099647954,0.0041870326,0.036360845,-0.64302444,0.37416384,-0.6682223,-0.104861885,0.8212954,0.56078315,0.75863266,0.43066823,-0.48887753,,0.07373066,0.006362349,0.018129915,-0.90412736,-0.2975251,0.30664766,-0.17244796,0.91075647,0.37521228,-0.39091635,0.2863587,-0.8747474,,0.10916533,1.3569764,0.456598,0.9959767,0.036803238,-0.081706665,-0.023406506,-0.77328336,-0.6336284,-0.08650198,0.6329916,-0.7693108,,-0.059155766,0.26959643,-0.081566304,0.5702953,-0.34756365,0.7442868,0.4188426,0.9024796,0.100505814,-0.70663583,0.25442106,0.6602543,,-0.010212383,0.45077455,-0.2916442,0.9460642,0.2698973,-0.17921495,-0.31522992,0.8945407,-0.3169021,0.074784055,0.35630366,0.93137264,,1.405753619629339,0.10898320632105628,0.17713154705,1.2560427614723009,-0.5265970700960074,0.14940987964416078,-0.403623187417804,,-0.8653322185568563,-0.14575886026811338,0.19808866748,1.5062028640493386,-0.10903592681282148,0.3881823910247643,0.8340348016816298,,-0.04023202092003429,-0.09250026869413448,0.06086840708,-0.09125690957404896,,1.8365681e-05,5.543232e-06,-8.702278e-06,1.0000001,6.92904e-07,5.662441e-07,-6.891787e-07,1.0,2.9802322e-08,-5.662441e-07,-8.940697e-08,1.0,411,1.238,0,0,0.0,False,-0.2608908568385213,1.007704333483716
1.2631198229937581,11:52:40.128939,11:52:23.910073,0,,0.100511104,0.005373597,0.03722535,-0.63657683,0.39604616,-0.6617534,-0.10036433,0.8082277,0.5802541,0.7646548,0.43579268,-0.4747501,,0.07373451,0.0063625127,0.01812312,-0.90412736,-0.2975501,0.30662337,-0.17244796,0.91072583,0.37528667,-0.39091635,0.28643018,-0.87472403,,0.10916533,1.3569764,0.456598,0.9959767,0.036803238,-0.081706665,-0.023406506,-0.77328336,-0.6336284,-0.08650198,0.6329916,-0.7693108,,-0.059998184,0.27105993,-0.08134532,0.5637227,-0.37067422,0.7381174,0.42619807,0.8960254,0.124473386,-0.707511,0.24441573,0.6630905,,-0.010215256,0.45076993,-0.2916386,0.9460642,0.26991194,-0.1791929,-0.31522992,0.89456666,-0.31682906,0.074784055,0.35622758,0.9314018,,1.4064641110537677,0.11830454490024526,0.17667784555000002,1.270511367572733,-0.5346586235821684,0.15867893438688818,-0.4039498755500726,,-0.8653322185568563,-0.14575886026811338,0.19809644522000003,1.5062028640493386,-0.10903592681282148,0.3882640697649049,0.8341981457477641,,-0.04023202092003429,-0.09250026869413448,0.06086840708,-0.09125690957404896,,1.8365681e-05,5.543232e-06,-8.702278e-06,1.0000001,6.92904e-07,5.662441e-07,-6.891787e-07,1.0,2.9802322e-08,-5.662441e-07,-8.940697e-08,1.0,419,1.263,0,0,0.0,False,-0.26136747858668974,1.007704333483716
1.2915712169924518,11:52:40.158699,11:52:24.037088,0,,0.10117583,0.0062877685,0.037786618,-0.6331869,0.40984204,-0.6565851,-0.097346336,0.7993977,0.59286326,0.76785296,0.43930936,-0.46627152,,0.07374026,0.006362766,0.018118888,-0.9040885,-0.29774565,0.30654827,-0.17265093,0.91067004,0.37532854,-0.39091673,0.28640416,-0.8747323,,0.10916533,1.3569764,0.456598,0.9959767,0.036803238,-0.081706665,-0.023406506,-0.77328336,-0.6336284,-0.08650198,0.6329916,-0.7693108,,-0.060638465,0.27211857,-0.08109658,0.56031173,-0.38531023,0.7332031,0.4305787,0.8916986,0.13955519,-0.7075682,0.23750724,0.6655355,,-0.01022039,0.4507669,-0.29163468,0.94602257,0.27010828,-0.17911674,-0.31538546,0.8945231,-0.3167972,0.07465451,0.35618812,0.93142724,,1.4068116340331078,0.12538629094590914,0.17641988384,1.2801571049730212,-0.539167628074428,0.16374426379125964,-0.40378653148393834,,-0.8653476640226048,-0.14575886026811338,0.19810292667,1.5059931741058539,-0.10903592681282148,0.38834574850504544,0.8340348016816298,,-0.04023202092003429,-0.09250026869413448,0.06086840708,-0.09125690957404896,,1.8365681e-05,5.543232e-06,-8.702278e-06,1.0000001,6.92904e-07,5.662441e-07,-6.891787e-07,1.0,2.9802322e-08,-5.662441e-07,-8.940697e-08,1.0,431,1.3,0,0,0.0,False,-0.2611887454311268,1.0069318502712448
1.321309332997771,11:52:40.192945,11:52:24.037088,0,,0.101807535,0.007148087,0.038282335,-0.6311898,0.4239319,-0.64952385,-0.09403616,0.7894132,0.6066168,0.7699069,0.443969,-0.45840463,,0.07374505,0.0063613504,0.018114358,-0.90410405,-0.29792523,0.3063278,-0.17285343,0.91058445,0.37544304,-0.39079124,0.28648958,-0.8747605,,0.10916533,1.3569764,0.456598,0.9959767,0.036803238,-0.081706665,-0.023406506,-0.77328336,-0.6336284,-0.08650198,0.6329916,-0.7693108,,-0.0612445,0.27309355,-0.08083748,0.558399,-0.40041426,0.726539,0.43442577,0.8872533,0.15509962,-0.7067282,0.22901979,0.66939163,,-0.010224529,0.45076242,-0.29163167,0.9460178,0.2702733,-0.17889275,-0.31545377,0.894529,-0.31671253,0.07442581,0.35604808,0.9314991,,1.4070973751494542,0.13202784121774222,0.17620340341000001,1.2889640825993711,-0.5417637215699714,0.17100696459034703,-0.40394987555007256,,-0.8653631094883532,-0.14576658300098763,0.19810940812000002,1.5057834841623694,-0.10917256331258691,0.3885388451488824,0.8332180813509584,,-0.04023202092003429,-0.09250026869413448,0.06086840708,-0.09125690957404896,,1.8365681e-05,5.543232e-06,-8.702278e-06,1.0000001,6.92904e-07,5.662441e-07,-6.891787e-07,1.0,2.9802322e-08,-5.662441e-07,-8.940697e-08,1.0,439,1.324,0,0,0.0,False,-0.2616653671792948,1.006738729468127
1.3554841359873535,11:52:40.216932,11:52:24.037088,0,,0.10217435,0.007647887,0.038562626,-0.6306598,0.4307246,-0.6455576,-0.09138727,0.78483427,0.6129302,0.7706598,0.44554612,-0.45560077,,0.07375141,0.0063619316,0.018111914,-0.9040955,-0.29792982,0.30634844,-0.1728499,0.9105839,0.3754459,-0.3908125,0.28648642,-0.874752,,0.10916533,1.3569764,0.456598,0.9959767,0.036803238,-0.081706665,-0.023406506,-0.77328336,-0.6336284,-0.08650198,0.6329916,-0.7693108,,-0.061595783,0.27365488,-0.080681235,0.5580023,-0.40762478,0.72282463,0.4369176,0.8848471,0.1617053,-0.70550436,0.22558288,0.6718452,,-0.0102304965,0.45076078,-0.2916288,0.9460123,0.27027825,-0.17891432,-0.31546572,0.8945269,-0.31670642,0.07444483,0.3560495,0.93149704,,1.4072904434713098,0.13585831672335758,0.17608284844000002,1.294416021129969,-0.5421736310692676,0.17289311436410698,-0.4034598433516697,,-0.8653862776869758,-0.14576658300098763,0.19811459328000003,1.5057834841623694,-0.10917256331258691,0.38853884514888243,0.8328913932186899,,-0.04023202092003429,-0.09250026869413448,0.06086840708,-0.09125690957404896,,1.8365681e-05,5.543232e-06,-8.702278e-06,1.0000001,6.92904e-07,5.662441e-07,-6.891787e-07,1.0,2.9802322e-08,-5.662441e-07,-8.940697e-08,1.0,468,1.413,0,0,0.0,False,-0.2616653671792948,1.0071249710743626
1.3795484969887184,11:52:40.298172,11:52:24.037088,0,,0.10330804,0.009432569,0.03959927,-0.62648976,0.45693764,-0.63144183,-0.08379924,0.7659499,0.63741535,0.7749119,0.4522485,-0.44156873,,0.07378088,0.006356731,0.018106014,-0.9039546,-0.29846367,0.30624446,-0.17344409,0.91049147,0.37539625,-0.39087507,0.28622466,-0.8748097,,0.10916533,1.3569764,0.456598,0.9959767,0.036803238,-0.081706665,-0.023406506,-0.77328336,-0.6336284,-0.08650198,0.6329916,-0.7693108,,-0.062677935,0.2756826,-0.08016916,0.5540601,-0.43558776,0.7094228,0.445436,0.8750515,0.1893982,-0.70328104,0.21106449,0.67885756,,-0.010258965,0.4507507,-0.29162455,0.9458721,0.2708412,-0.17880425,-0.3159636,0.89432746,-0.31677344,0.07411424,0.35612282,0.93149537,,1.4088349900461545,0.14908735813690416,0.17570692434000001,1.313288116043576,-0.5457261800631692,0.18330442395314572,-0.4037865314839383,,-0.8655021186800893,-0.14580519666535874,0.19813403763,1.5051544143319158,-0.10917256331258691,0.38862052388902296,0.8330547372848242,,-0.04023202092003429,-0.09250026869413448,0.06086840708,-0.09125690957404896,,1.8365681e-05,5.543232e-06,-8.702278e-06,1.0000001,6.92904e-07,5.662441e-07,-6.891787e-07,1.0,2.9802322e-08,-5.662441e-07,-8.940697e-08,1.0,476,1.438,0,0,0.0,False,-0.2621419889274632,1.0062076472595527
1.460807206996833,11:52:40.329701,11:52:24.037088,0,,0.10370655,0.010116652,0.03993161,-0.6277842,0.46371996,-0.6251807,-0.0812701,0.7597358,0.645133,0.7741332,0.45581278,-0.43926364,,0.07380855,0.0063263923,0.018127292,-0.90390605,-0.2988173,0.3060431,-0.17384754,0.91039693,0.3754391,-0.39080828,0.28615677,-0.8748618,,0.10916006,1.3569767,0.45659277,0.9959764,0.036793,-0.08171505,-0.023419691,-0.77328384,-0.63362736,-0.08650198,0.6329916,-0.7693108,,-0.0630447,0.27642137,-0.07993213,0.55559105,-0.44305605,0.7035765,0.44682226,0.8727238,0.1967307,-0.7011907,0.20507184,0.6828449,,-0.010282784,0.45074326,-0.291662,0.9458061,0.27121145,-0.17859241,-0.31623575,0.89423716,-0.31675684,0.07379589,0.35606784,0.9315417,,1.4097539952581875,0.15396040258053983,0.17561618404,1.3179012948002355,-0.543539996066922,0.1864224619024367,-0.40345984335166973,,-0.8655175641458377,-0.14582836486398143,0.19814311166,1.5047350344449468,-0.10930919981235236,0.38881362053285995,0.8328913932186899,,-0.04023202092003429,-0.09250026869413448,0.06086840708,-0.09125690957404896,,1.3560057e-05,1.7881393e-06,-4.4107437e-06,1.0000001,-9.49204e-06,-7.8082085e-06,9.495765e-06,1.0,-1.1026859e-06,7.8082085e-06,1.0728836e-06,1.0,484,1.464,0,0,0.0,False,-0.2618441003348577,1.0054351640470816
1.4923381999979028,11:52:40.350100,11:52:24.037088,0,,0.10397651,0.010616466,0.040156007,-0.62940884,0.4675815,-0.6206548,-0.079258025,0.75591296,0.6498567,0.77302194,0.45821732,-0.43871868,,0.0738146,0.00632374,0.01811722,-0.90390664,-0.29886088,0.30599856,-0.17384592,0.9103416,0.37557375,-0.3908075,0.28628698,-0.8748195,,0.10916006,1.3569767,0.45659277,0.9959764,0.036793,-0.08171505,-0.023419691,-0.77328384,-0.63362736,-0.08650198,0.6329916,-0.7693108,,-0.063295156,0.27694586,-0.079744466,0.55744106,-0.4473652,0.6993739,0.44760627,0.87142783,0.2006543,-0.69921964,0.20119119,0.6860131,,-0.010287459,0.45073417,-0.29165566,0.9458066,0.27123603,-0.17855197,-0.31623393,0.8942846,-0.31662455,0.0737963,0.3559298,0.9315944,,1.4104027048196222,0.1574433551068151,0.17557340647000003,1.320836954009019,-0.5410805390711442,0.18776576798166417,-0.40362318741780406,,-0.8655175641458377,-0.14584381032972987,0.19815477827000003,1.5047350344449468,-0.10930919981235236,0.3889769780131411,0.8325647050864213,,-0.04023202092003429,-0.09250026869413448,0.06086840708,-0.09125690957404896,,1.3560057e-05,1.7881393e-06,-4.4107437e-06,1.0000001,-9.49204e-06,-7.8082085e-06,9.495765e-06,1.0,-1.1026859e-06,7.8082085e-06,1.0728836e-06,1.0,496,1.5,0,0,0.0,False,-0.2617249448978165,1.0057248452517584
1.5127196819958044,11:52:40.390931,11:52:24.249464,0,,0.104531616,0.011645198,0.04058346,-0.63264394,0.47325483,-0.6130185,-0.07626036,0.7496443,0.6574328,0.770679,0.46266985,-0.43816733,,0.07384697,0.0063243806,0.01808384,-0.90342116,-0.29907498,0.30722067,-0.1744563,0.91095734,0.37379348,-0.39165723,0.28409627,-0.87515366,,0.10916006,1.3569767,0.45659277,0.9959764,0.036793,-0.08171505,-0.023419691,-0.77328384,-0.63362736,-0.08650198,0.6329916,-0.7693108,,-0.06380736,0.2780028,-0.07933251,0.561063,-0.45381758,0.6922845,0.4483216,0.8696368,0.2067355,-0.69585633,0.19437449,0.6913773,,-0.01031498,0.4507102,-0.29162678,0.94543165,0.2717551,-0.17974474,-0.31728777,0.8933249,-0.31827512,0.07407757,0.35793817,0.9308022,,1.4118623013328506,0.16631677517929905,0.17551507342000003,1.326498582483101,-0.5353418060809957,0.18872204909611323,-0.4028064670871326,,-0.8655330096115862,-0.1458515330626041,0.19819885213000002,1.5041059646144932,-0.10835274431399428,0.3869718715851577,0.83174798475575,,-0.04023202092003429,-0.09250026869413448,0.06086840708,-0.09125690957404896,,1.3560057e-05,1.7881393e-06,-4.4107437e-06,1.0000001,-9.49204e-06,-7.8082085e-06,9.495765e-06,1.0,-1.1026859e-06,7.8082085e-06,1.0728836e-06,1.0,504,1.525,0,0,0.0,False,-0.261427056305211,1.005676565050979
1.5535418590006884,11:52:40.417623,11:52:24.249464,0,,0.10496721,0.012385696,0.04086545,-0.63580567,0.47594547,-0.60764074,-0.0748077,0.7455486,0.66223943,0.76821554,0.46651176,-0.4384196,,0.07385671,0.006324783,0.018073052,-0.9034334,-0.2991844,0.3070783,-0.17465837,0.9109601,0.37369263,-0.39153904,0.2839725,-0.8752467,,0.10916006,1.3569767,0.45659277,0.9959764,0.036793,-0.08171505,-0.023419691,-0.77328384,-0.63362736,-0.08650198,0.6329916,-0.7693108,,-0.064209774,0.27874672,-0.079012804,0.56451017,-0.45709866,0.6873057,0.44779342,0.8690786,0.21019867,-0.6934042,0.18911168,0.69528943,,-0.010323168,0.45070267,-0.29161748,0.94542456,0.27188033,-0.17959262,-0.3173608,0.8932542,-0.31840077,0.073854946,0.35801956,0.93078864,,1.412287051640933,0.16986923230144232,0.17550340681,1.3277567221440083,-0.5331556220847486,0.18889965240034398,-0.404766595880744,,-0.8655561778102088,-0.1458515330626041,0.19821311132000002,1.5038962746710087,-0.10848938081375971,0.386919932008573,0.83174798475575,,-0.04023202092003429,-0.09250026869413448,0.06086840708,-0.09125690957404896,,1.3560057e-05,1.7881393e-06,-4.4107437e-06,1.0000001,-9.49204e-06,-7.8082085e-06,9.495765e-06,1.0,-1.1026859e-06,7.8082085e-06,1.0728836e-06,1.0,512,1.55,0,0,0.0,False,-0.26112916771260597,1.0057731254525375
1.5802316119952593,11:52:40.440907,11:52:24.249464,0,,0.10529886,0.012915134,0.04105164,-0.63826513,0.47878784,-0.60281014,-0.07384646,0.74136525,0.6670264,0.7662666,0.47025505,-0.4378308,,0.07387325,0.006326288,0.018067509,-0.9034106,-0.29919642,0.30713344,-0.174649,0.91095877,0.37370026,-0.39159566,0.28396416,-0.8752241,,0.10916006,1.3569767,0.45659277,0.9959764,0.036793,-0.08171505,-0.023419691,-0.77328384,-0.63362736,-0.08650198,0.6329916,-0.7693108,,-0.06451635,0.2792685,-0.078770466,0.5671822,-0.4605289,0.68280125,0.4472339,0.86838967,0.21419914,-0.69158244,0.18388194,0.69849926,,-0.010338771,0.45069888,-0.2916105,0.9454099,0.27189335,-0.1796502,-0.3173927,0.8932487,-0.3183845,0.07390568,0.35802352,0.9307831,,1.4126268518873988,0.17368426234130924,0.17549822165,1.3290148618049153,-0.5305595285892053,0.1911116854575618,-0.40166305862419266,,-0.8656179596732027,-0.1458515330626041,0.19822607422000002,1.5038962746710087,-0.10848938081375971,0.386919932008573,0.83174798475575,,-0.04023202092003429,-0.09250026869413448,0.06086840708,-0.09125690957404896,,1.3560057e-05,1.7881393e-06,-4.4107437e-06,1.0000001,-9.49204e-06,-7.8082085e-06,9.495765e-06,1.0,-1.1026859e-06,7.8082085e-06,1.0728836e-06,1.0,545,1.651,0,0,0.0,False,-0.2618441003348577,1.005386883846302
1.6034853529999964,11:52:40.540754,11:52:24.399954,0,,0.10683915,0.01496318,0.041698992,-0.65041125,0.4816724,-0.5873304,-0.07118845,0.73117036,0.6784705,0.75623906,0.4830959,-0.4412719,,0.074006185,0.0063369423,0.018080145,-0.9029404,-0.30114475,0.30661157,-0.1766014,0.9104146,0.3741086,-0.3918045,0.28364965,-0.8752326,,0.10916006,1.3569767,0.45659277,0.9959764,0.036793,-0.08171505,-0.023419691,-0.77328384,-0.63362736,-0.08650198,0.6329916,-0.7693108,,-0.06595218,0.28123936,-0.07775055,0.58025974,-0.46517086,0.66851676,0.4426316,0.86914986,0.22058067,-0.68364894,0.16791256,0.710232,,-0.0104720015,0.45070472,-0.2915979,0.9449423,0.27385768,-0.17912579,-0.31903127,0.8927865,-0.3180429,0.07282259,0.35767892,0.9310009,,1.4125805154901536,0.18925329181574582,0.17548525875,1.330902071296276,-0.5194919721082046,0.1913165328940352,-0.40443990774847544,,-0.8662743919675117,-0.14585925579547832,0.19828051840000002,1.5017993752361634,-0.1087626538132906,0.3877145189969498,0.8322380169541528,,-0.04023202092003429,-0.09250026869413448,0.06086840708,-0.09125690957404896,,1.3560057e-05,1.7881393e-06,-4.4107437e-06,1.0000001,-9.49204e-06,-7.8082085e-06,9.495765e-06,1.0,-1.1026859e-06,7.8082085e-06,1.0728836e-06,1.0,553,1.676,0,0,0.0,False,-0.2602950796533112,1.006642169066568
1.703293065991602,11:52:40.564832,11:52:24.399954,0,,0.10725011,0.01542826,0.04183887,-0.6551142,0.4790105,-0.5842727,-0.07348329,0.729265,0.680274,0.751948,0.48859137,-0.44255254,,0.074048735,0.0063355416,0.018083125,-0.9028679,-0.30129606,0.30667636,-0.17656766,0.9102695,0.37447727,-0.39198664,0.28395435,-0.8750522,,0.10916006,1.3569767,0.45659277,0.9959764,0.036793,-0.08171505,-0.023419691,-0.77328384,-0.63362736,-0.08650198,0.6329916,-0.7693108,,-0.066338494,0.28168228,-0.07750699,0.58511657,-0.4631067,0.66571075,0.43807602,0.87132275,0.22110182,-0.68244267,0.16226158,0.7127013,,-0.010514587,0.45070234,-0.29159632,0.94489574,0.27396396,-0.17920877,-0.31913126,0.8928896,-0.31765297,0.07298818,0.35734004,0.9311181,,1.4123102198395556,0.19309149005423543,0.17547488843000003,1.32691796237007,-0.516485969113365,0.19229584609861758,-0.4031331552194012,,-0.8664751830222416,-0.1458901467269752,0.19829866646000002,1.5017993752361634,-0.1087626538132906,0.3881229126976526,0.8330547372848242,,-0.04023202092003429,-0.09250026869413448,0.06086840708,-0.09125690957404896,,1.3560057e-05,1.7881393e-06,-4.4107437e-06,1.0000001,-9.49204e-06,-7.8082085e-06,9.495765e-06,1.0,-1.1026859e-06,7.8082085e-06,1.0728836e-06,1.0,561,1.701,0,0,0.0,False,-0.26106958999408425,1.0062076472595527
1.7274491009884514,11:52:40.595751,11:52:24.399954,0,,0.10764359,0.015870959,0.04198785,-0.65864205,0.47767907,-0.5813893,-0.07430065,0.72759175,0.68197477,0.7487792,0.4923748,-0.44373065,,0.074077144,0.006328553,0.018076628,-0.90269417,-0.3020166,0.306479,-0.17736699,0.91012174,0.37445864,-0.39202595,0.28366232,-0.87512934,,0.10916006,1.3569767,0.45659277,0.9959764,0.036793,-0.08171505,-0.023419691,-0.77328384,-0.63362736,-0.08650198,0.6329916,-0.7693108,,-0.06670976,0.28211433,-0.07728676,0.58882105,-0.46220988,0.6630624,0.43537298,0.872547,0.2216127,-0.6809847,0.15818922,0.7150077,,-0.010541956,0.45069057,-0.29159293,0.94471663,0.2747151,-0.17900307,-0.31977028,0.89264345,-0.3177021,0.072508365,0.35737833,0.93114084,,1.4120553696547062,0.19672889723799517,0.17545544408000002,1.325240442822194,-0.514026512117587,0.1921689348553149,-0.4029698111532669,,-0.8665833012824807,-0.14593648312422056,0.19831811081000003,1.5009606154622253,-0.1087626538132906,0.3882862701779337,0.8327280491525556,,-0.04023202092003429,-0.09250026869413448,0.06086840708,-0.09125690957404896,,1.3560057e-05,1.7881393e-06,-4.4107437e-06,1.0000001,-9.49204e-06,-7.8082085e-06,9.495765e-06,1.0,-1.1026859e-06,7.8082085e-06,1.0728836e-06,1.0,573,1.738,0,0,0.0,False,-0.2604738128088746,1.0063524878618912
1.7583752200007439,11:52:40.629389,11:52:24.399954,0,,0.10801981,0.01626724,0.042137682,-0.6607967,0.47803813,-0.5786428,-0.0733341,0.7261335,0.68363154,0.7469739,0.49417567,-0.4447702,,0.074088424,0.006319016,0.018067867,-0.90268815,-0.30197343,0.3065394,-0.1773577,0.9101731,0.37433818,-0.3920441,0.2835434,-0.87515974,,0.10916006,1.3569767,0.45659277,0.9959764,0.036793,-0.08171505,-0.023419691,-0.77328384,-0.63362736,-0.08650198,0.6329916,-0.7693108,,-0.067067295,0.2825119,-0.07709933,0.59117883,-0.46281776,0.66053563,0.43491226,0.8726321,0.22218136,-0.6792341,0.15592612,0.7171667,,-0.010552085,0.45067677,-0.2915915,0.94471323,0.2746893,-0.17906062,-0.3197757,0.89260054,-0.31781718,0.07252864,0.35750535,0.93109053,,1.4117232921411147,0.20003422690816325,0.17542174054,1.3262888925396166,-0.5122502376206363,0.1909655383276831,-0.40313315521940124,,-0.8666064694811033,-0.14599054225434013,0.19833107371000003,1.5009606154622253,-0.1087626538132906,0.3882045914377932,0.8325647050864213,,-0.04023202092003429,-0.09250026869413448,0.06086840708,-0.09125690957404896,,1.3560057e-05,1.7881393e-06,-4.4107437e-06,1.0000001,-9.49204e-06,-7.8082085e-06,9.495765e-06,1.0,-1.1026859e-06,7.8082085e-06,1.0728836e-06,1.0,581,1.763,0,0,0.0,False,-0.26059296824591627,1.0072215314759216
1.7920222539978568,11:52:40.654360,11:52:24.549414,0,,0.1083706,0.016600758,0.042282373,-0.6615594,0.48050228,-0.575723,-0.0713962,0.7238936,0.6862074,0.7464864,0.4950713,-0.4445926,,0.07409639,0.0063110143,0.018058807,-0.90251625,-0.3029197,0.30611166,-0.17837805,0.9099063,0.374502,-0.39197695,0.28339046,-0.8752394,,0.10916006,1.3569767,0.45659277,0.9959764,0.036793,-0.08171505,-0.023419691,-0.77328384,-0.63362736,-0.08650198,0.6329916,-0.7693108,,-0.06740367,0.2828588,-0.07695184,0.59211624,-0.46550143,0.65780455,0.43605143,0.8715356,0.22424284,-0.67768544,0.15405878,0.71903294,,-0.010558861,0.4506642,-0.2915891,0.9445181,0.27564332,-0.17862357,-0.3205105,0.89237404,-0.31771308,0.07182355,0.35733646,0.93121,,1.4112830963672838,0.20292252900312321,0.17537377781000002,1.3292245517483998,-0.5115670551218091,0.19057180628948212,-0.4028064670871327,,-0.8666141922139776,-0.14602915591871127,0.19834274032000002,1.4999121657448027,-0.1087626538132906,0.38861298513849596,0.8333814254170927,,-0.04023202092003429,-0.09250026869413448,0.06086840708,-0.09125690957404896,,1.3560057e-05,1.7881393e-06,-4.4107437e-06,1.0000001,-9.49204e-06,-7.8082085e-06,9.495765e-06,1.0,-1.1026859e-06,7.8082085e-06,1.0728836e-06,1.0,593,1.799,0,0,0.0,False,-0.26106958999408425,1.0068835700704653
1.8169768189982278,11:52:40.683498,11:52:24.549414,0,,0.10858767,0.016776353,0.04235351,-0.6619691,0.48285118,-0.5732816,-0.06860131,0.7226127,0.68784064,0.7463852,0.4946571,-0.44522306,,0.07409869,0.0063076317,0.018052608,-0.9024512,-0.30334595,0.3058812,-0.1787878,0.90973836,0.3747146,-0.39194,0.2834738,-0.8752289,,0.10916006,1.3569767,0.45659277,0.9959764,0.036793,-0.08171505,-0.023419691,-0.77328384,-0.63362736,-0.08650198,0.6329916,-0.7693108,,-0.067612536,0.28303814,-0.07686691,0.5927334,-0.46789542,0.65554637,0.43809077,0.87030077,0.22506227,-0.6758281,0.1537869,0.720837,,-0.010560352,0.4506574,-0.2915865,0.94444233,0.27605167,-0.17839342,-0.32079872,0.89233613,-0.31752864,0.07153258,0.35711586,0.931317,,1.4109046824564468,0.20449024377659078,0.17534137056000001,1.3325795908441522,-0.5104739631236854,0.18976214180005122,-0.40264312302099836,,-0.8666064694811033,-0.1460446013844597,0.19834922177000003,1.4994927858578337,-0.1087626538132906,0.3889397000990582,0.8333814254170927,,-0.04023202092003429,-0.09250026869413448,0.06086840708,-0.09125690957404896,,1.3560057e-05,1.7881393e-06,-4.4107437e-06,1.0000001,-9.49204e-06,-7.8082085e-06,9.495765e-06,1.0,-1.1026859e-06,7.8082085e-06,1.0728836e-06,1.0,622,1.888,0,0,0.0,False,-0.2607717014014801,1.0071249710743626
1.8461359289940447,11:52:40.771006,11:52:24.549414,0,,0.109409526,0.017021418,0.0425269,-0.6642952,0.48647478,-0.5674984,-0.06300798,0.7200787,0.69102585,0.74481004,0.494802,-0.44769296,,0.07415203,0.0063080788,0.018051296,-0.902261,-0.30393386,0.30585846,-0.17936426,0.9096031,0.37476733,-0.39211428,0.28327784,-0.8752142,,0.10916006,1.3569767,0.45659277,0.9959764,0.036793,-0.08171505,-0.023419691,-0.77328384,-0.63362736,-0.08650198,0.6329916,-0.7693108,,-0.0684259,0.28333777,-0.076747626,0.5955767,-0.47169217,0.65022683,0.44126803,0.86849064,0.22584626,-0.6712458,0.15241554,0.72539544,,-0.01061301,0.45065272,-0.29157928,0.9442687,0.2766586,-0.17837207,-0.3213605,0.8921521,-0.3174777,0.071302086,0.357106,0.9313384,,1.4081090531559775,0.20854467853555866,0.17509637175,1.3386605992052034,-0.5086976886267348,0.1880686728315762,-0.40345984335166973,,-0.8668458742002043,-0.14606776958308237,0.19837644386000003,1.49886371602738,-0.1087626538132906,0.38910305757933933,0.8330547372848242,,-0.04023202092003429,-0.09250026869413448,0.06086840708,-0.09125690957404896,,1.3560057e-05,1.7881393e-06,-4.4107437e-06,1.0000001,-9.49204e-06,-7.8082085e-06,9.495765e-06,1.0,-1.1026859e-06,7.8082085e-06,1.0728836e-06,1.0,626,1.901,0,0,0.0,False,-0.26112916771260597,1.0071249710743626
1.9336242369899992,11:52:40.800986,11:52:24.683059,0,,0.109610446,0.01696819,0.042540267,-0.6653773,0.4859558,-0.5666747,-0.062436163,0.7202145,0.69093615,0.7438918,0.4951142,-0.44887313,,0.07417328,0.006309539,0.018055946,-0.90213484,-0.30461174,0.30555624,-0.18016717,0.90946364,0.37472063,-0.39203662,0.2829973,-0.8753398,,0.10916006,1.3569767,0.45659277,0.9959764,0.036793,-0.08171505,-0.023419691,-0.77328384,-0.63362736,-0.08650198,0.6329916,-0.7693108,,-0.06863056,0.2833067,-0.07677064,0.59676796,-0.4711917,0.64949703,0.4410941,0.8687976,0.22500394,-0.67030144,0.15221415,0.72631043,,-0.010634674,0.45065522,-0.2915794,0.94412076,0.27736604,-0.17805634,-0.32192168,0.89191633,-0.31757152,0.0707278,0.35714605,0.93136686,,1.4070742069508315,0.20900804250801214,0.17500303887000002,1.3386605992052034,-0.5082877791274385,0.18773441912048683,-0.40313315521940124,,-0.8669617151933177,-0.14606776958308237,0.19838292531,1.498024956253442,-0.10889929031305604,0.3892144754830357,0.8330547372848242,,-0.04023202092003429,-0.09250026869413448,0.06086840708,-0.09125690957404896,,1.3560057e-05,1.7881393e-06,-4.4107437e-06,1.0000001,-9.49204e-06,-7.8082085e-06,9.495765e-06,1.0,-1.1026859e-06,7.8082085e-06,1.0728836e-06,1.0,638,1.939,0,0,0.0,False,-0.26148663402373185,1.0070284106728038
1.9636222539993469,11:52:40.833213,11:52:24.683059,0,,0.10975841,0.016900897,0.04254955,-0.6663118,0.4855243,-0.5659461,-0.06204629,0.7202411,0.69094354,0.7430874,0.49549857,-0.44978023,,0.074193045,0.006311342,0.018059641,-0.9020287,-0.3049901,0.30549213,-0.18056199,0.9093785,0.3747374,-0.3920992,0.28286362,-0.875355,,0.10916006,1.3569767,0.45659277,0.9959764,0.036793,-0.08171505,-0.023419691,-0.77328384,-0.63362736,-0.08650198,0.6329916,-0.7693108,,-0.06878326,0.28326225,-0.07680553,0.5977902,-0.4707919,0.64884657,0.44085816,0.8690698,0.22441418,-0.66954535,0.1518967,0.7270739,,-0.01065473,0.45065746,-0.29157874,0.944018,0.2777577,-0.17799053,-0.32226726,0.89179426,-0.3175639,0.07052511,0.35714656,0.93138206,,1.4062478745332894,0.20922427902849042,0.17492007631,1.338450909261719,-0.5078778696281421,0.18780855911010041,-0.40313315521940124,,-0.8670621107206826,-0.14606776958308237,0.19838940676000003,1.497605576366473,-0.10889929031305604,0.38929615422317626,0.8332180813509584,,-0.04023202092003429,-0.09250026869413448,0.06086840708,-0.09125690957404896,,1.3560057e-05,1.7881393e-06,-4.4107437e-06,1.0000001,-9.49204e-06,-7.8082085e-06,9.495765e-06,1.0,-1.1026859e-06,7.8082085e-06,1.0728836e-06,1.0,646,1.963,0,0,0.0,False,-0.2616653671792948,1.0066904492673474
1.9958449299883796,11:52:40.853623,11:52:24.683059,0,,0.10982602,0.016855732,0.042560548,-0.6668066,0.4851036,-0.565724,-0.06211281,0.7203073,0.6908685,0.7426379,0.49581432,-0.4501745,,0.07420255,0.006312549,0.018060595,-0.9020463,-0.30485705,0.30557302,-0.18034995,0.90937316,0.37485242,-0.39215627,0.28302413,-0.8752775,,0.10916006,1.3569767,0.45659277,0.9959764,0.036793,-0.08171505,-0.023419691,-0.77328384,-0.63362736,-0.08650198,0.6329916,-0.7693108,,-0.06885463,0.28323552,-0.07683595,0.5983136,-0.4703945,0.6486523,0.44051197,0.8693267,0.22409874,-0.6693056,0.1516578,0.7273444,,-0.010664244,0.45065823,-0.29157755,0.9440465,0.277604,-0.1780794,-0.32214433,0.8918852,-0.31743306,0.0707057,0.35703883,0.93140966,,1.405854015156704,0.20927833815861,0.17486952100000003,1.33803152937475,-0.5077412331283767,0.1879421774268257,-0.4031331552194012,,-0.8671084471179279,-0.14606776958308237,0.19839329563000002,1.4978152663099575,-0.10889929031305604,0.38937783296331685,0.8333814254170928,,-0.04023202092003429,-0.09250026869413448,0.06086840708,-0.09125690957404896,,1.3560057e-05,1.7881393e-06,-4.4107437e-06,1.0000001,-9.49204e-06,-7.8082085e-06,9.495765e-06,1.0,-1.1026859e-06,7.8082085e-06,1.0728836e-06,1.0,654,1.988,0,0,0.0,False,-0.261427056305211,1.0072215314759216
2.016249460997642,11:52:40.883535,11:52:24.683059,0,,0.109910965,0.016792461,0.04258497,-0.6674567,0.48453486,-0.5654447,-0.061839998,0.7206539,0.6905316,0.74207646,0.49586695,-0.45104152,,0.07421714,0.0063148737,0.01806435,-0.9018788,-0.3055431,0.30538216,-0.18115911,0.9092632,0.37472892,-0.39216858,0.28263724,-0.87539697,,0.10916006,1.3569767,0.45659277,0.9959764,0.036793,-0.08171505,-0.023419691,-0.77328384,-0.63362736,-0.08650198,0.6329916,-0.7693108,,-0.06894561,0.283204,-0.07688636,0.59902495,-0.46980834,0.6484205,0.44034776,0.86962175,0.22327526,-0.66877717,0.15178308,0.7278042,,-0.010679182,0.4506613,-0.2915772,0.9438697,0.27833447,-0.17787601,-0.32277253,0.89160246,-0.31758922,0.070198655,0.35717633,0.9313953,,1.4053829284513764,0.20932467455585532,0.17479303989000003,1.3378218394312653,-0.5073313236290804,0.1876079237157364,-0.4031331552194012,,-0.8671856744466702,-0.14606004685020815,0.19839718450000002,1.4969765065360192,-0.10889929031305604,0.38937783296331685,0.8333814254170928,,-0.04023202092003429,-0.09250026869413448,0.06086840708,-0.09125690957404896,,1.3560057e-05,1.7881393e-06,-4.4107437e-06,1.0000001,-9.49204e-06,-7.8082085e-06,9.495765e-06,1.0,-1.1026859e-06,7.8082085e-06,1.0728836e-06,1.0,662,2.012,0,0,0.0,False,-0.26101001227556386,1.0067870096689064
2.0461681629967643,11:52:40.905744,11:52:24.683059,0,,0.109946415,0.01676011,0.042604893,-0.6676664,0.48457867,-0.5651597,-0.06168297,0.7205342,0.6906705,0.741901,0.49599808,-0.45118615,,0.07422197,0.0063120127,0.018065542,-0.9018014,-0.30587503,0.30527836,-0.18156393,0.9092159,0.37464765,-0.39215928,0.2824302,-0.875468,,0.10916006,1.3569767,0.45659277,0.9959764,0.036793,-0.08171505,-0.023419691,-0.77328384,-0.63362736,-0.08650198,0.6329916,-0.7693108,,-0.06898479,0.28319275,-0.076918595,0.5992589,-0.46987113,0.64815885,0.4403505,0.8696178,0.2232853,-0.6685658,0.15161139,0.7280342,,-0.01068416,0.45065954,-0.2915794,0.94378555,0.27869067,-0.17776479,-0.32307616,0.8914571,-0.31768867,0.06993281,0.35726154,0.9313826,,1.4051975828623948,0.20933239728872957,0.17475026232000002,1.3378218394312653,-0.5071946871293149,0.18782322077260225,-0.4028064670871326,,-0.8672088426452929,-0.1460754923159566,0.19839848079000003,1.4965571266490503,-0.10889929031305604,0.38937783296331685,0.8330547372848242,,-0.04023202092003429,-0.09250026869413448,0.06086840708,-0.09125690957404896,,1.3560057e-05,1.7881393e-06,-4.4107437e-06,1.0000001,-9.49204e-06,-7.8082085e-06,9.495765e-06,1.0,-1.1026859e-06,7.8082085e-06,1.0728836e-06,1.0,687,2.089,0,0,0.0,False,-0.2611887454311268,1.0070284106728038
2.0683342779957457,11:52:40.975171,11:52:24.683059,0,,0.110005096,0.016681418,0.04264298,-0.6679393,0.4850055,-0.5644704,-0.061647356,0.71981215,0.6914261,0.7416581,0.49662873,-0.45089158,,0.074241124,0.006301567,0.018084913,-0.9015465,-0.306876,0.3050266,-0.18276721,0.909078,0.3743972,-0.3921865,0.28178757,-0.87566286,,0.10916006,1.3569767,0.45659277,0.9959764,0.036793,-0.08171505,-0.023419691,-0.77328384,-0.63362736,-0.08650198,0.6329916,-0.7693108,,-0.06905189,0.28315854,-0.07699218,0.5995525,-0.47039858,0.6475044,0.44021738,0.8694887,0.22404917,-0.66839015,0.15071344,0.7283818,,-0.010705937,0.45066294,-0.2915986,0.94351816,0.2797674,-0.1774928,-0.32401663,0.89101005,-0.31798482,0.06918608,0.35753506,0.9313334,,1.4048346144173063,0.20924744722711308,0.17466341089,1.3376121494877808,-0.5071946871293149,0.1891300806148512,-0.4024797789548641,,-0.8673401291041547,-0.1461372741789504,0.19839070305000003,1.4952989869881432,-0.10889929031305604,0.38937783296331685,0.8330547372848242,,-0.04023202092003429,-0.09250026869413448,0.06086840708,-0.09125690957404896,,1.3560057e-05,1.7881393e-06,-4.4107437e-06,1.0000001,-9.49204e-06,-7.8082085e-06,9.495765e-06,1.0,-1.1026859e-06,7.8082085e-06,1.0728836e-06,1.0,691,2.101,0,0,0.0,False,-0.2612483231496481,1.0060145264564349
2.137806642000214,11:52:40.997523,11:52:24.683059,0,,0.11001858,0.016649187,0.042639107,-0.66800326,0.48526114,-0.564175,-0.061547577,0.71951324,0.691746,0.7416088,0.49681216,-0.45077056,,0.0742618,0.0063015968,0.018105656,-0.9015799,-0.30659497,0.3052103,-0.1825374,0.9092282,0.37414446,-0.39221662,0.28160882,-0.8757069,,0.10916006,1.3569767,0.45659277,0.9959764,0.036793,-0.08171505,-0.023419691,-0.77328384,-0.63362736,-0.08650198,0.6329916,-0.7693108,,-0.06906731,0.28313172,-0.07700887,0.5996273,-0.47068912,0.64722395,0.4402601,0.8693843,0.22437017,-0.66829497,0.15040842,0.7285322,,-0.010729228,0.45067495,-0.2916116,0.94355893,0.27951556,-0.17767267,-0.3238614,0.89098334,-0.31821766,0.0693566,0.35779843,0.9312196,,1.4046801597598217,0.20913932896687396,0.17464655912000002,1.3376121494877808,-0.5071946871293149,0.1897018317958352,-0.40231643488872976,,-0.8674945837616391,-0.14615271964469884,0.19838292531,1.4955086769316277,-0.10903592681282148,0.38908085716631047,0.8319113288218842,,-0.04023202092003429,-0.09250026869413448,0.06086840708,-0.09125690957404896,,1.3560057e-05,1.7881393e-06,-4.4107437e-06,1.0000001,-9.49204e-06,-7.8082085e-06,9.495765e-06,1.0,-1.1026859e-06,7.8082085e-06,1.0728836e-06,1.0,707,2.152,0,0,0.0,False,-0.2611887454311268,1.0059662462556558
2.1601583500014385,11:52:41.035347,11:52:24.901809,0,,0.11001879,0.016602933,0.042624444,-0.668095,0.48559797,-0.56377643,-0.061567754,0.71901095,0.6922662,0.74152446,0.4972101,-0.45047045,,0.074296,0.006300688,0.01814124,-0.9012796,-0.30753434,0.30515233,-0.183727,0.90919363,0.37364584,-0.39235148,0.28069457,-0.87593997,,0.10916006,1.3569767,0.45659277,0.9959764,0.036793,-0.08171505,-0.023419691,-0.77328384,-0.63362736,-0.08650198,0.6329916,-0.7693108,,-0.069069676,0.28308722,-0.07702808,0.5997238,-0.47109237,0.646841,0.44018933,0.8692677,0.22496001,-0.6682549,0.14981863,0.7286904,,-0.010767954,0.45069495,-0.29163477,0.9432613,0.28056973,-0.17759131,-0.32486585,0.8904307,-0.31874022,0.0687039,0.3583487,0.9310564,,1.4045257051023374,0.2089076469806472,0.17463489251000003,1.3374024595442964,-0.5071946871293149,0.19076365541766246,-0.40215309082259554,,-0.8677417112136143,-0.14617588784332153,0.19836866612,1.4942505372707204,-0.10903592681282148,0.3887541422057482,0.8322380169541528,,-0.04023202092003429,-0.09250026869413448,0.06086840708,-0.09125690957404896,,1.3560057e-05,1.7881393e-06,-4.4107437e-06,1.0000001,-9.49204e-06,-7.8082085e-06,9.495765e-06,1.0,-1.1026859e-06,7.8082085e-06,1.0728836e-06,1.0,711,2.164,0,0,0.0,False,-0.2612483231496481,1.0057731254525375
2.197985068996786,11:52:41.064998,11:52:24.901809,0,,0.110002846,0.016546905,0.042605758,-0.66791844,0.48692283,-0.56284213,-0.061111897,0.7178328,0.6935282,0.74172115,0.49761665,-0.44969702,,0.07433073,0.0062998533,0.018190533,-0.9011407,-0.307693,0.30540222,-0.18388529,0.90923405,0.3734696,-0.3925961,0.28038958,-0.87592804,,0.10916006,1.3569767,0.45659277,0.9959764,0.036793,-0.08171505,-0.023419691,-0.77328384,-0.63362736,-0.08650198,0.6329916,-0.7693108,,-0.06905634,0.28303272,-0.07705241,0.5995653,-0.4725273,0.64594066,0.4406624,0.8686486,0.22642057,-0.66808534,0.14888786,0.72903657,,-0.010809068,0.45072398,-0.291668,0.9431546,0.28076893,-0.17784321,-0.3251561,0.8902732,-0.3188842,0.06879628,0.3585839,0.930959,,1.404409864109224,0.20855240126843289,0.17462581848000003,1.3378218394312653,-0.5071946871293149,0.19264226644089544,-0.40264312302099836,,-0.8680274523299607,-0.1462067787748184,0.19834274032000002,1.494040847327236,-0.10903592681282148,0.3885907847254671,0.8319113288218842,,-0.04023202092003429,-0.09250026869413448,0.06086840708,-0.09125690957404896,,1.3560057e-05,1.7881393e-06,-4.4107437e-06,1.0000001,-9.49204e-06,-7.8082085e-06,9.495765e-06,1.0,-1.1026859e-06,7.8082085e-06,1.0728836e-06,1.0,723,2.201,0,0,0.0,True,-0.26112916771260597,1.0063042076611117
2.2275689399975818,11:52:41.087009,11:52:24.901809,0,,0.109984025,0.016503781,0.04259059,-0.66780806,0.48778063,-0.56223017,-0.06062451,0.71719307,0.6942326,0.7418606,0.497699,-0.44937575,,0.07435715,0.0062961727,0.018218428,-0.90093297,-0.3078028,0.30590454,-0.18405882,0.90940475,0.37296826,-0.3929917,0.27971488,-0.8759664,,0.10916006,1.3569767,0.45659277,0.9959764,0.036793,-0.08171505,-0.023419691,-0.77328384,-0.63362736,-0.08650198,0.6329916,-0.7693108,,-0.06903952,0.28299022,-0.07707126,0.59947944,-0.4734329,0.6453571,0.44112152,0.8682216,0.22716323,-0.66785944,0.1485012,0.7293224,,-0.010839085,0.45073745,-0.29168817,0.9429997,0.28097194,-0.17834334,-0.3255623,0.8899668,-0.3193248,0.06899835,0.35918504,0.9307123,,1.4043558049791045,0.20825121468633812,0.17462063332000002,1.3382412193182343,-0.5070580506295495,0.19367435089916682,-0.4026431230209983,,-0.8682050751860678,-0.14624539243918955,0.19833107371000003,1.4938311573837515,-0.1087626538132906,0.38804123395751206,0.8312579525573471,,-0.04023202092003429,-0.09250026869413448,0.06086840708,-0.09125690957404896,,1.3560057e-05,1.7881393e-06,-4.4107437e-06,1.0000001,-9.49204e-06,-7.8082085e-06,9.495765e-06,1.0,-1.1026859e-06,7.8082085e-06,1.0728836e-06,1.0,731,2.225,0,0,0.0,True,-0.26148663402373185,1.0057731254525375
2.2496476429951144,11:52:41.113492,11:52:24.901809,0,,0.109952874,0.016448975,0.042567253,-0.6683105,0.48757994,-0.56180686,-0.059764564,0.7176014,0.69388497,0.74147785,0.49730676,-0.45044065,,0.074385315,0.0062927604,0.018248707,-0.90066725,-0.30807602,0.3064112,-0.18423101,0.9094243,0.37283555,-0.39351946,0.27935022,-0.8758458,,0.10916006,1.3569767,0.45659277,0.9959764,0.036793,-0.08171505,-0.023419691,-0.77328384,-0.63362736,-0.08650198,0.6329916,-0.7693108,,-0.069010615,0.28293353,-0.07709295,0.60007197,-0.4731722,0.6449974,0.44151738,0.86827135,0.22620189,-0.66706526,0.14904016,0.72993904,,-0.010871136,0.45075256,-0.2917097,0.9428056,0.28129244,-0.17886367,-0.3260588,0.8897634,-0.31938484,0.06930582,0.35943788,0.9305918,,1.4043558049791045,0.20783418711113,0.17461544816000002,1.338450909261719,-0.505964958631426,0.19335475885057937,-0.40280646708713264,,-0.8683904207750492,-0.14628400610356065,0.19831811081000003,1.493621467440267,-0.10835274431399428,0.38787033772670393,0.8315846406896157,,-0.04023202092003429,-0.09250026869413448,0.06086840708,-0.09125690957404896,,1.3560057e-05,1.7881393e-06,-4.4107437e-06,1.0000001,-9.49204e-06,-7.8082085e-06,9.495765e-06,1.0,-1.1026859e-06,7.8082085e-06,1.0728836e-06,1.0,756,2.302,0,0,0.0,True,-0.2612483231496481,1.0055800046494199
2.2761293449875666,11:52:41.188692,11:52:25.086447,0,,0.10992337,0.016402364,0.04255727,-0.6682032,0.48776308,-0.56177557,-0.05967486,0.71752423,0.6939725,0.7415818,0.49723852,-0.4503448,,0.074390404,0.0062852353,0.018258661,-0.9006711,-0.30784276,0.30663428,-0.1838103,0.90940607,0.3730876,-0.3937074,0.27966666,-0.87566036,,0.10916006,1.3569767,0.45659277,0.9959764,0.036793,-0.08171505,-0.023419691,-0.77328384,-0.63362736,-0.08650198,0.6329916,-0.7693108,,-0.068983845,0.2828918,-0.07711912,0.5999633,-0.4733543,0.6449649,0.44165343,0.86816853,0.22633089,-0.6670729,0.14906071,0.72992784,,-0.010877651,0.45075306,-0.29172152,0.9428414,0.2810181,-0.17910595,-0.32586628,0.88993925,-0.31909144,0.069722936,0.3592172,0.9306459,,1.4043558049791045,0.20750210959753834,0.17460767042000003,1.338450909261719,-0.505964958631426,0.1937631525512822,-0.4029698111532669,,-0.8684290344394203,-0.146330342500806,0.19831162936000002,1.494040847327236,-0.10821610781422884,0.3880856347835697,0.8319113288218842,,-0.04023202092003429,-0.09250026869413448,0.06086840708,-0.09125690957404896,,1.3560057e-05,1.7881393e-06,-4.4107437e-06,1.0000001,-9.49204e-06,-7.8082085e-06,9.495765e-06,1.0,-1.1026859e-06,7.8082085e-06,1.0728836e-06,1.0,764,2.327,0,0,0.0,True,-0.2611887454311268,1.0050972026416254
2.351277989000664,11:52:41.216776,11:52:25.086447,0,,0.10992603,0.016407818,0.042559803,-0.66821074,0.48781696,-0.56171983,-0.059688866,0.7174421,0.6940562,0.7415738,0.49730417,-0.45028532,,0.07438835,0.006285146,0.01825884,-0.9006221,-0.30785224,0.3067687,-0.1838125,0.9094385,0.3730076,-0.39381844,0.2795509,-0.87564737,,0.10916006,1.3569767,0.45659277,0.9959764,0.036793,-0.08171505,-0.023419691,-0.77328384,-0.63362736,-0.08650198,0.6329916,-0.7693108,,-0.068986304,0.2828976,-0.07711717,0.59997046,-0.4734191,0.6449107,0.4416377,0.8681499,0.22643316,-0.66707695,0.14896367,0.729944,,-0.01087564,0.45075324,-0.29172194,0.9428079,0.28104368,-0.1792421,-0.3259447,0.8898883,-0.31915343,0.06980939,0.35932338,0.9305984,,1.4043635277119786,0.20754072326190948,0.17460767042000003,1.338450909261719,-0.505964958631426,0.19384483129142274,-0.4031331552194012,,-0.8684135889736719,-0.146330342500806,0.19831033307,1.494040847327236,-0.10807947131446338,0.3879742168798733,0.8319113288218842,,-0.04023202092003429,-0.09250026869413448,0.06086840708,-0.09125690957404896,,1.3560057e-05,1.7881393e-06,-4.4107437e-06,1.0000001,-9.49204e-06,-7.8082085e-06,9.495765e-06,1.0,-1.1026859e-06,7.8082085e-06,1.0728836e-06,1.0,772,2.352,0,0,0.0,True,-0.26178452261633733,1.0048075214369485
2.3794104059925303,11:52:41.240607,11:52:25.086447,0,,0.10993073,0.016413122,0.04256317,-0.6682257,0.48786932,-0.5616566,-0.059701353,0.7173567,0.6941435,0.7415594,0.49737614,-0.4502297,,0.07439009,0.0062868893,0.018261343,-0.90061605,-0.30785838,0.30678034,-0.18381095,0.9094351,0.37301657,-0.39383304,0.27955502,-0.8756395,,0.10916006,1.3569767,0.45659277,0.9959764,0.036793,-0.08171505,-0.023419691,-0.77328384,-0.63362736,-0.08650198,0.6329916,-0.7693108,,-0.06899086,0.28290382,-0.077115715,0.5999856,-0.47348312,0.6448496,0.4416187,0.8681328,0.22653554,-0.6670759,0.14885959,0.72996616,,-0.010877678,0.45075607,-0.29172245,0.94280386,0.2810492,-0.17925458,-0.3259536,0.88988894,-0.3191425,0.069821924,0.35931745,0.93059975,,1.4043635277119786,0.20758705965915483,0.17460637413000002,1.338450909261719,-0.505964958631426,0.19392651003156328,-0.4029698111532669,,-0.8684290344394203,-0.1463226197679318,0.19830903678000003,1.494040847327236,-0.10807947131446338,0.3879742168798733,0.8319113288218842,,-0.04023202092003429,-0.09250026869413448,0.06086840708,-0.09125690957404896,,1.3560057e-05,1.7881393e-06,-4.4107437e-06,1.0000001,-9.49204e-06,-7.8082085e-06,9.495765e-06,1.0,-1.1026859e-06,7.8082085e-06,1.0728836e-06,1.0,780,2.377,0,0,0.0,True,-0.26154621174225356,1.0055317244486406
2.4032106609956827,11:52:41.267177,11:52:25.086447,0,,0.10993025,0.016410649,0.04256177,-0.6682257,0.48786455,-0.56166077,-0.059693635,0.7173677,0.69413275,0.74156,0.49736482,-0.4502411,,0.07438959,0.0062853694,0.018262535,-0.9006164,-0.3078552,0.30678248,-0.18381014,0.9094381,0.3730095,-0.39383256,0.27954873,-0.8756417,,0.10916006,1.3569767,0.45659277,0.9959764,0.036793,-0.08171505,-0.023419691,-0.77328384,-0.63362736,-0.08650198,0.6329916,-0.7693108,,-0.06899045,0.28290102,-0.07711635,0.5999861,-0.47347668,0.6448539,0.44162494,0.8681337,0.22651993,-0.6670713,0.14887477,0.72996724,,-0.0108773755,0.45075577,-0.29172438,0.9428042,0.2810469,-0.1792565,-0.32595265,0.8898868,-0.31914937,0.069822066,0.35932449,0.930597,,1.4043558049791045,0.20757161419340636,0.17460637413000002,1.338450909261719,-0.505964958631426,0.19392651003156328,-0.4029698111532669,,-0.8684290344394203,-0.146330342500806,0.19830774049000002,1.494040847327236,-0.10807947131446338,0.3879742168798733,0.8319113288218842,,-0.04023202092003429,-0.09250026869413448,0.06086840708,-0.09125690957404896,,1.3560057e-05,1.7881393e-06,-4.4107437e-06,1.0000001,-9.49204e-06,-7.8082085e-06,9.495765e-06,1.0,-1.1026859e-06,7.8082085e-06,1.0728836e-06,1.0,788,2.402,0,0,0.0,True,-0.2621419889274632,1.0050972026416254
2.4298027799959527,11:52:41.288111,11:52:25.086447,0,,0.10992837,0.016407043,0.042561725,-0.66821826,0.48786134,-0.56167245,-0.059687376,0.7173821,0.6941184,0.74156725,0.4973473,-0.4502486,,0.074391015,0.006284043,0.01826325,-0.90061396,-0.30785337,0.30679154,-0.18380813,0.909441,0.3730035,-0.39383915,0.27954134,-0.8756411,,0.10916006,1.3569767,0.45659277,0.9959764,0.036793,-0.08171505,-0.023419691,-0.77328384,-0.63362736,-0.08650198,0.6329916,-0.7693108,,-0.06898884,0.28289825,-0.077118866,0.5999785,-0.47347102,0.6448651,0.44163445,0.868133,0.22650418,-0.6670718,0.148897,0.7299622,,-0.010878907,0.45075518,-0.29172567,0.94280267,0.28104618,-0.17926563,-0.32595566,0.889884,-0.31915423,0.06982854,0.3593321,0.9305936,,1.4043558049791045,0.20754072326190948,0.17460507784,1.338450909261719,-0.505964958631426,0.19392651003156328,-0.4029698111532669,,-0.8684367571722945,-0.14633806523368023,0.19830774049000002,1.494040847327236,-0.10807947131446338,0.3879742168798733,0.8319113288218842,,-0.04023202092003429,-0.09250026869413448,0.06086840708,-0.09125690957404896,,1.3560057e-05,1.7881393e-06,-4.4107437e-06,1.0000001,-9.49204e-06,-7.8082085e-06,9.495765e-06,1.0,-1.1026859e-06,7.8082085e-06,1.0728836e-06,1.0,796,2.426,0,0,0.0,True,-0.2621419889274632,1.0050489224408459
2.45071487298992,11:52:41.316114,11:52:25.086447,0,,0.10992992,0.01640439,0.04256116,-0.6682256,0.48785508,-0.56166905,-0.059678257,0.7173898,0.69411117,0.74156135,0.49734223,-0.45026386,,0.074391015,0.006284043,0.01826325,-0.90061396,-0.30785337,0.30679154,-0.18380813,0.909441,0.3730035,-0.39383915,0.27954134,-0.8756411,,0.10916006,1.3569767,0.45659277,0.9959764,0.036793,-0.08171505,-0.023419691,-0.77328384,-0.63362736,-0.08650198,0.6329916,-0.7693108,,-0.06899052,0.2828959,-0.077120006,0.599987,-0.47346383,0.6448625,0.44163743,0.8681355,0.22648868,-0.6670622,0.14890516,0.7299693,,-0.010878907,0.45075518,-0.29172567,0.94280267,0.28104618,-0.17926563,-0.32595566,0.889884,-0.31915423,0.06982854,0.3593321,0.9305936,,1.404340359513356,0.20754072326190948,0.17460378155,1.338450909261719,-0.505964958631426,0.19392651003156328,-0.4029698111532669,,-0.8684444799051688,-0.14633806523368023,0.19830774049000002,1.494040847327236,-0.10807947131446338,0.3879742168798733,0.8319113288218842,,-0.04023202092003429,-0.09250026869413448,0.06086840708,-0.09125690957404896,,1.3560057e-05,1.7881393e-06,-4.4107437e-06,1.0000001,-9.49204e-06,-7.8082085e-06,9.495765e-06,1.0,-1.1026859e-06,7.8082085e-06,1.0728836e-06,1.0,821,2.503,0,0,0.0,True,-0.2626186106756321,1.0056282848501994
2.478751086993725,11:52:41.387092,11:52:25.265185,0,,0.10992989,0.016409844,0.042564556,-0.6682207,0.48786715,-0.56166446,-0.05969721,0.7173662,0.69413394,0.74156415,0.49736446,-0.4502347,,0.07438769,0.0062851906,0.018262893,-0.90061927,-0.3078537,0.3067756,-0.1838113,0.9094383,0.37300858,-0.39382553,0.27954984,-0.87564456,,0.10916006,1.3569767,0.45659277,0.9959764,0.036793,-0.08171505,-0.023419691,-0.77328384,-0.63362736,-0.08650198,0.6329916,-0.7693108,,-0.06899037,0.28290224,-0.07711899,0.59998053,-0.47347933,0.6448571,0.44162503,0.86813235,0.22652505,-0.66707623,0.1488744,0.7299628,,-0.010875543,0.45075604,-0.291725,0.94280607,0.2810453,-0.1792493,-0.32594866,0.8898876,-0.3191514,0.069815725,0.35932395,0.9305977,,1.4043635277119786,0.20757161419340636,0.17460378155,1.338450909261719,-0.505964958631426,0.19392651003156328,-0.4029698111532669,,-0.8684213117065461,-0.146330342500806,0.19830644420000001,1.494040847327236,-0.10807947131446338,0.3879742168798733,0.8319113288218842,,-0.04023202092003429,-0.09250026869413448,0.06086840708,-0.09125690957404896,,1.3560057e-05,1.7881393e-06,-4.4107437e-06,1.0000001,-9.49204e-06,-7.8082085e-06,9.495765e-06,1.0,-1.1026859e-06,7.8082085e-06,1.0728836e-06,1.0,829,2.527,0,0,0.0,True,-0.2612483231496481,1.0069801304720243
2.5497296129906317,11:52:41.415909,11:52:25.265185,0,,0.10993014,0.01640834,0.042563543,-0.66822314,0.48786348,-0.5616647,-0.05969155,0.7173725,0.6941279,0.74156237,0.49735898,-0.4502436,,0.07439149,0.0062856674,0.018265039,-0.90061074,-0.3078581,0.30679628,-0.18380778,0.9094378,0.37301147,-0.39384672,0.27954653,-0.8756361,,0.10916006,1.3569767,0.45659277,0.9959764,0.036793,-0.08171505,-0.023419691,-0.77328384,-0.63362736,-0.08650198,0.6329916,-0.7693108,,-0.068990655,0.28290045,-0.07711919,0.5999835,-0.4734748,0.64485765,0.4416281,0.8681335,0.22651467,-0.66707146,0.14888218,0.72996557,,-0.010879594,0.4507575,-0.29172587,0.9428005,0.2810501,-0.17927091,-0.3259606,0.88988537,-0.3191453,0.06983474,0.35932562,0.93059564,,1.4043558049791045,0.20756389146053214,0.17460378155,1.338450909261719,-0.505964958631426,0.19392651003156328,-0.4029698111532669,,-0.8684444799051688,-0.146330342500806,0.19830644420000001,1.494040847327236,-0.10807947131446338,0.3879742168798733,0.8319113288218842,,-0.04023202092003429,-0.09250026869413448,0.06086840708,-0.09125690957404896,,1.3560057e-05,1.7881393e-06,-4.4107437e-06,1.0000001,-9.49204e-06,-7.8082085e-06,9.495765e-06,1.0,-1.1026859e-06,7.8082085e-06,1.0728836e-06,1.0,837,2.553,0,0,0.0,True,-0.26148663402373185,1.0059662462556558
2.5785439789906377,11:52:41.439608,11:52:25.265185,0,,0.109931126,0.016407847,0.04256293,-0.6682281,0.4878609,-0.56166106,-0.05968803,0.71737397,0.6941267,0.7415582,0.49735937,-0.45024997,,0.074390225,0.0062855333,0.018264323,-0.9006136,-0.30785662,0.3067894,-0.18380895,0.90943795,0.37301046,-0.39383963,0.2795476,-0.87563884,,0.10916006,1.3569767,0.45659277,0.9959764,0.036793,-0.08171505,-0.023419691,-0.77328384,-0.63362736,-0.08650198,0.6329916,-0.7693108,,-0.06899162,0.28289968,-0.07711893,0.59998906,-0.47347215,0.6448545,0.441628,0.86813486,0.22650954,-0.6670666,0.14888255,0.72997,,-0.0108782435,0.45075703,-0.29172558,0.94280237,0.28104848,-0.17926371,-0.32595664,0.8898861,-0.31914735,0.0698284,0.35932505,0.9305963,,1.4043480822462302,0.20756389146053214,0.17460378155,1.338450909261719,-0.505964958631426,0.19392651003156328,-0.4029698111532669,,-0.8684367571722945,-0.146330342500806,0.19830644420000001,1.494040847327236,-0.10807947131446338,0.3879742168798733,0.8319113288218842,,-0.04023202092003429,-0.09250026869413448,0.06086840708,-0.09125690957404896,,1.3560057e-05,1.7881393e-06,-4.4107437e-06,1.0000001,-9.49204e-06,-7.8082085e-06,9.495765e-06,1.0,-1.1026859e-06,7.8082085e-06,1.0728836e-06,1.0,845,2.578,0,0,0.0,True,-0.2607717014014801,1.0064973284642296
2.602205301998765,11:52:41.466496,11:52:25.265185,0,,0.10992702,0.016409487,0.042563558,-0.6682251,0.48791325,-0.561619,-0.05967936,0.71731746,0.69418585,0.74156153,0.49738947,-0.4502112,,0.07445205,0.006303072,0.018256187,-0.9005403,-0.3079414,0.3069194,-0.18387169,0.9094426,0.3729682,-0.39397785,0.27943888,-0.87561136,,0.10912341,1.3569769,0.45658702,0.9959777,0.036837097,-0.08167892,-0.023362895,-0.77328175,-0.633632,-0.08650198,0.6329916,-0.7693108,,-0.06896108,0.28290376,-0.07712705,0.59999114,-0.4735742,0.64477754,0.44166636,0.8680906,0.22660433,-0.6670393,0.14881596,0.7300085,,-0.010911335,0.45076603,-0.2917063,0.94275934,0.28109527,-0.17941646,-0.32605916,0.8898355,-0.3191837,0.0699301,0.3594138,0.9305544,,1.404340359513356,0.20756389146053214,0.17460248526000002,1.338450909261719,-0.505964958631426,0.19400818877170387,-0.4031331552194012,,-0.8684444799051688,-0.146330342500806,0.19830644420000001,1.494040847327236,-0.10794283481469795,0.38786279897617687,0.8319113288218842,,-0.04023202092003429,-0.09250026869413448,0.06086840708,-0.09125690957404896,,-2.2459775e-05,-3.2782555e-06,2.7418137e-06,1.0000001,3.437698e-05,2.8282404e-05,-3.437698e-05,1.0,3.8444996e-06,-2.8282404e-05,-3.874302e-06,1.0,853,2.602,0,0,0.0,True,-0.26190367805337944,1.0068352898696857
2.629115843999898,11:52:41.496477,11:52:25.265185,0,,0.10992873,0.016410008,0.04256335,-0.66823256,0.4879117,-0.5616115,-0.05967793,0.7173142,0.6941894,0.741555,0.49739575,-0.45021516,,0.07444951,0.0063028038,0.018254757,-0.900546,-0.30793846,0.3069056,-0.18387403,0.9094429,0.37296623,-0.39396372,0.27944115,-0.87561697,,0.10912341,1.3569769,0.45658702,0.9959777,0.036837097,-0.08167892,-0.023362895,-0.77328175,-0.633632,-0.08650198,0.6329916,-0.7693108,,-0.06896272,0.282904,-0.077126354,0.5999992,-0.47357342,0.6447706,0.44166312,0.86809224,0.22660445,-0.6670342,0.14880891,0.73001456,,-0.010908634,0.45076507,-0.2917057,0.94276303,0.28109205,-0.17940205,-0.3260512,0.8898369,-0.3191878,0.069917426,0.3594127,0.93055576,,1.4043326367804818,0.20757161419340636,0.17460248526000002,1.338450909261719,-0.505964958631426,0.19400818877170387,-0.4031331552194012,,-0.8684290344394203,-0.146330342500806,0.19830644420000001,1.494040847327236,-0.10794283481469795,0.38786279897617687,0.8319113288218842,,-0.04023202092003429,-0.09250026869413448,0.06086840708,-0.09125690957404896,,-2.2459775e-05,-3.2782555e-06,2.7418137e-06,1.0000001,3.437698e-05,2.8282404e-05,-3.437698e-05,1.0,3.8444996e-06,-2.8282404e-05,-3.874302e-06,1.0,861,2.627,0,0,0.0,True,-0.26154621174225356,1.0066904492673474
