AlexandreBanks6/ExpertPlaybackApp/resources/Motions/Pilot_03/PC1/Data_PC1_4.csv
Task Time,PC1 Time,PC2 Time,Gaze Calib,s_T_psm1,Tx,Ty,Tz,R00,R01,R02,R10,R11,R12,R20,R21,R22,s_T_psm3,Tx,Ty,Tz,R00,R01,R02,R10,R11,R12,R20,R21,R22,cart_T_ecm,Tx,Ty,Tz,R00,R01,R02,R10,R11,R12,R20,R21,R22,ecm_T_psm1,Tx,Ty,Tz,R00,R01,R02,R10,R11,R12,R20,R21,R22,ecm_T_psm3,Tx,Ty,Tz,R00,R01,R02,R10,R11,R12,R20,R21,R22,psm1_joints,q1,q2,q3,q4,q5,q6,jaw,psm3_joints,q1,q2,q3,q4,q5,q6,jaw,ecm_joints,q1,q2,q3,q4,ecmi_T_ecm,Tx,Ty,Tz,R00,R01,R02,R10,R11,R12,R20,R21,R22,Sample #,Task Duration (s),Collisions (binary),Collisions (increments),Cumulative Collision Time (s),Clutch Press,MTMR Angle,MTML Angle
""
lci_T_si,,,,,-0.071118124,0.013903125,0.25454396,0.9901862,-0.08084544,0.11399696,0.013384873,-0.7570853,-0.6531789,0.13911195,0.64829457,-0.7485733
rci_T_si,,,,,-0.08147662,0.01856703,0.26535848,0.98740834,-0.096447565,0.12539017,0.012030307,-0.74456626,-0.6674401,0.15773426,0.6605444,-0.73403066
ecm_T_lc,,,,,-4.4061628e-05,-0.00034663224,-0.01840835,-0.99912,0.030754527,0.028518902,-0.031987965,-0.99852574,-0.043852776,0.027128186,-0.04472645,0.9986309
ecm_T_rc,,,,,-0.0043358393,0.01870579,-0.007592615,-0.99555075,-0.052743673,-0.078081585,0.04863213,-0.9973746,0.053654674,-0.08070653,0.04961868,0.9955021
cart_T_ecmi,,,,,0.10934876,1.3586837,0.45858383,0.9961387,0.033234157,-0.08125972,-0.025833456,-0.77364326,-0.6330946,-0.0839064,0.63274926,-0.76979744
ecmac_T_ecmrep_psm1,,,,,0.011947535,-0.24624088,-0.3140189,0.99787813,0.060519684,0.024013558,-0.059408683,0.9972389,-0.04455629,-0.026643785,0.04303513,0.9987182
ecmac_T_ecmrep_psm3,,,,,-0.020729378,-0.4297972,-0.5440064,0.99962926,-0.018584386,0.019899037,0.019259674,0.999226,-0.034299888,-0.019246193,0.03467042,0.99921346
""
0,10:54:48.159912,10:54:31.971966,0,,0.12005063,-0.0021394938,0.013897717,-0.9882545,-0.07876793,-0.1309529,-0.10833459,-0.24327132,0.96388936,-0.10778065,0.96675473,0.2318806,,0.07493603,-0.0064451247,-0.0065311193,-0.0683005,-0.45450437,0.8881221,-0.22495142,0.8742925,0.43012726,-0.9719732,-0.17040646,-0.1619561,,0.109300114,1.3586861,0.45859572,0.99613965,0.03326119,-0.08123759,-0.025798647,-0.77364206,-0.6330974,-0.0839064,0.63274926,-0.76979744,,-0.07737731,0.2522601,-0.06104655,0.9773131,-0.041825395,0.20762889,-0.16715558,0.44970778,0.877395,-0.13006972,-0.89219594,0.43251395,,-0.0076586935,0.42645746,-0.27757752,0.20481849,0.5162008,-0.8316166,-0.8009689,0.57673097,0.16071795,0.5625818,0.633181,0.53158593,,1.2803750514163041,0.11594911137360679,0.19136351496,0.8330981454640153,0.2195748551230628,1.384854266231196,-0.40917688566636934,,-0.7707210181147318,-0.19877542144966465,0.22549742324000002,1.313288116043576,1.0317422097288407,0.17860583732352264,0.7224708045119169,,-0.03987859174650544,-0.09379617566374027,0.05836094732,-0.08765896690267068,,-4.9509108e-05,4.172325e-06,-6.7949295e-06,0.99999994,2.689287e-05,2.2113323e-05,-2.6904047e-05,1.0,2.9206276e-06,-2.2113323e-05,-2.95043e-06,1.0,35,0.105,0,0,0.0,False,-0.260652545964438,0.8990256015291549
0.13041630999941844,10:54:48.185670,10:54:31.971966,0,,0.12003093,-0.0021260232,0.014058039,-0.98810005,-0.0788434,-0.13206853,-0.10933351,-0.24391094,0.9636149,-0.10818764,0.9665874,0.23238805,,0.07493614,-0.006446749,-0.006531,-0.06830053,-0.45421118,0.888272,-0.22495803,0.8744333,0.42983752,-0.97197163,-0.17046583,-0.16190273,,0.109300114,1.3586861,0.45859572,0.99613965,0.03326119,-0.08123759,-0.025798647,-0.77364206,-0.6330974,-0.0839064,0.63274926,-0.76979744,,-0.077372074,0.25237516,-0.061160587,0.9770956,-0.04180117,0.20865485,-0.16817395,0.44911432,0.87750435,-0.13039058,-0.89249593,0.43179777,,-0.007658901,0.4264563,-0.27757868,0.20481798,0.5159271,-0.8317866,-0.8009728,0.57677925,0.16052485,0.56257635,0.63336,0.5313783,,1.2807920789915122,0.11614217969546241,0.19122610822000002,0.831840005803108,0.21971149162282821,1.3848245270676403,-0.40901354160023495,,-0.7707210181147318,-0.19878314418253887,0.22549742324000002,1.313288116043576,1.0317422097288407,0.1782791223629605,0.7244309333055284,,-0.03987859174650544,-0.09379617566374027,0.05836094732,-0.08765896690267068,,-4.9509108e-05,4.172325e-06,-6.7949295e-06,0.99999994,2.689287e-05,2.2113323e-05,-2.6904047e-05,1.0,2.9206276e-06,-2.2113323e-05,-2.95043e-06,1.0,46,0.138,0,0,0.0,False,-0.2612483231496481,0.8999429253439648
0.15612314899044577,10:54:48.220831,10:54:31.971966,0,,0.120010614,-0.0021066666,0.014229283,-0.98774344,-0.07899761,-0.13461857,-0.111668505,-0.24493787,0.9630865,-0.10905472,0.96631515,0.23311421,,0.07493603,-0.0064451247,-0.0065311193,-0.0683005,-0.45428675,0.8882333,-0.22495142,0.8743978,0.42991298,-0.9719732,-0.17044622,-0.16191432,,0.109300114,1.3586861,0.45859572,0.99613965,0.03326119,-0.08123759,-0.025798647,-0.77364206,-0.6330974,-0.0839064,0.63274926,-0.76979744,,-0.07736666,0.25250185,-0.06127907,0.97658354,-0.041729204,0.21105264,-0.17049922,0.44815856,0.8775443,-0.13120426,-0.8929796,0.43054947,,-0.0076586935,0.42645746,-0.27757752,0.20481849,0.515997,-0.83174306,-0.8009689,0.5767703,0.16057663,0.5625818,0.6333113,0.5314307,,1.281232274765343,0.11636613894881491,0.19108092374000002,0.8291140365378092,0.21971149162282821,1.3848245270676403,-0.40901354160023495,,-0.7707210181147318,-0.19877542144966465,0.22549742324000002,1.313288116043576,1.0317422097288407,0.17836080110310093,0.7245942773716626,,-0.03987859174650544,-0.09379617566374027,0.05836094732,-0.08765896690267068,,-4.9509108e-05,4.172325e-06,-6.7949295e-06,0.99999994,2.689287e-05,2.2113323e-05,-2.6904047e-05,1.0,2.9206276e-06,-2.2113323e-05,-2.95043e-06,1.0,54,0.162,0,0,0.0,False,-0.26196325577190027,0.901343051166569
0.1913322159962263,10:54:48.241193,10:54:31.971966,0,,0.119994305,-0.0020852536,0.014392242,-0.98747015,-0.079084575,-0.13655902,-0.113439955,-0.24582037,0.9626545,-0.10970013,0.9660838,0.23376891,,0.07493603,-0.0064451247,-0.0065311193,-0.0683005,-0.45435926,0.8881963,-0.22495142,0.8743627,0.4299844,-0.9719732,-0.17043293,-0.16192824,,0.109300114,1.3586861,0.45859572,0.99613965,0.03326119,-0.08123759,-0.025798647,-0.77364206,-0.6330974,-0.0839064,0.63274926,-0.76979744,,-0.07736419,0.2526247,-0.06138944,0.97619104,-0.041712698,0.21286415,-0.17225511,0.4473397,0.87761915,-0.13183044,-0.89339083,0.42950377,,-0.0076586935,0.42645746,-0.27757752,0.20481849,0.5160649,-0.8317009,-0.8009689,0.5767572,0.16062374,0.5625818,0.6332678,0.53148246,,1.281649302340551,0.11660554366791587,0.190943517,0.8270171371029641,0.21971149162282821,1.3848245270676403,-0.4086868534679666,,-0.7707210181147318,-0.19877542144966465,0.22549742324000002,1.313288116043576,1.0317422097288407,0.17844247984324157,0.72639106209914,,-0.03987859174650544,-0.09379617566374027,0.05836094732,-0.08765896690267068,,-4.9509108e-05,4.172325e-06,-6.7949295e-06,0.99999994,2.689287e-05,2.2113323e-05,-2.6904047e-05,1.0,2.9206276e-06,-2.2113323e-05,-2.95043e-06,1.0,62,0.187,0,0,0.0,False,-0.26255903295711036,0.9015844521704661
0.2116713349969359,10:54:48.264037,10:54:31.971966,0,,0.11998243,-0.0020700246,0.014497966,-0.9874533,-0.07911323,-0.13666463,-0.113518625,-0.24597463,0.96260583,-0.109770894,0.9660422,0.23390749,,0.07493614,-0.006446749,-0.006531,-0.06830053,-0.45435625,0.8881978,-0.22495803,0.874363,0.4299804,-0.97197163,-0.17043939,-0.1619306,,0.109300114,1.3586861,0.45859572,0.99613965,0.03326119,-0.08123759,-0.025798647,-0.77364206,-0.6330974,-0.0839064,0.63274926,-0.76979744,,-0.07736117,0.2527054,-0.06146036,0.976173,-0.041696392,0.21295004,-0.17236064,0.44719565,0.87767184,-0.13182607,-0.89346373,0.4293535,,-0.007658901,0.4264563,-0.27757868,0.20481798,0.5160629,-0.83170223,-0.8009728,0.576753,0.16061907,0.56257635,0.63327324,0.5314818,,1.2819427661897718,0.11676772105827458,0.19085536928000002,0.8268074471594796,0.2198481281225937,1.384631430423803,-0.4088501975341008,,-0.7707210181147318,-0.19878314418253887,0.22549742324000002,1.313288116043576,1.0317422097288407,0.17844247984324157,0.7267177502314084,,-0.03987859174650544,-0.09379617566374027,0.05836094732,-0.08765896690267068,,-4.9509108e-05,4.172325e-06,-6.7949295e-06,0.99999994,2.689287e-05,2.2113323e-05,-2.6904047e-05,1.0,2.9206276e-06,-2.2113323e-05,-2.95043e-06,1.0,69,0.208,0,0,0.0,False,-0.2617249448978165,0.90124649076501
0.23454193699581083,10:54:48.292050,10:54:31.971966,0,,0.11998593,-0.0020451993,0.014662817,-0.9871075,-0.081775256,-0.13759224,-0.11388606,-0.24519384,0.9627616,-0.11246685,0.96601903,0.23271954,,0.07493758,-0.006446615,-0.0065302253,-0.068293266,-0.4544269,0.8881622,-0.22495681,0.8743284,0.43005133,-0.97197247,-0.1704286,-0.16193725,,0.109300114,1.3586861,0.45859572,0.99613965,0.03326119,-0.08123759,-0.025798647,-0.77364206,-0.6330974,-0.0839064,0.63274926,-0.76979744,,-0.07737813,0.25283235,-0.061567124,0.9760556,-0.03897791,0.21400037,-0.17440185,0.4477299,0.876996,-0.12999783,-0.8933189,0.43021142,,-0.00766043,0.4264568,-0.27757892,0.20481099,0.5161294,-0.8316627,-0.80097294,0.57673854,0.16067049,0.56257874,0.63323224,0.53152806,,1.2823752392307284,0.11700712577737554,0.19071925883000002,0.8251299276116034,0.22230758511837162,1.382707586897408,-0.4096669178647723,,-0.7707287408476061,-0.19878314418253887,0.22549742324000002,1.313288116043576,1.0317422097288407,0.17852415858338222,0.7268810942975428,,-0.03987859174650544,-0.09379617566374027,0.05836094732,-0.08765896690267068,,-4.9509108e-05,4.172325e-06,-6.7949295e-06,0.99999994,2.689287e-05,2.2113323e-05,-2.6904047e-05,1.0,2.9206276e-06,-2.2113323e-05,-2.95043e-06,1.0,81,0.244,0,0,0.0,False,-0.26148663402373185,0.9020189739774813
0.2625190209946595,10:54:48.325483,10:54:32.148123,0,,0.11997375,-0.0020138472,0.0148229,-0.98671955,-0.082210615,-0.14009285,-0.116072565,-0.2464723,0.9621738,-0.113629915,0.96565676,0.23365659,,0.07493758,-0.006446615,-0.0065302253,-0.068293266,-0.45449948,0.88812506,-0.22495681,0.8742933,0.4301228,-0.97197247,-0.17041543,-0.16195118,,0.109300114,1.3586861,0.45859572,0.99613965,0.03326119,-0.08123759,-0.025798647,-0.77364206,-0.6330974,-0.0839064,0.63274926,-0.76979744,,-0.07737843,0.25296086,-0.06166831,0.97555685,-0.038645156,0.21632244,-0.17680885,0.44652113,0.87713027,-0.13048938,-0.8939382,0.42877394,,-0.00766043,0.4264568,-0.27757892,0.20481099,0.5161973,-0.8316206,-0.80097294,0.5767254,0.1607176,0.56257874,0.63318884,0.5315798,,1.2827999895388107,0.11728514416084763,0.19058833354000002,0.8224039583463044,0.22258085811790249,1.382893144790718,-0.408850197534101,,-0.7707287408476061,-0.19878314418253887,0.22549742324000002,1.313288116043576,1.0317422097288407,0.17860583732352264,0.7263910620991397,,-0.03987859174650544,-0.09379617566374027,0.05836094732,-0.08765896690267068,,-4.9509108e-05,4.172325e-06,-6.7949295e-06,0.99999994,2.689287e-05,2.2113323e-05,-2.6904047e-05,1.0,2.9206276e-06,-2.2113323e-05,-2.95043e-06,1.0,89,0.268,0,0,0.0,False,-0.26148663402373185,0.9028397373907322
0.2959781399986241,10:54:48.351549,10:54:32.148123,0,,0.1199958,-0.0019618273,0.014962509,-0.9864325,-0.08630894,-0.13964784,-0.11483264,-0.2451514,0.96265996,-0.11732104,0.9656353,0.23191422,,0.07493913,-0.006448105,-0.006529331,-0.06828607,-0.45456713,0.88809097,-0.2249622,0.874259,0.43018973,-0.97197163,-0.17041105,-0.16196021,,0.109300114,1.3586861,0.45859572,0.99613965,0.03326119,-0.08123759,-0.025798647,-0.77364206,-0.6330974,-0.0839064,0.63274926,-0.76979744,,-0.077408455,0.25309205,-0.06173592,0.97576267,-0.034448892,0.21610287,-0.17829137,0.44744268,0.87636024,-0.12688328,-0.89364886,0.43045592,,-0.0076621664,0.42645615,-0.27758035,0.2048035,0.5162618,-0.83158237,-0.800977,0.57670677,0.16076435,0.5625757,0.63315326,0.5316254,,1.2832324625797673,0.11762494440731351,0.19048592663000002,0.8217748885158509,0.22654331661110025,1.3803971342447867,-0.40852350940183224,,-0.7707364635804803,-0.19879086691541312,0.22549742324000002,1.313288116043576,1.0317422097288407,0.1786875160636633,0.7275344705620798,,-0.03987859174650544,-0.09379617566374027,0.05836094732,-0.08765896690267068,,-4.9509108e-05,4.172325e-06,-6.7949295e-06,0.99999994,2.689287e-05,2.2113323e-05,-2.6904047e-05,1.0,2.9206276e-06,-2.2113323e-05,-2.95043e-06,1.0,96,0.29,0,0,0.0,False,-0.26160578946077395,0.9043364236148954
0.32202276299358346,10:54:48.376221,10:54:32.148123,0,,0.12000053,-0.0019262284,0.015061751,-0.9863022,-0.08693694,-0.14017788,-0.11488358,-0.24775764,0.9619864,-0.1183623,0.96491355,0.23437625,,0.074937806,-0.006449893,-0.006529987,-0.06829333,-0.45463854,0.88805383,-0.22496995,0.87422365,0.4302575,-0.97196937,-0.17040178,-0.1619837,,0.109300114,1.3586861,0.45859572,0.99613965,0.03326119,-0.08123759,-0.025798647,-0.77364206,-0.6330974,-0.0839064,0.63274926,-0.76979744,,-0.077419095,0.2531841,-0.06178644,0.97573,-0.03402904,0.21631676,-0.17901117,0.44499347,0.8774599,-0.12611866,-0.89488703,0.4281019,,-0.0076608453,0.42645448,-0.27758124,0.20480996,0.5163292,-0.8315389,-0.8009808,0.57669085,0.16080247,0.5625679,0.6331128,0.53168184,,1.2835182036961135,0.11788751732503715,0.19041074181,0.8211458186853974,0.22749977210945835,1.3824759648238316,-0.41113701445998063,,-0.7707287408476061,-0.19879858964828734,0.22549742324000002,1.313288116043576,1.0317422097288407,0.1787691948038037,0.7286778790250197,,-0.03987859174650544,-0.09379617566374027,0.05836094732,-0.08765896690267068,,-4.9509108e-05,4.172325e-06,-6.7949295e-06,0.99999994,2.689287e-05,2.2113323e-05,-2.6904047e-05,1.0,2.9206276e-06,-2.2113323e-05,-2.95043e-06,1.0,108,0.326,0,0,0.0,False,-0.26202283349042155,0.904529544418013
0.34663584099325817,10:54:48.403024,10:54:32.148123,0,,0.1200174,-0.001849696,0.015215486,-0.9859985,-0.089064956,-0.14097674,-0.114757545,-0.25096244,0.96117043,-0.120986454,0.9638908,0.23722768,,0.074939825,-0.006452933,-0.006528735,-0.06831724,-0.45461166,0.8880658,-0.2248744,0.8742554,0.4302428,-0.97198987,-0.17031035,-0.16195732,,0.109300114,1.3586861,0.45859572,0.99613965,0.03326119,-0.08123759,-0.025798647,-0.77364206,-0.6330974,-0.0839064,0.63274926,-0.76979744,,-0.07744282,0.253343,-0.061849464,0.9756987,-0.032157715,0.21674384,-0.18063359,0.4418729,0.87870353,-0.12403033,-0.8965011,0.42532605,,-0.0076631717,0.42645288,-0.27758384,0.20484123,0.5162903,-0.8315554,-0.80092067,0.57677287,0.16080788,0.56264216,0.6330698,0.5316544,,1.2840047358671896,0.1183817722289875,0.19030314974,0.8198876790244902,0.22995922910523628,1.384554379564324,-0.40852350940183224,,-0.7707364635804803,-0.19880631238116156,0.22549742324000002,1.3134978059870606,1.0317422097288407,0.1789325522840849,0.7290045671572882,,-0.03987859174650544,-0.09379617566374027,0.05836094732,-0.08765896690267068,,-4.9509108e-05,4.172325e-06,-6.7949295e-06,0.99999994,2.689287e-05,2.2113323e-05,-2.6904047e-05,1.0,2.9206276e-06,-2.2113323e-05,-2.95043e-06,1.0,116,0.35,0,0,0.0,False,-0.26053339052739544,0.9046743850203516
0.3735220910020871,10:54:48.431005,10:54:32.148123,0,,0.12003362,-0.0017832071,0.015324205,-0.98558533,-0.09061453,-0.14286542,-0.116030686,-0.25250262,0.9606141,-0.12311947,0.96334386,0.23834875,,0.07494004,-0.006456211,-0.0065284967,-0.06831731,-0.45489585,0.8879203,-0.22488755,0.87411535,0.43052033,-0.9719868,-0.1702703,-0.16201764,,0.109300114,1.3586861,0.45859572,0.99613965,0.03326119,-0.08123759,-0.025798647,-0.77364206,-0.6330974,-0.0839064,0.63274926,-0.76979744,,-0.07746254,0.25346473,-0.061885428,0.9753651,-0.030731523,0.21844557,-0.18298768,0.44032902,0.8789914,-0.12320066,-0.8973104,0.42385808,,-0.007663587,0.42645055,-0.27758616,0.2048402,0.51655805,-0.83138937,-0.80092853,0.57671195,0.16098696,0.5626313,0.63290685,0.5318598,,1.2843368133807813,0.11879879980419564,0.1902305575,0.8175810896461604,0.23132559410289066,1.38491041784989,-0.41113701445998085,,-0.7707364635804803,-0.19882175784691,0.22549742324000002,1.3134978059870606,1.0317422097288407,0.17925926724464702,0.7303113196863623,,-0.03987859174650544,-0.09379617566374027,0.05836094732,-0.08765896690267068,,-4.9509108e-05,4.172325e-06,-6.7949295e-06,0.99999994,2.689287e-05,2.2113323e-05,-2.6904047e-05,1.0,2.9206276e-06,-2.2113323e-05,-2.95043e-06,1.0,124,0.375,0,0,0.0,False,-0.2608908568385213,0.9040950226109978
0.4015067799919052,10:54:48.462181,10:54:32.301679,0,,0.120073766,-0.0016710907,0.015502751,-0.9854217,-0.09337883,-0.14221267,-0.11480659,-0.25189894,0.9609195,-0.12555276,0.96323794,0.23750615,,0.074938715,-0.0064580142,-0.0065291226,-0.06832457,-0.4549672,0.8878831,-0.22489518,0.87408006,0.43058813,-0.9719845,-0.17026097,-0.16204114,,0.109300114,1.3586861,0.45859572,0.99613965,0.03326119,-0.08123759,-0.025798647,-0.77364206,-0.6330974,-0.0839064,0.63274926,-0.76979744,,-0.077507995,0.25366706,-0.06194065,0.97556853,-0.02792223,0.21791369,-0.18365854,0.4406738,0.8786786,-0.120563515,-0.89723295,0.42477933,,-0.007662266,0.42644888,-0.2775871,0.20484665,0.5166254,-0.8313459,-0.80093235,0.57669604,0.16102506,0.56262356,0.6328664,0.53191626,,1.2848696819491028,0.11955562762586963,0.19011129882000002,0.817371399702676,0.23392168759843407,1.3830385139000796,-0.4093402297325035,,-0.7707287408476061,-0.19882948057978422,0.22549742324000002,1.3134978059870606,1.0317422097288407,0.17934094598478778,0.7298212874879597,,-0.03987859174650544,-0.09379617566374027,0.05836094732,-0.08765896690267068,,-4.9509108e-05,4.172325e-06,-6.7949295e-06,0.99999994,2.689287e-05,2.2113323e-05,-2.6904047e-05,1.0,2.9206276e-06,-2.2113323e-05,-2.95043e-06,1.0,132,0.4,0,0,0.0,False,-0.260652545964438,0.9058331098390586
0.4326816309912829,10:54:48.484500,10:54:32.301679,0,,0.120116696,-0.0015332848,0.015716553,-0.9849572,-0.0967952,-0.14314348,-0.11469555,-0.25337514,0.9605446,-0.12924512,0.9625132,0.23846164,,0.07494037,-0.006461203,-0.0065280795,-0.068317376,-0.45503187,0.8878506,-0.2249071,0.87404597,0.430651,-0.97198224,-0.17026305,-0.16205248,,0.109300114,1.3586861,0.45859572,0.99613965,0.03326119,-0.08123759,-0.025798647,-0.77364206,-0.6330974,-0.0839064,0.63274926,-0.76979744,,-0.07755696,0.25391197,-0.062005226,0.97548085,-0.024624346,0.2187025,-0.18599087,0.43903375,0.87900895,-0.117662795,-0.89813304,0.4236891,,-0.00766421,0.42644706,-0.27758968,0.20483863,0.5166879,-0.831309,-0.80094033,0.5766732,0.16106714,0.5626151,0.63283616,0.53196114,,1.285533836976286,0.12044374190640546,0.18997129950000002,0.8154841902113152,0.2372009635928046,1.3826514889353014,-0.40934022973250395,,-0.7707364635804803,-0.19884492604553267,0.22549742324000002,1.3134978059870606,1.0317422097288407,0.1794226247249282,0.7299846315540939,,-0.03987859174650544,-0.09379617566374027,0.05836094732,-0.08765896690267068,,-4.9509108e-05,4.172325e-06,-6.7949295e-06,0.99999994,2.689287e-05,2.2113323e-05,-2.6904047e-05,1.0,2.9206276e-06,-2.2113323e-05,-2.95043e-06,1.0,143,0.433,0,0,0.0,False,-0.26059296824591627,0.9059296702406177
0.4549913189985091,10:54:48.515270,10:54:32.301679,0,,0.120168,-0.0014026761,0.015953124,-0.9848308,-0.098546095,-0.142818,-0.11365892,-0.2555509,0.96009135,-0.13111052,0.96176004,0.24047363,,0.07494262,-0.0064674914,-0.0065265894,-0.06834132,-0.4551441,0.8877912,-0.2248247,0.87400806,0.43077105,-0.97199965,-0.17015797,-0.16205856,,0.109300114,1.3586861,0.45859572,0.99613965,0.03326119,-0.08123759,-0.025798647,-0.77364206,-0.6330974,-0.0839064,0.63274926,-0.76979744,,-0.07761719,0.2541665,-0.062090293,0.97564614,-0.023045126,0.21813661,-0.18643107,0.43687207,0.8799922,-0.115577325,-0.8992284,0.4219362,,-0.0076669515,0.42644313,-0.2775946,0.20486884,0.51678085,-0.8312438,-0.80088806,0.5767206,0.16115747,0.5626785,0.6327171,0.5320357,,1.286151655606224,0.12141680624855775,0.18980407809000002,0.8152745002678307,0.23911387458952077,1.3835420004877683,-0.4090135416002354,,-0.7707441863133545,-0.19886809424415536,0.22549742324000002,1.313707495930545,1.0317422097288407,0.17974933968549056,0.7312913840831682,,-0.03987859174650544,-0.09379617566374027,0.05836094732,-0.08765896690267068,,-4.9509108e-05,4.172325e-06,-6.7949295e-06,0.99999994,2.689287e-05,2.2113323e-05,-2.6904047e-05,1.0,2.9206276e-06,-2.2113323e-05,-2.95043e-06,1.0,151,0.458,0,0,0.0,False,-0.26106958999408425,0.9056399890359406
0.48574568099866156,10:54:48.541996,10:54:32.301679,0,,0.120197624,-0.0013110489,0.016116887,-0.9848462,-0.09869346,-0.14261006,-0.11330965,-0.25636142,0.9599165,-0.13129722,0.96152925,0.24129358,,0.07494306,-0.0064740926,-0.006526053,-0.06834143,-0.45513207,0.8877974,-0.2248508,0.87400925,0.43075484,-0.97199357,-0.17018363,-0.16206789,,0.109300114,1.3586861,0.45859572,0.99613965,0.03326119,-0.08123759,-0.025798647,-0.77364206,-0.6330974,-0.0839064,0.63274926,-0.76979744,,-0.07765294,0.25434354,-0.06214924,0.97571605,-0.022961369,0.2178325,-0.18629031,0.43610692,0.88040143,-0.11521348,-0.8996019,0.42123902,,-0.0076677823,0.42643848,-0.27759925,0.20486677,0.516773,-0.83124924,-0.80090374,0.57670397,0.16113876,0.5626569,0.63273865,0.5320329,,1.2865686831814322,0.12211957494011218,0.18968741199000003,0.8152745002678307,0.23925051108928622,1.3835939400643529,-0.40901354160023495,,-0.7707441863133545,-0.19889898517565224,0.22549742324000002,1.313707495930545,1.0317422097288407,0.17974933968549056,0.7312913840831682,,-0.03987859174650544,-0.09379617566374027,0.05836094732,-0.08765896690267068,,-4.9509108e-05,4.172325e-06,-6.7949295e-06,0.99999994,2.689287e-05,2.2113323e-05,-2.6904047e-05,1.0,2.9206276e-06,-2.2113323e-05,-2.95043e-06,1.0,159,0.481,0,0,0.0,False,-0.26101001227556386,0.9061227910437353
0.5124924599949736,10:54:48.564271,10:54:32.301679,0,,0.12027532,-0.0011768639,0.016352236,-0.9850212,-0.09930636,-0.14096624,-0.11150099,-0.25677416,0.960018,-0.13153237,0.961356,0.24185517,,0.07494515,-0.006483823,-0.0065244436,-0.068334304,-0.45518476,0.88777095,-0.22488886,0.87397647,0.43080157,-0.9719852,-0.17021137,-0.16208857,,0.109300114,1.3586861,0.45859572,0.99613965,0.03326119,-0.08123759,-0.025798647,-0.77364206,-0.6330974,-0.0839064,0.63274926,-0.76979744,,-0.0777388,0.25460038,-0.062227342,0.9761011,-0.022380961,0.21616133,-0.18508273,0.43567273,0.88087094,-0.113890335,-0.8998269,0.4211183,,-0.007670557,0.42643204,-0.2776065,0.20485668,0.51682764,-0.83121777,-0.80092746,0.5766645,0.16116212,0.56262684,0.63273,0.532075,,1.28703976988676,0.12324709393974895,0.18951630171000003,0.8165326399287379,0.239797057088348,1.3831482684495673,-0.40901354160023495,,-0.7707519090462287,-0.1989453215728976,0.22549742324000002,1.313707495930545,1.0317422097288407,0.1798310184256311,0.731128040017034,,-0.03987859174650544,-0.09379617566374027,0.05836094732,-0.08765896690267068,,-4.9509108e-05,4.172325e-06,-6.7949295e-06,0.99999994,2.689287e-05,2.2113323e-05,-2.6904047e-05,1.0,2.9206276e-06,-2.2113323e-05,-2.95043e-06,1.0,167,0.506,0,0,0.0,False,-0.2607121236829584,0.9057848296382791
0.5347580639936496,10:54:48.588607,10:54:32.301679,0,,0.12035587,-0.0010945797,0.016491473,-0.98495173,-0.10189459,-0.13959813,-0.10963925,-0.25600815,0.9604369,-0.13360158,0.9612894,0.24098402,,0.07494496,-0.00649707,-0.006523937,-0.0683728,-0.4549986,0.8878634,-0.22483486,0.87407947,0.43062076,-0.97199506,-0.17017993,-0.16206288,,0.109300114,1.3586861,0.45859572,0.99613965,0.03326119,-0.08123759,-0.025798647,-0.77364206,-0.6330974,-0.0839064,0.63274926,-0.76979744,,-0.07782352,0.25475502,-0.06226674,0.97642875,-0.019732827,0.21493608,-0.18503504,0.4361684,0.8806357,-0.11112575,-0.89964867,0.4222361,,-0.007671071,0.42642245,-0.2776156,0.20489874,0.51664406,-0.83132154,-0.8008907,0.57675064,0.16103671,0.56266385,0.6328014,0.5319509,,1.2872405609414896,0.12396530809705184,0.18941519109000002,0.8171617097591914,0.2421198775843605,1.3815808790472905,-0.40934022973250395,,-0.7707441863133545,-0.19899938070301718,0.22549742324000002,1.3139171858740295,1.0317422097288407,0.1798310184256311,0.731128040017034,,-0.03987859174650544,-0.09379617566374027,0.05836094732,-0.08765896690267068,,-4.9509108e-05,4.172325e-06,-6.7949295e-06,0.99999994,2.689287e-05,2.2113323e-05,-2.6904047e-05,1.0,2.9206276e-06,-2.2113323e-05,-2.95043e-06,1.0,175,0.531,0,0,0.0,False,-0.26160578946077395,0.9061227910437353
0.5591017699916847,10:54:48.607709,10:54:32.446873,0,,0.12043803,-0.0010204166,0.016629517,-0.984923,-0.102316156,-0.13949233,-0.10918764,-0.25776678,0.96001786,-0.13418183,0.9607745,0.24270871,,0.07494827,-0.0065033734,-0.0065218806,-0.068358414,-0.4549828,0.8878725,-0.22485867,0.87408173,0.43060374,-0.97199047,-0.17021054,-0.16205773,,0.109300114,1.3586861,0.45859572,0.99613965,0.03326119,-0.08123759,-0.025798647,-0.77364206,-0.6330974,-0.0839064,0.63274926,-0.76979744,,-0.077910565,0.25490278,-0.062310275,0.97650415,-0.019448964,0.21461922,-0.18507469,0.43449754,0.8814529,-0.110394865,-0.900463,0.42068914,,-0.007674959,0.4264188,-0.27762076,0.20488271,0.5166332,-0.83133215,-0.8009066,0.5767313,0.16102666,0.562647,0.6328279,0.53193724,,1.2873332337359804,0.12471441318585161,0.18930759902000002,0.8171617097591914,0.24239315058389135,1.382746581822287,-0.4088501975341008,,-0.770759631779103,-0.19903027163451406,0.22549742324000002,1.3139171858740295,1.0317422097288407,0.1798310184256311,0.731128040017034,,-0.03987859174650544,-0.09379617566374027,0.05836094732,-0.08765896690267068,,-4.9509108e-05,4.172325e-06,-6.7949295e-06,0.99999994,2.689287e-05,2.2113323e-05,-2.6904047e-05,1.0,2.9206276e-06,-2.2113323e-05,-2.95043e-06,1.0,186,0.564,0,0,0.0,False,-0.261427056305211,0.9062676316460738
0.5781670580036007,10:54:48.643084,10:54:32.446873,0,,0.12057828,-0.0009455383,0.0168252,-0.98488253,-0.103007674,-0.1392688,-0.10866657,-0.2587138,0.95982224,-0.13489981,0.9604461,0.2436091,,0.074947275,-0.0065101087,-0.0065220594,-0.06836575,-0.45504522,0.88784003,-0.22488594,0.8740473,0.4306594,-0.9719837,-0.1702205,-0.16208826,,0.109300114,1.3586861,0.45859572,0.99613965,0.03326119,-0.08123759,-0.025798647,-0.77364206,-0.6330974,-0.0839064,0.63274926,-0.76979744,,-0.078060664,0.25508976,-0.062388238,0.9765886,-0.018831385,0.21428965,-0.18515213,0.43355724,0.88189954,-0.10951422,-0.9009293,0.41992038,,-0.007674261,0.42641369,-0.27762517,0.20488761,0.5166947,-0.83129275,-0.8009222,0.5767029,0.16105074,0.562623,0.63280356,0.5319916,,1.2872714518729866,0.12572609119237502,0.18913908132,0.8171617097591914,0.2425297870836568,1.382961878879153,-0.4095035737986381,,-0.7707519090462287,-0.19906116256601097,0.22549742324000002,1.3139171858740295,1.0317422097288407,0.17991269716577152,0.7312913840831682,,-0.03987859174650544,-0.09379617566374027,0.05836094732,-0.08765896690267068,,-4.9509108e-05,4.172325e-06,-6.7949295e-06,0.99999994,2.689287e-05,2.2113323e-05,-2.6904047e-05,1.0,2.9206276e-06,-2.2113323e-05,-2.95043e-06,1.0,194,0.589,0,0,0.0,False,-0.26053339052739544,0.9064607524491914
0.6135617559921229,10:54:48.667771,10:54:32.446873,0,,0.12074516,-0.0008883625,0.016971305,-0.9847061,-0.105080016,-0.13896796,-0.10788499,-0.25854638,0.95995545,-0.13680181,0.96026665,0.24325559,,0.07494871,-0.00650993,-0.006521344,-0.0683585,-0.4554059,0.8876556,-0.22488478,0.87387186,0.43101588,-0.9719845,-0.17015675,-0.16215053,,0.109300114,1.3586861,0.45859572,0.99613965,0.03326119,-0.08123759,-0.025798647,-0.77364206,-0.6330974,-0.0839064,0.63274926,-0.76979744,,-0.07823412,0.25523126,-0.062436763,0.9766813,-0.016745321,0.21404034,-0.185808,0.43353498,0.8817725,-0.10755953,-0.9009811,0.42031407,,-0.0076757898,0.4264142,-0.2776254,0.20488064,0.5170327,-0.8310843,-0.80092233,0.5766357,0.16129056,0.5626254,0.6325887,0.53224456,,1.2869857107566403,0.12663737367153352,0.18900685974,0.8169520198157069,0.24375951558154577,1.3820407964860257,-0.40934022973250395,,-0.770759631779103,-0.19906116256601097,0.22549742324000002,1.3139171858740295,1.0317422097288407,0.18032109086647452,0.7317814162815712,,-0.03987859174650544,-0.09379617566374027,0.05836094732,-0.08765896690267068,,-4.9509108e-05,4.172325e-06,-6.7949295e-06,0.99999994,2.689287e-05,2.2113323e-05,-2.6904047e-05,1.0,2.9206276e-06,-2.2113323e-05,-2.95043e-06,1.0,202,0.613,0,0,0.0,False,-0.26101001227556386,0.9062676316460738
0.638267802001792,10:54:48.696687,10:54:32.446873,0,,0.12092532,-0.00086681545,0.017098606,-0.98459566,-0.10711306,-0.13819626,-0.10654977,-0.25910574,0.9599538,-0.13863102,0.9598912,0.24370146,,0.074947275,-0.0065101087,-0.0065220594,-0.06836575,-0.4553353,0.88769126,-0.22488594,0.87390655,0.43094495,-0.9719837,-0.1701675,-0.16214386,,0.109300114,1.3586861,0.45859572,0.99613965,0.03326119,-0.08123759,-0.025798647,-0.77364206,-0.6330974,-0.0839064,0.63274926,-0.76979744,,-0.07842261,0.25533372,-0.06249246,0.97688997,-0.0147549305,0.21323286,-0.18599942,0.43283638,0.8820753,-0.105309896,-0.90135175,0.4200891,,-0.007674261,0.42641369,-0.27762517,0.20488761,0.5169663,-0.8311239,-0.8009222,0.57665026,0.16123915,0.562623,0.6326297,0.5321983,,1.2865223467841869,0.12740964695895596,0.18887593445000003,0.817371399702676,0.24512588057920015,1.3822334772913107,-0.4090135416002354,,-0.7707519090462287,-0.19906116256601097,0.22549742324000002,1.3139171858740295,1.0317422097288407,0.18023941212633388,0.7319447603477055,,-0.03987859174650544,-0.09379617566374027,0.05836094732,-0.08765896690267068,,-4.9509108e-05,4.172325e-06,-6.7949295e-06,0.99999994,2.689287e-05,2.2113323e-05,-2.6904047e-05,1.0,2.9206276e-06,-2.2113323e-05,-2.95043e-06,1.0,210,0.637,0,0,0.0,False,-0.261427056305211,0.9063159118468533
0.6671900380024454,10:54:48.725297,10:54:32.446873,0,,0.12110115,-0.00084744394,0.017200619,-0.98438305,-0.1100675,-0.13738683,-0.10507752,-0.2587772,0.9602047,-0.14123991,0.9596455,0.24317014,,0.07494871,-0.00650993,-0.006521344,-0.0683585,-0.4554784,0.88761836,-0.22488478,0.87383664,0.43108726,-0.9719845,-0.17014349,-0.16216442,,0.109300114,1.3586861,0.45859572,0.99613965,0.03326119,-0.08123759,-0.025798647,-0.77364206,-0.6330974,-0.0839064,0.63274926,-0.76979744,,-0.078604564,0.2554179,-0.0625312,0.97708803,-0.011772526,0.2125098,-0.18659759,0.43287915,0.88192797,-0.10237358,-0.9013751,0.4207643,,-0.0076757898,0.4264142,-0.2776254,0.20488064,0.5171006,-0.83104205,-0.80092233,0.57662255,0.16133766,0.5626254,0.6325452,0.53229624,,1.2860512600788592,0.12809697018476193,0.18876963867000002,0.8175810896461604,0.24731206457544722,1.3814309357138543,-0.40917688566636956,,-0.770759631779103,-0.19906116256601097,0.22549742324000002,1.3139171858740295,1.0317422097288407,0.18040276960661505,0.7319447603477054,,-0.03987859174650544,-0.09379617566374027,0.05836094732,-0.08765896690267068,,-4.9509108e-05,4.172325e-06,-6.7949295e-06,0.99999994,2.689287e-05,2.2113323e-05,-2.6904047e-05,1.0,2.9206276e-06,-2.2113323e-05,-2.95043e-06,1.0,222,0.674,0,0,0.0,False,-0.2608312791200009,0.9065573128507505
0.6957851409970317,10:54:48.759546,10:54:32.576774,0,,0.12126363,-0.0008431524,0.017311037,-0.98432046,-0.110899895,-0.13716596,-0.10444897,-0.2601776,0.9598948,-0.14213976,0.95917094,0.24451473,,0.07495171,-0.006511271,-0.0065196753,-0.06834403,-0.4555441,0.88758576,-0.22488904,0.8738028,0.43115374,-0.97198457,-0.17014164,-0.16216616,,0.109300114,1.3586861,0.45859572,0.99613965,0.03326119,-0.08123759,-0.025798647,-0.77364206,-0.6330974,-0.0839064,0.63274926,-0.76979744,,-0.07877571,0.255496,-0.062587954,0.9771795,-0.011048595,0.2121276,-0.18671295,0.43149877,0.8825798,-0.101284064,-0.90204585,0.41958883,,-0.0076790545,0.42641404,-0.27762708,0.20486616,0.5171636,-0.8310064,-0.8009265,0.57660246,0.16138871,0.56262475,0.632512,0.53233635,,1.2855492824420345,0.12875340247907102,0.18864778741000002,0.817790779589645,0.24758533757497808,1.3826783172289918,-0.4090135416002352,,-0.7707750772448514,-0.1990688852988852,0.22549742324000002,1.3139171858740295,1.0317422097288407,0.1804844483467556,0.7317814162815711,,-0.03987859174650544,-0.09379617566374027,0.05836094732,-0.08765896690267068,,-4.9509108e-05,4.172325e-06,-6.7949295e-06,0.99999994,2.689287e-05,2.2113323e-05,-2.6904047e-05,1.0,2.9206276e-06,-2.2113323e-05,-2.95043e-06,1.0,233,0.708,0,0,0.0,False,-0.2611887454311268,0.9062676316460738
0.7300462370039895,10:54:48.791144,10:54:32.576774,0,,0.121422045,-0.00082169473,0.017405972,-0.9842595,-0.11153822,-0.13708541,-0.10415679,-0.26054683,0.95982635,-0.14277449,0.9589967,0.2448281,,0.07495037,-0.006513089,-0.006520331,-0.06835129,-0.45561552,0.8875485,-0.22489673,0.8737673,0.4312215,-0.97198224,-0.17013234,-0.16218965,,0.109300114,1.3586861,0.45859572,0.99613965,0.03326119,-0.08123759,-0.025798647,-0.77364206,-0.6330974,-0.0839064,0.63274926,-0.76979744,,-0.07893953,0.25557685,-0.06262256,0.9772117,-0.010438383,0.21201013,-0.18690816,0.4310964,0.8827351,-0.10061113,-0.9022455,0.41932145,,-0.0076777334,0.42641237,-0.277628,0.20487262,0.5172309,-0.8309629,-0.8009303,0.5765865,0.16142681,0.56261694,0.63247144,0.53239274,,1.2850627502709584,0.1294638939034997,0.18854667679,0.817790779589645,0.24744870107521263,1.3827897351326883,-0.4090135416002352,,-0.7707673545119772,-0.19907660803175942,0.22549742324000002,1.3139171858740295,1.0317422097288407,0.18056612708689623,0.7316180722154367,,-0.03987859174650544,-0.09379617566374027,0.05836094732,-0.08765896690267068,,-4.9509108e-05,4.172325e-06,-6.7949295e-06,0.99999994,2.689287e-05,2.2113323e-05,-2.6904047e-05,1.0,2.9206276e-06,-2.2113323e-05,-2.95043e-06,1.0,241,0.732,0,0,0.0,False,-0.2607717014014801,0.9063641920476329
0.7616363569977693,10:54:48.809265,10:54:32.576774,0,,0.12154903,-0.0007959157,0.017478034,-0.9840778,-0.1144775,-0.1359628,-0.10252551,-0.25925627,0.96035135,-0.14518784,0.95900005,0.24339145,,0.07495096,-0.006516263,-0.006519854,-0.068382405,-0.45544553,0.8876334,-0.22480243,0.87386906,0.43106452,-0.9720019,-0.17006496,-0.16214257,,0.109300114,1.3586861,0.45859572,0.99613965,0.03326119,-0.08123759,-0.025798647,-0.77364206,-0.6330974,-0.0839064,0.63274926,-0.76979744,,-0.079069555,0.25564548,-0.062641725,0.9774378,-0.007394843,0.21109413,-0.18725848,0.4320285,0.882205,-0.09772245,-0.9018296,0.42089623,,-0.0076785297,0.42641023,-0.27763033,0.2049108,0.5170577,-0.8310613,-0.80087006,0.5766962,0.16133384,0.5626888,0.63251305,0.53226733,,1.284777009154612,0.12998903973894696,0.18847797342000003,0.818210159476614,0.24977152157122512,1.38105898825013,-0.4090135416002354,,-0.7707673545119772,-0.19908433076463364,0.22549742324000002,1.3141268758175142,1.0317422097288407,0.18056612708689623,0.7316180722154367,,-0.03987859174650544,-0.09379617566374027,0.05836094732,-0.08765896690267068,,-4.9509108e-05,4.172325e-06,-6.7949295e-06,0.99999994,2.689287e-05,2.2113323e-05,-2.6904047e-05,1.0,2.9206276e-06,-2.2113323e-05,-2.95043e-06,1.0,249,0.756,0,0,0.0,False,-0.2608312791200009,0.9061227910437353
0.7797107880032854,10:54:48.838744,10:54:32.576774,0,,0.121758096,-0.0007388145,0.017604575,-0.98378575,-0.11879408,-0.13436383,-0.09967515,-0.26067233,0.96026814,-0.14909908,0.9580908,0.24460483,,0.07495284,-0.0065227,-0.0065185428,-0.06837523,-0.45543173,0.8876411,-0.22482741,0.87387085,0.43104792,-0.9719966,-0.17009309,-0.16214472,,0.109300114,1.3586861,0.45859572,0.99613965,0.03326119,-0.08123759,-0.025798647,-0.77364206,-0.6330974,-0.0839064,0.63274926,-0.76979744,,-0.079282865,0.2557747,-0.06266967,0.9778282,-0.0031817048,0.20938441,-0.18767042,0.43029937,0.8829622,-0.0929073,-0.90268064,0.42016175,,-0.0076808888,0.42640612,-0.27763525,0.20490174,0.5170484,-0.83106935,-0.8008859,0.5766783,0.16131945,0.5626696,0.63253707,0.53225917,,1.284359981579404,0.13093121314960235,0.18836389990000002,0.8190489192505521,0.25359734356465746,1.3818598664733772,-0.40852350940183224,,-0.7707750772448514,-0.19911522169613052,0.22549742324000002,1.3141268758175142,1.0317422097288407,0.18056612708689623,0.7316180722154367,,-0.03987859174650544,-0.09379617566374027,0.05836094732,-0.08765896690267068,,-4.9509108e-05,4.172325e-06,-6.7949295e-06,0.99999994,2.689287e-05,2.2113323e-05,-2.6904047e-05,1.0,2.9206276e-06,-2.2113323e-05,-2.95043e-06,1.0,257,0.78,0,0,0.0,False,-0.26053339052739544,0.9065573128507505
0.8092422310000984,10:54:48.864496,10:54:32.701672,0,,0.121889345,-0.0006764382,0.01769355,-0.9835188,-0.12027204,-0.13500166,-0.0996211,-0.2626317,0.9597396,-0.15088558,0.957371,0.24632153,,0.07495151,-0.006524503,-0.006519139,-0.06838251,-0.45535812,0.8876784,-0.22483507,0.8739059,0.43097293,-0.9719943,-0.17011029,-0.16214037,,0.109300114,1.3586861,0.45859572,0.99613965,0.03326119,-0.08123759,-0.025798647,-0.77364206,-0.6330974,-0.0839064,0.63274926,-0.76979744,,-0.079414934,0.2558821,-0.062677175,0.9777441,-0.0018532788,0.20979293,-0.18879801,0.42832682,0.88368064,-0.091497645,-0.903622,0.41844413,,-0.0076795677,0.42640445,-0.27763617,0.2049082,0.51698005,-0.8311103,-0.80088973,0.57668865,0.16126336,0.56266177,0.6325835,0.5322122,,1.284120576860303,0.13168804097127634,0.18829130766000002,0.818210159476614,0.25455379906301556,1.3831219096510163,-0.40917688566636956,,-0.7707673545119772,-0.19912294442900474,0.22549742324000002,1.3141268758175142,1.0317422097288407,0.1804844483467557,0.7314547281493026,,-0.03987859174650544,-0.09379617566374027,0.05836094732,-0.08765896690267068,,-4.9509108e-05,4.172325e-06,-6.7949295e-06,0.99999994,2.689287e-05,2.2113323e-05,-2.6904047e-05,1.0,2.9206276e-06,-2.2113323e-05,-2.95043e-06,1.0,265,0.805,0,0,0.0,False,-0.26053339052739544,0.906509032649971
0.8349985230015591,10:54:48.890678,10:54:32.701672,0,,0.12210013,-0.00055365264,0.017840669,-0.9833213,-0.12153299,-0.13531028,-0.099450245,-0.26360947,0.95948935,-0.15227866,0.956943,0.24712631,,0.07495397,-0.0065340996,-0.0065174103,-0.06840644,-0.45517415,0.8877708,-0.22476578,0.87400925,0.43079937,-0.9720087,-0.17007104,-0.16209549,,0.109300114,1.3586861,0.45859572,0.99613965,0.03326119,-0.08123759,-0.025798647,-0.77364206,-0.6330974,-0.0839064,0.63274926,-0.76979744,,-0.07962509,0.25607443,-0.062677704,0.9777025,-0.0006655935,0.20999366,-0.18958037,0.42728955,0.88401526,-0.09031649,-0.9041146,0.4176359,,-0.0076827225,0.4263982,-0.2776434,0.20493731,0.5167974,-0.83121663,-0.8008453,0.5767803,0.16115598,0.5627144,0.63264906,0.5320786,,1.2837576084152145,0.1330626874228883,0.18817723414,0.8175810896461604,0.254690435562781,1.3830921704874606,-0.40934022973250395,,-0.7707750772448514,-0.19916155809337588,0.22549742324000002,1.3143365657609987,1.0317422097288407,0.1804844483467557,0.7314547281493026,,-0.03987859174650544,-0.09379617566374027,0.05836094732,-0.08765896690267068,,-4.9509108e-05,4.172325e-06,-6.7949295e-06,0.99999994,2.689287e-05,2.2113323e-05,-2.6904047e-05,1.0,2.9206276e-06,-2.2113323e-05,-2.95043e-06,1.0,276,0.839,0,0,0.0,False,-0.2608312791200009,0.9063159118468533
0.8611768639966613,10:54:48.922028,10:54:32.701672,0,,0.122282945,-0.00037635863,0.017950848,-0.983222,-0.123695314,-0.13406673,-0.09767438,-0.26371667,0.9596423,-0.15405887,0.95663625,0.24721012,,0.074875504,-0.006546423,-0.006537318,-0.06850047,-0.4551315,0.8877854,-0.22477621,0.87403613,0.43073934,-0.9719996,-0.17004725,-0.16217467,,0.109324805,1.3586845,0.45858476,0.99613917,0.033247847,-0.081248514,-0.02581583,-0.77364266,-0.63309604,-0.0839064,0.63274926,-0.76979744,,-0.07982112,0.25628915,-0.06262627,0.97796,0.0014890694,0.20878696,-0.18942048,0.4269739,0.884202,-0.08782995,-0.9042627,0.41784546,,-0.0076257517,0.42638567,-0.27765626,0.20502378,0.5167675,-0.83121395,-0.80084306,0.5768075,0.16106984,0.5626861,0.63264877,0.5321089,,1.2833483035728805,0.1345763430662363,0.18811630851000002,0.818210159476614,0.25578352756090456,1.38228250599803,-0.40917688566636956,,-0.7707673545119772,-0.19917700355912432,0.22549742324000002,1.3143365657609987,1.0317422097288407,0.1804844483467557,0.7314547281493026,,-0.03987859174650544,-0.09379617566374027,0.05836094732,-0.08765896690267068,,-2.3949891e-05,-8.34465e-07,7.1525574e-07,0.99999994,1.3619661e-05,1.1205673e-05,-1.3623387e-05,1.0,1.4603138e-06,-1.1198223e-05,-1.4603138e-06,1.0,284,0.863,0,0,0.0,False,-0.2608312791200009,0.9063159118468533
0.8925165269902209,10:54:48.941085,10:54:32.701672,0,,0.122442834,-0.00026643276,0.01801762,-0.98298043,-0.12631819,-0.1333907,-0.09641436,-0.26334044,0.9598729,-0.15637657,0.9563972,0.24667957,,0.074881375,-0.006547481,-0.006534219,-0.06847152,-0.45526594,0.8877187,-0.22477815,0.87396806,0.43087643,-0.97200125,-0.17003709,-0.16217583,,0.109324805,1.3586845,0.45858476,0.99613917,0.033247847,-0.081248514,-0.02581583,-0.77364266,-0.63309604,-0.0839064,0.63274926,-0.76979744,,-0.0799744,0.2564183,-0.062582254,0.9780788,0.0041476362,0.20819376,-0.18998723,0.4270618,0.8840379,-0.08524493,-0.90421295,0.4184881,,-0.0076320735,0.42638654,-0.2776584,0.20499535,0.5168955,-0.8311414,-0.8008475,0.57677156,0.16117667,0.5626902,0.632577,0.5321899,,1.2830934533880312,0.1355802983398855,0.18808130868000003,0.818210159476614,0.2575598020578552,1.3810791094703982,-0.4086868534679666,,-0.7707982454434741,-0.19918472629199854,0.22549742324000002,1.3143365657609987,1.0317422097288407,0.18064780582703677,0.7317814162815709,,-0.03987859174650544,-0.09379617566374027,0.05836094732,-0.08765896690267068,,-2.3949891e-05,-8.34465e-07,7.1525574e-07,0.99999994,1.3619661e-05,1.1205673e-05,-1.3623387e-05,1.0,1.4603138e-06,-1.1198223e-05,-1.4603138e-06,1.0,292,0.887,0,0,0.0,False,-0.26101001227556386,0.9061227910437353
0.9115885689971037,10:54:48.967893,10:54:32.701672,0,,0.12265101,-0.00011076033,0.018096745,-0.9828828,-0.12750727,-0.13297823,-0.09543161,-0.26504275,0.9595026,-0.15758847,0.95576894,0.24833769,,0.074885696,-0.006546989,-0.0065320134,-0.06844978,-0.4552603,0.8877232,-0.22477472,0.8739697,0.43087512,-0.9720035,-0.17004448,-0.16215411,,0.109324805,1.3586845,0.45858476,0.99613917,0.033247847,-0.081248514,-0.02581583,-0.77364266,-0.63309604,-0.0839064,0.63274926,-0.76979744,,-0.0801719,0.25659075,-0.06251098,0.9782031,0.005208032,0.20758499,-0.19003963,0.42534757,0.88485277,-0.083687425,-0.9050151,0.41706607,,-0.0076366593,0.42638806,-0.27765912,0.20497441,0.51689106,-0.8311493,-0.80084777,0.5767675,0.16118963,0.56269735,0.63258433,0.53217363,,1.28270731674432,0.1370012811887428,0.18804371627000002,0.8184198494200986,0.2578330750573861,1.3819997760249731,-0.4096669178647727,,-0.7708214136420968,-0.19918472629199854,0.22549742324000002,1.3143365657609987,1.0317422097288407,0.18064780582703677,0.7317814162815709,,-0.03987859174650544,-0.09379617566374027,0.05836094732,-0.08765896690267068,,-2.3949891e-05,-8.34465e-07,7.1525574e-07,0.99999994,1.3619661e-05,1.1205673e-05,-1.3623387e-05,1.0,1.4603138e-06,-1.1198223e-05,-1.4603138e-06,1.0,300,0.912,0,0,0.0,False,-0.26059296824591627,0.9060262306421762
0.9383974410011433,10:54:48.996247,10:54:32.701672,0,,0.12281574,4.708767e-06,0.018148586,-0.98267055,-0.12845907,-0.13362901,-0.09563692,-0.2661786,0.9591676,-0.15878296,0.9553257,0.2492804,,0.07489014,-0.006548211,-0.0065295994,-0.068428084,-0.4551791,0.8877665,-0.22477782,0.87400657,0.43079844,-0.9720043,-0.17007157,-0.16212088,,0.109324805,1.3586845,0.45858476,0.99613917,0.033247847,-0.081248514,-0.02581583,-0.77364266,-0.63309604,-0.0839064,0.63274926,-0.76979744,,-0.08032794,0.25671434,-0.06245153,0.97808826,0.0060746754,0.20810206,-0.19097522,0.42418563,0.885209,-0.08289655,-0.9055549,0.4160511,,-0.0076414524,0.4263884,-0.27766103,0.20495297,0.5168168,-0.8312007,-0.80085206,0.5767724,0.1611508,0.5626991,0.6326405,0.532105,,1.2823443482992314,0.13807474105826,0.18802038305000002,0.8175810896461604,0.2578330750573861,1.3823264909855353,-0.40885019753410123,,-0.7708445818407195,-0.1991924490248728,0.22549742324000002,1.3143365657609987,1.0317422097288407,0.18056612708689612,0.7319447603477053,,-0.03987859174650544,-0.09379617566374027,0.05836094732,-0.08765896690267068,,-2.3949891e-05,-8.34465e-07,7.1525574e-07,0.99999994,1.3619661e-05,1.1205673e-05,-1.3623387e-05,1.0,1.4603138e-06,-1.1198223e-05,-1.4603138e-06,1.0,308,0.936,0,0,0.0,False,-0.26160578946077395,0.9068952742562066
0.9667427789972862,10:54:49.022188,10:54:32.701672,0,,0.1230342,0.0001500994,0.018198773,-0.98244476,-0.12920076,-0.13457103,-0.09611055,-0.2677148,0.9586926,-0.15989046,0.9547963,0.25059736,,0.07489312,-0.006549582,-0.00652802,-0.06841364,-0.45524484,0.88773394,-0.22478211,0.8739727,0.43086493,-0.9720044,-0.1700697,-0.1621226,,0.109324805,1.3586845,0.45858476,0.99613917,0.033247847,-0.081248514,-0.02581583,-0.77364266,-0.63309604,-0.0839064,0.63274926,-0.76979744,,-0.08053388,0.25686023,-0.0623638,0.9779234,0.0066999933,0.20885623,-0.19205596,0.42266828,0.8857009,-0.082342714,-0.9062597,0.41462398,,-0.007644717,0.42638826,-0.2776627,0.2049385,0.5168798,-0.83116513,-0.80085623,0.57675236,0.16120186,0.5626984,0.6326073,0.53214514,,1.2817883115322872,0.1394571102427462,0.18800223499000002,0.8165326399287379,0.2572865290583244,1.3829355200806022,-0.40868685346796685,,-0.7708600273064679,-0.199200171757747,0.22549742324000002,1.3143365657609987,1.0317422097288407,0.18064780582703677,0.7321081044138397,,-0.03987859174650544,-0.09379617566374027,0.05836094732,-0.08765896690267068,,-2.3949891e-05,-8.34465e-07,7.1525574e-07,0.99999994,1.3619661e-05,1.1205673e-05,-1.3623387e-05,1.0,1.4603138e-06,-1.1198223e-05,-1.4603138e-06,1.0,327,0.995,0,0,0.0,False,-0.2617249448978165,0.9069435544569862
0.9926876520039514,10:54:49.070798,10:54:32.873266,0,,0.1233496,0.0003682375,0.018259063,-0.98182416,-0.13301502,-0.13538203,-0.09577553,-0.26858953,0.9584815,-0.16385461,0.9540266,0.25096804,,0.07489301,-0.0065479875,-0.006528139,-0.06841359,-0.45539284,0.887658,-0.22477552,0.873902,0.4310117,-0.97200596,-0.1700368,-0.162148,,0.109324805,1.3586845,0.45858476,0.99613917,0.033247847,-0.081248514,-0.02581583,-0.77364266,-0.63309604,-0.0839064,0.63274926,-0.76979744,,-0.080829136,0.25706905,-0.0622227,0.97773117,0.010458842,0.20960064,-0.19439533,0.4214464,0.88577276,-0.07907128,-0.906793,0.41409445,,-0.0076445094,0.4263894,-0.27766153,0.20493901,0.51701754,-0.83107936,-0.8008523,0.5767302,0.16130076,0.56270385,0.63251495,0.53224915,,1.2810778201078585,0.1413800707284281,0.18799704983,0.8148551203808616,0.25919944005504053,1.3821107780901172,-0.41048363819544376,,-0.7708600273064679,-0.1991924490248728,0.22549742324000002,1.3143365657609987,1.0317422097288407,0.18081116330731783,0.7321081044138394,,-0.03987859174650544,-0.09379617566374027,0.05836094732,-0.08765896690267068,,-2.3949891e-05,-8.34465e-07,7.1525574e-07,0.99999994,1.3619661e-05,1.1205673e-05,-1.3623387e-05,1.0,1.4603138e-06,-1.1198223e-05,-1.4603138e-06,1.0,348,1.059,0,0,0.0,False,-0.2622015666459845,0.9072815158624423
1.041262133003329,10:54:49.137170,10:54:32.873266,0,,0.12362938,0.0006761104,0.018359512,-0.9804118,-0.13911965,-0.13942143,-0.097910255,-0.2699599,0.95788056,-0.17089821,0.9527682,0.25105065,,0.07489504,-0.006550938,-0.006526947,-0.06843741,-0.45536596,0.88767,-0.22467998,0.8739338,0.43099713,-0.9720263,-0.16994545,-0.16212147,,0.109324805,1.3586845,0.45858476,0.99613917,0.033247847,-0.081248514,-0.02581583,-0.77364266,-0.63309604,-0.0839064,0.63274926,-0.76979744,,-0.08108369,0.2573714,-0.062058564,0.976798,0.016480474,0.21352774,-0.20060697,0.41949597,0.8853135,-0.07498364,-0.90760756,0.41306892,,-0.0076468335,0.4263878,-0.2776641,0.20497017,0.5169786,-0.8310959,-0.80079216,0.57681215,0.16130634,0.5627781,0.63247204,0.5322217,,1.2808693063202545,0.14356560413183364,0.18800223499000002,0.808983801963295,0.2630252620484728,1.3800529004084447,-0.4099936059970408,,-0.7708677500393422,-0.199200171757747,0.22549742324000002,1.3145462557044831,1.0317422097288407,0.1809745207875989,0.7327614806783765,,-0.03987859174650544,-0.09379617566374027,0.05836094732,-0.08765896690267068,,-2.3949891e-05,-8.34465e-07,7.1525574e-07,0.99999994,1.3619661e-05,1.1205673e-05,-1.3623387e-05,1.0,1.4603138e-06,-1.1198223e-05,-1.4603138e-06,1.0,356,1.084,0,0,0.0,False,-0.2612483231496481,0.9073780762640014
1.107649922996643,10:54:49.162620,10:54:32.873266,0,,0.123675205,0.00076524913,0.018394247,-0.9795866,-0.14120467,-0.14307784,-0.10036743,-0.27313343,0.95672596,-0.1741735,0.9515563,0.2533854,,0.07489659,-0.0065524727,-0.006526023,-0.068430185,-0.45550615,0.88759863,-0.22468537,0.8738642,0.43113542,-0.9720255,-0.16992787,-0.16214436,,0.109324805,1.3586845,0.45858476,0.99613917,0.033247847,-0.081248514,-0.02581583,-0.77364266,-0.63309604,-0.0839064,0.63274926,-0.76979744,,-0.08112312,0.2574621,-0.06202026,0.97604436,0.018330952,0.21679805,-0.20459776,0.41627553,0.8859201,-0.074007966,-0.90905374,0.41005385,,-0.0076485695,0.42638713,-0.27766553,0.20496267,0.51711094,-0.8310154,-0.80079615,0.57678026,0.1614002,0.5627751,0.63239294,0.5323189,,1.2809774245804937,0.14402896810428711,0.18800482757,0.8052093829805734,0.2646649000456581,1.381656320209148,-0.40901354160023495,,-0.7708754727722164,-0.19920789449062123,0.22549742324000002,1.3145462557044831,1.0317422097288407,0.1811378782678802,0.733414856942914,,-0.03987859174650544,-0.09379617566374027,0.05836094732,-0.08765896690267068,,-2.3949891e-05,-8.34465e-07,7.1525574e-07,0.99999994,1.3619661e-05,1.1205673e-05,-1.3623387e-05,1.0,1.4603138e-06,-1.1198223e-05,-1.4603138e-06,1.0,364,1.108,0,0,0.0,False,-0.26154621174225356,0.9076194772678985
1.1331138859968632,10:54:49.197575,10:54:32.873266,0,,0.12372761,0.00087966025,0.018449306,-0.97873574,-0.14630255,-0.14377685,-0.099520184,-0.27422014,0.95650357,-0.17936544,0.95047295,0.25382897,,0.07489968,-0.0065554976,-0.006524265,-0.068415746,-0.45549634,0.8876048,-0.22469613,0.87386584,0.43112648,-0.9720241,-0.16994569,-0.16213456,,0.109324805,1.3586845,0.45858476,0.99613917,0.033247847,-0.081248514,-0.02581583,-0.77364266,-0.63309604,-0.0839064,0.63274926,-0.76979744,,-0.08116841,0.25758535,-0.061979875,0.9757976,0.023368716,0.21742335,-0.20735298,0.41466883,0.886033,-0.06945323,-0.90967226,0.40947843,,-0.0076520415,0.42638582,-0.27766836,0.20494768,0.5171041,-0.8310234,-0.80080426,0.57676923,0.16139948,0.56276906,0.6324086,0.5323067,,1.2812940566283368,0.14458500487123127,0.18800612386,0.8033221734892128,0.269583814037214,1.381157461502121,-0.40917688566636934,,-0.7708909182379647,-0.19922333995636968,0.22549742324000002,1.3145462557044831,1.0317422097288407,0.1811378782678802,0.733414856942914,,-0.03987859174650544,-0.09379617566374027,0.05836094732,-0.08765896690267068,,-2.3949891e-05,-8.34465e-07,7.1525574e-07,0.99999994,1.3619661e-05,1.1205673e-05,-1.3623387e-05,1.0,1.4603138e-06,-1.1198223e-05,-1.4603138e-06,1.0,372,1.133,0,0,0.0,False,-0.26112916771260597,0.9078125980710166
1.1680775669956347,10:54:49.218290,10:54:32.873266,0,,0.123778194,0.0009866208,0.018510178,-0.97723645,-0.15444614,-0.14544833,-0.098509714,-0.27685586,0.95584863,-0.18789536,0.94841826,0.25533912,,0.07489968,-0.0065554976,-0.006524265,-0.068415746,-0.45549634,0.8876048,-0.22469613,0.87386584,0.43112648,-0.9720241,-0.16994569,-0.16213456,,0.109324805,1.3586845,0.45858476,0.99613917,0.033247847,-0.081248514,-0.02581583,-0.77364266,-0.63309604,-0.0839064,0.63274926,-0.76979744,,-0.08121325,0.25770673,-0.06194892,0.975252,0.031353936,0.21886183,-0.21216589,0.41121086,0.88650507,-0.062202938,-0.91100085,0.40768644,,-0.0076520415,0.42638582,-0.27766836,0.20494768,0.5171041,-0.8310234,-0.80080426,0.57676923,0.16139948,0.56276906,0.6324086,0.5323067,,1.281711084203545,0.14498658698069095,0.18800742015000002,0.7999671343934605,0.27778200402314046,1.3815784376725646,-0.41228042292292066,,-0.7708909182379647,-0.19922333995636968,0.22549742324000002,1.3145462557044831,1.0317422097288407,0.1811378782678802,0.733414856942914,,-0.03987859174650544,-0.09379617566374027,0.05836094732,-0.08765896690267068,,-2.3949891e-05,-8.34465e-07,7.1525574e-07,0.99999994,1.3619661e-05,1.1205673e-05,-1.3623387e-05,1.0,1.4603138e-06,-1.1198223e-05,-1.4603138e-06,1.0,384,1.17,0,0,0.0,False,-0.26106958999408425,0.9077160376694575
1.1887918939901283,10:54:49.248476,10:54:32.873266,0,,0.12378447,0.0010761768,0.018563077,-0.9764564,-0.15871204,-0.14609304,-0.09721812,-0.2807922,0.95483214,-0.19256516,0.9465549,0.25875163,,0.07489847,-0.0065589547,-0.0065247416,-0.068423025,-0.4554922,0.88760626,-0.2247104,0.87386596,0.4311188,-0.97202027,-0.16995597,-0.16214645,,0.109324805,1.3586845,0.45858476,0.99613917,0.033247847,-0.081248514,-0.02581583,-0.77364266,-0.63309604,-0.0839064,0.63274926,-0.76979744,,-0.08121527,0.2578091,-0.06192958,0.9750708,0.035346787,0.21906061,-0.2142443,0.40695488,0.88796794,-0.057760973,-0.91276413,0.40438268,,-0.0076509276,0.426383,-0.27767044,0.20495361,0.5171016,-0.83102345,-0.800812,0.5767623,0.1613858,0.5627558,0.63241696,0.53231066,,1.2821744481759985,0.14529549629565994,0.18800742015000002,0.7987089947325532,0.2827009180146963,1.3843467285711601,-0.40983026193090666,,-0.7708831955050905,-0.19923878542211812,0.22549742324000002,1.3145462557044831,1.0317422097288407,0.1811378782678802,0.733414856942914,,-0.03987859174650544,-0.09379617566374027,0.05836094732,-0.08765896690267068,,-2.3949891e-05,-8.34465e-07,7.1525574e-07,0.99999994,1.3619661e-05,1.1205673e-05,-1.3623387e-05,1.0,1.4603138e-06,-1.1198223e-05,-1.4603138e-06,1.0,392,1.194,0,0,0.0,False,-0.26190367805337944,0.9077160376694575
1.2189187420008238,10:54:49.280752,10:54:32.873266,0,,0.12375,0.0011653155,0.018615827,-0.97579604,-0.16041657,-0.14862235,-0.09908738,-0.28151724,0.9544264,-0.19494557,0.9460521,0.2588081,,0.07489714,-0.006560728,-0.0065253973,-0.06843031,-0.45549113,0.8876063,-0.22471803,0.8738658,0.4311152,-0.972018,-0.1699599,-0.16215609,,0.109324805,1.3586845,0.45858476,0.99613917,0.033247847,-0.081248514,-0.02581583,-0.77364266,-0.63309604,-0.0839064,0.63274926,-0.76979744,,-0.081176996,0.25791046,-0.061916158,0.9744543,0.03700717,0.22151604,-0.21720678,0.4060526,0.8876613,-0.057097327,-0.91310006,0.40371788,,-0.0076496066,0.42638132,-0.27767134,0.20496008,0.5171011,-0.83102214,-0.8008158,0.5767595,0.1613768,0.5627481,0.6324199,0.53231543,,1.2826841485456972,0.14557351467913202,0.18800482757,0.7955636455802855,0.28420391951211615,1.383529525331202,-0.41032029412930937,,-0.7708754727722164,-0.19924650815499234,0.22549742324000002,1.3145462557044831,1.0317422097288407,0.1811378782678802,0.733414856942914,,-0.03987859174650544,-0.09379617566374027,0.05836094732,-0.08765896690267068,,-2.3949891e-05,-8.34465e-07,7.1525574e-07,0.99999994,1.3619661e-05,1.1205673e-05,-1.3623387e-05,1.0,1.4603138e-06,-1.1198223e-05,-1.4603138e-06,1.0,404,1.232,0,0,0.0,False,-0.26148663402373185,0.907764317870237
1.2512204569939058,10:54:49.310233,10:54:32.873266,0,,0.12372706,0.0012698025,0.018684864,-0.97502756,-0.16402392,-0.1497243,-0.09933375,-0.28088447,0.9545872,-0.19863035,0.9456215,0.25757694,,0.074900016,-0.00656043,-0.0065238774,-0.06841581,-0.45548737,0.8876094,-0.22471574,0.87386674,0.43111435,-0.9720196,-0.16996485,-0.16214159,,0.109324805,1.3586845,0.45858476,0.99613917,0.033247847,-0.081248514,-0.02581583,-0.77364266,-0.63309604,-0.0839064,0.63274926,-0.76979744,,-0.081150115,0.25803423,-0.06190339,0.9740277,0.040685583,0.22274366,-0.21979925,0.40619373,0.88695824,-0.05439067,-0.9128808,0.4045866,,-0.0076526636,0.42638233,-0.27767184,0.20494612,0.5170982,-0.83102745,-0.80081606,0.5767568,0.16138545,0.56275284,0.6324248,0.5323046,,1.2832865217098868,0.1459210376584721,0.18799704983,0.7932570562019556,0.28761983200625213,1.381234150179635,-0.4096669178647727,,-0.7708909182379647,-0.19924650815499234,0.22549742324000002,1.3145462557044831,1.0317422097288407,0.1811378782678802,0.733414856942914,,-0.03987859174650544,-0.09379617566374027,0.05836094732,-0.08765896690267068,,-2.3949891e-05,-8.34465e-07,7.1525574e-07,0.99999994,1.3619661e-05,1.1205673e-05,-1.3623387e-05,1.0,1.4603138e-06,-1.1198223e-05,-1.4603138e-06,1.0,429,1.309,0,0,0.0,False,-0.26041423509035333,0.9073297960632218
1.2807326009933604,10:54:49.388509,10:54:32.873266,0,,0.123668835,0.0015905797,0.018901289,-0.973239,-0.17053139,-0.15402856,-0.100765646,-0.28570187,0.95300615,-0.20652372,0.94302356,0.26087248,,0.07489868,-0.006562203,-0.0065244734,-0.06842308,-0.45555872,0.88757217,-0.22472343,0.87383133,0.4311821,-0.9720173,-0.16995558,-0.16216508,,0.109324805,1.3586845,0.45858476,0.99613917,0.033247847,-0.081248514,-0.02581583,-0.77364266,-0.63309604,-0.0839064,0.63274926,-0.76979744,,-0.08108012,0.2584174,-0.061865725,0.9728786,0.046876673,0.22651686,-0.22603269,0.40075767,0.887864,-0.04915826,-0.91498405,0.4004842,,-0.0076513425,0.4263807,-0.27767277,0.20495258,0.51716554,-0.8309839,-0.8008199,0.5767408,0.16142356,0.56274503,0.63238424,0.532361,,1.2849700774764676,0.14716439765122225,0.18795945742000003,0.7871760478409043,0.2944516569945242,1.3818708392454966,-0.4086868534679666,,-0.7708831955050905,-0.19925423088786656,0.22549742324000002,1.3145462557044831,1.0317422097288407,0.18121955700802073,0.7325981366122426,,-0.03987859174650544,-0.09379617566374027,0.05836094732,-0.08765896690267068,,-2.3949891e-05,-8.34465e-07,7.1525574e-07,0.99999994,1.3619661e-05,1.1205673e-05,-1.3623387e-05,1.0,1.4603138e-06,-1.1198223e-05,-1.4603138e-06,1.0,437,1.333,0,0,0.0,False,-0.26148663402373185,0.9073780762640014
1.359008493993315,10:54:49.419142,10:54:32.873266,0,,0.12363334,0.0017686933,0.01903677,-0.97279525,-0.17167434,-0.15555443,-0.10157891,-0.28738523,0.9524135,-0.208209,0.94230443,0.26212838,,0.07489915,-0.006563708,-0.0065241456,-0.06845409,-0.4553193,0.8876927,-0.22462255,0.87396795,0.43095782,-0.9720384,-0.16989505,-0.16210173,,0.109324805,1.3586845,0.45858476,0.99613917,0.033247847,-0.081248514,-0.02581583,-0.77364266,-0.63309604,-0.0839064,0.63274926,-0.76979744,,-0.08103961,0.25864014,-0.06185671,0.972519,0.04790227,0.22784252,-0.22774555,0.39899883,0.8882184,-0.048361223,-0.91569936,0.39894345,,-0.00765193,0.4263797,-0.27767393,0.2049912,0.5169264,-0.8311232,-0.8007557,0.5768678,0.16128817,0.56282234,0.63246393,0.5321846,,1.285873637222752,0.1479675618701416,0.18791927243,0.7850791484060592,0.29568138549241313,1.3817665442537752,-0.4095035737986379,,-0.7708831955050905,-0.19925423088786656,0.22549742324000002,1.3147559456479676,1.0317422097288407,0.1811378782678802,0.7327614806783768,,-0.03987859174650544,-0.09379617566374027,0.05836094732,-0.08765896690267068,,-2.3949891e-05,-8.34465e-07,7.1525574e-07,0.99999994,1.3619661e-05,1.1205673e-05,-1.3623387e-05,1.0,1.4603138e-06,-1.1198223e-05,-1.4603138e-06,1.0,445,1.358,0,0,0.0,False,-0.26041423509035333,0.9076194772678985
1.3895850099943345,10:54:49.448400,10:54:33.267217,0,,0.12362329,0.0019444078,0.019160315,-0.9720078,-0.17473221,-0.15706475,-0.10222098,-0.28740662,0.95233834,-0.21154562,0.9417357,0.26150015,,0.074897714,-0.006563887,-0.006524861,-0.06846132,-0.45524865,0.88772833,-0.22462371,0.87400264,0.43088686,-0.9720377,-0.16990581,-0.16209513,,0.109324805,1.3586845,0.45858476,0.99613917,0.033247847,-0.081248514,-0.02581583,-0.77364266,-0.63309604,-0.0839064,0.63274926,-0.76979744,,-0.081023365,0.25885364,-0.06183671,0.9719983,0.050982013,0.22939081,-0.23040779,0.3985639,0.8877269,-0.046168786,-0.9157225,0.39915007,,-0.007650402,0.4263792,-0.2776737,0.20499818,0.51686,-0.83116275,-0.80075556,0.57688236,0.16123673,0.56281996,0.63250494,0.53213835,,1.2866768014416714,0.14876300335618672,0.18788945776000002,0.7823531791407604,0.29841411548772195,1.3796198649199871,-0.4093402297325037,,-0.7708754727722164,-0.19925423088786656,0.22549742324000002,1.3147559456479676,1.0317422097288407,0.18105619952773955,0.7329248247445111,,-0.03987859174650544,-0.09379617566374027,0.05836094732,-0.08765896690267068,,-2.3949891e-05,-8.34465e-07,7.1525574e-07,0.99999994,1.3619661e-05,1.1205673e-05,-1.3623387e-05,1.0,1.4603138e-06,-1.1198223e-05,-1.4603138e-06,1.0,457,1.395,0,0,0.0,False,-0.26059296824591627,0.9079091584725751
1.4188996040029451,10:54:49.479836,10:54:33.267217,0,,0.12364347,0.0021253377,0.019314036,-0.9711905,-0.18097168,-0.15504232,-0.098276675,-0.28854463,0.9524094,-0.21709576,0.9402081,0.26244646,,0.074899375,-0.006567046,-0.0065238476,-0.06845414,-0.4553133,0.88769567,-0.22463563,0.8739686,0.43094972,-0.97203535,-0.1699079,-0.1621064,,0.109324805,1.3586845,0.45858476,0.99613917,0.033247847,-0.081248514,-0.02581583,-0.77364266,-0.63309604,-0.0839064,0.63274926,-0.76979744,,-0.08103945,0.25909132,-0.061831616,0.9721432,0.057187658,0.2273042,-0.2310621,0.39661005,0.88843167,-0.0393438,-0.91620415,0.39877564,,-0.007652345,0.4263774,-0.27767628,0.20499016,0.5169225,-0.83112586,-0.80076355,0.57685953,0.16127883,0.5628115,0.6324747,0.5321832,,1.2875880839208298,0.14961250397235143,0.18784149503000003,0.7827725590277294,0.30524594047599396,1.379113051623881,-0.4093402297325037,,-0.7708831955050905,-0.19926967635361503,0.22549742324000002,1.3147559456479676,1.0317422097288407,0.18113787826788008,0.7330881688106453,,-0.03987859174650544,-0.09379617566374027,0.05836094732,-0.08765896690267068,,-2.3949891e-05,-8.34465e-07,7.1525574e-07,0.99999994,1.3619661e-05,1.1205673e-05,-1.3623387e-05,1.0,1.4603138e-06,-1.1198223e-05,-1.4603138e-06,1.0,465,1.419,0,0,0.0,False,-0.26106958999408425,0.9081022792756932
1.4503306749975309,10:54:49.501104,10:54:33.267217,0,,0.123639725,0.002221018,0.019411996,-0.9703745,-0.18311656,-0.15761219,-0.09943583,-0.29185423,0.9512799,-0.22019489,0.9387702,0.2649996,,0.07489804,-0.006568834,-0.0065244436,-0.06846139,-0.45531222,0.8876958,-0.22464326,0.87396836,0.43094614,-0.97203314,-0.1699118,-0.16211599,,0.109324805,1.3586845,0.45858476,0.99613917,0.033247847,-0.081248514,-0.02581583,-0.77364266,-0.63309604,-0.0839064,0.63274926,-0.76979744,,-0.081035316,0.25922772,-0.06184343,0.971517,0.059105184,0.22948046,-0.23395817,0.39313766,0.8892167,-0.037660092,-0.917578,0.39576805,,-0.007651024,0.42637572,-0.2776772,0.20499663,0.516922,-0.8311246,-0.80076736,0.57685673,0.16126983,0.56280375,0.63247764,0.53218794,,1.2880900615576545,0.1500526997461822,0.18780001375000002,0.779836899818946,0.3075687609720064,1.3808128118272265,-0.4083601653356981,,-0.7708754727722164,-0.19927739908648925,0.22549742324000002,1.3147559456479676,1.0317422097288407,0.18113787826788008,0.7330881688106453,,-0.03987859174650544,-0.09379617566374027,0.05836094732,-0.08765896690267068,,-2.3949891e-05,-8.34465e-07,7.1525574e-07,0.99999994,1.3619661e-05,1.1205673e-05,-1.3623387e-05,1.0,1.4603138e-06,-1.1198223e-05,-1.4603138e-06,1.0,473,1.444,0,0,0.0,False,-0.2612483231496481,0.9078608782717961
1.4715391030040337,10:54:49.530650,10:54:33.267217,0,,0.12361036,0.0023651272,0.019596353,-0.96964085,-0.18494767,-0.1599718,-0.10057594,-0.29466495,0.9502931,-0.2228926,0.9375323,0.2671179,,0.07489804,-0.006568834,-0.0065244436,-0.06846139,-0.4553846,0.88765854,-0.22464326,0.8739332,0.43101746,-0.97203314,-0.16989854,-0.16212988,,0.109324805,1.3586845,0.45858476,0.99613917,0.033247847,-0.081248514,-0.02581583,-0.77364266,-0.63309604,-0.0839064,0.63274926,-0.76979744,,-0.0810092,0.259457,-0.06189218,0.97093517,0.060744762,0.23150598,-0.23657766,0.39017767,0.8898272,-0.036276124,-0.9187336,0.39320806,,-0.007651024,0.42637572,-0.2776772,0.20499663,0.5169898,-0.83108234,-0.80076736,0.57684356,0.16131695,0.56280375,0.6324342,0.53223956,,1.2889936213039388,0.15076319117061088,0.18770408829000002,0.7769012406101627,0.3096183084684881,1.381591905475997,-0.40934022973250395,,-0.7708754727722164,-0.19927739908648925,0.22549742324000002,1.3147559456479676,1.0317422097288407,0.18121955700802073,0.7332515128767797,,-0.03987859174650544,-0.09379617566374027,0.05836094732,-0.08765896690267068,,-2.3949891e-05,-8.34465e-07,7.1525574e-07,0.99999994,1.3619661e-05,1.1205673e-05,-1.3623387e-05,1.0,1.4603138e-06,-1.1198223e-05,-1.4603138e-06,1.0,506,1.546,0,0,0.0,False,-0.26160578946077395,0.9074746366655599
1.5011476329964353,10:54:49.621317,10:54:33.267217,0,,0.123547405,0.0025356114,0.019864053,-0.96775085,-0.18969724,-0.16575056,-0.1041558,-0.29778698,0.9489333,-0.22936839,0.9355949,0.26842543,,0.07489741,-0.0065754503,-0.006524503,-0.068499684,-0.45521063,0.88774484,-0.22456315,0.8740349,0.4308529,-0.972049,-0.16984156,-0.16209474,,0.109324805,1.3586845,0.45858476,0.99613917,0.033247847,-0.081248514,-0.02581583,-0.77364266,-0.63309604,-0.0839064,0.63274926,-0.76979744,,-0.080955215,0.25976032,-0.06199093,0.96932286,0.0653086,0.23695566,-0.24349982,0.38648027,0.8895734,-0.033481896,-0.9199825,0.3905268,,-0.007650705,0.42637077,-0.27768162,0.20504065,0.5168142,-0.83118075,-0.80071485,0.57694626,0.16121031,0.5628624,0.6324841,0.5321182,,1.2903219313583052,0.15147368259503954,0.18755631123000002,0.7695620925882044,0.31426394946051306,1.3807441313953792,-0.4090135416002352,,-0.7708677500393422,-0.19930056728511192,0.22549742324000002,1.3149656355914523,1.0317422097288407,0.18121955700802073,0.7332515128767797,,-0.03987859174650544,-0.09379617566374027,0.05836094732,-0.08765896690267068,,-2.3949891e-05,-8.34465e-07,7.1525574e-07,0.99999994,1.3619661e-05,1.1205673e-05,-1.3623387e-05,1.0,1.4603138e-06,-1.1198223e-05,-1.4603138e-06,1.0,510,1.559,0,0,0.0,False,-0.26095043455704303,0.906798713854648
1.5917964809923433,10:54:49.644299,10:54:33.470498,0,,0.12351911,0.0025477558,0.019922689,-0.9675522,-0.19189352,-0.16437656,-0.10218696,-0.29779914,0.9491435,-0.23108569,0.935143,0.26852718,,0.07489942,-0.00657849,-0.006523311,-0.06852343,-0.4550386,0.8878312,-0.2244676,0.87413704,0.43069547,-0.97206926,-0.16977668,-0.16204037,,0.109324805,1.3586845,0.45858476,0.99613917,0.033247847,-0.081248514,-0.02581583,-0.77364266,-0.63309604,-0.0839064,0.63274926,-0.76979744,,-0.08093166,0.25980756,-0.062030967,0.9694995,0.06752516,0.2356078,-0.24313848,0.38614184,0.88981915,-0.030892849,-0.91996455,0.3907823,,-0.007653028,0.42636913,-0.2776842,0.20507173,0.5166394,-0.8312817,-0.80065465,0.57705456,0.16112165,0.56293666,0.63252807,0.5319873,,1.2907003452691423,0.15144279166354263,0.18752001511000002,0.7704008523621425,0.31699667945582183,1.3805577418249648,-0.40983026193090644,,-0.7708754727722164,-0.19930829001798614,0.22549742324000002,1.3151753255349368,1.0317422097288407,0.18121955700802073,0.7329248247445109,,-0.03987859174650544,-0.09379617566374027,0.05836094732,-0.08765896690267068,,-2.3949891e-05,-8.34465e-07,7.1525574e-07,0.99999994,1.3619661e-05,1.1205673e-05,-1.3623387e-05,1.0,1.4603138e-06,-1.1198223e-05,-1.4603138e-06,1.0,522,1.596,0,0,0.0,False,-0.2602355019347904,0.9077160376694575
1.6147911040025065,10:54:49.674851,10:54:33.470498,0,,0.1235037,0.0025471002,0.019955337,-0.9669966,-0.19581024,-0.16302107,-0.09985325,-0.29739833,0.9495175,-0.23440744,0.9344584,0.26803088,,0.07489942,-0.00657849,-0.006523311,-0.06852343,-0.45496613,0.8878684,-0.2244676,0.8741722,0.43062407,-0.97206926,-0.16978997,-0.16202654,,0.109324805,1.3586845,0.45858476,0.99613917,0.033247847,-0.081248514,-0.02581583,-0.77364266,-0.63309604,-0.0839064,0.63274926,-0.76979744,,-0.08091967,0.25982824,-0.06205801,0.9695177,0.07151035,0.23435378,-0.24354942,0.38593668,0.8897958,-0.02681611,-0.9197495,0.39158875,,-0.007653028,0.42636913,-0.2776842,0.20507173,0.5165715,-0.8313239,-0.80065465,0.5770677,0.16107452,0.56293666,0.6325715,0.5319357,,1.2909860863854885,0.15129605973893237,0.18750445963,0.7708202322491114,0.32136904744831596,1.3797694460714582,-0.4098302619309069,,-0.7708754727722164,-0.19930829001798614,0.22549742324000002,1.3151753255349368,1.0317422097288407,0.1811378782678802,0.7327614806783768,,-0.03987859174650544,-0.09379617566374027,0.05836094732,-0.08765896690267068,,-2.3949891e-05,-8.34465e-07,7.1525574e-07,0.99999994,1.3619661e-05,1.1205673e-05,-1.3623387e-05,1.0,1.4603138e-06,-1.1198223e-05,-1.4603138e-06,1.0,530,1.62,0,0,0.0,False,-0.261427056305211,0.9072815158624423
1.6453487499966286,10:54:49.702328,10:54:33.470498,0,,0.12349255,0.0025389344,0.019969985,-0.9663978,-0.19761121,-0.16439256,-0.10011351,-0.29968613,0.9487706,-0.23675385,0.93334776,0.2698325,,0.07489665,-0.006580472,-0.0065246224,-0.068537936,-0.45503944,0.88782966,-0.22447646,0.8741363,0.4306923,-0.9720663,-0.16977817,-0.16205725,,0.109324805,1.3586845,0.45858476,0.99613917,0.033247847,-0.081248514,-0.02581583,-0.77364266,-0.63309604,-0.0839064,0.63274926,-0.76979744,,-0.08091091,0.25983155,-0.062075865,0.969127,0.0731623,0.23545726,-0.24527662,0.38345507,0.8903941,-0.025144,-0.9206571,0.38956168,,-0.0076501784,0.42636696,-0.2776849,0.20508517,0.51664037,-0.8312778,-0.80065835,0.5770531,0.16110833,0.56292653,0.6325286,0.5319975,,1.291101927378602,0.15115705054719633,0.1874953856,0.7693524026447198,0.323555231444563,1.3814989454383597,-0.4096669178647723,,-0.7708600273064679,-0.19931601275086036,0.22549742324000002,1.3151753255349368,1.0317422097288407,0.18121955700802073,0.7325981366122426,,-0.03987859174650544,-0.09379617566374027,0.05836094732,-0.08765896690267068,,-2.3949891e-05,-8.34465e-07,7.1525574e-07,0.99999994,1.3619661e-05,1.1205673e-05,-1.3623387e-05,1.0,1.4603138e-06,-1.1198223e-05,-1.4603138e-06,1.0,538,1.645,0,0,0.0,False,-0.26160578946077395,0.9069435544569862
1.6728150760027347,10:54:49.731874,10:54:33.470498,0,,0.12347179,0.0025101006,0.01998645,-0.9657372,-0.19992214,-0.16547726,-0.10024739,-0.3007606,0.94841635,-0.23937848,0.93250954,0.27041396,,0.074898094,-0.006580293,-0.006523907,-0.0685307,-0.45503753,0.88783115,-0.22447523,0.87413687,0.43069184,-0.97206706,-0.16978067,-0.16205001,,0.109324805,1.3586845,0.45858476,0.99613917,0.033247847,-0.081248514,-0.02581583,-0.77364266,-0.63309604,-0.0839064,0.63274926,-0.76979744,,-0.08089499,0.25982028,-0.06210981,0.96871537,0.0754191,0.23643705,-0.24709012,0.38206005,0.8904923,-0.023173025,-0.92105484,0.38874277,,-0.0076517067,0.42636746,-0.27768514,0.2050782,0.51663893,-0.8312804,-0.80065846,0.57705176,0.16111265,0.5629289,0.63253105,0.5319921,,1.2912254911045895,0.15088675489659847,0.18747853383000002,0.7678845730403282,0.32615132494010635,1.3819957249526256,-0.4103202941293096,,-0.7708677500393422,-0.19931601275086036,0.22549742324000002,1.3151753255349368,1.0317422097288407,0.18121955700802073,0.7325981366122426,,-0.03987859174650544,-0.09379617566374027,0.05836094732,-0.08765896690267068,,-2.3949891e-05,-8.34465e-07,7.1525574e-07,0.99999994,1.3619661e-05,1.1205673e-05,-1.3623387e-05,1.0,1.4603138e-06,-1.1198223e-05,-1.4603138e-06,1.0,546,1.669,0,0,0.0,False,-0.26196325577190027,0.9074746366655599
1.702330105996225,10:54:49.756680,10:54:33.598136,0,,0.12343314,0.002466455,0.019991562,-0.965369,-0.20014572,-0.16734469,-0.101859935,-0.3013739,0.9480498,-0.24018143,0.9322636,0.2705501,,0.07489954,-0.0065801293,-0.0065231323,-0.06852344,-0.4551081,0.8877956,-0.22447416,0.8741022,0.4307628,-0.97206783,-0.16976988,-0.16205658,,0.109324805,1.3586845,0.45858476,0.99613917,0.033247847,-0.081248514,-0.02581583,-0.77364266,-0.63309604,-0.0839064,0.63274926,-0.76979744,,-0.0808618,0.25979012,-0.062147405,0.96826094,0.07560034,0.23823373,-0.2488281,0.38143265,0.8902773,-0.023564853,-0.9213,0.38813782,,-0.0076532355,0.42636797,-0.27768537,0.20507121,0.51670533,-0.8312409,-0.8006586,0.5770372,0.1611641,0.5629313,0.63249004,0.5320383,,1.2912872729675833,0.15055467738300682,0.18746168206000002,0.7659973635489675,0.3264245979396372,1.3821812828459359,-0.40983026193090666,,-0.7708754727722164,-0.19931601275086036,0.22549742324000002,1.3151753255349368,1.0317422097288407,0.18130123574816126,0.7327614806783768,,-0.03987859174650544,-0.09379617566374027,0.05836094732,-0.08765896690267068,,-2.3949891e-05,-8.34465e-07,7.1525574e-07,0.99999994,1.3619661e-05,1.1205673e-05,-1.3623387e-05,1.0,1.4603138e-06,-1.1198223e-05,-1.4603138e-06,1.0,583,1.784,0,0,0.0,False,-0.26095043455704303,0.9072815158624423
1.7271535019972362,10:54:49.864848,10:54:33.598136,0,,0.12329427,0.002199158,0.020013332,-0.96381056,-0.20966774,-0.16464677,-0.09737471,-0.29805586,0.94956875,-0.24816786,0.93123686,0.26685292,,0.074898206,-0.006581947,-0.006523788,-0.068530716,-0.45503458,0.88783276,-0.22448185,0.87413716,0.4306878,-0.97206545,-0.16978702,-0.16205233,,0.109324805,1.3586845,0.45858476,0.99613917,0.033247847,-0.081248514,-0.02581583,-0.77364266,-0.63309604,-0.0839064,0.63274926,-0.76979744,,-0.08075441,0.2596007,-0.062356655,0.9679666,0.08547133,0.23608312,-0.25066206,0.38312036,0.8890373,-0.014461045,-0.91973555,0.39227214,,-0.007651914,0.4263663,-0.2776863,0.20507768,0.51663697,-0.8312818,-0.8006624,0.5770476,0.16110797,0.5629235,0.6325364,0.53199136,,1.2916502414126718,0.14862399416445068,0.18738001579000002,0.7664167434359366,0.3373555179208725,1.3789036836199209,-0.4103202941293096,,-0.7708677500393422,-0.19932373548373458,0.22549742324000002,1.3151753255349368,1.0317422097288407,0.18121955700802073,0.7329248247445109,,-0.03987859174650544,-0.09379617566374027,0.05836094732,-0.08765896690267068,,-2.3949891e-05,-8.34465e-07,7.1525574e-07,0.99999994,1.3619661e-05,1.1205673e-05,-1.3623387e-05,1.0,1.4603138e-06,-1.1198223e-05,-1.4603138e-06,1.0,591,1.809,0,0,0.0,False,-0.2617249448978165,0.9078608782717961
1.8353185979940463,10:54:49.890181,10:54:33.598136,0,,0.12321462,0.0020777732,0.020042077,-0.9633222,-0.21207705,-0.1644184,-0.096217215,-0.29899237,0.9493923,-0.2505042,0.93039066,0.2676205,,0.074898206,-0.006581947,-0.006523788,-0.068530716,-0.45503458,0.88783276,-0.22448185,0.87413716,0.4306878,-0.97206545,-0.16978702,-0.16205233,,0.109324805,1.3586845,0.45858476,0.99613917,0.033247847,-0.081248514,-0.02581583,-0.77364266,-0.63309604,-0.0839064,0.63274926,-0.76979744,,-0.08069104,0.2595268,-0.062468156,0.9678323,0.08784069,0.23576374,-0.2513147,0.38182265,0.8894113,-0.011893437,-0.9200519,0.39161596,,-0.007651914,0.4263663,-0.2776863,0.20507768,0.51663697,-0.8312818,-0.8006624,0.5770476,0.16110797,0.5629235,0.6325364,0.53199136,,1.2918742006660244,0.147774493548286,0.18732427532,0.7664167434359366,0.34077143041500846,1.3800388155542573,-0.4106469822615779,,-0.7708677500393422,-0.19932373548373458,0.22549742324000002,1.3151753255349368,1.0317422097288407,0.18121955700802073,0.7329248247445109,,-0.03987859174650544,-0.09379617566374027,0.05836094732,-0.08765896690267068,,-2.3949891e-05,-8.34465e-07,7.1525574e-07,0.99999994,1.3619661e-05,1.1205673e-05,-1.3623387e-05,1.0,1.4603138e-06,-1.1198223e-05,-1.4603138e-06,1.0,599,1.833,0,0,0.0,False,-0.2616653671792948,0.9078125980710166
1.8606753899948671,10:54:49.921818,10:54:33.598136,0,,0.12310527,0.0019390136,0.020068452,-0.9625467,-0.21336144,-0.16727458,-0.09827743,-0.3004344,0.9487258,-0.25267658,0.9296322,0.26821342,,0.074899755,-0.0065834075,-0.006522864,-0.068523504,-0.45495713,0.88787293,-0.22448725,0.87417316,0.43061194,-0.9720648,-0.16980919,-0.16203356,,0.109324805,1.3586845,0.45858476,0.99613917,0.033247847,-0.081248514,-0.02581583,-0.77364266,-0.63309604,-0.0839064,0.63274926,-0.76979744,,-0.0805999,0.2594378,-0.062593356,0.9670616,0.0890353,0.23846306,-0.25428298,0.38021785,0.88925505,-0.011492819,-0.9206015,0.39033425,,-0.00765365,0.42636567,-0.2776877,0.20507018,0.5165656,-0.831328,-0.80066645,0.5770552,0.16106048,0.56292045,0.63258773,0.5319336,,1.292098159919377,0.14677053827463682,0.18726334969000002,0.7634810842271532,0.34268434141172466,1.3809293271067244,-0.4086868534679666,,-0.7708754727722164,-0.19933145821660883,0.22549742324000002,1.3151753255349368,1.0317422097288407,0.18113787826788008,0.7330881688106453,,-0.03987859174650544,-0.09379617566374027,0.05836094732,-0.08765896690267068,,-2.3949891e-05,-8.34465e-07,7.1525574e-07,0.99999994,1.3619661e-05,1.1205673e-05,-1.3623387e-05,1.0,1.4603138e-06,-1.1198223e-05,-1.4603138e-06,1.0,607,1.858,0,0,0.0,False,-0.26243987752006825,0.907764317870237
1.8923181839927565,10:54:49.946843,10:54:33.768238,0,,0.123026915,0.0017784685,0.020099118,-0.9621948,-0.21710753,-0.16445506,-0.09508654,-0.29804683,0.9498035,-0.2552248,0.92953336,0.26613504,,0.07489831,-0.0065835714,-0.006523639,-0.068530746,-0.45495903,0.8878715,-0.22448838,0.8741727,0.4306124,-0.972064,-0.16980672,-0.1620408,,0.109324805,1.3586845,0.45858476,0.99613917,0.033247847,-0.081248514,-0.02581583,-0.77364266,-0.63309604,-0.0839064,0.63274926,-0.76979744,,-0.0805421,0.25933564,-0.06273148,0.96729535,0.09300194,0.23598796,-0.2535427,0.38189852,0.8887461,-0.0074683437,-0.919513,0.39298862,,-0.0076521216,0.42636517,-0.27768746,0.20507716,0.5165671,-0.83132535,-0.80066633,0.5770566,0.16105618,0.56291807,0.6325853,0.531939,,1.2922835055083584,0.14573569206949072,0.18719335003,0.7653682937185139,0.3473299824037496,1.3792647656247004,-0.4116270466583838,,-0.7708677500393422,-0.19933145821660883,0.22549742324000002,1.3151753255349368,1.0317422097288407,0.18113787826788008,0.7330881688106453,,-0.03987859174650544,-0.09379617566374027,0.05836094732,-0.08765896690267068,,-2.3949891e-05,-8.34465e-07,7.1525574e-07,0.99999994,1.3619661e-05,1.1205673e-05,-1.3623387e-05,1.0,1.4603138e-06,-1.1198223e-05,-1.4603138e-06,1.0,623,1.907,0,0,0.0,False,-0.26154621174225356,0.9087299218858265
1.9173408609931357,10:54:49.986452,10:54:33.768238,0,,0.122924946,0.0015169531,0.020144403,-0.9614791,-0.22239831,-0.16154529,-0.09124441,-0.2961504,0.950773,-0.259292,0.92888856,0.26444975,,0.07489986,-0.0065850765,-0.006522715,-0.06852351,-0.45553422,0.887577,-0.22449374,0.87389195,0.43117902,-0.9720633,-0.16970965,-0.1621468,,0.109324805,1.3586845,0.45858476,0.99613917,0.033247847,-0.081248514,-0.02581583,-0.77364266,-0.63309604,-0.0839064,0.63274926,-0.76979744,,-0.08047292,0.25916654,-0.062949345,0.9673854,0.09849941,0.23337388,-0.25330248,0.3828273,0.8884149,-0.0018335496,-0.9185538,0.3952917,,-0.0076538576,0.4263645,-0.2776889,0.20506966,0.5171068,-0.8309916,-0.8006704,0.5769457,0.16143285,0.5629151,0.63224536,0.5323461,,1.2924147919672202,0.14413708636452624,0.18707798022000002,0.7672555032098747,0.35402517089225616,1.3783792977914473,-0.4106469822615779,,-0.7708754727722164,-0.19933918094948305,0.22549742324000002,1.3151753255349368,1.0317422097288407,0.18179130818900469,0.7345582654058538,,-0.03987859174650544,-0.09379617566374027,0.05836094732,-0.08765896690267068,,-2.3949891e-05,-8.34465e-07,7.1525574e-07,0.99999994,1.3619661e-05,1.1205673e-05,-1.3623387e-05,1.0,1.4603138e-06,-1.1198223e-05,-1.4603138e-06,1.0,656,2.009,0,0,0.0,False,-0.26202283349042155,0.9097920863029745
1.9569161879917374,10:54:50.094909,10:54:33.929685,0,,0.12261155,0.00070491433,0.020425484,-0.95599973,-0.24513221,-0.16116658,-0.08380589,-0.29827833,0.9507927,-0.2811424,0.92246425,0.2646104,,0.07489424,-0.0065825433,-0.0065360665,-0.06854328,-0.4553479,0.8876712,-0.22442165,0.8739966,0.43100426,-0.97207856,-0.16967022,-0.16209657,,0.109284304,1.3586867,0.45858786,0.9961401,0.03327672,-0.08122488,-0.02577865,-0.7736414,-0.6330991,-0.0839064,0.63274926,-0.76979744,,-0.08024026,0.25873262,-0.06373103,0.9648794,0.12141554,0.23295057,-0.26192024,0.37667415,0.8885462,0.020136865,-0.91835445,0.39524633,,-0.007611175,0.4263597,-0.2776765,0.20510462,0.51689035,-0.83111763,-0.8006207,0.5770512,0.16130234,0.5629731,0.63232607,0.53218895,,1.2930866697272776,0.13907097359903497,0.18659576034000003,0.7639004641141223,0.38148910734510977,1.3800795274899325,-0.41048363819544376,,-0.7709295319023359,-0.19940868554535107,0.22549742324000002,1.3153850154784215,1.0317422097288407,0.18179130818900446,0.7350482976042566,,-0.03987859174650544,-0.09379617566374027,0.05836094732,-0.08765896690267068,,-6.461516e-05,-1.847744e-06,2.3841858e-07,0.99999994,4.23491e-05,3.4816563e-05,-4.235655e-05,1.0,4.61936e-06,-3.4809113e-05,-4.61936e-06,1.0,664,2.034,0,0,0.0,False,-0.2618441003348577,0.9100817675076511
2.0654055339982733,10:54:50.114842,10:54:33.929685,0,,0.12254644,0.0005557388,0.020513415,-0.9551434,-0.2495166,-0.15950698,-0.08181213,-0.29533142,0.9518856,-0.2846187,0.9222368,0.26167038,,0.07490257,-0.006593257,-0.006531179,-0.0685381,-0.455226,0.887734,-0.22435415,0.8740672,0.4308963,-0.9720945,-0.16963407,-0.1620388,,0.109284304,1.3586867,0.45858786,0.9961401,0.03327672,-0.08122488,-0.02577865,-0.7736414,-0.6330991,-0.0839064,0.63274926,-0.76979744,,-0.08019997,0.2586768,-0.06390274,0.96457946,0.12608479,0.23170914,-0.2626846,0.37868294,0.8874661,0.024151675,-0.91689795,0.39839032,,-0.007620647,0.4263543,-0.2776859,0.20510514,0.5167678,-0.8311937,-0.80058056,0.5771201,0.16125475,0.5630299,0.6323633,0.5320846,,1.293341519912127,0.1381751365856249,0.18648039053,0.7641101540576067,0.38640802133666563,1.3771303065786886,-0.4103202941293096,,-0.770968145566707,-0.1994550219425964,0.22549742324000002,1.3155947054219057,1.0317422097288407,0.181872986929145,0.7352116416703908,,-0.03987859174650544,-0.09379617566374027,0.05836094732,-0.08765896690267068,,-6.461516e-05,-1.847744e-06,2.3841858e-07,0.99999994,4.23491e-05,3.4816563e-05,-4.235655e-05,1.0,4.61936e-06,-3.4809113e-05,-4.61936e-06,1.0,676,2.071,0,0,0.0,False,-0.261427056305211,0.910805970519343
2.085344527993584,10:54:50.147412,10:54:33.929685,0,,0.1224971,0.00037750602,0.020694152,-0.95189655,-0.2615115,-0.15970191,-0.07827151,-0.296381,0.951857,-0.29625422,0.91856956,0.26165515,,0.07491277,-0.0066103786,-0.0065250397,-0.068525754,-0.45552522,0.8875815,-0.22431168,0.8739282,0.43120015,-0.97210515,-0.16954663,-0.16206625,,0.109284304,1.3586867,0.45858786,0.9961401,0.03327672,-0.08122488,-0.02577865,-0.7736414,-0.6330991,-0.0839064,0.63274926,-0.76979744,,-0.08018739,0.2586602,-0.064160496,0.9628715,0.13820495,0.23190059,-0.26760074,0.37530637,0.8874317,0.035613682,-0.91653943,0.39835554,,-0.007632476,0.42634478,-0.27770022,0.2050966,0.5170433,-0.83102447,-0.80055636,0.577092,0.1614756,0.56306744,0.63216376,0.5322819,,1.2938743884804487,0.1370012811887428,0.18629631735000002,0.761384184792308,0.39993503481344417,1.376554812850735,-0.4106469822615779,,-0.7710144819639524,-0.19953224927133867,0.22549742324000002,1.3158043953653904,1.0317422097288407,0.18244473811012896,0.7363550501333308,,-0.03987859174650544,-0.09379617566374027,0.05836094732,-0.08765896690267068,,-6.461516e-05,-1.847744e-06,2.3841858e-07,0.99999994,4.23491e-05,3.4816563e-05,-4.235655e-05,1.0,4.61936e-06,-3.4809113e-05,-4.61936e-06,1.0,684,2.095,0,0,0.0,False,-0.2623802998015474,0.9109025309209016
2.1179146920039784,10:54:50.183699,10:54:33.929685,0,,0.12249368,0.000197649,0.02104424,-0.9459643,-0.28367645,-0.1570963,-0.0667312,-0.3037923,0.95039845,-0.31733033,0.90952617,0.26844668,,0.07492705,-0.0066288263,-0.006516665,-0.06846083,-0.4555448,0.88757646,-0.22437972,0.87390137,0.43121922,-0.97209406,-0.16963264,-0.16204306,,0.109284304,1.3586867,0.45858786,0.9961401,0.03327672,-0.08122488,-0.02577865,-0.7736414,-0.6330991,-0.0839064,0.63274926,-0.76979744,,-0.080236964,0.25875422,-0.06453949,0.96026266,0.16025136,0.2285064,-0.27263704,0.36345133,0.8908267,0.059705243,-0.9177269,0.39269918,,-0.007648717,0.42633542,-0.27771643,0.20502757,0.5170744,-0.83102214,-0.8006045,0.5770168,0.16150545,0.56302404,0.63220704,0.53227645,,1.2949787392814627,0.135804257593238,0.18599946694000002,0.7609648049053389,0.4263058792681742,1.3824135353844138,-0.41113701445998085,,-0.7710839865598204,-0.19962492206582935,0.22549742324000002,1.3158043953653904,1.0317422097288407,0.1825264168502696,0.7365183941994652,,-0.03987859174650544,-0.09379617566374027,0.05836094732,-0.08765896690267068,,-6.461516e-05,-1.847744e-06,2.3841858e-07,0.99999994,4.23491e-05,3.4816563e-05,-4.235655e-05,1.0,4.61936e-06,-3.4809113e-05,-4.61936e-06,1.0,692,2.12,0,0,0.0,False,-0.2618441003348577,0.9110956517240196
2.15419668899267,10:54:50.206316,10:54:33.929685,0,,0.12244464,0.000128299,0.021241039,-0.94373256,-0.29159284,-0.15602076,-0.063528806,-0.30314285,0.95082515,-0.3245504,0.90723646,0.26756123,,0.07493336,-0.0066364855,-0.0065129995,-0.06843196,-0.45552227,0.8875902,-0.22440785,0.87390494,0.43119735,-0.9720896,-0.1696746,-0.16202582,,0.109284304,1.3586867,0.45858786,0.9961401,0.03327672,-0.08122488,-0.02577865,-0.7736414,-0.6330991,-0.0839064,0.63274926,-0.76979744,,-0.08021488,0.2588303,-0.06473864,0.95909303,0.16837779,0.2275729,-0.27492592,0.36232114,0.8905836,0.067500025,-0.91671824,0.3937911,,-0.007655866,0.42633164,-0.27772325,0.20499706,0.51705873,-0.8310394,-0.80062467,0.57699054,0.16149934,0.5630065,0.63224375,0.53225136,,1.2956969534387655,0.13531000268928764,0.18583354182000003,0.7599163551879162,0.4353238882526933,1.3806141080700083,-0.40983026193090666,,-0.7711148774913172,-0.1996635357302005,0.22549742324000002,1.3158043953653904,1.0317422097288407,0.1825264168502696,0.7365183941994652,,-0.03987859174650544,-0.09379617566374027,0.05836094732,-0.08765896690267068,,-6.461516e-05,-1.847744e-06,2.3841858e-07,0.99999994,4.23491e-05,3.4816563e-05,-4.235655e-05,1.0,4.61936e-06,-3.4809113e-05,-4.61936e-06,1.0,725,2.222,0,0,0.0,False,-0.2607717014014801,0.9109508111216811
2.1768196420016466,10:54:50.300304,10:54:34.084042,0,,0.12195488,-0.00023460388,0.022240072,-0.93610734,-0.31570864,-0.15501952,-0.053618155,-0.307504,0.9500349,-0.34760335,0.8976466,0.27092898,,0.07495518,-0.0066610575,-0.0065015554,-0.068461455,-0.45569003,0.88750184,-0.22453257,0.8738042,0.4313366,-0.97205865,-0.16974318,-0.1621392,,0.109284304,1.3586867,0.45858786,0.9961401,0.03327672,-0.08122488,-0.02577865,-0.7736414,-0.6330991,-0.0839064,0.63274926,-0.76979744,,-0.07986557,0.25920483,-0.06579095,0.9548315,0.1927268,0.22617067,-0.28246373,0.35237965,0.89221233,0.09225529,-0.9157975,0.39090154,,-0.0076803197,0.42631918,-0.27774465,0.20501556,0.51723003,-0.83092827,-0.80069655,0.57688063,0.16153586,0.56289756,0.632204,0.5324138,,1.299975347451086,0.13249892792306991,0.18497410155000002,0.7555128663747412,0.4663403736994482,1.3808876895949167,-0.4116270466583838,,-0.771207550285808,-0.19977937672331383,0.22549742324000002,1.3158043953653904,1.0316055732290754,0.18280119223424718,0.7368450823317335,,-0.03987859174650544,-0.09379617566374027,0.05836094732,-0.08765896690267068,,-6.461516e-05,-1.847744e-06,2.3841858e-07,0.99999994,4.23491e-05,3.4816563e-05,-4.235655e-05,1.0,4.61936e-06,-3.4809113e-05,-4.61936e-06,1.0,733,2.247,0,0,0.0,False,-0.2608312791200009,0.9116750141333734
2.270802151004318,10:54:50.329311,10:54:34.084042,0,,0.1217444,-0.00037412345,0.022487432,-0.9351798,-0.31815547,-0.15561391,-0.053161655,-0.3082986,0.949803,-0.35016063,0.89650935,0.27140096,,0.07495817,-0.0066624284,-0.0064999163,-0.06844699,-0.45568323,0.8875065,-0.22453672,0.87380546,0.4313317,-0.9720587,-0.16975453,-0.16212702,,0.109284304,1.3586867,0.45858786,0.9961401,0.03327672,-0.08122488,-0.02577865,-0.7736414,-0.6330991,-0.0839064,0.63274926,-0.76979744,,-0.07969597,0.25925878,-0.066096365,0.9542108,0.1951766,0.22668867,-0.2837837,0.35099754,0.8923383,0.094596386,-0.9158094,0.3903136,,-0.007683583,0.42631903,-0.27774632,0.20500109,0.5172251,-0.8309349,-0.80070066,0.5768737,0.16153982,0.56289697,0.63221425,0.5324022,,1.3012109847109619,0.13141002258780426,0.18474206564,0.7542547267138341,0.4705761051921769,1.3809459204063717,-0.40917688566636956,,-0.7712384412173049,-0.19979482218906228,0.22549742324000002,1.3158043953653904,1.0316055732290754,0.18280119223424718,0.7368450823317335,,-0.03987859174650544,-0.09379617566374027,0.05836094732,-0.08765896690267068,,-6.461516e-05,-1.847744e-06,2.3841858e-07,0.99999994,4.23491e-05,3.4816563e-05,-4.235655e-05,1.0,4.61936e-06,-3.4809113e-05,-4.61936e-06,1.0,741,2.271,0,0,0.0,False,-0.2607121236829584,0.9109508111216811
2.2998095319926506,10:54:50.356755,10:54:34.084042,0,,0.121603526,-0.00046283007,0.022630021,-0.9347167,-0.31926566,-0.15612228,-0.0536202,-0.3075755,0.9500116,-0.35132554,0.896363,0.27037683,,0.074959606,-0.0066622794,-0.006499201,-0.06843975,-0.45582637,0.8874335,-0.22453561,0.8737355,0.43147403,-0.9720595,-0.16973054,-0.16214755,,0.109284304,1.3586867,0.45858786,0.9961401,0.03327672,-0.08122488,-0.02577865,-0.7736414,-0.6330991,-0.0839064,0.63274926,-0.76979744,,-0.079579726,0.25928333,-0.06628057,0.95381826,0.19636519,0.22731356,-0.2848872,0.35143054,0.891816,0.0952367,-0.9153891,0.3911428,,-0.0076851114,0.42631954,-0.27774656,0.20499411,0.5173594,-0.830853,-0.8007008,0.57684594,0.16163838,0.56289935,0.6321297,0.5325001,,1.301967812532636,0.13069180843050138,0.18460595519000003,0.7529965870529269,0.4724890161888931,1.379549427234903,-0.4095035737986381,,-0.7712461639501791,-0.19979482218906228,0.22549742324000002,1.3158043953653904,1.0316055732290754,0.18296454971452836,0.7368450823317338,,-0.03987859174650544,-0.09379617566374027,0.05836094732,-0.08765896690267068,,-6.461516e-05,-1.847744e-06,2.3841858e-07,0.99999994,4.23491e-05,3.4816563e-05,-4.235655e-05,1.0,4.61936e-06,-3.4809113e-05,-4.61936e-06,1.0,749,2.296,0,0,0.0,False,-0.26178452261633733,0.9109508111216811
2.3272580899938475,10:54:50.376566,10:54:34.084042,0,,0.12148457,-0.0005464703,0.022766188,-0.9345623,-0.3198403,-0.15586999,-0.053459313,-0.30688304,0.95024467,-0.35176042,0.8963955,0.26970288,,0.07495817,-0.0066624284,-0.0064999163,-0.06844699,-0.45582822,0.887432,-0.22453672,0.8737351,0.43147445,-0.9720587,-0.16972807,-0.1621548,,0.109284304,1.3586867,0.45858786,0.9961401,0.03327672,-0.08122488,-0.02577865,-0.7736414,-0.6330991,-0.0839064,0.63274926,-0.76979744,,-0.079484016,0.25930783,-0.06645356,0.95372474,0.19700304,0.22715399,-0.2850489,0.35196573,0.8915533,0.09568828,-0.9150464,0.39183393,,-0.007683583,0.42631903,-0.27774632,0.20500109,0.51736087,-0.83085036,-0.80070066,0.5768473,0.16163406,0.56289697,0.6321273,0.5325055,,1.302624244826945,0.13008943526631186,0.18447243732000002,0.7527868971094424,0.47385538118654746,1.3786802844183605,-0.4099936059970408,,-0.7712384412173049,-0.19979482218906228,0.22549742324000002,1.3158043953653904,1.0316055732290754,0.18296454971452836,0.7368450823317338,,-0.03987859174650544,-0.09379617566374027,0.05836094732,-0.08765896690267068,,-6.461516e-05,-1.847744e-06,2.3841858e-07,0.99999994,4.23491e-05,3.4816563e-05,-4.235655e-05,1.0,4.61936e-06,-3.4809113e-05,-4.61936e-06,1.0,757,2.321,0,0,0.0,False,-0.2622611443645053,0.9111922121255787
2.347057669001515,10:54:50.406803,10:54:34.084042,0,,0.12136495,-0.000653401,0.022995248,-0.9336291,-0.32303932,-0.15486209,-0.051651366,-0.30638403,0.9505056,-0.35449797,0.8954186,0.2693636,,0.074959606,-0.0066622794,-0.006499201,-0.06843975,-0.45582637,0.8874335,-0.22453561,0.8737355,0.43147403,-0.9720595,-0.16973054,-0.16214755,,0.109284304,1.3586867,0.45858786,0.9961401,0.03327672,-0.08122488,-0.02577865,-0.7736414,-0.6330991,-0.0839064,0.63274926,-0.76979744,,-0.07939915,0.2593757,-0.06671126,0.95325714,0.2003167,0.22621681,-0.28546757,0.35165355,0.8915425,0.09904091,-0.91444683,0.39240018,,-0.0076851114,0.42631954,-0.27774656,0.20499411,0.5173594,-0.830853,-0.8007008,0.57684594,0.16163838,0.56289935,0.6321297,0.5325001,,1.303520081840355,0.1294098347733801,0.18425854947,0.7527868971094424,0.478364385678807,1.3778622495012982,-0.4098302619309069,,-0.7712461639501791,-0.19979482218906228,0.22549742324000002,1.3158043953653904,1.0316055732290754,0.18296454971452836,0.7368450823317338,,-0.03987859174650544,-0.09379617566374027,0.05836094732,-0.08765896690267068,,-6.461516e-05,-1.847744e-06,2.3841858e-07,0.99999994,4.23491e-05,3.4816563e-05,-4.235655e-05,1.0,4.61936e-06,-3.4809113e-05,-4.61936e-06,1.0,786,2.411,0,0,0.0,False,-0.26160578946077395,0.9116750141333734
2.3773052989999996,10:54:50.497274,10:54:34.265792,0,,0.12123237,-0.00073482096,0.023572579,-0.9325283,-0.32550687,-0.1563208,-0.05097442,-0.30990413,0.9494003,-0.35748082,0.893311,0.27240184,,0.074961156,-0.0066637844,-0.006498277,-0.06843254,-0.45589393,0.8873994,-0.22454101,0.8737011,0.43154094,-0.9720588,-0.16972622,-0.16215652,,0.109284304,1.3586867,0.45858786,0.9961401,0.03327672,-0.08122488,-0.02577865,-0.7736414,-0.6330991,-0.0839064,0.63274926,-0.76979744,,-0.0793328,0.25969115,-0.067214824,0.95252955,0.20259711,0.22724852,-0.2868979,0.34757826,0.89268076,0.10186791,-0.9155019,0.38920325,,-0.0076868464,0.4263189,-0.277748,0.20498662,0.5174238,-0.8308147,-0.80070484,0.5768272,0.16168512,0.5628963,0.6320941,0.5325456,,1.3052345285384328,0.12927082558164407,0.18374392234,0.7508996876180817,0.48273675367130114,1.3796059946921493,-0.4103202941293096,,-0.7712538866830533,-0.19980254492193653,0.22549742324000002,1.3158043953653904,1.0316055732290754,0.1830462284546689,0.7366817382655996,,-0.03987859174650544,-0.09379617566374027,0.05836094732,-0.08765896690267068,,-6.461516e-05,-1.847744e-06,2.3841858e-07,0.99999994,4.23491e-05,3.4816563e-05,-4.235655e-05,1.0,4.61936e-06,-3.4809113e-05,-4.61936e-06,1.0,794,2.435,0,0,0.0,False,-0.2612483231496481,0.9109025309209016
2.4677777379984036,10:54:50.517496,10:54:34.265792,0,,0.121225156,-0.00073865056,0.023651406,-0.93245137,-0.32545155,-0.1568938,-0.05141025,-0.31031567,0.94924235,-0.35761905,0.89318836,0.2726227,,0.074961156,-0.0066637844,-0.006498277,-0.06843254,-0.45589393,0.8873994,-0.22454101,0.8737011,0.43154094,-0.9720588,-0.16972622,-0.16215652,,0.109284304,1.3586867,0.45858786,0.9961401,0.03327672,-0.08122488,-0.02577865,-0.7736414,-0.6330991,-0.0839064,0.63274926,-0.76979744,,-0.079333745,0.25973988,-0.06727732,0.95242137,0.20251137,0.2277776,-0.28731626,0.3471881,0.89269805,0.10169984,-0.9156689,0.38885415,,-0.0076868464,0.4263189,-0.277748,0.20498662,0.5174238,-0.8308147,-0.80070484,0.5768272,0.16168512,0.5628963,0.6320941,0.5325456,,1.30541215139454,0.12933260744463787,0.18367262639,0.7502706177876282,0.48273675367130114,1.3796059946921493,-0.4103202941293096,,-0.7712538866830533,-0.19980254492193653,0.22549742324000002,1.3158043953653904,1.0316055732290754,0.1830462284546689,0.7366817382655996,,-0.03987859174650544,-0.09379617566374027,0.05836094732,-0.08765896690267068,,-6.461516e-05,-1.847744e-06,2.3841858e-07,0.99999994,4.23491e-05,3.4816563e-05,-4.235655e-05,1.0,4.61936e-06,-3.4809113e-05,-4.61936e-06,1.0,802,2.46,0,0,0.0,False,-0.26136747858668974,0.9112404923263582
2.4879799600021215,10:54:50.548070,10:54:34.265792,0,,0.121222794,-0.00075007975,0.023730263,-0.9324053,-0.32540098,-0.1572725,-0.0516961,-0.31060377,0.9491327,-0.35769814,0.89310664,0.27278662,,0.074962705,-0.0066652447,-0.006497383,-0.06842532,-0.45588905,0.8874025,-0.2245464,0.87370193,0.43153647,-0.972058,-0.16973504,-0.16215162,,0.109284304,1.3586867,0.45858786,0.9961401,0.03327672,-0.08122488,-0.02577865,-0.7736414,-0.6330991,-0.0839064,0.63274926,-0.76979744,,-0.0793403,0.25978297,-0.067344055,0.9523536,0.20243922,0.22812495,-0.28758314,0.34691787,0.8927172,0.10158034,-0.9157873,0.38860658,,-0.0076885815,0.42631826,-0.2777494,0.20497912,0.5174204,-0.8308187,-0.8007089,0.57682174,0.16168477,0.5628933,0.6321019,0.5325395,,1.305551160586276,0.1293789438418832,0.18359744157000002,0.7498512379006591,0.48273675367130114,1.3796059946921493,-0.4103202941293096,,-0.7712616094159276,-0.19981026765481075,0.22549742324000002,1.3158043953653904,1.0316055732290754,0.1830462284546689,0.7366817382655996,,-0.03987859174650544,-0.09379617566374027,0.05836094732,-0.08765896690267068,,-6.461516e-05,-1.847744e-06,2.3841858e-07,0.99999994,4.23491e-05,3.4816563e-05,-4.235655e-05,1.0,4.61936e-06,-3.4809113e-05,-4.61936e-06,1.0,810,2.484,0,0,0.0,False,-0.26136747858668974,0.9114818933302553
2.5185711209924193,10:54:50.567785,10:54:34.265792,0,,0.12122798,-0.0007607788,0.023760512,-0.93236625,-0.32541648,-0.15747166,-0.05185283,-0.31070662,0.9490904,-0.35777718,0.8930652,0.27281862,,0.07496251,-0.0066639185,-0.006498754,-0.06855587,-0.4559892,0.8873409,-0.22457615,0.87365913,0.43160766,-0.97204196,-0.16968638,-0.16229877,,0.109284304,1.3586867,0.45858786,0.9961401,0.03327672,-0.08122488,-0.02577865,-0.7736414,-0.6330991,-0.0839064,0.63274926,-0.76979744,,-0.07934951,0.25979483,-0.0673729,0.95230633,0.20244785,0.22831453,-0.28775266,0.34681284,0.89270335,0.10154346,-0.9158251,0.38852698,,-0.0076881195,0.4263184,-0.2777475,0.20510413,0.5175098,-0.83073217,-0.80071235,0.5768278,0.16164614,0.56284285,0.63202316,0.53268623,,1.3055588833191503,0.12938666657475745,0.18356503432000001,0.7496415479571745,0.48273675367130114,1.3796059946921493,-0.4103202941293096,,-0.7712616094159276,-0.19980254492193653,0.22549742324000002,1.3158043953653904,1.03146893672931,0.1831576463583654,0.7366817382655996,,-0.03987859174650544,-0.09379617566374027,0.05836094732,-0.08765896690267068,,-6.461516e-05,-1.847744e-06,2.3841858e-07,0.99999994,4.23491e-05,3.4816563e-05,-4.235655e-05,1.0,4.61936e-06,-3.4809113e-05,-4.61936e-06,1.0,818,2.509,0,0,0.0,False,-0.26154621174225356,0.9115301735310348
2.538290219992632,10:54:50.598260,10:54:34.428470,0,,0.1212344,-0.000772655,0.023778498,-0.93236053,-0.32543078,-0.15747578,-0.051859222,-0.31069,0.9490955,-0.35779104,0.8930658,0.2727985,,0.07496396,-0.0066637695,-0.006497979,-0.06854862,-0.45591486,0.88737965,-0.22457498,0.8736949,0.4315359,-0.9720427,-0.16970214,-0.16227767,,0.109284304,1.3586867,0.45858786,0.9961401,0.03327672,-0.08122488,-0.02577865,-0.7736414,-0.6330991,-0.0839064,0.63274926,-0.76979744,,-0.07935886,0.25979778,-0.06739314,0.9523014,0.20246369,0.2283211,-0.28776652,0.34682554,0.89269394,0.10155051,-0.91581684,0.3885447,,-0.007689648,0.4263189,-0.27774778,0.20509715,0.5174405,-0.83077705,-0.8007124,0.5768396,0.16160335,0.56284523,0.6320691,0.5326292,,1.3055357151205276,0.1293789438418832,0.18354299739000002,0.7496415479571745,0.48273675367130114,1.3796059946921493,-0.4103202941293096,,-0.7712693321488018,-0.19980254492193653,0.22549742324000002,1.3158043953653904,1.03146893672931,0.18307596761822487,0.7368450823317338,,-0.03987859174650544,-0.09379617566374027,0.05836094732,-0.08765896690267068,,-6.461516e-05,-1.847744e-06,2.3841858e-07,0.99999994,4.23491e-05,3.4816563e-05,-4.235655e-05,1.0,4.61936e-06,-3.4809113e-05,-4.61936e-06,1.0,826,2.534,0,0,0.0,False,-0.26160578946077395,0.9117232943341524
2.5687354519905057,10:54:50.618247,10:54:34.428470,0,,0.121238306,-0.0007787198,0.023783699,-0.9323548,-0.32544506,-0.15747991,-0.051865622,-0.31067342,0.9491006,-0.35780495,0.8930664,0.2727784,,0.07496396,-0.0066637695,-0.006497979,-0.06854862,-0.45591486,0.88737965,-0.22457498,0.8736949,0.4315359,-0.9720427,-0.16970214,-0.16227767,,0.109284304,1.3586867,0.45858786,0.9961401,0.03327672,-0.08122488,-0.02577865,-0.7736414,-0.6330991,-0.0839064,0.63274926,-0.76979744,,-0.07936387,0.25979668,-0.06740042,0.95229644,0.20247951,0.22832768,-0.28778037,0.34683824,0.8926845,0.10155757,-0.91580856,0.38856244,,-0.007689648,0.4263189,-0.27774778,0.20509715,0.5174405,-0.83077705,-0.8007124,0.5768396,0.16160335,0.56284523,0.6320691,0.5326292,,1.3055125469219049,0.12937122110900898,0.18353521965000003,0.7496415479571745,0.48273675367130114,1.3796059946921493,-0.4103202941293096,,-0.7712693321488018,-0.19980254492193653,0.22549742324000002,1.3158043953653904,1.03146893672931,0.18307596761822487,0.7368450823317338,,-0.03987859174650544,-0.09379617566374027,0.05836094732,-0.08765896690267068,,-6.461516e-05,-1.847744e-06,2.3841858e-07,0.99999994,4.23491e-05,3.4816563e-05,-4.235655e-05,1.0,4.61936e-06,-3.4809113e-05,-4.61936e-06,1.0,851,2.611,0,0,0.0,False,-0.26160578946077395,0.9113370527279168
2.5887506549915997,10:54:50.696998,10:54:34.428470,0,,0.1212444,-0.00078710914,0.02380769,-0.93235266,-0.3254531,-0.15747647,-0.051855862,-0.3106828,0.949098,-0.35781214,0.89306015,0.27278924,,0.07496528,-0.0066619664,-0.006497383,-0.06854134,-0.45584348,0.88741684,-0.22456723,0.8737303,0.4314682,-0.972045,-0.16971147,-0.16225424,,0.109284304,1.3586867,0.45858786,0.9961401,0.03327672,-0.08122488,-0.02577865,-0.7736414,-0.6330991,-0.0839064,0.63274926,-0.76979744,,-0.07937311,0.2598062,-0.06742292,0.95229596,0.20248708,0.22832295,-0.2877777,0.34682697,0.89268976,0.101569586,-0.9158111,0.3885532,,-0.007690969,0.42632058,-0.27774686,0.20509069,0.51737314,-0.83082056,-0.8007086,0.5768556,0.16156523,0.56285304,0.6321097,0.53257287,,1.3055125469219049,0.12938666657475745,0.18350929385,0.7496415479571745,0.48273675367130114,1.3796059946921493,-0.4103202941293096,,-0.771277054881676,-0.19979482218906228,0.22549742324000002,1.3158043953653904,1.03146893672931,0.18299428887808422,0.7366817382655992,,-0.03987859174650544,-0.09379617566374027,0.05836094732,-0.08765896690267068,,-6.461516e-05,-1.847744e-06,2.3841858e-07,0.99999994,4.23491e-05,3.4816563e-05,-4.235655e-05,1.0,4.61936e-06,-3.4809113e-05,-4.61936e-06,1.0,859,2.636,0,0,0.0,False,-0.26190367805337944,0.911868134936491
