AlexandreBanks6/ExpertPlaybackApp/resources/Motions/Pilot_03/PC1/Data_PC1_5.csv
Task Time,PC1 Time,PC2 Time,Gaze Calib,s_T_psm1,Tx,Ty,Tz,R00,R01,R02,R10,R11,R12,R20,R21,R22,s_T_psm3,Tx,Ty,Tz,R00,R01,R02,R10,R11,R12,R20,R21,R22,cart_T_ecm,Tx,Ty,Tz,R00,R01,R02,R10,R11,R12,R20,R21,R22,ecm_T_psm1,Tx,Ty,Tz,R00,R01,R02,R10,R11,R12,R20,R21,R22,ecm_T_psm3,Tx,Ty,Tz,R00,R01,R02,R10,R11,R12,R20,R21,R22,psm1_joints,q1,q2,q3,q4,q5,q6,jaw,psm3_joints,q1,q2,q3,q4,q5,q6,jaw,ecm_joints,q1,q2,q3,q4,ecmi_T_ecm,Tx,Ty,Tz,R00,R01,R02,R10,R11,R12,R20,R21,R22,Sample #,Task Duration (s),Collisions (binary),Collisions (increments),Cumulative Collision Time (s),Clutch Press,MTMR Angle,MTML Angle
""
lci_T_si,,,,,-0.071118124,0.013903125,0.25454396,0.9901862,-0.08084544,0.11399696,0.013384873,-0.7570853,-0.6531789,0.13911195,0.64829457,-0.7485733
rci_T_si,,,,,-0.08147662,0.01856703,0.26535848,0.98740834,-0.096447565,0.12539017,0.012030307,-0.74456626,-0.6674401,0.15773426,0.6605444,-0.73403066
ecm_T_lc,,,,,-4.4061628e-05,-0.00034663224,-0.01840835,-0.99912,0.030754527,0.028518902,-0.031987965,-0.99852574,-0.043852776,0.027128186,-0.04472645,0.9986309
ecm_T_rc,,,,,-0.0043358393,0.01870579,-0.007592615,-0.99555075,-0.052743673,-0.078081585,0.04863213,-0.9973746,0.053654674,-0.08070653,0.04961868,0.9955021
cart_T_ecmi,,,,,0.10934876,1.3586837,0.45858383,0.9961387,0.033234157,-0.08125972,-0.025833456,-0.77364326,-0.6330946,-0.0839064,0.63274926,-0.76979744
ecmac_T_ecmrep_psm1,,,,,0.011947535,-0.24624088,-0.3140189,0.99787813,0.060519684,0.024013558,-0.059408683,0.9972389,-0.04455629,-0.026643785,0.04303513,0.9987182
ecmac_T_ecmrep_psm3,,,,,-0.020729378,-0.4297972,-0.5440064,0.99962926,-0.018584386,0.019899037,0.019259674,0.999226,-0.034299888,-0.019246193,0.03467042,0.99921346
""
0,10:57:39.200026,10:57:23.040517,0,,0.12709096,0.0016102493,0.0141201615,-0.9469805,-0.24256155,-0.2106935,-0.1273698,-0.3186195,0.9392863,-0.29496574,0.91632175,0.27083138,,0.08167985,-0.033638492,0.020387739,0.012291335,-0.39058456,0.92048496,-0.4310085,0.82857656,0.35734087,-0.90226406,-0.40112907,-0.15816095,,0.10935358,1.3586836,0.45858553,0.99613845,0.033226155,-0.08126626,-0.025843758,-0.7736436,-0.6330938,-0.0839064,0.63274926,-0.76979744,,-0.08402242,0.2553451,-0.05778576,0.9527387,0.117326796,0.2802202,-0.30377087,0.35732475,0.88320005,0.0034934096,-0.9265816,0.3760776,,-0.019758414,0.42314285,-0.31437162,0.10482325,0.48611522,-0.8675852,-0.91585165,0.38719213,0.10629209,0.38759238,0.78343743,0.48579615,,1.2614002967443345,0.14812973926050033,0.1919546232,0.7255272044564542,0.3466467999049224,1.401956793721275,-0.41179039072451795,,-0.8543504924097091,-0.3558403626456427,0.20870657887000002,1.1306481752685553,1.0173953772534696,0.055534795979719,0.8459589185094321,,-0.03987859174650544,-0.09379617566374027,0.05836094732,-0.08765896690267068,,4.671514e-06,1.4305115e-06,-1.66893e-06,0.99999994,-7.964671e-06,-6.534159e-06,7.95722e-06,1.0,-8.34465e-07,6.5416098e-06,8.940697e-07,1.0,33,0.098,0,0,0.0,False,-0.26095043455704303,1.0212227897019646
0.1374473160103662,10:57:39.235079,10:57:23.040517,0,,0.12712857,0.0014867932,0.014419675,-0.94724923,-0.2414775,-0.21073067,-0.1276791,-0.31876084,0.9391963,-0.29396746,0.9165588,0.2711143,,0.08168162,-0.033639714,0.02038917,0.012260564,-0.39064366,0.9204603,-0.43091413,0.82860094,0.35739827,-0.90230954,-0.40102133,-0.15817472,,0.10935358,1.3586836,0.45858553,0.99613845,0.033226155,-0.08126626,-0.025843758,-0.7736436,-0.6330938,-0.0839064,0.63274926,-0.76979744,,-0.08410177,0.25544906,-0.058084525,0.9528749,0.11621599,0.28021997,-0.3033531,0.3573898,0.8833173,0.002507833,-0.9266965,0.37580225,,-0.019760437,0.42314273,-0.31437322,0.104865044,0.48615828,-0.86755604,-0.9158083,0.38728482,0.10632792,0.38768345,0.78336495,0.4858404,,1.261415742210083,0.14819152112349412,0.19162536554,0.7257368943999387,0.3455537079067989,1.4022763857698624,-0.41097367039384647,,-0.8543582151425833,-0.3558403626456427,0.20870657887000002,1.1308578652120398,1.0173953772534696,0.05577983220014082,0.8467756388401037,,-0.03987859174650544,-0.09379617566374027,0.05836094732,-0.08765896690267068,,4.671514e-06,1.4305115e-06,-1.66893e-06,0.99999994,-7.964671e-06,-6.534159e-06,7.95722e-06,1.0,-8.34465e-07,6.5416098e-06,8.940697e-07,1.0,52,0.156,0,0,0.0,False,-0.26202283349042155,1.0220918333159945
0.17249254100897815,10:57:39.284199,10:57:23.040517,0,,0.12717365,0.0013467818,0.014769003,-0.9472468,-0.240614,-0.21172734,-0.1290774,-0.3182698,0.9391717,-0.2933643,0.9169564,0.2704222,,0.08169134,-0.03364061,0.020394057,0.01226924,-0.39022988,0.92063576,-0.43081367,0.8288046,0.35704687,-0.9023574,-0.40100318,-0.15794757,,0.10935358,1.3586836,0.45858553,0.99613845,0.033226155,-0.08126626,-0.025843758,-0.7736436,-0.6330938,-0.0839064,0.63274926,-0.76979744,,-0.08419512,0.25557333,-0.058430225,0.9526675,0.11537383,0.2812714,-0.30401215,0.35803407,0.88282967,0.001150698,-0.926553,0.37616244,,-0.01977083,0.42314467,-0.31437603,0.104868546,0.48575675,-0.8677805,-0.91576445,0.3874234,0.10620042,0.38778603,0.78354543,0.4854673,,1.2614234649429572,0.14826874845223637,0.19124295999000002,0.7246884446825161,0.34432397940890996,1.4014822146200379,-0.4111370144599811,,-0.8544122742727028,-0.3558403626456427,0.20870787516000003,1.1310675551555245,1.0173953772534696,0.055534795979719,0.8474290151046406,,-0.03987859174650544,-0.09379617566374027,0.05836094732,-0.08765896690267068,,4.671514e-06,1.4305115e-06,-1.66893e-06,0.99999994,-7.964671e-06,-6.534159e-06,7.95722e-06,1.0,-8.34465e-07,6.5416098e-06,8.940697e-07,1.0,64,0.193,0,0,0.0,False,-0.2630356547052788,1.0223815145206714
0.22156291401188355,10:57:39.316960,10:57:23.152671,0,,0.12720062,0.0012608021,0.014988378,-0.94706064,-0.2402027,-0.21302283,-0.13034655,-0.3186934,0.93885267,-0.29340392,0.9169172,0.2705123,,0.08169621,-0.03364013,0.020397156,0.012295529,-0.39021543,0.9206414,-0.43080962,0.8288075,0.35704505,-0.902359,-0.40101132,-0.15791795,,0.10935358,1.3586836,0.45858553,0.99613845,0.033226155,-0.08126626,-0.025843758,-0.7736436,-0.6330938,-0.0839064,0.63274926,-0.76979744,,-0.084252216,0.25565284,-0.058646224,0.95235455,0.11492633,0.28251144,-0.30499285,0.35769486,0.88262886,0.000384404,-0.92673963,0.37570405,,-0.019776082,0.4231467,-0.3143773,0.10484303,0.48574385,-0.8677908,-0.91576415,0.3874193,0.10621807,0.3877937,0.7835555,0.48544502,,1.2614389104087056,0.14830736211660747,0.19100444263000002,0.723430305021609,0.3437774334098481,1.4015194925341208,-0.4117903907245182,,-0.8544431652041997,-0.3558403626456427,0.20870787516000003,1.1310675551555245,1.0173953772534696,0.055534795979719,0.8482457354353121,,-0.03987859174650544,-0.09379617566374027,0.05836094732,-0.08765896690267068,,4.671514e-06,1.4305115e-06,-1.66893e-06,0.99999994,-7.964671e-06,-6.534159e-06,7.95722e-06,1.0,-8.34465e-07,6.5416098e-06,8.940697e-07,1.0,79,0.238,0,0,0.0,False,-0.26297607698675796,1.0223332343198919
0.2543656130001182,10:57:39.366616,10:57:23.152671,0,,0.12721258,0.0011000484,0.015327409,-0.9475307,-0.2359353,-0.21568483,-0.13409962,-0.31910658,0.9381836,-0.29017705,0.917881,0.2707244,,0.08169624,-0.03363864,0.020396858,0.012296606,-0.39029405,0.9206081,-0.4308036,0.82877946,0.35711735,-0.90236187,-0.40099263,-0.15794891,,0.10935358,1.3586836,0.45858553,0.99613845,0.033226155,-0.08126626,-0.025843758,-0.7736436,-0.6330938,-0.0839064,0.63274926,-0.76979744,,-0.08431396,0.25575423,-0.059002377,0.95211273,0.11056553,0.2850555,-0.30571368,0.35807928,0.88222355,-0.0045289528,-0.92712164,0.37473324,,-0.019775998,0.42314762,-0.3143761,0.104842685,0.4858173,-0.8677497,-0.91576153,0.38741553,0.10625444,0.38779995,0.7835118,0.4855105,,1.2614080194772088,0.14829191665085903,0.19061685192000002,0.7215430955302483,0.33913179241782315,1.4019588729140358,-0.41228042292292066,,-0.8544431652041997,-0.35583263991276853,0.20870787516000003,1.1310675551555245,1.0173953772534696,0.05561647471985964,0.8477557032369094,,-0.03987859174650544,-0.09379617566374027,0.05836094732,-0.08765896690267068,,4.671514e-06,1.4305115e-06,-1.66893e-06,0.99999994,-7.964671e-06,-6.534159e-06,7.95722e-06,1.0,-8.34465e-07,6.5416098e-06,8.940697e-07,1.0,91,0.275,0,0,0.0,False,-0.26178452261633733,1.022864316528466
0.30403668600774836,10:57:39.406492,10:57:23.152671,0,,0.12726699,0.0009974092,0.015550315,-0.9473424,-0.23832852,-0.21387333,-0.13221538,-0.31718978,0.93910056,-0.29165283,0.9179271,0.26897657,,0.08169503,-0.03363876,0.020396084,0.012290042,-0.39022246,0.92063856,-0.4308046,0.82880795,0.35705012,-0.90236145,-0.40100354,-0.15792355,,0.10935358,1.3586836,0.45858553,0.99613845,0.033226155,-0.08126626,-0.025843758,-0.7736436,-0.6330938,-0.0839064,0.63274926,-0.76979744,,-0.084400274,0.25582388,-0.05922794,0.9522672,0.1131299,0.283529,-0.30525783,0.3595199,0.8817954,-0.002176904,-0.92625433,0.37689283,,-0.019774685,0.4231471,-0.31437576,0.10484906,0.48574966,-0.8677868,-0.91576165,0.3874252,0.10621839,0.38779804,0.78354895,0.48545206,,1.2613771285457118,0.1482764711851106,0.19037314940000002,0.7225915452476709,0.34131797641407025,1.4000128289746123,-0.41228042292292066,,-0.8544354424713255,-0.35583263991276853,0.20870787516000003,1.1310675551555245,1.0173953772534696,0.05553479597971911,0.8479190473030436,,-0.03987859174650544,-0.09379617566374027,0.05836094732,-0.08765896690267068,,4.671514e-06,1.4305115e-06,-1.66893e-06,0.99999994,-7.964671e-06,-6.534159e-06,7.95722e-06,1.0,-8.34465e-07,6.5416098e-06,8.940697e-07,1.0,103,0.311,0,0,0.0,False,-0.26196325577190027,1.0227194759261276
0.34382415701111313,10:57:39.437577,10:57:23.152671,0,,0.1273035,0.0009150654,0.015724257,-0.9470165,-0.23994052,-0.21351402,-0.13146684,-0.3169515,0.93928605,-0.29304636,0.9175893,0.26861402,,0.08169499,-0.03364025,0.020396382,0.012288958,-0.390219,0.92064,-0.43081063,0.82880676,0.3570455,-0.90235853,-0.40100926,-0.15792535,,0.10935358,1.3586836,0.45858553,0.99613845,0.033226155,-0.08126626,-0.025843758,-0.7736436,-0.6330938,-0.0839064,0.63274926,-0.76979744,,-0.08446199,0.25587645,-0.05940625,0.9521589,0.11478321,0.2832282,-0.30560273,0.35945398,0.8817028,-0.00060281926,-0.9260765,0.37733537,,-0.019774769,0.4231462,-0.31437698,0.104849406,0.48574707,-0.8677882,-0.9157642,0.38742036,0.10621366,0.38779178,0.783553,0.4854506,,1.2613616830799634,0.14823013478786523,0.19018259477000002,0.7225915452476709,0.3429576144112555,1.3995742802718012,-0.4121170788567865,,-0.8544354424713255,-0.3558403626456427,0.20870787516000003,1.1310675551555245,1.0173953772534696,0.055534795979719,0.8482457354353121,,-0.03987859174650544,-0.09379617566374027,0.05836094732,-0.08765896690267068,,4.671514e-06,1.4305115e-06,-1.66893e-06,0.99999994,-7.964671e-06,-6.534159e-06,7.95722e-06,1.0,-8.34465e-07,6.5416098e-06,8.940697e-07,1.0,114,0.344,0,0,0.0,False,-0.26112916771260597,1.0227194759261276
0.3749730859999545,10:57:39.471419,10:57:23.152671,0,,0.1273362,0.00083847344,0.015879706,-0.94704926,-0.24014473,-0.21313855,-0.13099939,-0.31706345,0.93931353,-0.29314962,0.9174973,0.2688158,,0.08169624,-0.03363864,0.020396858,0.012296606,-0.39021888,0.92064,-0.4308036,0.82880867,0.35704967,-0.90236187,-0.40100554,-0.15791613,,0.10935358,1.3586836,0.45858553,0.99613845,0.033226155,-0.08126626,-0.025843758,-0.7736436,-0.6330938,-0.0839064,0.63274926,-0.76979744,,-0.08451754,0.25592116,-0.059567545,0.9522503,0.11498262,0.28283975,-0.30531833,0.3593061,0.88186157,-0.00022729885,-0.92610914,0.37725565,,-0.019775998,0.42314762,-0.3143761,0.104842685,0.4857464,-0.8677894,-0.91576153,0.3874242,0.1062228,0.38779995,0.78355145,0.48544648,,1.2613076239498437,0.148222412054991,0.19000759562000002,0.7230109251346399,0.3432308874107864,1.3998415169052518,-0.4121170788567865,,-0.8544431652041997,-0.35583263991276853,0.20870787516000003,1.1310675551555245,1.0173953772534696,0.055534795979719,0.8482457354353121,,-0.03987859174650544,-0.09379617566374027,0.05836094732,-0.08765896690267068,,4.671514e-06,1.4305115e-06,-1.66893e-06,0.99999994,-7.964671e-06,-6.534159e-06,7.95722e-06,1.0,-8.34465e-07,6.5416098e-06,8.940697e-07,1.0,126,0.381,0,0,0.0,False,-0.26196325577190027,1.0231539977331428
0.4088110980083002,10:57:39.513485,10:57:23.152671,0,,0.12738983,0.00076042116,0.016011432,-0.94683367,-0.24228546,-0.21166874,-0.12943311,-0.31546167,0.94006974,-0.2945386,0.91748655,0.26732993,,0.08169624,-0.03363864,0.020396858,0.012296606,-0.39021888,0.92064,-0.4308036,0.82880867,0.35704967,-0.90236187,-0.40100554,-0.15791613,,0.10935358,1.3586836,0.45858553,0.99613845,0.033226155,-0.08126626,-0.025843758,-0.7736436,-0.6330938,-0.0839064,0.63274926,-0.76979744,,-0.084591635,0.25594953,-0.059709076,0.95233613,0.11726974,0.2816091,-0.30504495,0.3604756,0.88147885,0.0018575866,-0.9253676,0.37906647,,-0.019775998,0.42314762,-0.3143761,0.104842685,0.4857464,-0.8677894,-0.91576153,0.3874242,0.1062228,0.38779995,0.78355145,0.48544648,,1.2611686147581078,0.1481837983906199,0.18985592969,0.723849684908578,0.3451437984075026,1.398281666253502,-0.4117903907245182,,-0.8544431652041997,-0.35583263991276853,0.20870787516000003,1.1310675551555245,1.0173953772534696,0.055534795979719,0.8482457354353121,,-0.03987859174650544,-0.09379617566374027,0.05836094732,-0.08765896690267068,,4.671514e-06,1.4305115e-06,-1.66893e-06,0.99999994,-7.964671e-06,-6.534159e-06,7.95722e-06,1.0,-8.34465e-07,6.5416098e-06,8.940697e-07,1.0,138,0.418,0,0,0.0,False,-0.2617249448978165,1.0231057175323635
0.45090226200409234,10:57:39.545548,10:57:23.371702,0,,0.1274411,0.0007108301,0.0161068,-0.9466151,-0.24392724,-0.21075884,-0.12812996,-0.31522715,0.94032687,-0.29580826,0.917132,0.26714432,,0.08169624,-0.03363864,0.020396858,0.012296606,-0.39021888,0.92064,-0.4308036,0.82880867,0.35704967,-0.90236187,-0.40100554,-0.15791613,,0.10935358,1.3586836,0.45858553,0.99613845,0.033226155,-0.08126626,-0.025843758,-0.7736436,-0.6330938,-0.0839064,0.63274926,-0.76979744,,-0.08465686,0.25597546,-0.059805248,0.9523799,0.11895377,0.28075352,-0.30489177,0.3603954,0.8815646,0.0036831556,-0.92518383,0.37950134,,-0.019775998,0.42314762,-0.3143761,0.104842685,0.4857464,-0.8677894,-0.91576153,0.3874242,0.1062228,0.38779995,0.78355145,0.48544648,,1.261037328299246,0.1482146893221168,0.18974833762,0.7244787547390317,0.3467834364046879,1.3980881537711127,-0.41179039072451795,,-0.8544431652041997,-0.35583263991276853,0.20870787516000003,1.1310675551555245,1.0173953772534696,0.055534795979719,0.8482457354353121,,-0.03987859174650544,-0.09379617566374027,0.05836094732,-0.08765896690267068,,4.671514e-06,1.4305115e-06,-1.66893e-06,0.99999994,-7.964671e-06,-6.534159e-06,7.95722e-06,1.0,-8.34465e-07,6.5416098e-06,8.940697e-07,1.0,146,0.442,0,0,0.0,False,-0.26160578946077395,1.0234436789378196
0.4829675729997689,10:57:39.576273,10:57:23.371702,0,,0.1274866,0.0006432533,0.01621519,-0.94662064,-0.2440474,-0.21059462,-0.12795947,-0.3151421,0.9403786,-0.29586416,0.9171294,0.26709178,,0.08169624,-0.03363864,0.020396858,0.012296606,-0.39021888,0.92064,-0.4308036,0.82880867,0.35704967,-0.90236187,-0.40100554,-0.15791613,,0.10935358,1.3586836,0.45858553,0.99613845,0.033226155,-0.08126626,-0.025843758,-0.7736436,-0.6330938,-0.0839064,0.63274926,-0.76979744,,-0.08471954,0.2559963,-0.059923705,0.9524087,0.11908184,0.28060153,-0.3047999,0.36045596,0.8815716,0.0038346695,-0.9251438,0.37959754,,-0.019775998,0.42314762,-0.3143761,0.104842685,0.4857464,-0.8677894,-0.91576153,0.3874242,0.1062228,0.38779995,0.78355145,0.48544648,,1.2608519827102647,0.148222412054991,0.18961741233,0.7246884446825161,0.3467834364046879,1.3981698325112533,-0.41162704665838357,,-0.8544431652041997,-0.35583263991276853,0.20870787516000003,1.1310675551555245,1.0173953772534696,0.05553479597971911,0.8479190473030436,,-0.03987859174650544,-0.09379617566374027,0.05836094732,-0.08765896690267068,,4.671514e-06,1.4305115e-06,-1.66893e-06,0.99999994,-7.964671e-06,-6.534159e-06,7.95722e-06,1.0,-8.34465e-07,6.5416098e-06,8.940697e-07,1.0,165,0.5,0,0,0.0,False,-0.26202283349042155,1.022767756126907
0.5136968240112765,10:57:39.627653,10:57:23.371702,0,,0.12753418,0.0005529672,0.016348168,-0.9466092,-0.24350455,-0.21127342,-0.12865043,-0.31557763,0.9401382,-0.2956011,0.9171239,0.26740167,,0.08169755,-0.033639178,0.020394653,0.012296606,-0.39044443,0.9205443,-0.4308036,0.82872117,0.35725275,-0.90236187,-0.40096682,-0.1580144,,0.10935358,1.3586836,0.45858553,0.99613845,0.033226155,-0.08126626,-0.025843758,-0.7736436,-0.6330938,-0.0839064,0.63274926,-0.76979744,,-0.08478905,0.25601614,-0.060074925,0.9522995,0.11849959,0.281218,-0.30514836,0.36013192,0.8815835,0.0031917125,-0.9253447,0.3791134,,-0.019776985,0.4231457,-0.31437463,0.104842685,0.48595905,-0.86767036,-0.91576153,0.38739815,0.10631773,0.38779995,0.7834325,0.48563847,,1.2606125779911637,0.14819152112349412,0.18945278350000003,0.7242690647955471,0.34610025390586063,1.3987269220297354,-0.4114637025922494,,-0.8544431652041997,-0.35583263991276853,0.20871046774000002,1.1310675551555245,1.0173953772534696,0.05577983220014082,0.8484090795014465,,-0.03987859174650544,-0.09379617566374027,0.05836094732,-0.08765896690267068,,4.671514e-06,1.4305115e-06,-1.66893e-06,0.99999994,-7.964671e-06,-6.534159e-06,7.95722e-06,1.0,-8.34465e-07,6.5416098e-06,8.940697e-07,1.0,177,0.537,0,0,0.0,False,-0.26249945523859,1.0227194759261276
0.5650403360050404,10:57:39.667222,10:57:23.371702,0,,0.12756486,0.00052443147,0.016444027,-0.94661516,-0.24343534,-0.21132647,-0.12865266,-0.3157962,0.94006455,-0.29558098,0.91706705,0.2676188,,0.08169564,-0.03364052,0.020395368,0.012288958,-0.39051974,0.9205125,-0.43081063,0.82869005,0.3573163,-0.90235853,-0.40095767,-0.15805633,,0.10935358,1.3586836,0.45858553,0.99613845,0.033226155,-0.08126626,-0.025843758,-0.7736436,-0.6330938,-0.0839064,0.63274926,-0.76979744,,-0.08483175,0.25605798,-0.060160767,0.9523032,0.11841381,0.2812416,-0.30513698,0.35993072,0.8816696,0.003174371,-0.925434,0.3788956,,-0.019775262,0.42314526,-0.31437626,0.104849406,0.48603055,-0.86762947,-0.9157642,0.3873856,0.10634023,0.38779178,0.78339434,0.48570657,,1.2605662415939183,0.14830736211660747,0.18935037659,0.7242690647955471,0.3459636174060952,1.3989200186735724,-0.4114637025922494,,-0.8544354424713255,-0.3558403626456427,0.20870917145,1.1310675551555245,1.0173953772534696,0.055861510940281356,0.8482457354353123,,-0.03987859174650544,-0.09379617566374027,0.05836094732,-0.08765896690267068,,4.671514e-06,1.4305115e-06,-1.66893e-06,0.99999994,-7.964671e-06,-6.534159e-06,7.95722e-06,1.0,-8.34465e-07,6.5416098e-06,8.940697e-07,1.0,189,0.574,0,0,0.0,False,-0.26190367805337944,1.0228160363276866
0.6046432340081083,10:57:39.701220,10:57:23.526586,0,,0.12760851,0.00048156083,0.016568795,-0.9465191,-0.24638268,-0.20832,-0.1255479,-0.31352288,0.94124454,-0.2972194,0.91705996,0.26582244,,0.08169679,-0.033643365,0.02039668,0.012293372,-0.39058444,0.920485,-0.43082175,0.8286593,0.3573743,-0.90235317,-0.40095833,-0.15808527,,0.10935358,1.3586836,0.45858553,0.99613845,0.033226155,-0.08126626,-0.025843758,-0.7736436,-0.6330938,-0.0839064,0.63274926,-0.76979744,,-0.08489161,0.25610816,-0.060275692,0.95269233,0.12156906,0.27856466,-0.3038684,0.36159718,0.8814258,0.0064259088,-0.92437464,0.38143188,,-0.019776741,0.42314392,-0.314379,0.104843706,0.48609304,-0.86759514,-0.9157694,0.38736615,0.10636681,0.38778117,0.7833652,0.48576203,,1.2605971325254153,0.14836142124672705,0.18922334017000003,0.7263659642303923,0.34883298390116946,1.3968252789163693,-0.41228042292292066,,-0.8544431652041997,-0.35585580811139117,0.20870917145,1.1310675551555245,1.0173953772534696,0.05594318968042189,0.848082391369178,,-0.03987859174650544,-0.09379617566374027,0.05836094732,-0.08765896690267068,,4.671514e-06,1.4305115e-06,-1.66893e-06,0.99999994,-7.964671e-06,-6.534159e-06,7.95722e-06,1.0,-8.34465e-07,6.5416098e-06,8.940697e-07,1.0,208,0.631,0,0,0.0,False,-0.26154621174225356,1.0228160363276866
0.6385895679995883,10:57:39.760574,10:57:23.526586,0,,0.12766737,0.0004287064,0.016840711,-0.9464052,-0.2463001,-0.20893422,-0.1256979,-0.31501672,0.94072556,-0.29751855,0.91657,0.26717398,,0.081695534,-0.03364499,0.020396203,0.012285724,-0.39043424,0.92054886,-0.43082884,0.8287158,0.3572348,-0.90235,-0.40098783,-0.15802895,,0.10935358,1.3586836,0.45858553,0.99613845,0.033226155,-0.08126626,-0.025843758,-0.7736436,-0.6330938,-0.0839064,0.63274926,-0.76979744,,-0.08498193,0.2562476,-0.060505055,0.95259315,0.121379085,0.27898642,-0.30417618,0.36014998,0.88191205,0.0065687257,-0.92496437,0.37999701,,-0.019775512,0.4231425,-0.3143799,0.10485043,0.48595193,-0.8676734,-0.9157721,0.38737968,0.106294386,0.387773,0.783446,0.48563814,,1.2606743598541574,0.14870894422606715,0.18894852669,0.7259465843434233,0.34883298390116946,1.397968781278337,-0.4116270466583838,,-0.8544354424713255,-0.3558635308442654,0.20870917145,1.1310675551555245,1.0173953772534696,0.05577983220014071,0.8480823913691777,,-0.03987859174650544,-0.09379617566374027,0.05836094732,-0.08765896690267068,,4.671514e-06,1.4305115e-06,-1.66893e-06,0.99999994,-7.964671e-06,-6.534159e-06,7.95722e-06,1.0,-8.34465e-07,6.5416098e-06,8.940697e-07,1.0,220,0.668,0,0,0.0,False,-0.2626781883941529,1.0221883937175535
0.69794000100228,10:57:39.795999,10:57:23.526586,0,,0.1277059,0.00043542683,0.017004237,-0.9464252,-0.24628589,-0.20885982,-0.12554114,-0.3152844,0.9406568,-0.29752073,0.9164818,0.26747403,,0.081697896,-0.033647776,0.020398408,0.012296699,-0.39049527,0.9205228,-0.43083888,0.8286857,0.35729235,-0.902345,-0.4009906,-0.15805048,,0.10935358,1.3586836,0.45858553,0.99613845,0.033226155,-0.08126626,-0.025843758,-0.7736436,-0.6330938,-0.0839064,0.63274926,-0.76979744,,-0.08503534,0.25636056,-0.06061757,0.9526296,0.12134568,0.2788763,-0.30405965,0.3598903,0.8820582,0.0066690696,-0.9250698,0.3797385,,-0.019778304,0.42314166,-0.31438297,0.10483835,0.48601118,-0.8676417,-0.91577715,0.3873592,0.10632539,0.3877643,0.78341943,0.48568803,,1.2608056463130193,0.1491028036026526,0.18879815705000003,0.7259465843434233,0.34869634740140404,1.3979168417017525,-0.4116270466583838,,-0.854450887937074,-0.35587897631001386,0.20870917145,1.1310675551555245,1.0173953772534696,0.055861510940281245,0.8479190473030433,,-0.03987859174650544,-0.09379617566374027,0.05836094732,-0.08765896690267068,,4.671514e-06,1.4305115e-06,-1.66893e-06,0.99999994,-7.964671e-06,-6.534159e-06,7.95722e-06,1.0,-8.34465e-07,6.5416098e-06,8.940697e-07,1.0,232,0.705,0,0,0.0,False,-0.26297607698675796,1.0223815145206714
0.7334181839978555,10:57:39.831509,10:57:23.683199,0,,0.1277615,0.00049073994,0.017268673,-0.9466454,-0.24532577,-0.20899187,-0.12558341,-0.31641942,0.94026995,-0.29680154,0.91634816,0.26872814,,0.08169734,-0.033648133,0.02039656,0.012290128,-0.39049894,0.9205213,-0.4308399,0.82868505,0.35729283,-0.9023446,-0.40098855,-0.15805787,,0.10935358,1.3586836,0.45858553,0.99613845,0.033226155,-0.08126626,-0.025843758,-0.7736436,-0.6330938,-0.0839064,0.63274926,-0.76979744,,-0.08511039,0.25657666,-0.060771663,0.9527729,0.12028991,0.27884415,-0.30362287,0.35896063,0.8825874,0.0060722856,-0.9255688,0.37853074,,-0.019777484,0.4231402,-0.31438193,0.10484473,0.48601443,-0.86763906,-0.9157772,0.38736022,0.10632098,0.3877624,0.7834169,0.4856936,,1.2611377238266108,0.14994458148594308,0.18857130630000002,0.7259465843434233,0.3476032554032805,1.3984814699707615,-0.4122804229229209,,-0.854450887937074,-0.3558712535771396,0.20871046774000002,1.1310675551555245,1.0173953772534696,0.05577983220014071,0.8480823913691777,,-0.03987859174650544,-0.09379617566374027,0.05836094732,-0.08765896690267068,,4.671514e-06,1.4305115e-06,-1.66893e-06,0.99999994,-7.964671e-06,-6.534159e-06,7.95722e-06,1.0,-8.34465e-07,6.5416098e-06,8.940697e-07,1.0,251,0.762,0,0,0.0,False,-0.2626781883941529,1.0229125967292456
0.7689115590037545,10:57:39.898397,10:57:23.683199,0,,0.12782645,0.0005951971,0.017711014,-0.9467088,-0.24466583,-0.20947786,-0.12572755,-0.3180599,0.9396971,-0.29653826,0.9159566,0.27034882,,0.081701025,-0.03364633,0.020398527,0.012310918,-0.3904915,0.9205242,-0.43083087,0.8286883,0.35729608,-0.9023486,-0.40098888,-0.1580339,,0.10935358,1.3586836,0.45858553,0.99613845,0.033226155,-0.08126626,-0.025843758,-0.7736436,-0.6330938,-0.0839064,0.63274926,-0.76979744,,-0.08520694,0.25694668,-0.06102572,0.9527949,0.11950357,0.2791071,-0.30355978,0.3574759,0.88321143,0.0057728654,-0.92624503,0.37687773,,-0.01978134,0.42314264,-0.31438166,0.10482525,0.48600733,-0.8676454,-0.91577435,0.38736203,0.10633895,0.38777438,0.78342044,0.48567837,,1.2618791061825365,0.15128061427318393,0.18820315994000003,0.7253175145129698,0.3467834364046879,1.3987415836922372,-0.4121170788567867,,-0.8544663334028224,-0.3558712535771396,0.20871046774000002,1.1310675551555245,1.0173953772534696,0.055861510940281356,0.8482457354353123,,-0.03987859174650544,-0.09379617566374027,0.05836094732,-0.08765896690267068,,4.671514e-06,1.4305115e-06,-1.66893e-06,0.99999994,-7.964671e-06,-6.534159e-06,7.95722e-06,1.0,-8.34465e-07,6.5416098e-06,8.940697e-07,1.0,263,0.799,0,0,0.0,False,-0.2622611443645053,1.0222366739183333
0.8358068189991172,10:57:39.929720,10:57:23.683199,0,,0.12783018,0.0006451309,0.017926648,-0.94631857,-0.24714425,-0.20832849,-0.1243462,-0.3165674,0.9403846,-0.29836062,0.9158082,0.2688421,,0.081704006,-0.03365083,0.020399898,0.01232082,-0.3905491,0.9204996,-0.430847,0.82865703,0.35734907,-0.90234077,-0.40099737,-0.15805717,,0.10935358,1.3586836,0.45858553,0.99613845,0.033226155,-0.08126626,-0.025843758,-0.7736436,-0.6330938,-0.0839064,0.63274926,-0.76979744,,-0.08522647,0.2571259,-0.06115416,0.9527309,0.12212694,0.27818844,-0.30370775,0.3584676,0.8827585,0.008087049,-0.9255193,0.37861407,,-0.01978471,0.42313993,-0.3143852,0.10481351,0.486064,-0.8676151,-0.91578203,0.38733664,0.10636522,0.38775942,0.7833978,0.48572677,,1.2624660338809774,0.15175942371138584,0.18803075337000003,0.7253175145129698,0.3492428934004658,1.3960826315045773,-0.4111370144599811,,-0.8544817788685709,-0.3558944217757623,0.20871176403000002,1.1310675551555245,1.0173953772534696,0.05594318968042189,0.848082391369178,,-0.03987859174650544,-0.09379617566374027,0.05836094732,-0.08765896690267068,,4.671514e-06,1.4305115e-06,-1.66893e-06,0.99999994,-7.964671e-06,-6.534159e-06,7.95722e-06,1.0,-8.34465e-07,6.5416098e-06,8.940697e-07,1.0,275,0.836,0,0,0.0,False,-0.261427056305211,1.0221883937175535
0.8671171300084097,10:57:39.963143,10:57:23.683199,0,,0.12778792,0.00064478815,0.018213525,-0.946394,-0.24717952,-0.20794365,-0.123434946,-0.3181584,0.93996763,-0.29849976,0.9152472,0.2705926,,0.0817039,-0.033655345,0.020400852,0.012317587,-0.39068907,0.92044026,-0.43086514,0.82859516,0.35747063,-0.9023322,-0.40098888,-0.15812805,,0.10935358,1.3586836,0.45858553,0.99613845,0.033226155,-0.08126626,-0.025843758,-0.7736436,-0.6330938,-0.0839064,0.63274926,-0.76979744,,-0.08521267,0.2573133,-0.06137504,0.95291436,0.1220504,0.2775931,-0.3031127,0.35689864,0.8835984,0.008770929,-0.92613554,0.37708884,,-0.019784959,0.42313716,-0.31438887,0.10481453,0.48619795,-0.8675399,-0.9157899,0.38730463,0.10641429,0.38774064,0.7833305,0.48585033,,1.2632074162369031,0.1520297193619837,0.18778186569000002,0.7257368943999387,0.34992607589929303,1.3973224742691874,-0.4117903907245182,,-0.8544817788685709,-0.355917589974385,0.20871176403000002,1.1310675551555245,1.0173953772534696,0.05610654716070307,0.8477557032369094,,-0.03987859174650544,-0.09379617566374027,0.05836094732,-0.08765896690267068,,4.671514e-06,1.4305115e-06,-1.66893e-06,0.99999994,-7.964671e-06,-6.534159e-06,7.95722e-06,1.0,-8.34465e-07,6.5416098e-06,8.940697e-07,1.0,287,0.873,0,0,0.0,False,-0.26136747858668974,1.0218987125128767
0.9005461810011184,10:57:40.002969,10:57:23.683199,0,,0.12776941,0.0006301403,0.01842618,-0.9458275,-0.25037962,-0.20668866,-0.12180889,-0.31645262,0.94075525,-0.30095312,0.91496867,0.26881108,,0.08170321,-0.033659935,0.020401448,0.012350563,-0.3909133,0.92034465,-0.4309828,0.82845014,0.35766503,-0.90227556,-0.4010701,-0.15824509,,0.10935358,1.3586836,0.45858553,0.99613845,0.033226155,-0.08126626,-0.025843758,-0.7736436,-0.6330938,-0.0839064,0.63274926,-0.76979744,,-0.085216664,0.25744152,-0.061546277,0.9527631,0.12542301,0.27660722,-0.30348748,0.357955,0.8830422,0.011740875,-0.9252769,0.37911063,,-0.019784583,0.42313412,-0.31439242,0.10476775,0.48642474,-0.8674184,-0.9158436,0.3871567,0.106490396,0.38762638,0.78326285,0.48605055,,1.2637480075380987,0.15211466942360016,0.18759519993,0.7257368943999387,0.35320535189366353,1.3947301233206137,-0.4116270466583838,,-0.8544817788685709,-0.3559484809058819,0.20871176403000002,1.1308578652120398,1.0173953772534696,0.0561882259008436,0.8475923591707751,,-0.03987859174650544,-0.09379617566374027,0.05836094732,-0.08765896690267068,,4.671514e-06,1.4305115e-06,-1.66893e-06,0.99999994,-7.964671e-06,-6.534159e-06,7.95722e-06,1.0,-8.34465e-07,6.5416098e-06,8.940697e-07,1.0,302,0.918,0,0,0.0,False,-0.2617249448978165,1.0220918333159945
0.9403702470008284,10:57:40.042003,10:57:23.683199,0,,0.12765639,0.0005761385,0.018775254,-0.94590384,-0.24988645,-0.2069364,-0.121851265,-0.3175119,0.9403927,-0.30069616,0.91473657,0.26988667,,0.08162169,-0.03367342,0.020406306,0.012326881,-0.39092064,0.9203418,-0.430983,0.82845116,0.35766208,-0.9022758,-0.40106067,-0.158268,,0.10936646,1.358684,0.45858857,0.9961386,0.033228986,-0.081263945,-0.025840113,-0.7736435,-0.633094,-0.0839064,0.63274926,-0.76979744,,-0.085157655,0.2576259,-0.061855085,0.9528099,0.12484804,0.27670616,-0.30334932,0.35701147,0.88347155,0.011512416,-0.9257191,0.37803662,,-0.01971852,0.42313042,-0.31441304,0.10479283,0.4864277,-0.8674137,-0.91584224,0.38716534,0.10647081,0.38762286,0.7832567,0.48606318,,1.2643967170995336,0.15217645128659396,0.18728409033,0.7255272044564542,0.353341988393429,1.395435492818323,-0.41130035852611524,,-0.8544817788685709,-0.3559562036387561,0.20871306032000003,1.1308578652120398,1.0173953772534696,0.056269904640984136,0.8474290151046409,,-0.03987859174650544,-0.09379617566374027,0.05836094732,-0.08765896690267068,,1.7229468e-05,3.4570694e-06,-5.2452087e-06,0.99999994,-5.148351e-06,-4.2170286e-06,5.1409006e-06,1.0,-5.9604645e-07,4.23193e-06,5.662441e-07,1.0,310,0.942,0,0,0.0,False,-0.26202283349042155,1.0216573115089795
0.9794240980118047,10:57:40.071621,10:57:23.683199,0,,0.1276592,0.00052140653,0.019033745,-0.9452971,-0.2524233,-0.20662966,-0.121078156,-0.316678,0.9407736,-0.30290824,0.91432905,0.26879174,,0.08162675,-0.03367421,0.020403445,0.01234002,-0.39091343,0.92034477,-0.43098098,0.8284526,0.35766113,-0.9022766,-0.40106472,-0.1582532,,0.10936646,1.358684,0.45858857,0.9961386,0.033228986,-0.081263945,-0.025840113,-0.7736435,-0.633094,-0.0839064,0.63274926,-0.76979744,,-0.085191384,0.2577543,-0.062083542,0.9525061,0.12748574,0.27654925,-0.30420864,0.35733536,0.883045,0.01375482,-0.9252345,0.37914637,,-0.01972312,0.42312762,-0.31441075,0.10478008,0.48642126,-0.8674189,-0.91584206,0.38716328,0.10647964,0.38762668,0.7832617,0.48605204,,1.2647905764761191,0.15223823314958776,0.18703520265,0.7248981346260007,0.35593808188897236,1.393726946348794,-0.41179039072451773,,-0.8544972243343193,-0.3559562036387561,0.20871824548,1.1308578652120398,1.0173953772534696,0.056269904640984136,0.8474290151046409,,-0.03987859174650544,-0.09379617566374027,0.05836094732,-0.08765896690267068,,1.7229468e-05,3.4570694e-06,-5.2452087e-06,0.99999994,-5.148351e-06,-4.2170286e-06,5.1409006e-06,1.0,-5.9604645e-07,4.23193e-06,5.662441e-07,1.0,322,0.979,0,0,0.0,False,-0.2626781883941529,1.021705591709759
1.0090392630081624,10:57:40.113084,10:57:23.683199,0,,0.12777641,0.00045125186,0.019428596,-0.9440057,-0.258393,-0.20514911,-0.11795071,-0.3163935,0.9412665,-0.30812457,0.9127586,0.26819953,,0.08164699,-0.033673882,0.020410538,0.012310032,-0.39081144,0.9203884,-0.43100825,0.8284853,0.35755256,-0.902264,-0.4010966,-0.15824433,,0.10936646,1.358684,0.45858857,0.9961386,0.033228986,-0.081263945,-0.025840113,-0.7736435,-0.633094,-0.0839064,0.63274926,-0.76979744,,-0.08535327,0.25796223,-0.06240777,0.952064,0.13357714,0.2751932,-0.30525306,0.35643044,0.8830503,0.019868102,-0.924724,0.3801194,,-0.01974416,0.42313123,-0.31441283,0.10480647,0.486327,-0.86746854,-0.9158524,0.38716045,0.10640078,0.3875951,0.7833217,0.48598066,,1.2649836447979748,0.15267842892341857,0.18665409339000003,0.7248981346260007,0.36195008787865174,1.392255065672055,-0.4127704551213236,,-0.8546130653274326,-0.3559562036387561,0.20872213435000003,1.1308578652120398,1.0172587407537041,0.05621796506439947,0.8474290151046405,,-0.03987859174650544,-0.09379617566374027,0.05836094732,-0.08765896690267068,,1.7229468e-05,3.4570694e-06,-5.2452087e-06,0.99999994,-5.148351e-06,-4.2170286e-06,5.1409006e-06,1.0,-5.9604645e-07,4.23193e-06,5.662441e-07,1.0,334,1.016,0,0,0.0,False,-0.26148663402373185,1.0222849541191128
1.0505025070015108,10:57:40.150684,10:57:23.988812,0,,0.12786822,0.00040845573,0.019734994,-0.94273514,-0.26249552,-0.20578292,-0.11718384,-0.31696957,0.94116855,-0.3122794,0.91138715,0.26805797,,0.08165924,-0.03367336,0.020415306,0.012369171,-0.3907037,0.9204334,-0.4309992,0.828521,0.35748088,-0.9022675,-0.40112787,-0.15814492,,0.10936646,1.358684,0.45858857,0.9961386,0.033228986,-0.081263945,-0.025840113,-0.7736435,-0.633094,-0.0839064,0.63274926,-0.76979744,,-0.085478514,0.25813237,-0.0626517,0.9512921,0.1377112,0.2758241,-0.3073821,0.3550347,0.8828741,0.023654513,-0.92465454,0.3800717,,-0.019756962,0.4231339,-0.31441423,0.10474905,0.4862271,-0.8675315,-0.9158517,0.3871599,0.10640887,0.38761228,0.78338397,0.48586655,,1.2651149312568366,0.15308001103287824,0.18636113185000003,0.7232206150781245,0.3659125463718495,1.391392629928935,-0.41195373479065234,,-0.8546825699233007,-0.3559562036387561,0.20872472693000002,1.1308578652120398,1.0172587407537041,0.05613628632425893,0.8472656710385064,,-0.03987859174650544,-0.09379617566374027,0.05836094732,-0.08765896690267068,,1.7229468e-05,3.4570694e-06,-5.2452087e-06,0.99999994,-5.148351e-06,-4.2170286e-06,5.1409006e-06,1.0,-5.9604645e-07,4.23193e-06,5.662441e-07,1.0,346,1.053,0,0,0.0,False,-0.2622015666459845,1.021802152111318
1.0881017400097335,10:57:40.181665,10:57:23.988812,0,,0.12793623,0.0003734827,0.020078614,-0.94119567,-0.269163,-0.20421089,-0.1137982,-0.31655174,0.94172436,-0.31812072,0.90958583,0.26730677,,0.081661135,-0.03367409,0.020413876,0.012247179,-0.39080274,0.92039293,-0.43104056,0.82848513,0.35751393,-0.90224934,-0.4011054,-0.15830529,,0.10936646,1.358684,0.45858857,0.9961386,0.033228986,-0.081263945,-0.025840113,-0.7736435,-0.633094,-0.0839064,0.63274926,-0.76979744,,-0.085583024,0.2583325,-0.062921815,0.9506924,0.14452969,0.27439964,-0.30863816,0.35406843,0.8828239,0.030438013,-0.92398417,0.38121754,,-0.019758638,0.4231323,-0.31441334,0.104864754,0.48631972,-0.86746556,-0.91586316,0.38715407,0.106331475,0.38755393,0.78332937,0.48600113,,1.2655628497635416,0.15341208854646987,0.18605002225000003,0.7230109251346399,0.372881007859887,1.389549217627024,-0.41244376698905527,,-0.8546902926561749,-0.3559562036387561,0.20872602322000003,1.1308578652120398,1.0171221042539387,0.05624770422795533,0.8472656710385064,,-0.03987859174650544,-0.09379617566374027,0.05836094732,-0.08765896690267068,,1.7229468e-05,3.4570694e-06,-5.2452087e-06,0.99999994,-5.148351e-06,-4.2170286e-06,5.1409006e-06,1.0,-5.9604645e-07,4.23193e-06,5.662441e-07,1.0,354,1.077,0,0,0.0,False,-0.2622611443645053,1.0218987125128767
1.1190886530093849,10:57:40.211521,10:57:23.988812,0,,0.12801108,0.00029359758,0.020461991,-0.94066757,-0.27142084,-0.20365459,-0.11215201,-0.31775832,0.9415155,-0.32025987,0.9084935,0.26846448,,0.08166365,-0.03367451,0.020412445,0.01225375,-0.39094946,0.92033064,-0.4310396,0.82842743,0.3576488,-0.9022498,-0.40108156,-0.1583634,,0.10936646,1.358684,0.45858857,0.9961386,0.033228986,-0.081263945,-0.025840113,-0.7736435,-0.633094,-0.0839064,0.63274926,-0.76979744,,-0.08570287,0.25852492,-0.06324977,0.9505506,0.14674489,0.2737142,-0.30879214,0.35240775,0.8834343,0.033180457,-0.92426986,0.38029507,,-0.019760936,0.42313093,-0.3144122,0.104858376,0.48645818,-0.8673887,-0.9158631,0.38713568,0.106399134,0.38755584,0.7832525,0.4861235,,1.2658022544826424,0.15379050245730688,0.18567020928000003,0.7232206150781245,0.37547710135543033,1.3902093546215712,-0.4121170788567865,,-0.8546980153890492,-0.3559562036387561,0.20872861580000002,1.1308578652120398,1.0171221042539387,0.0564110617082364,0.8472656710385063,,-0.03987859174650544,-0.09379617566374027,0.05836094732,-0.08765896690267068,,1.7229468e-05,3.4570694e-06,-5.2452087e-06,0.99999994,-5.148351e-06,-4.2170286e-06,5.1409006e-06,1.0,-5.9604645e-07,4.23193e-06,5.662441e-07,1.0,399,1.217,0,0,0.0,False,-0.26243987752006825,1.022140113516774
1.148927835005452,10:57:40.334835,10:57:23.988812,0,,0.1280426,4.0203333e-05,0.021706581,-0.9362064,-0.28832364,-0.20096508,-0.10450184,-0.31757867,0.9424559,-0.33555454,0.9033346,0.2671888,,0.08167171,-0.033674717,0.020413041,0.012286607,-0.39085624,0.92036974,-0.43103454,0.8284603,0.35757887,-0.9022517,-0.40110466,-0.15829362,,0.10936646,1.358684,0.45858857,0.9961386,0.033228986,-0.081263945,-0.025840113,-0.7736435,-0.633094,-0.0839064,0.63274926,-0.76979744,,-0.085882045,0.25915095,-0.06434073,0.9484276,0.16399641,0.2712751,-0.31299096,0.34890592,0.8833467,0.050216194,-0.92269707,0.3822414,,-0.019768981,0.4231306,-0.3144116,0.10482648,0.48637122,-0.86744136,-0.9158627,0.38713923,0.106389575,0.3875654,0.7833047,0.48603168,,1.267887392358683,0.15399129351203672,0.18449836312,0.7211237156432793,0.3943329383230611,1.3857786350903,-0.41244376698905527,,-0.8547366290534203,-0.3559562036387561,0.20873250467,1.1308578652120398,1.0171221042539387,0.056329382968095976,0.8477557032369094,,-0.03987859174650544,-0.09379617566374027,0.05836094732,-0.08765896690267068,,1.7229468e-05,3.4570694e-06,-5.2452087e-06,0.99999994,-5.148351e-06,-4.2170286e-06,5.1409006e-06,1.0,-5.9604645e-07,4.23193e-06,5.662441e-07,1.0,407,1.241,0,0,0.0,False,-0.2635718541719685,1.0223815145206714
1.2722567730088485,10:57:40.373199,10:57:23.988812,0,,0.12793419,1.3306737e-05,0.022027463,-0.9351297,-0.2920866,-0.20054342,-0.10280275,-0.31798574,0.9425055,-0.3390632,0.9019815,0.26733056,,0.08166985,-0.03367819,0.020411015,0.012271296,-0.3908565,0.9203698,-0.43104857,0.8284565,0.3575706,-0.90224516,-0.40111217,-0.158312,,0.10936646,1.358684,0.45858857,0.9961386,0.033228986,-0.081263945,-0.025840113,-0.7736435,-0.633094,-0.0839064,0.63274926,-0.76979744,,-0.085808896,0.25933963,-0.06461367,0.94788206,0.1678103,0.27084914,-0.31399557,0.3476548,0.8834834,0.054095633,-0.9224835,0.38222742,,-0.019767016,0.4231268,-0.31441268,0.10483992,0.4863725,-0.867439,-0.91586804,0.38713154,0.106371276,0.38754904,0.78330773,0.48603988,,1.2690766932213138,0.15384456158742646,0.18422614222000003,0.7202849558693412,0.39925185231461696,1.3847897039424297,-0.412933799187458,,-0.8547211835876718,-0.3559716491045046,0.20873380096000002,1.1308578652120398,1.0171221042539387,0.056329382968095976,0.8477557032369094,,-0.03987859174650544,-0.09379617566374027,0.05836094732,-0.08765896690267068,,1.7229468e-05,3.4570694e-06,-5.2452087e-06,0.99999994,-5.148351e-06,-4.2170286e-06,5.1409006e-06,1.0,-5.9604645e-07,4.23193e-06,5.662441e-07,1.0,419,1.278,0,0,0.0,False,-0.2629164992682367,1.0218987125128767
1.310549476009328,10:57:40.404019,10:57:24.245121,0,,0.12787667,-8.940697e-07,0.022304937,-0.93479353,-0.2937132,-0.19973372,-0.10109649,-0.31905445,0.9423289,-0.34050035,0.90107536,0.2685566,,0.08168389,-0.033678964,0.020417154,0.012299702,-0.3907327,0.920422,-0.43094516,0.82854575,0.35748863,-0.9022943,-0.40104848,-0.15819356,,0.10936646,1.358684,0.45858857,0.9961386,0.033228986,-0.081263945,-0.025840113,-0.7736435,-0.633094,-0.0839064,0.63274926,-0.76979744,,-0.085780546,0.25951013,-0.06483866,0.9478679,0.16939698,0.2699096,-0.3136464,0.34622973,0.8841668,0.056324456,-0.92272943,0.3813108,,-0.01978184,0.42312932,-0.3144157,0.10482428,0.4862448,-0.86751246,-0.915824,0.3872324,0.10638366,0.38765743,0.7833371,0.48590603,,1.2699261938374784,0.15394495711479136,0.18398503228000002,0.7207043357563102,0.40184794581016037,1.3852864834566958,-0.41293379918745776,,-0.8547984109164141,-0.3559716491045046,0.20873639354,1.1310675551555245,1.0171221042539387,0.05641106170823651,0.8475923591707751,,-0.03987859174650544,-0.09379617566374027,0.05836094732,-0.08765896690267068,,1.7229468e-05,3.4570694e-06,-5.2452087e-06,0.99999994,-5.148351e-06,-4.2170286e-06,5.1409006e-06,1.0,-5.9604645e-07,4.23193e-06,5.662441e-07,1.0,431,1.315,0,0,0.0,False,-0.26190367805337944,1.0214641907058617
1.3414154990023235,10:57:40.447506,10:57:24.245121,0,,0.12771852,1.2457371e-05,0.022563756,-0.9335736,-0.29728627,-0.2001529,-0.10008851,-0.3199879,0.94211996,-0.34412587,0.89957136,0.2689772,,0.08168024,-0.03367932,0.02041483,0.012279991,-0.39081872,0.9203858,-0.4309482,0.82851434,0.35755765,-0.9022931,-0.40102944,-0.15824854,,0.10936646,1.358684,0.45858857,0.9961386,0.033228986,-0.081263945,-0.025840113,-0.7736435,-0.633094,-0.0839064,0.63274926,-0.76979744,,-0.08564788,0.2596877,-0.06504617,0.9471197,0.17298266,0.27026156,-0.31524694,0.3444853,0.88427895,0.0598638,-0.9227171,0.38080105,,-0.019777901,0.4231278,-0.31441474,0.104843415,0.48632535,-0.867465,-0.91582423,0.3872268,0.10640205,0.38765168,0.7832899,0.4859867,,1.2713317312205872,0.15371327512856464,0.18379188507000002,0.719026816208434,0.40676685980171623,1.3844609097891065,-0.4121170788567867,,-0.8547752427177914,-0.3559716491045046,0.20873639354,1.1310675551555245,1.0171221042539387,0.05649274044837704,0.8474290151046409,,-0.03987859174650544,-0.09379617566374027,0.05836094732,-0.08765896690267068,,1.7229468e-05,3.4570694e-06,-5.2452087e-06,0.99999994,-5.148351e-06,-4.2170286e-06,5.1409006e-06,1.0,-5.9604645e-07,4.23193e-06,5.662441e-07,1.0,443,1.352,0,0,0.0,False,-0.2617249448978165,1.0212227897019646
1.3849156180076534,10:57:40.483390,10:57:24.245121,0,,0.127662,5.452335e-05,0.022649646,-0.93301445,-0.2980832,-0.20157026,-0.10074209,-0.32138538,0.94157445,-0.34544927,0.89880913,0.2698276,,0.081677794,-0.033679515,0.02041334,0.012266848,-0.39090115,0.92035097,-0.43095016,0.8284837,0.35762623,-0.90229225,-0.40101248,-0.1582961,,0.10936646,1.358684,0.45858857,0.9961386,0.033228986,-0.081263945,-0.025840113,-0.7736435,-0.633094,-0.0839064,0.63274926,-0.76979744,,-0.08559594,0.25977495,-0.0650912,0.94662714,0.17369978,0.27152437,-0.3166001,0.3429189,0.8844043,0.060509995,-0.92316574,0.3796097,,-0.019775275,0.4231268,-0.3144141,0.10485618,0.48640266,-0.86742014,-0.9158244,0.38722014,0.10642485,0.38764787,0.7832452,0.48606184,,1.2718877679875313,0.15379050245730688,0.18374262605000002,0.7173492966605578,0.40799658829960517,1.3847650084980878,-0.4121170788567865,,-0.854759797252043,-0.3559716491045046,0.20873639354,1.1310675551555245,1.0171221042539387,0.05657441918851769,0.8472656710385066,,-0.03987859174650544,-0.09379617566374027,0.05836094732,-0.08765896690267068,,1.7229468e-05,3.4570694e-06,-5.2452087e-06,0.99999994,-5.148351e-06,-4.2170286e-06,5.1409006e-06,1.0,-5.9604645e-07,4.23193e-06,5.662441e-07,1.0,476,1.454,0,0,0.0,False,-0.26160578946077395,1.0209813886980672
1.4208093830093276,10:57:40.576806,10:57:24.409360,0,,0.12772612,0.00014260411,0.022720173,-0.93224597,-0.3003084,-0.20182249,-0.09949711,-0.323516,0.940977,-0.34787613,0.8973028,0.27171656,,0.08168523,-0.03367798,0.02041465,0.012300789,-0.39081132,0.92038864,-0.43093902,0.8285177,0.35756093,-0.90229714,-0.40102977,-0.15822451,,0.10936646,1.358684,0.45858857,0.9961386,0.033228986,-0.081263945,-0.025840113,-0.7736435,-0.633094,-0.0839064,0.63274926,-0.76979744,,-0.085657075,0.25988865,-0.06507777,0.9462336,0.17582662,0.2715272,-0.317242,0.34028986,0.8851894,0.063241914,-0.9237358,0.37777328,,-0.019782742,0.42312834,-0.314413,0.10482394,0.48631826,-0.86747134,-0.9158214,0.38722858,0.106420025,0.3876637,0.7832934,0.48597148,,1.272011331713519,0.15447010295023864,0.18371670025000003,0.7169299167735887,0.4104560452953831,1.3861899933174557,-0.41179039072451773,,-0.8547984109164141,-0.3559639263716303,0.20873898612000003,1.1310675551555245,1.0171221042539387,0.05649274044837704,0.8467756388401035,,-0.03987859174650544,-0.09379617566374027,0.05836094732,-0.08765896690267068,,1.7229468e-05,3.4570694e-06,-5.2452087e-06,0.99999994,-5.148351e-06,-4.2170286e-06,5.1409006e-06,1.0,-5.9604645e-07,4.23193e-06,5.662441e-07,1.0,488,1.491,0,0,0.0,False,-0.2612483231496481,1.021705591709759
1.5142087770072976,10:57:40.618719,10:57:24.409360,0,,0.1277446,0.0001719892,0.02273281,-0.93222356,-0.30037248,-0.20183073,-0.09937169,-0.32381022,0.940889,-0.34797204,0.8971752,0.2720149,,0.08168763,-0.033679307,0.020416558,0.012312844,-0.3908006,0.920393,-0.43094307,0.82851803,0.35755545,-0.902295,-0.4010396,-0.1582115,,0.10936646,1.358684,0.45858857,0.9961386,0.033228986,-0.081263945,-0.025840113,-0.7736435,-0.633094,-0.0839064,0.63274926,-0.76979744,,-0.085673526,0.25991938,-0.065065555,0.94623387,0.17587176,0.271497,-0.31721,0.33998322,0.8853187,0.06339814,-0.9238401,0.37749192,,-0.019785453,0.42312843,-0.3144149,0.10481152,0.4863092,-0.8674779,-0.9158238,0.38722166,0.106424116,0.38766125,0.7833025,0.48595887,,1.2720422226450159,0.15460911214197468,0.18371540396000002,0.7169299167735887,0.4104560452953831,1.3862716720575963,-0.41162704665838357,,-0.8548138563821626,-0.3559716491045046,0.20873898612000003,1.1310675551555245,1.0171221042539387,0.05649274044837704,0.8467756388401035,,-0.03987859174650544,-0.09379617566374027,0.05836094732,-0.08765896690267068,,1.7229468e-05,3.4570694e-06,-5.2452087e-06,0.99999994,-5.148351e-06,-4.2170286e-06,5.1409006e-06,1.0,-5.9604645e-07,4.23193e-06,5.662441e-07,1.0,500,1.528,0,0,0.0,False,-0.26112916771260597,1.0216090313082002
1.556100605012034,10:57:40.665855,10:57:24.409360,0,,0.1277458,0.00016778708,0.02273935,-0.9321736,-0.3003906,-0.2020343,-0.09954317,-0.32388356,0.9408456,-0.3480568,0.8971427,0.2720138,,0.08168888,-0.033677682,0.020416975,0.012320504,-0.39080054,0.920393,-0.43093598,0.8285198,0.35755956,-0.9022983,-0.40103588,-0.1582023,,0.10936646,1.358684,0.45858857,0.9961386,0.033228986,-0.081263945,-0.025840113,-0.7736435,-0.633094,-0.0839064,0.63274926,-0.76979744,,-0.0856758,0.2599205,-0.065073,0.9461748,0.17588517,0.27169406,-0.31739423,0.33990628,0.8852822,0.0633575,-0.92386585,0.37743568,,-0.019786682,0.42312986,-0.31441396,0.1048048,0.48630857,-0.8674791,-0.91582114,0.3872255,0.106433265,0.3876694,0.78330094,0.48595476,,1.2720344999121416,0.15460138940910045,0.18370762622000003,0.7167202268301042,0.4104560452953831,1.3862716720575965,-0.41130035852611524,,-0.8548215791150368,-0.3559639263716303,0.20873898612000003,1.1310675551555245,1.0171221042539387,0.05649274044837704,0.8467756388401035,,-0.03987859174650544,-0.09379617566374027,0.05836094732,-0.08765896690267068,,1.7229468e-05,3.4570694e-06,-5.2452087e-06,0.99999994,-5.148351e-06,-4.2170286e-06,5.1409006e-06,1.0,-5.9604645e-07,4.23193e-06,5.662441e-07,1.0,512,1.565,0,0,0.0,False,-0.26148663402373185,1.0213676303043029
1.6032727530109696,10:57:40.695978,10:57:24.409360,0,,0.12774561,0.00015957654,0.022760004,-0.93213004,-0.30040675,-0.2022109,-0.09971323,-0.323892,0.9408248,-0.3481246,0.89713424,0.2719549,,0.081688285,-0.03367953,0.020415425,0.012312844,-0.3908006,0.920393,-0.43094307,0.82851803,0.35755545,-0.902295,-0.4010396,-0.1582115,,0.10936646,1.358684,0.45858857,0.9961386,0.033228986,-0.081263945,-0.025840113,-0.7736435,-0.633094,-0.0839064,0.63274926,-0.76979744,,-0.08567849,0.25992787,-0.0650938,0.94612056,0.17590111,0.27187246,-0.31756637,0.33989415,0.8852252,0.06330423,-0.9238673,0.37744114,,-0.019785946,0.42312747,-0.31441414,0.10481152,0.4863092,-0.8674779,-0.9158238,0.38722166,0.106424116,0.38766125,0.7833025,0.48595887,,1.2720499453778902,0.15459366667622623,0.18368558929,0.7165105368866197,0.4104560452953831,1.386189993317456,-0.4114637025922494,,-0.8548138563821626,-0.3559716491045046,0.20874028241000003,1.1310675551555245,1.0171221042539387,0.05649274044837704,0.8467756388401035,,-0.03987859174650544,-0.09379617566374027,0.05836094732,-0.08765896690267068,,1.7229468e-05,3.4570694e-06,-5.2452087e-06,0.99999994,-5.148351e-06,-4.2170286e-06,5.1409006e-06,1.0,-5.9604645e-07,4.23193e-06,5.662441e-07,1.0,524,1.602,0,0,0.0,False,-0.26160578946077395,1.021077949099626
1.633399921003729,10:57:40.727312,10:57:24.409360,0,,0.12774795,0.00013564527,0.02279894,-0.93213505,-0.30036998,-0.20224273,-0.09973627,-0.3239442,0.94080424,-0.34810475,0.8971276,0.2720019,,0.08168647,-0.033681527,0.0204131,0.012298621,-0.39080444,0.92039156,-0.4309512,0.82851535,0.3575517,-0.9022914,-0.40104133,-0.1582281,,0.10936646,1.358684,0.45858857,0.9961386,0.033228986,-0.081263945,-0.025840113,-0.7736435,-0.633094,-0.0839064,0.63274926,-0.76979744,,-0.0856871,0.2599354,-0.06513812,0.94612116,0.1758599,0.2718972,-0.3175708,0.33985093,0.88524014,0.063273735,-0.923891,0.37738812,,-0.019783895,0.42312458,-0.314414,0.104824625,0.48631307,-0.86747414,-0.9158266,0.38721883,0.106410556,0.38765118,0.7833015,0.48596853,,1.2720499453778902,0.15455505301185513,0.18364021914,0.7165105368866197,0.4104560452953831,1.3862716720575963,-0.41162704665838357,,-0.8547984109164141,-0.35597937183737877,0.2087415787,1.1310675551555245,1.0171221042539387,0.05649274044837704,0.8467756388401035,,-0.03987859174650544,-0.09379617566374027,0.05836094732,-0.08765896690267068,,1.7229468e-05,3.4570694e-06,-5.2452087e-06,0.99999994,-5.148351e-06,-4.2170286e-06,5.1409006e-06,1.0,-5.9604645e-07,4.23193e-06,5.662441e-07,1.0,549,1.678,0,0,0.0,False,-0.2611887454311268,1.0206917074933903
1.6647174910031026,10:57:40.805169,10:57:24.586068,0,,0.12776382,8.523464e-05,0.022936031,-0.9321451,-0.30029768,-0.20230341,-0.09970997,-0.32422706,0.94070965,-0.34808517,0.89704967,0.27228397,,0.08168894,-0.033679813,0.020414352,0.012312844,-0.3907255,0.9204249,-0.43094307,0.8285471,0.35748774,-0.902295,-0.40105253,-0.15817873,,0.10936646,1.358684,0.45858857,0.9961386,0.033228986,-0.081263945,-0.025840113,-0.7736435,-0.633094,-0.0839064,0.63274926,-0.76979744,,-0.085721456,0.25998756,-0.0652711,0.946132,0.1757664,0.27191985,-0.31753826,0.33958748,0.8853529,0.06327472,-0.9240057,0.37710714,,-0.019786438,0.42312652,-0.31441343,0.10481152,0.48623836,-0.8675176,-0.9158238,0.38723034,0.10639249,0.38766125,0.7833421,0.4858949,,1.2721040045080096,0.15459366667622623,0.18349373837000002,0.7165105368866197,0.4104560452953831,1.3865167082780179,-0.41113701445998085,,-0.8548138563821626,-0.3559716491045046,0.2087415787,1.1310675551555245,1.0171221042539387,0.0564110617082364,0.8462856066417007,,-0.03987859174650544,-0.09379617566374027,0.05836094732,-0.08765896690267068,,1.7229468e-05,3.4570694e-06,-5.2452087e-06,0.99999994,-5.148351e-06,-4.2170286e-06,5.1409006e-06,1.0,-5.9604645e-07,4.23193e-06,5.662441e-07,1.0,557,1.704,0,0,0.0,False,-0.26101001227556386,1.0209331084972877
1.7425763470091624,10:57:40.829237,10:57:24.586068,0,,0.12776381,6.5773726e-05,0.02296874,-0.93210346,-0.30027062,-0.20253573,-0.09989892,-0.32436556,0.9406419,-0.34814274,0.89700866,0.27234548,,0.08168705,-0.03368169,0.020413876,0.012176625,-0.3909035,0.92035115,-0.4309925,0.8284795,0.35758477,-0.9022733,-0.4010188,-0.15838847,,0.10936646,1.358684,0.45858857,0.9961386,0.033228986,-0.081263945,-0.025840113,-0.7736435,-0.633094,-0.0839064,0.63274926,-0.76979744,,-0.08572667,0.25999436,-0.065308176,0.9460766,0.17572919,0.2721367,-0.31771797,0.3394565,0.88533866,0.06320128,-0.9240609,0.37698415,,-0.019784585,0.4231249,-0.31441456,0.10494033,0.4864057,-0.8674082,-0.91583806,0.38721302,0.106333174,0.38759282,0.7832468,0.48610312,,1.272111727240884,0.15455505301185513,0.18345614596,0.7163008469431352,0.4104560452953831,1.3865983870181586,-0.411300358526115,,-0.8548061336492883,-0.35597937183737877,0.20874028241000003,1.1310675551555245,1.0169854677541732,0.05660415835207344,0.8461222625755664,,-0.03987859174650544,-0.09379617566374027,0.05836094732,-0.08765896690267068,,1.7229468e-05,3.4570694e-06,-5.2452087e-06,0.99999994,-5.148351e-06,-4.2170286e-06,5.1409006e-06,1.0,-5.9604645e-07,4.23193e-06,5.662441e-07,1.0,569,1.741,0,0,0.0,False,-0.26112916771260597,1.0208365480957287
1.7666563570091967,10:57:40.869565,10:57:24.586068,0,,0.12776612,3.0443072e-05,0.023035467,-0.93211585,-0.3001948,-0.20259106,-0.09992519,-0.32450163,0.94059217,-0.34810206,0.8969848,0.27247605,,0.081686415,-0.03368169,0.020413399,0.0121338405,-0.39059737,0.9204817,-0.43089408,0.8286495,0.3573094,-0.90232086,-0.40096572,-0.15825143,,0.10936646,1.358684,0.45858857,0.9961386,0.033228986,-0.081263945,-0.025840113,-0.7736435,-0.633094,-0.0839064,0.63274926,-0.76979744,,-0.085739166,0.26001152,-0.065380685,0.9460821,0.17564225,0.2721735,-0.31771126,0.33933932,0.885386,0.06315202,-0.9241205,0.37684637,,-0.019783897,0.42312467,-0.31441435,0.104994506,0.48610353,-0.86757106,-0.9157922,0.38735607,0.106206864,0.38768643,0.78336364,0.48584008,,1.2721348954395066,0.15450871661460977,0.18338096114000002,0.7163008469431352,0.4104560452953831,1.38676174449844,-0.41130035852611524,,-0.8547984109164141,-0.3559716491045046,0.20874028241000003,1.1312772450990087,1.0169854677541732,0.056440800871792374,0.846448950707835,,-0.03987859174650544,-0.09379617566374027,0.05836094732,-0.08765896690267068,,1.7229468e-05,3.4570694e-06,-5.2452087e-06,0.99999994,-5.148351e-06,-4.2170286e-06,5.1409006e-06,1.0,-5.9604645e-07,4.23193e-06,5.662441e-07,1.0,585,1.79,0,0,0.0,False,-0.2611887454311268,1.0214159105050824
1.8069891410123091,10:57:40.919717,10:57:24.755812,0,,0.12774989,8.34465e-07,0.023154661,-0.9321294,-0.29998285,-0.20284244,-0.10007796,-0.3249293,0.94042826,-0.3480218,0.89690095,0.27285445,,0.08168932,-0.033685848,0.02041626,0.01210754,-0.39049554,0.9205252,-0.43081066,0.8287307,0.35722187,-0.90236104,-0.40089726,-0.15819582,,0.10936646,1.358684,0.45858857,0.9961386,0.033228986,-0.081263945,-0.025840113,-0.7736435,-0.633094,-0.0839064,0.63274926,-0.76979744,,-0.08573783,0.26006716,-0.06549135,0.94607174,0.17539597,0.27236828,-0.31777406,0.33896482,0.8855069,0.06299108,-0.92430466,0.37642133,,-0.019787397,0.4231232,-0.31441873,0.10503055,0.48599645,-0.86762667,-0.91575396,0.38745537,0.10617447,0.38776702,0.783381,0.48574784,,1.272358854692859,0.15450871661460977,0.18326299875000002,0.7160911569996508,0.4104560452953831,1.3870067807188615,-0.4114637025922494,,-0.8548138563821626,-0.355987094570253,0.20874028241000003,1.1314869350424934,1.0169854677541732,0.05652247961193302,0.8466122947739694,,-0.03987859174650544,-0.09379617566374027,0.05836094732,-0.08765896690267068,,1.7229468e-05,3.4570694e-06,-5.2452087e-06,0.99999994,-5.148351e-06,-4.2170286e-06,5.1409006e-06,1.0,-5.9604645e-07,4.23193e-06,5.662441e-07,1.0,597,1.827,0,0,0.0,False,-0.2613079008681689,1.0208365480957287
1.8570437070011394,10:57:40.958151,10:57:24.755812,0,,0.12771453,-2.3752451e-05,0.023245588,-0.9321177,-0.29973823,-0.20325717,-0.10044494,-0.3252552,0.94027644,-0.34794724,0.89686453,0.2730689,,0.08168936,-0.033684358,0.020415962,0.012108628,-0.39049903,0.92052376,-0.43080458,0.8287319,0.3572265,-0.9023639,-0.40089148,-0.15819405,,0.10936646,1.358684,0.45858857,0.9961386,0.033228986,-0.081263945,-0.025840113,-0.7736435,-0.633094,-0.0839064,0.63274926,-0.76979744,,-0.08571427,0.26010776,-0.065580346,0.9460146,0.17512338,0.2727419,-0.31800184,0.33869871,0.88552696,0.06269913,-0.92445385,0.3761035,,-0.019787315,0.42312413,-0.3144175,0.10503021,0.48599905,-0.86762524,-0.91575134,0.38746026,0.10617921,0.38777328,0.783377,0.48574933,,1.272629150343457,0.1544237665529933,0.18317485103000003,0.7156717771126816,0.4104560452953831,1.3870884594590018,-0.41130035852611524,,-0.8548138563821626,-0.35597937183737877,0.20874028241000003,1.1314869350424934,1.0169854677541732,0.05652247961193302,0.8466122947739694,,-0.03987859174650544,-0.09379617566374027,0.05836094732,-0.08765896690267068,,1.7229468e-05,3.4570694e-06,-5.2452087e-06,0.99999994,-5.148351e-06,-4.2170286e-06,5.1409006e-06,1.0,-5.9604645e-07,4.23193e-06,5.662441e-07,1.0,626,1.916,0,0,0.0,False,-0.26095043455704303,1.021077949099626
1.89557214800152,10:57:41.038638,10:57:24.755812,0,,0.12763338,-0.0001361072,0.02347581,-0.9322662,-0.299059,-0.20357665,-0.10081939,-0.32565886,0.9400966,-0.34744093,0.8969448,0.2734497,,0.08168693,-0.03368455,0.020414412,0.012095485,-0.39050627,0.92052084,-0.4308066,0.82873034,0.35722736,-0.9023632,-0.40088743,-0.15820885,,0.10936646,1.358684,0.45858857,0.9961386,0.033228986,-0.081263945,-0.025840113,-0.7736435,-0.633094,-0.0839064,0.63274926,-0.76979744,,-0.08566818,0.26017284,-0.06583696,0.946073,0.17440113,0.27300215,-0.31795427,0.338457,0.88563645,0.06205652,-0.9246789,0.3756566,,-0.019784689,0.42312312,-0.3144169,0.105042964,0.4860055,-0.8676201,-0.9157515,0.3874623,0.10617038,0.38776946,0.7833719,0.48576045,,1.2731542961789042,0.15402218444353363,0.18292985222000002,0.7154620871691971,0.4104560452953831,1.3874151744195642,-0.4109736703938467,,-0.8547984109164141,-0.35597937183737877,0.20874028241000003,1.1314869350424934,1.0169854677541732,0.05652247961193302,0.8466122947739694,,-0.03987859174650544,-0.09379617566374027,0.05836094732,-0.08765896690267068,,1.7229468e-05,3.4570694e-06,-5.2452087e-06,0.99999994,-5.148351e-06,-4.2170286e-06,5.1409006e-06,1.0,-5.9604645e-07,4.23193e-06,5.662441e-07,1.0,634,1.942,0,0,0.0,False,-0.26136747858668974,1.0208848282965082
1.9760416580102174,10:57:41.071048,10:57:24.755812,0,,0.12758225,-0.00020906329,0.023620695,-0.93232465,-0.2985359,-0.20407617,-0.10135697,-0.32598677,0.9399252,-0.34712756,0.89699996,0.27366668,,0.08168814,-0.033684447,0.020415187,0.01210206,-0.39050263,0.9205222,-0.4308056,0.8287312,0.3572269,-0.90236354,-0.40088943,-0.15820143,,0.10936646,1.358684,0.45858857,0.9961386,0.033228986,-0.081263945,-0.025840113,-0.7736435,-0.633094,-0.0839064,0.63274926,-0.76979744,,-0.08563934,0.26021212,-0.06599992,0.9460441,0.17384377,0.27345744,-0.31815505,0.33825362,0.88564205,0.06146539,-0.9248583,0.37531212,,-0.019786002,0.42312363,-0.31441718,0.10503659,0.48600227,-0.8676227,-0.9157514,0.38746127,0.1061748,0.38777137,0.7833745,0.48575488,,1.2734709282267473,0.15375961152581,0.18277429742,0.7150427072822281,0.4103194087956176,1.3876082710634012,-0.41113701445998085,,-0.8548061336492883,-0.35597937183737877,0.20874028241000003,1.1314869350424934,1.0169854677541732,0.05652247961193302,0.8469389829062378,,-0.03987859174650544,-0.09379617566374027,0.05836094732,-0.08765896690267068,,1.7229468e-05,3.4570694e-06,-5.2452087e-06,0.99999994,-5.148351e-06,-4.2170286e-06,5.1409006e-06,1.0,-5.9604645e-07,4.23193e-06,5.662441e-07,1.0,646,1.978,0,0,0.0,False,-0.26196325577190027,1.0209331084972877
2.008459244010737,10:57:41.108701,10:57:24.755812,0,,0.12754709,-0.00026005507,0.023725986,-0.93163127,-0.29902536,-0.20651166,-0.10337435,-0.32672855,0.93944776,-0.34839195,0.8965669,0.27347893,,0.08169002,-0.033684596,0.02041483,0.012108628,-0.39049903,0.92052376,-0.43080458,0.8287319,0.3572265,-0.9023639,-0.40089148,-0.15819405,,0.10936646,1.358684,0.45858857,0.9961386,0.033228986,-0.081263945,-0.025840113,-0.7736435,-0.633094,-0.0839064,0.63274926,-0.76979744,,-0.08562014,0.26024225,-0.06611674,0.9452705,0.17429295,0.27583635,-0.3204964,0.3374025,0.88512236,0.06120272,-0.9250846,0.37479687,,-0.019787809,0.42312318,-0.31441677,0.10503021,0.48599905,-0.86762524,-0.91575134,0.38746026,0.10617921,0.38777328,0.783377,0.48574933,,1.2736794420143516,0.15352792953958325,0.18266411277000003,0.7123167380169293,0.41086595479467947,1.3872442781887562,-0.41130035852611524,,-0.8548138563821626,-0.35597937183737877,0.2087415787,1.1314869350424934,1.0169854677541732,0.05652247961193302,0.8469389829062378,,-0.03987859174650544,-0.09379617566374027,0.05836094732,-0.08765896690267068,,1.7229468e-05,3.4570694e-06,-5.2452087e-06,0.99999994,-5.148351e-06,-4.2170286e-06,5.1409006e-06,1.0,-5.9604645e-07,4.23193e-06,5.662441e-07,1.0,658,2.015,0,0,0.0,False,-0.2622611443645053,1.021077949099626
2.0461080290115206,10:57:41.140019,10:57:24.755812,0,,0.1275128,-0.00032646954,0.023831144,-0.93168133,-0.29883957,-0.20655464,-0.103443176,-0.32681015,0.9394119,-0.3482376,0.8965992,0.27356985,,0.08168998,-0.0336861,0.020415187,0.01210754,-0.39049554,0.9205252,-0.43081066,0.8287307,0.35722187,-0.90236104,-0.40089726,-0.15819582,,0.10936646,1.358684,0.45858857,0.9961386,0.033228986,-0.081263945,-0.025840113,-0.7736435,-0.633094,-0.0839064,0.63274926,-0.76979744,,-0.08560341,0.2602606,-0.06624333,0.9452978,0.17409743,0.27586627,-0.32044777,0.33736488,0.8851543,0.061035506,-0.92513514,0.3746994,,-0.01978789,0.42312226,-0.314418,0.10503055,0.48599645,-0.86762667,-0.91575396,0.38745537,0.10617447,0.38776702,0.783381,0.48574784,,1.2738725103362072,0.15328080208760808,0.18254615038000002,0.7123167380169293,0.41100259129444483,1.3873778965054813,-0.4117903907245182,,-0.8548138563821626,-0.355987094570253,0.2087415787,1.1314869350424934,1.0169854677541732,0.05652247961193302,0.8469389829062378,,-0.03987859174650544,-0.09379617566374027,0.05836094732,-0.08765896690267068,,1.7229468e-05,3.4570694e-06,-5.2452087e-06,0.99999994,-5.148351e-06,-4.2170286e-06,5.1409006e-06,1.0,-5.9604645e-07,4.23193e-06,5.662441e-07,1.0,670,2.052,0,0,0.0,False,-0.2616653671792948,1.0215124709066412
2.0774442320107482,10:57:41.182023,10:57:25.001431,0,,0.12749837,-0.0005080253,0.024077222,-0.93165684,-0.29828256,-0.20746815,-0.10447183,-0.32697424,0.9392409,-0.3479959,0.8967247,0.27346563,,0.08167498,-0.033715606,0.020418078,0.012198824,-0.3906386,0.9204632,-0.43089503,0.828622,0.3573724,-0.90231955,-0.40098265,-0.15821606,,0.10930953,1.3586842,0.4585848,0.9961397,0.033263743,-0.081235506,-0.025795361,-0.773642,-0.6330977,-0.0839064,0.63274926,-0.76979744,,-0.085582845,0.26028675,-0.066556014,0.9451519,0.17353132,0.27672148,-0.32103238,0.3373413,0.8849514,0.0602172,-0.92525005,0.37454796,,-0.019724224,0.42310792,-0.31444803,0.104950756,0.48610988,-0.8675728,-0.9157941,0.38734066,0.10624681,0.38769382,0.78336734,0.48582825,,1.2742354787812957,0.1526861516562928,0.18226744803000003,0.7114779782429911,0.41100259129444483,1.3873778965054813,-0.4121170788567865,,-0.8548138563821626,-0.35597937183737877,0.2087415787,1.1312772450990087,1.0169854677541732,0.05652247961193302,0.8469389829062378,,-0.03987859174650544,-0.09379617566374027,0.05836094732,-0.08765896690267068,,-3.9156526e-05,-1.0728836e-06,2.1457672e-06,0.99999994,2.9437244e-05,2.4199486e-05,-2.9444695e-05,1.0,3.2186508e-06,-2.4199486e-05,-3.1888485e-06,1.0,695,2.13,0,0,0.0,False,-0.2613079008681689,1.0212227897019646
2.119370788001106,10:57:41.250848,10:57:25.001431,0,,0.12742828,-0.0007857084,0.024371922,-0.9309318,-0.30053842,-0.20746675,-0.10438268,-0.32542244,0.93978965,-0.34995723,0.896536,0.271575,,0.08168506,-0.033713907,0.020415097,0.012148049,-0.3908858,0.9203589,-0.4310187,0.82847977,0.35755295,-0.90226114,-0.40103558,-0.15841477,,0.10930953,1.3586842,0.4585848,0.9961397,0.033263743,-0.081235506,-0.025795361,-0.773642,-0.6330977,-0.0839064,0.63274926,-0.76979744,,-0.085571244,0.2602696,-0.06696641,0.94463515,0.17594452,0.27696195,-0.3222414,0.33835465,0.88412476,0.061845552,-0.92442393,0.37631834,,-0.019733647,0.4231066,-0.31444326,0.10498611,0.48635522,-0.867431,-0.9158458,0.3872148,0.10625959,0.38756204,0.7832773,0.4860786,,1.2744748835003965,0.151558632656656,0.18190448683000002,0.710639218469053,0.41387195778951913,1.385691550448981,-0.41113701445998085,,-0.8548601927794078,-0.3559716491045046,0.20874806015000003,1.1310675551555245,1.016848831254408,0.056633897515629306,0.8474290151046409,,-0.03987859174650544,-0.09379617566374027,0.05836094732,-0.08765896690267068,,-3.9156526e-05,-1.0728836e-06,2.1457672e-06,0.99999994,2.9437244e-05,2.4199486e-05,-2.9444695e-05,1.0,3.2186508e-06,-2.4199486e-05,-3.1888485e-06,1.0,703,2.155,0,0,0.0,False,-0.26285692154971585,1.0220918333159945
2.1882462100038538,10:57:41.280647,10:57:25.001431,0,,0.12742105,-0.00094360113,0.024515375,-0.9290771,-0.30757725,-0.20545535,-0.101076305,-0.3231997,0.9409174,-0.3558079,0.89495146,0.26918864,,0.0816888,-0.033714235,0.020414501,0.012161195,-0.39095375,0.9203299,-0.43101674,0.828452,0.35761967,-0.902262,-0.40102673,-0.15843269,,0.10930953,1.3586842,0.4585848,0.9961397,0.033263743,-0.081235506,-0.025795361,-0.773642,-0.6330977,-0.0839064,0.63274926,-0.76979744,,-0.08559459,0.26024452,-0.067177095,0.94371593,0.18329784,0.27532196,-0.32355878,0.33888704,0.8834395,0.068629496,-0.9227987,0.3791207,,-0.019737259,0.42310572,-0.31444246,0.104973346,0.48641962,-0.8673964,-0.9158457,0.38720408,0.10630004,0.38756585,0.7832426,0.48613143,,1.2746061699592584,0.1507709139034851,0.18173726542000002,0.710639218469053,0.42152360177638376,1.3829643336680255,-0.4109736703938469,,-0.8548756382451563,-0.3559716491045046,0.20875065273,1.1310675551555245,1.016848831254408,0.05671557625576995,0.848082391369178,,-0.03987859174650544,-0.09379617566374027,0.05836094732,-0.08765896690267068,,-3.9156526e-05,-1.0728836e-06,2.1457672e-06,0.99999994,2.9437244e-05,2.4199486e-05,-2.9444695e-05,1.0,3.2186508e-06,-2.4199486e-05,-3.1888485e-06,1.0,715,2.191,0,0,0.0,False,-0.26196325577190027,1.022140113516774
2.2180636580014834,10:57:41.326590,10:57:25.162527,0,,0.12731865,-0.0012646466,0.024805859,-0.9267817,-0.31482306,-0.20484638,-0.09767185,-0.32461664,0.94078916,-0.36267865,0.89191395,0.27009934,,0.081688896,-0.03371489,0.020411521,0.012154624,-0.39095733,0.92032844,-0.4310177,0.8284513,0.35762012,-0.90226156,-0.40102473,-0.15844008,,0.10930953,1.3586842,0.4585848,0.9961397,0.033263743,-0.081235506,-0.025795361,-0.773642,-0.6330977,-0.0839064,0.63274926,-0.76979744,,-0.08555513,0.2601914,-0.067617044,0.9424704,0.19061781,0.27461696,-0.32546502,0.335717,0.88394946,0.07630294,-0.9224744,0.37844276,,-0.019736934,0.4231033,-0.31444067,0.10497972,0.48642284,-0.86739385,-0.91584575,0.3872051,0.10629563,0.38756394,0.7832401,0.48613697,,1.2750927021303347,0.14909508086977838,0.18138856341,0.710219838582084,0.4310881567599646,1.384149741824738,-0.4116270466583838,,-0.8548679155122821,-0.3559716491045046,0.20875324531000003,1.1310675551555245,1.016848831254408,0.05671557625576995,0.848082391369178,,-0.03987859174650544,-0.09379617566374027,0.05836094732,-0.08765896690267068,,-3.9156526e-05,-1.0728836e-06,2.1457672e-06,0.99999994,2.9437244e-05,2.4199486e-05,-2.9444695e-05,1.0,3.2186508e-06,-2.4199486e-05,-3.1888485e-06,1.0,727,2.228,0,0,0.0,False,-0.26106958999408425,1.022429794721451
2.2639886630058754,10:57:41.352590,10:57:25.162527,0,,0.12723845,-0.0013805032,0.024917245,-0.92623407,-0.316468,-0.20478863,-0.09748629,-0.32368907,0.941128,-0.36412472,0.89166886,0.26896054,,0.08169015,-0.03371328,0.020411998,0.012162272,-0.3909572,0.9203284,-0.43101066,0.8284531,0.35762426,-0.90226483,-0.40102103,-0.15843093,,0.10930953,1.3586842,0.4585848,0.9961397,0.033263743,-0.081235506,-0.025795361,-0.773642,-0.6330977,-0.0839064,0.63274926,-0.76979744,,-0.08549871,0.2601759,-0.06778687,0.9420889,0.19236664,0.27470636,-0.3262658,0.3362315,0.88345855,0.07758303,-0.92192376,0.37952265,,-0.019738164,0.42310473,-0.31443977,0.104973,0.4864222,-0.867395,-0.91584307,0.38720897,0.10630478,0.3875721,0.7832386,0.4861329,,1.2756410161644045,0.14800617553451273,0.18118763846000002,0.7095907687516304,0.43518725175292783,1.3818690283356727,-0.4108103263277123,,-0.8548756382451563,-0.3559639263716303,0.20875324531000003,1.1310675551555245,1.016848831254408,0.05671557625576995,0.848082391369178,,-0.03987859174650544,-0.09379617566374027,0.05836094732,-0.08765896690267068,,-3.9156526e-05,-1.0728836e-06,2.1457672e-06,0.99999994,2.9437244e-05,2.4199486e-05,-2.9444695e-05,1.0,3.2186508e-06,-2.4199486e-05,-3.1888485e-06,1.0,760,2.33,0,0,0.0,False,-0.2618441003348577,1.0223815145206714
2.28993135500059,10:57:41.451618,10:57:25.282775,0,,0.12660423,-0.0018372238,0.025487348,-0.9200681,-0.3290076,-0.21267056,-0.098621115,-0.33086103,0.9385121,-0.379142,0.88446873,0.27196753,,0.08169943,-0.033713922,0.020412236,0.012073118,-0.39133874,0.92016745,-0.43104693,0.82830405,0.3579257,-0.90224874,-0.40095675,-0.15868524,,0.10930953,1.3586842,0.4585848,0.9961397,0.033263743,-0.081235506,-0.025795361,-0.773642,-0.6330977,-0.0839064,0.63274926,-0.76979744,,-0.084974356,0.26019603,-0.068599574,0.93733376,0.20473143,0.2819406,-0.33688498,0.3259095,0.88334113,0.088960566,-0.92296696,0.3744569,,-0.019747391,0.42310378,-0.31443903,0.10505683,0.486782,-0.86718297,-0.9158541,0.3871633,0.106375955,0.38752335,0.78303754,0.48649547,,1.2787687229784654,0.14435332288500455,0.18070152971000003,0.6991062715774041,0.45199354122407703,1.3848270891696872,-0.4108103263277123,,-0.8549219746424017,-0.3559639263716303,0.20875713418000003,1.1310675551555245,1.0167121947546425,0.057153709120028595,0.8487357676337148,,-0.03987859174650544,-0.09379617566374027,0.05836094732,-0.08765896690267068,,-3.9156526e-05,-1.0728836e-06,2.1457672e-06,0.99999994,2.9437244e-05,2.4199486e-05,-2.9444695e-05,1.0,3.2186508e-06,-2.4199486e-05,-3.1888485e-06,1.0,768,2.355,0,0,0.0,False,-0.26255903295711036,1.0237816403432756
2.389041464004549,10:57:41.483615,10:57:25.282775,0,,0.12631875,-0.0019080043,0.025593206,-0.9191083,-0.33146185,-0.21300945,-0.09876302,-0.32954964,0.9389584,-0.38142607,0.8840419,0.27015555,,0.081704356,-0.033715606,0.020412594,0.012091748,-0.39132446,0.9201733,-0.43104994,0.828305,0.35791978,-0.902247,-0.40096867,-0.15866482,,0.10930953,1.3586842,0.4585848,0.9961397,0.033263743,-0.081235506,-0.025795361,-0.773642,-0.6330977,-0.0839064,0.63274926,-0.76979744,,-0.08470954,0.26020786,-0.06876524,0.936592,0.20733908,0.28249952,-0.33847663,0.32658222,0.8824838,0.09071405,-0.92214674,0.37605372,,-0.0197524,0.42310247,-0.3144397,0.10503804,0.48676977,-0.86719215,-0.9158565,0.38715535,0.106384456,0.38752282,0.7830491,0.4864773,,1.2807302971285184,0.14272382624854316,0.18061467828000002,0.697428752029528,0.4575956377144601,1.3820558874012265,-0.41244376698905505,,-0.8549451428410243,-0.3559716491045046,0.20875972676000001,1.1310675551555245,1.0167121947546425,0.057153709120028595,0.8487357676337148,,-0.03987859174650544,-0.09379617566374027,0.05836094732,-0.08765896690267068,,-3.9156526e-05,-1.0728836e-06,2.1457672e-06,0.99999994,2.9437244e-05,2.4199486e-05,-2.9444695e-05,1.0,3.2186508e-06,-2.4199486e-05,-3.1888485e-06,1.0,780,2.392,0,0,0.0,False,-0.2616653671792948,1.0246024037565267
2.421009085010155,10:57:41.521705,10:57:25.282775,0,,0.12591024,-0.0019542575,0.02571921,-0.9167226,-0.33497536,-0.21774104,-0.1004001,-0.33435974,0.9370824,-0.38670337,0.8809058,0.2728835,,0.08171053,-0.033715695,0.020413548,0.012118038,-0.3914603,0.9201151,-0.43104595,0.82824945,0.35805327,-0.90224856,-0.4009509,-0.15870069,,0.10930953,1.3586842,0.4585848,0.9961397,0.033263743,-0.081235506,-0.025795361,-0.773642,-0.6330977,-0.0839064,0.63274926,-0.76979744,,-0.08432235,0.26024958,-0.06894757,0.9345751,0.2106204,0.28672028,-0.3431393,0.32084316,0.88278824,0.09394097,-0.92341685,0.37212414,,-0.01975864,0.4231026,-0.31443954,0.10501252,0.4868985,-0.86712295,-0.9158562,0.38713387,0.10646535,0.38753048,0.78297967,0.4865829,,1.2824370210937222,0.14145729805717033,0.18057319700000002,0.6917671235554459,0.4627878247055468,1.3839479125713048,-0.41195373479065234,,-0.8549760337725213,-0.3559716491045046,0.20876231934000003,1.1310675551555245,1.0167121947546425,0.057317066600309774,0.8497158320305207,,-0.03987859174650544,-0.09379617566374027,0.05836094732,-0.08765896690267068,,-3.9156526e-05,-1.0728836e-06,2.1457672e-06,0.99999994,2.9437244e-05,2.4199486e-05,-2.9444695e-05,1.0,3.2186508e-06,-2.4199486e-05,-3.1888485e-06,1.0,792,2.429,0,0,0.0,False,-0.2620824112089424,1.0247955245596445
2.459126769012073,10:57:41.554755,10:57:25.282775,0,,0.12558189,-0.001965642,0.025804833,-0.9162475,-0.33536297,-0.21913949,-0.10115348,-0.33561787,0.9365515,-0.38763177,0.88027966,0.27358583,,0.08171955,-0.033719525,0.020418674,0.012081802,-0.39110965,0.9202647,-0.4308589,0.8284752,0.35775602,-0.9023384,-0.40082672,-0.15850367,,0.10930953,1.3586842,0.4585848,0.9961397,0.033263743,-0.081235506,-0.025795361,-0.773642,-0.6330977,-0.0839064,0.63274926,-0.76979744,,-0.08400692,0.2602923,-0.06906568,0.93411684,0.21093377,0.28798035,-0.34430984,0.31947738,0.8828278,0.09421499,-0.92381877,0.37105578,,-0.019768508,0.4231025,-0.31444457,0.10507086,0.48654416,-0.86731476,-0.91577166,0.38736254,0.10636055,0.38771436,0.78308684,0.48626387,,1.284190081456171,0.14036839272190468,0.18054338233000003,0.6898799140640851,0.46524728170132473,1.3839026800681427,-0.4116270466583838,,-0.8550223701697666,-0.35597937183737877,0.20876361563,1.1314869350424934,1.0167121947546425,0.057317066600309774,0.8497158320305207,,-0.03987859174650544,-0.09379617566374027,0.05836094732,-0.08765896690267068,,-3.9156526e-05,-1.0728836e-06,2.1457672e-06,0.99999994,2.9437244e-05,2.4199486e-05,-2.9444695e-05,1.0,3.2186508e-06,-2.4199486e-05,-3.1888485e-06,1.0,825,2.53,0,0,0.0,False,-0.26243987752006825,1.0254231671697775
2.4921737820113776,10:57:41.649178,10:57:25.415184,0,,0.1246804,-0.0018621534,0.026142344,-0.9092458,-0.3510881,-0.22362718,-0.09856497,-0.34036237,0.93511415,-0.40442172,0.8722904,0.27486798,,0.081733525,-0.033730313,0.02042231,0.01213336,-0.39120328,0.92022425,-0.43089223,0.82841516,0.35785505,-0.90232176,-0.40085956,-0.15851504,,0.10930953,1.3586842,0.4585848,0.9961397,0.033263743,-0.081235506,-0.025795361,-0.773642,-0.6330977,-0.0839064,0.63274926,-0.76979744,,-0.08313683,0.26057845,-0.06937933,0.9290965,0.22678189,0.29214668,-0.35327086,0.31042147,0.8825181,0.10945052,-0.9231514,0.36852694,,-0.019783374,0.42309585,-0.3144523,0.10501585,0.48663872,-0.8672684,-0.9157892,0.38730183,0.10643036,0.38768774,0.78305817,0.4863313,,1.289997576577588,0.1374723678940705,0.18049153073000002,0.679814796776828,0.48820221366191874,1.3805400753935695,-0.4096669178647725,,-0.8550918747656346,-0.35603343096749834,0.20877009708000002,1.1314869350424934,1.0167121947546425,0.05748042408059084,0.8506958964273261,,-0.03987859174650544,-0.09379617566374027,0.05836094732,-0.08765896690267068,,-3.9156526e-05,-1.0728836e-06,2.1457672e-06,0.99999994,2.9437244e-05,2.4199486e-05,-2.9444695e-05,1.0,3.2186508e-06,-2.4199486e-05,-3.1888485e-06,1.0,833,2.556,0,0,0.0,False,-0.26243987752006825,1.0261473701814692
2.5865755359991454,10:57:41.685965,10:57:25.415184,0,,0.12438723,-0.0018081963,0.026271984,-0.9072707,-0.35256767,-0.22925042,-0.10102835,-0.34643784,0.93261683,-0.40823156,0.8692968,0.27869353,,0.081740715,-0.033743188,0.020423919,0.012065131,-0.39194548,0.9199092,-0.4310775,0.8280556,0.3584633,-0.9022342,-0.4008772,-0.15896833,,0.10930953,1.3586842,0.4585848,0.9961397,0.033263743,-0.081235506,-0.025795361,-0.773642,-0.6330977,-0.0839064,0.63274926,-0.76979744,,-0.08285369,0.26069987,-0.06948304,0.9272564,0.22790408,0.29707792,-0.3576,0.3038515,0.8830609,0.11098561,-0.9250589,0.36324674,,-0.019791326,0.42308673,-0.31446087,0.10506106,0.48735702,-0.86685944,-0.9158671,0.38706744,0.10661252,0.38749143,0.78272724,0.48702,,1.2917815278715337,0.1367541537367676,0.18045523461000001,0.6741531683027459,0.4921646721551165,1.3832715042166344,-0.411300358526115,,-0.8551304884300057,-0.35610293556336636,0.20877398595000002,1.1312772450990087,1.016575558254877,0.0581635931652712,0.8518393048902662,,-0.03987859174650544,-0.09379617566374027,0.05836094732,-0.08765896690267068,,-3.9156526e-05,-1.0728836e-06,2.1457672e-06,0.99999994,2.9437244e-05,2.4199486e-05,-2.9444695e-05,1.0,3.2186508e-06,-2.4199486e-05,-3.1888485e-06,1.0,845,2.593,0,0,0.0,False,-0.2616653671792948,1.027788897007971
2.6233688600041205,10:57:41.723456,10:57:25.415184,0,,0.12399475,-0.0017549694,0.026477829,-0.90549177,-0.3546269,-0.23307618,-0.10323843,-0.3486498,0.9315499,-0.4116146,0.86757314,0.27908832,,0.08175501,-0.033759356,0.020430535,0.011961147,-0.39146698,0.92011434,-0.43073758,0.828411,0.35805076,-0.9023979,-0.40061063,-0.15871088,,0.10930953,1.3586842,0.4585848,0.9961397,0.033263743,-0.081235506,-0.025795361,-0.773642,-0.6330977,-0.0839064,0.63274926,-0.76979744,,-0.08247978,0.26086926,-0.06965839,0.9255951,0.22987942,0.30071446,-0.36146092,0.301021,0.88245815,0.11233759,-0.92549545,0.361716,,-0.019807212,0.42307797,-0.31447425,0.105204806,0.48686093,-0.86712074,-0.91571134,0.3874786,0.10645685,0.3878204,0.78283256,0.4865887,,1.2942450796584113,0.135804257593238,0.18036449431,0.6687012297721482,0.4965370401476106,1.3817480998018632,-0.41162704665838357,,-0.8551922702929995,-0.35615699469348594,0.20877917111000002,1.1321160048729468,1.016575558254877,0.05840862938569291,0.8523293370886691,,-0.03987859174650544,-0.09379617566374027,0.05836094732,-0.08765896690267068,,-3.9156526e-05,-1.0728836e-06,2.1457672e-06,0.99999994,2.9437244e-05,2.4199486e-05,-2.9444695e-05,1.0,3.2186508e-06,-2.4199486e-05,-3.1888485e-06,1.0,857,2.63,0,0,0.0,False,-0.26106958999408425,1.0289476218266778
2.660876754001947,10:57:41.758890,10:57:25.415184,0,,0.12376692,-0.0017192215,0.026665017,-0.9037715,-0.3585996,-0.23367351,-0.10164345,-0.3505127,0.93102604,-0.41577113,0.8651862,0.28033406,,0.08178283,-0.0337784,0.02044192,0.012035832,-0.39156985,0.9200696,-0.43069747,0.8283758,0.3581803,-0.90241605,-0.4005828,-0.15867804,,0.10930953,1.3586842,0.4585848,0.9961397,0.033263743,-0.081235506,-0.025795361,-0.773642,-0.6330977,-0.0839064,0.63274926,-0.76979744,,-0.08226884,0.26101568,-0.06980767,0.9244649,0.23384985,0.30112934,-0.36295968,0.2979902,0.8828715,0.11672579,-0.92548156,0.36035955,,-0.01983731,0.42306924,-0.31449112,0.105135754,0.48695657,-0.8670754,-0.9156978,0.387477,0.10657884,0.38787106,0.78277385,0.48664278,,1.2959595263564891,0.13526366629204228,0.18026856885,0.6668140202807874,0.5026856826370554,1.3815533398038171,-0.4121170788567867,,-0.8553390022176098,-0.35624966748797665,0.20878824514000002,1.1323256948164315,1.016575558254877,0.0588170230863958,0.8544528099484148,,-0.03987859174650544,-0.09379617566374027,0.05836094732,-0.08765896690267068,,-3.9156526e-05,-1.0728836e-06,2.1457672e-06,0.99999994,2.9437244e-05,2.4199486e-05,-2.9444695e-05,1.0,3.2186508e-06,-2.4199486e-05,-3.1888485e-06,1.0,890,2.732,0,0,0.0,False,-0.26232072208302704,1.029478704035252
2.6963086770119844,10:57:41.851730,10:57:25.415184,0,,0.12305318,-0.0016617924,0.02731891,-0.89867765,-0.36596215,-0.24176463,-0.103469074,-0.35876366,0.92767596,-0.42623067,0.8586969,0.28454703,,0.08184394,-0.03380762,0.020472854,0.01218671,-0.39150876,0.9200936,-0.43082032,0.82831895,0.35816404,-0.90235543,-0.40075994,-0.1585755,,0.10930953,1.3586842,0.4585848,0.9961397,0.033263743,-0.081235506,-0.025795361,-0.773642,-0.6330977,-0.0839064,0.63274926,-0.76979744,,-0.08162027,0.2614775,-0.0703612,0.9202538,0.24090868,0.3083762,-0.37112504,0.28739753,0.8829886,0.12409306,-0.9270198,0.35388592,,-0.01990374,0.42306352,-0.3145243,0.10497173,0.48692057,-0.8671155,-0.91576046,0.3873143,0.10663208,0.38776758,0.78287673,0.48655966,,1.3010565300534773,0.1335414968610902,0.17986412637000002,0.6557004532761077,0.5160760596140685,1.3816610151605437,-0.41228042292292066,,-0.8556942479298241,-0.3564118448783353,0.20879991175,1.1323256948164315,1.0164389217551115,0.059010119730232624,0.8546161540145489,,-0.03987859174650544,-0.09379617566374027,0.05836094732,-0.08765896690267068,,-3.9156526e-05,-1.0728836e-06,2.1457672e-06,0.99999994,2.9437244e-05,2.4199486e-05,-2.9444695e-05,1.0,3.2186508e-06,-2.4199486e-05,-3.1888485e-06,1.0,898,2.757,0,0,0.0,False,-0.261427056305211,1.030009786243826
2.789096345004509,10:57:41.887514,10:57:25.720766,0,,0.12290945,-0.0016872734,0.027503505,-0.8975013,-0.36963102,-0.24055006,-0.1011664,-0.35834527,0.9280916,-0.42925143,0.857299,0.28422108,,0.08184937,-0.033815548,0.02047351,0.012200989,-0.39163095,0.92004144,-0.4308476,0.8282568,0.35827494,-0.9023422,-0.40076903,-0.15862775,,0.10930953,1.3586842,0.4585848,0.9961397,0.033263743,-0.081235506,-0.025795361,-0.773642,-0.6330977,-0.0839064,0.63274926,-0.76979744,,-0.08149869,0.26157728,-0.070536256,0.9196249,0.24472003,0.30724934,-0.37135264,0.2867413,0.88310623,0.12801272,-0.92622435,0.35457185,,-0.019909574,0.4230576,-0.31452915,0.104954325,0.4870396,-0.86705077,-0.9157733,0.38726944,0.10668486,0.387742,0.7828249,0.48666346,,1.3022072172517367,0.13304724195713985,0.17973060850000003,0.6554907633326231,0.5211316101053899,1.3802339511484147,-0.4095035737986381,,-0.8557174161284468,-0.35645045854270646,0.20880380062,1.1323256948164315,1.0164389217551115,0.0591734772105138,0.8549428421468175,,-0.03987859174650544,-0.09379617566374027,0.05836094732,-0.08765896690267068,,-3.9156526e-05,-1.0728836e-06,2.1457672e-06,0.99999994,2.9437244e-05,2.4199486e-05,-2.9444695e-05,1.0,3.2186508e-06,-2.4199486e-05,-3.1888485e-06,1.0,910,2.794,0,0,0.0,False,-0.2611887454311268,1.030154626846164
2.8249203150044195,10:57:41.916675,10:57:25.720766,0,,0.12277197,-0.0017016679,0.027669415,-0.8955273,-0.37330103,-0.24223377,-0.100561805,-0.36049575,0.9273242,-0.43349522,0.85480356,0.28529385,,0.08184804,-0.033820152,0.02047363,0.0121911615,-0.39177445,0.9199805,-0.43086675,0.828194,0.35839686,-0.90233314,-0.40075836,-0.15870601,,0.10930953,1.3586842,0.4585848,0.9961397,0.033263743,-0.081235506,-0.025795361,-0.773642,-0.6330977,-0.0839064,0.63274926,-0.76979744,,-0.08138032,0.26167324,-0.07068927,0.91814864,0.24837136,0.30873087,-0.37365207,0.28342688,0.88320625,0.13186051,-0.9262726,0.35303247,,-0.019908506,0.4230543,-0.3145325,0.104961745,0.4871767,-0.86697286,-0.9157812,0.38723844,0.10672948,0.38772133,0.7827549,0.48679247,,1.3032729543883799,0.13254526432031527,0.17961912756,0.6527647940673243,0.5264604335962421,1.3802993048718446,-0.4088501975341008,,-0.8557096933955726,-0.35647362674132915,0.20880380062,1.1323256948164315,1.0164389217551115,0.05933683469079487,0.8549428421468175,,-0.03987859174650544,-0.09379617566374027,0.05836094732,-0.08765896690267068,,-3.9156526e-05,-1.0728836e-06,2.1457672e-06,0.99999994,2.9437244e-05,2.4199486e-05,-2.9444695e-05,1.0,3.2186508e-06,-2.4199486e-05,-3.1888485e-06,1.0,918,2.818,0,0,0.0,False,-0.2622015666459845,1.030009786243826
2.854037918004906,10:57:41.952503,10:57:25.720766,0,,0.12264921,-0.001770556,0.027938187,-0.8930836,-0.37748384,-0.24476054,-0.099206835,-0.36541122,0.9255445,-0.43881634,0.85087043,0.28889373,,0.081847474,-0.03382054,0.020471781,0.01218459,-0.39170295,0.92001104,-0.43086776,0.82822263,0.35832965,-0.9023328,-0.40076926,-0.15868069,,0.10930953,1.3586842,0.4585848,0.9961397,0.033263743,-0.081235506,-0.025795361,-0.773642,-0.6330977,-0.0839064,0.63274926,-0.76979744,,-0.08129226,0.26179582,-0.07095246,0.91639096,0.25238192,0.31069443,-0.37608534,0.27707532,0.88418835,0.13706739,-0.92710984,0.34882644,,-0.019907689,0.42305285,-0.31453145,0.10496812,0.4871091,-0.86701006,-0.91578126,0.3872482,0.10669343,0.38771942,0.78279215,0.48673412,,1.3043850279222682,0.13193516842325154,0.17939746197,0.6500388248020256,0.5332922585845141,1.383222998661642,-0.4099936059970408,,-0.8557019706626984,-0.35647362674132915,0.20880509691000002,1.1323256948164315,1.0164389217551115,0.05925515595065434,0.8551061862129516,,-0.03987859174650544,-0.09379617566374027,0.05836094732,-0.08765896690267068,,-3.9156526e-05,-1.0728836e-06,2.1457672e-06,0.99999994,2.9437244e-05,2.4199486e-05,-2.9444695e-05,1.0,3.2186508e-06,-2.4199486e-05,-3.1888485e-06,1.0,951,2.921,0,0,0.0,False,-0.26148663402373185,1.030154626846164
2.889923427006579,10:57:42.047064,10:57:25.888951,0,,0.12248877,-0.0019041002,0.028448805,-0.8902877,-0.3810401,-0.24939154,-0.10142175,-0.36797875,0.92428637,-0.44396096,0.8481745,0.28896117,,0.08185244,-0.03382075,0.0204719,0.012204297,-0.39169213,0.92001534,-0.43086466,0.82822484,0.3583283,-0.90233386,-0.4007754,-0.15865846,,0.10930953,1.3586842,0.4585848,0.9961397,0.033263743,-0.081235506,-0.025795361,-0.773642,-0.6330977,-0.0839064,0.63274926,-0.76979744,,-0.081197254,0.26202777,-0.07144387,0.9138948,0.25589675,0.3151399,-0.3810908,0.2733163,0.8832146,0.13987888,-0.9272621,0.34730223,,-0.019912615,0.42305246,-0.31453094,0.10494899,0.48709944,-0.8670178,-0.915781,0.38724512,0.10670667,0.38772514,0.7827997,0.4867174,,1.3058986835656161,0.13125556793031976,0.17893079757000002,0.6435384365540052,0.5384844455756008,1.381602838005676,-0.41048363819544376,,-0.8557251388613211,-0.35647362674132915,0.20880768949000003,1.1323256948164315,1.0164389217551115,0.05925515595065434,0.8551061862129516,,-0.03987859174650544,-0.09379617566374027,0.05836094732,-0.08765896690267068,,-3.9156526e-05,-1.0728836e-06,2.1457672e-06,0.99999994,2.9437244e-05,2.4199486e-05,-2.9444695e-05,1.0,3.2186508e-06,-2.4199486e-05,-3.1888485e-06,1.0,963,2.957,0,0,0.0,False,-0.26148663402373185,1.0300580664446055
2.984479328006273,10:57:42.081922,10:57:25.888951,0,,0.12250212,-0.0019372404,0.028621629,-0.88881016,-0.384041,-0.25005814,-0.10076988,-0.36851427,0.9241443,-0.44705927,0.8465871,0.28883934,,0.081852406,-0.033822194,0.020472258,0.012203209,-0.39168864,0.92001677,-0.4308708,0.8282236,0.3583237,-0.90233105,-0.40078118,-0.1586603,,0.10930953,1.3586842,0.4585848,0.9961397,0.033263743,-0.081235506,-0.025795361,-0.773642,-0.6330977,-0.0839064,0.63274926,-0.76979744,,-0.081230804,0.26211637,-0.07159277,0.91280293,0.25896582,0.3157967,-0.3826102,0.271826,0.8830176,0.14282961,-0.92684805,0.34720653,,-0.0199127,0.42305157,-0.31453216,0.10494933,0.48709685,-0.8670192,-0.91578364,0.38724023,0.106701925,0.3877189,0.7828037,0.48671594,,1.3061767019490882,0.13124784519744553,0.17877524277,0.641860917006129,0.5419003580697368,1.3807776801766392,-0.4108103263277123,,-0.8557251388613211,-0.35648134947420335,0.20880768949000003,1.1323256948164315,1.0164389217551115,0.05925515595065434,0.8551061862129516,,-0.03987859174650544,-0.09379617566374027,0.05836094732,-0.08765896690267068,,-3.9156526e-05,-1.0728836e-06,2.1457672e-06,0.99999994,2.9437244e-05,2.4199486e-05,-2.9444695e-05,1.0,3.2186508e-06,-2.4199486e-05,-3.1888485e-06,1.0,971,2.982,0,0,0.0,False,-0.26190367805337944,1.030347747649282
3.01933820200793,10:57:42.108812,10:57:25.888951,0,,0.12255156,-0.0019606352,0.028772697,-0.88643575,-0.38961995,-0.24985588,-0.09751719,-0.3704893,0.92370343,-0.45246217,0.843169,0.2904203,,0.081852406,-0.033822194,0.020472258,0.012203209,-0.39168864,0.92001677,-0.4308708,0.8282236,0.3583237,-0.90233105,-0.40078118,-0.1586603,,0.10930953,1.3586842,0.4585848,0.9961397,0.033263743,-0.081235506,-0.025795361,-0.773642,-0.6330977,-0.0839064,0.63274926,-0.76979744,,-0.081296936,0.2621986,-0.07171393,0.91132003,0.26461494,0.31539613,-0.38366655,0.26800996,0.8837254,0.14931764,-0.92636365,0.34576672,,-0.0199127,0.42305157,-0.31453216,0.10494933,0.48709685,-0.8670192,-0.91578364,0.38724023,0.106701925,0.3877189,0.7828037,0.48671594,,1.3063774930038181,0.131263290663194,0.17865339151,0.6412318471756755,0.5487321830580089,1.3817410842030626,-0.41179039072451773,,-0.8557251388613211,-0.35648134947420335,0.20880768949000003,1.1323256948164315,1.0164389217551115,0.05925515595065434,0.8551061862129516,,-0.03987859174650544,-0.09379617566374027,0.05836094732,-0.08765896690267068,,-3.9156526e-05,-1.0728836e-06,2.1457672e-06,0.99999994,2.9437244e-05,2.4199486e-05,-2.9444695e-05,1.0,3.2186508e-06,-2.4199486e-05,-3.1888485e-06,1.0,983,3.019,0,0,0.0,False,-0.26106958999408425,1.030347747649282
3.046180749006453,10:57:42.148895,10:57:25.888951,0,,0.12263537,-0.0019921362,0.028978989,-0.8823931,-0.39974278,-0.24816939,-0.091904625,-0.3708525,0.9241331,-0.4614498,0.8382566,0.29049948,,0.08185119,-0.033822313,0.020471483,0.012196638,-0.39169228,0.92001534,-0.43087175,0.82822293,0.35832417,-0.9023307,-0.40077916,-0.15866767,,0.10930953,1.3586842,0.4585848,0.9961397,0.033263743,-0.081235506,-0.025795361,-0.773642,-0.6330977,-0.0839064,0.63274926,-0.76979744,,-0.08140331,0.26231146,-0.071876764,0.9087825,0.27507547,0.31376413,-0.38527006,0.2643618,0.8841266,0.16025428,-0.92436266,0.3462257,,-0.019911386,0.42305106,-0.31453183,0.10495571,0.48710006,-0.8670166,-0.9157837,0.38724127,0.106697515,0.38771698,0.7828012,0.48672152,,1.3066323431886675,0.131263290663194,0.17849524413,0.6403930874017374,0.5602096490383058,1.3803864968263384,-0.4117903907245182,,-0.8557174161284468,-0.35648134947420335,0.20880768949000003,1.1323256948164315,1.0164389217551115,0.05925515595065434,0.8551061862129516,,-0.03987859174650544,-0.09379617566374027,0.05836094732,-0.08765896690267068,,-3.9156526e-05,-1.0728836e-06,2.1457672e-06,0.99999994,2.9437244e-05,2.4199486e-05,-2.9444695e-05,1.0,3.2186508e-06,-2.4199486e-05,-3.1888485e-06,1.0,1004,3.083,0,0,0.0,False,-0.26160578946077395,1.0298649456414877
3.08630911000364,10:57:42.206154,10:57:25.888951,0,,0.12268254,-0.0020097196,0.029199824,-0.8780943,-0.4075632,-0.2506842,-0.08899792,-0.37565207,0.92247754,-0.47013795,0.8323327,0.29358563,,0.08185119,-0.033822313,0.020471483,0.012196638,-0.39169228,0.92001534,-0.43087175,0.82822293,0.35832417,-0.9023307,-0.40077916,-0.15866767,,0.10930953,1.3586842,0.4585848,0.9961397,0.033263743,-0.081235506,-0.025795361,-0.773642,-0.6330977,-0.0839064,0.63274926,-0.76979744,,-0.08147338,0.2624438,-0.07204668,0.9056795,0.2828927,0.3157789,-0.38871467,0.25673717,0.88486546,0.1692498,-0.92415243,0.34248614,,-0.019911386,0.42305106,-0.31453183,0.10495571,0.48710006,-0.8670166,-0.9157837,0.38724127,0.106697515,0.38771698,0.7828012,0.48672152,,1.3070262025652528,0.1312401224645713,0.17832931901000001,0.6368283583625004,0.570184113521183,1.38246283237407,-0.40934022973250395,,-0.8557174161284468,-0.35648134947420335,0.20880768949000003,1.1323256948164315,1.0164389217551115,0.05925515595065434,0.8551061862129516,,-0.03987859174650544,-0.09379617566374027,0.05836094732,-0.08765896690267068,,-3.9156526e-05,-1.0728836e-06,2.1457672e-06,0.99999994,2.9437244e-05,2.4199486e-05,-2.9444695e-05,1.0,3.2186508e-06,-2.4199486e-05,-3.1888485e-06,1.0,1012,3.109,0,0,0.0,False,-0.2616653671792948,1.0308305496570767
3.143571161010186,10:57:42.235699,10:57:25.888951,0,,0.12269118,-0.0020086914,0.02928333,-0.8769192,-0.41012657,-0.25061685,-0.08797802,-0.37564892,0.9225767,-0.4725172,0.831074,0.29333162,,0.081851155,-0.033823803,0.020471722,0.012195554,-0.39176396,0.9199849,-0.4308778,0.8281925,0.35838717,-0.9023279,-0.40077192,-0.1587022,,0.10930953,1.3586842,0.4585848,0.9961397,0.033263743,-0.081235506,-0.025795361,-0.773642,-0.6330977,-0.0839064,0.63274926,-0.76979744,,-0.08148998,0.2624995,-0.07210728,0.9048553,0.28555295,0.31574738,-0.38948905,0.2558755,0.88477457,0.17185798,-0.9235731,0.34275004,,-0.019911468,0.42305014,-0.31453305,0.10495606,0.48716828,-0.8669782,-0.9157863,0.38722768,0.1067244,0.38771072,0.78276545,0.48678395,,1.3072269936199827,0.13127873612894245,0.17826709709000002,0.6359895985885623,0.5730534800162572,1.3815932737189756,-0.41032029412930937,,-0.8557174161284468,-0.3564890722070776,0.20880768949000003,1.1323256948164315,1.0164389217551115,0.05933683469079498,0.8552695302790863,,-0.03987859174650544,-0.09379617566374027,0.05836094732,-0.08765896690267068,,-3.9156526e-05,-1.0728836e-06,2.1457672e-06,0.99999994,2.9437244e-05,2.4199486e-05,-2.9444695e-05,1.0,3.2186508e-06,-2.4199486e-05,-3.1888485e-06,1.0,1020,3.134,0,0,0.0,False,-0.2617249448978165,1.0305408684524
3.1731201200018404,10:57:42.267510,10:57:25.888951,0,,0.12267782,-0.0019937307,0.029333025,-0.8765778,-0.41135746,-0.24979284,-0.08701731,-0.37501037,0.9229275,-0.47332805,0.83075404,0.29293048,,0.08185104,-0.03382829,0.020472735,0.012192294,-0.39182875,0.9199573,-0.43089595,0.8281598,0.358441,-0.9023192,-0.40077624,-0.15874034,,0.10930953,1.3586842,0.4585848,0.9961397,0.033263743,-0.081235506,-0.025795361,-0.773642,-0.6330977,-0.0839064,0.63274926,-0.76979744,,-0.08148004,0.2625432,-0.07213667,0.9046968,0.28686908,0.3150077,-0.3892913,0.25612894,0.8847883,0.17313583,-0.92309487,0.34339467,,-0.019911716,0.42304736,-0.31453672,0.104957104,0.48723134,-0.8669427,-0.9157942,0.38720438,0.106741786,0.38769194,0.78273773,0.48684347,,1.3074818438048321,0.13133279525906202,0.17823728242,0.6361992885320469,0.5744198450139116,1.380724130902433,-0.4108103263277121,,-0.8557174161284468,-0.3565122404057003,0.20880768949000003,1.1323256948164315,1.0164389217551115,0.059418513430935516,0.8554328743452204,,-0.03987859174650544,-0.09379617566374027,0.05836094732,-0.08765896690267068,,-3.9156526e-05,-1.0728836e-06,2.1457672e-06,0.99999994,2.9437244e-05,2.4199486e-05,-2.9444695e-05,1.0,3.2186508e-06,-2.4199486e-05,-3.1888485e-06,1.0,1041,3.198,0,0,0.0,False,-0.26160578946077395,1.0302994674485029
3.2049298950005323,10:57:42.316479,10:57:25.888951,0,,0.122684255,-0.0019552708,0.029378623,-0.8742711,-0.41450378,-0.252659,-0.08820775,-0.37616372,0.9223449,-0.4773566,0.8286661,0.29230663,,0.081974104,-0.03381902,0.020480394,0.012070093,-0.39151376,0.920093,-0.43068585,0.8283968,0.35814556,-0.90242124,-0.40059403,-0.15862069,,0.10931839,1.358684,0.458588,0.9961394,0.03325554,-0.08124222,-0.025805924,-0.77364236,-0.6330968,-0.0839064,0.63274926,-0.76979744,,-0.08149375,0.2626002,-0.072141536,0.9026808,0.2900624,0.317854,-0.39280596,0.25383866,0.88389444,0.1757009,-0.9227295,0.34307352,,-0.020041153,0.42304868,-0.31451553,0.10509838,0.48691234,-0.86710477,-0.91569513,0.38747862,0.10659618,0.38788757,0.78280056,0.48658663,,1.307821644051298,0.13134051799193625,0.17822691210000002,0.6317957997188719,0.5778357575080477,1.3790005069318494,-0.4099936059970408,,-0.8556633569983272,-0.35659719046731675,0.20880768949000003,1.1329547646468852,1.0164389217551115,0.05950019217107605,0.8555962184113546,,-0.03987859174650544,-0.09379617566374027,0.05836094732,-0.08765896690267068,,-3.0599535e-05,1.5497208e-06,-9.536743e-07,0.99999994,2.1271408e-05,1.7493963e-05,-2.1278858e-05,1.0,2.2649765e-06,-1.7479062e-05,-2.2947788e-06,1.0,1049,3.224,0,0,0.0,False,-0.2623802998015474,1.0302029070469436
3.253896533002262,10:57:42.349339,10:57:26.198506,0,,0.12273649,-0.001924321,0.02943185,-0.87066907,-0.42318597,-0.25069693,-0.08286049,-0.37620574,0.92282355,-0.48483962,0.8242469,0.29248524,,0.08195652,-0.03383656,0.020476341,0.011808034,-0.39146608,0.9201168,-0.43070808,0.8284509,0.357994,-0.9024141,-0.4005289,-0.15882528,,0.10931839,1.358684,0.458588,0.9961394,0.03325554,-0.08124222,-0.025805924,-0.77364236,-0.6330968,-0.0839064,0.63274926,-0.76979744,,-0.08154742,0.26265928,-0.07215389,0.90040475,0.29908246,0.3159446,-0.39362884,0.25077778,0.884402,0.18527721,-0.92068464,0.343529,,-0.020024005,0.42303395,-0.3145266,0.10535495,0.48685792,-0.86710423,-0.91569024,0.38755882,0.10634659,0.38782954,0.7827947,0.48664227,,1.3080301578389022,0.13137140892343313,0.17823209726000003,0.6315861097753873,0.5878102219909248,1.377891371614099,-0.41130035852611524,,-0.8555629614709623,-0.35667441779605896,0.20880380062,1.1331644545903696,1.016302285255346,0.05961161007477256,0.8555962184113546,,-0.03987859174650544,-0.09379617566374027,0.05836094732,-0.08765896690267068,,-3.0599535e-05,1.5497208e-06,-9.536743e-07,0.99999994,2.1271408e-05,1.7493963e-05,-2.1278858e-05,1.0,2.2649765e-06,-1.7479062e-05,-2.2947788e-06,1.0,1074,3.3,0,0,0.0,False,-0.2626186106756321,1.0304925882516205
3.2867352580069564,10:57:42.419366,10:57:26.198506,0,,0.12284355,-0.0018332303,0.0295116,-0.8616993,-0.44200408,-0.2492121,-0.07105453,-0.38118827,0.92176276,-0.5024197,0.81199,0.29706323,,0.08193064,-0.033873916,0.020470679,0.011779252,-0.39127764,0.9201973,-0.43083143,0.82847434,0.35779113,-0.90235555,-0.40066445,-0.15881595,,0.10931839,1.358684,0.458588,0.9961394,0.03325554,-0.08124222,-0.025805924,-0.77364236,-0.6330968,-0.0839064,0.63274926,-0.76979744,,-0.08165165,0.26278192,-0.0721393,0.8944763,0.31838349,0.3139173,-0.3961252,0.23869565,0.886628,0.20735703,-0.9174183,0.33962733,,-0.01999937,0.42300376,-0.31455067,0.10536858,0.48669365,-0.8671948,-0.91574305,0.38747564,0.10619459,0.38770106,0.782938,0.4865141,,1.308508967277104,0.13141002258780426,0.17829691176,0.6301182801709957,0.6110384269510497,1.3802684791623943,-0.4106469822615779,,-0.8554085068134778,-0.3568597633850404,0.20880250433000003,1.1331644545903696,1.0164389217551115,0.059418513430935405,0.855759562477489,,-0.03987859174650544,-0.09379617566374027,0.05836094732,-0.08765896690267068,,-3.0599535e-05,1.5497208e-06,-9.536743e-07,0.99999994,2.1271408e-05,1.7493963e-05,-2.1278858e-05,1.0,2.2649765e-06,-1.7479062e-05,-2.2947788e-06,1.0,1082,3.326,0,0,0.0,False,-0.2626186106756321,1.0300580664446055
3.3567896720051067,10:57:42.455108,10:57:26.198506,0,,0.122873366,-0.0017561316,0.029504225,-0.85917795,-0.44757226,-0.24797603,-0.06769982,-0.38093776,0.9221188,-0.5071783,0.8090522,0.29699275,,0.08192673,-0.033884734,0.02047062,0.01175195,-0.39126432,0.92020327,-0.4308768,0.8284641,0.35776016,-0.9023342,-0.4006987,-0.1588507,,0.10931839,1.358684,0.458588,0.9961394,0.03325554,-0.08124222,-0.025805924,-0.77364236,-0.6330968,-0.0839064,0.63274926,-0.76979744,,-0.081672385,0.26283568,-0.07207957,0.89279586,0.32420743,0.312738,-0.39667952,0.23687394,0.8868687,0.21344993,-0.9158495,0.34008652,,-0.01999601,0.4229958,-0.31455824,0.105390124,0.48668522,-0.86719686,-0.91576153,0.38744465,0.10614816,0.38765153,0.78295857,0.48652044,,1.308709758331834,0.13162625910828255,0.17836302255000003,0.6296989002840266,0.61732370594026,1.3790638351191062,-0.410483638195444,,-0.8553853386148551,-0.35691382251515996,0.20880250433000003,1.1331644545903696,1.0164389217551115,0.059418513430935516,0.8554328743452204,,-0.03987859174650544,-0.09379617566374027,0.05836094732,-0.08765896690267068,,-3.0599535e-05,1.5497208e-06,-9.536743e-07,0.99999994,2.1271408e-05,1.7493963e-05,-2.1278858e-05,1.0,2.2649765e-06,-1.7479062e-05,-2.2947788e-06,1.0,1111,3.416,0,0,0.0,False,-0.2621419889274632,1.0297201050391491
3.3924746250122553,10:57:42.530432,10:57:26.364372,0,,0.12301566,-0.0015236586,0.029464751,-0.8557629,-0.45469075,-0.24683227,-0.06237489,-0.38293868,0.92166543,-0.51359445,0.80412334,0.2993434,,0.081921175,-0.033886403,0.02046895,0.011724569,-0.39120016,0.92023087,-0.43088695,0.8284893,0.35768968,-0.9023298,-0.4007093,-0.15884942,,0.10931839,1.358684,0.458588,0.9961394,0.03325554,-0.08124222,-0.025805924,-0.77364236,-0.6330968,-0.0839064,0.63274926,-0.76979744,,-0.08178508,0.2629873,-0.07187916,0.8905983,0.331525,0.31132916,-0.39682192,0.23202401,0.88808626,0.22218697,-0.9144704,0.33819658,,-0.01999035,0.4229938,-0.31455892,0.105415985,0.4866247,-0.8672277,-0.91576445,0.38745254,0.10609412,0.3876376,0.7829923,0.4864773,,1.3087715401948277,0.13283100543666157,0.17851598477000002,0.6296989002840266,0.625385259426421,1.3800046228939487,-0.41113701445998085,,-0.8553544476833582,-0.35692154524803416,0.20880120804000002,1.1331644545903696,1.0164389217551115,0.05933683469079498,0.8552695302790863,,-0.03987859174650544,-0.09379617566374027,0.05836094732,-0.08765896690267068,,-3.0599535e-05,1.5497208e-06,-9.536743e-07,0.99999994,2.1271408e-05,1.7493963e-05,-2.1278858e-05,1.0,2.2649765e-06,-1.7479062e-05,-2.2947788e-06,1.0,1119,3.441,0,0,0.0,False,-0.26243987752006825,1.0295752644368108
3.46783836800023,10:57:42.569918,10:57:26.364372,0,,0.123140045,-0.0013360828,0.029465139,-0.8531554,-0.45929372,-0.24733624,-0.0602936,-0.38413823,0.9213047,-0.5181608,0.80092895,0.30003706,,0.08191387,-0.03388706,0.02046436,0.011685144,-0.39122185,0.9202221,-0.43089297,0.82848495,0.35769242,-0.90232736,-0.40069708,-0.15889387,,0.10931839,1.358684,0.458588,0.9961394,0.03325554,-0.08124222,-0.025805924,-0.77364236,-0.6330968,-0.0839064,0.63274926,-0.76979744,,-0.08188863,0.2631309,-0.071740195,0.8886807,0.33626726,0.31172258,-0.39820954,0.22895433,0.88826185,0.22732314,-0.91351205,0.33737212,,-0.019982474,0.42299077,-0.31455702,0.10545426,0.48664403,-0.8672122,-0.9157649,0.3874587,0.10606765,0.3876261,0.7829772,0.48651072,,1.308748371996205,0.133912188039053,0.17860024362000002,0.6278116907926659,0.6300309004184459,1.3793202062936119,-0.4124437669890548,,-0.855308111286113,-0.35692154524803416,0.20880120804000002,1.1331644545903696,1.0164389217551115,0.05933683469079498,0.8552695302790863,,-0.03987859174650544,-0.09379617566374027,0.05836094732,-0.08765896690267068,,-3.0599535e-05,1.5497208e-06,-9.536743e-07,0.99999994,2.1271408e-05,1.7493963e-05,-2.1278858e-05,1.0,2.2649765e-06,-1.7479062e-05,-2.2947788e-06,1.0,1144,3.518,0,0,0.0,False,-0.26255903295711036,1.0295752644368108
