AlexandreBanks6/ExpertPlaybackApp/resources/Motions/Pilot_03/PC1/Data_PC1_3.csv
Task Time,PC1 Time,PC2 Time,Gaze Calib,s_T_psm1,Tx,Ty,Tz,R00,R01,R02,R10,R11,R12,R20,R21,R22,s_T_psm3,Tx,Ty,Tz,R00,R01,R02,R10,R11,R12,R20,R21,R22,cart_T_ecm,Tx,Ty,Tz,R00,R01,R02,R10,R11,R12,R20,R21,R22,ecm_T_psm1,Tx,Ty,Tz,R00,R01,R02,R10,R11,R12,R20,R21,R22,ecm_T_psm3,Tx,Ty,Tz,R00,R01,R02,R10,R11,R12,R20,R21,R22,psm1_joints,q1,q2,q3,q4,q5,q6,jaw,psm3_joints,q1,q2,q3,q4,q5,q6,jaw,ecm_joints,q1,q2,q3,q4,ecmi_T_ecm,Tx,Ty,Tz,R00,R01,R02,R10,R11,R12,R20,R21,R22,Sample #,Task Duration (s),Collisions (binary),Collisions (increments),Cumulative Collision Time (s),Clutch Press,MTMR Angle,MTML Angle
""
lci_T_si,,,,,-0.071118124,0.013903125,0.25454396,0.9901862,-0.08084544,0.11399696,0.013384873,-0.7570853,-0.6531789,0.13911195,0.64829457,-0.7485733
rci_T_si,,,,,-0.08147662,0.01856703,0.26535848,0.98740834,-0.096447565,0.12539017,0.012030307,-0.74456626,-0.6674401,0.15773426,0.6605444,-0.73403066
ecm_T_lc,,,,,-4.4061628e-05,-0.00034663224,-0.01840835,-0.99912,0.030754527,0.028518902,-0.031987965,-0.99852574,-0.043852776,0.027128186,-0.04472645,0.9986309
ecm_T_rc,,,,,-0.0043358393,0.01870579,-0.007592615,-0.99555075,-0.052743673,-0.078081585,0.04863213,-0.9973746,0.053654674,-0.08070653,0.04961868,0.9955021
cart_T_ecmi,,,,,0.10934876,1.3586837,0.45858383,0.9961387,0.033234157,-0.08125972,-0.025833456,-0.77364326,-0.6330946,-0.0839064,0.63274926,-0.76979744
ecmac_T_ecmrep_psm1,,,,,0.011947535,-0.24624088,-0.3140189,0.99787813,0.060519684,0.024013558,-0.059408683,0.9972389,-0.04455629,-0.026643785,0.04303513,0.9987182
ecmac_T_ecmrep_psm3,,,,,-0.020729378,-0.4297972,-0.5440064,0.99962926,-0.018584386,0.019899037,0.019259674,0.999226,-0.034299888,-0.019246193,0.03467042,0.99921346
""
0,10:51:46.093285,10:51:29.917051,0,,0.12573196,-0.0010359883,0.018789858,-0.9279868,-0.24611768,-0.27976176,-0.18963186,-0.33435977,0.92317027,-0.32074958,0.9097415,0.26360965,,0.023382716,-0.015154526,0.02232048,-0.23728737,-0.67579603,0.6978498,-0.10593361,0.7320835,0.6729277,-0.96564627,0.08575149,-0.24530375,,0.10931764,1.3586849,0.4585823,0.99613976,0.033264596,-0.081234805,-0.025794264,-0.77364194,-0.63309777,-0.0839064,0.63274926,-0.76979744,,-0.08338196,0.25639433,-0.06319388,0.929967,0.119860575,0.34755558,-0.36734372,0.34108728,0.865285,-0.014833239,-0.9323588,0.36122996,,0.038404822,0.4421116,-0.31219283,0.3763335,0.6888654,-0.6195462,-0.69621336,0.6514686,0.3014558,0.61127734,0.31788844,0.7247668,,1.2684202609270046,0.1382369184486187,0.18684983318,0.6504582046889946,0.3544350803915525,1.392992253526081,-0.40983026193090666,,-0.5553880573827299,-0.2275194332075283,0.18040208672000002,1.6716482294586281,1.092545452124462,0.7719182338249803,0.853309401485475,,-0.03987859174650544,-0.09379617566374027,0.05836094732,-0.08765896690267068,,-3.0897558e-05,-2.9802322e-06,2.861023e-06,1.0,3.028661e-05,2.489984e-05,-3.028661e-05,1.0,3.2782555e-06,-2.489984e-05,-3.3080578e-06,1.0,43,0.129,0,0,0.0,False,-0.26005676877922745,1.0286096604212218
0.1310219290025998,10:51:46.153133,10:51:29.917051,0,,0.12555677,-0.001289919,0.019300506,-0.92801046,-0.24620914,-0.2796027,-0.18926746,-0.33486962,0.92306024,-0.3208963,0.9095293,0.26416302,,0.023407772,-0.01515165,0.022322387,-0.23727408,-0.67588544,0.69776785,-0.1060074,0.7320051,0.6730014,-0.9656415,0.08571719,-0.2453348,,0.10931764,1.3586849,0.4585823,0.99613976,0.033264596,-0.081234805,-0.025794264,-0.77364194,-0.63309777,-0.0839064,0.63274926,-0.76979744,,-0.08328493,0.25653523,-0.06376541,0.9300428,0.11991858,0.34733263,-0.36716542,0.34056202,0.8655675,-0.01449068,-0.93254334,0.36076722,,0.038379934,0.4421134,-0.3121887,0.37631613,0.6889551,-0.619457,-0.6962667,0.6513928,0.30149633,0.61122733,0.31784937,0.72482616,,1.269570948125264,0.137248408640718,0.18631187283000003,0.6504582046889946,0.35621135488850325,1.3932590743209792,-0.4096669178647725,,-0.5555425120402143,-0.22752715594040251,0.18040597559000002,1.6714385395151437,1.0924088156246963,0.7718662942483959,0.8536360896177433,,-0.03987859174650544,-0.09379617566374027,0.05836094732,-0.08765896690267068,,-3.0897558e-05,-2.9802322e-06,2.861023e-06,1.0,3.028661e-05,2.489984e-05,-3.028661e-05,1.0,3.2782555e-06,-2.489984e-05,-3.3080578e-06,1.0,55,0.165,0,0,0.0,False,-0.260652545964438,1.02875450102356
0.19089337800687645,10:51:46.183318,10:51:30.005338,0,,0.12545624,-0.0013857335,0.019601658,-0.92817664,-0.24572027,-0.27948123,-0.1892725,-0.33491325,0.92304325,-0.3204124,0.9096454,0.26435047,,0.023431718,-0.015151694,0.022326797,-0.23713437,-0.6758859,0.6978148,-0.105997205,0.7320156,0.6729915,-0.96567696,0.08562297,-0.24522817,,0.10931764,1.3586849,0.4585823,0.99613976,0.033264596,-0.081234805,-0.025794264,-0.77364194,-0.63309777,-0.0839064,0.63274926,-0.76979744,,-0.08322484,0.2566591,-0.06406715,0.93015945,0.11941885,0.34719235,-0.36685416,0.34061253,0.86567956,-0.014879606,-0.932589,0.36063328,,0.038355626,0.4421147,-0.3121885,0.3761841,0.6889705,-0.6195201,-0.69629127,0.6513392,0.3015556,0.6112806,0.31792602,0.72474754,,1.270358666878435,0.136939499325749,0.18601372613000003,0.6504582046889946,0.3564846278880341,1.3930362385135866,-0.4096669178647725,,-0.5556892439648246,-0.22754260140615096,0.18040856817,1.6714385395151437,1.0924088156246963,0.7718662942483959,0.8536360896177433,,-0.03987859174650544,-0.09379617566374027,0.05836094732,-0.08765896690267068,,-3.0897558e-05,-2.9802322e-06,2.861023e-06,1.0,3.028661e-05,2.489984e-05,-3.028661e-05,1.0,3.2782555e-06,-2.489984e-05,-3.3080578e-06,1.0,63,0.189,0,0,0.0,False,-0.26053339052739544,1.0289476218266778
0.22108146200480405,10:51:46.211540,10:51:30.005338,0,,0.12534067,-0.0014371872,0.019872397,-0.92841506,-0.24488144,-0.2794256,-0.18934056,-0.3352521,0.92290634,-0.31968063,0.9097468,0.264887,,0.023458287,-0.015150547,0.02232793,-0.23711357,-0.67600006,0.6977113,-0.10597384,0.7319052,0.67311525,-0.9656846,0.08566558,-0.24518311,,0.10931764,1.3586849,0.4585823,0.99613976,0.033264596,-0.081234805,-0.025794264,-0.77364194,-0.63309777,-0.0839064,0.63274926,-0.76979744,,-0.083142266,0.2567962,-0.064319484,0.93031687,0.11854335,0.3470706,-0.36642885,0.34043592,0.8659291,-0.015505161,-0.9327652,0.360151,,0.038329266,0.44211465,-0.31218475,0.37616587,0.6890714,-0.6194189,-0.69628,0.65129125,0.30168504,0.6113047,0.3178054,0.7247802,,1.2712699493575934,0.1367464310038934,0.18576224587,0.6504582046889946,0.3564846278880341,1.3930362385135866,-0.4096669178647725,,-0.5558514213551833,-0.22755032413902518,0.18041375333,1.6714385395151437,1.092272179124931,0.7720593908922327,0.8537994336838772,,-0.03987859174650544,-0.09379617566374027,0.05836094732,-0.08765896690267068,,-3.0897558e-05,-2.9802322e-06,2.861023e-06,1.0,3.028661e-05,2.489984e-05,-3.028661e-05,1.0,3.2782555e-06,-2.489984e-05,-3.3080578e-06,1.0,74,0.223,0,0,0.0,False,-0.2602950796533112,1.0290441822282368
0.24929926299955696,10:51:46.235807,10:51:30.005338,0,,0.12525249,-0.0014563799,0.020037428,-0.9285498,-0.24413906,-0.27962735,-0.18961047,-0.33566698,0.92270017,-0.31912878,0.9097934,0.26539207,,0.023481026,-0.015150681,0.022331983,-0.23698117,-0.67600036,0.69775593,-0.10596493,0.73191535,0.67310554,-0.96571803,0.08557567,-0.24508256,,0.10931764,1.3586849,0.4585823,0.99613976,0.033264596,-0.081234805,-0.025794264,-0.77364194,-0.63309777,-0.0839064,0.63274926,-0.76979744,,-0.08307311,0.25688872,-0.06446796,0.9303682,0.11776072,0.34719944,-0.36627233,0.34016454,0.866102,-0.016112136,-0.9329633,0.35961077,,0.038306203,0.4421157,-0.31218454,0.37604067,0.68908596,-0.61947876,-0.6963037,0.6512401,0.30174062,0.61135465,0.31787863,0.7247059,,1.2719341043847767,0.13663059001078,0.18561576510000002,0.65024851474551,0.3563479913882687,1.3931476564172829,-0.4096669178647725,,-0.5559904305469193,-0.22756576960477362,0.18041634591000003,1.6714385395151437,1.092272179124931,0.7720593908922327,0.8537994336838772,,-0.03987859174650544,-0.09379617566374027,0.05836094732,-0.08765896690267068,,-3.0897558e-05,-2.9802322e-06,2.861023e-06,1.0,3.028661e-05,2.489984e-05,-3.028661e-05,1.0,3.2782555e-06,-2.489984e-05,-3.3080578e-06,1.0,82,0.247,0,0,0.0,False,-0.2604738128088746,1.02875450102356
0.2735612550022779,10:51:46.264387,10:51:30.005338,0,,0.12510407,-0.0014463812,0.020256445,-0.92879695,-0.24376012,-0.27913663,-0.1891875,-0.33579624,0.9227399,-0.3186602,0.9098472,0.2657701,,0.023497127,-0.015148878,0.022335202,-0.23688656,-0.67605937,0.69773096,-0.10594857,0.73186517,0.6731628,-0.96574306,0.085539564,-0.24499667,,0.10931764,1.3586849,0.4585823,0.99613976,0.033264596,-0.081234805,-0.025794264,-0.77364194,-0.63309777,-0.0839064,0.63274926,-0.76979744,,-0.082946554,0.2570378,-0.064646445,0.93061125,0.11736691,0.346681,-0.36564943,0.34010795,0.86638737,-0.016223762,-0.9330335,0.35942343,,0.0382899,0.4421181,-0.31218338,0.37595186,0.6891473,-0.61946446,-0.6963139,0.6511825,0.30184153,0.6113977,0.31786385,0.72467613,,1.2730847915830361,0.13651474901766666,0.18544206224,0.6504582046889946,0.35689453738733046,1.392701984802497,-0.4096669178647725,,-0.5560908260742843,-0.22756576960477362,0.1804176422,1.6714385395151437,1.092272179124931,0.7721410696323733,0.8539627777500121,,-0.03987859174650544,-0.09379617566374027,0.05836094732,-0.08765896690267068,,-3.0897558e-05,-2.9802322e-06,2.861023e-06,1.0,3.028661e-05,2.489984e-05,-3.028661e-05,1.0,3.2782555e-06,-2.489984e-05,-3.3080578e-06,1.0,97,0.293,0,0,0.0,False,-0.2602950796533112,1.0286579406220009
0.30213841200747993,10:51:46.301680,10:51:30.005338,0,,0.124892324,-0.0014311373,0.020469084,-0.9292432,-0.24270636,-0.27856913,-0.18881725,-0.3361187,0.9226983,-0.31757706,0.9100098,0.26650885,,0.023502722,-0.015149862,0.022334248,-0.23685673,-0.6760588,0.6977417,-0.105950475,0.73186845,0.67315894,-0.9657502,0.0855162,-0.2449767,,0.10931764,1.3586849,0.4585823,0.99613976,0.033264596,-0.081234805,-0.025794264,-0.77364194,-0.63309777,-0.0839064,0.63274926,-0.76979744,,-0.08275614,0.25718567,-0.06482577,0.9309858,0.11627442,0.3460429,-0.36466596,0.33998707,0.8668492,-0.016857725,-0.93321437,0.35892445,,0.038284473,0.4421164,-0.31218252,0.3759234,0.68915045,-0.6194782,-0.6963219,0.6511696,0.30185097,0.6114061,0.3178834,0.7246604,,1.2745752790277616,0.1362135624355719,0.18528002599,0.6508775845759636,0.35730444688662677,1.3924494098315483,-0.40983026193090666,,-0.5561217170057812,-0.22757349233764784,0.18042023478000002,1.6714385395151437,1.092272179124931,0.7721410696323733,0.8539627777500121,,-0.03987859174650544,-0.09379617566374027,0.05836094732,-0.08765896690267068,,-3.0897558e-05,-2.9802322e-06,2.861023e-06,1.0,3.028661e-05,2.489984e-05,-3.028661e-05,1.0,3.2782555e-06,-2.489984e-05,-3.3080578e-06,1.0,105,0.316,0,0,0.0,False,-0.26059296824591627,1.0285613802204423
0.33943316200748086,10:51:46.337494,10:51:30.153597,0,,0.12477848,-0.0014188588,0.020563439,-0.92906,-0.24655338,-0.275788,-0.18556154,-0.33433667,0.9240053,-0.32002267,0.9096321,0.2648679,,0.023502737,-0.01515013,0.022331804,-0.23698945,-0.67599994,0.6977536,-0.10594651,0.7319135,0.67311054,-0.9657181,0.08559549,-0.2450757,,0.10931764,1.3586849,0.4585823,0.99613976,0.033264596,-0.081234805,-0.025794264,-0.77364194,-0.63309777,-0.0839064,0.63274926,-0.76979744,,-0.0826514,0.25725517,-0.0649046,0.9313832,0.120304905,0.343587,-0.3638119,0.3410264,0.8667998,-0.012891976,-0.9323238,0.3613946,,0.038284823,0.4421146,-0.31218085,0.37604973,0.6890824,-0.6194772,-0.69628936,0.6512516,0.301749,0.6113655,0.31786278,0.7247037,,1.2754247796439262,0.13591237585347715,0.18523206326000002,0.6523454141803553,0.3616768148791209,1.390027539275231,-0.4101569500631752,,-0.5561217170057812,-0.22757349233764784,0.18042153107000003,1.6714385395151437,1.0921355426251653,0.7720891300557887,0.8536360896177433,,-0.03987859174650544,-0.09379617566374027,0.05836094732,-0.08765896690267068,,-3.0897558e-05,-2.9802322e-06,2.861023e-06,1.0,3.028661e-05,2.489984e-05,-3.028661e-05,1.0,3.2782555e-06,-2.489984e-05,-3.3080578e-06,1.0,117,0.353,0,0,0.0,False,-0.26059296824591627,1.0286579406220009
0.3752289920084877,10:51:46.362639,10:51:30.153597,0,,0.12467256,-0.0014268756,0.020617709,-0.9292373,-0.24588406,-0.2757881,-0.18540165,-0.335344,0.9236724,-0.3196002,0.9094424,0.26602677,,0.023503162,-0.0151515305,0.022330731,-0.23698875,-0.6759988,0.697755,-0.105953306,0.73191535,0.6731075,-0.96571755,0.08558938,-0.24508011,,0.10931764,1.3586849,0.4585823,0.99613976,0.033264596,-0.081234805,-0.025794264,-0.77364194,-0.63309777,-0.0839064,0.63274926,-0.76979744,,-0.08255271,0.25728315,-0.06496545,0.9315342,0.119555786,0.3434392,-0.36341667,0.34015197,0.86730903,-0.0131297,-0.93273956,0.36031175,,0.038284495,0.4421128,-0.31218094,0.3760486,0.68908226,-0.6194781,-0.6962941,0.65124893,0.30174375,0.6113607,0.31786865,0.7247052,,1.2760117073423674,0.1356189120042566,0.18519447085000001,0.6525551041238398,0.36195008787865174,1.3910298845699467,-0.40999360599704104,,-0.5561217170057812,-0.22758121507052206,0.18042282736,1.6714385395151437,1.0921355426251653,0.7720891300557887,0.8536360896177433,,-0.03987859174650544,-0.09379617566374027,0.05836094732,-0.08765896690267068,,-3.0897558e-05,-2.9802322e-06,2.861023e-06,1.0,3.028661e-05,2.489984e-05,-3.028661e-05,1.0,3.2782555e-06,-2.489984e-05,-3.3080578e-06,1.0,125,0.378,0,0,0.0,False,-0.26095043455704303,1.0289476218266778
0.40039560200239066,10:51:46.394984,10:51:30.153597,0,,0.12461619,-0.0014406294,0.020652726,-0.92932457,-0.24545804,-0.27587363,-0.18549486,-0.33567342,0.923534,-0.31929225,0.9094359,0.26641828,,0.023506448,-0.015154108,0.0223293,-0.23697269,-0.6759397,0.6978176,-0.10596445,0.7319746,0.6730412,-0.9657202,0.085548505,-0.2450836,,0.10931764,1.3586849,0.4585823,0.99613976,0.033264596,-0.081234805,-0.025794264,-0.77364194,-0.63309777,-0.0839064,0.63274926,-0.76979744,,-0.08250177,0.25729492,-0.06500857,0.9315807,0.11910038,0.34347117,-0.36328626,0.33990553,0.86746025,-0.01343291,-0.9328876,0.35991699,,0.038281348,0.4421097,-0.31218106,0.37603265,0.689033,-0.61954254,-0.69630533,0.65126306,0.30168745,0.61135775,0.31794643,0.7246735,,1.2763051711915878,0.13543356641527524,0.18516465618000003,0.6525551041238398,0.36195008787865174,1.3913565995305088,-0.4103202941293096,,-0.5561371624715297,-0.22759666053627053,0.18042541994000003,1.6714385395151437,1.0921355426251653,0.7720074513156481,0.8537994336838777,,-0.03987859174650544,-0.09379617566374027,0.05836094732,-0.08765896690267068,,-3.0897558e-05,-2.9802322e-06,2.861023e-06,1.0,3.028661e-05,2.489984e-05,-3.028661e-05,1.0,3.2782555e-06,-2.489984e-05,-3.3080578e-06,1.0,148,0.448,0,0,0.0,False,-0.260652545964438,1.0286579406220009
0.432731673005037,10:51:46.464524,10:51:30.266063,0,,0.12463713,-0.0014472753,0.020692497,-0.9293073,-0.24549365,-0.27590013,-0.18544325,-0.33586589,0.9234744,-0.31937253,0.9093553,0.26659736,,0.023510411,-0.015154079,0.022326618,-0.23708364,-0.67610925,0.6976156,-0.10595679,0.7318009,0.67323136,-0.9656938,0.08569497,-0.24513647,,0.10931764,1.3586849,0.4585823,0.99613976,0.033264596,-0.081234805,-0.025794264,-0.77364194,-0.63309777,-0.0839064,0.63274926,-0.76979744,,-0.08252707,0.25731632,-0.06503969,0.93157685,0.1191234,0.3434737,-0.36329973,0.3397069,0.86753243,-0.013336971,-0.93295705,0.35974059,,0.038277842,0.44210774,-0.31217846,0.3761385,0.6891698,-0.61932606,-0.6962751,0.6512389,0.30180922,0.61132705,0.31769928,0.72480786,,1.2762665575272167,0.13552623920976592,0.18512317490000002,0.6525551041238398,0.36195008787865174,1.39151995701079,-0.40999360599704104,,-0.5561603306701522,-0.22759666053627053,0.18042801252000001,1.6714385395151437,1.0919989061254,0.7722822266996255,0.8541261218161464,,-0.03987859174650544,-0.09379617566374027,0.05836094732,-0.08765896690267068,,-3.0897558e-05,-2.9802322e-06,2.861023e-06,1.0,3.028661e-05,2.489984e-05,-3.028661e-05,1.0,3.2782555e-06,-2.489984e-05,-3.3080578e-06,1.0,156,0.472,0,0,0.0,False,-0.2608908568385213,1.029092462429016
0.5022445430076914,10:51:46.485552,10:51:30.266063,0,,0.12464517,-0.0014406294,0.020702913,-0.9293013,-0.24553078,-0.275887,-0.18540323,-0.33591193,0.92346567,-0.31941295,0.9093283,0.26664105,,0.023512855,-0.015152082,0.022327095,-0.23706934,-0.6762558,0.6974785,-0.10605031,0.73166895,0.67336,-0.96568704,0.08566514,-0.24517345,,0.10931764,1.3586849,0.4585823,0.99613976,0.033264596,-0.081234805,-0.025794264,-0.77364194,-0.63309777,-0.0839064,0.63274926,-0.76979744,,-0.08253534,0.25732827,-0.065042004,0.9315791,0.11915798,0.34345552,-0.36329597,0.33965388,0.8675548,-0.013279929,-0.93297195,0.35970408,,0.038275454,0.4421094,-0.31217718,0.3761189,0.68931276,-0.6191789,-0.6963421,0.6511295,0.30189082,0.6112628,0.3176135,0.7248996,,1.2762665575272167,0.13559574380563394,0.18511539716000003,0.6525551041238398,0.36195008787865174,1.39151995701079,-0.40999360599704104,,-0.5561757761359007,-0.22759666053627053,0.18042801252000001,1.671228849571659,1.0919989061254,0.7722822266996255,0.8541261218161464,,-0.03987859174650544,-0.09379617566374027,0.05836094732,-0.08765896690267068,,-3.0897558e-05,-2.9802322e-06,2.861023e-06,1.0,3.028661e-05,2.489984e-05,-3.028661e-05,1.0,3.2782555e-06,-2.489984e-05,-3.3080578e-06,1.0,164,0.496,0,0,0.0,False,-0.2604738128088746,1.0291890228305751
0.52331149901147,10:51:46.514663,10:51:30.266063,0,,0.124645755,-0.0014430434,0.020711765,-0.92961437,-0.24546006,-0.27489385,-0.18456087,-0.33555877,0.92376274,-0.3189899,0.9094777,0.26663783,,0.023517363,-0.015154496,0.022326022,-0.23704597,-0.67625386,0.69748825,-0.10606018,0.73167366,0.6733533,-0.9656917,0.08563998,-0.24516404,,0.10931764,1.3586849,0.4585823,0.99613976,0.033264596,-0.081234805,-0.025794264,-0.77364194,-0.63309777,-0.0839064,0.63274926,-0.76979744,,-0.08253705,0.25733227,-0.06505011,0.93193555,0.119110264,0.3425039,-0.3623875,0.3400194,0.86779153,-0.013095105,-0.9328449,0.36004025,,0.038271062,0.44210657,-0.31217727,0.37609613,0.6893149,-0.6191903,-0.6963541,0.65111643,0.30189136,0.6112632,0.31763554,0.72488964,,1.2762897257258394,0.13561118927138238,0.18510632313000003,0.6536035538412625,0.36195008787865174,1.39151995701079,-0.40999360599704104,,-0.5561989443345234,-0.22761210600201898,0.18043060510000003,1.671228849571659,1.0919989061254,0.7722822266996255,0.8541261218161464,,-0.03987859174650544,-0.09379617566374027,0.05836094732,-0.08765896690267068,,-3.0897558e-05,-2.9802322e-06,2.861023e-06,1.0,3.028661e-05,2.489984e-05,-3.028661e-05,1.0,3.2782555e-06,-2.489984e-05,-3.3080578e-06,1.0,176,0.533,0,0,0.0,False,-0.26041423509035333,1.0290441822282368
0.5523724259983283,10:51:46.545445,10:51:30.266063,0,,0.12462182,-0.0014379472,0.020736128,-0.9300917,-0.24519674,-0.27351072,-0.18338615,-0.3352079,0.92412394,-0.31827515,0.9096781,0.26680833,,0.023529336,-0.015154853,0.022325546,-0.23697978,-0.67625415,0.6975106,-0.10605571,0.7316788,0.67334855,-0.96570843,0.08559497,-0.24511373,,0.10931764,1.3586849,0.4585823,0.99613976,0.033264596,-0.081234805,-0.025794264,-0.77364194,-0.63309777,-0.0839064,0.63274926,-0.76979744,,-0.0825152,0.25735176,-0.065068446,0.93246084,0.11886672,0.34115607,-0.36103934,0.34041947,0.8681965,-0.012936501,-0.93273,0.3603434,,0.03825929,0.4421052,-0.31217542,0.3760335,0.68932223,-0.61922026,-0.69636595,0.65109086,0.30191916,0.6112882,0.31767216,0.7248525,,1.276482794047695,0.13561118927138238,0.18508947136,0.6550713834456541,0.36195008787865174,1.3916016357509307,-0.40983026193090644,,-0.5562684489303914,-0.2276198287348932,0.18043449397000003,1.671228849571659,1.0919989061254,0.7722822266996255,0.8541261218161464,,-0.03987859174650544,-0.09379617566374027,0.05836094732,-0.08765896690267068,,-3.0897558e-05,-2.9802322e-06,2.861023e-06,1.0,3.028661e-05,2.489984e-05,-3.028661e-05,1.0,3.2782555e-06,-2.489984e-05,-3.3080578e-06,1.0,191,0.579,0,0,0.0,False,-0.2602355019347904,1.0294304238344725
0.5831669170001987,10:51:46.593845,10:51:30.414743,0,,0.124595985,-0.0014307946,0.02078031,-0.9301447,-0.24500182,-0.27350503,-0.18336712,-0.33540848,0.924055,-0.31813103,0.90965676,0.2670531,,0.023538888,-0.015155092,0.022327274,-0.23705357,-0.6762523,0.6974873,-0.106048584,0.7316736,0.6733552,-0.9656911,0.08565369,-0.24516153,,0.10931764,1.3586849,0.4585823,0.99613976,0.033264596,-0.081234805,-0.025794264,-0.77364194,-0.63309777,-0.0839064,0.63274926,-0.76979744,,-0.08249319,0.25738576,-0.065100566,0.93250126,0.11865496,0.34111932,-0.36093122,0.34025705,0.86830515,-0.013039543,-0.93281627,0.36011642,,0.03824959,0.44210556,-0.31217545,0.37610406,0.6893112,-0.6191896,-0.6963445,0.65112525,0.3018945,0.61126924,0.31762555,0.7248889,,1.2767067533010474,0.13562663473713085,0.18505576782000002,0.6550713834456541,0.36195008787865174,1.391683314491071,-0.4096669178647723,,-0.5563302307933853,-0.22762755146776742,0.18043449397000003,1.671228849571659,1.0918622696256346,0.7723119658631813,0.8542894658822806,,-0.03987859174650544,-0.09379617566374027,0.05836094732,-0.08765896690267068,,-3.0897558e-05,-2.9802322e-06,2.861023e-06,1.0,3.028661e-05,2.489984e-05,-3.028661e-05,1.0,3.2782555e-06,-2.489984e-05,-3.3080578e-06,1.0,199,0.603,0,0,0.0,False,-0.2604738128088746,1.029478704035252
0.631602510009543,10:51:46.622196,10:51:30.414743,0,,0.12457308,-0.0014205873,0.020836905,-0.93013686,-0.24482724,-0.273688,-0.18349181,-0.33571747,0.923918,-0.31808212,0.90958977,0.2673393,,0.023545884,-0.015154719,0.022325248,-0.23701724,-0.6761961,0.69755405,-0.106042355,0.73173046,0.67329454,-0.96570075,0.085612044,-0.2451382,,0.10931764,1.3586849,0.4585823,0.99613976,0.033264596,-0.081234805,-0.025794264,-0.77364194,-0.63309777,-0.0839064,0.63274926,-0.76979744,,-0.082474984,0.25743026,-0.06513955,0.9324757,0.11845644,0.34125817,-0.36099306,0.33998257,0.8683869,-0.013155802,-0.93294156,0.35978743,,0.038243007,0.44210404,-0.3121727,0.37606993,0.6892648,-0.61926204,-0.6963484,0.6511372,0.30185965,0.61128575,0.31770185,0.72484154,,1.2769461580201484,0.1356806938672504,0.18501169396000003,0.6548616935021695,0.36195008787865174,1.3917649932312115,-0.40983026193090666,,-0.5563688444577564,-0.22762755146776742,0.18043838284000002,1.671228849571659,1.0918622696256346,0.7722302871230408,0.8544528099484148,,-0.03987859174650544,-0.09379617566374027,0.05836094732,-0.08765896690267068,,-3.0897558e-05,-2.9802322e-06,2.861023e-06,1.0,3.028661e-05,2.489984e-05,-3.028661e-05,1.0,3.2782555e-06,-2.489984e-05,-3.3080578e-06,1.0,207,0.627,0,0,0.0,False,-0.26053339052739544,1.0291407426297956
0.6599117880105041,10:51:46.643518,10:51:30.414743,0,,0.12455745,-0.0014133006,0.020885438,-0.9301773,-0.24470648,-0.27365875,-0.18345232,-0.3358483,0.92387825,-0.31798685,0.909574,0.26750636,,0.02354905,-0.015156016,0.022323579,-0.23700193,-0.6761952,0.6975602,-0.10604671,0.7317329,0.6732911,-0.96570396,0.08559731,-0.24513042,,0.10931764,1.3586849,0.4585823,0.99613976,0.033264596,-0.081234805,-0.025794264,-0.77364194,-0.63309777,-0.0839064,0.63274926,-0.76979744,,-0.08246349,0.25746736,-0.06517335,0.9325105,0.118324794,0.3412088,-0.36090133,0.3398753,0.86846703,-0.013207258,-0.93299735,0.35964087,,0.038240068,0.4421018,-0.31217188,0.37605512,0.68926626,-0.6192694,-0.6963548,0.65112936,0.30186173,0.6112876,0.31771454,0.7248344,,1.2771315036091297,0.13573475299736998,0.18497280526,0.6548616935021695,0.36195008787865174,1.3917649932312115,-0.40983026193090666,,-0.5563842899235047,-0.22763527420064164,0.18044097542,1.671228849571659,1.0918622696256346,0.7722302871230408,0.8544528099484148,,-0.03987859174650544,-0.09379617566374027,0.05836094732,-0.08765896690267068,,-3.0897558e-05,-2.9802322e-06,2.861023e-06,1.0,3.028661e-05,2.489984e-05,-3.028661e-05,1.0,3.2782555e-06,-2.489984e-05,-3.3080578e-06,1.0,215,0.652,0,0,0.0,False,-0.260652545964438,1.0293338634329134
0.6812777779996395,10:51:46.666354,10:51:30.414743,0,,0.12455219,-0.0014131814,0.020942569,-0.9301795,-0.2447828,-0.2735829,-0.18334283,-0.33588213,0.9238878,-0.31804347,0.9095409,0.2675515,,0.023552403,-0.015155703,0.02232346,-0.23711279,-0.67625076,0.6974686,-0.10603905,0.7316691,0.6733616,-0.9656776,0.08570376,-0.2451972,,0.10931764,1.3586849,0.4585823,0.99613976,0.033264596,-0.081234805,-0.025794264,-0.77364194,-0.63309777,-0.0839064,0.63274926,-0.76979744,,-0.082463846,0.25750488,-0.06521677,0.9325296,0.11840003,0.3411303,-0.3608559,0.3398269,0.8685049,-0.013094258,-0.9330054,0.35962403,,0.0382368,0.44210172,-0.31217107,0.37616095,0.68930185,-0.6191655,-0.69632465,0.6511545,0.30187714,0.6112569,0.31758577,0.72491676,,1.277270512800866,0.13579653486036378,0.18492224995,0.6548616935021695,0.36208672437841716,1.3916535753275152,-0.40983026193090666,,-0.5564074581221274,-0.22763527420064164,0.18044097542,1.671228849571659,1.0917256331258691,0.7723417050267374,0.8544528099484148,,-0.03987859174650544,-0.09379617566374027,0.05836094732,-0.08765896690267068,,-3.0897558e-05,-2.9802322e-06,2.861023e-06,1.0,3.028661e-05,2.489984e-05,-3.028661e-05,1.0,3.2782555e-06,-2.489984e-05,-3.3080578e-06,1.0,223,0.677,0,0,0.0,False,-0.2599376133421849,1.0292373030313546
0.7040831230115145,10:51:46.686613,10:51:30.414743,0,,0.124538496,-0.0014071763,0.021017462,-0.93022585,-0.2446515,-0.27354237,-0.18327932,-0.33605838,0.92383623,-0.3179441,0.9095111,0.2677705,,0.023569554,-0.015153483,0.022325844,-0.23714319,-0.676453,0.69726217,-0.10612056,0.73147845,0.67355585,-0.96566117,0.085735336,-0.24525076,,0.10931764,1.3586849,0.4585823,0.99613976,0.033264596,-0.081234805,-0.025794264,-0.77364194,-0.63309777,-0.0839064,0.63274926,-0.76979744,,-0.08245698,0.25755835,-0.065270856,0.93257254,0.11825459,0.3410634,-0.36074352,0.33967644,0.8686104,-0.0131340455,-0.93307865,0.35943252,,0.038219612,0.44210383,-0.31216887,0.37618455,0.68948764,-0.6189443,-0.69637334,0.6510446,0.30200183,0.61118686,0.31740785,0.7250537,,1.2774944720542183,0.13588920765485446,0.18485873174000003,0.6548616935021695,0.36208672437841716,1.3916535753275152,-0.40983026193090666,,-0.5565155763823666,-0.22764299693351586,0.18044227171000002,1.6710191596281745,1.0915889966261039,0.7724531229304337,0.8544528099484148,,-0.03987859174650544,-0.09379617566374027,0.05836094732,-0.08765896690267068,,-3.0897558e-05,-2.9802322e-06,2.861023e-06,1.0,3.028661e-05,2.489984e-05,-3.028661e-05,1.0,3.2782555e-06,-2.489984e-05,-3.3080578e-06,1.0,238,0.723,0,0,0.0,False,-0.2608908568385213,1.0290441822282368
0.7243460350000532,10:51:46.727810,10:51:30.414743,0,,0.12446885,-0.0013767034,0.021229014,-0.93034214,-0.24410635,-0.27363393,-0.18328032,-0.33677256,0.923576,-0.31760317,0.90939337,0.26857376,,0.023608655,-0.015155137,0.022328109,-0.236922,-0.6764528,0.6973375,-0.106110156,0.7314967,0.67353773,-0.9657166,0.08558124,-0.24508625,,0.10931764,1.3586849,0.4585823,0.99613976,0.033264596,-0.081234805,-0.025794264,-0.77364194,-0.63309777,-0.0839064,0.63274926,-0.76979744,,-0.082405515,0.25771913,-0.0654193,0.93265426,0.117651954,0.34104845,-0.36052224,0.33906844,0.86893976,-0.013406308,-0.9333759,0.3586498,,0.038180586,0.44210157,-0.31216595,0.37597513,0.6895118,-0.6190446,-0.6964161,0.6509575,0.3020909,0.611267,0.31753394,0.72493094,,1.278305359006012,0.136113166908207,0.18468891775000001,0.654652003558685,0.36208672437841716,1.3917352540676557,-0.4099936059970408,,-0.5567472583685934,-0.22767388786501278,0.18045134574000002,1.6710191596281745,1.0915889966261039,0.7724531229304337,0.8544528099484148,,-0.03987859174650544,-0.09379617566374027,0.05836094732,-0.08765896690267068,,-3.0897558e-05,-2.9802322e-06,2.861023e-06,1.0,3.028661e-05,2.489984e-05,-3.028661e-05,1.0,3.2782555e-06,-2.489984e-05,-3.3080578e-06,1.0,246,0.746,0,0,0.0,False,-0.260652545964438,1.0293338634329134
0.7655233039986342,10:51:46.766315,10:51:30.414743,0,,0.12440239,-0.001341179,0.021366537,-0.92974675,-0.2438061,-0.27591577,-0.18517661,-0.33807877,0.9227201,-0.31824604,0.9089892,0.26918036,,0.023645818,-0.0151537955,0.022330254,-0.23709996,-0.6767651,0.69697386,-0.10617763,0.73118556,0.67386484,-0.9656656,0.08577025,-0.24522144,,0.10931764,1.3586849,0.4585823,0.99613976,0.033264596,-0.081234805,-0.025794264,-0.77364194,-0.63309777,-0.0839064,0.63274926,-0.76979744,,-0.082349464,0.25783518,-0.065508634,0.9319297,0.11725783,0.34315825,-0.36236587,0.33782226,0.8686582,-0.014069514,-0.9338772,0.35731685,,0.038143635,0.44210157,-0.3121612,0.37613982,0.68977654,-0.6186495,-0.696422,0.6508669,0.30227247,0.61115897,0.3171444,0.7251925,,1.2789386231016984,0.13623673063419459,0.18458780713000003,0.6521357242368707,0.36208672437841716,1.3917352540676557,-0.4099936059970408,,-0.5569789403548201,-0.22769705606363544,0.18045653090000002,1.6708094696846902,1.0911790871268074,0.772787376641523,0.8544528099484148,,-0.03987859174650544,-0.09379617566374027,0.05836094732,-0.08765896690267068,,-3.0897558e-05,-2.9802322e-06,2.861023e-06,1.0,3.028661e-05,2.489984e-05,-3.028661e-05,1.0,3.2782555e-06,-2.489984e-05,-3.3080578e-06,1.0,254,0.771,0,0,0.0,False,-0.26106958999408425,1.0291890228305751
0.8040762879973045,10:51:46.788047,10:51:30.414743,0,,0.1243309,-0.0013028979,0.021525726,-0.9297728,-0.2433632,-0.2762188,-0.18537578,-0.33874115,0.9224371,-0.31805393,0.9088613,0.26983863,,0.023755282,-0.015111163,0.022337794,-0.23680529,-0.67845017,0.695434,-0.107426316,0.7296886,0.6752881,-0.96559966,0.0852038,-0.24567762,,0.109340556,1.3586855,0.4585866,0.9961384,0.033224575,-0.08126756,-0.02584579,-0.7736437,-0.6330936,-0.0839064,0.63274926,-0.76979744,,-0.082304575,0.2579674,-0.06560602,0.93190104,0.11674564,0.34341064,-0.36242762,0.3372365,0.86886007,-0.014374982,-0.9341531,0.3565829,,0.038021374,0.44212568,-0.31212056,0.3757718,0.69149137,-0.6169564,-0.6973513,0.6494512,0.30317378,0.61032516,0.31631118,0.72625786,,1.2796027781288817,0.13642207622317595,0.18447632619,0.6517163443499017,0.36208672437841716,1.3918169328077963,-0.410156950063175,,-0.5572260678067953,-0.22773566972800657,0.18046171606000003,1.6680835004193915,1.0911790871268074,0.7723789829408202,0.8549428421468173,,-0.03987859174650544,-0.09379617566374027,0.05836094732,-0.08765896690267068,,-8.441508e-06,5.9604645e-08,-2.6226044e-06,0.99999994,-9.536743e-06,-7.838011e-06,9.529293e-06,1.0,-1.0430813e-06,7.838011e-06,1.0430813e-06,1.0,266,0.808,0,0,0.0,False,-0.260652545964438,1.029478704035252
0.8257596050098073,10:51:46.822354,10:51:30.414743,0,,0.124285676,-0.0012638718,0.021660402,-0.9299556,-0.24300772,-0.27591652,-0.18504964,-0.3391159,0.9223649,-0.31770942,0.9088167,0.27039418,,0.023780927,-0.015110865,0.02234292,-0.2367836,-0.67775434,0.6961196,-0.10814583,0.73042864,0.6743726,-0.9655247,0.0843979,-0.24624988,,0.109340556,1.3586855,0.4585866,0.9961384,0.033224575,-0.08126756,-0.02584579,-0.7736437,-0.6330936,-0.0839064,0.63274926,-0.76979744,,-0.082268886,0.25808457,-0.06568794,0.93208236,0.116359025,0.34304968,-0.36195824,0.33692983,0.8691746,-0.014447357,-0.934312,0.35616347,,0.037995294,0.44212762,-0.3121204,0.3757047,0.69096243,-0.61758953,-0.6978458,0.6494366,0.30206522,0.60980093,0.31749493,0.7261816,,1.2801819830944485,0.1366537582094027,0.18437651186,0.6519260342933862,0.36208672437841716,1.3918169328077963,-0.410156950063175,,-0.5573805224642797,-0.22782061978962304,0.18046301235,1.6666156708149995,1.091042450627042,0.7699583599001593,0.8547794980806831,,-0.03987859174650544,-0.09379617566374027,0.05836094732,-0.08765896690267068,,-8.441508e-06,5.9604645e-08,-2.6226044e-06,0.99999994,-9.536743e-06,-7.838011e-06,9.529293e-06,1.0,-1.0430813e-06,7.838011e-06,1.0430813e-06,1.0,281,0.854,0,0,0.0,False,-0.2607121236829584,1.029092462429016
0.8600745520088822,10:51:46.860674,10:51:30.660309,0,,0.124242514,-0.0012077689,0.0218537,-0.9298735,-0.24249189,-0.2766457,-0.1855224,-0.34026802,0.92184544,-0.3176737,0.90852374,0.27141845,,0.023802146,-0.015137523,0.02233386,-0.23784646,-0.67765796,0.69585097,-0.1082384,0.73043966,0.67434573,-0.965253,0.085072845,-0.24708122,,0.109340556,1.3586855,0.4585866,0.9961384,0.033224575,-0.08126756,-0.02584579,-0.7736437,-0.6330936,-0.0839064,0.63274926,-0.76979744,,-0.08223918,0.2582531,-0.065802366,0.9319483,0.11575671,0.3436171,-0.36229023,0.3358761,0.8694441,-0.014768795,-0.93476605,0.35495672,,0.037974454,0.44210023,-0.31212813,0.37670818,0.690765,-0.617199,-0.69766915,0.6498803,0.30151844,0.6093839,0.31701624,0.72674066,,1.2808924745188772,0.13704761758598816,0.18423003109000002,0.651087274519448,0.36195008787865174,1.3920917081917739,-0.41048363819544376,,-0.5575040861902674,-0.22798279717998174,0.18047079009000003,1.6666156708149995,1.0898127221291531,0.7701443336320212,0.8547794980806835,,-0.03987859174650544,-0.09379617566374027,0.05836094732,-0.08765896690267068,,-8.441508e-06,5.9604645e-08,-2.6226044e-06,0.99999994,-9.536743e-06,-7.838011e-06,9.529293e-06,1.0,-1.0430813e-06,7.838011e-06,1.0430813e-06,1.0,289,0.877,0,0,0.0,False,-0.2602355019347904,1.0291407426297956
0.8984091489983257,10:51:46.888941,10:51:30.660309,0,,0.1242315,-0.0011540949,0.021979406,-0.92975116,-0.24352175,-0.2761517,-0.18475443,-0.34019122,0.922028,-0.31847823,0.90827703,0.27130142,,0.023817405,-0.015156895,0.022327244,-0.23790282,-0.67746896,0.6960157,-0.10832569,0.7306256,0.6741302,-0.96522933,0.084981054,-0.24720526,,0.109340556,1.3586855,0.4585866,0.9961384,0.033224575,-0.08126756,-0.02584579,-0.7736437,-0.6330936,-0.0839064,0.63274926,-0.76979744,,-0.08223494,0.2583759,-0.0658632,0.93198603,0.116808094,0.34315866,-0.36223698,0.3357568,0.8695124,-0.013651783,-0.93467814,0.35523286,,0.037959486,0.44208032,-0.31213367,0.37675604,0.6906013,-0.617353,-0.69771576,0.6499481,0.3012643,0.6093009,0.31723377,0.72671527,,1.281363561224205,0.13739514056532826,0.18414317966000002,0.651087274519448,0.36304317987677526,1.391282043702343,-0.4103202941293096,,-0.5575735907861353,-0.22809863817309511,0.18048245670000002,1.6666156708149995,1.0896760856293874,0.7699290365751555,0.8554328743452204,,-0.03987859174650544,-0.09379617566374027,0.05836094732,-0.08765896690267068,,-8.441508e-06,5.9604645e-08,-2.6226044e-06,0.99999994,-9.536743e-06,-7.838011e-06,9.529293e-06,1.0,-1.0430813e-06,7.838011e-06,1.0430813e-06,1.0,297,0.902,0,0,0.0,False,-0.26101001227556386,1.0291407426297956
0.9266440909996163,10:51:46.917593,10:51:30.660309,0,,0.12424164,-0.0011255741,0.022059977,-0.9296388,-0.24531323,-0.2749419,-0.18323272,-0.3395967,0.9225507,-0.31968325,0.90801734,0.27075285,,0.023828387,-0.015169829,0.022321582,-0.23811008,-0.6775679,0.6958485,-0.10837802,0.7305168,0.6742398,-0.9651723,0.08512847,-0.24737692,,0.109340556,1.3586855,0.4585866,0.9961384,0.033224575,-0.08126756,-0.02584579,-0.7736437,-0.6330936,-0.0839064,0.63274926,-0.76979744,,-0.08224987,0.25845045,-0.06590356,0.9321514,0.118668646,0.34206945,-0.36187807,0.3360082,0.8695647,-0.011748076,-0.93435335,0.3561541,,0.037948884,0.44206613,-0.31213635,0.37694943,0.6906713,-0.61715657,-0.69770455,0.6499689,0.30124536,0.6091941,0.3170387,0.7268899,,1.28161068867618,0.13761137708580654,0.18408614290000003,0.6517163443499017,0.364819454373726,1.3902420046549921,-0.4099936059970408,,-0.5576276499162549,-0.22817586550183735,0.18049023444,1.6666156708149995,1.0894028126298567,0.7701518723825482,0.8551061862129519,,-0.03987859174650544,-0.09379617566374027,0.05836094732,-0.08765896690267068,,-8.441508e-06,5.9604645e-08,-2.6226044e-06,0.99999994,-9.536743e-06,-7.838011e-06,9.529293e-06,1.0,-1.0430813e-06,7.838011e-06,1.0430813e-06,1.0,309,0.939,0,0,0.0,False,-0.26095043455704303,1.0298649456414877
0.9552988200011896,10:51:46.956208,10:51:30.660309,0,,0.12422631,-0.0010727644,0.022206739,-0.9288527,-0.24501762,-0.27784696,-0.18531619,-0.34210876,0.9212054,-0.32076544,0.9071538,0.2723629,,0.023841739,-0.015172064,0.022316277,-0.23804313,-0.6775669,0.69587255,-0.10838032,0.7305237,0.67423195,-0.9651886,0.085077316,-0.24733114,,0.109340556,1.3586855,0.4585866,0.9961384,0.033224575,-0.08126756,-0.02584579,-0.7736437,-0.6330936,-0.0839064,0.63274926,-0.76979744,,-0.0822435,0.25858638,-0.06598131,0.93126136,0.118197925,0.34464696,-0.36414832,0.33355072,0.86956304,-0.012176684,-0.9352931,0.35366446,,0.037936408,0.44206014,-0.31213194,0.37688574,0.6906784,-0.61718756,-0.69772124,0.6499406,0.30126783,0.6092144,0.3170813,0.7268543,,1.2820663299157593,0.13798206826376933,0.18397725454000002,0.6487806851411183,0.364819454373726,1.3913038282768198,-0.4103202941293096,,-0.557697154512123,-0.22819131096758583,0.18049930847,1.6666156708149995,1.0894028126298567,0.7701518723825482,0.8547794980806833,,-0.03987859174650544,-0.09379617566374027,0.05836094732,-0.08765896690267068,,-8.441508e-06,5.9604645e-08,-2.6226044e-06,0.99999994,-9.536743e-06,-7.838011e-06,9.529293e-06,1.0,-1.0430813e-06,7.838011e-06,1.0430813e-06,1.0,317,0.963,0,0,0.0,False,-0.2612483231496481,1.0295269842360313
0.993970987998182,10:51:46.980544,10:51:30.660309,0,,0.12421552,-0.0010535717,0.022323743,-0.92882746,-0.2450333,-0.2779175,-0.18527196,-0.34241855,0.92109925,-0.32086408,0.90703267,0.27264994,,0.02385737,-0.015171945,0.022316933,-0.2379552,-0.6775674,0.695902,-0.10837209,0.7305299,0.6742265,-0.96521115,0.085019246,-0.2472629,,0.109340556,1.3586855,0.4585866,0.9961384,0.033224575,-0.08126756,-0.02584579,-0.7736437,-0.6330936,-0.0839064,0.63274926,-0.76979744,,-0.08224225,0.25867748,-0.06605797,0.93125063,0.11819289,0.34467766,-0.36417928,0.33323732,0.8696703,-0.012070623,-0.93540543,0.35337088,,0.037920892,0.4420596,-0.31213003,0.37680274,0.69068813,-0.6172273,-0.6977355,0.64990735,0.30130652,0.6092494,0.3171283,0.7268045,,1.2823984074293509,0.1381983047842476,0.18388132908000002,0.6485709951976338,0.36495609087349146,1.3911924103731232,-0.4103202941293096,,-0.5577898273066136,-0.22819903370046005,0.18050319734,1.6666156708149995,1.0894028126298567,0.7701518723825482,0.8547794980806833,,-0.03987859174650544,-0.09379617566374027,0.05836094732,-0.08765896690267068,,-8.441508e-06,5.9604645e-08,-2.6226044e-06,0.99999994,-9.536743e-06,-7.838011e-06,9.529293e-06,1.0,-1.0430813e-06,7.838011e-06,1.0430813e-06,1.0,328,0.997,0,0,0.0,False,-0.2608312791200009,1.0293338634329134
1.0182803100033198,10:51:47.018423,10:51:30.838201,0,,0.124188825,-0.0010426939,0.022414535,-0.92888904,-0.24525435,-0.27751663,-0.1848351,-0.34234342,0.92121494,-0.320938,0.90700126,0.27266735,,0.023875907,-0.015169874,0.022320807,-0.23784614,-0.6775128,0.69599247,-0.10835326,0.73059046,0.67416394,-0.9652402,0.084934115,-0.24717897,,0.109340556,1.3586855,0.4585866,0.9961384,0.033224575,-0.08126756,-0.02584579,-0.7736437,-0.6330936,-0.0839064,0.63274926,-0.76979744,,-0.08222355,0.25874487,-0.066122636,0.93136436,0.118422605,0.34429133,-0.36389914,0.33327013,0.86977494,-0.011741004,-0.93536466,0.35348982,,0.03790209,0.44206256,-0.31212887,0.3767004,0.69065005,-0.6173324,-0.69774735,0.64989376,0.3013084,0.6092991,0.31723908,0.7267145,,1.282745930408691,0.13828325484586407,0.18380873684000001,0.6487806851411183,0.36536600037278777,1.3908581566620342,-0.4103202941293096,,-0.557905668299727,-0.22819903370046005,0.18050449363,1.6666156708149995,1.0894028126298567,0.7700701936424077,0.8549428421468175,,-0.03987859174650544,-0.09379617566374027,0.05836094732,-0.08765896690267068,,-8.441508e-06,5.9604645e-08,-2.6226044e-06,0.99999994,-9.536743e-06,-7.838011e-06,9.529293e-06,1.0,-1.0430813e-06,7.838011e-06,1.0430813e-06,1.0,341,1.037,0,0,0.0,False,-0.261427056305211,1.0297683852399286
1.0561860200105002,10:51:47.050985,10:51:30.838201,0,,0.1241316,-0.001045987,0.02255091,-0.92864144,-0.24493247,-0.27862734,-0.1858084,-0.34297663,0.92078346,-0.32109243,0.906849,0.27299175,,0.023886435,-0.015167803,0.022319674,-0.23778868,-0.6775151,0.69600976,-0.10833651,0.73059154,0.67416537,-0.9652563,0.08490558,-0.2471261,,0.109340556,1.3586855,0.4585866,0.9961384,0.033224575,-0.08126756,-0.02584579,-0.7736437,-0.6330936,-0.0839064,0.63274926,-0.76979744,,-0.08218057,0.25883102,-0.06623496,0.9310327,0.11805271,0.34531385,-0.36473107,0.3326973,0.8696458,-0.0122209415,-0.93561536,0.35280955,,0.037891973,0.44206268,-0.31212512,0.37664694,0.6906568,-0.6173575,-0.6977489,0.64987606,0.30134296,0.6093304,0.3172606,0.72667885,,1.2832556307783898,0.13827553211298985,0.18369207074000002,0.6475225454802113,0.36536600037278777,1.3907764779218934,-0.4101569500631752,,-0.5579674501627209,-0.22819131096758583,0.1805083825,1.6666156708149995,1.0894028126298567,0.7700701936424077,0.8549428421468175,,-0.03987859174650544,-0.09379617566374027,0.05836094732,-0.08765896690267068,,-8.441508e-06,5.9604645e-08,-2.6226044e-06,0.99999994,-9.536743e-06,-7.838011e-06,9.529293e-06,1.0,-1.0430813e-06,7.838011e-06,1.0430813e-06,1.0,349,1.062,0,0,0.0,False,-0.26136747858668974,1.0295269842360313
1.088723562002997,10:51:47.077707,10:51:30.838201,0,,0.12410871,-0.0010499954,0.022623882,-0.92846084,-0.24508631,-0.27909335,-0.18615589,-0.34317037,0.92064106,-0.32141313,0.9067341,0.27299607,,0.023888983,-0.015168771,0.022320569,-0.23777342,-0.67751426,0.6960159,-0.10834077,0.73059416,0.6741619,-0.96525955,0.08489078,-0.24711841,,0.109340556,1.3586855,0.4585866,0.9961384,0.033224575,-0.08126756,-0.02584579,-0.7736437,-0.6330936,-0.0839064,0.63274926,-0.76979744,,-0.082165465,0.25887552,-0.06629541,0.930849,0.11819596,0.34575978,-0.36520097,0.3324734,0.8695342,-0.0121805025,-0.9356768,0.3526478,,0.037889276,0.44206235,-0.31212604,0.37663215,0.6906583,-0.6173648,-0.6977553,0.64986825,0.30134502,0.60933226,0.31727335,0.72667176,,1.2834950354974908,0.13827553211298985,0.18362855253000002,0.6468934756497576,0.36563927337231866,1.3905536421145004,-0.4101569500631752,,-0.5579828956284693,-0.22819903370046005,0.1805083825,1.6666156708149995,1.0894028126298567,0.7700701936424077,0.8549428421468175,,-0.03987859174650544,-0.09379617566374027,0.05836094732,-0.08765896690267068,,-8.441508e-06,5.9604645e-08,-2.6226044e-06,0.99999994,-9.536743e-06,-7.838011e-06,9.529293e-06,1.0,-1.0430813e-06,7.838011e-06,1.0430813e-06,1.0,357,1.086,0,0,0.0,False,-0.260652545964438,1.0298649456414877
1.1154647740040673,10:51:47.107068,10:51:30.838201,0,,0.124080874,-0.0010542572,0.02273719,-0.92710114,-0.24610183,-0.28269652,-0.18897584,-0.34443554,0.91959345,-0.3236844,0.90597904,0.27281922,,0.023890316,-0.015169904,0.022321105,-0.2377654,-0.6775132,0.69601965,-0.10834628,0.7305963,0.6741587,-0.96526086,0.08488038,-0.24711671,,0.109340556,1.3586855,0.4585866,0.9961384,0.033224575,-0.08126756,-0.02584579,-0.7736437,-0.6330936,-0.0839064,0.63274926,-0.76979744,,-0.08214941,0.25894627,-0.066386916,0.92943037,0.119142585,0.34923375,-0.36879858,0.33100837,0.86857414,-0.012115123,-0.9360761,0.35158885,,0.03788782,0.44206175,-0.312127,0.3766242,0.6906589,-0.61736894,-0.6977608,0.649863,0.30134344,0.6093308,0.31728265,0.7266689,,1.2838039448124599,0.13825236391436718,0.18353133078000003,0.6426996767800671,0.36659572887067676,1.3899370742689068,-0.41048363819544376,,-0.5579906183613434,-0.22820675643333427,0.1805083825,1.6666156708149995,1.0894028126298567,0.7700701936424077,0.8549428421468175,,-0.03987859174650544,-0.09379617566374027,0.05836094732,-0.08765896690267068,,-8.441508e-06,5.9604645e-08,-2.6226044e-06,0.99999994,-9.536743e-06,-7.838011e-06,9.529293e-06,1.0,-1.0430813e-06,7.838011e-06,1.0430813e-06,1.0,369,1.123,0,0,0.0,False,-0.2603546573718325,1.0295269842360313
1.144820557005005,10:51:47.133326,10:51:30.838201,0,,0.12406384,-0.00107342,0.022856489,-0.9258928,-0.24707407,-0.2857917,-0.1909416,-0.34670192,0.91833496,-0.32598126,0.9048493,0.27383205,,0.023892745,-0.015169591,0.02232176,-0.23775084,-0.6773998,0.696135,-0.10834381,0.73070717,0.67403895,-0.9652648,0.08483136,-0.24711844,,0.109340556,1.3586855,0.4585866,0.9961384,0.033224575,-0.08126756,-0.02584579,-0.7736437,-0.6330936,-0.0839064,0.63274926,-0.76979744,,-0.082146205,0.25900984,-0.066491015,0.9282533,0.11997833,0.35206673,-0.37177086,0.32854268,0.86824316,-0.011498583,-0.93683773,0.34957528,,0.03788533,0.44206226,-0.31212693,0.37661055,0.69055974,-0.61748827,-0.6977624,0.6499072,0.30124462,0.60933745,0.3174082,0.7266085,,1.2840587949973092,0.1381983047842476,0.18342244242000003,0.6393446376843147,0.3679620938683311,1.3907015062551755,-0.4093402297325037,,-0.558006063827092,-0.22820675643333427,0.1805083825,1.6666156708149995,1.0894028126298567,0.7699068361621265,0.855269530279086,,-0.03987859174650544,-0.09379617566374027,0.05836094732,-0.08765896690267068,,-8.441508e-06,5.9604645e-08,-2.6226044e-06,0.99999994,-9.536743e-06,-7.838011e-06,9.529293e-06,1.0,-1.0430813e-06,7.838011e-06,1.0430813e-06,1.0,377,1.148,0,0,0.0,False,-0.2607121236829584,1.0299132258422672
1.1710886170039885,10:51:47.163331,10:51:30.838201,0,,0.12404794,-0.0011073947,0.022976115,-0.926033,-0.24774402,-0.28475553,-0.18981817,-0.3464093,0.91867816,-0.32623902,0.9047782,0.27376005,,0.02389218,-0.015170306,0.022316456,-0.23789087,-0.6774546,0.6960338,-0.108341694,0.730642,0.67410994,-0.96523046,0.08495501,-0.24720976,,0.109340556,1.3586855,0.4585866,0.9961384,0.033224575,-0.08126756,-0.02584579,-0.7736437,-0.6330936,-0.0839064,0.63274926,-0.76979744,,-0.0821457,0.25906247,-0.066604786,0.9285346,0.120678924,0.3510841,-0.37109452,0.3287068,0.8684703,-0.010597664,-0.93669015,0.34999892,,0.037886675,0.4420583,-0.31212357,0.37674364,0.6905919,-0.61737114,-0.69772935,0.6499425,0.3012449,0.60929304,0.31726587,0.72670794,,1.284321367915033,0.13814424565412803,0.18330577632000003,0.6401833974582528,0.3689185493666892,1.3904116533701438,-0.41032029412930937,,-0.5579983410942178,-0.22820675643333427,0.18051227137,1.6666156708149995,1.0892661761300912,0.770018254065823,0.855269530279086,,-0.03987859174650544,-0.09379617566374027,0.05836094732,-0.08765896690267068,,-8.441508e-06,5.9604645e-08,-2.6226044e-06,0.99999994,-9.536743e-06,-7.838011e-06,9.529293e-06,1.0,-1.0430813e-06,7.838011e-06,1.0430813e-06,1.0,385,1.172,0,0,0.0,False,-0.2613079008681689,1.030347747649282
1.2010927430092124,10:51:47.189271,10:51:30.838201,0,,0.12403592,-0.001128003,0.023049042,-0.92607147,-0.24761352,-0.28474402,-0.18982446,-0.34646899,0.9186544,-0.32612625,0.904791,0.2738519,,0.02389127,-0.015170604,0.022314906,-0.23789811,-0.6774544,0.69603145,-0.108342946,0.7306416,0.6741101,-0.96522856,0.08495934,-0.24721575,,0.109340556,1.3586855,0.4585866,0.9961384,0.033224575,-0.08126756,-0.02584579,-0.7736437,-0.6330936,-0.0839064,0.63274926,-0.76979744,,-0.08214307,0.2590946,-0.06667443,0.928561,0.120542265,0.35106128,-0.37102583,0.3286721,0.8685128,-0.010691555,-0.9367199,0.3499164,,0.0378878,0.4420571,-0.3121227,0.37675047,0.69059104,-0.61736786,-0.6977286,0.649945,0.30124125,0.6092897,0.31726244,0.72671217,,1.2844680998396432,0.13812107745550536,0.18323318408000003,0.6401833974582528,0.3689185493666892,1.3904116533701438,-0.41032029412930937,,-0.5579906183613434,-0.22820675643333427,0.18051356766,1.6666156708149995,1.0892661761300912,0.770018254065823,0.855269530279086,,-0.03987859174650544,-0.09379617566374027,0.05836094732,-0.08765896690267068,,-8.441508e-06,5.9604645e-08,-2.6226044e-06,0.99999994,-9.536743e-06,-7.838011e-06,9.529293e-06,1.0,-1.0430813e-06,7.838011e-06,1.0430813e-06,1.0,397,1.209,0,0,0.0,False,-0.2607121236829584,1.0311202308617535
1.227031872011139,10:51:47.223781,10:51:31.048400,0,,0.12402629,-0.0011844188,0.02323088,-0.9267613,-0.24698642,-0.28303877,-0.1884577,-0.34609017,0.91907847,-0.32495683,0.9051074,0.27419642,,0.023900092,-0.015169695,0.022316039,-0.23784724,-0.67711425,0.6963798,-0.108334154,0.73097444,0.67375064,-0.9652421,0.0848079,-0.24721497,,0.109340556,1.3586855,0.4585866,0.9961384,0.033224575,-0.08126756,-0.02584579,-0.7736437,-0.6330936,-0.0839064,0.63274926,-0.76979744,,-0.08215719,0.25917122,-0.06684841,0.9292725,0.11993031,0.34938422,-0.36923763,0.32917488,0.8690843,-0.010778957,-0.9366219,0.35017595,,0.03787896,0.44205797,-0.3121217,0.3767027,0.69029415,-0.61772895,-0.6977341,0.6500748,0.30094835,0.6093129,0.3176425,0.7265267,,1.2847461182231152,0.1381365229212538,0.18304651832000002,0.6420706069496135,0.3686452763671583,1.3906344891775366,-0.41032029412930937,,-0.558044677491463,-0.22820675643333427,0.18051486395000002,1.6666156708149995,1.0892661761300912,0.7695281816249796,0.8565762828081604,,-0.03987859174650544,-0.09379617566374027,0.05836094732,-0.08765896690267068,,-8.441508e-06,5.9604645e-08,-2.6226044e-06,0.99999994,-9.536743e-06,-7.838011e-06,9.529293e-06,1.0,-1.0430813e-06,7.838011e-06,1.0430813e-06,1.0,422,1.287,0,0,0.0,False,-0.2613079008681689,1.0323272358812399
1.2615431099984562,10:51:47.299113,10:51:31.048400,0,,0.124041036,-0.00125736,0.023569703,-0.9268416,-0.24604532,-0.28359535,-0.18897308,-0.34698093,0.9186367,-0.32442844,0.9050226,0.27510038,,0.023906998,-0.015168637,0.022308946,-0.23807701,-0.67705554,0.69635844,-0.108314335,0.73101,0.67371523,-0.96518767,0.08497043,-0.2473717,,0.109340556,1.3586855,0.4585866,0.9961384,0.033224575,-0.08126756,-0.02584579,-0.7736437,-0.6330936,-0.0839064,0.63274926,-0.76979744,,-0.08221248,0.25933877,-0.0671471,0.9292464,0.11891407,0.34980068,-0.36928087,0.32846126,0.86933583,-0.01151971,-0.93700194,0.34913415,,0.03787327,0.4420537,-0.31211472,0.3769222,0.6902131,-0.6176857,-0.69766873,0.6502041,0.30082056,0.60925204,0.31755403,0.72661644,,1.2851322548668265,0.13837592764035475,0.18270689034,0.6416512270626445,0.3679620938683311,1.3911915786960187,-0.41032029412930937,,-0.5580832911558342,-0.22819903370046005,0.1805213454,1.6666156708149995,1.0889929031305603,0.7695059812119511,0.8577196912711005,,-0.03987859174650544,-0.09379617566374027,0.05836094732,-0.08765896690267068,,-8.441508e-06,5.9604645e-08,-2.6226044e-06,0.99999994,-9.536743e-06,-7.838011e-06,9.529293e-06,1.0,-1.0430813e-06,7.838011e-06,1.0430813e-06,1.0,430,1.312,0,0,0.0,False,-0.26053339052739544,1.0315547526687687
1.3368054980091983,10:51:47.330865,10:51:31.048400,0,,0.1240566,-0.0012874603,0.0236907,-0.9268413,-0.24575873,-0.2838446,-0.18921328,-0.3472408,0.918489,-0.3242891,0.90500087,0.27533624,,0.023910075,-0.015169337,0.022301793,-0.23806977,-0.6771694,0.6962502,-0.10831314,0.73090035,0.67383444,-0.9651896,0.085006475,-0.24735174,,0.109340556,1.3586855,0.4585866,0.9961384,0.033224575,-0.08126756,-0.02584579,-0.7736437,-0.6330936,-0.0839064,0.63274926,-0.76979744,,-0.08224284,0.2593957,-0.06725492,0.92920744,0.11860542,0.3500089,-0.3693707,0.3282552,0.8693755,-0.011779591,-0.9371133,0.34882656,,0.037871294,0.44204828,-0.3121094,0.37691537,0.69031477,-0.6175762,-0.6976695,0.6501524,0.3009304,0.6092553,0.31743875,0.726664,,1.2852094821955686,0.13847632316771968,0.18258244650000002,0.6414415371191601,0.3676888208688002,1.391332735763271,-0.4101569500631752,,-0.5580910138887084,-0.22819903370046005,0.18052912314000003,1.6666156708149995,1.0889929031305603,0.769669338692232,0.8567396268742948,,-0.03987859174650544,-0.09379617566374027,0.05836094732,-0.08765896690267068,,-8.441508e-06,5.9604645e-08,-2.6226044e-06,0.99999994,-9.536743e-06,-7.838011e-06,9.529293e-06,1.0,-1.0430813e-06,7.838011e-06,1.0430813e-06,1.0,438,1.336,0,0,0.0,False,-0.2602355019347904,1.0314581922672097
1.3686199250078062,10:51:47.355244,10:51:31.048400,0,,0.12407842,-0.0013072342,0.023781896,-0.9264548,-0.24587196,-0.28500617,-0.19014204,-0.34776548,0.91809857,-0.32485002,0.9047686,0.27543837,,0.023914263,-0.015169248,0.022289455,-0.23806322,-0.67717075,0.6962511,-0.10830504,0.7308989,0.6738373,-0.9651921,0.08500828,-0.24734128,,0.109340556,1.3586855,0.4585866,0.9961384,0.033224575,-0.08126756,-0.02584579,-0.7736437,-0.6330936,-0.0839064,0.63274926,-0.76979744,,-0.082275406,0.25944093,-0.06733287,0.9287826,0.11868535,0.35110778,-0.37043366,0.32770526,0.8691307,-0.011906782,-0.9372956,0.348332,,0.03786904,0.44204,-0.31209964,0.37690967,0.6903158,-0.6175785,-0.6976655,0.65015256,0.30093935,0.6092634,0.31743628,0.7266583,,1.285217204928443,0.1385767186950846,0.18248911362000003,0.6401833974582528,0.3676888208688002,1.391332735763271,-0.4101569500631752,,-0.5580987366215826,-0.22819131096758583,0.18054208604000002,1.6666156708149995,1.0889929031305603,0.769669338692232,0.8567396268742948,,-0.03987859174650544,-0.09379617566374027,0.05836094732,-0.08765896690267068,,-8.441508e-06,5.9604645e-08,-2.6226044e-06,0.99999994,-9.536743e-06,-7.838011e-06,9.529293e-06,1.0,-1.0430813e-06,7.838011e-06,1.0430813e-06,1.0,450,1.373,0,0,0.0,False,-0.26017592421626956,1.0315064724679892
1.3930082910083001,10:51:47.390782,10:51:31.215367,0,,0.12411368,-0.0013394654,0.023905605,-0.9263771,-0.24599111,-0.28515577,-0.19022095,-0.34785846,0.918047,-0.32502523,0.90470046,0.2754554,,0.023918927,-0.01516749,0.022279799,-0.23805018,-0.6770597,0.69636357,-0.10828897,0.731006,0.6737236,-0.9651971,0.08497143,-0.2473343,,0.109340556,1.3586855,0.4585866,0.9961384,0.033224575,-0.08126756,-0.02584579,-0.7736437,-0.6330936,-0.0839064,0.63274926,-0.76979744,,-0.08232575,0.25949833,-0.067441314,0.92871463,0.11880019,0.35124877,-0.37060702,0.32758865,0.86910075,-0.011815779,-0.93732184,0.34826455,,0.03786599,0.4420347,-0.31209064,0.37689832,0.69021684,-0.61769605,-0.6976575,0.65020204,0.30085096,0.60927963,0.31755006,0.726595,,1.2852094821955686,0.13872345061969488,0.18235948462,0.6399737075147683,0.3676888208688002,1.3912510570231307,-0.40999360599704104,,-0.5581141820873311,-0.22817586550183735,0.18055245636000003,1.6666156708149995,1.0889929031305603,0.7695059812119508,0.8570663150065634,,-0.03987859174650544,-0.09379617566374027,0.05836094732,-0.08765896690267068,,-8.441508e-06,5.9604645e-08,-2.6226044e-06,0.99999994,-9.536743e-06,-7.838011e-06,9.529293e-06,1.0,-1.0430813e-06,7.838011e-06,1.0430813e-06,1.0,462,1.41,0,0,0.0,False,-0.259282258438454,1.0314099120664302
1.4285443850094453,10:51:47.420467,10:51:31.215367,0,,0.12414552,-0.0013517141,0.023961723,-0.9260905,-0.24805668,-0.28429592,-0.18912145,-0.34681615,0.9186683,-0.32648024,0.9045366,0.27427033,,0.02392231,-0.015168354,0.022271395,-0.2380429,-0.6770598,0.69636595,-0.10828772,0.73100644,0.6737234,-0.965199,0.08496706,-0.24732825,,0.109340556,1.3586855,0.4585866,0.9961384,0.033224575,-0.08126756,-0.02584579,-0.7736437,-0.6330936,-0.0839064,0.63274926,-0.76979744,,-0.082364015,0.25952637,-0.06748671,0.9286879,0.120969445,0.35057837,-0.37072808,0.3282366,0.8688046,-0.009973845,-0.9368175,0.34967613,,0.03786389,0.44202834,-0.31208447,0.3768915,0.6902177,-0.61769927,-0.6976583,0.6501995,0.30085462,0.6092829,0.3175535,0.72659075,,1.2851940367298202,0.13878523248268868,0.18230504044,0.6401833974582528,0.36946509536575095,1.389802624275077,-0.4096669178647723,,-0.5581219048202053,-0.22817586550183735,0.18056153039000003,1.6666156708149995,1.0889929031305603,0.7695059812119508,0.8570663150065634,,-0.03987859174650544,-0.09379617566374027,0.05836094732,-0.08765896690267068,,-8.441508e-06,5.9604645e-08,-2.6226044e-06,0.99999994,-9.536743e-06,-7.838011e-06,9.529293e-06,1.0,-1.0430813e-06,7.838011e-06,1.0430813e-06,1.0,470,1.434,0,0,0.0,False,-0.2594014138754961,1.0312650714640919
1.4582240720046684,10:51:47.447312,10:51:31.215367,0,,0.124183916,-0.0014009923,0.024115548,-0.92595387,-0.24873945,-0.2841444,-0.18871553,-0.34695506,0.9186994,-0.32710212,0.90429586,0.27432334,,0.023927376,-0.015167281,0.02226597,-0.2380218,-0.6770615,0.6963715,-0.10827717,0.73100567,0.67372584,-0.96520543,0.08496019,-0.24730572,,0.109340556,1.3586855,0.4585866,0.9961384,0.033224575,-0.08126756,-0.02584579,-0.7736437,-0.6330936,-0.0839064,0.63274926,-0.76979744,,-0.08242219,0.25959072,-0.067628264,0.92865574,0.12165418,0.35042647,-0.3708279,0.32796365,0.8688651,-0.009226077,-0.9368245,0.3496781,,0.037859753,0.44202527,-0.31207904,0.37687215,0.6902203,-0.61770815,-0.6976559,0.6501945,0.30087087,0.60929763,0.31755787,0.72657645,,1.2852094821955686,0.13888562801005358,0.18214300419,0.6401833974582528,0.37014827786457816,1.3897356071974383,-0.4086868534679666,,-0.558145073018828,-0.22816814276896313,0.18056801184000001,1.6666156708149995,1.0889929031305603,0.7695059812119508,0.8570663150065634,,-0.03987859174650544,-0.09379617566374027,0.05836094732,-0.08765896690267068,,-8.441508e-06,5.9604645e-08,-2.6226044e-06,0.99999994,-9.536743e-06,-7.838011e-06,9.529293e-06,1.0,-1.0430813e-06,7.838011e-06,1.0430813e-06,1.0,499,1.525,0,0,0.0,False,-0.26005676877922745,1.0313133516648714
1.4850627640116727,10:51:47.534447,10:51:31.215367,0,,0.12428491,-0.0014626086,0.024410471,-0.9256896,-0.25114426,-0.28288746,-0.18687642,-0.34659058,0.91921276,-0.32890114,0.90377074,0.2739023,,0.023947373,-0.015164867,0.022261024,-0.2380462,-0.6770629,0.6963618,-0.108248174,0.73099965,0.6737371,-0.9652027,0.08500056,-0.24730262,,0.109340556,1.3586855,0.4585866,0.9961384,0.033224575,-0.08126756,-0.02584579,-0.7736437,-0.6330936,-0.0839064,0.63274926,-0.76979744,,-0.082557365,0.25973928,-0.0678745,0.92876196,0.124123625,0.3492772,-0.37061706,0.3278582,0.86899483,-0.006650614,-0.9365374,0.35050458,,0.03784089,0.44202256,-0.31207088,0.3768972,0.6902153,-0.61769843,-0.6976307,0.65021646,0.30088198,0.60931104,0.3175238,0.72658014,,1.2852326503941913,0.13928721011951326,0.18184485749,0.6408124672887064,0.3723344618608252,1.3888513868798418,-0.40917688566636934,,-0.5582609140119413,-0.2281604200360889,0.18057708587000001,1.6666156708149995,1.0888562666307948,0.7695357203755068,0.8572296590726975,,-0.03987859174650544,-0.09379617566374027,0.05836094732,-0.08765896690267068,,-8.441508e-06,5.9604645e-08,-2.6226044e-06,0.99999994,-9.536743e-06,-7.838011e-06,9.529293e-06,1.0,-1.0430813e-06,7.838011e-06,1.0430813e-06,1.0,507,1.549,0,0,0.0,False,-0.26053339052739544,1.0316513130703273
1.5721837950113695,10:51:47.571528,10:51:31.378036,0,,0.12431655,-0.0014839917,0.024518624,-0.92552483,-0.25135273,-0.28324103,-0.1870442,-0.3469215,0.9190538,-0.32926908,0.9035858,0.2740704,,0.023957834,-0.015165284,0.0222615,-0.23798728,-0.677063,0.69638187,-0.108245015,0.7310044,0.67373246,-0.9652176,0.084959835,-0.24725854,,0.109340556,1.3586855,0.4585866,0.9961384,0.033224575,-0.08126756,-0.02584579,-0.7736437,-0.6330936,-0.0839064,0.63274926,-0.76979744,,-0.08260148,0.2597946,-0.06796479,0.9286173,0.12431342,0.34959412,-0.37098265,0.32748407,0.8689799,-0.0064606424,-0.9366431,0.3502255,,0.037830472,0.4420219,-0.31206995,0.37684146,0.6902217,-0.61772525,-0.6976418,0.6501934,0.30090603,0.6093328,0.3175571,0.72654736,,1.2852403731270656,0.13944166477699774,0.18173467284000003,0.6403930874017374,0.37247109836059067,1.3889033264564263,-0.40917688566636934,,-0.5583226958749351,-0.22816814276896313,0.18057967845000003,1.6666156708149995,1.0888562666307948,0.7695357203755068,0.8572296590726975,,-0.03987859174650544,-0.09379617566374027,0.05836094732,-0.08765896690267068,,-8.441508e-06,5.9604645e-08,-2.6226044e-06,0.99999994,-9.536743e-06,-7.838011e-06,9.529293e-06,1.0,-1.0430813e-06,7.838011e-06,1.0430813e-06,1.0,519,1.586,0,0,0.0,False,-0.2604738128088746,1.0315547526687687
1.6092912200110732,10:51:47.594893,10:51:31.378036,0,,0.124370806,-0.0014940351,0.024633378,-0.92488533,-0.25525072,-0.28184047,-0.18497735,-0.3455644,0.91998297,-0.33222038,0.9030129,0.2723919,,0.023968786,-0.015164182,0.022262156,-0.23805457,-0.67711914,0.69630414,-0.10823038,0.7309429,0.67380154,-0.9652026,0.08504024,-0.24728927,,0.109340556,1.3586855,0.4585866,0.9961384,0.033224575,-0.08126756,-0.02584579,-0.7736437,-0.6330936,-0.0839064,0.63274926,-0.76979744,,-0.082667425,0.25986314,-0.06804942,0.92848843,0.1283691,0.3484689,-0.37135053,0.32807383,0.86860025,-0.002822097,-0.93588936,0.35228267,,0.037819605,0.44202244,-0.31206813,0.3769063,0.6902621,-0.61764055,-0.69761664,0.6502033,0.30094302,0.6093215,0.317449,0.72660404,,1.285294432257185,0.13960384216735647,0.18163096964000003,0.640602777345222,0.3760236473544921,1.386659890881444,-0.410156950063175,,-0.5583922004708032,-0.22816814276896313,0.18058097474,1.6666156708149995,1.0887196301310296,0.7696471382792031,0.8572296590726975,,-0.03987859174650544,-0.09379617566374027,0.05836094732,-0.08765896690267068,,-8.441508e-06,5.9604645e-08,-2.6226044e-06,0.99999994,-9.536743e-06,-7.838011e-06,9.529293e-06,1.0,-1.0430813e-06,7.838011e-06,1.0430813e-06,1.0,527,1.611,0,0,0.0,False,-0.25975888018662197,1.032230675479681
1.6326467100006994,10:51:47.623019,10:51:31.378036,0,,0.12438912,-0.0015143752,0.02474837,-0.92498404,-0.25535268,-0.28142408,-0.18412808,-0.3466634,0.9197398,-0.33241743,0.9025628,0.27364045,,0.023978822,-0.015163124,0.022263706,-0.23799643,-0.6771204,0.6963229,-0.10822025,0.7309458,0.67379993,-0.96521807,0.08500564,-0.24724072,,0.109340556,1.3586855,0.4585866,0.9961384,0.033224575,-0.08126756,-0.02584579,-0.7736437,-0.6330936,-0.0839064,0.63274926,-0.76979744,,-0.082698904,0.25992352,-0.06814605,0.92869407,0.12839909,0.34790948,-0.3708406,0.32694787,0.86924237,-0.0021383278,-0.93627924,0.35125014,,0.037809517,0.4420236,-0.31206712,0.3768517,0.6902687,-0.61766654,-0.69762295,0.65018296,0.30097234,0.609348,0.3174764,0.72656983,,1.2854102732502986,0.13972740589334406,0.18151819241000003,0.6412318471756755,0.37657019335355385,1.3878477940694696,-0.40917688566636934,,-0.558453982333797,-0.22816814276896313,0.18058227103000002,1.6666156708149995,1.0887196301310296,0.7696471382792031,0.8572296590726975,,-0.03987859174650544,-0.09379617566374027,0.05836094732,-0.08765896690267068,,-8.441508e-06,5.9604645e-08,-2.6226044e-06,0.99999994,-9.536743e-06,-7.838011e-06,9.529293e-06,1.0,-1.0430813e-06,7.838011e-06,1.0430813e-06,1.0,535,1.635,0,0,0.0,False,-0.259580147031059,1.0318444338734452
1.6607593360095052,10:51:47.657069,10:51:31.378036,0,,0.124420494,-0.0015196651,0.024882242,-0.9246462,-0.257828,-0.28027502,-0.18242963,-0.34614757,0.9202724,-0.33428848,0.90205693,0.27302852,,0.023992956,-0.015163317,0.022262752,-0.2380484,-0.67717576,0.6962513,-0.10820985,0.7308869,0.67386556,-0.9652064,0.085071236,-0.2472637,,0.109340556,1.3586855,0.4585866,0.9961384,0.033224575,-0.08126756,-0.02584579,-0.7736437,-0.6330936,-0.0839064,0.63274926,-0.76979744,,-0.08274358,0.26000786,-0.06824518,0.9287198,0.13095228,0.34688762,-0.37078208,0.32696816,0.8692597,0.00041033287,-0.93591845,0.35221657,,0.037795704,0.4420219,-0.31206447,0.37690178,0.69031054,-0.6175892,-0.6976041,0.65018505,0.30101138,0.6093386,0.31738105,0.72661936,,1.2855956188392799,0.13991275148232543,0.18139893373000002,0.6416512270626445,0.37902965034933184,1.3867407379444803,-0.4090135416002354,,-0.5585389323954134,-0.22817586550183735,0.18058615990000002,1.6666156708149995,1.0885829936312639,0.7697585561828997,0.8572296590726975,,-0.03987859174650544,-0.09379617566374027,0.05836094732,-0.08765896690267068,,-8.441508e-06,5.9604645e-08,-2.6226044e-06,0.99999994,-9.536743e-06,-7.838011e-06,9.529293e-06,1.0,-1.0430813e-06,7.838011e-06,1.0430813e-06,1.0,547,1.672,0,0,0.0,False,-0.259580147031059,1.0315547526687687
1.6948323899996467,10:51:47.682749,10:51:31.498852,0,,0.12443591,-0.0015213788,0.02499719,-0.9244786,-0.25933385,-0.27943727,-0.18116423,-0.34608725,0.920545,-0.33543816,0.9016483,0.27296817,,0.024013355,-0.015161619,0.022262096,-0.2380648,-0.6772899,0.69613457,-0.10818645,0.730773,0.67399293,-0.9652051,0.08514154,-0.24724507,,0.109340556,1.3586855,0.4585866,0.9961384,0.033224575,-0.08126756,-0.02584579,-0.7736437,-0.6330936,-0.0839064,0.63274926,-0.76979744,,-0.082770236,0.26008222,-0.06833011,0.9287984,0.13248886,0.34609285,-0.3705794,0.32672304,0.8694383,0.0021143737,-0.9357878,0.35255748,,0.03777575,0.44202146,-0.3120599,0.37691885,0.6904071,-0.6174708,-0.6975845,0.65015256,0.3011271,0.60935056,0.3172376,0.72667205,,1.2858041326268839,0.14006720613980994,0.18129782311,0.6420706069496135,0.3806692883465171,1.3863021892416691,-0.40917688566636956,,-0.5586624961214011,-0.22817586550183735,0.18059134506000002,1.6666156708149995,1.0884463571314986,0.7699516528267365,0.8573930031388319,,-0.03987859174650544,-0.09379617566374027,0.05836094732,-0.08765896690267068,,-8.441508e-06,5.9604645e-08,-2.6226044e-06,0.99999994,-9.536743e-06,-7.838011e-06,9.529293e-06,1.0,-1.0430813e-06,7.838011e-06,1.0430813e-06,1.0,572,1.75,0,0,0.0,False,-0.2594014138754961,1.0318444338734452
1.7205096550023882,10:51:47.757901,10:51:31.498852,0,,0.12457367,-0.0014712214,0.02563925,-0.92378056,-0.26719213,-0.27429497,-0.17346048,-0.34661758,0.92182845,-0.34138077,0.8991467,0.27385125,,0.02410321,-0.015166521,0.022262216,-0.237436,-0.6760556,0.6975478,-0.10764179,0.73197126,0.67277867,-0.9654207,0.08465652,-0.24656823,,0.109340556,1.3586855,0.4585866,0.9961384,0.033224575,-0.08126756,-0.02584579,-0.7736437,-0.6330936,-0.0839064,0.63274926,-0.76979744,,-0.082964025,0.26054344,-0.06875843,0.92949253,0.1404552,0.34105125,-0.3686568,0.32456416,0.8710627,0.011652275,-0.9353772,0.35345975,,0.0376868,0.442012,-0.31205007,0.37635687,0.68931955,-0.6190267,-0.69735587,0.6506584,0.30056354,0.60995924,0.31856275,0.72558075,,1.2868853152292754,0.14140323892705078,0.18074949244000002,0.6452159561018814,0.3892773878317398,1.385000373118634,-0.40852350940183246,,-0.5591876419568483,-0.22819903370046005,0.18061856715000002,1.6676641205324223,1.0885829936312639,0.7691868050019157,0.8577196912711003,,-0.03987859174650544,-0.09379617566374027,0.05836094732,-0.08765896690267068,,-8.441508e-06,5.9604645e-08,-2.6226044e-06,0.99999994,-9.536743e-06,-7.838011e-06,9.529293e-06,1.0,-1.0430813e-06,7.838011e-06,1.0430813e-06,1.0,580,1.774,0,0,0.0,False,-0.25868648125324345,1.0333411200976084
1.7956640900083585,10:51:47.785550,10:51:31.498852,0,,0.12465931,-0.0014231056,0.025917709,-0.9232787,-0.2696252,-0.2736031,-0.17138998,-0.34829047,0.92158514,-0.34377596,0.89777285,0.27535805,,0.024163187,-0.015164986,0.022259653,-0.23710494,-0.6764053,0.6973213,-0.10781261,0.7316768,0.6730716,-0.96548307,0.08440848,-0.24640936,,0.109340556,1.3586855,0.4585866,0.9961384,0.033224575,-0.08126756,-0.02584579,-0.7736437,-0.6330936,-0.0839064,0.63274926,-0.76979744,,-0.083070934,0.26076376,-0.068923414,0.9294459,0.14282261,0.34019402,-0.3686591,0.32236427,0.87187827,0.014857527,-0.93577933,0.35227302,,0.03762805,0.44200763,-0.31203845,0.37603143,0.6896885,-0.61881346,-0.6975467,0.65029687,0.30090287,0.6099417,0.3185024,0.72562206,,1.2872560064072383,0.14221412587884436,0.18051616024000003,0.6454256460453659,0.39201011782704864,1.3856307709496254,-0.4073801009388922,,-0.5595351649361884,-0.22823764736483115,0.18063801150000003,1.6672447406454531,1.0885829936312639,0.7692684837420563,0.8582097234695032,,-0.03987859174650544,-0.09379617566374027,0.05836094732,-0.08765896690267068,,-8.441508e-06,5.9604645e-08,-2.6226044e-06,0.99999994,-9.536743e-06,-7.838011e-06,9.529293e-06,1.0,-1.0430813e-06,7.838011e-06,1.0430813e-06,1.0,588,1.799,0,0,0.0,False,-0.2593418361569748,1.032954878491373
1.823313995002536,10:51:47.815183,10:51:31.649893,0,,0.12474672,-0.0013581812,0.026163995,-0.9226268,-0.27250886,-0.27294457,-0.16992296,-0.34809902,0.92192906,-0.3462456,0.89697605,0.27485994,,0.024225034,-0.015171498,0.02226311,-0.23701558,-0.67636675,0.6973891,-0.10770306,0.73171204,0.6730508,-0.9655173,0.08441247,-0.24627405,,0.109340556,1.3586855,0.4585866,0.9961384,0.033224575,-0.08126756,-0.02584579,-0.7736437,-0.6330936,-0.0839064,0.63274926,-0.76979744,,-0.083174706,0.26097566,-0.06905319,0.92919505,0.14577441,0.33962676,-0.36916324,0.32194284,0.8718207,0.017748741,-0.9354692,0.35296226,,0.037566155,0.44200101,-0.31203625,0.37595364,0.6896515,-0.618902,-0.69749236,0.6503235,0.30097136,0.6100519,0.31852815,0.7255181,,1.2875803611879557,0.14306362649500903,0.18031782787000003,0.6450062661583968,0.3944695748228266,1.3840336423837925,-0.40787013313729514,,-0.5599058561141512,-0.22829942922782495,0.18065097440000003,1.6674544305889376,1.0883097206317334,0.7694913195494489,0.8582097234695032,,-0.03987859174650544,-0.09379617566374027,0.05836094732,-0.08765896690267068,,-8.441508e-06,5.9604645e-08,-2.6226044e-06,0.99999994,-9.536743e-06,-7.838011e-06,9.529293e-06,1.0,-1.0430813e-06,7.838011e-06,1.0430813e-06,1.0,596,1.824,0,0,0.0,False,-0.2593418361569748,1.0323755160820194
1.8528552030038554,10:51:47.836697,10:51:31.649893,0,,0.12482172,-0.0013342798,0.026360169,-0.9222296,-0.27466825,-0.27212107,-0.16835122,-0.34832314,0.92213273,-0.34806663,0.8962301,0.2749931,,0.024279222,-0.015183598,0.02225566,-0.23711412,-0.67652345,0.6972036,-0.10772395,0.7315542,0.673219,-0.9654907,0.084524125,-0.24633968,,0.109340556,1.3586855,0.4585866,0.9961384,0.033224575,-0.08126756,-0.02584579,-0.7736437,-0.6330936,-0.0839064,0.63274926,-0.76979744,,-0.083265595,0.26112354,-0.06917381,0.92914397,0.14796102,0.33882004,-0.3691666,0.3212521,0.872074,0.020186316,-0.93536335,0.3531117,,0.037513215,0.4419835,-0.31203076,0.3760459,0.68978167,-0.61870086,-0.6974843,0.6502878,0.3010671,0.6100042,0.31831908,0.72564995,,1.2877502613111886,0.14363510872770166,0.18014801388,0.6452159561018814,0.3965191223193082,1.383505876190314,-0.40721675687275805,,-0.5602147654291202,-0.22839210202231566,0.18067171504,1.6674544305889376,1.0878998111324367,0.7698255732605384,0.8582097234695032,,-0.03987859174650544,-0.09379617566374027,0.05836094732,-0.08765896690267068,,-8.441508e-06,5.9604645e-08,-2.6226044e-06,0.99999994,-9.536743e-06,-7.838011e-06,9.529293e-06,1.0,-1.0430813e-06,7.838011e-06,1.0430813e-06,1.0,604,1.848,0,0,0.0,False,-0.25952056931253775,1.0328100378890346
1.8744186140102101,10:51:47.858225,10:51:31.649893,0,,0.12489148,-0.0013230145,0.026553169,-0.9219121,-0.2758916,-0.27195957,-0.16732657,-0.34957382,0.921846,-0.34939948,0.895367,0.27611226,,0.024297006,-0.015191644,0.022256494,-0.23701528,-0.67637193,0.69738424,-0.10765153,0.73170245,0.6730695,-0.965523,0.084453195,-0.24623725,,0.109340556,1.3586855,0.4585866,0.9961384,0.033224575,-0.08126756,-0.02584579,-0.7736437,-0.6330936,-0.0839064,0.63274926,-0.76979744,,-0.0833523,0.26125973,-0.069300994,0.92906684,0.1491254,0.33852097,-0.3692635,0.31972393,0.8725945,0.021892736,-0.935702,0.35211146,,0.037495155,0.44197682,-0.31203404,0.37595668,0.68965,-0.61890185,-0.6974573,0.6503433,0.3010098,0.61009,0.31849095,0.7255023,,1.2878815477700503,0.1441525318302747,0.17997431102000003,0.6452159561018814,0.3978854873169626,1.384188629436442,-0.40721675687275805,,-0.560315160956485,-0.228438438419561,0.18067690020000002,1.6676641205324223,1.0878998111324367,0.7698255732605384,0.8582097234695032,,-0.03987859174650544,-0.09379617566374027,0.05836094732,-0.08765896690267068,,-8.441508e-06,5.9604645e-08,-2.6226044e-06,0.99999994,-9.536743e-06,-7.838011e-06,9.529293e-06,1.0,-1.0430813e-06,7.838011e-06,1.0430813e-06,1.0,612,1.873,0,0,0.0,False,-0.2599971910607066,1.0330031586921524
1.8959868140082108,10:51:47.886116,10:51:31.649893,0,,0.12499659,-0.0013055056,0.026818901,-0.92101234,-0.2797134,-0.27110267,-0.16516285,-0.3498958,0.9221139,-0.35278532,0.8940545,0.27606001,,0.024328463,-0.015206501,0.02225399,-0.2368458,-0.67635936,0.6974539,-0.10771224,0.7317342,0.67302525,-0.9655579,0.08427887,-0.24616045,,0.109340556,1.3586855,0.4585866,0.9961384,0.033224575,-0.08126756,-0.02584579,-0.7736437,-0.6330936,-0.0839064,0.63274926,-0.76979744,,-0.08348044,0.2614489,-0.06947354,0.928733,0.15300241,0.33770597,-0.3698396,0.31856272,0.87277514,0.025956186,-0.93547213,0.35244605,,0.037463773,0.44196197,-0.31203738,0.3757918,0.6896657,-0.6189845,-0.69753677,0.65025234,0.30102223,0.6101008,0.31864277,0.7254266,,1.2880746160919059,0.14483213232320646,0.17974097882,0.6450062661583968,0.4015746728106295,1.383222314540153,-0.4073801009388922,,-0.560485061079718,-0.22853883394692592,0.18068986310000001,1.6676641205324223,1.0878998111324367,0.7698255732605384,0.8582097234695032,,-0.03987859174650544,-0.09379617566374027,0.05836094732,-0.08765896690267068,,-8.441508e-06,5.9604645e-08,-2.6226044e-06,0.99999994,-9.536743e-06,-7.838011e-06,9.529293e-06,1.0,-1.0430813e-06,7.838011e-06,1.0430813e-06,1.0,620,1.897,0,0,0.0,False,-0.2599971910607066,1.0334376804991676
1.9238750590011477,10:51:47.910663,10:51:31.649893,0,,0.12506697,-0.0013164878,0.02698429,-0.92031455,-0.28045088,-0.2727058,-0.16582213,-0.35170832,0.9213057,-0.35429394,0.89311177,0.27717724,,0.02434662,-0.015218481,0.022251427,-0.236954,-0.6764111,0.6973671,-0.1077728,0.7316805,0.67307395,-0.96552455,0.084330335,-0.24627346,,0.109329574,1.3586863,0.45858607,0.996139,0.033242866,-0.08125259,-0.025822239,-0.7736429,-0.6330955,-0.0839064,0.63274926,-0.76979744,,-0.083560176,0.2615501,-0.06959595,0.9281271,0.15364325,0.33907795,-0.3712997,0.31657028,0.87288016,0.02677014,-0.93604326,0.35086516,,0.03745322,0.44195268,-0.3120401,0.37589425,0.6896897,-0.61889553,-0.697548,0.6502608,0.30097792,0.61002487,0.31857345,0.7255209,,1.2881286752220256,0.14520282350116923,0.17958283144,0.6433287466105208,0.4023944918092221,1.3840240244405044,-0.407706789071161,,-0.5605236747440892,-0.22861606127566816,0.18069764084,1.6676641205324223,1.0877631746326715,0.7699369911642346,0.8582097234695032,,-0.03987859174650544,-0.09379617566374027,0.05836094732,-0.08765896690267068,,-1.9364059e-05,-1.2516975e-06,-1.7881393e-06,0.99999994,8.6613e-06,7.1302056e-06,-8.672476e-06,1.0,9.23872e-07,-7.122755e-06,-9.23872e-07,1.0,645,1.975,0,0,0.0,False,-0.2598780356236645,1.0330031586921524
1.9483969819993945,10:51:47.986679,10:51:31.794853,0,,0.12524113,-0.0012712479,0.027513862,-0.91803026,-0.2882045,-0.27232066,-0.1627967,-0.35227248,0.92162967,-0.36154893,0.8904169,0.27647802,,0.024350345,-0.015231401,0.022233784,-0.23708895,-0.67636853,0.6973624,-0.10772112,0.73170567,0.6730548,-0.9654972,0.084453106,-0.2463386,,0.109329574,1.3586863,0.45858607,0.996139,0.033242866,-0.08125259,-0.025822239,-0.7736429,-0.6330955,-0.0839064,0.63274926,-0.76979744,,-0.08377953,0.26193434,-0.06993812,0.9268906,0.16152136,0.3387989,-0.37374416,0.3142608,0.8726714,0.03448387,-0.9354951,0.35165304,,0.037451614,0.44193116,-0.312035,0.37602574,0.68963015,-0.61888194,-0.6974824,0.65035737,0.3009212,0.6100188,0.3185052,0.725556,,1.2886847119889697,0.14647707442541627,0.17912783365,0.6412318471756755,0.4097728627965559,1.38127460724652,-0.4080334772034293,,-0.560515952011215,-0.22867012040578774,0.1807157889,1.6678738104759065,1.087626538132906,0.7701300878080716,0.8583730675356376,,-0.03987859174650544,-0.09379617566374027,0.05836094732,-0.08765896690267068,,-1.9364059e-05,-1.2516975e-06,-1.7881393e-06,0.99999994,8.6613e-06,7.1302056e-06,-8.672476e-06,1.0,9.23872e-07,-7.122755e-06,-9.23872e-07,1.0,653,2.0,0,0,0.0,False,-0.259282258438454,1.0332445596960498
2.0244178600114537,10:51:48.018087,10:51:31.794853,0,,0.12533844,-0.0011519343,0.027839199,-0.9146373,-0.29647267,-0.27484998,-0.16038734,-0.3579641,0.9198574,-0.37109903,0.8854184,0.27985683,,0.02435191,-0.015232086,0.022227585,-0.23708895,-0.67636853,0.6973624,-0.10772112,0.73170567,0.6730548,-0.9654972,0.084453106,-0.2463386,,0.109329574,1.3586863,0.45858607,0.996139,0.033242866,-0.08125259,-0.025822239,-0.7736429,-0.6330955,-0.0839064,0.63274926,-0.76979744,,-0.08389513,0.2622393,-0.0700904,0.9247165,0.16959809,0.34078726,-0.37814298,0.30656368,0.87351394,0.043673284,-0.93661904,0.34761682,,0.037450988,0.44192645,-0.31203058,0.37602574,0.68963015,-0.61888194,-0.6974824,0.65035737,0.3009212,0.6100188,0.3185052,0.725556,,1.289418371612021,0.14741924783607166,0.17890616806,0.637038048305985,0.4193374177801367,1.382950087844076,-0.40738010093889265,,-0.560515952011215,-0.22867012040578774,0.18072227035000002,1.6678738104759065,1.087626538132906,0.7701300878080716,0.8583730675356376,,-0.03987859174650544,-0.09379617566374027,0.05836094732,-0.08765896690267068,,-1.9364059e-05,-1.2516975e-06,-1.7881393e-06,0.99999994,8.6613e-06,7.1302056e-06,-8.672476e-06,1.0,9.23872e-07,-7.122755e-06,-9.23872e-07,1.0,665,2.037,0,0,0.0,False,-0.2599971910607066,1.0330031586921524
2.05582440100261,10:51:48.046965,10:51:31.794853,0,,0.12536842,-0.0010756254,0.028014183,-0.9136144,-0.29957837,-0.27488458,-0.15847008,-0.36024264,0.91929996,-0.3744276,0.88344675,0.28164852,,0.024355084,-0.015235081,0.022226155,-0.23707366,-0.6762215,0.6975102,-0.10762864,0.7318407,0.67292285,-0.9655113,0.084460184,-0.24628106,,0.109329574,1.3586863,0.45858607,0.996139,0.033242866,-0.08125259,-0.025822239,-0.7736429,-0.6330955,-0.0839064,0.63274926,-0.76979744,,-0.08393393,0.26241216,-0.07016759,0.92422926,0.17262635,0.34058836,-0.3788656,0.30350462,0.8742687,0.04755167,-0.93706197,0.34591,,0.037447926,0.44192308,-0.312031,0.3760172,0.6894904,-0.6190429,-0.6974229,0.6504542,0.3008498,0.6100921,0.31860998,0.72544837,,1.2899435174474683,0.14798300733589007,0.17879079825000002,0.6364089784755314,0.42316323977356907,1.3838326448074638,-0.4068900687404897,,-0.5605313974769633,-0.22867784313866196,0.18072486293,1.6680835004193915,1.087626538132906,0.7701300878080716,0.8583730675356376,,-0.03987859174650544,-0.09379617566374027,0.05836094732,-0.08765896690267068,,-1.9364059e-05,-1.2516975e-06,-1.7881393e-06,0.99999994,8.6613e-06,7.1302056e-06,-8.672476e-06,1.0,9.23872e-07,-7.122755e-06,-9.23872e-07,1.0,673,2.061,0,0,0.0,False,-0.2598780356236645,1.0329065982905934
2.0847177050018217,10:51:48.074572,10:51:31.794853,0,,0.12536673,-0.0009395927,0.02827911,-0.9124712,-0.30111676,-0.27699286,-0.15911789,-0.3625421,0.9182836,-0.37693217,0.8819818,0.28289613,,0.024355538,-0.015236765,0.022222638,-0.2372057,-0.6763324,0.6973578,-0.10763177,0.73172283,0.67305046,-0.96547854,0.08459349,-0.24636379,,0.109329574,1.3586863,0.45858607,0.996139,0.033242866,-0.08125259,-0.025822239,-0.7736429,-0.6330955,-0.0839064,0.63274926,-0.76979744,,-0.08394391,0.2626886,-0.07027791,0.92327464,0.17405176,0.342447,-0.38098088,0.3007856,0.8742892,0.049168438,-0.93767476,0.3440181,,0.037447937,0.44191948,-0.31202945,0.37614238,0.68957394,-0.6188737,-0.6973953,0.65045977,0.30090177,0.6100465,0.31841773,0.7255711,,1.2908702453923753,0.14890973528079698,0.17861709539,0.6334733192667481,0.4249395142705198,1.3836093931615188,-0.4077067890711612,,-0.5605313974769633,-0.22868556587153618,0.18072745551000002,1.6680835004193915,1.0874899016331405,0.7703231844519088,0.858536411601772,,-0.03987859174650544,-0.09379617566374027,0.05836094732,-0.08765896690267068,,-1.9364059e-05,-1.2516975e-06,-1.7881393e-06,0.99999994,8.6613e-06,7.1302056e-06,-8.672476e-06,1.0,9.23872e-07,-7.122755e-06,-9.23872e-07,1.0,689,2.11,0,0,0.0,False,-0.2594609915940169,1.0332928398968293
2.1123336809978355,10:51:48.122435,10:51:31.925511,0,,0.12535277,-0.00069858134,0.028742656,-0.91024554,-0.30702695,-0.2778261,-0.15777302,-0.3631785,0.91826415,-0.38283235,0.87967944,0.28214094,,0.02435638,-0.015246153,0.022217155,-0.23720995,-0.6760352,0.6976444,-0.10746655,0.7319946,0.6727812,-0.9654959,0.084616974,-0.24628767,,0.109329574,1.3586863,0.45858607,0.996139,0.033242866,-0.08125259,-0.025822239,-0.7736429,-0.6330955,-0.0839064,0.63274926,-0.76979744,,-0.083950184,0.2631744,-0.07047055,0.9217884,0.18005954,0.34334338,-0.38380498,0.29870665,0.8737666,0.054771066,-0.93720484,0.34445208,,0.037447505,0.44190875,-0.3120314,0.3761571,0.6892899,-0.6191811,-0.69728184,0.65066075,0.30073014,0.6101671,0.31862193,0.72538,,1.2926619194191953,0.150423390924145,0.17832672643000003,0.6296989002840266,0.4308148837604337,1.3796352107039782,-0.4077067890711612,,-0.5605236747440892,-0.22871645680303307,0.18073393696,1.6685028803063602,1.0874899016331405,0.7703231844519087,0.8588630997340403,,-0.03987859174650544,-0.09379617566374027,0.05836094732,-0.08765896690267068,,-1.9364059e-05,-1.2516975e-06,-1.7881393e-06,0.99999994,8.6613e-06,7.1302056e-06,-8.672476e-06,1.0,9.23872e-07,-7.122755e-06,-9.23872e-07,1.0,718,2.2,0,0,0.0,False,-0.2590439475643693,1.0327134774874756
2.160196322001866,10:51:48.208298,10:51:31.925511,0,,0.12530091,-0.00032278895,0.029651105,-0.9054638,-0.31602117,-0.28331235,-0.15565453,-0.3737532,0.9143742,-0.39485052,0.8720317,0.28922987,,0.02436088,-0.015251979,0.022209823,-0.23732524,-0.6761429,0.69750094,-0.10748744,0.731883,0.6728994,-0.9654653,0.08472334,-0.24637127,,0.109329574,1.3586863,0.45858607,0.996139,0.033242866,-0.08125259,-0.025822239,-0.7736429,-0.6330955,-0.0839064,0.63274926,-0.76979744,,-0.08394829,0.2640533,-0.07091411,0.9184503,0.1886034,0.3476749,-0.3900222,0.28557625,0.87540215,0.06581613,-0.93961424,0.3358471,,0.037443895,0.4418993,-0.31202915,0.37626523,0.6893746,-0.6190211,-0.6972701,0.6506532,0.30077374,0.61011386,0.3184542,0.7254985,,1.2960753673496026,0.15287149724527416,0.17771876642,0.6215209924881302,0.44283889573979246,1.3820005674596367,-0.40787013313729537,,-0.5605391202098375,-0.22874734773452998,0.18074171470000003,1.6685028803063602,1.087353265133375,0.7705162810957458,0.8586997556679059,,-0.03987859174650544,-0.09379617566374027,0.05836094732,-0.08765896690267068,,-1.9364059e-05,-1.2516975e-06,-1.7881393e-06,0.99999994,8.6613e-06,7.1302056e-06,-8.672476e-06,1.0,9.23872e-07,-7.122755e-06,-9.23872e-07,1.0,726,2.225,0,0,0.0,False,-0.26011634649774784,1.0335342409007262
2.2460626660031267,10:51:48.237661,10:51:31.925511,0,,0.12527034,-0.0002451837,0.02984351,-0.90524113,-0.31598788,-0.28405985,-0.15587507,-0.37495685,0.9138437,-0.39527375,0.87152684,0.29017168,,0.0243624,-0.0152519345,0.022208989,-0.23731796,-0.6761999,0.697448,-0.10748622,0.73182833,0.67295897,-0.96546715,0.08473918,-0.24635828,,0.109329574,1.3586863,0.45858607,0.996139,0.033242866,-0.08125259,-0.025822239,-0.7736429,-0.6330955,-0.0839064,0.63274926,-0.76979744,,-0.0839287,0.26423764,-0.07101215,0.91824824,0.18849401,0.3482674,-0.39046296,0.2843375,0.87560886,0.06602155,-0.9400118,0.33469233,,0.037442524,0.44189864,-0.31202826,0.3762584,0.689426,-0.618968,-0.6972709,0.65062606,0.30083054,0.61011714,0.31839836,0.7255202,,1.2968013042397797,0.1533889203478472,0.17759173000000003,0.6204725427707076,0.4431121687393234,1.3820227678726655,-0.40738010093889265,,-0.5605468429427118,-0.22874734773452998,0.18074301099,1.6685028803063602,1.087353265133375,0.7705979598358863,0.8585364116017717,,-0.03987859174650544,-0.09379617566374027,0.05836094732,-0.08765896690267068,,-1.9364059e-05,-1.2516975e-06,-1.7881393e-06,0.99999994,8.6613e-06,7.1302056e-06,-8.672476e-06,1.0,9.23872e-07,-7.122755e-06,-9.23872e-07,1.0,734,2.25,0,0,0.0,False,-0.26005676877922745,1.0334376804991676
2.2754140400065808,10:51:48.263344,10:51:31.925511,0,,0.12523887,-0.00012253225,0.03011395,-0.90402114,-0.31664944,-0.28719115,-0.15778993,-0.3772056,0.9125888,-0.39730087,0.8703155,0.2910378,,0.024361618,-0.015253529,0.022207558,-0.2373245,-0.67619854,0.6974471,-0.107494235,0.7318299,0.6729561,-0.96546465,0.084737405,-0.2463687,,0.109329574,1.3586863,0.45858607,0.996139,0.033242866,-0.08125259,-0.025822239,-0.7736429,-0.6330955,-0.0839064,0.63274926,-0.76979744,,-0.08391113,0.26450717,-0.071139485,0.9170387,0.18903215,0.35115087,-0.39321965,0.28183615,0.8751838,0.06647088,-0.9406568,0.33278582,,0.037443437,0.44189656,-0.31202838,0.37626413,0.689425,-0.6189657,-0.69727486,0.65062594,0.30082163,0.6101091,0.31840083,0.7255259,,1.2978129822463031,0.15419980729964078,0.17741024940000003,0.6164884338445016,0.44393198773791603,1.3814359391906277,-0.40754344500502704,,-0.5605391202098375,-0.2287550704674042,0.18074430728000002,1.6685028803063602,1.087353265133375,0.7705979598358863,0.8585364116017717,,-0.03987859174650544,-0.09379617566374027,0.05836094732,-0.08765896690267068,,-1.9364059e-05,-1.2516975e-06,-1.7881393e-06,0.99999994,8.6613e-06,7.1302056e-06,-8.672476e-06,1.0,9.23872e-07,-7.122755e-06,-9.23872e-07,1.0,742,2.274,0,0,0.0,False,-0.26011634649774784,1.033099719093711
2.3010512970067794,10:51:48.291548,10:51:32.116883,0,,0.12522405,-1.66893e-06,0.030366734,-0.9034061,-0.3183229,-0.2872766,-0.15660658,-0.3787409,0.9121566,-0.39916378,0.86903733,0.2923054,,0.024361156,-0.015255243,0.022204876,-0.23733109,-0.6761972,0.69744617,-0.10750225,0.7318313,0.67295325,-0.9654621,0.0847356,-0.2463791,,0.109329574,1.3586863,0.45858607,0.996139,0.033242866,-0.08125259,-0.025822239,-0.7736429,-0.6330955,-0.0839064,0.63274926,-0.76979744,,-0.08390854,0.264764,-0.0712524,0.9167354,0.19065283,0.35106656,-0.39354026,0.2798142,0.8756883,0.068719044,-0.9409333,0.33154517,,0.037444223,0.44189355,-0.31202757,0.37626982,0.689424,-0.6189633,-0.69727886,0.65062577,0.30081272,0.610101,0.3184033,0.72553164,,1.298801492054204,0.15501841698430857,0.17724691686000002,0.6156496740705635,0.44611817173416307,1.3812868275342964,-0.4095035737986381,,-0.5605313974769633,-0.22876279320027842,0.18074689986,1.6685028803063602,1.087353265133375,0.7705979598358863,0.8585364116017717,,-0.03987859174650544,-0.09379617566374027,0.05836094732,-0.08765896690267068,,-1.9364059e-05,-1.2516975e-06,-1.7881393e-06,0.99999994,8.6613e-06,7.1302056e-06,-8.672476e-06,1.0,9.23872e-07,-7.122755e-06,-9.23872e-07,1.0,754,2.311,0,0,0.0,False,-0.25952056931253775,1.033099719093711
2.3293135590065503,10:51:48.321759,10:51:32.116883,0,,0.12519671,0.00013269484,0.030604765,-0.90175414,-0.32034957,-0.29019925,-0.15763345,-0.38141388,0.91086507,-0.40248126,0.8671215,0.29344362,,0.024361156,-0.015255243,0.022204876,-0.23733109,-0.67614025,0.6975014,-0.10750225,0.73188627,0.67289346,-0.9654621,0.084715486,-0.24638608,,0.109329574,1.3586863,0.45858607,0.996139,0.033242866,-0.08125259,-0.025822239,-0.7736429,-0.6330955,-0.0839064,0.63274926,-0.76979744,,-0.08389068,0.26502118,-0.071347326,0.91531694,0.19256651,0.35371315,-0.39646736,0.27651033,0.8754174,0.07077074,-0.94152015,0.32944095,,0.037444223,0.44189355,-0.31202757,0.37626982,0.68937343,-0.6190196,-0.69727886,0.6506503,0.30075955,0.610101,0.31846255,0.7255056,,1.299805447327853,0.15578296753885681,0.17710562125,0.6116655651443575,0.448577628729941,1.380914880070572,-0.4068900687404897,,-0.5605313974769633,-0.22876279320027842,0.18074689986,1.6685028803063602,1.087353265133375,0.7705162810957458,0.8583730675356378,,-0.03987859174650544,-0.09379617566374027,0.05836094732,-0.08765896690267068,,-1.9364059e-05,-1.2516975e-06,-1.7881393e-06,0.99999994,8.6613e-06,7.1302056e-06,-8.672476e-06,1.0,9.23872e-07,-7.122755e-06,-9.23872e-07,1.0,779,2.389,0,0,0.0,False,-0.2594014138754961,1.0335342409007262
2.3595008150005015,10:51:48.400068,10:51:32.116883,0,,0.12505841,0.00037528574,0.031061158,-0.8991379,-0.32126188,-0.2972233,-0.16170263,-0.38721237,0.90769976,-0.40669793,0.8642091,0.2962084,,0.024364263,-0.015258968,0.022204876,-0.23731431,-0.6761369,0.69751036,-0.1075201,0.73189247,0.67288387,-0.96546423,0.08468853,-0.24638695,,0.109329574,1.3586863,0.45858607,0.996139,0.033242866,-0.08125259,-0.025822239,-0.7736429,-0.6330955,-0.0839064,0.63274926,-0.76979744,,-0.083773,0.26550162,-0.07155126,0.9127143,0.19314809,0.3600645,-0.4022653,0.2702111,0.87473917,0.07166077,-0.94322836,0.32432228,,0.037440978,0.44189054,-0.31202957,0.37625277,0.68937457,-0.61902875,-0.6972948,0.65063715,0.30075115,0.6100933,0.31848708,0.7255013,,1.3020218716627554,0.15699543660011006,0.17683080777000001,0.6032779674049765,0.45062717622642257,1.381040543798218,-0.40787013313729537,,-0.5605468429427118,-0.2287859613989011,0.18074819615,1.6685028803063602,1.087353265133375,0.7705162810957454,0.8590264438001747,,-0.03987859174650544,-0.09379617566374027,0.05836094732,-0.08765896690267068,,-1.9364059e-05,-1.2516975e-06,-1.7881393e-06,0.99999994,8.6613e-06,7.1302056e-06,-8.672476e-06,1.0,9.23872e-07,-7.122755e-06,-9.23872e-07,1.0,787,2.413,0,0,0.0,False,-0.2596993024681016,1.0337756419046236
2.437828164998791,10:51:48.437482,10:51:32.257478,0,,0.12494048,0.00047007203,0.0312908,-0.8977239,-0.32384288,-0.29869282,-0.16077422,-0.3904122,0.9064932,-0.41017473,0.8618028,0.29841685,,0.024363726,-0.01526314,0.022203803,-0.23731947,-0.6761331,0.69751227,-0.10754174,0.73189753,0.67287487,-0.96546066,0.08467455,-0.24640614,,0.109329574,1.3586863,0.45858607,0.996139,0.033242866,-0.08125259,-0.025822239,-0.7736429,-0.6330955,-0.0839064,0.63274926,-0.76979744,,-0.083668806,0.26572207,-0.07167843,0.9117512,0.19560324,0.36117736,-0.40382543,0.26617953,0.87525624,0.075064935,-0.9438685,0.3216791,,0.037441473,0.44188675,-0.31203157,0.37625623,0.6893732,-0.61902815,-0.69730836,0.6506316,0.30073172,0.61007565,0.31850132,0.7255099,,1.3034274090458644,0.15721939585346256,0.17669988248000001,0.6009713780266468,0.4548629077191513,1.381833883270938,-0.4075434450050266,,-0.5605391202098375,-0.22880912959752378,0.18074949244000002,1.6685028803063602,1.087353265133375,0.7705162810957454,0.8590264438001747,,-0.03987859174650544,-0.09379617566374027,0.05836094732,-0.08765896690267068,,-1.9364059e-05,-1.2516975e-06,-1.7881393e-06,0.99999994,8.6613e-06,7.1302056e-06,-8.672476e-06,1.0,9.23872e-07,-7.122755e-06,-9.23872e-07,1.0,799,2.45,0,0,0.0,False,-0.2589247921273281,1.0332445596960498
2.4751911850034958,10:51:48.463657,10:51:32.257478,0,,0.12481648,0.00052021444,0.031478032,-0.8969268,-0.32468122,-0.30017367,-0.16081947,-0.39283326,0.9054386,-0.41189712,0.8603861,0.3001276,,0.024362624,-0.015264556,0.022203684,-0.23732597,-0.67624575,0.69740087,-0.10754982,0.7317891,0.6729915,-0.96545815,0.08471301,-0.24640268,,0.109329574,1.3586863,0.45858607,0.996139,0.033242866,-0.08125259,-0.025822239,-0.7736429,-0.6330955,-0.0839064,0.63274926,-0.76979744,,-0.08355912,0.2658809,-0.07180367,0.9111257,0.1963184,0.3623658,-0.40497798,0.26341087,0.8755613,0.076437704,-0.9444966,0.31950507,,0.037442513,0.44188565,-0.31203255,0.37626192,0.68947333,-0.6189132,-0.69731236,0.6505823,0.30082908,0.6100676,0.31838527,0.7255676,,1.3046012644427465,0.157234841319211,0.17658062380000003,0.5990841685352861,0.45704909171539826,1.3825832377561529,-0.40738010093889243,,-0.5605313974769633,-0.228816852330398,0.18074949244000002,1.6685028803063602,1.087353265133375,0.7706796385760266,0.8586997556679061,,-0.03987859174650544,-0.09379617566374027,0.05836094732,-0.08765896690267068,,-1.9364059e-05,-1.2516975e-06,-1.7881393e-06,0.99999994,8.6613e-06,7.1302056e-06,-8.672476e-06,1.0,9.23872e-07,-7.122755e-06,-9.23872e-07,1.0,807,2.475,0,0,0.0,False,-0.260652545964438,1.0340653231093004
2.5014144190063234,10:51:48.484883,10:51:32.257478,0,,0.124732,0.00056420267,0.03158982,-0.89594054,-0.32590532,-0.30178827,-0.16166595,-0.39356786,0.90496874,-0.41370836,0.8595872,0.29992563,,0.024363846,-0.015264437,0.022203982,-0.2373187,-0.6762458,0.69740313,-0.107548505,0.73178947,0.67299134,-0.96546006,0.08470872,-0.24639666,,0.109329574,1.3586863,0.45858607,0.996139,0.033242866,-0.08125259,-0.025822239,-0.7736429,-0.6330955,-0.0839064,0.63274926,-0.76979744,,-0.08348183,0.2659862,-0.07187082,0.91023797,0.19753122,0.36393443,-0.40679047,0.26231414,0.8750502,0.07738459,-0.94454896,0.3191221,,0.037441265,0.4418859,-0.31203255,0.3762551,0.6894741,-0.6189164,-0.69731313,0.6505798,0.30083275,0.6100709,0.3183887,0.7255633,,1.305373537730169,0.15724256405208525,0.17651840188,0.5965678892134718,0.45868872971258356,1.3814912591322175,-0.4075434450050266,,-0.5605391202098375,-0.228816852330398,0.18074949244000002,1.6685028803063602,1.087353265133375,0.7706796385760266,0.8586997556679061,,-0.03987859174650544,-0.09379617566374027,0.05836094732,-0.08765896690267068,,-1.9364059e-05,-1.2516975e-06,-1.7881393e-06,0.99999994,8.6613e-06,7.1302056e-06,-8.672476e-06,1.0,9.23872e-07,-7.122755e-06,-9.23872e-07,1.0,819,2.512,0,0,0.0,False,-0.260652545964438,1.0335825211015057
2.522638046008069,10:51:48.524376,10:51:32.257478,0,,0.12455782,0.0006611198,0.03183031,-0.89336073,-0.32912123,-0.30591777,-0.16257662,-0.3979409,0.9028908,-0.4188978,0.85634243,0.3019973,,0.024365373,-0.015264422,0.022203088,-0.23731145,-0.67630297,0.6973504,-0.10754728,0.7317349,0.67305094,-0.96546197,0.084724516,-0.24638367,,0.109329574,1.3586863,0.45858607,0.996139,0.033242866,-0.08125259,-0.025822239,-0.7736429,-0.6330955,-0.0839064,0.63274926,-0.76979744,,-0.0833228,0.26621455,-0.072012715,0.9080962,0.20057407,0.36760223,-0.4108445,0.25683787,0.8747806,0.08104414,-0.9454123,0.31563824,,0.037439894,0.44188523,-0.31203166,0.37624827,0.6895255,-0.61886334,-0.6973139,0.6505527,0.30088955,0.6100742,0.31833285,0.72558504,,1.3070725389624982,0.15722711858633678,0.17639006917000002,0.5911159506828741,0.46401755320343574,1.3819650065563502,-0.407706789071161,,-0.5605468429427118,-0.228816852330398,0.18075078873000003,1.6685028803063602,1.087353265133375,0.7707613173161674,0.8591897878663086,,-0.03987859174650544,-0.09379617566374027,0.05836094732,-0.08765896690267068,,-1.9364059e-05,-1.2516975e-06,-1.7881393e-06,0.99999994,8.6613e-06,7.1302056e-06,-8.672476e-06,1.0,9.23872e-07,-7.122755e-06,-9.23872e-07,1.0,844,2.589,0,0,0.0,False,-0.26041423509035333,1.0338722023061826
2.5621410830062814,10:51:48.602135,10:51:32.417923,0,,0.12421961,0.00084756315,0.032293186,-0.88954765,-0.3396208,-0.30555305,-0.15685943,-0.40111497,0.90249753,-0.4290689,0.85074353,0.30353808,,0.024364531,-0.015266746,0.022203088,-0.23731655,-0.6764452,0.69721055,-0.10766575,0.73160744,0.67317045,-0.9654474,0.08468877,-0.24645263,,0.109329574,1.3586863,0.45858607,0.996139,0.033242866,-0.08125259,-0.025822239,-0.7736429,-0.6330955,-0.0839064,0.63274926,-0.76979744,,-0.08301377,0.26665393,-0.07228632,0.90591234,0.21118082,0.36704975,-0.4131491,0.25061283,0.87550044,0.09290152,-0.9447729,0.31428242,,0.03744062,0.4418835,-0.3120333,0.3762455,0.6896653,-0.61870915,-0.69739336,0.6504425,0.30094355,0.60998505,0.31825504,0.7256941,,1.3105477687558993,0.15711127759322344,0.176165811,0.5875512216436373,0.4780911126792762,1.3793919451509402,-0.40787013313729537,,-0.5605391202098375,-0.22884002052902067,0.18075078873000003,1.6682931903628757,1.087353265133375,0.7707613173161673,0.8595164759985778,,-0.03987859174650544,-0.09379617566374027,0.05836094732,-0.08765896690267068,,-1.9364059e-05,-1.2516975e-06,-1.7881393e-06,0.99999994,8.6613e-06,7.1302056e-06,-8.672476e-06,1.0,9.23872e-07,-7.122755e-06,-9.23872e-07,1.0,852,2.614,0,0,0.0,False,-0.2604738128088746,1.0342584439124183
2.639882054005284,10:51:48.624845,10:51:32.417923,0,,0.12414748,0.0009005219,0.032384083,-0.887626,-0.3450474,-0.3050611,-0.1540373,-0.4018098,0.90267456,-0.43404213,0.8482283,0.30350658,,0.024363428,-0.015271544,0.022203267,-0.23732299,-0.67615175,0.69749296,-0.10748002,0.73187387,0.67291045,-0.9654666,0.084730506,-0.24636334,,0.109329574,1.3586863,0.45858607,0.996139,0.033242866,-0.08125259,-0.025822239,-0.7736429,-0.6330955,-0.0839064,0.63274926,-0.76979744,,-0.08294572,0.26675245,-0.07233027,0.90479076,0.21672465,0.36658445,-0.41425496,0.24835728,0.8756206,0.098724656,-0.94411284,0.31449062,,0.037441444,0.4418801,-0.31203675,0.3762636,0.68938196,-0.61901397,-0.69726557,0.6506516,0.30078778,0.61012006,0.31844163,0.72549874,,1.311397269372064,0.15698771386723584,0.17614507036000002,0.5862930819827301,0.48464966466801723,1.3780461440403995,-0.4086868534679666,,-0.5605313974769633,-0.2288477432618949,0.18075078873000003,1.6687125702498449,1.087353265133375,0.7707613173161673,0.8595164759985778,,-0.03987859174650544,-0.09379617566374027,0.05836094732,-0.08765896690267068,,-1.9364059e-05,-1.2516975e-06,-1.7881393e-06,0.99999994,8.6613e-06,7.1302056e-06,-8.672476e-06,1.0,9.23872e-07,-7.122755e-06,-9.23872e-07,1.0,860,2.639,0,0,0.0,False,-0.25952056931253775,1.0343550043139773
2.662608540005749,10:51:48.655998,10:51:32.417923,0,,0.12406072,0.0009765476,0.032522634,-0.88340145,-0.3551585,-0.30571926,-0.14870915,-0.40620402,0.9016007,-0.4443956,0.8419387,0.30602583,,0.024363428,-0.015271544,0.022203267,-0.23732299,-0.67615175,0.69749296,-0.10748002,0.73187387,0.67291045,-0.9654666,0.084730506,-0.24636334,,0.109329574,1.3586863,0.45858607,0.996139,0.033242866,-0.08125259,-0.025822239,-0.7736429,-0.6330955,-0.0839064,0.63274926,-0.76979744,,-0.08286545,0.26689944,-0.07239701,0.90217686,0.22688691,0.3668777,-0.41696662,0.24076426,0.8764539,0.110524885,-0.94369215,0.31181622,,0.037441444,0.4418801,-0.31203675,0.3762636,0.68938196,-0.61901397,-0.69726557,0.6506516,0.30078778,0.61012006,0.31844163,0.72549874,,1.3126251838990657,0.15671741821663798,0.17612173714,0.5833574227739468,0.49776676864549957,1.3787850489052216,-0.406400036542087,,-0.5605313974769633,-0.2288477432618949,0.18075078873000003,1.6687125702498449,1.087353265133375,0.7707613173161673,0.8595164759985778,,-0.03987859174650544,-0.09379617566374027,0.05836094732,-0.08765896690267068,,-1.9364059e-05,-1.2516975e-06,-1.7881393e-06,0.99999994,8.6613e-06,7.1302056e-06,-8.672476e-06,1.0,9.23872e-07,-7.122755e-06,-9.23872e-07,1.0,868,2.663,0,0,0.0,False,-0.2594609915940169,1.034017042908521
2.6937605880084448,10:51:48.682815,10:51:32.417923,0,,0.123969376,0.0010197163,0.032648697,-0.879602,-0.36414734,-0.3060996,-0.14225182,-0.412673,0.89970297,-0.4539435,0.83492386,0.31118736,,0.024365857,-0.015272945,0.02220422,-0.23730835,-0.6760059,0.6976393,-0.10738063,0.7320071,0.67278147,-0.9654813,0.08474368,-0.24630141,,0.109329574,1.3586863,0.45858607,0.996139,0.033242866,-0.08125259,-0.025822239,-0.7736429,-0.6330955,-0.0839064,0.63274926,-0.76979744,,-0.082782835,0.26701337,-0.07247634,0.90002304,0.2357925,0.36655203,-0.41830406,0.2311468,0.8784036,0.122393645,-0.9439137,0.3066704,,0.037438843,0.44187948,-0.31203797,0.37625608,0.6892423,-0.61917394,-0.6972012,0.6507511,0.30072165,0.6101982,0.31854048,0.7253896,,1.3137913165630737,0.1562849451756814,0.17609710763000003,0.5820992831130396,0.5108838726229818,1.3828727821158069,-0.40721675687275805,,-0.5605468429427118,-0.2288477432618949,0.18075078873000003,1.6689222601933293,1.087353265133375,0.7707613173161673,0.8595164759985778,,-0.03987859174650544,-0.09379617566374027,0.05836094732,-0.08765896690267068,,-1.9364059e-05,-1.2516975e-06,-1.7881393e-06,0.99999994,8.6613e-06,7.1302056e-06,-8.672476e-06,1.0,9.23872e-07,-7.122755e-06,-9.23872e-07,1.0,880,2.7,0,0,0.0,False,-0.26112916771260597,1.0342584439124183
2.72054429500713,10:51:48.711059,10:51:32.417923,0,,0.12386756,0.0010294914,0.03269823,-0.87799364,-0.3662719,-0.3081752,-0.14239159,-0.41481814,0.8986938,-0.45700294,0.83292913,0.31205368,,0.024365857,-0.015272945,0.02220422,-0.23730835,-0.675949,0.6976946,-0.10738063,0.73206204,0.6727217,-0.9654813,0.08472353,-0.24630836,,0.109329574,1.3586863,0.45858607,0.996139,0.033242866,-0.08125259,-0.025822239,-0.7736429,-0.6330955,-0.0839064,0.63274926,-0.76979744,,-0.08268587,0.26705173,-0.07252155,0.8987153,0.2378659,0.3684163,-0.42039326,0.2281878,0.87817985,0.124820925,-0.94411343,0.30507308,,0.037438843,0.44187948,-0.31203797,0.37625608,0.68919176,-0.6192303,-0.6972012,0.6507757,0.30066848,0.6101982,0.31859973,0.7253636,,1.314455471590257,0.1558988085319702,0.17608673731000002,0.5793733138477407,0.5142997851171178,1.3831911266487378,-0.40721675687275827,,-0.5605468429427118,-0.2288477432618949,0.18075078873000003,1.6689222601933293,1.087353265133375,0.7706796385760267,0.859353131932443,,-0.03987859174650544,-0.09379617566374027,0.05836094732,-0.08765896690267068,,-1.9364059e-05,-1.2516975e-06,-1.7881393e-06,0.99999994,8.6613e-06,7.1302056e-06,-8.672476e-06,1.0,9.23872e-07,-7.122755e-06,-9.23872e-07,1.0,909,2.79,0,0,0.0,False,-0.26190367805337944,1.0339204825069621
2.7487961250008084,10:51:48.793517,10:51:32.556665,0,,0.12360891,0.0008882284,0.032824993,-0.8655626,-0.39399108,-0.30914766,-0.12968965,-0.41990465,0.89825416,-0.48371676,0.81758857,0.31235716,,0.024364173,-0.015274778,0.02220112,-0.23732214,-0.67606145,0.6975808,-0.10738993,0.7319532,0.6728386,-0.9654768,0.08476631,-0.24631101,,0.109329574,1.3586863,0.45858607,0.996139,0.033242866,-0.08125259,-0.025822239,-0.7736429,-0.6330955,-0.0839064,0.63274926,-0.76979744,,-0.08245701,0.2670245,-0.07274472,0.89034665,0.26626664,0.36930326,-0.4281558,0.21387087,0.8780329,0.15480767,-0.93987304,0.30442283,,0.037440877,0.4418762,-0.3120372,0.3762686,0.68929106,-0.6191121,-0.6972044,0.65072894,0.3007622,0.6101868,0.31848028,0.72542566,,1.3163243729458192,0.15311090196437513,0.17610229279000003,0.5711954060518444,0.5490054560575397,1.3799663523329995,-0.4077067890711612,,-0.5605313974769633,-0.2288554659947691,0.18075338131000002,1.6689222601933293,1.087353265133375,0.7708429960563079,0.8593531319324434,,-0.03987859174650544,-0.09379617566374027,0.05836094732,-0.08765896690267068,,-1.9364059e-05,-1.2516975e-06,-1.7881393e-06,0.99999994,8.6613e-06,7.1302056e-06,-8.672476e-06,1.0,9.23872e-07,-7.122755e-06,-9.23872e-07,1.0,917,2.815,0,0,0.0,False,-0.2607121236829584,1.0343067241131978
