AlexandreBanks6/ExpertPlaybackApp/resources/Motions/Pilot_03/PC1/OneHanded_02.csv
Task Time,PC1 Time,PC2 Time,Gaze Calib,s_T_psm1,Tx,Ty,Tz,R00,R01,R02,R10,R11,R12,R20,R21,R22,s_T_psm3,Tx,Ty,Tz,R00,R01,R02,R10,R11,R12,R20,R21,R22,cart_T_ecm,Tx,Ty,Tz,R00,R01,R02,R10,R11,R12,R20,R21,R22,ecm_T_psm1,Tx,Ty,Tz,R00,R01,R02,R10,R11,R12,R20,R21,R22,ecm_T_psm3,Tx,Ty,Tz,R00,R01,R02,R10,R11,R12,R20,R21,R22,psm1_joints,q1,q2,q3,q4,q5,q6,jaw,psm3_joints,q1,q2,q3,q4,q5,q6,jaw,ecm_joints,q1,q2,q3,q4,ecmi_T_ecm,Tx,Ty,Tz,R00,R01,R02,R10,R11,R12,R20,R21,R22,Sample #,Task Duration (s),Collisions (binary),Collisions (increments),Cumulative Collision Time (s),Clutch Press,MTMR Angle,MTML Angle
""
lci_T_si,,,,,-0.071118124,0.013903125,0.25454396,0.9901862,-0.08084544,0.11399696,0.013384873,-0.7570853,-0.6531789,0.13911195,0.64829457,-0.7485733
rci_T_si,,,,,-0.08147662,0.01856703,0.26535848,0.98740834,-0.096447565,0.12539017,0.012030307,-0.74456626,-0.6674401,0.15773426,0.6605444,-0.73403066
ecm_T_lc,,,,,-4.4061628e-05,-0.00034663224,-0.01840835,-0.99912,0.030754527,0.028518902,-0.031987965,-0.99852574,-0.043852776,0.027128186,-0.04472645,0.9986309
ecm_T_rc,,,,,-0.0043358393,0.01870579,-0.007592615,-0.99555075,-0.052743673,-0.078081585,0.04863213,-0.9973746,0.053654674,-0.08070653,0.04961868,0.9955021
cart_T_ecmi,,,,,0.10934876,1.3586837,0.45858383,0.9961387,0.033234157,-0.08125972,-0.025833456,-0.77364326,-0.6330946,-0.0839064,0.63274926,-0.76979744
ecmac_T_ecmrep_psm1,,,,,0.011947535,-0.24624088,-0.3140189,0.99787813,0.060519684,0.024013558,-0.059408683,0.9972389,-0.04455629,-0.026643785,0.04303513,0.9987182
ecmac_T_ecmrep_psm3,,,,,-0.020729378,-0.4297972,-0.5440064,0.99962926,-0.018584386,0.019899037,0.019259674,0.999226,-0.034299888,-0.019246193,0.03467042,0.99921346
""
0,10:49:31.077502,10:49:14.823730,0,,0.123220444,-0.0018945783,0.013931572,-0.98953503,-0.08106971,-0.119365744,-0.097753525,-0.23184001,0.9678297,-0.10613543,0.96936977,0.2214889,,0.023702718,-0.011970162,0.01716125,0.07104179,-0.7083175,0.70230985,-0.33560485,0.6460668,0.6855414,-0.9393201,-0.28440076,-0.1918172,,0.109326355,1.3586867,0.45858103,0.9961388,0.033236478,-0.08125782,-0.025830468,-0.77364314,-0.63309485,-0.0839064,0.63274926,-0.76979744,,-0.08051466,0.252525,-0.060470372,0.9795184,-0.03861543,0.1976172,-0.15813684,0.4600122,0.87371707,-0.124645285,-0.8870725,0.44448388,,0.03902287,0.44111505,-0.30623764,0.057015855,0.7732988,-0.63147295,-0.8720018,0.34657717,0.3456835,0.48617074,0.5309361,0.6940784,,1.2658949272771332,0.12710846037686122,0.19090462830000002,0.8456795420730867,0.20427156714933348,1.376423313969211,-0.3993762416983129,,-0.5635046496335397,-0.24654824700961747,0.18677724094,0.7704008523621425,1.2953140177763756,-0.06841904378211539,0.8735640656861253,,-0.03987859174650544,-0.09379617566374027,0.05836094732,-0.08765896690267068,,-2.2154301e-05,-4.7683716e-06,2.026558e-06,0.99999994,2.3022294e-06,1.899898e-06,-2.3134053e-06,1.0,2.3841858e-07,-1.899898e-06,-2.3841858e-07,1.0,36,0.109,0,1,0.029,False,-0.2589843698458485,1.047390658524431
0.12689225700160023,10:49:31.109943,10:49:14.823730,0,,0.12332733,-0.0017432868,0.013974443,-0.9895701,-0.08145353,-0.1188122,-0.096954085,-0.23340797,0.96753323,-0.10654072,0.96896124,0.22307628,,0.02378714,-0.012078345,0.01718843,0.06692964,-0.7052976,0.7057447,-0.33438206,0.6505706,0.6818698,-0.94005793,-0.28162575,-0.19229656,,0.109326355,1.3586867,0.45858103,0.9961388,0.033236478,-0.08125782,-0.025830468,-0.77364314,-0.63309485,-0.0839064,0.63274926,-0.76979744,,-0.08060883,0.25266886,-0.06038921,0.9796762,-0.038359456,0.19688341,-0.15780023,0.4585555,0.8745433,-0.12382897,-0.88783747,0.44318277,,0.03893025,0.44104588,-0.3063164,0.06124586,0.77010906,-0.63496536,-0.8712972,0.35159114,0.34238115,0.48691902,0.5322741,0.69252735,,1.2658794818113848,0.1281433065820073,0.19090981346000002,0.8460989219600556,0.20427156714933348,1.3773217801107571,-0.3992128976321787,,-0.5634119768390491,-0.2466872562013535,0.18677075949000002,0.7852888383495437,1.2938110162789558,-0.058780536606976574,0.873237377553857,,-0.03987859174650544,-0.09379617566374027,0.05836094732,-0.08765896690267068,,-2.2154301e-05,-4.7683716e-06,2.026558e-06,0.99999994,2.3022294e-06,1.899898e-06,-2.3134053e-06,1.0,2.3841858e-07,-1.899898e-06,-2.3841858e-07,1.0,48,0.147,0,1,0.029,False,-0.2599376133421849,1.04748721892599
0.15936425699328538,10:49:31.142067,10:49:14.954374,0,,0.12351893,-0.0014982373,0.014046103,-0.9893533,-0.08372386,-0.119039394,-0.09648414,-0.23502052,0.9671898,-0.108953565,0.9683778,0.22444022,,0.02377367,-0.012096718,0.017224252,0.06808292,-0.7099937,0.700909,-0.33190605,0.64640427,0.6870223,-0.9408523,-0.27941048,-0.19164222,,0.109326355,1.3586867,0.45858103,0.9961388,0.033236478,-0.08125782,-0.025830468,-0.77364314,-0.63309485,-0.0839064,0.63274926,-0.76979744,,-0.080779865,0.2529036,-0.060256775,0.9797463,-0.036223944,0.19693924,-0.15902582,0.4569223,0.8751759,-0.121688254,-0.88876873,0.44190738,,0.03893721,0.4410563,-0.30635694,0.060346164,0.77420926,-0.6300463,-0.87002563,0.3502046,0.34700453,0.48929924,0.527216,0.6947154,,1.2658099772155167,0.12982686234858823,0.19091629491,0.8452601621861177,0.20550129564722242,1.3773808425993168,-0.40068299422738707,,-0.563234353982942,-0.2467413153314731,0.18675909288,0.788224497558327,1.2966803827740299,-0.049440252744501256,0.8729106894215881,,-0.03987859174650544,-0.09379617566374027,0.05836094732,-0.08765896690267068,,-2.2154301e-05,-4.7683716e-06,2.026558e-06,0.99999994,2.3022294e-06,1.899898e-06,-2.3134053e-06,1.0,2.3841858e-07,-1.899898e-06,-2.3841858e-07,1.0,56,0.171,0,1,0.029,False,-0.25975888018662197,1.047680339729108
0.19147121399873868,10:49:31.167841,10:49:14.954374,0,,0.12363298,-0.0013648123,0.014087051,-0.9890756,-0.08684145,-0.11911335,-0.09583008,-0.23519531,0.9672123,-0.11200902,0.96806073,0.22430387,,0.023758546,-0.012096256,0.017228782,0.06832071,-0.7097496,0.70113325,-0.33148387,0.6466998,0.68694806,-0.9409839,-0.27934718,-0.19108766,,0.109326355,1.3586867,0.45858103,0.9961388,0.033236478,-0.08125782,-0.025830468,-0.77364314,-0.63309485,-0.0839064,0.63274926,-0.76979744,,-0.08088281,0.25303283,-0.060184732,0.9798381,-0.03312568,0.19702809,-0.16053332,0.4565359,0.8751023,-0.11893875,-0.8890881,0.44201347,,0.03895147,0.44106063,-0.3063622,0.06015155,0.7739726,-0.63035566,-0.869809,0.35045287,0.34729686,0.4897082,0.5273985,0.6942886,,1.2657945317497683,0.13071497662912404,0.19092018378000003,0.8444214024121796,0.20796075264300035,1.3764371439546088,-0.3992128976321787,,-0.5631416811884512,-0.24673359259859887,0.18675520401,0.7884341875018116,1.2972269287730915,-0.049640888138865025,0.8730740334877226,,-0.03987859174650544,-0.09379617566374027,0.05836094732,-0.08765896690267068,,-2.2154301e-05,-4.7683716e-06,2.026558e-06,0.99999994,2.3022294e-06,1.899898e-06,-2.3134053e-06,1.0,2.3841858e-07,-1.899898e-06,-2.3841858e-07,1.0,64,0.196,0,1,0.029,False,-0.2598184579051428,1.04748721892599
0.2172612400026992,10:49:31.198238,10:49:14.954374,0,,0.12378886,-0.0011618882,0.014148876,-0.98900414,-0.08763578,-0.11912544,-0.09536054,-0.2377787,0.9666269,-0.11303659,0.9673579,0.22680709,,0.023747638,-0.012095407,0.017229497,0.06835581,-0.7093501,0.7015339,-0.33138677,0.6471096,0.68660897,-0.94101554,-0.27941284,-0.1908356,,0.109326355,1.3586867,0.45858103,0.9961388,0.033236478,-0.08125782,-0.025830468,-0.77364314,-0.63309485,-0.0839064,0.63274926,-0.76979744,,-0.08102192,0.2532288,-0.060077336,0.97991663,-0.03254076,0.19673455,-0.16085234,0.45411384,0.87630314,-0.11785545,-0.8903492,0.43975943,,0.038962163,0.44106242,-0.3063638,0.060126346,0.7736078,-0.63080573,-0.8697588,0.3506929,0.3471803,0.48980048,0.5277741,0.693938,,1.2657250271539002,0.13213595947798137,0.19092277636000002,0.844211712468695,0.2080973891427658,1.3779593008537234,-0.4005196501612527,,-0.5630798993254574,-0.24672586986572465,0.18675261143000002,0.7884341875018116,1.297363565272857,-0.05024237848340518,0.872747345355454,,-0.03987859174650544,-0.09379617566374027,0.05836094732,-0.08765896690267068,,-2.2154301e-05,-4.7683716e-06,2.026558e-06,0.99999994,2.3022294e-06,1.899898e-06,-2.3134053e-06,1.0,2.3841858e-07,-1.899898e-06,-2.3841858e-07,1.0,72,0.22,0,1,0.029,False,-0.2599971910607066,1.0481631417369022
0.24767143199278507,10:49:31.217716,10:49:14.954374,0,,0.12389764,-0.0010281652,0.014187828,-0.9890045,-0.08816355,-0.11873201,-0.094769776,-0.23850527,0.966506,-0.11352882,0.9671309,0.22752756,,0.023743644,-0.012096152,0.017228544,0.06824414,-0.7092063,0.70169014,-0.33148795,0.6472527,0.6864252,-0.940988,-0.2794464,-0.19092217,,0.109326355,1.3586867,0.45858103,0.9961388,0.033236478,-0.08125782,-0.025830468,-0.77364314,-0.63309485,-0.0839064,0.63274926,-0.76979744,,-0.08111941,0.25335687,-0.06000435,0.9800268,-0.03207217,0.19626218,-0.16072968,0.4534089,0.87669057,-0.11710439,-0.8907254,0.43919793,,0.038966227,0.4410615,-0.30636412,0.060227573,0.77347773,-0.6309555,-0.8698098,0.3507695,0.3469751,0.48969743,0.5279138,0.69390446,,1.265647799825158,0.1330935783543852,0.19092536894,0.8444214024121796,0.2080973891427658,1.3780409795938642,-0.40068299422738707,,-0.5630567311268347,-0.24672586986572465,0.18675131514,0.7884341875018116,1.2972269287730915,-0.0504576755402707,0.8730740334877225,,-0.03987859174650544,-0.09379617566374027,0.05836094732,-0.08765896690267068,,-2.2154301e-05,-4.7683716e-06,2.026558e-06,0.99999994,2.3022294e-06,1.899898e-06,-2.3134053e-06,1.0,2.3841858e-07,-1.899898e-06,-2.3841858e-07,1.0,80,0.245,0,1,0.029,False,-0.2603546573718325,1.0476320595283284
0.2671496379916789,10:49:31.247584,10:49:15.066729,0,,0.12407224,-0.0008472502,0.014235273,-0.9890008,-0.08915974,-0.1180166,-0.09375413,-0.23924479,0.9664223,-0.114400804,0.96685696,0.22825408,,0.023742944,-0.012104496,0.0172292,0.06814814,-0.7092781,0.7016269,-0.33162993,0.6471683,0.6864363,-0.9409449,-0.2794599,-0.19111463,,0.109326355,1.3586867,0.45858103,0.9961388,0.033236478,-0.08125782,-0.025830468,-0.77364314,-0.63309485,-0.0839064,0.63274926,-0.76979744,,-0.08127795,0.2535271,-0.059897795,0.98021436,-0.031136703,0.19547446,-0.16053562,0.45265642,0.87711483,-0.115793236,-0.89114124,0.4387018,,0.03896642,0.4410557,-0.3063702,0.060309023,0.77354664,-0.63086325,-0.8698824,0.35070163,0.34686166,0.48955843,0.52785796,0.69404507,,1.2654161178389312,0.13446050207312293,0.1909305541,0.8448407822991487,0.20823402564253127,1.3779295616901677,-0.40068299422738707,,-0.5630490083939605,-0.24677220626296997,0.18675001885,0.7884341875018116,1.2970902922733263,-0.05034625763657452,0.873400721619991,,-0.03987859174650544,-0.09379617566374027,0.05836094732,-0.08765896690267068,,-2.2154301e-05,-4.7683716e-06,2.026558e-06,0.99999994,2.3022294e-06,1.899898e-06,-2.3134053e-06,1.0,2.3841858e-07,-1.899898e-06,-2.3841858e-07,1.0,88,0.27,0,1,0.029,False,-0.2607717014014801,1.04748721892599
0.2970129460009048,10:49:31.274266,10:49:15.066729,0,,0.124233946,-0.00069124997,0.014270261,-0.9886172,-0.0900567,-0.12052369,-0.09581068,-0.24080163,0.9658337,-0.116002105,0.9663873,0.22943217,,0.023743205,-0.012107164,0.017229497,0.06814875,-0.70933247,0.70157176,-0.33164415,0.64711046,0.68648386,-0.9409398,-0.27945527,-0.19114634,,0.109326355,1.3586867,0.45858103,0.9961388,0.033236478,-0.08125782,-0.025830468,-0.77364314,-0.63309485,-0.0839064,0.63274926,-0.76979744,,-0.081425115,0.25367016,-0.059799876,0.97977614,-0.03036574,0.1977793,-0.1631322,0.45116028,0.87740654,-0.11587327,-0.89192617,0.43708247,,0.03896599,0.44105387,-0.30637214,0.060306977,0.77359694,-0.63080174,-0.86988986,0.35066468,0.3468803,0.4895454,0.5278087,0.6940917,,1.2651149312568366,0.13565752566862774,0.19093833184000003,0.8421148130338498,0.20782411614323493,1.3781821366611164,-0.4005196501612527,,-0.5630490083939605,-0.24678765172871844,0.18675001885,0.7884341875018116,1.2970902922733263,-0.05026457889643399,0.8732373775538567,,-0.03987859174650544,-0.09379617566374027,0.05836094732,-0.08765896690267068,,-2.2154301e-05,-4.7683716e-06,2.026558e-06,0.99999994,2.3022294e-06,1.899898e-06,-2.3134053e-06,1.0,2.3841858e-07,-1.899898e-06,-2.3841858e-07,1.0,100,0.306,0,1,0.029,False,-0.2607717014014801,1.0476320595283284
0.3236810969974613,10:49:31.301582,10:49:15.066729,0,,0.12432186,-0.0006137639,0.014277965,-0.98863244,-0.090220615,-0.12027568,-0.09546837,-0.24131736,0.9657389,-0.11615417,0.9662433,0.22996092,,0.023744531,-0.0121108,0.017231584,0.068156585,-0.70932573,0.7015779,-0.33166456,0.64710885,0.6864755,-0.9409321,-0.27947646,-0.19115356,,0.109326355,1.3586867,0.45858103,0.9961388,0.033236478,-0.08125782,-0.025830468,-0.77364314,-0.63309485,-0.0839064,0.63274926,-0.76979744,,-0.081504785,0.25373498,-0.05974292,0.9798418,-0.030243324,0.1974723,-0.16297399,0.4506743,0.87768567,-0.11553983,-0.89217603,0.43666065,,0.038964186,0.44105238,-0.30637586,0.06029709,0.77359337,-0.6308071,-0.86990064,0.35064915,0.3468689,0.48952743,0.52782434,0.6940925,,1.264921862934981,0.1362753442985657,0.19094999845000002,0.8423245029773343,0.20755084314370403,1.378404972468509,-0.4005196501612527,,-0.5630567311268347,-0.2468108199273411,0.18674872256000002,0.7884341875018116,1.2970902922733263,-0.05026457889643399,0.8732373775538567,,-0.03987859174650544,-0.09379617566374027,0.05836094732,-0.08765896690267068,,-2.2154301e-05,-4.7683716e-06,2.026558e-06,0.99999994,2.3022294e-06,1.899898e-06,-2.3134053e-06,1.0,2.3841858e-07,-1.899898e-06,-2.3841858e-07,1.0,108,0.331,0,1,0.029,False,-0.2599971910607066,1.0478734605322257
0.3510168969951337,10:49:31.332071,10:49:15.066729,0,,0.12447615,-0.0005110949,0.01428467,-0.98861176,-0.090885185,-0.119944505,-0.094926275,-0.24184766,0.9656596,-0.116772465,0.96604836,0.23046598,,0.02374202,-0.0121111125,0.017230928,0.06814272,-0.70933086,0.7015741,-0.33166656,0.64710724,0.68647605,-0.9409324,-0.2794671,-0.1911658,,0.109326355,1.3586867,0.45858103,0.9961388,0.033236478,-0.08125782,-0.025830468,-0.77364314,-0.63309485,-0.0839064,0.63274926,-0.76979744,,-0.081647426,0.25381914,-0.059659474,0.9799384,-0.029621948,0.19708696,-0.16297045,0.45013642,0.8779623,-0.114722975,-0.89246833,0.43627846,,0.038966756,0.44105187,-0.30637592,0.060310725,0.77359694,-0.6308014,-0.8699015,0.35065436,0.34686154,0.4895243,0.5278156,0.69410133,,1.2644971126268985,0.13719434951059842,0.19096425764000002,0.8425341929208188,0.20741420664393861,1.3785163903722055,-0.4005196501612527,,-0.5630412856610864,-0.2468108199273411,0.18674872256000002,0.7884341875018116,1.2970902922733263,-0.05026457889643399,0.8732373775538567,,-0.03987859174650544,-0.09379617566374027,0.05836094732,-0.08765896690267068,,-2.2154301e-05,-4.7683716e-06,2.026558e-06,0.99999994,2.3022294e-06,1.899898e-06,-2.3134053e-06,1.0,2.3841858e-07,-1.899898e-06,-2.3841858e-07,1.0,120,0.368,0,1,0.029,False,-0.2604738128088746,1.0476320595283284
0.3815039110049838,10:49:31.361959,10:49:15.066729,0,,0.12461808,-0.00041384995,0.014298737,-0.98859435,-0.09109262,-0.11993057,-0.094761245,-0.24269849,0.9654623,-0.11705348,0.9658154,0.23129827,,0.023736268,-0.012117192,0.017229795,0.06810926,-0.709338,0.7015701,-0.33170024,0.6471,0.6864667,-0.9409229,-0.2794658,-0.19121417,,0.109326355,1.3586867,0.45858103,0.9961388,0.033236478,-0.08125782,-0.025830468,-0.77364314,-0.63309485,-0.0839064,0.63274926,-0.76979744,,-0.081779115,0.25390384,-0.05958679,0.97996587,-0.029482784,0.1969713,-0.1630301,0.44933856,0.87835985,-0.1144033,-0.8928749,0.43552986,,0.03897232,0.44104692,-0.3063799,0.060340717,0.77360344,-0.63079053,-0.86991847,0.35065022,0.3468231,0.4894904,0.5278088,0.6941304,,1.2641109759831872,0.13807474105826,0.19097073909,0.8425341929208188,0.20686766064487683,1.3789620619869913,-0.4005196501612527,,-0.5630026719967152,-0.246841710858838,0.18674872256000002,0.7884341875018116,1.2970902922733263,-0.05026457889643399,0.8732373775538567,,-0.03987859174650544,-0.09379617566374027,0.05836094732,-0.08765896690267068,,-2.2154301e-05,-4.7683716e-06,2.026558e-06,0.99999994,2.3022294e-06,1.899898e-06,-2.3134053e-06,1.0,2.3841858e-07,-1.899898e-06,-2.3841858e-07,1.0,128,0.392,0,1,0.029,False,-0.26053339052739544,1.0475837793275489
0.4113860659999773,10:49:31.392679,10:49:15.066729,0,,0.12474342,-0.00032190979,0.014309764,-0.9885767,-0.09173634,-0.119584695,-0.094224736,-0.24309397,0.9654154,-0.117634,0.9656551,0.23167315,,0.02373305,-0.012122989,0.017229378,0.068139054,-0.7094739,0.7014299,-0.3317726,0.6469369,0.6865854,-0.94089526,-0.27949858,-0.19130245,,0.109326355,1.3586867,0.45858103,0.9961388,0.033236478,-0.08125782,-0.025830468,-0.77364314,-0.63309485,-0.0839064,0.63274926,-0.76979744,,-0.081894636,0.2539823,-0.059517637,0.9800611,-0.028871335,0.19658747,-0.16300604,0.44892538,0.87857556,-0.113618754,-0.8931027,0.4352681,,0.038975287,0.44104248,-0.3063839,0.060303643,0.7737348,-0.630633,-0.86995685,0.35051465,0.3468639,0.48942676,0.5277063,0.6942532,,1.2638020666682184,0.13886245981143092,0.19098110941000002,0.8427438828643034,0.20686766064487683,1.3789620619869913,-0.4005196501612527,,-0.5629872265309668,-0.24688032452320913,0.18674872256000002,0.788224497558327,1.2970902922733263,-0.050264578896433876,0.8729106894215883,,-0.03987859174650544,-0.09379617566374027,0.05836094732,-0.08765896690267068,,-2.2154301e-05,-4.7683716e-06,2.026558e-06,0.99999994,2.3022294e-06,1.899898e-06,-2.3134053e-06,1.0,2.3841858e-07,-1.899898e-06,-2.3841858e-07,1.0,153,0.469,0,1,0.029,False,-0.2604738128088746,1.047728619929887
0.44209882299765013,10:49:31.463437,10:49:15.066729,0,,0.124996826,-0.00010499358,0.014334992,-0.9886142,-0.09230962,-0.11883112,-0.09318514,-0.24447837,0.96516675,-0.1181458,0.96525085,0.23309284,,0.023742333,-0.012166023,0.017235935,0.06802857,-0.70930195,0.7016144,-0.33188158,0.64710474,0.6863744,-0.9408648,-0.27954605,-0.19138274,,0.109326355,1.3586867,0.45858103,0.9961388,0.033236478,-0.08125782,-0.025830468,-0.77364314,-0.63309485,-0.0839064,0.63274926,-0.76979744,,-0.08212525,0.25416628,-0.059359927,0.9802568,-0.0284091,0.19567706,-0.16255817,0.4476072,0.8793308,-0.112567455,-0.8937789,0.43415186,,0.038963076,0.44101375,-0.3064156,0.060402885,0.7735803,-0.63081294,-0.8700119,0.350599,0.34664044,0.4893166,0.5278767,0.6942013,,1.2632383071684,0.14061552017387988,0.19101092408,0.8433729526947569,0.20618447814604965,1.3795191515054732,-0.4005196501612527,,-0.562994949263841,-0.24711200650943585,0.18674872256000002,0.7888535673887807,1.2970902922733263,-0.049856185195731206,0.8730740334877225,,-0.03987859174650544,-0.09379617566374027,0.05836094732,-0.08765896690267068,,-2.2154301e-05,-4.7683716e-06,2.026558e-06,0.99999994,2.3022294e-06,1.899898e-06,-2.3134053e-06,1.0,2.3841858e-07,-1.899898e-06,-2.3841858e-07,1.0,161,0.494,0,1,0.029,False,-0.26041423509035333,1.0476320595283284
0.5128297500050394,10:49:31.494335,10:49:15.066729,0,,0.12510595,-2.5853515e-05,0.014335707,-0.98858136,-0.09276684,-0.11874898,-0.09294126,-0.24493334,0.96507484,-0.11861253,0.9650917,0.23351458,,0.023741327,-0.012184709,0.017238677,0.06801893,-0.70922995,0.70168805,-0.3319835,0.6471478,0.68628466,-0.9408295,-0.27962932,-0.19143447,,0.109326355,1.3586867,0.45858103,0.9961388,0.033236478,-0.08125782,-0.025830468,-0.77364314,-0.63309485,-0.0839064,0.63274926,-0.76979744,,-0.08222504,0.2542281,-0.059293665,0.98029524,-0.027988562,0.195545,-0.16267996,0.44715267,0.8795395,-0.11205552,-0.89401966,0.43378848,,0.03896275,0.44100153,-0.30643004,0.060402192,0.773524,-0.6308821,-0.87006503,0.35057226,0.3465342,0.48922226,0.52797705,0.6941915,,1.2629448433191794,0.1412873979339374,0.19102777585000003,0.8433729526947569,0.2060478416462842,1.3796305694091697,-0.4005196501612527,,-0.5629795037980926,-0.247220124769675,0.18674742627000002,0.7888535673887807,1.2970902922733263,-0.04993786393587174,0.8729106894215883,,-0.03987859174650544,-0.09379617566374027,0.05836094732,-0.08765896690267068,,-2.2154301e-05,-4.7683716e-06,2.026558e-06,0.99999994,2.3022294e-06,1.899898e-06,-2.3134053e-06,1.0,2.3841858e-07,-1.899898e-06,-2.3841858e-07,1.0,173,0.532,0,1,0.029,False,-0.26041423509035333,1.0471975377213132
0.5437295299925609,10:49:31.524799,10:49:15.066729,0,,0.12514707,1.0877848e-06,0.014336139,-0.9885652,-0.09299122,-0.11870776,-0.09283295,-0.24505568,0.9650543,-0.1188316,0.965039,0.23362073,,0.023742765,-0.012199283,0.017240405,0.06802223,-0.7092144,0.7017035,-0.33206198,0.64713866,0.6862553,-0.9408016,-0.27968973,-0.19148347,,0.109326355,1.3586867,0.45858103,0.9961388,0.033236478,-0.08125782,-0.025830468,-0.77364314,-0.63309485,-0.0839064,0.63274926,-0.76979744,,-0.08226297,0.2542493,-0.059270673,0.980312,-0.02777412,0.19549169,-0.16274177,0.4470225,0.8795942,-0.11181913,-0.8940914,0.4337015,,0.03896037,0.44099158,-0.30644068,0.060390938,0.7735174,-0.63089126,-0.8701061,0.35052487,0.34647897,0.48915058,0.5280181,0.69421077,,1.2627826659288206,0.14160402998178062,0.19103555359000002,0.8433729526947569,0.2060478416462842,1.3796305694091697,-0.4005196501612527,,-0.5629795037980926,-0.24730507483129147,0.18674742627000002,0.7888535673887807,1.2970902922733263,-0.04993786393587174,0.872747345355454,,-0.03987859174650544,-0.09379617566374027,0.05836094732,-0.08765896690267068,,-2.2154301e-05,-4.7683716e-06,2.026558e-06,0.99999994,2.3022294e-06,1.899898e-06,-2.3134053e-06,1.0,2.3841858e-07,-1.899898e-06,-2.3841858e-07,1.0,181,0.556,0,1,0.029,False,-0.2607121236829584,1.0479700209337843
0.5742151879967423,10:49:31.554152,10:49:15.066729,0,,0.1251856,1.5631318e-05,0.014334083,-0.98852974,-0.09309649,-0.11892064,-0.092991345,-0.24525476,0.9649884,-0.119002886,0.9649783,0.23378435,,0.02374205,-0.012204751,0.017240644,0.0680165,-0.7092686,0.7016493,-0.33209154,0.6470785,0.6862977,-0.9407916,-0.27969146,-0.19153023,,0.109326355,1.3586867,0.45858103,0.9961388,0.033236478,-0.08125782,-0.025830468,-0.77364314,-0.63309485,-0.0839064,0.63274926,-0.76979744,,-0.0822994,0.2542595,-0.059254233,0.98027706,-0.027684812,0.19567953,-0.16297314,0.44683087,0.87964875,-0.11178856,-0.89419,0.43350616,,0.038960792,0.44098768,-0.30644456,0.060393665,0.77356833,-0.63082856,-0.8701215,0.35048196,0.34648386,0.48912296,0.52797204,0.6942653,,1.2626822704014558,0.14170442550914553,0.19103555359000002,0.8431632627512725,0.20591120514651876,1.3797419873128662,-0.4005196501612527,,-0.5629717810652183,-0.24733596576278838,0.18674742627000002,0.7888535673887807,1.2970902922733263,-0.049856185195731095,0.872747345355454,,-0.03987859174650544,-0.09379617566374027,0.05836094732,-0.08765896690267068,,-2.2154301e-05,-4.7683716e-06,2.026558e-06,0.99999994,2.3022294e-06,1.899898e-06,-2.3134053e-06,1.0,2.3841858e-07,-1.899898e-06,-2.3841858e-07,1.0,193,0.593,0,1,0.029,False,-0.2608312791200009,1.047294098122872
0.6035856259986758,10:49:31.594533,10:49:15.394775,0,,0.12519783,1.5005469e-05,0.014333308,-0.98856026,-0.092989676,-0.11874978,-0.09284398,-0.24530211,0.9649906,-0.11886372,0.96497655,0.23386228,,0.023744926,-0.012208357,0.017241836,0.0679819,-0.709412,0.7015077,-0.33207014,0.6469548,0.6864247,-0.9408016,-0.27961427,-0.19159341,,0.109326355,1.3586867,0.45858103,0.9961388,0.033236478,-0.08125782,-0.025830468,-0.77364314,-0.63309485,-0.0839064,0.63274926,-0.76979744,,-0.08231148,0.2542587,-0.059252314,0.9803091,-0.027795294,0.19550304,-0.1627711,0.4467956,0.87970406,-0.111801535,-0.8942042,0.43347356,,0.038957596,0.44098553,-0.3064474,0.06043037,0.77369213,-0.63067317,-0.8701097,0.3504484,0.3465474,0.4891394,0.5278128,0.69437474,,1.262620488538462,0.14174303917351666,0.1910342573,0.8433729526947569,0.2057745686467533,1.3798534052165627,-0.4005196501612527,,-0.5629795037980926,-0.24735141122853682,0.18674742627000002,0.789063257332265,1.2970902922733263,-0.049447791495028204,0.8732373775538568,,-0.03987859174650544,-0.09379617566374027,0.05836094732,-0.08765896690267068,,-2.2154301e-05,-4.7683716e-06,2.026558e-06,0.99999994,2.3022294e-06,1.899898e-06,-2.3134053e-06,1.0,2.3841858e-07,-1.899898e-06,-2.3841858e-07,1.0,222,0.682,0,1,0.029,False,-0.26041423509035333,1.047294098122872
0.6439674790017307,10:49:31.671744,10:49:15.394775,0,,0.12520254,3.412366e-05,0.014370978,-0.98837036,-0.09321575,-0.120145455,-0.09408562,-0.24584615,0.9647319,-0.11946551,0.9648162,0.23421672,,0.023743615,-0.01221101,0.017243028,0.067975566,-0.7095835,0.7013347,-0.33208543,0.64678407,0.68657815,-0.9407967,-0.27957368,-0.19167688,,0.109326355,1.3586867,0.45858103,0.9961388,0.033236478,-0.08125782,-0.025830468,-0.77364314,-0.63309485,-0.0839064,0.63274926,-0.76979744,,-0.08231783,0.2542979,-0.05926744,0.98005015,-0.027612733,0.19682275,-0.16409989,0.44627658,0.8797207,-0.112128876,-0.89446896,0.4328422,,0.038958583,0.44098443,-0.3064502,0.060435142,0.7738473,-0.6304824,-0.87011755,0.3503575,0.34661955,0.4891248,0.52764577,0.69451195,,1.2627054386000784,0.1418820483652527,0.19100703521,0.8419051230903654,0.2057745686467533,1.3799350839567033,-0.4005196501612527,,-0.5629717810652183,-0.24736685669428526,0.18674612998,0.789063257332265,1.2970902922733263,-0.04920275527460649,0.8730740334877226,,-0.03987859174650544,-0.09379617566374027,0.05836094732,-0.08765896690267068,,-2.2154301e-05,-4.7683716e-06,2.026558e-06,0.99999994,2.3022294e-06,1.899898e-06,-2.3134053e-06,1.0,2.3841858e-07,-1.899898e-06,-2.3841858e-07,1.0,230,0.707,0,1,0.029,False,-0.2599971910607066,1.0480183011345638
0.7211711029958678,10:49:31.706846,10:49:15.394775,0,,0.12521245,5.5000186e-05,0.014443859,-0.9878277,-0.09361998,-0.1242248,-0.09781955,-0.24706274,0.96404946,-0.120945595,0.96446633,0.2348974,,0.023745,-0.012212202,0.017243505,0.06798279,-0.7096369,0.70128006,-0.33209148,0.646728,0.686628,-0.940794,-0.2795682,-0.1916981,,0.109326355,1.3586867,0.45858103,0.9961388,0.033236478,-0.08125782,-0.025830468,-0.77364314,-0.63309485,-0.0839064,0.63274926,-0.76979744,,-0.08233256,0.25436163,-0.05930702,0.97926754,-0.027305573,0.20072244,-0.16788003,0.44512317,0.87959176,-0.11336397,-0.89505297,0.43131062,,0.038957078,0.44098377,-0.30645114,0.0604273,0.7738964,-0.63042283,-0.8701208,0.35032225,0.34664682,0.48911986,0.5275971,0.6945524,,1.2628135568603176,0.14208283941998254,0.19094481329000002,0.8377113242206747,0.20550129564722242,1.3800762410239555,-0.4005196501612527,,-0.5629795037980926,-0.24737457942715949,0.18674612998,0.789063257332265,1.2970902922733263,-0.04912107653446596,0.8729106894215883,,-0.03987859174650544,-0.09379617566374027,0.05836094732,-0.08765896690267068,,-2.2154301e-05,-4.7683716e-06,2.026558e-06,0.99999994,2.3022294e-06,1.899898e-06,-2.3134053e-06,1.0,2.3841858e-07,-1.899898e-06,-2.3841858e-07,1.0,238,0.732,0,1,0.029,False,-0.259580147031059,1.047294098122872
0.756220230992767,10:49:31.733713,10:49:15.551227,0,,0.12522471,6.365776e-05,0.014493912,-0.9878467,-0.09337014,-0.124262005,-0.09787386,-0.24739325,0.96395916,-0.12074658,0.9644058,0.235248,,0.023743741,-0.012212366,0.017243207,0.06797588,-0.7095822,0.70133615,-0.3320925,0.64678323,0.6865755,-0.9407942,-0.27957916,-0.19168141,,0.109326355,1.3586867,0.45858103,0.9961388,0.033236478,-0.08125782,-0.025830468,-0.77364314,-0.63309485,-0.0839064,0.63274926,-0.76979744,,-0.08234869,0.2544012,-0.059337135,0.9792612,-0.027581468,0.2007156,-0.16779067,0.4448378,0.8797532,-0.11355077,-0.89518636,0.4309845,,0.038958363,0.4409835,-0.30645117,0.060434118,0.7738467,-0.6304832,-0.87012124,0.35035318,0.34661454,0.4891183,0.52764946,0.69451374,,1.2628521705246887,0.14223729407746702,0.19090333201,0.8377113242206747,0.20522802264769155,1.3802990768313483,-0.4005196501612527,,-0.5629717810652183,-0.24737457942715949,0.18674612998,0.789063257332265,1.2970902922733263,-0.04920275527460649,0.8730740334877226,,-0.03987859174650544,-0.09379617566374027,0.05836094732,-0.08765896690267068,,-2.2154301e-05,-4.7683716e-06,2.026558e-06,0.99999994,2.3022294e-06,1.899898e-06,-2.3134053e-06,1.0,2.3841858e-07,-1.899898e-06,-2.3841858e-07,1.0,246,0.757,0,1,0.029,False,-0.26053339052739544,1.0476320595283284
0.783139115999802,10:49:31.761253,10:49:15.551227,0,,0.12524529,8.404255e-05,0.014604807,-0.9876479,-0.09325857,-0.12591475,-0.09940428,-0.24826077,0.9635794,-0.121121734,0.9641936,0.23592389,,0.023743741,-0.012212366,0.017243207,0.06797588,-0.7095822,0.70133615,-0.3320925,0.64678323,0.6865755,-0.9407942,-0.27957916,-0.19168141,,0.109326355,1.3586867,0.45858103,0.9961388,0.033236478,-0.08125782,-0.025830468,-0.77364314,-0.63309485,-0.0839064,0.63274926,-0.76979744,,-0.08237775,0.25448966,-0.059403963,0.97894126,-0.027761796,0.20224571,-0.16918848,0.44404572,0.8798856,-0.114233546,-0.8955739,0.42999768,,0.038958363,0.4409835,-0.30645117,0.060434118,0.7738467,-0.6304832,-0.87012124,0.35035318,0.34661454,0.4891183,0.52764946,0.69451374,,1.2629834569835505,0.142546203392436,0.19080740655000003,0.8360338046727986,0.20481811314839524,1.380551651802297,-0.4003563060951185,,-0.5629717810652183,-0.24737457942715949,0.18674612998,0.789063257332265,1.2970902922733263,-0.04920275527460649,0.8730740334877226,,-0.03987859174650544,-0.09379617566374027,0.05836094732,-0.08765896690267068,,-2.2154301e-05,-4.7683716e-06,2.026558e-06,0.99999994,2.3022294e-06,1.899898e-06,-2.3134053e-06,1.0,2.3841858e-07,-1.899898e-06,-2.3841858e-07,1.0,254,0.782,0,1,0.029,False,-0.2608312791200009,1.0481631417369022
0.8106836740043946,10:49:31.780278,10:49:15.551227,0,,0.12526107,9.5680356e-05,0.014715925,-0.9875477,-0.093255505,-0.12670065,-0.10010322,-0.2488054,0.96336657,-0.121363044,0.9640535,0.2363719,,0.023743883,-0.012213647,0.017243326,0.06797618,-0.7095235,0.70139545,-0.3320997,0.64683855,0.6865199,-0.9407916,-0.2796003,-0.19166297,,0.109326355,1.3586867,0.45858103,0.9961388,0.033236478,-0.08125782,-0.025830468,-0.77364314,-0.63309485,-0.0839064,0.63274926,-0.76979744,,-0.08240299,0.2545716,-0.05947732,0.9787926,-0.027808048,0.20295757,-0.16987264,0.443543,0.8800073,-0.11449169,-0.8958216,0.42941275,,0.038958147,0.4409826,-0.30645213,0.060433093,0.7737946,-0.6305472,-0.870125,0.3503772,0.3465809,0.48911178,0.52770996,0.6944724,,1.2631301889081608,0.1428010535772854,0.19070888851,0.8351950448988605,0.20468147664862982,1.3806630697059934,-0.4003563060951185,,-0.5629717810652183,-0.2473823021600337,0.18674612998,0.789063257332265,1.2970902922733263,-0.049284434014747136,0.8729106894215882,,-0.03987859174650544,-0.09379617566374027,0.05836094732,-0.08765896690267068,,-2.2154301e-05,-4.7683716e-06,2.026558e-06,0.99999994,2.3022294e-06,1.899898e-06,-2.3134053e-06,1.0,2.3841858e-07,-1.899898e-06,-2.3841858e-07,1.0,262,0.806,0,1,0.029,False,-0.25975888018662197,1.0478734605322257
0.8296830110048177,10:49:31.811777,10:49:15.551227,0,,0.12530424,0.00016798079,0.014861703,-0.9870443,-0.095408,-0.129,-0.1018178,-0.24891734,0.96315795,-0.1240033,0.963814,0.23597813,,0.023766607,-0.0122398585,0.01724732,0.06679159,-0.70796424,0.70308274,-0.3318469,0.64877933,0.6848087,-0.9409657,-0.27905533,-0.1916028,,0.109326355,1.3586867,0.45858103,0.9961388,0.033236478,-0.08125782,-0.025830468,-0.77364314,-0.63309485,-0.0839064,0.63274926,-0.76979744,,-0.08245241,0.25472245,-0.059533417,0.978373,-0.02566598,0.20524995,-0.17289126,0.44326928,0.87955725,-0.11355569,-0.896021,0.42924526,,0.03893386,0.440964,-0.30646896,0.06164104,0.77226466,-0.6323035,-0.86997175,0.3520954,0.34522167,0.48923364,0.5288063,0.69355196,,1.2634313754902555,0.1434034267414749,0.19059870386000002,0.8320496957465926,0.20632111464581507,1.3792443761214956,-0.4001929620289839,,-0.5629486128665956,-0.24739774762578218,0.18674612998,0.793047366258471,1.2965437462742644,-0.04777693877813394,0.8737274097522597,,-0.03987859174650544,-0.09379617566374027,0.05836094732,-0.08765896690267068,,-2.2154301e-05,-4.7683716e-06,2.026558e-06,0.99999994,2.3022294e-06,1.899898e-06,-2.3134053e-06,1.0,2.3841858e-07,-1.899898e-06,-2.3841858e-07,1.0,291,0.895,0,1,0.029,False,-0.26005676877922745,1.0482114219376817
0.8611964430019725,10:49:31.894614,10:49:15.715249,0,,0.1253275,0.0003285259,0.015481338,-0.9857768,-0.10193702,-0.13361514,-0.10438145,-0.25173506,0.9621507,-0.1317144,0.9624127,0.23751417,,0.023821011,-0.012318715,0.017287493,0.06470589,-0.71106905,0.70013845,-0.3278507,0.6475147,0.6879233,-0.94251096,-0.27405363,-0.19122657,,0.109326355,1.3586867,0.45858103,0.9961388,0.033236478,-0.08125782,-0.025830468,-0.77364314,-0.63309485,-0.0839064,0.63274926,-0.76979744,,-0.082519144,0.2552505,-0.059889685,0.97760355,-0.019361584,0.20956251,-0.17986664,0.44012675,0.8797366,-0.10926716,-0.8977269,0.42678696,,0.03887029,0.44092733,-0.30654243,0.064125516,0.77450746,-0.6293061,-0.8678366,0.35461536,0.3480052,0.49269423,0.5238188,0.6948858,,1.2650145357294715,0.1447857959259611,0.19011259511000003,0.8257589974420569,0.21233312063549445,1.3781808891454597,-0.3993762416983129,,-0.5626705944831235,-0.24735913396141104,0.18674612998,0.8087741120198105,1.2984566572709806,-0.028753746914462197,0.8734007216199913,,-0.03987859174650544,-0.09379617566374027,0.05836094732,-0.08765896690267068,,-2.2154301e-05,-4.7683716e-06,2.026558e-06,0.99999994,2.3022294e-06,1.899898e-06,-2.3134053e-06,1.0,2.3841858e-07,-1.899898e-06,-2.3841858e-07,1.0,299,0.92,0,1,0.029,False,-0.26011634649774784,1.0477769001306665
0.9440471109992359,10:49:31.917730,10:49:15.715249,0,,0.12529427,0.00040231645,0.015622735,-0.98516005,-0.104850285,-0.1358903,-0.105860665,-0.2520257,0.961913,-0.13510469,0.9620236,0.23718601,,0.02380824,-0.012317628,0.017283618,0.06468429,-0.71088785,0.7003244,-0.32788816,0.64768803,0.68774235,-0.94249946,-0.27411428,-0.19119656,,0.109326355,1.3586867,0.45858103,0.9961388,0.033236478,-0.08125782,-0.025830468,-0.77364314,-0.63309485,-0.0839064,0.63274926,-0.76979744,,-0.082492344,0.25539848,-0.059952375,0.9771696,-0.016470615,0.2118215,-0.1831982,0.43960872,0.87930804,-0.10760132,-0.8980384,0.42655486,,0.03888353,0.4409265,-0.30654076,0.06414331,0.77434605,-0.62950283,-0.86785585,0.35469458,0.34787643,0.492658,0.5240038,0.694772,,1.2656864134895291,0.1450947052409301,0.1900231511,0.822613648289789,0.21506585063080325,1.3768509972130776,-0.40051965016125246,,-0.5626010898872555,-0.24735141122853682,0.18674612998,0.808564422076326,1.2984566572709806,-0.029243819355305845,0.873400721619991,,-0.03987859174650544,-0.09379617566374027,0.05836094732,-0.08765896690267068,,-2.2154301e-05,-4.7683716e-06,2.026558e-06,0.99999994,2.3022294e-06,1.899898e-06,-2.3134053e-06,1.0,2.3841858e-07,-1.899898e-06,-2.3841858e-07,1.0,307,0.945,0,1,0.029,False,-0.25963972474957986,1.0478734605322257
0.9671401810046518,10:49:31.945323,10:49:15.715249,0,,0.12526433,0.00042657554,0.015718803,-0.9849884,-0.10729402,-0.1352253,-0.10467078,-0.25169092,0.9621308,-0.13726586,0.9618417,0.23668203,,0.023769028,-0.012331173,0.017295927,0.06465216,-0.71061623,0.70060307,-0.32788393,0.6479651,0.6874833,-0.9425031,-0.2741638,-0.19110739,,0.10927044,1.3586898,0.45859575,0.9961404,0.033284273,-0.081218705,-0.025768925,-0.7736411,-0.63309985,-0.0839064,0.63274926,-0.76979744,,-0.08242235,0.2554707,-0.060006004,0.97734785,-0.013985067,0.21117677,-0.18366916,0.43970954,0.87915933,-0.10515154,-0.8980311,0.42718056,,0.038967755,0.44092515,-0.30655193,0.06419778,0.77406126,-0.62984747,-0.86785245,0.35488746,0.34768802,0.4926568,0.5242939,0.694554,,1.2661343319962342,0.14517193256967234,0.18996741063000003,0.822613648289789,0.21779858062611207,1.3759294989813982,-0.40051965016125246,,-0.5625161398256391,-0.2473436884956626,0.18674483369000003,0.808564422076326,1.2984566572709806,-0.029652213056008514,0.873890753818394,,-0.03987859174650544,-0.09379617566374027,0.05836094732,-0.08765896690267068,,-7.916987e-05,2.9802322e-07,-6.67572e-06,1.0,4.9859285e-05,4.0993094e-05,-4.987046e-05,1.0,5.4240227e-06,-4.0993094e-05,-5.4240227e-06,1.0,315,0.97,0,1,0.029,False,-0.2602355019347904,1.048114861536123
0.9947518129920354,10:49:31.964831,10:49:15.715249,0,,0.12522537,0.00045654178,0.015799806,-0.9845495,-0.10759862,-0.13814756,-0.10703979,-0.2545558,0.96111584,-0.138581,0.9610535,0.23910537,,0.023777157,-0.012336671,0.017295033,0.064222515,-0.71029305,0.7009702,-0.32802963,0.64836216,0.68703926,-0.9424819,-0.27406242,-0.19135776,,0.10927044,1.3586898,0.45859575,0.9961404,0.033284273,-0.081218705,-0.025768925,-0.7736411,-0.63309985,-0.0839064,0.63274926,-0.76979744,,-0.08238856,0.25554588,-0.060052738,0.97679454,-0.013905737,0.21372648,-0.1863129,0.4370264,0.87994057,-0.10564034,-0.89934117,0.4242942,,0.038959604,0.4409199,-0.30655372,0.06461176,0.77374566,-0.6301928,-0.8679205,0.35523212,0.34716585,0.4924828,0.5245263,0.6945019,,1.2665281913728197,0.14526460536416302,0.18991167016000002,0.8196779890810056,0.21820849012540838,1.3778822499942445,-0.3998662738967156,,-0.5625315852913875,-0.2473436884956626,0.18674483369000003,0.8094031818502639,1.2980467477716844,-0.02931795934491921,0.873890753818394,,-0.03987859174650544,-0.09379617566374027,0.05836094732,-0.08765896690267068,,-7.916987e-05,2.9802322e-07,-6.67572e-06,1.0,4.9859285e-05,4.0993094e-05,-4.987046e-05,1.0,5.4240227e-06,-4.0993094e-05,-5.4240227e-06,1.0,323,0.995,0,1,0.029,False,-0.2598184579051428,1.0482597021384612
1.0142671130015515,10:49:31.995692,10:49:15.715249,0,,0.12517533,0.00046244264,0.015945747,-0.9844177,-0.10757335,-0.13910377,-0.10783489,-0.25555593,0.96076155,-0.13890113,0.9607909,0.23997357,,0.023784772,-0.012337074,0.017297298,0.06421599,-0.7101425,0.70112336,-0.327989,0.6485234,0.68690646,-0.9424964,-0.2740712,-0.19127342,,0.10927044,1.3586898,0.45859575,0.9961404,0.033284273,-0.081218705,-0.025768925,-0.7736411,-0.63309985,-0.0839064,0.63274926,-0.76979744,,-0.08235268,0.25564536,-0.060165223,0.97661227,-0.014009531,0.21455115,-0.18712085,0.43609992,0.88022876,-0.10589733,-0.8997892,0.42327908,,0.03895172,0.4409206,-0.30655453,0.06462235,0.773606,-0.63036317,-0.86789906,0.35533813,0.34711105,0.49251926,0.52466047,0.6943747,,1.2670378917425185,0.14533410996003104,0.18978852261,0.8186295393635831,0.21848176312493928,1.3783128441079762,-0.40019296202898436,,-0.5625701989557587,-0.2473436884956626,0.18674483369000003,0.8096128717937485,1.2980467477716844,-0.02931795934491921,0.873890753818394,,-0.03987859174650544,-0.09379617566374027,0.05836094732,-0.08765896690267068,,-7.916987e-05,2.9802322e-07,-6.67572e-06,1.0,4.9859285e-05,4.0993094e-05,-4.987046e-05,1.0,5.4240227e-06,-4.0993094e-05,-5.4240227e-06,1.0,336,1.034,0,1,0.029,False,-0.26059296824591627,1.0480665813353434
1.0451208930026041,10:49:32.027688,10:49:15.715249,0,,0.12514615,0.00046643615,0.016051084,-0.9834264,-0.11132143,-0.14310881,-0.11090512,-0.25507087,0.9605409,-0.14343168,0.9604927,0.23849723,,0.023789167,-0.012336984,0.017295808,0.06423683,-0.7101349,0.7011291,-0.32798597,0.6485257,0.6869057,-0.94249606,-0.27408522,-0.1912551,,0.10927044,1.3586898,0.45859575,0.9961404,0.033284273,-0.081218705,-0.025768925,-0.7736411,-0.63309985,-0.0839064,0.63274926,-0.76979744,,-0.08233366,0.25571707,-0.060245596,0.97575295,-0.010220187,0.21863614,-0.19239543,0.43621454,0.87903404,-0.104356155,-0.8997846,0.4236713,,0.038947605,0.44091946,-0.30655274,0.06460187,0.77360076,-0.6303717,-0.86789787,0.35533026,0.34712207,0.49252406,0.5246735,0.6943614,,1.2674471965848524,0.14527232809703725,0.18970426376000002,0.8135969807199546,0.22162440261954441,1.3760769472835206,-0.40084633829352123,,-0.5625933671543814,-0.2473436884956626,0.18674742627000002,0.8096128717937485,1.2980467477716844,-0.02931795934491921,0.873890753818394,,-0.03987859174650544,-0.09379617566374027,0.05836094732,-0.08765896690267068,,-7.916987e-05,2.9802322e-07,-6.67572e-06,1.0,4.9859285e-05,4.0993094e-05,-4.987046e-05,1.0,5.4240227e-06,-4.0993094e-05,-5.4240227e-06,1.0,353,1.088,0,1,0.029,False,-0.259580147031059,1.0479700209337843
1.0770848630054388,10:49:32.085309,10:49:15.715249,0,,0.12518866,0.0004736483,0.016329512,-0.98166,-0.12353341,-0.14520083,-0.10970342,-0.25685948,0.9602022,-0.15591326,0.9585211,0.23859644,,0.02378659,-0.012335956,0.017294973,0.06427114,-0.71033263,0.70092565,-0.32802245,0.6483116,0.6870904,-0.9424809,-0.2740795,-0.19133738,,0.10927044,1.3586898,0.45859575,0.9961404,0.033284273,-0.081218705,-0.025768925,-0.7736411,-0.63309985,-0.0839064,0.63274926,-0.76979744,,-0.08240217,0.25590584,-0.060443204,0.97534865,0.0018721696,0.22066163,-0.19965333,0.43339005,0.8788126,-0.09398727,-0.9012045,0.42308018,,0.038950343,0.44091982,-0.3065518,0.06456397,0.7737849,-0.63014954,-0.8679177,0.35518542,0.3472206,0.492494,0.5245,0.6945138,,1.2681808562079036,0.14538816909015062,0.18947352414000002,0.8087741120198105,0.23392168759843407,1.3748706398860233,-0.4018264026903271,,-0.562585644421507,-0.2473436884956626,0.18674742627000002,0.8094031818502639,1.2980467477716844,-0.029236280604778675,0.8737274097522597,,-0.03987859174650544,-0.09379617566374027,0.05836094732,-0.08765896690267068,,-7.916987e-05,2.9802322e-07,-6.67572e-06,1.0,4.9859285e-05,4.0993094e-05,-4.987046e-05,1.0,5.4240227e-06,-4.0993094e-05,-5.4240227e-06,1.0,361,1.113,0,1,0.029,False,-0.2602355019347904,1.0475354991267694
1.1347345760004828,10:49:32.108711,10:49:15.715249,0,,0.12515971,0.0004632175,0.016562998,-0.9808188,-0.1286851,-0.14640594,-0.10885817,-0.26143253,0.95906353,-0.16169244,0.956605,0.24240944,,0.02378536,-0.01233615,0.017294675,0.064312726,-0.7104691,0.7007835,-0.32806504,0.64815354,0.68721914,-0.9424633,-0.2740996,-0.19139564,,0.10927044,1.3586898,0.45859575,0.9961404,0.033284273,-0.081218705,-0.025768925,-0.7736411,-0.63309985,-0.0839064,0.63274926,-0.76979744,,-0.082397394,0.25605077,-0.060628787,0.9751685,0.0066805743,0.22136325,-0.20279561,0.42860612,0.8804378,-0.08899581,-0.90346676,0.419318,,0.038951583,0.44091955,-0.30655187,0.064518206,0.7739152,-0.6299942,-0.86794096,0.355062,0.34728873,0.49245903,0.52439135,0.69462067,,1.268914515830955,0.14537272362440218,0.18927389548,0.8066772125849652,0.24007033008787887,1.378024708233741,-0.395946016309493,,-0.562585644421507,-0.24735141122853682,0.18674742627000002,0.8091934919067795,1.2980467477716844,-0.029236280604778675,0.8737274097522597,,-0.03987859174650544,-0.09379617566374027,0.05836094732,-0.08765896690267068,,-7.916987e-05,2.9802322e-07,-6.67572e-06,1.0,4.9859285e-05,4.0993094e-05,-4.987046e-05,1.0,5.4240227e-06,-4.0993094e-05,-5.4240227e-06,1.0,374,1.153,0,1,0.029,False,-0.25952056931253775,1.0479217407330053
1.158118328996352,10:49:32.154667,10:49:15.947068,0,,0.12503801,0.0004555285,0.016941413,-0.9799573,-0.13186124,-0.14932004,-0.11073595,-0.2625097,0.95855415,-0.1655941,0.9558772,0.24264646,,0.023784101,-0.012336284,0.017294258,0.06430577,-0.71047163,0.7007816,-0.32806608,0.6481527,0.6872194,-0.94246346,-0.2740949,-0.19140175,,0.10927044,1.3586898,0.45859575,0.9961404,0.033284273,-0.081218705,-0.025768925,-0.7736411,-0.63309985,-0.0839064,0.63274926,-0.76979744,,-0.0823147,0.25629148,-0.0609342,0.9745007,0.009782716,0.2241711,-0.20675981,0.4272687,0.8801658,-0.087170884,-0.90407175,0.41839635,,0.03895287,0.44091928,-0.3065519,0.06452504,0.7739169,-0.62999135,-0.8679414,0.35506463,0.34728503,0.49245742,0.524387,0.6946251,,1.2702428258853216,0.14536500089152796,0.18895111927000002,0.8026931036587592,0.24375951558154577,1.3769767145973106,-0.40117302642579,,-0.5625779216886329,-0.24735141122853682,0.18674742627000002,0.8091934919067795,1.2980467477716844,-0.029236280604778675,0.8737274097522597,,-0.03987859174650544,-0.09379617566374027,0.05836094732,-0.08765896690267068,,-7.916987e-05,2.9802322e-07,-6.67572e-06,1.0,4.9859285e-05,4.0993094e-05,-4.987046e-05,1.0,5.4240227e-06,-4.0993094e-05,-5.4240227e-06,1.0,391,1.206,0,1,0.029,False,-0.2602950796533112,1.04748721892599
1.204101184004685,10:49:32.205641,10:49:15.947068,0,,0.124893814,0.00043804944,0.017574191,-0.9784712,-0.13959359,-0.15201254,-0.11129928,-0.26336217,0.958255,-0.1738006,0.9545439,0.24215555,,0.02379182,-0.012337983,0.017296642,0.064251035,-0.710243,0.70101833,-0.327991,0.6484144,0.6870084,-0.9424933,-0.2740688,-0.1912921,,0.10927044,1.3586898,0.45859575,0.9961404,0.033284273,-0.081218705,-0.025768925,-0.7736411,-0.63309985,-0.0839064,0.63274926,-0.76979744,,-0.08223557,0.2566914,-0.061439484,0.9737723,0.017476827,0.22685266,-0.21254803,0.4256358,0.879578,-0.08118438,-0.9047258,0.418187,,0.038944818,0.44091907,-0.30655363,0.06458718,0.77369964,-0.6302518,-0.8679008,0.35526404,0.34718245,0.49252075,0.52457255,0.69444,,1.2723125182956136,0.14543450548739598,0.18840019602000002,0.7976605450151306,0.25250425156653394,1.374501656948752,-0.40084633829352123,,-0.5626088126201297,-0.24735141122853682,0.18674742627000002,0.8096128717937485,1.2980467477716844,-0.02915460186463803,0.8732373775538569,,-0.03987859174650544,-0.09379617566374027,0.05836094732,-0.08765896690267068,,-7.916987e-05,2.9802322e-07,-6.67572e-06,1.0,4.9859285e-05,4.0993094e-05,-4.987046e-05,1.0,5.4240227e-06,-4.0993094e-05,-5.4240227e-06,1.0,399,1.232,0,1,0.029,False,-0.26011634649774784,1.0481631417369022
1.2550557979993755,10:49:32.230131,10:49:15.947068,0,,0.12485011,0.00042583048,0.017987236,-0.9764152,-0.1507892,-0.15451851,-0.11024755,-0.26711977,0.9573361,-0.18563087,0.95179284,0.24419561,,0.023790687,-0.012339458,0.017296523,0.06424439,-0.71024406,0.70101786,-0.32799923,0.6484127,0.687006,-0.94249094,-0.2740696,-0.19130266,,0.10927044,1.3586898,0.45859575,0.9961404,0.033284273,-0.081218705,-0.025768925,-0.7736411,-0.63309985,-0.0839064,0.63274926,-0.76979744,,-0.08223392,0.25695258,-0.061762676,0.97300214,0.028433759,0.2290378,-0.21948737,0.42082947,0.88018626,-0.07135885,-0.90669405,0.41570884,,0.038945887,0.4409179,-0.30655465,0.06459299,0.7737008,-0.63024986,-0.86790496,0.35526237,0.34717375,0.49251264,0.52457196,0.6944462,,1.2736485510828546,0.14540361455589906,0.18805279030000002,0.7926279863715021,0.2648015365454236,1.3747655668737848,-0.4010096823596554,,-0.5626010898872555,-0.24735913396141104,0.18674742627000002,0.8096128717937485,1.2980467477716844,-0.02915460186463803,0.8732373775538569,,-0.03987859174650544,-0.09379617566374027,0.05836094732,-0.08765896690267068,,-7.916987e-05,2.9802322e-07,-6.67572e-06,1.0,4.9859285e-05,4.0993094e-05,-4.987046e-05,1.0,5.4240227e-06,-4.0993094e-05,-5.4240227e-06,1.0,408,1.26,0,1,0.029,False,-0.26017592421626956,1.047680339729108
1.2795633659989107,10:49:32.257990,10:49:15.947068,0,,0.12479758,0.0004337579,0.018268242,-0.97521186,-0.15729783,-0.15562542,-0.10904759,-0.27033067,0.95657194,-0.19253701,0.9498309,0.24647659,,0.023788184,-0.012339771,0.017295808,0.06423049,-0.7101919,0.701072,-0.32800126,0.6484673,0.68695354,-0.9424911,-0.27407593,-0.1912925,,0.10927044,1.3586898,0.45859575,0.9961404,0.033284273,-0.081218705,-0.025768925,-0.7736411,-0.63309985,-0.0839064,0.63274926,-0.76979744,,-0.082208544,0.2571422,-0.06197526,0.97261065,0.03473189,0.22983086,-0.22309618,0.41702297,0.88109016,-0.06524283,-0.9082321,0.41334954,,0.038948458,0.44091737,-0.30655468,0.064606644,0.7736528,-0.6303073,-0.86790574,0.35529596,0.3471374,0.49250945,0.52462,0.6944122,,1.2746370608907553,0.14541133728877328,0.18783501358000002,0.7901117070496877,0.2720432710329919,1.376048147110244,-0.40068299422738707,,-0.562585644421507,-0.24735913396141104,0.18674742627000002,0.8096128717937485,1.2980467477716844,-0.029236280604778564,0.8734007216199913,,-0.03987859174650544,-0.09379617566374027,0.05836094732,-0.08765896690267068,,-7.916987e-05,2.9802322e-07,-6.67572e-06,1.0,4.9859285e-05,4.0993094e-05,-4.987046e-05,1.0,5.4240227e-06,-4.0993094e-05,-5.4240227e-06,1.0,416,1.285,0,1,0.029,False,-0.25975888018662197,1.04835626254002
1.30741978000151,10:49:32.284879,10:49:16.090096,0,,0.12469518,0.0004428327,0.018686026,-0.97375274,-0.16467118,-0.15712723,-0.10775175,-0.2745673,0.9555115,-0.2004872,0.9473627,0.24961701,,0.023786917,-0.012339905,0.01729545,0.06422355,-0.7101944,0.7010701,-0.32800224,0.64846647,0.6869538,-0.94249123,-0.27407125,-0.1912986,,0.10927044,1.3586898,0.45859575,0.9961404,0.033284273,-0.081218705,-0.025768925,-0.7736411,-0.63309985,-0.0839064,0.63274926,-0.76979744,,-0.082147025,0.25742167,-0.06229653,0.97207797,0.041828193,0.23089997,-0.22731403,0.41209763,0.8823287,-0.05824712,-0.9101791,0.41009915,,0.038949743,0.44091713,-0.3065547,0.06461347,0.7736545,-0.6303045,-0.86790615,0.35529858,0.3471337,0.49250787,0.52461565,0.6944166,,1.2761970529313487,0.1454190600216475,0.1874953856,0.78696635789742,0.28092464351774554,1.3777089660452977,-0.4018264026903271,,-0.5625779216886329,-0.24735913396141104,0.18674742627000002,0.8096128717937485,1.2980467477716844,-0.029236280604778564,0.8732373775538569,,-0.03987859174650544,-0.09379617566374027,0.05836094732,-0.08765896690267068,,-7.916987e-05,2.9802322e-07,-6.67572e-06,1.0,4.9859285e-05,4.0993094e-05,-4.987046e-05,1.0,5.4240227e-06,-4.0993094e-05,-5.4240227e-06,1.0,429,1.325,0,1,0.029,False,-0.2599376133421849,1.0479700209337843
1.3342903739976464,10:49:32.318227,10:49:16.090096,0,,0.124503195,0.00045865774,0.019120067,-0.97303903,-0.16681024,-0.15927774,-0.10898678,-0.2760734,0.95493734,-0.20326567,0.9465505,0.25044996,,0.023789302,-0.012338266,0.017295986,0.06423713,-0.710248,0.7010145,-0.3279931,0.64841276,0.687009,-0.94249356,-0.27405947,-0.19130433,,0.10927044,1.3586898,0.45859575,0.9961404,0.033284273,-0.081218705,-0.025768925,-0.7736411,-0.63309985,-0.0839064,0.63274926,-0.76979744,,-0.081997745,0.25771558,-0.062638335,0.97151387,0.043867346,0.23288712,-0.23005845,0.4103966,0.88241017,-0.056867093,-0.9108514,0.40879807,,0.03894739,0.44091856,-0.3065537,0.06460084,0.7737031,-0.63024616,-0.8679016,0.35526928,0.3471751,0.49251756,0.52456385,0.6944489,,1.27802734062254,0.14539589182302484,0.18714279472,0.783821008745152,0.28420391951211615,1.3769952261199574,-0.4005196501612527,,-0.5625933671543814,-0.24735141122853682,0.18674742627000002,0.8096128717937485,1.2980467477716844,-0.02915460186463803,0.8732373775538569,,-0.03987859174650544,-0.09379617566374027,0.05836094732,-0.08765896690267068,,-7.916987e-05,2.9802322e-07,-6.67572e-06,1.0,4.9859285e-05,4.0993094e-05,-4.987046e-05,1.0,5.4240227e-06,-4.0993094e-05,-5.4240227e-06,1.0,437,1.351,0,1,0.029,False,-0.26005676877922745,1.048114861536123
1.3676568289956776,10:49:32.350202,10:49:16.090096,0,,0.12432863,0.0004824996,0.019508094,-0.97202253,-0.17205407,-0.1599049,-0.1083388,-0.27563184,0.95513856,-0.20841035,0.9457401,0.24928021,,0.02379056,-0.012338117,0.017296284,0.064244084,-0.71030277,0.7009584,-0.3279921,0.6483574,0.68706167,-0.94249344,-0.27404848,-0.1913206,,0.10927044,1.3586898,0.45859575,0.9961404,0.033284273,-0.081218705,-0.025768925,-0.7736411,-0.63309985,-0.0839064,0.63274926,-0.76979744,,-0.081860356,0.25798562,-0.06293803,0.97107774,0.049182534,0.23364305,-0.23293057,0.4101201,0.88178504,-0.052453287,-0.91070443,0.4097146,,0.038946103,0.4409188,-0.30655366,0.064594015,0.77375287,-0.6301858,-0.8679012,0.3552383,0.34720778,0.49251914,0.52451146,0.6944873,,1.2798267373822343,0.14529549629565994,0.18684075915,0.7813047294233377,0.29048919850132643,1.3741570072738574,-0.4011730264257898,,-0.5626010898872555,-0.24735141122853682,0.18674742627000002,0.8096128717937485,1.2980467477716844,-0.029072923124497607,0.873400721619991,,-0.03987859174650544,-0.09379617566374027,0.05836094732,-0.08765896690267068,,-7.916987e-05,2.9802322e-07,-6.67572e-06,1.0,4.9859285e-05,4.0993094e-05,-4.987046e-05,1.0,5.4240227e-06,-4.0993094e-05,-5.4240227e-06,1.0,446,1.379,0,1,0.029,False,-0.2599376133421849,1.0483079823392407
1.3996355569979642,10:49:32.368498,10:49:16.090096,0,,0.12419705,0.00050003827,0.019796908,-0.9711766,-0.17530909,-0.16150162,-0.10822689,-0.27936757,0.9540653,-0.21237464,0.9440447,0.25234208,,0.023789302,-0.012338266,0.017295986,0.06423713,-0.7103625,0.7008984,-0.3279931,0.6483005,0.68711483,-0.94249356,-0.2740282,-0.19134909,,0.10927044,1.3586898,0.45859575,0.9961404,0.033284273,-0.081218705,-0.025768925,-0.7736411,-0.63309985,-0.0839064,0.63274926,-0.76979744,,-0.08175649,0.25818643,-0.06316146,0.97063917,0.052179653,0.23481242,-0.23543504,0.40614086,0.8829609,-0.04929433,-0.9123195,0.40650117,,0.03894739,0.44091856,-0.3065537,0.06460084,0.77380604,-0.63011974,-0.8679016,0.35521257,0.34723312,0.49251756,0.5244504,0.69453454,,1.2811704929023493,0.14521054623404345,0.18661650098000002,0.778998140045008,0.2951348394933514,1.376167989098159,-0.4003563060951185,,-0.5625933671543814,-0.24735141122853682,0.18674742627000002,0.8096128717937485,1.2980467477716844,-0.028991244384357073,0.8735640656861252,,-0.03987859174650544,-0.09379617566374027,0.05836094732,-0.08765896690267068,,-7.916987e-05,2.9802322e-07,-6.67572e-06,1.0,4.9859285e-05,4.0993094e-05,-4.987046e-05,1.0,5.4240227e-06,-4.0993094e-05,-5.4240227e-06,1.0,454,1.404,0,1,0.029,False,-0.26005676877922745,1.0480665813353434
1.4179076489963336,10:49:32.400232,10:49:16.232233,0,,0.12400228,0.00053820014,0.020168006,-0.9698139,-0.18170382,-0.16261853,-0.10711892,-0.28163955,0.9535222,-0.21905841,0.9421586,0.25367397,,0.023789302,-0.012338266,0.017295986,0.06423713,-0.7103625,0.7008984,-0.3279931,0.6483005,0.68711483,-0.94249356,-0.2740282,-0.19134909,,0.10927044,1.3586898,0.45859575,0.9961404,0.033284273,-0.081218705,-0.025768925,-0.7736411,-0.63309985,-0.0839064,0.63274926,-0.76979744,,-0.08159597,0.25845584,-0.06344208,0.9700586,0.05845565,0.23573114,-0.23896499,0.40309417,0.8834086,-0.043381628,-0.91328967,0.40499383,,0.03894739,0.44091856,-0.3065537,0.06460084,0.77380604,-0.63011974,-0.8679016,0.35521257,0.34723312,0.49251756,0.5244504,0.69453454,,1.2831320670524022,0.14501747791218783,0.18634428008,0.7760624808362246,0.3031963929795124,1.375801917030753,-0.40198974675646126,,-0.5625933671543814,-0.24735141122853682,0.18674742627000002,0.8096128717937485,1.2980467477716844,-0.028991244384357073,0.8735640656861252,,-0.03987859174650544,-0.09379617566374027,0.05836094732,-0.08765896690267068,,-7.916987e-05,2.9802322e-07,-6.67572e-06,1.0,4.9859285e-05,4.0993094e-05,-4.987046e-05,1.0,5.4240227e-06,-4.0993094e-05,-5.4240227e-06,1.0,467,1.444,0,1,0.029,False,-0.26059296824591627,1.0481631417369022
1.4496407989936415,10:49:32.443074,10:49:16.232233,0,,0.12362474,0.0005932152,0.020573333,-0.96805286,-0.18892594,-0.16486593,-0.10689695,-0.2838115,0.9529029,-0.22681892,0.940084,0.25454885,,0.023789436,-0.012339622,0.017296165,0.06423745,-0.7103611,0.70089984,-0.32800022,0.64829975,0.6871122,-0.942491,-0.27403373,-0.19135356,,0.10927044,1.3586898,0.45859575,0.9961404,0.033284273,-0.081218705,-0.025768925,-0.7736411,-0.63309985,-0.0839064,0.63274926,-0.76979744,,-0.08125614,0.25875774,-0.06376338,0.9690965,0.065579385,0.2378054,-0.243864,0.39998698,0.88348216,-0.03718084,-0.91417164,0.40361843,,0.038947172,0.44091764,-0.30655468,0.06459981,0.77380544,-0.6301206,-0.8679054,0.35520828,0.3472281,0.49251106,0.5244542,0.6945363,,1.2860898737432302,0.1443069864877592,0.18607854063,0.7714493020795651,0.3128975844628586,1.3744255450795522,-0.40133637049192417,,-0.5625933671543814,-0.24735913396141104,0.18674742627000002,0.8096128717937485,1.2980467477716844,-0.028991244384357073,0.8735640656861252,,-0.03987859174650544,-0.09379617566374027,0.05836094732,-0.08765896690267068,,-7.916987e-05,2.9802322e-07,-6.67572e-06,1.0,4.9859285e-05,4.0993094e-05,-4.987046e-05,1.0,5.4240227e-06,-4.0993094e-05,-5.4240227e-06,1.0,484,1.497,0,1,0.029,False,-0.2607717014014801,1.0482597021384612
1.4923911139921984,10:49:32.499224,10:49:16.232233,0,,0.123264745,0.00054484606,0.020775765,-0.9674658,-0.189173,-0.16799861,-0.10887576,-0.28809187,0.95139325,-0.22837692,0.9387313,0.25812256,,0.023790687,-0.012339458,0.017296523,0.06424439,-0.7103586,0.70090187,-0.32799923,0.6483005,0.6871119,-0.94249094,-0.27403837,-0.19134745,,0.10927044,1.3586898,0.45859575,0.9961404,0.033284273,-0.081218705,-0.025768925,-0.7736411,-0.63309985,-0.0839064,0.63274926,-0.76979744,,-0.080924645,0.25884873,-0.06399739,0.968461,0.0655091,0.24039942,-0.24637054,0.3958665,0.8846419,-0.03721399,-0.9159685,0.39952078,,0.038945887,0.4409179,-0.30655465,0.06459299,0.7738037,-0.63012344,-0.86790496,0.35520566,0.34723178,0.49251264,0.5244585,0.6945319,,1.2880823388247802,0.14314857655662552,0.18593335615,0.7683039529272973,0.3156303144581674,1.3773429476344794,-0.4011730264257898,,-0.5626010898872555,-0.24735913396141104,0.18674742627000002,0.8096128717937485,1.2980467477716844,-0.028991244384357073,0.8735640656861252,,-0.03987859174650544,-0.09379617566374027,0.05836094732,-0.08765896690267068,,-7.916987e-05,2.9802322e-07,-6.67572e-06,1.0,4.9859285e-05,4.0993094e-05,-4.987046e-05,1.0,5.4240227e-06,-4.0993094e-05,-5.4240227e-06,1.0,492,1.523,0,1,0.029,False,-0.260652545964438,1.0487907843470352
1.5486251980037196,10:49:32.523085,10:49:16.232233,0,,0.123138025,0.0004826784,0.02080211,-0.96741223,-0.1892106,-0.16826469,-0.10925554,-0.28756464,0.9515092,-0.22842257,0.93888545,0.25752118,,0.023788184,-0.012339771,0.017295808,0.06423049,-0.71030635,0.7009559,-0.32800126,0.64835507,0.6870595,-0.9424911,-0.2740447,-0.19133726,,0.10927044,1.3586898,0.45859575,0.9961404,0.033284273,-0.081218705,-0.025768925,-0.7736411,-0.63309985,-0.0839064,0.63274926,-0.76979744,,-0.08080829,0.25881723,-0.06407539,0.96837276,0.065586306,0.24073358,-0.2466862,0.3963648,0.88433075,-0.037418336,-0.91574746,0.4000081,,0.038948458,0.44091737,-0.30655468,0.064606644,0.7737557,-0.63018095,-0.86790574,0.35523924,0.34719542,0.49250945,0.52450657,0.6944979,,1.2885765937287306,0.14249214426231643,0.18590354148000002,0.7678845730403282,0.3163134969569946,1.3767858581159973,-0.4011730264257898,,-0.562585644421507,-0.24735913396141104,0.18674742627000002,0.8096128717937485,1.2980467477716844,-0.029072923124497607,0.8735640656861252,,-0.03987859174650544,-0.09379617566374027,0.05836094732,-0.08765896690267068,,-7.916987e-05,2.9802322e-07,-6.67572e-06,1.0,4.9859285e-05,4.0993094e-05,-4.987046e-05,1.0,5.4240227e-06,-4.0993094e-05,-5.4240227e-06,1.0,505,1.563,0,1,0.029,False,-0.26017592421626956,1.0478251803314462
1.5724894589948235,10:49:32.559694,10:49:16.232233,0,,0.12309763,0.0004158467,0.020803899,-0.96716106,-0.1896921,-0.16916418,-0.11011127,-0.28715152,0.95153534,-0.22907446,0.93891466,0.25683448,,0.023787051,-0.012341276,0.01729557,0.064223856,-0.7104221,0.7008394,-0.32800943,0.6482412,0.687163,-0.9424887,-0.27401423,-0.19139263,,0.10927044,1.3586898,0.45859575,0.9961404,0.033284273,-0.081218705,-0.025768925,-0.7736411,-0.63309985,-0.0839064,0.63274926,-0.76979744,,-0.080775455,0.2587674,-0.06412578,0.96809846,0.066103145,0.2416936,-0.24775586,0.3966885,0.88388646,-0.037449393,-0.9155701,0.40041095,,0.038949527,0.4409162,-0.3065557,0.06461244,0.77385986,-0.6300525,-0.8679099,0.35518086,0.34724474,0.49250138,0.5243925,0.69458973,,1.2885997619273533,0.1420442257556114,0.18588150455000002,0.7668361233229056,0.31686004295605635,1.376258507761071,-0.40133637049192417,,-0.5625779216886329,-0.24736685669428526,0.18674742627000002,0.8096128717937485,1.2980467477716844,-0.02890956564421643,0.8737274097522596,,-0.03987859174650544,-0.09379617566374027,0.05836094732,-0.08765896690267068,,-7.916987e-05,2.9802322e-07,-6.67572e-06,1.0,4.9859285e-05,4.0993094e-05,-4.987046e-05,1.0,5.4240227e-06,-4.0993094e-05,-5.4240227e-06,1.0,522,1.616,0,1,0.029,False,-0.26148663402373185,1.0483079823392407
1.6091230449965224,10:49:32.617616,10:49:16.440247,0,,0.12315667,0.00035737455,0.020786673,-0.96657914,-0.19121346,-0.17076951,-0.11131822,-0.28700382,0.95143944,-0.23093952,0.93865126,0.25612625,,0.02378957,-0.012340933,0.017296284,0.064237766,-0.7104169,0.70084333,-0.3280074,0.64824283,0.68716246,-0.9424885,-0.27402353,-0.19138038,,0.10927044,1.3586898,0.45859575,0.9961404,0.033284273,-0.081218705,-0.025768925,-0.7736411,-0.63309985,-0.0839064,0.63274926,-0.76979744,,-0.08083831,0.25871286,-0.064142376,0.9675786,0.067650035,0.24334158,-0.24988165,0.39660448,0.8833256,-0.036753353,-0.9154935,0.4006505,,0.038946956,0.44091675,-0.30655563,0.064598784,0.77385634,-0.6300582,-0.86790913,0.35517564,0.3472521,0.49250457,0.5244012,0.6945809,,1.2881518434206483,0.14188977109812692,0.18586724536000002,0.7649489138315448,0.31781649845441445,1.3757236186556174,-0.40149971455805833,,-0.5625933671543814,-0.24736685669428526,0.18674742627000002,0.8096128717937485,1.2980467477716844,-0.02890956564421643,0.8737274097522596,,-0.03987859174650544,-0.09379617566374027,0.05836094732,-0.08765896690267068,,-7.916987e-05,2.9802322e-07,-6.67572e-06,1.0,4.9859285e-05,4.0993094e-05,-4.987046e-05,1.0,5.4240227e-06,-4.0993094e-05,-5.4240227e-06,1.0,530,1.642,0,1,0.029,False,-0.2602355019347904,1.0478251803314462
1.6670495900034439,10:49:32.642782,10:49:16.440247,0,,0.12319408,0.0003567338,0.020793706,-0.9662563,-0.19205916,-0.17164521,-0.11188783,-0.2872684,0.95129275,-0.2320127,0.9383976,0.25608575,,0.02378957,-0.012340933,0.017296284,0.064237766,-0.7103597,0.70090127,-0.3280074,0.648299,0.68710953,-0.9424885,-0.2740392,-0.19135803,,0.10927044,1.3586898,0.45859575,0.9961404,0.033284273,-0.081218705,-0.025768925,-0.7736411,-0.63309985,-0.0839064,0.63274926,-0.76979744,,-0.080876105,0.25871754,-0.064142756,0.9673044,0.06848419,0.24419692,-0.25101084,0.39622587,0.8831753,-0.03627359,-0.9155954,0.4004613,,0.038946956,0.44091675,-0.30655563,0.064598784,0.7738049,-0.6301214,-0.86790913,0.355204,0.3472231,0.49250457,0.52445793,0.69453806,,1.2879973887631637,0.1419824438926176,0.18585687504,0.7639004641141223,0.3183630444534763,1.375604662001394,-0.40084633829352123,,-0.5625933671543814,-0.24736685669428526,0.18674742627000002,0.8096128717937485,1.2980467477716844,-0.028991244384356962,0.873890753818394,,-0.03987859174650544,-0.09379617566374027,0.05836094732,-0.08765896690267068,,-7.916987e-05,2.9802322e-07,-6.67572e-06,1.0,4.9859285e-05,4.0993094e-05,-4.987046e-05,1.0,5.4240227e-06,-4.0993094e-05,-5.4240227e-06,1.0,543,1.682,0,1,0.029,False,-0.260652545964438,1.0483079823392407
1.692208174004918,10:49:32.681249,10:49:16.440247,0,,0.12319721,0.00036011636,0.02081862,-0.96584725,-0.19255325,-0.17338537,-0.11331649,-0.2878809,0.9509384,-0.2330206,0.93810856,0.25622943,,0.02378957,-0.012340933,0.017296284,0.064237766,-0.7103597,0.70090127,-0.3280074,0.648299,0.68710953,-0.9424885,-0.2740392,-0.19135803,,0.10927044,1.3586898,0.45859575,0.9961404,0.033284273,-0.081218705,-0.025768925,-0.7736411,-0.63309985,-0.0839064,0.63274926,-0.76979744,,-0.08088127,0.2587365,-0.06415876,0.96684873,0.06893748,0.2458682,-0.252744,0.3955668,0.8829764,-0.036387123,-0.91584635,0.39987677,,0.038946956,0.44091675,-0.30655563,0.064598784,0.7738049,-0.6301214,-0.86790913,0.355204,0.3472231,0.49250457,0.52445793,0.69453806,,1.2880282796946607,0.14201333482411452,0.18583613440000002,0.7620132546227615,0.31863631745300713,1.3755451836742822,-0.4011730264257898,,-0.5625933671543814,-0.24736685669428526,0.18674742627000002,0.8096128717937485,1.2980467477716844,-0.028991244384356962,0.873890753818394,,-0.03987859174650544,-0.09379617566374027,0.05836094732,-0.08765896690267068,,-7.916987e-05,2.9802322e-07,-6.67572e-06,1.0,4.9859285e-05,4.0993094e-05,-4.987046e-05,1.0,5.4240227e-06,-4.0993094e-05,-5.4240227e-06,1.0,560,1.735,0,1,0.029,False,-0.2604738128088746,1.0485011031423586
1.7306315439927857,10:49:32.731588,10:49:16.440247,0,,0.12317948,0.00035779178,0.020936728,-0.96439844,-0.19362617,-0.18012378,-0.11904847,-0.29033202,0.9494918,-0.23614213,0.9371318,0.25694484,,0.02378831,-0.012341097,0.017295927,0.064230815,-0.71036226,0.70089936,-0.32800844,0.64829814,0.68710977,-0.9424886,-0.27403456,-0.19136414,,0.10927044,1.3586898,0.45859575,0.9961404,0.033284273,-0.081218705,-0.025768925,-0.7736411,-0.63309985,-0.0839064,0.63274926,-0.76979744,,-0.08087549,0.25881198,-0.06425115,0.9651212,0.06983882,0.25231653,-0.25909522,0.39306068,0.8822545,-0.037560098,-0.91685647,0.3974461,,0.03894824,0.44091648,-0.30655566,0.064605616,0.77380663,-0.6301186,-0.86790955,0.3552066,0.3472194,0.49250296,0.5244536,0.69454247,,1.2882676844137615,0.14202878028986296,0.18573243120000002,0.7548837965442877,0.31904622695230345,1.3755376449237553,-0.40084633829352145,,-0.562585644421507,-0.24736685669428526,0.18674742627000002,0.8096128717937485,1.2980467477716844,-0.028991244384356962,0.873890753818394,,-0.03987859174650544,-0.09379617566374027,0.05836094732,-0.08765896690267068,,-7.916987e-05,2.9802322e-07,-6.67572e-06,1.0,4.9859285e-05,4.0993094e-05,-4.987046e-05,1.0,5.4240227e-06,-4.0993094e-05,-5.4240227e-06,1.0,568,1.76,0,1,0.029,False,-0.2598780356236645,1.048452822941579
1.7810025139915524,10:49:32.763776,10:49:16.585708,0,,0.123187825,0.00035077333,0.02102992,-0.96418065,-0.19403648,-0.18084674,-0.11949596,-0.29094002,0.94924945,-0.23680457,0.9368584,0.2573321,,0.023788437,-0.012342408,0.017296106,0.06423112,-0.7103608,0.7009008,-0.32801557,0.6482974,0.6871071,-0.94248617,-0.2740401,-0.19136861,,0.10927044,1.3586898,0.45859575,0.9961404,0.033284273,-0.081218705,-0.025768925,-0.7736411,-0.63309985,-0.0839064,0.63274926,-0.76979744,,-0.08089358,0.25886795,-0.06432423,0.96492356,0.070208155,0.25296897,-0.25986427,0.39241648,0.88231504,-0.03732348,-0.9171042,0.3968965,,0.038948026,0.44091558,-0.3065566,0.06460459,0.77380604,-0.6301194,-0.8679133,0.35520232,0.3472144,0.4924965,0.5244574,0.69454426,,1.2883989708726233,0.14213689855010211,0.18564557977,0.7540450367703496,0.31945613645159976,1.3756934636535094,-0.3998662738967156,,-0.562585644421507,-0.24737457942715949,0.18674742627000002,0.8096128717937485,1.2980467477716844,-0.028991244384356962,0.873890753818394,,-0.03987859174650544,-0.09379617566374027,0.05836094732,-0.08765896690267068,,-7.916987e-05,2.9802322e-07,-6.67572e-06,1.0,4.9859285e-05,4.0993094e-05,-4.987046e-05,1.0,5.4240227e-06,-4.0993094e-05,-5.4240227e-06,1.0,577,1.788,0,1,0.029,False,-0.2599971910607066,1.0486942239454764
1.8132125150004867,10:49:32.789221,10:49:16.585708,0,,0.1232066,0.0003552884,0.021125525,-0.9634045,-0.19449663,-0.18445277,-0.12253483,-0.2924637,0.94839346,-0.23840506,0.93628836,0.25792816,,0.023788571,-0.012343749,0.017296225,0.064231426,-0.71035933,0.7009021,-0.32802266,0.6482966,0.68710446,-0.94248366,-0.27404556,-0.19137302,,0.10927044,1.3586898,0.45859575,0.9961404,0.033284273,-0.081218705,-0.025768925,-0.7736411,-0.63309985,-0.0839064,0.63274926,-0.76979744,,-0.08092104,0.25893438,-0.064390175,0.9639944,0.07056015,0.25639042,-0.2631956,0.3908861,0.8820069,-0.037984915,-0.9177305,0.39538312,,0.03894781,0.44091466,-0.3065576,0.06460356,0.77380544,-0.6301202,-0.86791706,0.35519806,0.34720936,0.49249,0.52446115,0.694546,,1.2884684754684914,0.14231452140620926,0.18555872834,0.7502706177876282,0.31945613645159976,1.3758568211337905,-0.4001929620289839,,-0.562585644421507,-0.2473823021600337,0.18674742627000002,0.8096128717937485,1.2980467477716844,-0.028991244384356962,0.873890753818394,,-0.03987859174650544,-0.09379617566374027,0.05836094732,-0.08765896690267068,,-7.916987e-05,2.9802322e-07,-6.67572e-06,1.0,4.9859285e-05,4.0993094e-05,-4.987046e-05,1.0,5.4240227e-06,-4.0993094e-05,-5.4240227e-06,1.0,585,1.814,0,1,0.029,False,-0.2608908568385213,1.0485976635439174
1.8386537740007043,10:49:32.814478,10:49:16.585708,0,,0.123242676,0.00034952164,0.021261275,-0.9630937,-0.1947427,-0.18581143,-0.12360855,-0.2932359,0.9480156,-0.23910569,0.9359957,0.25834173,,0.023788571,-0.012343749,0.017296225,0.064231426,-0.71035933,0.7009021,-0.32802266,0.6482966,0.68710446,-0.94248366,-0.27404556,-0.19137302,,0.10927044,1.3586898,0.45859575,0.9961404,0.033284273,-0.081218705,-0.025768925,-0.7736411,-0.63309985,-0.0839064,0.63274926,-0.76979744,,-0.080970585,0.25901964,-0.06449036,0.9636431,0.070751645,0.25765532,-0.2644608,0.3901078,0.881973,-0.038112305,-0.9180469,0.3946357,,0.03894781,0.44091466,-0.3065576,0.06460356,0.77380544,-0.6301202,-0.86791706,0.35519806,0.34720936,0.49249,0.52446115,0.694546,,1.2885379800643595,0.14258481705680712,0.18542909934000001,0.7488027881832365,0.31945613645159976,1.3759384998739312,-0.4003563060951183,,-0.562585644421507,-0.2473823021600337,0.18674742627000002,0.8096128717937485,1.2980467477716844,-0.028991244384356962,0.873890753818394,,-0.03987859174650544,-0.09379617566374027,0.05836094732,-0.08765896690267068,,-7.916987e-05,2.9802322e-07,-6.67572e-06,1.0,4.9859285e-05,4.0993094e-05,-4.987046e-05,1.0,5.4240227e-06,-4.0993094e-05,-5.4240227e-06,1.0,598,1.854,0,1,0.029,False,-0.2607121236829584,1.0485011031423586
1.8639133849937934,10:49:32.850069,10:49:16.585708,0,,0.123281956,0.00034223497,0.021409228,-0.96258265,-0.1952563,-0.18790855,-0.12530775,-0.29411617,0.94751966,-0.2402761,0.9356124,0.2586439,,0.023788571,-0.012343749,0.017296225,0.064231426,-0.71035933,0.7009021,-0.32802266,0.6482966,0.68710446,-0.94248366,-0.27404556,-0.19137302,,0.10927044,1.3586898,0.45859575,0.9961404,0.033284273,-0.081218705,-0.025768925,-0.7736411,-0.63309985,-0.0839064,0.63274926,-0.76979744,,-0.08102467,0.25911182,-0.0646002,0.96307415,0.07120548,0.25964963,-0.26650319,0.3891846,0.8817661,-0.038265064,-0.91840357,0.39379013,,0.03894781,0.44091466,-0.3065576,0.06460356,0.77380544,-0.6301202,-0.86791706,0.35519806,0.34720936,0.49249,0.52446115,0.694546,,1.2886074846602276,0.1428628354402792,0.18528780373,0.7464961988049067,0.31959277295136523,1.3758270819702347,-0.4003563060951183,,-0.562585644421507,-0.2473823021600337,0.18674742627000002,0.8096128717937485,1.2980467477716844,-0.028991244384356962,0.873890753818394,,-0.03987859174650544,-0.09379617566374027,0.05836094732,-0.08765896690267068,,-7.916987e-05,2.9802322e-07,-6.67572e-06,1.0,4.9859285e-05,4.0993094e-05,-4.987046e-05,1.0,5.4240227e-06,-4.0993094e-05,-5.4240227e-06,1.0,606,1.879,0,1,0.029,False,-0.26095043455704303,1.0484045427407995
1.899501206993591,10:49:32.876236,10:49:16.585708,0,,0.12330687,0.00032930076,0.021565676,-0.9628136,-0.19486763,-0.18712708,-0.12459795,-0.2942973,0.9475571,-0.2397192,0.9356365,0.2590733,,0.023788571,-0.012343749,0.017296225,0.064231426,-0.71035933,0.7009021,-0.32802266,0.6482966,0.68710446,-0.94248366,-0.27404556,-0.19137302,,0.10927044,1.3586898,0.45859575,0.9961404,0.033284273,-0.081218705,-0.025768925,-0.7736411,-0.63309985,-0.0839064,0.63274926,-0.76979744,,-0.08106596,0.2592051,-0.0647221,0.96332246,0.07079956,0.25883818,-0.26560566,0.38906947,0.88208765,-0.038254615,-0.91848373,0.39360413,,0.03894781,0.44091466,-0.3065576,0.06460356,0.77380544,-0.6301202,-0.86791706,0.35519806,0.34720936,0.49249,0.52446115,0.694546,,1.2887696620505862,0.14313313109087705,0.18513743409000002,0.7473349585788448,0.3193194999518343,1.3760499177776275,-0.40068299422738685,,-0.562585644421507,-0.2473823021600337,0.18674742627000002,0.8096128717937485,1.2980467477716844,-0.028991244384356962,0.873890753818394,,-0.03987859174650544,-0.09379617566374027,0.05836094732,-0.08765896690267068,,-7.916987e-05,2.9802322e-07,-6.67572e-06,1.0,4.9859285e-05,4.0993094e-05,-4.987046e-05,1.0,5.4240227e-06,-4.0993094e-05,-5.4240227e-06,1.0,615,1.907,0,1,0.029,False,-0.2607121236829584,1.0489356249493738
1.9256574699975317,10:49:32.910539,10:49:16.585708,0,,0.12332471,0.0003246218,0.021720469,-0.96273094,-0.19528922,-0.18711315,-0.12444648,-0.29438627,0.94754934,-0.24012968,0.9355206,0.25911158,,0.023792297,-0.012343273,0.017297298,0.064203754,-0.7101605,0.70110613,-0.32797804,0.64851236,0.68692213,-0.942501,-0.2740504,-0.19128019,,0.10927044,1.3586898,0.45859575,0.9961404,0.033284273,-0.081218705,-0.025768925,-0.7736411,-0.63309985,-0.0839064,0.63274926,-0.76979744,,-0.081099205,0.25930342,-0.0648384,0.96329653,0.071218856,0.25881982,-0.26575956,0.38892007,0.88210714,-0.03783756,-0.9185146,0.39357245,,0.038944,0.44091547,-0.3065575,0.06463565,0.7736201,-0.63034445,-0.867893,0.35534456,0.34711957,0.49252814,0.5246352,0.69438744,,1.2889936213039388,0.14338025854285225,0.18499484219,0.7471252686353602,0.31972940945113065,1.3757156640665382,-0.40068299422738685,,-0.5626010898872555,-0.24737457942715949,0.18674742627000002,0.8098225617372331,1.2980467477716844,-0.029072923124497607,0.8737274097522596,,-0.03987859174650544,-0.09379617566374027,0.05836094732,-0.08765896690267068,,-7.916987e-05,2.9802322e-07,-6.67572e-06,1.0,4.9859285e-05,4.0993094e-05,-4.987046e-05,1.0,5.4240227e-06,-4.0993094e-05,-5.4240227e-06,1.0,636,1.972,0,1,0.029,False,-0.2604738128088746,1.0485976635439174
1.9599457119911676,10:49:32.968062,10:49:16.774279,0,,0.123358056,0.0003042817,0.022022545,-0.9624223,-0.1969598,-0.18694992,-0.12374343,-0.29472277,0.94753677,-0.24172503,0.9350643,0.25927517,,0.023792058,-0.012343511,0.017297357,0.064110816,-0.71023846,0.7010358,-0.32807437,0.6484345,0.6869496,-0.94247377,-0.27403283,-0.19143945,,0.10927044,1.3586898,0.45859575,0.9961404,0.033284273,-0.081218705,-0.025768925,-0.7736411,-0.63309985,-0.0839064,0.63274926,-0.76979744,,-0.08116382,0.2594868,-0.06507288,0.9632202,0.07288168,0.258641,-0.26627147,0.38834196,0.88220745,-0.036144394,-0.91862875,0.39346513,,0.03894421,0.44091535,-0.30655774,0.06471867,0.77369064,-0.6302494,-0.8679418,0.35530245,0.3470406,0.49243122,0.5245598,0.69451314,,1.2894415398106438,0.1437741179194377,0.18471484355,0.7467058887483912,0.3215056839480814,1.375165697460031,-0.4011730264257898,,-0.5626010898872555,-0.24737457942715949,0.18674612998,0.8098225617372331,1.2979101112719187,-0.028961505220801098,0.8737274097522596,,-0.03987859174650544,-0.09379617566374027,0.05836094732,-0.08765896690267068,,-7.916987e-05,2.9802322e-07,-6.67572e-06,1.0,4.9859285e-05,4.0993094e-05,-4.987046e-05,1.0,5.4240227e-06,-4.0993094e-05,-5.4240227e-06,1.0,653,2.026,0,1,0.029,False,-0.26101001227556386,1.0486459437446969
2.0174895679956535,10:49:33.026172,10:49:16.774279,0,,0.12340437,0.00031085312,0.022291645,-0.9614133,-0.19859436,-0.1903803,-0.12619294,-0.29657117,0.94663656,-0.24445798,0.9341337,0.2600662,,0.023792058,-0.012343511,0.017297357,0.064110816,-0.71035296,0.70091975,-0.32807437,0.6483222,0.6870555,-0.94247377,-0.27400157,-0.19148421,,0.10927044,1.3586898,0.45859575,0.9961404,0.033284273,-0.081218705,-0.025768925,-0.7736411,-0.63309985,-0.0839064,0.63274926,-0.76979744,,-0.08123525,0.25966904,-0.06526338,0.9622327,0.07439734,0.26186493,-0.26989788,0.3863125,0.88199645,-0.035543505,-0.91936266,0.39180222,,0.03894421,0.44091535,-0.30655774,0.06471867,0.7737936,-0.630123,-0.8679418,0.35524574,0.34709865,0.49243122,0.5244463,0.69459885,,1.2897736173242353,0.14426065009051384,0.18447243732000002,0.7427217798221853,0.3227354124459703,1.3750614024683094,-0.4000296179628502,,-0.5626010898872555,-0.24737457942715949,0.18674612998,0.8098225617372331,1.2979101112719187,-0.02879814774051992,0.8740540978845281,,-0.03987859174650544,-0.09379617566374027,0.05836094732,-0.08765896690267068,,-7.916987e-05,2.9802322e-07,-6.67572e-06,1.0,4.9859285e-05,4.0993094e-05,-4.987046e-05,1.0,5.4240227e-06,-4.0993094e-05,-5.4240227e-06,1.0,674,2.091,0,1,0.029,False,-0.26011634649774784,1.0486459437446969
2.075602582001011,10:49:33.091241,10:49:16.774279,0,,0.123564444,0.00033727288,0.022597656,-0.9605978,-0.20190838,-0.1910098,-0.12514152,-0.29944336,0.9458716,-0.24817602,0.9325056,0.26237747,,0.023687162,-0.012356639,0.017268658,0.06387193,-0.70993197,0.70136786,-0.32806256,0.6488061,0.68660426,-0.9424942,-0.27394736,-0.19146171,,0.10929005,1.3586857,0.45858628,0.9961404,0.03328575,-0.0812175,-0.025767025,-0.77364105,-0.6331,-0.0839064,0.63274926,-0.76979744,,-0.08144154,0.25989425,-0.06546074,0.9618988,0.07753698,0.26218075,-0.271531,0.3830283,0.88292706,-0.031963143,-0.9204767,0.38948816,,0.039030824,0.44089574,-0.30656847,0.06495885,0.7733916,-0.63059163,-0.8679307,0.3556196,0.34674332,0.4924191,0.5247858,0.69435096,,1.2901443085021982,0.14524143716554036,0.18420929045,0.7414636401612781,0.32615132494010635,1.3762782131427866,-0.40117302642579,,-0.5626705944831235,-0.2473823021600337,0.18674612998,0.8104516315676866,1.2977734747721534,-0.028686729836823632,0.8737274097522596,,-0.03987859174650544,-0.09379617566374027,0.05836094732,-0.08765896690267068,,-5.8736652e-05,-1.9073486e-06,1.5497208e-06,0.99999994,5.1330775e-05,4.220009e-05,-5.134195e-05,1.0,5.5730343e-06,-4.220009e-05,-5.6028366e-06,1.0,691,2.144,0,1,0.029,False,-0.26041423509035333,1.048452822941579
2.1406664950045524,10:49:33.142367,10:49:16.922101,0,,0.123680755,0.0004570037,0.022920772,-0.9601269,-0.20242287,-0.19282448,-0.12613255,-0.30188653,0.944963,-0.24949321,0.93160594,0.26431718,,0.023717642,-0.012356773,0.017273784,0.06361455,-0.7099863,0.7013362,-0.3282161,0.6487814,0.68655425,-0.94245815,-0.27386472,-0.19175714,,0.10929005,1.3586857,0.45858628,0.9961404,0.03328575,-0.0812175,-0.025767025,-0.77364105,-0.6331,-0.0839064,0.63274926,-0.76979744,,-0.08157571,0.26019832,-0.0656084,0.9614578,0.07787897,0.26369253,-0.27313602,0.3805871,0.8834875,-0.031552874,-0.9214599,0.38718998,,0.038999934,0.44089705,-0.3065679,0.06520016,0.77343154,-0.6305177,-0.86800617,0.35565862,0.3465144,0.49225423,0.52470046,0.6945324,,1.2905381678787835,0.14660063815140387,0.18395262503,0.7393667407264329,0.32615132494010635,1.376931643063911,-0.4005196501612527,,-0.5628327718734822,-0.24737457942715949,0.18674612998,0.8110807013981401,1.297363565272857,-0.027944082425031436,0.873890753818394,,-0.03987859174650544,-0.09379617566374027,0.05836094732,-0.08765896690267068,,-5.8736652e-05,-1.9073486e-06,1.5497208e-06,0.99999994,5.1330775e-05,4.220009e-05,-5.134195e-05,1.0,5.5730343e-06,-4.220009e-05,-5.6028366e-06,1.0,699,2.17,0,1,0.029,False,-0.26041423509035333,1.0481631417369022
2.1917918999970425,10:49:33.169419,10:49:16.922101,0,,0.123751745,0.0005540103,0.023162544,-0.9601264,-0.20207256,-0.19319439,-0.12617746,-0.30344403,0.944458,-0.24947277,0.9311758,0.26584756,,0.023729071,-0.0123566985,0.017277122,0.063677385,-0.7099622,0.70135486,-0.32821408,0.64878774,0.6865492,-0.9424547,-0.27391222,-0.19170657,,0.10929005,1.3586857,0.45858628,0.9961404,0.03328575,-0.0812175,-0.025767025,-0.77364105,-0.6331,-0.0839064,0.63274926,-0.76979744,,-0.081659436,0.26043123,-0.06571631,0.9614506,0.077411644,0.26385653,-0.27315646,0.37913504,0.8841053,-0.03159721,-0.9220976,0.3856651,,0.038988154,0.4408985,-0.30656865,0.06513769,0.77341527,-0.6305441,-0.8680064,0.35563076,0.34654245,0.49226213,0.5247434,0.69449437,,1.2909243045224947,0.14763548435654994,0.18376466298000002,0.7389473608394638,0.32560477894104456,1.3775406721589776,-0.4005196501612529,,-0.5629022764693503,-0.2473823021600337,0.18674612998,0.8110807013981401,1.297363565272857,-0.027944082425031436,0.873890753818394,,-0.03987859174650544,-0.09379617566374027,0.05836094732,-0.08765896690267068,,-5.8736652e-05,-1.9073486e-06,1.5497208e-06,0.99999994,5.1330775e-05,4.220009e-05,-5.134195e-05,1.0,5.5730343e-06,-4.220009e-05,-5.6028366e-06,1.0,712,2.21,0,1,0.029,False,-0.260652545964438,1.048452822941579
2.218848585995147,10:49:33.207699,10:49:16.922101,0,,0.12387579,0.0006902367,0.023500323,-0.95980495,-0.20226534,-0.194585,-0.1269359,-0.3055106,0.9436898,-0.2503235,0.93045795,0.26755583,,0.023730196,-0.012355223,0.01727724,0.06368401,-0.70996106,0.70135546,-0.32820585,0.64878935,0.6865516,-0.9424571,-0.27391142,-0.19169599,,0.10929005,1.3586857,0.45858628,0.9961404,0.03328575,-0.0812175,-0.025767025,-0.77364105,-0.6331,-0.0839064,0.63274926,-0.76979744,,-0.08180096,0.2607575,-0.06586314,0.9611363,0.07745676,0.2649859,-0.27428216,0.37710205,0.8846261,-0.03140645,-0.92292714,0.38369146,,0.038987085,0.44089967,-0.30656764,0.065131895,0.7734141,-0.63054615,-0.86800224,0.35563242,0.34655115,0.4922702,0.524744,0.69448817,,1.2913490548305773,0.14914141726702373,0.18350021982,0.7372698412915877,0.32519486944174825,1.3778749258700669,-0.4005196501612529,,-0.5629099992022245,-0.24737457942715949,0.18674612998,0.8110807013981401,1.297363565272857,-0.027944082425031436,0.873890753818394,,-0.03987859174650544,-0.09379617566374027,0.05836094732,-0.08765896690267068,,-5.8736652e-05,-1.9073486e-06,1.5497208e-06,0.99999994,5.1330775e-05,4.220009e-05,-5.134195e-05,1.0,5.5730343e-06,-4.220009e-05,-5.6028366e-06,1.0,729,2.263,0,1,0.029,False,-0.26106958999408425,1.048114861536123
2.257062175995088,10:49:33.258945,10:49:16.922101,0,,0.12406127,0.00088611245,0.02394113,-0.9589822,-0.2039361,-0.19688365,-0.12812375,-0.30772188,0.9428105,-0.25285852,0.92936397,0.26897073,,0.023726955,-0.01236102,0.017276883,0.06366441,-0.71013486,0.7011813,-0.32823747,0.6486156,0.68670064,-0.94244736,-0.27387246,-0.19179928,,0.10929005,1.3586857,0.45858628,0.9961404,0.03328575,-0.0812175,-0.025767025,-0.77364105,-0.6331,-0.0839064,0.63274926,-0.76979744,,-0.082007125,0.2611973,-0.06603967,0.9604455,0.07898633,0.267031,-0.2768296,0.37469107,0.88485706,-0.03016252,-0.9237791,0.3817361,,0.038990077,0.44089526,-0.3065716,0.06514827,0.77357143,-0.6303514,-0.86801845,0.35553822,0.34660718,0.49223945,0.5245758,0.694637,,1.2918664779331501,0.15121883241019013,0.18316318442,0.7341244921393199,0.32574141544081003,1.3772658967750002,-0.40084633829352123,,-0.5628868310036018,-0.2474054703586564,0.18674612998,0.8110807013981401,1.297363565272857,-0.027699046204609723,0.8734007216199913,,-0.03987859174650544,-0.09379617566374027,0.05836094732,-0.08765896690267068,,-5.8736652e-05,-1.9073486e-06,1.5497208e-06,0.99999994,5.1330775e-05,4.220009e-05,-5.134195e-05,1.0,5.5730343e-06,-4.220009e-05,-5.6028366e-06,1.0,737,2.289,0,1,0.029,False,-0.26101001227556386,1.0480665813353434
2.3082634680031333,10:49:33.283578,10:49:16.922101,0,,0.124155484,0.0009795278,0.02410984,-0.95824325,-0.20616554,-0.19815575,-0.12862548,-0.3081413,0.9426051,-0.25539264,0.9287328,0.26875612,,0.02372475,-0.012363955,0.017276525,0.063699685,-0.7103283,0.7009821,-0.32829556,0.6483991,0.6868773,-0.94242465,-0.27388322,-0.19189492,,0.10929005,1.3586857,0.45858628,0.9961404,0.03328575,-0.0812175,-0.025767025,-0.77364105,-0.6331,-0.0839064,0.63274926,-0.76979744,,-0.08210708,0.26137987,-0.06609197,0.95990914,0.081210695,0.26828954,-0.27886012,0.3739274,0.8845424,-0.028486509,-0.9238956,0.38158277,,0.038992167,0.44089293,-0.3065736,0.06510724,0.7737538,-0.6301318,-0.8680497,0.35538056,0.3466906,0.49218976,0.52441365,0.69479465,,1.2920441007892574,0.15214556035509708,0.18303874058000003,0.7318179027609899,0.32724441693822987,1.3760402998343395,-0.4011730264257898,,-0.5628791082707276,-0.24742863855727906,0.18674612998,0.8108710114546558,1.297363565272857,-0.0276173674644693,0.8735640656861254,,-0.03987859174650544,-0.09379617566374027,0.05836094732,-0.08765896690267068,,-5.8736652e-05,-1.9073486e-06,1.5497208e-06,0.99999994,5.1330775e-05,4.220009e-05,-5.134195e-05,1.0,5.5730343e-06,-4.220009e-05,-5.6028366e-06,1.0,746,2.317,0,1,0.029,False,-0.26095043455704303,1.0480665813353434
2.332989381000516,10:49:33.313307,10:49:17.115977,0,,0.12427533,0.0011322647,0.024374738,-0.95777285,-0.20718674,-0.19936138,-0.12901069,-0.30998597,0.94194734,-0.25695822,0.9278914,0.27016675,,0.023728773,-0.012366161,0.017277837,0.063721135,-0.71043247,0.70087457,-0.32830676,0.6482878,0.686977,-0.9424194,-0.27387688,-0.19193023,,0.10929005,1.3586857,0.45858628,0.9961404,0.03328575,-0.0812175,-0.025767025,-0.77364105,-0.6331,-0.0839064,0.63274926,-0.76979744,,-0.08223561,0.2616707,-0.06617415,0.95955616,0.082110986,0.2692764,-0.28017113,0.3719684,0.88495404,-0.027497858,-0.92460656,0.3799297,,0.03898788,0.44089192,-0.30657545,0.06508471,0.7738503,-0.6300156,-0.86805606,0.35530752,0.3467496,0.49218157,0.5243207,0.69487053,,1.292407069234346,0.15355109773820594,0.18285466740000003,0.7303500731565984,0.32765432643752623,1.376114439823953,-0.40133637049192394,,-0.5629022764693503,-0.2474440840230275,0.18674612998,0.8108710114546558,1.297363565272857,-0.02745400998418812,0.873890753818394,,-0.03987859174650544,-0.09379617566374027,0.05836094732,-0.08765896690267068,,-5.8736652e-05,-1.9073486e-06,1.5497208e-06,0.99999994,5.1330775e-05,4.220009e-05,-5.134195e-05,1.0,5.5730343e-06,-4.220009e-05,-5.6028366e-06,1.0,754,2.342,0,1,0.029,False,-0.26101001227556386,1.0484045427407995
2.362671278999187,10:49:33.345301,10:49:17.115977,0,,0.12438207,0.0013060123,0.024637312,-0.9573564,-0.20760515,-0.20092037,-0.12979016,-0.31226626,0.94108677,-0.25811508,0.9270329,0.2720049,,0.023730509,-0.012371272,0.01727885,0.06368077,-0.71029025,0.7010223,-0.32829258,0.6484426,0.6868376,-0.94242704,-0.2738788,-0.19188976,,0.10929005,1.3586857,0.45858628,0.9961404,0.03328575,-0.0812175,-0.025767025,-0.77364105,-0.6331,-0.0839064,0.63274926,-0.76979744,,-0.082348764,0.2619757,-0.066242844,0.9591755,0.08237086,0.2705501,-0.28151214,0.36967856,0.88548785,-0.027078167,-0.9255014,0.377775,,0.038985778,0.44088858,-0.3065793,0.06512641,0.77371764,-0.6301742,-0.8680477,0.3554138,0.34666145,0.4921907,0.52444446,0.6947707,,1.2928704332067993,0.1550570306486797,0.18267837196000003,0.7284628636652376,0.32751768993776076,1.3765525726882117,-0.40133637049192417,,-0.5629022764693503,-0.2474672522216502,0.18674612998,0.8110807013981401,1.297363565272857,-0.02745400998418812,0.873890753818394,,-0.03987859174650544,-0.09379617566374027,0.05836094732,-0.08765896690267068,,-5.8736652e-05,-1.9073486e-06,1.5497208e-06,0.99999994,5.1330775e-05,4.220009e-05,-5.134195e-05,1.0,5.5730343e-06,-4.220009e-05,-5.6028366e-06,1.0,767,2.382,0,1,0.029,False,-0.26053339052739544,1.04835626254002
2.394715932998224,10:49:33.379116,10:49:17.115977,0,,0.12448832,0.0015816838,0.02493915,-0.95703435,-0.207593,-0.2024609,-0.13047,-0.31526735,0.9399915,-0.25896496,0.9260193,0.27463698,,0.023729324,-0.012371868,0.0172773,0.06358074,-0.710428,0.70089185,-0.32838985,0.64830804,0.68691826,-0.9423999,-0.2738406,-0.19207758,,0.10929005,1.3586857,0.45858628,0.9961404,0.03328575,-0.0812175,-0.025767025,-0.77364105,-0.6331,-0.0839064,0.63274926,-0.76979744,,-0.08245459,0.2623833,-0.06627493,0.95886886,0.08214446,0.2717035,-0.28257793,0.36674947,0.8863659,-0.026837066,-0.9266861,0.37487686,,0.038987145,0.4408872,-0.3065787,0.06521641,0.7738413,-0.63001305,-0.8680968,0.35534623,0.3466078,0.49209222,0.5243078,0.6949436,,1.2936735974257187,0.15709583212747497,0.18250985426000002,0.7265756541738769,0.326971143938699,1.3772432805234192,-0.40149971455805855,,-0.562894553736476,-0.2474672522216502,0.18674612998,0.8110807013981401,1.2972269287730915,-0.027260913340350967,0.8740540978845284,,-0.03987859174650544,-0.09379617566374027,0.05836094732,-0.08765896690267068,,-5.8736652e-05,-1.9073486e-06,1.5497208e-06,0.99999994,5.1330775e-05,4.220009e-05,-5.134195e-05,1.0,5.5730343e-06,-4.220009e-05,-5.6028366e-06,1.0,775,2.408,0,1,0.029,False,-0.25963972474957986,1.047680339729108
2.4284997600043425,10:49:33.406642,10:49:17.115977,0,,0.124526046,0.0017083138,0.025064602,-0.95693135,-0.20763695,-0.20290223,-0.13056137,-0.31644335,0.93958354,-0.2592993,0.9256082,0.27570513,,0.023729727,-0.0123758465,0.017277777,0.06358166,-0.7106527,0.700664,-0.32841122,0.6480812,0.687122,-0.9423924,-0.27379435,-0.19218037,,0.10929005,1.3586857,0.45858628,0.9961404,0.03328575,-0.0812175,-0.025767025,-0.77364105,-0.6331,-0.0839064,0.63274926,-0.76979744,,-0.082490966,0.26256174,-0.06628137,0.95879,0.08210533,0.27199343,-0.28286475,0.36559188,0.88675255,-0.026631476,-0.92714685,0.37375057,,0.038986497,0.4408845,-0.3065816,0.06521333,0.77404535,-0.6297627,-0.8681081,0.35522014,0.3467088,0.49207273,0.524092,0.6951201,,1.2940751795351784,0.15797622367513656,0.18244633605000002,0.7259465843434233,0.32683450743893355,1.3774363771672562,-0.40133637049192394,,-0.562894553736476,-0.24749042042027286,0.18674612998,0.8110807013981401,1.2972269287730915,-0.026934198379788832,0.8737274097522596,,-0.03987859174650544,-0.09379617566374027,0.05836094732,-0.08765896690267068,,-5.8736652e-05,-1.9073486e-06,1.5497208e-06,0.99999994,5.1330775e-05,4.220009e-05,-5.134195e-05,1.0,5.5730343e-06,-4.220009e-05,-5.6028366e-06,1.0,784,2.435,0,1,0.029,False,-0.2596993024681016,1.0482114219376817
2.456057970994152,10:49:33.437370,10:49:17.115977,0,,0.12456292,0.0018830448,0.02522713,-0.95650816,-0.20753929,-0.20498663,-0.1320069,-0.3186848,0.93862355,-0.26012737,0.9248608,0.27742794,,0.023727342,-0.012377486,0.01727724,0.06356808,-0.71071357,0.7006035,-0.32842043,0.6480228,0.6871728,-0.9423901,-0.2737748,-0.1922194,,0.10929005,1.3586857,0.45858628,0.9961404,0.03328575,-0.0812175,-0.025767025,-0.77364105,-0.6331,-0.0839064,0.63274926,-0.76979744,,-0.08252508,0.26280075,-0.06628451,0.9583011,0.081847645,0.27378803,-0.2844924,0.36341187,0.8871279,-0.026888493,-0.92802626,0.37154305,,0.03898885,0.44088307,-0.30658263,0.06522596,0.77409965,-0.6296946,-0.8681126,0.3551928,0.34672546,0.49206305,0.5240303,0.6951735,,1.2946543845007452,0.1591191881405218,0.18236985494000002,0.7236399949650936,0.3264245979396372,1.3779339883586266,-0.40068299422738707,,-0.5628791082707276,-0.24749814315314708,0.18674612998,0.8110807013981401,1.2972269287730915,-0.026852519639648298,0.8735640656861253,,-0.03987859174650544,-0.09379617566374027,0.05836094732,-0.08765896690267068,,-5.8736652e-05,-1.9073486e-06,1.5497208e-06,0.99999994,5.1330775e-05,4.220009e-05,-5.134195e-05,1.0,5.5730343e-06,-4.220009e-05,-5.6028366e-06,1.0,792,2.461,0,1,0.029,False,-0.2596993024681016,1.0482597021384612
2.4868014300009236,10:49:33.467379,10:49:17.276838,0,,0.12457444,0.0020015687,0.025357425,-0.9564832,-0.20740747,-0.20523652,-0.13198377,-0.31977654,0.93825537,-0.260231,0.92451346,0.27848643,,0.023729384,-0.012385264,0.017278552,0.06357688,-0.71075976,0.7005558,-0.32846227,0.6479627,0.68720937,-0.94237494,-0.2737968,-0.19226238,,0.10929005,1.3586857,0.45858628,0.9961404,0.03328575,-0.0812175,-0.025767025,-0.77364105,-0.6331,-0.0839064,0.63274926,-0.76979744,,-0.08253684,0.26297584,-0.06630356,0.9582889,0.081637114,0.2738936,-0.2845426,0.36236227,0.88754106,-0.026792409,-0.9284552,0.370477,,0.03898627,0.4408779,-0.3065884,0.06521298,0.7741458,-0.6296392,-0.8681348,0.3551362,0.34672797,0.49202567,0.5240005,0.6952224,,1.2951718076033183,0.15989146142794425,0.18230244786000002,0.7232206150781245,0.3262879614398718,1.3781270850024634,-0.4005196501612529,,-0.5628868310036018,-0.24754447955039244,0.18674612998,0.8110807013981401,1.2972269287730915,-0.026770840899507653,0.873400721619991,,-0.03987859174650544,-0.09379617566374027,0.05836094732,-0.08765896690267068,,-5.8736652e-05,-1.9073486e-06,1.5497208e-06,0.99999994,5.1330775e-05,4.220009e-05,-5.134195e-05,1.0,5.5730343e-06,-4.220009e-05,-5.6028366e-06,1.0,805,2.501,0,1,0.029,False,-0.26041423509035333,1.0480665813353434
2.516796900992631,10:49:33.499402,10:49:17.276838,0,,0.12455756,0.0020540208,0.025478363,-0.9559344,-0.20713466,-0.20804961,-0.13437442,-0.3213689,0.9373716,-0.2610228,0.9240223,0.27937403,,0.023732156,-0.012387633,0.017279565,0.063591376,-0.7106947,0.70062053,-0.3284745,0.6480189,0.68715054,-0.9423697,-0.27383286,-0.19223672,,0.10929005,1.3586857,0.45858628,0.9961404,0.03328575,-0.0812175,-0.025767025,-0.77364105,-0.6331,-0.0839064,0.63274926,-0.76979744,,-0.08252646,0.26309454,-0.06636245,0.95757353,0.0812488,0.27649885,-0.2868576,0.36084267,0.88741493,-0.027671188,-0.92908084,0.36884022,,0.038983267,0.44087663,-0.3065903,0.06519728,0.7740897,-0.62970984,-0.86814153,0.3551507,0.34669626,0.49201587,0.5240736,0.6951743,,1.2955888351785265,0.16024670714015857,0.18221818901000003,0.7202849558693412,0.32587805194057545,1.3783796599734122,-0.4003563060951185,,-0.5629022764693503,-0.24755992501614088,0.18674612998,0.8110807013981401,1.2972269287730915,-0.026852519639648187,0.8732373775538569,,-0.03987859174650544,-0.09379617566374027,0.05836094732,-0.08765896690267068,,-5.8736652e-05,-1.9073486e-06,1.5497208e-06,0.99999994,5.1330775e-05,4.220009e-05,-5.134195e-05,1.0,5.5730343e-06,-4.220009e-05,-5.6028366e-06,1.0,813,2.526,0,1,0.029,False,-0.26005676877922745,1.0482597021384612
2.5488160099921515,10:49:33.527339,10:49:17.276838,0,,0.12454825,0.0020472258,0.025524437,-0.9560066,-0.20701957,-0.2078324,-0.1341939,-0.32137507,0.93739533,-0.26085135,0.924046,0.27945593,,0.023731038,-0.012389109,0.017279327,0.063584745,-0.71075296,0.70056194,-0.32848257,0.64796114,0.687201,-0.9423673,-0.273818,-0.19226968,,0.10929005,1.3586857,0.45858628,0.9961404,0.03328575,-0.0812175,-0.025767025,-0.77364105,-0.6331,-0.0839064,0.63274926,-0.76979744,,-0.08252245,0.2631195,-0.066402644,0.957647,0.08113193,0.2762784,-0.28660995,0.36085528,0.88748986,-0.027692763,-0.92908615,0.36882523,,0.038984336,0.44087547,-0.30659127,0.06520308,0.77414227,-0.6296446,-0.86814564,0.35512072,0.34671655,0.4920078,0.5240162,0.6952232,,1.295712398904514,0.16026215260590704,0.18217541144000002,0.7204946458128256,0.32587805194057545,1.3783796599734122,-0.4003563060951185,,-0.562894553736476,-0.2475676477490151,0.18674612998,0.8110807013981401,1.2972269287730915,-0.026770840899507653,0.873400721619991,,-0.03987859174650544,-0.09379617566374027,0.05836094732,-0.08765896690267068,,-5.8736652e-05,-1.9073486e-06,1.5497208e-06,0.99999994,5.1330775e-05,4.220009e-05,-5.134195e-05,1.0,5.5730343e-06,-4.220009e-05,-5.6028366e-06,1.0,822,2.554,0,1,0.029,False,-0.2599971910607066,1.048742504146256
2.576765115998569,10:49:33.557853,10:49:17.276838,0,,0.12455186,0.0020412058,0.025572717,-0.95499104,-0.2087334,-0.21076652,-0.13649428,-0.32162076,0.9369788,-0.26336566,0.9235748,0.27865398,,0.02373004,-0.012392804,0.017280638,0.06362325,-0.7105968,0.70071685,-0.3283671,0.6481371,0.6870904,-0.942405,-0.27380738,-0.19210008,,0.10929005,1.3586857,0.45858628,0.9961404,0.03328575,-0.0812175,-0.025767025,-0.77364105,-0.6331,-0.0839064,0.63274926,-0.76979744,,-0.08253137,0.2631467,-0.06644217,0.9566472,0.08284851,0.27921718,-0.2899803,0.36033532,0.88660586,-0.02715784,-0.92913646,0.3687382,,0.03898494,0.4408736,-0.30659482,0.065176286,0.7739948,-0.62982863,-0.86808574,0.35525006,0.34673414,0.49211708,0.52414644,0.6950477,,1.2957741807675078,0.16023898440728435,0.18213263387,0.7169299167735887,0.3271077804384644,1.3772135413598632,-0.40068299422738707,,-0.5628791082707276,-0.24758309321476354,0.18674612998,0.8112903913416247,1.297363565272857,-0.026800580063063628,0.8735640656861252,,-0.03987859174650544,-0.09379617566374027,0.05836094732,-0.08765896690267068,,-5.8736652e-05,-1.9073486e-06,1.5497208e-06,0.99999994,5.1330775e-05,4.220009e-05,-5.134195e-05,1.0,5.5730343e-06,-4.220009e-05,-5.6028366e-06,1.0,843,2.62,0,1,0.029,False,-0.2603546573718325,1.0480665813353434
2.6072298329963814,10:49:33.616799,10:49:17.429589,0,,0.12458395,0.0020252764,0.025715247,-0.9534559,-0.21256521,-0.21386406,-0.13845098,-0.32145423,0.93674886,-0.2678677,0.92275846,0.2770626,,0.023732767,-0.012395114,0.017281651,0.06358923,-0.71045494,0.7008638,-0.32833755,0.6482943,0.68695617,-0.94241756,-0.273803,-0.19204459,,0.10929005,1.3586857,0.45858628,0.9961404,0.03328575,-0.0812175,-0.025767025,-0.77364105,-0.6331,-0.0839064,0.63274926,-0.76979744,,-0.08257871,0.26322868,-0.06655458,0.95536315,0.08673806,0.28241423,-0.29438803,0.3598683,0.885342,-0.024839085,-0.92896247,0.36933956,,0.03898199,0.4408723,-0.30659667,0.065213196,0.7738616,-0.6299885,-0.8680695,0.3553623,0.34665975,0.4921408,0.524267,0.69494,,1.295920912692118,0.16033165720177506,0.18200300487,0.7125264279604138,0.3302504199330696,1.3748959657952673,-0.40084633829352123,,-0.5628868310036018,-0.2475908159476378,0.18674612998,0.8115000812851093,1.297363565272857,-0.026800580063063628,0.8735640656861252,,-0.03987859174650544,-0.09379617566374027,0.05836094732,-0.08765896690267068,,-5.8736652e-05,-1.9073486e-06,1.5497208e-06,0.99999994,5.1330775e-05,4.220009e-05,-5.134195e-05,1.0,5.5730343e-06,-4.220009e-05,-5.6028366e-06,1.0,860,2.673,0,1,0.029,False,-0.260652545964438,1.0478734605322257
2.6661985349928727,10:49:33.669131,10:49:17.429589,0,,0.12458741,0.0020888299,0.025848046,-0.95137376,-0.21880472,-0.21682361,-0.13854276,-0.3247395,0.9356015,-0.27512518,0.92014605,0.27863482,,0.0237329,-0.012396455,0.01728183,0.063589536,-0.71051073,0.7008071,-0.32834467,0.64823747,0.6870064,-0.94241506,-0.2737928,-0.19207144,,0.10929005,1.3586857,0.45858628,0.9961404,0.03328575,-0.0812175,-0.025767025,-0.77364105,-0.6331,-0.0839064,0.63274926,-0.76979744,,-0.082588464,0.26336384,-0.06661226,0.95400125,0.092825584,0.28507012,-0.29918888,0.3555829,0.8854642,-0.019172333,-0.9300238,0.3669989,,0.038981773,0.44087142,-0.30659765,0.06521217,0.77391243,-0.6299261,-0.8680733,0.3553297,0.34668374,0.4921343,0.524214,0.6949845,,1.2965078403905592,0.16054017098937912,0.18193041263,0.7081229391472387,0.3369456084215761,1.3753990365444038,-0.40198974675646104,,-0.5628868310036018,-0.24759853868051201,0.18674612998,0.8115000812851093,1.297363565272857,-0.026718901322922983,0.8737274097522598,,-0.03987859174650544,-0.09379617566374027,0.05836094732,-0.08765896690267068,,-5.8736652e-05,-1.9073486e-06,1.5497208e-06,0.99999994,5.1330775e-05,4.220009e-05,-5.134195e-05,1.0,5.5730343e-06,-4.220009e-05,-5.6028366e-06,1.0,868,2.698,0,1,0.029,False,-0.26053339052739544,1.047680339729108
2.7185107590048574,10:49:33.699053,10:49:17.429589,0,,0.12454384,0.0021249205,0.025933638,-0.95116735,-0.21953605,-0.21698996,-0.13789247,-0.32672584,0.9350058,-0.27616373,0.91926825,0.28049853,,0.023733027,-0.012397796,0.01728195,0.06358984,-0.71050936,0.7008085,-0.32835186,0.64823663,0.68700373,-0.9424126,-0.2737983,-0.19207591,,0.10929005,1.3586857,0.45858628,0.9961404,0.03328575,-0.0812175,-0.025767025,-0.77364105,-0.6331,-0.0839064,0.63274926,-0.76979744,,-0.08254992,0.26344657,-0.0666591,0.95396626,0.09342773,0.28499067,-0.29937673,0.35349748,0.88623536,-0.017944515,-0.9307582,0.36519474,,0.038981557,0.4408705,-0.3065986,0.06521115,0.77391183,-0.6299269,-0.86807704,0.35532543,0.3466787,0.4921278,0.5242178,0.6949863,,1.2970329862260064,0.16064056651674402,0.18187985732,0.7079132492037542,0.338448609918996,1.3768688380283816,-0.4014997145580581,,-0.5628868310036018,-0.24760626141338624,0.18674612998,0.8115000812851093,1.297363565272857,-0.026718901322922983,0.8737274097522598,,-0.03987859174650544,-0.09379617566374027,0.05836094732,-0.08765896690267068,,-5.8736652e-05,-1.9073486e-06,1.5497208e-06,0.99999994,5.1330775e-05,4.220009e-05,-5.134195e-05,1.0,5.5730343e-06,-4.220009e-05,-5.6028366e-06,1.0,881,2.738,0,1,0.029,False,-0.2607121236829584,1.0481631417369022
2.7484552349924343,10:49:33.729679,10:49:17.559675,0,,0.12447517,0.0021772534,0.026013047,-0.95123965,-0.21912235,-0.21709105,-0.13797028,-0.32721105,0.9348246,-0.27587557,0.91919434,0.28102374,,0.023733288,-0.012400433,0.017282307,0.06359047,-0.7105065,0.7008113,-0.32836613,0.64823514,0.68699837,-0.9424076,-0.2738093,-0.19208485,,0.10929005,1.3586857,0.45858628,0.9961404,0.03328575,-0.0812175,-0.025767025,-0.77364105,-0.6331,-0.0839064,0.63274926,-0.76979744,,-0.08248425,0.26353714,-0.066694364,0.95400155,0.09297485,0.2850205,-0.2992474,0.35308906,0.8864418,-0.018220829,-0.9309585,0.36466998,,0.038981125,0.4408687,-0.30660054,0.06520909,0.77391064,-0.6299286,-0.86808455,0.35531688,0.34666866,0.49211484,0.52422535,0.6949898,,1.2976585275888186,0.16077957570848006,0.18184096862000002,0.7077035592602697,0.338448609918996,1.3768688380283816,-0.4014997145580581,,-0.5628868310036018,-0.24762170687913468,0.18674612998,0.8115000812851093,1.297363565272857,-0.026718901322922983,0.8737274097522598,,-0.03987859174650544,-0.09379617566374027,0.05836094732,-0.08765896690267068,,-5.8736652e-05,-1.9073486e-06,1.5497208e-06,0.99999994,5.1330775e-05,4.220009e-05,-5.134195e-05,1.0,5.5730343e-06,-4.220009e-05,-5.6028366e-06,1.0,898,2.792,0,1,0.029,False,-0.260652545964438,1.04835626254002
