AlexandreBanks6/ExpertPlaybackApp/resources/Motions/P_17/PC1/Data_PC1_9.csv
Task Time,PC1 Time,PC2 Time,Gaze Calib,s_T_psm1,Tx,Ty,Tz,R00,R01,R02,R10,R11,R12,R20,R21,R22,s_T_psm3,Tx,Ty,Tz,R00,R01,R02,R10,R11,R12,R20,R21,R22,cart_T_ecm,Tx,Ty,Tz,R00,R01,R02,R10,R11,R12,R20,R21,R22,ecm_T_psm1,Tx,Ty,Tz,R00,R01,R02,R10,R11,R12,R20,R21,R22,ecm_T_psm3,Tx,Ty,Tz,R00,R01,R02,R10,R11,R12,R20,R21,R22,psm1_joints,q1,q2,q3,q4,q5,q6,jaw,psm3_joints,q1,q2,q3,q4,q5,q6,jaw,ecm_joints,q1,q2,q3,q4,ecmi_T_ecm,Tx,Ty,Tz,R00,R01,R02,R10,R11,R12,R20,R21,R22,Sample #,Task Duration (s),Collisions (binary),Collisions (increments),Cumulative Collision Time (s),Clutch Press,MTMR Angle,MTML Angle
""
lci_T_si,,,,,-0.0900869,0.022313949,0.18335392,0.9831014,-0.048776343,0.17644396,0.07519278,-0.77119327,-0.63214475,0.1669061,0.6347297,-0.7544936
rci_T_si,,,,,-0.09717508,0.02900249,0.19913338,0.9846646,-0.06319082,0.16261163,0.050159317,-0.7901947,-0.6107998,0.16709179,0.6095894,-0.7749072
ecm_T_lc,,,,,-4.4061628e-05,-0.00034663224,-0.01840835,-0.99912,0.030754527,0.028518902,-0.031987965,-0.99852574,-0.043852776,0.027128186,-0.04472645,0.9986309
ecm_T_rc,,,,,-0.0043358393,0.01870579,-0.007592615,-0.99555075,-0.052743673,-0.078081585,0.04863213,-0.9973746,0.053654674,-0.08070653,0.04961868,0.9955021
cart_T_ecmi,,,,,0.09793387,1.29379,0.42507514,0.98259765,0.007603552,-0.18559109,-0.104968905,-0.80158776,-0.5885903,-0.15324292,0.59782875,-0.78684014
ecmac_T_ecmrep_psm1,,,,,0.044880565,-0.23049864,-0.32052848,0.99797076,0.0626086,0.011601057,-0.061749555,0.99606305,-0.0636032,-0.015537491,0.06275777,0.9979078
ecmac_T_ecmrep_psm3,,,,,0.047327206,-0.4153428,-0.56493527,0.997773,0.014750276,0.065049894,-0.025394045,0.985803,0.16597453,-0.061678212,-0.16725679,0.9839822
""
0,17:44:26.453001,17:43:10.662056,0,,NaN,NaN,NaN,NaN,NaN,NaN,NaN,NaN,NaN,NaN,NaN,NaN,,NaN,NaN,NaN,NaN,NaN,NaN,NaN,NaN,NaN,NaN,NaN,NaN,,0.09797556,1.2937924,0.42506444,0.98259485,0.0075822724,-0.1856067,-0.10499499,-0.801588,-0.5885854,-0.15324292,0.59782875,-0.78684014,,NaN,NaN,NaN,NaN,NaN,NaN,NaN,NaN,NaN,NaN,NaN,NaN,,NaN,NaN,NaN,NaN,NaN,NaN,NaN,NaN,NaN,NaN,NaN,NaN,,NaN,NaN,NaN,NaN,NaN,NaN,NaN,,NaN,NaN,NaN,NaN,NaN,NaN,NaN,,-0.11697196646865997,-0.12781700610823973,0.09957687064,-0.11840502245808503,,4.2364e-05,-8.106232e-06,-7.1525574e-07,1.0,-2.0883977e-05,-1.5869737e-05,2.0891428e-05,1.0,-4.082918e-06,1.5869737e-05,4.082918e-06,1.0,35,0.106,0,0,0.0,False,-0.26154621174225356,1.0074629324798186
0.12288908986374736,17:44:26.481572,17:43:10.725878,0,,NaN,NaN,NaN,NaN,NaN,NaN,NaN,NaN,NaN,NaN,NaN,NaN,,NaN,NaN,NaN,NaN,NaN,NaN,NaN,NaN,NaN,NaN,NaN,NaN,,0.09797556,1.2937924,0.42506444,0.98259485,0.0075822724,-0.1856067,-0.10499499,-0.801588,-0.5885854,-0.15324292,0.59782875,-0.78684014,,NaN,NaN,NaN,NaN,NaN,NaN,NaN,NaN,NaN,NaN,NaN,NaN,,NaN,NaN,NaN,NaN,NaN,NaN,NaN,NaN,NaN,NaN,NaN,NaN,,NaN,NaN,NaN,NaN,NaN,NaN,NaN,,NaN,NaN,NaN,NaN,NaN,NaN,NaN,,-0.11697196646865997,-0.12781700610823973,0.09957687064,-0.11840502245808503,,4.2364e-05,-8.106232e-06,-7.1525574e-07,1.0,-2.0883977e-05,-1.5869737e-05,2.0891428e-05,1.0,-4.082918e-06,1.5869737e-05,4.082918e-06,1.0,43,0.129,0,0,0.0,False,-0.2620824112089424,1.0069318502712448
0.15145862684585154,17:44:26.506371,17:43:10.725878,0,,NaN,NaN,NaN,NaN,NaN,NaN,NaN,NaN,NaN,NaN,NaN,NaN,,NaN,NaN,NaN,NaN,NaN,NaN,NaN,NaN,NaN,NaN,NaN,NaN,,0.09797556,1.2937924,0.42506444,0.98259485,0.0075822724,-0.1856067,-0.10499499,-0.801588,-0.5885854,-0.15324292,0.59782875,-0.78684014,,NaN,NaN,NaN,NaN,NaN,NaN,NaN,NaN,NaN,NaN,NaN,NaN,,NaN,NaN,NaN,NaN,NaN,NaN,NaN,NaN,NaN,NaN,NaN,NaN,,NaN,NaN,NaN,NaN,NaN,NaN,NaN,,NaN,NaN,NaN,NaN,NaN,NaN,NaN,,-0.11697196646865997,-0.12781700610823973,0.09957687064,-0.11840502245808503,,4.2364e-05,-8.106232e-06,-7.1525574e-07,1.0,-2.0883977e-05,-1.5869737e-05,2.0891428e-05,1.0,-4.082918e-06,1.5869737e-05,4.082918e-06,1.0,51,0.154,0,0,0.0,False,-0.261427056305211,1.0068835700704653
0.17624027701094747,17:44:26.530975,17:43:10.725878,0,,NaN,NaN,NaN,NaN,NaN,NaN,NaN,NaN,NaN,NaN,NaN,NaN,,NaN,NaN,NaN,NaN,NaN,NaN,NaN,NaN,NaN,NaN,NaN,NaN,,0.09797556,1.2937924,0.42506444,0.98259485,0.0075822724,-0.1856067,-0.10499499,-0.801588,-0.5885854,-0.15324292,0.59782875,-0.78684014,,NaN,NaN,NaN,NaN,NaN,NaN,NaN,NaN,NaN,NaN,NaN,NaN,,NaN,NaN,NaN,NaN,NaN,NaN,NaN,NaN,NaN,NaN,NaN,NaN,,NaN,NaN,NaN,NaN,NaN,NaN,NaN,,NaN,NaN,NaN,NaN,NaN,NaN,NaN,,-0.11697196646865997,-0.12781700610823973,0.09957687064,-0.11840502245808503,,4.2364e-05,-8.106232e-06,-7.1525574e-07,1.0,-2.0883977e-05,-1.5869737e-05,2.0891428e-05,1.0,-4.082918e-06,1.5869737e-05,4.082918e-06,1.0,58,0.175,0,0,0.0,False,-0.26196325577190027,1.006545608665009
0.20086354087106884,17:44:26.559140,17:43:10.825088,0,,NaN,NaN,NaN,NaN,NaN,NaN,NaN,NaN,NaN,NaN,NaN,NaN,,NaN,NaN,NaN,NaN,NaN,NaN,NaN,NaN,NaN,NaN,NaN,NaN,,0.09797556,1.2937924,0.42506444,0.98259485,0.0075822724,-0.1856067,-0.10499499,-0.801588,-0.5885854,-0.15324292,0.59782875,-0.78684014,,NaN,NaN,NaN,NaN,NaN,NaN,NaN,NaN,NaN,NaN,NaN,NaN,,NaN,NaN,NaN,NaN,NaN,NaN,NaN,NaN,NaN,NaN,NaN,NaN,,NaN,NaN,NaN,NaN,NaN,NaN,NaN,,NaN,NaN,NaN,NaN,NaN,NaN,NaN,,-0.11697196646865997,-0.12781700610823973,0.09957687064,-0.11840502245808503,,4.2364e-05,-8.106232e-06,-7.1525574e-07,1.0,-2.0883977e-05,-1.5869737e-05,2.0891428e-05,1.0,-4.082918e-06,1.5869737e-05,4.082918e-06,1.0,70,0.211,0,0,0.0,False,-0.2620824112089424,1.0063524878618912
0.2290269248187542,17:44:26.587305,17:43:10.825088,0,,NaN,NaN,NaN,NaN,NaN,NaN,NaN,NaN,NaN,NaN,NaN,NaN,,NaN,NaN,NaN,NaN,NaN,NaN,NaN,NaN,NaN,NaN,NaN,NaN,,0.09797556,1.2937924,0.42506444,0.98259485,0.0075822724,-0.1856067,-0.10499499,-0.801588,-0.5885854,-0.15324292,0.59782875,-0.78684014,,NaN,NaN,NaN,NaN,NaN,NaN,NaN,NaN,NaN,NaN,NaN,NaN,,NaN,NaN,NaN,NaN,NaN,NaN,NaN,NaN,NaN,NaN,NaN,NaN,,NaN,NaN,NaN,NaN,NaN,NaN,NaN,,NaN,NaN,NaN,NaN,NaN,NaN,NaN,,-0.11697196646865997,-0.12781700610823973,0.09957687064,-0.11840502245808503,,4.2364e-05,-8.106232e-06,-7.1525574e-07,1.0,-2.0883977e-05,-1.5869737e-05,2.0891428e-05,1.0,-4.082918e-06,1.5869737e-05,4.082918e-06,1.0,78,0.236,0,0,0.0,False,-0.26249945523859,1.0066904492673474
0.2571880139876157,17:44:26.614990,17:43:10.825088,0,,NaN,NaN,NaN,NaN,NaN,NaN,NaN,NaN,NaN,NaN,NaN,NaN,,NaN,NaN,NaN,NaN,NaN,NaN,NaN,NaN,NaN,NaN,NaN,NaN,,0.09797556,1.2937924,0.42506444,0.98259485,0.0075822724,-0.1856067,-0.10499499,-0.801588,-0.5885854,-0.15324292,0.59782875,-0.78684014,,NaN,NaN,NaN,NaN,NaN,NaN,NaN,NaN,NaN,NaN,NaN,NaN,,NaN,NaN,NaN,NaN,NaN,NaN,NaN,NaN,NaN,NaN,NaN,NaN,,NaN,NaN,NaN,NaN,NaN,NaN,NaN,,NaN,NaN,NaN,NaN,NaN,NaN,NaN,,-0.11697196646865997,-0.12781700610823973,0.09957687064,-0.11840502245808503,,4.2364e-05,-8.106232e-06,-7.1525574e-07,1.0,-2.0883977e-05,-1.5869737e-05,2.0891428e-05,1.0,-4.082918e-06,1.5869737e-05,4.082918e-06,1.0,89,0.27,0,0,0.0,False,-0.26190367805337944,1.0061593670587736
0.28486467991024256,17:44:26.644277,17:43:10.825088,0,,NaN,NaN,NaN,NaN,NaN,NaN,NaN,NaN,NaN,NaN,NaN,NaN,,NaN,NaN,NaN,NaN,NaN,NaN,NaN,NaN,NaN,NaN,NaN,NaN,,0.09797556,1.2937924,0.42506444,0.98259485,0.0075822724,-0.1856067,-0.10499499,-0.801588,-0.5885854,-0.15324292,0.59782875,-0.78684014,,NaN,NaN,NaN,NaN,NaN,NaN,NaN,NaN,NaN,NaN,NaN,NaN,,NaN,NaN,NaN,NaN,NaN,NaN,NaN,NaN,NaN,NaN,NaN,NaN,,NaN,NaN,NaN,NaN,NaN,NaN,NaN,,NaN,NaN,NaN,NaN,NaN,NaN,NaN,,-0.11697196646865997,-0.12781700610823973,0.09957687064,-0.11840502245808503,,4.2364e-05,-8.106232e-06,-7.1525574e-07,1.0,-2.0883977e-05,-1.5869737e-05,2.0891428e-05,1.0,-4.082918e-06,1.5869737e-05,4.082918e-06,1.0,97,0.293,0,0,0.0,False,-0.2623802998015474,1.0063042076611117
0.31415863684378564,17:44:26.668959,17:43:10.825088,0,,NaN,NaN,NaN,NaN,NaN,NaN,NaN,NaN,NaN,NaN,NaN,NaN,,NaN,NaN,NaN,NaN,NaN,NaN,NaN,NaN,NaN,NaN,NaN,NaN,,0.09797556,1.2937924,0.42506444,0.98259485,0.0075822724,-0.1856067,-0.10499499,-0.801588,-0.5885854,-0.15324292,0.59782875,-0.78684014,,NaN,NaN,NaN,NaN,NaN,NaN,NaN,NaN,NaN,NaN,NaN,NaN,,NaN,NaN,NaN,NaN,NaN,NaN,NaN,NaN,NaN,NaN,NaN,NaN,,NaN,NaN,NaN,NaN,NaN,NaN,NaN,,NaN,NaN,NaN,NaN,NaN,NaN,NaN,,-0.11697196646865997,-0.12781700610823973,0.09957687064,-0.11840502245808503,,4.2364e-05,-8.106232e-06,-7.1525574e-07,1.0,-2.0883977e-05,-1.5869737e-05,2.0891428e-05,1.0,-4.082918e-06,1.5869737e-05,4.082918e-06,1.0,105,0.318,0,0,0.0,False,-0.26106958999408425,1.006738729468127
0.3388118629809469,17:44:26.703456,17:43:10.825088,0,,NaN,NaN,NaN,NaN,NaN,NaN,NaN,NaN,NaN,NaN,NaN,NaN,,NaN,NaN,NaN,NaN,NaN,NaN,NaN,NaN,NaN,NaN,NaN,NaN,,0.09797556,1.2937924,0.42506444,0.98259485,0.0075822724,-0.1856067,-0.10499499,-0.801588,-0.5885854,-0.15324292,0.59782875,-0.78684014,,NaN,NaN,NaN,NaN,NaN,NaN,NaN,NaN,NaN,NaN,NaN,NaN,,NaN,NaN,NaN,NaN,NaN,NaN,NaN,NaN,NaN,NaN,NaN,NaN,,NaN,NaN,NaN,NaN,NaN,NaN,NaN,,NaN,NaN,NaN,NaN,NaN,NaN,NaN,,-0.11697196646865997,-0.12781700610823973,0.09957687064,-0.11840502245808503,,4.2364e-05,-8.106232e-06,-7.1525574e-07,1.0,-2.0883977e-05,-1.5869737e-05,2.0891428e-05,1.0,-4.082918e-06,1.5869737e-05,4.082918e-06,1.0,124,0.376,0,0,0.0,False,-0.2622015666459845,1.0061593670587736
0.3732922780327499,17:44:26.747994,17:43:10.825088,0,,NaN,NaN,NaN,NaN,NaN,NaN,NaN,NaN,NaN,NaN,NaN,NaN,,NaN,NaN,NaN,NaN,NaN,NaN,NaN,NaN,NaN,NaN,NaN,NaN,,0.09797556,1.2937924,0.42506444,0.98259485,0.0075822724,-0.1856067,-0.10499499,-0.801588,-0.5885854,-0.15324292,0.59782875,-0.78684014,,NaN,NaN,NaN,NaN,NaN,NaN,NaN,NaN,NaN,NaN,NaN,NaN,,NaN,NaN,NaN,NaN,NaN,NaN,NaN,NaN,NaN,NaN,NaN,NaN,,NaN,NaN,NaN,NaN,NaN,NaN,NaN,,NaN,NaN,NaN,NaN,NaN,NaN,NaN,,-0.11697196646865997,-0.12781700610823973,0.09957687064,-0.11840502245808503,,4.2364e-05,-8.106232e-06,-7.1525574e-07,1.0,-2.0883977e-05,-1.5869737e-05,2.0891428e-05,1.0,-4.082918e-06,1.5869737e-05,4.082918e-06,1.0,132,0.401,0,0,0.0,False,-0.2622015666459845,1.0057248452517584
0.4178708209656179,17:44:26.768439,17:43:11.041938,0,,NaN,NaN,NaN,NaN,NaN,NaN,NaN,NaN,NaN,NaN,NaN,NaN,,NaN,NaN,NaN,NaN,NaN,NaN,NaN,NaN,NaN,NaN,NaN,NaN,,0.09797556,1.2937924,0.42506444,0.98259485,0.0075822724,-0.1856067,-0.10499499,-0.801588,-0.5885854,-0.15324292,0.59782875,-0.78684014,,NaN,NaN,NaN,NaN,NaN,NaN,NaN,NaN,NaN,NaN,NaN,NaN,,NaN,NaN,NaN,NaN,NaN,NaN,NaN,NaN,NaN,NaN,NaN,NaN,,NaN,NaN,NaN,NaN,NaN,NaN,NaN,,NaN,NaN,NaN,NaN,NaN,NaN,NaN,,-0.11697196646865997,-0.12781700610823973,0.09957687064,-0.11840502245808503,,4.2364e-05,-8.106232e-06,-7.1525574e-07,1.0,-2.0883977e-05,-1.5869737e-05,2.0891428e-05,1.0,-4.082918e-06,1.5869737e-05,4.082918e-06,1.0,140,0.424,0,0,0.0,False,-0.261427056305211,1.0051937630431842
0.4383005169220269,17:44:26.806732,17:43:11.041938,0,,NaN,NaN,NaN,NaN,NaN,NaN,NaN,NaN,NaN,NaN,NaN,NaN,,NaN,NaN,NaN,NaN,NaN,NaN,NaN,NaN,NaN,NaN,NaN,NaN,,0.09797556,1.2937924,0.42506444,0.98259485,0.0075822724,-0.1856067,-0.10499499,-0.801588,-0.5885854,-0.15324292,0.59782875,-0.78684014,,NaN,NaN,NaN,NaN,NaN,NaN,NaN,NaN,NaN,NaN,NaN,NaN,,NaN,NaN,NaN,NaN,NaN,NaN,NaN,NaN,NaN,NaN,NaN,NaN,,NaN,NaN,NaN,NaN,NaN,NaN,NaN,,NaN,NaN,NaN,NaN,NaN,NaN,NaN,,-0.11697196646865997,-0.12781700610823973,0.09957687064,-0.11840502245808503,,4.2364e-05,-8.106232e-06,-7.1525574e-07,1.0,-2.0883977e-05,-1.5869737e-05,2.0891428e-05,1.0,-4.082918e-06,1.5869737e-05,4.082918e-06,1.0,148,0.449,0,0,0.0,False,-0.26255903295711036,1.004855801637728
0.4766164089087397,17:44:26.826318,17:43:11.041938,0,,NaN,NaN,NaN,NaN,NaN,NaN,NaN,NaN,NaN,NaN,NaN,NaN,,NaN,NaN,NaN,NaN,NaN,NaN,NaN,NaN,NaN,NaN,NaN,NaN,,0.09797556,1.2937924,0.42506444,0.98259485,0.0075822724,-0.1856067,-0.10499499,-0.801588,-0.5885854,-0.15324292,0.59782875,-0.78684014,,NaN,NaN,NaN,NaN,NaN,NaN,NaN,NaN,NaN,NaN,NaN,NaN,,NaN,NaN,NaN,NaN,NaN,NaN,NaN,NaN,NaN,NaN,NaN,NaN,,NaN,NaN,NaN,NaN,NaN,NaN,NaN,,NaN,NaN,NaN,NaN,NaN,NaN,NaN,,-0.11697196646865997,-0.12781700610823973,0.09957687064,-0.11840502245808503,,4.2364e-05,-8.106232e-06,-7.1525574e-07,1.0,-2.0883977e-05,-1.5869737e-05,2.0891428e-05,1.0,-4.082918e-06,1.5869737e-05,4.082918e-06,1.0,167,0.507,0,0,0.0,False,-0.26243987752006825,1.0041315986260362
0.4961840820033103,17:44:26.882068,17:43:11.041938,0,,NaN,NaN,NaN,NaN,NaN,NaN,NaN,NaN,NaN,NaN,NaN,NaN,,NaN,NaN,NaN,NaN,NaN,NaN,NaN,NaN,NaN,NaN,NaN,NaN,,0.09797556,1.2937924,0.42506444,0.98259485,0.0075822724,-0.1856067,-0.10499499,-0.801588,-0.5885854,-0.15324292,0.59782875,-0.78684014,,NaN,NaN,NaN,NaN,NaN,NaN,NaN,NaN,NaN,NaN,NaN,NaN,,NaN,NaN,NaN,NaN,NaN,NaN,NaN,NaN,NaN,NaN,NaN,NaN,,NaN,NaN,NaN,NaN,NaN,NaN,NaN,,NaN,NaN,NaN,NaN,NaN,NaN,NaN,,-0.11697196646865997,-0.12781700610823973,0.09957687064,-0.11840502245808503,,4.2364e-05,-8.106232e-06,-7.1525574e-07,1.0,-2.0883977e-05,-1.5869737e-05,2.0891428e-05,1.0,-4.082918e-06,1.5869737e-05,4.082918e-06,1.0,175,0.532,0,0,0.0,False,-0.2618441003348577,1.00379363722058
0.5519316419959068,17:44:26.900062,17:43:11.041938,0,,NaN,NaN,NaN,NaN,NaN,NaN,NaN,NaN,NaN,NaN,NaN,NaN,,NaN,NaN,NaN,NaN,NaN,NaN,NaN,NaN,NaN,NaN,NaN,NaN,,0.09797556,1.2937924,0.42506444,0.98259485,0.0075822724,-0.1856067,-0.10499499,-0.801588,-0.5885854,-0.15324292,0.59782875,-0.78684014,,NaN,NaN,NaN,NaN,NaN,NaN,NaN,NaN,NaN,NaN,NaN,NaN,,NaN,NaN,NaN,NaN,NaN,NaN,NaN,NaN,NaN,NaN,NaN,NaN,,NaN,NaN,NaN,NaN,NaN,NaN,NaN,,NaN,NaN,NaN,NaN,NaN,NaN,NaN,,-0.11697196646865997,-0.12781700610823973,0.09957687064,-0.11840502245808503,,4.2364e-05,-8.106232e-06,-7.1525574e-07,1.0,-2.0883977e-05,-1.5869737e-05,2.0891428e-05,1.0,-4.082918e-06,1.5869737e-05,4.082918e-06,1.0,183,0.555,0,0,0.0,False,-0.26190367805337944,1.0034073956143443
0.5699464869685471,17:44:26.938804,17:43:11.189558,0,,NaN,NaN,NaN,NaN,NaN,NaN,NaN,NaN,NaN,NaN,NaN,NaN,,NaN,NaN,NaN,NaN,NaN,NaN,NaN,NaN,NaN,NaN,NaN,NaN,,0.09797556,1.2937924,0.42506444,0.98259485,0.0075822724,-0.1856067,-0.10499499,-0.801588,-0.5885854,-0.15324292,0.59782875,-0.78684014,,NaN,NaN,NaN,NaN,NaN,NaN,NaN,NaN,NaN,NaN,NaN,NaN,,NaN,NaN,NaN,NaN,NaN,NaN,NaN,NaN,NaN,NaN,NaN,NaN,,NaN,NaN,NaN,NaN,NaN,NaN,NaN,,NaN,NaN,NaN,NaN,NaN,NaN,NaN,,-0.11697196646865997,-0.12781700610823973,0.09957687064,-0.11840502245808503,,4.2364e-05,-8.106232e-06,-7.1525574e-07,1.0,-2.0883977e-05,-1.5869737e-05,2.0891428e-05,1.0,-4.082918e-06,1.5869737e-05,4.082918e-06,1.0,195,0.592,0,0,0.0,False,-0.26196325577190027,1.0037453570198005
0.6086072288453579,17:44:26.967154,17:43:11.189558,0,,NaN,NaN,NaN,NaN,NaN,NaN,NaN,NaN,NaN,NaN,NaN,NaN,,NaN,NaN,NaN,NaN,NaN,NaN,NaN,NaN,NaN,NaN,NaN,NaN,,0.09797556,1.2937924,0.42506444,0.98259485,0.0075822724,-0.1856067,-0.10499499,-0.801588,-0.5885854,-0.15324292,0.59782875,-0.78684014,,NaN,NaN,NaN,NaN,NaN,NaN,NaN,NaN,NaN,NaN,NaN,NaN,,NaN,NaN,NaN,NaN,NaN,NaN,NaN,NaN,NaN,NaN,NaN,NaN,,NaN,NaN,NaN,NaN,NaN,NaN,NaN,,NaN,NaN,NaN,NaN,NaN,NaN,NaN,,-0.11697196646865997,-0.12781700610823973,0.09957687064,-0.11840502245808503,,4.2364e-05,-8.106232e-06,-7.1525574e-07,1.0,-2.0883977e-05,-1.5869737e-05,2.0891428e-05,1.0,-4.082918e-06,1.5869737e-05,4.082918e-06,1.0,203,0.617,0,0,0.0,False,-0.26285692154971585,1.0032625550120058
0.6369434089865535,17:44:26.996026,17:43:11.189558,0,,NaN,NaN,NaN,NaN,NaN,NaN,NaN,NaN,NaN,NaN,NaN,NaN,,NaN,NaN,NaN,NaN,NaN,NaN,NaN,NaN,NaN,NaN,NaN,NaN,,0.09797556,1.2937924,0.42506444,0.98259485,0.0075822724,-0.1856067,-0.10499499,-0.801588,-0.5885854,-0.15324292,0.59782875,-0.78684014,,NaN,NaN,NaN,NaN,NaN,NaN,NaN,NaN,NaN,NaN,NaN,NaN,,NaN,NaN,NaN,NaN,NaN,NaN,NaN,NaN,NaN,NaN,NaN,NaN,,NaN,NaN,NaN,NaN,NaN,NaN,NaN,,NaN,NaN,NaN,NaN,NaN,NaN,NaN,,-0.11697196646865997,-0.12781700610823973,0.09957687064,-0.11840502245808503,,4.2364e-05,-8.106232e-06,-7.1525574e-07,1.0,-2.0883977e-05,-1.5869737e-05,2.0891428e-05,1.0,-4.082918e-06,1.5869737e-05,4.082918e-06,1.0,214,0.65,0,0,0.0,False,-0.26196325577190027,1.0023452311971963
0.6659127119928598,17:44:27.017080,17:43:11.189558,0,,NaN,NaN,NaN,NaN,NaN,NaN,NaN,NaN,NaN,NaN,NaN,NaN,,NaN,NaN,NaN,NaN,NaN,NaN,NaN,NaN,NaN,NaN,NaN,NaN,,0.09797556,1.2937924,0.42506444,0.98259485,0.0075822724,-0.1856067,-0.10499499,-0.801588,-0.5885854,-0.15324292,0.59782875,-0.78684014,,NaN,NaN,NaN,NaN,NaN,NaN,NaN,NaN,NaN,NaN,NaN,NaN,,NaN,NaN,NaN,NaN,NaN,NaN,NaN,NaN,NaN,NaN,NaN,NaN,,NaN,NaN,NaN,NaN,NaN,NaN,NaN,,NaN,NaN,NaN,NaN,NaN,NaN,NaN,,-0.11697196646865997,-0.12781700610823973,0.09957687064,-0.11840502245808503,,4.2364e-05,-8.106232e-06,-7.1525574e-07,1.0,-2.0883977e-05,-1.5869737e-05,2.0891428e-05,1.0,-4.082918e-06,1.5869737e-05,4.082918e-06,1.0,218,0.663,0,0,0.0,False,-0.2629164992682367,1.0022969509964168
0.6869558438193053,17:44:27.049093,17:43:11.311669,0,,NaN,NaN,NaN,NaN,NaN,NaN,NaN,NaN,NaN,NaN,NaN,NaN,,NaN,NaN,NaN,NaN,NaN,NaN,NaN,NaN,NaN,NaN,NaN,NaN,,0.09797556,1.2937924,0.42506444,0.98259485,0.0075822724,-0.1856067,-0.10499499,-0.801588,-0.5885854,-0.15324292,0.59782875,-0.78684014,,NaN,NaN,NaN,NaN,NaN,NaN,NaN,NaN,NaN,NaN,NaN,NaN,,NaN,NaN,NaN,NaN,NaN,NaN,NaN,NaN,NaN,NaN,NaN,NaN,,NaN,NaN,NaN,NaN,NaN,NaN,NaN,,NaN,NaN,NaN,NaN,NaN,NaN,NaN,,-0.11697196646865997,-0.12781700610823973,0.09957687064,-0.11840502245808503,,4.2364e-05,-8.106232e-06,-7.1525574e-07,1.0,-2.0883977e-05,-1.5869737e-05,2.0891428e-05,1.0,-4.082918e-06,1.5869737e-05,4.082918e-06,1.0,230,0.7,0,0,0.0,False,-0.2618441003348577,1.002103830193299
0.7189752608537674,17:44:27.068647,17:43:11.311669,0,,NaN,NaN,NaN,NaN,NaN,NaN,NaN,NaN,NaN,NaN,NaN,NaN,,NaN,NaN,NaN,NaN,NaN,NaN,NaN,NaN,NaN,NaN,NaN,NaN,,0.09797556,1.2937924,0.42506444,0.98259485,0.0075822724,-0.1856067,-0.10499499,-0.801588,-0.5885854,-0.15324292,0.59782875,-0.78684014,,NaN,NaN,NaN,NaN,NaN,NaN,NaN,NaN,NaN,NaN,NaN,NaN,,NaN,NaN,NaN,NaN,NaN,NaN,NaN,NaN,NaN,NaN,NaN,NaN,,NaN,NaN,NaN,NaN,NaN,NaN,NaN,,NaN,NaN,NaN,NaN,NaN,NaN,NaN,,-0.11697196646865997,-0.12781700610823973,0.09957687064,-0.11840502245808503,,4.2364e-05,-8.106232e-06,-7.1525574e-07,1.0,-2.0883977e-05,-1.5869737e-05,2.0891428e-05,1.0,-4.082918e-06,1.5869737e-05,4.082918e-06,1.0,234,0.711,0,0,0.0,False,-0.26106958999408425,1.0022003905948578
0.7385293249972165,17:44:27.096695,17:43:11.311669,0,,NaN,NaN,NaN,NaN,NaN,NaN,NaN,NaN,NaN,NaN,NaN,NaN,,NaN,NaN,NaN,NaN,NaN,NaN,NaN,NaN,NaN,NaN,NaN,NaN,,0.09797556,1.2937924,0.42506444,0.98259485,0.0075822724,-0.1856067,-0.10499499,-0.801588,-0.5885854,-0.15324292,0.59782875,-0.78684014,,NaN,NaN,NaN,NaN,NaN,NaN,NaN,NaN,NaN,NaN,NaN,NaN,,NaN,NaN,NaN,NaN,NaN,NaN,NaN,NaN,NaN,NaN,NaN,NaN,,NaN,NaN,NaN,NaN,NaN,NaN,NaN,,NaN,NaN,NaN,NaN,NaN,NaN,NaN,,-0.11697196646865997,-0.12781700610823973,0.09957687064,-0.11840502245808503,,4.2364e-05,-8.106232e-06,-7.1525574e-07,1.0,-2.0883977e-05,-1.5869737e-05,2.0891428e-05,1.0,-4.082918e-06,1.5869737e-05,4.082918e-06,1.0,246,0.748,0,0,0.0,False,-0.26285692154971585,1.001814148988622
0.7665795579086989,17:44:27.123481,17:43:11.311669,0,,NaN,NaN,NaN,NaN,NaN,NaN,NaN,NaN,NaN,NaN,NaN,NaN,,NaN,NaN,NaN,NaN,NaN,NaN,NaN,NaN,NaN,NaN,NaN,NaN,,0.09797556,1.2937924,0.42506444,0.98259485,0.0075822724,-0.1856067,-0.10499499,-0.801588,-0.5885854,-0.15324292,0.59782875,-0.78684014,,NaN,NaN,NaN,NaN,NaN,NaN,NaN,NaN,NaN,NaN,NaN,NaN,,NaN,NaN,NaN,NaN,NaN,NaN,NaN,NaN,NaN,NaN,NaN,NaN,,NaN,NaN,NaN,NaN,NaN,NaN,NaN,,NaN,NaN,NaN,NaN,NaN,NaN,NaN,,-0.11697196646865997,-0.12781700610823973,0.09957687064,-0.11840502245808503,,4.2364e-05,-8.106232e-06,-7.1525574e-07,1.0,-2.0883977e-05,-1.5869737e-05,2.0891428e-05,1.0,-4.082918e-06,1.5869737e-05,4.082918e-06,1.0,261,0.794,0,0,0.0,False,-0.26255903295711036,1.0024417915987551
0.7933252840302885,17:44:27.167521,17:43:11.426076,0,,NaN,NaN,NaN,NaN,NaN,NaN,NaN,NaN,NaN,NaN,NaN,NaN,,NaN,NaN,NaN,NaN,NaN,NaN,NaN,NaN,NaN,NaN,NaN,NaN,,0.09797556,1.2937924,0.42506444,0.98259485,0.0075822724,-0.1856067,-0.10499499,-0.801588,-0.5885854,-0.15324292,0.59782875,-0.78684014,,NaN,NaN,NaN,NaN,NaN,NaN,NaN,NaN,NaN,NaN,NaN,NaN,,NaN,NaN,NaN,NaN,NaN,NaN,NaN,NaN,NaN,NaN,NaN,NaN,,NaN,NaN,NaN,NaN,NaN,NaN,NaN,,NaN,NaN,NaN,NaN,NaN,NaN,NaN,,-0.11697196646865997,-0.12781700610823973,0.09957687064,-0.11840502245808503,,4.2364e-05,-8.106232e-06,-7.1525574e-07,1.0,-2.0883977e-05,-1.5869737e-05,2.0891428e-05,1.0,-4.082918e-06,1.5869737e-05,4.082918e-06,1.0,269,0.818,0,0,0.0,False,-0.2616653671792948,1.0025866322010937
0.8373953339178115,17:44:27.193349,17:43:11.426076,0,,NaN,NaN,NaN,NaN,NaN,NaN,NaN,NaN,NaN,NaN,NaN,NaN,,NaN,NaN,NaN,NaN,NaN,NaN,NaN,NaN,NaN,NaN,NaN,NaN,,0.09797556,1.2937924,0.42506444,0.98259485,0.0075822724,-0.1856067,-0.10499499,-0.801588,-0.5885854,-0.15324292,0.59782875,-0.78684014,,NaN,NaN,NaN,NaN,NaN,NaN,NaN,NaN,NaN,NaN,NaN,NaN,,NaN,NaN,NaN,NaN,NaN,NaN,NaN,NaN,NaN,NaN,NaN,NaN,,NaN,NaN,NaN,NaN,NaN,NaN,NaN,,NaN,NaN,NaN,NaN,NaN,NaN,NaN,,-0.11697196646865997,-0.12781700610823973,0.09957687064,-0.11840502245808503,,4.2364e-05,-8.106232e-06,-7.1525574e-07,1.0,-2.0883977e-05,-1.5869737e-05,2.0891428e-05,1.0,-4.082918e-06,1.5869737e-05,4.082918e-06,1.0,277,0.842,0,0,0.0,False,-0.26255903295711036,1.002731472803432
0.8630393899511546,17:44:27.217385,17:43:11.426076,0,,NaN,NaN,NaN,NaN,NaN,NaN,NaN,NaN,NaN,NaN,NaN,NaN,,NaN,NaN,NaN,NaN,NaN,NaN,NaN,NaN,NaN,NaN,NaN,NaN,,0.09797556,1.2937924,0.42506444,0.98259485,0.0075822724,-0.1856067,-0.10499499,-0.801588,-0.5885854,-0.15324292,0.59782875,-0.78684014,,NaN,NaN,NaN,NaN,NaN,NaN,NaN,NaN,NaN,NaN,NaN,NaN,,NaN,NaN,NaN,NaN,NaN,NaN,NaN,NaN,NaN,NaN,NaN,NaN,,NaN,NaN,NaN,NaN,NaN,NaN,NaN,,NaN,NaN,NaN,NaN,NaN,NaN,NaN,,-0.11697196646865997,-0.12781700610823973,0.09957687064,-0.11840502245808503,,4.2364e-05,-8.106232e-06,-7.1525574e-07,1.0,-2.0883977e-05,-1.5869737e-05,2.0891428e-05,1.0,-4.082918e-06,1.5869737e-05,4.082918e-06,1.0,285,0.867,0,0,0.0,False,-0.2618441003348577,1.003165994610447
0.8872635988518596,17:44:27.242624,17:43:11.426076,0,,NaN,NaN,NaN,NaN,NaN,NaN,NaN,NaN,NaN,NaN,NaN,NaN,,NaN,NaN,NaN,NaN,NaN,NaN,NaN,NaN,NaN,NaN,NaN,NaN,,0.09797556,1.2937924,0.42506444,0.98259485,0.0075822724,-0.1856067,-0.10499499,-0.801588,-0.5885854,-0.15324292,0.59782875,-0.78684014,,NaN,NaN,NaN,NaN,NaN,NaN,NaN,NaN,NaN,NaN,NaN,NaN,,NaN,NaN,NaN,NaN,NaN,NaN,NaN,NaN,NaN,NaN,NaN,NaN,,NaN,NaN,NaN,NaN,NaN,NaN,NaN,,NaN,NaN,NaN,NaN,NaN,NaN,NaN,,-0.11697196646865997,-0.12781700610823973,0.09957687064,-0.11840502245808503,,4.2364e-05,-8.106232e-06,-7.1525574e-07,1.0,-2.0883977e-05,-1.5869737e-05,2.0891428e-05,1.0,-4.082918e-06,1.5869737e-05,4.082918e-06,1.0,293,0.891,0,0,0.0,False,-0.2629164992682367,1.0029245936065496
0.9125028778798878,17:44:27.267183,17:43:11.426076,0,,NaN,NaN,NaN,NaN,NaN,NaN,NaN,NaN,NaN,NaN,NaN,NaN,,NaN,NaN,NaN,NaN,NaN,NaN,NaN,NaN,NaN,NaN,NaN,NaN,,0.09797556,1.2937924,0.42506444,0.98259485,0.0075822724,-0.1856067,-0.10499499,-0.801588,-0.5885854,-0.15324292,0.59782875,-0.78684014,,NaN,NaN,NaN,NaN,NaN,NaN,NaN,NaN,NaN,NaN,NaN,NaN,,NaN,NaN,NaN,NaN,NaN,NaN,NaN,NaN,NaN,NaN,NaN,NaN,,NaN,NaN,NaN,NaN,NaN,NaN,NaN,,NaN,NaN,NaN,NaN,NaN,NaN,NaN,,-0.11697196646865997,-0.12781700610823973,0.09957687064,-0.11840502245808503,,4.2364e-05,-8.106232e-06,-7.1525574e-07,1.0,-2.0883977e-05,-1.5869737e-05,2.0891428e-05,1.0,-4.082918e-06,1.5869737e-05,4.082918e-06,1.0,308,0.937,0,0,0.0,False,-0.2613079008681689,1.002731472803432
0.9370649189222604,17:44:27.307666,17:43:11.573235,0,,NaN,NaN,NaN,NaN,NaN,NaN,NaN,NaN,NaN,NaN,NaN,NaN,,NaN,NaN,NaN,NaN,NaN,NaN,NaN,NaN,NaN,NaN,NaN,NaN,,0.09797556,1.2937924,0.42506444,0.98259485,0.0075822724,-0.1856067,-0.10499499,-0.801588,-0.5885854,-0.15324292,0.59782875,-0.78684014,,NaN,NaN,NaN,NaN,NaN,NaN,NaN,NaN,NaN,NaN,NaN,NaN,,NaN,NaN,NaN,NaN,NaN,NaN,NaN,NaN,NaN,NaN,NaN,NaN,,NaN,NaN,NaN,NaN,NaN,NaN,NaN,,NaN,NaN,NaN,NaN,NaN,NaN,NaN,,-0.11697196646865997,-0.12781700610823973,0.09957687064,-0.11840502245808503,,4.2364e-05,-8.106232e-06,-7.1525574e-07,1.0,-2.0883977e-05,-1.5869737e-05,2.0891428e-05,1.0,-4.082918e-06,1.5869737e-05,4.082918e-06,1.0,316,0.962,0,0,0.0,False,-0.2620824112089424,1.0022969509964168
0.9775299390312284,17:44:27.339276,17:43:11.573235,0,,NaN,NaN,NaN,NaN,NaN,NaN,NaN,NaN,NaN,NaN,NaN,NaN,,NaN,NaN,NaN,NaN,NaN,NaN,NaN,NaN,NaN,NaN,NaN,NaN,,0.09797556,1.2937924,0.42506444,0.98259485,0.0075822724,-0.1856067,-0.10499499,-0.801588,-0.5885854,-0.15324292,0.59782875,-0.78684014,,NaN,NaN,NaN,NaN,NaN,NaN,NaN,NaN,NaN,NaN,NaN,NaN,,NaN,NaN,NaN,NaN,NaN,NaN,NaN,NaN,NaN,NaN,NaN,NaN,,NaN,NaN,NaN,NaN,NaN,NaN,NaN,,NaN,NaN,NaN,NaN,NaN,NaN,NaN,,-0.11697196646865997,-0.12781700610823973,0.09957687064,-0.11840502245808503,,4.2364e-05,-8.106232e-06,-7.1525574e-07,1.0,-2.0883977e-05,-1.5869737e-05,2.0891428e-05,1.0,-4.082918e-06,1.5869737e-05,4.082918e-06,1.0,324,0.985,0,0,0.0,False,-0.2622611443645053,1.0019107093901811
1.009130521910265,17:44:27.361692,17:43:11.573235,0,,NaN,NaN,NaN,NaN,NaN,NaN,NaN,NaN,NaN,NaN,NaN,NaN,,NaN,NaN,NaN,NaN,NaN,NaN,NaN,NaN,NaN,NaN,NaN,NaN,,0.09797556,1.2937924,0.42506444,0.98259485,0.0075822724,-0.1856067,-0.10499499,-0.801588,-0.5885854,-0.15324292,0.59782875,-0.78684014,,NaN,NaN,NaN,NaN,NaN,NaN,NaN,NaN,NaN,NaN,NaN,NaN,,NaN,NaN,NaN,NaN,NaN,NaN,NaN,NaN,NaN,NaN,NaN,NaN,,NaN,NaN,NaN,NaN,NaN,NaN,NaN,,NaN,NaN,NaN,NaN,NaN,NaN,NaN,,-0.11697196646865997,-0.12781700610823973,0.09957687064,-0.11840502245808503,,4.2364e-05,-8.106232e-06,-7.1525574e-07,1.0,-2.0883977e-05,-1.5869737e-05,2.0891428e-05,1.0,-4.082918e-06,1.5869737e-05,4.082918e-06,1.0,332,1.01,0,0,0.0,False,-0.2620824112089424,1.00200726979174
1.031542707933113,17:44:27.391294,17:43:11.573235,0,,NaN,NaN,NaN,NaN,NaN,NaN,NaN,NaN,NaN,NaN,NaN,NaN,,NaN,NaN,NaN,NaN,NaN,NaN,NaN,NaN,NaN,NaN,NaN,NaN,,0.09797556,1.2937924,0.42506444,0.98259485,0.0075822724,-0.1856067,-0.10499499,-0.801588,-0.5885854,-0.15324292,0.59782875,-0.78684014,,NaN,NaN,NaN,NaN,NaN,NaN,NaN,NaN,NaN,NaN,NaN,NaN,,NaN,NaN,NaN,NaN,NaN,NaN,NaN,NaN,NaN,NaN,NaN,NaN,,NaN,NaN,NaN,NaN,NaN,NaN,NaN,,NaN,NaN,NaN,NaN,NaN,NaN,NaN,,-0.11697196646865997,-0.12781700610823973,0.09957687064,-0.11840502245808503,,4.2364e-05,-8.106232e-06,-7.1525574e-07,1.0,-2.0883977e-05,-1.5869737e-05,2.0891428e-05,1.0,-4.082918e-06,1.5869737e-05,4.082918e-06,1.0,340,1.035,0,0,0.0,False,-0.2620824112089424,1.0022003905948578
1.0611515899654478,17:44:27.414601,17:43:11.573235,0,,NaN,NaN,NaN,NaN,NaN,NaN,NaN,NaN,NaN,NaN,NaN,NaN,,NaN,NaN,NaN,NaN,NaN,NaN,NaN,NaN,NaN,NaN,NaN,NaN,,0.09797556,1.2937924,0.42506444,0.98259485,0.0075822724,-0.1856067,-0.10499499,-0.801588,-0.5885854,-0.15324292,0.59782875,-0.78684014,,NaN,NaN,NaN,NaN,NaN,NaN,NaN,NaN,NaN,NaN,NaN,NaN,,NaN,NaN,NaN,NaN,NaN,NaN,NaN,NaN,NaN,NaN,NaN,NaN,,NaN,NaN,NaN,NaN,NaN,NaN,NaN,,NaN,NaN,NaN,NaN,NaN,NaN,NaN,,-0.11697196646865997,-0.12781700610823973,0.09957687064,-0.11840502245808503,,4.2364e-05,-8.106232e-06,-7.1525574e-07,1.0,-2.0883977e-05,-1.5869737e-05,2.0891428e-05,1.0,-4.082918e-06,1.5869737e-05,4.082918e-06,1.0,377,1.149,0,0,0.0,False,-0.26154621174225356,1.0020555499925194
1.084478149889037,17:44:27.521722,17:43:11.756604,0,,NaN,NaN,NaN,NaN,NaN,NaN,NaN,NaN,NaN,NaN,NaN,NaN,,NaN,NaN,NaN,NaN,NaN,NaN,NaN,NaN,NaN,NaN,NaN,NaN,,0.09791459,1.2937886,0.425079,0.98259753,0.00760266,-0.18559174,-0.10497,-0.80158776,-0.58859015,-0.15324292,0.59782875,-0.78684014,,NaN,NaN,NaN,NaN,NaN,NaN,NaN,NaN,NaN,NaN,NaN,NaN,,NaN,NaN,NaN,NaN,NaN,NaN,NaN,NaN,NaN,NaN,NaN,NaN,,NaN,NaN,NaN,NaN,NaN,NaN,NaN,,NaN,NaN,NaN,NaN,NaN,NaN,NaN,,-0.11697196646865997,-0.12781700610823973,0.09957687064,-0.11840502245808503,,-1.938641e-05,3.2186508e-06,1.4305115e-06,1.0,-8.7171793e-07,-6.631017e-07,8.866191e-07,1.0,-1.7881393e-07,6.556511e-07,1.4901161e-07,1.0,385,1.174,0,0,0.0,False,-0.2620824112089424,1.0025383520003142
1.1915927508380264,17:44:27.552678,17:43:11.756604,0,,NaN,NaN,NaN,NaN,NaN,NaN,NaN,NaN,NaN,NaN,NaN,NaN,,NaN,NaN,NaN,NaN,NaN,NaN,NaN,NaN,NaN,NaN,NaN,NaN,,0.09791459,1.2937886,0.425079,0.98259753,0.00760266,-0.18559174,-0.10497,-0.80158776,-0.58859015,-0.15324292,0.59782875,-0.78684014,,NaN,NaN,NaN,NaN,NaN,NaN,NaN,NaN,NaN,NaN,NaN,NaN,,NaN,NaN,NaN,NaN,NaN,NaN,NaN,NaN,NaN,NaN,NaN,NaN,,NaN,NaN,NaN,NaN,NaN,NaN,NaN,,NaN,NaN,NaN,NaN,NaN,NaN,NaN,,-0.11697196646865997,-0.12781700610823973,0.09957687064,-0.11840502245808503,,-1.938641e-05,3.2186508e-06,1.4305115e-06,1.0,-8.7171793e-07,-6.631017e-07,8.866191e-07,1.0,-1.7881393e-07,6.556511e-07,1.4901161e-07,1.0,393,1.198,0,0,0.0,False,-0.2629164992682367,1.0022969509964168
1.2225411569233984,17:44:27.578652,17:43:11.756604,0,,NaN,NaN,NaN,NaN,NaN,NaN,NaN,NaN,NaN,NaN,NaN,NaN,,NaN,NaN,NaN,NaN,NaN,NaN,NaN,NaN,NaN,NaN,NaN,NaN,,0.09791459,1.2937886,0.425079,0.98259753,0.00760266,-0.18559174,-0.10497,-0.80158776,-0.58859015,-0.15324292,0.59782875,-0.78684014,,NaN,NaN,NaN,NaN,NaN,NaN,NaN,NaN,NaN,NaN,NaN,NaN,,NaN,NaN,NaN,NaN,NaN,NaN,NaN,NaN,NaN,NaN,NaN,NaN,,NaN,NaN,NaN,NaN,NaN,NaN,NaN,,NaN,NaN,NaN,NaN,NaN,NaN,NaN,,-0.11697196646865997,-0.12781700610823973,0.09957687064,-0.11840502245808503,,-1.938641e-05,3.2186508e-06,1.4305115e-06,1.0,-8.7171793e-07,-6.631017e-07,8.866191e-07,1.0,-1.7881393e-07,6.556511e-07,1.4901161e-07,1.0,401,1.223,0,0,0.0,False,-0.26148663402373185,1.0018624291894016
1.2485363848973066,17:44:27.605530,17:43:11.756604,0,,NaN,NaN,NaN,NaN,NaN,NaN,NaN,NaN,NaN,NaN,NaN,NaN,,NaN,NaN,NaN,NaN,NaN,NaN,NaN,NaN,NaN,NaN,NaN,NaN,,0.09791459,1.2937886,0.425079,0.98259753,0.00760266,-0.18559174,-0.10497,-0.80158776,-0.58859015,-0.15324292,0.59782875,-0.78684014,,NaN,NaN,NaN,NaN,NaN,NaN,NaN,NaN,NaN,NaN,NaN,NaN,,NaN,NaN,NaN,NaN,NaN,NaN,NaN,NaN,NaN,NaN,NaN,NaN,,NaN,NaN,NaN,NaN,NaN,NaN,NaN,,NaN,NaN,NaN,NaN,NaN,NaN,NaN,,-0.11697196646865997,-0.12781700610823973,0.09957687064,-0.11840502245808503,,-1.938641e-05,3.2186508e-06,1.4305115e-06,1.0,-8.7171793e-07,-6.631017e-07,8.866191e-07,1.0,-1.7881393e-07,6.556511e-07,1.4901161e-07,1.0,413,1.26,0,0,0.0,False,-0.26309523242380006,1.0022486707956373
1.2754007019102573,17:44:27.635791,17:43:11.756604,0,,NaN,NaN,NaN,NaN,NaN,NaN,NaN,NaN,NaN,NaN,NaN,NaN,,NaN,NaN,NaN,NaN,NaN,NaN,NaN,NaN,NaN,NaN,NaN,NaN,,0.09791459,1.2937886,0.425079,0.98259753,0.00760266,-0.18559174,-0.10497,-0.80158776,-0.58859015,-0.15324292,0.59782875,-0.78684014,,NaN,NaN,NaN,NaN,NaN,NaN,NaN,NaN,NaN,NaN,NaN,NaN,,NaN,NaN,NaN,NaN,NaN,NaN,NaN,NaN,NaN,NaN,NaN,NaN,,NaN,NaN,NaN,NaN,NaN,NaN,NaN,,NaN,NaN,NaN,NaN,NaN,NaN,NaN,,-0.11697196646865997,-0.12781700610823973,0.09957687064,-0.11840502245808503,,-1.938641e-05,3.2186508e-06,1.4305115e-06,1.0,-8.7171793e-07,-6.631017e-07,8.866191e-07,1.0,-1.7881393e-07,6.556511e-07,1.4901161e-07,1.0,426,1.301,1,1,0.038,False,-0.26243987752006825,1.0030211540081084
1.305673030903563,17:44:27.675312,17:43:11.756604,0,,NaN,NaN,NaN,NaN,NaN,NaN,NaN,NaN,NaN,NaN,NaN,NaN,,NaN,NaN,NaN,NaN,NaN,NaN,NaN,NaN,NaN,NaN,NaN,NaN,,0.09791459,1.2937886,0.425079,0.98259753,0.00760266,-0.18559174,-0.10497,-0.80158776,-0.58859015,-0.15324292,0.59782875,-0.78684014,,NaN,NaN,NaN,NaN,NaN,NaN,NaN,NaN,NaN,NaN,NaN,NaN,,NaN,NaN,NaN,NaN,NaN,NaN,NaN,NaN,NaN,NaN,NaN,NaN,,NaN,NaN,NaN,NaN,NaN,NaN,NaN,,NaN,NaN,NaN,NaN,NaN,NaN,NaN,,-0.11697196646865997,-0.12781700610823973,0.09957687064,-0.11840502245808503,,-1.938641e-05,3.2186508e-06,1.4305115e-06,1.0,-8.7171793e-07,-6.631017e-07,8.866191e-07,1.0,-1.7881393e-07,6.556511e-07,1.4901161e-07,1.0,434,1.325,1,1,0.062,False,-0.262797343831195,1.0022003905948578
1.3451913429889828,17:44:27.704666,17:43:11.756604,0,,NaN,NaN,NaN,NaN,NaN,NaN,NaN,NaN,NaN,NaN,NaN,NaN,,NaN,NaN,NaN,NaN,NaN,NaN,NaN,NaN,NaN,NaN,NaN,NaN,,0.09791459,1.2937886,0.425079,0.98259753,0.00760266,-0.18559174,-0.10497,-0.80158776,-0.58859015,-0.15324292,0.59782875,-0.78684014,,NaN,NaN,NaN,NaN,NaN,NaN,NaN,NaN,NaN,NaN,NaN,NaN,,NaN,NaN,NaN,NaN,NaN,NaN,NaN,NaN,NaN,NaN,NaN,NaN,,NaN,NaN,NaN,NaN,NaN,NaN,NaN,,NaN,NaN,NaN,NaN,NaN,NaN,NaN,,-0.11697196646865997,-0.12781700610823973,0.09957687064,-0.11840502245808503,,-1.938641e-05,3.2186508e-06,1.4305115e-06,1.0,-8.7171793e-07,-6.631017e-07,8.866191e-07,1.0,-1.7881393e-07,6.556511e-07,1.4901161e-07,1.0,447,1.366,1,1,0.103,False,-0.2626781883941529,1.0025383520003142
1.374536301009357,17:44:27.733051,17:43:11.985013,0,,NaN,NaN,NaN,NaN,NaN,NaN,NaN,NaN,NaN,NaN,NaN,NaN,,NaN,NaN,NaN,NaN,NaN,NaN,NaN,NaN,NaN,NaN,NaN,NaN,,0.09791459,1.2937886,0.425079,0.98259753,0.00760266,-0.18559174,-0.10497,-0.80158776,-0.58859015,-0.15324292,0.59782875,-0.78684014,,NaN,NaN,NaN,NaN,NaN,NaN,NaN,NaN,NaN,NaN,NaN,NaN,,NaN,NaN,NaN,NaN,NaN,NaN,NaN,NaN,NaN,NaN,NaN,NaN,,NaN,NaN,NaN,NaN,NaN,NaN,NaN,,NaN,NaN,NaN,NaN,NaN,NaN,NaN,,-0.11697196646865997,-0.12781700610823973,0.09957687064,-0.11840502245808503,,-1.938641e-05,3.2186508e-06,1.4305115e-06,1.0,-8.7171793e-07,-6.631017e-07,8.866191e-07,1.0,-1.7881393e-07,6.556511e-07,1.4901161e-07,1.0,456,1.395,1,1,0.132,False,-0.2626186106756321,1.0034556758151236
1.4029108169488609,17:44:27.766648,17:43:11.985013,0,,NaN,NaN,NaN,NaN,NaN,NaN,NaN,NaN,NaN,NaN,NaN,NaN,,NaN,NaN,NaN,NaN,NaN,NaN,NaN,NaN,NaN,NaN,NaN,NaN,,0.09791459,1.2937886,0.425079,0.98259753,0.00760266,-0.18559174,-0.10497,-0.80158776,-0.58859015,-0.15324292,0.59782875,-0.78684014,,NaN,NaN,NaN,NaN,NaN,NaN,NaN,NaN,NaN,NaN,NaN,NaN,,NaN,NaN,NaN,NaN,NaN,NaN,NaN,NaN,NaN,NaN,NaN,NaN,,NaN,NaN,NaN,NaN,NaN,NaN,NaN,,NaN,NaN,NaN,NaN,NaN,NaN,NaN,,-0.11697196646865997,-0.12781700610823973,0.09957687064,-0.11840502245808503,,-1.938641e-05,3.2186508e-06,1.4305115e-06,1.0,-8.7171793e-07,-6.631017e-07,8.866191e-07,1.0,-1.7881393e-07,6.556511e-07,1.4901161e-07,1.0,469,1.436,1,1,0.173,False,-0.2626186106756321,1.0046144006338307
1.4365320368669927,17:44:27.805866,17:43:11.985013,0,,NaN,NaN,NaN,NaN,NaN,NaN,NaN,NaN,NaN,NaN,NaN,NaN,,NaN,NaN,NaN,NaN,NaN,NaN,NaN,NaN,NaN,NaN,NaN,NaN,,0.09791459,1.2937886,0.425079,0.98259753,0.00760266,-0.18559174,-0.10497,-0.80158776,-0.58859015,-0.15324292,0.59782875,-0.78684014,,NaN,NaN,NaN,NaN,NaN,NaN,NaN,NaN,NaN,NaN,NaN,NaN,,NaN,NaN,NaN,NaN,NaN,NaN,NaN,NaN,NaN,NaN,NaN,NaN,,NaN,NaN,NaN,NaN,NaN,NaN,NaN,,NaN,NaN,NaN,NaN,NaN,NaN,NaN,,-0.11697196646865997,-0.12781700610823973,0.09957687064,-0.11840502245808503,,-1.938641e-05,3.2186508e-06,1.4305115e-06,1.0,-8.7171793e-07,-6.631017e-07,8.866191e-07,1.0,-1.7881393e-07,6.556511e-07,1.4901161e-07,1.0,478,1.465,1,1,0.202,False,-0.26106958999408425,1.0060145264564349
1.4757346569094807,17:44:27.837015,17:43:11.985013,0,,NaN,NaN,NaN,NaN,NaN,NaN,NaN,NaN,NaN,NaN,NaN,NaN,,NaN,NaN,NaN,NaN,NaN,NaN,NaN,NaN,NaN,NaN,NaN,NaN,,0.09791459,1.2937886,0.425079,0.98259753,0.00760266,-0.18559174,-0.10497,-0.80158776,-0.58859015,-0.15324292,0.59782875,-0.78684014,,NaN,NaN,NaN,NaN,NaN,NaN,NaN,NaN,NaN,NaN,NaN,NaN,,NaN,NaN,NaN,NaN,NaN,NaN,NaN,NaN,NaN,NaN,NaN,NaN,,NaN,NaN,NaN,NaN,NaN,NaN,NaN,,NaN,NaN,NaN,NaN,NaN,NaN,NaN,,-0.11697196646865997,-0.12781700610823973,0.09957687064,-0.11840502245808503,,-1.938641e-05,3.2186508e-06,1.4305115e-06,1.0,-8.7171793e-07,-6.631017e-07,8.866191e-07,1.0,-1.7881393e-07,6.556511e-07,1.4901161e-07,1.0,491,1.505,1,1,0.242,False,-0.26309523242380006,1.0062559274603322
1.5068854799028486,17:44:27.883663,17:43:12.116419,0,,NaN,NaN,NaN,NaN,NaN,NaN,NaN,NaN,NaN,NaN,NaN,NaN,,NaN,NaN,NaN,NaN,NaN,NaN,NaN,NaN,NaN,NaN,NaN,NaN,,0.09791459,1.2937886,0.425079,0.98259753,0.00760266,-0.18559174,-0.10497,-0.80158776,-0.58859015,-0.15324292,0.59782875,-0.78684014,,NaN,NaN,NaN,NaN,NaN,NaN,NaN,NaN,NaN,NaN,NaN,NaN,,NaN,NaN,NaN,NaN,NaN,NaN,NaN,NaN,NaN,NaN,NaN,NaN,,NaN,NaN,NaN,NaN,NaN,NaN,NaN,,NaN,NaN,NaN,NaN,NaN,NaN,NaN,,-0.11697196646865997,-0.12781700610823973,0.09957687064,-0.11840502245808503,,-1.938641e-05,3.2186508e-06,1.4305115e-06,1.0,-8.7171793e-07,-6.631017e-07,8.866191e-07,1.0,-1.7881393e-07,6.556511e-07,1.4901161e-07,1.0,500,1.534,1,1,0.271,False,-0.26190367805337944,1.0058696858540968
1.5535482768900692,17:44:27.911345,17:43:12.116419,0,,NaN,NaN,NaN,NaN,NaN,NaN,NaN,NaN,NaN,NaN,NaN,NaN,,NaN,NaN,NaN,NaN,NaN,NaN,NaN,NaN,NaN,NaN,NaN,NaN,,0.09791459,1.2937886,0.425079,0.98259753,0.00760266,-0.18559174,-0.10497,-0.80158776,-0.58859015,-0.15324292,0.59782875,-0.78684014,,NaN,NaN,NaN,NaN,NaN,NaN,NaN,NaN,NaN,NaN,NaN,NaN,,NaN,NaN,NaN,NaN,NaN,NaN,NaN,NaN,NaN,NaN,NaN,NaN,,NaN,NaN,NaN,NaN,NaN,NaN,NaN,,NaN,NaN,NaN,NaN,NaN,NaN,NaN,,-0.11697196646865997,-0.12781700610823973,0.09957687064,-0.11840502245808503,,-1.938641e-05,3.2186508e-06,1.4305115e-06,1.0,-8.7171793e-07,-6.631017e-07,8.866191e-07,1.0,-1.7881393e-07,6.556511e-07,1.4901161e-07,1.0,513,1.575,1,1,0.312,False,-0.26243987752006825,1.0063042076611117
1.5812323139980435,17:44:27.949388,17:43:12.116419,0,,NaN,NaN,NaN,NaN,NaN,NaN,NaN,NaN,NaN,NaN,NaN,NaN,,NaN,NaN,NaN,NaN,NaN,NaN,NaN,NaN,NaN,NaN,NaN,NaN,,0.09791459,1.2937886,0.425079,0.98259753,0.00760266,-0.18559174,-0.10497,-0.80158776,-0.58859015,-0.15324292,0.59782875,-0.78684014,,NaN,NaN,NaN,NaN,NaN,NaN,NaN,NaN,NaN,NaN,NaN,NaN,,NaN,NaN,NaN,NaN,NaN,NaN,NaN,NaN,NaN,NaN,NaN,NaN,,NaN,NaN,NaN,NaN,NaN,NaN,NaN,,NaN,NaN,NaN,NaN,NaN,NaN,NaN,,-0.11697196646865997,-0.12781700610823973,0.09957687064,-0.11840502245808503,,-1.938641e-05,3.2186508e-06,1.4305115e-06,1.0,-8.7171793e-07,-6.631017e-07,8.866191e-07,1.0,-1.7881393e-07,6.556511e-07,1.4901161e-07,1.0,522,1.604,1,1,0.341,False,-0.26148663402373185,1.0056282848501994
1.6192061710171402,17:44:27.983404,17:43:12.116419,0,,NaN,NaN,NaN,NaN,NaN,NaN,NaN,NaN,NaN,NaN,NaN,NaN,,NaN,NaN,NaN,NaN,NaN,NaN,NaN,NaN,NaN,NaN,NaN,NaN,,0.09791459,1.2937886,0.425079,0.98259753,0.00760266,-0.18559174,-0.10497,-0.80158776,-0.58859015,-0.15324292,0.59782875,-0.78684014,,NaN,NaN,NaN,NaN,NaN,NaN,NaN,NaN,NaN,NaN,NaN,NaN,,NaN,NaN,NaN,NaN,NaN,NaN,NaN,NaN,NaN,NaN,NaN,NaN,,NaN,NaN,NaN,NaN,NaN,NaN,NaN,,NaN,NaN,NaN,NaN,NaN,NaN,NaN,,-0.11697196646865997,-0.12781700610823973,0.09957687064,-0.11840502245808503,,-1.938641e-05,3.2186508e-06,1.4305115e-06,1.0,-8.7171793e-07,-6.631017e-07,8.866191e-07,1.0,-1.7881393e-07,6.556511e-07,1.4901161e-07,1.0,535,1.645,1,1,0.382,False,-0.2623802998015474,1.0050972026416254
1.6532500309403986,17:44:28.019480,17:43:12.116419,0,,NaN,NaN,NaN,NaN,NaN,NaN,NaN,NaN,NaN,NaN,NaN,NaN,,NaN,NaN,NaN,NaN,NaN,NaN,NaN,NaN,NaN,NaN,NaN,NaN,,0.09791459,1.2937886,0.425079,0.98259753,0.00760266,-0.18559174,-0.10497,-0.80158776,-0.58859015,-0.15324292,0.59782875,-0.78684014,,NaN,NaN,NaN,NaN,NaN,NaN,NaN,NaN,NaN,NaN,NaN,NaN,,NaN,NaN,NaN,NaN,NaN,NaN,NaN,NaN,NaN,NaN,NaN,NaN,,NaN,NaN,NaN,NaN,NaN,NaN,NaN,,NaN,NaN,NaN,NaN,NaN,NaN,NaN,,-0.11697196646865997,-0.12781700610823973,0.09957687064,-0.11840502245808503,,-1.938641e-05,3.2186508e-06,1.4305115e-06,1.0,-8.7171793e-07,-6.631017e-07,8.866191e-07,1.0,-1.7881393e-07,6.556511e-07,1.4901161e-07,1.0,544,1.673,1,1,0.41,False,-0.2621419889274632,1.0052903234447432
1.6893276749178767,17:44:28.057095,17:43:12.317440,0,,NaN,NaN,NaN,NaN,NaN,NaN,NaN,NaN,NaN,NaN,NaN,NaN,,NaN,NaN,NaN,NaN,NaN,NaN,NaN,NaN,NaN,NaN,NaN,NaN,,0.09791459,1.2937886,0.425079,0.98259753,0.00760266,-0.18559174,-0.10497,-0.80158776,-0.58859015,-0.15324292,0.59782875,-0.78684014,,NaN,NaN,NaN,NaN,NaN,NaN,NaN,NaN,NaN,NaN,NaN,NaN,,NaN,NaN,NaN,NaN,NaN,NaN,NaN,NaN,NaN,NaN,NaN,NaN,,NaN,NaN,NaN,NaN,NaN,NaN,NaN,,NaN,NaN,NaN,NaN,NaN,NaN,NaN,,-0.11697196646865997,-0.12781700610823973,0.09957687064,-0.11840502245808503,,-1.938641e-05,3.2186508e-06,1.4305115e-06,1.0,-8.7171793e-07,-6.631017e-07,8.866191e-07,1.0,-1.7881393e-07,6.556511e-07,1.4901161e-07,1.0,557,1.714,1,1,0.451,False,-0.26386974276457353,1.0051937630431842
1.726982426829636,17:44:28.090732,17:43:12.317440,0,,NaN,NaN,NaN,NaN,NaN,NaN,NaN,NaN,NaN,NaN,NaN,NaN,,NaN,NaN,NaN,NaN,NaN,NaN,NaN,NaN,NaN,NaN,NaN,NaN,,0.09791459,1.2937886,0.425079,0.98259753,0.00760266,-0.18559174,-0.10497,-0.80158776,-0.58859015,-0.15324292,0.59782875,-0.78684014,,NaN,NaN,NaN,NaN,NaN,NaN,NaN,NaN,NaN,NaN,NaN,NaN,,NaN,NaN,NaN,NaN,NaN,NaN,NaN,NaN,NaN,NaN,NaN,NaN,,NaN,NaN,NaN,NaN,NaN,NaN,NaN,,NaN,NaN,NaN,NaN,NaN,NaN,NaN,,-0.11697196646865997,-0.12781700610823973,0.09957687064,-0.11840502245808503,,-1.938641e-05,3.2186508e-06,1.4305115e-06,1.0,-8.7171793e-07,-6.631017e-07,8.866191e-07,1.0,-1.7881393e-07,6.556511e-07,1.4901161e-07,1.0,566,1.743,1,1,0.48,False,-0.2629164992682367,1.0058696858540968
1.7606147669721395,17:44:28.121266,17:43:12.317440,0,,NaN,NaN,NaN,NaN,NaN,NaN,NaN,NaN,NaN,NaN,NaN,NaN,,NaN,NaN,NaN,NaN,NaN,NaN,NaN,NaN,NaN,NaN,NaN,NaN,,0.09791459,1.2937886,0.425079,0.98259753,0.00760266,-0.18559174,-0.10497,-0.80158776,-0.58859015,-0.15324292,0.59782875,-0.78684014,,NaN,NaN,NaN,NaN,NaN,NaN,NaN,NaN,NaN,NaN,NaN,NaN,,NaN,NaN,NaN,NaN,NaN,NaN,NaN,NaN,NaN,NaN,NaN,NaN,,NaN,NaN,NaN,NaN,NaN,NaN,NaN,,NaN,NaN,NaN,NaN,NaN,NaN,NaN,,-0.11697196646865997,-0.12781700610823973,0.09957687064,-0.11840502245808503,,-1.938641e-05,3.2186508e-06,1.4305115e-06,1.0,-8.7171793e-07,-6.631017e-07,8.866191e-07,1.0,-1.7881393e-07,6.556511e-07,1.4901161e-07,1.0,579,1.784,1,1,0.521,False,-0.2634526987349264,1.0051454828424047
1.7911076229065657,17:44:28.158606,17:43:12.317440,0,,NaN,NaN,NaN,NaN,NaN,NaN,NaN,NaN,NaN,NaN,NaN,NaN,,NaN,NaN,NaN,NaN,NaN,NaN,NaN,NaN,NaN,NaN,NaN,NaN,,0.09791459,1.2937886,0.425079,0.98259753,0.00760266,-0.18559174,-0.10497,-0.80158776,-0.58859015,-0.15324292,0.59782875,-0.78684014,,NaN,NaN,NaN,NaN,NaN,NaN,NaN,NaN,NaN,NaN,NaN,NaN,,NaN,NaN,NaN,NaN,NaN,NaN,NaN,NaN,NaN,NaN,NaN,NaN,,NaN,NaN,NaN,NaN,NaN,NaN,NaN,,NaN,NaN,NaN,NaN,NaN,NaN,NaN,,-0.11697196646865997,-0.12781700610823973,0.09957687064,-0.11840502245808503,,-1.938641e-05,3.2186508e-06,1.4305115e-06,1.0,-8.7171793e-07,-6.631017e-07,8.866191e-07,1.0,-1.7881393e-07,6.556511e-07,1.4901161e-07,1.0,588,1.813,1,1,0.55,False,-0.26386974276457353,1.005483444247861
1.8284587759990245,17:44:28.188081,17:43:12.317440,0,,NaN,NaN,NaN,NaN,NaN,NaN,NaN,NaN,NaN,NaN,NaN,NaN,,NaN,NaN,NaN,NaN,NaN,NaN,NaN,NaN,NaN,NaN,NaN,NaN,,0.09791459,1.2937886,0.425079,0.98259753,0.00760266,-0.18559174,-0.10497,-0.80158776,-0.58859015,-0.15324292,0.59782875,-0.78684014,,NaN,NaN,NaN,NaN,NaN,NaN,NaN,NaN,NaN,NaN,NaN,NaN,,NaN,NaN,NaN,NaN,NaN,NaN,NaN,NaN,NaN,NaN,NaN,NaN,,NaN,NaN,NaN,NaN,NaN,NaN,NaN,,NaN,NaN,NaN,NaN,NaN,NaN,NaN,,-0.11697196646865997,-0.12781700610823973,0.09957687064,-0.11840502245808503,,-1.938641e-05,3.2186508e-06,1.4305115e-06,1.0,-8.7171793e-07,-6.631017e-07,8.866191e-07,1.0,-1.7881393e-07,6.556511e-07,1.4901161e-07,1.0,601,1.854,1,1,0.591,False,-0.2631548101423209,1.0059662462556558
1.8579354078974575,17:44:28.231992,17:43:12.469941,0,,NaN,NaN,NaN,NaN,NaN,NaN,NaN,NaN,NaN,NaN,NaN,NaN,,NaN,NaN,NaN,NaN,NaN,NaN,NaN,NaN,NaN,NaN,NaN,NaN,,0.09791459,1.2937886,0.425079,0.98259753,0.00760266,-0.18559174,-0.10497,-0.80158776,-0.58859015,-0.15324292,0.59782875,-0.78684014,,NaN,NaN,NaN,NaN,NaN,NaN,NaN,NaN,NaN,NaN,NaN,NaN,,NaN,NaN,NaN,NaN,NaN,NaN,NaN,NaN,NaN,NaN,NaN,NaN,,NaN,NaN,NaN,NaN,NaN,NaN,NaN,,NaN,NaN,NaN,NaN,NaN,NaN,NaN,,-0.11697196646865997,-0.12781700610823973,0.09957687064,-0.11840502245808503,,-1.938641e-05,3.2186508e-06,1.4305115e-06,1.0,-8.7171793e-07,-6.631017e-07,8.866191e-07,1.0,-1.7881393e-07,6.556511e-07,1.4901161e-07,1.0,610,1.882,1,1,0.619,False,-0.262797343831195,1.0057731254525375
1.9018416430335492,17:44:28.259803,17:43:12.469941,0,,NaN,NaN,NaN,NaN,NaN,NaN,NaN,NaN,NaN,NaN,NaN,NaN,,NaN,NaN,NaN,NaN,NaN,NaN,NaN,NaN,NaN,NaN,NaN,NaN,,0.09791459,1.2937886,0.425079,0.98259753,0.00760266,-0.18559174,-0.10497,-0.80158776,-0.58859015,-0.15324292,0.59782875,-0.78684014,,NaN,NaN,NaN,NaN,NaN,NaN,NaN,NaN,NaN,NaN,NaN,NaN,,NaN,NaN,NaN,NaN,NaN,NaN,NaN,NaN,NaN,NaN,NaN,NaN,,NaN,NaN,NaN,NaN,NaN,NaN,NaN,,NaN,NaN,NaN,NaN,NaN,NaN,NaN,,-0.11697196646865997,-0.12781700610823973,0.09957687064,-0.11840502245808503,,-1.938641e-05,3.2186508e-06,1.4305115e-06,1.0,-8.7171793e-07,-6.631017e-07,8.866191e-07,1.0,-1.7881393e-07,6.556511e-07,1.4901161e-07,1.0,623,1.923,1,1,0.66,False,-0.2626781883941529,1.0058696858540968
1.9296927859541029,17:44:28.299708,17:43:12.469941,0,,NaN,NaN,NaN,NaN,NaN,NaN,NaN,NaN,NaN,NaN,NaN,NaN,,NaN,NaN,NaN,NaN,NaN,NaN,NaN,NaN,NaN,NaN,NaN,NaN,,0.09791459,1.2937886,0.425079,0.98259753,0.00760266,-0.18559174,-0.10497,-0.80158776,-0.58859015,-0.15324292,0.59782875,-0.78684014,,NaN,NaN,NaN,NaN,NaN,NaN,NaN,NaN,NaN,NaN,NaN,NaN,,NaN,NaN,NaN,NaN,NaN,NaN,NaN,NaN,NaN,NaN,NaN,NaN,,NaN,NaN,NaN,NaN,NaN,NaN,NaN,,NaN,NaN,NaN,NaN,NaN,NaN,NaN,,-0.11697196646865997,-0.12781700610823973,0.09957687064,-0.11840502245808503,,-1.938641e-05,3.2186508e-06,1.4305115e-06,1.0,-8.7171793e-07,-6.631017e-07,8.866191e-07,1.0,-1.7881393e-07,6.556511e-07,1.4901161e-07,1.0,632,1.952,1,1,0.689,False,-0.26202283349042155,1.0057731254525375
1.9695719408337027,17:44:28.323602,17:43:12.469941,0,,NaN,NaN,NaN,NaN,NaN,NaN,NaN,NaN,NaN,NaN,NaN,NaN,,NaN,NaN,NaN,NaN,NaN,NaN,NaN,NaN,NaN,NaN,NaN,NaN,,0.09791459,1.2937886,0.425079,0.98259753,0.00760266,-0.18559174,-0.10497,-0.80158776,-0.58859015,-0.15324292,0.59782875,-0.78684014,,NaN,NaN,NaN,NaN,NaN,NaN,NaN,NaN,NaN,NaN,NaN,NaN,,NaN,NaN,NaN,NaN,NaN,NaN,NaN,NaN,NaN,NaN,NaN,NaN,,NaN,NaN,NaN,NaN,NaN,NaN,NaN,,NaN,NaN,NaN,NaN,NaN,NaN,NaN,,-0.11697196646865997,-0.12781700610823973,0.09957687064,-0.11840502245808503,,-1.938641e-05,3.2186508e-06,1.4305115e-06,1.0,-8.7171793e-07,-6.631017e-07,8.866191e-07,1.0,-1.7881393e-07,6.556511e-07,1.4901161e-07,1.0,645,1.993,1,1,0.73,False,-0.26339312101640555,1.0054351640470816
1.9934543969575316,17:44:28.371156,17:43:12.620665,0,,NaN,NaN,NaN,NaN,NaN,NaN,NaN,NaN,NaN,NaN,NaN,NaN,,NaN,NaN,NaN,NaN,NaN,NaN,NaN,NaN,NaN,NaN,NaN,NaN,,0.09791459,1.2937886,0.425079,0.98259753,0.00760266,-0.18559174,-0.10497,-0.80158776,-0.58859015,-0.15324292,0.59782875,-0.78684014,,NaN,NaN,NaN,NaN,NaN,NaN,NaN,NaN,NaN,NaN,NaN,NaN,,NaN,NaN,NaN,NaN,NaN,NaN,NaN,NaN,NaN,NaN,NaN,NaN,,NaN,NaN,NaN,NaN,NaN,NaN,NaN,,NaN,NaN,NaN,NaN,NaN,NaN,NaN,,-0.11697196646865997,-0.12781700610823973,0.09957687064,-0.11840502245808503,,-1.938641e-05,3.2186508e-06,1.4305115e-06,1.0,-8.7171793e-07,-6.631017e-07,8.866191e-07,1.0,-1.7881393e-07,6.556511e-07,1.4901161e-07,1.0,654,2.022,1,1,0.759,False,-0.26154621174225356,1.0055800046494199
2.0410308269783854,17:44:28.397957,17:43:12.620665,0,,NaN,NaN,NaN,NaN,NaN,NaN,NaN,NaN,NaN,NaN,NaN,NaN,,NaN,NaN,NaN,NaN,NaN,NaN,NaN,NaN,NaN,NaN,NaN,NaN,,0.09791459,1.2937886,0.425079,0.98259753,0.00760266,-0.18559174,-0.10497,-0.80158776,-0.58859015,-0.15324292,0.59782875,-0.78684014,,NaN,NaN,NaN,NaN,NaN,NaN,NaN,NaN,NaN,NaN,NaN,NaN,,NaN,NaN,NaN,NaN,NaN,NaN,NaN,NaN,NaN,NaN,NaN,NaN,,NaN,NaN,NaN,NaN,NaN,NaN,NaN,,NaN,NaN,NaN,NaN,NaN,NaN,NaN,,-0.11697196646865997,-0.12781700610823973,0.09957687064,-0.11840502245808503,,-1.938641e-05,3.2186508e-06,1.4305115e-06,1.0,-8.7171793e-07,-6.631017e-07,8.866191e-07,1.0,-1.7881393e-07,6.556511e-07,1.4901161e-07,1.0,663,2.05,1,1,0.787,False,-0.2629164992682367,1.0055800046494199
2.067711602896452,17:44:28.427065,17:43:12.620665,0,,NaN,NaN,NaN,NaN,NaN,NaN,NaN,NaN,NaN,NaN,NaN,NaN,,NaN,NaN,NaN,NaN,NaN,NaN,NaN,NaN,NaN,NaN,NaN,NaN,,0.09791459,1.2937886,0.425079,0.98259753,0.00760266,-0.18559174,-0.10497,-0.80158776,-0.58859015,-0.15324292,0.59782875,-0.78684014,,NaN,NaN,NaN,NaN,NaN,NaN,NaN,NaN,NaN,NaN,NaN,NaN,,NaN,NaN,NaN,NaN,NaN,NaN,NaN,NaN,NaN,NaN,NaN,NaN,,NaN,NaN,NaN,NaN,NaN,NaN,NaN,,NaN,NaN,NaN,NaN,NaN,NaN,NaN,,-0.11697196646865997,-0.12781700610823973,0.09957687064,-0.11840502245808503,,-1.938641e-05,3.2186508e-06,1.4305115e-06,1.0,-8.7171793e-07,-6.631017e-07,8.866191e-07,1.0,-1.7881393e-07,6.556511e-07,1.4901161e-07,1.0,676,2.091,1,1,0.828,False,-0.2623802998015474,1.0055317244486406
2.0969503088854253,17:44:28.459016,17:43:12.620665,0,,NaN,NaN,NaN,NaN,NaN,NaN,NaN,NaN,NaN,NaN,NaN,NaN,,NaN,NaN,NaN,NaN,NaN,NaN,NaN,NaN,NaN,NaN,NaN,NaN,,0.09791459,1.2937886,0.425079,0.98259753,0.00760266,-0.18559174,-0.10497,-0.80158776,-0.58859015,-0.15324292,0.59782875,-0.78684014,,NaN,NaN,NaN,NaN,NaN,NaN,NaN,NaN,NaN,NaN,NaN,NaN,,NaN,NaN,NaN,NaN,NaN,NaN,NaN,NaN,NaN,NaN,NaN,NaN,,NaN,NaN,NaN,NaN,NaN,NaN,NaN,,NaN,NaN,NaN,NaN,NaN,NaN,NaN,,-0.11697196646865997,-0.12781700610823973,0.09957687064,-0.11840502245808503,,-1.938641e-05,3.2186508e-06,1.4305115e-06,1.0,-8.7171793e-07,-6.631017e-07,8.866191e-07,1.0,-1.7881393e-07,6.556511e-07,1.4901161e-07,1.0,685,2.12,1,1,0.857,False,-0.26243987752006825,1.0057731254525375
2.128902413882315,17:44:28.496602,17:43:12.756724,0,,NaN,NaN,NaN,NaN,NaN,NaN,NaN,NaN,NaN,NaN,NaN,NaN,,NaN,NaN,NaN,NaN,NaN,NaN,NaN,NaN,NaN,NaN,NaN,NaN,,0.09791459,1.2937886,0.425079,0.98259753,0.00760266,-0.18559174,-0.10497,-0.80158776,-0.58859015,-0.15324292,0.59782875,-0.78684014,,NaN,NaN,NaN,NaN,NaN,NaN,NaN,NaN,NaN,NaN,NaN,NaN,,NaN,NaN,NaN,NaN,NaN,NaN,NaN,NaN,NaN,NaN,NaN,NaN,,NaN,NaN,NaN,NaN,NaN,NaN,NaN,,NaN,NaN,NaN,NaN,NaN,NaN,NaN,,-0.11697196646865997,-0.12781700610823973,0.09957687064,-0.11840502245808503,,-1.938641e-05,3.2186508e-06,1.4305115e-06,1.0,-8.7171793e-07,-6.631017e-07,8.866191e-07,1.0,-1.7881393e-07,6.556511e-07,1.4901161e-07,1.0,698,2.161,1,1,0.898,False,-0.2622015666459845,1.0057248452517584
2.1664788178168237,17:44:28.533783,17:43:12.756724,0,,NaN,NaN,NaN,NaN,NaN,NaN,NaN,NaN,NaN,NaN,NaN,NaN,,NaN,NaN,NaN,NaN,NaN,NaN,NaN,NaN,NaN,NaN,NaN,NaN,,0.09791459,1.2937886,0.425079,0.98259753,0.00760266,-0.18559174,-0.10497,-0.80158776,-0.58859015,-0.15324292,0.59782875,-0.78684014,,NaN,NaN,NaN,NaN,NaN,NaN,NaN,NaN,NaN,NaN,NaN,NaN,,NaN,NaN,NaN,NaN,NaN,NaN,NaN,NaN,NaN,NaN,NaN,NaN,,NaN,NaN,NaN,NaN,NaN,NaN,NaN,,NaN,NaN,NaN,NaN,NaN,NaN,NaN,,-0.11697196646865997,-0.12781700610823973,0.09957687064,-0.11840502245808503,,-1.938641e-05,3.2186508e-06,1.4305115e-06,1.0,-8.7171793e-07,-6.631017e-07,8.866191e-07,1.0,-1.7881393e-07,6.556511e-07,1.4901161e-07,1.0,707,2.19,1,1,0.927,False,-0.2626186106756321,1.0064007680626708
2.2036656339187175,17:44:28.572822,17:43:12.756724,0,,NaN,NaN,NaN,NaN,NaN,NaN,NaN,NaN,NaN,NaN,NaN,NaN,,NaN,NaN,NaN,NaN,NaN,NaN,NaN,NaN,NaN,NaN,NaN,NaN,,0.09793825,1.2937851,0.425077,0.9825973,0.007600996,-0.18559296,-0.10497204,-0.8015878,-0.5885897,-0.15324292,0.59782875,-0.78684014,,NaN,NaN,NaN,NaN,NaN,NaN,NaN,NaN,NaN,NaN,NaN,NaN,,NaN,NaN,NaN,NaN,NaN,NaN,NaN,NaN,NaN,NaN,NaN,NaN,,NaN,NaN,NaN,NaN,NaN,NaN,NaN,,NaN,NaN,NaN,NaN,NaN,NaN,NaN,,-0.11697196646865997,-0.12781700610823973,0.09957687064,-0.11840502245808503,,4.5374036e-06,5.00679e-06,5.9604645e-07,1.0,-2.4959445e-06,-1.9147992e-06,2.5108457e-06,1.0,-5.066395e-07,1.899898e-06,5.066395e-07,1.0,720,2.23,1,1,0.967,False,-0.2611887454311268,1.0059662462556558
2.2426886199973524,17:44:28.604111,17:43:12.756724,0,,NaN,NaN,NaN,NaN,NaN,NaN,NaN,NaN,NaN,NaN,NaN,NaN,,NaN,NaN,NaN,NaN,NaN,NaN,NaN,NaN,NaN,NaN,NaN,NaN,,0.09793825,1.2937851,0.425077,0.9825973,0.007600996,-0.18559296,-0.10497204,-0.8015878,-0.5885897,-0.15324292,0.59782875,-0.78684014,,NaN,NaN,NaN,NaN,NaN,NaN,NaN,NaN,NaN,NaN,NaN,NaN,,NaN,NaN,NaN,NaN,NaN,NaN,NaN,NaN,NaN,NaN,NaN,NaN,,NaN,NaN,NaN,NaN,NaN,NaN,NaN,,NaN,NaN,NaN,NaN,NaN,NaN,NaN,,-0.11697196646865997,-0.12781700610823973,0.09957687064,-0.11840502245808503,,4.5374036e-06,5.00679e-06,5.9604645e-07,1.0,-2.4959445e-06,-1.9147992e-06,2.5108457e-06,1.0,-5.066395e-07,1.899898e-06,5.066395e-07,1.0,729,2.259,1,1,0.996,False,-0.2622015666459845,1.0057248452517584
2.27399916597642,17:44:28.642184,17:43:12.896104,0,,NaN,NaN,NaN,NaN,NaN,NaN,NaN,NaN,NaN,NaN,NaN,NaN,,NaN,NaN,NaN,NaN,NaN,NaN,NaN,NaN,NaN,NaN,NaN,NaN,,0.09793825,1.2937851,0.425077,0.9825973,0.007600996,-0.18559296,-0.10497204,-0.8015878,-0.5885897,-0.15324292,0.59782875,-0.78684014,,NaN,NaN,NaN,NaN,NaN,NaN,NaN,NaN,NaN,NaN,NaN,NaN,,NaN,NaN,NaN,NaN,NaN,NaN,NaN,NaN,NaN,NaN,NaN,NaN,,NaN,NaN,NaN,NaN,NaN,NaN,NaN,,NaN,NaN,NaN,NaN,NaN,NaN,NaN,,-0.11697196646865997,-0.12781700610823973,0.09957687064,-0.11840502245808503,,4.5374036e-06,5.00679e-06,5.9604645e-07,1.0,-2.4959445e-06,-1.9147992e-06,2.5108457e-06,1.0,-5.066395e-07,1.899898e-06,5.066395e-07,1.0,738,2.288,1,1,1.025,False,-0.26160578946077395,1.00644904826345
2.3120427220128477,17:44:28.668522,17:43:12.896104,0,,NaN,NaN,NaN,NaN,NaN,NaN,NaN,NaN,NaN,NaN,NaN,NaN,,NaN,NaN,NaN,NaN,NaN,NaN,NaN,NaN,NaN,NaN,NaN,NaN,,0.09793825,1.2937851,0.425077,0.9825973,0.007600996,-0.18559296,-0.10497204,-0.8015878,-0.5885897,-0.15324292,0.59782875,-0.78684014,,NaN,NaN,NaN,NaN,NaN,NaN,NaN,NaN,NaN,NaN,NaN,NaN,,NaN,NaN,NaN,NaN,NaN,NaN,NaN,NaN,NaN,NaN,NaN,NaN,,NaN,NaN,NaN,NaN,NaN,NaN,NaN,,NaN,NaN,NaN,NaN,NaN,NaN,NaN,,-0.11697196646865997,-0.12781700610823973,0.09957687064,-0.11840502245808503,,4.5374036e-06,5.00679e-06,5.9604645e-07,1.0,-2.4959445e-06,-1.9147992e-06,2.5108457e-06,1.0,-5.066395e-07,1.899898e-06,5.066395e-07,1.0,752,2.333,1,1,1.07,False,-0.26160578946077395,1.0063042076611117
2.3383977848570794,17:44:28.704785,17:43:12.896104,0,,NaN,NaN,NaN,NaN,NaN,NaN,NaN,NaN,NaN,NaN,NaN,NaN,,NaN,NaN,NaN,NaN,NaN,NaN,NaN,NaN,NaN,NaN,NaN,NaN,,0.09793825,1.2937851,0.425077,0.9825973,0.007600996,-0.18559296,-0.10497204,-0.8015878,-0.5885897,-0.15324292,0.59782875,-0.78684014,,NaN,NaN,NaN,NaN,NaN,NaN,NaN,NaN,NaN,NaN,NaN,NaN,,NaN,NaN,NaN,NaN,NaN,NaN,NaN,NaN,NaN,NaN,NaN,NaN,,NaN,NaN,NaN,NaN,NaN,NaN,NaN,,NaN,NaN,NaN,NaN,NaN,NaN,NaN,,-0.11697196646865997,-0.12781700610823973,0.09957687064,-0.11840502245808503,,4.5374036e-06,5.00679e-06,5.9604645e-07,1.0,-2.4959445e-06,-1.9147992e-06,2.5108457e-06,1.0,-5.066395e-07,1.899898e-06,5.066395e-07,1.0,766,2.378,1,1,1.115,False,-0.26232072208302704,1.0064973284642296
2.374625847907737,17:44:28.750380,17:43:12.896104,0,,NaN,NaN,NaN,NaN,NaN,NaN,NaN,NaN,NaN,NaN,NaN,NaN,,NaN,NaN,NaN,NaN,NaN,NaN,NaN,NaN,NaN,NaN,NaN,NaN,,0.09793825,1.2937851,0.425077,0.9825973,0.007600996,-0.18559296,-0.10497204,-0.8015878,-0.5885897,-0.15324292,0.59782875,-0.78684014,,NaN,NaN,NaN,NaN,NaN,NaN,NaN,NaN,NaN,NaN,NaN,NaN,,NaN,NaN,NaN,NaN,NaN,NaN,NaN,NaN,NaN,NaN,NaN,NaN,,NaN,NaN,NaN,NaN,NaN,NaN,NaN,,NaN,NaN,NaN,NaN,NaN,NaN,NaN,,-0.11697196646865997,-0.12781700610823973,0.09957687064,-0.11840502245808503,,4.5374036e-06,5.00679e-06,5.9604645e-07,1.0,-2.4959445e-06,-1.9147992e-06,2.5108457e-06,1.0,-5.066395e-07,1.899898e-06,5.066395e-07,1.0,775,2.407,1,1,1.144,False,-0.26053339052739544,1.0061593670587736
2.420260449871421,17:44:28.785581,17:43:12.896104,0,,NaN,NaN,NaN,NaN,NaN,NaN,NaN,NaN,NaN,NaN,NaN,NaN,,NaN,NaN,NaN,NaN,NaN,NaN,NaN,NaN,NaN,NaN,NaN,NaN,,0.09793825,1.2937851,0.425077,0.9825973,0.007600996,-0.18559296,-0.10497204,-0.8015878,-0.5885897,-0.15324292,0.59782875,-0.78684014,,NaN,NaN,NaN,NaN,NaN,NaN,NaN,NaN,NaN,NaN,NaN,NaN,,NaN,NaN,NaN,NaN,NaN,NaN,NaN,NaN,NaN,NaN,NaN,NaN,,NaN,NaN,NaN,NaN,NaN,NaN,NaN,,NaN,NaN,NaN,NaN,NaN,NaN,NaN,,-0.11697196646865997,-0.12781700610823973,0.09957687064,-0.11840502245808503,,4.5374036e-06,5.00679e-06,5.9604645e-07,1.0,-2.4959445e-06,-1.9147992e-06,2.5108457e-06,1.0,-5.066395e-07,1.899898e-06,5.066395e-07,1.0,789,2.452,1,1,1.189,False,-0.26190367805337944,1.0064007680626708
2.4554622208233923,17:44:28.823067,17:43:13.075214,0,,NaN,NaN,NaN,NaN,NaN,NaN,NaN,NaN,NaN,NaN,NaN,NaN,,NaN,NaN,NaN,NaN,NaN,NaN,NaN,NaN,NaN,NaN,NaN,NaN,,0.09793825,1.2937851,0.425077,0.9825973,0.007600996,-0.18559296,-0.10497204,-0.8015878,-0.5885897,-0.15324292,0.59782875,-0.78684014,,NaN,NaN,NaN,NaN,NaN,NaN,NaN,NaN,NaN,NaN,NaN,NaN,,NaN,NaN,NaN,NaN,NaN,NaN,NaN,NaN,NaN,NaN,NaN,NaN,,NaN,NaN,NaN,NaN,NaN,NaN,NaN,,NaN,NaN,NaN,NaN,NaN,NaN,NaN,,-0.11697196646865997,-0.12781700610823973,0.09957687064,-0.11840502245808503,,4.5374036e-06,5.00679e-06,5.9604645e-07,1.0,-2.4959445e-06,-1.9147992e-06,2.5108457e-06,1.0,-5.066395e-07,1.899898e-06,5.066395e-07,1.0,798,2.48,0,1,1.195,False,-0.2616653671792948,1.0064973284642296
2.49294112296775,17:44:28.854840,17:43:13.075214,0,,NaN,NaN,NaN,NaN,NaN,NaN,NaN,NaN,NaN,NaN,NaN,NaN,,NaN,NaN,NaN,NaN,NaN,NaN,NaN,NaN,NaN,NaN,NaN,NaN,,0.09793825,1.2937851,0.425077,0.9825973,0.007600996,-0.18559296,-0.10497204,-0.8015878,-0.5885897,-0.15324292,0.59782875,-0.78684014,,NaN,NaN,NaN,NaN,NaN,NaN,NaN,NaN,NaN,NaN,NaN,NaN,,NaN,NaN,NaN,NaN,NaN,NaN,NaN,NaN,NaN,NaN,NaN,NaN,,NaN,NaN,NaN,NaN,NaN,NaN,NaN,,NaN,NaN,NaN,NaN,NaN,NaN,NaN,,-0.11697196646865997,-0.12781700610823973,0.09957687064,-0.11840502245808503,,4.5374036e-06,5.00679e-06,5.9604645e-07,1.0,-2.4959445e-06,-1.9147992e-06,2.5108457e-06,1.0,-5.066395e-07,1.899898e-06,5.066395e-07,1.0,812,2.525,0,1,1.195,False,-0.2621419889274632,1.0064007680626708
2.524720164015889,17:44:28.902272,17:43:13.075214,0,,NaN,NaN,NaN,NaN,NaN,NaN,NaN,NaN,NaN,NaN,NaN,NaN,,NaN,NaN,NaN,NaN,NaN,NaN,NaN,NaN,NaN,NaN,NaN,NaN,,0.09793825,1.2937851,0.425077,0.9825973,0.007600996,-0.18559296,-0.10497204,-0.8015878,-0.5885897,-0.15324292,0.59782875,-0.78684014,,NaN,NaN,NaN,NaN,NaN,NaN,NaN,NaN,NaN,NaN,NaN,NaN,,NaN,NaN,NaN,NaN,NaN,NaN,NaN,NaN,NaN,NaN,NaN,NaN,,NaN,NaN,NaN,NaN,NaN,NaN,NaN,,NaN,NaN,NaN,NaN,NaN,NaN,NaN,,-0.11697196646865997,-0.12781700610823973,0.09957687064,-0.11840502245808503,,4.5374036e-06,5.00679e-06,5.9604645e-07,1.0,-2.4959445e-06,-1.9147992e-06,2.5108457e-06,1.0,-5.066395e-07,1.899898e-06,5.066395e-07,1.0,821,2.554,0,1,1.195,False,-0.2617249448978165,1.0058214056533172
2.5721560588572174,17:44:28.931820,17:43:13.202931,0,,NaN,NaN,NaN,NaN,NaN,NaN,NaN,NaN,NaN,NaN,NaN,NaN,,NaN,NaN,NaN,NaN,NaN,NaN,NaN,NaN,NaN,NaN,NaN,NaN,,0.09793825,1.2937851,0.425077,0.9825973,0.007600996,-0.18559296,-0.10497204,-0.8015878,-0.5885897,-0.15324292,0.59782875,-0.78684014,,NaN,NaN,NaN,NaN,NaN,NaN,NaN,NaN,NaN,NaN,NaN,NaN,,NaN,NaN,NaN,NaN,NaN,NaN,NaN,NaN,NaN,NaN,NaN,NaN,,NaN,NaN,NaN,NaN,NaN,NaN,NaN,,NaN,NaN,NaN,NaN,NaN,NaN,NaN,,-0.11697196646865997,-0.12781700610823973,0.09957687064,-0.11840502245808503,,4.5374036e-06,5.00679e-06,5.9604645e-07,1.0,-2.4959445e-06,-1.9147992e-06,2.5108457e-06,1.0,-5.066395e-07,1.899898e-06,5.066395e-07,1.0,835,2.599,0,1,1.195,False,-0.2620824112089424,1.0059179660548763
2.6016411369200796,17:44:28.971415,17:43:13.202931,0,,NaN,NaN,NaN,NaN,NaN,NaN,NaN,NaN,NaN,NaN,NaN,NaN,,NaN,NaN,NaN,NaN,NaN,NaN,NaN,NaN,NaN,NaN,NaN,NaN,,0.09793825,1.2937851,0.425077,0.9825973,0.007600996,-0.18559296,-0.10497204,-0.8015878,-0.5885897,-0.15324292,0.59782875,-0.78684014,,NaN,NaN,NaN,NaN,NaN,NaN,NaN,NaN,NaN,NaN,NaN,NaN,,NaN,NaN,NaN,NaN,NaN,NaN,NaN,NaN,NaN,NaN,NaN,NaN,,NaN,NaN,NaN,NaN,NaN,NaN,NaN,,NaN,NaN,NaN,NaN,NaN,NaN,NaN,,-0.11697196646865997,-0.12781700610823973,0.09957687064,-0.11840502245808503,,4.5374036e-06,5.00679e-06,5.9604645e-07,1.0,-2.4959445e-06,-1.9147992e-06,2.5108457e-06,1.0,-5.066395e-07,1.899898e-06,5.066395e-07,1.0,844,2.628,0,1,1.195,False,-0.26160578946077395,1.0058696858540968
2.6412673050072044,17:44:29.004638,17:43:13.202931,0,,NaN,NaN,NaN,NaN,NaN,NaN,NaN,NaN,NaN,NaN,NaN,NaN,,NaN,NaN,NaN,NaN,NaN,NaN,NaN,NaN,NaN,NaN,NaN,NaN,,0.09793825,1.2937851,0.425077,0.9825973,0.007600996,-0.18559296,-0.10497204,-0.8015878,-0.5885897,-0.15324292,0.59782875,-0.78684014,,NaN,NaN,NaN,NaN,NaN,NaN,NaN,NaN,NaN,NaN,NaN,NaN,,NaN,NaN,NaN,NaN,NaN,NaN,NaN,NaN,NaN,NaN,NaN,NaN,,NaN,NaN,NaN,NaN,NaN,NaN,NaN,,NaN,NaN,NaN,NaN,NaN,NaN,NaN,,-0.11697196646865997,-0.12781700610823973,0.09957687064,-0.11840502245808503,,4.5374036e-06,5.00679e-06,5.9604645e-07,1.0,-2.4959445e-06,-1.9147992e-06,2.5108457e-06,1.0,-5.066395e-07,1.899898e-06,5.066395e-07,1.0,858,2.673,0,1,1.195,False,-0.26196325577190027,1.0060145264564349
2.6745215768460184,17:44:29.053394,17:43:13.202931,0,,NaN,NaN,NaN,NaN,NaN,NaN,NaN,NaN,NaN,NaN,NaN,NaN,,NaN,NaN,NaN,NaN,NaN,NaN,NaN,NaN,NaN,NaN,NaN,NaN,,0.09793825,1.2937851,0.425077,0.9825973,0.007600996,-0.18559296,-0.10497204,-0.8015878,-0.5885897,-0.15324292,0.59782875,-0.78684014,,NaN,NaN,NaN,NaN,NaN,NaN,NaN,NaN,NaN,NaN,NaN,NaN,,NaN,NaN,NaN,NaN,NaN,NaN,NaN,NaN,NaN,NaN,NaN,NaN,,NaN,NaN,NaN,NaN,NaN,NaN,NaN,,NaN,NaN,NaN,NaN,NaN,NaN,NaN,,-0.11697196646865997,-0.12781700610823973,0.09957687064,-0.11840502245808503,,4.5374036e-06,5.00679e-06,5.9604645e-07,1.0,-2.4959445e-06,-1.9147992e-06,2.5108457e-06,1.0,-5.066395e-07,1.899898e-06,5.066395e-07,1.0,867,2.702,0,1,1.195,False,-0.26190367805337944,1.0045178402322716
2.7232785129453987,17:44:29.077633,17:43:13.337620,0,,NaN,NaN,NaN,NaN,NaN,NaN,NaN,NaN,NaN,NaN,NaN,NaN,,NaN,NaN,NaN,NaN,NaN,NaN,NaN,NaN,NaN,NaN,NaN,NaN,,0.09793825,1.2937851,0.425077,0.9825973,0.007600996,-0.18559296,-0.10497204,-0.8015878,-0.5885897,-0.15324292,0.59782875,-0.78684014,,NaN,NaN,NaN,NaN,NaN,NaN,NaN,NaN,NaN,NaN,NaN,NaN,,NaN,NaN,NaN,NaN,NaN,NaN,NaN,NaN,NaN,NaN,NaN,NaN,,NaN,NaN,NaN,NaN,NaN,NaN,NaN,,NaN,NaN,NaN,NaN,NaN,NaN,NaN,,-0.11697196646865997,-0.12781700610823973,0.09957687064,-0.11840502245808503,,4.5374036e-06,5.00679e-06,5.9604645e-07,1.0,-2.4959445e-06,-1.9147992e-06,2.5108457e-06,1.0,-5.066395e-07,1.899898e-06,5.066395e-07,1.0,890,2.775,0,1,1.195,False,-0.2618441003348577,1.0040350382244774
2.7475200758781284,17:44:29.150122,17:43:13.337620,0,,NaN,NaN,NaN,NaN,NaN,NaN,NaN,NaN,NaN,NaN,NaN,NaN,,NaN,NaN,NaN,NaN,NaN,NaN,NaN,NaN,NaN,NaN,NaN,NaN,,0.09793825,1.2937851,0.425077,0.9825973,0.007600996,-0.18559296,-0.10497204,-0.8015878,-0.5885897,-0.15324292,0.59782875,-0.78684014,,NaN,NaN,NaN,NaN,NaN,NaN,NaN,NaN,NaN,NaN,NaN,NaN,,NaN,NaN,NaN,NaN,NaN,NaN,NaN,NaN,NaN,NaN,NaN,NaN,,NaN,NaN,NaN,NaN,NaN,NaN,NaN,,NaN,NaN,NaN,NaN,NaN,NaN,NaN,,-0.11697196646865997,-0.12781700610823973,0.09957687064,-0.11840502245808503,,4.5374036e-06,5.00679e-06,5.9604645e-07,1.0,-2.4959445e-06,-1.9147992e-06,2.5108457e-06,1.0,-5.066395e-07,1.899898e-06,5.066395e-07,1.0,899,2.804,0,1,1.195,False,-0.26232072208302704,0.9997863805558849
2.819998414022848,17:44:29.184108,17:43:13.337620,0,,NaN,NaN,NaN,NaN,NaN,NaN,NaN,NaN,NaN,NaN,NaN,NaN,,NaN,NaN,NaN,NaN,NaN,NaN,NaN,NaN,NaN,NaN,NaN,NaN,,0.09793825,1.2937851,0.425077,0.9825973,0.007600996,-0.18559296,-0.10497204,-0.8015878,-0.5885897,-0.15324292,0.59782875,-0.78684014,,NaN,NaN,NaN,NaN,NaN,NaN,NaN,NaN,NaN,NaN,NaN,NaN,,NaN,NaN,NaN,NaN,NaN,NaN,NaN,NaN,NaN,NaN,NaN,NaN,,NaN,NaN,NaN,NaN,NaN,NaN,NaN,,NaN,NaN,NaN,NaN,NaN,NaN,NaN,,-0.11697196646865997,-0.12781700610823973,0.09957687064,-0.11840502245808503,,4.5374036e-06,5.00679e-06,5.9604645e-07,1.0,-2.4959445e-06,-1.9147992e-06,2.5108457e-06,1.0,-5.066395e-07,1.899898e-06,5.066395e-07,1.0,913,2.849,0,1,1.195,False,-0.2620824112089424,0.9994484191504285
2.8539719968102872,17:44:29.218794,17:43:13.479842,0,,NaN,NaN,NaN,NaN,NaN,NaN,NaN,NaN,NaN,NaN,NaN,NaN,,NaN,NaN,NaN,NaN,NaN,NaN,NaN,NaN,NaN,NaN,NaN,NaN,,0.09793825,1.2937851,0.425077,0.9825973,0.007600996,-0.18559296,-0.10497204,-0.8015878,-0.5885897,-0.15324292,0.59782875,-0.78684014,,NaN,NaN,NaN,NaN,NaN,NaN,NaN,NaN,NaN,NaN,NaN,NaN,,NaN,NaN,NaN,NaN,NaN,NaN,NaN,NaN,NaN,NaN,NaN,NaN,,NaN,NaN,NaN,NaN,NaN,NaN,NaN,,NaN,NaN,NaN,NaN,NaN,NaN,NaN,,-0.11697196646865997,-0.12781700610823973,0.09957687064,-0.11840502245808503,,4.5374036e-06,5.00679e-06,5.9604645e-07,1.0,-2.4959445e-06,-1.9147992e-06,2.5108457e-06,1.0,-5.066395e-07,1.899898e-06,5.066395e-07,1.0,922,2.878,0,1,1.195,False,-0.26160578946077395,0.9982414141309421
2.8886778219603,17:44:29.254219,17:43:13.479842,0,,NaN,NaN,NaN,NaN,NaN,NaN,NaN,NaN,NaN,NaN,NaN,NaN,,NaN,NaN,NaN,NaN,NaN,NaN,NaN,NaN,NaN,NaN,NaN,NaN,,0.09793825,1.2937851,0.425077,0.9825973,0.007600996,-0.18559296,-0.10497204,-0.8015878,-0.5885897,-0.15324292,0.59782875,-0.78684014,,NaN,NaN,NaN,NaN,NaN,NaN,NaN,NaN,NaN,NaN,NaN,NaN,,NaN,NaN,NaN,NaN,NaN,NaN,NaN,NaN,NaN,NaN,NaN,NaN,,NaN,NaN,NaN,NaN,NaN,NaN,NaN,,NaN,NaN,NaN,NaN,NaN,NaN,NaN,,-0.11697196646865997,-0.12781700610823973,0.09957687064,-0.11840502245808503,,4.5374036e-06,5.00679e-06,5.9604645e-07,1.0,-2.4959445e-06,-1.9147992e-06,2.5108457e-06,1.0,-5.066395e-07,1.899898e-06,5.066395e-07,1.0,936,2.923,0,1,1.195,False,-0.261427056305211,0.9987242161387369
2.9240985580254346,17:44:29.298453,17:43:13.479842,0,,NaN,NaN,NaN,NaN,NaN,NaN,NaN,NaN,NaN,NaN,NaN,NaN,,NaN,NaN,NaN,NaN,NaN,NaN,NaN,NaN,NaN,NaN,NaN,NaN,,0.09793825,1.2937851,0.425077,0.9825973,0.007600996,-0.18559296,-0.10497204,-0.8015878,-0.5885897,-0.15324292,0.59782875,-0.78684014,,NaN,NaN,NaN,NaN,NaN,NaN,NaN,NaN,NaN,NaN,NaN,NaN,,NaN,NaN,NaN,NaN,NaN,NaN,NaN,NaN,NaN,NaN,NaN,NaN,,NaN,NaN,NaN,NaN,NaN,NaN,NaN,,NaN,NaN,NaN,NaN,NaN,NaN,NaN,,-0.11697196646865997,-0.12781700610823973,0.09957687064,-0.11840502245808503,,4.5374036e-06,5.00679e-06,5.9604645e-07,1.0,-2.4959445e-06,-1.9147992e-06,2.5108457e-06,1.0,-5.066395e-07,1.899898e-06,5.066395e-07,1.0,945,2.951,0,1,1.195,False,-0.2607717014014801,0.9982414141309421
2.9683406548574567,17:44:29.328427,17:43:13.589918,0,,NaN,NaN,NaN,NaN,NaN,NaN,NaN,NaN,NaN,NaN,NaN,NaN,,NaN,NaN,NaN,NaN,NaN,NaN,NaN,NaN,NaN,NaN,NaN,NaN,,0.09793825,1.2937851,0.425077,0.9825973,0.007600996,-0.18559296,-0.10497204,-0.8015878,-0.5885897,-0.15324292,0.59782875,-0.78684014,,NaN,NaN,NaN,NaN,NaN,NaN,NaN,NaN,NaN,NaN,NaN,NaN,,NaN,NaN,NaN,NaN,NaN,NaN,NaN,NaN,NaN,NaN,NaN,NaN,,NaN,NaN,NaN,NaN,NaN,NaN,NaN,,NaN,NaN,NaN,NaN,NaN,NaN,NaN,,-0.11697196646865997,-0.12781700610823973,0.09957687064,-0.11840502245808503,,4.5374036e-06,5.00679e-06,5.9604645e-07,1.0,-2.4959445e-06,-1.9147992e-06,2.5108457e-06,1.0,-5.066395e-07,1.899898e-06,5.066395e-07,1.0,959,2.996,0,1,1.195,False,-0.26136747858668974,0.9982414141309421
2.998314536875114,17:44:29.366275,17:43:13.589918,0,,NaN,NaN,NaN,NaN,NaN,NaN,NaN,NaN,NaN,NaN,NaN,NaN,,NaN,NaN,NaN,NaN,NaN,NaN,NaN,NaN,NaN,NaN,NaN,NaN,,0.09793825,1.2937851,0.425077,0.9825973,0.007600996,-0.18559296,-0.10497204,-0.8015878,-0.5885897,-0.15324292,0.59782875,-0.78684014,,NaN,NaN,NaN,NaN,NaN,NaN,NaN,NaN,NaN,NaN,NaN,NaN,,NaN,NaN,NaN,NaN,NaN,NaN,NaN,NaN,NaN,NaN,NaN,NaN,,NaN,NaN,NaN,NaN,NaN,NaN,NaN,,NaN,NaN,NaN,NaN,NaN,NaN,NaN,,-0.11697196646865997,-0.12781700610823973,0.09957687064,-0.11840502245808503,,4.5374036e-06,5.00679e-06,5.9604645e-07,1.0,-2.4959445e-06,-1.9147992e-06,2.5108457e-06,1.0,-5.066395e-07,1.899898e-06,5.066395e-07,1.0,968,3.025,0,1,1.195,False,-0.26148663402373185,0.998531095335619
3.0361338548827916,17:44:29.405651,17:43:13.589918,0,,NaN,NaN,NaN,NaN,NaN,NaN,NaN,NaN,NaN,NaN,NaN,NaN,,NaN,NaN,NaN,NaN,NaN,NaN,NaN,NaN,NaN,NaN,NaN,NaN,,0.09793825,1.2937851,0.425077,0.9825973,0.007600996,-0.18559296,-0.10497204,-0.8015878,-0.5885897,-0.15324292,0.59782875,-0.78684014,,NaN,NaN,NaN,NaN,NaN,NaN,NaN,NaN,NaN,NaN,NaN,NaN,,NaN,NaN,NaN,NaN,NaN,NaN,NaN,NaN,NaN,NaN,NaN,NaN,,NaN,NaN,NaN,NaN,NaN,NaN,NaN,,NaN,NaN,NaN,NaN,NaN,NaN,NaN,,-0.11697196646865997,-0.12781700610823973,0.09957687064,-0.11840502245808503,,4.5374036e-06,5.00679e-06,5.9604645e-07,1.0,-2.4959445e-06,-1.9147992e-06,2.5108457e-06,1.0,-5.066395e-07,1.899898e-06,5.066395e-07,1.0,982,3.07,0,1,1.195,False,-0.26053339052739544,0.9990138973434135
3.075516620883718,17:44:29.446609,17:43:13.589918,0,,NaN,NaN,NaN,NaN,NaN,NaN,NaN,NaN,NaN,NaN,NaN,NaN,,NaN,NaN,NaN,NaN,NaN,NaN,NaN,NaN,NaN,NaN,NaN,NaN,,0.09793825,1.2937851,0.425077,0.9825973,0.007600996,-0.18559296,-0.10497204,-0.8015878,-0.5885897,-0.15324292,0.59782875,-0.78684014,,NaN,NaN,NaN,NaN,NaN,NaN,NaN,NaN,NaN,NaN,NaN,NaN,,NaN,NaN,NaN,NaN,NaN,NaN,NaN,NaN,NaN,NaN,NaN,NaN,,NaN,NaN,NaN,NaN,NaN,NaN,NaN,,NaN,NaN,NaN,NaN,NaN,NaN,NaN,,-0.11697196646865997,-0.12781700610823973,0.09957687064,-0.11840502245808503,,4.5374036e-06,5.00679e-06,5.9604645e-07,1.0,-2.4959445e-06,-1.9147992e-06,2.5108457e-06,1.0,-5.066395e-07,1.899898e-06,5.066395e-07,1.0,991,3.099,0,1,1.195,False,-0.26095043455704303,0.9988207765402957
3.1164942109026015,17:44:29.476131,17:43:13.722895,0,,NaN,NaN,NaN,NaN,NaN,NaN,NaN,NaN,NaN,NaN,NaN,NaN,,NaN,NaN,NaN,NaN,NaN,NaN,NaN,NaN,NaN,NaN,NaN,NaN,,0.09793825,1.2937851,0.425077,0.9825973,0.007600996,-0.18559296,-0.10497204,-0.8015878,-0.5885897,-0.15324292,0.59782875,-0.78684014,,NaN,NaN,NaN,NaN,NaN,NaN,NaN,NaN,NaN,NaN,NaN,NaN,,NaN,NaN,NaN,NaN,NaN,NaN,NaN,NaN,NaN,NaN,NaN,NaN,,NaN,NaN,NaN,NaN,NaN,NaN,NaN,,NaN,NaN,NaN,NaN,NaN,NaN,NaN,,-0.11697196646865997,-0.12781700610823973,0.09957687064,-0.11840502245808503,,4.5374036e-06,5.00679e-06,5.9604645e-07,1.0,-2.4959445e-06,-1.9147992e-06,2.5108457e-06,1.0,-5.066395e-07,1.899898e-06,5.066395e-07,1.0,1005,3.144,0,1,1.195,False,-0.2612483231496481,0.99843453493406
3.1460160529240966,17:44:29.515037,17:43:13.722895,0,,NaN,NaN,NaN,NaN,NaN,NaN,NaN,NaN,NaN,NaN,NaN,NaN,,NaN,NaN,NaN,NaN,NaN,NaN,NaN,NaN,NaN,NaN,NaN,NaN,,0.09793825,1.2937851,0.425077,0.9825973,0.007600996,-0.18559296,-0.10497204,-0.8015878,-0.5885897,-0.15324292,0.59782875,-0.78684014,,NaN,NaN,NaN,NaN,NaN,NaN,NaN,NaN,NaN,NaN,NaN,NaN,,NaN,NaN,NaN,NaN,NaN,NaN,NaN,NaN,NaN,NaN,NaN,NaN,,NaN,NaN,NaN,NaN,NaN,NaN,NaN,,NaN,NaN,NaN,NaN,NaN,NaN,NaN,,-0.11697196646865997,-0.12781700610823973,0.09957687064,-0.11840502245808503,,4.5374036e-06,5.00679e-06,5.9604645e-07,1.0,-2.4959445e-06,-1.9147992e-06,2.5108457e-06,1.0,-5.066395e-07,1.899898e-06,5.066395e-07,1.0,1024,3.205,0,1,1.195,False,-0.26202283349042155,0.9987724963395164
3.184865355025977,17:44:29.577126,17:43:13.722895,0,,NaN,NaN,NaN,NaN,NaN,NaN,NaN,NaN,NaN,NaN,NaN,NaN,,NaN,NaN,NaN,NaN,NaN,NaN,NaN,NaN,NaN,NaN,NaN,NaN,,0.09793825,1.2937851,0.425077,0.9825973,0.007600996,-0.18559296,-0.10497204,-0.8015878,-0.5885897,-0.15324292,0.59782875,-0.78684014,,NaN,NaN,NaN,NaN,NaN,NaN,NaN,NaN,NaN,NaN,NaN,NaN,,NaN,NaN,NaN,NaN,NaN,NaN,NaN,NaN,NaN,NaN,NaN,NaN,,NaN,NaN,NaN,NaN,NaN,NaN,NaN,,NaN,NaN,NaN,NaN,NaN,NaN,NaN,,-0.11697196646865997,-0.12781700610823973,0.09957687064,-0.11840502245808503,,4.5374036e-06,5.00679e-06,5.9604645e-07,1.0,-2.4959445e-06,-1.9147992e-06,2.5108457e-06,1.0,-5.066395e-07,1.899898e-06,5.066395e-07,1.0,1043,3.267,0,1,1.195,False,-0.2626186106756321,0.9988690567410752
3.2470158180221915,17:44:29.635102,17:43:13.871139,0,,NaN,NaN,NaN,NaN,NaN,NaN,NaN,NaN,NaN,NaN,NaN,NaN,,NaN,NaN,NaN,NaN,NaN,NaN,NaN,NaN,NaN,NaN,NaN,NaN,,0.09793825,1.2937851,0.425077,0.9825973,0.007600996,-0.18559296,-0.10497204,-0.8015878,-0.5885897,-0.15324292,0.59782875,-0.78684014,,NaN,NaN,NaN,NaN,NaN,NaN,NaN,NaN,NaN,NaN,NaN,NaN,,NaN,NaN,NaN,NaN,NaN,NaN,NaN,NaN,NaN,NaN,NaN,NaN,,NaN,NaN,NaN,NaN,NaN,NaN,NaN,,NaN,NaN,NaN,NaN,NaN,NaN,NaN,,-0.11697196646865997,-0.12781700610823973,0.09957687064,-0.11840502245808503,,4.5374036e-06,5.00679e-06,5.9604645e-07,1.0,-2.4959445e-06,-1.9147992e-06,2.5108457e-06,1.0,-5.066395e-07,1.899898e-06,5.066395e-07,1.0,1076,3.373,0,1,1.195,False,-0.262797343831195,0.9985793755363983
3.3049669379834086,17:44:29.746507,17:43:13.871139,0,,NaN,NaN,NaN,NaN,NaN,NaN,NaN,NaN,NaN,NaN,NaN,NaN,,NaN,NaN,NaN,NaN,NaN,NaN,NaN,NaN,NaN,NaN,NaN,NaN,,0.09795022,1.293794,0.42507297,0.9825949,0.007582832,-0.1856063,-0.104994304,-0.80158794,-0.58858556,-0.15324292,0.59782875,-0.78684014,,NaN,NaN,NaN,NaN,NaN,NaN,NaN,NaN,NaN,NaN,NaN,NaN,,NaN,NaN,NaN,NaN,NaN,NaN,NaN,NaN,NaN,NaN,NaN,NaN,,NaN,NaN,NaN,NaN,NaN,NaN,NaN,,NaN,NaN,NaN,NaN,NaN,NaN,NaN,,-0.11697196646865997,-0.12781700610823973,0.09957687064,-0.11840502245808503,,1.5981495e-05,-4.4107437e-06,-3.695488e-06,1.0,-2.0340085e-05,-1.5452504e-05,2.0340085e-05,0.9999999,-3.9339066e-06,1.5452504e-05,3.963709e-06,1.0,1095,3.435,0,1,1.195,False,-0.26160578946077395,0.998531095335619
3.4163969869259745,17:44:29.805745,17:43:14.039223,0,,NaN,NaN,NaN,NaN,NaN,NaN,NaN,NaN,NaN,NaN,NaN,NaN,,NaN,NaN,NaN,NaN,NaN,NaN,NaN,NaN,NaN,NaN,NaN,NaN,,0.09795022,1.293794,0.42507297,0.9825949,0.007582832,-0.1856063,-0.104994304,-0.80158794,-0.58858556,-0.15324292,0.59782875,-0.78684014,,NaN,NaN,NaN,NaN,NaN,NaN,NaN,NaN,NaN,NaN,NaN,NaN,,NaN,NaN,NaN,NaN,NaN,NaN,NaN,NaN,NaN,NaN,NaN,NaN,,NaN,NaN,NaN,NaN,NaN,NaN,NaN,,NaN,NaN,NaN,NaN,NaN,NaN,NaN,,-0.11697196646865997,-0.12781700610823973,0.09957687064,-0.11840502245808503,,1.5981495e-05,-4.4107437e-06,-3.695488e-06,1.0,-2.0340085e-05,-1.5452504e-05,2.0340085e-05,0.9999999,-3.9339066e-06,1.5452504e-05,3.963709e-06,1.0,1114,3.496,0,1,1.195,False,-0.260652545964438,0.998096573528604
3.475630203029141,17:44:29.874144,17:43:14.039223,0,,NaN,NaN,NaN,NaN,NaN,NaN,NaN,NaN,NaN,NaN,NaN,NaN,,NaN,NaN,NaN,NaN,NaN,NaN,NaN,NaN,NaN,NaN,NaN,NaN,,0.09795022,1.293794,0.42507297,0.9825949,0.007582832,-0.1856063,-0.104994304,-0.80158794,-0.58858556,-0.15324292,0.59782875,-0.78684014,,NaN,NaN,NaN,NaN,NaN,NaN,NaN,NaN,NaN,NaN,NaN,NaN,,NaN,NaN,NaN,NaN,NaN,NaN,NaN,NaN,NaN,NaN,NaN,NaN,,NaN,NaN,NaN,NaN,NaN,NaN,NaN,,NaN,NaN,NaN,NaN,NaN,NaN,NaN,,-0.11697196646865997,-0.12781700610823973,0.09957687064,-0.11840502245808503,,1.5981495e-05,-4.4107437e-06,-3.695488e-06,1.0,-2.0340085e-05,-1.5452504e-05,2.0340085e-05,0.9999999,-3.9339066e-06,1.5452504e-05,3.963709e-06,1.0,1133,3.558,0,1,1.195,False,-0.26148663402373185,0.9981931339301626
3.544031678000465,17:44:29.935661,17:43:14.039223,0,,NaN,NaN,NaN,NaN,NaN,NaN,NaN,NaN,NaN,NaN,NaN,NaN,,NaN,NaN,NaN,NaN,NaN,NaN,NaN,NaN,NaN,NaN,NaN,NaN,,0.09795022,1.293794,0.42507297,0.9825949,0.007582832,-0.1856063,-0.104994304,-0.80158794,-0.58858556,-0.15324292,0.59782875,-0.78684014,,NaN,NaN,NaN,NaN,NaN,NaN,NaN,NaN,NaN,NaN,NaN,NaN,,NaN,NaN,NaN,NaN,NaN,NaN,NaN,NaN,NaN,NaN,NaN,NaN,,NaN,NaN,NaN,NaN,NaN,NaN,NaN,,NaN,NaN,NaN,NaN,NaN,NaN,NaN,,-0.11697196646865997,-0.12781700610823973,0.09957687064,-0.11840502245808503,,1.5981495e-05,-4.4107437e-06,-3.695488e-06,1.0,-2.0340085e-05,-1.5452504e-05,2.0340085e-05,0.9999999,-3.9339066e-06,1.5452504e-05,3.963709e-06,1.0,1166,3.664,0,1,1.195,False,-0.26243987752006825,0.9982414141309421
3.6055355158168823,17:44:30.029847,17:43:14.246488,0,,NaN,NaN,NaN,NaN,NaN,NaN,NaN,NaN,NaN,NaN,NaN,NaN,,NaN,NaN,NaN,NaN,NaN,NaN,NaN,NaN,NaN,NaN,NaN,NaN,,0.09795022,1.293794,0.42507297,0.9825949,0.007582832,-0.1856063,-0.104994304,-0.80158794,-0.58858556,-0.15324292,0.59782875,-0.78684014,,NaN,NaN,NaN,NaN,NaN,NaN,NaN,NaN,NaN,NaN,NaN,NaN,,NaN,NaN,NaN,NaN,NaN,NaN,NaN,NaN,NaN,NaN,NaN,NaN,,NaN,NaN,NaN,NaN,NaN,NaN,NaN,,NaN,NaN,NaN,NaN,NaN,NaN,NaN,,-0.11697196646865997,-0.12781700610823973,0.09957687064,-0.11840502245808503,,1.5981495e-05,-4.4107437e-06,-3.695488e-06,1.0,-2.0340085e-05,-1.5452504e-05,2.0340085e-05,0.9999999,-3.9339066e-06,1.5452504e-05,3.963709e-06,1.0,1185,3.726,0,1,1.195,False,-0.2618441003348577,0.9975654913200298
3.6997363020200282,17:44:30.101895,17:43:14.246488,0,,NaN,NaN,NaN,NaN,NaN,NaN,NaN,NaN,NaN,NaN,NaN,NaN,,NaN,NaN,NaN,NaN,NaN,NaN,NaN,NaN,NaN,NaN,NaN,NaN,,0.09795022,1.293794,0.42507297,0.9825949,0.007582832,-0.1856063,-0.104994304,-0.80158794,-0.58858556,-0.15324292,0.59782875,-0.78684014,,NaN,NaN,NaN,NaN,NaN,NaN,NaN,NaN,NaN,NaN,NaN,NaN,,NaN,NaN,NaN,NaN,NaN,NaN,NaN,NaN,NaN,NaN,NaN,NaN,,NaN,NaN,NaN,NaN,NaN,NaN,NaN,,NaN,NaN,NaN,NaN,NaN,NaN,NaN,,-0.11697196646865997,-0.12781700610823973,0.09957687064,-0.11840502245808503,,1.5981495e-05,-4.4107437e-06,-3.695488e-06,1.0,-2.0340085e-05,-1.5452504e-05,2.0340085e-05,0.9999999,-3.9339066e-06,1.5452504e-05,3.963709e-06,1.0,1204,3.787,0,1,1.195,False,-0.2620824112089424,0.99843453493406
3.771723670884967,17:44:30.157815,17:43:14.393674,0,,NaN,NaN,NaN,NaN,NaN,NaN,NaN,NaN,NaN,NaN,NaN,NaN,,NaN,NaN,NaN,NaN,NaN,NaN,NaN,NaN,NaN,NaN,NaN,NaN,,0.09795022,1.293794,0.42507297,0.9825949,0.007582832,-0.1856063,-0.104994304,-0.80158794,-0.58858556,-0.15324292,0.59782875,-0.78684014,,NaN,NaN,NaN,NaN,NaN,NaN,NaN,NaN,NaN,NaN,NaN,NaN,,NaN,NaN,NaN,NaN,NaN,NaN,NaN,NaN,NaN,NaN,NaN,NaN,,NaN,NaN,NaN,NaN,NaN,NaN,NaN,,NaN,NaN,NaN,NaN,NaN,NaN,NaN,,-0.11697196646865997,-0.12781700610823973,0.09957687064,-0.11840502245808503,,1.5981495e-05,-4.4107437e-06,-3.695488e-06,1.0,-2.0340085e-05,-1.5452504e-05,2.0340085e-05,0.9999999,-3.9339066e-06,1.5452504e-05,3.963709e-06,1.0,1237,3.893,0,1,1.195,False,-0.2621419889274632,0.9981448537293831
3.8276808590162545,17:44:30.264387,17:43:14.526385,0,,NaN,NaN,NaN,NaN,NaN,NaN,NaN,NaN,NaN,NaN,NaN,NaN,,NaN,NaN,NaN,NaN,NaN,NaN,NaN,NaN,NaN,NaN,NaN,NaN,,0.09795022,1.293794,0.42507297,0.9825949,0.007582832,-0.1856063,-0.104994304,-0.80158794,-0.58858556,-0.15324292,0.59782875,-0.78684014,,NaN,NaN,NaN,NaN,NaN,NaN,NaN,NaN,NaN,NaN,NaN,NaN,,NaN,NaN,NaN,NaN,NaN,NaN,NaN,NaN,NaN,NaN,NaN,NaN,,NaN,NaN,NaN,NaN,NaN,NaN,NaN,,NaN,NaN,NaN,NaN,NaN,NaN,NaN,,-0.11697196646865997,-0.12781700610823973,0.09957687064,-0.11840502245808503,,1.5981495e-05,-4.4107437e-06,-3.695488e-06,1.0,-2.0340085e-05,-1.5452504e-05,2.0340085e-05,0.9999999,-3.9339066e-06,1.5452504e-05,3.963709e-06,1.0,1256,3.955,0,1,1.195,False,-0.2621419889274632,0.9989173369418547
3.934161209035665,17:44:30.330887,17:43:14.526385,0,,NaN,NaN,NaN,NaN,NaN,NaN,NaN,NaN,NaN,NaN,NaN,NaN,,NaN,NaN,NaN,NaN,NaN,NaN,NaN,NaN,NaN,NaN,NaN,NaN,,0.09795022,1.293794,0.42507297,0.9825949,0.007582832,-0.1856063,-0.104994304,-0.80158794,-0.58858556,-0.15324292,0.59782875,-0.78684014,,NaN,NaN,NaN,NaN,NaN,NaN,NaN,NaN,NaN,NaN,NaN,NaN,,NaN,NaN,NaN,NaN,NaN,NaN,NaN,NaN,NaN,NaN,NaN,NaN,,NaN,NaN,NaN,NaN,NaN,NaN,NaN,,NaN,NaN,NaN,NaN,NaN,NaN,NaN,,-0.11697196646865997,-0.12781700610823973,0.09957687064,-0.11840502245808503,,1.5981495e-05,-4.4107437e-06,-3.695488e-06,1.0,-2.0340085e-05,-1.5452504e-05,2.0340085e-05,0.9999999,-3.9339066e-06,1.5452504e-05,3.963709e-06,1.0,1275,4.016,0,1,1.195,False,-0.26243987752006825,0.9990138973434135
4.000746125821024,17:44:30.395831,17:43:14.655783,0,,NaN,NaN,NaN,NaN,NaN,NaN,NaN,NaN,NaN,NaN,NaN,NaN,,NaN,NaN,NaN,NaN,NaN,NaN,NaN,NaN,NaN,NaN,NaN,NaN,,0.09795022,1.293794,0.42507297,0.9825949,0.007582832,-0.1856063,-0.104994304,-0.80158794,-0.58858556,-0.15324292,0.59782875,-0.78684014,,NaN,NaN,NaN,NaN,NaN,NaN,NaN,NaN,NaN,NaN,NaN,NaN,,NaN,NaN,NaN,NaN,NaN,NaN,NaN,NaN,NaN,NaN,NaN,NaN,,NaN,NaN,NaN,NaN,NaN,NaN,NaN,,NaN,NaN,NaN,NaN,NaN,NaN,NaN,,-0.11697196646865997,-0.12781700610823973,0.09957687064,-0.11840502245808503,,1.5981495e-05,-4.4107437e-06,-3.695488e-06,1.0,-2.0340085e-05,-1.5452504e-05,2.0340085e-05,0.9999999,-3.9339066e-06,1.5452504e-05,3.963709e-06,1.0,1294,4.078,0,1,1.195,False,-0.26160578946077395,0.9992552983473109
4.065715017030016,17:44:30.450857,17:43:14.655783,0,,NaN,NaN,NaN,NaN,NaN,NaN,NaN,NaN,NaN,NaN,NaN,NaN,,NaN,NaN,NaN,NaN,NaN,NaN,NaN,NaN,NaN,NaN,NaN,NaN,,0.09795022,1.293794,0.42507297,0.9825949,0.007582832,-0.1856063,-0.104994304,-0.80158794,-0.58858556,-0.15324292,0.59782875,-0.78684014,,NaN,NaN,NaN,NaN,NaN,NaN,NaN,NaN,NaN,NaN,NaN,NaN,,NaN,NaN,NaN,NaN,NaN,NaN,NaN,NaN,NaN,NaN,NaN,NaN,,NaN,NaN,NaN,NaN,NaN,NaN,NaN,,NaN,NaN,NaN,NaN,NaN,NaN,NaN,,-0.11697196646865997,-0.12781700610823973,0.09957687064,-0.11840502245808503,,1.5981495e-05,-4.4107437e-06,-3.695488e-06,1.0,-2.0340085e-05,-1.5452504e-05,2.0340085e-05,0.9999999,-3.9339066e-06,1.5452504e-05,3.963709e-06,1.0,1327,4.184,0,1,1.195,False,-0.26101001227556386,0.9982414141309421
4.1207249669823796,17:44:30.549856,17:43:14.772845,0,,NaN,NaN,NaN,NaN,NaN,NaN,NaN,NaN,NaN,NaN,NaN,NaN,,NaN,NaN,NaN,NaN,NaN,NaN,NaN,NaN,NaN,NaN,NaN,NaN,,0.09795022,1.293794,0.42507297,0.9825949,0.007582832,-0.1856063,-0.104994304,-0.80158794,-0.58858556,-0.15324292,0.59782875,-0.78684014,,NaN,NaN,NaN,NaN,NaN,NaN,NaN,NaN,NaN,NaN,NaN,NaN,,NaN,NaN,NaN,NaN,NaN,NaN,NaN,NaN,NaN,NaN,NaN,NaN,,NaN,NaN,NaN,NaN,NaN,NaN,NaN,,NaN,NaN,NaN,NaN,NaN,NaN,NaN,,-0.11697196646865997,-0.12781700610823973,0.09957687064,-0.11840502245808503,,1.5981495e-05,-4.4107437e-06,-3.695488e-06,1.0,-2.0340085e-05,-1.5452504e-05,2.0340085e-05,0.9999999,-3.9339066e-06,1.5452504e-05,3.963709e-06,1.0,1346,4.246,0,1,1.195,False,-0.26095043455704303,0.998531095335619
4.2196875480003655,17:44:30.614177,17:43:14.772845,0,,NaN,NaN,NaN,NaN,NaN,NaN,NaN,NaN,NaN,NaN,NaN,NaN,,NaN,NaN,NaN,NaN,NaN,NaN,NaN,NaN,NaN,NaN,NaN,NaN,,0.09795022,1.293794,0.42507297,0.9825949,0.007582832,-0.1856063,-0.104994304,-0.80158794,-0.58858556,-0.15324292,0.59782875,-0.78684014,,NaN,NaN,NaN,NaN,NaN,NaN,NaN,NaN,NaN,NaN,NaN,NaN,,NaN,NaN,NaN,NaN,NaN,NaN,NaN,NaN,NaN,NaN,NaN,NaN,,NaN,NaN,NaN,NaN,NaN,NaN,NaN,,NaN,NaN,NaN,NaN,NaN,NaN,NaN,,-0.11697196646865997,-0.12781700610823973,0.09957687064,-0.11840502245808503,,1.5981495e-05,-4.4107437e-06,-3.695488e-06,1.0,-2.0340085e-05,-1.5452504e-05,2.0340085e-05,0.9999999,-3.9339066e-06,1.5452504e-05,3.963709e-06,1.0,1365,4.307,0,1,1.195,False,-0.2607717014014801,0.9989173369418547
4.284062606981024,17:44:30.682296,17:43:14.892788,0,,NaN,NaN,NaN,NaN,NaN,NaN,NaN,NaN,NaN,NaN,NaN,NaN,,NaN,NaN,NaN,NaN,NaN,NaN,NaN,NaN,NaN,NaN,NaN,NaN,,0.09795022,1.293794,0.42507297,0.9825949,0.007582832,-0.1856063,-0.104994304,-0.80158794,-0.58858556,-0.15324292,0.59782875,-0.78684014,,NaN,NaN,NaN,NaN,NaN,NaN,NaN,NaN,NaN,NaN,NaN,NaN,,NaN,NaN,NaN,NaN,NaN,NaN,NaN,NaN,NaN,NaN,NaN,NaN,,NaN,NaN,NaN,NaN,NaN,NaN,NaN,,NaN,NaN,NaN,NaN,NaN,NaN,NaN,,-0.11697196646865997,-0.12781700610823973,0.09957687064,-0.11840502245808503,,1.5981495e-05,-4.4107437e-06,-3.695488e-06,1.0,-2.0340085e-05,-1.5452504e-05,2.0340085e-05,0.9999999,-3.9339066e-06,1.5452504e-05,3.963709e-06,1.0,1398,4.414,0,1,1.195,False,-0.26101001227556386,0.9992070181465313
4.35214915801771,17:44:30.787061,17:43:15.031750,0,,NaN,NaN,NaN,NaN,NaN,NaN,NaN,NaN,NaN,NaN,NaN,NaN,,NaN,NaN,NaN,NaN,NaN,NaN,NaN,NaN,NaN,NaN,NaN,NaN,,0.09795022,1.293794,0.42507297,0.9825949,0.007582832,-0.1856063,-0.104994304,-0.80158794,-0.58858556,-0.15324292,0.59782875,-0.78684014,,NaN,NaN,NaN,NaN,NaN,NaN,NaN,NaN,NaN,NaN,NaN,NaN,,NaN,NaN,NaN,NaN,NaN,NaN,NaN,NaN,NaN,NaN,NaN,NaN,,NaN,NaN,NaN,NaN,NaN,NaN,NaN,,NaN,NaN,NaN,NaN,NaN,NaN,NaN,,-0.11697196646865997,-0.12781700610823973,0.09957687064,-0.11840502245808503,,1.5981495e-05,-4.4107437e-06,-3.695488e-06,1.0,-2.0340085e-05,-1.5452504e-05,2.0340085e-05,0.9999999,-3.9339066e-06,1.5452504e-05,3.963709e-06,1.0,1417,4.475,0,1,1.195,False,-0.2612483231496481,0.9994001389496494
4.456949878949672,17:44:30.846728,17:43:15.031750,0,,NaN,NaN,NaN,NaN,NaN,NaN,NaN,NaN,NaN,NaN,NaN,NaN,,NaN,NaN,NaN,NaN,NaN,NaN,NaN,NaN,NaN,NaN,NaN,NaN,,0.097929895,1.293792,0.42507076,0.982599,0.0076138834,-0.18558349,-0.10495624,-0.8015877,-0.5885927,-0.15324292,0.59782875,-0.78684014,,NaN,NaN,NaN,NaN,NaN,NaN,NaN,NaN,NaN,NaN,NaN,NaN,,NaN,NaN,NaN,NaN,NaN,NaN,NaN,NaN,NaN,NaN,NaN,NaN,,NaN,NaN,NaN,NaN,NaN,NaN,NaN,,NaN,NaN,NaN,NaN,NaN,NaN,NaN,,-0.11697196646865997,-0.12781700610823973,0.09957687064,-0.11840502245808503,,-3.4421682e-06,-4.2915344e-06,2.9802322e-06,1.0,1.0147691e-05,7.711351e-06,-1.014024e-05,1.0,1.9669533e-06,-7.711351e-06,-1.9669533e-06,1.0,1436,4.537,0,1,1.195,False,-0.26136747858668974,0.9986759359379573
4.516617618035525,17:44:30.910768,17:43:15.031750,0,,NaN,NaN,NaN,NaN,NaN,NaN,NaN,NaN,NaN,NaN,NaN,NaN,,NaN,NaN,NaN,NaN,NaN,NaN,NaN,NaN,NaN,NaN,NaN,NaN,,0.097929895,1.293792,0.42507076,0.982599,0.0076138834,-0.18558349,-0.10495624,-0.8015877,-0.5885927,-0.15324292,0.59782875,-0.78684014,,NaN,NaN,NaN,NaN,NaN,NaN,NaN,NaN,NaN,NaN,NaN,NaN,,NaN,NaN,NaN,NaN,NaN,NaN,NaN,NaN,NaN,NaN,NaN,NaN,,NaN,NaN,NaN,NaN,NaN,NaN,NaN,,NaN,NaN,NaN,NaN,NaN,NaN,NaN,,-0.11697196646865997,-0.12781700610823973,0.09957687064,-0.11840502245808503,,-3.4421682e-06,-4.2915344e-06,2.9802322e-06,1.0,1.0147691e-05,7.711351e-06,-1.014024e-05,1.0,1.9669533e-06,-7.711351e-06,-1.9669533e-06,1.0,1469,4.643,0,1,1.195,False,-0.26255903295711036,0.9989173369418547
4.580657149897888,17:44:31.013183,17:43:15.243835,0,,NaN,NaN,NaN,NaN,NaN,NaN,NaN,NaN,NaN,NaN,NaN,NaN,,NaN,NaN,NaN,NaN,NaN,NaN,NaN,NaN,NaN,NaN,NaN,NaN,,0.097929895,1.293792,0.42507076,0.982599,0.0076138834,-0.18558349,-0.10495624,-0.8015877,-0.5885927,-0.15324292,0.59782875,-0.78684014,,NaN,NaN,NaN,NaN,NaN,NaN,NaN,NaN,NaN,NaN,NaN,NaN,,NaN,NaN,NaN,NaN,NaN,NaN,NaN,NaN,NaN,NaN,NaN,NaN,,NaN,NaN,NaN,NaN,NaN,NaN,NaN,,NaN,NaN,NaN,NaN,NaN,NaN,NaN,,-0.11697196646865997,-0.12781700610823973,0.09957687064,-0.11840502245808503,,-3.4421682e-06,-4.2915344e-06,2.9802322e-06,1.0,1.0147691e-05,7.711351e-06,-1.014024e-05,1.0,1.9669533e-06,-7.711351e-06,-1.9669533e-06,1.0,1488,4.704,1,2,1.224,False,-0.260652545964438,0.9989173369418547
4.68307005497627,17:44:31.076907,17:43:15.243835,0,,NaN,NaN,NaN,NaN,NaN,NaN,NaN,NaN,NaN,NaN,NaN,NaN,,NaN,NaN,NaN,NaN,NaN,NaN,NaN,NaN,NaN,NaN,NaN,NaN,,0.097929895,1.293792,0.42507076,0.982599,0.0076138834,-0.18558349,-0.10495624,-0.8015877,-0.5885927,-0.15324292,0.59782875,-0.78684014,,NaN,NaN,NaN,NaN,NaN,NaN,NaN,NaN,NaN,NaN,NaN,NaN,,NaN,NaN,NaN,NaN,NaN,NaN,NaN,NaN,NaN,NaN,NaN,NaN,,NaN,NaN,NaN,NaN,NaN,NaN,NaN,,NaN,NaN,NaN,NaN,NaN,NaN,NaN,,-0.11697196646865997,-0.12781700610823973,0.09957687064,-0.11840502245808503,,-3.4421682e-06,-4.2915344e-06,2.9802322e-06,1.0,1.0147691e-05,7.711351e-06,-1.014024e-05,1.0,1.9669533e-06,-7.711351e-06,-1.9669533e-06,1.0,1507,4.766,1,2,1.286,False,-0.2612483231496481,0.9994966993512082
4.7467923138756305,17:44:31.135738,17:43:15.243835,0,,NaN,NaN,NaN,NaN,NaN,NaN,NaN,NaN,NaN,NaN,NaN,NaN,,NaN,NaN,NaN,NaN,NaN,NaN,NaN,NaN,NaN,NaN,NaN,NaN,,0.097929895,1.293792,0.42507076,0.982599,0.0076138834,-0.18558349,-0.10495624,-0.8015877,-0.5885927,-0.15324292,0.59782875,-0.78684014,,NaN,NaN,NaN,NaN,NaN,NaN,NaN,NaN,NaN,NaN,NaN,NaN,,NaN,NaN,NaN,NaN,NaN,NaN,NaN,NaN,NaN,NaN,NaN,NaN,,NaN,NaN,NaN,NaN,NaN,NaN,NaN,,NaN,NaN,NaN,NaN,NaN,NaN,NaN,,-0.11697196646865997,-0.12781700610823973,0.09957687064,-0.11840502245808503,,-3.4421682e-06,-4.2915344e-06,2.9802322e-06,1.0,1.0147691e-05,7.711351e-06,-1.014024e-05,1.0,1.9669533e-06,-7.711351e-06,-1.9669533e-06,1.0,1526,4.827,0,2,1.286,False,-0.2607121236829584,0.9991104577449725
4.805602916982025,17:44:31.201913,17:43:15.452318,0,,NaN,NaN,NaN,NaN,NaN,NaN,NaN,NaN,NaN,NaN,NaN,NaN,,NaN,NaN,NaN,NaN,NaN,NaN,NaN,NaN,NaN,NaN,NaN,NaN,,0.097929895,1.293792,0.42507076,0.982599,0.0076138834,-0.18558349,-0.10495624,-0.8015877,-0.5885927,-0.15324292,0.59782875,-0.78684014,,NaN,NaN,NaN,NaN,NaN,NaN,NaN,NaN,NaN,NaN,NaN,NaN,,NaN,NaN,NaN,NaN,NaN,NaN,NaN,NaN,NaN,NaN,NaN,NaN,,NaN,NaN,NaN,NaN,NaN,NaN,NaN,,NaN,NaN,NaN,NaN,NaN,NaN,NaN,,-0.11697196646865997,-0.12781700610823973,0.09957687064,-0.11840502245808503,,-3.4421682e-06,-4.2915344e-06,2.9802322e-06,1.0,1.0147691e-05,7.711351e-06,-1.014024e-05,1.0,1.9669533e-06,-7.711351e-06,-1.9669533e-06,1.0,1559,4.934,0,2,1.286,False,-0.261427056305211,0.9992070181465313
4.871764320880175,17:44:31.306772,17:43:15.452318,0,,NaN,NaN,NaN,NaN,NaN,NaN,NaN,NaN,NaN,NaN,NaN,NaN,,NaN,NaN,NaN,NaN,NaN,NaN,NaN,NaN,NaN,NaN,NaN,NaN,,0.097929895,1.293792,0.42507076,0.982599,0.0076138834,-0.18558349,-0.10495624,-0.8015877,-0.5885927,-0.15324292,0.59782875,-0.78684014,,NaN,NaN,NaN,NaN,NaN,NaN,NaN,NaN,NaN,NaN,NaN,NaN,,NaN,NaN,NaN,NaN,NaN,NaN,NaN,NaN,NaN,NaN,NaN,NaN,,NaN,NaN,NaN,NaN,NaN,NaN,NaN,,NaN,NaN,NaN,NaN,NaN,NaN,NaN,,-0.11697196646865997,-0.12781700610823973,0.09957687064,-0.11840502245808503,,-3.4421682e-06,-4.2915344e-06,2.9802322e-06,1.0,1.0147691e-05,7.711351e-06,-1.014024e-05,1.0,1.9669533e-06,-7.711351e-06,-1.9669533e-06,1.0,1578,4.995,0,2,1.286,False,-0.26255903295711036,0.999158737945752
4.97666040295735,17:44:31.366738,17:43:15.583599,0,,NaN,NaN,NaN,NaN,NaN,NaN,NaN,NaN,NaN,NaN,NaN,NaN,,NaN,NaN,NaN,NaN,NaN,NaN,NaN,NaN,NaN,NaN,NaN,NaN,,0.097929895,1.293792,0.42507076,0.982599,0.0076138834,-0.18558349,-0.10495624,-0.8015877,-0.5885927,-0.15324292,0.59782875,-0.78684014,,NaN,NaN,NaN,NaN,NaN,NaN,NaN,NaN,NaN,NaN,NaN,NaN,,NaN,NaN,NaN,NaN,NaN,NaN,NaN,NaN,NaN,NaN,NaN,NaN,,NaN,NaN,NaN,NaN,NaN,NaN,NaN,,NaN,NaN,NaN,NaN,NaN,NaN,NaN,,-0.11697196646865997,-0.12781700610823973,0.09957687064,-0.11840502245808503,,-3.4421682e-06,-4.2915344e-06,2.9802322e-06,1.0,1.0147691e-05,7.711351e-06,-1.014024e-05,1.0,1.9669533e-06,-7.711351e-06,-1.9669533e-06,1.0,1597,5.057,0,2,1.286,False,-0.2611887454311268,0.9988690567410752
5.036626318935305,17:44:31.435721,17:43:15.583599,0,,NaN,NaN,NaN,NaN,NaN,NaN,NaN,NaN,NaN,NaN,NaN,NaN,,NaN,NaN,NaN,NaN,NaN,NaN,NaN,NaN,NaN,NaN,NaN,NaN,,0.097929895,1.293792,0.42507076,0.982599,0.0076138834,-0.18558349,-0.10495624,-0.8015877,-0.5885927,-0.15324292,0.59782875,-0.78684014,,NaN,NaN,NaN,NaN,NaN,NaN,NaN,NaN,NaN,NaN,NaN,NaN,,NaN,NaN,NaN,NaN,NaN,NaN,NaN,NaN,NaN,NaN,NaN,NaN,,NaN,NaN,NaN,NaN,NaN,NaN,NaN,,NaN,NaN,NaN,NaN,NaN,NaN,NaN,,-0.11697196646865997,-0.12781700610823973,0.09957687064,-0.11840502245808503,,-3.4421682e-06,-4.2915344e-06,2.9802322e-06,1.0,1.0147691e-05,7.711351e-06,-1.014024e-05,1.0,1.9669533e-06,-7.711351e-06,-1.9669533e-06,1.0,1630,5.163,0,2,1.286,False,-0.26190367805337944,0.9991104577449725
5.105603762902319,17:44:31.537223,17:43:15.725305,0,,NaN,NaN,NaN,NaN,NaN,NaN,NaN,NaN,NaN,NaN,NaN,NaN,,NaN,NaN,NaN,NaN,NaN,NaN,NaN,NaN,NaN,NaN,NaN,NaN,,0.097929895,1.293792,0.42507076,0.982599,0.0076138834,-0.18558349,-0.10495624,-0.8015877,-0.5885927,-0.15324292,0.59782875,-0.78684014,,NaN,NaN,NaN,NaN,NaN,NaN,NaN,NaN,NaN,NaN,NaN,NaN,,NaN,NaN,NaN,NaN,NaN,NaN,NaN,NaN,NaN,NaN,NaN,NaN,,NaN,NaN,NaN,NaN,NaN,NaN,NaN,,NaN,NaN,NaN,NaN,NaN,NaN,NaN,,-0.11697196646865997,-0.12781700610823973,0.09957687064,-0.11840502245808503,,-3.4421682e-06,-4.2915344e-06,2.9802322e-06,1.0,1.0147691e-05,7.711351e-06,-1.014024e-05,1.0,1.9669533e-06,-7.711351e-06,-1.9669533e-06,1.0,1649,5.225,0,2,1.286,False,-0.26243987752006825,0.9988207765402957
5.2071075779385865,17:44:31.600696,17:43:15.856437,0,,NaN,NaN,NaN,NaN,NaN,NaN,NaN,NaN,NaN,NaN,NaN,NaN,,NaN,NaN,NaN,NaN,NaN,NaN,NaN,NaN,NaN,NaN,NaN,NaN,,0.097929895,1.293792,0.42507076,0.982599,0.0076138834,-0.18558349,-0.10495624,-0.8015877,-0.5885927,-0.15324292,0.59782875,-0.78684014,,NaN,NaN,NaN,NaN,NaN,NaN,NaN,NaN,NaN,NaN,NaN,NaN,,NaN,NaN,NaN,NaN,NaN,NaN,NaN,NaN,NaN,NaN,NaN,NaN,,NaN,NaN,NaN,NaN,NaN,NaN,NaN,,NaN,NaN,NaN,NaN,NaN,NaN,NaN,,-0.11697196646865997,-0.12781700610823973,0.09957687064,-0.11840502245808503,,-3.4421682e-06,-4.2915344e-06,2.9802322e-06,1.0,1.0147691e-05,7.711351e-06,-1.014024e-05,1.0,1.9669533e-06,-7.711351e-06,-1.9669533e-06,1.0,1668,5.286,0,2,1.286,False,-0.26160578946077395,0.9989173369418547
5.270579662872478,17:44:31.658335,17:43:15.856437,0,,NaN,NaN,NaN,NaN,NaN,NaN,NaN,NaN,NaN,NaN,NaN,NaN,,NaN,NaN,NaN,NaN,NaN,NaN,NaN,NaN,NaN,NaN,NaN,NaN,,0.097929895,1.293792,0.42507076,0.982599,0.0076138834,-0.18558349,-0.10495624,-0.8015877,-0.5885927,-0.15324292,0.59782875,-0.78684014,,NaN,NaN,NaN,NaN,NaN,NaN,NaN,NaN,NaN,NaN,NaN,NaN,,NaN,NaN,NaN,NaN,NaN,NaN,NaN,NaN,NaN,NaN,NaN,NaN,,NaN,NaN,NaN,NaN,NaN,NaN,NaN,,NaN,NaN,NaN,NaN,NaN,NaN,NaN,,-0.11697196646865997,-0.12781700610823973,0.09957687064,-0.11840502245808503,,-3.4421682e-06,-4.2915344e-06,2.9802322e-06,1.0,1.0147691e-05,7.711351e-06,-1.014024e-05,1.0,1.9669533e-06,-7.711351e-06,-1.9669533e-06,1.0,1701,5.393,0,2,1.286,False,-0.26196325577190027,0.9994484191504285
5.328213654924184,17:44:31.766739,17:43:16.009508,0,,NaN,NaN,NaN,NaN,NaN,NaN,NaN,NaN,NaN,NaN,NaN,NaN,,NaN,NaN,NaN,NaN,NaN,NaN,NaN,NaN,NaN,NaN,NaN,NaN,,0.097929895,1.293792,0.42507076,0.982599,0.0076138834,-0.18558349,-0.10495624,-0.8015877,-0.5885927,-0.15324292,0.59782875,-0.78684014,,NaN,NaN,NaN,NaN,NaN,NaN,NaN,NaN,NaN,NaN,NaN,NaN,,NaN,NaN,NaN,NaN,NaN,NaN,NaN,NaN,NaN,NaN,NaN,NaN,,NaN,NaN,NaN,NaN,NaN,NaN,NaN,,NaN,NaN,NaN,NaN,NaN,NaN,NaN,,-0.11697196646865997,-0.12781700610823973,0.09957687064,-0.11840502245808503,,-3.4421682e-06,-4.2915344e-06,2.9802322e-06,1.0,1.0147691e-05,7.711351e-06,-1.014024e-05,1.0,1.9669533e-06,-7.711351e-06,-1.9669533e-06,1.0,1720,5.454,0,2,1.286,False,-0.26148663402373185,0.9989656171426342
5.436583895934746,17:44:31.828682,17:43:16.009508,0,,NaN,NaN,NaN,NaN,NaN,NaN,NaN,NaN,NaN,NaN,NaN,NaN,,NaN,NaN,NaN,NaN,NaN,NaN,NaN,NaN,NaN,NaN,NaN,NaN,,0.097929895,1.293792,0.42507076,0.982599,0.0076138834,-0.18558349,-0.10495624,-0.8015877,-0.5885927,-0.15324292,0.59782875,-0.78684014,,NaN,NaN,NaN,NaN,NaN,NaN,NaN,NaN,NaN,NaN,NaN,NaN,,NaN,NaN,NaN,NaN,NaN,NaN,NaN,NaN,NaN,NaN,NaN,NaN,,NaN,NaN,NaN,NaN,NaN,NaN,NaN,,NaN,NaN,NaN,NaN,NaN,NaN,NaN,,-0.11697196646865997,-0.12781700610823973,0.09957687064,-0.11840502245808503,,-3.4421682e-06,-4.2915344e-06,2.9802322e-06,1.0,1.0147691e-05,7.711351e-06,-1.014024e-05,1.0,1.9669533e-06,-7.711351e-06,-1.9669533e-06,1.0,1739,5.515,0,2,1.286,False,-0.26190367805337944,0.9987242161387369
5.498570412863046,17:44:31.887872,17:43:16.126652,0,,NaN,NaN,NaN,NaN,NaN,NaN,NaN,NaN,NaN,NaN,NaN,NaN,,NaN,NaN,NaN,NaN,NaN,NaN,NaN,NaN,NaN,NaN,NaN,NaN,,0.097929895,1.293792,0.42507076,0.982599,0.0076138834,-0.18558349,-0.10495624,-0.8015877,-0.5885927,-0.15324292,0.59782875,-0.78684014,,NaN,NaN,NaN,NaN,NaN,NaN,NaN,NaN,NaN,NaN,NaN,NaN,,NaN,NaN,NaN,NaN,NaN,NaN,NaN,NaN,NaN,NaN,NaN,NaN,,NaN,NaN,NaN,NaN,NaN,NaN,NaN,,NaN,NaN,NaN,NaN,NaN,NaN,NaN,,-0.11697196646865997,-0.12781700610823973,0.09957687064,-0.11840502245808503,,-3.4421682e-06,-4.2915344e-06,2.9802322e-06,1.0,1.0147691e-05,7.711351e-06,-1.014024e-05,1.0,1.9669533e-06,-7.711351e-06,-1.9669533e-06,1.0,1772,5.622,0,2,1.286,False,-0.26196325577190027,0.9987242161387369
5.5577355299610645,17:44:31.991433,17:43:16.126652,0,,NaN,NaN,NaN,NaN,NaN,NaN,NaN,NaN,NaN,NaN,NaN,NaN,,NaN,NaN,NaN,NaN,NaN,NaN,NaN,NaN,NaN,NaN,NaN,NaN,,0.09789674,1.2937946,0.42507288,0.9826013,0.0076314975,-0.18557057,-0.10493465,-0.8015875,-0.5885968,-0.15324292,0.59782875,-0.78684014,,NaN,NaN,NaN,NaN,NaN,NaN,NaN,NaN,NaN,NaN,NaN,NaN,,NaN,NaN,NaN,NaN,NaN,NaN,NaN,NaN,NaN,NaN,NaN,NaN,,NaN,NaN,NaN,NaN,NaN,NaN,NaN,,NaN,NaN,NaN,NaN,NaN,NaN,NaN,,-0.11697196646865997,-0.12781700610823973,0.09957687064,-0.11840502245808503,,-3.6612153e-05,-5.364418e-06,5.9604645e-06,1.0,2.7440488e-05,2.0839274e-05,-2.7425587e-05,1.0,5.364418e-06,-2.0839274e-05,-5.3346157e-06,1.0,1791,5.683,0,2,1.286,False,-0.26178452261633733,0.99843453493406
5.661316761979833,17:44:32.058086,17:43:16.264427,0,,NaN,NaN,NaN,NaN,NaN,NaN,NaN,NaN,NaN,NaN,NaN,NaN,,NaN,NaN,NaN,NaN,NaN,NaN,NaN,NaN,NaN,NaN,NaN,NaN,,0.09789674,1.2937946,0.42507288,0.9826013,0.0076314975,-0.18557057,-0.10493465,-0.8015875,-0.5885968,-0.15324292,0.59782875,-0.78684014,,NaN,NaN,NaN,NaN,NaN,NaN,NaN,NaN,NaN,NaN,NaN,NaN,,NaN,NaN,NaN,NaN,NaN,NaN,NaN,NaN,NaN,NaN,NaN,NaN,,NaN,NaN,NaN,NaN,NaN,NaN,NaN,,NaN,NaN,NaN,NaN,NaN,NaN,NaN,,-0.11697196646865997,-0.12781700610823973,0.09957687064,-0.11840502245808503,,-3.6612153e-05,-5.364418e-06,5.9604645e-06,1.0,2.7440488e-05,2.0839274e-05,-2.7425587e-05,1.0,5.364418e-06,-2.0839274e-05,-5.3346157e-06,1.0,1810,5.745,0,2,1.286,False,-0.2632143878608417,0.9983862547332805
5.727974773850292,17:44:32.113962,17:43:16.264427,0,,NaN,NaN,NaN,NaN,NaN,NaN,NaN,NaN,NaN,NaN,NaN,NaN,,NaN,NaN,NaN,NaN,NaN,NaN,NaN,NaN,NaN,NaN,NaN,NaN,,0.09789674,1.2937946,0.42507288,0.9826013,0.0076314975,-0.18557057,-0.10493465,-0.8015875,-0.5885968,-0.15324292,0.59782875,-0.78684014,,NaN,NaN,NaN,NaN,NaN,NaN,NaN,NaN,NaN,NaN,NaN,NaN,,NaN,NaN,NaN,NaN,NaN,NaN,NaN,NaN,NaN,NaN,NaN,NaN,,NaN,NaN,NaN,NaN,NaN,NaN,NaN,,NaN,NaN,NaN,NaN,NaN,NaN,NaN,,-0.11697196646865997,-0.12781700610823973,0.09957687064,-0.11840502245808503,,-3.6612153e-05,-5.364418e-06,5.9604645e-06,1.0,2.7440488e-05,2.0839274e-05,-2.7425587e-05,1.0,5.364418e-06,-2.0839274e-05,-5.3346157e-06,1.0,1843,5.851,0,2,1.286,False,-0.2630356547052788,0.9982414141309421
5.783849876839668,17:44:32.214949,17:43:16.405550,0,,NaN,NaN,NaN,NaN,NaN,NaN,NaN,NaN,NaN,NaN,NaN,NaN,,NaN,NaN,NaN,NaN,NaN,NaN,NaN,NaN,NaN,NaN,NaN,NaN,,0.09789674,1.2937946,0.42507288,0.9826013,0.0076314975,-0.18557057,-0.10493465,-0.8015875,-0.5885968,-0.15324292,0.59782875,-0.78684014,,NaN,NaN,NaN,NaN,NaN,NaN,NaN,NaN,NaN,NaN,NaN,NaN,,NaN,NaN,NaN,NaN,NaN,NaN,NaN,NaN,NaN,NaN,NaN,NaN,,NaN,NaN,NaN,NaN,NaN,NaN,NaN,,NaN,NaN,NaN,NaN,NaN,NaN,NaN,,-0.11697196646865997,-0.12781700610823973,0.09957687064,-0.11840502245808503,,-3.6612153e-05,-5.364418e-06,5.9604645e-06,1.0,2.7440488e-05,2.0839274e-05,-2.7425587e-05,1.0,5.364418e-06,-2.0839274e-05,-5.3346157e-06,1.0,1862,5.913,0,2,1.286,False,-0.2626781883941529,0.9981448537293831
5.884835309814662,17:44:32.284893,17:43:16.405550,0,,NaN,NaN,NaN,NaN,NaN,NaN,NaN,NaN,NaN,NaN,NaN,NaN,,NaN,NaN,NaN,NaN,NaN,NaN,NaN,NaN,NaN,NaN,NaN,NaN,,0.09789674,1.2937946,0.42507288,0.9826013,0.0076314975,-0.18557057,-0.10493465,-0.8015875,-0.5885968,-0.15324292,0.59782875,-0.78684014,,NaN,NaN,NaN,NaN,NaN,NaN,NaN,NaN,NaN,NaN,NaN,NaN,,NaN,NaN,NaN,NaN,NaN,NaN,NaN,NaN,NaN,NaN,NaN,NaN,,NaN,NaN,NaN,NaN,NaN,NaN,NaN,,NaN,NaN,NaN,NaN,NaN,NaN,NaN,,-0.11697196646865997,-0.12781700610823973,0.09957687064,-0.11840502245808503,,-3.6612153e-05,-5.364418e-06,5.9604645e-06,1.0,2.7440488e-05,2.0839274e-05,-2.7425587e-05,1.0,5.364418e-06,-2.0839274e-05,-5.3346157e-06,1.0,1881,5.974,0,2,1.286,False,-0.2626186106756321,0.9983379745325012
5.954775954829529,17:44:32.352771,17:43:16.576726,0,,NaN,NaN,NaN,NaN,NaN,NaN,NaN,NaN,NaN,NaN,NaN,NaN,,NaN,NaN,NaN,NaN,NaN,NaN,NaN,NaN,NaN,NaN,NaN,NaN,,0.09789674,1.2937946,0.42507288,0.9826013,0.0076314975,-0.18557057,-0.10493465,-0.8015875,-0.5885968,-0.15324292,0.59782875,-0.78684014,,NaN,NaN,NaN,NaN,NaN,NaN,NaN,NaN,NaN,NaN,NaN,NaN,,NaN,NaN,NaN,NaN,NaN,NaN,NaN,NaN,NaN,NaN,NaN,NaN,,NaN,NaN,NaN,NaN,NaN,NaN,NaN,,NaN,NaN,NaN,NaN,NaN,NaN,NaN,,-0.11697196646865997,-0.12781700610823973,0.09957687064,-0.11840502245808503,,-3.6612153e-05,-5.364418e-06,5.9604645e-06,1.0,2.7440488e-05,2.0839274e-05,-2.7425587e-05,1.0,5.364418e-06,-2.0839274e-05,-5.3346157e-06,1.0,1900,6.036,0,2,1.286,False,-0.2622015666459845,0.9983379745325012
6.022613902809098,17:44:32.403398,17:43:16.576726,0,,NaN,NaN,NaN,NaN,NaN,NaN,NaN,NaN,NaN,NaN,NaN,NaN,,NaN,NaN,NaN,NaN,NaN,NaN,NaN,NaN,NaN,NaN,NaN,NaN,,0.09789674,1.2937946,0.42507288,0.9826013,0.0076314975,-0.18557057,-0.10493465,-0.8015875,-0.5885968,-0.15324292,0.59782875,-0.78684014,,NaN,NaN,NaN,NaN,NaN,NaN,NaN,NaN,NaN,NaN,NaN,NaN,,NaN,NaN,NaN,NaN,NaN,NaN,NaN,NaN,NaN,NaN,NaN,NaN,,NaN,NaN,NaN,NaN,NaN,NaN,NaN,,NaN,NaN,NaN,NaN,NaN,NaN,NaN,,-0.11697196646865997,-0.12781700610823973,0.09957687064,-0.11840502245808503,,-3.6612153e-05,-5.364418e-06,5.9604645e-06,1.0,2.7440488e-05,2.0839274e-05,-2.7425587e-05,1.0,5.364418e-06,-2.0839274e-05,-5.3346157e-06,1.0,1933,6.142,0,2,1.286,False,-0.262797343831195,0.998531095335619
6.0732820788398385,17:44:32.513118,17:43:16.705451,0,,NaN,NaN,NaN,NaN,NaN,NaN,NaN,NaN,NaN,NaN,NaN,NaN,,NaN,NaN,NaN,NaN,NaN,NaN,NaN,NaN,NaN,NaN,NaN,NaN,,0.09789674,1.2937946,0.42507288,0.9826013,0.0076314975,-0.18557057,-0.10493465,-0.8015875,-0.5885968,-0.15324292,0.59782875,-0.78684014,,NaN,NaN,NaN,NaN,NaN,NaN,NaN,NaN,NaN,NaN,NaN,NaN,,NaN,NaN,NaN,NaN,NaN,NaN,NaN,NaN,NaN,NaN,NaN,NaN,,NaN,NaN,NaN,NaN,NaN,NaN,NaN,,NaN,NaN,NaN,NaN,NaN,NaN,NaN,,-0.11697196646865997,-0.12781700610823973,0.09957687064,-0.11840502245808503,,-3.6612153e-05,-5.364418e-06,5.9604645e-06,1.0,2.7440488e-05,2.0839274e-05,-2.7425587e-05,1.0,5.364418e-06,-2.0839274e-05,-5.3346157e-06,1.0,1952,6.204,0,2,1.286,False,-0.2626781883941529,0.9980000131270448
6.1830054968595505,17:44:32.576499,17:43:16.833720,0,,NaN,NaN,NaN,NaN,NaN,NaN,NaN,NaN,NaN,NaN,NaN,NaN,,NaN,NaN,NaN,NaN,NaN,NaN,NaN,NaN,NaN,NaN,NaN,NaN,,0.09789674,1.2937946,0.42507288,0.9826013,0.0076314975,-0.18557057,-0.10493465,-0.8015875,-0.5885968,-0.15324292,0.59782875,-0.78684014,,NaN,NaN,NaN,NaN,NaN,NaN,NaN,NaN,NaN,NaN,NaN,NaN,,NaN,NaN,NaN,NaN,NaN,NaN,NaN,NaN,NaN,NaN,NaN,NaN,,NaN,NaN,NaN,NaN,NaN,NaN,NaN,,NaN,NaN,NaN,NaN,NaN,NaN,NaN,,-0.11697196646865997,-0.12781700610823973,0.09957687064,-0.11840502245808503,,-3.6612153e-05,-5.364418e-06,5.9604645e-06,1.0,2.7440488e-05,2.0839274e-05,-2.7425587e-05,1.0,5.364418e-06,-2.0839274e-05,-5.3346157e-06,1.0,1971,6.265,0,2,1.286,False,-0.2622611443645053,0.9983379745325012
6.246385024860501,17:44:32.635031,17:43:16.833720,0,,NaN,NaN,NaN,NaN,NaN,NaN,NaN,NaN,NaN,NaN,NaN,NaN,,NaN,NaN,NaN,NaN,NaN,NaN,NaN,NaN,NaN,NaN,NaN,NaN,,0.09789674,1.2937946,0.42507288,0.9826013,0.0076314975,-0.18557057,-0.10493465,-0.8015875,-0.5885968,-0.15324292,0.59782875,-0.78684014,,NaN,NaN,NaN,NaN,NaN,NaN,NaN,NaN,NaN,NaN,NaN,NaN,,NaN,NaN,NaN,NaN,NaN,NaN,NaN,NaN,NaN,NaN,NaN,NaN,,NaN,NaN,NaN,NaN,NaN,NaN,NaN,,NaN,NaN,NaN,NaN,NaN,NaN,NaN,,-0.11697196646865997,-0.12781700610823973,0.09957687064,-0.11840502245808503,,-3.6612153e-05,-5.364418e-06,5.9604645e-06,1.0,2.7440488e-05,2.0839274e-05,-2.7425587e-05,1.0,5.364418e-06,-2.0839274e-05,-5.3346157e-06,1.0,1990,6.326,0,2,1.286,False,-0.2626781883941529,0.9982414141309421
6.304880470968783,17:44:32.705614,17:43:16.833720,0,,NaN,NaN,NaN,NaN,NaN,NaN,NaN,NaN,NaN,NaN,NaN,NaN,,NaN,NaN,NaN,NaN,NaN,NaN,NaN,NaN,NaN,NaN,NaN,NaN,,0.09789674,1.2937946,0.42507288,0.9826013,0.0076314975,-0.18557057,-0.10493465,-0.8015875,-0.5885968,-0.15324292,0.59782875,-0.78684014,,NaN,NaN,NaN,NaN,NaN,NaN,NaN,NaN,NaN,NaN,NaN,NaN,,NaN,NaN,NaN,NaN,NaN,NaN,NaN,NaN,NaN,NaN,NaN,NaN,,NaN,NaN,NaN,NaN,NaN,NaN,NaN,,NaN,NaN,NaN,NaN,NaN,NaN,NaN,,-0.11697196646865997,-0.12781700610823973,0.09957687064,-0.11840502245808503,,-3.6612153e-05,-5.364418e-06,5.9604645e-06,1.0,2.7440488e-05,2.0839274e-05,-2.7425587e-05,1.0,5.364418e-06,-2.0839274e-05,-5.3346157e-06,1.0,2023,6.433,0,2,1.286,False,-0.26249945523859,0.9983862547332805
6.375474822940305,17:44:32.804921,17:43:16.990736,0,,NaN,NaN,NaN,NaN,NaN,NaN,NaN,NaN,NaN,NaN,NaN,NaN,,NaN,NaN,NaN,NaN,NaN,NaN,NaN,NaN,NaN,NaN,NaN,NaN,,0.09789674,1.2937946,0.42507288,0.9826013,0.0076314975,-0.18557057,-0.10493465,-0.8015875,-0.5885968,-0.15324292,0.59782875,-0.78684014,,NaN,NaN,NaN,NaN,NaN,NaN,NaN,NaN,NaN,NaN,NaN,NaN,,NaN,NaN,NaN,NaN,NaN,NaN,NaN,NaN,NaN,NaN,NaN,NaN,,NaN,NaN,NaN,NaN,NaN,NaN,NaN,,NaN,NaN,NaN,NaN,NaN,NaN,NaN,,-0.11697196646865997,-0.12781700610823973,0.09957687064,-0.11840502245808503,,-3.6612153e-05,-5.364418e-06,5.9604645e-06,1.0,2.7440488e-05,2.0839274e-05,-2.7425587e-05,1.0,5.364418e-06,-2.0839274e-05,-5.3346157e-06,1.0,2042,6.494,0,2,1.286,False,-0.26202283349042155,0.997468930918471
