AlexandreBanks6/ExpertPlaybackApp/resources/Motions/P_17/PC1/Data_PC1_7.csv
Task Time,PC1 Time,PC2 Time,Gaze Calib,s_T_psm1,Tx,Ty,Tz,R00,R01,R02,R10,R11,R12,R20,R21,R22,s_T_psm3,Tx,Ty,Tz,R00,R01,R02,R10,R11,R12,R20,R21,R22,cart_T_ecm,Tx,Ty,Tz,R00,R01,R02,R10,R11,R12,R20,R21,R22,ecm_T_psm1,Tx,Ty,Tz,R00,R01,R02,R10,R11,R12,R20,R21,R22,ecm_T_psm3,Tx,Ty,Tz,R00,R01,R02,R10,R11,R12,R20,R21,R22,psm1_joints,q1,q2,q3,q4,q5,q6,jaw,psm3_joints,q1,q2,q3,q4,q5,q6,jaw,ecm_joints,q1,q2,q3,q4,ecmi_T_ecm,Tx,Ty,Tz,R00,R01,R02,R10,R11,R12,R20,R21,R22,Sample #,Task Duration (s),Collisions (binary),Collisions (increments),Cumulative Collision Time (s),Clutch Press,MTMR Angle,MTML Angle
""
lci_T_si,,,,,-0.0900869,0.022313949,0.18335392,0.9831014,-0.048776343,0.17644396,0.07519278,-0.77119327,-0.63214475,0.1669061,0.6347297,-0.7544936
rci_T_si,,,,,-0.09717508,0.02900249,0.19913338,0.9846646,-0.06319082,0.16261163,0.050159317,-0.7901947,-0.6107998,0.16709179,0.6095894,-0.7749072
ecm_T_lc,,,,,-4.4061628e-05,-0.00034663224,-0.01840835,-0.99912,0.030754527,0.028518902,-0.031987965,-0.99852574,-0.043852776,0.027128186,-0.04472645,0.9986309
ecm_T_rc,,,,,-0.0043358393,0.01870579,-0.007592615,-0.99555075,-0.052743673,-0.078081585,0.04863213,-0.9973746,0.053654674,-0.08070653,0.04961868,0.9955021
cart_T_ecmi,,,,,0.09793387,1.29379,0.42507514,0.98259765,0.007603552,-0.18559109,-0.104968905,-0.80158776,-0.5885903,-0.15324292,0.59782875,-0.78684014
ecmac_T_ecmrep_psm1,,,,,0.044880565,-0.23049864,-0.32052848,0.99797076,0.0626086,0.011601057,-0.061749555,0.99606305,-0.0636032,-0.015537491,0.06275777,0.9979078
ecmac_T_ecmrep_psm3,,,,,0.047327206,-0.4153428,-0.56493527,0.997773,0.014750276,0.065049894,-0.025394045,0.985803,0.16597453,-0.061678212,-0.16725679,0.9839822
""
0,17:42:21.281417,17:41:05.528188,0,,NaN,NaN,NaN,NaN,NaN,NaN,NaN,NaN,NaN,NaN,NaN,NaN,,NaN,NaN,NaN,NaN,NaN,NaN,NaN,NaN,NaN,NaN,NaN,NaN,,0.09794394,1.2937928,0.42507526,0.9825941,0.0075763585,-0.18561105,-0.10500224,-0.801588,-0.588584,-0.15324292,0.59782875,-0.78684014,,NaN,NaN,NaN,NaN,NaN,NaN,NaN,NaN,NaN,NaN,NaN,NaN,,NaN,NaN,NaN,NaN,NaN,NaN,NaN,NaN,NaN,NaN,NaN,NaN,,NaN,NaN,NaN,NaN,NaN,NaN,NaN,,NaN,NaN,NaN,NaN,NaN,NaN,NaN,,-0.11697196646865997,-0.12781700610823973,0.09957687064,-0.11709667966849292,,9.581447e-06,-2.2053719e-06,-3.5762787e-06,1.0,-2.669543e-05,-2.0295382e-05,2.669543e-05,0.9999999,-5.2154064e-06,2.027303e-05,5.185604e-06,1.0,38,0.114,0,0,0.0,False,-0.2618441003348577,0.6920966609883958
0.12950709788128734,17:42:21.311723,17:41:05.528188,0,,NaN,NaN,NaN,NaN,NaN,NaN,NaN,NaN,NaN,NaN,NaN,NaN,,NaN,NaN,NaN,NaN,NaN,NaN,NaN,NaN,NaN,NaN,NaN,NaN,,0.09794394,1.2937928,0.42507526,0.9825941,0.0075763585,-0.18561105,-0.10500224,-0.801588,-0.588584,-0.15324292,0.59782875,-0.78684014,,NaN,NaN,NaN,NaN,NaN,NaN,NaN,NaN,NaN,NaN,NaN,NaN,,NaN,NaN,NaN,NaN,NaN,NaN,NaN,NaN,NaN,NaN,NaN,NaN,,NaN,NaN,NaN,NaN,NaN,NaN,NaN,,NaN,NaN,NaN,NaN,NaN,NaN,NaN,,-0.11697196646865997,-0.12781700610823973,0.09957687064,-0.11709667966849292,,9.581447e-06,-2.2053719e-06,-3.5762787e-06,1.0,-2.669543e-05,-2.0295382e-05,2.669543e-05,0.9999999,-5.2154064e-06,2.027303e-05,5.185604e-06,1.0,49,0.148,0,0,0.0,False,-0.2626781883941529,0.692531182795411
0.15981301898136735,17:42:21.344262,17:41:05.528188,0,,NaN,NaN,NaN,NaN,NaN,NaN,NaN,NaN,NaN,NaN,NaN,NaN,,NaN,NaN,NaN,NaN,NaN,NaN,NaN,NaN,NaN,NaN,NaN,NaN,,0.09794394,1.2937928,0.42507526,0.9825941,0.0075763585,-0.18561105,-0.10500224,-0.801588,-0.588584,-0.15324292,0.59782875,-0.78684014,,NaN,NaN,NaN,NaN,NaN,NaN,NaN,NaN,NaN,NaN,NaN,NaN,,NaN,NaN,NaN,NaN,NaN,NaN,NaN,NaN,NaN,NaN,NaN,NaN,,NaN,NaN,NaN,NaN,NaN,NaN,NaN,,NaN,NaN,NaN,NaN,NaN,NaN,NaN,,-0.11697196646865997,-0.12781700610823973,0.09957687064,-0.11709667966849292,,9.581447e-06,-2.2053719e-06,-3.5762787e-06,1.0,-2.669543e-05,-2.0295382e-05,2.669543e-05,0.9999999,-5.2154064e-06,2.027303e-05,5.185604e-06,1.0,57,0.171,0,0,0.0,False,-0.2621419889274632,0.6790127265771626
0.19237934378907084,17:42:21.373214,17:41:05.620289,0,,NaN,NaN,NaN,NaN,NaN,NaN,NaN,NaN,NaN,NaN,NaN,NaN,,NaN,NaN,NaN,NaN,NaN,NaN,NaN,NaN,NaN,NaN,NaN,NaN,,0.09794394,1.2937928,0.42507526,0.9825941,0.0075763585,-0.18561105,-0.10500224,-0.801588,-0.588584,-0.15324292,0.59782875,-0.78684014,,NaN,NaN,NaN,NaN,NaN,NaN,NaN,NaN,NaN,NaN,NaN,NaN,,NaN,NaN,NaN,NaN,NaN,NaN,NaN,NaN,NaN,NaN,NaN,NaN,,NaN,NaN,NaN,NaN,NaN,NaN,NaN,,NaN,NaN,NaN,NaN,NaN,NaN,NaN,,-0.11697196646865997,-0.12781700610823973,0.09957687064,-0.11709667966849292,,9.581447e-06,-2.2053719e-06,-3.5762787e-06,1.0,-2.669543e-05,-2.0295382e-05,2.669543e-05,0.9999999,-5.2154064e-06,2.027303e-05,5.185604e-06,1.0,69,0.208,0,0,0.0,False,-0.26327396557936344,0.6660736327682675
0.22133621596731246,17:42:21.406784,17:41:05.620289,0,,NaN,NaN,NaN,NaN,NaN,NaN,NaN,NaN,NaN,NaN,NaN,NaN,,NaN,NaN,NaN,NaN,NaN,NaN,NaN,NaN,NaN,NaN,NaN,NaN,,0.09794394,1.2937928,0.42507526,0.9825941,0.0075763585,-0.18561105,-0.10500224,-0.801588,-0.588584,-0.15324292,0.59782875,-0.78684014,,NaN,NaN,NaN,NaN,NaN,NaN,NaN,NaN,NaN,NaN,NaN,NaN,,NaN,NaN,NaN,NaN,NaN,NaN,NaN,NaN,NaN,NaN,NaN,NaN,,NaN,NaN,NaN,NaN,NaN,NaN,NaN,,NaN,NaN,NaN,NaN,NaN,NaN,NaN,,-0.11697196646865997,-0.12781700610823973,0.09957687064,-0.11709667966849292,,9.581447e-06,-2.2053719e-06,-3.5762787e-06,1.0,-2.669543e-05,-2.0295382e-05,2.669543e-05,0.9999999,-5.2154064e-06,2.027303e-05,5.185604e-06,1.0,76,0.23,0,0,0.0,False,-0.2632143878608417,0.6508170893219587
0.25487681082449853,17:42:21.431574,17:41:05.620289,0,,NaN,NaN,NaN,NaN,NaN,NaN,NaN,NaN,NaN,NaN,NaN,NaN,,NaN,NaN,NaN,NaN,NaN,NaN,NaN,NaN,NaN,NaN,NaN,NaN,,0.09794394,1.2937928,0.42507526,0.9825941,0.0075763585,-0.18561105,-0.10500224,-0.801588,-0.588584,-0.15324292,0.59782875,-0.78684014,,NaN,NaN,NaN,NaN,NaN,NaN,NaN,NaN,NaN,NaN,NaN,NaN,,NaN,NaN,NaN,NaN,NaN,NaN,NaN,NaN,NaN,NaN,NaN,NaN,,NaN,NaN,NaN,NaN,NaN,NaN,NaN,,NaN,NaN,NaN,NaN,NaN,NaN,NaN,,-0.11697196646865997,-0.12781700610823973,0.09957687064,-0.11709667966849292,,9.581447e-06,-2.2053719e-06,-3.5762787e-06,1.0,-2.669543e-05,-2.0295382e-05,2.669543e-05,0.9999999,-5.2154064e-06,2.027303e-05,5.185604e-06,1.0,84,0.253,0,0,0.0,False,-0.26273776611267374,0.6421266531816561
0.2796655260026455,17:42:21.457049,17:41:05.620289,0,,NaN,NaN,NaN,NaN,NaN,NaN,NaN,NaN,NaN,NaN,NaN,NaN,,NaN,NaN,NaN,NaN,NaN,NaN,NaN,NaN,NaN,NaN,NaN,NaN,,0.09794394,1.2937928,0.42507526,0.9825941,0.0075763585,-0.18561105,-0.10500224,-0.801588,-0.588584,-0.15324292,0.59782875,-0.78684014,,NaN,NaN,NaN,NaN,NaN,NaN,NaN,NaN,NaN,NaN,NaN,NaN,,NaN,NaN,NaN,NaN,NaN,NaN,NaN,NaN,NaN,NaN,NaN,NaN,,NaN,NaN,NaN,NaN,NaN,NaN,NaN,,NaN,NaN,NaN,NaN,NaN,NaN,NaN,,-0.11697196646865997,-0.12781700610823973,0.09957687064,-0.11709667966849292,,9.581447e-06,-2.2053719e-06,-3.5762787e-06,1.0,-2.669543e-05,-2.0295382e-05,2.669543e-05,0.9999999,-5.2154064e-06,2.027303e-05,5.185604e-06,1.0,92,0.278,0,0,0.0,False,-0.2634526987349264,0.6414990105715233
0.3051709558349103,17:42:21.477868,17:41:05.620289,0,,NaN,NaN,NaN,NaN,NaN,NaN,NaN,NaN,NaN,NaN,NaN,NaN,,NaN,NaN,NaN,NaN,NaN,NaN,NaN,NaN,NaN,NaN,NaN,NaN,,0.09794394,1.2937928,0.42507526,0.9825941,0.0075763585,-0.18561105,-0.10500224,-0.801588,-0.588584,-0.15324292,0.59782875,-0.78684014,,NaN,NaN,NaN,NaN,NaN,NaN,NaN,NaN,NaN,NaN,NaN,NaN,,NaN,NaN,NaN,NaN,NaN,NaN,NaN,NaN,NaN,NaN,NaN,NaN,,NaN,NaN,NaN,NaN,NaN,NaN,NaN,,NaN,NaN,NaN,NaN,NaN,NaN,NaN,,-0.11697196646865997,-0.12781700610823973,0.09957687064,-0.11709667966849292,,9.581447e-06,-2.2053719e-06,-3.5762787e-06,1.0,-2.669543e-05,-2.0295382e-05,2.669543e-05,0.9999999,-5.2154064e-06,2.027303e-05,5.185604e-06,1.0,100,0.303,0,0,0.0,False,-0.26232072208302704,0.6433336582011426
0.32595381583087146,17:42:21.504778,17:41:05.769668,0,,NaN,NaN,NaN,NaN,NaN,NaN,NaN,NaN,NaN,NaN,NaN,NaN,,NaN,NaN,NaN,NaN,NaN,NaN,NaN,NaN,NaN,NaN,NaN,NaN,,0.09794394,1.2937928,0.42507526,0.9825941,0.0075763585,-0.18561105,-0.10500224,-0.801588,-0.588584,-0.15324292,0.59782875,-0.78684014,,NaN,NaN,NaN,NaN,NaN,NaN,NaN,NaN,NaN,NaN,NaN,NaN,,NaN,NaN,NaN,NaN,NaN,NaN,NaN,NaN,NaN,NaN,NaN,NaN,,NaN,NaN,NaN,NaN,NaN,NaN,NaN,,NaN,NaN,NaN,NaN,NaN,NaN,NaN,,-0.11697196646865997,-0.12781700610823973,0.09957687064,-0.11709667966849292,,9.581447e-06,-2.2053719e-06,-3.5762787e-06,1.0,-2.669543e-05,-2.0295382e-05,2.669543e-05,0.9999999,-5.2154064e-06,2.027303e-05,5.185604e-06,1.0,111,0.336,0,0,0.0,False,-0.26351227645344677,0.6435267790042603
0.3528893319889903,17:42:21.534414,17:41:05.769668,0,,NaN,NaN,NaN,NaN,NaN,NaN,NaN,NaN,NaN,NaN,NaN,NaN,,NaN,NaN,NaN,NaN,NaN,NaN,NaN,NaN,NaN,NaN,NaN,NaN,,0.09794394,1.2937928,0.42507526,0.9825941,0.0075763585,-0.18561105,-0.10500224,-0.801588,-0.588584,-0.15324292,0.59782875,-0.78684014,,NaN,NaN,NaN,NaN,NaN,NaN,NaN,NaN,NaN,NaN,NaN,NaN,,NaN,NaN,NaN,NaN,NaN,NaN,NaN,NaN,NaN,NaN,NaN,NaN,,NaN,NaN,NaN,NaN,NaN,NaN,NaN,,NaN,NaN,NaN,NaN,NaN,NaN,NaN,,-0.11697196646865997,-0.12781700610823973,0.09957687064,-0.11709667966849292,,9.581447e-06,-2.2053719e-06,-3.5762787e-06,1.0,-2.669543e-05,-2.0295382e-05,2.669543e-05,0.9999999,-5.2154064e-06,2.027303e-05,5.185604e-06,1.0,119,0.36,0,0,0.0,False,-0.2629164992682367,0.6431888175988041
0.38250498194247484,17:42:21.566970,17:41:05.769668,0,,NaN,NaN,NaN,NaN,NaN,NaN,NaN,NaN,NaN,NaN,NaN,NaN,,NaN,NaN,NaN,NaN,NaN,NaN,NaN,NaN,NaN,NaN,NaN,NaN,,0.09794394,1.2937928,0.42507526,0.9825941,0.0075763585,-0.18561105,-0.10500224,-0.801588,-0.588584,-0.15324292,0.59782875,-0.78684014,,NaN,NaN,NaN,NaN,NaN,NaN,NaN,NaN,NaN,NaN,NaN,NaN,,NaN,NaN,NaN,NaN,NaN,NaN,NaN,NaN,NaN,NaN,NaN,NaN,,NaN,NaN,NaN,NaN,NaN,NaN,NaN,,NaN,NaN,NaN,NaN,NaN,NaN,NaN,,-0.11697196646865997,-0.12781700610823973,0.09957687064,-0.11709667966849292,,9.581447e-06,-2.2053719e-06,-3.5762787e-06,1.0,-2.669543e-05,-2.0295382e-05,2.669543e-05,0.9999999,-5.2154064e-06,2.027303e-05,5.185604e-06,1.0,131,0.397,0,0,0.0,False,-0.2637505873275314,0.6431888175988041
0.41507027694024146,17:42:21.595368,17:41:05.769668,0,,NaN,NaN,NaN,NaN,NaN,NaN,NaN,NaN,NaN,NaN,NaN,NaN,,NaN,NaN,NaN,NaN,NaN,NaN,NaN,NaN,NaN,NaN,NaN,NaN,,0.09794394,1.2937928,0.42507526,0.9825941,0.0075763585,-0.18561105,-0.10500224,-0.801588,-0.588584,-0.15324292,0.59782875,-0.78684014,,NaN,NaN,NaN,NaN,NaN,NaN,NaN,NaN,NaN,NaN,NaN,NaN,,NaN,NaN,NaN,NaN,NaN,NaN,NaN,NaN,NaN,NaN,NaN,NaN,,NaN,NaN,NaN,NaN,NaN,NaN,NaN,,NaN,NaN,NaN,NaN,NaN,NaN,NaN,,-0.11697196646865997,-0.12781700610823973,0.09957687064,-0.11709667966849292,,9.581447e-06,-2.2053719e-06,-3.5762787e-06,1.0,-2.669543e-05,-2.0295382e-05,2.669543e-05,0.9999999,-5.2154064e-06,2.027303e-05,5.185604e-06,1.0,139,0.421,0,0,0.0,False,-0.2631548101423209,0.6427060155910098
0.44343592086806893,17:42:21.623201,17:41:05.892493,0,,NaN,NaN,NaN,NaN,NaN,NaN,NaN,NaN,NaN,NaN,NaN,NaN,,NaN,NaN,NaN,NaN,NaN,NaN,NaN,NaN,NaN,NaN,NaN,NaN,,0.09794394,1.2937928,0.42507526,0.9825941,0.0075763585,-0.18561105,-0.10500224,-0.801588,-0.588584,-0.15324292,0.59782875,-0.78684014,,NaN,NaN,NaN,NaN,NaN,NaN,NaN,NaN,NaN,NaN,NaN,NaN,,NaN,NaN,NaN,NaN,NaN,NaN,NaN,NaN,NaN,NaN,NaN,NaN,,NaN,NaN,NaN,NaN,NaN,NaN,NaN,,NaN,NaN,NaN,NaN,NaN,NaN,NaN,,-0.11697196646865997,-0.12781700610823973,0.09957687064,-0.11709667966849292,,9.581447e-06,-2.2053719e-06,-3.5762787e-06,1.0,-2.669543e-05,-2.0295382e-05,2.669543e-05,0.9999999,-5.2154064e-06,2.027303e-05,5.185604e-06,1.0,158,0.479,0,0,0.0,False,-0.26339312101640555,0.6422232135832151
0.47132227290421724,17:42:21.682375,17:41:05.892493,0,,NaN,NaN,NaN,NaN,NaN,NaN,NaN,NaN,NaN,NaN,NaN,NaN,,NaN,NaN,NaN,NaN,NaN,NaN,NaN,NaN,NaN,NaN,NaN,NaN,,0.09794394,1.2937928,0.42507526,0.9825941,0.0075763585,-0.18561105,-0.10500224,-0.801588,-0.588584,-0.15324292,0.59782875,-0.78684014,,NaN,NaN,NaN,NaN,NaN,NaN,NaN,NaN,NaN,NaN,NaN,NaN,,NaN,NaN,NaN,NaN,NaN,NaN,NaN,NaN,NaN,NaN,NaN,NaN,,NaN,NaN,NaN,NaN,NaN,NaN,NaN,,NaN,NaN,NaN,NaN,NaN,NaN,NaN,,-0.11697196646865997,-0.12781700610823973,0.09957687064,-0.11709667966849292,,9.581447e-06,-2.2053719e-06,-3.5762787e-06,1.0,-2.669543e-05,-2.0295382e-05,2.669543e-05,0.9999999,-5.2154064e-06,2.027303e-05,5.185604e-06,1.0,166,0.503,0,0,0.0,False,-0.2631548101423209,0.6422232135832151
0.5304927749093622,17:42:21.703032,17:41:05.892493,0,,NaN,NaN,NaN,NaN,NaN,NaN,NaN,NaN,NaN,NaN,NaN,NaN,,NaN,NaN,NaN,NaN,NaN,NaN,NaN,NaN,NaN,NaN,NaN,NaN,,0.09794394,1.2937928,0.42507526,0.9825941,0.0075763585,-0.18561105,-0.10500224,-0.801588,-0.588584,-0.15324292,0.59782875,-0.78684014,,NaN,NaN,NaN,NaN,NaN,NaN,NaN,NaN,NaN,NaN,NaN,NaN,,NaN,NaN,NaN,NaN,NaN,NaN,NaN,NaN,NaN,NaN,NaN,NaN,,NaN,NaN,NaN,NaN,NaN,NaN,NaN,,NaN,NaN,NaN,NaN,NaN,NaN,NaN,,-0.11697196646865997,-0.12781700610823973,0.09957687064,-0.11709667966849292,,9.581447e-06,-2.2053719e-06,-3.5762787e-06,1.0,-2.669543e-05,-2.0295382e-05,2.669543e-05,0.9999999,-5.2154064e-06,2.027303e-05,5.185604e-06,1.0,174,0.528,0,0,0.0,False,-0.2630356547052788,0.6416921313746409
0.551139750983566,17:42:21.734616,17:41:05.994554,0,,NaN,NaN,NaN,NaN,NaN,NaN,NaN,NaN,NaN,NaN,NaN,NaN,,NaN,NaN,NaN,NaN,NaN,NaN,NaN,NaN,NaN,NaN,NaN,NaN,,0.09794394,1.2937928,0.42507526,0.9825941,0.0075763585,-0.18561105,-0.10500224,-0.801588,-0.588584,-0.15324292,0.59782875,-0.78684014,,NaN,NaN,NaN,NaN,NaN,NaN,NaN,NaN,NaN,NaN,NaN,NaN,,NaN,NaN,NaN,NaN,NaN,NaN,NaN,NaN,NaN,NaN,NaN,NaN,,NaN,NaN,NaN,NaN,NaN,NaN,NaN,,NaN,NaN,NaN,NaN,NaN,NaN,NaN,,-0.11697196646865997,-0.12781700610823973,0.09957687064,-0.11709667966849292,,9.581447e-06,-2.2053719e-06,-3.5762787e-06,1.0,-2.669543e-05,-2.0295382e-05,2.669543e-05,0.9999999,-5.2154064e-06,2.027303e-05,5.185604e-06,1.0,182,0.552,0,0,0.0,False,-0.26273776611267374,0.64091964816217
0.5827127448283136,17:42:21.753515,17:41:05.994554,0,,NaN,NaN,NaN,NaN,NaN,NaN,NaN,NaN,NaN,NaN,NaN,NaN,,NaN,NaN,NaN,NaN,NaN,NaN,NaN,NaN,NaN,NaN,NaN,NaN,,0.09794394,1.2937928,0.42507526,0.9825941,0.0075763585,-0.18561105,-0.10500224,-0.801588,-0.588584,-0.15324292,0.59782875,-0.78684014,,NaN,NaN,NaN,NaN,NaN,NaN,NaN,NaN,NaN,NaN,NaN,NaN,,NaN,NaN,NaN,NaN,NaN,NaN,NaN,NaN,NaN,NaN,NaN,NaN,,NaN,NaN,NaN,NaN,NaN,NaN,NaN,,NaN,NaN,NaN,NaN,NaN,NaN,NaN,,-0.11697196646865997,-0.12781700610823973,0.09957687064,-0.11709667966849292,,9.581447e-06,-2.2053719e-06,-3.5762787e-06,1.0,-2.669543e-05,-2.0295382e-05,2.669543e-05,0.9999999,-5.2154064e-06,2.027303e-05,5.185604e-06,1.0,190,0.577,0,0,0.0,False,-0.26339312101640555,0.6411127689652876
0.601636319886893,17:42:21.785810,17:41:05.994554,0,,NaN,NaN,NaN,NaN,NaN,NaN,NaN,NaN,NaN,NaN,NaN,NaN,,NaN,NaN,NaN,NaN,NaN,NaN,NaN,NaN,NaN,NaN,NaN,NaN,,0.09794394,1.2937928,0.42507526,0.9825941,0.0075763585,-0.18561105,-0.10500224,-0.801588,-0.588584,-0.15324292,0.59782875,-0.78684014,,NaN,NaN,NaN,NaN,NaN,NaN,NaN,NaN,NaN,NaN,NaN,NaN,,NaN,NaN,NaN,NaN,NaN,NaN,NaN,NaN,NaN,NaN,NaN,NaN,,NaN,NaN,NaN,NaN,NaN,NaN,NaN,,NaN,NaN,NaN,NaN,NaN,NaN,NaN,,-0.11697196646865997,-0.12781700610823973,0.09957687064,-0.11709667966849292,,9.581447e-06,-2.2053719e-06,-3.5762787e-06,1.0,-2.669543e-05,-2.0295382e-05,2.669543e-05,0.9999999,-5.2154064e-06,2.027303e-05,5.185604e-06,1.0,201,0.611,0,0,0.0,False,-0.2623802998015474,0.6416438511738614
0.6339192888699472,17:42:21.812719,17:41:05.994554,0,,NaN,NaN,NaN,NaN,NaN,NaN,NaN,NaN,NaN,NaN,NaN,NaN,,NaN,NaN,NaN,NaN,NaN,NaN,NaN,NaN,NaN,NaN,NaN,NaN,,0.09794394,1.2937928,0.42507526,0.9825941,0.0075763585,-0.18561105,-0.10500224,-0.801588,-0.588584,-0.15324292,0.59782875,-0.78684014,,NaN,NaN,NaN,NaN,NaN,NaN,NaN,NaN,NaN,NaN,NaN,NaN,,NaN,NaN,NaN,NaN,NaN,NaN,NaN,NaN,NaN,NaN,NaN,NaN,,NaN,NaN,NaN,NaN,NaN,NaN,NaN,,NaN,NaN,NaN,NaN,NaN,NaN,NaN,,-0.11697196646865997,-0.12781700610823973,0.09957687064,-0.11709667966849292,,9.581447e-06,-2.2053719e-06,-3.5762787e-06,1.0,-2.669543e-05,-2.0295382e-05,2.669543e-05,0.9999999,-5.2154064e-06,2.027303e-05,5.185604e-06,1.0,213,0.647,0,0,0.0,False,-0.26339312101640555,0.6424163343863332
0.6607478889636695,17:42:21.849948,17:41:05.994554,0,,NaN,NaN,NaN,NaN,NaN,NaN,NaN,NaN,NaN,NaN,NaN,NaN,,NaN,NaN,NaN,NaN,NaN,NaN,NaN,NaN,NaN,NaN,NaN,NaN,,0.09794394,1.2937928,0.42507526,0.9825941,0.0075763585,-0.18561105,-0.10500224,-0.801588,-0.588584,-0.15324292,0.59782875,-0.78684014,,NaN,NaN,NaN,NaN,NaN,NaN,NaN,NaN,NaN,NaN,NaN,NaN,,NaN,NaN,NaN,NaN,NaN,NaN,NaN,NaN,NaN,NaN,NaN,NaN,,NaN,NaN,NaN,NaN,NaN,NaN,NaN,,NaN,NaN,NaN,NaN,NaN,NaN,NaN,,-0.11697196646865997,-0.12781700610823973,0.09957687064,-0.11709667966849292,,9.581447e-06,-2.2053719e-06,-3.5762787e-06,1.0,-2.669543e-05,-2.0295382e-05,2.669543e-05,0.9999999,-5.2154064e-06,2.027303e-05,5.185604e-06,1.0,221,0.671,0,0,0.0,False,-0.2632143878608417,0.6428508561933484
0.6980647558812052,17:42:21.874502,17:41:06.121200,0,,NaN,NaN,NaN,NaN,NaN,NaN,NaN,NaN,NaN,NaN,NaN,NaN,,NaN,NaN,NaN,NaN,NaN,NaN,NaN,NaN,NaN,NaN,NaN,NaN,,0.09794394,1.2937928,0.42507526,0.9825941,0.0075763585,-0.18561105,-0.10500224,-0.801588,-0.588584,-0.15324292,0.59782875,-0.78684014,,NaN,NaN,NaN,NaN,NaN,NaN,NaN,NaN,NaN,NaN,NaN,NaN,,NaN,NaN,NaN,NaN,NaN,NaN,NaN,NaN,NaN,NaN,NaN,NaN,,NaN,NaN,NaN,NaN,NaN,NaN,NaN,,NaN,NaN,NaN,NaN,NaN,NaN,NaN,,-0.11697196646865997,-0.12781700610823973,0.09957687064,-0.11709667966849292,,9.581447e-06,-2.2053719e-06,-3.5762787e-06,1.0,-2.669543e-05,-2.0295382e-05,2.669543e-05,0.9999999,-5.2154064e-06,2.027303e-05,5.185604e-06,1.0,229,0.696,0,0,0.0,False,-0.2626186106756321,0.6447337840237473
0.7226161810103804,17:42:21.903792,17:41:06.121200,0,,NaN,NaN,NaN,NaN,NaN,NaN,NaN,NaN,NaN,NaN,NaN,NaN,,NaN,NaN,NaN,NaN,NaN,NaN,NaN,NaN,NaN,NaN,NaN,NaN,,0.09794394,1.2937928,0.42507526,0.9825941,0.0075763585,-0.18561105,-0.10500224,-0.801588,-0.588584,-0.15324292,0.59782875,-0.78684014,,NaN,NaN,NaN,NaN,NaN,NaN,NaN,NaN,NaN,NaN,NaN,NaN,,NaN,NaN,NaN,NaN,NaN,NaN,NaN,NaN,NaN,NaN,NaN,NaN,,NaN,NaN,NaN,NaN,NaN,NaN,NaN,,NaN,NaN,NaN,NaN,NaN,NaN,NaN,,-0.11697196646865997,-0.12781700610823973,0.09957687064,-0.11709667966849292,,9.581447e-06,-2.2053719e-06,-3.5762787e-06,1.0,-2.669543e-05,-2.0295382e-05,2.669543e-05,0.9999999,-5.2154064e-06,2.027303e-05,5.185604e-06,1.0,237,0.72,0,0,0.0,False,-0.26249945523859,0.6484030792829856
0.7519130979198962,17:42:21.925345,17:41:06.121200,0,,NaN,NaN,NaN,NaN,NaN,NaN,NaN,NaN,NaN,NaN,NaN,NaN,,NaN,NaN,NaN,NaN,NaN,NaN,NaN,NaN,NaN,NaN,NaN,NaN,,0.09794394,1.2937928,0.42507526,0.9825941,0.0075763585,-0.18561105,-0.10500224,-0.801588,-0.588584,-0.15324292,0.59782875,-0.78684014,,NaN,NaN,NaN,NaN,NaN,NaN,NaN,NaN,NaN,NaN,NaN,NaN,,NaN,NaN,NaN,NaN,NaN,NaN,NaN,NaN,NaN,NaN,NaN,NaN,,NaN,NaN,NaN,NaN,NaN,NaN,NaN,,NaN,NaN,NaN,NaN,NaN,NaN,NaN,,-0.11697196646865997,-0.12781700610823973,0.09957687064,-0.11709667966849292,,9.581447e-06,-2.2053719e-06,-3.5762787e-06,1.0,-2.669543e-05,-2.0295382e-05,2.669543e-05,0.9999999,-5.2154064e-06,2.027303e-05,5.185604e-06,1.0,248,0.754,0,0,0.0,False,-0.26351227645344677,0.6511067705266358
0.7734614969231188,17:42:21.954475,17:41:06.121200,0,,NaN,NaN,NaN,NaN,NaN,NaN,NaN,NaN,NaN,NaN,NaN,NaN,,NaN,NaN,NaN,NaN,NaN,NaN,NaN,NaN,NaN,NaN,NaN,NaN,,0.09794394,1.2937928,0.42507526,0.9825941,0.0075763585,-0.18561105,-0.10500224,-0.801588,-0.588584,-0.15324292,0.59782875,-0.78684014,,NaN,NaN,NaN,NaN,NaN,NaN,NaN,NaN,NaN,NaN,NaN,NaN,,NaN,NaN,NaN,NaN,NaN,NaN,NaN,NaN,NaN,NaN,NaN,NaN,,NaN,NaN,NaN,NaN,NaN,NaN,NaN,,NaN,NaN,NaN,NaN,NaN,NaN,NaN,,-0.11697196646865997,-0.12781700610823973,0.09957687064,-0.11709667966849292,,9.581447e-06,-2.2053719e-06,-3.5762787e-06,1.0,-2.669543e-05,-2.0295382e-05,2.669543e-05,0.9999999,-5.2154064e-06,2.027303e-05,5.185604e-06,1.0,260,0.79,0,0,0.0,False,-0.2629164992682367,0.6593144046591433
0.8025955308694392,17:42:21.991769,17:41:06.240718,0,,NaN,NaN,NaN,NaN,NaN,NaN,NaN,NaN,NaN,NaN,NaN,NaN,,NaN,NaN,NaN,NaN,NaN,NaN,NaN,NaN,NaN,NaN,NaN,NaN,,0.09794394,1.2937928,0.42507526,0.9825941,0.0075763585,-0.18561105,-0.10500224,-0.801588,-0.588584,-0.15324292,0.59782875,-0.78684014,,NaN,NaN,NaN,NaN,NaN,NaN,NaN,NaN,NaN,NaN,NaN,NaN,,NaN,NaN,NaN,NaN,NaN,NaN,NaN,NaN,NaN,NaN,NaN,NaN,,NaN,NaN,NaN,NaN,NaN,NaN,NaN,,NaN,NaN,NaN,NaN,NaN,NaN,NaN,,-0.11697196646865997,-0.12781700610823973,0.09957687064,-0.11709667966849292,,9.581447e-06,-2.2053719e-06,-3.5762787e-06,1.0,-2.669543e-05,-2.0295382e-05,2.669543e-05,0.9999999,-5.2154064e-06,2.027303e-05,5.185604e-06,1.0,268,0.815,0,0,0.0,False,-0.2634526987349264,0.6667495555791803
0.8398730729240924,17:42:22.007750,17:41:06.240718,0,,NaN,NaN,NaN,NaN,NaN,NaN,NaN,NaN,NaN,NaN,NaN,NaN,,NaN,NaN,NaN,NaN,NaN,NaN,NaN,NaN,NaN,NaN,NaN,NaN,,0.09794394,1.2937928,0.42507526,0.9825941,0.0075763585,-0.18561105,-0.10500224,-0.801588,-0.588584,-0.15324292,0.59782875,-0.78684014,,NaN,NaN,NaN,NaN,NaN,NaN,NaN,NaN,NaN,NaN,NaN,NaN,,NaN,NaN,NaN,NaN,NaN,NaN,NaN,NaN,NaN,NaN,NaN,NaN,,NaN,NaN,NaN,NaN,NaN,NaN,NaN,,NaN,NaN,NaN,NaN,NaN,NaN,NaN,,-0.11697196646865997,-0.12781700610823973,0.09957687064,-0.11709667966849292,,9.581447e-06,-2.2053719e-06,-3.5762787e-06,1.0,-2.669543e-05,-2.0295382e-05,2.669543e-05,0.9999999,-5.2154064e-06,2.027303e-05,5.185604e-06,1.0,272,0.827,0,0,0.0,False,-0.26309523242380006,0.6662667535713855
0.8558718978893012,17:42:22.031727,17:41:06.240718,0,,NaN,NaN,NaN,NaN,NaN,NaN,NaN,NaN,NaN,NaN,NaN,NaN,,NaN,NaN,NaN,NaN,NaN,NaN,NaN,NaN,NaN,NaN,NaN,NaN,,0.09794394,1.2937928,0.42507526,0.9825941,0.0075763585,-0.18561105,-0.10500224,-0.801588,-0.588584,-0.15324292,0.59782875,-0.78684014,,NaN,NaN,NaN,NaN,NaN,NaN,NaN,NaN,NaN,NaN,NaN,NaN,,NaN,NaN,NaN,NaN,NaN,NaN,NaN,NaN,NaN,NaN,NaN,NaN,,NaN,NaN,NaN,NaN,NaN,NaN,NaN,,NaN,NaN,NaN,NaN,NaN,NaN,NaN,,-0.11697196646865997,-0.12781700610823973,0.09957687064,-0.11709667966849292,,9.581447e-06,-2.2053719e-06,-3.5762787e-06,1.0,-2.669543e-05,-2.0295382e-05,2.669543e-05,0.9999999,-5.2154064e-06,2.027303e-05,5.185604e-06,1.0,280,0.851,0,0,0.0,False,-0.26309523242380006,0.6644321059417662
0.8783942298032343,17:42:22.056771,17:41:06.240718,0,,NaN,NaN,NaN,NaN,NaN,NaN,NaN,NaN,NaN,NaN,NaN,NaN,,NaN,NaN,NaN,NaN,NaN,NaN,NaN,NaN,NaN,NaN,NaN,NaN,,0.09794394,1.2937928,0.42507526,0.9825941,0.0075763585,-0.18561105,-0.10500224,-0.801588,-0.588584,-0.15324292,0.59782875,-0.78684014,,NaN,NaN,NaN,NaN,NaN,NaN,NaN,NaN,NaN,NaN,NaN,NaN,,NaN,NaN,NaN,NaN,NaN,NaN,NaN,NaN,NaN,NaN,NaN,NaN,,NaN,NaN,NaN,NaN,NaN,NaN,NaN,,NaN,NaN,NaN,NaN,NaN,NaN,NaN,,-0.11697196646865997,-0.12781700610823973,0.09957687064,-0.11709667966849292,,9.581447e-06,-2.2053719e-06,-3.5762787e-06,1.0,-2.669543e-05,-2.0295382e-05,2.669543e-05,0.9999999,-5.2154064e-06,2.027303e-05,5.185604e-06,1.0,295,0.896,0,0,0.0,False,-0.2631548101423209,0.6616801344973369
0.904886137926951,17:42:22.098759,17:41:06.240718,0,,NaN,NaN,NaN,NaN,NaN,NaN,NaN,NaN,NaN,NaN,NaN,NaN,,NaN,NaN,NaN,NaN,NaN,NaN,NaN,NaN,NaN,NaN,NaN,NaN,,0.09794394,1.2937928,0.42507526,0.9825941,0.0075763585,-0.18561105,-0.10500224,-0.801588,-0.588584,-0.15324292,0.59782875,-0.78684014,,NaN,NaN,NaN,NaN,NaN,NaN,NaN,NaN,NaN,NaN,NaN,NaN,,NaN,NaN,NaN,NaN,NaN,NaN,NaN,NaN,NaN,NaN,NaN,NaN,,NaN,NaN,NaN,NaN,NaN,NaN,NaN,,NaN,NaN,NaN,NaN,NaN,NaN,NaN,,-0.11697196646865997,-0.12781700610823973,0.09957687064,-0.11709667966849292,,9.581447e-06,-2.2053719e-06,-3.5762787e-06,1.0,-2.669543e-05,-2.0295382e-05,2.669543e-05,0.9999999,-5.2154064e-06,2.027303e-05,5.185604e-06,1.0,303,0.921,0,0,0.0,False,-0.2632143878608417,0.6597006462653789
0.9468768879305571,17:42:22.127960,17:41:06.364136,0,,NaN,NaN,NaN,NaN,NaN,NaN,NaN,NaN,NaN,NaN,NaN,NaN,,NaN,NaN,NaN,NaN,NaN,NaN,NaN,NaN,NaN,NaN,NaN,NaN,,0.09794394,1.2937928,0.42507526,0.9825941,0.0075763585,-0.18561105,-0.10500224,-0.801588,-0.588584,-0.15324292,0.59782875,-0.78684014,,NaN,NaN,NaN,NaN,NaN,NaN,NaN,NaN,NaN,NaN,NaN,NaN,,NaN,NaN,NaN,NaN,NaN,NaN,NaN,NaN,NaN,NaN,NaN,NaN,,NaN,NaN,NaN,NaN,NaN,NaN,NaN,,NaN,NaN,NaN,NaN,NaN,NaN,NaN,,-0.11697196646865997,-0.12781700610823973,0.09957687064,-0.11709667966849292,,9.581447e-06,-2.2053719e-06,-3.5762787e-06,1.0,-2.669543e-05,-2.0295382e-05,2.669543e-05,0.9999999,-5.2154064e-06,2.027303e-05,5.185604e-06,1.0,311,0.946,0,0,0.0,False,-0.2637505873275314,0.6582039600412157
0.9760629970114678,17:42:22.147958,17:41:06.364136,0,,NaN,NaN,NaN,NaN,NaN,NaN,NaN,NaN,NaN,NaN,NaN,NaN,,NaN,NaN,NaN,NaN,NaN,NaN,NaN,NaN,NaN,NaN,NaN,NaN,,0.09794394,1.2937928,0.42507526,0.9825941,0.0075763585,-0.18561105,-0.10500224,-0.801588,-0.588584,-0.15324292,0.59782875,-0.78684014,,NaN,NaN,NaN,NaN,NaN,NaN,NaN,NaN,NaN,NaN,NaN,NaN,,NaN,NaN,NaN,NaN,NaN,NaN,NaN,NaN,NaN,NaN,NaN,NaN,,NaN,NaN,NaN,NaN,NaN,NaN,NaN,,NaN,NaN,NaN,NaN,NaN,NaN,NaN,,-0.11697196646865997,-0.12781700610823973,0.09957687064,-0.11709667966849292,,9.581447e-06,-2.2053719e-06,-3.5762787e-06,1.0,-2.669543e-05,-2.0295382e-05,2.669543e-05,0.9999999,-5.2154064e-06,2.027303e-05,5.185604e-06,1.0,319,0.97,0,0,0.0,False,-0.26309523242380006,0.6583488006435543
0.9960703398101032,17:42:22.170881,17:41:06.364136,0,,NaN,NaN,NaN,NaN,NaN,NaN,NaN,NaN,NaN,NaN,NaN,NaN,,NaN,NaN,NaN,NaN,NaN,NaN,NaN,NaN,NaN,NaN,NaN,NaN,,0.09794394,1.2937928,0.42507526,0.9825941,0.0075763585,-0.18561105,-0.10500224,-0.801588,-0.588584,-0.15324292,0.59782875,-0.78684014,,NaN,NaN,NaN,NaN,NaN,NaN,NaN,NaN,NaN,NaN,NaN,NaN,,NaN,NaN,NaN,NaN,NaN,NaN,NaN,NaN,NaN,NaN,NaN,NaN,,NaN,NaN,NaN,NaN,NaN,NaN,NaN,,NaN,NaN,NaN,NaN,NaN,NaN,NaN,,-0.11697196646865997,-0.12781700610823973,0.09957687064,-0.11709667966849292,,9.581447e-06,-2.2053719e-06,-3.5762787e-06,1.0,-2.669543e-05,-2.0295382e-05,2.669543e-05,0.9999999,-5.2154064e-06,2.027303e-05,5.185604e-06,1.0,331,1.007,0,0,0.0,False,-0.26297607698675796,0.6565624332147144
1.0189995057880878,17:42:22.209863,17:41:06.364136,0,,NaN,NaN,NaN,NaN,NaN,NaN,NaN,NaN,NaN,NaN,NaN,NaN,,NaN,NaN,NaN,NaN,NaN,NaN,NaN,NaN,NaN,NaN,NaN,NaN,,0.09794394,1.2937928,0.42507526,0.9825941,0.0075763585,-0.18561105,-0.10500224,-0.801588,-0.588584,-0.15324292,0.59782875,-0.78684014,,NaN,NaN,NaN,NaN,NaN,NaN,NaN,NaN,NaN,NaN,NaN,NaN,,NaN,NaN,NaN,NaN,NaN,NaN,NaN,NaN,NaN,NaN,NaN,NaN,,NaN,NaN,NaN,NaN,NaN,NaN,NaN,,NaN,NaN,NaN,NaN,NaN,NaN,NaN,,-0.11697196646865997,-0.12781700610823973,0.09957687064,-0.11709667966849292,,9.581447e-06,-2.2053719e-06,-3.5762787e-06,1.0,-2.669543e-05,-2.0295382e-05,2.669543e-05,0.9999999,-5.2154064e-06,2.027303e-05,5.185604e-06,1.0,339,1.032,0,0,0.0,False,-0.26273776611267374,0.6534242201640494
1.0579299789387733,17:42:22.237901,17:41:06.497057,0,,NaN,NaN,NaN,NaN,NaN,NaN,NaN,NaN,NaN,NaN,NaN,NaN,,NaN,NaN,NaN,NaN,NaN,NaN,NaN,NaN,NaN,NaN,NaN,NaN,,0.09794394,1.2937928,0.42507526,0.9825941,0.0075763585,-0.18561105,-0.10500224,-0.801588,-0.588584,-0.15324292,0.59782875,-0.78684014,,NaN,NaN,NaN,NaN,NaN,NaN,NaN,NaN,NaN,NaN,NaN,NaN,,NaN,NaN,NaN,NaN,NaN,NaN,NaN,NaN,NaN,NaN,NaN,NaN,,NaN,NaN,NaN,NaN,NaN,NaN,NaN,,NaN,NaN,NaN,NaN,NaN,NaN,NaN,,-0.11697196646865997,-0.12781700610823973,0.09957687064,-0.11709667966849292,,9.581447e-06,-2.2053719e-06,-3.5762787e-06,1.0,-2.669543e-05,-2.0295382e-05,2.669543e-05,0.9999999,-5.2154064e-06,2.027303e-05,5.185604e-06,1.0,347,1.056,0,0,0.0,False,-0.26297607698675796,0.6537621815695056
1.0860200498718768,17:42:22.258233,17:41:06.497057,0,,NaN,NaN,NaN,NaN,NaN,NaN,NaN,NaN,NaN,NaN,NaN,NaN,,NaN,NaN,NaN,NaN,NaN,NaN,NaN,NaN,NaN,NaN,NaN,NaN,,0.09794394,1.2937928,0.42507526,0.9825941,0.0075763585,-0.18561105,-0.10500224,-0.801588,-0.588584,-0.15324292,0.59782875,-0.78684014,,NaN,NaN,NaN,NaN,NaN,NaN,NaN,NaN,NaN,NaN,NaN,NaN,,NaN,NaN,NaN,NaN,NaN,NaN,NaN,NaN,NaN,NaN,NaN,NaN,,NaN,NaN,NaN,NaN,NaN,NaN,NaN,,NaN,NaN,NaN,NaN,NaN,NaN,NaN,,-0.11697196646865997,-0.12781700610823973,0.09957687064,-0.11709667966849292,,9.581447e-06,-2.2053719e-06,-3.5762787e-06,1.0,-2.669543e-05,-2.0295382e-05,2.669543e-05,0.9999999,-5.2154064e-06,2.027303e-05,5.185604e-06,1.0,355,1.081,0,0,0.0,False,-0.26309523242380006,0.6544381043804179
1.1063523248303682,17:42:22.289058,17:41:06.497057,0,,NaN,NaN,NaN,NaN,NaN,NaN,NaN,NaN,NaN,NaN,NaN,NaN,,NaN,NaN,NaN,NaN,NaN,NaN,NaN,NaN,NaN,NaN,NaN,NaN,,0.09794394,1.2937928,0.42507526,0.9825941,0.0075763585,-0.18561105,-0.10500224,-0.801588,-0.588584,-0.15324292,0.59782875,-0.78684014,,NaN,NaN,NaN,NaN,NaN,NaN,NaN,NaN,NaN,NaN,NaN,NaN,,NaN,NaN,NaN,NaN,NaN,NaN,NaN,NaN,NaN,NaN,NaN,NaN,,NaN,NaN,NaN,NaN,NaN,NaN,NaN,,NaN,NaN,NaN,NaN,NaN,NaN,NaN,,-0.11697196646865997,-0.12781700610823973,0.09957687064,-0.11709667966849292,,9.581447e-06,-2.2053719e-06,-3.5762787e-06,1.0,-2.669543e-05,-2.0295382e-05,2.669543e-05,0.9999999,-5.2154064e-06,2.027303e-05,5.185604e-06,1.0,363,1.105,0,0,0.0,False,-0.2630356547052788,0.6570452352225091
1.1371747758239508,17:42:22.313412,17:41:06.497057,0,,NaN,NaN,NaN,NaN,NaN,NaN,NaN,NaN,NaN,NaN,NaN,NaN,,NaN,NaN,NaN,NaN,NaN,NaN,NaN,NaN,NaN,NaN,NaN,NaN,,0.09793655,1.2937907,0.42507538,0.9825962,0.007592507,-0.1855992,-0.10498244,-0.8015879,-0.58858776,-0.15324292,0.59782875,-0.78684014,,NaN,NaN,NaN,NaN,NaN,NaN,NaN,NaN,NaN,NaN,NaN,NaN,,NaN,NaN,NaN,NaN,NaN,NaN,NaN,NaN,NaN,NaN,NaN,NaN,,NaN,NaN,NaN,NaN,NaN,NaN,NaN,,NaN,NaN,NaN,NaN,NaN,NaN,NaN,,-0.11697196646865997,-0.12781700610823973,0.09957687064,-0.11709667966849292,,2.5182962e-06,-4.7683716e-07,-1.0728836e-06,1.0,-1.0833144e-05,-8.240342e-06,1.0840595e-05,1.0,-2.115965e-06,8.232892e-06,2.115965e-06,1.0,400,1.22,0,0,0.0,False,-0.2631548101423209,0.6568038342186115
1.1614470079075545,17:42:22.414233,17:41:06.634419,0,,NaN,NaN,NaN,NaN,NaN,NaN,NaN,NaN,NaN,NaN,NaN,NaN,,NaN,NaN,NaN,NaN,NaN,NaN,NaN,NaN,NaN,NaN,NaN,NaN,,0.09793655,1.2937907,0.42507538,0.9825962,0.007592507,-0.1855992,-0.10498244,-0.8015879,-0.58858776,-0.15324292,0.59782875,-0.78684014,,NaN,NaN,NaN,NaN,NaN,NaN,NaN,NaN,NaN,NaN,NaN,NaN,,NaN,NaN,NaN,NaN,NaN,NaN,NaN,NaN,NaN,NaN,NaN,NaN,,NaN,NaN,NaN,NaN,NaN,NaN,NaN,,NaN,NaN,NaN,NaN,NaN,NaN,NaN,,-0.11697196646865997,-0.12781700610823973,0.09957687064,-0.11709667966849292,,2.5182962e-06,-4.7683716e-07,-1.0728836e-06,1.0,-1.0833144e-05,-8.240342e-06,1.0840595e-05,1.0,-2.115965e-06,8.232892e-06,2.115965e-06,1.0,408,1.245,0,0,0.0,False,-0.2630356547052788,0.6657356713628118
1.262353436788544,17:42:22.447758,17:41:06.634419,0,,NaN,NaN,NaN,NaN,NaN,NaN,NaN,NaN,NaN,NaN,NaN,NaN,,NaN,NaN,NaN,NaN,NaN,NaN,NaN,NaN,NaN,NaN,NaN,NaN,,0.09793655,1.2937907,0.42507538,0.9825962,0.007592507,-0.1855992,-0.10498244,-0.8015879,-0.58858776,-0.15324292,0.59782875,-0.78684014,,NaN,NaN,NaN,NaN,NaN,NaN,NaN,NaN,NaN,NaN,NaN,NaN,,NaN,NaN,NaN,NaN,NaN,NaN,NaN,NaN,NaN,NaN,NaN,NaN,,NaN,NaN,NaN,NaN,NaN,NaN,NaN,,NaN,NaN,NaN,NaN,NaN,NaN,NaN,,-0.11697196646865997,-0.12781700610823973,0.09957687064,-0.11709667966849292,,2.5182962e-06,-4.7683716e-07,-1.0728836e-06,1.0,-1.0833144e-05,-8.240342e-06,1.0840595e-05,1.0,-2.115965e-06,8.232892e-06,2.115965e-06,1.0,416,1.269,0,0,0.0,False,-0.26249945523859,0.6707085320430957
1.2958735818974674,17:42:22.472128,17:41:06.634419,0,,NaN,NaN,NaN,NaN,NaN,NaN,NaN,NaN,NaN,NaN,NaN,NaN,,NaN,NaN,NaN,NaN,NaN,NaN,NaN,NaN,NaN,NaN,NaN,NaN,,0.09793655,1.2937907,0.42507538,0.9825962,0.007592507,-0.1855992,-0.10498244,-0.8015879,-0.58858776,-0.15324292,0.59782875,-0.78684014,,NaN,NaN,NaN,NaN,NaN,NaN,NaN,NaN,NaN,NaN,NaN,NaN,,NaN,NaN,NaN,NaN,NaN,NaN,NaN,NaN,NaN,NaN,NaN,NaN,,NaN,NaN,NaN,NaN,NaN,NaN,NaN,,NaN,NaN,NaN,NaN,NaN,NaN,NaN,,-0.11697196646865997,-0.12781700610823973,0.09957687064,-0.11709667966849292,,2.5182962e-06,-4.7683716e-07,-1.0728836e-06,1.0,-1.0833144e-05,-8.240342e-06,1.0840595e-05,1.0,-2.115965e-06,8.232892e-06,2.115965e-06,1.0,424,1.294,0,0,0.0,False,-0.2632143878608417,0.6720603776649208
1.320248627802357,17:42:22.498808,17:41:06.634419,0,,NaN,NaN,NaN,NaN,NaN,NaN,NaN,NaN,NaN,NaN,NaN,NaN,,NaN,NaN,NaN,NaN,NaN,NaN,NaN,NaN,NaN,NaN,NaN,NaN,,0.09793655,1.2937907,0.42507538,0.9825962,0.007592507,-0.1855992,-0.10498244,-0.8015879,-0.58858776,-0.15324292,0.59782875,-0.78684014,,NaN,NaN,NaN,NaN,NaN,NaN,NaN,NaN,NaN,NaN,NaN,NaN,,NaN,NaN,NaN,NaN,NaN,NaN,NaN,NaN,NaN,NaN,NaN,NaN,,NaN,NaN,NaN,NaN,NaN,NaN,NaN,,NaN,NaN,NaN,NaN,NaN,NaN,NaN,,-0.11697196646865997,-0.12781700610823973,0.09957687064,-0.11709667966849292,,2.5182962e-06,-4.7683716e-07,-1.0728836e-06,1.0,-1.0833144e-05,-8.240342e-06,1.0840595e-05,1.0,-2.115965e-06,8.232892e-06,2.115965e-06,1.0,432,1.318,0,0,0.0,False,-0.26309523242380006,0.6716741360586851
1.3469231349881738,17:42:22.525185,17:41:06.781142,0,,NaN,NaN,NaN,NaN,NaN,NaN,NaN,NaN,NaN,NaN,NaN,NaN,,NaN,NaN,NaN,NaN,NaN,NaN,NaN,NaN,NaN,NaN,NaN,NaN,,0.09793655,1.2937907,0.42507538,0.9825962,0.007592507,-0.1855992,-0.10498244,-0.8015879,-0.58858776,-0.15324292,0.59782875,-0.78684014,,NaN,NaN,NaN,NaN,NaN,NaN,NaN,NaN,NaN,NaN,NaN,NaN,,NaN,NaN,NaN,NaN,NaN,NaN,NaN,NaN,NaN,NaN,NaN,NaN,,NaN,NaN,NaN,NaN,NaN,NaN,NaN,,NaN,NaN,NaN,NaN,NaN,NaN,NaN,,-0.11697196646865997,-0.12781700610823973,0.09957687064,-0.11709667966849292,,2.5182962e-06,-4.7683716e-07,-1.0728836e-06,1.0,-1.0833144e-05,-8.240342e-06,1.0840595e-05,1.0,-2.115965e-06,8.232892e-06,2.115965e-06,1.0,444,1.355,0,0,0.0,False,-0.2626781883941529,0.6726397400742741
1.373300690902397,17:42:22.551920,17:41:06.781142,0,,NaN,NaN,NaN,NaN,NaN,NaN,NaN,NaN,NaN,NaN,NaN,NaN,,NaN,NaN,NaN,NaN,NaN,NaN,NaN,NaN,NaN,NaN,NaN,NaN,,0.09793655,1.2937907,0.42507538,0.9825962,0.007592507,-0.1855992,-0.10498244,-0.8015879,-0.58858776,-0.15324292,0.59782875,-0.78684014,,NaN,NaN,NaN,NaN,NaN,NaN,NaN,NaN,NaN,NaN,NaN,NaN,,NaN,NaN,NaN,NaN,NaN,NaN,NaN,NaN,NaN,NaN,NaN,NaN,,NaN,NaN,NaN,NaN,NaN,NaN,NaN,,NaN,NaN,NaN,NaN,NaN,NaN,NaN,,-0.11697196646865997,-0.12781700610823973,0.09957687064,-0.11709667966849292,,2.5182962e-06,-4.7683716e-07,-1.0728836e-06,1.0,-1.0833144e-05,-8.240342e-06,1.0840595e-05,1.0,-2.115965e-06,8.232892e-06,2.115965e-06,1.0,473,1.445,0,0,0.0,False,-0.26273776611267374,0.6742812669007754
1.4000252389814705,17:42:22.644070,17:41:06.781142,0,,NaN,NaN,NaN,NaN,NaN,NaN,NaN,NaN,NaN,NaN,NaN,NaN,,NaN,NaN,NaN,NaN,NaN,NaN,NaN,NaN,NaN,NaN,NaN,NaN,,0.09793655,1.2937907,0.42507538,0.9825962,0.007592507,-0.1855992,-0.10498244,-0.8015879,-0.58858776,-0.15324292,0.59782875,-0.78684014,,NaN,NaN,NaN,NaN,NaN,NaN,NaN,NaN,NaN,NaN,NaN,NaN,,NaN,NaN,NaN,NaN,NaN,NaN,NaN,NaN,NaN,NaN,NaN,NaN,,NaN,NaN,NaN,NaN,NaN,NaN,NaN,,NaN,NaN,NaN,NaN,NaN,NaN,NaN,,-0.11697196646865997,-0.12781700610823973,0.09957687064,-0.11709667966849292,,2.5182962e-06,-4.7683716e-07,-1.0728836e-06,1.0,-1.0833144e-05,-8.240342e-06,1.0840595e-05,1.0,-2.115965e-06,8.232892e-06,2.115965e-06,1.0,481,1.47,0,0,0.0,False,-0.26202283349042155,0.6807990940060025
1.4921874958090484,17:42:22.672313,17:41:06.920307,0,,NaN,NaN,NaN,NaN,NaN,NaN,NaN,NaN,NaN,NaN,NaN,NaN,,NaN,NaN,NaN,NaN,NaN,NaN,NaN,NaN,NaN,NaN,NaN,NaN,,0.09793655,1.2937907,0.42507538,0.9825962,0.007592507,-0.1855992,-0.10498244,-0.8015879,-0.58858776,-0.15324292,0.59782875,-0.78684014,,NaN,NaN,NaN,NaN,NaN,NaN,NaN,NaN,NaN,NaN,NaN,NaN,,NaN,NaN,NaN,NaN,NaN,NaN,NaN,NaN,NaN,NaN,NaN,NaN,,NaN,NaN,NaN,NaN,NaN,NaN,NaN,,NaN,NaN,NaN,NaN,NaN,NaN,NaN,,-0.11697196646865997,-0.12781700610823973,0.09957687064,-0.11709667966849292,,2.5182962e-06,-4.7683716e-07,-1.0728836e-06,1.0,-1.0833144e-05,-8.240342e-06,1.0840595e-05,1.0,-2.115965e-06,8.232892e-06,2.115965e-06,1.0,489,1.494,0,0,0.0,False,-0.2621419889274632,0.6811370554114586
1.5204347840044647,17:42:22.700411,17:41:06.920307,0,,NaN,NaN,NaN,NaN,NaN,NaN,NaN,NaN,NaN,NaN,NaN,NaN,,NaN,NaN,NaN,NaN,NaN,NaN,NaN,NaN,NaN,NaN,NaN,NaN,,0.09793655,1.2937907,0.42507538,0.9825962,0.007592507,-0.1855992,-0.10498244,-0.8015879,-0.58858776,-0.15324292,0.59782875,-0.78684014,,NaN,NaN,NaN,NaN,NaN,NaN,NaN,NaN,NaN,NaN,NaN,NaN,,NaN,NaN,NaN,NaN,NaN,NaN,NaN,NaN,NaN,NaN,NaN,NaN,,NaN,NaN,NaN,NaN,NaN,NaN,NaN,,NaN,NaN,NaN,NaN,NaN,NaN,NaN,,-0.11697196646865997,-0.12781700610823973,0.09957687064,-0.11709667966849292,,2.5182962e-06,-4.7683716e-07,-1.0728836e-06,1.0,-1.0833144e-05,-8.240342e-06,1.0840595e-05,1.0,-2.115965e-06,8.232892e-06,2.115965e-06,1.0,497,1.519,0,0,0.0,False,-0.26422720907569985,0.6801231711950901
1.5484952449332923,17:42:22.723496,17:41:06.920307,0,,NaN,NaN,NaN,NaN,NaN,NaN,NaN,NaN,NaN,NaN,NaN,NaN,,NaN,NaN,NaN,NaN,NaN,NaN,NaN,NaN,NaN,NaN,NaN,NaN,,0.09793655,1.2937907,0.42507538,0.9825962,0.007592507,-0.1855992,-0.10498244,-0.8015879,-0.58858776,-0.15324292,0.59782875,-0.78684014,,NaN,NaN,NaN,NaN,NaN,NaN,NaN,NaN,NaN,NaN,NaN,NaN,,NaN,NaN,NaN,NaN,NaN,NaN,NaN,NaN,NaN,NaN,NaN,NaN,,NaN,NaN,NaN,NaN,NaN,NaN,NaN,,NaN,NaN,NaN,NaN,NaN,NaN,NaN,,-0.11697196646865997,-0.12781700610823973,0.09957687064,-0.11709667966849292,,2.5182962e-06,-4.7683716e-07,-1.0728836e-06,1.0,-1.0833144e-05,-8.240342e-06,1.0840595e-05,1.0,-2.115965e-06,8.232892e-06,2.115965e-06,1.0,505,1.544,0,0,0.0,False,-0.2626186106756321,0.6789161661756036
1.5716154468245804,17:42:22.750354,17:41:07.017663,0,,NaN,NaN,NaN,NaN,NaN,NaN,NaN,NaN,NaN,NaN,NaN,NaN,,NaN,NaN,NaN,NaN,NaN,NaN,NaN,NaN,NaN,NaN,NaN,NaN,,0.09793655,1.2937907,0.42507538,0.9825962,0.007592507,-0.1855992,-0.10498244,-0.8015879,-0.58858776,-0.15324292,0.59782875,-0.78684014,,NaN,NaN,NaN,NaN,NaN,NaN,NaN,NaN,NaN,NaN,NaN,NaN,,NaN,NaN,NaN,NaN,NaN,NaN,NaN,NaN,NaN,NaN,NaN,NaN,,NaN,NaN,NaN,NaN,NaN,NaN,NaN,,NaN,NaN,NaN,NaN,NaN,NaN,NaN,,-0.11697196646865997,-0.12781700610823973,0.09957687064,-0.11709667966849292,,2.5182962e-06,-4.7683716e-07,-1.0728836e-06,1.0,-1.0833144e-05,-8.240342e-06,1.0840595e-05,1.0,-2.115965e-06,8.232892e-06,2.115965e-06,1.0,517,1.58,0,0,0.0,False,-0.26243987752006825,0.6750054699124677
1.5984510008711368,17:42:22.780254,17:41:07.017663,0,,NaN,NaN,NaN,NaN,NaN,NaN,NaN,NaN,NaN,NaN,NaN,NaN,,NaN,NaN,NaN,NaN,NaN,NaN,NaN,NaN,NaN,NaN,NaN,NaN,,0.09793655,1.2937907,0.42507538,0.9825962,0.007592507,-0.1855992,-0.10498244,-0.8015879,-0.58858776,-0.15324292,0.59782875,-0.78684014,,NaN,NaN,NaN,NaN,NaN,NaN,NaN,NaN,NaN,NaN,NaN,NaN,,NaN,NaN,NaN,NaN,NaN,NaN,NaN,NaN,NaN,NaN,NaN,NaN,,NaN,NaN,NaN,NaN,NaN,NaN,NaN,,NaN,NaN,NaN,NaN,NaN,NaN,NaN,,-0.11697196646865997,-0.12781700610823973,0.09957687064,-0.11709667966849292,,2.5182962e-06,-4.7683716e-07,-1.0728836e-06,1.0,-1.0833144e-05,-8.240342e-06,1.0840595e-05,1.0,-2.115965e-06,8.232892e-06,2.115965e-06,1.0,546,1.671,0,0,0.0,False,-0.26333354329788383,0.6737019044914221
1.6283556770067662,17:42:22.868678,17:41:07.017663,0,,NaN,NaN,NaN,NaN,NaN,NaN,NaN,NaN,NaN,NaN,NaN,NaN,,NaN,NaN,NaN,NaN,NaN,NaN,NaN,NaN,NaN,NaN,NaN,NaN,,0.09793655,1.2937907,0.42507538,0.9825962,0.007592507,-0.1855992,-0.10498244,-0.8015879,-0.58858776,-0.15324292,0.59782875,-0.78684014,,NaN,NaN,NaN,NaN,NaN,NaN,NaN,NaN,NaN,NaN,NaN,NaN,,NaN,NaN,NaN,NaN,NaN,NaN,NaN,NaN,NaN,NaN,NaN,NaN,,NaN,NaN,NaN,NaN,NaN,NaN,NaN,,NaN,NaN,NaN,NaN,NaN,NaN,NaN,,-0.11697196646865997,-0.12781700610823973,0.09957687064,-0.11709667966849292,,2.5182962e-06,-4.7683716e-07,-1.0728836e-06,1.0,-1.0833144e-05,-8.240342e-06,1.0840595e-05,1.0,-2.115965e-06,8.232892e-06,2.115965e-06,1.0,554,1.695,0,0,0.0,False,-0.26285692154971585,0.6731225420820688
1.7167950558941811,17:42:22.902693,17:41:07.154491,0,,NaN,NaN,NaN,NaN,NaN,NaN,NaN,NaN,NaN,NaN,NaN,NaN,,NaN,NaN,NaN,NaN,NaN,NaN,NaN,NaN,NaN,NaN,NaN,NaN,,0.09793655,1.2937907,0.42507538,0.9825962,0.007592507,-0.1855992,-0.10498244,-0.8015879,-0.58858776,-0.15324292,0.59782875,-0.78684014,,NaN,NaN,NaN,NaN,NaN,NaN,NaN,NaN,NaN,NaN,NaN,NaN,,NaN,NaN,NaN,NaN,NaN,NaN,NaN,NaN,NaN,NaN,NaN,NaN,,NaN,NaN,NaN,NaN,NaN,NaN,NaN,,NaN,NaN,NaN,NaN,NaN,NaN,NaN,,-0.11697196646865997,-0.12781700610823973,0.09957687064,-0.11709667966849292,,2.5182962e-06,-4.7683716e-07,-1.0728836e-06,1.0,-1.0833144e-05,-8.240342e-06,1.0840595e-05,1.0,-2.115965e-06,8.232892e-06,2.115965e-06,1.0,562,1.72,0,0,0.0,False,-0.262797343831195,0.6734122232867454
1.7508138939738274,17:42:22.921918,17:41:07.154491,0,,NaN,NaN,NaN,NaN,NaN,NaN,NaN,NaN,NaN,NaN,NaN,NaN,,NaN,NaN,NaN,NaN,NaN,NaN,NaN,NaN,NaN,NaN,NaN,NaN,,0.09793655,1.2937907,0.42507538,0.9825962,0.007592507,-0.1855992,-0.10498244,-0.8015879,-0.58858776,-0.15324292,0.59782875,-0.78684014,,NaN,NaN,NaN,NaN,NaN,NaN,NaN,NaN,NaN,NaN,NaN,NaN,,NaN,NaN,NaN,NaN,NaN,NaN,NaN,NaN,NaN,NaN,NaN,NaN,,NaN,NaN,NaN,NaN,NaN,NaN,NaN,,NaN,NaN,NaN,NaN,NaN,NaN,NaN,,-0.11697196646865997,-0.12781700610823973,0.09957687064,-0.11709667966849292,,2.5182962e-06,-4.7683716e-07,-1.0728836e-06,1.0,-1.0833144e-05,-8.240342e-06,1.0840595e-05,1.0,-2.115965e-06,8.232892e-06,2.115965e-06,1.0,574,1.757,0,0,0.0,False,-0.26381016504605226,0.6731225420820688
1.7700392978731543,17:42:22.950588,17:41:07.154491,0,,NaN,NaN,NaN,NaN,NaN,NaN,NaN,NaN,NaN,NaN,NaN,NaN,,NaN,NaN,NaN,NaN,NaN,NaN,NaN,NaN,NaN,NaN,NaN,NaN,,0.09793655,1.2937907,0.42507538,0.9825962,0.007592507,-0.1855992,-0.10498244,-0.8015879,-0.58858776,-0.15324292,0.59782875,-0.78684014,,NaN,NaN,NaN,NaN,NaN,NaN,NaN,NaN,NaN,NaN,NaN,NaN,,NaN,NaN,NaN,NaN,NaN,NaN,NaN,NaN,NaN,NaN,NaN,NaN,,NaN,NaN,NaN,NaN,NaN,NaN,NaN,,NaN,NaN,NaN,NaN,NaN,NaN,NaN,,-0.11697196646865997,-0.12781700610823973,0.09957687064,-0.11709667966849292,,2.5182962e-06,-4.7683716e-07,-1.0728836e-06,1.0,-1.0833144e-05,-8.240342e-06,1.0840595e-05,1.0,-2.115965e-06,8.232892e-06,2.115965e-06,1.0,582,1.781,0,0,0.0,False,-0.26351227645344677,0.6730742618812893
1.798708643997088,17:42:22.975918,17:41:07.154491,0,,NaN,NaN,NaN,NaN,NaN,NaN,NaN,NaN,NaN,NaN,NaN,NaN,,NaN,NaN,NaN,NaN,NaN,NaN,NaN,NaN,NaN,NaN,NaN,NaN,,0.09793655,1.2937907,0.42507538,0.9825962,0.007592507,-0.1855992,-0.10498244,-0.8015879,-0.58858776,-0.15324292,0.59782875,-0.78684014,,NaN,NaN,NaN,NaN,NaN,NaN,NaN,NaN,NaN,NaN,NaN,NaN,,NaN,NaN,NaN,NaN,NaN,NaN,NaN,NaN,NaN,NaN,NaN,NaN,,NaN,NaN,NaN,NaN,NaN,NaN,NaN,,NaN,NaN,NaN,NaN,NaN,NaN,NaN,,-0.11697196646865997,-0.12781700610823973,0.09957687064,-0.11709667966849292,,2.5182962e-06,-4.7683716e-07,-1.0728836e-06,1.0,-1.0833144e-05,-8.240342e-06,1.0840595e-05,1.0,-2.115965e-06,8.232892e-06,2.115965e-06,1.0,590,1.806,0,0,0.0,False,-0.26273776611267374,0.6723983390703765
1.8240369318518788,17:42:23.011682,17:41:07.154491,0,,NaN,NaN,NaN,NaN,NaN,NaN,NaN,NaN,NaN,NaN,NaN,NaN,,NaN,NaN,NaN,NaN,NaN,NaN,NaN,NaN,NaN,NaN,NaN,NaN,,0.09793655,1.2937907,0.42507538,0.9825962,0.007592507,-0.1855992,-0.10498244,-0.8015879,-0.58858776,-0.15324292,0.59782875,-0.78684014,,NaN,NaN,NaN,NaN,NaN,NaN,NaN,NaN,NaN,NaN,NaN,NaN,,NaN,NaN,NaN,NaN,NaN,NaN,NaN,NaN,NaN,NaN,NaN,NaN,,NaN,NaN,NaN,NaN,NaN,NaN,NaN,,NaN,NaN,NaN,NaN,NaN,NaN,NaN,,-0.11697196646865997,-0.12781700610823973,0.09957687064,-0.11709667966849292,,2.5182962e-06,-4.7683716e-07,-1.0728836e-06,1.0,-1.0833144e-05,-8.240342e-06,1.0840595e-05,1.0,-2.115965e-06,8.232892e-06,2.115965e-06,1.0,623,1.908,0,0,0.0,False,-0.2631548101423209,0.6735087836883045
1.8597990309353918,17:42:23.105058,17:41:07.285174,0,,NaN,NaN,NaN,NaN,NaN,NaN,NaN,NaN,NaN,NaN,NaN,NaN,,NaN,NaN,NaN,NaN,NaN,NaN,NaN,NaN,NaN,NaN,NaN,NaN,,0.09793655,1.2937907,0.42507538,0.9825962,0.007592507,-0.1855992,-0.10498244,-0.8015879,-0.58858776,-0.15324292,0.59782875,-0.78684014,,NaN,NaN,NaN,NaN,NaN,NaN,NaN,NaN,NaN,NaN,NaN,NaN,,NaN,NaN,NaN,NaN,NaN,NaN,NaN,NaN,NaN,NaN,NaN,NaN,,NaN,NaN,NaN,NaN,NaN,NaN,NaN,,NaN,NaN,NaN,NaN,NaN,NaN,NaN,,-0.11697196646865997,-0.12781700610823973,0.09957687064,-0.11709667966849292,,2.5182962e-06,-4.7683716e-07,-1.0728836e-06,1.0,-1.0833144e-05,-8.240342e-06,1.0840595e-05,1.0,-2.115965e-06,8.232892e-06,2.115965e-06,1.0,627,1.92,0,0,0.0,False,-0.26232072208302704,0.6730259816805098
1.9531765368301421,17:42:23.125274,17:41:07.285174,0,,NaN,NaN,NaN,NaN,NaN,NaN,NaN,NaN,NaN,NaN,NaN,NaN,,NaN,NaN,NaN,NaN,NaN,NaN,NaN,NaN,NaN,NaN,NaN,NaN,,0.09793655,1.2937907,0.42507538,0.9825962,0.007592507,-0.1855992,-0.10498244,-0.8015879,-0.58858776,-0.15324292,0.59782875,-0.78684014,,NaN,NaN,NaN,NaN,NaN,NaN,NaN,NaN,NaN,NaN,NaN,NaN,,NaN,NaN,NaN,NaN,NaN,NaN,NaN,NaN,NaN,NaN,NaN,NaN,,NaN,NaN,NaN,NaN,NaN,NaN,NaN,,NaN,NaN,NaN,NaN,NaN,NaN,NaN,,-0.11697196646865997,-0.12781700610823973,0.09957687064,-0.11709667966849292,,2.5182962e-06,-4.7683716e-07,-1.0728836e-06,1.0,-1.0833144e-05,-8.240342e-06,1.0840595e-05,1.0,-2.115965e-06,8.232892e-06,2.115965e-06,1.0,639,1.957,0,0,0.0,False,-0.26255903295711036,0.6719638172633613
1.9733932698145509,17:42:23.154553,17:41:07.285174,0,,NaN,NaN,NaN,NaN,NaN,NaN,NaN,NaN,NaN,NaN,NaN,NaN,,NaN,NaN,NaN,NaN,NaN,NaN,NaN,NaN,NaN,NaN,NaN,NaN,,0.09793655,1.2937907,0.42507538,0.9825962,0.007592507,-0.1855992,-0.10498244,-0.8015879,-0.58858776,-0.15324292,0.59782875,-0.78684014,,NaN,NaN,NaN,NaN,NaN,NaN,NaN,NaN,NaN,NaN,NaN,NaN,,NaN,NaN,NaN,NaN,NaN,NaN,NaN,NaN,NaN,NaN,NaN,NaN,,NaN,NaN,NaN,NaN,NaN,NaN,NaN,,NaN,NaN,NaN,NaN,NaN,NaN,NaN,,-0.11697196646865997,-0.12781700610823973,0.09957687064,-0.11709667966849292,,2.5182962e-06,-4.7683716e-07,-1.0728836e-06,1.0,-1.0833144e-05,-8.240342e-06,1.0840595e-05,1.0,-2.115965e-06,8.232892e-06,2.115965e-06,1.0,647,1.982,0,0,0.0,False,-0.26249945523859,0.6718189766610232
2.002666426822543,17:42:23.177695,17:41:07.439462,0,,NaN,NaN,NaN,NaN,NaN,NaN,NaN,NaN,NaN,NaN,NaN,NaN,,NaN,NaN,NaN,NaN,NaN,NaN,NaN,NaN,NaN,NaN,NaN,NaN,,0.09793655,1.2937907,0.42507538,0.9825962,0.007592507,-0.1855992,-0.10498244,-0.8015879,-0.58858776,-0.15324292,0.59782875,-0.78684014,,NaN,NaN,NaN,NaN,NaN,NaN,NaN,NaN,NaN,NaN,NaN,NaN,,NaN,NaN,NaN,NaN,NaN,NaN,NaN,NaN,NaN,NaN,NaN,NaN,,NaN,NaN,NaN,NaN,NaN,NaN,NaN,,NaN,NaN,NaN,NaN,NaN,NaN,NaN,,-0.11697196646865997,-0.12781700610823973,0.09957687064,-0.11709667966849292,,2.5182962e-06,-4.7683716e-07,-1.0728836e-06,1.0,-1.0833144e-05,-8.240342e-06,1.0840595e-05,1.0,-2.115965e-06,8.232892e-06,2.115965e-06,1.0,655,2.006,0,0,0.0,False,-0.2629164992682367,0.6708050924446547
2.0258140380028635,17:42:23.206538,17:41:07.439462,0,,NaN,NaN,NaN,NaN,NaN,NaN,NaN,NaN,NaN,NaN,NaN,NaN,,NaN,NaN,NaN,NaN,NaN,NaN,NaN,NaN,NaN,NaN,NaN,NaN,,0.09793655,1.2937907,0.42507538,0.9825962,0.007592507,-0.1855992,-0.10498244,-0.8015879,-0.58858776,-0.15324292,0.59782875,-0.78684014,,NaN,NaN,NaN,NaN,NaN,NaN,NaN,NaN,NaN,NaN,NaN,NaN,,NaN,NaN,NaN,NaN,NaN,NaN,NaN,NaN,NaN,NaN,NaN,NaN,,NaN,NaN,NaN,NaN,NaN,NaN,NaN,,NaN,NaN,NaN,NaN,NaN,NaN,NaN,,-0.11697196646865997,-0.12781700610823973,0.09957687064,-0.11709667966849292,,2.5182962e-06,-4.7683716e-07,-1.0728836e-06,1.0,-1.0833144e-05,-8.240342e-06,1.0840595e-05,1.0,-2.115965e-06,8.232892e-06,2.115965e-06,1.0,663,2.031,0,0,0.0,False,-0.26255903295711036,0.6699843290314038
2.0546569938305765,17:42:23.228955,17:41:07.439462,0,,NaN,NaN,NaN,NaN,NaN,NaN,NaN,NaN,NaN,NaN,NaN,NaN,,NaN,NaN,NaN,NaN,NaN,NaN,NaN,NaN,NaN,NaN,NaN,NaN,,0.09793655,1.2937907,0.42507538,0.9825962,0.007592507,-0.1855992,-0.10498244,-0.8015879,-0.58858776,-0.15324292,0.59782875,-0.78684014,,NaN,NaN,NaN,NaN,NaN,NaN,NaN,NaN,NaN,NaN,NaN,NaN,,NaN,NaN,NaN,NaN,NaN,NaN,NaN,NaN,NaN,NaN,NaN,NaN,,NaN,NaN,NaN,NaN,NaN,NaN,NaN,,NaN,NaN,NaN,NaN,NaN,NaN,NaN,,-0.11697196646865997,-0.12781700610823973,0.09957687064,-0.11709667966849292,,2.5182962e-06,-4.7683716e-07,-1.0728836e-06,1.0,-1.0833144e-05,-8.240342e-06,1.0840595e-05,1.0,-2.115965e-06,8.232892e-06,2.115965e-06,1.0,692,2.121,0,0,0.0,False,-0.2621419889274632,0.6694532468228296
2.0770153789781034,17:42:23.318594,17:41:07.439462,0,,NaN,NaN,NaN,NaN,NaN,NaN,NaN,NaN,NaN,NaN,NaN,NaN,,NaN,NaN,NaN,NaN,NaN,NaN,NaN,NaN,NaN,NaN,NaN,NaN,,0.09793655,1.2937907,0.42507538,0.9825962,0.007592507,-0.1855992,-0.10498244,-0.8015879,-0.58858776,-0.15324292,0.59782875,-0.78684014,,NaN,NaN,NaN,NaN,NaN,NaN,NaN,NaN,NaN,NaN,NaN,NaN,,NaN,NaN,NaN,NaN,NaN,NaN,NaN,NaN,NaN,NaN,NaN,NaN,,NaN,NaN,NaN,NaN,NaN,NaN,NaN,,NaN,NaN,NaN,NaN,NaN,NaN,NaN,,-0.11697196646865997,-0.12781700610823973,0.09957687064,-0.11709667966849292,,2.5182962e-06,-4.7683716e-07,-1.0728836e-06,1.0,-1.0833144e-05,-8.240342e-06,1.0840595e-05,1.0,-2.115965e-06,8.232892e-06,2.115965e-06,1.0,700,2.146,0,0,0.0,False,-0.26351227645344677,0.6692118458189324
2.1667028449010104,17:42:23.348070,17:41:07.604788,0,,NaN,NaN,NaN,NaN,NaN,NaN,NaN,NaN,NaN,NaN,NaN,NaN,,NaN,NaN,NaN,NaN,NaN,NaN,NaN,NaN,NaN,NaN,NaN,NaN,,0.09793655,1.2937907,0.42507538,0.9825962,0.007592507,-0.1855992,-0.10498244,-0.8015879,-0.58858776,-0.15324292,0.59782875,-0.78684014,,NaN,NaN,NaN,NaN,NaN,NaN,NaN,NaN,NaN,NaN,NaN,NaN,,NaN,NaN,NaN,NaN,NaN,NaN,NaN,NaN,NaN,NaN,NaN,NaN,,NaN,NaN,NaN,NaN,NaN,NaN,NaN,,NaN,NaN,NaN,NaN,NaN,NaN,NaN,,-0.11697196646865997,-0.12781700610823973,0.09957687064,-0.11709667966849292,,2.5182962e-06,-4.7683716e-07,-1.0728836e-06,1.0,-1.0833144e-05,-8.240342e-06,1.0840595e-05,1.0,-2.115965e-06,8.232892e-06,2.115965e-06,1.0,708,2.17,0,0,0.0,False,-0.26333354329788383,0.6687290438111377
2.1961375440005213,17:42:23.378146,17:41:07.604788,0,,NaN,NaN,NaN,NaN,NaN,NaN,NaN,NaN,NaN,NaN,NaN,NaN,,NaN,NaN,NaN,NaN,NaN,NaN,NaN,NaN,NaN,NaN,NaN,NaN,,0.09793655,1.2937907,0.42507538,0.9825962,0.007592507,-0.1855992,-0.10498244,-0.8015879,-0.58858776,-0.15324292,0.59782875,-0.78684014,,NaN,NaN,NaN,NaN,NaN,NaN,NaN,NaN,NaN,NaN,NaN,NaN,,NaN,NaN,NaN,NaN,NaN,NaN,NaN,NaN,NaN,NaN,NaN,NaN,,NaN,NaN,NaN,NaN,NaN,NaN,NaN,,NaN,NaN,NaN,NaN,NaN,NaN,NaN,,-0.11697196646865997,-0.12781700610823973,0.09957687064,-0.11709667966849292,,2.5182962e-06,-4.7683716e-07,-1.0728836e-06,1.0,-1.0833144e-05,-8.240342e-06,1.0840595e-05,1.0,-2.115965e-06,8.232892e-06,2.115965e-06,1.0,716,2.195,0,0,0.0,False,-0.26309523242380006,0.6676185991932102
2.226248762803152,17:42:23.397784,17:41:07.604788,0,,NaN,NaN,NaN,NaN,NaN,NaN,NaN,NaN,NaN,NaN,NaN,NaN,,NaN,NaN,NaN,NaN,NaN,NaN,NaN,NaN,NaN,NaN,NaN,NaN,,0.09793655,1.2937907,0.42507538,0.9825962,0.007592507,-0.1855992,-0.10498244,-0.8015879,-0.58858776,-0.15324292,0.59782875,-0.78684014,,NaN,NaN,NaN,NaN,NaN,NaN,NaN,NaN,NaN,NaN,NaN,NaN,,NaN,NaN,NaN,NaN,NaN,NaN,NaN,NaN,NaN,NaN,NaN,NaN,,NaN,NaN,NaN,NaN,NaN,NaN,NaN,,NaN,NaN,NaN,NaN,NaN,NaN,NaN,,-0.11697196646865997,-0.12781700610823973,0.09957687064,-0.11709667966849292,,2.5182962e-06,-4.7683716e-07,-1.0728836e-06,1.0,-1.0833144e-05,-8.240342e-06,1.0840595e-05,1.0,-2.115965e-06,8.232892e-06,2.115965e-06,1.0,724,2.219,0,0,0.0,False,-0.26243987752006825,0.6669426763822979
2.2458946697879583,17:42:23.423956,17:41:07.604788,0,,NaN,NaN,NaN,NaN,NaN,NaN,NaN,NaN,NaN,NaN,NaN,NaN,,NaN,NaN,NaN,NaN,NaN,NaN,NaN,NaN,NaN,NaN,NaN,NaN,,0.09793655,1.2937907,0.42507538,0.9825962,0.007592507,-0.1855992,-0.10498244,-0.8015879,-0.58858776,-0.15324292,0.59782875,-0.78684014,,NaN,NaN,NaN,NaN,NaN,NaN,NaN,NaN,NaN,NaN,NaN,NaN,,NaN,NaN,NaN,NaN,NaN,NaN,NaN,NaN,NaN,NaN,NaN,NaN,,NaN,NaN,NaN,NaN,NaN,NaN,NaN,,NaN,NaN,NaN,NaN,NaN,NaN,NaN,,-0.11697196646865997,-0.12781700610823973,0.09957687064,-0.11709667966849292,,2.5182962e-06,-4.7683716e-07,-1.0728836e-06,1.0,-1.0833144e-05,-8.240342e-06,1.0840595e-05,1.0,-2.115965e-06,8.232892e-06,2.115965e-06,1.0,732,2.244,0,0,0.0,False,-0.26434636451274196,0.666121912969047
2.2720760258380324,17:42:23.451197,17:41:07.604788,0,,NaN,NaN,NaN,NaN,NaN,NaN,NaN,NaN,NaN,NaN,NaN,NaN,,NaN,NaN,NaN,NaN,NaN,NaN,NaN,NaN,NaN,NaN,NaN,NaN,,0.09790026,1.2937925,0.42507243,0.98260534,0.007662165,-0.18554804,-0.10489706,-0.8015872,-0.5886039,-0.15324292,0.59782875,-0.78684014,,NaN,NaN,NaN,NaN,NaN,NaN,NaN,NaN,NaN,NaN,NaN,NaN,,NaN,NaN,NaN,NaN,NaN,NaN,NaN,NaN,NaN,NaN,NaN,NaN,,NaN,NaN,NaN,NaN,NaN,NaN,NaN,,NaN,NaN,NaN,NaN,NaN,NaN,NaN,,-0.11697196646865997,-0.12781700610823973,0.09957687064,-0.11709667966849292,,-3.286451e-05,-3.993511e-06,6.914139e-06,1.0,5.7540834e-05,4.3727458e-05,-5.7525933e-05,0.9999999,1.12354755e-05,-4.3720007e-05,-1.1175871e-05,1.0,761,2.334,0,0,0.0,False,-0.26381016504605226,0.6652045891542375
2.299314799020067,17:42:23.529188,17:41:07.755224,0,,NaN,NaN,NaN,NaN,NaN,NaN,NaN,NaN,NaN,NaN,NaN,NaN,,NaN,NaN,NaN,NaN,NaN,NaN,NaN,NaN,NaN,NaN,NaN,NaN,,0.09790026,1.2937925,0.42507243,0.98260534,0.007662165,-0.18554804,-0.10489706,-0.8015872,-0.5886039,-0.15324292,0.59782875,-0.78684014,,NaN,NaN,NaN,NaN,NaN,NaN,NaN,NaN,NaN,NaN,NaN,NaN,,NaN,NaN,NaN,NaN,NaN,NaN,NaN,NaN,NaN,NaN,NaN,NaN,,NaN,NaN,NaN,NaN,NaN,NaN,NaN,,NaN,NaN,NaN,NaN,NaN,NaN,NaN,,-0.11697196646865997,-0.12781700610823973,0.09957687064,-0.11709667966849292,,-3.286451e-05,-3.993511e-06,6.914139e-06,1.0,5.7540834e-05,4.3727458e-05,-5.7525933e-05,0.9999999,1.12354755e-05,-4.3720007e-05,-1.1175871e-05,1.0,765,2.346,0,0,0.0,False,-0.26297607698675796,0.6649149079495604
2.377291146898642,17:42:23.551206,17:41:07.755224,0,,NaN,NaN,NaN,NaN,NaN,NaN,NaN,NaN,NaN,NaN,NaN,NaN,,NaN,NaN,NaN,NaN,NaN,NaN,NaN,NaN,NaN,NaN,NaN,NaN,,0.09790026,1.2937925,0.42507243,0.98260534,0.007662165,-0.18554804,-0.10489706,-0.8015872,-0.5886039,-0.15324292,0.59782875,-0.78684014,,NaN,NaN,NaN,NaN,NaN,NaN,NaN,NaN,NaN,NaN,NaN,NaN,,NaN,NaN,NaN,NaN,NaN,NaN,NaN,NaN,NaN,NaN,NaN,NaN,,NaN,NaN,NaN,NaN,NaN,NaN,NaN,,NaN,NaN,NaN,NaN,NaN,NaN,NaN,,-0.11697196646865997,-0.12781700610823973,0.09957687064,-0.11709667966849292,,-3.286451e-05,-3.993511e-06,6.914139e-06,1.0,5.7540834e-05,4.3727458e-05,-5.7525933e-05,0.9999999,1.12354755e-05,-4.3720007e-05,-1.1175871e-05,1.0,777,2.383,0,0,0.0,False,-0.2630356547052788,0.6651080287526785
2.3992678478825837,17:42:23.582077,17:41:07.755224,0,,NaN,NaN,NaN,NaN,NaN,NaN,NaN,NaN,NaN,NaN,NaN,NaN,,NaN,NaN,NaN,NaN,NaN,NaN,NaN,NaN,NaN,NaN,NaN,NaN,,0.09790026,1.2937925,0.42507243,0.98260534,0.007662165,-0.18554804,-0.10489706,-0.8015872,-0.5886039,-0.15324292,0.59782875,-0.78684014,,NaN,NaN,NaN,NaN,NaN,NaN,NaN,NaN,NaN,NaN,NaN,NaN,,NaN,NaN,NaN,NaN,NaN,NaN,NaN,NaN,NaN,NaN,NaN,NaN,,NaN,NaN,NaN,NaN,NaN,NaN,NaN,,NaN,NaN,NaN,NaN,NaN,NaN,NaN,,-0.11697196646865997,-0.12781700610823973,0.09957687064,-0.11709667966849292,,-3.286451e-05,-3.993511e-06,6.914139e-06,1.0,5.7540834e-05,4.3727458e-05,-5.7525933e-05,0.9999999,1.12354755e-05,-4.3720007e-05,-1.1175871e-05,1.0,785,2.408,0,0,0.0,False,-0.2629164992682367,0.6656873911620322
2.4301977457944304,17:42:23.607832,17:41:07.755224,0,,NaN,NaN,NaN,NaN,NaN,NaN,NaN,NaN,NaN,NaN,NaN,NaN,,NaN,NaN,NaN,NaN,NaN,NaN,NaN,NaN,NaN,NaN,NaN,NaN,,0.09790026,1.2937925,0.42507243,0.98260534,0.007662165,-0.18554804,-0.10489706,-0.8015872,-0.5886039,-0.15324292,0.59782875,-0.78684014,,NaN,NaN,NaN,NaN,NaN,NaN,NaN,NaN,NaN,NaN,NaN,NaN,,NaN,NaN,NaN,NaN,NaN,NaN,NaN,NaN,NaN,NaN,NaN,NaN,,NaN,NaN,NaN,NaN,NaN,NaN,NaN,,NaN,NaN,NaN,NaN,NaN,NaN,NaN,,-0.11697196646865997,-0.12781700610823973,0.09957687064,-0.11709667966849292,,-3.286451e-05,-3.993511e-06,6.914139e-06,1.0,5.7540834e-05,4.3727458e-05,-5.7525933e-05,0.9999999,1.12354755e-05,-4.3720007e-05,-1.1175871e-05,1.0,793,2.432,0,0,0.0,False,-0.26202283349042155,0.6654459901581347
2.4559505619108677,17:42:23.633140,17:41:07.882791,0,,NaN,NaN,NaN,NaN,NaN,NaN,NaN,NaN,NaN,NaN,NaN,NaN,,NaN,NaN,NaN,NaN,NaN,NaN,NaN,NaN,NaN,NaN,NaN,NaN,,0.09790026,1.2937925,0.42507243,0.98260534,0.007662165,-0.18554804,-0.10489706,-0.8015872,-0.5886039,-0.15324292,0.59782875,-0.78684014,,NaN,NaN,NaN,NaN,NaN,NaN,NaN,NaN,NaN,NaN,NaN,NaN,,NaN,NaN,NaN,NaN,NaN,NaN,NaN,NaN,NaN,NaN,NaN,NaN,,NaN,NaN,NaN,NaN,NaN,NaN,NaN,,NaN,NaN,NaN,NaN,NaN,NaN,NaN,,-0.11697196646865997,-0.12781700610823973,0.09957687064,-0.11709667966849292,,-3.286451e-05,-3.993511e-06,6.914139e-06,1.0,5.7540834e-05,4.3727458e-05,-5.7525933e-05,0.9999999,1.12354755e-05,-4.3720007e-05,-1.1175871e-05,1.0,801,2.457,0,0,0.0,False,-0.26386974276457353,0.6666529951776212
2.4812107919715345,17:42:23.656699,17:41:07.882791,0,,NaN,NaN,NaN,NaN,NaN,NaN,NaN,NaN,NaN,NaN,NaN,NaN,,NaN,NaN,NaN,NaN,NaN,NaN,NaN,NaN,NaN,NaN,NaN,NaN,,0.09790026,1.2937925,0.42507243,0.98260534,0.007662165,-0.18554804,-0.10489706,-0.8015872,-0.5886039,-0.15324292,0.59782875,-0.78684014,,NaN,NaN,NaN,NaN,NaN,NaN,NaN,NaN,NaN,NaN,NaN,NaN,,NaN,NaN,NaN,NaN,NaN,NaN,NaN,NaN,NaN,NaN,NaN,NaN,,NaN,NaN,NaN,NaN,NaN,NaN,NaN,,NaN,NaN,NaN,NaN,NaN,NaN,NaN,,-0.11697196646865997,-0.12781700610823973,0.09957687064,-0.11709667966849292,,-3.286451e-05,-3.993511e-06,6.914139e-06,1.0,5.7540834e-05,4.3727458e-05,-5.7525933e-05,0.9999999,1.12354755e-05,-4.3720007e-05,-1.1175871e-05,1.0,826,2.535,0,0,0.0,False,-0.26309523242380006,0.6659287921659294
2.504820047877729,17:42:23.731012,17:41:07.882791,0,,NaN,NaN,NaN,NaN,NaN,NaN,NaN,NaN,NaN,NaN,NaN,NaN,,NaN,NaN,NaN,NaN,NaN,NaN,NaN,NaN,NaN,NaN,NaN,NaN,,0.09790026,1.2937925,0.42507243,0.98260534,0.007662165,-0.18554804,-0.10489706,-0.8015872,-0.5886039,-0.15324292,0.59782875,-0.78684014,,NaN,NaN,NaN,NaN,NaN,NaN,NaN,NaN,NaN,NaN,NaN,NaN,,NaN,NaN,NaN,NaN,NaN,NaN,NaN,NaN,NaN,NaN,NaN,NaN,,NaN,NaN,NaN,NaN,NaN,NaN,NaN,,NaN,NaN,NaN,NaN,NaN,NaN,NaN,,-0.11697196646865997,-0.12781700610823973,0.09957687064,-0.11709667966849292,,-3.286451e-05,-3.993511e-06,6.914139e-06,1.0,5.7540834e-05,4.3727458e-05,-5.7525933e-05,0.9999999,1.12354755e-05,-4.3720007e-05,-1.1175871e-05,1.0,830,2.547,0,0,0.0,False,-0.2631548101423209,0.6460373494447924
2.579123810864985,17:42:23.753080,17:41:08.012118,0,,NaN,NaN,NaN,NaN,NaN,NaN,NaN,NaN,NaN,NaN,NaN,NaN,,NaN,NaN,NaN,NaN,NaN,NaN,NaN,NaN,NaN,NaN,NaN,NaN,,0.09790026,1.2937925,0.42507243,0.98260534,0.007662165,-0.18554804,-0.10489706,-0.8015872,-0.5886039,-0.15324292,0.59782875,-0.78684014,,NaN,NaN,NaN,NaN,NaN,NaN,NaN,NaN,NaN,NaN,NaN,NaN,,NaN,NaN,NaN,NaN,NaN,NaN,NaN,NaN,NaN,NaN,NaN,NaN,,NaN,NaN,NaN,NaN,NaN,NaN,NaN,,NaN,NaN,NaN,NaN,NaN,NaN,NaN,,-0.11697196646865997,-0.12781700610823973,0.09957687064,-0.11709667966849292,,-3.286451e-05,-3.993511e-06,6.914139e-06,1.0,5.7540834e-05,4.3727458e-05,-5.7525933e-05,0.9999999,1.12354755e-05,-4.3720007e-05,-1.1175871e-05,1.0,842,2.584,0,0,0.0,False,-0.26285692154971585,0.6371055123005926
2.6011541429907084,17:42:23.783585,17:41:08.012118,0,,NaN,NaN,NaN,NaN,NaN,NaN,NaN,NaN,NaN,NaN,NaN,NaN,,NaN,NaN,NaN,NaN,NaN,NaN,NaN,NaN,NaN,NaN,NaN,NaN,,0.09790026,1.2937925,0.42507243,0.98260534,0.007662165,-0.18554804,-0.10489706,-0.8015872,-0.5886039,-0.15324292,0.59782875,-0.78684014,,NaN,NaN,NaN,NaN,NaN,NaN,NaN,NaN,NaN,NaN,NaN,NaN,,NaN,NaN,NaN,NaN,NaN,NaN,NaN,NaN,NaN,NaN,NaN,NaN,,NaN,NaN,NaN,NaN,NaN,NaN,NaN,,NaN,NaN,NaN,NaN,NaN,NaN,NaN,,-0.11697196646865997,-0.12781700610823973,0.09957687064,-0.11709667966849292,,-3.286451e-05,-3.993511e-06,6.914139e-06,1.0,5.7540834e-05,4.3727458e-05,-5.7525933e-05,0.9999999,1.12354755e-05,-4.3720007e-05,-1.1175871e-05,1.0,850,2.609,0,0,0.0,False,-0.26196325577190027,0.6307325257977041
2.631648162845522,17:42:23.805310,17:41:08.012118,0,,NaN,NaN,NaN,NaN,NaN,NaN,NaN,NaN,NaN,NaN,NaN,NaN,,NaN,NaN,NaN,NaN,NaN,NaN,NaN,NaN,NaN,NaN,NaN,NaN,,0.09790026,1.2937925,0.42507243,0.98260534,0.007662165,-0.18554804,-0.10489706,-0.8015872,-0.5886039,-0.15324292,0.59782875,-0.78684014,,NaN,NaN,NaN,NaN,NaN,NaN,NaN,NaN,NaN,NaN,NaN,NaN,,NaN,NaN,NaN,NaN,NaN,NaN,NaN,NaN,NaN,NaN,NaN,NaN,,NaN,NaN,NaN,NaN,NaN,NaN,NaN,,NaN,NaN,NaN,NaN,NaN,NaN,NaN,,-0.11697196646865997,-0.12781700610823973,0.09957687064,-0.11709667966849292,,-3.286451e-05,-3.993511e-06,6.914139e-06,1.0,5.7540834e-05,4.3727458e-05,-5.7525933e-05,0.9999999,1.12354755e-05,-4.3720007e-05,-1.1175871e-05,1.0,858,2.633,0,0,0.0,False,-0.2632143878608417,0.6292841197743204
2.6534322400111705,17:42:23.832795,17:41:08.012118,0,,NaN,NaN,NaN,NaN,NaN,NaN,NaN,NaN,NaN,NaN,NaN,NaN,,NaN,NaN,NaN,NaN,NaN,NaN,NaN,NaN,NaN,NaN,NaN,NaN,,0.09790026,1.2937925,0.42507243,0.98260534,0.007662165,-0.18554804,-0.10489706,-0.8015872,-0.5886039,-0.15324292,0.59782875,-0.78684014,,NaN,NaN,NaN,NaN,NaN,NaN,NaN,NaN,NaN,NaN,NaN,NaN,,NaN,NaN,NaN,NaN,NaN,NaN,NaN,NaN,NaN,NaN,NaN,NaN,,NaN,NaN,NaN,NaN,NaN,NaN,NaN,,NaN,NaN,NaN,NaN,NaN,NaN,NaN,,-0.11697196646865997,-0.12781700610823973,0.09957687064,-0.11709667966849292,,-3.286451e-05,-3.993511e-06,6.914139e-06,1.0,5.7540834e-05,4.3727458e-05,-5.7525933e-05,0.9999999,1.12354755e-05,-4.3720007e-05,-1.1175871e-05,1.0,866,2.658,0,0,0.0,False,-0.26273776611267374,0.629477240577438
2.680911801988259,17:42:23.857578,17:41:08.012118,0,,NaN,NaN,NaN,NaN,NaN,NaN,NaN,NaN,NaN,NaN,NaN,NaN,,NaN,NaN,NaN,NaN,NaN,NaN,NaN,NaN,NaN,NaN,NaN,NaN,,0.09790026,1.2937925,0.42507243,0.98260534,0.007662165,-0.18554804,-0.10489706,-0.8015872,-0.5886039,-0.15324292,0.59782875,-0.78684014,,NaN,NaN,NaN,NaN,NaN,NaN,NaN,NaN,NaN,NaN,NaN,NaN,,NaN,NaN,NaN,NaN,NaN,NaN,NaN,NaN,NaN,NaN,NaN,NaN,,NaN,NaN,NaN,NaN,NaN,NaN,NaN,,NaN,NaN,NaN,NaN,NaN,NaN,NaN,,-0.11697196646865997,-0.12781700610823973,0.09957687064,-0.11709667966849292,,-3.286451e-05,-3.993511e-06,6.914139e-06,1.0,5.7540834e-05,4.3727458e-05,-5.7525933e-05,0.9999999,1.12354755e-05,-4.3720007e-05,-1.1175871e-05,1.0,891,2.736,0,0,0.0,False,-0.26297607698675796,0.6291392791719819
2.705698406789452,17:42:23.934195,17:41:08.157676,0,,NaN,NaN,NaN,NaN,NaN,NaN,NaN,NaN,NaN,NaN,NaN,NaN,,NaN,NaN,NaN,NaN,NaN,NaN,NaN,NaN,NaN,NaN,NaN,NaN,,0.09790026,1.2937925,0.42507243,0.98260534,0.007662165,-0.18554804,-0.10489706,-0.8015872,-0.5886039,-0.15324292,0.59782875,-0.78684014,,NaN,NaN,NaN,NaN,NaN,NaN,NaN,NaN,NaN,NaN,NaN,NaN,,NaN,NaN,NaN,NaN,NaN,NaN,NaN,NaN,NaN,NaN,NaN,NaN,,NaN,NaN,NaN,NaN,NaN,NaN,NaN,,NaN,NaN,NaN,NaN,NaN,NaN,NaN,,-0.11697196646865997,-0.12781700610823973,0.09957687064,-0.11709667966849292,,-3.286451e-05,-3.993511e-06,6.914139e-06,1.0,5.7540834e-05,4.3727458e-05,-5.7525933e-05,0.9999999,1.12354755e-05,-4.3720007e-05,-1.1175871e-05,1.0,899,2.76,0,0,0.0,False,-0.2632143878608417,0.621028205441033
2.7822917378507555,17:42:23.959396,17:41:08.157676,0,,NaN,NaN,NaN,NaN,NaN,NaN,NaN,NaN,NaN,NaN,NaN,NaN,,NaN,NaN,NaN,NaN,NaN,NaN,NaN,NaN,NaN,NaN,NaN,NaN,,0.09790026,1.2937925,0.42507243,0.98260534,0.007662165,-0.18554804,-0.10489706,-0.8015872,-0.5886039,-0.15324292,0.59782875,-0.78684014,,NaN,NaN,NaN,NaN,NaN,NaN,NaN,NaN,NaN,NaN,NaN,NaN,,NaN,NaN,NaN,NaN,NaN,NaN,NaN,NaN,NaN,NaN,NaN,NaN,,NaN,NaN,NaN,NaN,NaN,NaN,NaN,,NaN,NaN,NaN,NaN,NaN,NaN,NaN,,-0.11697196646865997,-0.12781700610823973,0.09957687064,-0.11709667966849292,,-3.286451e-05,-3.993511e-06,6.914139e-06,1.0,5.7540834e-05,4.3727458e-05,-5.7525933e-05,0.9999999,1.12354755e-05,-4.3720007e-05,-1.1175871e-05,1.0,907,2.785,0,0,0.0,False,-0.2618441003348577,0.6197246400199874
2.807500261813402,17:42:23.985114,17:41:08.157676,0,,NaN,NaN,NaN,NaN,NaN,NaN,NaN,NaN,NaN,NaN,NaN,NaN,,NaN,NaN,NaN,NaN,NaN,NaN,NaN,NaN,NaN,NaN,NaN,NaN,,0.09790026,1.2937925,0.42507243,0.98260534,0.007662165,-0.18554804,-0.10489706,-0.8015872,-0.5886039,-0.15324292,0.59782875,-0.78684014,,NaN,NaN,NaN,NaN,NaN,NaN,NaN,NaN,NaN,NaN,NaN,NaN,,NaN,NaN,NaN,NaN,NaN,NaN,NaN,NaN,NaN,NaN,NaN,NaN,,NaN,NaN,NaN,NaN,NaN,NaN,NaN,,NaN,NaN,NaN,NaN,NaN,NaN,NaN,,-0.11697196646865997,-0.12781700610823973,0.09957687064,-0.11709667966849292,,-3.286451e-05,-3.993511e-06,6.914139e-06,1.0,5.7540834e-05,4.3727458e-05,-5.7525933e-05,0.9999999,1.12354755e-05,-4.3720007e-05,-1.1175871e-05,1.0,915,2.809,1,1,0.015,False,-0.2630356547052788,0.6201108816262231
2.8332016428466886,17:42:24.008929,17:41:08.157676,0,,NaN,NaN,NaN,NaN,NaN,NaN,NaN,NaN,NaN,NaN,NaN,NaN,,NaN,NaN,NaN,NaN,NaN,NaN,NaN,NaN,NaN,NaN,NaN,NaN,,0.09790026,1.2937925,0.42507243,0.98260534,0.007662165,-0.18554804,-0.10489706,-0.8015872,-0.5886039,-0.15324292,0.59782875,-0.78684014,,NaN,NaN,NaN,NaN,NaN,NaN,NaN,NaN,NaN,NaN,NaN,NaN,,NaN,NaN,NaN,NaN,NaN,NaN,NaN,NaN,NaN,NaN,NaN,NaN,,NaN,NaN,NaN,NaN,NaN,NaN,NaN,,NaN,NaN,NaN,NaN,NaN,NaN,NaN,,-0.11697196646865997,-0.12781700610823973,0.09957687064,-0.11709667966849292,,-3.286451e-05,-3.993511e-06,6.914139e-06,1.0,5.7540834e-05,4.3727458e-05,-5.7525933e-05,0.9999999,1.12354755e-05,-4.3720007e-05,-1.1175871e-05,1.0,924,2.838,0,1,0.037,False,-0.26339312101640555,0.6198694806223259
2.857049479847774,17:42:24.033891,17:41:08.157676,0,,NaN,NaN,NaN,NaN,NaN,NaN,NaN,NaN,NaN,NaN,NaN,NaN,,NaN,NaN,NaN,NaN,NaN,NaN,NaN,NaN,NaN,NaN,NaN,NaN,,0.09790026,1.2937925,0.42507243,0.98260534,0.007662165,-0.18554804,-0.10489706,-0.8015872,-0.5886039,-0.15324292,0.59782875,-0.78684014,,NaN,NaN,NaN,NaN,NaN,NaN,NaN,NaN,NaN,NaN,NaN,NaN,,NaN,NaN,NaN,NaN,NaN,NaN,NaN,NaN,NaN,NaN,NaN,NaN,,NaN,NaN,NaN,NaN,NaN,NaN,NaN,,NaN,NaN,NaN,NaN,NaN,NaN,NaN,,-0.11697196646865997,-0.12781700610823973,0.09957687064,-0.11709667966849292,,-3.286451e-05,-3.993511e-06,6.914139e-06,1.0,5.7540834e-05,4.3727458e-05,-5.7525933e-05,0.9999999,1.12354755e-05,-4.3720007e-05,-1.1175871e-05,1.0,928,2.85,0,1,0.037,False,-0.26285692154971585,0.6190487172090751
2.8820057718548924,17:42:24.059273,17:41:08.157676,0,,NaN,NaN,NaN,NaN,NaN,NaN,NaN,NaN,NaN,NaN,NaN,NaN,,NaN,NaN,NaN,NaN,NaN,NaN,NaN,NaN,NaN,NaN,NaN,NaN,,0.09790026,1.2937925,0.42507243,0.98260534,0.007662165,-0.18554804,-0.10489706,-0.8015872,-0.5886039,-0.15324292,0.59782875,-0.78684014,,NaN,NaN,NaN,NaN,NaN,NaN,NaN,NaN,NaN,NaN,NaN,NaN,,NaN,NaN,NaN,NaN,NaN,NaN,NaN,NaN,NaN,NaN,NaN,NaN,,NaN,NaN,NaN,NaN,NaN,NaN,NaN,,NaN,NaN,NaN,NaN,NaN,NaN,NaN,,-0.11697196646865997,-0.12781700610823973,0.09957687064,-0.11709667966849292,,-3.286451e-05,-3.993511e-06,6.914139e-06,1.0,5.7540834e-05,4.3727458e-05,-5.7525933e-05,0.9999999,1.12354755e-05,-4.3720007e-05,-1.1175871e-05,1.0,945,2.903,0,1,0.037,False,-0.262797343831195,0.617793431988809
2.9073893409222364,17:42:24.098791,17:41:08.350814,0,,NaN,NaN,NaN,NaN,NaN,NaN,NaN,NaN,NaN,NaN,NaN,NaN,,NaN,NaN,NaN,NaN,NaN,NaN,NaN,NaN,NaN,NaN,NaN,NaN,,0.09790026,1.2937925,0.42507243,0.98260534,0.007662165,-0.18554804,-0.10489706,-0.8015872,-0.5886039,-0.15324292,0.59782875,-0.78684014,,NaN,NaN,NaN,NaN,NaN,NaN,NaN,NaN,NaN,NaN,NaN,NaN,,NaN,NaN,NaN,NaN,NaN,NaN,NaN,NaN,NaN,NaN,NaN,NaN,,NaN,NaN,NaN,NaN,NaN,NaN,NaN,,NaN,NaN,NaN,NaN,NaN,NaN,NaN,,-0.11697196646865997,-0.12781700610823973,0.09957687064,-0.11709667966849292,,-3.286451e-05,-3.993511e-06,6.914139e-06,1.0,5.7540834e-05,4.3727458e-05,-5.7525933e-05,0.9999999,1.12354755e-05,-4.3720007e-05,-1.1175871e-05,1.0,953,2.928,0,1,0.037,False,-0.262797343831195,0.6155242625521749
2.9469123668968678,17:42:24.125442,17:41:08.350814,0,,NaN,NaN,NaN,NaN,NaN,NaN,NaN,NaN,NaN,NaN,NaN,NaN,,NaN,NaN,NaN,NaN,NaN,NaN,NaN,NaN,NaN,NaN,NaN,NaN,,0.09790026,1.2937925,0.42507243,0.98260534,0.007662165,-0.18554804,-0.10489706,-0.8015872,-0.5886039,-0.15324292,0.59782875,-0.78684014,,NaN,NaN,NaN,NaN,NaN,NaN,NaN,NaN,NaN,NaN,NaN,NaN,,NaN,NaN,NaN,NaN,NaN,NaN,NaN,NaN,NaN,NaN,NaN,NaN,,NaN,NaN,NaN,NaN,NaN,NaN,NaN,,NaN,NaN,NaN,NaN,NaN,NaN,NaN,,-0.11697196646865997,-0.12781700610823973,0.09957687064,-0.11709667966849292,,-3.286451e-05,-3.993511e-06,6.914139e-06,1.0,5.7540834e-05,4.3727458e-05,-5.7525933e-05,0.9999999,1.12354755e-05,-4.3720007e-05,-1.1175871e-05,1.0,966,2.969,0,1,0.037,False,-0.26339312101640555,0.6108410830765671
2.973561008926481,17:42:24.169953,17:41:08.350814,0,,NaN,NaN,NaN,NaN,NaN,NaN,NaN,NaN,NaN,NaN,NaN,NaN,,NaN,NaN,NaN,NaN,NaN,NaN,NaN,NaN,NaN,NaN,NaN,NaN,,0.09790026,1.2937925,0.42507243,0.98260534,0.007662165,-0.18554804,-0.10489706,-0.8015872,-0.5886039,-0.15324292,0.59782875,-0.78684014,,NaN,NaN,NaN,NaN,NaN,NaN,NaN,NaN,NaN,NaN,NaN,NaN,,NaN,NaN,NaN,NaN,NaN,NaN,NaN,NaN,NaN,NaN,NaN,NaN,,NaN,NaN,NaN,NaN,NaN,NaN,NaN,,NaN,NaN,NaN,NaN,NaN,NaN,NaN,,-0.11697196646865997,-0.12781700610823973,0.09957687064,-0.11709667966849292,,-3.286451e-05,-3.993511e-06,6.914139e-06,1.0,5.7540834e-05,4.3727458e-05,-5.7525933e-05,0.9999999,1.12354755e-05,-4.3720007e-05,-1.1175871e-05,1.0,974,2.994,0,1,0.037,False,-0.2636314318904893,0.6037921737627663
3.0180712738074362,17:42:24.194034,17:41:08.350814,0,,NaN,NaN,NaN,NaN,NaN,NaN,NaN,NaN,NaN,NaN,NaN,NaN,,NaN,NaN,NaN,NaN,NaN,NaN,NaN,NaN,NaN,NaN,NaN,NaN,,0.09790026,1.2937925,0.42507243,0.98260534,0.007662165,-0.18554804,-0.10489706,-0.8015872,-0.5886039,-0.15324292,0.59782875,-0.78684014,,NaN,NaN,NaN,NaN,NaN,NaN,NaN,NaN,NaN,NaN,NaN,NaN,,NaN,NaN,NaN,NaN,NaN,NaN,NaN,NaN,NaN,NaN,NaN,NaN,,NaN,NaN,NaN,NaN,NaN,NaN,NaN,,NaN,NaN,NaN,NaN,NaN,NaN,NaN,,-0.11697196646865997,-0.12781700610823973,0.09957687064,-0.11709667966849292,,-3.286451e-05,-3.993511e-06,6.914139e-06,1.0,5.7540834e-05,4.3727458e-05,-5.7525933e-05,0.9999999,1.12354755e-05,-4.3720007e-05,-1.1175871e-05,1.0,987,3.035,0,1,0.037,False,-0.26273776611267374,0.603067970751074
3.042118542827666,17:42:24.235314,17:41:08.482182,0,,NaN,NaN,NaN,NaN,NaN,NaN,NaN,NaN,NaN,NaN,NaN,NaN,,NaN,NaN,NaN,NaN,NaN,NaN,NaN,NaN,NaN,NaN,NaN,NaN,,0.09790026,1.2937925,0.42507243,0.98260534,0.007662165,-0.18554804,-0.10489706,-0.8015872,-0.5886039,-0.15324292,0.59782875,-0.78684014,,NaN,NaN,NaN,NaN,NaN,NaN,NaN,NaN,NaN,NaN,NaN,NaN,,NaN,NaN,NaN,NaN,NaN,NaN,NaN,NaN,NaN,NaN,NaN,NaN,,NaN,NaN,NaN,NaN,NaN,NaN,NaN,,NaN,NaN,NaN,NaN,NaN,NaN,NaN,,-0.11697196646865997,-0.12781700610823973,0.09957687064,-0.11709667966849292,,-3.286451e-05,-3.993511e-06,6.914139e-06,1.0,5.7540834e-05,4.3727458e-05,-5.7525933e-05,0.9999999,1.12354755e-05,-4.3720007e-05,-1.1175871e-05,1.0,995,3.059,0,1,0.037,False,-0.2620824112089424,0.5978054288661134
3.0834034618455917,17:42:24.256872,17:41:08.482182,0,,NaN,NaN,NaN,NaN,NaN,NaN,NaN,NaN,NaN,NaN,NaN,NaN,,NaN,NaN,NaN,NaN,NaN,NaN,NaN,NaN,NaN,NaN,NaN,NaN,,0.09790026,1.2937925,0.42507243,0.98260534,0.007662165,-0.18554804,-0.10489706,-0.8015872,-0.5886039,-0.15324292,0.59782875,-0.78684014,,NaN,NaN,NaN,NaN,NaN,NaN,NaN,NaN,NaN,NaN,NaN,NaN,,NaN,NaN,NaN,NaN,NaN,NaN,NaN,NaN,NaN,NaN,NaN,NaN,,NaN,NaN,NaN,NaN,NaN,NaN,NaN,,NaN,NaN,NaN,NaN,NaN,NaN,NaN,,-0.11697196646865997,-0.12781700610823973,0.09957687064,-0.11709667966849292,,-3.286451e-05,-3.993511e-06,6.914139e-06,1.0,5.7540834e-05,4.3727458e-05,-5.7525933e-05,0.9999999,1.12354755e-05,-4.3720007e-05,-1.1175871e-05,1.0,1004,3.088,0,1,0.037,False,-0.26273776611267374,0.5921566453749167
3.1049885528627783,17:42:24.285240,17:41:08.482182,0,,NaN,NaN,NaN,NaN,NaN,NaN,NaN,NaN,NaN,NaN,NaN,NaN,,NaN,NaN,NaN,NaN,NaN,NaN,NaN,NaN,NaN,NaN,NaN,NaN,,0.09790026,1.2937925,0.42507243,0.98260534,0.007662165,-0.18554804,-0.10489706,-0.8015872,-0.5886039,-0.15324292,0.59782875,-0.78684014,,NaN,NaN,NaN,NaN,NaN,NaN,NaN,NaN,NaN,NaN,NaN,NaN,,NaN,NaN,NaN,NaN,NaN,NaN,NaN,NaN,NaN,NaN,NaN,NaN,,NaN,NaN,NaN,NaN,NaN,NaN,NaN,,NaN,NaN,NaN,NaN,NaN,NaN,NaN,,-0.11697196646865997,-0.12781700610823973,0.09957687064,-0.11709667966849292,,-3.286451e-05,-3.993511e-06,6.914139e-06,1.0,5.7540834e-05,4.3727458e-05,-5.7525933e-05,0.9999999,1.12354755e-05,-4.3720007e-05,-1.1175871e-05,1.0,1021,3.141,0,1,0.037,False,-0.2622015666459845,0.5855905380689101
3.133360353996977,17:42:24.337353,17:41:08.482182,0,,NaN,NaN,NaN,NaN,NaN,NaN,NaN,NaN,NaN,NaN,NaN,NaN,,NaN,NaN,NaN,NaN,NaN,NaN,NaN,NaN,NaN,NaN,NaN,NaN,,0.09790026,1.2937925,0.42507243,0.98260534,0.007662165,-0.18554804,-0.10489706,-0.8015872,-0.5886039,-0.15324292,0.59782875,-0.78684014,,NaN,NaN,NaN,NaN,NaN,NaN,NaN,NaN,NaN,NaN,NaN,NaN,,NaN,NaN,NaN,NaN,NaN,NaN,NaN,NaN,NaN,NaN,NaN,NaN,,NaN,NaN,NaN,NaN,NaN,NaN,NaN,,NaN,NaN,NaN,NaN,NaN,NaN,NaN,,-0.11697196646865997,-0.12781700610823973,0.09957687064,-0.11709667966849292,,-3.286451e-05,-3.993511e-06,6.914139e-06,1.0,5.7540834e-05,4.3727458e-05,-5.7525933e-05,0.9999999,1.12354755e-05,-4.3720007e-05,-1.1175871e-05,1.0,1034,3.182,0,1,0.037,False,-0.26273776611267374,0.5840938518447469
3.1854745459277183,17:42:24.382148,17:41:08.619083,0,,NaN,NaN,NaN,NaN,NaN,NaN,NaN,NaN,NaN,NaN,NaN,NaN,,NaN,NaN,NaN,NaN,NaN,NaN,NaN,NaN,NaN,NaN,NaN,NaN,,0.09790026,1.2937925,0.42507243,0.98260534,0.007662165,-0.18554804,-0.10489706,-0.8015872,-0.5886039,-0.15324292,0.59782875,-0.78684014,,NaN,NaN,NaN,NaN,NaN,NaN,NaN,NaN,NaN,NaN,NaN,NaN,,NaN,NaN,NaN,NaN,NaN,NaN,NaN,NaN,NaN,NaN,NaN,NaN,,NaN,NaN,NaN,NaN,NaN,NaN,NaN,,NaN,NaN,NaN,NaN,NaN,NaN,NaN,,-0.11697196646865997,-0.12781700610823973,0.09957687064,-0.11709667966849292,,-3.286451e-05,-3.993511e-06,6.914139e-06,1.0,5.7540834e-05,4.3727458e-05,-5.7525933e-05,0.9999999,1.12354755e-05,-4.3720007e-05,-1.1175871e-05,1.0,1047,3.222,0,1,0.037,False,-0.2630356547052788,0.5793141119675806
3.2302428998518735,17:42:24.423834,17:41:08.619083,0,,NaN,NaN,NaN,NaN,NaN,NaN,NaN,NaN,NaN,NaN,NaN,NaN,,NaN,NaN,NaN,NaN,NaN,NaN,NaN,NaN,NaN,NaN,NaN,NaN,,0.09790026,1.2937925,0.42507243,0.98260534,0.007662165,-0.18554804,-0.10489706,-0.8015872,-0.5886039,-0.15324292,0.59782875,-0.78684014,,NaN,NaN,NaN,NaN,NaN,NaN,NaN,NaN,NaN,NaN,NaN,NaN,,NaN,NaN,NaN,NaN,NaN,NaN,NaN,NaN,NaN,NaN,NaN,NaN,,NaN,NaN,NaN,NaN,NaN,NaN,NaN,,NaN,NaN,NaN,NaN,NaN,NaN,NaN,,-0.11697196646865997,-0.12781700610823973,0.09957687064,-0.11709667966849292,,-3.286451e-05,-3.993511e-06,6.914139e-06,1.0,5.7540834e-05,4.3727458e-05,-5.7525933e-05,0.9999999,1.12354755e-05,-4.3720007e-05,-1.1175871e-05,1.0,1064,3.276,0,1,0.037,False,-0.2631548101423209,0.5776725851410789
3.271953655872494,17:42:24.476039,17:41:08.619083,0,,NaN,NaN,NaN,NaN,NaN,NaN,NaN,NaN,NaN,NaN,NaN,NaN,,NaN,NaN,NaN,NaN,NaN,NaN,NaN,NaN,NaN,NaN,NaN,NaN,,0.09790026,1.2937925,0.42507243,0.98260534,0.007662165,-0.18554804,-0.10489706,-0.8015872,-0.5886039,-0.15324292,0.59782875,-0.78684014,,NaN,NaN,NaN,NaN,NaN,NaN,NaN,NaN,NaN,NaN,NaN,NaN,,NaN,NaN,NaN,NaN,NaN,NaN,NaN,NaN,NaN,NaN,NaN,NaN,,NaN,NaN,NaN,NaN,NaN,NaN,NaN,,NaN,NaN,NaN,NaN,NaN,NaN,NaN,,-0.11697196646865997,-0.12781700610823973,0.09957687064,-0.11709667966849292,,-3.286451e-05,-3.993511e-06,6.914139e-06,1.0,5.7540834e-05,4.3727458e-05,-5.7525933e-05,0.9999999,1.12354755e-05,-4.3720007e-05,-1.1175871e-05,1.0,1077,3.317,0,1,0.037,False,-0.26273776611267374,0.5786381891566683
3.324142353842035,17:42:24.516786,17:41:08.751853,0,,NaN,NaN,NaN,NaN,NaN,NaN,NaN,NaN,NaN,NaN,NaN,NaN,,NaN,NaN,NaN,NaN,NaN,NaN,NaN,NaN,NaN,NaN,NaN,NaN,,0.09790026,1.2937925,0.42507243,0.98260534,0.007662165,-0.18554804,-0.10489706,-0.8015872,-0.5886039,-0.15324292,0.59782875,-0.78684014,,NaN,NaN,NaN,NaN,NaN,NaN,NaN,NaN,NaN,NaN,NaN,NaN,,NaN,NaN,NaN,NaN,NaN,NaN,NaN,NaN,NaN,NaN,NaN,NaN,,NaN,NaN,NaN,NaN,NaN,NaN,NaN,,NaN,NaN,NaN,NaN,NaN,NaN,NaN,,-0.11697196646865997,-0.12781700610823973,0.09957687064,-0.11709667966849292,,-3.286451e-05,-3.993511e-06,6.914139e-06,1.0,5.7540834e-05,4.3727458e-05,-5.7525933e-05,0.9999999,1.12354755e-05,-4.3720007e-05,-1.1175871e-05,1.0,1090,3.358,0,1,0.037,False,-0.26190367805337944,0.5782036673496531
3.3649055168498307,17:42:24.555082,17:41:08.751853,0,,NaN,NaN,NaN,NaN,NaN,NaN,NaN,NaN,NaN,NaN,NaN,NaN,,NaN,NaN,NaN,NaN,NaN,NaN,NaN,NaN,NaN,NaN,NaN,NaN,,0.09793263,1.2937934,0.42507547,0.9826003,0.007623557,-0.1855764,-0.104944386,-0.8015876,-0.588595,-0.15324292,0.59782875,-0.78684014,,NaN,NaN,NaN,NaN,NaN,NaN,NaN,NaN,NaN,NaN,NaN,NaN,,NaN,NaN,NaN,NaN,NaN,NaN,NaN,NaN,NaN,NaN,NaN,NaN,,NaN,NaN,NaN,NaN,NaN,NaN,NaN,,NaN,NaN,NaN,NaN,NaN,NaN,NaN,,-0.11697196646865997,-0.12781700610823973,0.09957687064,-0.11709667966849292,,-1.6316772e-06,-2.6226044e-06,-2.1457672e-06,1.0,1.963973e-05,1.4923513e-05,-1.963228e-05,1.0,3.8146973e-06,-1.49309635e-05,-3.8146973e-06,1.0,1107,3.411,0,1,0.037,False,-0.2616653671792948,0.5793141119675806
3.403196033788845,17:42:24.617343,17:41:08.751853,0,,NaN,NaN,NaN,NaN,NaN,NaN,NaN,NaN,NaN,NaN,NaN,NaN,,NaN,NaN,NaN,NaN,NaN,NaN,NaN,NaN,NaN,NaN,NaN,NaN,,0.09793263,1.2937934,0.42507547,0.9826003,0.007623557,-0.1855764,-0.104944386,-0.8015876,-0.588595,-0.15324292,0.59782875,-0.78684014,,NaN,NaN,NaN,NaN,NaN,NaN,NaN,NaN,NaN,NaN,NaN,NaN,,NaN,NaN,NaN,NaN,NaN,NaN,NaN,NaN,NaN,NaN,NaN,NaN,,NaN,NaN,NaN,NaN,NaN,NaN,NaN,,NaN,NaN,NaN,NaN,NaN,NaN,NaN,,-0.11697196646865997,-0.12781700610823973,0.09957687064,-0.11709667966849292,,-1.6316772e-06,-2.6226044e-06,-2.1457672e-06,1.0,1.963973e-05,1.4923513e-05,-1.963228e-05,1.0,3.8146973e-06,-1.49309635e-05,-3.8146973e-06,1.0,1120,3.452,0,1,0.037,False,-0.2632143878608417,0.5805211169870672
3.4654598978813738,17:42:24.650812,17:41:08.751853,0,,NaN,NaN,NaN,NaN,NaN,NaN,NaN,NaN,NaN,NaN,NaN,NaN,,NaN,NaN,NaN,NaN,NaN,NaN,NaN,NaN,NaN,NaN,NaN,NaN,,0.09793263,1.2937934,0.42507547,0.9826003,0.007623557,-0.1855764,-0.104944386,-0.8015876,-0.588595,-0.15324292,0.59782875,-0.78684014,,NaN,NaN,NaN,NaN,NaN,NaN,NaN,NaN,NaN,NaN,NaN,NaN,,NaN,NaN,NaN,NaN,NaN,NaN,NaN,NaN,NaN,NaN,NaN,NaN,,NaN,NaN,NaN,NaN,NaN,NaN,NaN,,NaN,NaN,NaN,NaN,NaN,NaN,NaN,,-0.11697196646865997,-0.12781700610823973,0.09957687064,-0.11709667966849292,,-1.6316772e-06,-2.6226044e-06,-2.1457672e-06,1.0,1.963973e-05,1.4923513e-05,-1.963228e-05,1.0,3.8146973e-06,-1.49309635e-05,-3.8146973e-06,1.0,1133,3.492,0,1,0.037,False,-0.26255903295711036,0.5813418804003181
3.4989284288603812,17:42:24.700151,17:41:08.938509,0,,NaN,NaN,NaN,NaN,NaN,NaN,NaN,NaN,NaN,NaN,NaN,NaN,,NaN,NaN,NaN,NaN,NaN,NaN,NaN,NaN,NaN,NaN,NaN,NaN,,0.09793263,1.2937934,0.42507547,0.9826003,0.007623557,-0.1855764,-0.104944386,-0.8015876,-0.588595,-0.15324292,0.59782875,-0.78684014,,NaN,NaN,NaN,NaN,NaN,NaN,NaN,NaN,NaN,NaN,NaN,NaN,,NaN,NaN,NaN,NaN,NaN,NaN,NaN,NaN,NaN,NaN,NaN,NaN,,NaN,NaN,NaN,NaN,NaN,NaN,NaN,,NaN,NaN,NaN,NaN,NaN,NaN,NaN,,-0.11697196646865997,-0.12781700610823973,0.09957687064,-0.11709667966849292,,-1.6316772e-06,-2.6226044e-06,-2.1457672e-06,1.0,1.963973e-05,1.4923513e-05,-1.963228e-05,1.0,3.8146973e-06,-1.49309635e-05,-3.8146973e-06,1.0,1150,3.547,0,1,0.037,False,-0.2607717014014801,0.5837076102385113
3.5482707358896732,17:42:24.750377,17:41:08.938509,0,,NaN,NaN,NaN,NaN,NaN,NaN,NaN,NaN,NaN,NaN,NaN,NaN,,NaN,NaN,NaN,NaN,NaN,NaN,NaN,NaN,NaN,NaN,NaN,NaN,,0.09793263,1.2937934,0.42507547,0.9826003,0.007623557,-0.1855764,-0.104944386,-0.8015876,-0.588595,-0.15324292,0.59782875,-0.78684014,,NaN,NaN,NaN,NaN,NaN,NaN,NaN,NaN,NaN,NaN,NaN,NaN,,NaN,NaN,NaN,NaN,NaN,NaN,NaN,NaN,NaN,NaN,NaN,NaN,,NaN,NaN,NaN,NaN,NaN,NaN,NaN,,NaN,NaN,NaN,NaN,NaN,NaN,NaN,,-0.11697196646865997,-0.12781700610823973,0.09957687064,-0.11709667966849292,,-1.6316772e-06,-2.6226044e-06,-2.1457672e-06,1.0,1.963973e-05,1.4923513e-05,-1.963228e-05,1.0,3.8146973e-06,-1.49309635e-05,-3.8146973e-06,1.0,1163,3.588,0,1,0.037,False,-0.26232072208302704,0.5846732142541007
3.598470088792965,17:42:24.790728,17:41:08.938509,0,,NaN,NaN,NaN,NaN,NaN,NaN,NaN,NaN,NaN,NaN,NaN,NaN,,NaN,NaN,NaN,NaN,NaN,NaN,NaN,NaN,NaN,NaN,NaN,NaN,,0.09793263,1.2937934,0.42507547,0.9826003,0.007623557,-0.1855764,-0.104944386,-0.8015876,-0.588595,-0.15324292,0.59782875,-0.78684014,,NaN,NaN,NaN,NaN,NaN,NaN,NaN,NaN,NaN,NaN,NaN,NaN,,NaN,NaN,NaN,NaN,NaN,NaN,NaN,NaN,NaN,NaN,NaN,NaN,,NaN,NaN,NaN,NaN,NaN,NaN,NaN,,NaN,NaN,NaN,NaN,NaN,NaN,NaN,,-0.11697196646865997,-0.12781700610823973,0.09957687064,-0.11709667966849292,,-1.6316772e-06,-2.6226044e-06,-2.1457672e-06,1.0,1.963973e-05,1.4923513e-05,-1.963228e-05,1.0,3.8146973e-06,-1.49309635e-05,-3.8146973e-06,1.0,1176,3.628,0,1,0.037,False,-0.2620824112089424,0.5872320648954119
3.63884554291144,17:42:24.831777,17:41:09.096070,0,,NaN,NaN,NaN,NaN,NaN,NaN,NaN,NaN,NaN,NaN,NaN,NaN,,NaN,NaN,NaN,NaN,NaN,NaN,NaN,NaN,NaN,NaN,NaN,NaN,,0.09793263,1.2937934,0.42507547,0.9826003,0.007623557,-0.1855764,-0.104944386,-0.8015876,-0.588595,-0.15324292,0.59782875,-0.78684014,,NaN,NaN,NaN,NaN,NaN,NaN,NaN,NaN,NaN,NaN,NaN,NaN,,NaN,NaN,NaN,NaN,NaN,NaN,NaN,NaN,NaN,NaN,NaN,NaN,,NaN,NaN,NaN,NaN,NaN,NaN,NaN,,NaN,NaN,NaN,NaN,NaN,NaN,NaN,,-0.11697196646865997,-0.12781700610823973,0.09957687064,-0.11709667966849292,,-1.6316772e-06,-2.6226044e-06,-2.1457672e-06,1.0,1.963973e-05,1.4923513e-05,-1.963228e-05,1.0,3.8146973e-06,-1.49309635e-05,-3.8146973e-06,1.0,1189,3.668,0,1,0.037,False,-0.26232072208302704,0.5886321907180165
3.679860794916749,17:42:24.865070,17:41:09.096070,0,,NaN,NaN,NaN,NaN,NaN,NaN,NaN,NaN,NaN,NaN,NaN,NaN,,NaN,NaN,NaN,NaN,NaN,NaN,NaN,NaN,NaN,NaN,NaN,NaN,,0.09793263,1.2937934,0.42507547,0.9826003,0.007623557,-0.1855764,-0.104944386,-0.8015876,-0.588595,-0.15324292,0.59782875,-0.78684014,,NaN,NaN,NaN,NaN,NaN,NaN,NaN,NaN,NaN,NaN,NaN,NaN,,NaN,NaN,NaN,NaN,NaN,NaN,NaN,NaN,NaN,NaN,NaN,NaN,,NaN,NaN,NaN,NaN,NaN,NaN,NaN,,NaN,NaN,NaN,NaN,NaN,NaN,NaN,,-0.11697196646865997,-0.12781700610823973,0.09957687064,-0.11709667966849292,,-1.6316772e-06,-2.6226044e-06,-2.1457672e-06,1.0,1.963973e-05,1.4923513e-05,-1.963228e-05,1.0,3.8146973e-06,-1.49309635e-05,-3.8146973e-06,1.0,1206,3.723,1,2,0.063,False,-0.26190367805337944,0.5869906638915143
3.7131553879007697,17:42:24.921991,17:41:09.096070,0,,NaN,NaN,NaN,NaN,NaN,NaN,NaN,NaN,NaN,NaN,NaN,NaN,,NaN,NaN,NaN,NaN,NaN,NaN,NaN,NaN,NaN,NaN,NaN,NaN,,0.09793263,1.2937934,0.42507547,0.9826003,0.007623557,-0.1855764,-0.104944386,-0.8015876,-0.588595,-0.15324292,0.59782875,-0.78684014,,NaN,NaN,NaN,NaN,NaN,NaN,NaN,NaN,NaN,NaN,NaN,NaN,,NaN,NaN,NaN,NaN,NaN,NaN,NaN,NaN,NaN,NaN,NaN,NaN,,NaN,NaN,NaN,NaN,NaN,NaN,NaN,,NaN,NaN,NaN,NaN,NaN,NaN,NaN,,-0.11697196646865997,-0.12781700610823973,0.09957687064,-0.11709667966849292,,-1.6316772e-06,-2.6226044e-06,-2.1457672e-06,1.0,1.963973e-05,1.4923513e-05,-1.963228e-05,1.0,3.8146973e-06,-1.49309635e-05,-3.8146973e-06,1.0,1251,3.865,1,2,0.205,False,-0.2612483231496481,0.5766587009247104
3.7700997840147465,17:42:25.063136,17:41:09.273578,0,,NaN,NaN,NaN,NaN,NaN,NaN,NaN,NaN,NaN,NaN,NaN,NaN,,NaN,NaN,NaN,NaN,NaN,NaN,NaN,NaN,NaN,NaN,NaN,NaN,,0.09793263,1.2937934,0.42507547,0.9826003,0.007623557,-0.1855764,-0.104944386,-0.8015876,-0.588595,-0.15324292,0.59782875,-0.78684014,,NaN,NaN,NaN,NaN,NaN,NaN,NaN,NaN,NaN,NaN,NaN,NaN,,NaN,NaN,NaN,NaN,NaN,NaN,NaN,NaN,NaN,NaN,NaN,NaN,,NaN,NaN,NaN,NaN,NaN,NaN,NaN,,NaN,NaN,NaN,NaN,NaN,NaN,NaN,,-0.11697196646865997,-0.12781700610823973,0.09957687064,-0.11709667966849292,,-1.6316772e-06,-2.6226044e-06,-2.1457672e-06,1.0,1.963973e-05,1.4923513e-05,-1.963228e-05,1.0,3.8146973e-06,-1.49309635e-05,-3.8146973e-06,1.0,1260,3.894,1,2,0.234,False,-0.2620824112089424,0.5871837846946324
3.911251031793654,17:42:25.096167,17:41:09.273578,0,,NaN,NaN,NaN,NaN,NaN,NaN,NaN,NaN,NaN,NaN,NaN,NaN,,NaN,NaN,NaN,NaN,NaN,NaN,NaN,NaN,NaN,NaN,NaN,NaN,,0.09793263,1.2937934,0.42507547,0.9826003,0.007623557,-0.1855764,-0.104944386,-0.8015876,-0.588595,-0.15324292,0.59782875,-0.78684014,,NaN,NaN,NaN,NaN,NaN,NaN,NaN,NaN,NaN,NaN,NaN,NaN,,NaN,NaN,NaN,NaN,NaN,NaN,NaN,NaN,NaN,NaN,NaN,NaN,,NaN,NaN,NaN,NaN,NaN,NaN,NaN,,NaN,NaN,NaN,NaN,NaN,NaN,NaN,,-0.11697196646865997,-0.12781700610823973,0.09957687064,-0.11709667966849292,,-1.6316772e-06,-2.6226044e-06,-2.1457672e-06,1.0,1.963973e-05,1.4923513e-05,-1.963228e-05,1.0,3.8146973e-06,-1.49309635e-05,-3.8146973e-06,1.0,1269,3.923,1,2,0.263,False,-0.2630356547052788,0.5921566453749167
3.944261878961697,17:42:25.123119,17:41:09.273578,0,,NaN,NaN,NaN,NaN,NaN,NaN,NaN,NaN,NaN,NaN,NaN,NaN,,NaN,NaN,NaN,NaN,NaN,NaN,NaN,NaN,NaN,NaN,NaN,NaN,,0.09793263,1.2937934,0.42507547,0.9826003,0.007623557,-0.1855764,-0.104944386,-0.8015876,-0.588595,-0.15324292,0.59782875,-0.78684014,,NaN,NaN,NaN,NaN,NaN,NaN,NaN,NaN,NaN,NaN,NaN,NaN,,NaN,NaN,NaN,NaN,NaN,NaN,NaN,NaN,NaN,NaN,NaN,NaN,,NaN,NaN,NaN,NaN,NaN,NaN,NaN,,NaN,NaN,NaN,NaN,NaN,NaN,NaN,,-0.11697196646865997,-0.12781700610823973,0.09957687064,-0.11709667966849292,,-1.6316772e-06,-2.6226044e-06,-2.1457672e-06,1.0,1.963973e-05,1.4923513e-05,-1.963228e-05,1.0,3.8146973e-06,-1.49309635e-05,-3.8146973e-06,1.0,1278,3.952,1,2,0.292,False,-0.26249945523859,0.5970329456536421
3.9712388378102332,17:42:25.147725,17:41:09.405489,0,,NaN,NaN,NaN,NaN,NaN,NaN,NaN,NaN,NaN,NaN,NaN,NaN,,NaN,NaN,NaN,NaN,NaN,NaN,NaN,NaN,NaN,NaN,NaN,NaN,,0.09793263,1.2937934,0.42507547,0.9826003,0.007623557,-0.1855764,-0.104944386,-0.8015876,-0.588595,-0.15324292,0.59782875,-0.78684014,,NaN,NaN,NaN,NaN,NaN,NaN,NaN,NaN,NaN,NaN,NaN,NaN,,NaN,NaN,NaN,NaN,NaN,NaN,NaN,NaN,NaN,NaN,NaN,NaN,,NaN,NaN,NaN,NaN,NaN,NaN,NaN,,NaN,NaN,NaN,NaN,NaN,NaN,NaN,,-0.11697196646865997,-0.12781700610823973,0.09957687064,-0.11709667966849292,,-1.6316772e-06,-2.6226044e-06,-2.1457672e-06,1.0,1.963973e-05,1.4923513e-05,-1.963228e-05,1.0,3.8146973e-06,-1.49309635e-05,-3.8146973e-06,1.0,1287,3.981,1,2,0.321,False,-0.2629164992682367,0.5990607140863791
3.9958175078500062,17:42:25.176213,17:41:09.405489,0,,NaN,NaN,NaN,NaN,NaN,NaN,NaN,NaN,NaN,NaN,NaN,NaN,,NaN,NaN,NaN,NaN,NaN,NaN,NaN,NaN,NaN,NaN,NaN,NaN,,0.09793263,1.2937934,0.42507547,0.9826003,0.007623557,-0.1855764,-0.104944386,-0.8015876,-0.588595,-0.15324292,0.59782875,-0.78684014,,NaN,NaN,NaN,NaN,NaN,NaN,NaN,NaN,NaN,NaN,NaN,NaN,,NaN,NaN,NaN,NaN,NaN,NaN,NaN,NaN,NaN,NaN,NaN,NaN,,NaN,NaN,NaN,NaN,NaN,NaN,NaN,,NaN,NaN,NaN,NaN,NaN,NaN,NaN,,-0.11697196646865997,-0.12781700610823973,0.09957687064,-0.11709667966849292,,-1.6316772e-06,-2.6226044e-06,-2.1457672e-06,1.0,1.963973e-05,1.4923513e-05,-1.963228e-05,1.0,3.8146973e-06,-1.49309635e-05,-3.8146973e-06,1.0,1364,4.225,1,2,0.565,False,-0.26196325577190027,0.5945706554138899
4.024335564812645,17:42:25.424189,17:41:09.651861,0,,NaN,NaN,NaN,NaN,NaN,NaN,NaN,NaN,NaN,NaN,NaN,NaN,,NaN,NaN,NaN,NaN,NaN,NaN,NaN,NaN,NaN,NaN,NaN,NaN,,0.09793263,1.2937934,0.42507547,0.9826003,0.007623557,-0.1855764,-0.104944386,-0.8015876,-0.588595,-0.15324292,0.59782875,-0.78684014,,NaN,NaN,NaN,NaN,NaN,NaN,NaN,NaN,NaN,NaN,NaN,NaN,,NaN,NaN,NaN,NaN,NaN,NaN,NaN,NaN,NaN,NaN,NaN,NaN,,NaN,NaN,NaN,NaN,NaN,NaN,NaN,,NaN,NaN,NaN,NaN,NaN,NaN,NaN,,-0.11697196646865997,-0.12781700610823973,0.09957687064,-0.11709667966849292,,-1.6316772e-06,-2.6226044e-06,-2.1457672e-06,1.0,1.963973e-05,1.4923513e-05,-1.963228e-05,1.0,3.8146973e-06,-1.49309635e-05,-3.8146973e-06,1.0,1373,4.254,1,2,0.594,False,-0.2621419889274632,0.6355605458756499
4.272310786880553,17:42:25.448659,17:41:09.651861,0,,NaN,NaN,NaN,NaN,NaN,NaN,NaN,NaN,NaN,NaN,NaN,NaN,,NaN,NaN,NaN,NaN,NaN,NaN,NaN,NaN,NaN,NaN,NaN,NaN,,0.09793263,1.2937934,0.42507547,0.9826003,0.007623557,-0.1855764,-0.104944386,-0.8015876,-0.588595,-0.15324292,0.59782875,-0.78684014,,NaN,NaN,NaN,NaN,NaN,NaN,NaN,NaN,NaN,NaN,NaN,NaN,,NaN,NaN,NaN,NaN,NaN,NaN,NaN,NaN,NaN,NaN,NaN,NaN,,NaN,NaN,NaN,NaN,NaN,NaN,NaN,,NaN,NaN,NaN,NaN,NaN,NaN,NaN,,-0.11697196646865997,-0.12781700610823973,0.09957687064,-0.11709667966849292,,-1.6316772e-06,-2.6226044e-06,-2.1457672e-06,1.0,1.963973e-05,1.4923513e-05,-1.963228e-05,1.0,3.8146973e-06,-1.49309635e-05,-3.8146973e-06,1.0,1382,4.283,1,2,0.623,False,-0.2622611443645053,0.6490790020938983
4.29675666987896,17:42:25.476287,17:41:09.651861,0,,NaN,NaN,NaN,NaN,NaN,NaN,NaN,NaN,NaN,NaN,NaN,NaN,,NaN,NaN,NaN,NaN,NaN,NaN,NaN,NaN,NaN,NaN,NaN,NaN,,0.09793263,1.2937934,0.42507547,0.9826003,0.007623557,-0.1855764,-0.104944386,-0.8015876,-0.588595,-0.15324292,0.59782875,-0.78684014,,NaN,NaN,NaN,NaN,NaN,NaN,NaN,NaN,NaN,NaN,NaN,NaN,,NaN,NaN,NaN,NaN,NaN,NaN,NaN,NaN,NaN,NaN,NaN,NaN,,NaN,NaN,NaN,NaN,NaN,NaN,NaN,,NaN,NaN,NaN,NaN,NaN,NaN,NaN,,-0.11697196646865997,-0.12781700610823973,0.09957687064,-0.11709667966849292,,-1.6316772e-06,-2.6226044e-06,-2.1457672e-06,1.0,1.963973e-05,1.4923513e-05,-1.963228e-05,1.0,3.8146973e-06,-1.49309635e-05,-3.8146973e-06,1.0,1391,4.311,1,2,0.651,False,-0.26148663402373185,0.659797206666938
4.3244092939421535,17:42:25.511414,17:41:09.651861,0,,NaN,NaN,NaN,NaN,NaN,NaN,NaN,NaN,NaN,NaN,NaN,NaN,,NaN,NaN,NaN,NaN,NaN,NaN,NaN,NaN,NaN,NaN,NaN,NaN,,0.09793263,1.2937934,0.42507547,0.9826003,0.007623557,-0.1855764,-0.104944386,-0.8015876,-0.588595,-0.15324292,0.59782875,-0.78684014,,NaN,NaN,NaN,NaN,NaN,NaN,NaN,NaN,NaN,NaN,NaN,NaN,,NaN,NaN,NaN,NaN,NaN,NaN,NaN,NaN,NaN,NaN,NaN,NaN,,NaN,NaN,NaN,NaN,NaN,NaN,NaN,,NaN,NaN,NaN,NaN,NaN,NaN,NaN,,-0.11697196646865997,-0.12781700610823973,0.09957687064,-0.11709667966849292,,-1.6316772e-06,-2.6226044e-06,-2.1457672e-06,1.0,1.963973e-05,1.4923513e-05,-1.963228e-05,1.0,3.8146973e-06,-1.49309635e-05,-3.8146973e-06,1.0,1400,4.34,1,2,0.68,False,-0.2618441003348577,0.6708533726454338
4.359522936865687,17:42:25.545865,17:41:09.793510,0,,NaN,NaN,NaN,NaN,NaN,NaN,NaN,NaN,NaN,NaN,NaN,NaN,,NaN,NaN,NaN,NaN,NaN,NaN,NaN,NaN,NaN,NaN,NaN,NaN,,0.09793263,1.2937934,0.42507547,0.9826003,0.007623557,-0.1855764,-0.104944386,-0.8015876,-0.588595,-0.15324292,0.59782875,-0.78684014,,NaN,NaN,NaN,NaN,NaN,NaN,NaN,NaN,NaN,NaN,NaN,NaN,,NaN,NaN,NaN,NaN,NaN,NaN,NaN,NaN,NaN,NaN,NaN,NaN,,NaN,NaN,NaN,NaN,NaN,NaN,NaN,,NaN,NaN,NaN,NaN,NaN,NaN,NaN,,-0.11697196646865997,-0.12781700610823973,0.09957687064,-0.11709667966849292,,-1.6316772e-06,-2.6226044e-06,-2.1457672e-06,1.0,1.963973e-05,1.4923513e-05,-1.963228e-05,1.0,3.8146973e-06,-1.49309635e-05,-3.8146973e-06,1.0,1409,4.37,1,2,0.71,False,-0.26101001227556386,0.679785209789634
4.393967474810779,17:42:25.568054,17:41:09.793510,0,,NaN,NaN,NaN,NaN,NaN,NaN,NaN,NaN,NaN,NaN,NaN,NaN,,NaN,NaN,NaN,NaN,NaN,NaN,NaN,NaN,NaN,NaN,NaN,NaN,,0.09793263,1.2937934,0.42507547,0.9826003,0.007623557,-0.1855764,-0.104944386,-0.8015876,-0.588595,-0.15324292,0.59782875,-0.78684014,,NaN,NaN,NaN,NaN,NaN,NaN,NaN,NaN,NaN,NaN,NaN,NaN,,NaN,NaN,NaN,NaN,NaN,NaN,NaN,NaN,NaN,NaN,NaN,NaN,,NaN,NaN,NaN,NaN,NaN,NaN,NaN,,NaN,NaN,NaN,NaN,NaN,NaN,NaN,,-0.11697196646865997,-0.12781700610823973,0.09957687064,-0.11709667966849292,,-1.6316772e-06,-2.6226044e-06,-2.1457672e-06,1.0,1.963973e-05,1.4923513e-05,-1.963228e-05,1.0,3.8146973e-06,-1.49309635e-05,-3.8146973e-06,1.0,1418,4.399,1,2,0.739,False,-0.26285692154971585,0.7048909141949524
4.416148604825139,17:42:25.595373,17:41:09.793510,0,,NaN,NaN,NaN,NaN,NaN,NaN,NaN,NaN,NaN,NaN,NaN,NaN,,NaN,NaN,NaN,NaN,NaN,NaN,NaN,NaN,NaN,NaN,NaN,NaN,,0.09793263,1.2937934,0.42507547,0.9826003,0.007623557,-0.1855764,-0.104944386,-0.8015876,-0.588595,-0.15324292,0.59782875,-0.78684014,,NaN,NaN,NaN,NaN,NaN,NaN,NaN,NaN,NaN,NaN,NaN,NaN,,NaN,NaN,NaN,NaN,NaN,NaN,NaN,NaN,NaN,NaN,NaN,NaN,,NaN,NaN,NaN,NaN,NaN,NaN,NaN,,NaN,NaN,NaN,NaN,NaN,NaN,NaN,,-0.11697196646865997,-0.12781700610823973,0.09957687064,-0.11709667966849292,,-1.6316772e-06,-2.6226044e-06,-2.1457672e-06,1.0,1.963973e-05,1.4923513e-05,-1.963228e-05,1.0,3.8146973e-06,-1.49309635e-05,-3.8146973e-06,1.0,1427,4.427,1,2,0.767,False,-0.2629164992682367,0.7244443955106328
4.443464980926365,17:42:25.626485,17:41:09.793510,0,,NaN,NaN,NaN,NaN,NaN,NaN,NaN,NaN,NaN,NaN,NaN,NaN,,NaN,NaN,NaN,NaN,NaN,NaN,NaN,NaN,NaN,NaN,NaN,NaN,,0.09793263,1.2937934,0.42507547,0.9826003,0.007623557,-0.1855764,-0.104944386,-0.8015876,-0.588595,-0.15324292,0.59782875,-0.78684014,,NaN,NaN,NaN,NaN,NaN,NaN,NaN,NaN,NaN,NaN,NaN,NaN,,NaN,NaN,NaN,NaN,NaN,NaN,NaN,NaN,NaN,NaN,NaN,NaN,,NaN,NaN,NaN,NaN,NaN,NaN,NaN,,NaN,NaN,NaN,NaN,NaN,NaN,NaN,,-0.11697196646865997,-0.12781700610823973,0.09957687064,-0.11709667966849292,,-1.6316772e-06,-2.6226044e-06,-2.1457672e-06,1.0,1.963973e-05,1.4923513e-05,-1.963228e-05,1.0,3.8146973e-06,-1.49309635e-05,-3.8146973e-06,1.0,1436,4.456,1,2,0.796,False,-0.262797343831195,0.7612821887053598
4.474604734918103,17:42:25.654955,17:41:09.793510,0,,NaN,NaN,NaN,NaN,NaN,NaN,NaN,NaN,NaN,NaN,NaN,NaN,,NaN,NaN,NaN,NaN,NaN,NaN,NaN,NaN,NaN,NaN,NaN,NaN,,0.09793263,1.2937934,0.42507547,0.9826003,0.007623557,-0.1855764,-0.104944386,-0.8015876,-0.588595,-0.15324292,0.59782875,-0.78684014,,NaN,NaN,NaN,NaN,NaN,NaN,NaN,NaN,NaN,NaN,NaN,NaN,,NaN,NaN,NaN,NaN,NaN,NaN,NaN,NaN,NaN,NaN,NaN,NaN,,NaN,NaN,NaN,NaN,NaN,NaN,NaN,,NaN,NaN,NaN,NaN,NaN,NaN,NaN,,-0.11697196646865997,-0.12781700610823973,0.09957687064,-0.11709667966849292,,-1.6316772e-06,-2.6226044e-06,-2.1457672e-06,1.0,1.963973e-05,1.4923513e-05,-1.963228e-05,1.0,3.8146973e-06,-1.49309635e-05,-3.8146973e-06,1.0,1607,5.001,0,3,0.948,False,-0.26255903295711036,0.7893329853582252
4.50307326996699,17:42:26.199538,17:41:10.381040,0,,NaN,NaN,NaN,NaN,NaN,NaN,NaN,NaN,NaN,NaN,NaN,NaN,,NaN,NaN,NaN,NaN,NaN,NaN,NaN,NaN,NaN,NaN,NaN,NaN,,0.09793082,1.2937902,0.4250723,0.98259723,0.007600259,-0.1855935,-0.10497294,-0.8015878,-0.58858955,-0.15324292,0.59782875,-0.78684014,,NaN,NaN,NaN,NaN,NaN,NaN,NaN,NaN,NaN,NaN,NaN,NaN,,NaN,NaN,NaN,NaN,NaN,NaN,NaN,NaN,NaN,NaN,NaN,NaN,,NaN,NaN,NaN,NaN,NaN,NaN,NaN,,NaN,NaN,NaN,NaN,NaN,NaN,NaN,,-0.11697196646865997,-0.12781700610823973,0.09957687064,-0.11709667966849292,,-2.577901e-06,-1.9073486e-06,2.6226044e-06,1.0,-3.2186508e-06,-2.4586916e-06,3.233552e-06,1.0,-6.556511e-07,2.4437904e-06,6.2584877e-07,1.0,1616,5.029,0,3,0.948,False,-0.26160578946077395,0.9809571022518961
5.047640127828345,17:42:26.230423,17:41:10.381040,0,,NaN,NaN,NaN,NaN,NaN,NaN,NaN,NaN,NaN,NaN,NaN,NaN,,NaN,NaN,NaN,NaN,NaN,NaN,NaN,NaN,NaN,NaN,NaN,NaN,,0.09793082,1.2937902,0.4250723,0.98259723,0.007600259,-0.1855935,-0.10497294,-0.8015878,-0.58858955,-0.15324292,0.59782875,-0.78684014,,NaN,NaN,NaN,NaN,NaN,NaN,NaN,NaN,NaN,NaN,NaN,NaN,,NaN,NaN,NaN,NaN,NaN,NaN,NaN,NaN,NaN,NaN,NaN,NaN,,NaN,NaN,NaN,NaN,NaN,NaN,NaN,,NaN,NaN,NaN,NaN,NaN,NaN,NaN,,-0.11697196646865997,-0.12781700610823973,0.09957687064,-0.11709667966849292,,-2.577901e-06,-1.9073486e-06,2.6226044e-06,1.0,-3.2186508e-06,-2.4586916e-06,3.233552e-06,1.0,-6.556511e-07,2.4437904e-06,6.2584877e-07,1.0,1625,5.058,0,3,0.948,False,-0.2608908568385213,0.9812467834565728
5.078543163836002,17:42:26.257570,17:41:10.381040,0,,NaN,NaN,NaN,NaN,NaN,NaN,NaN,NaN,NaN,NaN,NaN,NaN,,NaN,NaN,NaN,NaN,NaN,NaN,NaN,NaN,NaN,NaN,NaN,NaN,,0.09793082,1.2937902,0.4250723,0.98259723,0.007600259,-0.1855935,-0.10497294,-0.8015878,-0.58858955,-0.15324292,0.59782875,-0.78684014,,NaN,NaN,NaN,NaN,NaN,NaN,NaN,NaN,NaN,NaN,NaN,NaN,,NaN,NaN,NaN,NaN,NaN,NaN,NaN,NaN,NaN,NaN,NaN,NaN,,NaN,NaN,NaN,NaN,NaN,NaN,NaN,,NaN,NaN,NaN,NaN,NaN,NaN,NaN,,-0.11697196646865997,-0.12781700610823973,0.09957687064,-0.11709667966849292,,-2.577901e-06,-1.9073486e-06,2.6226044e-06,1.0,-3.2186508e-06,-2.4586916e-06,3.233552e-06,1.0,-6.556511e-07,2.4437904e-06,6.2584877e-07,1.0,1638,5.098,0,3,0.948,False,-0.2602355019347904,0.9815847448620292
5.105686030816287,17:42:26.296396,17:41:10.551371,0,,NaN,NaN,NaN,NaN,NaN,NaN,NaN,NaN,NaN,NaN,NaN,NaN,,NaN,NaN,NaN,NaN,NaN,NaN,NaN,NaN,NaN,NaN,NaN,NaN,,0.09793082,1.2937902,0.4250723,0.98259723,0.007600259,-0.1855935,-0.10497294,-0.8015878,-0.58858955,-0.15324292,0.59782875,-0.78684014,,NaN,NaN,NaN,NaN,NaN,NaN,NaN,NaN,NaN,NaN,NaN,NaN,,NaN,NaN,NaN,NaN,NaN,NaN,NaN,NaN,NaN,NaN,NaN,NaN,,NaN,NaN,NaN,NaN,NaN,NaN,NaN,,NaN,NaN,NaN,NaN,NaN,NaN,NaN,,-0.11697196646865997,-0.12781700610823973,0.09957687064,-0.11709667966849292,,-2.577901e-06,-1.9073486e-06,2.6226044e-06,1.0,-3.2186508e-06,-2.4586916e-06,3.233552e-06,1.0,-6.556511e-07,2.4437904e-06,6.2584877e-07,1.0,1659,5.164,0,3,0.948,False,-0.26041423509035333,0.9793638556261739
5.144429416861385,17:42:26.360624,17:41:10.551371,0,,NaN,NaN,NaN,NaN,NaN,NaN,NaN,NaN,NaN,NaN,NaN,NaN,,NaN,NaN,NaN,NaN,NaN,NaN,NaN,NaN,NaN,NaN,NaN,NaN,,0.09793082,1.2937902,0.4250723,0.98259723,0.007600259,-0.1855935,-0.10497294,-0.8015878,-0.58858955,-0.15324292,0.59782875,-0.78684014,,NaN,NaN,NaN,NaN,NaN,NaN,NaN,NaN,NaN,NaN,NaN,NaN,,NaN,NaN,NaN,NaN,NaN,NaN,NaN,NaN,NaN,NaN,NaN,NaN,,NaN,NaN,NaN,NaN,NaN,NaN,NaN,,NaN,NaN,NaN,NaN,NaN,NaN,NaN,,-0.11697196646865997,-0.12781700610823973,0.09957687064,-0.11709667966849292,,-2.577901e-06,-1.9073486e-06,2.6226044e-06,1.0,-3.2186508e-06,-2.4586916e-06,3.233552e-06,1.0,-6.556511e-07,2.4437904e-06,6.2584877e-07,1.0,1680,5.23,0,3,0.948,False,-0.26059296824591627,0.9749703573552433
5.208726210985333,17:42:26.431464,17:41:10.695713,0,,NaN,NaN,NaN,NaN,NaN,NaN,NaN,NaN,NaN,NaN,NaN,NaN,,NaN,NaN,NaN,NaN,NaN,NaN,NaN,NaN,NaN,NaN,NaN,NaN,,0.09793082,1.2937902,0.4250723,0.98259723,0.007600259,-0.1855935,-0.10497294,-0.8015878,-0.58858955,-0.15324292,0.59782875,-0.78684014,,NaN,NaN,NaN,NaN,NaN,NaN,NaN,NaN,NaN,NaN,NaN,NaN,,NaN,NaN,NaN,NaN,NaN,NaN,NaN,NaN,NaN,NaN,NaN,NaN,,NaN,NaN,NaN,NaN,NaN,NaN,NaN,,NaN,NaN,NaN,NaN,NaN,NaN,NaN,,-0.11697196646865997,-0.12781700610823973,0.09957687064,-0.11709667966849292,,-2.577901e-06,-1.9073486e-06,2.6226044e-06,1.0,-3.2186508e-06,-2.4586916e-06,3.233552e-06,1.0,-6.556511e-07,2.4437904e-06,6.2584877e-07,1.0,1697,5.282,0,3,0.948,False,-0.26101001227556386,0.9702388976788563
5.2795783979818225,17:42:26.485994,17:41:10.695713,0,,NaN,NaN,NaN,NaN,NaN,NaN,NaN,NaN,NaN,NaN,NaN,NaN,,NaN,NaN,NaN,NaN,NaN,NaN,NaN,NaN,NaN,NaN,NaN,NaN,,0.09793082,1.2937902,0.4250723,0.98259723,0.007600259,-0.1855935,-0.10497294,-0.8015878,-0.58858955,-0.15324292,0.59782875,-0.78684014,,NaN,NaN,NaN,NaN,NaN,NaN,NaN,NaN,NaN,NaN,NaN,NaN,,NaN,NaN,NaN,NaN,NaN,NaN,NaN,NaN,NaN,NaN,NaN,NaN,,NaN,NaN,NaN,NaN,NaN,NaN,NaN,,NaN,NaN,NaN,NaN,NaN,NaN,NaN,,-0.11697196646865997,-0.12781700610823973,0.09957687064,-0.11709667966849292,,-2.577901e-06,-1.9073486e-06,2.6226044e-06,1.0,-3.2186508e-06,-2.4586916e-06,3.233552e-06,1.0,-6.556511e-07,2.4437904e-06,6.2584877e-07,1.0,1718,5.349,0,3,0.948,False,-0.26160578946077395,0.9708182600882096
5.334058897802606,17:42:26.551937,17:41:10.817408,0,,NaN,NaN,NaN,NaN,NaN,NaN,NaN,NaN,NaN,NaN,NaN,NaN,,NaN,NaN,NaN,NaN,NaN,NaN,NaN,NaN,NaN,NaN,NaN,NaN,,0.09793082,1.2937902,0.4250723,0.98259723,0.007600259,-0.1855935,-0.10497294,-0.8015878,-0.58858955,-0.15324292,0.59782875,-0.78684014,,NaN,NaN,NaN,NaN,NaN,NaN,NaN,NaN,NaN,NaN,NaN,NaN,,NaN,NaN,NaN,NaN,NaN,NaN,NaN,NaN,NaN,NaN,NaN,NaN,,NaN,NaN,NaN,NaN,NaN,NaN,NaN,,NaN,NaN,NaN,NaN,NaN,NaN,NaN,,-0.11697196646865997,-0.12781700610823973,0.09957687064,-0.11709667966849292,,-2.577901e-06,-1.9073486e-06,2.6226044e-06,1.0,-3.2186508e-06,-2.4586916e-06,3.233552e-06,1.0,-6.556511e-07,2.4437904e-06,6.2584877e-07,1.0,1739,5.414,0,3,0.948,False,-0.2602950796533112,0.9693215738640466
5.400055555859581,17:42:26.611679,17:41:10.817408,0,,NaN,NaN,NaN,NaN,NaN,NaN,NaN,NaN,NaN,NaN,NaN,NaN,,NaN,NaN,NaN,NaN,NaN,NaN,NaN,NaN,NaN,NaN,NaN,NaN,,0.09793082,1.2937902,0.4250723,0.98259723,0.007600259,-0.1855935,-0.10497294,-0.8015878,-0.58858955,-0.15324292,0.59782875,-0.78684014,,NaN,NaN,NaN,NaN,NaN,NaN,NaN,NaN,NaN,NaN,NaN,NaN,,NaN,NaN,NaN,NaN,NaN,NaN,NaN,NaN,NaN,NaN,NaN,NaN,,NaN,NaN,NaN,NaN,NaN,NaN,NaN,,NaN,NaN,NaN,NaN,NaN,NaN,NaN,,-0.11697196646865997,-0.12781700610823973,0.09957687064,-0.11709667966849292,,-2.577901e-06,-1.9073486e-06,2.6226044e-06,1.0,-3.2186508e-06,-2.4586916e-06,3.233552e-06,1.0,-6.556511e-07,2.4437904e-06,6.2584877e-07,1.0,1756,5.467,0,3,0.948,False,-0.260652545964438,0.9654108776009105
5.4598002838902175,17:42:26.659827,17:41:10.817408,0,,NaN,NaN,NaN,NaN,NaN,NaN,NaN,NaN,NaN,NaN,NaN,NaN,,NaN,NaN,NaN,NaN,NaN,NaN,NaN,NaN,NaN,NaN,NaN,NaN,,0.09793082,1.2937902,0.4250723,0.98259723,0.007600259,-0.1855935,-0.10497294,-0.8015878,-0.58858955,-0.15324292,0.59782875,-0.78684014,,NaN,NaN,NaN,NaN,NaN,NaN,NaN,NaN,NaN,NaN,NaN,NaN,,NaN,NaN,NaN,NaN,NaN,NaN,NaN,NaN,NaN,NaN,NaN,NaN,,NaN,NaN,NaN,NaN,NaN,NaN,NaN,,NaN,NaN,NaN,NaN,NaN,NaN,NaN,,-0.11697196646865997,-0.12781700610823973,0.09957687064,-0.11709667966849292,,-2.577901e-06,-1.9073486e-06,2.6226044e-06,1.0,-3.2186508e-06,-2.4586916e-06,3.233552e-06,1.0,-6.556511e-07,2.4437904e-06,6.2584877e-07,1.0,1777,5.532,0,3,0.948,False,-0.26160578946077395,0.960727698125303
5.5079454658553,17:42:26.734659,17:41:10.937349,0,,NaN,NaN,NaN,NaN,NaN,NaN,NaN,NaN,NaN,NaN,NaN,NaN,,NaN,NaN,NaN,NaN,NaN,NaN,NaN,NaN,NaN,NaN,NaN,NaN,,0.09793082,1.2937902,0.4250723,0.98259723,0.007600259,-0.1855935,-0.10497294,-0.8015878,-0.58858955,-0.15324292,0.59782875,-0.78684014,,NaN,NaN,NaN,NaN,NaN,NaN,NaN,NaN,NaN,NaN,NaN,NaN,,NaN,NaN,NaN,NaN,NaN,NaN,NaN,NaN,NaN,NaN,NaN,NaN,,NaN,NaN,NaN,NaN,NaN,NaN,NaN,,NaN,NaN,NaN,NaN,NaN,NaN,NaN,,-0.11697196646865997,-0.12781700610823973,0.09957687064,-0.11709667966849292,,-2.577901e-06,-1.9073486e-06,2.6226044e-06,1.0,-3.2186508e-06,-2.4586916e-06,3.233552e-06,1.0,-6.556511e-07,2.4437904e-06,6.2584877e-07,1.0,1798,5.599,1,4,0.956,False,-0.2612483231496481,0.9572515236691821
5.582768184831366,17:42:26.795357,17:41:11.059920,0,,NaN,NaN,NaN,NaN,NaN,NaN,NaN,NaN,NaN,NaN,NaN,NaN,,NaN,NaN,NaN,NaN,NaN,NaN,NaN,NaN,NaN,NaN,NaN,NaN,,0.09792573,1.2937909,0.4250689,0.9825991,0.007614445,-0.18558308,-0.104955554,-0.80158764,-0.5885928,-0.15324292,0.59782875,-0.78684014,,NaN,NaN,NaN,NaN,NaN,NaN,NaN,NaN,NaN,NaN,NaN,NaN,,NaN,NaN,NaN,NaN,NaN,NaN,NaN,NaN,NaN,NaN,NaN,NaN,,NaN,NaN,NaN,NaN,NaN,NaN,NaN,,NaN,NaN,NaN,NaN,NaN,NaN,NaN,,-0.11697196646865997,-0.12781700610823973,0.09957687064,-0.11709667966849292,,-7.137656e-06,-4.529953e-06,5.841255e-06,1.0,1.0691583e-05,8.121133e-06,-1.0691583e-05,0.9999999,2.0861626e-06,-8.136034e-06,-2.0861626e-06,1.0,1815,5.651,0,4,0.999,False,-0.2612483231496481,0.9566238810590488
5.64347682800144,17:42:26.845423,17:41:11.059920,0,,NaN,NaN,NaN,NaN,NaN,NaN,NaN,NaN,NaN,NaN,NaN,NaN,,NaN,NaN,NaN,NaN,NaN,NaN,NaN,NaN,NaN,NaN,NaN,NaN,,0.09792573,1.2937909,0.4250689,0.9825991,0.007614445,-0.18558308,-0.104955554,-0.80158764,-0.5885928,-0.15324292,0.59782875,-0.78684014,,NaN,NaN,NaN,NaN,NaN,NaN,NaN,NaN,NaN,NaN,NaN,NaN,,NaN,NaN,NaN,NaN,NaN,NaN,NaN,NaN,NaN,NaN,NaN,NaN,,NaN,NaN,NaN,NaN,NaN,NaN,NaN,,NaN,NaN,NaN,NaN,NaN,NaN,NaN,,-0.11697196646865997,-0.12781700610823973,0.09957687064,-0.11709667966849292,,-7.137656e-06,-4.529953e-06,5.841255e-06,1.0,1.0691583e-05,8.121133e-06,-1.0691583e-05,0.9999999,2.0861626e-06,-8.136034e-06,-2.0861626e-06,1.0,1836,5.717,0,4,0.999,False,-0.2607717014014801,0.9528097451974715
5.6935390459839255,17:42:26.912455,17:41:11.059920,0,,NaN,NaN,NaN,NaN,NaN,NaN,NaN,NaN,NaN,NaN,NaN,NaN,,NaN,NaN,NaN,NaN,NaN,NaN,NaN,NaN,NaN,NaN,NaN,NaN,,0.09792573,1.2937909,0.4250689,0.9825991,0.007614445,-0.18558308,-0.104955554,-0.80158764,-0.5885928,-0.15324292,0.59782875,-0.78684014,,NaN,NaN,NaN,NaN,NaN,NaN,NaN,NaN,NaN,NaN,NaN,NaN,,NaN,NaN,NaN,NaN,NaN,NaN,NaN,NaN,NaN,NaN,NaN,NaN,,NaN,NaN,NaN,NaN,NaN,NaN,NaN,,NaN,NaN,NaN,NaN,NaN,NaN,NaN,,-0.11697196646865997,-0.12781700610823973,0.09957687064,-0.11709667966849292,,-7.137656e-06,-4.529953e-06,5.841255e-06,1.0,1.0691583e-05,8.121133e-06,-1.0691583e-05,0.9999999,2.0861626e-06,-8.136034e-06,-2.0861626e-06,1.0,1853,5.77,0,4,0.999,False,-0.2612483231496481,0.957492924673079
