AlexandreBanks6/ExpertPlaybackApp/resources/Motions/P_17/PC1/Data_PC1_6.csv
Task Time,PC1 Time,PC2 Time,Gaze Calib,s_T_psm1,Tx,Ty,Tz,R00,R01,R02,R10,R11,R12,R20,R21,R22,s_T_psm3,Tx,Ty,Tz,R00,R01,R02,R10,R11,R12,R20,R21,R22,cart_T_ecm,Tx,Ty,Tz,R00,R01,R02,R10,R11,R12,R20,R21,R22,ecm_T_psm1,Tx,Ty,Tz,R00,R01,R02,R10,R11,R12,R20,R21,R22,ecm_T_psm3,Tx,Ty,Tz,R00,R01,R02,R10,R11,R12,R20,R21,R22,psm1_joints,q1,q2,q3,q4,q5,q6,jaw,psm3_joints,q1,q2,q3,q4,q5,q6,jaw,ecm_joints,q1,q2,q3,q4,ecmi_T_ecm,Tx,Ty,Tz,R00,R01,R02,R10,R11,R12,R20,R21,R22,Sample #,Task Duration (s),Collisions (binary),Collisions (increments),Cumulative Collision Time (s),Clutch Press,MTMR Angle,MTML Angle
""
lci_T_si,,,,,-0.0900869,0.022313949,0.18335392,0.9831014,-0.048776343,0.17644396,0.07519278,-0.77119327,-0.63214475,0.1669061,0.6347297,-0.7544936
rci_T_si,,,,,-0.09717508,0.02900249,0.19913338,0.9846646,-0.06319082,0.16261163,0.050159317,-0.7901947,-0.6107998,0.16709179,0.6095894,-0.7749072
ecm_T_lc,,,,,-4.4061628e-05,-0.00034663224,-0.01840835,-0.99912,0.030754527,0.028518902,-0.031987965,-0.99852574,-0.043852776,0.027128186,-0.04472645,0.9986309
ecm_T_rc,,,,,-0.0043358393,0.01870579,-0.007592615,-0.99555075,-0.052743673,-0.078081585,0.04863213,-0.9973746,0.053654674,-0.08070653,0.04961868,0.9955021
cart_T_ecmi,,,,,0.09793387,1.29379,0.42507514,0.98259765,0.007603552,-0.18559109,-0.104968905,-0.80158776,-0.5885903,-0.15324292,0.59782875,-0.78684014
ecmac_T_ecmrep_psm1,,,,,0.044880565,-0.23049864,-0.32052848,0.99797076,0.0626086,0.011601057,-0.061749555,0.99606305,-0.0636032,-0.015537491,0.06275777,0.9979078
ecmac_T_ecmrep_psm3,,,,,0.047327206,-0.4153428,-0.56493527,0.997773,0.014750276,0.065049894,-0.025394045,0.985803,0.16597453,-0.061678212,-0.16725679,0.9839822
""
0,17:41:21.948925,17:40:06.210059,0,,NaN,NaN,NaN,NaN,NaN,NaN,NaN,NaN,NaN,NaN,NaN,NaN,,NaN,NaN,NaN,NaN,NaN,NaN,NaN,NaN,NaN,NaN,NaN,NaN,,0.09793268,1.2937917,0.42507413,0.98259676,0.007596613,-0.18559618,-0.104977414,-0.8015878,-0.5885887,-0.15324292,0.59782875,-0.78684014,,NaN,NaN,NaN,NaN,NaN,NaN,NaN,NaN,NaN,NaN,NaN,NaN,,NaN,NaN,NaN,NaN,NaN,NaN,NaN,NaN,NaN,NaN,NaN,NaN,,NaN,NaN,NaN,NaN,NaN,NaN,NaN,,NaN,NaN,NaN,NaN,NaN,NaN,NaN,,-0.11697196646865997,-0.12781700610823973,0.09957687064,-0.1167695939710949,,-1.1771917e-06,-2.026558e-06,0.0,1.0,-6.80238e-06,-5.1781535e-06,6.8172812e-06,0.9999999,-1.3411045e-06,5.170703e-06,1.3113022e-06,1.0,35,0.105,0,0,0.0,False,-0.2634526987349264,1.010214903924248
0.12989223189651966,17:41:21.966327,17:40:06.210059,0,,NaN,NaN,NaN,NaN,NaN,NaN,NaN,NaN,NaN,NaN,NaN,NaN,,NaN,NaN,NaN,NaN,NaN,NaN,NaN,NaN,NaN,NaN,NaN,NaN,,0.09793268,1.2937917,0.42507413,0.98259676,0.007596613,-0.18559618,-0.104977414,-0.8015878,-0.5885887,-0.15324292,0.59782875,-0.78684014,,NaN,NaN,NaN,NaN,NaN,NaN,NaN,NaN,NaN,NaN,NaN,NaN,,NaN,NaN,NaN,NaN,NaN,NaN,NaN,NaN,NaN,NaN,NaN,NaN,,NaN,NaN,NaN,NaN,NaN,NaN,NaN,,NaN,NaN,NaN,NaN,NaN,NaN,NaN,,-0.11697196646865997,-0.12781700610823973,0.09957687064,-0.1167695939710949,,-1.1771917e-06,-2.026558e-06,0.0,1.0,-6.80238e-06,-5.1781535e-06,6.8172812e-06,0.9999999,-1.3411045e-06,5.170703e-06,1.3113022e-06,1.0,47,0.141,0,0,0.0,False,-0.2630356547052788,1.0098286623180122
0.1472816150635481,17:41:22.006266,17:40:06.210059,0,,NaN,NaN,NaN,NaN,NaN,NaN,NaN,NaN,NaN,NaN,NaN,NaN,,NaN,NaN,NaN,NaN,NaN,NaN,NaN,NaN,NaN,NaN,NaN,NaN,,0.09793268,1.2937917,0.42507413,0.98259676,0.007596613,-0.18559618,-0.104977414,-0.8015878,-0.5885887,-0.15324292,0.59782875,-0.78684014,,NaN,NaN,NaN,NaN,NaN,NaN,NaN,NaN,NaN,NaN,NaN,NaN,,NaN,NaN,NaN,NaN,NaN,NaN,NaN,NaN,NaN,NaN,NaN,NaN,,NaN,NaN,NaN,NaN,NaN,NaN,NaN,,NaN,NaN,NaN,NaN,NaN,NaN,NaN,,-0.11697196646865997,-0.12781700610823973,0.09957687064,-0.1167695939710949,,-1.1771917e-06,-2.026558e-06,0.0,1.0,-6.80238e-06,-5.1781535e-06,6.8172812e-06,0.9999999,-1.3411045e-06,5.170703e-06,1.3113022e-06,1.0,55,0.166,0,0,0.0,False,-0.26297607698675796,1.0099735029203507
0.18723839102312922,17:41:22.032018,17:40:06.210059,0,,NaN,NaN,NaN,NaN,NaN,NaN,NaN,NaN,NaN,NaN,NaN,NaN,,NaN,NaN,NaN,NaN,NaN,NaN,NaN,NaN,NaN,NaN,NaN,NaN,,0.09793268,1.2937917,0.42507413,0.98259676,0.007596613,-0.18559618,-0.104977414,-0.8015878,-0.5885887,-0.15324292,0.59782875,-0.78684014,,NaN,NaN,NaN,NaN,NaN,NaN,NaN,NaN,NaN,NaN,NaN,NaN,,NaN,NaN,NaN,NaN,NaN,NaN,NaN,NaN,NaN,NaN,NaN,NaN,,NaN,NaN,NaN,NaN,NaN,NaN,NaN,,NaN,NaN,NaN,NaN,NaN,NaN,NaN,,-0.11697196646865997,-0.12781700610823973,0.09957687064,-0.1167695939710949,,-1.1771917e-06,-2.026558e-06,0.0,1.0,-6.80238e-06,-5.1781535e-06,6.8172812e-06,0.9999999,-1.3411045e-06,5.170703e-06,1.3113022e-06,1.0,66,0.198,0,0,0.0,False,-0.26333354329788383,1.010118343522689
0.21299876389093697,17:41:22.062406,17:40:06.306947,0,,NaN,NaN,NaN,NaN,NaN,NaN,NaN,NaN,NaN,NaN,NaN,NaN,,NaN,NaN,NaN,NaN,NaN,NaN,NaN,NaN,NaN,NaN,NaN,NaN,,0.09793268,1.2937917,0.42507413,0.98259676,0.007596613,-0.18559618,-0.104977414,-0.8015878,-0.5885887,-0.15324292,0.59782875,-0.78684014,,NaN,NaN,NaN,NaN,NaN,NaN,NaN,NaN,NaN,NaN,NaN,NaN,,NaN,NaN,NaN,NaN,NaN,NaN,NaN,NaN,NaN,NaN,NaN,NaN,,NaN,NaN,NaN,NaN,NaN,NaN,NaN,,NaN,NaN,NaN,NaN,NaN,NaN,NaN,,-0.11697196646865997,-0.12781700610823973,0.09957687064,-0.1167695939710949,,-1.1771917e-06,-2.026558e-06,0.0,1.0,-6.80238e-06,-5.1781535e-06,6.8172812e-06,0.9999999,-1.3411045e-06,5.170703e-06,1.3113022e-06,1.0,74,0.223,0,0,0.0,False,-0.2636314318904893,1.0101666237234685
0.24334553605876863,17:41:22.091161,17:40:06.306947,0,,NaN,NaN,NaN,NaN,NaN,NaN,NaN,NaN,NaN,NaN,NaN,NaN,,NaN,NaN,NaN,NaN,NaN,NaN,NaN,NaN,NaN,NaN,NaN,NaN,,0.09793268,1.2937917,0.42507413,0.98259676,0.007596613,-0.18559618,-0.104977414,-0.8015878,-0.5885887,-0.15324292,0.59782875,-0.78684014,,NaN,NaN,NaN,NaN,NaN,NaN,NaN,NaN,NaN,NaN,NaN,NaN,,NaN,NaN,NaN,NaN,NaN,NaN,NaN,NaN,NaN,NaN,NaN,NaN,,NaN,NaN,NaN,NaN,NaN,NaN,NaN,,NaN,NaN,NaN,NaN,NaN,NaN,NaN,,-0.11697196646865997,-0.12781700610823973,0.09957687064,-0.1167695939710949,,-1.1771917e-06,-2.026558e-06,0.0,1.0,-6.80238e-06,-5.1781535e-06,6.8172812e-06,0.9999999,-1.3411045e-06,5.170703e-06,1.3113022e-06,1.0,82,0.248,0,0,0.0,False,-0.26392932048309437,1.010118343522689
0.2721416999120265,17:41:22.118915,17:40:06.306947,0,,NaN,NaN,NaN,NaN,NaN,NaN,NaN,NaN,NaN,NaN,NaN,NaN,,NaN,NaN,NaN,NaN,NaN,NaN,NaN,NaN,NaN,NaN,NaN,NaN,,0.09793268,1.2937917,0.42507413,0.98259676,0.007596613,-0.18559618,-0.104977414,-0.8015878,-0.5885887,-0.15324292,0.59782875,-0.78684014,,NaN,NaN,NaN,NaN,NaN,NaN,NaN,NaN,NaN,NaN,NaN,NaN,,NaN,NaN,NaN,NaN,NaN,NaN,NaN,NaN,NaN,NaN,NaN,NaN,,NaN,NaN,NaN,NaN,NaN,NaN,NaN,,NaN,NaN,NaN,NaN,NaN,NaN,NaN,,-0.11697196646865997,-0.12781700610823973,0.09957687064,-0.1167695939710949,,-1.1771917e-06,-2.026558e-06,0.0,1.0,-6.80238e-06,-5.1781535e-06,6.8172812e-06,0.9999999,-1.3411045e-06,5.170703e-06,1.3113022e-06,1.0,93,0.281,0,0,0.0,False,-0.2636910096090097,1.0102631841250274
0.2998919449746609,17:41:22.144909,17:40:06.306947,0,,NaN,NaN,NaN,NaN,NaN,NaN,NaN,NaN,NaN,NaN,NaN,NaN,,NaN,NaN,NaN,NaN,NaN,NaN,NaN,NaN,NaN,NaN,NaN,NaN,,0.09793268,1.2937917,0.42507413,0.98259676,0.007596613,-0.18559618,-0.104977414,-0.8015878,-0.5885887,-0.15324292,0.59782875,-0.78684014,,NaN,NaN,NaN,NaN,NaN,NaN,NaN,NaN,NaN,NaN,NaN,NaN,,NaN,NaN,NaN,NaN,NaN,NaN,NaN,NaN,NaN,NaN,NaN,NaN,,NaN,NaN,NaN,NaN,NaN,NaN,NaN,,NaN,NaN,NaN,NaN,NaN,NaN,NaN,,-0.11697196646865997,-0.12781700610823973,0.09957687064,-0.1167695939710949,,-1.1771917e-06,-2.026558e-06,0.0,1.0,-6.80238e-06,-5.1781535e-06,6.8172812e-06,0.9999999,-1.3411045e-06,5.170703e-06,1.3113022e-06,1.0,101,0.305,0,0,0.0,False,-0.26285692154971585,1.0099252227195712
0.3258314970880747,17:41:22.173521,17:40:06.428902,0,,NaN,NaN,NaN,NaN,NaN,NaN,NaN,NaN,NaN,NaN,NaN,NaN,,NaN,NaN,NaN,NaN,NaN,NaN,NaN,NaN,NaN,NaN,NaN,NaN,,0.09793268,1.2937917,0.42507413,0.98259676,0.007596613,-0.18559618,-0.104977414,-0.8015878,-0.5885887,-0.15324292,0.59782875,-0.78684014,,NaN,NaN,NaN,NaN,NaN,NaN,NaN,NaN,NaN,NaN,NaN,NaN,,NaN,NaN,NaN,NaN,NaN,NaN,NaN,NaN,NaN,NaN,NaN,NaN,,NaN,NaN,NaN,NaN,NaN,NaN,NaN,,NaN,NaN,NaN,NaN,NaN,NaN,NaN,,-0.11697196646865997,-0.12781700610823973,0.09957687064,-0.1167695939710949,,-1.1771917e-06,-2.026558e-06,0.0,1.0,-6.80238e-06,-5.1781535e-06,6.8172812e-06,0.9999999,-1.3411045e-06,5.170703e-06,1.3113022e-06,1.0,112,0.338,0,0,0.0,False,-0.26404847592013647,1.010214903924248
0.35450562788173556,17:41:22.205853,17:40:06.428902,0,,NaN,NaN,NaN,NaN,NaN,NaN,NaN,NaN,NaN,NaN,NaN,NaN,,NaN,NaN,NaN,NaN,NaN,NaN,NaN,NaN,NaN,NaN,NaN,NaN,,0.09793268,1.2937917,0.42507413,0.98259676,0.007596613,-0.18559618,-0.104977414,-0.8015878,-0.5885887,-0.15324292,0.59782875,-0.78684014,,NaN,NaN,NaN,NaN,NaN,NaN,NaN,NaN,NaN,NaN,NaN,NaN,,NaN,NaN,NaN,NaN,NaN,NaN,NaN,NaN,NaN,NaN,NaN,NaN,,NaN,NaN,NaN,NaN,NaN,NaN,NaN,,NaN,NaN,NaN,NaN,NaN,NaN,NaN,,-0.11697196646865997,-0.12781700610823973,0.09957687064,-0.1167695939710949,,-1.1771917e-06,-2.026558e-06,0.0,1.0,-6.80238e-06,-5.1781535e-06,6.8172812e-06,0.9999999,-1.3411045e-06,5.170703e-06,1.3113022e-06,1.0,119,0.359,0,0,0.0,False,-0.2634526987349264,1.0097321019164534
0.3868352700956166,17:41:22.231329,17:40:06.428902,0,,NaN,NaN,NaN,NaN,NaN,NaN,NaN,NaN,NaN,NaN,NaN,NaN,,NaN,NaN,NaN,NaN,NaN,NaN,NaN,NaN,NaN,NaN,NaN,NaN,,0.09793268,1.2937917,0.42507413,0.98259676,0.007596613,-0.18559618,-0.104977414,-0.8015878,-0.5885887,-0.15324292,0.59782875,-0.78684014,,NaN,NaN,NaN,NaN,NaN,NaN,NaN,NaN,NaN,NaN,NaN,NaN,,NaN,NaN,NaN,NaN,NaN,NaN,NaN,NaN,NaN,NaN,NaN,NaN,,NaN,NaN,NaN,NaN,NaN,NaN,NaN,,NaN,NaN,NaN,NaN,NaN,NaN,NaN,,-0.11697196646865997,-0.12781700610823973,0.09957687064,-0.1167695939710949,,-1.1771917e-06,-2.026558e-06,0.0,1.0,-6.80238e-06,-5.1781535e-06,6.8172812e-06,0.9999999,-1.3411045e-06,5.170703e-06,1.3113022e-06,1.0,127,0.383,0,0,0.0,False,-0.2635718541719685,1.0097321019164534
0.4123142589814961,17:41:22.252953,17:40:06.428902,0,,NaN,NaN,NaN,NaN,NaN,NaN,NaN,NaN,NaN,NaN,NaN,NaN,,NaN,NaN,NaN,NaN,NaN,NaN,NaN,NaN,NaN,NaN,NaN,NaN,,0.09793268,1.2937917,0.42507413,0.98259676,0.007596613,-0.18559618,-0.104977414,-0.8015878,-0.5885887,-0.15324292,0.59782875,-0.78684014,,NaN,NaN,NaN,NaN,NaN,NaN,NaN,NaN,NaN,NaN,NaN,NaN,,NaN,NaN,NaN,NaN,NaN,NaN,NaN,NaN,NaN,NaN,NaN,NaN,,NaN,NaN,NaN,NaN,NaN,NaN,NaN,,NaN,NaN,NaN,NaN,NaN,NaN,NaN,,-0.11697196646865997,-0.12781700610823973,0.09957687064,-0.1167695939710949,,-1.1771917e-06,-2.026558e-06,0.0,1.0,-6.80238e-06,-5.1781535e-06,6.8172812e-06,0.9999999,-1.3411045e-06,5.170703e-06,1.3113022e-06,1.0,138,0.416,0,0,0.0,False,-0.26309523242380006,1.0095389811133355
0.4339300040155649,17:41:22.285097,17:40:06.428902,0,,NaN,NaN,NaN,NaN,NaN,NaN,NaN,NaN,NaN,NaN,NaN,NaN,,NaN,NaN,NaN,NaN,NaN,NaN,NaN,NaN,NaN,NaN,NaN,NaN,,0.09793268,1.2937917,0.42507413,0.98259676,0.007596613,-0.18559618,-0.104977414,-0.8015878,-0.5885887,-0.15324292,0.59782875,-0.78684014,,NaN,NaN,NaN,NaN,NaN,NaN,NaN,NaN,NaN,NaN,NaN,NaN,,NaN,NaN,NaN,NaN,NaN,NaN,NaN,NaN,NaN,NaN,NaN,NaN,,NaN,NaN,NaN,NaN,NaN,NaN,NaN,,NaN,NaN,NaN,NaN,NaN,NaN,NaN,,-0.11697196646865997,-0.12781700610823973,0.09957687064,-0.1167695939710949,,-1.1771917e-06,-2.026558e-06,0.0,1.0,-6.80238e-06,-5.1781535e-06,6.8172812e-06,0.9999999,-1.3411045e-06,5.170703e-06,1.3113022e-06,1.0,149,0.448,0,0,0.0,False,-0.26351227645344677,1.010408024727366
0.4660271480679512,17:41:22.313928,17:40:06.560212,0,,NaN,NaN,NaN,NaN,NaN,NaN,NaN,NaN,NaN,NaN,NaN,NaN,,NaN,NaN,NaN,NaN,NaN,NaN,NaN,NaN,NaN,NaN,NaN,NaN,,0.09793268,1.2937917,0.42507413,0.98259676,0.007596613,-0.18559618,-0.104977414,-0.8015878,-0.5885887,-0.15324292,0.59782875,-0.78684014,,NaN,NaN,NaN,NaN,NaN,NaN,NaN,NaN,NaN,NaN,NaN,NaN,,NaN,NaN,NaN,NaN,NaN,NaN,NaN,NaN,NaN,NaN,NaN,NaN,,NaN,NaN,NaN,NaN,NaN,NaN,NaN,,NaN,NaN,NaN,NaN,NaN,NaN,NaN,,-0.11697196646865997,-0.12781700610823973,0.09957687064,-0.1167695939710949,,-1.1771917e-06,-2.026558e-06,0.0,1.0,-6.80238e-06,-5.1781535e-06,6.8172812e-06,0.9999999,-1.3411045e-06,5.170703e-06,1.3113022e-06,1.0,156,0.469,0,0,0.0,False,-0.2635718541719685,1.0099252227195712
0.49487682594917715,17:41:22.340827,17:40:06.560212,0,,NaN,NaN,NaN,NaN,NaN,NaN,NaN,NaN,NaN,NaN,NaN,NaN,,NaN,NaN,NaN,NaN,NaN,NaN,NaN,NaN,NaN,NaN,NaN,NaN,,0.09793268,1.2937917,0.42507413,0.98259676,0.007596613,-0.18559618,-0.104977414,-0.8015878,-0.5885887,-0.15324292,0.59782875,-0.78684014,,NaN,NaN,NaN,NaN,NaN,NaN,NaN,NaN,NaN,NaN,NaN,NaN,,NaN,NaN,NaN,NaN,NaN,NaN,NaN,NaN,NaN,NaN,NaN,NaN,,NaN,NaN,NaN,NaN,NaN,NaN,NaN,,NaN,NaN,NaN,NaN,NaN,NaN,NaN,,-0.11697196646865997,-0.12781700610823973,0.09957687064,-0.1167695939710949,,-1.1771917e-06,-2.026558e-06,0.0,1.0,-6.80238e-06,-5.1781535e-06,6.8172812e-06,0.9999999,-1.3411045e-06,5.170703e-06,1.3113022e-06,1.0,167,0.502,0,0,0.0,False,-0.26333354329788383,1.0096355415148943
0.5218060710467398,17:41:22.366969,17:40:06.560212,0,,NaN,NaN,NaN,NaN,NaN,NaN,NaN,NaN,NaN,NaN,NaN,NaN,,NaN,NaN,NaN,NaN,NaN,NaN,NaN,NaN,NaN,NaN,NaN,NaN,,0.09793268,1.2937917,0.42507413,0.98259676,0.007596613,-0.18559618,-0.104977414,-0.8015878,-0.5885887,-0.15324292,0.59782875,-0.78684014,,NaN,NaN,NaN,NaN,NaN,NaN,NaN,NaN,NaN,NaN,NaN,NaN,,NaN,NaN,NaN,NaN,NaN,NaN,NaN,NaN,NaN,NaN,NaN,NaN,,NaN,NaN,NaN,NaN,NaN,NaN,NaN,,NaN,NaN,NaN,NaN,NaN,NaN,NaN,,-0.11697196646865997,-0.12781700610823973,0.09957687064,-0.1167695939710949,,-1.1771917e-06,-2.026558e-06,0.0,1.0,-6.80238e-06,-5.1781535e-06,6.8172812e-06,0.9999999,-1.3411045e-06,5.170703e-06,1.3113022e-06,1.0,178,0.534,0,0,0.0,False,-0.26351227645344677,1.0099735029203507
0.5479533730540425,17:41:22.401196,17:40:06.560212,0,,NaN,NaN,NaN,NaN,NaN,NaN,NaN,NaN,NaN,NaN,NaN,NaN,,NaN,NaN,NaN,NaN,NaN,NaN,NaN,NaN,NaN,NaN,NaN,NaN,,0.09793268,1.2937917,0.42507413,0.98259676,0.007596613,-0.18559618,-0.104977414,-0.8015878,-0.5885887,-0.15324292,0.59782875,-0.78684014,,NaN,NaN,NaN,NaN,NaN,NaN,NaN,NaN,NaN,NaN,NaN,NaN,,NaN,NaN,NaN,NaN,NaN,NaN,NaN,NaN,NaN,NaN,NaN,NaN,,NaN,NaN,NaN,NaN,NaN,NaN,NaN,,NaN,NaN,NaN,NaN,NaN,NaN,NaN,,-0.11697196646865997,-0.12781700610823973,0.09957687064,-0.1167695939710949,,-1.1771917e-06,-2.026558e-06,0.0,1.0,-6.80238e-06,-5.1781535e-06,6.8172812e-06,0.9999999,-1.3411045e-06,5.170703e-06,1.3113022e-06,1.0,189,0.567,0,0,0.0,False,-0.2639888982016152,1.0103597445265864
0.5821588109247386,17:41:22.433920,17:40:06.697985,0,,NaN,NaN,NaN,NaN,NaN,NaN,NaN,NaN,NaN,NaN,NaN,NaN,,NaN,NaN,NaN,NaN,NaN,NaN,NaN,NaN,NaN,NaN,NaN,NaN,,0.09793268,1.2937917,0.42507413,0.98259676,0.007596613,-0.18559618,-0.104977414,-0.8015878,-0.5885887,-0.15324292,0.59782875,-0.78684014,,NaN,NaN,NaN,NaN,NaN,NaN,NaN,NaN,NaN,NaN,NaN,NaN,,NaN,NaN,NaN,NaN,NaN,NaN,NaN,NaN,NaN,NaN,NaN,NaN,,NaN,NaN,NaN,NaN,NaN,NaN,NaN,,NaN,NaN,NaN,NaN,NaN,NaN,NaN,,-0.11697196646865997,-0.12781700610823973,0.09957687064,-0.1167695939710949,,-1.1771917e-06,-2.026558e-06,0.0,1.0,-6.80238e-06,-5.1781535e-06,6.8172812e-06,0.9999999,-1.3411045e-06,5.170703e-06,1.3113022e-06,1.0,200,0.6,0,0,0.0,False,-0.2637505873275314,1.010408024727366
0.6148755510803312,17:41:22.464685,17:40:06.697985,0,,NaN,NaN,NaN,NaN,NaN,NaN,NaN,NaN,NaN,NaN,NaN,NaN,,NaN,NaN,NaN,NaN,NaN,NaN,NaN,NaN,NaN,NaN,NaN,NaN,,0.09793268,1.2937917,0.42507413,0.98259676,0.007596613,-0.18559618,-0.104977414,-0.8015878,-0.5885887,-0.15324292,0.59782875,-0.78684014,,NaN,NaN,NaN,NaN,NaN,NaN,NaN,NaN,NaN,NaN,NaN,NaN,,NaN,NaN,NaN,NaN,NaN,NaN,NaN,NaN,NaN,NaN,NaN,NaN,,NaN,NaN,NaN,NaN,NaN,NaN,NaN,,NaN,NaN,NaN,NaN,NaN,NaN,NaN,,-0.11697196646865997,-0.12781700610823973,0.09957687064,-0.1167695939710949,,-1.1771917e-06,-2.026558e-06,0.0,1.0,-6.80238e-06,-5.1781535e-06,6.8172812e-06,0.9999999,-1.3411045e-06,5.170703e-06,1.3113022e-06,1.0,215,0.645,0,0,0.0,False,-0.2639888982016152,1.010118343522689
0.6456647969316691,17:41:22.510430,17:40:06.697985,0,,NaN,NaN,NaN,NaN,NaN,NaN,NaN,NaN,NaN,NaN,NaN,NaN,,NaN,NaN,NaN,NaN,NaN,NaN,NaN,NaN,NaN,NaN,NaN,NaN,,0.09793268,1.2937917,0.42507413,0.98259676,0.007596613,-0.18559618,-0.104977414,-0.8015878,-0.5885887,-0.15324292,0.59782875,-0.78684014,,NaN,NaN,NaN,NaN,NaN,NaN,NaN,NaN,NaN,NaN,NaN,NaN,,NaN,NaN,NaN,NaN,NaN,NaN,NaN,NaN,NaN,NaN,NaN,NaN,,NaN,NaN,NaN,NaN,NaN,NaN,NaN,,NaN,NaN,NaN,NaN,NaN,NaN,NaN,,-0.11697196646865997,-0.12781700610823973,0.09957687064,-0.1167695939710949,,-1.1771917e-06,-2.026558e-06,0.0,1.0,-6.80238e-06,-5.1781535e-06,6.8172812e-06,0.9999999,-1.3411045e-06,5.170703e-06,1.3113022e-06,1.0,222,0.665,0,0,0.0,False,-0.2632143878608417,1.0099252227195712
0.6913801070768386,17:41:22.535564,17:40:06.697985,0,,NaN,NaN,NaN,NaN,NaN,NaN,NaN,NaN,NaN,NaN,NaN,NaN,,NaN,NaN,NaN,NaN,NaN,NaN,NaN,NaN,NaN,NaN,NaN,NaN,,0.09793268,1.2937917,0.42507413,0.98259676,0.007596613,-0.18559618,-0.104977414,-0.8015878,-0.5885887,-0.15324292,0.59782875,-0.78684014,,NaN,NaN,NaN,NaN,NaN,NaN,NaN,NaN,NaN,NaN,NaN,NaN,,NaN,NaN,NaN,NaN,NaN,NaN,NaN,NaN,NaN,NaN,NaN,NaN,,NaN,NaN,NaN,NaN,NaN,NaN,NaN,,NaN,NaN,NaN,NaN,NaN,NaN,NaN,,-0.11697196646865997,-0.12781700610823973,0.09957687064,-0.1167695939710949,,-1.1771917e-06,-2.026558e-06,0.0,1.0,-6.80238e-06,-5.1781535e-06,6.8172812e-06,0.9999999,-1.3411045e-06,5.170703e-06,1.3113022e-06,1.0,233,0.699,0,0,0.0,False,-0.2641080536386573,1.0101666237234685
0.7165154020767659,17:41:22.559685,17:40:06.824785,0,,NaN,NaN,NaN,NaN,NaN,NaN,NaN,NaN,NaN,NaN,NaN,NaN,,NaN,NaN,NaN,NaN,NaN,NaN,NaN,NaN,NaN,NaN,NaN,NaN,,0.09793268,1.2937917,0.42507413,0.98259676,0.007596613,-0.18559618,-0.104977414,-0.8015878,-0.5885887,-0.15324292,0.59782875,-0.78684014,,NaN,NaN,NaN,NaN,NaN,NaN,NaN,NaN,NaN,NaN,NaN,NaN,,NaN,NaN,NaN,NaN,NaN,NaN,NaN,NaN,NaN,NaN,NaN,NaN,,NaN,NaN,NaN,NaN,NaN,NaN,NaN,,NaN,NaN,NaN,NaN,NaN,NaN,NaN,,-0.11697196646865997,-0.12781700610823973,0.09957687064,-0.1167695939710949,,-1.1771917e-06,-2.026558e-06,0.0,1.0,-6.80238e-06,-5.1781535e-06,6.8172812e-06,0.9999999,-1.3411045e-06,5.170703e-06,1.3113022e-06,1.0,244,0.732,0,0,0.0,False,-0.26404847592013647,1.0098286623180122
0.7406660590786487,17:41:22.597713,17:40:06.824785,0,,NaN,NaN,NaN,NaN,NaN,NaN,NaN,NaN,NaN,NaN,NaN,NaN,,NaN,NaN,NaN,NaN,NaN,NaN,NaN,NaN,NaN,NaN,NaN,NaN,,0.09793268,1.2937917,0.42507413,0.98259676,0.007596613,-0.18559618,-0.104977414,-0.8015878,-0.5885887,-0.15324292,0.59782875,-0.78684014,,NaN,NaN,NaN,NaN,NaN,NaN,NaN,NaN,NaN,NaN,NaN,NaN,,NaN,NaN,NaN,NaN,NaN,NaN,NaN,NaN,NaN,NaN,NaN,NaN,,NaN,NaN,NaN,NaN,NaN,NaN,NaN,,NaN,NaN,NaN,NaN,NaN,NaN,NaN,,-0.11697196646865997,-0.12781700610823973,0.09957687064,-0.1167695939710949,,-1.1771917e-06,-2.026558e-06,0.0,1.0,-6.80238e-06,-5.1781535e-06,6.8172812e-06,0.9999999,-1.3411045e-06,5.170703e-06,1.3113022e-06,1.0,256,0.768,1,1,0.019,False,-0.2636910096090097,1.0103114643258069
0.7786944969557226,17:41:22.632154,17:40:06.824785,0,,NaN,NaN,NaN,NaN,NaN,NaN,NaN,NaN,NaN,NaN,NaN,NaN,,NaN,NaN,NaN,NaN,NaN,NaN,NaN,NaN,NaN,NaN,NaN,NaN,,0.09793268,1.2937917,0.42507413,0.98259676,0.007596613,-0.18559618,-0.104977414,-0.8015878,-0.5885887,-0.15324292,0.59782875,-0.78684014,,NaN,NaN,NaN,NaN,NaN,NaN,NaN,NaN,NaN,NaN,NaN,NaN,,NaN,NaN,NaN,NaN,NaN,NaN,NaN,NaN,NaN,NaN,NaN,NaN,,NaN,NaN,NaN,NaN,NaN,NaN,NaN,,NaN,NaN,NaN,NaN,NaN,NaN,NaN,,-0.11697196646865997,-0.12781700610823973,0.09957687064,-0.1167695939710949,,-1.1771917e-06,-2.026558e-06,0.0,1.0,-6.80238e-06,-5.1781535e-06,6.8172812e-06,0.9999999,-1.3411045e-06,5.170703e-06,1.3113022e-06,1.0,264,0.792,1,1,0.043,False,-0.26255903295711036,1.0106011455304837
0.8131078090518713,17:41:22.659538,17:40:06.824785,0,,NaN,NaN,NaN,NaN,NaN,NaN,NaN,NaN,NaN,NaN,NaN,NaN,,NaN,NaN,NaN,NaN,NaN,NaN,NaN,NaN,NaN,NaN,NaN,NaN,,0.09793268,1.2937917,0.42507413,0.98259676,0.007596613,-0.18559618,-0.104977414,-0.8015878,-0.5885887,-0.15324292,0.59782875,-0.78684014,,NaN,NaN,NaN,NaN,NaN,NaN,NaN,NaN,NaN,NaN,NaN,NaN,,NaN,NaN,NaN,NaN,NaN,NaN,NaN,NaN,NaN,NaN,NaN,NaN,,NaN,NaN,NaN,NaN,NaN,NaN,NaN,,NaN,NaN,NaN,NaN,NaN,NaN,NaN,,-0.11697196646865997,-0.12781700610823973,0.09957687064,-0.1167695939710949,,-1.1771917e-06,-2.026558e-06,0.0,1.0,-6.80238e-06,-5.1781535e-06,6.8172812e-06,0.9999999,-1.3411045e-06,5.170703e-06,1.3113022e-06,1.0,276,0.829,1,1,0.08,False,-0.2636314318904893,1.01002178312113
0.8405169530306011,17:41:22.692814,17:40:06.948510,0,,NaN,NaN,NaN,NaN,NaN,NaN,NaN,NaN,NaN,NaN,NaN,NaN,,NaN,NaN,NaN,NaN,NaN,NaN,NaN,NaN,NaN,NaN,NaN,NaN,,0.09793268,1.2937917,0.42507413,0.98259676,0.007596613,-0.18559618,-0.104977414,-0.8015878,-0.5885887,-0.15324292,0.59782875,-0.78684014,,NaN,NaN,NaN,NaN,NaN,NaN,NaN,NaN,NaN,NaN,NaN,NaN,,NaN,NaN,NaN,NaN,NaN,NaN,NaN,NaN,NaN,NaN,NaN,NaN,,NaN,NaN,NaN,NaN,NaN,NaN,NaN,,NaN,NaN,NaN,NaN,NaN,NaN,NaN,,-0.11697196646865997,-0.12781700610823973,0.09957687064,-0.1167695939710949,,-1.1771917e-06,-2.026558e-06,0.0,1.0,-6.80238e-06,-5.1781535e-06,6.8172812e-06,0.9999999,-1.3411045e-06,5.170703e-06,1.3113022e-06,1.0,293,0.882,1,1,0.133,False,-0.26470383082386784,1.0100700633219095
0.8737907430622727,17:41:22.749475,17:40:06.948510,0,,NaN,NaN,NaN,NaN,NaN,NaN,NaN,NaN,NaN,NaN,NaN,NaN,,NaN,NaN,NaN,NaN,NaN,NaN,NaN,NaN,NaN,NaN,NaN,NaN,,0.09793247,1.293793,0.4250782,0.9825988,0.007612238,-0.18558471,-0.10495826,-0.8015877,-0.58859235,-0.15324292,0.59782875,-0.78684014,,NaN,NaN,NaN,NaN,NaN,NaN,NaN,NaN,NaN,NaN,NaN,NaN,,NaN,NaN,NaN,NaN,NaN,NaN,NaN,NaN,NaN,NaN,NaN,NaN,,NaN,NaN,NaN,NaN,NaN,NaN,NaN,,NaN,NaN,NaN,NaN,NaN,NaN,NaN,,-0.11697196646865997,-0.12781700610823973,0.09957687064,-0.1167695939710949,,-2.1532178e-06,-6.556511e-07,-3.9339066e-06,1.0,8.530915e-06,6.467104e-06,-8.523464e-06,1.0,1.66893e-06,-6.482005e-06,-1.6391277e-06,1.0,301,0.907,1,1,0.158,False,-0.2639888982016152,1.0103597445265864
0.9304470960050821,17:41:22.773238,17:40:06.948510,0,,NaN,NaN,NaN,NaN,NaN,NaN,NaN,NaN,NaN,NaN,NaN,NaN,,NaN,NaN,NaN,NaN,NaN,NaN,NaN,NaN,NaN,NaN,NaN,NaN,,0.09793247,1.293793,0.4250782,0.9825988,0.007612238,-0.18558471,-0.10495826,-0.8015877,-0.58859235,-0.15324292,0.59782875,-0.78684014,,NaN,NaN,NaN,NaN,NaN,NaN,NaN,NaN,NaN,NaN,NaN,NaN,,NaN,NaN,NaN,NaN,NaN,NaN,NaN,NaN,NaN,NaN,NaN,NaN,,NaN,NaN,NaN,NaN,NaN,NaN,NaN,,NaN,NaN,NaN,NaN,NaN,NaN,NaN,,-0.11697196646865997,-0.12781700610823973,0.09957687064,-0.1167695939710949,,-2.1532178e-06,-6.556511e-07,-3.9339066e-06,1.0,8.530915e-06,6.467104e-06,-8.523464e-06,1.0,1.66893e-06,-6.482005e-06,-1.6391277e-06,1.0,314,0.948,1,1,0.199,False,-0.2636314318904893,1.0100700633219095
0.9542242060415447,17:41:22.808790,17:40:06.948510,0,,NaN,NaN,NaN,NaN,NaN,NaN,NaN,NaN,NaN,NaN,NaN,NaN,,NaN,NaN,NaN,NaN,NaN,NaN,NaN,NaN,NaN,NaN,NaN,NaN,,0.09793247,1.293793,0.4250782,0.9825988,0.007612238,-0.18558471,-0.10495826,-0.8015877,-0.58859235,-0.15324292,0.59782875,-0.78684014,,NaN,NaN,NaN,NaN,NaN,NaN,NaN,NaN,NaN,NaN,NaN,NaN,,NaN,NaN,NaN,NaN,NaN,NaN,NaN,NaN,NaN,NaN,NaN,NaN,,NaN,NaN,NaN,NaN,NaN,NaN,NaN,,NaN,NaN,NaN,NaN,NaN,NaN,NaN,,-0.11697196646865997,-0.12781700610823973,0.09957687064,-0.1167695939710949,,-2.1532178e-06,-6.556511e-07,-3.9339066e-06,1.0,8.530915e-06,6.467104e-06,-8.523464e-06,1.0,1.66893e-06,-6.482005e-06,-1.6391277e-06,1.0,318,0.96,1,1,0.211,False,-0.2637505873275314,1.010214903924248
0.9897722939494997,17:41:22.840042,17:40:07.103728,0,,NaN,NaN,NaN,NaN,NaN,NaN,NaN,NaN,NaN,NaN,NaN,NaN,,NaN,NaN,NaN,NaN,NaN,NaN,NaN,NaN,NaN,NaN,NaN,NaN,,0.09793247,1.293793,0.4250782,0.9825988,0.007612238,-0.18558471,-0.10495826,-0.8015877,-0.58859235,-0.15324292,0.59782875,-0.78684014,,NaN,NaN,NaN,NaN,NaN,NaN,NaN,NaN,NaN,NaN,NaN,NaN,,NaN,NaN,NaN,NaN,NaN,NaN,NaN,NaN,NaN,NaN,NaN,NaN,,NaN,NaN,NaN,NaN,NaN,NaN,NaN,,NaN,NaN,NaN,NaN,NaN,NaN,NaN,,-0.11697196646865997,-0.12781700610823973,0.09957687064,-0.1167695939710949,,-2.1532178e-06,-6.556511e-07,-3.9339066e-06,1.0,8.530915e-06,6.467104e-06,-8.523464e-06,1.0,1.66893e-06,-6.482005e-06,-1.6391277e-06,1.0,344,1.042,1,1,0.293,False,-0.26309523242380006,1.0098286623180122
1.0210233030375093,17:41:22.904904,17:40:07.103728,0,,NaN,NaN,NaN,NaN,NaN,NaN,NaN,NaN,NaN,NaN,NaN,NaN,,NaN,NaN,NaN,NaN,NaN,NaN,NaN,NaN,NaN,NaN,NaN,NaN,,0.09793247,1.293793,0.4250782,0.9825988,0.007612238,-0.18558471,-0.10495826,-0.8015877,-0.58859235,-0.15324292,0.59782875,-0.78684014,,NaN,NaN,NaN,NaN,NaN,NaN,NaN,NaN,NaN,NaN,NaN,NaN,,NaN,NaN,NaN,NaN,NaN,NaN,NaN,NaN,NaN,NaN,NaN,NaN,,NaN,NaN,NaN,NaN,NaN,NaN,NaN,,NaN,NaN,NaN,NaN,NaN,NaN,NaN,,-0.11697196646865997,-0.12781700610823973,0.09957687064,-0.1167695939710949,,-2.1532178e-06,-6.556511e-07,-3.9339066e-06,1.0,8.530915e-06,6.467104e-06,-8.523464e-06,1.0,1.66893e-06,-6.482005e-06,-1.6391277e-06,1.0,357,1.083,1,1,0.334,False,-0.26255903295711036,1.0096355415148943
1.0858771118801087,17:41:22.950539,17:40:07.103728,0,,NaN,NaN,NaN,NaN,NaN,NaN,NaN,NaN,NaN,NaN,NaN,NaN,,NaN,NaN,NaN,NaN,NaN,NaN,NaN,NaN,NaN,NaN,NaN,NaN,,0.09793247,1.293793,0.4250782,0.9825988,0.007612238,-0.18558471,-0.10495826,-0.8015877,-0.58859235,-0.15324292,0.59782875,-0.78684014,,NaN,NaN,NaN,NaN,NaN,NaN,NaN,NaN,NaN,NaN,NaN,NaN,,NaN,NaN,NaN,NaN,NaN,NaN,NaN,NaN,NaN,NaN,NaN,NaN,,NaN,NaN,NaN,NaN,NaN,NaN,NaN,,NaN,NaN,NaN,NaN,NaN,NaN,NaN,,-0.11697196646865997,-0.12781700610823973,0.09957687064,-0.1167695939710949,,-2.1532178e-06,-6.556511e-07,-3.9339066e-06,1.0,8.530915e-06,6.467104e-06,-8.523464e-06,1.0,1.66893e-06,-6.482005e-06,-1.6391277e-06,1.0,366,1.112,1,1,0.363,False,-0.26333354329788383,1.0096355415148943
1.1314807070884854,17:41:22.980306,17:40:07.248137,0,,NaN,NaN,NaN,NaN,NaN,NaN,NaN,NaN,NaN,NaN,NaN,NaN,,NaN,NaN,NaN,NaN,NaN,NaN,NaN,NaN,NaN,NaN,NaN,NaN,,0.09793247,1.293793,0.4250782,0.9825988,0.007612238,-0.18558471,-0.10495826,-0.8015877,-0.58859235,-0.15324292,0.59782875,-0.78684014,,NaN,NaN,NaN,NaN,NaN,NaN,NaN,NaN,NaN,NaN,NaN,NaN,,NaN,NaN,NaN,NaN,NaN,NaN,NaN,NaN,NaN,NaN,NaN,NaN,,NaN,NaN,NaN,NaN,NaN,NaN,NaN,,NaN,NaN,NaN,NaN,NaN,NaN,NaN,,-0.11697196646865997,-0.12781700610823973,0.09957687064,-0.1167695939710949,,-2.1532178e-06,-6.556511e-07,-3.9339066e-06,1.0,8.530915e-06,6.467104e-06,-8.523464e-06,1.0,1.66893e-06,-6.482005e-06,-1.6391277e-06,1.0,379,1.153,1,1,0.404,False,-0.26339312101640555,1.0101666237234685
1.1612621250096709,17:41:23.019036,17:40:07.248137,0,,NaN,NaN,NaN,NaN,NaN,NaN,NaN,NaN,NaN,NaN,NaN,NaN,,NaN,NaN,NaN,NaN,NaN,NaN,NaN,NaN,NaN,NaN,NaN,NaN,,0.09793247,1.293793,0.4250782,0.9825988,0.007612238,-0.18558471,-0.10495826,-0.8015877,-0.58859235,-0.15324292,0.59782875,-0.78684014,,NaN,NaN,NaN,NaN,NaN,NaN,NaN,NaN,NaN,NaN,NaN,NaN,,NaN,NaN,NaN,NaN,NaN,NaN,NaN,NaN,NaN,NaN,NaN,NaN,,NaN,NaN,NaN,NaN,NaN,NaN,NaN,,NaN,NaN,NaN,NaN,NaN,NaN,NaN,,-0.11697196646865997,-0.12781700610823973,0.09957687064,-0.1167695939710949,,-2.1532178e-06,-6.556511e-07,-3.9339066e-06,1.0,8.530915e-06,6.467104e-06,-8.523464e-06,1.0,1.66893e-06,-6.482005e-06,-1.6391277e-06,1.0,388,1.181,0,1,0.425,False,-0.26297607698675796,1.0092492999086586
1.200015275971964,17:41:23.048107,17:40:07.248137,0,,NaN,NaN,NaN,NaN,NaN,NaN,NaN,NaN,NaN,NaN,NaN,NaN,,NaN,NaN,NaN,NaN,NaN,NaN,NaN,NaN,NaN,NaN,NaN,NaN,,0.09793247,1.293793,0.4250782,0.9825988,0.007612238,-0.18558471,-0.10495826,-0.8015877,-0.58859235,-0.15324292,0.59782875,-0.78684014,,NaN,NaN,NaN,NaN,NaN,NaN,NaN,NaN,NaN,NaN,NaN,NaN,,NaN,NaN,NaN,NaN,NaN,NaN,NaN,NaN,NaN,NaN,NaN,NaN,,NaN,NaN,NaN,NaN,NaN,NaN,NaN,,NaN,NaN,NaN,NaN,NaN,NaN,NaN,,-0.11697196646865997,-0.12781700610823973,0.09957687064,-0.1167695939710949,,-2.1532178e-06,-6.556511e-07,-3.9339066e-06,1.0,8.530915e-06,6.467104e-06,-8.523464e-06,1.0,1.66893e-06,-6.482005e-06,-1.6391277e-06,1.0,401,1.222,0,1,0.425,False,-0.26285692154971585,1.0096355415148943
1.2290909718722105,17:41:23.088971,17:40:07.248137,0,,NaN,NaN,NaN,NaN,NaN,NaN,NaN,NaN,NaN,NaN,NaN,NaN,,NaN,NaN,NaN,NaN,NaN,NaN,NaN,NaN,NaN,NaN,NaN,NaN,,0.09793247,1.293793,0.4250782,0.9825988,0.007612238,-0.18558471,-0.10495826,-0.8015877,-0.58859235,-0.15324292,0.59782875,-0.78684014,,NaN,NaN,NaN,NaN,NaN,NaN,NaN,NaN,NaN,NaN,NaN,NaN,,NaN,NaN,NaN,NaN,NaN,NaN,NaN,NaN,NaN,NaN,NaN,NaN,,NaN,NaN,NaN,NaN,NaN,NaN,NaN,,NaN,NaN,NaN,NaN,NaN,NaN,NaN,,-0.11697196646865997,-0.12781700610823973,0.09957687064,-0.1167695939710949,,-2.1532178e-06,-6.556511e-07,-3.9339066e-06,1.0,8.530915e-06,6.467104e-06,-8.523464e-06,1.0,1.66893e-06,-6.482005e-06,-1.6391277e-06,1.0,414,1.263,1,2,0.444,False,-0.26351227645344677,1.009056179105541
1.2699535719584674,17:41:23.132654,17:40:07.395769,0,,NaN,NaN,NaN,NaN,NaN,NaN,NaN,NaN,NaN,NaN,NaN,NaN,,NaN,NaN,NaN,NaN,NaN,NaN,NaN,NaN,NaN,NaN,NaN,NaN,,0.09793247,1.293793,0.4250782,0.9825988,0.007612238,-0.18558471,-0.10495826,-0.8015877,-0.58859235,-0.15324292,0.59782875,-0.78684014,,NaN,NaN,NaN,NaN,NaN,NaN,NaN,NaN,NaN,NaN,NaN,NaN,,NaN,NaN,NaN,NaN,NaN,NaN,NaN,NaN,NaN,NaN,NaN,NaN,,NaN,NaN,NaN,NaN,NaN,NaN,NaN,,NaN,NaN,NaN,NaN,NaN,NaN,NaN,,-0.11697196646865997,-0.12781700610823973,0.09957687064,-0.1167695939710949,,-2.1532178e-06,-6.556511e-07,-3.9339066e-06,1.0,8.530915e-06,6.467104e-06,-8.523464e-06,1.0,1.66893e-06,-6.482005e-06,-1.6391277e-06,1.0,423,1.292,1,2,0.473,False,-0.26297607698675796,1.0091527395071
1.3135787809733301,17:41:23.158202,17:40:07.395769,0,,NaN,NaN,NaN,NaN,NaN,NaN,NaN,NaN,NaN,NaN,NaN,NaN,,NaN,NaN,NaN,NaN,NaN,NaN,NaN,NaN,NaN,NaN,NaN,NaN,,0.09793247,1.293793,0.4250782,0.9825988,0.007612238,-0.18558471,-0.10495826,-0.8015877,-0.58859235,-0.15324292,0.59782875,-0.78684014,,NaN,NaN,NaN,NaN,NaN,NaN,NaN,NaN,NaN,NaN,NaN,NaN,,NaN,NaN,NaN,NaN,NaN,NaN,NaN,NaN,NaN,NaN,NaN,NaN,,NaN,NaN,NaN,NaN,NaN,NaN,NaN,,NaN,NaN,NaN,NaN,NaN,NaN,NaN,,-0.11697196646865997,-0.12781700610823973,0.09957687064,-0.1167695939710949,,-2.1532178e-06,-6.556511e-07,-3.9339066e-06,1.0,8.530915e-06,6.467104e-06,-8.523464e-06,1.0,1.66893e-06,-6.482005e-06,-1.6391277e-06,1.0,436,1.333,1,2,0.514,False,-0.2637505873275314,1.009394140510997
1.3391872399952263,17:41:23.200133,17:40:07.395769,0,,NaN,NaN,NaN,NaN,NaN,NaN,NaN,NaN,NaN,NaN,NaN,NaN,,NaN,NaN,NaN,NaN,NaN,NaN,NaN,NaN,NaN,NaN,NaN,NaN,,0.09793247,1.293793,0.4250782,0.9825988,0.007612238,-0.18558471,-0.10495826,-0.8015877,-0.58859235,-0.15324292,0.59782875,-0.78684014,,NaN,NaN,NaN,NaN,NaN,NaN,NaN,NaN,NaN,NaN,NaN,NaN,,NaN,NaN,NaN,NaN,NaN,NaN,NaN,NaN,NaN,NaN,NaN,NaN,,NaN,NaN,NaN,NaN,NaN,NaN,NaN,,NaN,NaN,NaN,NaN,NaN,NaN,NaN,,-0.11697196646865997,-0.12781700610823973,0.09957687064,-0.1167695939710949,,-2.1532178e-06,-6.556511e-07,-3.9339066e-06,1.0,8.530915e-06,6.467104e-06,-8.523464e-06,1.0,1.66893e-06,-6.482005e-06,-1.6391277e-06,1.0,445,1.362,1,2,0.543,False,-0.26333354329788383,1.009345860310218
1.3811004089657217,17:41:23.229026,17:40:07.395769,0,,NaN,NaN,NaN,NaN,NaN,NaN,NaN,NaN,NaN,NaN,NaN,NaN,,NaN,NaN,NaN,NaN,NaN,NaN,NaN,NaN,NaN,NaN,NaN,NaN,,0.09793247,1.293793,0.4250782,0.9825988,0.007612238,-0.18558471,-0.10495826,-0.8015877,-0.58859235,-0.15324292,0.59782875,-0.78684014,,NaN,NaN,NaN,NaN,NaN,NaN,NaN,NaN,NaN,NaN,NaN,NaN,,NaN,NaN,NaN,NaN,NaN,NaN,NaN,NaN,NaN,NaN,NaN,NaN,,NaN,NaN,NaN,NaN,NaN,NaN,NaN,,NaN,NaN,NaN,NaN,NaN,NaN,NaN,,-0.11697196646865997,-0.12781700610823973,0.09957687064,-0.1167695939710949,,-2.1532178e-06,-6.556511e-07,-3.9339066e-06,1.0,8.530915e-06,6.467104e-06,-8.523464e-06,1.0,1.66893e-06,-6.482005e-06,-1.6391277e-06,1.0,458,1.403,1,2,0.584,False,-0.26297607698675796,1.0095389811133355
1.4100068639963865,17:41:23.268832,17:40:07.513887,0,,NaN,NaN,NaN,NaN,NaN,NaN,NaN,NaN,NaN,NaN,NaN,NaN,,NaN,NaN,NaN,NaN,NaN,NaN,NaN,NaN,NaN,NaN,NaN,NaN,,0.09793247,1.293793,0.4250782,0.9825988,0.007612238,-0.18558471,-0.10495826,-0.8015877,-0.58859235,-0.15324292,0.59782875,-0.78684014,,NaN,NaN,NaN,NaN,NaN,NaN,NaN,NaN,NaN,NaN,NaN,NaN,,NaN,NaN,NaN,NaN,NaN,NaN,NaN,NaN,NaN,NaN,NaN,NaN,,NaN,NaN,NaN,NaN,NaN,NaN,NaN,,NaN,NaN,NaN,NaN,NaN,NaN,NaN,,-0.11697196646865997,-0.12781700610823973,0.09957687064,-0.1167695939710949,,-2.1532178e-06,-6.556511e-07,-3.9339066e-06,1.0,8.530915e-06,6.467104e-06,-8.523464e-06,1.0,1.66893e-06,-6.482005e-06,-1.6391277e-06,1.0,467,1.431,1,2,0.612,False,-0.2626186106756321,1.0108908267351602
1.4498098420444876,17:41:23.293200,17:40:07.513887,0,,NaN,NaN,NaN,NaN,NaN,NaN,NaN,NaN,NaN,NaN,NaN,NaN,,NaN,NaN,NaN,NaN,NaN,NaN,NaN,NaN,NaN,NaN,NaN,NaN,,0.09793247,1.293793,0.4250782,0.9825988,0.007612238,-0.18558471,-0.10495826,-0.8015877,-0.58859235,-0.15324292,0.59782875,-0.78684014,,NaN,NaN,NaN,NaN,NaN,NaN,NaN,NaN,NaN,NaN,NaN,NaN,,NaN,NaN,NaN,NaN,NaN,NaN,NaN,NaN,NaN,NaN,NaN,NaN,,NaN,NaN,NaN,NaN,NaN,NaN,NaN,,NaN,NaN,NaN,NaN,NaN,NaN,NaN,,-0.11697196646865997,-0.12781700610823973,0.09957687064,-0.1167695939710949,,-2.1532178e-06,-6.556511e-07,-3.9339066e-06,1.0,8.530915e-06,6.467104e-06,-8.523464e-06,1.0,1.66893e-06,-6.482005e-06,-1.6391277e-06,1.0,480,1.472,1,2,0.653,False,-0.2632143878608417,1.0106977059320426
1.4741861100774258,17:41:23.333099,17:40:07.513887,0,,NaN,NaN,NaN,NaN,NaN,NaN,NaN,NaN,NaN,NaN,NaN,NaN,,NaN,NaN,NaN,NaN,NaN,NaN,NaN,NaN,NaN,NaN,NaN,NaN,,0.09793247,1.293793,0.4250782,0.9825988,0.007612238,-0.18558471,-0.10495826,-0.8015877,-0.58859235,-0.15324292,0.59782875,-0.78684014,,NaN,NaN,NaN,NaN,NaN,NaN,NaN,NaN,NaN,NaN,NaN,NaN,,NaN,NaN,NaN,NaN,NaN,NaN,NaN,NaN,NaN,NaN,NaN,NaN,,NaN,NaN,NaN,NaN,NaN,NaN,NaN,,NaN,NaN,NaN,NaN,NaN,NaN,NaN,,-0.11697196646865997,-0.12781700610823973,0.09957687064,-0.1167695939710949,,-2.1532178e-06,-6.556511e-07,-3.9339066e-06,1.0,8.530915e-06,6.467104e-06,-8.523464e-06,1.0,1.66893e-06,-6.482005e-06,-1.6391277e-06,1.0,489,1.501,0,2,0.672,False,-0.26309523242380006,1.011083947538278
1.514035333879292,17:41:23.364049,17:40:07.513887,0,,NaN,NaN,NaN,NaN,NaN,NaN,NaN,NaN,NaN,NaN,NaN,NaN,,NaN,NaN,NaN,NaN,NaN,NaN,NaN,NaN,NaN,NaN,NaN,NaN,,0.09793247,1.293793,0.4250782,0.9825988,0.007612238,-0.18558471,-0.10495826,-0.8015877,-0.58859235,-0.15324292,0.59782875,-0.78684014,,NaN,NaN,NaN,NaN,NaN,NaN,NaN,NaN,NaN,NaN,NaN,NaN,,NaN,NaN,NaN,NaN,NaN,NaN,NaN,NaN,NaN,NaN,NaN,NaN,,NaN,NaN,NaN,NaN,NaN,NaN,NaN,,NaN,NaN,NaN,NaN,NaN,NaN,NaN,,-0.11697196646865997,-0.12781700610823973,0.09957687064,-0.1167695939710949,,-2.1532178e-06,-6.556511e-07,-3.9339066e-06,1.0,8.530915e-06,6.467104e-06,-8.523464e-06,1.0,1.66893e-06,-6.482005e-06,-1.6391277e-06,1.0,502,1.542,0,2,0.672,False,-0.262797343831195,1.0115667495460727
1.5450286900158972,17:41:23.403383,17:40:07.640493,0,,NaN,NaN,NaN,NaN,NaN,NaN,NaN,NaN,NaN,NaN,NaN,NaN,,NaN,NaN,NaN,NaN,NaN,NaN,NaN,NaN,NaN,NaN,NaN,NaN,,0.09793247,1.293793,0.4250782,0.9825988,0.007612238,-0.18558471,-0.10495826,-0.8015877,-0.58859235,-0.15324292,0.59782875,-0.78684014,,NaN,NaN,NaN,NaN,NaN,NaN,NaN,NaN,NaN,NaN,NaN,NaN,,NaN,NaN,NaN,NaN,NaN,NaN,NaN,NaN,NaN,NaN,NaN,NaN,,NaN,NaN,NaN,NaN,NaN,NaN,NaN,,NaN,NaN,NaN,NaN,NaN,NaN,NaN,,-0.11697196646865997,-0.12781700610823973,0.09957687064,-0.1167695939710949,,-2.1532178e-06,-6.556511e-07,-3.9339066e-06,1.0,8.530915e-06,6.467104e-06,-8.523464e-06,1.0,1.66893e-06,-6.482005e-06,-1.6391277e-06,1.0,515,1.583,0,2,0.672,False,-0.262797343831195,1.0108908267351602
1.5843659560196102,17:41:23.448842,17:40:07.640493,0,,NaN,NaN,NaN,NaN,NaN,NaN,NaN,NaN,NaN,NaN,NaN,NaN,,NaN,NaN,NaN,NaN,NaN,NaN,NaN,NaN,NaN,NaN,NaN,NaN,,0.09793247,1.293793,0.4250782,0.9825988,0.007612238,-0.18558471,-0.10495826,-0.8015877,-0.58859235,-0.15324292,0.59782875,-0.78684014,,NaN,NaN,NaN,NaN,NaN,NaN,NaN,NaN,NaN,NaN,NaN,NaN,,NaN,NaN,NaN,NaN,NaN,NaN,NaN,NaN,NaN,NaN,NaN,NaN,,NaN,NaN,NaN,NaN,NaN,NaN,NaN,,NaN,NaN,NaN,NaN,NaN,NaN,NaN,,-0.11697196646865997,-0.12781700610823973,0.09957687064,-0.1167695939710949,,-2.1532178e-06,-6.556511e-07,-3.9339066e-06,1.0,8.530915e-06,6.467104e-06,-8.523464e-06,1.0,1.66893e-06,-6.482005e-06,-1.6391277e-06,1.0,524,1.612,1,3,0.683,False,-0.2623802998015474,1.0109873871367192
1.629793664906174,17:41:23.485023,17:40:07.640493,0,,NaN,NaN,NaN,NaN,NaN,NaN,NaN,NaN,NaN,NaN,NaN,NaN,,NaN,NaN,NaN,NaN,NaN,NaN,NaN,NaN,NaN,NaN,NaN,NaN,,0.09793247,1.293793,0.4250782,0.9825988,0.007612238,-0.18558471,-0.10495826,-0.8015877,-0.58859235,-0.15324292,0.59782875,-0.78684014,,NaN,NaN,NaN,NaN,NaN,NaN,NaN,NaN,NaN,NaN,NaN,NaN,,NaN,NaN,NaN,NaN,NaN,NaN,NaN,NaN,NaN,NaN,NaN,NaN,,NaN,NaN,NaN,NaN,NaN,NaN,NaN,,NaN,NaN,NaN,NaN,NaN,NaN,NaN,,-0.11697196646865997,-0.12781700610823973,0.09957687064,-0.1167695939710949,,-2.1532178e-06,-6.556511e-07,-3.9339066e-06,1.0,8.530915e-06,6.467104e-06,-8.523464e-06,1.0,1.66893e-06,-6.482005e-06,-1.6391277e-06,1.0,537,1.652,1,3,0.723,False,-0.2634526987349264,1.010745986132822
1.6660017939284444,17:41:23.532539,17:40:07.763868,0,,NaN,NaN,NaN,NaN,NaN,NaN,NaN,NaN,NaN,NaN,NaN,NaN,,NaN,NaN,NaN,NaN,NaN,NaN,NaN,NaN,NaN,NaN,NaN,NaN,,0.09793247,1.293793,0.4250782,0.9825988,0.007612238,-0.18558471,-0.10495826,-0.8015877,-0.58859235,-0.15324292,0.59782875,-0.78684014,,NaN,NaN,NaN,NaN,NaN,NaN,NaN,NaN,NaN,NaN,NaN,NaN,,NaN,NaN,NaN,NaN,NaN,NaN,NaN,NaN,NaN,NaN,NaN,NaN,,NaN,NaN,NaN,NaN,NaN,NaN,NaN,,NaN,NaN,NaN,NaN,NaN,NaN,NaN,,-0.11697196646865997,-0.12781700610823973,0.09957687064,-0.1167695939710949,,-2.1532178e-06,-6.556511e-07,-3.9339066e-06,1.0,8.530915e-06,6.467104e-06,-8.523464e-06,1.0,1.66893e-06,-6.482005e-06,-1.6391277e-06,1.0,559,1.722,1,3,0.793,False,-0.2616653671792948,1.0105528653297042
1.7135198470205069,17:41:23.585602,17:40:07.763868,0,,NaN,NaN,NaN,NaN,NaN,NaN,NaN,NaN,NaN,NaN,NaN,NaN,,NaN,NaN,NaN,NaN,NaN,NaN,NaN,NaN,NaN,NaN,NaN,NaN,,0.09793247,1.293793,0.4250782,0.9825988,0.007612238,-0.18558471,-0.10495826,-0.8015877,-0.58859235,-0.15324292,0.59782875,-0.78684014,,NaN,NaN,NaN,NaN,NaN,NaN,NaN,NaN,NaN,NaN,NaN,NaN,,NaN,NaN,NaN,NaN,NaN,NaN,NaN,NaN,NaN,NaN,NaN,NaN,,NaN,NaN,NaN,NaN,NaN,NaN,NaN,,NaN,NaN,NaN,NaN,NaN,NaN,NaN,,-0.11697196646865997,-0.12781700610823973,0.09957687064,-0.1167695939710949,,-2.1532178e-06,-6.556511e-07,-3.9339066e-06,1.0,8.530915e-06,6.467104e-06,-8.523464e-06,1.0,1.66893e-06,-6.482005e-06,-1.6391277e-06,1.0,568,1.751,1,3,0.822,False,-0.2620824112089424,1.0107942663336016
1.7665612129494548,17:41:23.622911,17:40:07.763868,0,,NaN,NaN,NaN,NaN,NaN,NaN,NaN,NaN,NaN,NaN,NaN,NaN,,NaN,NaN,NaN,NaN,NaN,NaN,NaN,NaN,NaN,NaN,NaN,NaN,,0.09793247,1.293793,0.4250782,0.9825988,0.007612238,-0.18558471,-0.10495826,-0.8015877,-0.58859235,-0.15324292,0.59782875,-0.78684014,,NaN,NaN,NaN,NaN,NaN,NaN,NaN,NaN,NaN,NaN,NaN,NaN,,NaN,NaN,NaN,NaN,NaN,NaN,NaN,NaN,NaN,NaN,NaN,NaN,,NaN,NaN,NaN,NaN,NaN,NaN,NaN,,NaN,NaN,NaN,NaN,NaN,NaN,NaN,,-0.11697196646865997,-0.12781700610823973,0.09957687064,-0.1167695939710949,,-2.1532178e-06,-6.556511e-07,-3.9339066e-06,1.0,8.530915e-06,6.467104e-06,-8.523464e-06,1.0,1.66893e-06,-6.482005e-06,-1.6391277e-06,1.0,581,1.792,1,3,0.863,False,-0.26202283349042155,1.0106011455304837
1.803895055083558,17:41:23.654574,17:40:07.902811,0,,NaN,NaN,NaN,NaN,NaN,NaN,NaN,NaN,NaN,NaN,NaN,NaN,,NaN,NaN,NaN,NaN,NaN,NaN,NaN,NaN,NaN,NaN,NaN,NaN,,0.09793247,1.293793,0.4250782,0.9825988,0.007612238,-0.18558471,-0.10495826,-0.8015877,-0.58859235,-0.15324292,0.59782875,-0.78684014,,NaN,NaN,NaN,NaN,NaN,NaN,NaN,NaN,NaN,NaN,NaN,NaN,,NaN,NaN,NaN,NaN,NaN,NaN,NaN,NaN,NaN,NaN,NaN,NaN,,NaN,NaN,NaN,NaN,NaN,NaN,NaN,,NaN,NaN,NaN,NaN,NaN,NaN,NaN,,-0.11697196646865997,-0.12781700610823973,0.09957687064,-0.1167695939710949,,-2.1532178e-06,-6.556511e-07,-3.9339066e-06,1.0,8.530915e-06,6.467104e-06,-8.523464e-06,1.0,1.66893e-06,-6.482005e-06,-1.6391277e-06,1.0,590,1.82,0,3,0.875,False,-0.2626186106756321,1.011180507939837
1.835543778957799,17:41:23.685574,17:40:07.902811,0,,NaN,NaN,NaN,NaN,NaN,NaN,NaN,NaN,NaN,NaN,NaN,NaN,,NaN,NaN,NaN,NaN,NaN,NaN,NaN,NaN,NaN,NaN,NaN,NaN,,0.09793247,1.293793,0.4250782,0.9825988,0.007612238,-0.18558471,-0.10495826,-0.8015877,-0.58859235,-0.15324292,0.59782875,-0.78684014,,NaN,NaN,NaN,NaN,NaN,NaN,NaN,NaN,NaN,NaN,NaN,NaN,,NaN,NaN,NaN,NaN,NaN,NaN,NaN,NaN,NaN,NaN,NaN,NaN,,NaN,NaN,NaN,NaN,NaN,NaN,NaN,,NaN,NaN,NaN,NaN,NaN,NaN,NaN,,-0.11697196646865997,-0.12781700610823973,0.09957687064,-0.1167695939710949,,-2.1532178e-06,-6.556511e-07,-3.9339066e-06,1.0,8.530915e-06,6.467104e-06,-8.523464e-06,1.0,1.66893e-06,-6.482005e-06,-1.6391277e-06,1.0,603,1.861,0,3,0.875,False,-0.2632143878608417,1.011470189144514
1.8665226029697806,17:41:23.726540,17:40:07.902811,0,,NaN,NaN,NaN,NaN,NaN,NaN,NaN,NaN,NaN,NaN,NaN,NaN,,NaN,NaN,NaN,NaN,NaN,NaN,NaN,NaN,NaN,NaN,NaN,NaN,,0.09793247,1.293793,0.4250782,0.9825988,0.007612238,-0.18558471,-0.10495826,-0.8015877,-0.58859235,-0.15324292,0.59782875,-0.78684014,,NaN,NaN,NaN,NaN,NaN,NaN,NaN,NaN,NaN,NaN,NaN,NaN,,NaN,NaN,NaN,NaN,NaN,NaN,NaN,NaN,NaN,NaN,NaN,NaN,,NaN,NaN,NaN,NaN,NaN,NaN,NaN,,NaN,NaN,NaN,NaN,NaN,NaN,NaN,,-0.11697196646865997,-0.12781700610823973,0.09957687064,-0.1167695939710949,,-2.1532178e-06,-6.556511e-07,-3.9339066e-06,1.0,8.530915e-06,6.467104e-06,-8.523464e-06,1.0,1.66893e-06,-6.482005e-06,-1.6391277e-06,1.0,616,1.902,1,4,0.894,False,-0.26255903295711036,1.0115667495460727
1.90750636998564,17:41:23.772474,17:40:08.015810,0,,NaN,NaN,NaN,NaN,NaN,NaN,NaN,NaN,NaN,NaN,NaN,NaN,,NaN,NaN,NaN,NaN,NaN,NaN,NaN,NaN,NaN,NaN,NaN,NaN,,0.09793247,1.293793,0.4250782,0.9825988,0.007612238,-0.18558471,-0.10495826,-0.8015877,-0.58859235,-0.15324292,0.59782875,-0.78684014,,NaN,NaN,NaN,NaN,NaN,NaN,NaN,NaN,NaN,NaN,NaN,NaN,,NaN,NaN,NaN,NaN,NaN,NaN,NaN,NaN,NaN,NaN,NaN,NaN,,NaN,NaN,NaN,NaN,NaN,NaN,NaN,,NaN,NaN,NaN,NaN,NaN,NaN,NaN,,-0.11697196646865997,-0.12781700610823973,0.09957687064,-0.1167695939710949,,-2.1532178e-06,-6.556511e-07,-3.9339066e-06,1.0,8.530915e-06,6.467104e-06,-8.523464e-06,1.0,1.66893e-06,-6.482005e-06,-1.6391277e-06,1.0,625,1.931,0,4,0.9,False,-0.2626781883941529,1.01180815054997
1.9534314079210162,17:41:23.797579,17:40:08.015810,0,,NaN,NaN,NaN,NaN,NaN,NaN,NaN,NaN,NaN,NaN,NaN,NaN,,NaN,NaN,NaN,NaN,NaN,NaN,NaN,NaN,NaN,NaN,NaN,NaN,,0.09793247,1.293793,0.4250782,0.9825988,0.007612238,-0.18558471,-0.10495826,-0.8015877,-0.58859235,-0.15324292,0.59782875,-0.78684014,,NaN,NaN,NaN,NaN,NaN,NaN,NaN,NaN,NaN,NaN,NaN,NaN,,NaN,NaN,NaN,NaN,NaN,NaN,NaN,NaN,NaN,NaN,NaN,NaN,,NaN,NaN,NaN,NaN,NaN,NaN,NaN,,NaN,NaN,NaN,NaN,NaN,NaN,NaN,,-0.11697196646865997,-0.12781700610823973,0.09957687064,-0.1167695939710949,,-2.1532178e-06,-6.556511e-07,-3.9339066e-06,1.0,8.530915e-06,6.467104e-06,-8.523464e-06,1.0,1.66893e-06,-6.482005e-06,-1.6391277e-06,1.0,638,1.972,0,4,0.9,False,-0.26160578946077395,1.0115667495460727
1.978559193899855,17:41:23.842912,17:40:08.015810,0,,NaN,NaN,NaN,NaN,NaN,NaN,NaN,NaN,NaN,NaN,NaN,NaN,,NaN,NaN,NaN,NaN,NaN,NaN,NaN,NaN,NaN,NaN,NaN,NaN,,0.097971946,1.293791,0.42506945,0.98259556,0.007587496,-0.18560287,-0.10498859,-0.80158794,-0.5885866,-0.15324292,0.59782875,-0.78684014,,NaN,NaN,NaN,NaN,NaN,NaN,NaN,NaN,NaN,NaN,NaN,NaN,,NaN,NaN,NaN,NaN,NaN,NaN,NaN,NaN,NaN,NaN,NaN,NaN,,NaN,NaN,NaN,NaN,NaN,NaN,NaN,,NaN,NaN,NaN,NaN,NaN,NaN,NaN,,-0.11697196646865997,-0.12781700610823973,0.09957687064,-0.1167695939710949,,3.8184226e-05,-3.993511e-06,-3.2186508e-06,1.0,-1.5757978e-05,-1.1965632e-05,1.577288e-05,1.0,-3.0398369e-06,1.1965632e-05,3.0994415e-06,1.0,647,2.001,0,4,0.9,False,-0.26202283349042155,1.011180507939837
2.023847402073443,17:41:23.866483,17:40:08.015810,0,,NaN,NaN,NaN,NaN,NaN,NaN,NaN,NaN,NaN,NaN,NaN,NaN,,NaN,NaN,NaN,NaN,NaN,NaN,NaN,NaN,NaN,NaN,NaN,NaN,,0.097971946,1.293791,0.42506945,0.98259556,0.007587496,-0.18560287,-0.10498859,-0.80158794,-0.5885866,-0.15324292,0.59782875,-0.78684014,,NaN,NaN,NaN,NaN,NaN,NaN,NaN,NaN,NaN,NaN,NaN,NaN,,NaN,NaN,NaN,NaN,NaN,NaN,NaN,NaN,NaN,NaN,NaN,NaN,,NaN,NaN,NaN,NaN,NaN,NaN,NaN,,NaN,NaN,NaN,NaN,NaN,NaN,NaN,,-0.11697196646865997,-0.12781700610823973,0.09957687064,-0.1167695939710949,,3.8184226e-05,-3.993511e-06,-3.2186508e-06,1.0,-1.5757978e-05,-1.1965632e-05,1.577288e-05,1.0,-3.0398369e-06,1.1965632e-05,3.0994415e-06,1.0,660,2.042,0,4,0.9,False,-0.2626781883941529,1.011083947538278
2.0474530858919024,17:41:23.906601,17:40:08.157429,0,,NaN,NaN,NaN,NaN,NaN,NaN,NaN,NaN,NaN,NaN,NaN,NaN,,NaN,NaN,NaN,NaN,NaN,NaN,NaN,NaN,NaN,NaN,NaN,NaN,,0.097971946,1.293791,0.42506945,0.98259556,0.007587496,-0.18560287,-0.10498859,-0.80158794,-0.5885866,-0.15324292,0.59782875,-0.78684014,,NaN,NaN,NaN,NaN,NaN,NaN,NaN,NaN,NaN,NaN,NaN,NaN,,NaN,NaN,NaN,NaN,NaN,NaN,NaN,NaN,NaN,NaN,NaN,NaN,,NaN,NaN,NaN,NaN,NaN,NaN,NaN,,NaN,NaN,NaN,NaN,NaN,NaN,NaN,,-0.11697196646865997,-0.12781700610823973,0.09957687064,-0.1167695939710949,,3.8184226e-05,-3.993511e-06,-3.2186508e-06,1.0,-1.5757978e-05,-1.1965632e-05,1.577288e-05,1.0,-3.0398369e-06,1.1965632e-05,3.0994415e-06,1.0,669,2.07,0,4,0.9,False,-0.26232072208302704,1.0115667495460727
2.0875380020588636,17:41:23.937737,17:40:08.157429,0,,NaN,NaN,NaN,NaN,NaN,NaN,NaN,NaN,NaN,NaN,NaN,NaN,,NaN,NaN,NaN,NaN,NaN,NaN,NaN,NaN,NaN,NaN,NaN,NaN,,0.097971946,1.293791,0.42506945,0.98259556,0.007587496,-0.18560287,-0.10498859,-0.80158794,-0.5885866,-0.15324292,0.59782875,-0.78684014,,NaN,NaN,NaN,NaN,NaN,NaN,NaN,NaN,NaN,NaN,NaN,NaN,,NaN,NaN,NaN,NaN,NaN,NaN,NaN,NaN,NaN,NaN,NaN,NaN,,NaN,NaN,NaN,NaN,NaN,NaN,NaN,,NaN,NaN,NaN,NaN,NaN,NaN,NaN,,-0.11697196646865997,-0.12781700610823973,0.09957687064,-0.1167695939710949,,3.8184226e-05,-3.993511e-06,-3.2186508e-06,1.0,-1.5757978e-05,-1.1965632e-05,1.577288e-05,1.0,-3.0398369e-06,1.1965632e-05,3.0994415e-06,1.0,682,2.111,0,4,0.9,False,-0.2629164992682367,1.012097831754647
2.118720344034955,17:41:23.976931,17:40:08.157429,0,,NaN,NaN,NaN,NaN,NaN,NaN,NaN,NaN,NaN,NaN,NaN,NaN,,NaN,NaN,NaN,NaN,NaN,NaN,NaN,NaN,NaN,NaN,NaN,NaN,,0.097971946,1.293791,0.42506945,0.98259556,0.007587496,-0.18560287,-0.10498859,-0.80158794,-0.5885866,-0.15324292,0.59782875,-0.78684014,,NaN,NaN,NaN,NaN,NaN,NaN,NaN,NaN,NaN,NaN,NaN,NaN,,NaN,NaN,NaN,NaN,NaN,NaN,NaN,NaN,NaN,NaN,NaN,NaN,,NaN,NaN,NaN,NaN,NaN,NaN,NaN,,NaN,NaN,NaN,NaN,NaN,NaN,NaN,,-0.11697196646865997,-0.12781700610823973,0.09957687064,-0.1167695939710949,,3.8184226e-05,-3.993511e-06,-3.2186508e-06,1.0,-1.5757978e-05,-1.1965632e-05,1.577288e-05,1.0,-3.0398369e-06,1.1965632e-05,3.0994415e-06,1.0,695,2.152,0,4,0.9,False,-0.2622611443645053,1.0119529911523084
2.1579127870500088,17:41:24.020797,17:40:08.157429,0,,NaN,NaN,NaN,NaN,NaN,NaN,NaN,NaN,NaN,NaN,NaN,NaN,,NaN,NaN,NaN,NaN,NaN,NaN,NaN,NaN,NaN,NaN,NaN,NaN,,0.097971946,1.293791,0.42506945,0.98259556,0.007587496,-0.18560287,-0.10498859,-0.80158794,-0.5885866,-0.15324292,0.59782875,-0.78684014,,NaN,NaN,NaN,NaN,NaN,NaN,NaN,NaN,NaN,NaN,NaN,NaN,,NaN,NaN,NaN,NaN,NaN,NaN,NaN,NaN,NaN,NaN,NaN,NaN,,NaN,NaN,NaN,NaN,NaN,NaN,NaN,,NaN,NaN,NaN,NaN,NaN,NaN,NaN,,-0.11697196646865997,-0.12781700610823973,0.09957687064,-0.1167695939710949,,3.8184226e-05,-3.993511e-06,-3.2186508e-06,1.0,-1.5757978e-05,-1.1965632e-05,1.577288e-05,1.0,-3.0398369e-06,1.1965632e-05,3.0994415e-06,1.0,704,2.181,0,4,0.9,False,-0.2626186106756321,1.0116633099476318
2.2017786928918213,17:41:24.047057,17:40:08.290339,0,,NaN,NaN,NaN,NaN,NaN,NaN,NaN,NaN,NaN,NaN,NaN,NaN,,NaN,NaN,NaN,NaN,NaN,NaN,NaN,NaN,NaN,NaN,NaN,NaN,,0.097971946,1.293791,0.42506945,0.98259556,0.007587496,-0.18560287,-0.10498859,-0.80158794,-0.5885866,-0.15324292,0.59782875,-0.78684014,,NaN,NaN,NaN,NaN,NaN,NaN,NaN,NaN,NaN,NaN,NaN,NaN,,NaN,NaN,NaN,NaN,NaN,NaN,NaN,NaN,NaN,NaN,NaN,NaN,,NaN,NaN,NaN,NaN,NaN,NaN,NaN,,NaN,NaN,NaN,NaN,NaN,NaN,NaN,,-0.11697196646865997,-0.12781700610823973,0.09957687064,-0.1167695939710949,,3.8184226e-05,-3.993511e-06,-3.2186508e-06,1.0,-1.5757978e-05,-1.1965632e-05,1.577288e-05,1.0,-3.0398369e-06,1.1965632e-05,3.0994415e-06,1.0,717,2.222,0,4,0.9,False,-0.26255903295711036,1.011470189144514
2.2280020089820027,17:41:24.084601,17:40:08.290339,0,,NaN,NaN,NaN,NaN,NaN,NaN,NaN,NaN,NaN,NaN,NaN,NaN,,NaN,NaN,NaN,NaN,NaN,NaN,NaN,NaN,NaN,NaN,NaN,NaN,,0.097971946,1.293791,0.42506945,0.98259556,0.007587496,-0.18560287,-0.10498859,-0.80158794,-0.5885866,-0.15324292,0.59782875,-0.78684014,,NaN,NaN,NaN,NaN,NaN,NaN,NaN,NaN,NaN,NaN,NaN,NaN,,NaN,NaN,NaN,NaN,NaN,NaN,NaN,NaN,NaN,NaN,NaN,NaN,,NaN,NaN,NaN,NaN,NaN,NaN,NaN,,NaN,NaN,NaN,NaN,NaN,NaN,NaN,,-0.11697196646865997,-0.12781700610823973,0.09957687064,-0.1167695939710949,,3.8184226e-05,-3.993511e-06,-3.2186508e-06,1.0,-1.5757978e-05,-1.1965632e-05,1.577288e-05,1.0,-3.0398369e-06,1.1965632e-05,3.0994415e-06,1.0,730,2.263,0,4,0.9,False,-0.2622015666459845,1.0118564307507496
2.265538471052423,17:41:24.129180,17:40:08.290339,0,,NaN,NaN,NaN,NaN,NaN,NaN,NaN,NaN,NaN,NaN,NaN,NaN,,NaN,NaN,NaN,NaN,NaN,NaN,NaN,NaN,NaN,NaN,NaN,NaN,,0.097971946,1.293791,0.42506945,0.98259556,0.007587496,-0.18560287,-0.10498859,-0.80158794,-0.5885866,-0.15324292,0.59782875,-0.78684014,,NaN,NaN,NaN,NaN,NaN,NaN,NaN,NaN,NaN,NaN,NaN,NaN,,NaN,NaN,NaN,NaN,NaN,NaN,NaN,NaN,NaN,NaN,NaN,NaN,,NaN,NaN,NaN,NaN,NaN,NaN,NaN,,NaN,NaN,NaN,NaN,NaN,NaN,NaN,,-0.11697196646865997,-0.12781700610823973,0.09957687064,-0.1167695939710949,,3.8184226e-05,-3.993511e-06,-3.2186508e-06,1.0,-1.5757978e-05,-1.1965632e-05,1.577288e-05,1.0,-3.0398369e-06,1.1965632e-05,3.0994415e-06,1.0,739,2.291,0,4,0.9,False,-0.2629164992682367,1.0119047109515291
2.310098546091467,17:41:24.166793,17:40:08.406011,0,,NaN,NaN,NaN,NaN,NaN,NaN,NaN,NaN,NaN,NaN,NaN,NaN,,NaN,NaN,NaN,NaN,NaN,NaN,NaN,NaN,NaN,NaN,NaN,NaN,,0.097971946,1.293791,0.42506945,0.98259556,0.007587496,-0.18560287,-0.10498859,-0.80158794,-0.5885866,-0.15324292,0.59782875,-0.78684014,,NaN,NaN,NaN,NaN,NaN,NaN,NaN,NaN,NaN,NaN,NaN,NaN,,NaN,NaN,NaN,NaN,NaN,NaN,NaN,NaN,NaN,NaN,NaN,NaN,,NaN,NaN,NaN,NaN,NaN,NaN,NaN,,NaN,NaN,NaN,NaN,NaN,NaN,NaN,,-0.11697196646865997,-0.12781700610823973,0.09957687064,-0.1167695939710949,,3.8184226e-05,-3.993511e-06,-3.2186508e-06,1.0,-1.5757978e-05,-1.1965632e-05,1.577288e-05,1.0,-3.0398369e-06,1.1965632e-05,3.0994415e-06,1.0,752,2.332,0,4,0.9,False,-0.2631548101423209,1.0118564307507496
2.3477746800053865,17:41:24.202149,17:40:08.406011,0,,NaN,NaN,NaN,NaN,NaN,NaN,NaN,NaN,NaN,NaN,NaN,NaN,,NaN,NaN,NaN,NaN,NaN,NaN,NaN,NaN,NaN,NaN,NaN,NaN,,0.097971946,1.293791,0.42506945,0.98259556,0.007587496,-0.18560287,-0.10498859,-0.80158794,-0.5885866,-0.15324292,0.59782875,-0.78684014,,NaN,NaN,NaN,NaN,NaN,NaN,NaN,NaN,NaN,NaN,NaN,NaN,,NaN,NaN,NaN,NaN,NaN,NaN,NaN,NaN,NaN,NaN,NaN,NaN,,NaN,NaN,NaN,NaN,NaN,NaN,NaN,,NaN,NaN,NaN,NaN,NaN,NaN,NaN,,-0.11697196646865997,-0.12781700610823973,0.09957687064,-0.1167695939710949,,3.8184226e-05,-3.993511e-06,-3.2186508e-06,1.0,-1.5757978e-05,-1.1965632e-05,1.577288e-05,1.0,-3.0398369e-06,1.1965632e-05,3.0994415e-06,1.0,761,2.361,1,5,0.913,False,-0.26339312101640555,1.0118564307507496
2.3831314200069755,17:41:24.229297,17:40:08.406011,0,,NaN,NaN,NaN,NaN,NaN,NaN,NaN,NaN,NaN,NaN,NaN,NaN,,NaN,NaN,NaN,NaN,NaN,NaN,NaN,NaN,NaN,NaN,NaN,NaN,,0.097971946,1.293791,0.42506945,0.98259556,0.007587496,-0.18560287,-0.10498859,-0.80158794,-0.5885866,-0.15324292,0.59782875,-0.78684014,,NaN,NaN,NaN,NaN,NaN,NaN,NaN,NaN,NaN,NaN,NaN,NaN,,NaN,NaN,NaN,NaN,NaN,NaN,NaN,NaN,NaN,NaN,NaN,NaN,,NaN,NaN,NaN,NaN,NaN,NaN,NaN,,NaN,NaN,NaN,NaN,NaN,NaN,NaN,,-0.11697196646865997,-0.12781700610823973,0.09957687064,-0.1167695939710949,,3.8184226e-05,-3.993511e-06,-3.2186508e-06,1.0,-1.5757978e-05,-1.1965632e-05,1.577288e-05,1.0,-3.0398369e-06,1.1965632e-05,3.0994415e-06,1.0,774,2.402,1,5,0.954,False,-0.2618441003348577,1.0118564307507496
2.410264434060082,17:41:24.261237,17:40:08.406011,0,,NaN,NaN,NaN,NaN,NaN,NaN,NaN,NaN,NaN,NaN,NaN,NaN,,NaN,NaN,NaN,NaN,NaN,NaN,NaN,NaN,NaN,NaN,NaN,NaN,,0.097971946,1.293791,0.42506945,0.98259556,0.007587496,-0.18560287,-0.10498859,-0.80158794,-0.5885866,-0.15324292,0.59782875,-0.78684014,,NaN,NaN,NaN,NaN,NaN,NaN,NaN,NaN,NaN,NaN,NaN,NaN,,NaN,NaN,NaN,NaN,NaN,NaN,NaN,NaN,NaN,NaN,NaN,NaN,,NaN,NaN,NaN,NaN,NaN,NaN,NaN,,NaN,NaN,NaN,NaN,NaN,NaN,NaN,,-0.11697196646865997,-0.12781700610823973,0.09957687064,-0.1167695939710949,,3.8184226e-05,-3.993511e-06,-3.2186508e-06,1.0,-1.5757978e-05,-1.1965632e-05,1.577288e-05,1.0,-3.0398369e-06,1.1965632e-05,3.0994415e-06,1.0,783,2.431,1,5,0.983,False,-0.2620824112089424,1.011711590148411
2.4421957570593804,17:41:24.299561,17:40:08.406011,0,,NaN,NaN,NaN,NaN,NaN,NaN,NaN,NaN,NaN,NaN,NaN,NaN,,NaN,NaN,NaN,NaN,NaN,NaN,NaN,NaN,NaN,NaN,NaN,NaN,,0.097971946,1.293791,0.42506945,0.98259556,0.007587496,-0.18560287,-0.10498859,-0.80158794,-0.5885866,-0.15324292,0.59782875,-0.78684014,,NaN,NaN,NaN,NaN,NaN,NaN,NaN,NaN,NaN,NaN,NaN,NaN,,NaN,NaN,NaN,NaN,NaN,NaN,NaN,NaN,NaN,NaN,NaN,NaN,,NaN,NaN,NaN,NaN,NaN,NaN,NaN,,NaN,NaN,NaN,NaN,NaN,NaN,NaN,,-0.11697196646865997,-0.12781700610823973,0.09957687064,-0.1167695939710949,,3.8184226e-05,-3.993511e-06,-3.2186508e-06,1.0,-1.5757978e-05,-1.1965632e-05,1.577288e-05,1.0,-3.0398369e-06,1.1965632e-05,3.0994415e-06,1.0,792,2.459,1,5,1.011,False,-0.26243987752006825,1.010842546534381
2.4805415340233594,17:41:24.330608,17:40:08.595393,0,,NaN,NaN,NaN,NaN,NaN,NaN,NaN,NaN,NaN,NaN,NaN,NaN,,NaN,NaN,NaN,NaN,NaN,NaN,NaN,NaN,NaN,NaN,NaN,NaN,,0.097971946,1.293791,0.42506945,0.98259556,0.007587496,-0.18560287,-0.10498859,-0.80158794,-0.5885866,-0.15324292,0.59782875,-0.78684014,,NaN,NaN,NaN,NaN,NaN,NaN,NaN,NaN,NaN,NaN,NaN,NaN,,NaN,NaN,NaN,NaN,NaN,NaN,NaN,NaN,NaN,NaN,NaN,NaN,,NaN,NaN,NaN,NaN,NaN,NaN,NaN,,NaN,NaN,NaN,NaN,NaN,NaN,NaN,,-0.11697196646865997,-0.12781700610823973,0.09957687064,-0.1167695939710949,,3.8184226e-05,-3.993511e-06,-3.2186508e-06,1.0,-1.5757978e-05,-1.1965632e-05,1.577288e-05,1.0,-3.0398369e-06,1.1965632e-05,3.0994415e-06,1.0,806,2.504,1,5,1.056,False,-0.26243987752006825,1.010408024727366
2.5115899650845677,17:41:24.369813,17:40:08.595393,0,,NaN,NaN,NaN,NaN,NaN,NaN,NaN,NaN,NaN,NaN,NaN,NaN,,NaN,NaN,NaN,NaN,NaN,NaN,NaN,NaN,NaN,NaN,NaN,NaN,,0.097971946,1.293791,0.42506945,0.98259556,0.007587496,-0.18560287,-0.10498859,-0.80158794,-0.5885866,-0.15324292,0.59782875,-0.78684014,,NaN,NaN,NaN,NaN,NaN,NaN,NaN,NaN,NaN,NaN,NaN,NaN,,NaN,NaN,NaN,NaN,NaN,NaN,NaN,NaN,NaN,NaN,NaN,NaN,,NaN,NaN,NaN,NaN,NaN,NaN,NaN,,NaN,NaN,NaN,NaN,NaN,NaN,NaN,,-0.11697196646865997,-0.12781700610823973,0.09957687064,-0.1167695939710949,,3.8184226e-05,-3.993511e-06,-3.2186508e-06,1.0,-1.5757978e-05,-1.1965632e-05,1.577288e-05,1.0,-3.0398369e-06,1.1965632e-05,3.0994415e-06,1.0,815,2.533,1,5,1.085,False,-0.26243987752006825,1.0098286623180122
2.5507842178922147,17:41:24.392114,17:40:08.595393,0,,NaN,NaN,NaN,NaN,NaN,NaN,NaN,NaN,NaN,NaN,NaN,NaN,,NaN,NaN,NaN,NaN,NaN,NaN,NaN,NaN,NaN,NaN,NaN,NaN,,0.097971946,1.293791,0.42506945,0.98259556,0.007587496,-0.18560287,-0.10498859,-0.80158794,-0.5885866,-0.15324292,0.59782875,-0.78684014,,NaN,NaN,NaN,NaN,NaN,NaN,NaN,NaN,NaN,NaN,NaN,NaN,,NaN,NaN,NaN,NaN,NaN,NaN,NaN,NaN,NaN,NaN,NaN,NaN,,NaN,NaN,NaN,NaN,NaN,NaN,NaN,,NaN,NaN,NaN,NaN,NaN,NaN,NaN,,-0.11697196646865997,-0.12781700610823973,0.09957687064,-0.1167695939710949,,3.8184226e-05,-3.993511e-06,-3.2186508e-06,1.0,-1.5757978e-05,-1.1965632e-05,1.577288e-05,1.0,-3.0398369e-06,1.1965632e-05,3.0994415e-06,1.0,829,2.578,1,5,1.13,False,-0.26333354329788383,1.0095389811133355
2.5730989340227097,17:41:24.441732,17:40:08.705728,0,,NaN,NaN,NaN,NaN,NaN,NaN,NaN,NaN,NaN,NaN,NaN,NaN,,NaN,NaN,NaN,NaN,NaN,NaN,NaN,NaN,NaN,NaN,NaN,NaN,,0.097971946,1.293791,0.42506945,0.98259556,0.007587496,-0.18560287,-0.10498859,-0.80158794,-0.5885866,-0.15324292,0.59782875,-0.78684014,,NaN,NaN,NaN,NaN,NaN,NaN,NaN,NaN,NaN,NaN,NaN,NaN,,NaN,NaN,NaN,NaN,NaN,NaN,NaN,NaN,NaN,NaN,NaN,NaN,,NaN,NaN,NaN,NaN,NaN,NaN,NaN,,NaN,NaN,NaN,NaN,NaN,NaN,NaN,,-0.11697196646865997,-0.12781700610823973,0.09957687064,-0.1167695939710949,,3.8184226e-05,-3.993511e-06,-3.2186508e-06,1.0,-1.5757978e-05,-1.1965632e-05,1.577288e-05,1.0,-3.0398369e-06,1.1965632e-05,3.0994415e-06,1.0,852,2.652,1,5,1.204,False,-0.26255903295711036,1.0092010197078791
2.622713286895305,17:41:24.514055,17:40:08.705728,0,,NaN,NaN,NaN,NaN,NaN,NaN,NaN,NaN,NaN,NaN,NaN,NaN,,NaN,NaN,NaN,NaN,NaN,NaN,NaN,NaN,NaN,NaN,NaN,NaN,,0.097971946,1.293791,0.42506945,0.98259556,0.007587496,-0.18560287,-0.10498859,-0.80158794,-0.5885866,-0.15324292,0.59782875,-0.78684014,,NaN,NaN,NaN,NaN,NaN,NaN,NaN,NaN,NaN,NaN,NaN,NaN,,NaN,NaN,NaN,NaN,NaN,NaN,NaN,NaN,NaN,NaN,NaN,NaN,,NaN,NaN,NaN,NaN,NaN,NaN,NaN,,NaN,NaN,NaN,NaN,NaN,NaN,NaN,,-0.11697196646865997,-0.12781700610823973,0.09957687064,-0.1167695939710949,,3.8184226e-05,-3.993511e-06,-3.2186508e-06,1.0,-1.5757978e-05,-1.1965632e-05,1.577288e-05,1.0,-3.0398369e-06,1.1965632e-05,3.0994415e-06,1.0,866,2.697,1,5,1.249,False,-0.26190367805337944,1.0089596187039818
2.694975124904886,17:41:24.570826,17:40:08.705728,0,,NaN,NaN,NaN,NaN,NaN,NaN,NaN,NaN,NaN,NaN,NaN,NaN,,NaN,NaN,NaN,NaN,NaN,NaN,NaN,NaN,NaN,NaN,NaN,NaN,,0.097971946,1.293791,0.42506945,0.98259556,0.007587496,-0.18560287,-0.10498859,-0.80158794,-0.5885866,-0.15324292,0.59782875,-0.78684014,,NaN,NaN,NaN,NaN,NaN,NaN,NaN,NaN,NaN,NaN,NaN,NaN,,NaN,NaN,NaN,NaN,NaN,NaN,NaN,NaN,NaN,NaN,NaN,NaN,,NaN,NaN,NaN,NaN,NaN,NaN,NaN,,NaN,NaN,NaN,NaN,NaN,NaN,NaN,,-0.11697196646865997,-0.12781700610823973,0.09957687064,-0.1167695939710949,,3.8184226e-05,-3.993511e-06,-3.2186508e-06,1.0,-1.5757978e-05,-1.1965632e-05,1.577288e-05,1.0,-3.0398369e-06,1.1965632e-05,3.0994415e-06,1.0,875,2.726,0,5,1.252,False,-0.26160578946077395,1.0089596187039818
2.7517966718878597,17:41:24.593684,17:40:08.705728,0,,NaN,NaN,NaN,NaN,NaN,NaN,NaN,NaN,NaN,NaN,NaN,NaN,,NaN,NaN,NaN,NaN,NaN,NaN,NaN,NaN,NaN,NaN,NaN,NaN,,0.097971946,1.293791,0.42506945,0.98259556,0.007587496,-0.18560287,-0.10498859,-0.80158794,-0.5885866,-0.15324292,0.59782875,-0.78684014,,NaN,NaN,NaN,NaN,NaN,NaN,NaN,NaN,NaN,NaN,NaN,NaN,,NaN,NaN,NaN,NaN,NaN,NaN,NaN,NaN,NaN,NaN,NaN,NaN,,NaN,NaN,NaN,NaN,NaN,NaN,NaN,,NaN,NaN,NaN,NaN,NaN,NaN,NaN,,-0.11697196646865997,-0.12781700610823973,0.09957687064,-0.1167695939710949,,3.8184226e-05,-3.993511e-06,-3.2186508e-06,1.0,-1.5757978e-05,-1.1965632e-05,1.577288e-05,1.0,-3.0398369e-06,1.1965632e-05,3.0994415e-06,1.0,889,2.77,0,5,1.252,False,-0.2629164992682367,1.009394140510997
2.7746697179973125,17:41:24.634111,17:40:08.705728,0,,NaN,NaN,NaN,NaN,NaN,NaN,NaN,NaN,NaN,NaN,NaN,NaN,,NaN,NaN,NaN,NaN,NaN,NaN,NaN,NaN,NaN,NaN,NaN,NaN,,0.097971946,1.293791,0.42506945,0.98259556,0.007587496,-0.18560287,-0.10498859,-0.80158794,-0.5885866,-0.15324292,0.59782875,-0.78684014,,NaN,NaN,NaN,NaN,NaN,NaN,NaN,NaN,NaN,NaN,NaN,NaN,,NaN,NaN,NaN,NaN,NaN,NaN,NaN,NaN,NaN,NaN,NaN,NaN,,NaN,NaN,NaN,NaN,NaN,NaN,NaN,,NaN,NaN,NaN,NaN,NaN,NaN,NaN,,-0.11697196646865997,-0.12781700610823973,0.09957687064,-0.1167695939710949,,3.8184226e-05,-3.993511e-06,-3.2186508e-06,1.0,-1.5757978e-05,-1.1965632e-05,1.577288e-05,1.0,-3.0398369e-06,1.1965632e-05,3.0994415e-06,1.0,921,2.873,0,5,1.252,False,-0.26255903295711036,1.0095389811133355
2.8150708579923958,17:41:24.735280,17:40:08.959130,0,,NaN,NaN,NaN,NaN,NaN,NaN,NaN,NaN,NaN,NaN,NaN,NaN,,NaN,NaN,NaN,NaN,NaN,NaN,NaN,NaN,NaN,NaN,NaN,NaN,,0.097971946,1.293791,0.42506945,0.98259556,0.007587496,-0.18560287,-0.10498859,-0.80158794,-0.5885866,-0.15324292,0.59782875,-0.78684014,,NaN,NaN,NaN,NaN,NaN,NaN,NaN,NaN,NaN,NaN,NaN,NaN,,NaN,NaN,NaN,NaN,NaN,NaN,NaN,NaN,NaN,NaN,NaN,NaN,,NaN,NaN,NaN,NaN,NaN,NaN,NaN,,NaN,NaN,NaN,NaN,NaN,NaN,NaN,,-0.11697196646865997,-0.12781700610823973,0.09957687064,-0.1167695939710949,,3.8184226e-05,-3.993511e-06,-3.2186508e-06,1.0,-1.5757978e-05,-1.1965632e-05,1.577288e-05,1.0,-3.0398369e-06,1.1965632e-05,3.0994415e-06,1.0,944,2.947,0,5,1.252,False,-0.2626186106756321,1.0089113385032027
2.91626036609523,17:41:24.808875,17:40:08.959130,0,,NaN,NaN,NaN,NaN,NaN,NaN,NaN,NaN,NaN,NaN,NaN,NaN,,NaN,NaN,NaN,NaN,NaN,NaN,NaN,NaN,NaN,NaN,NaN,NaN,,0.097971946,1.293791,0.42506945,0.98259556,0.007587496,-0.18560287,-0.10498859,-0.80158794,-0.5885866,-0.15324292,0.59782875,-0.78684014,,NaN,NaN,NaN,NaN,NaN,NaN,NaN,NaN,NaN,NaN,NaN,NaN,,NaN,NaN,NaN,NaN,NaN,NaN,NaN,NaN,NaN,NaN,NaN,NaN,,NaN,NaN,NaN,NaN,NaN,NaN,NaN,,NaN,NaN,NaN,NaN,NaN,NaN,NaN,,-0.11697196646865997,-0.12781700610823973,0.09957687064,-0.1167695939710949,,3.8184226e-05,-3.993511e-06,-3.2186508e-06,1.0,-1.5757978e-05,-1.1965632e-05,1.577288e-05,1.0,-3.0398369e-06,1.1965632e-05,3.0994415e-06,1.0,967,3.021,0,5,1.252,False,-0.26202283349042155,1.0072215314759216
2.989858940942213,17:41:24.886902,17:40:09.091450,0,,NaN,NaN,NaN,NaN,NaN,NaN,NaN,NaN,NaN,NaN,NaN,NaN,,NaN,NaN,NaN,NaN,NaN,NaN,NaN,NaN,NaN,NaN,NaN,NaN,,0.097971946,1.293791,0.42506945,0.98259556,0.007587496,-0.18560287,-0.10498859,-0.80158794,-0.5885866,-0.15324292,0.59782875,-0.78684014,,NaN,NaN,NaN,NaN,NaN,NaN,NaN,NaN,NaN,NaN,NaN,NaN,,NaN,NaN,NaN,NaN,NaN,NaN,NaN,NaN,NaN,NaN,NaN,NaN,,NaN,NaN,NaN,NaN,NaN,NaN,NaN,,NaN,NaN,NaN,NaN,NaN,NaN,NaN,,-0.11697196646865997,-0.12781700610823973,0.09957687064,-0.1167695939710949,,3.8184226e-05,-3.993511e-06,-3.2186508e-06,1.0,-1.5757978e-05,-1.1965632e-05,1.577288e-05,1.0,-3.0398369e-06,1.1965632e-05,3.0994415e-06,1.0,976,3.049,0,5,1.252,False,-0.26285692154971585,1.0074146522790395
3.0678735410328954,17:41:24.909779,17:40:09.091450,0,,NaN,NaN,NaN,NaN,NaN,NaN,NaN,NaN,NaN,NaN,NaN,NaN,,NaN,NaN,NaN,NaN,NaN,NaN,NaN,NaN,NaN,NaN,NaN,NaN,,0.097971946,1.293791,0.42506945,0.98259556,0.007587496,-0.18560287,-0.10498859,-0.80158794,-0.5885866,-0.15324292,0.59782875,-0.78684014,,NaN,NaN,NaN,NaN,NaN,NaN,NaN,NaN,NaN,NaN,NaN,NaN,,NaN,NaN,NaN,NaN,NaN,NaN,NaN,NaN,NaN,NaN,NaN,NaN,,NaN,NaN,NaN,NaN,NaN,NaN,NaN,,NaN,NaN,NaN,NaN,NaN,NaN,NaN,,-0.11697196646865997,-0.12781700610823973,0.09957687064,-0.1167695939710949,,3.8184226e-05,-3.993511e-06,-3.2186508e-06,1.0,-1.5757978e-05,-1.1965632e-05,1.577288e-05,1.0,-3.0398369e-06,1.1965632e-05,3.0994415e-06,1.0,990,3.094,0,5,1.252,False,-0.2630356547052788,1.006642169066568
3.0907618629280478,17:41:24.959753,17:40:09.091450,0,,NaN,NaN,NaN,NaN,NaN,NaN,NaN,NaN,NaN,NaN,NaN,NaN,,NaN,NaN,NaN,NaN,NaN,NaN,NaN,NaN,NaN,NaN,NaN,NaN,,0.097971946,1.293791,0.42506945,0.98259556,0.007587496,-0.18560287,-0.10498859,-0.80158794,-0.5885866,-0.15324292,0.59782875,-0.78684014,,NaN,NaN,NaN,NaN,NaN,NaN,NaN,NaN,NaN,NaN,NaN,NaN,,NaN,NaN,NaN,NaN,NaN,NaN,NaN,NaN,NaN,NaN,NaN,NaN,,NaN,NaN,NaN,NaN,NaN,NaN,NaN,,NaN,NaN,NaN,NaN,NaN,NaN,NaN,,-0.11697196646865997,-0.12781700610823973,0.09957687064,-0.1167695939710949,,3.8184226e-05,-3.993511e-06,-3.2186508e-06,1.0,-1.5757978e-05,-1.1965632e-05,1.577288e-05,1.0,-3.0398369e-06,1.1965632e-05,3.0994415e-06,1.0,999,3.123,0,5,1.252,False,-0.2626186106756321,1.00736637207826
3.1407366320490837,17:41:24.989103,17:40:09.091450,0,,NaN,NaN,NaN,NaN,NaN,NaN,NaN,NaN,NaN,NaN,NaN,NaN,,NaN,NaN,NaN,NaN,NaN,NaN,NaN,NaN,NaN,NaN,NaN,NaN,,0.09794728,1.293789,0.42507592,0.982597,0.0075984113,-0.18559486,-0.10497521,-0.8015878,-0.58858913,-0.15324292,0.59782875,-0.78684014,,NaN,NaN,NaN,NaN,NaN,NaN,NaN,NaN,NaN,NaN,NaN,NaN,,NaN,NaN,NaN,NaN,NaN,NaN,NaN,NaN,NaN,NaN,NaN,NaN,,NaN,NaN,NaN,NaN,NaN,NaN,NaN,,NaN,NaN,NaN,NaN,NaN,NaN,NaN,,-0.11697196646865997,-0.12781700610823973,0.09957687064,-0.1167695939710949,,1.3157725e-05,1.3113022e-06,-2.503395e-06,1.0,-5.0365925e-06,-3.8444996e-06,5.0514936e-06,0.9999999,-9.834766e-07,3.8295984e-06,9.834766e-07,1.0,1037,3.245,0,5,1.252,False,-0.26243987752006825,1.007076690873583
3.1700543828774244,17:41:25.109142,17:40:09.377580,0,,NaN,NaN,NaN,NaN,NaN,NaN,NaN,NaN,NaN,NaN,NaN,NaN,,NaN,NaN,NaN,NaN,NaN,NaN,NaN,NaN,NaN,NaN,NaN,NaN,,0.09794728,1.293789,0.42507592,0.982597,0.0075984113,-0.18559486,-0.10497521,-0.8015878,-0.58858913,-0.15324292,0.59782875,-0.78684014,,NaN,NaN,NaN,NaN,NaN,NaN,NaN,NaN,NaN,NaN,NaN,NaN,,NaN,NaN,NaN,NaN,NaN,NaN,NaN,NaN,NaN,NaN,NaN,NaN,,NaN,NaN,NaN,NaN,NaN,NaN,NaN,,NaN,NaN,NaN,NaN,NaN,NaN,NaN,,-0.11697196646865997,-0.12781700610823973,0.09957687064,-0.1167695939710949,,1.3157725e-05,1.3113022e-06,-2.503395e-06,1.0,-5.0365925e-06,-3.8444996e-06,5.0514936e-06,0.9999999,-9.834766e-07,3.8295984e-06,9.834766e-07,1.0,1056,3.306,0,5,1.252,False,-0.2631548101423209,1.0076077730821573
3.2900403840467334,17:41:25.168262,17:40:09.377580,0,,NaN,NaN,NaN,NaN,NaN,NaN,NaN,NaN,NaN,NaN,NaN,NaN,,NaN,NaN,NaN,NaN,NaN,NaN,NaN,NaN,NaN,NaN,NaN,NaN,,0.09794728,1.293789,0.42507592,0.982597,0.0075984113,-0.18559486,-0.10497521,-0.8015878,-0.58858913,-0.15324292,0.59782875,-0.78684014,,NaN,NaN,NaN,NaN,NaN,NaN,NaN,NaN,NaN,NaN,NaN,NaN,,NaN,NaN,NaN,NaN,NaN,NaN,NaN,NaN,NaN,NaN,NaN,NaN,,NaN,NaN,NaN,NaN,NaN,NaN,NaN,,NaN,NaN,NaN,NaN,NaN,NaN,NaN,,-0.11697196646865997,-0.12781700610823973,0.09957687064,-0.1167695939710949,,1.3157725e-05,1.3113022e-06,-2.503395e-06,1.0,-5.0365925e-06,-3.8444996e-06,5.0514936e-06,0.9999999,-9.834766e-07,3.8295984e-06,9.834766e-07,1.0,1089,3.413,0,5,1.252,False,-0.2630356547052788,1.0082354156922901
3.349244144046679,17:41:25.276627,17:40:09.521150,0,,NaN,NaN,NaN,NaN,NaN,NaN,NaN,NaN,NaN,NaN,NaN,NaN,,NaN,NaN,NaN,NaN,NaN,NaN,NaN,NaN,NaN,NaN,NaN,NaN,,0.09794728,1.293789,0.42507592,0.982597,0.0075984113,-0.18559486,-0.10497521,-0.8015878,-0.58858913,-0.15324292,0.59782875,-0.78684014,,NaN,NaN,NaN,NaN,NaN,NaN,NaN,NaN,NaN,NaN,NaN,NaN,,NaN,NaN,NaN,NaN,NaN,NaN,NaN,NaN,NaN,NaN,NaN,NaN,,NaN,NaN,NaN,NaN,NaN,NaN,NaN,,NaN,NaN,NaN,NaN,NaN,NaN,NaN,,-0.11697196646865997,-0.12781700610823973,0.09957687064,-0.1167695939710949,,1.3157725e-05,1.3113022e-06,-2.503395e-06,1.0,-5.0365925e-06,-3.8444996e-06,5.0514936e-06,0.9999999,-9.834766e-07,3.8295984e-06,9.834766e-07,1.0,1108,3.474,0,5,1.252,False,-0.26196325577190027,1.0077526136844954
3.457611918915063,17:41:25.337705,17:40:09.521150,0,,NaN,NaN,NaN,NaN,NaN,NaN,NaN,NaN,NaN,NaN,NaN,NaN,,NaN,NaN,NaN,NaN,NaN,NaN,NaN,NaN,NaN,NaN,NaN,NaN,,0.09794728,1.293789,0.42507592,0.982597,0.0075984113,-0.18559486,-0.10497521,-0.8015878,-0.58858913,-0.15324292,0.59782875,-0.78684014,,NaN,NaN,NaN,NaN,NaN,NaN,NaN,NaN,NaN,NaN,NaN,NaN,,NaN,NaN,NaN,NaN,NaN,NaN,NaN,NaN,NaN,NaN,NaN,NaN,,NaN,NaN,NaN,NaN,NaN,NaN,NaN,,NaN,NaN,NaN,NaN,NaN,NaN,NaN,,-0.11697196646865997,-0.12781700610823973,0.09957687064,-0.1167695939710949,,1.3157725e-05,1.3113022e-06,-2.503395e-06,1.0,-5.0365925e-06,-3.8444996e-06,5.0514936e-06,0.9999999,-9.834766e-07,3.8295984e-06,9.834766e-07,1.0,1127,3.536,0,5,1.252,False,-0.26297607698675796,1.0071249710743626
3.5186856230720878,17:41:25.408792,17:40:09.647801,0,,NaN,NaN,NaN,NaN,NaN,NaN,NaN,NaN,NaN,NaN,NaN,NaN,,NaN,NaN,NaN,NaN,NaN,NaN,NaN,NaN,NaN,NaN,NaN,NaN,,0.09794728,1.293789,0.42507592,0.982597,0.0075984113,-0.18559486,-0.10497521,-0.8015878,-0.58858913,-0.15324292,0.59782875,-0.78684014,,NaN,NaN,NaN,NaN,NaN,NaN,NaN,NaN,NaN,NaN,NaN,NaN,,NaN,NaN,NaN,NaN,NaN,NaN,NaN,NaN,NaN,NaN,NaN,NaN,,NaN,NaN,NaN,NaN,NaN,NaN,NaN,,NaN,NaN,NaN,NaN,NaN,NaN,NaN,,-0.11697196646865997,-0.12781700610823973,0.09957687064,-0.1167695939710949,,1.3157725e-05,1.3113022e-06,-2.503395e-06,1.0,-5.0365925e-06,-3.8444996e-06,5.0514936e-06,0.9999999,-9.834766e-07,3.8295984e-06,9.834766e-07,1.0,1160,3.642,0,5,1.252,False,-0.26243987752006825,1.0079940146883928
3.5897734090685844,17:41:25.506875,17:40:09.647801,0,,NaN,NaN,NaN,NaN,NaN,NaN,NaN,NaN,NaN,NaN,NaN,NaN,,NaN,NaN,NaN,NaN,NaN,NaN,NaN,NaN,NaN,NaN,NaN,NaN,,0.09794728,1.293789,0.42507592,0.982597,0.0075984113,-0.18559486,-0.10497521,-0.8015878,-0.58858913,-0.15324292,0.59782875,-0.78684014,,NaN,NaN,NaN,NaN,NaN,NaN,NaN,NaN,NaN,NaN,NaN,NaN,,NaN,NaN,NaN,NaN,NaN,NaN,NaN,NaN,NaN,NaN,NaN,NaN,,NaN,NaN,NaN,NaN,NaN,NaN,NaN,,NaN,NaN,NaN,NaN,NaN,NaN,NaN,,-0.11697196646865997,-0.12781700610823973,0.09957687064,-0.1167695939710949,,1.3157725e-05,1.3113022e-06,-2.503395e-06,1.0,-5.0365925e-06,-3.8444996e-06,5.0514936e-06,0.9999999,-9.834766e-07,3.8295984e-06,9.834766e-07,1.0,1179,3.704,0,5,1.252,False,-0.26196325577190027,1.007511212680598
3.6878597480244935,17:41:25.567322,17:40:09.790679,0,,NaN,NaN,NaN,NaN,NaN,NaN,NaN,NaN,NaN,NaN,NaN,NaN,,NaN,NaN,NaN,NaN,NaN,NaN,NaN,NaN,NaN,NaN,NaN,NaN,,0.09794728,1.293789,0.42507592,0.982597,0.0075984113,-0.18559486,-0.10497521,-0.8015878,-0.58858913,-0.15324292,0.59782875,-0.78684014,,NaN,NaN,NaN,NaN,NaN,NaN,NaN,NaN,NaN,NaN,NaN,NaN,,NaN,NaN,NaN,NaN,NaN,NaN,NaN,NaN,NaN,NaN,NaN,NaN,,NaN,NaN,NaN,NaN,NaN,NaN,NaN,,NaN,NaN,NaN,NaN,NaN,NaN,NaN,,-0.11697196646865997,-0.12781700610823973,0.09957687064,-0.1167695939710949,,1.3157725e-05,1.3113022e-06,-2.503395e-06,1.0,-5.0365925e-06,-3.8444996e-06,5.0514936e-06,0.9999999,-9.834766e-07,3.8295984e-06,9.834766e-07,1.0,1212,3.81,0,5,1.252,False,-0.26243987752006825,1.007704333483716
3.748294254997745,17:41:25.675306,17:40:09.933238,0,,NaN,NaN,NaN,NaN,NaN,NaN,NaN,NaN,NaN,NaN,NaN,NaN,,NaN,NaN,NaN,NaN,NaN,NaN,NaN,NaN,NaN,NaN,NaN,NaN,,0.09794728,1.293789,0.42507592,0.982597,0.0075984113,-0.18559486,-0.10497521,-0.8015878,-0.58858913,-0.15324292,0.59782875,-0.78684014,,NaN,NaN,NaN,NaN,NaN,NaN,NaN,NaN,NaN,NaN,NaN,NaN,,NaN,NaN,NaN,NaN,NaN,NaN,NaN,NaN,NaN,NaN,NaN,NaN,,NaN,NaN,NaN,NaN,NaN,NaN,NaN,,NaN,NaN,NaN,NaN,NaN,NaN,NaN,,-0.11697196646865997,-0.12781700610823973,0.09957687064,-0.1167695939710949,,1.3157725e-05,1.3113022e-06,-2.503395e-06,1.0,-5.0365925e-06,-3.8444996e-06,5.0514936e-06,0.9999999,-9.834766e-07,3.8295984e-06,9.834766e-07,1.0,1231,3.872,0,5,1.252,False,-0.2629164992682367,1.007704333483716
3.8562916161026806,17:41:25.738446,17:40:09.933238,0,,NaN,NaN,NaN,NaN,NaN,NaN,NaN,NaN,NaN,NaN,NaN,NaN,,NaN,NaN,NaN,NaN,NaN,NaN,NaN,NaN,NaN,NaN,NaN,NaN,,0.09794728,1.293789,0.42507592,0.982597,0.0075984113,-0.18559486,-0.10497521,-0.8015878,-0.58858913,-0.15324292,0.59782875,-0.78684014,,NaN,NaN,NaN,NaN,NaN,NaN,NaN,NaN,NaN,NaN,NaN,NaN,,NaN,NaN,NaN,NaN,NaN,NaN,NaN,NaN,NaN,NaN,NaN,NaN,,NaN,NaN,NaN,NaN,NaN,NaN,NaN,,NaN,NaN,NaN,NaN,NaN,NaN,NaN,,-0.11697196646865997,-0.12781700610823973,0.09957687064,-0.1167695939710949,,1.3157725e-05,1.3113022e-06,-2.503395e-06,1.0,-5.0365925e-06,-3.8444996e-06,5.0514936e-06,0.9999999,-9.834766e-07,3.8295984e-06,9.834766e-07,1.0,1250,3.933,0,5,1.252,False,-0.2618441003348577,1.0081871354915106
3.9193789078854024,17:41:25.801305,17:40:10.063802,0,,NaN,NaN,NaN,NaN,NaN,NaN,NaN,NaN,NaN,NaN,NaN,NaN,,NaN,NaN,NaN,NaN,NaN,NaN,NaN,NaN,NaN,NaN,NaN,NaN,,0.09794728,1.293789,0.42507592,0.982597,0.0075984113,-0.18559486,-0.10497521,-0.8015878,-0.58858913,-0.15324292,0.59782875,-0.78684014,,NaN,NaN,NaN,NaN,NaN,NaN,NaN,NaN,NaN,NaN,NaN,NaN,,NaN,NaN,NaN,NaN,NaN,NaN,NaN,NaN,NaN,NaN,NaN,NaN,,NaN,NaN,NaN,NaN,NaN,NaN,NaN,,NaN,NaN,NaN,NaN,NaN,NaN,NaN,,-0.11697196646865997,-0.12781700610823973,0.09957687064,-0.1167695939710949,,1.3157725e-05,1.3113022e-06,-2.503395e-06,1.0,-5.0365925e-06,-3.8444996e-06,5.0514936e-06,0.9999999,-9.834766e-07,3.8295984e-06,9.834766e-07,1.0,1283,4.039,0,5,1.252,False,-0.26243987752006825,1.0076560532829368
3.9822904700413346,17:41:25.904883,17:40:10.063802,0,,NaN,NaN,NaN,NaN,NaN,NaN,NaN,NaN,NaN,NaN,NaN,NaN,,NaN,NaN,NaN,NaN,NaN,NaN,NaN,NaN,NaN,NaN,NaN,NaN,,0.09794728,1.293789,0.42507592,0.982597,0.0075984113,-0.18559486,-0.10497521,-0.8015878,-0.58858913,-0.15324292,0.59782875,-0.78684014,,NaN,NaN,NaN,NaN,NaN,NaN,NaN,NaN,NaN,NaN,NaN,NaN,,NaN,NaN,NaN,NaN,NaN,NaN,NaN,NaN,NaN,NaN,NaN,NaN,,NaN,NaN,NaN,NaN,NaN,NaN,NaN,,NaN,NaN,NaN,NaN,NaN,NaN,NaN,,-0.11697196646865997,-0.12781700610823973,0.09957687064,-0.1167695939710949,,1.3157725e-05,1.3113022e-06,-2.503395e-06,1.0,-5.0365925e-06,-3.8444996e-06,5.0514936e-06,0.9999999,-9.834766e-07,3.8295984e-06,9.834766e-07,1.0,1302,4.101,0,5,1.252,False,-0.2631548101423209,1.0068352898696857
4.085867343004793,17:41:25.963042,17:40:10.063802,0,,NaN,NaN,NaN,NaN,NaN,NaN,NaN,NaN,NaN,NaN,NaN,NaN,,NaN,NaN,NaN,NaN,NaN,NaN,NaN,NaN,NaN,NaN,NaN,NaN,,0.09794728,1.293789,0.42507592,0.982597,0.0075984113,-0.18559486,-0.10497521,-0.8015878,-0.58858913,-0.15324292,0.59782875,-0.78684014,,NaN,NaN,NaN,NaN,NaN,NaN,NaN,NaN,NaN,NaN,NaN,NaN,,NaN,NaN,NaN,NaN,NaN,NaN,NaN,NaN,NaN,NaN,NaN,NaN,,NaN,NaN,NaN,NaN,NaN,NaN,NaN,,NaN,NaN,NaN,NaN,NaN,NaN,NaN,,-0.11697196646865997,-0.12781700610823973,0.09957687064,-0.1167695939710949,,1.3157725e-05,1.3113022e-06,-2.503395e-06,1.0,-5.0365925e-06,-3.8444996e-06,5.0514936e-06,0.9999999,-9.834766e-07,3.8295984e-06,9.834766e-07,1.0,1335,4.207,0,5,1.252,False,-0.2632143878608417,1.006642169066568
4.143990288022906,17:41:26.072176,17:40:10.251818,0,,NaN,NaN,NaN,NaN,NaN,NaN,NaN,NaN,NaN,NaN,NaN,NaN,,NaN,NaN,NaN,NaN,NaN,NaN,NaN,NaN,NaN,NaN,NaN,NaN,,0.09794728,1.293789,0.42507592,0.982597,0.0075984113,-0.18559486,-0.10497521,-0.8015878,-0.58858913,-0.15324292,0.59782875,-0.78684014,,NaN,NaN,NaN,NaN,NaN,NaN,NaN,NaN,NaN,NaN,NaN,NaN,,NaN,NaN,NaN,NaN,NaN,NaN,NaN,NaN,NaN,NaN,NaN,NaN,,NaN,NaN,NaN,NaN,NaN,NaN,NaN,,NaN,NaN,NaN,NaN,NaN,NaN,NaN,,-0.11697196646865997,-0.12781700610823973,0.09957687064,-0.1167695939710949,,1.3157725e-05,1.3113022e-06,-2.503395e-06,1.0,-5.0365925e-06,-3.8444996e-06,5.0514936e-06,0.9999999,-9.834766e-07,3.8295984e-06,9.834766e-07,1.0,1354,4.269,0,5,1.252,False,-0.2616653671792948,1.0058214056533172
4.253156705992296,17:41:26.133283,17:40:10.251818,0,,NaN,NaN,NaN,NaN,NaN,NaN,NaN,NaN,NaN,NaN,NaN,NaN,,NaN,NaN,NaN,NaN,NaN,NaN,NaN,NaN,NaN,NaN,NaN,NaN,,0.09788189,1.2937889,0.42507157,0.98260367,0.0076496536,-0.18555723,-0.10491239,-0.80158734,-0.588601,-0.15324292,0.59782875,-0.78684014,,NaN,NaN,NaN,NaN,NaN,NaN,NaN,NaN,NaN,NaN,NaN,NaN,,NaN,NaN,NaN,NaN,NaN,NaN,NaN,NaN,NaN,NaN,NaN,NaN,,NaN,NaN,NaN,NaN,NaN,NaN,NaN,,NaN,NaN,NaN,NaN,NaN,NaN,NaN,,-0.11697196646865997,-0.12781700610823973,0.09957687064,-0.1167695939710949,,-5.0403178e-05,-1.7881393e-06,1.3113022e-05,1.0,4.5262277e-05,3.437698e-05,-4.5247376e-05,1.0,8.791685e-06,-3.438443e-05,-8.791685e-06,1.0,1373,4.33,0,5,1.252,False,-0.2630356547052788,1.0053386036455227
4.314261311898008,17:41:26.202307,17:40:10.404439,0,,NaN,NaN,NaN,NaN,NaN,NaN,NaN,NaN,NaN,NaN,NaN,NaN,,NaN,NaN,NaN,NaN,NaN,NaN,NaN,NaN,NaN,NaN,NaN,NaN,,0.09788189,1.2937889,0.42507157,0.98260367,0.0076496536,-0.18555723,-0.10491239,-0.80158734,-0.588601,-0.15324292,0.59782875,-0.78684014,,NaN,NaN,NaN,NaN,NaN,NaN,NaN,NaN,NaN,NaN,NaN,NaN,,NaN,NaN,NaN,NaN,NaN,NaN,NaN,NaN,NaN,NaN,NaN,NaN,,NaN,NaN,NaN,NaN,NaN,NaN,NaN,,NaN,NaN,NaN,NaN,NaN,NaN,NaN,,-0.11697196646865997,-0.12781700610823973,0.09957687064,-0.1167695939710949,,-5.0403178e-05,-1.7881393e-06,1.3113022e-05,1.0,4.5262277e-05,3.437698e-05,-4.5247376e-05,1.0,8.791685e-06,-3.438443e-05,-8.791685e-06,1.0,1387,4.375,0,5,1.252,False,-0.26285692154971585,1.0053386036455227
4.383289932040498,17:41:26.239229,17:40:10.404439,0,,NaN,NaN,NaN,NaN,NaN,NaN,NaN,NaN,NaN,NaN,NaN,NaN,,NaN,NaN,NaN,NaN,NaN,NaN,NaN,NaN,NaN,NaN,NaN,NaN,,0.09788189,1.2937889,0.42507157,0.98260367,0.0076496536,-0.18555723,-0.10491239,-0.80158734,-0.588601,-0.15324292,0.59782875,-0.78684014,,NaN,NaN,NaN,NaN,NaN,NaN,NaN,NaN,NaN,NaN,NaN,NaN,,NaN,NaN,NaN,NaN,NaN,NaN,NaN,NaN,NaN,NaN,NaN,NaN,,NaN,NaN,NaN,NaN,NaN,NaN,NaN,,NaN,NaN,NaN,NaN,NaN,NaN,NaN,,-0.11697196646865997,-0.12781700610823973,0.09957687064,-0.1167695939710949,,-5.0403178e-05,-1.7881393e-06,1.3113022e-05,1.0,4.5262277e-05,3.437698e-05,-4.5247376e-05,1.0,8.791685e-06,-3.438443e-05,-8.791685e-06,1.0,1406,4.437,0,5,1.252,False,-0.26339312101640555,1.0049040818385075
4.420186581090093,17:41:26.303595,17:40:10.528158,0,,NaN,NaN,NaN,NaN,NaN,NaN,NaN,NaN,NaN,NaN,NaN,NaN,,NaN,NaN,NaN,NaN,NaN,NaN,NaN,NaN,NaN,NaN,NaN,NaN,,0.09788189,1.2937889,0.42507157,0.98260367,0.0076496536,-0.18555723,-0.10491239,-0.80158734,-0.588601,-0.15324292,0.59782875,-0.78684014,,NaN,NaN,NaN,NaN,NaN,NaN,NaN,NaN,NaN,NaN,NaN,NaN,,NaN,NaN,NaN,NaN,NaN,NaN,NaN,NaN,NaN,NaN,NaN,NaN,,NaN,NaN,NaN,NaN,NaN,NaN,NaN,,NaN,NaN,NaN,NaN,NaN,NaN,NaN,,-0.11697196646865997,-0.12781700610823973,0.09957687064,-0.1167695939710949,,-5.0403178e-05,-1.7881393e-06,1.3113022e-05,1.0,4.5262277e-05,3.437698e-05,-4.5247376e-05,1.0,8.791685e-06,-3.438443e-05,-8.791685e-06,1.0,1425,4.498,0,5,1.252,False,-0.2631548101423209,1.0050006422400664
4.484576950082555,17:41:26.362031,17:40:10.528158,0,,NaN,NaN,NaN,NaN,NaN,NaN,NaN,NaN,NaN,NaN,NaN,NaN,,NaN,NaN,NaN,NaN,NaN,NaN,NaN,NaN,NaN,NaN,NaN,NaN,,0.09788189,1.2937889,0.42507157,0.98260367,0.0076496536,-0.18555723,-0.10491239,-0.80158734,-0.588601,-0.15324292,0.59782875,-0.78684014,,NaN,NaN,NaN,NaN,NaN,NaN,NaN,NaN,NaN,NaN,NaN,NaN,,NaN,NaN,NaN,NaN,NaN,NaN,NaN,NaN,NaN,NaN,NaN,NaN,,NaN,NaN,NaN,NaN,NaN,NaN,NaN,,NaN,NaN,NaN,NaN,NaN,NaN,NaN,,-0.11697196646865997,-0.12781700610823973,0.09957687064,-0.1167695939710949,,-5.0403178e-05,-1.7881393e-06,1.3113022e-05,1.0,4.5262277e-05,3.437698e-05,-4.5247376e-05,1.0,8.791685e-06,-3.438443e-05,-8.791685e-06,1.0,1458,4.605,0,5,1.252,False,-0.2626186106756321,1.004759241236169
4.543015734991059,17:41:26.462757,17:40:10.645041,0,,NaN,NaN,NaN,NaN,NaN,NaN,NaN,NaN,NaN,NaN,NaN,NaN,,NaN,NaN,NaN,NaN,NaN,NaN,NaN,NaN,NaN,NaN,NaN,NaN,,0.09788189,1.2937889,0.42507157,0.98260367,0.0076496536,-0.18555723,-0.10491239,-0.80158734,-0.588601,-0.15324292,0.59782875,-0.78684014,,NaN,NaN,NaN,NaN,NaN,NaN,NaN,NaN,NaN,NaN,NaN,NaN,,NaN,NaN,NaN,NaN,NaN,NaN,NaN,NaN,NaN,NaN,NaN,NaN,,NaN,NaN,NaN,NaN,NaN,NaN,NaN,,NaN,NaN,NaN,NaN,NaN,NaN,NaN,,-0.11697196646865997,-0.12781700610823973,0.09957687064,-0.1167695939710949,,-5.0403178e-05,-1.7881393e-06,1.3113022e-05,1.0,4.5262277e-05,3.437698e-05,-4.5247376e-05,1.0,8.791685e-06,-3.438443e-05,-8.791685e-06,1.0,1477,4.666,0,5,1.252,False,-0.26285692154971585,1.0046144006338307
4.643737790873274,17:41:26.531168,17:40:10.645041,0,,NaN,NaN,NaN,NaN,NaN,NaN,NaN,NaN,NaN,NaN,NaN,NaN,,NaN,NaN,NaN,NaN,NaN,NaN,NaN,NaN,NaN,NaN,NaN,NaN,,0.09788189,1.2937889,0.42507157,0.98260367,0.0076496536,-0.18555723,-0.10491239,-0.80158734,-0.588601,-0.15324292,0.59782875,-0.78684014,,NaN,NaN,NaN,NaN,NaN,NaN,NaN,NaN,NaN,NaN,NaN,NaN,,NaN,NaN,NaN,NaN,NaN,NaN,NaN,NaN,NaN,NaN,NaN,NaN,,NaN,NaN,NaN,NaN,NaN,NaN,NaN,,NaN,NaN,NaN,NaN,NaN,NaN,NaN,,-0.11697196646865997,-0.12781700610823973,0.09957687064,-0.1167695939710949,,-5.0403178e-05,-1.7881393e-06,1.3113022e-05,1.0,4.5262277e-05,3.437698e-05,-4.5247376e-05,1.0,8.791685e-06,-3.438443e-05,-8.791685e-06,1.0,1510,4.773,0,5,1.252,False,-0.2629164992682367,1.0047109610353895
4.712105391081423,17:41:26.636577,17:40:10.801999,0,,NaN,NaN,NaN,NaN,NaN,NaN,NaN,NaN,NaN,NaN,NaN,NaN,,NaN,NaN,NaN,NaN,NaN,NaN,NaN,NaN,NaN,NaN,NaN,NaN,,0.09788189,1.2937889,0.42507157,0.98260367,0.0076496536,-0.18555723,-0.10491239,-0.80158734,-0.588601,-0.15324292,0.59782875,-0.78684014,,NaN,NaN,NaN,NaN,NaN,NaN,NaN,NaN,NaN,NaN,NaN,NaN,,NaN,NaN,NaN,NaN,NaN,NaN,NaN,NaN,NaN,NaN,NaN,NaN,,NaN,NaN,NaN,NaN,NaN,NaN,NaN,,NaN,NaN,NaN,NaN,NaN,NaN,NaN,,-0.11697196646865997,-0.12781700610823973,0.09957687064,-0.1167695939710949,,-5.0403178e-05,-1.7881393e-06,1.3113022e-05,1.0,4.5262277e-05,3.437698e-05,-4.5247376e-05,1.0,8.791685e-06,-3.438443e-05,-8.791685e-06,1.0,1529,4.834,0,5,1.252,False,-0.2629164992682367,1.0045661204330512
4.817544688936323,17:41:26.697471,17:40:10.922559,0,,NaN,NaN,NaN,NaN,NaN,NaN,NaN,NaN,NaN,NaN,NaN,NaN,,NaN,NaN,NaN,NaN,NaN,NaN,NaN,NaN,NaN,NaN,NaN,NaN,,0.09788189,1.2937889,0.42507157,0.98260367,0.0076496536,-0.18555723,-0.10491239,-0.80158734,-0.588601,-0.15324292,0.59782875,-0.78684014,,NaN,NaN,NaN,NaN,NaN,NaN,NaN,NaN,NaN,NaN,NaN,NaN,,NaN,NaN,NaN,NaN,NaN,NaN,NaN,NaN,NaN,NaN,NaN,NaN,,NaN,NaN,NaN,NaN,NaN,NaN,NaN,,NaN,NaN,NaN,NaN,NaN,NaN,NaN,,-0.11697196646865997,-0.12781700610823973,0.09957687064,-0.1167695939710949,,-5.0403178e-05,-1.7881393e-06,1.3113022e-05,1.0,4.5262277e-05,3.437698e-05,-4.5247376e-05,1.0,8.791685e-06,-3.438443e-05,-8.791685e-06,1.0,1548,4.896,0,5,1.252,False,-0.26196325577190027,1.0044695600314926
4.878429373027757,17:41:26.761464,17:40:10.922559,0,,NaN,NaN,NaN,NaN,NaN,NaN,NaN,NaN,NaN,NaN,NaN,NaN,,NaN,NaN,NaN,NaN,NaN,NaN,NaN,NaN,NaN,NaN,NaN,NaN,,0.09788189,1.2937889,0.42507157,0.98260367,0.0076496536,-0.18555723,-0.10491239,-0.80158734,-0.588601,-0.15324292,0.59782875,-0.78684014,,NaN,NaN,NaN,NaN,NaN,NaN,NaN,NaN,NaN,NaN,NaN,NaN,,NaN,NaN,NaN,NaN,NaN,NaN,NaN,NaN,NaN,NaN,NaN,NaN,,NaN,NaN,NaN,NaN,NaN,NaN,NaN,,NaN,NaN,NaN,NaN,NaN,NaN,NaN,,-0.11697196646865997,-0.12781700610823973,0.09957687064,-0.1167695939710949,,-5.0403178e-05,-1.7881393e-06,1.3113022e-05,1.0,4.5262277e-05,3.437698e-05,-4.5247376e-05,1.0,8.791685e-06,-3.438443e-05,-8.791685e-06,1.0,1581,5.002,0,5,1.252,False,-0.2630356547052788,1.0046144006338307
4.942449603928253,17:41:26.861755,17:40:11.049022,0,,NaN,NaN,NaN,NaN,NaN,NaN,NaN,NaN,NaN,NaN,NaN,NaN,,NaN,NaN,NaN,NaN,NaN,NaN,NaN,NaN,NaN,NaN,NaN,NaN,,0.09788189,1.2937889,0.42507157,0.98260367,0.0076496536,-0.18555723,-0.10491239,-0.80158734,-0.588601,-0.15324292,0.59782875,-0.78684014,,NaN,NaN,NaN,NaN,NaN,NaN,NaN,NaN,NaN,NaN,NaN,NaN,,NaN,NaN,NaN,NaN,NaN,NaN,NaN,NaN,NaN,NaN,NaN,NaN,,NaN,NaN,NaN,NaN,NaN,NaN,NaN,,NaN,NaN,NaN,NaN,NaN,NaN,NaN,,-0.11697196646865997,-0.12781700610823973,0.09957687064,-0.1167695939710949,,-5.0403178e-05,-1.7881393e-06,1.3113022e-05,1.0,4.5262277e-05,3.437698e-05,-4.5247376e-05,1.0,8.791685e-06,-3.438443e-05,-8.791685e-06,1.0,1600,5.063,0,5,1.252,False,-0.26202283349042155,1.0031177144096675
5.042740955017507,17:41:26.927742,17:40:11.049022,0,,NaN,NaN,NaN,NaN,NaN,NaN,NaN,NaN,NaN,NaN,NaN,NaN,,NaN,NaN,NaN,NaN,NaN,NaN,NaN,NaN,NaN,NaN,NaN,NaN,,0.09788189,1.2937889,0.42507157,0.98260367,0.0076496536,-0.18555723,-0.10491239,-0.80158734,-0.588601,-0.15324292,0.59782875,-0.78684014,,NaN,NaN,NaN,NaN,NaN,NaN,NaN,NaN,NaN,NaN,NaN,NaN,,NaN,NaN,NaN,NaN,NaN,NaN,NaN,NaN,NaN,NaN,NaN,NaN,,NaN,NaN,NaN,NaN,NaN,NaN,NaN,,NaN,NaN,NaN,NaN,NaN,NaN,NaN,,-0.11697196646865997,-0.12781700610823973,0.09957687064,-0.1167695939710949,,-5.0403178e-05,-1.7881393e-06,1.3113022e-05,1.0,4.5262277e-05,3.437698e-05,-4.5247376e-05,1.0,8.791685e-06,-3.438443e-05,-8.791685e-06,1.0,1633,5.17,0,5,1.252,False,-0.2630356547052788,1.0016693083862838
5.108721779892221,17:41:27.028919,17:40:11.049022,0,,NaN,NaN,NaN,NaN,NaN,NaN,NaN,NaN,NaN,NaN,NaN,NaN,,NaN,NaN,NaN,NaN,NaN,NaN,NaN,NaN,NaN,NaN,NaN,NaN,,0.09788189,1.2937889,0.42507157,0.98260367,0.0076496536,-0.18555723,-0.10491239,-0.80158734,-0.588601,-0.15324292,0.59782875,-0.78684014,,NaN,NaN,NaN,NaN,NaN,NaN,NaN,NaN,NaN,NaN,NaN,NaN,,NaN,NaN,NaN,NaN,NaN,NaN,NaN,NaN,NaN,NaN,NaN,NaN,,NaN,NaN,NaN,NaN,NaN,NaN,NaN,,NaN,NaN,NaN,NaN,NaN,NaN,NaN,,-0.11697196646865997,-0.12781700610823973,0.09957687064,-0.1167695939710949,,-5.0403178e-05,-1.7881393e-06,1.3113022e-05,1.0,4.5262277e-05,3.437698e-05,-4.5247376e-05,1.0,8.791685e-06,-3.438443e-05,-8.791685e-06,1.0,1652,5.231,0,5,1.252,False,-0.2620824112089424,1.000848544973033
5.209903154987842,17:41:27.095254,17:40:11.328651,0,,NaN,NaN,NaN,NaN,NaN,NaN,NaN,NaN,NaN,NaN,NaN,NaN,,NaN,NaN,NaN,NaN,NaN,NaN,NaN,NaN,NaN,NaN,NaN,NaN,,0.09788189,1.2937889,0.42507157,0.98260367,0.0076496536,-0.18555723,-0.10491239,-0.80158734,-0.588601,-0.15324292,0.59782875,-0.78684014,,NaN,NaN,NaN,NaN,NaN,NaN,NaN,NaN,NaN,NaN,NaN,NaN,,NaN,NaN,NaN,NaN,NaN,NaN,NaN,NaN,NaN,NaN,NaN,NaN,,NaN,NaN,NaN,NaN,NaN,NaN,NaN,,NaN,NaN,NaN,NaN,NaN,NaN,NaN,,-0.11697196646865997,-0.12781700610823973,0.09957687064,-0.1167695939710949,,-5.0403178e-05,-1.7881393e-06,1.3113022e-05,1.0,4.5262277e-05,3.437698e-05,-4.5247376e-05,1.0,8.791685e-06,-3.438443e-05,-8.791685e-06,1.0,1671,5.293,0,5,1.252,False,-0.262797343831195,1.0015727479847247
5.2762384719680995,17:41:27.159615,17:40:11.328651,0,,NaN,NaN,NaN,NaN,NaN,NaN,NaN,NaN,NaN,NaN,NaN,NaN,,NaN,NaN,NaN,NaN,NaN,NaN,NaN,NaN,NaN,NaN,NaN,NaN,,0.09788189,1.2937889,0.42507157,0.98260367,0.0076496536,-0.18555723,-0.10491239,-0.80158734,-0.588601,-0.15324292,0.59782875,-0.78684014,,NaN,NaN,NaN,NaN,NaN,NaN,NaN,NaN,NaN,NaN,NaN,NaN,,NaN,NaN,NaN,NaN,NaN,NaN,NaN,NaN,NaN,NaN,NaN,NaN,,NaN,NaN,NaN,NaN,NaN,NaN,NaN,,NaN,NaN,NaN,NaN,NaN,NaN,NaN,,-0.11697196646865997,-0.12781700610823973,0.09957687064,-0.1167695939710949,,-5.0403178e-05,-1.7881393e-06,1.3113022e-05,1.0,4.5262277e-05,3.437698e-05,-4.5247376e-05,1.0,8.791685e-06,-3.438443e-05,-8.791685e-06,1.0,1704,5.399,0,5,1.252,False,-0.2607717014014801,1.0022003905948578
5.340600224910304,17:41:27.262522,17:40:11.465428,0,,NaN,NaN,NaN,NaN,NaN,NaN,NaN,NaN,NaN,NaN,NaN,NaN,,NaN,NaN,NaN,NaN,NaN,NaN,NaN,NaN,NaN,NaN,NaN,NaN,,0.097931944,1.2937909,0.42507234,0.9825984,0.0076094987,-0.18558672,-0.10496162,-0.8015877,-0.5885917,-0.15324292,0.59782875,-0.78684014,,NaN,NaN,NaN,NaN,NaN,NaN,NaN,NaN,NaN,NaN,NaN,NaN,,NaN,NaN,NaN,NaN,NaN,NaN,NaN,NaN,NaN,NaN,NaN,NaN,,NaN,NaN,NaN,NaN,NaN,NaN,NaN,,NaN,NaN,NaN,NaN,NaN,NaN,NaN,,-0.11697196646865997,-0.12781700610823973,0.09957687064,-0.1167695939710949,,-1.5497208e-06,-2.503395e-06,2.026558e-06,1.0,5.841255e-06,4.425645e-06,-5.826354e-06,1.0,1.1324883e-06,-4.440546e-06,-1.1324883e-06,1.0,1723,5.461,0,5,1.252,False,-0.2629164992682367,0.9997381003551054
5.4434847929514945,17:41:27.325596,17:40:11.582015,0,,NaN,NaN,NaN,NaN,NaN,NaN,NaN,NaN,NaN,NaN,NaN,NaN,,NaN,NaN,NaN,NaN,NaN,NaN,NaN,NaN,NaN,NaN,NaN,NaN,,0.097931944,1.2937909,0.42507234,0.9825984,0.0076094987,-0.18558672,-0.10496162,-0.8015877,-0.5885917,-0.15324292,0.59782875,-0.78684014,,NaN,NaN,NaN,NaN,NaN,NaN,NaN,NaN,NaN,NaN,NaN,NaN,,NaN,NaN,NaN,NaN,NaN,NaN,NaN,NaN,NaN,NaN,NaN,NaN,,NaN,NaN,NaN,NaN,NaN,NaN,NaN,,NaN,NaN,NaN,NaN,NaN,NaN,NaN,,-0.11697196646865997,-0.12781700610823973,0.09957687064,-0.1167695939710949,,-1.5497208e-06,-2.503395e-06,2.026558e-06,1.0,5.841255e-06,4.425645e-06,-5.826354e-06,1.0,1.1324883e-06,-4.440546e-06,-1.1324883e-06,1.0,1756,5.567,0,5,1.252,False,-0.2618441003348577,1.001379627181607
5.506580122979358,17:41:27.431211,17:40:11.582015,0,,NaN,NaN,NaN,NaN,NaN,NaN,NaN,NaN,NaN,NaN,NaN,NaN,,NaN,NaN,NaN,NaN,NaN,NaN,NaN,NaN,NaN,NaN,NaN,NaN,,0.097931944,1.2937909,0.42507234,0.9825984,0.0076094987,-0.18558672,-0.10496162,-0.8015877,-0.5885917,-0.15324292,0.59782875,-0.78684014,,NaN,NaN,NaN,NaN,NaN,NaN,NaN,NaN,NaN,NaN,NaN,NaN,,NaN,NaN,NaN,NaN,NaN,NaN,NaN,NaN,NaN,NaN,NaN,NaN,,NaN,NaN,NaN,NaN,NaN,NaN,NaN,,NaN,NaN,NaN,NaN,NaN,NaN,NaN,,-0.11697196646865997,-0.12781700610823973,0.09957687064,-0.1167695939710949,,-1.5497208e-06,-2.503395e-06,2.026558e-06,1.0,5.841255e-06,4.425645e-06,-5.826354e-06,1.0,1.1324883e-06,-4.440546e-06,-1.1324883e-06,1.0,1775,5.629,0,5,1.252,False,-0.26160578946077395,1.0012347865792688
5.612146603874862,17:41:27.489232,17:40:11.728016,0,,NaN,NaN,NaN,NaN,NaN,NaN,NaN,NaN,NaN,NaN,NaN,NaN,,NaN,NaN,NaN,NaN,NaN,NaN,NaN,NaN,NaN,NaN,NaN,NaN,,0.097931944,1.2937909,0.42507234,0.9825984,0.0076094987,-0.18558672,-0.10496162,-0.8015877,-0.5885917,-0.15324292,0.59782875,-0.78684014,,NaN,NaN,NaN,NaN,NaN,NaN,NaN,NaN,NaN,NaN,NaN,NaN,,NaN,NaN,NaN,NaN,NaN,NaN,NaN,NaN,NaN,NaN,NaN,NaN,,NaN,NaN,NaN,NaN,NaN,NaN,NaN,,NaN,NaN,NaN,NaN,NaN,NaN,NaN,,-0.11697196646865997,-0.12781700610823973,0.09957687064,-0.1167695939710949,,-1.5497208e-06,-2.503395e-06,2.026558e-06,1.0,5.841255e-06,4.425645e-06,-5.826354e-06,1.0,1.1324883e-06,-4.440546e-06,-1.1324883e-06,1.0,1794,5.69,1,6,1.294,False,-0.2622015666459845,1.0003174627644589
5.67017030203715,17:41:27.553876,17:40:11.728016,0,,NaN,NaN,NaN,NaN,NaN,NaN,NaN,NaN,NaN,NaN,NaN,NaN,,NaN,NaN,NaN,NaN,NaN,NaN,NaN,NaN,NaN,NaN,NaN,NaN,,0.097931944,1.2937909,0.42507234,0.9825984,0.0076094987,-0.18558672,-0.10496162,-0.8015877,-0.5885917,-0.15324292,0.59782875,-0.78684014,,NaN,NaN,NaN,NaN,NaN,NaN,NaN,NaN,NaN,NaN,NaN,NaN,,NaN,NaN,NaN,NaN,NaN,NaN,NaN,NaN,NaN,NaN,NaN,NaN,,NaN,NaN,NaN,NaN,NaN,NaN,NaN,,NaN,NaN,NaN,NaN,NaN,NaN,NaN,,-0.11697196646865997,-0.12781700610823973,0.09957687064,-0.1167695939710949,,-1.5497208e-06,-2.503395e-06,2.026558e-06,1.0,5.841255e-06,4.425645e-06,-5.826354e-06,1.0,1.1324883e-06,-4.440546e-06,-1.1324883e-06,1.0,1827,5.797,1,6,1.401,False,-0.26190367805337944,1.0008002647722536
5.734860613942146,17:41:27.661297,17:40:11.873970,0,,NaN,NaN,NaN,NaN,NaN,NaN,NaN,NaN,NaN,NaN,NaN,NaN,,NaN,NaN,NaN,NaN,NaN,NaN,NaN,NaN,NaN,NaN,NaN,NaN,,0.097931944,1.2937909,0.42507234,0.9825984,0.0076094987,-0.18558672,-0.10496162,-0.8015877,-0.5885917,-0.15324292,0.59782875,-0.78684014,,NaN,NaN,NaN,NaN,NaN,NaN,NaN,NaN,NaN,NaN,NaN,NaN,,NaN,NaN,NaN,NaN,NaN,NaN,NaN,NaN,NaN,NaN,NaN,NaN,,NaN,NaN,NaN,NaN,NaN,NaN,NaN,,NaN,NaN,NaN,NaN,NaN,NaN,NaN,,-0.11697196646865997,-0.12781700610823973,0.09957687064,-0.1167695939710949,,-1.5497208e-06,-2.503395e-06,2.026558e-06,1.0,5.841255e-06,4.425645e-06,-5.826354e-06,1.0,1.1324883e-06,-4.440546e-06,-1.1324883e-06,1.0,1846,5.858,1,6,1.462,False,-0.2622015666459845,0.9995449795519877
5.8422726599965245,17:41:27.725767,17:40:11.987628,0,,NaN,NaN,NaN,NaN,NaN,NaN,NaN,NaN,NaN,NaN,NaN,NaN,,NaN,NaN,NaN,NaN,NaN,NaN,NaN,NaN,NaN,NaN,NaN,NaN,,0.097931944,1.2937909,0.42507234,0.9825984,0.0076094987,-0.18558672,-0.10496162,-0.8015877,-0.5885917,-0.15324292,0.59782875,-0.78684014,,NaN,NaN,NaN,NaN,NaN,NaN,NaN,NaN,NaN,NaN,NaN,NaN,,NaN,NaN,NaN,NaN,NaN,NaN,NaN,NaN,NaN,NaN,NaN,NaN,,NaN,NaN,NaN,NaN,NaN,NaN,NaN,,NaN,NaN,NaN,NaN,NaN,NaN,NaN,,-0.11697196646865997,-0.12781700610823973,0.09957687064,-0.1167695939710949,,-1.5497208e-06,-2.503395e-06,2.026558e-06,1.0,5.841255e-06,4.425645e-06,-5.826354e-06,1.0,1.1324883e-06,-4.440546e-06,-1.1324883e-06,1.0,1879,5.965,1,6,1.569,False,-0.26202283349042155,0.9991104577449725
5.906733087962493,17:41:27.828306,17:40:11.987628,0,,NaN,NaN,NaN,NaN,NaN,NaN,NaN,NaN,NaN,NaN,NaN,NaN,,NaN,NaN,NaN,NaN,NaN,NaN,NaN,NaN,NaN,NaN,NaN,NaN,,0.097931944,1.2937909,0.42507234,0.9825984,0.0076094987,-0.18558672,-0.10496162,-0.8015877,-0.5885917,-0.15324292,0.59782875,-0.78684014,,NaN,NaN,NaN,NaN,NaN,NaN,NaN,NaN,NaN,NaN,NaN,NaN,,NaN,NaN,NaN,NaN,NaN,NaN,NaN,NaN,NaN,NaN,NaN,NaN,,NaN,NaN,NaN,NaN,NaN,NaN,NaN,,NaN,NaN,NaN,NaN,NaN,NaN,NaN,,-0.11697196646865997,-0.12781700610823973,0.09957687064,-0.1167695939710949,,-1.5497208e-06,-2.503395e-06,2.026558e-06,1.0,5.841255e-06,4.425645e-06,-5.826354e-06,1.0,1.1324883e-06,-4.440546e-06,-1.1324883e-06,1.0,1898,6.026,1,6,1.63,False,-0.261427056305211,0.9994966993512082
6.009269746020436,17:41:27.887248,17:40:12.126398,0,,NaN,NaN,NaN,NaN,NaN,NaN,NaN,NaN,NaN,NaN,NaN,NaN,,NaN,NaN,NaN,NaN,NaN,NaN,NaN,NaN,NaN,NaN,NaN,NaN,,0.097931944,1.2937909,0.42507234,0.9825984,0.0076094987,-0.18558672,-0.10496162,-0.8015877,-0.5885917,-0.15324292,0.59782875,-0.78684014,,NaN,NaN,NaN,NaN,NaN,NaN,NaN,NaN,NaN,NaN,NaN,NaN,,NaN,NaN,NaN,NaN,NaN,NaN,NaN,NaN,NaN,NaN,NaN,NaN,,NaN,NaN,NaN,NaN,NaN,NaN,NaN,,NaN,NaN,NaN,NaN,NaN,NaN,NaN,,-0.11697196646865997,-0.12781700610823973,0.09957687064,-0.1167695939710949,,-1.5497208e-06,-2.503395e-06,2.026558e-06,1.0,5.841255e-06,4.425645e-06,-5.826354e-06,1.0,1.1324883e-06,-4.440546e-06,-1.1324883e-06,1.0,1917,6.087,1,6,1.691,False,-0.261427056305211,0.9997381003551054
6.068199659930542,17:41:27.950003,17:40:12.126398,0,,NaN,NaN,NaN,NaN,NaN,NaN,NaN,NaN,NaN,NaN,NaN,NaN,,NaN,NaN,NaN,NaN,NaN,NaN,NaN,NaN,NaN,NaN,NaN,NaN,,0.097931944,1.2937909,0.42507234,0.9825984,0.0076094987,-0.18558672,-0.10496162,-0.8015877,-0.5885917,-0.15324292,0.59782875,-0.78684014,,NaN,NaN,NaN,NaN,NaN,NaN,NaN,NaN,NaN,NaN,NaN,NaN,,NaN,NaN,NaN,NaN,NaN,NaN,NaN,NaN,NaN,NaN,NaN,NaN,,NaN,NaN,NaN,NaN,NaN,NaN,NaN,,NaN,NaN,NaN,NaN,NaN,NaN,NaN,,-0.11697196646865997,-0.12781700610823973,0.09957687064,-0.1167695939710949,,-1.5497208e-06,-2.503395e-06,2.026558e-06,1.0,5.841255e-06,4.425645e-06,-5.826354e-06,1.0,1.1324883e-06,-4.440546e-06,-1.1324883e-06,1.0,1931,6.132,1,6,1.736,False,-0.2620824112089424,0.9996898201543258
6.130955052096397,17:41:28.005970,17:40:12.265306,0,,NaN,NaN,NaN,NaN,NaN,NaN,NaN,NaN,NaN,NaN,NaN,NaN,,NaN,NaN,NaN,NaN,NaN,NaN,NaN,NaN,NaN,NaN,NaN,NaN,,0.097931944,1.2937909,0.42507234,0.9825984,0.0076094987,-0.18558672,-0.10496162,-0.8015877,-0.5885917,-0.15324292,0.59782875,-0.78684014,,NaN,NaN,NaN,NaN,NaN,NaN,NaN,NaN,NaN,NaN,NaN,NaN,,NaN,NaN,NaN,NaN,NaN,NaN,NaN,NaN,NaN,NaN,NaN,NaN,,NaN,NaN,NaN,NaN,NaN,NaN,NaN,,NaN,NaN,NaN,NaN,NaN,NaN,NaN,,-0.11697196646865997,-0.12781700610823973,0.09957687064,-0.1167695939710949,,-1.5497208e-06,-2.503395e-06,2.026558e-06,1.0,5.841255e-06,4.425645e-06,-5.826354e-06,1.0,1.1324883e-06,-4.440546e-06,-1.1324883e-06,1.0,1950,6.194,1,6,1.798,False,-0.26243987752006825,1.0006554241699153
6.186910761054605,17:41:28.062346,17:40:12.265306,0,,NaN,NaN,NaN,NaN,NaN,NaN,NaN,NaN,NaN,NaN,NaN,NaN,,NaN,NaN,NaN,NaN,NaN,NaN,NaN,NaN,NaN,NaN,NaN,NaN,,0.097931944,1.2937909,0.42507234,0.9825984,0.0076094987,-0.18558672,-0.10496162,-0.8015877,-0.5885917,-0.15324292,0.59782875,-0.78684014,,NaN,NaN,NaN,NaN,NaN,NaN,NaN,NaN,NaN,NaN,NaN,NaN,,NaN,NaN,NaN,NaN,NaN,NaN,NaN,NaN,NaN,NaN,NaN,NaN,,NaN,NaN,NaN,NaN,NaN,NaN,NaN,,NaN,NaN,NaN,NaN,NaN,NaN,NaN,,-0.11697196646865997,-0.12781700610823973,0.09957687064,-0.1167695939710949,,-1.5497208e-06,-2.503395e-06,2.026558e-06,1.0,5.841255e-06,4.425645e-06,-5.826354e-06,1.0,1.1324883e-06,-4.440546e-06,-1.1324883e-06,1.0,1969,6.255,0,6,1.84,False,-0.26148663402373185,1.001041665776151
6.243301251903176,17:41:28.118729,17:40:12.265306,0,,NaN,NaN,NaN,NaN,NaN,NaN,NaN,NaN,NaN,NaN,NaN,NaN,,NaN,NaN,NaN,NaN,NaN,NaN,NaN,NaN,NaN,NaN,NaN,NaN,,0.097931944,1.2937909,0.42507234,0.9825984,0.0076094987,-0.18558672,-0.10496162,-0.8015877,-0.5885917,-0.15324292,0.59782875,-0.78684014,,NaN,NaN,NaN,NaN,NaN,NaN,NaN,NaN,NaN,NaN,NaN,NaN,,NaN,NaN,NaN,NaN,NaN,NaN,NaN,NaN,NaN,NaN,NaN,NaN,,NaN,NaN,NaN,NaN,NaN,NaN,NaN,,NaN,NaN,NaN,NaN,NaN,NaN,NaN,,-0.11697196646865997,-0.12781700610823973,0.09957687064,-0.1167695939710949,,-1.5497208e-06,-2.503395e-06,2.026558e-06,1.0,5.841255e-06,4.425645e-06,-5.826354e-06,1.0,1.1324883e-06,-4.440546e-06,-1.1324883e-06,1.0,2002,6.362,0,6,1.84,False,-0.262797343831195,1.0015244677839454
6.2996681209187955,17:41:28.228589,17:40:12.402430,0,,NaN,NaN,NaN,NaN,NaN,NaN,NaN,NaN,NaN,NaN,NaN,NaN,,NaN,NaN,NaN,NaN,NaN,NaN,NaN,NaN,NaN,NaN,NaN,NaN,,0.097931944,1.2937909,0.42507234,0.9825984,0.0076094987,-0.18558672,-0.10496162,-0.8015877,-0.5885917,-0.15324292,0.59782875,-0.78684014,,NaN,NaN,NaN,NaN,NaN,NaN,NaN,NaN,NaN,NaN,NaN,NaN,,NaN,NaN,NaN,NaN,NaN,NaN,NaN,NaN,NaN,NaN,NaN,NaN,,NaN,NaN,NaN,NaN,NaN,NaN,NaN,,NaN,NaN,NaN,NaN,NaN,NaN,NaN,,-0.11697196646865997,-0.12781700610823973,0.09957687064,-0.1167695939710949,,-1.5497208e-06,-2.503395e-06,2.026558e-06,1.0,5.841255e-06,4.425645e-06,-5.826354e-06,1.0,1.1324883e-06,-4.440546e-06,-1.1324883e-06,1.0,2021,6.423,0,6,1.84,False,-0.26232072208302704,1.00200726979174
6.409570246934891,17:41:28.292909,17:40:12.550070,0,,NaN,NaN,NaN,NaN,NaN,NaN,NaN,NaN,NaN,NaN,NaN,NaN,,NaN,NaN,NaN,NaN,NaN,NaN,NaN,NaN,NaN,NaN,NaN,NaN,,0.097931944,1.2937909,0.42507234,0.9825984,0.0076094987,-0.18558672,-0.10496162,-0.8015877,-0.5885917,-0.15324292,0.59782875,-0.78684014,,NaN,NaN,NaN,NaN,NaN,NaN,NaN,NaN,NaN,NaN,NaN,NaN,,NaN,NaN,NaN,NaN,NaN,NaN,NaN,NaN,NaN,NaN,NaN,NaN,,NaN,NaN,NaN,NaN,NaN,NaN,NaN,,NaN,NaN,NaN,NaN,NaN,NaN,NaN,,-0.11697196646865997,-0.12781700610823973,0.09957687064,-0.1167695939710949,,-1.5497208e-06,-2.503395e-06,2.026558e-06,1.0,5.841255e-06,4.425645e-06,-5.826354e-06,1.0,1.1324883e-06,-4.440546e-06,-1.1324883e-06,1.0,2054,6.53,0,6,1.84,False,-0.2618441003348577,1.003069434208888
6.4738745300564915,17:41:28.393727,17:40:12.550070,0,,NaN,NaN,NaN,NaN,NaN,NaN,NaN,NaN,NaN,NaN,NaN,NaN,,NaN,NaN,NaN,NaN,NaN,NaN,NaN,NaN,NaN,NaN,NaN,NaN,,0.09790833,1.2937894,0.42507482,0.98260146,0.0076326034,-0.18556975,-0.10493329,-0.8015875,-0.58859706,-0.15324292,0.59782875,-0.78684014,,NaN,NaN,NaN,NaN,NaN,NaN,NaN,NaN,NaN,NaN,NaN,NaN,,NaN,NaN,NaN,NaN,NaN,NaN,NaN,NaN,NaN,NaN,NaN,NaN,,NaN,NaN,NaN,NaN,NaN,NaN,NaN,,NaN,NaN,NaN,NaN,NaN,NaN,NaN,,-0.11697196646865997,-0.12781700610823973,0.09957687064,-0.1167695939710949,,-2.4981797e-05,0.0,5.364418e-06,1.0,2.8528273e-05,2.1666288e-05,-2.8513372e-05,1.0,5.543232e-06,-2.168119e-05,-5.543232e-06,1.0,2073,6.591,0,6,1.84,False,-0.2620824112089424,1.0030211540081084
6.574706583051011,17:41:28.458315,17:40:12.679293,0,,NaN,NaN,NaN,NaN,NaN,NaN,NaN,NaN,NaN,NaN,NaN,NaN,,NaN,NaN,NaN,NaN,NaN,NaN,NaN,NaN,NaN,NaN,NaN,NaN,,0.09790833,1.2937894,0.42507482,0.98260146,0.0076326034,-0.18556975,-0.10493329,-0.8015875,-0.58859706,-0.15324292,0.59782875,-0.78684014,,NaN,NaN,NaN,NaN,NaN,NaN,NaN,NaN,NaN,NaN,NaN,NaN,,NaN,NaN,NaN,NaN,NaN,NaN,NaN,NaN,NaN,NaN,NaN,NaN,,NaN,NaN,NaN,NaN,NaN,NaN,NaN,,NaN,NaN,NaN,NaN,NaN,NaN,NaN,,-0.11697196646865997,-0.12781700610823973,0.09957687064,-0.1167695939710949,,-2.4981797e-05,0.0,5.364418e-06,1.0,2.8528273e-05,2.1666288e-05,-2.8513372e-05,1.0,5.543232e-06,-2.168119e-05,-5.543232e-06,1.0,2092,6.653,0,6,1.84,False,-0.2613079008681689,1.0026831926026525
6.639296940993518,17:41:28.519886,17:40:12.679293,0,,NaN,NaN,NaN,NaN,NaN,NaN,NaN,NaN,NaN,NaN,NaN,NaN,,NaN,NaN,NaN,NaN,NaN,NaN,NaN,NaN,NaN,NaN,NaN,NaN,,0.09790833,1.2937894,0.42507482,0.98260146,0.0076326034,-0.18556975,-0.10493329,-0.8015875,-0.58859706,-0.15324292,0.59782875,-0.78684014,,NaN,NaN,NaN,NaN,NaN,NaN,NaN,NaN,NaN,NaN,NaN,NaN,,NaN,NaN,NaN,NaN,NaN,NaN,NaN,NaN,NaN,NaN,NaN,NaN,,NaN,NaN,NaN,NaN,NaN,NaN,NaN,,NaN,NaN,NaN,NaN,NaN,NaN,NaN,,-0.11697196646865997,-0.12781700610823973,0.09957687064,-0.1167695939710949,,-2.4981797e-05,0.0,5.364418e-06,1.0,2.8528273e-05,2.1666288e-05,-2.8513372e-05,1.0,5.543232e-06,-2.168119e-05,-5.543232e-06,1.0,2125,6.759,1,7,1.907,False,-0.26196325577190027,1.0022486707956373
6.7007945568766445,17:41:28.623686,17:40:12.822480,0,,NaN,NaN,NaN,NaN,NaN,NaN,NaN,NaN,NaN,NaN,NaN,NaN,,NaN,NaN,NaN,NaN,NaN,NaN,NaN,NaN,NaN,NaN,NaN,NaN,,0.09790833,1.2937894,0.42507482,0.98260146,0.0076326034,-0.18556975,-0.10493329,-0.8015875,-0.58859706,-0.15324292,0.59782875,-0.78684014,,NaN,NaN,NaN,NaN,NaN,NaN,NaN,NaN,NaN,NaN,NaN,NaN,,NaN,NaN,NaN,NaN,NaN,NaN,NaN,NaN,NaN,NaN,NaN,NaN,,NaN,NaN,NaN,NaN,NaN,NaN,NaN,,NaN,NaN,NaN,NaN,NaN,NaN,NaN,,-0.11697196646865997,-0.12781700610823973,0.09957687064,-0.1167695939710949,,-2.4981797e-05,0.0,5.364418e-06,1.0,2.8528273e-05,2.1666288e-05,-2.8513372e-05,1.0,5.543232e-06,-2.168119e-05,-5.543232e-06,1.0,2144,6.821,1,7,1.969,False,-0.26249945523859,1.0029728738073294
6.804667537100613,17:41:28.691180,17:40:12.822480,0,,NaN,NaN,NaN,NaN,NaN,NaN,NaN,NaN,NaN,NaN,NaN,NaN,,NaN,NaN,NaN,NaN,NaN,NaN,NaN,NaN,NaN,NaN,NaN,NaN,,0.09790833,1.2937894,0.42507482,0.98260146,0.0076326034,-0.18556975,-0.10493329,-0.8015875,-0.58859706,-0.15324292,0.59782875,-0.78684014,,NaN,NaN,NaN,NaN,NaN,NaN,NaN,NaN,NaN,NaN,NaN,NaN,,NaN,NaN,NaN,NaN,NaN,NaN,NaN,NaN,NaN,NaN,NaN,NaN,,NaN,NaN,NaN,NaN,NaN,NaN,NaN,,NaN,NaN,NaN,NaN,NaN,NaN,NaN,,-0.11697196646865997,-0.12781700610823973,0.09957687064,-0.1167695939710949,,-2.4981797e-05,0.0,5.364418e-06,1.0,2.8528273e-05,2.1666288e-05,-2.8513372e-05,1.0,5.543232e-06,-2.168119e-05,-5.543232e-06,1.0,2177,6.927,1,7,2.075,False,-0.2630356547052788,1.0039384778229183
6.872145076049492,17:41:28.792747,17:40:13.026193,0,,NaN,NaN,NaN,NaN,NaN,NaN,NaN,NaN,NaN,NaN,NaN,NaN,,NaN,NaN,NaN,NaN,NaN,NaN,NaN,NaN,NaN,NaN,NaN,NaN,,0.09790833,1.2937894,0.42507482,0.98260146,0.0076326034,-0.18556975,-0.10493329,-0.8015875,-0.58859706,-0.15324292,0.59782875,-0.78684014,,NaN,NaN,NaN,NaN,NaN,NaN,NaN,NaN,NaN,NaN,NaN,NaN,,NaN,NaN,NaN,NaN,NaN,NaN,NaN,NaN,NaN,NaN,NaN,NaN,,NaN,NaN,NaN,NaN,NaN,NaN,NaN,,NaN,NaN,NaN,NaN,NaN,NaN,NaN,,-0.11697196646865997,-0.12781700610823973,0.09957687064,-0.1167695939710949,,-2.4981797e-05,0.0,5.364418e-06,1.0,2.8528273e-05,2.1666288e-05,-2.8513372e-05,1.0,5.543232e-06,-2.168119e-05,-5.543232e-06,1.0,2196,6.989,1,7,2.137,False,-0.2632143878608417,1.0028280332049906
6.973729090066627,17:41:28.852009,17:40:13.026193,0,,NaN,NaN,NaN,NaN,NaN,NaN,NaN,NaN,NaN,NaN,NaN,NaN,,NaN,NaN,NaN,NaN,NaN,NaN,NaN,NaN,NaN,NaN,NaN,NaN,,0.09790833,1.2937894,0.42507482,0.98260146,0.0076326034,-0.18556975,-0.10493329,-0.8015875,-0.58859706,-0.15324292,0.59782875,-0.78684014,,NaN,NaN,NaN,NaN,NaN,NaN,NaN,NaN,NaN,NaN,NaN,NaN,,NaN,NaN,NaN,NaN,NaN,NaN,NaN,NaN,NaN,NaN,NaN,NaN,,NaN,NaN,NaN,NaN,NaN,NaN,NaN,,NaN,NaN,NaN,NaN,NaN,NaN,NaN,,-0.11697196646865997,-0.12781700610823973,0.09957687064,-0.1167695939710949,,-2.4981797e-05,0.0,5.364418e-06,1.0,2.8528273e-05,2.1666288e-05,-2.8513372e-05,1.0,5.543232e-06,-2.168119e-05,-5.543232e-06,1.0,2215,7.05,1,7,2.198,False,-0.26285692154971585,1.0025383520003142
7.032986781094223,17:41:28.912151,17:40:13.171644,0,,NaN,NaN,NaN,NaN,NaN,NaN,NaN,NaN,NaN,NaN,NaN,NaN,,NaN,NaN,NaN,NaN,NaN,NaN,NaN,NaN,NaN,NaN,NaN,NaN,,0.09790833,1.2937894,0.42507482,0.98260146,0.0076326034,-0.18556975,-0.10493329,-0.8015875,-0.58859706,-0.15324292,0.59782875,-0.78684014,,NaN,NaN,NaN,NaN,NaN,NaN,NaN,NaN,NaN,NaN,NaN,NaN,,NaN,NaN,NaN,NaN,NaN,NaN,NaN,NaN,NaN,NaN,NaN,NaN,,NaN,NaN,NaN,NaN,NaN,NaN,NaN,,NaN,NaN,NaN,NaN,NaN,NaN,NaN,,-0.11697196646865997,-0.12781700610823973,0.09957687064,-0.1167695939710949,,-2.4981797e-05,0.0,5.364418e-06,1.0,2.8528273e-05,2.1666288e-05,-2.8513372e-05,1.0,5.543232e-06,-2.168119e-05,-5.543232e-06,1.0,2248,7.156,0,7,2.214,False,-0.2631548101423209,1.0024900717995346
7.093136073090136,17:41:29.022975,17:40:13.171644,0,,NaN,NaN,NaN,NaN,NaN,NaN,NaN,NaN,NaN,NaN,NaN,NaN,,NaN,NaN,NaN,NaN,NaN,NaN,NaN,NaN,NaN,NaN,NaN,NaN,,0.09790833,1.2937894,0.42507482,0.98260146,0.0076326034,-0.18556975,-0.10493329,-0.8015875,-0.58859706,-0.15324292,0.59782875,-0.78684014,,NaN,NaN,NaN,NaN,NaN,NaN,NaN,NaN,NaN,NaN,NaN,NaN,,NaN,NaN,NaN,NaN,NaN,NaN,NaN,NaN,NaN,NaN,NaN,NaN,,NaN,NaN,NaN,NaN,NaN,NaN,NaN,,NaN,NaN,NaN,NaN,NaN,NaN,NaN,,-0.11697196646865997,-0.12781700610823973,0.09957687064,-0.1167695939710949,,-2.4981797e-05,0.0,5.364418e-06,1.0,2.8528273e-05,2.1666288e-05,-2.8513372e-05,1.0,5.543232e-06,-2.168119e-05,-5.543232e-06,1.0,2267,7.218,0,7,2.214,False,-0.26339312101640555,1.0029245936065496
