AlexandreBanks6/ExpertPlaybackApp/resources/Motions/P_17/PC1/Data_PC1_10.csv
Task Time,PC1 Time,PC2 Time,Gaze Calib,s_T_psm1,Tx,Ty,Tz,R00,R01,R02,R10,R11,R12,R20,R21,R22,s_T_psm3,Tx,Ty,Tz,R00,R01,R02,R10,R11,R12,R20,R21,R22,cart_T_ecm,Tx,Ty,Tz,R00,R01,R02,R10,R11,R12,R20,R21,R22,ecm_T_psm1,Tx,Ty,Tz,R00,R01,R02,R10,R11,R12,R20,R21,R22,ecm_T_psm3,Tx,Ty,Tz,R00,R01,R02,R10,R11,R12,R20,R21,R22,psm1_joints,q1,q2,q3,q4,q5,q6,jaw,psm3_joints,q1,q2,q3,q4,q5,q6,jaw,ecm_joints,q1,q2,q3,q4,ecmi_T_ecm,Tx,Ty,Tz,R00,R01,R02,R10,R11,R12,R20,R21,R22,Sample #,Task Duration (s),Collisions (binary),Collisions (increments),Cumulative Collision Time (s),Clutch Press,MTMR Angle,MTML Angle
""
lci_T_si,,,,,-0.0900869,0.022313949,0.18335392,0.9831014,-0.048776343,0.17644396,0.07519278,-0.77119327,-0.63214475,0.1669061,0.6347297,-0.7544936
rci_T_si,,,,,-0.09717508,0.02900249,0.19913338,0.9846646,-0.06319082,0.16261163,0.050159317,-0.7901947,-0.6107998,0.16709179,0.6095894,-0.7749072
ecm_T_lc,,,,,-4.4061628e-05,-0.00034663224,-0.01840835,-0.99912,0.030754527,0.028518902,-0.031987965,-0.99852574,-0.043852776,0.027128186,-0.04472645,0.9986309
ecm_T_rc,,,,,-0.0043358393,0.01870579,-0.007592615,-0.99555075,-0.052743673,-0.078081585,0.04863213,-0.9973746,0.053654674,-0.08070653,0.04961868,0.9955021
cart_T_ecmi,,,,,0.09793387,1.29379,0.42507514,0.98259765,0.007603552,-0.18559109,-0.104968905,-0.80158776,-0.5885903,-0.15324292,0.59782875,-0.78684014
ecmac_T_ecmrep_psm1,,,,,0.044880565,-0.23049864,-0.32052848,0.99797076,0.0626086,0.011601057,-0.061749555,0.99606305,-0.0636032,-0.015537491,0.06275777,0.9979078
ecmac_T_ecmrep_psm3,,,,,0.047327206,-0.4153428,-0.56493527,0.997773,0.014750276,0.065049894,-0.025394045,0.985803,0.16597453,-0.061678212,-0.16725679,0.9839822
""
0,17:45:17.082145,17:44:01.317484,0,,NaN,NaN,NaN,NaN,NaN,NaN,NaN,NaN,NaN,NaN,NaN,NaN,,NaN,NaN,NaN,NaN,NaN,NaN,NaN,NaN,NaN,NaN,NaN,NaN,,0.09797515,1.2937895,0.42507398,0.98259586,0.007589722,-0.18560123,-0.104985856,-0.8015879,-0.5885871,-0.15324292,0.59782875,-0.78684014,,NaN,NaN,NaN,NaN,NaN,NaN,NaN,NaN,NaN,NaN,NaN,NaN,,NaN,NaN,NaN,NaN,NaN,NaN,NaN,NaN,NaN,NaN,NaN,NaN,,NaN,NaN,NaN,NaN,NaN,NaN,NaN,,NaN,NaN,NaN,NaN,NaN,NaN,NaN,,-0.11676907194311563,-0.12780391613884978,0.09957687064,-0.11873210815548305,,4.079938e-05,-1.1920929e-07,-6.4373016e-06,1.0,-1.3567507e-05,-1.0311604e-05,1.3574958e-05,0.9999999,-2.6524067e-06,1.0296702e-05,2.6524067e-06,1.0,40,0.121,1,1,0.098,False,-0.26243987752006825,0.9336907856888064
0.1300309430807829,17:45:17.124917,17:44:01.396469,0,,NaN,NaN,NaN,NaN,NaN,NaN,NaN,NaN,NaN,NaN,NaN,NaN,,NaN,NaN,NaN,NaN,NaN,NaN,NaN,NaN,NaN,NaN,NaN,NaN,,0.09797515,1.2937895,0.42507398,0.98259586,0.007589722,-0.18560123,-0.104985856,-0.8015879,-0.5885871,-0.15324292,0.59782875,-0.78684014,,NaN,NaN,NaN,NaN,NaN,NaN,NaN,NaN,NaN,NaN,NaN,NaN,,NaN,NaN,NaN,NaN,NaN,NaN,NaN,NaN,NaN,NaN,NaN,NaN,,NaN,NaN,NaN,NaN,NaN,NaN,NaN,,NaN,NaN,NaN,NaN,NaN,NaN,NaN,,-0.11676907194311563,-0.12780391613884978,0.09957687064,-0.11873210815548305,,4.079938e-05,-1.1920929e-07,-6.4373016e-06,1.0,-1.3567507e-05,-1.0311604e-05,1.3574958e-05,0.9999999,-2.6524067e-06,1.0296702e-05,2.6524067e-06,1.0,48,0.145,1,1,0.122,False,-0.26190367805337944,0.9341735876966006
0.17296647606417537,17:45:17.149378,17:44:01.396469,0,,NaN,NaN,NaN,NaN,NaN,NaN,NaN,NaN,NaN,NaN,NaN,NaN,,NaN,NaN,NaN,NaN,NaN,NaN,NaN,NaN,NaN,NaN,NaN,NaN,,0.09797515,1.2937895,0.42507398,0.98259586,0.007589722,-0.18560123,-0.104985856,-0.8015879,-0.5885871,-0.15324292,0.59782875,-0.78684014,,NaN,NaN,NaN,NaN,NaN,NaN,NaN,NaN,NaN,NaN,NaN,NaN,,NaN,NaN,NaN,NaN,NaN,NaN,NaN,NaN,NaN,NaN,NaN,NaN,,NaN,NaN,NaN,NaN,NaN,NaN,NaN,,NaN,NaN,NaN,NaN,NaN,NaN,NaN,,-0.11676907194311563,-0.12780391613884978,0.09957687064,-0.11873210815548305,,4.079938e-05,-1.1920929e-07,-6.4373016e-06,1.0,-1.3567507e-05,-1.0311604e-05,1.3574958e-05,0.9999999,-2.6524067e-06,1.0296702e-05,2.6524067e-06,1.0,60,0.183,1,1,0.16,False,-0.2622015666459845,0.9320009786615251
0.1974368051160127,17:45:17.182067,17:44:01.396469,0,,NaN,NaN,NaN,NaN,NaN,NaN,NaN,NaN,NaN,NaN,NaN,NaN,,NaN,NaN,NaN,NaN,NaN,NaN,NaN,NaN,NaN,NaN,NaN,NaN,,0.09797515,1.2937895,0.42507398,0.98259586,0.007589722,-0.18560123,-0.104985856,-0.8015879,-0.5885871,-0.15324292,0.59782875,-0.78684014,,NaN,NaN,NaN,NaN,NaN,NaN,NaN,NaN,NaN,NaN,NaN,NaN,,NaN,NaN,NaN,NaN,NaN,NaN,NaN,NaN,NaN,NaN,NaN,NaN,,NaN,NaN,NaN,NaN,NaN,NaN,NaN,,NaN,NaN,NaN,NaN,NaN,NaN,NaN,,-0.11676907194311563,-0.12780391613884978,0.09957687064,-0.11873210815548305,,4.079938e-05,-1.1920929e-07,-6.4373016e-06,1.0,-1.3567507e-05,-1.0311604e-05,1.3574958e-05,0.9999999,-2.6524067e-06,1.0296702e-05,2.6524067e-06,1.0,73,0.223,1,1,0.2,False,-0.2629164992682367,0.9333045440825707
0.23010805901139975,17:45:17.227068,17:44:01.476024,0,,NaN,NaN,NaN,NaN,NaN,NaN,NaN,NaN,NaN,NaN,NaN,NaN,,NaN,NaN,NaN,NaN,NaN,NaN,NaN,NaN,NaN,NaN,NaN,NaN,,0.09797515,1.2937895,0.42507398,0.98259586,0.007589722,-0.18560123,-0.104985856,-0.8015879,-0.5885871,-0.15324292,0.59782875,-0.78684014,,NaN,NaN,NaN,NaN,NaN,NaN,NaN,NaN,NaN,NaN,NaN,NaN,,NaN,NaN,NaN,NaN,NaN,NaN,NaN,NaN,NaN,NaN,NaN,NaN,,NaN,NaN,NaN,NaN,NaN,NaN,NaN,,NaN,NaN,NaN,NaN,NaN,NaN,NaN,,-0.11676907194311563,-0.12780391613884978,0.09957687064,-0.11873210815548305,,4.079938e-05,-1.1920929e-07,-6.4373016e-06,1.0,-1.3567507e-05,-1.0311604e-05,1.3574958e-05,0.9999999,-2.6524067e-06,1.0296702e-05,2.6524067e-06,1.0,81,0.248,1,1,0.225,False,-0.26202283349042155,0.9337390658895859
0.27512257802300155,17:45:17.248595,17:44:01.476024,0,,NaN,NaN,NaN,NaN,NaN,NaN,NaN,NaN,NaN,NaN,NaN,NaN,,NaN,NaN,NaN,NaN,NaN,NaN,NaN,NaN,NaN,NaN,NaN,NaN,,0.09797515,1.2937895,0.42507398,0.98259586,0.007589722,-0.18560123,-0.104985856,-0.8015879,-0.5885871,-0.15324292,0.59782875,-0.78684014,,NaN,NaN,NaN,NaN,NaN,NaN,NaN,NaN,NaN,NaN,NaN,NaN,,NaN,NaN,NaN,NaN,NaN,NaN,NaN,NaN,NaN,NaN,NaN,NaN,,NaN,NaN,NaN,NaN,NaN,NaN,NaN,,NaN,NaN,NaN,NaN,NaN,NaN,NaN,,-0.11676907194311563,-0.12780391613884978,0.09957687064,-0.11873210815548305,,4.079938e-05,-1.1920929e-07,-6.4373016e-06,1.0,-1.3567507e-05,-1.0311604e-05,1.3574958e-05,0.9999999,-2.6524067e-06,1.0296702e-05,2.6524067e-06,1.0,89,0.273,1,1,0.25,False,-0.26232072208302704,0.9330631430786731
0.29664996010251343,17:45:17.268560,17:44:01.476024,0,,NaN,NaN,NaN,NaN,NaN,NaN,NaN,NaN,NaN,NaN,NaN,NaN,,NaN,NaN,NaN,NaN,NaN,NaN,NaN,NaN,NaN,NaN,NaN,NaN,,0.09797515,1.2937895,0.42507398,0.98259586,0.007589722,-0.18560123,-0.104985856,-0.8015879,-0.5885871,-0.15324292,0.59782875,-0.78684014,,NaN,NaN,NaN,NaN,NaN,NaN,NaN,NaN,NaN,NaN,NaN,NaN,,NaN,NaN,NaN,NaN,NaN,NaN,NaN,NaN,NaN,NaN,NaN,NaN,,NaN,NaN,NaN,NaN,NaN,NaN,NaN,,NaN,NaN,NaN,NaN,NaN,NaN,NaN,,-0.11676907194311563,-0.12780391613884978,0.09957687064,-0.11873210815548305,,4.079938e-05,-1.1920929e-07,-6.4373016e-06,1.0,-1.3567507e-05,-1.0311604e-05,1.3574958e-05,0.9999999,-2.6524067e-06,1.0296702e-05,2.6524067e-06,1.0,102,0.313,1,1,0.29,False,-0.262797343831195,0.932821742074776
0.31661991495639086,17:45:17.315694,17:44:01.555678,0,,NaN,NaN,NaN,NaN,NaN,NaN,NaN,NaN,NaN,NaN,NaN,NaN,,NaN,NaN,NaN,NaN,NaN,NaN,NaN,NaN,NaN,NaN,NaN,NaN,,0.09797515,1.2937895,0.42507398,0.98259586,0.007589722,-0.18560123,-0.104985856,-0.8015879,-0.5885871,-0.15324292,0.59782875,-0.78684014,,NaN,NaN,NaN,NaN,NaN,NaN,NaN,NaN,NaN,NaN,NaN,NaN,,NaN,NaN,NaN,NaN,NaN,NaN,NaN,NaN,NaN,NaN,NaN,NaN,,NaN,NaN,NaN,NaN,NaN,NaN,NaN,,NaN,NaN,NaN,NaN,NaN,NaN,NaN,,-0.11676907194311563,-0.12780391613884978,0.09957687064,-0.11873210815548305,,4.079938e-05,-1.1920929e-07,-6.4373016e-06,1.0,-1.3567507e-05,-1.0311604e-05,1.3574958e-05,0.9999999,-2.6524067e-06,1.0296702e-05,2.6524067e-06,1.0,110,0.338,1,1,0.315,False,-0.2631548101423209,0.9306974132404799
0.36372349807061255,17:45:17.345178,17:44:01.555678,0,,NaN,NaN,NaN,NaN,NaN,NaN,NaN,NaN,NaN,NaN,NaN,NaN,,NaN,NaN,NaN,NaN,NaN,NaN,NaN,NaN,NaN,NaN,NaN,NaN,,0.09797515,1.2937895,0.42507398,0.98259586,0.007589722,-0.18560123,-0.104985856,-0.8015879,-0.5885871,-0.15324292,0.59782875,-0.78684014,,NaN,NaN,NaN,NaN,NaN,NaN,NaN,NaN,NaN,NaN,NaN,NaN,,NaN,NaN,NaN,NaN,NaN,NaN,NaN,NaN,NaN,NaN,NaN,NaN,,NaN,NaN,NaN,NaN,NaN,NaN,NaN,,NaN,NaN,NaN,NaN,NaN,NaN,NaN,,-0.11676907194311563,-0.12780391613884978,0.09957687064,-0.11873210815548305,,4.079938e-05,-1.1920929e-07,-6.4373016e-06,1.0,-1.3567507e-05,-1.0311604e-05,1.3574958e-05,0.9999999,-2.6524067e-06,1.0296702e-05,2.6524067e-06,1.0,123,0.379,1,1,0.356,False,-0.2620824112089424,0.9263039149695493
0.3931823130697012,17:45:17.382262,17:44:01.633161,0,,NaN,NaN,NaN,NaN,NaN,NaN,NaN,NaN,NaN,NaN,NaN,NaN,,NaN,NaN,NaN,NaN,NaN,NaN,NaN,NaN,NaN,NaN,NaN,NaN,,0.09797515,1.2937895,0.42507398,0.98259586,0.007589722,-0.18560123,-0.104985856,-0.8015879,-0.5885871,-0.15324292,0.59782875,-0.78684014,,NaN,NaN,NaN,NaN,NaN,NaN,NaN,NaN,NaN,NaN,NaN,NaN,,NaN,NaN,NaN,NaN,NaN,NaN,NaN,NaN,NaN,NaN,NaN,NaN,,NaN,NaN,NaN,NaN,NaN,NaN,NaN,,NaN,NaN,NaN,NaN,NaN,NaN,NaN,,-0.11676907194311563,-0.12780391613884978,0.09957687064,-0.11873210815548305,,4.079938e-05,-1.1920929e-07,-6.4373016e-06,1.0,-1.3567507e-05,-1.0311604e-05,1.3574958e-05,0.9999999,-2.6524067e-06,1.0296702e-05,2.6524067e-06,1.0,131,0.403,1,1,0.38,False,-0.2637505873275314,0.9250486297492833
0.43028918211348355,17:45:17.401544,17:44:01.633161,0,,NaN,NaN,NaN,NaN,NaN,NaN,NaN,NaN,NaN,NaN,NaN,NaN,,NaN,NaN,NaN,NaN,NaN,NaN,NaN,NaN,NaN,NaN,NaN,NaN,,0.09797515,1.2937895,0.42507398,0.98259586,0.007589722,-0.18560123,-0.104985856,-0.8015879,-0.5885871,-0.15324292,0.59782875,-0.78684014,,NaN,NaN,NaN,NaN,NaN,NaN,NaN,NaN,NaN,NaN,NaN,NaN,,NaN,NaN,NaN,NaN,NaN,NaN,NaN,NaN,NaN,NaN,NaN,NaN,,NaN,NaN,NaN,NaN,NaN,NaN,NaN,,NaN,NaN,NaN,NaN,NaN,NaN,NaN,,-0.11676907194311563,-0.12780391613884978,0.09957687064,-0.11873210815548305,,4.079938e-05,-1.1920929e-07,-6.4373016e-06,1.0,-1.3567507e-05,-1.0311604e-05,1.3574958e-05,0.9999999,-2.6524067e-06,1.0296702e-05,2.6524067e-06,1.0,144,0.444,1,1,0.421,False,-0.26154621174225356,0.925579711957857
0.44960377900861204,17:45:17.447873,17:44:01.709269,0,,NaN,NaN,NaN,NaN,NaN,NaN,NaN,NaN,NaN,NaN,NaN,NaN,,NaN,NaN,NaN,NaN,NaN,NaN,NaN,NaN,NaN,NaN,NaN,NaN,,0.09797515,1.2937895,0.42507398,0.98259586,0.007589722,-0.18560123,-0.104985856,-0.8015879,-0.5885871,-0.15324292,0.59782875,-0.78684014,,NaN,NaN,NaN,NaN,NaN,NaN,NaN,NaN,NaN,NaN,NaN,NaN,,NaN,NaN,NaN,NaN,NaN,NaN,NaN,NaN,NaN,NaN,NaN,NaN,,NaN,NaN,NaN,NaN,NaN,NaN,NaN,,NaN,NaN,NaN,NaN,NaN,NaN,NaN,,-0.11676907194311563,-0.12780391613884978,0.09957687064,-0.11873210815548305,,4.079938e-05,-1.1920929e-07,-6.4373016e-06,1.0,-1.3567507e-05,-1.0311604e-05,1.3574958e-05,0.9999999,-2.6524067e-06,1.0296702e-05,2.6524067e-06,1.0,152,0.469,1,1,0.446,False,-0.26255903295711036,0.9225380593087511
0.49592156102880836,17:45:17.469771,17:44:01.709269,0,,NaN,NaN,NaN,NaN,NaN,NaN,NaN,NaN,NaN,NaN,NaN,NaN,,NaN,NaN,NaN,NaN,NaN,NaN,NaN,NaN,NaN,NaN,NaN,NaN,,0.09797515,1.2937895,0.42507398,0.98259586,0.007589722,-0.18560123,-0.104985856,-0.8015879,-0.5885871,-0.15324292,0.59782875,-0.78684014,,NaN,NaN,NaN,NaN,NaN,NaN,NaN,NaN,NaN,NaN,NaN,NaN,,NaN,NaN,NaN,NaN,NaN,NaN,NaN,NaN,NaN,NaN,NaN,NaN,,NaN,NaN,NaN,NaN,NaN,NaN,NaN,,NaN,NaN,NaN,NaN,NaN,NaN,NaN,,-0.11676907194311563,-0.12780391613884978,0.09957687064,-0.11873210815548305,,4.079938e-05,-1.1920929e-07,-6.4373016e-06,1.0,-1.3567507e-05,-1.0311604e-05,1.3574958e-05,0.9999999,-2.6524067e-06,1.0296702e-05,2.6524067e-06,1.0,165,0.51,1,1,0.487,False,-0.26255903295711036,0.9207999720806908
0.5177958789281547,17:45:17.511870,17:44:01.786509,0,,NaN,NaN,NaN,NaN,NaN,NaN,NaN,NaN,NaN,NaN,NaN,NaN,,NaN,NaN,NaN,NaN,NaN,NaN,NaN,NaN,NaN,NaN,NaN,NaN,,0.09797515,1.2937895,0.42507398,0.98259586,0.007589722,-0.18560123,-0.104985856,-0.8015879,-0.5885871,-0.15324292,0.59782875,-0.78684014,,NaN,NaN,NaN,NaN,NaN,NaN,NaN,NaN,NaN,NaN,NaN,NaN,,NaN,NaN,NaN,NaN,NaN,NaN,NaN,NaN,NaN,NaN,NaN,NaN,,NaN,NaN,NaN,NaN,NaN,NaN,NaN,,NaN,NaN,NaN,NaN,NaN,NaN,NaN,,-0.11676907194311563,-0.12780391613884978,0.09957687064,-0.11873210815548305,,4.079938e-05,-1.1920929e-07,-6.4373016e-06,1.0,-1.3567507e-05,-1.0311604e-05,1.3574958e-05,0.9999999,-2.6524067e-06,1.0296702e-05,2.6524067e-06,1.0,173,0.534,1,1,0.511,False,-0.2626186106756321,0.916068512404304
0.5599066889844835,17:45:17.536434,17:44:01.786509,0,,NaN,NaN,NaN,NaN,NaN,NaN,NaN,NaN,NaN,NaN,NaN,NaN,,NaN,NaN,NaN,NaN,NaN,NaN,NaN,NaN,NaN,NaN,NaN,NaN,,0.09797515,1.2937895,0.42507398,0.98259586,0.007589722,-0.18560123,-0.104985856,-0.8015879,-0.5885871,-0.15324292,0.59782875,-0.78684014,,NaN,NaN,NaN,NaN,NaN,NaN,NaN,NaN,NaN,NaN,NaN,NaN,,NaN,NaN,NaN,NaN,NaN,NaN,NaN,NaN,NaN,NaN,NaN,NaN,,NaN,NaN,NaN,NaN,NaN,NaN,NaN,,NaN,NaN,NaN,NaN,NaN,NaN,NaN,,-0.11676907194311563,-0.12780391613884978,0.09957687064,-0.11873210815548305,,4.079938e-05,-1.1920929e-07,-6.4373016e-06,1.0,-1.3567507e-05,-1.0311604e-05,1.3574958e-05,0.9999999,-2.6524067e-06,1.0296702e-05,2.6524067e-06,1.0,186,0.575,1,1,0.552,False,-0.2622015666459845,0.9162616332074216
0.5844801829662174,17:45:17.578485,17:44:01.786509,0,,NaN,NaN,NaN,NaN,NaN,NaN,NaN,NaN,NaN,NaN,NaN,NaN,,NaN,NaN,NaN,NaN,NaN,NaN,NaN,NaN,NaN,NaN,NaN,NaN,,0.09797515,1.2937895,0.42507398,0.98259586,0.007589722,-0.18560123,-0.104985856,-0.8015879,-0.5885871,-0.15324292,0.59782875,-0.78684014,,NaN,NaN,NaN,NaN,NaN,NaN,NaN,NaN,NaN,NaN,NaN,NaN,,NaN,NaN,NaN,NaN,NaN,NaN,NaN,NaN,NaN,NaN,NaN,NaN,,NaN,NaN,NaN,NaN,NaN,NaN,NaN,,NaN,NaN,NaN,NaN,NaN,NaN,NaN,,-0.11676907194311563,-0.12780391613884978,0.09957687064,-0.11873210815548305,,4.079938e-05,-1.1920929e-07,-6.4373016e-06,1.0,-1.3567507e-05,-1.0311604e-05,1.3574958e-05,0.9999999,-2.6524067e-06,1.0296702e-05,2.6524067e-06,1.0,194,0.6,0,1,0.555,False,-0.2634526987349264,0.9164064738097601
0.626532725058496,17:45:17.601353,17:44:01.862410,0,,NaN,NaN,NaN,NaN,NaN,NaN,NaN,NaN,NaN,NaN,NaN,NaN,,NaN,NaN,NaN,NaN,NaN,NaN,NaN,NaN,NaN,NaN,NaN,NaN,,0.09797515,1.2937895,0.42507398,0.98259586,0.007589722,-0.18560123,-0.104985856,-0.8015879,-0.5885871,-0.15324292,0.59782875,-0.78684014,,NaN,NaN,NaN,NaN,NaN,NaN,NaN,NaN,NaN,NaN,NaN,NaN,,NaN,NaN,NaN,NaN,NaN,NaN,NaN,NaN,NaN,NaN,NaN,NaN,,NaN,NaN,NaN,NaN,NaN,NaN,NaN,,NaN,NaN,NaN,NaN,NaN,NaN,NaN,,-0.11676907194311563,-0.12780391613884978,0.09957687064,-0.11873210815548305,,4.079938e-05,-1.1920929e-07,-6.4373016e-06,1.0,-1.3567507e-05,-1.0311604e-05,1.3574958e-05,0.9999999,-2.6524067e-06,1.0296702e-05,2.6524067e-06,1.0,211,0.653,0,1,0.555,False,-0.26249945523859,0.9137993429676694
0.6494092899374664,17:45:17.652933,17:44:01.862410,0,,NaN,NaN,NaN,NaN,NaN,NaN,NaN,NaN,NaN,NaN,NaN,NaN,,NaN,NaN,NaN,NaN,NaN,NaN,NaN,NaN,NaN,NaN,NaN,NaN,,0.09797515,1.2937895,0.42507398,0.98259586,0.007589722,-0.18560123,-0.104985856,-0.8015879,-0.5885871,-0.15324292,0.59782875,-0.78684014,,NaN,NaN,NaN,NaN,NaN,NaN,NaN,NaN,NaN,NaN,NaN,NaN,,NaN,NaN,NaN,NaN,NaN,NaN,NaN,NaN,NaN,NaN,NaN,NaN,,NaN,NaN,NaN,NaN,NaN,NaN,NaN,,NaN,NaN,NaN,NaN,NaN,NaN,NaN,,-0.11676907194311563,-0.12780391613884978,0.09957687064,-0.11873210815548305,,4.079938e-05,-1.1920929e-07,-6.4373016e-06,1.0,-1.3567507e-05,-1.0311604e-05,1.3574958e-05,0.9999999,-2.6524067e-06,1.0296702e-05,2.6524067e-06,1.0,219,0.678,0,1,0.555,False,-0.26249945523859,0.9134131013614333
0.7009655679576099,17:45:17.682219,17:44:01.934917,0,,NaN,NaN,NaN,NaN,NaN,NaN,NaN,NaN,NaN,NaN,NaN,NaN,,NaN,NaN,NaN,NaN,NaN,NaN,NaN,NaN,NaN,NaN,NaN,NaN,,0.09797515,1.2937895,0.42507398,0.98259586,0.007589722,-0.18560123,-0.104985856,-0.8015879,-0.5885871,-0.15324292,0.59782875,-0.78684014,,NaN,NaN,NaN,NaN,NaN,NaN,NaN,NaN,NaN,NaN,NaN,NaN,,NaN,NaN,NaN,NaN,NaN,NaN,NaN,NaN,NaN,NaN,NaN,NaN,,NaN,NaN,NaN,NaN,NaN,NaN,NaN,,NaN,NaN,NaN,NaN,NaN,NaN,NaN,,-0.11676907194311563,-0.12780391613884978,0.09957687064,-0.11873210815548305,,4.079938e-05,-1.1920929e-07,-6.4373016e-06,1.0,-1.3567507e-05,-1.0311604e-05,1.3574958e-05,0.9999999,-2.6524067e-06,1.0296702e-05,2.6524067e-06,1.0,236,0.731,0,1,0.555,False,-0.26178452261633733,0.9136062221645518
0.73025165614672,17:45:17.731678,17:44:01.934917,0,,NaN,NaN,NaN,NaN,NaN,NaN,NaN,NaN,NaN,NaN,NaN,NaN,,NaN,NaN,NaN,NaN,NaN,NaN,NaN,NaN,NaN,NaN,NaN,NaN,,0.09797515,1.2937895,0.42507398,0.98259586,0.007589722,-0.18560123,-0.104985856,-0.8015879,-0.5885871,-0.15324292,0.59782875,-0.78684014,,NaN,NaN,NaN,NaN,NaN,NaN,NaN,NaN,NaN,NaN,NaN,NaN,,NaN,NaN,NaN,NaN,NaN,NaN,NaN,NaN,NaN,NaN,NaN,NaN,,NaN,NaN,NaN,NaN,NaN,NaN,NaN,,NaN,NaN,NaN,NaN,NaN,NaN,NaN,,-0.11676907194311563,-0.12780391613884978,0.09957687064,-0.11873210815548305,,4.079938e-05,-1.1920929e-07,-6.4373016e-06,1.0,-1.3567507e-05,-1.0311604e-05,1.3574958e-05,0.9999999,-2.6524067e-06,1.0296702e-05,2.6524067e-06,1.0,244,0.756,0,1,0.555,False,-0.2630356547052788,0.9145235459793613
0.7797384141013026,17:45:17.761475,17:44:02.020074,0,,NaN,NaN,NaN,NaN,NaN,NaN,NaN,NaN,NaN,NaN,NaN,NaN,,NaN,NaN,NaN,NaN,NaN,NaN,NaN,NaN,NaN,NaN,NaN,NaN,,0.09797515,1.2937895,0.42507398,0.98259586,0.007589722,-0.18560123,-0.104985856,-0.8015879,-0.5885871,-0.15324292,0.59782875,-0.78684014,,NaN,NaN,NaN,NaN,NaN,NaN,NaN,NaN,NaN,NaN,NaN,NaN,,NaN,NaN,NaN,NaN,NaN,NaN,NaN,NaN,NaN,NaN,NaN,NaN,,NaN,NaN,NaN,NaN,NaN,NaN,NaN,,NaN,NaN,NaN,NaN,NaN,NaN,NaN,,-0.11676907194311563,-0.12780391613884978,0.09957687064,-0.11873210815548305,,4.079938e-05,-1.1920929e-07,-6.4373016e-06,1.0,-1.3567507e-05,-1.0311604e-05,1.3574958e-05,0.9999999,-2.6524067e-06,1.0296702e-05,2.6524067e-06,1.0,261,0.809,0,1,0.555,False,-0.2626781883941529,0.9131717003575366
0.8095225461293012,17:45:17.812294,17:44:02.020074,0,,NaN,NaN,NaN,NaN,NaN,NaN,NaN,NaN,NaN,NaN,NaN,NaN,,NaN,NaN,NaN,NaN,NaN,NaN,NaN,NaN,NaN,NaN,NaN,NaN,,0.09797515,1.2937895,0.42507398,0.98259586,0.007589722,-0.18560123,-0.104985856,-0.8015879,-0.5885871,-0.15324292,0.59782875,-0.78684014,,NaN,NaN,NaN,NaN,NaN,NaN,NaN,NaN,NaN,NaN,NaN,NaN,,NaN,NaN,NaN,NaN,NaN,NaN,NaN,NaN,NaN,NaN,NaN,NaN,,NaN,NaN,NaN,NaN,NaN,NaN,NaN,,NaN,NaN,NaN,NaN,NaN,NaN,NaN,,-0.11676907194311563,-0.12780391613884978,0.09957687064,-0.11873210815548305,,4.079938e-05,-1.1920929e-07,-6.4373016e-06,1.0,-1.3567507e-05,-1.0311604e-05,1.3574958e-05,0.9999999,-2.6524067e-06,1.0296702e-05,2.6524067e-06,1.0,269,0.834,0,1,0.555,False,-0.26297607698675796,0.9150546281879355
0.8603498679585755,17:45:17.833056,17:44:02.020074,0,,NaN,NaN,NaN,NaN,NaN,NaN,NaN,NaN,NaN,NaN,NaN,NaN,,NaN,NaN,NaN,NaN,NaN,NaN,NaN,NaN,NaN,NaN,NaN,NaN,,0.09797515,1.2937895,0.42507398,0.98259586,0.007589722,-0.18560123,-0.104985856,-0.8015879,-0.5885871,-0.15324292,0.59782875,-0.78684014,,NaN,NaN,NaN,NaN,NaN,NaN,NaN,NaN,NaN,NaN,NaN,NaN,,NaN,NaN,NaN,NaN,NaN,NaN,NaN,NaN,NaN,NaN,NaN,NaN,,NaN,NaN,NaN,NaN,NaN,NaN,NaN,,NaN,NaN,NaN,NaN,NaN,NaN,NaN,,-0.11676907194311563,-0.12780391613884978,0.09957687064,-0.11873210815548305,,4.079938e-05,-1.1920929e-07,-6.4373016e-06,1.0,-1.3567507e-05,-1.0311604e-05,1.3574958e-05,0.9999999,-2.6524067e-06,1.0296702e-05,2.6524067e-06,1.0,282,0.874,0,1,0.555,False,-0.26255903295711036,0.9165995946128778
0.8811147811356932,17:45:17.882545,17:44:02.132181,0,,NaN,NaN,NaN,NaN,NaN,NaN,NaN,NaN,NaN,NaN,NaN,NaN,,NaN,NaN,NaN,NaN,NaN,NaN,NaN,NaN,NaN,NaN,NaN,NaN,,0.09797515,1.2937895,0.42507398,0.98259586,0.007589722,-0.18560123,-0.104985856,-0.8015879,-0.5885871,-0.15324292,0.59782875,-0.78684014,,NaN,NaN,NaN,NaN,NaN,NaN,NaN,NaN,NaN,NaN,NaN,NaN,,NaN,NaN,NaN,NaN,NaN,NaN,NaN,NaN,NaN,NaN,NaN,NaN,,NaN,NaN,NaN,NaN,NaN,NaN,NaN,,NaN,NaN,NaN,NaN,NaN,NaN,NaN,,-0.11676907194311563,-0.12780391613884978,0.09957687064,-0.11873210815548305,,4.079938e-05,-1.1920929e-07,-6.4373016e-06,1.0,-1.3567507e-05,-1.0311604e-05,1.3574958e-05,0.9999999,-2.6524067e-06,1.0296702e-05,2.6524067e-06,1.0,290,0.899,0,1,0.555,False,-0.26249945523859,0.9182411214393795
0.9305994799360633,17:45:17.899838,17:44:02.132181,0,,NaN,NaN,NaN,NaN,NaN,NaN,NaN,NaN,NaN,NaN,NaN,NaN,,NaN,NaN,NaN,NaN,NaN,NaN,NaN,NaN,NaN,NaN,NaN,NaN,,0.09797515,1.2937895,0.42507398,0.98259586,0.007589722,-0.18560123,-0.104985856,-0.8015879,-0.5885871,-0.15324292,0.59782875,-0.78684014,,NaN,NaN,NaN,NaN,NaN,NaN,NaN,NaN,NaN,NaN,NaN,NaN,,NaN,NaN,NaN,NaN,NaN,NaN,NaN,NaN,NaN,NaN,NaN,NaN,,NaN,NaN,NaN,NaN,NaN,NaN,NaN,,NaN,NaN,NaN,NaN,NaN,NaN,NaN,,-0.11676907194311563,-0.12780391613884978,0.09957687064,-0.11873210815548305,,4.079938e-05,-1.1920929e-07,-6.4373016e-06,1.0,-1.3567507e-05,-1.0311604e-05,1.3574958e-05,0.9999999,-2.6524067e-06,1.0296702e-05,2.6524067e-06,1.0,307,0.952,0,1,0.555,False,-0.26243987752006825,0.9174686382269082
0.9478908211458474,17:45:17.952456,17:44:02.206489,0,,NaN,NaN,NaN,NaN,NaN,NaN,NaN,NaN,NaN,NaN,NaN,NaN,,NaN,NaN,NaN,NaN,NaN,NaN,NaN,NaN,NaN,NaN,NaN,NaN,,0.09797515,1.2937895,0.42507398,0.98259586,0.007589722,-0.18560123,-0.104985856,-0.8015879,-0.5885871,-0.15324292,0.59782875,-0.78684014,,NaN,NaN,NaN,NaN,NaN,NaN,NaN,NaN,NaN,NaN,NaN,NaN,,NaN,NaN,NaN,NaN,NaN,NaN,NaN,NaN,NaN,NaN,NaN,NaN,,NaN,NaN,NaN,NaN,NaN,NaN,NaN,,NaN,NaN,NaN,NaN,NaN,NaN,NaN,,-0.11676907194311563,-0.12780391613884978,0.09957687064,-0.11873210815548305,,4.079938e-05,-1.1920929e-07,-6.4373016e-06,1.0,-1.3567507e-05,-1.0311604e-05,1.3574958e-05,0.9999999,-2.6524067e-06,1.0296702e-05,2.6524067e-06,1.0,315,0.977,0,1,0.555,False,-0.26160578946077395,0.9119164151372705
1.0005069670733064,17:45:17.980101,17:44:02.206489,0,,NaN,NaN,NaN,NaN,NaN,NaN,NaN,NaN,NaN,NaN,NaN,NaN,,NaN,NaN,NaN,NaN,NaN,NaN,NaN,NaN,NaN,NaN,NaN,NaN,,0.09797515,1.2937895,0.42507398,0.98259586,0.007589722,-0.18560123,-0.104985856,-0.8015879,-0.5885871,-0.15324292,0.59782875,-0.78684014,,NaN,NaN,NaN,NaN,NaN,NaN,NaN,NaN,NaN,NaN,NaN,NaN,,NaN,NaN,NaN,NaN,NaN,NaN,NaN,NaN,NaN,NaN,NaN,NaN,,NaN,NaN,NaN,NaN,NaN,NaN,NaN,,NaN,NaN,NaN,NaN,NaN,NaN,NaN,,-0.11676907194311563,-0.12780391613884978,0.09957687064,-0.11873210815548305,,4.079938e-05,-1.1920929e-07,-6.4373016e-06,1.0,-1.3567507e-05,-1.0311604e-05,1.3574958e-05,0.9999999,-2.6524067e-06,1.0296702e-05,2.6524067e-06,1.0,328,1.018,0,1,0.555,False,-0.262797343831195,0.9078608782717961
1.0281079839915037,17:45:18.019402,17:44:02.280321,0,,NaN,NaN,NaN,NaN,NaN,NaN,NaN,NaN,NaN,NaN,NaN,NaN,,NaN,NaN,NaN,NaN,NaN,NaN,NaN,NaN,NaN,NaN,NaN,NaN,,0.09797515,1.2937895,0.42507398,0.98259586,0.007589722,-0.18560123,-0.104985856,-0.8015879,-0.5885871,-0.15324292,0.59782875,-0.78684014,,NaN,NaN,NaN,NaN,NaN,NaN,NaN,NaN,NaN,NaN,NaN,NaN,,NaN,NaN,NaN,NaN,NaN,NaN,NaN,NaN,NaN,NaN,NaN,NaN,,NaN,NaN,NaN,NaN,NaN,NaN,NaN,,NaN,NaN,NaN,NaN,NaN,NaN,NaN,,-0.11676907194311563,-0.12780391613884978,0.09957687064,-0.11873210815548305,,4.079938e-05,-1.1920929e-07,-6.4373016e-06,1.0,-1.3567507e-05,-1.0311604e-05,1.3574958e-05,0.9999999,-2.6524067e-06,1.0296702e-05,2.6524067e-06,1.0,337,1.046,0,1,0.555,False,-0.2626186106756321,0.9064607524491914
1.067457151133567,17:45:18.049955,17:44:02.280321,0,,NaN,NaN,NaN,NaN,NaN,NaN,NaN,NaN,NaN,NaN,NaN,NaN,,NaN,NaN,NaN,NaN,NaN,NaN,NaN,NaN,NaN,NaN,NaN,NaN,,0.09797515,1.2937895,0.42507398,0.98259586,0.007589722,-0.18560123,-0.104985856,-0.8015879,-0.5885871,-0.15324292,0.59782875,-0.78684014,,NaN,NaN,NaN,NaN,NaN,NaN,NaN,NaN,NaN,NaN,NaN,NaN,,NaN,NaN,NaN,NaN,NaN,NaN,NaN,NaN,NaN,NaN,NaN,NaN,,NaN,NaN,NaN,NaN,NaN,NaN,NaN,,NaN,NaN,NaN,NaN,NaN,NaN,NaN,,-0.11676907194311563,-0.12780391613884978,0.09957687064,-0.11873210815548305,,4.079938e-05,-1.1920929e-07,-6.4373016e-06,1.0,-1.3567507e-05,-1.0311604e-05,1.3574958e-05,0.9999999,-2.6524067e-06,1.0296702e-05,2.6524067e-06,1.0,350,1.087,0,1,0.555,False,-0.2626781883941529,0.9062193514452943
1.0980145500507206,17:45:18.092288,17:44:02.361081,0,,NaN,NaN,NaN,NaN,NaN,NaN,NaN,NaN,NaN,NaN,NaN,NaN,,NaN,NaN,NaN,NaN,NaN,NaN,NaN,NaN,NaN,NaN,NaN,NaN,,0.0978981,1.2937943,0.42507434,0.98260367,0.0076497663,-0.18555714,-0.10491226,-0.80158734,-0.58860105,-0.15324292,0.59782875,-0.78684014,,NaN,NaN,NaN,NaN,NaN,NaN,NaN,NaN,NaN,NaN,NaN,NaN,,NaN,NaN,NaN,NaN,NaN,NaN,NaN,NaN,NaN,NaN,NaN,NaN,,NaN,NaN,NaN,NaN,NaN,NaN,NaN,,NaN,NaN,NaN,NaN,NaN,NaN,NaN,,-0.11676907194311563,-0.12780391613884978,0.09957687064,-0.11873210815548305,,-3.5464764e-05,-4.2915344e-06,4.7683716e-06,1.0,4.5374036e-05,3.4466386e-05,-4.5359135e-05,1.0,8.85129e-06,-3.4466386e-05,-8.821487e-06,1.0,363,1.128,0,1,0.555,False,-0.2630356547052788,0.9109508111216811
1.1403459231369197,17:45:18.132301,17:44:02.361081,0,,NaN,NaN,NaN,NaN,NaN,NaN,NaN,NaN,NaN,NaN,NaN,NaN,,NaN,NaN,NaN,NaN,NaN,NaN,NaN,NaN,NaN,NaN,NaN,NaN,,0.0978981,1.2937943,0.42507434,0.98260367,0.0076497663,-0.18555714,-0.10491226,-0.80158734,-0.58860105,-0.15324292,0.59782875,-0.78684014,,NaN,NaN,NaN,NaN,NaN,NaN,NaN,NaN,NaN,NaN,NaN,NaN,,NaN,NaN,NaN,NaN,NaN,NaN,NaN,NaN,NaN,NaN,NaN,NaN,,NaN,NaN,NaN,NaN,NaN,NaN,NaN,,NaN,NaN,NaN,NaN,NaN,NaN,NaN,,-0.11676907194311563,-0.12780391613884978,0.09957687064,-0.11873210815548305,,-3.5464764e-05,-4.2915344e-06,4.7683716e-06,1.0,4.5374036e-05,3.4466386e-05,-4.5359135e-05,1.0,8.85129e-06,-3.4466386e-05,-8.821487e-06,1.0,372,1.157,0,1,0.555,False,-0.2607717014014801,0.9181445610378205
1.1803584040608257,17:45:18.155524,17:44:02.361081,0,,NaN,NaN,NaN,NaN,NaN,NaN,NaN,NaN,NaN,NaN,NaN,NaN,,NaN,NaN,NaN,NaN,NaN,NaN,NaN,NaN,NaN,NaN,NaN,NaN,,0.0978981,1.2937943,0.42507434,0.98260367,0.0076497663,-0.18555714,-0.10491226,-0.80158734,-0.58860105,-0.15324292,0.59782875,-0.78684014,,NaN,NaN,NaN,NaN,NaN,NaN,NaN,NaN,NaN,NaN,NaN,NaN,,NaN,NaN,NaN,NaN,NaN,NaN,NaN,NaN,NaN,NaN,NaN,NaN,,NaN,NaN,NaN,NaN,NaN,NaN,NaN,,NaN,NaN,NaN,NaN,NaN,NaN,NaN,,-0.11676907194311563,-0.12780391613884978,0.09957687064,-0.11873210815548305,,-3.5464764e-05,-4.2915344e-06,4.7683716e-06,1.0,4.5374036e-05,3.4466386e-05,-4.5359135e-05,1.0,8.85129e-06,-3.4466386e-05,-8.821487e-06,1.0,376,1.169,0,1,0.555,False,-0.2622015666459845,0.9204620106752346
1.2035787380300462,17:45:18.182551,17:44:02.435420,0,,NaN,NaN,NaN,NaN,NaN,NaN,NaN,NaN,NaN,NaN,NaN,NaN,,NaN,NaN,NaN,NaN,NaN,NaN,NaN,NaN,NaN,NaN,NaN,NaN,,0.0978981,1.2937943,0.42507434,0.98260367,0.0076497663,-0.18555714,-0.10491226,-0.80158734,-0.58860105,-0.15324292,0.59782875,-0.78684014,,NaN,NaN,NaN,NaN,NaN,NaN,NaN,NaN,NaN,NaN,NaN,NaN,,NaN,NaN,NaN,NaN,NaN,NaN,NaN,NaN,NaN,NaN,NaN,NaN,,NaN,NaN,NaN,NaN,NaN,NaN,NaN,,NaN,NaN,NaN,NaN,NaN,NaN,NaN,,-0.11676907194311563,-0.12780391613884978,0.09957687064,-0.11873210815548305,,-3.5464764e-05,-4.2915344e-06,4.7683716e-06,1.0,4.5374036e-05,3.4466386e-05,-4.5359135e-05,1.0,8.85129e-06,-3.4466386e-05,-8.821487e-06,1.0,398,1.239,0,1,0.555,False,-0.26178452261633733,0.9218138562970593
1.23060884908773,17:45:18.245397,17:44:02.435420,0,,NaN,NaN,NaN,NaN,NaN,NaN,NaN,NaN,NaN,NaN,NaN,NaN,,NaN,NaN,NaN,NaN,NaN,NaN,NaN,NaN,NaN,NaN,NaN,NaN,,0.0978981,1.2937943,0.42507434,0.98260367,0.0076497663,-0.18555714,-0.10491226,-0.80158734,-0.58860105,-0.15324292,0.59782875,-0.78684014,,NaN,NaN,NaN,NaN,NaN,NaN,NaN,NaN,NaN,NaN,NaN,NaN,,NaN,NaN,NaN,NaN,NaN,NaN,NaN,NaN,NaN,NaN,NaN,NaN,,NaN,NaN,NaN,NaN,NaN,NaN,NaN,,NaN,NaN,NaN,NaN,NaN,NaN,NaN,,-0.11676907194311563,-0.12780391613884978,0.09957687064,-0.11873210815548305,,-3.5464764e-05,-4.2915344e-06,4.7683716e-06,1.0,4.5374036e-05,3.4466386e-05,-4.5359135e-05,1.0,8.85129e-06,-3.4466386e-05,-8.821487e-06,1.0,411,1.28,0,1,0.555,False,-0.262797343831195,0.9229725811157663
1.2934531481005251,17:45:18.283881,17:44:02.538258,0,,NaN,NaN,NaN,NaN,NaN,NaN,NaN,NaN,NaN,NaN,NaN,NaN,,NaN,NaN,NaN,NaN,NaN,NaN,NaN,NaN,NaN,NaN,NaN,NaN,,0.0978981,1.2937943,0.42507434,0.98260367,0.0076497663,-0.18555714,-0.10491226,-0.80158734,-0.58860105,-0.15324292,0.59782875,-0.78684014,,NaN,NaN,NaN,NaN,NaN,NaN,NaN,NaN,NaN,NaN,NaN,NaN,,NaN,NaN,NaN,NaN,NaN,NaN,NaN,NaN,NaN,NaN,NaN,NaN,,NaN,NaN,NaN,NaN,NaN,NaN,NaN,,NaN,NaN,NaN,NaN,NaN,NaN,NaN,,-0.11676907194311563,-0.12780391613884978,0.09957687064,-0.11873210815548305,,-3.5464764e-05,-4.2915344e-06,4.7683716e-06,1.0,4.5374036e-05,3.4466386e-05,-4.5359135e-05,1.0,8.85129e-06,-3.4466386e-05,-8.821487e-06,1.0,420,1.308,0,1,0.555,False,-0.2618441003348577,0.9224414989071925
1.3319380171597004,17:45:18.304124,17:44:02.538258,0,,NaN,NaN,NaN,NaN,NaN,NaN,NaN,NaN,NaN,NaN,NaN,NaN,,NaN,NaN,NaN,NaN,NaN,NaN,NaN,NaN,NaN,NaN,NaN,NaN,,0.0978981,1.2937943,0.42507434,0.98260367,0.0076497663,-0.18555714,-0.10491226,-0.80158734,-0.58860105,-0.15324292,0.59782875,-0.78684014,,NaN,NaN,NaN,NaN,NaN,NaN,NaN,NaN,NaN,NaN,NaN,NaN,,NaN,NaN,NaN,NaN,NaN,NaN,NaN,NaN,NaN,NaN,NaN,NaN,,NaN,NaN,NaN,NaN,NaN,NaN,NaN,,NaN,NaN,NaN,NaN,NaN,NaN,NaN,,-0.11676907194311563,-0.12780391613884978,0.09957687064,-0.11873210815548305,,-3.5464764e-05,-4.2915344e-06,4.7683716e-06,1.0,4.5374036e-05,3.4466386e-05,-4.5359135e-05,1.0,8.85129e-06,-3.4466386e-05,-8.821487e-06,1.0,433,1.349,0,1,0.555,False,-0.26154621174225356,0.9236002237258991
1.3521392680704594,17:45:18.349110,17:44:02.538258,0,,NaN,NaN,NaN,NaN,NaN,NaN,NaN,NaN,NaN,NaN,NaN,NaN,,NaN,NaN,NaN,NaN,NaN,NaN,NaN,NaN,NaN,NaN,NaN,NaN,,0.0978981,1.2937943,0.42507434,0.98260367,0.0076497663,-0.18555714,-0.10491226,-0.80158734,-0.58860105,-0.15324292,0.59782875,-0.78684014,,NaN,NaN,NaN,NaN,NaN,NaN,NaN,NaN,NaN,NaN,NaN,NaN,,NaN,NaN,NaN,NaN,NaN,NaN,NaN,NaN,NaN,NaN,NaN,NaN,,NaN,NaN,NaN,NaN,NaN,NaN,NaN,,NaN,NaN,NaN,NaN,NaN,NaN,NaN,,-0.11676907194311563,-0.12780391613884978,0.09957687064,-0.11873210815548305,,-3.5464764e-05,-4.2915344e-06,4.7683716e-06,1.0,4.5374036e-05,3.4466386e-05,-4.5359135e-05,1.0,8.85129e-06,-3.4466386e-05,-8.821487e-06,1.0,446,1.39,0,1,0.555,False,-0.2626781883941529,0.925579711957857
1.3971407080534846,17:45:18.393113,17:44:02.628409,0,,NaN,NaN,NaN,NaN,NaN,NaN,NaN,NaN,NaN,NaN,NaN,NaN,,NaN,NaN,NaN,NaN,NaN,NaN,NaN,NaN,NaN,NaN,NaN,NaN,,0.0978981,1.2937943,0.42507434,0.98260367,0.0076497663,-0.18555714,-0.10491226,-0.80158734,-0.58860105,-0.15324292,0.59782875,-0.78684014,,NaN,NaN,NaN,NaN,NaN,NaN,NaN,NaN,NaN,NaN,NaN,NaN,,NaN,NaN,NaN,NaN,NaN,NaN,NaN,NaN,NaN,NaN,NaN,NaN,,NaN,NaN,NaN,NaN,NaN,NaN,NaN,,NaN,NaN,NaN,NaN,NaN,NaN,NaN,,-0.11676907194311563,-0.12780391613884978,0.09957687064,-0.11873210815548305,,-3.5464764e-05,-4.2915344e-06,4.7683716e-06,1.0,4.5374036e-05,3.4466386e-05,-4.5359135e-05,1.0,8.85129e-06,-3.4466386e-05,-8.821487e-06,1.0,455,1.419,0,1,0.555,False,-0.2629164992682367,0.9252417505524009
1.4411690460983664,17:45:18.424063,17:44:02.628409,0,,NaN,NaN,NaN,NaN,NaN,NaN,NaN,NaN,NaN,NaN,NaN,NaN,,NaN,NaN,NaN,NaN,NaN,NaN,NaN,NaN,NaN,NaN,NaN,NaN,,0.0978981,1.2937943,0.42507434,0.98260367,0.0076497663,-0.18555714,-0.10491226,-0.80158734,-0.58860105,-0.15324292,0.59782875,-0.78684014,,NaN,NaN,NaN,NaN,NaN,NaN,NaN,NaN,NaN,NaN,NaN,NaN,,NaN,NaN,NaN,NaN,NaN,NaN,NaN,NaN,NaN,NaN,NaN,NaN,,NaN,NaN,NaN,NaN,NaN,NaN,NaN,,NaN,NaN,NaN,NaN,NaN,NaN,NaN,,-0.11676907194311563,-0.12780391613884978,0.09957687064,-0.11873210815548305,,-3.5464764e-05,-4.2915344e-06,4.7683716e-06,1.0,4.5374036e-05,3.4466386e-05,-4.5359135e-05,1.0,8.85129e-06,-3.4466386e-05,-8.821487e-06,1.0,468,1.46,0,1,0.555,False,-0.26243987752006825,0.9291041666147577
1.4720979339908808,17:45:18.461677,17:44:02.703787,0,,NaN,NaN,NaN,NaN,NaN,NaN,NaN,NaN,NaN,NaN,NaN,NaN,,NaN,NaN,NaN,NaN,NaN,NaN,NaN,NaN,NaN,NaN,NaN,NaN,,0.0978981,1.2937943,0.42507434,0.98260367,0.0076497663,-0.18555714,-0.10491226,-0.80158734,-0.58860105,-0.15324292,0.59782875,-0.78684014,,NaN,NaN,NaN,NaN,NaN,NaN,NaN,NaN,NaN,NaN,NaN,NaN,,NaN,NaN,NaN,NaN,NaN,NaN,NaN,NaN,NaN,NaN,NaN,NaN,,NaN,NaN,NaN,NaN,NaN,NaN,NaN,,NaN,NaN,NaN,NaN,NaN,NaN,NaN,,-0.11676907194311563,-0.12780391613884978,0.09957687064,-0.11873210815548305,,-3.5464764e-05,-4.2915344e-06,4.7683716e-06,1.0,4.5374036e-05,3.4466386e-05,-4.5359135e-05,1.0,8.85129e-06,-3.4466386e-05,-8.821487e-06,1.0,481,1.501,0,1,0.555,False,-0.2626186106756321,0.9315664568545099
1.5097289681434631,17:45:18.499914,17:44:02.703787,0,,NaN,NaN,NaN,NaN,NaN,NaN,NaN,NaN,NaN,NaN,NaN,NaN,,NaN,NaN,NaN,NaN,NaN,NaN,NaN,NaN,NaN,NaN,NaN,NaN,,0.0978981,1.2937943,0.42507434,0.98260367,0.0076497663,-0.18555714,-0.10491226,-0.80158734,-0.58860105,-0.15324292,0.59782875,-0.78684014,,NaN,NaN,NaN,NaN,NaN,NaN,NaN,NaN,NaN,NaN,NaN,NaN,,NaN,NaN,NaN,NaN,NaN,NaN,NaN,NaN,NaN,NaN,NaN,NaN,,NaN,NaN,NaN,NaN,NaN,NaN,NaN,,NaN,NaN,NaN,NaN,NaN,NaN,NaN,,-0.11676907194311563,-0.12780391613884978,0.09957687064,-0.11873210815548305,,-3.5464764e-05,-4.2915344e-06,4.7683716e-06,1.0,4.5374036e-05,3.4466386e-05,-4.5359135e-05,1.0,8.85129e-06,-3.4466386e-05,-8.821487e-06,1.0,490,1.53,0,1,0.555,False,-0.262797343831195,0.9316147370552894
1.547965977108106,17:45:18.533096,17:44:02.703787,0,,NaN,NaN,NaN,NaN,NaN,NaN,NaN,NaN,NaN,NaN,NaN,NaN,,NaN,NaN,NaN,NaN,NaN,NaN,NaN,NaN,NaN,NaN,NaN,NaN,,0.0978981,1.2937943,0.42507434,0.98260367,0.0076497663,-0.18555714,-0.10491226,-0.80158734,-0.58860105,-0.15324292,0.59782875,-0.78684014,,NaN,NaN,NaN,NaN,NaN,NaN,NaN,NaN,NaN,NaN,NaN,NaN,,NaN,NaN,NaN,NaN,NaN,NaN,NaN,NaN,NaN,NaN,NaN,NaN,,NaN,NaN,NaN,NaN,NaN,NaN,NaN,,NaN,NaN,NaN,NaN,NaN,NaN,NaN,,-0.11676907194311563,-0.12780391613884978,0.09957687064,-0.11873210815548305,,-3.5464764e-05,-4.2915344e-06,4.7683716e-06,1.0,4.5374036e-05,3.4466386e-05,-4.5359135e-05,1.0,8.85129e-06,-3.4466386e-05,-8.821487e-06,1.0,503,1.571,0,1,0.555,False,-0.26297607698675796,0.9310353746459357
1.5811418739613146,17:45:18.570811,17:44:02.808050,0,,NaN,NaN,NaN,NaN,NaN,NaN,NaN,NaN,NaN,NaN,NaN,NaN,,NaN,NaN,NaN,NaN,NaN,NaN,NaN,NaN,NaN,NaN,NaN,NaN,,0.0978981,1.2937943,0.42507434,0.98260367,0.0076497663,-0.18555714,-0.10491226,-0.80158734,-0.58860105,-0.15324292,0.59782875,-0.78684014,,NaN,NaN,NaN,NaN,NaN,NaN,NaN,NaN,NaN,NaN,NaN,NaN,,NaN,NaN,NaN,NaN,NaN,NaN,NaN,NaN,NaN,NaN,NaN,NaN,,NaN,NaN,NaN,NaN,NaN,NaN,NaN,,NaN,NaN,NaN,NaN,NaN,NaN,NaN,,-0.11676907194311563,-0.12780391613884978,0.09957687064,-0.11873210815548305,,-3.5464764e-05,-4.2915344e-06,4.7683716e-06,1.0,4.5374036e-05,3.4466386e-05,-4.5359135e-05,1.0,8.85129e-06,-3.4466386e-05,-8.821487e-06,1.0,516,1.612,0,1,0.555,False,-0.2632143878608417,0.9290558864139782
1.618858234025538,17:45:18.615903,17:44:02.808050,0,,NaN,NaN,NaN,NaN,NaN,NaN,NaN,NaN,NaN,NaN,NaN,NaN,,NaN,NaN,NaN,NaN,NaN,NaN,NaN,NaN,NaN,NaN,NaN,NaN,,0.0978981,1.2937943,0.42507434,0.98260367,0.0076497663,-0.18555714,-0.10491226,-0.80158734,-0.58860105,-0.15324292,0.59782875,-0.78684014,,NaN,NaN,NaN,NaN,NaN,NaN,NaN,NaN,NaN,NaN,NaN,NaN,,NaN,NaN,NaN,NaN,NaN,NaN,NaN,NaN,NaN,NaN,NaN,NaN,,NaN,NaN,NaN,NaN,NaN,NaN,NaN,,NaN,NaN,NaN,NaN,NaN,NaN,NaN,,-0.11676907194311563,-0.12780391613884978,0.09957687064,-0.11873210815548305,,-3.5464764e-05,-4.2915344e-06,4.7683716e-06,1.0,4.5374036e-05,3.4466386e-05,-4.5359135e-05,1.0,8.85129e-06,-3.4466386e-05,-8.821487e-06,1.0,525,1.64,0,1,0.555,False,-0.2626186106756321,0.9295386884217725
1.6639615730382502,17:45:18.642435,17:44:02.808050,0,,NaN,NaN,NaN,NaN,NaN,NaN,NaN,NaN,NaN,NaN,NaN,NaN,,NaN,NaN,NaN,NaN,NaN,NaN,NaN,NaN,NaN,NaN,NaN,NaN,,0.0978981,1.2937943,0.42507434,0.98260367,0.0076497663,-0.18555714,-0.10491226,-0.80158734,-0.58860105,-0.15324292,0.59782875,-0.78684014,,NaN,NaN,NaN,NaN,NaN,NaN,NaN,NaN,NaN,NaN,NaN,NaN,,NaN,NaN,NaN,NaN,NaN,NaN,NaN,NaN,NaN,NaN,NaN,NaN,,NaN,NaN,NaN,NaN,NaN,NaN,NaN,,NaN,NaN,NaN,NaN,NaN,NaN,NaN,,-0.11676907194311563,-0.12780391613884978,0.09957687064,-0.11873210815548305,,-3.5464764e-05,-4.2915344e-06,4.7683716e-06,1.0,4.5374036e-05,3.4466386e-05,-4.5359135e-05,1.0,8.85129e-06,-3.4466386e-05,-8.821487e-06,1.0,538,1.681,0,1,0.555,False,-0.2620824112089424,0.9304077320358028
1.690377847990021,17:45:18.686032,17:44:02.949962,0,,NaN,NaN,NaN,NaN,NaN,NaN,NaN,NaN,NaN,NaN,NaN,NaN,,NaN,NaN,NaN,NaN,NaN,NaN,NaN,NaN,NaN,NaN,NaN,NaN,,0.0978981,1.2937943,0.42507434,0.98260367,0.0076497663,-0.18555714,-0.10491226,-0.80158734,-0.58860105,-0.15324292,0.59782875,-0.78684014,,NaN,NaN,NaN,NaN,NaN,NaN,NaN,NaN,NaN,NaN,NaN,NaN,,NaN,NaN,NaN,NaN,NaN,NaN,NaN,NaN,NaN,NaN,NaN,NaN,,NaN,NaN,NaN,NaN,NaN,NaN,NaN,,NaN,NaN,NaN,NaN,NaN,NaN,NaN,,-0.11676907194311563,-0.12780391613884978,0.09957687064,-0.11873210815548305,,-3.5464764e-05,-4.2915344e-06,4.7683716e-06,1.0,4.5374036e-05,3.4466386e-05,-4.5359135e-05,1.0,8.85129e-06,-3.4466386e-05,-8.821487e-06,1.0,551,1.722,0,1,0.555,False,-0.262797343831195,0.9326286212716584
1.734091968042776,17:45:18.722880,17:44:02.949962,0,,NaN,NaN,NaN,NaN,NaN,NaN,NaN,NaN,NaN,NaN,NaN,NaN,,NaN,NaN,NaN,NaN,NaN,NaN,NaN,NaN,NaN,NaN,NaN,NaN,,0.0978981,1.2937943,0.42507434,0.98260367,0.0076497663,-0.18555714,-0.10491226,-0.80158734,-0.58860105,-0.15324292,0.59782875,-0.78684014,,NaN,NaN,NaN,NaN,NaN,NaN,NaN,NaN,NaN,NaN,NaN,NaN,,NaN,NaN,NaN,NaN,NaN,NaN,NaN,NaN,NaN,NaN,NaN,NaN,,NaN,NaN,NaN,NaN,NaN,NaN,NaN,,NaN,NaN,NaN,NaN,NaN,NaN,NaN,,-0.11676907194311563,-0.12780391613884978,0.09957687064,-0.11873210815548305,,-3.5464764e-05,-4.2915344e-06,4.7683716e-06,1.0,4.5374036e-05,3.4466386e-05,-4.5359135e-05,1.0,8.85129e-06,-3.4466386e-05,-8.821487e-06,1.0,560,1.751,0,1,0.555,False,-0.2621419889274632,0.9372635205464861
1.7709289360791445,17:45:18.749930,17:44:02.949962,0,,NaN,NaN,NaN,NaN,NaN,NaN,NaN,NaN,NaN,NaN,NaN,NaN,,NaN,NaN,NaN,NaN,NaN,NaN,NaN,NaN,NaN,NaN,NaN,NaN,,0.0978981,1.2937943,0.42507434,0.98260367,0.0076497663,-0.18555714,-0.10491226,-0.80158734,-0.58860105,-0.15324292,0.59782875,-0.78684014,,NaN,NaN,NaN,NaN,NaN,NaN,NaN,NaN,NaN,NaN,NaN,NaN,,NaN,NaN,NaN,NaN,NaN,NaN,NaN,NaN,NaN,NaN,NaN,NaN,,NaN,NaN,NaN,NaN,NaN,NaN,NaN,,NaN,NaN,NaN,NaN,NaN,NaN,NaN,,-0.11676907194311563,-0.12780391613884978,0.09957687064,-0.11873210815548305,,-3.5464764e-05,-4.2915344e-06,4.7683716e-06,1.0,4.5374036e-05,3.4466386e-05,-4.5359135e-05,1.0,8.85129e-06,-3.4466386e-05,-8.821487e-06,1.0,573,1.792,0,1,0.555,False,-0.261427056305211,0.9409328158057253
1.79798668413423,17:45:18.789142,17:44:03.027510,0,,NaN,NaN,NaN,NaN,NaN,NaN,NaN,NaN,NaN,NaN,NaN,NaN,,NaN,NaN,NaN,NaN,NaN,NaN,NaN,NaN,NaN,NaN,NaN,NaN,,0.0978981,1.2937943,0.42507434,0.98260367,0.0076497663,-0.18555714,-0.10491226,-0.80158734,-0.58860105,-0.15324292,0.59782875,-0.78684014,,NaN,NaN,NaN,NaN,NaN,NaN,NaN,NaN,NaN,NaN,NaN,NaN,,NaN,NaN,NaN,NaN,NaN,NaN,NaN,NaN,NaN,NaN,NaN,NaN,,NaN,NaN,NaN,NaN,NaN,NaN,NaN,,NaN,NaN,NaN,NaN,NaN,NaN,NaN,,-0.11676907194311563,-0.12780391613884978,0.09957687064,-0.11873210815548305,,-3.5464764e-05,-4.2915344e-06,4.7683716e-06,1.0,4.5374036e-05,3.4466386e-05,-4.5359135e-05,1.0,8.85129e-06,-3.4466386e-05,-8.821487e-06,1.0,586,1.833,0,1,0.555,False,-0.2618441003348577,0.9439261882540513
1.837197721004486,17:45:18.830825,17:44:03.027510,0,,NaN,NaN,NaN,NaN,NaN,NaN,NaN,NaN,NaN,NaN,NaN,NaN,,NaN,NaN,NaN,NaN,NaN,NaN,NaN,NaN,NaN,NaN,NaN,NaN,,0.0978981,1.2937943,0.42507434,0.98260367,0.0076497663,-0.18555714,-0.10491226,-0.80158734,-0.58860105,-0.15324292,0.59782875,-0.78684014,,NaN,NaN,NaN,NaN,NaN,NaN,NaN,NaN,NaN,NaN,NaN,NaN,,NaN,NaN,NaN,NaN,NaN,NaN,NaN,NaN,NaN,NaN,NaN,NaN,,NaN,NaN,NaN,NaN,NaN,NaN,NaN,,NaN,NaN,NaN,NaN,NaN,NaN,NaN,,-0.11676907194311563,-0.12780391613884978,0.09957687064,-0.11873210815548305,,-3.5464764e-05,-4.2915344e-06,4.7683716e-06,1.0,4.5374036e-05,3.4466386e-05,-4.5359135e-05,1.0,8.85129e-06,-3.4466386e-05,-8.821487e-06,1.0,595,1.861,0,1,0.555,False,-0.26255903295711036,0.9446503912657433
1.8788804989308119,17:45:18.862732,17:44:03.027510,0,,NaN,NaN,NaN,NaN,NaN,NaN,NaN,NaN,NaN,NaN,NaN,NaN,,NaN,NaN,NaN,NaN,NaN,NaN,NaN,NaN,NaN,NaN,NaN,NaN,,0.0978981,1.2937943,0.42507434,0.98260367,0.0076497663,-0.18555714,-0.10491226,-0.80158734,-0.58860105,-0.15324292,0.59782875,-0.78684014,,NaN,NaN,NaN,NaN,NaN,NaN,NaN,NaN,NaN,NaN,NaN,NaN,,NaN,NaN,NaN,NaN,NaN,NaN,NaN,NaN,NaN,NaN,NaN,NaN,,NaN,NaN,NaN,NaN,NaN,NaN,NaN,,NaN,NaN,NaN,NaN,NaN,NaN,NaN,,-0.11676907194311563,-0.12780391613884978,0.09957687064,-0.11873210815548305,,-3.5464764e-05,-4.2915344e-06,4.7683716e-06,1.0,4.5374036e-05,3.4466386e-05,-4.5359135e-05,1.0,8.85129e-06,-3.4466386e-05,-8.821487e-06,1.0,608,1.902,0,1,0.555,False,-0.26112916771260597,0.9449400724704202
1.9107479569502175,17:45:18.900009,17:44:03.156778,0,,NaN,NaN,NaN,NaN,NaN,NaN,NaN,NaN,NaN,NaN,NaN,NaN,,NaN,NaN,NaN,NaN,NaN,NaN,NaN,NaN,NaN,NaN,NaN,NaN,,0.0978981,1.2937943,0.42507434,0.98260367,0.0076497663,-0.18555714,-0.10491226,-0.80158734,-0.58860105,-0.15324292,0.59782875,-0.78684014,,NaN,NaN,NaN,NaN,NaN,NaN,NaN,NaN,NaN,NaN,NaN,NaN,,NaN,NaN,NaN,NaN,NaN,NaN,NaN,NaN,NaN,NaN,NaN,NaN,,NaN,NaN,NaN,NaN,NaN,NaN,NaN,,NaN,NaN,NaN,NaN,NaN,NaN,NaN,,-0.11676907194311563,-0.12780391613884978,0.09957687064,-0.11873210815548305,,-3.5464764e-05,-4.2915344e-06,4.7683716e-06,1.0,4.5374036e-05,3.4466386e-05,-4.5359135e-05,1.0,8.85129e-06,-3.4466386e-05,-8.821487e-06,1.0,621,1.943,0,1,0.555,False,-0.2620824112089424,0.9446986714665229
1.948068907018751,17:45:18.945958,17:44:03.156778,0,,NaN,NaN,NaN,NaN,NaN,NaN,NaN,NaN,NaN,NaN,NaN,NaN,,NaN,NaN,NaN,NaN,NaN,NaN,NaN,NaN,NaN,NaN,NaN,NaN,,0.0978981,1.2937943,0.42507434,0.98260367,0.0076497663,-0.18555714,-0.10491226,-0.80158734,-0.58860105,-0.15324292,0.59782875,-0.78684014,,NaN,NaN,NaN,NaN,NaN,NaN,NaN,NaN,NaN,NaN,NaN,NaN,,NaN,NaN,NaN,NaN,NaN,NaN,NaN,NaN,NaN,NaN,NaN,NaN,,NaN,NaN,NaN,NaN,NaN,NaN,NaN,,NaN,NaN,NaN,NaN,NaN,NaN,NaN,,-0.11676907194311563,-0.12780391613884978,0.09957687064,-0.11873210815548305,,-3.5464764e-05,-4.2915344e-06,4.7683716e-06,1.0,4.5374036e-05,3.4466386e-05,-4.5359135e-05,1.0,8.85129e-06,-3.4466386e-05,-8.821487e-06,1.0,630,1.972,0,1,0.555,False,-0.2621419889274632,0.9444572704626255
1.9940082971006632,17:45:18.978292,17:44:03.156778,0,,NaN,NaN,NaN,NaN,NaN,NaN,NaN,NaN,NaN,NaN,NaN,NaN,,NaN,NaN,NaN,NaN,NaN,NaN,NaN,NaN,NaN,NaN,NaN,NaN,,0.0978981,1.2937943,0.42507434,0.98260367,0.0076497663,-0.18555714,-0.10491226,-0.80158734,-0.58860105,-0.15324292,0.59782875,-0.78684014,,NaN,NaN,NaN,NaN,NaN,NaN,NaN,NaN,NaN,NaN,NaN,NaN,,NaN,NaN,NaN,NaN,NaN,NaN,NaN,NaN,NaN,NaN,NaN,NaN,,NaN,NaN,NaN,NaN,NaN,NaN,NaN,,NaN,NaN,NaN,NaN,NaN,NaN,NaN,,-0.11676907194311563,-0.12780391613884978,0.09957687064,-0.11873210815548305,,-3.5464764e-05,-4.2915344e-06,4.7683716e-06,1.0,4.5374036e-05,3.4466386e-05,-4.5359135e-05,1.0,8.85129e-06,-3.4466386e-05,-8.821487e-06,1.0,643,2.013,0,1,0.555,False,-0.2620824112089424,0.9451331932735378
2.0263014431111515,17:45:19.016202,17:44:03.272250,0,,NaN,NaN,NaN,NaN,NaN,NaN,NaN,NaN,NaN,NaN,NaN,NaN,,NaN,NaN,NaN,NaN,NaN,NaN,NaN,NaN,NaN,NaN,NaN,NaN,,0.0978981,1.2937943,0.42507434,0.98260367,0.0076497663,-0.18555714,-0.10491226,-0.80158734,-0.58860105,-0.15324292,0.59782875,-0.78684014,,NaN,NaN,NaN,NaN,NaN,NaN,NaN,NaN,NaN,NaN,NaN,NaN,,NaN,NaN,NaN,NaN,NaN,NaN,NaN,NaN,NaN,NaN,NaN,NaN,,NaN,NaN,NaN,NaN,NaN,NaN,NaN,,NaN,NaN,NaN,NaN,NaN,NaN,NaN,,-0.11676907194311563,-0.12780391613884978,0.09957687064,-0.11873210815548305,,-3.5464764e-05,-4.2915344e-06,4.7683716e-06,1.0,4.5374036e-05,3.4466386e-05,-4.5359135e-05,1.0,8.85129e-06,-3.4466386e-05,-8.821487e-06,1.0,652,2.042,0,1,0.555,False,-0.26196325577190027,0.9451331932735378
2.064256567042321,17:45:19.047250,17:44:03.272250,0,,NaN,NaN,NaN,NaN,NaN,NaN,NaN,NaN,NaN,NaN,NaN,NaN,,NaN,NaN,NaN,NaN,NaN,NaN,NaN,NaN,NaN,NaN,NaN,NaN,,0.0978981,1.2937943,0.42507434,0.98260367,0.0076497663,-0.18555714,-0.10491226,-0.80158734,-0.58860105,-0.15324292,0.59782875,-0.78684014,,NaN,NaN,NaN,NaN,NaN,NaN,NaN,NaN,NaN,NaN,NaN,NaN,,NaN,NaN,NaN,NaN,NaN,NaN,NaN,NaN,NaN,NaN,NaN,NaN,,NaN,NaN,NaN,NaN,NaN,NaN,NaN,,NaN,NaN,NaN,NaN,NaN,NaN,NaN,,-0.11676907194311563,-0.12780391613884978,0.09957687064,-0.11873210815548305,,-3.5464764e-05,-4.2915344e-06,4.7683716e-06,1.0,4.5374036e-05,3.4466386e-05,-4.5359135e-05,1.0,8.85129e-06,-3.4466386e-05,-8.821487e-06,1.0,665,2.083,0,1,0.555,False,-0.2626186106756321,0.9459056764860092
2.095272574108094,17:45:19.085589,17:44:03.353032,0,,NaN,NaN,NaN,NaN,NaN,NaN,NaN,NaN,NaN,NaN,NaN,NaN,,NaN,NaN,NaN,NaN,NaN,NaN,NaN,NaN,NaN,NaN,NaN,NaN,,0.0978981,1.2937943,0.42507434,0.98260367,0.0076497663,-0.18555714,-0.10491226,-0.80158734,-0.58860105,-0.15324292,0.59782875,-0.78684014,,NaN,NaN,NaN,NaN,NaN,NaN,NaN,NaN,NaN,NaN,NaN,NaN,,NaN,NaN,NaN,NaN,NaN,NaN,NaN,NaN,NaN,NaN,NaN,NaN,,NaN,NaN,NaN,NaN,NaN,NaN,NaN,,NaN,NaN,NaN,NaN,NaN,NaN,NaN,,-0.11676907194311563,-0.12780391613884978,0.09957687064,-0.11873210815548305,,-3.5464764e-05,-4.2915344e-06,4.7683716e-06,1.0,4.5374036e-05,3.4466386e-05,-4.5359135e-05,1.0,8.85129e-06,-3.4466386e-05,-8.821487e-06,1.0,678,2.124,0,1,0.555,False,-0.2616653671792948,0.9461470774899066
2.133636257145554,17:45:19.122470,17:44:03.353032,0,,NaN,NaN,NaN,NaN,NaN,NaN,NaN,NaN,NaN,NaN,NaN,NaN,,NaN,NaN,NaN,NaN,NaN,NaN,NaN,NaN,NaN,NaN,NaN,NaN,,0.0978981,1.2937943,0.42507434,0.98260367,0.0076497663,-0.18555714,-0.10491226,-0.80158734,-0.58860105,-0.15324292,0.59782875,-0.78684014,,NaN,NaN,NaN,NaN,NaN,NaN,NaN,NaN,NaN,NaN,NaN,NaN,,NaN,NaN,NaN,NaN,NaN,NaN,NaN,NaN,NaN,NaN,NaN,NaN,,NaN,NaN,NaN,NaN,NaN,NaN,NaN,,NaN,NaN,NaN,NaN,NaN,NaN,NaN,,-0.11676907194311563,-0.12780391613884978,0.09957687064,-0.11873210815548305,,-3.5464764e-05,-4.2915344e-06,4.7683716e-06,1.0,4.5374036e-05,3.4466386e-05,-4.5359135e-05,1.0,8.85129e-06,-3.4466386e-05,-8.821487e-06,1.0,687,2.152,0,1,0.555,False,-0.2608908568385213,0.9459056764860092
2.1705275559797883,17:45:19.151751,17:44:03.353032,0,,NaN,NaN,NaN,NaN,NaN,NaN,NaN,NaN,NaN,NaN,NaN,NaN,,NaN,NaN,NaN,NaN,NaN,NaN,NaN,NaN,NaN,NaN,NaN,NaN,,0.0978981,1.2937943,0.42507434,0.98260367,0.0076497663,-0.18555714,-0.10491226,-0.80158734,-0.58860105,-0.15324292,0.59782875,-0.78684014,,NaN,NaN,NaN,NaN,NaN,NaN,NaN,NaN,NaN,NaN,NaN,NaN,,NaN,NaN,NaN,NaN,NaN,NaN,NaN,NaN,NaN,NaN,NaN,NaN,,NaN,NaN,NaN,NaN,NaN,NaN,NaN,,NaN,NaN,NaN,NaN,NaN,NaN,NaN,,-0.11676907194311563,-0.12780391613884978,0.09957687064,-0.11873210815548305,,-3.5464764e-05,-4.2915344e-06,4.7683716e-06,1.0,4.5374036e-05,3.4466386e-05,-4.5359135e-05,1.0,8.85129e-06,-3.4466386e-05,-8.821487e-06,1.0,700,2.193,0,1,0.555,False,-0.26148663402373185,0.9463401982930244
2.1997994519770145,17:45:19.194710,17:44:03.455514,0,,NaN,NaN,NaN,NaN,NaN,NaN,NaN,NaN,NaN,NaN,NaN,NaN,,NaN,NaN,NaN,NaN,NaN,NaN,NaN,NaN,NaN,NaN,NaN,NaN,,0.09793701,1.2937894,0.42507994,0.982598,0.0076065133,-0.18558891,-0.10496528,-0.80158776,-0.58859104,-0.15324292,0.59782875,-0.78684014,,NaN,NaN,NaN,NaN,NaN,NaN,NaN,NaN,NaN,NaN,NaN,NaN,,NaN,NaN,NaN,NaN,NaN,NaN,NaN,NaN,NaN,NaN,NaN,NaN,,NaN,NaN,NaN,NaN,NaN,NaN,NaN,,NaN,NaN,NaN,NaN,NaN,NaN,NaN,,-0.11676907194311563,-0.12780391613884978,0.09957687064,-0.11873210815548305,,2.4065375e-06,3.33786e-06,-4.053116e-06,1.0,2.913177e-06,2.2053719e-06,-2.9057264e-06,1.0,5.662441e-07,-2.2128224e-06,-5.662441e-07,1.0,713,2.234,0,1,0.555,False,-0.2626186106756321,0.9443607100610665
2.2427687139716,17:45:19.232870,17:44:03.455514,0,,NaN,NaN,NaN,NaN,NaN,NaN,NaN,NaN,NaN,NaN,NaN,NaN,,NaN,NaN,NaN,NaN,NaN,NaN,NaN,NaN,NaN,NaN,NaN,NaN,,0.09793701,1.2937894,0.42507994,0.982598,0.0076065133,-0.18558891,-0.10496528,-0.80158776,-0.58859104,-0.15324292,0.59782875,-0.78684014,,NaN,NaN,NaN,NaN,NaN,NaN,NaN,NaN,NaN,NaN,NaN,NaN,,NaN,NaN,NaN,NaN,NaN,NaN,NaN,NaN,NaN,NaN,NaN,NaN,,NaN,NaN,NaN,NaN,NaN,NaN,NaN,,NaN,NaN,NaN,NaN,NaN,NaN,NaN,,-0.11676907194311563,-0.12780391613884978,0.09957687064,-0.11873210815548305,,2.4065375e-06,3.33786e-06,-4.053116e-06,1.0,2.913177e-06,2.2053719e-06,-2.9057264e-06,1.0,5.662441e-07,-2.2128224e-06,-5.662441e-07,1.0,722,2.263,0,1,0.555,False,-0.26154621174225356,0.9432985456439182
2.2809037710539997,17:45:19.266723,17:44:03.529776,0,,NaN,NaN,NaN,NaN,NaN,NaN,NaN,NaN,NaN,NaN,NaN,NaN,,NaN,NaN,NaN,NaN,NaN,NaN,NaN,NaN,NaN,NaN,NaN,NaN,,0.09793701,1.2937894,0.42507994,0.982598,0.0076065133,-0.18558891,-0.10496528,-0.80158776,-0.58859104,-0.15324292,0.59782875,-0.78684014,,NaN,NaN,NaN,NaN,NaN,NaN,NaN,NaN,NaN,NaN,NaN,NaN,,NaN,NaN,NaN,NaN,NaN,NaN,NaN,NaN,NaN,NaN,NaN,NaN,,NaN,NaN,NaN,NaN,NaN,NaN,NaN,,NaN,NaN,NaN,NaN,NaN,NaN,NaN,,-0.11676907194311563,-0.12780391613884978,0.09957687064,-0.11873210815548305,,2.4065375e-06,3.33786e-06,-4.053116e-06,1.0,2.913177e-06,2.2053719e-06,-2.9057264e-06,1.0,5.662441e-07,-2.2128224e-06,-5.662441e-07,1.0,735,2.304,0,1,0.555,False,-0.26297607698675796,0.9421881010259909
2.3147790860384703,17:45:19.303002,17:44:03.529776,0,,NaN,NaN,NaN,NaN,NaN,NaN,NaN,NaN,NaN,NaN,NaN,NaN,,NaN,NaN,NaN,NaN,NaN,NaN,NaN,NaN,NaN,NaN,NaN,NaN,,0.09793701,1.2937894,0.42507994,0.982598,0.0076065133,-0.18558891,-0.10496528,-0.80158776,-0.58859104,-0.15324292,0.59782875,-0.78684014,,NaN,NaN,NaN,NaN,NaN,NaN,NaN,NaN,NaN,NaN,NaN,NaN,,NaN,NaN,NaN,NaN,NaN,NaN,NaN,NaN,NaN,NaN,NaN,NaN,,NaN,NaN,NaN,NaN,NaN,NaN,NaN,,NaN,NaN,NaN,NaN,NaN,NaN,NaN,,-0.11676907194311563,-0.12780391613884978,0.09957687064,-0.11873210815548305,,2.4065375e-06,3.33786e-06,-4.053116e-06,1.0,2.913177e-06,2.2053719e-06,-2.9057264e-06,1.0,5.662441e-07,-2.2128224e-06,-5.662441e-07,1.0,744,2.332,0,1,0.555,False,-0.26196325577190027,0.9420915406244319
2.3510595350526273,17:45:19.334253,17:44:03.529776,0,,NaN,NaN,NaN,NaN,NaN,NaN,NaN,NaN,NaN,NaN,NaN,NaN,,NaN,NaN,NaN,NaN,NaN,NaN,NaN,NaN,NaN,NaN,NaN,NaN,,0.09793701,1.2937894,0.42507994,0.982598,0.0076065133,-0.18558891,-0.10496528,-0.80158776,-0.58859104,-0.15324292,0.59782875,-0.78684014,,NaN,NaN,NaN,NaN,NaN,NaN,NaN,NaN,NaN,NaN,NaN,NaN,,NaN,NaN,NaN,NaN,NaN,NaN,NaN,NaN,NaN,NaN,NaN,NaN,,NaN,NaN,NaN,NaN,NaN,NaN,NaN,,NaN,NaN,NaN,NaN,NaN,NaN,NaN,,-0.11676907194311563,-0.12780391613884978,0.09957687064,-0.11873210815548305,,2.4065375e-06,3.33786e-06,-4.053116e-06,1.0,2.913177e-06,2.2053719e-06,-2.9057264e-06,1.0,5.662441e-07,-2.2128224e-06,-5.662441e-07,1.0,757,2.373,0,1,0.555,False,-0.26136747858668974,0.9421881010259909
2.3822756099980325,17:45:19.374633,17:44:03.610198,0,,NaN,NaN,NaN,NaN,NaN,NaN,NaN,NaN,NaN,NaN,NaN,NaN,,NaN,NaN,NaN,NaN,NaN,NaN,NaN,NaN,NaN,NaN,NaN,NaN,,0.09793701,1.2937894,0.42507994,0.982598,0.0076065133,-0.18558891,-0.10496528,-0.80158776,-0.58859104,-0.15324292,0.59782875,-0.78684014,,NaN,NaN,NaN,NaN,NaN,NaN,NaN,NaN,NaN,NaN,NaN,NaN,,NaN,NaN,NaN,NaN,NaN,NaN,NaN,NaN,NaN,NaN,NaN,NaN,,NaN,NaN,NaN,NaN,NaN,NaN,NaN,,NaN,NaN,NaN,NaN,NaN,NaN,NaN,,-0.11676907194311563,-0.12780391613884978,0.09957687064,-0.11873210815548305,,2.4065375e-06,3.33786e-06,-4.053116e-06,1.0,2.913177e-06,2.2053719e-06,-2.9057264e-06,1.0,5.662441e-07,-2.2128224e-06,-5.662441e-07,1.0,766,2.402,0,1,0.555,False,-0.262797343831195,0.9419467000220938
2.422619904158637,17:45:19.400153,17:44:03.610198,0,,NaN,NaN,NaN,NaN,NaN,NaN,NaN,NaN,NaN,NaN,NaN,NaN,,NaN,NaN,NaN,NaN,NaN,NaN,NaN,NaN,NaN,NaN,NaN,NaN,,0.09793701,1.2937894,0.42507994,0.982598,0.0076065133,-0.18558891,-0.10496528,-0.80158776,-0.58859104,-0.15324292,0.59782875,-0.78684014,,NaN,NaN,NaN,NaN,NaN,NaN,NaN,NaN,NaN,NaN,NaN,NaN,,NaN,NaN,NaN,NaN,NaN,NaN,NaN,NaN,NaN,NaN,NaN,NaN,,NaN,NaN,NaN,NaN,NaN,NaN,NaN,,NaN,NaN,NaN,NaN,NaN,NaN,NaN,,-0.11676907194311563,-0.12780391613884978,0.09957687064,-0.11873210815548305,,2.4065375e-06,3.33786e-06,-4.053116e-06,1.0,2.913177e-06,2.2053719e-06,-2.9057264e-06,1.0,5.662441e-07,-2.2128224e-06,-5.662441e-07,1.0,779,2.443,0,1,0.555,False,-0.26249945523859,0.9416570188174167
2.4482116219587624,17:45:19.444609,17:44:03.686648,0,,NaN,NaN,NaN,NaN,NaN,NaN,NaN,NaN,NaN,NaN,NaN,NaN,,NaN,NaN,NaN,NaN,NaN,NaN,NaN,NaN,NaN,NaN,NaN,NaN,,0.09793701,1.2937894,0.42507994,0.982598,0.0076065133,-0.18558891,-0.10496528,-0.80158776,-0.58859104,-0.15324292,0.59782875,-0.78684014,,NaN,NaN,NaN,NaN,NaN,NaN,NaN,NaN,NaN,NaN,NaN,NaN,,NaN,NaN,NaN,NaN,NaN,NaN,NaN,NaN,NaN,NaN,NaN,NaN,,NaN,NaN,NaN,NaN,NaN,NaN,NaN,,NaN,NaN,NaN,NaN,NaN,NaN,NaN,,-0.11676907194311563,-0.12780391613884978,0.09957687064,-0.11873210815548305,,2.4065375e-06,3.33786e-06,-4.053116e-06,1.0,2.913177e-06,2.2053719e-06,-2.9057264e-06,1.0,5.662441e-07,-2.2128224e-06,-5.662441e-07,1.0,792,2.484,0,1,0.555,False,-0.26196325577190027,0.9421398208252114
2.4926670170389116,17:45:19.486962,17:44:03.686648,0,,NaN,NaN,NaN,NaN,NaN,NaN,NaN,NaN,NaN,NaN,NaN,NaN,,NaN,NaN,NaN,NaN,NaN,NaN,NaN,NaN,NaN,NaN,NaN,NaN,,0.09793701,1.2937894,0.42507994,0.982598,0.0076065133,-0.18558891,-0.10496528,-0.80158776,-0.58859104,-0.15324292,0.59782875,-0.78684014,,NaN,NaN,NaN,NaN,NaN,NaN,NaN,NaN,NaN,NaN,NaN,NaN,,NaN,NaN,NaN,NaN,NaN,NaN,NaN,NaN,NaN,NaN,NaN,NaN,,NaN,NaN,NaN,NaN,NaN,NaN,NaN,,NaN,NaN,NaN,NaN,NaN,NaN,NaN,,-0.11676907194311563,-0.12780391613884978,0.09957687064,-0.11873210815548305,,2.4065375e-06,3.33786e-06,-4.053116e-06,1.0,2.913177e-06,2.2053719e-06,-2.9057264e-06,1.0,5.662441e-07,-2.2128224e-06,-5.662441e-07,1.0,801,2.513,0,1,0.555,False,-0.26196325577190027,0.9414638980142991
2.5350208489689976,17:45:19.517498,17:44:03.764294,0,,NaN,NaN,NaN,NaN,NaN,NaN,NaN,NaN,NaN,NaN,NaN,NaN,,NaN,NaN,NaN,NaN,NaN,NaN,NaN,NaN,NaN,NaN,NaN,NaN,,0.09793701,1.2937894,0.42507994,0.982598,0.0076065133,-0.18558891,-0.10496528,-0.80158776,-0.58859104,-0.15324292,0.59782875,-0.78684014,,NaN,NaN,NaN,NaN,NaN,NaN,NaN,NaN,NaN,NaN,NaN,NaN,,NaN,NaN,NaN,NaN,NaN,NaN,NaN,NaN,NaN,NaN,NaN,NaN,,NaN,NaN,NaN,NaN,NaN,NaN,NaN,,NaN,NaN,NaN,NaN,NaN,NaN,NaN,,-0.11676907194311563,-0.12780391613884978,0.09957687064,-0.11873210815548305,,2.4065375e-06,3.33786e-06,-4.053116e-06,1.0,2.913177e-06,2.2053719e-06,-2.9057264e-06,1.0,5.662441e-07,-2.2128224e-06,-5.662441e-07,1.0,814,2.554,0,1,0.555,False,-0.2626186106756321,0.9414638980142991
2.565549672115594,17:45:19.555845,17:44:03.764294,0,,NaN,NaN,NaN,NaN,NaN,NaN,NaN,NaN,NaN,NaN,NaN,NaN,,NaN,NaN,NaN,NaN,NaN,NaN,NaN,NaN,NaN,NaN,NaN,NaN,,0.09793701,1.2937894,0.42507994,0.982598,0.0076065133,-0.18558891,-0.10496528,-0.80158776,-0.58859104,-0.15324292,0.59782875,-0.78684014,,NaN,NaN,NaN,NaN,NaN,NaN,NaN,NaN,NaN,NaN,NaN,NaN,,NaN,NaN,NaN,NaN,NaN,NaN,NaN,NaN,NaN,NaN,NaN,NaN,,NaN,NaN,NaN,NaN,NaN,NaN,NaN,,NaN,NaN,NaN,NaN,NaN,NaN,NaN,,-0.11676907194311563,-0.12780391613884978,0.09957687064,-0.11873210815548305,,2.4065375e-06,3.33786e-06,-4.053116e-06,1.0,2.913177e-06,2.2053719e-06,-2.9057264e-06,1.0,5.662441e-07,-2.2128224e-06,-5.662441e-07,1.0,823,2.582,0,1,0.555,False,-0.26160578946077395,0.9377946027550599
2.6038560341112316,17:45:19.586305,17:44:03.837831,0,,NaN,NaN,NaN,NaN,NaN,NaN,NaN,NaN,NaN,NaN,NaN,NaN,,NaN,NaN,NaN,NaN,NaN,NaN,NaN,NaN,NaN,NaN,NaN,NaN,,0.09793701,1.2937894,0.42507994,0.982598,0.0076065133,-0.18558891,-0.10496528,-0.80158776,-0.58859104,-0.15324292,0.59782875,-0.78684014,,NaN,NaN,NaN,NaN,NaN,NaN,NaN,NaN,NaN,NaN,NaN,NaN,,NaN,NaN,NaN,NaN,NaN,NaN,NaN,NaN,NaN,NaN,NaN,NaN,,NaN,NaN,NaN,NaN,NaN,NaN,NaN,,NaN,NaN,NaN,NaN,NaN,NaN,NaN,,-0.11676907194311563,-0.12780391613884978,0.09957687064,-0.11873210815548305,,2.4065375e-06,3.33786e-06,-4.053116e-06,1.0,2.913177e-06,2.2053719e-06,-2.9057264e-06,1.0,5.662441e-07,-2.2128224e-06,-5.662441e-07,1.0,836,2.623,0,1,0.555,False,-0.26202283349042155,0.9354771531176462
2.6343325071502477,17:45:19.626006,17:44:03.837831,0,,NaN,NaN,NaN,NaN,NaN,NaN,NaN,NaN,NaN,NaN,NaN,NaN,,NaN,NaN,NaN,NaN,NaN,NaN,NaN,NaN,NaN,NaN,NaN,NaN,,0.09793701,1.2937894,0.42507994,0.982598,0.0076065133,-0.18558891,-0.10496528,-0.80158776,-0.58859104,-0.15324292,0.59782875,-0.78684014,,NaN,NaN,NaN,NaN,NaN,NaN,NaN,NaN,NaN,NaN,NaN,NaN,,NaN,NaN,NaN,NaN,NaN,NaN,NaN,NaN,NaN,NaN,NaN,NaN,,NaN,NaN,NaN,NaN,NaN,NaN,NaN,,NaN,NaN,NaN,NaN,NaN,NaN,NaN,,-0.11676907194311563,-0.12780391613884978,0.09957687064,-0.11873210815548305,,2.4065375e-06,3.33786e-06,-4.053116e-06,1.0,2.913177e-06,2.2053719e-06,-2.9057264e-06,1.0,5.662441e-07,-2.2128224e-06,-5.662441e-07,1.0,849,2.664,0,1,0.555,False,-0.2622015666459845,0.9348012303067335
2.67406357312575,17:45:19.667203,17:44:03.917865,0,,NaN,NaN,NaN,NaN,NaN,NaN,NaN,NaN,NaN,NaN,NaN,NaN,,NaN,NaN,NaN,NaN,NaN,NaN,NaN,NaN,NaN,NaN,NaN,NaN,,0.09793701,1.2937894,0.42507994,0.982598,0.0076065133,-0.18558891,-0.10496528,-0.80158776,-0.58859104,-0.15324292,0.59782875,-0.78684014,,NaN,NaN,NaN,NaN,NaN,NaN,NaN,NaN,NaN,NaN,NaN,NaN,,NaN,NaN,NaN,NaN,NaN,NaN,NaN,NaN,NaN,NaN,NaN,NaN,,NaN,NaN,NaN,NaN,NaN,NaN,NaN,,NaN,NaN,NaN,NaN,NaN,NaN,NaN,,-0.11676907194311563,-0.12780391613884978,0.09957687064,-0.11873210815548305,,2.4065375e-06,3.33786e-06,-4.053116e-06,1.0,2.913177e-06,2.2053719e-06,-2.9057264e-06,1.0,5.662441e-07,-2.2128224e-06,-5.662441e-07,1.0,858,2.693,0,1,0.555,False,-0.2618441003348577,0.9348977907082925
2.7152425311505795,17:45:19.696948,17:44:03.917865,0,,NaN,NaN,NaN,NaN,NaN,NaN,NaN,NaN,NaN,NaN,NaN,NaN,,NaN,NaN,NaN,NaN,NaN,NaN,NaN,NaN,NaN,NaN,NaN,NaN,,0.09793701,1.2937894,0.42507994,0.982598,0.0076065133,-0.18558891,-0.10496528,-0.80158776,-0.58859104,-0.15324292,0.59782875,-0.78684014,,NaN,NaN,NaN,NaN,NaN,NaN,NaN,NaN,NaN,NaN,NaN,NaN,,NaN,NaN,NaN,NaN,NaN,NaN,NaN,NaN,NaN,NaN,NaN,NaN,,NaN,NaN,NaN,NaN,NaN,NaN,NaN,,NaN,NaN,NaN,NaN,NaN,NaN,NaN,,-0.11676907194311563,-0.12780391613884978,0.09957687064,-0.11873210815548305,,2.4065375e-06,3.33786e-06,-4.053116e-06,1.0,2.913177e-06,2.2053719e-06,-2.9057264e-06,1.0,5.662441e-07,-2.2128224e-06,-5.662441e-07,1.0,871,2.734,0,1,0.555,False,-0.2626186106756321,0.9346081095036158
2.744997353060171,17:45:19.735766,17:44:03.994115,0,,NaN,NaN,NaN,NaN,NaN,NaN,NaN,NaN,NaN,NaN,NaN,NaN,,NaN,NaN,NaN,NaN,NaN,NaN,NaN,NaN,NaN,NaN,NaN,NaN,,0.09793701,1.2937894,0.42507994,0.982598,0.0076065133,-0.18558891,-0.10496528,-0.80158776,-0.58859104,-0.15324292,0.59782875,-0.78684014,,NaN,NaN,NaN,NaN,NaN,NaN,NaN,NaN,NaN,NaN,NaN,NaN,,NaN,NaN,NaN,NaN,NaN,NaN,NaN,NaN,NaN,NaN,NaN,NaN,,NaN,NaN,NaN,NaN,NaN,NaN,NaN,,NaN,NaN,NaN,NaN,NaN,NaN,NaN,,-0.11676907194311563,-0.12780391613884978,0.09957687064,-0.11873210815548305,,2.4065375e-06,3.33786e-06,-4.053116e-06,1.0,2.913177e-06,2.2053719e-06,-2.9057264e-06,1.0,5.662441e-07,-2.2128224e-06,-5.662441e-07,1.0,880,2.763,0,1,0.555,False,-0.26154621174225356,0.9351874719129696
2.783804493956268,17:45:19.765195,17:44:03.994115,0,,NaN,NaN,NaN,NaN,NaN,NaN,NaN,NaN,NaN,NaN,NaN,NaN,,NaN,NaN,NaN,NaN,NaN,NaN,NaN,NaN,NaN,NaN,NaN,NaN,,0.09793701,1.2937894,0.42507994,0.982598,0.0076065133,-0.18558891,-0.10496528,-0.80158776,-0.58859104,-0.15324292,0.59782875,-0.78684014,,NaN,NaN,NaN,NaN,NaN,NaN,NaN,NaN,NaN,NaN,NaN,NaN,,NaN,NaN,NaN,NaN,NaN,NaN,NaN,NaN,NaN,NaN,NaN,NaN,,NaN,NaN,NaN,NaN,NaN,NaN,NaN,,NaN,NaN,NaN,NaN,NaN,NaN,NaN,,-0.11676907194311563,-0.12780391613884978,0.09957687064,-0.11873210815548305,,2.4065375e-06,3.33786e-06,-4.053116e-06,1.0,2.913177e-06,2.2053719e-06,-2.9057264e-06,1.0,5.662441e-07,-2.2128224e-06,-5.662441e-07,1.0,893,2.804,0,1,0.555,False,-0.26190367805337944,0.9353323125153077
2.8132447451353073,17:45:19.805378,17:44:04.066695,0,,NaN,NaN,NaN,NaN,NaN,NaN,NaN,NaN,NaN,NaN,NaN,NaN,,NaN,NaN,NaN,NaN,NaN,NaN,NaN,NaN,NaN,NaN,NaN,NaN,,0.09793701,1.2937894,0.42507994,0.982598,0.0076065133,-0.18558891,-0.10496528,-0.80158776,-0.58859104,-0.15324292,0.59782875,-0.78684014,,NaN,NaN,NaN,NaN,NaN,NaN,NaN,NaN,NaN,NaN,NaN,NaN,,NaN,NaN,NaN,NaN,NaN,NaN,NaN,NaN,NaN,NaN,NaN,NaN,,NaN,NaN,NaN,NaN,NaN,NaN,NaN,,NaN,NaN,NaN,NaN,NaN,NaN,NaN,,-0.11676907194311563,-0.12780391613884978,0.09957687064,-0.11873210815548305,,2.4065375e-06,3.33786e-06,-4.053116e-06,1.0,2.913177e-06,2.2053719e-06,-2.9057264e-06,1.0,5.662441e-07,-2.2128224e-06,-5.662441e-07,1.0,906,2.844,0,1,0.555,False,-0.26196325577190027,0.9351874719129696
2.8533920301124454,17:45:19.847646,17:44:04.066695,0,,NaN,NaN,NaN,NaN,NaN,NaN,NaN,NaN,NaN,NaN,NaN,NaN,,NaN,NaN,NaN,NaN,NaN,NaN,NaN,NaN,NaN,NaN,NaN,NaN,,0.09793701,1.2937894,0.42507994,0.982598,0.0076065133,-0.18558891,-0.10496528,-0.80158776,-0.58859104,-0.15324292,0.59782875,-0.78684014,,NaN,NaN,NaN,NaN,NaN,NaN,NaN,NaN,NaN,NaN,NaN,NaN,,NaN,NaN,NaN,NaN,NaN,NaN,NaN,NaN,NaN,NaN,NaN,NaN,,NaN,NaN,NaN,NaN,NaN,NaN,NaN,,NaN,NaN,NaN,NaN,NaN,NaN,NaN,,-0.11676907194311563,-0.12780391613884978,0.09957687064,-0.11873210815548305,,2.4065375e-06,3.33786e-06,-4.053116e-06,1.0,2.913177e-06,2.2053719e-06,-2.9057264e-06,1.0,5.662441e-07,-2.2128224e-06,-5.662441e-07,1.0,915,2.873,0,1,0.555,False,-0.2623802998015474,0.9348012303067335
2.895683604059741,17:45:19.883622,17:44:04.147430,0,,NaN,NaN,NaN,NaN,NaN,NaN,NaN,NaN,NaN,NaN,NaN,NaN,,NaN,NaN,NaN,NaN,NaN,NaN,NaN,NaN,NaN,NaN,NaN,NaN,,0.09793701,1.2937894,0.42507994,0.982598,0.0076065133,-0.18558891,-0.10496528,-0.80158776,-0.58859104,-0.15324292,0.59782875,-0.78684014,,NaN,NaN,NaN,NaN,NaN,NaN,NaN,NaN,NaN,NaN,NaN,NaN,,NaN,NaN,NaN,NaN,NaN,NaN,NaN,NaN,NaN,NaN,NaN,NaN,,NaN,NaN,NaN,NaN,NaN,NaN,NaN,,NaN,NaN,NaN,NaN,NaN,NaN,NaN,,-0.11676907194311563,-0.12780391613884978,0.09957687064,-0.11873210815548305,,2.4065375e-06,3.33786e-06,-4.053116e-06,1.0,2.913177e-06,2.2053719e-06,-2.9057264e-06,1.0,5.662441e-07,-2.2128224e-06,-5.662441e-07,1.0,928,2.914,0,1,0.555,False,-0.26148663402373185,0.9348012303067335
2.9316810411401093,17:45:19.918345,17:44:04.147430,0,,NaN,NaN,NaN,NaN,NaN,NaN,NaN,NaN,NaN,NaN,NaN,NaN,,NaN,NaN,NaN,NaN,NaN,NaN,NaN,NaN,NaN,NaN,NaN,NaN,,0.09793701,1.2937894,0.42507994,0.982598,0.0076065133,-0.18558891,-0.10496528,-0.80158776,-0.58859104,-0.15324292,0.59782875,-0.78684014,,NaN,NaN,NaN,NaN,NaN,NaN,NaN,NaN,NaN,NaN,NaN,NaN,,NaN,NaN,NaN,NaN,NaN,NaN,NaN,NaN,NaN,NaN,NaN,NaN,,NaN,NaN,NaN,NaN,NaN,NaN,NaN,,NaN,NaN,NaN,NaN,NaN,NaN,NaN,,-0.11676907194311563,-0.12780391613884978,0.09957687064,-0.11873210815548305,,2.4065375e-06,3.33786e-06,-4.053116e-06,1.0,2.913177e-06,2.2053719e-06,-2.9057264e-06,1.0,5.662441e-07,-2.2128224e-06,-5.662441e-07,1.0,937,2.943,0,1,0.555,False,-0.2629164992682367,0.9356702739207639
2.966347771929577,17:45:19.950383,17:44:04.224729,0,,NaN,NaN,NaN,NaN,NaN,NaN,NaN,NaN,NaN,NaN,NaN,NaN,,NaN,NaN,NaN,NaN,NaN,NaN,NaN,NaN,NaN,NaN,NaN,NaN,,0.09793701,1.2937894,0.42507994,0.982598,0.0076065133,-0.18558891,-0.10496528,-0.80158776,-0.58859104,-0.15324292,0.59782875,-0.78684014,,NaN,NaN,NaN,NaN,NaN,NaN,NaN,NaN,NaN,NaN,NaN,NaN,,NaN,NaN,NaN,NaN,NaN,NaN,NaN,NaN,NaN,NaN,NaN,NaN,,NaN,NaN,NaN,NaN,NaN,NaN,NaN,,NaN,NaN,NaN,NaN,NaN,NaN,NaN,,-0.11676907194311563,-0.12780391613884978,0.09957687064,-0.11873210815548305,,2.4065375e-06,3.33786e-06,-4.053116e-06,1.0,2.913177e-06,2.2053719e-06,-2.9057264e-06,1.0,5.662441e-07,-2.2128224e-06,-5.662441e-07,1.0,950,2.984,0,1,0.555,False,-0.26285692154971585,0.9362013561293381
2.998407144099474,17:45:19.987665,17:44:04.224729,0,,NaN,NaN,NaN,NaN,NaN,NaN,NaN,NaN,NaN,NaN,NaN,NaN,,NaN,NaN,NaN,NaN,NaN,NaN,NaN,NaN,NaN,NaN,NaN,NaN,,0.09793701,1.2937894,0.42507994,0.982598,0.0076065133,-0.18558891,-0.10496528,-0.80158776,-0.58859104,-0.15324292,0.59782875,-0.78684014,,NaN,NaN,NaN,NaN,NaN,NaN,NaN,NaN,NaN,NaN,NaN,NaN,,NaN,NaN,NaN,NaN,NaN,NaN,NaN,NaN,NaN,NaN,NaN,NaN,,NaN,NaN,NaN,NaN,NaN,NaN,NaN,,NaN,NaN,NaN,NaN,NaN,NaN,NaN,,-0.11676907194311563,-0.12780391613884978,0.09957687064,-0.11873210815548305,,2.4065375e-06,3.33786e-06,-4.053116e-06,1.0,2.913177e-06,2.2053719e-06,-2.9057264e-06,1.0,5.662441e-07,-2.2128224e-06,-5.662441e-07,1.0,959,3.012,0,1,0.555,False,-0.2612483231496481,0.9372635205464861
3.0357020639348775,17:45:20.017136,17:44:04.224729,0,,NaN,NaN,NaN,NaN,NaN,NaN,NaN,NaN,NaN,NaN,NaN,NaN,,NaN,NaN,NaN,NaN,NaN,NaN,NaN,NaN,NaN,NaN,NaN,NaN,,0.09793701,1.2937894,0.42507994,0.982598,0.0076065133,-0.18558891,-0.10496528,-0.80158776,-0.58859104,-0.15324292,0.59782875,-0.78684014,,NaN,NaN,NaN,NaN,NaN,NaN,NaN,NaN,NaN,NaN,NaN,NaN,,NaN,NaN,NaN,NaN,NaN,NaN,NaN,NaN,NaN,NaN,NaN,NaN,,NaN,NaN,NaN,NaN,NaN,NaN,NaN,,NaN,NaN,NaN,NaN,NaN,NaN,NaN,,-0.11676907194311563,-0.12780391613884978,0.09957687064,-0.11873210815548305,,2.4065375e-06,3.33786e-06,-4.053116e-06,1.0,2.913177e-06,2.2053719e-06,-2.9057264e-06,1.0,5.662441e-07,-2.2128224e-06,-5.662441e-07,1.0,972,3.053,1,2,0.573,False,-0.261427056305211,0.9367807185386914
3.0651800979394466,17:45:20.054805,17:44:04.295924,0,,NaN,NaN,NaN,NaN,NaN,NaN,NaN,NaN,NaN,NaN,NaN,NaN,,NaN,NaN,NaN,NaN,NaN,NaN,NaN,NaN,NaN,NaN,NaN,NaN,,0.09793701,1.2937894,0.42507994,0.982598,0.0076065133,-0.18558891,-0.10496528,-0.80158776,-0.58859104,-0.15324292,0.59782875,-0.78684014,,NaN,NaN,NaN,NaN,NaN,NaN,NaN,NaN,NaN,NaN,NaN,NaN,,NaN,NaN,NaN,NaN,NaN,NaN,NaN,NaN,NaN,NaN,NaN,NaN,,NaN,NaN,NaN,NaN,NaN,NaN,NaN,,NaN,NaN,NaN,NaN,NaN,NaN,NaN,,-0.11676907194311563,-0.12780391613884978,0.09957687064,-0.11873210815548305,,2.4065375e-06,3.33786e-06,-4.053116e-06,1.0,2.913177e-06,2.2053719e-06,-2.9057264e-06,1.0,5.662441e-07,-2.2128224e-06,-5.662441e-07,1.0,981,3.082,1,2,0.602,False,-0.2618441003348577,0.9364427571332352
3.1028616919647902,17:45:20.087856,17:44:04.295924,0,,NaN,NaN,NaN,NaN,NaN,NaN,NaN,NaN,NaN,NaN,NaN,NaN,,NaN,NaN,NaN,NaN,NaN,NaN,NaN,NaN,NaN,NaN,NaN,NaN,,0.09793701,1.2937894,0.42507994,0.982598,0.0076065133,-0.18558891,-0.10496528,-0.80158776,-0.58859104,-0.15324292,0.59782875,-0.78684014,,NaN,NaN,NaN,NaN,NaN,NaN,NaN,NaN,NaN,NaN,NaN,NaN,,NaN,NaN,NaN,NaN,NaN,NaN,NaN,NaN,NaN,NaN,NaN,NaN,,NaN,NaN,NaN,NaN,NaN,NaN,NaN,,NaN,NaN,NaN,NaN,NaN,NaN,NaN,,-0.11676907194311563,-0.12780391613884978,0.09957687064,-0.11873210815548305,,2.4065375e-06,3.33786e-06,-4.053116e-06,1.0,2.913177e-06,2.2053719e-06,-2.9057264e-06,1.0,5.662441e-07,-2.2128224e-06,-5.662441e-07,1.0,990,3.111,1,2,0.631,False,-0.2618441003348577,0.9390016077745469
3.135883202077821,17:45:20.115009,17:44:04.371483,0,,NaN,NaN,NaN,NaN,NaN,NaN,NaN,NaN,NaN,NaN,NaN,NaN,,NaN,NaN,NaN,NaN,NaN,NaN,NaN,NaN,NaN,NaN,NaN,NaN,,0.09793701,1.2937894,0.42507994,0.982598,0.0076065133,-0.18558891,-0.10496528,-0.80158776,-0.58859104,-0.15324292,0.59782875,-0.78684014,,NaN,NaN,NaN,NaN,NaN,NaN,NaN,NaN,NaN,NaN,NaN,NaN,,NaN,NaN,NaN,NaN,NaN,NaN,NaN,NaN,NaN,NaN,NaN,NaN,,NaN,NaN,NaN,NaN,NaN,NaN,NaN,,NaN,NaN,NaN,NaN,NaN,NaN,NaN,,-0.11676907194311563,-0.12780391613884978,0.09957687064,-0.11873210815548305,,2.4065375e-06,3.33786e-06,-4.053116e-06,1.0,2.913177e-06,2.2053719e-06,-2.9057264e-06,1.0,5.662441e-07,-2.2128224e-06,-5.662441e-07,1.0,1003,3.152,1,2,0.672,False,-0.26112916771260597,0.9394361295815621
3.1630668020807207,17:45:20.152736,17:44:04.371483,0,,NaN,NaN,NaN,NaN,NaN,NaN,NaN,NaN,NaN,NaN,NaN,NaN,,NaN,NaN,NaN,NaN,NaN,NaN,NaN,NaN,NaN,NaN,NaN,NaN,,0.09793701,1.2937894,0.42507994,0.982598,0.0076065133,-0.18558891,-0.10496528,-0.80158776,-0.58859104,-0.15324292,0.59782875,-0.78684014,,NaN,NaN,NaN,NaN,NaN,NaN,NaN,NaN,NaN,NaN,NaN,NaN,,NaN,NaN,NaN,NaN,NaN,NaN,NaN,NaN,NaN,NaN,NaN,NaN,,NaN,NaN,NaN,NaN,NaN,NaN,NaN,,NaN,NaN,NaN,NaN,NaN,NaN,NaN,,-0.11676907194311563,-0.12780391613884978,0.09957687064,-0.11873210815548305,,2.4065375e-06,3.33786e-06,-4.053116e-06,1.0,2.913177e-06,2.2053719e-06,-2.9057264e-06,1.0,5.662441e-07,-2.2128224e-06,-5.662441e-07,1.0,1053,3.311,1,2,0.831,False,-0.26101001227556386,0.939049887975326
3.200793599942699,17:45:20.308424,17:44:04.557833,0,,NaN,NaN,NaN,NaN,NaN,NaN,NaN,NaN,NaN,NaN,NaN,NaN,,NaN,NaN,NaN,NaN,NaN,NaN,NaN,NaN,NaN,NaN,NaN,NaN,,0.09793701,1.2937894,0.42507994,0.982598,0.0076065133,-0.18558891,-0.10496528,-0.80158776,-0.58859104,-0.15324292,0.59782875,-0.78684014,,NaN,NaN,NaN,NaN,NaN,NaN,NaN,NaN,NaN,NaN,NaN,NaN,,NaN,NaN,NaN,NaN,NaN,NaN,NaN,NaN,NaN,NaN,NaN,NaN,,NaN,NaN,NaN,NaN,NaN,NaN,NaN,,NaN,NaN,NaN,NaN,NaN,NaN,NaN,,-0.11676907194311563,-0.12780391613884978,0.09957687064,-0.11873210815548305,,2.4065375e-06,3.33786e-06,-4.053116e-06,1.0,2.913177e-06,2.2053719e-06,-2.9057264e-06,1.0,5.662441e-07,-2.2128224e-06,-5.662441e-07,1.0,1062,3.34,1,2,0.86,False,-0.26327396557936344,0.9407879752033863
3.3564821530599147,17:45:20.346613,17:44:04.557833,0,,NaN,NaN,NaN,NaN,NaN,NaN,NaN,NaN,NaN,NaN,NaN,NaN,,NaN,NaN,NaN,NaN,NaN,NaN,NaN,NaN,NaN,NaN,NaN,NaN,,0.097946614,1.293791,0.42507353,0.9825973,0.0076008914,-0.18559304,-0.10497217,-0.8015878,-0.5885897,-0.15324292,0.59782875,-0.78684014,,NaN,NaN,NaN,NaN,NaN,NaN,NaN,NaN,NaN,NaN,NaN,NaN,,NaN,NaN,NaN,NaN,NaN,NaN,NaN,NaN,NaN,NaN,NaN,NaN,,NaN,NaN,NaN,NaN,NaN,NaN,NaN,,NaN,NaN,NaN,NaN,NaN,NaN,NaN,,-0.11676907194311563,-0.12780391613884978,0.09957687064,-0.11873210815548305,,1.2665987e-05,-1.7881393e-06,-1.66893e-06,1.0,-2.6002526e-06,-1.989305e-06,2.6151538e-06,1.0,-5.066395e-07,1.9744039e-06,5.066395e-07,1.0,1071,3.369,1,2,0.889,False,-0.26232072208302704,0.9393395691800026
3.394669911125675,17:45:20.373594,17:44:04.628919,0,,NaN,NaN,NaN,NaN,NaN,NaN,NaN,NaN,NaN,NaN,NaN,NaN,,NaN,NaN,NaN,NaN,NaN,NaN,NaN,NaN,NaN,NaN,NaN,NaN,,0.097946614,1.293791,0.42507353,0.9825973,0.0076008914,-0.18559304,-0.10497217,-0.8015878,-0.5885897,-0.15324292,0.59782875,-0.78684014,,NaN,NaN,NaN,NaN,NaN,NaN,NaN,NaN,NaN,NaN,NaN,NaN,,NaN,NaN,NaN,NaN,NaN,NaN,NaN,NaN,NaN,NaN,NaN,NaN,,NaN,NaN,NaN,NaN,NaN,NaN,NaN,,NaN,NaN,NaN,NaN,NaN,NaN,NaN,,-0.11676907194311563,-0.12780391613884978,0.09957687064,-0.11873210815548305,,1.2665987e-05,-1.7881393e-06,-1.66893e-06,1.0,-2.6002526e-06,-1.989305e-06,2.6151538e-06,1.0,-5.066395e-07,1.9744039e-06,5.066395e-07,1.0,1080,3.397,1,2,0.917,False,-0.26285692154971585,0.9387119265698698
3.4215712260920554,17:45:20.399850,17:44:04.628919,0,,NaN,NaN,NaN,NaN,NaN,NaN,NaN,NaN,NaN,NaN,NaN,NaN,,NaN,NaN,NaN,NaN,NaN,NaN,NaN,NaN,NaN,NaN,NaN,NaN,,0.097946614,1.293791,0.42507353,0.9825973,0.0076008914,-0.18559304,-0.10497217,-0.8015878,-0.5885897,-0.15324292,0.59782875,-0.78684014,,NaN,NaN,NaN,NaN,NaN,NaN,NaN,NaN,NaN,NaN,NaN,NaN,,NaN,NaN,NaN,NaN,NaN,NaN,NaN,NaN,NaN,NaN,NaN,NaN,,NaN,NaN,NaN,NaN,NaN,NaN,NaN,,NaN,NaN,NaN,NaN,NaN,NaN,NaN,,-0.11676907194311563,-0.12780391613884978,0.09957687064,-0.11873210815548305,,1.2665987e-05,-1.7881393e-06,-1.66893e-06,1.0,-2.6002526e-06,-1.989305e-06,2.6151538e-06,1.0,-5.066395e-07,1.9744039e-06,5.066395e-07,1.0,1089,3.426,0,2,0.933,False,-0.2623802998015474,0.9385188057667522
3.447879881132394,17:45:20.433491,17:44:04.628919,0,,NaN,NaN,NaN,NaN,NaN,NaN,NaN,NaN,NaN,NaN,NaN,NaN,,NaN,NaN,NaN,NaN,NaN,NaN,NaN,NaN,NaN,NaN,NaN,NaN,,0.097946614,1.293791,0.42507353,0.9825973,0.0076008914,-0.18559304,-0.10497217,-0.8015878,-0.5885897,-0.15324292,0.59782875,-0.78684014,,NaN,NaN,NaN,NaN,NaN,NaN,NaN,NaN,NaN,NaN,NaN,NaN,,NaN,NaN,NaN,NaN,NaN,NaN,NaN,NaN,NaN,NaN,NaN,NaN,,NaN,NaN,NaN,NaN,NaN,NaN,NaN,,NaN,NaN,NaN,NaN,NaN,NaN,NaN,,-0.11676907194311563,-0.12780391613884978,0.09957687064,-0.11873210815548305,,1.2665987e-05,-1.7881393e-06,-1.66893e-06,1.0,-2.6002526e-06,-1.989305e-06,2.6151538e-06,1.0,-5.066395e-07,1.9744039e-06,5.066395e-07,1.0,1098,3.455,0,2,0.933,False,-0.262797343831195,0.9383739651644136
3.481547412928194,17:45:20.458108,17:44:04.628919,0,,NaN,NaN,NaN,NaN,NaN,NaN,NaN,NaN,NaN,NaN,NaN,NaN,,NaN,NaN,NaN,NaN,NaN,NaN,NaN,NaN,NaN,NaN,NaN,NaN,,0.097946614,1.293791,0.42507353,0.9825973,0.0076008914,-0.18559304,-0.10497217,-0.8015878,-0.5885897,-0.15324292,0.59782875,-0.78684014,,NaN,NaN,NaN,NaN,NaN,NaN,NaN,NaN,NaN,NaN,NaN,NaN,,NaN,NaN,NaN,NaN,NaN,NaN,NaN,NaN,NaN,NaN,NaN,NaN,,NaN,NaN,NaN,NaN,NaN,NaN,NaN,,NaN,NaN,NaN,NaN,NaN,NaN,NaN,,-0.11676907194311563,-0.12780391613884978,0.09957687064,-0.11873210815548305,,1.2665987e-05,-1.7881393e-06,-1.66893e-06,1.0,-2.6002526e-06,-1.989305e-06,2.6151538e-06,1.0,-5.066395e-07,1.9744039e-06,5.066395e-07,1.0,1107,3.483,0,2,0.933,False,-0.26285692154971585,0.9388567671722083
3.5061654110904783,17:45:20.487634,17:44:04.628919,0,,NaN,NaN,NaN,NaN,NaN,NaN,NaN,NaN,NaN,NaN,NaN,NaN,,NaN,NaN,NaN,NaN,NaN,NaN,NaN,NaN,NaN,NaN,NaN,NaN,,0.097946614,1.293791,0.42507353,0.9825973,0.0076008914,-0.18559304,-0.10497217,-0.8015878,-0.5885897,-0.15324292,0.59782875,-0.78684014,,NaN,NaN,NaN,NaN,NaN,NaN,NaN,NaN,NaN,NaN,NaN,NaN,,NaN,NaN,NaN,NaN,NaN,NaN,NaN,NaN,NaN,NaN,NaN,NaN,,NaN,NaN,NaN,NaN,NaN,NaN,NaN,,NaN,NaN,NaN,NaN,NaN,NaN,NaN,,-0.11676907194311563,-0.12780391613884978,0.09957687064,-0.11873210815548305,,1.2665987e-05,-1.7881393e-06,-1.66893e-06,1.0,-2.6002526e-06,-1.989305e-06,2.6151538e-06,1.0,-5.066395e-07,1.9744039e-06,5.066395e-07,1.0,1116,3.512,0,2,0.933,False,-0.26190367805337944,0.9396292503846797
3.5356757040135562,17:45:20.517592,17:44:04.773465,0,,NaN,NaN,NaN,NaN,NaN,NaN,NaN,NaN,NaN,NaN,NaN,NaN,,NaN,NaN,NaN,NaN,NaN,NaN,NaN,NaN,NaN,NaN,NaN,NaN,,0.097946614,1.293791,0.42507353,0.9825973,0.0076008914,-0.18559304,-0.10497217,-0.8015878,-0.5885897,-0.15324292,0.59782875,-0.78684014,,NaN,NaN,NaN,NaN,NaN,NaN,NaN,NaN,NaN,NaN,NaN,NaN,,NaN,NaN,NaN,NaN,NaN,NaN,NaN,NaN,NaN,NaN,NaN,NaN,,NaN,NaN,NaN,NaN,NaN,NaN,NaN,,NaN,NaN,NaN,NaN,NaN,NaN,NaN,,-0.11676907194311563,-0.12780391613884978,0.09957687064,-0.11873210815548305,,1.2665987e-05,-1.7881393e-06,-1.66893e-06,1.0,-2.6002526e-06,-1.989305e-06,2.6151538e-06,1.0,-5.066395e-07,1.9744039e-06,5.066395e-07,1.0,1134,3.569,0,2,0.933,False,-0.26243987752006825,0.9395326899831207
3.5656326899770647,17:45:20.568773,17:44:04.773465,0,,NaN,NaN,NaN,NaN,NaN,NaN,NaN,NaN,NaN,NaN,NaN,NaN,,NaN,NaN,NaN,NaN,NaN,NaN,NaN,NaN,NaN,NaN,NaN,NaN,,0.097946614,1.293791,0.42507353,0.9825973,0.0076008914,-0.18559304,-0.10497217,-0.8015878,-0.5885897,-0.15324292,0.59782875,-0.78684014,,NaN,NaN,NaN,NaN,NaN,NaN,NaN,NaN,NaN,NaN,NaN,NaN,,NaN,NaN,NaN,NaN,NaN,NaN,NaN,NaN,NaN,NaN,NaN,NaN,,NaN,NaN,NaN,NaN,NaN,NaN,NaN,,NaN,NaN,NaN,NaN,NaN,NaN,NaN,,-0.11676907194311563,-0.12780391613884978,0.09957687064,-0.11873210815548305,,1.2665987e-05,-1.7881393e-06,-1.66893e-06,1.0,-2.6002526e-06,-1.989305e-06,2.6151538e-06,1.0,-5.066395e-07,1.9744039e-06,5.066395e-07,1.0,1143,3.598,0,2,0.933,False,-0.26196325577190027,0.9393878493807821
3.616817396134138,17:45:20.600413,17:44:04.858403,0,,NaN,NaN,NaN,NaN,NaN,NaN,NaN,NaN,NaN,NaN,NaN,NaN,,NaN,NaN,NaN,NaN,NaN,NaN,NaN,NaN,NaN,NaN,NaN,NaN,,0.097946614,1.293791,0.42507353,0.9825973,0.0076008914,-0.18559304,-0.10497217,-0.8015878,-0.5885897,-0.15324292,0.59782875,-0.78684014,,NaN,NaN,NaN,NaN,NaN,NaN,NaN,NaN,NaN,NaN,NaN,NaN,,NaN,NaN,NaN,NaN,NaN,NaN,NaN,NaN,NaN,NaN,NaN,NaN,,NaN,NaN,NaN,NaN,NaN,NaN,NaN,,NaN,NaN,NaN,NaN,NaN,NaN,NaN,,-0.11676907194311563,-0.12780391613884978,0.09957687064,-0.11873210815548305,,1.2665987e-05,-1.7881393e-06,-1.66893e-06,1.0,-2.6002526e-06,-1.989305e-06,2.6151538e-06,1.0,-5.066395e-07,1.9744039e-06,5.066395e-07,1.0,1152,3.627,0,2,0.933,False,-0.2616653671792948,0.9385188057667522
3.6484553690534085,17:45:20.630226,17:44:04.858403,0,,NaN,NaN,NaN,NaN,NaN,NaN,NaN,NaN,NaN,NaN,NaN,NaN,,NaN,NaN,NaN,NaN,NaN,NaN,NaN,NaN,NaN,NaN,NaN,NaN,,0.097946614,1.293791,0.42507353,0.9825973,0.0076008914,-0.18559304,-0.10497217,-0.8015878,-0.5885897,-0.15324292,0.59782875,-0.78684014,,NaN,NaN,NaN,NaN,NaN,NaN,NaN,NaN,NaN,NaN,NaN,NaN,,NaN,NaN,NaN,NaN,NaN,NaN,NaN,NaN,NaN,NaN,NaN,NaN,,NaN,NaN,NaN,NaN,NaN,NaN,NaN,,NaN,NaN,NaN,NaN,NaN,NaN,NaN,,-0.11676907194311563,-0.12780391613884978,0.09957687064,-0.11873210815548305,,1.2665987e-05,-1.7881393e-06,-1.66893e-06,1.0,-2.6002526e-06,-1.989305e-06,2.6151538e-06,1.0,-5.066395e-07,1.9744039e-06,5.066395e-07,1.0,1161,3.655,0,2,0.933,False,-0.260652545964438,0.9381325641605165
3.6782742340583354,17:45:20.660259,17:44:04.929035,0,,NaN,NaN,NaN,NaN,NaN,NaN,NaN,NaN,NaN,NaN,NaN,NaN,,NaN,NaN,NaN,NaN,NaN,NaN,NaN,NaN,NaN,NaN,NaN,NaN,,0.097946614,1.293791,0.42507353,0.9825973,0.0076008914,-0.18559304,-0.10497217,-0.8015878,-0.5885897,-0.15324292,0.59782875,-0.78684014,,NaN,NaN,NaN,NaN,NaN,NaN,NaN,NaN,NaN,NaN,NaN,NaN,,NaN,NaN,NaN,NaN,NaN,NaN,NaN,NaN,NaN,NaN,NaN,NaN,,NaN,NaN,NaN,NaN,NaN,NaN,NaN,,NaN,NaN,NaN,NaN,NaN,NaN,NaN,,-0.11676907194311563,-0.12780391613884978,0.09957687064,-0.11873210815548305,,1.2665987e-05,-1.7881393e-06,-1.66893e-06,1.0,-2.6002526e-06,-1.989305e-06,2.6151538e-06,1.0,-5.066395e-07,1.9744039e-06,5.066395e-07,1.0,1170,3.684,0,2,0.933,False,-0.2622015666459845,0.9381325641605165
3.7082349590491503,17:45:20.692127,17:44:04.929035,0,,NaN,NaN,NaN,NaN,NaN,NaN,NaN,NaN,NaN,NaN,NaN,NaN,,NaN,NaN,NaN,NaN,NaN,NaN,NaN,NaN,NaN,NaN,NaN,NaN,,0.097946614,1.293791,0.42507353,0.9825973,0.0076008914,-0.18559304,-0.10497217,-0.8015878,-0.5885897,-0.15324292,0.59782875,-0.78684014,,NaN,NaN,NaN,NaN,NaN,NaN,NaN,NaN,NaN,NaN,NaN,NaN,,NaN,NaN,NaN,NaN,NaN,NaN,NaN,NaN,NaN,NaN,NaN,NaN,,NaN,NaN,NaN,NaN,NaN,NaN,NaN,,NaN,NaN,NaN,NaN,NaN,NaN,NaN,,-0.11676907194311563,-0.12780391613884978,0.09957687064,-0.11873210815548305,,1.2665987e-05,-1.7881393e-06,-1.66893e-06,1.0,-2.6002526e-06,-1.989305e-06,2.6151538e-06,1.0,-5.066395e-07,1.9744039e-06,5.066395e-07,1.0,1179,3.713,0,2,0.933,False,-0.26190367805337944,0.9386636463690903
3.740185999078676,17:45:20.716965,17:44:04.929035,0,,NaN,NaN,NaN,NaN,NaN,NaN,NaN,NaN,NaN,NaN,NaN,NaN,,NaN,NaN,NaN,NaN,NaN,NaN,NaN,NaN,NaN,NaN,NaN,NaN,,0.097946614,1.293791,0.42507353,0.9825973,0.0076008914,-0.18559304,-0.10497217,-0.8015878,-0.5885897,-0.15324292,0.59782875,-0.78684014,,NaN,NaN,NaN,NaN,NaN,NaN,NaN,NaN,NaN,NaN,NaN,NaN,,NaN,NaN,NaN,NaN,NaN,NaN,NaN,NaN,NaN,NaN,NaN,NaN,,NaN,NaN,NaN,NaN,NaN,NaN,NaN,,NaN,NaN,NaN,NaN,NaN,NaN,NaN,,-0.11676907194311563,-0.12780391613884978,0.09957687064,-0.11873210815548305,,1.2665987e-05,-1.7881393e-06,-1.66893e-06,1.0,-2.6002526e-06,-1.989305e-06,2.6151538e-06,1.0,-5.066395e-07,1.9744039e-06,5.066395e-07,1.0,1188,3.742,0,2,0.933,False,-0.26160578946077395,0.9387602067706493
3.7650175620801747,17:45:20.750521,17:44:05.005053,0,,NaN,NaN,NaN,NaN,NaN,NaN,NaN,NaN,NaN,NaN,NaN,NaN,,NaN,NaN,NaN,NaN,NaN,NaN,NaN,NaN,NaN,NaN,NaN,NaN,,0.097946614,1.293791,0.42507353,0.9825973,0.0076008914,-0.18559304,-0.10497217,-0.8015878,-0.5885897,-0.15324292,0.59782875,-0.78684014,,NaN,NaN,NaN,NaN,NaN,NaN,NaN,NaN,NaN,NaN,NaN,NaN,,NaN,NaN,NaN,NaN,NaN,NaN,NaN,NaN,NaN,NaN,NaN,NaN,,NaN,NaN,NaN,NaN,NaN,NaN,NaN,,NaN,NaN,NaN,NaN,NaN,NaN,NaN,,-0.11676907194311563,-0.12780391613884978,0.09957687064,-0.11873210815548305,,1.2665987e-05,-1.7881393e-06,-1.66893e-06,1.0,-2.6002526e-06,-1.989305e-06,2.6151538e-06,1.0,-5.066395e-07,1.9744039e-06,5.066395e-07,1.0,1197,3.77,0,2,0.933,False,-0.26136747858668974,0.9386153661683108
3.798527247039601,17:45:20.773323,17:44:05.005053,0,,NaN,NaN,NaN,NaN,NaN,NaN,NaN,NaN,NaN,NaN,NaN,NaN,,NaN,NaN,NaN,NaN,NaN,NaN,NaN,NaN,NaN,NaN,NaN,NaN,,0.097946614,1.293791,0.42507353,0.9825973,0.0076008914,-0.18559304,-0.10497217,-0.8015878,-0.5885897,-0.15324292,0.59782875,-0.78684014,,NaN,NaN,NaN,NaN,NaN,NaN,NaN,NaN,NaN,NaN,NaN,NaN,,NaN,NaN,NaN,NaN,NaN,NaN,NaN,NaN,NaN,NaN,NaN,NaN,,NaN,NaN,NaN,NaN,NaN,NaN,NaN,,NaN,NaN,NaN,NaN,NaN,NaN,NaN,,-0.11676907194311563,-0.12780391613884978,0.09957687064,-0.11873210815548305,,1.2665987e-05,-1.7881393e-06,-1.66893e-06,1.0,-2.6002526e-06,-1.989305e-06,2.6151538e-06,1.0,-5.066395e-07,1.9744039e-06,5.066395e-07,1.0,1233,3.885,0,2,0.933,False,-0.2623802998015474,0.9390016077745469
3.821357944048941,17:45:20.886154,17:44:05.125790,0,,NaN,NaN,NaN,NaN,NaN,NaN,NaN,NaN,NaN,NaN,NaN,NaN,,NaN,NaN,NaN,NaN,NaN,NaN,NaN,NaN,NaN,NaN,NaN,NaN,,0.097946614,1.293791,0.42507353,0.9825973,0.0076008914,-0.18559304,-0.10497217,-0.8015878,-0.5885897,-0.15324292,0.59782875,-0.78684014,,NaN,NaN,NaN,NaN,NaN,NaN,NaN,NaN,NaN,NaN,NaN,NaN,,NaN,NaN,NaN,NaN,NaN,NaN,NaN,NaN,NaN,NaN,NaN,NaN,,NaN,NaN,NaN,NaN,NaN,NaN,NaN,,NaN,NaN,NaN,NaN,NaN,NaN,NaN,,-0.11676907194311563,-0.12780391613884978,0.09957687064,-0.11873210815548305,,1.2665987e-05,-1.7881393e-06,-1.66893e-06,1.0,-2.6002526e-06,-1.989305e-06,2.6151538e-06,1.0,-5.066395e-07,1.9744039e-06,5.066395e-07,1.0,1242,3.914,0,2,0.933,False,-0.26112916771260597,0.9383256849636341
3.934208672028035,17:45:20.915019,17:44:05.125790,0,,NaN,NaN,NaN,NaN,NaN,NaN,NaN,NaN,NaN,NaN,NaN,NaN,,NaN,NaN,NaN,NaN,NaN,NaN,NaN,NaN,NaN,NaN,NaN,NaN,,0.097946614,1.293791,0.42507353,0.9825973,0.0076008914,-0.18559304,-0.10497217,-0.8015878,-0.5885897,-0.15324292,0.59782875,-0.78684014,,NaN,NaN,NaN,NaN,NaN,NaN,NaN,NaN,NaN,NaN,NaN,NaN,,NaN,NaN,NaN,NaN,NaN,NaN,NaN,NaN,NaN,NaN,NaN,NaN,,NaN,NaN,NaN,NaN,NaN,NaN,NaN,,NaN,NaN,NaN,NaN,NaN,NaN,NaN,,-0.11676907194311563,-0.12780391613884978,0.09957687064,-0.11873210815548305,,1.2665987e-05,-1.7881393e-06,-1.66893e-06,1.0,-2.6002526e-06,-1.989305e-06,2.6151538e-06,1.0,-5.066395e-07,1.9744039e-06,5.066395e-07,1.0,1260,3.971,0,2,0.933,False,-0.2626186106756321,0.9379877235581779
3.963077977998182,17:45:20.975288,17:44:05.197885,0,,NaN,NaN,NaN,NaN,NaN,NaN,NaN,NaN,NaN,NaN,NaN,NaN,,NaN,NaN,NaN,NaN,NaN,NaN,NaN,NaN,NaN,NaN,NaN,NaN,,0.097946614,1.293791,0.42507353,0.9825973,0.0076008914,-0.18559304,-0.10497217,-0.8015878,-0.5885897,-0.15324292,0.59782875,-0.78684014,,NaN,NaN,NaN,NaN,NaN,NaN,NaN,NaN,NaN,NaN,NaN,NaN,,NaN,NaN,NaN,NaN,NaN,NaN,NaN,NaN,NaN,NaN,NaN,NaN,,NaN,NaN,NaN,NaN,NaN,NaN,NaN,,NaN,NaN,NaN,NaN,NaN,NaN,NaN,,-0.11676907194311563,-0.12780391613884978,0.09957687064,-0.11873210815548305,,1.2665987e-05,-1.7881393e-06,-1.66893e-06,1.0,-2.6002526e-06,-1.989305e-06,2.6151538e-06,1.0,-5.066395e-07,1.9744039e-06,5.066395e-07,1.0,1269,4.0,0,2,0.933,False,-0.2612483231496481,0.9374083611488246
4.023343589156866,17:45:21.001138,17:44:05.197885,0,,NaN,NaN,NaN,NaN,NaN,NaN,NaN,NaN,NaN,NaN,NaN,NaN,,NaN,NaN,NaN,NaN,NaN,NaN,NaN,NaN,NaN,NaN,NaN,NaN,,0.097946614,1.293791,0.42507353,0.9825973,0.0076008914,-0.18559304,-0.10497217,-0.8015878,-0.5885897,-0.15324292,0.59782875,-0.78684014,,NaN,NaN,NaN,NaN,NaN,NaN,NaN,NaN,NaN,NaN,NaN,NaN,,NaN,NaN,NaN,NaN,NaN,NaN,NaN,NaN,NaN,NaN,NaN,NaN,,NaN,NaN,NaN,NaN,NaN,NaN,NaN,,NaN,NaN,NaN,NaN,NaN,NaN,NaN,,-0.11676907194311563,-0.12780391613884978,0.09957687064,-0.11873210815548305,,1.2665987e-05,-1.7881393e-06,-1.66893e-06,1.0,-2.6002526e-06,-1.989305e-06,2.6151538e-06,1.0,-5.066395e-07,1.9744039e-06,5.066395e-07,1.0,1278,4.028,0,2,0.933,False,-0.26160578946077395,0.9376497621527218
4.049190368968993,17:45:21.031763,17:44:05.273861,0,,NaN,NaN,NaN,NaN,NaN,NaN,NaN,NaN,NaN,NaN,NaN,NaN,,NaN,NaN,NaN,NaN,NaN,NaN,NaN,NaN,NaN,NaN,NaN,NaN,,0.097946614,1.293791,0.42507353,0.9825973,0.0076008914,-0.18559304,-0.10497217,-0.8015878,-0.5885897,-0.15324292,0.59782875,-0.78684014,,NaN,NaN,NaN,NaN,NaN,NaN,NaN,NaN,NaN,NaN,NaN,NaN,,NaN,NaN,NaN,NaN,NaN,NaN,NaN,NaN,NaN,NaN,NaN,NaN,,NaN,NaN,NaN,NaN,NaN,NaN,NaN,,NaN,NaN,NaN,NaN,NaN,NaN,NaN,,-0.11676907194311563,-0.12780391613884978,0.09957687064,-0.11873210815548305,,1.2665987e-05,-1.7881393e-06,-1.66893e-06,1.0,-2.6002526e-06,-1.989305e-06,2.6151538e-06,1.0,-5.066395e-07,1.9744039e-06,5.066395e-07,1.0,1336,4.213,0,2,0.933,False,-0.2618441003348577,0.9375049215503837
4.079805040964857,17:45:21.212967,17:44:05.430665,0,,NaN,NaN,NaN,NaN,NaN,NaN,NaN,NaN,NaN,NaN,NaN,NaN,,NaN,NaN,NaN,NaN,NaN,NaN,NaN,NaN,NaN,NaN,NaN,NaN,,0.097946614,1.293791,0.42507353,0.9825973,0.0076008914,-0.18559304,-0.10497217,-0.8015878,-0.5885897,-0.15324292,0.59782875,-0.78684014,,NaN,NaN,NaN,NaN,NaN,NaN,NaN,NaN,NaN,NaN,NaN,NaN,,NaN,NaN,NaN,NaN,NaN,NaN,NaN,NaN,NaN,NaN,NaN,NaN,,NaN,NaN,NaN,NaN,NaN,NaN,NaN,,NaN,NaN,NaN,NaN,NaN,NaN,NaN,,-0.11676907194311563,-0.12780391613884978,0.09957687064,-0.11873210815548305,,1.2665987e-05,-1.7881393e-06,-1.66893e-06,1.0,-2.6002526e-06,-1.989305e-06,2.6151538e-06,1.0,-5.066395e-07,1.9744039e-06,5.066395e-07,1.0,1345,4.241,0,2,0.933,False,-0.26136747858668974,0.9368289987394709
4.260981875937432,17:45:21.248570,17:44:05.508265,0,,NaN,NaN,NaN,NaN,NaN,NaN,NaN,NaN,NaN,NaN,NaN,NaN,,NaN,NaN,NaN,NaN,NaN,NaN,NaN,NaN,NaN,NaN,NaN,NaN,,0.097946614,1.293791,0.42507353,0.9825973,0.0076008914,-0.18559304,-0.10497217,-0.8015878,-0.5885897,-0.15324292,0.59782875,-0.78684014,,NaN,NaN,NaN,NaN,NaN,NaN,NaN,NaN,NaN,NaN,NaN,NaN,,NaN,NaN,NaN,NaN,NaN,NaN,NaN,NaN,NaN,NaN,NaN,NaN,,NaN,NaN,NaN,NaN,NaN,NaN,NaN,,NaN,NaN,NaN,NaN,NaN,NaN,NaN,,-0.11676907194311563,-0.12780391613884978,0.09957687064,-0.11873210815548305,,1.2665987e-05,-1.7881393e-06,-1.66893e-06,1.0,-2.6002526e-06,-1.989305e-06,2.6151538e-06,1.0,-5.066395e-07,1.9744039e-06,5.066395e-07,1.0,1354,4.27,0,2,0.933,False,-0.26232072208302704,0.9364427571332352
4.296627928968519,17:45:21.274956,17:44:05.508265,0,,NaN,NaN,NaN,NaN,NaN,NaN,NaN,NaN,NaN,NaN,NaN,NaN,,NaN,NaN,NaN,NaN,NaN,NaN,NaN,NaN,NaN,NaN,NaN,NaN,,0.097946614,1.293791,0.42507353,0.9825973,0.0076008914,-0.18559304,-0.10497217,-0.8015878,-0.5885897,-0.15324292,0.59782875,-0.78684014,,NaN,NaN,NaN,NaN,NaN,NaN,NaN,NaN,NaN,NaN,NaN,NaN,,NaN,NaN,NaN,NaN,NaN,NaN,NaN,NaN,NaN,NaN,NaN,NaN,,NaN,NaN,NaN,NaN,NaN,NaN,NaN,,NaN,NaN,NaN,NaN,NaN,NaN,NaN,,-0.11676907194311563,-0.12780391613884978,0.09957687064,-0.11873210815548305,,1.2665987e-05,-1.7881393e-06,-1.66893e-06,1.0,-2.6002526e-06,-1.989305e-06,2.6151538e-06,1.0,-5.066395e-07,1.9744039e-06,5.066395e-07,1.0,1363,4.299,0,2,0.933,False,-0.2607717014014801,0.936056515527
4.323009917978197,17:45:21.302708,17:44:05.508265,0,,NaN,NaN,NaN,NaN,NaN,NaN,NaN,NaN,NaN,NaN,NaN,NaN,,NaN,NaN,NaN,NaN,NaN,NaN,NaN,NaN,NaN,NaN,NaN,NaN,,0.097946614,1.293791,0.42507353,0.9825973,0.0076008914,-0.18559304,-0.10497217,-0.8015878,-0.5885897,-0.15324292,0.59782875,-0.78684014,,NaN,NaN,NaN,NaN,NaN,NaN,NaN,NaN,NaN,NaN,NaN,NaN,,NaN,NaN,NaN,NaN,NaN,NaN,NaN,NaN,NaN,NaN,NaN,NaN,,NaN,NaN,NaN,NaN,NaN,NaN,NaN,,NaN,NaN,NaN,NaN,NaN,NaN,NaN,,-0.11676907194311563,-0.12780391613884978,0.09957687064,-0.11873210815548305,,1.2665987e-05,-1.7881393e-06,-1.66893e-06,1.0,-2.6002526e-06,-1.989305e-06,2.6151538e-06,1.0,-5.066395e-07,1.9744039e-06,5.066395e-07,1.0,1372,4.327,0,2,0.933,False,-0.2607717014014801,0.9366841581371328
4.350737337954342,17:45:21.335754,17:44:05.590464,0,,NaN,NaN,NaN,NaN,NaN,NaN,NaN,NaN,NaN,NaN,NaN,NaN,,NaN,NaN,NaN,NaN,NaN,NaN,NaN,NaN,NaN,NaN,NaN,NaN,,0.097946614,1.293791,0.42507353,0.9825973,0.0076008914,-0.18559304,-0.10497217,-0.8015878,-0.5885897,-0.15324292,0.59782875,-0.78684014,,NaN,NaN,NaN,NaN,NaN,NaN,NaN,NaN,NaN,NaN,NaN,NaN,,NaN,NaN,NaN,NaN,NaN,NaN,NaN,NaN,NaN,NaN,NaN,NaN,,NaN,NaN,NaN,NaN,NaN,NaN,NaN,,NaN,NaN,NaN,NaN,NaN,NaN,NaN,,-0.11676907194311563,-0.12780391613884978,0.09957687064,-0.11873210815548305,,1.2665987e-05,-1.7881393e-06,-1.66893e-06,1.0,-2.6002526e-06,-1.989305e-06,2.6151538e-06,1.0,-5.066395e-07,1.9744039e-06,5.066395e-07,1.0,1381,4.356,0,2,0.933,False,-0.26154621174225356,0.9362979165308967
4.3838065441232175,17:45:21.364860,17:44:05.590464,0,,NaN,NaN,NaN,NaN,NaN,NaN,NaN,NaN,NaN,NaN,NaN,NaN,,NaN,NaN,NaN,NaN,NaN,NaN,NaN,NaN,NaN,NaN,NaN,NaN,,0.097946614,1.293791,0.42507353,0.9825973,0.0076008914,-0.18559304,-0.10497217,-0.8015878,-0.5885897,-0.15324292,0.59782875,-0.78684014,,NaN,NaN,NaN,NaN,NaN,NaN,NaN,NaN,NaN,NaN,NaN,NaN,,NaN,NaN,NaN,NaN,NaN,NaN,NaN,NaN,NaN,NaN,NaN,NaN,,NaN,NaN,NaN,NaN,NaN,NaN,NaN,,NaN,NaN,NaN,NaN,NaN,NaN,NaN,,-0.11676907194311563,-0.12780391613884978,0.09957687064,-0.11873210815548305,,1.2665987e-05,-1.7881393e-06,-1.66893e-06,1.0,-2.6002526e-06,-1.989305e-06,2.6151538e-06,1.0,-5.066395e-07,1.9744039e-06,5.066395e-07,1.0,1390,4.385,0,2,0.933,False,-0.2626781883941529,0.9367807185386914
4.412913449108601,17:45:21.387544,17:44:05.590464,0,,NaN,NaN,NaN,NaN,NaN,NaN,NaN,NaN,NaN,NaN,NaN,NaN,,NaN,NaN,NaN,NaN,NaN,NaN,NaN,NaN,NaN,NaN,NaN,NaN,,0.097946614,1.293791,0.42507353,0.9825973,0.0076008914,-0.18559304,-0.10497217,-0.8015878,-0.5885897,-0.15324292,0.59782875,-0.78684014,,NaN,NaN,NaN,NaN,NaN,NaN,NaN,NaN,NaN,NaN,NaN,NaN,,NaN,NaN,NaN,NaN,NaN,NaN,NaN,NaN,NaN,NaN,NaN,NaN,,NaN,NaN,NaN,NaN,NaN,NaN,NaN,,NaN,NaN,NaN,NaN,NaN,NaN,NaN,,-0.11676907194311563,-0.12780391613884978,0.09957687064,-0.11873210815548305,,1.2665987e-05,-1.7881393e-06,-1.66893e-06,1.0,-2.6002526e-06,-1.989305e-06,2.6151538e-06,1.0,-5.066395e-07,1.9744039e-06,5.066395e-07,1.0,1399,4.413,0,2,0.933,False,-0.2622611443645053,0.9369255591410299
4.435590739129111,17:45:21.417240,17:44:05.673440,0,,NaN,NaN,NaN,NaN,NaN,NaN,NaN,NaN,NaN,NaN,NaN,NaN,,NaN,NaN,NaN,NaN,NaN,NaN,NaN,NaN,NaN,NaN,NaN,NaN,,0.097946614,1.293791,0.42507353,0.9825973,0.0076008914,-0.18559304,-0.10497217,-0.8015878,-0.5885897,-0.15324292,0.59782875,-0.78684014,,NaN,NaN,NaN,NaN,NaN,NaN,NaN,NaN,NaN,NaN,NaN,NaN,,NaN,NaN,NaN,NaN,NaN,NaN,NaN,NaN,NaN,NaN,NaN,NaN,,NaN,NaN,NaN,NaN,NaN,NaN,NaN,,NaN,NaN,NaN,NaN,NaN,NaN,NaN,,-0.11676907194311563,-0.12780391613884978,0.09957687064,-0.11873210815548305,,1.2665987e-05,-1.7881393e-06,-1.66893e-06,1.0,-2.6002526e-06,-1.989305e-06,2.6151538e-06,1.0,-5.066395e-07,1.9744039e-06,5.066395e-07,1.0,1408,4.442,0,2,0.933,False,-0.2622015666459845,0.9368289987394709
4.465288110077381,17:45:21.448999,17:44:05.673440,0,,NaN,NaN,NaN,NaN,NaN,NaN,NaN,NaN,NaN,NaN,NaN,NaN,,NaN,NaN,NaN,NaN,NaN,NaN,NaN,NaN,NaN,NaN,NaN,NaN,,0.09792468,1.2937951,0.42507032,0.9825996,0.007618575,-0.18558004,-0.10495049,-0.80158764,-0.5885938,-0.15324292,0.59782875,-0.78684014,,NaN,NaN,NaN,NaN,NaN,NaN,NaN,NaN,NaN,NaN,NaN,NaN,,NaN,NaN,NaN,NaN,NaN,NaN,NaN,NaN,NaN,NaN,NaN,NaN,,NaN,NaN,NaN,NaN,NaN,NaN,NaN,,NaN,NaN,NaN,NaN,NaN,NaN,NaN,,-0.11676907194311563,-0.12780391613884978,0.09957687064,-0.11873210815548305,,-8.828938e-06,-7.033348e-06,2.503395e-06,1.0,1.475215e-05,1.1205673e-05,-1.4744699e-05,1.0,2.8312206e-06,-1.1220574e-05,-2.861023e-06,1.0,1417,4.471,0,2,0.933,False,-0.2602355019347904,0.9369255591410299
4.49704734608531,17:45:21.471050,17:44:05.673440,0,,NaN,NaN,NaN,NaN,NaN,NaN,NaN,NaN,NaN,NaN,NaN,NaN,,NaN,NaN,NaN,NaN,NaN,NaN,NaN,NaN,NaN,NaN,NaN,NaN,,0.09792468,1.2937951,0.42507032,0.9825996,0.007618575,-0.18558004,-0.10495049,-0.80158764,-0.5885938,-0.15324292,0.59782875,-0.78684014,,NaN,NaN,NaN,NaN,NaN,NaN,NaN,NaN,NaN,NaN,NaN,NaN,,NaN,NaN,NaN,NaN,NaN,NaN,NaN,NaN,NaN,NaN,NaN,NaN,,NaN,NaN,NaN,NaN,NaN,NaN,NaN,,NaN,NaN,NaN,NaN,NaN,NaN,NaN,,-0.11676907194311563,-0.12780391613884978,0.09957687064,-0.11873210815548305,,-8.828938e-06,-7.033348e-06,2.503395e-06,1.0,1.475215e-05,1.1205673e-05,-1.4744699e-05,1.0,2.8312206e-06,-1.1220574e-05,-2.861023e-06,1.0,1426,4.499,0,2,0.933,False,-0.26136747858668974,0.9368289987394709
4.519094384973869,17:45:21.503649,17:44:05.760274,0,,NaN,NaN,NaN,NaN,NaN,NaN,NaN,NaN,NaN,NaN,NaN,NaN,,NaN,NaN,NaN,NaN,NaN,NaN,NaN,NaN,NaN,NaN,NaN,NaN,,0.09792468,1.2937951,0.42507032,0.9825996,0.007618575,-0.18558004,-0.10495049,-0.80158764,-0.5885938,-0.15324292,0.59782875,-0.78684014,,NaN,NaN,NaN,NaN,NaN,NaN,NaN,NaN,NaN,NaN,NaN,NaN,,NaN,NaN,NaN,NaN,NaN,NaN,NaN,NaN,NaN,NaN,NaN,NaN,,NaN,NaN,NaN,NaN,NaN,NaN,NaN,,NaN,NaN,NaN,NaN,NaN,NaN,NaN,,-0.11676907194311563,-0.12780391613884978,0.09957687064,-0.11873210815548305,,-8.828938e-06,-7.033348e-06,2.503395e-06,1.0,1.475215e-05,1.1205673e-05,-1.4744699e-05,1.0,2.8312206e-06,-1.1220574e-05,-2.861023e-06,1.0,1435,4.528,0,2,0.933,False,-0.26196325577190027,0.9371669601449271
4.5516823751386255,17:45:21.531541,17:44:05.760274,0,,NaN,NaN,NaN,NaN,NaN,NaN,NaN,NaN,NaN,NaN,NaN,NaN,,NaN,NaN,NaN,NaN,NaN,NaN,NaN,NaN,NaN,NaN,NaN,NaN,,0.09792468,1.2937951,0.42507032,0.9825996,0.007618575,-0.18558004,-0.10495049,-0.80158764,-0.5885938,-0.15324292,0.59782875,-0.78684014,,NaN,NaN,NaN,NaN,NaN,NaN,NaN,NaN,NaN,NaN,NaN,NaN,,NaN,NaN,NaN,NaN,NaN,NaN,NaN,NaN,NaN,NaN,NaN,NaN,,NaN,NaN,NaN,NaN,NaN,NaN,NaN,,NaN,NaN,NaN,NaN,NaN,NaN,NaN,,-0.11676907194311563,-0.12780391613884978,0.09957687064,-0.11873210815548305,,-8.828938e-06,-7.033348e-06,2.503395e-06,1.0,1.475215e-05,1.1205673e-05,-1.4744699e-05,1.0,2.8312206e-06,-1.1220574e-05,-2.861023e-06,1.0,1444,4.557,0,2,0.933,False,-0.26106958999408425,0.9372635205464861
4.579586348030716,17:45:21.564360,17:44:05.831133,0,,NaN,NaN,NaN,NaN,NaN,NaN,NaN,NaN,NaN,NaN,NaN,NaN,,NaN,NaN,NaN,NaN,NaN,NaN,NaN,NaN,NaN,NaN,NaN,NaN,,0.09792468,1.2937951,0.42507032,0.9825996,0.007618575,-0.18558004,-0.10495049,-0.80158764,-0.5885938,-0.15324292,0.59782875,-0.78684014,,NaN,NaN,NaN,NaN,NaN,NaN,NaN,NaN,NaN,NaN,NaN,NaN,,NaN,NaN,NaN,NaN,NaN,NaN,NaN,NaN,NaN,NaN,NaN,NaN,,NaN,NaN,NaN,NaN,NaN,NaN,NaN,,NaN,NaN,NaN,NaN,NaN,NaN,NaN,,-0.11676907194311563,-0.12780391613884978,0.09957687064,-0.11873210815548305,,-8.828938e-06,-7.033348e-06,2.503395e-06,1.0,1.475215e-05,1.1205673e-05,-1.4744699e-05,1.0,2.8312206e-06,-1.1220574e-05,-2.861023e-06,1.0,1453,4.585,0,2,0.933,False,-0.26106958999408425,0.9375049215503837
4.6123837570194155,17:45:21.597048,17:44:05.831133,0,,NaN,NaN,NaN,NaN,NaN,NaN,NaN,NaN,NaN,NaN,NaN,NaN,,NaN,NaN,NaN,NaN,NaN,NaN,NaN,NaN,NaN,NaN,NaN,NaN,,0.09792468,1.2937951,0.42507032,0.9825996,0.007618575,-0.18558004,-0.10495049,-0.80158764,-0.5885938,-0.15324292,0.59782875,-0.78684014,,NaN,NaN,NaN,NaN,NaN,NaN,NaN,NaN,NaN,NaN,NaN,NaN,,NaN,NaN,NaN,NaN,NaN,NaN,NaN,NaN,NaN,NaN,NaN,NaN,,NaN,NaN,NaN,NaN,NaN,NaN,NaN,,NaN,NaN,NaN,NaN,NaN,NaN,NaN,,-0.11676907194311563,-0.12780391613884978,0.09957687064,-0.11873210815548305,,-8.828938e-06,-7.033348e-06,2.503395e-06,1.0,1.475215e-05,1.1205673e-05,-1.4744699e-05,1.0,2.8312206e-06,-1.1220574e-05,-2.861023e-06,1.0,1462,4.614,0,2,0.933,False,-0.2617249448978165,0.9372152403457066
4.645101362140849,17:45:21.613774,17:44:05.831133,0,,NaN,NaN,NaN,NaN,NaN,NaN,NaN,NaN,NaN,NaN,NaN,NaN,,NaN,NaN,NaN,NaN,NaN,NaN,NaN,NaN,NaN,NaN,NaN,NaN,,0.09792468,1.2937951,0.42507032,0.9825996,0.007618575,-0.18558004,-0.10495049,-0.80158764,-0.5885938,-0.15324292,0.59782875,-0.78684014,,NaN,NaN,NaN,NaN,NaN,NaN,NaN,NaN,NaN,NaN,NaN,NaN,,NaN,NaN,NaN,NaN,NaN,NaN,NaN,NaN,NaN,NaN,NaN,NaN,,NaN,NaN,NaN,NaN,NaN,NaN,NaN,,NaN,NaN,NaN,NaN,NaN,NaN,NaN,,-0.11676907194311563,-0.12780391613884978,0.09957687064,-0.11873210815548305,,-8.828938e-06,-7.033348e-06,2.503395e-06,1.0,1.475215e-05,1.1205673e-05,-1.4744699e-05,1.0,2.8312206e-06,-1.1220574e-05,-2.861023e-06,1.0,1471,4.643,0,2,0.933,False,-0.26160578946077395,0.9367324383379119
4.661795688094571,17:45:21.650061,17:44:05.831133,0,,NaN,NaN,NaN,NaN,NaN,NaN,NaN,NaN,NaN,NaN,NaN,NaN,,NaN,NaN,NaN,NaN,NaN,NaN,NaN,NaN,NaN,NaN,NaN,NaN,,0.09792468,1.2937951,0.42507032,0.9825996,0.007618575,-0.18558004,-0.10495049,-0.80158764,-0.5885938,-0.15324292,0.59782875,-0.78684014,,NaN,NaN,NaN,NaN,NaN,NaN,NaN,NaN,NaN,NaN,NaN,NaN,,NaN,NaN,NaN,NaN,NaN,NaN,NaN,NaN,NaN,NaN,NaN,NaN,,NaN,NaN,NaN,NaN,NaN,NaN,NaN,,NaN,NaN,NaN,NaN,NaN,NaN,NaN,,-0.11676907194311563,-0.12780391613884978,0.09957687064,-0.11873210815548305,,-8.828938e-06,-7.033348e-06,2.503395e-06,1.0,1.475215e-05,1.1205673e-05,-1.4744699e-05,1.0,2.8312206e-06,-1.1220574e-05,-2.861023e-06,1.0,1480,4.671,0,2,0.933,False,-0.2611887454311268,0.9366841581371328
4.698104585055262,17:45:21.678477,17:44:05.831133,0,,NaN,NaN,NaN,NaN,NaN,NaN,NaN,NaN,NaN,NaN,NaN,NaN,,NaN,NaN,NaN,NaN,NaN,NaN,NaN,NaN,NaN,NaN,NaN,NaN,,0.09792468,1.2937951,0.42507032,0.9825996,0.007618575,-0.18558004,-0.10495049,-0.80158764,-0.5885938,-0.15324292,0.59782875,-0.78684014,,NaN,NaN,NaN,NaN,NaN,NaN,NaN,NaN,NaN,NaN,NaN,NaN,,NaN,NaN,NaN,NaN,NaN,NaN,NaN,NaN,NaN,NaN,NaN,NaN,,NaN,NaN,NaN,NaN,NaN,NaN,NaN,,NaN,NaN,NaN,NaN,NaN,NaN,NaN,,-0.11676907194311563,-0.12780391613884978,0.09957687064,-0.11873210815548305,,-8.828938e-06,-7.033348e-06,2.503395e-06,1.0,1.475215e-05,1.1205673e-05,-1.4744699e-05,1.0,2.8312206e-06,-1.1220574e-05,-2.861023e-06,1.0,1637,5.171,0,2,0.933,False,-0.2620824112089424,0.9350909115114105
4.726514019072056,17:45:22.171726,17:44:06.404743,0,,NaN,NaN,NaN,NaN,NaN,NaN,NaN,NaN,NaN,NaN,NaN,NaN,,NaN,NaN,NaN,NaN,NaN,NaN,NaN,NaN,NaN,NaN,NaN,NaN,,0.09792468,1.2937951,0.42507032,0.9825996,0.007618575,-0.18558004,-0.10495049,-0.80158764,-0.5885938,-0.15324292,0.59782875,-0.78684014,,NaN,NaN,NaN,NaN,NaN,NaN,NaN,NaN,NaN,NaN,NaN,NaN,,NaN,NaN,NaN,NaN,NaN,NaN,NaN,NaN,NaN,NaN,NaN,NaN,,NaN,NaN,NaN,NaN,NaN,NaN,NaN,,NaN,NaN,NaN,NaN,NaN,NaN,NaN,,-0.11676907194311563,-0.12780391613884978,0.09957687064,-0.11873210815548305,,-8.828938e-06,-7.033348e-06,2.503395e-06,1.0,1.475215e-05,1.1205673e-05,-1.4744699e-05,1.0,2.8312206e-06,-1.1220574e-05,-2.861023e-06,1.0,1646,5.2,0,2,0.933,False,-0.2617249448978165,0.9356219937199848
5.219762102002278,17:45:22.201893,17:44:06.404743,0,,NaN,NaN,NaN,NaN,NaN,NaN,NaN,NaN,NaN,NaN,NaN,NaN,,NaN,NaN,NaN,NaN,NaN,NaN,NaN,NaN,NaN,NaN,NaN,NaN,,0.09792468,1.2937951,0.42507032,0.9825996,0.007618575,-0.18558004,-0.10495049,-0.80158764,-0.5885938,-0.15324292,0.59782875,-0.78684014,,NaN,NaN,NaN,NaN,NaN,NaN,NaN,NaN,NaN,NaN,NaN,NaN,,NaN,NaN,NaN,NaN,NaN,NaN,NaN,NaN,NaN,NaN,NaN,NaN,,NaN,NaN,NaN,NaN,NaN,NaN,NaN,,NaN,NaN,NaN,NaN,NaN,NaN,NaN,,-0.11676907194311563,-0.12780391613884978,0.09957687064,-0.11873210815548305,,-8.828938e-06,-7.033348e-06,2.503395e-06,1.0,1.475215e-05,1.1205673e-05,-1.4744699e-05,1.0,2.8312206e-06,-1.1220574e-05,-2.861023e-06,1.0,1655,5.228,0,2,0.933,False,-0.2620824112089424,0.9360082353262205
5.249926106072962,17:45:22.235679,17:44:06.482636,0,,NaN,NaN,NaN,NaN,NaN,NaN,NaN,NaN,NaN,NaN,NaN,NaN,,NaN,NaN,NaN,NaN,NaN,NaN,NaN,NaN,NaN,NaN,NaN,NaN,,0.09792468,1.2937951,0.42507032,0.9825996,0.007618575,-0.18558004,-0.10495049,-0.80158764,-0.5885938,-0.15324292,0.59782875,-0.78684014,,NaN,NaN,NaN,NaN,NaN,NaN,NaN,NaN,NaN,NaN,NaN,NaN,,NaN,NaN,NaN,NaN,NaN,NaN,NaN,NaN,NaN,NaN,NaN,NaN,,NaN,NaN,NaN,NaN,NaN,NaN,NaN,,NaN,NaN,NaN,NaN,NaN,NaN,NaN,,-0.11676907194311563,-0.12780391613884978,0.09957687064,-0.11873210815548305,,-8.828938e-06,-7.033348e-06,2.503395e-06,1.0,1.475215e-05,1.1205673e-05,-1.4744699e-05,1.0,2.8312206e-06,-1.1220574e-05,-2.861023e-06,1.0,1664,5.257,0,2,0.933,False,-0.26273776611267374,0.9354771531176462
5.283705414040014,17:45:22.262654,17:44:06.482636,0,,NaN,NaN,NaN,NaN,NaN,NaN,NaN,NaN,NaN,NaN,NaN,NaN,,NaN,NaN,NaN,NaN,NaN,NaN,NaN,NaN,NaN,NaN,NaN,NaN,,0.09792468,1.2937951,0.42507032,0.9825996,0.007618575,-0.18558004,-0.10495049,-0.80158764,-0.5885938,-0.15324292,0.59782875,-0.78684014,,NaN,NaN,NaN,NaN,NaN,NaN,NaN,NaN,NaN,NaN,NaN,NaN,,NaN,NaN,NaN,NaN,NaN,NaN,NaN,NaN,NaN,NaN,NaN,NaN,,NaN,NaN,NaN,NaN,NaN,NaN,NaN,,NaN,NaN,NaN,NaN,NaN,NaN,NaN,,-0.11676907194311563,-0.12780391613884978,0.09957687064,-0.11873210815548305,,-8.828938e-06,-7.033348e-06,2.503395e-06,1.0,1.475215e-05,1.1205673e-05,-1.4744699e-05,1.0,2.8312206e-06,-1.1220574e-05,-2.861023e-06,1.0,1673,5.286,0,2,0.933,False,-0.2620824112089424,0.9353805927160872
5.310654818080366,17:45:22.292443,17:44:06.559759,0,,NaN,NaN,NaN,NaN,NaN,NaN,NaN,NaN,NaN,NaN,NaN,NaN,,NaN,NaN,NaN,NaN,NaN,NaN,NaN,NaN,NaN,NaN,NaN,NaN,,0.09792468,1.2937951,0.42507032,0.9825996,0.007618575,-0.18558004,-0.10495049,-0.80158764,-0.5885938,-0.15324292,0.59782875,-0.78684014,,NaN,NaN,NaN,NaN,NaN,NaN,NaN,NaN,NaN,NaN,NaN,NaN,,NaN,NaN,NaN,NaN,NaN,NaN,NaN,NaN,NaN,NaN,NaN,NaN,,NaN,NaN,NaN,NaN,NaN,NaN,NaN,,NaN,NaN,NaN,NaN,NaN,NaN,NaN,,-0.11676907194311563,-0.12780391613884978,0.09957687064,-0.11873210815548305,,-8.828938e-06,-7.033348e-06,2.503395e-06,1.0,1.475215e-05,1.1205673e-05,-1.4744699e-05,1.0,2.8312206e-06,-1.1220574e-05,-2.861023e-06,1.0,1691,5.343,0,2,0.933,False,-0.2620824112089424,0.9357668343223229
5.3404495811555535,17:45:22.347943,17:44:06.559759,0,,NaN,NaN,NaN,NaN,NaN,NaN,NaN,NaN,NaN,NaN,NaN,NaN,,NaN,NaN,NaN,NaN,NaN,NaN,NaN,NaN,NaN,NaN,NaN,NaN,,0.09792468,1.2937951,0.42507032,0.9825996,0.007618575,-0.18558004,-0.10495049,-0.80158764,-0.5885938,-0.15324292,0.59782875,-0.78684014,,NaN,NaN,NaN,NaN,NaN,NaN,NaN,NaN,NaN,NaN,NaN,NaN,,NaN,NaN,NaN,NaN,NaN,NaN,NaN,NaN,NaN,NaN,NaN,NaN,,NaN,NaN,NaN,NaN,NaN,NaN,NaN,,NaN,NaN,NaN,NaN,NaN,NaN,NaN,,-0.11676907194311563,-0.12780391613884978,0.09957687064,-0.11873210815548305,,-8.828938e-06,-7.033348e-06,2.503395e-06,1.0,1.475215e-05,1.1205673e-05,-1.4744699e-05,1.0,2.8312206e-06,-1.1220574e-05,-2.861023e-06,1.0,1700,5.372,0,2,0.933,False,-0.2618441003348577,0.9362496363301176
5.395976954139769,17:45:22.377773,17:44:06.629636,0,,NaN,NaN,NaN,NaN,NaN,NaN,NaN,NaN,NaN,NaN,NaN,NaN,,NaN,NaN,NaN,NaN,NaN,NaN,NaN,NaN,NaN,NaN,NaN,NaN,,0.09792468,1.2937951,0.42507032,0.9825996,0.007618575,-0.18558004,-0.10495049,-0.80158764,-0.5885938,-0.15324292,0.59782875,-0.78684014,,NaN,NaN,NaN,NaN,NaN,NaN,NaN,NaN,NaN,NaN,NaN,NaN,,NaN,NaN,NaN,NaN,NaN,NaN,NaN,NaN,NaN,NaN,NaN,NaN,,NaN,NaN,NaN,NaN,NaN,NaN,NaN,,NaN,NaN,NaN,NaN,NaN,NaN,NaN,,-0.11676907194311563,-0.12780391613884978,0.09957687064,-0.11873210815548305,,-8.828938e-06,-7.033348e-06,2.503395e-06,1.0,1.475215e-05,1.1205673e-05,-1.4744699e-05,1.0,2.8312206e-06,-1.1220574e-05,-2.861023e-06,1.0,1709,5.4,0,2,0.933,False,-0.2623802998015474,0.9356702739207639
5.425742672989145,17:45:22.406686,17:44:06.629636,0,,NaN,NaN,NaN,NaN,NaN,NaN,NaN,NaN,NaN,NaN,NaN,NaN,,NaN,NaN,NaN,NaN,NaN,NaN,NaN,NaN,NaN,NaN,NaN,NaN,,0.09792468,1.2937951,0.42507032,0.9825996,0.007618575,-0.18558004,-0.10495049,-0.80158764,-0.5885938,-0.15324292,0.59782875,-0.78684014,,NaN,NaN,NaN,NaN,NaN,NaN,NaN,NaN,NaN,NaN,NaN,NaN,,NaN,NaN,NaN,NaN,NaN,NaN,NaN,NaN,NaN,NaN,NaN,NaN,,NaN,NaN,NaN,NaN,NaN,NaN,NaN,,NaN,NaN,NaN,NaN,NaN,NaN,NaN,,-0.11676907194311563,-0.12780391613884978,0.09957687064,-0.11873210815548305,,-8.828938e-06,-7.033348e-06,2.503395e-06,1.0,1.475215e-05,1.1205673e-05,-1.4744699e-05,1.0,2.8312206e-06,-1.1220574e-05,-2.861023e-06,1.0,1718,5.429,0,2,0.933,False,-0.2620824112089424,0.9351391917121901
5.454738850938156,17:45:22.436159,17:44:06.629636,0,,NaN,NaN,NaN,NaN,NaN,NaN,NaN,NaN,NaN,NaN,NaN,NaN,,NaN,NaN,NaN,NaN,NaN,NaN,NaN,NaN,NaN,NaN,NaN,NaN,,0.09792468,1.2937951,0.42507032,0.9825996,0.007618575,-0.18558004,-0.10495049,-0.80158764,-0.5885938,-0.15324292,0.59782875,-0.78684014,,NaN,NaN,NaN,NaN,NaN,NaN,NaN,NaN,NaN,NaN,NaN,NaN,,NaN,NaN,NaN,NaN,NaN,NaN,NaN,NaN,NaN,NaN,NaN,NaN,,NaN,NaN,NaN,NaN,NaN,NaN,NaN,,NaN,NaN,NaN,NaN,NaN,NaN,NaN,,-0.11676907194311563,-0.12780391613884978,0.09957687064,-0.11873210815548305,,-8.828938e-06,-7.033348e-06,2.503395e-06,1.0,1.475215e-05,1.1205673e-05,-1.4744699e-05,1.0,2.8312206e-06,-1.1220574e-05,-2.861023e-06,1.0,1727,5.458,0,2,0.933,False,-0.26160578946077395,0.9349943511098515
