AlexandreBanks6/ExpertPlaybackApp/resources/Motions/P_17/PC1/Data_PC1_8.csv
Task Time,PC1 Time,PC2 Time,Gaze Calib,s_T_psm1,Tx,Ty,Tz,R00,R01,R02,R10,R11,R12,R20,R21,R22,s_T_psm3,Tx,Ty,Tz,R00,R01,R02,R10,R11,R12,R20,R21,R22,cart_T_ecm,Tx,Ty,Tz,R00,R01,R02,R10,R11,R12,R20,R21,R22,ecm_T_psm1,Tx,Ty,Tz,R00,R01,R02,R10,R11,R12,R20,R21,R22,ecm_T_psm3,Tx,Ty,Tz,R00,R01,R02,R10,R11,R12,R20,R21,R22,psm1_joints,q1,q2,q3,q4,q5,q6,jaw,psm3_joints,q1,q2,q3,q4,q5,q6,jaw,ecm_joints,q1,q2,q3,q4,ecmi_T_ecm,Tx,Ty,Tz,R00,R01,R02,R10,R11,R12,R20,R21,R22,Sample #,Task Duration (s),Collisions (binary),Collisions (increments),Cumulative Collision Time (s),Clutch Press,MTMR Angle,MTML Angle
""
lci_T_si,,,,,-0.0900869,0.022313949,0.18335392,0.9831014,-0.048776343,0.17644396,0.07519278,-0.77119327,-0.63214475,0.1669061,0.6347297,-0.7544936
rci_T_si,,,,,-0.09717508,0.02900249,0.19913338,0.9846646,-0.06319082,0.16261163,0.050159317,-0.7901947,-0.6107998,0.16709179,0.6095894,-0.7749072
ecm_T_lc,,,,,-4.4061628e-05,-0.00034663224,-0.01840835,-0.99912,0.030754527,0.028518902,-0.031987965,-0.99852574,-0.043852776,0.027128186,-0.04472645,0.9986309
ecm_T_rc,,,,,-0.0043358393,0.01870579,-0.007592615,-0.99555075,-0.052743673,-0.078081585,0.04863213,-0.9973746,0.053654674,-0.08070653,0.04961868,0.9955021
cart_T_ecmi,,,,,0.09793387,1.29379,0.42507514,0.98259765,0.007603552,-0.18559109,-0.104968905,-0.80158776,-0.5885903,-0.15324292,0.59782875,-0.78684014
ecmac_T_ecmrep_psm1,,,,,0.044880565,-0.23049864,-0.32052848,0.99797076,0.0626086,0.011601057,-0.061749555,0.99606305,-0.0636032,-0.015537491,0.06275777,0.9979078
ecmac_T_ecmrep_psm3,,,,,0.047327206,-0.4153428,-0.56493527,0.997773,0.014750276,0.065049894,-0.025394045,0.985803,0.16597453,-0.061678212,-0.16725679,0.9839822
""
0,17:43:24.051806,17:42:08.309365,0,,NaN,NaN,NaN,NaN,NaN,NaN,NaN,NaN,NaN,NaN,NaN,NaN,,NaN,NaN,NaN,NaN,NaN,NaN,NaN,NaN,NaN,NaN,NaN,NaN,,0.097950645,1.2937912,0.4250736,0.9825979,0.0076053985,-0.18558973,-0.10496664,-0.80158776,-0.58859074,-0.15324292,0.59782875,-0.78684014,,NaN,NaN,NaN,NaN,NaN,NaN,NaN,NaN,NaN,NaN,NaN,NaN,,NaN,NaN,NaN,NaN,NaN,NaN,NaN,NaN,NaN,NaN,NaN,NaN,,NaN,NaN,NaN,NaN,NaN,NaN,NaN,,NaN,NaN,NaN,NaN,NaN,NaN,NaN,,-0.11697196646865997,-0.12781700610823973,0.09957687064,-0.11742376536589094,,1.6599894e-05,-1.7881393e-06,-2.6226044e-06,1.0,1.8179417e-06,1.3709068e-06,-1.8104911e-06,1.0,3.2782555e-07,-1.385808e-06,-3.5762787e-07,1.0,37,0.11,0,0,0.0,False,-0.2622015666459845,0.9525683441935746
0.12202517408877611,17:43:24.081129,17:42:08.309365,0,,NaN,NaN,NaN,NaN,NaN,NaN,NaN,NaN,NaN,NaN,NaN,NaN,,NaN,NaN,NaN,NaN,NaN,NaN,NaN,NaN,NaN,NaN,NaN,NaN,,0.097950645,1.2937912,0.4250736,0.9825979,0.0076053985,-0.18558973,-0.10496664,-0.80158776,-0.58859074,-0.15324292,0.59782875,-0.78684014,,NaN,NaN,NaN,NaN,NaN,NaN,NaN,NaN,NaN,NaN,NaN,NaN,,NaN,NaN,NaN,NaN,NaN,NaN,NaN,NaN,NaN,NaN,NaN,NaN,,NaN,NaN,NaN,NaN,NaN,NaN,NaN,,NaN,NaN,NaN,NaN,NaN,NaN,NaN,,-0.11697196646865997,-0.12781700610823973,0.09957687064,-0.11742376536589094,,1.6599894e-05,-1.7881393e-06,-2.6226044e-06,1.0,1.8179417e-06,1.3709068e-06,-1.8104911e-06,1.0,3.2782555e-07,-1.385808e-06,-3.5762787e-07,1.0,45,0.135,0,0,0.0,False,-0.2622015666459845,0.9353805927160872
0.15135741513222456,17:43:24.108890,17:42:08.309365,0,,NaN,NaN,NaN,NaN,NaN,NaN,NaN,NaN,NaN,NaN,NaN,NaN,,NaN,NaN,NaN,NaN,NaN,NaN,NaN,NaN,NaN,NaN,NaN,NaN,,0.097950645,1.2937912,0.4250736,0.9825979,0.0076053985,-0.18558973,-0.10496664,-0.80158776,-0.58859074,-0.15324292,0.59782875,-0.78684014,,NaN,NaN,NaN,NaN,NaN,NaN,NaN,NaN,NaN,NaN,NaN,NaN,,NaN,NaN,NaN,NaN,NaN,NaN,NaN,NaN,NaN,NaN,NaN,NaN,,NaN,NaN,NaN,NaN,NaN,NaN,NaN,,NaN,NaN,NaN,NaN,NaN,NaN,NaN,,-0.11697196646865997,-0.12781700610823973,0.09957687064,-0.11742376536589094,,1.6599894e-05,-1.7881393e-06,-2.6226044e-06,1.0,1.8179417e-06,1.3709068e-06,-1.8104911e-06,1.0,3.2782555e-07,-1.385808e-06,-3.5762787e-07,1.0,53,0.159,0,0,0.0,False,-0.26243987752006825,0.9195446868604251
0.17912947200238705,17:43:24.137594,17:42:08.408836,0,,NaN,NaN,NaN,NaN,NaN,NaN,NaN,NaN,NaN,NaN,NaN,NaN,,NaN,NaN,NaN,NaN,NaN,NaN,NaN,NaN,NaN,NaN,NaN,NaN,,0.097950645,1.2937912,0.4250736,0.9825979,0.0076053985,-0.18558973,-0.10496664,-0.80158776,-0.58859074,-0.15324292,0.59782875,-0.78684014,,NaN,NaN,NaN,NaN,NaN,NaN,NaN,NaN,NaN,NaN,NaN,NaN,,NaN,NaN,NaN,NaN,NaN,NaN,NaN,NaN,NaN,NaN,NaN,NaN,,NaN,NaN,NaN,NaN,NaN,NaN,NaN,,NaN,NaN,NaN,NaN,NaN,NaN,NaN,,-0.11697196646865997,-0.12781700610823973,0.09957687064,-0.11742376536589094,,1.6599894e-05,-1.7881393e-06,-2.6226044e-06,1.0,1.8179417e-06,1.3709068e-06,-1.8104911e-06,1.0,3.2782555e-07,-1.385808e-06,-3.5762787e-07,1.0,64,0.192,0,0,0.0,False,-0.2621419889274632,0.9108542507201225
0.20781467598862946,17:43:24.158296,17:42:08.408836,0,,NaN,NaN,NaN,NaN,NaN,NaN,NaN,NaN,NaN,NaN,NaN,NaN,,NaN,NaN,NaN,NaN,NaN,NaN,NaN,NaN,NaN,NaN,NaN,NaN,,0.097950645,1.2937912,0.4250736,0.9825979,0.0076053985,-0.18558973,-0.10496664,-0.80158776,-0.58859074,-0.15324292,0.59782875,-0.78684014,,NaN,NaN,NaN,NaN,NaN,NaN,NaN,NaN,NaN,NaN,NaN,NaN,,NaN,NaN,NaN,NaN,NaN,NaN,NaN,NaN,NaN,NaN,NaN,NaN,,NaN,NaN,NaN,NaN,NaN,NaN,NaN,,NaN,NaN,NaN,NaN,NaN,NaN,NaN,,-0.11697196646865997,-0.12781700610823973,0.09957687064,-0.11742376536589094,,1.6599894e-05,-1.7881393e-06,-2.6226044e-06,1.0,1.8179417e-06,1.3709068e-06,-1.8104911e-06,1.0,3.2782555e-07,-1.385808e-06,-3.5762787e-07,1.0,68,0.204,0,0,0.0,False,-0.2621419889274632,0.9089713228897232
0.22854328691028059,17:43:24.187770,17:42:08.408836,0,,NaN,NaN,NaN,NaN,NaN,NaN,NaN,NaN,NaN,NaN,NaN,NaN,,NaN,NaN,NaN,NaN,NaN,NaN,NaN,NaN,NaN,NaN,NaN,NaN,,0.097950645,1.2937912,0.4250736,0.9825979,0.0076053985,-0.18558973,-0.10496664,-0.80158776,-0.58859074,-0.15324292,0.59782875,-0.78684014,,NaN,NaN,NaN,NaN,NaN,NaN,NaN,NaN,NaN,NaN,NaN,NaN,,NaN,NaN,NaN,NaN,NaN,NaN,NaN,NaN,NaN,NaN,NaN,NaN,,NaN,NaN,NaN,NaN,NaN,NaN,NaN,,NaN,NaN,NaN,NaN,NaN,NaN,NaN,,-0.11697196646865997,-0.12781700610823973,0.09957687064,-0.11742376536589094,,1.6599894e-05,-1.7881393e-06,-2.6226044e-06,1.0,1.8179417e-06,1.3709068e-06,-1.8104911e-06,1.0,3.2782555e-07,-1.385808e-06,-3.5762787e-07,1.0,80,0.241,0,0,0.0,False,-0.262797343831195,0.9105645695154454
0.25801524007692933,17:43:24.207247,17:42:08.408836,0,,NaN,NaN,NaN,NaN,NaN,NaN,NaN,NaN,NaN,NaN,NaN,NaN,,NaN,NaN,NaN,NaN,NaN,NaN,NaN,NaN,NaN,NaN,NaN,NaN,,0.097950645,1.2937912,0.4250736,0.9825979,0.0076053985,-0.18558973,-0.10496664,-0.80158776,-0.58859074,-0.15324292,0.59782875,-0.78684014,,NaN,NaN,NaN,NaN,NaN,NaN,NaN,NaN,NaN,NaN,NaN,NaN,,NaN,NaN,NaN,NaN,NaN,NaN,NaN,NaN,NaN,NaN,NaN,NaN,,NaN,NaN,NaN,NaN,NaN,NaN,NaN,,NaN,NaN,NaN,NaN,NaN,NaN,NaN,,-0.11697196646865997,-0.12781700610823973,0.09957687064,-0.11742376536589094,,1.6599894e-05,-1.7881393e-06,-2.6226044e-06,1.0,1.8179417e-06,1.3709068e-06,-1.8104911e-06,1.0,3.2782555e-07,-1.385808e-06,-3.5762787e-07,1.0,91,0.274,0,0,0.0,False,-0.262797343831195,0.9166478748136573
0.27742195106111467,17:43:24.249992,17:42:08.408836,0,,NaN,NaN,NaN,NaN,NaN,NaN,NaN,NaN,NaN,NaN,NaN,NaN,,NaN,NaN,NaN,NaN,NaN,NaN,NaN,NaN,NaN,NaN,NaN,NaN,,0.097950645,1.2937912,0.4250736,0.9825979,0.0076053985,-0.18558973,-0.10496664,-0.80158776,-0.58859074,-0.15324292,0.59782875,-0.78684014,,NaN,NaN,NaN,NaN,NaN,NaN,NaN,NaN,NaN,NaN,NaN,NaN,,NaN,NaN,NaN,NaN,NaN,NaN,NaN,NaN,NaN,NaN,NaN,NaN,,NaN,NaN,NaN,NaN,NaN,NaN,NaN,,NaN,NaN,NaN,NaN,NaN,NaN,NaN,,-0.11697196646865997,-0.12781700610823973,0.09957687064,-0.11742376536589094,,1.6599894e-05,-1.7881393e-06,-2.6226044e-06,1.0,1.8179417e-06,1.3709068e-06,-1.8104911e-06,1.0,3.2782555e-07,-1.385808e-06,-3.5762787e-07,1.0,99,0.299,0,0,0.0,False,-0.2616653671792948,0.9329183024763346
0.32024075696244836,17:43:24.270948,17:42:08.528073,0,,NaN,NaN,NaN,NaN,NaN,NaN,NaN,NaN,NaN,NaN,NaN,NaN,,NaN,NaN,NaN,NaN,NaN,NaN,NaN,NaN,NaN,NaN,NaN,NaN,,0.09797246,1.2937899,0.42507192,0.9825925,0.007564523,-0.18561974,-0.105016746,-0.8015881,-0.58858126,-0.15324292,0.59782875,-0.78684014,,NaN,NaN,NaN,NaN,NaN,NaN,NaN,NaN,NaN,NaN,NaN,NaN,,NaN,NaN,NaN,NaN,NaN,NaN,NaN,NaN,NaN,NaN,NaN,NaN,,NaN,NaN,NaN,NaN,NaN,NaN,NaN,,NaN,NaN,NaN,NaN,NaN,NaN,NaN,,-0.11697196646865997,-0.12781700610823973,0.09957687064,-0.11742376536589094,,3.8422644e-05,-1.5497208e-06,-4.529953e-06,1.0,-3.8303435e-05,-2.9116869e-05,3.8318336e-05,0.9999999,-7.5101852e-06,2.9109418e-05,7.4505806e-06,1.0,111,0.336,0,0,0.0,False,-0.26243987752006825,0.9423329416283295
0.34119506808929145,17:43:24.305713,17:42:08.528073,0,,NaN,NaN,NaN,NaN,NaN,NaN,NaN,NaN,NaN,NaN,NaN,NaN,,NaN,NaN,NaN,NaN,NaN,NaN,NaN,NaN,NaN,NaN,NaN,NaN,,0.09797246,1.2937899,0.42507192,0.9825925,0.007564523,-0.18561974,-0.105016746,-0.8015881,-0.58858126,-0.15324292,0.59782875,-0.78684014,,NaN,NaN,NaN,NaN,NaN,NaN,NaN,NaN,NaN,NaN,NaN,NaN,,NaN,NaN,NaN,NaN,NaN,NaN,NaN,NaN,NaN,NaN,NaN,NaN,,NaN,NaN,NaN,NaN,NaN,NaN,NaN,,NaN,NaN,NaN,NaN,NaN,NaN,NaN,,-0.11697196646865997,-0.12781700610823973,0.09957687064,-0.11742376536589094,,3.8422644e-05,-1.5497208e-06,-4.529953e-06,1.0,-3.8303435e-05,-2.9116869e-05,3.8318336e-05,0.9999999,-7.5101852e-06,2.9109418e-05,7.4505806e-06,1.0,119,0.359,0,0,0.0,False,-0.26297607698675796,0.9679697282422217
0.3759455850813538,17:43:24.332600,17:42:08.528073,0,,NaN,NaN,NaN,NaN,NaN,NaN,NaN,NaN,NaN,NaN,NaN,NaN,,NaN,NaN,NaN,NaN,NaN,NaN,NaN,NaN,NaN,NaN,NaN,NaN,,0.09797246,1.2937899,0.42507192,0.9825925,0.007564523,-0.18561974,-0.105016746,-0.8015881,-0.58858126,-0.15324292,0.59782875,-0.78684014,,NaN,NaN,NaN,NaN,NaN,NaN,NaN,NaN,NaN,NaN,NaN,NaN,,NaN,NaN,NaN,NaN,NaN,NaN,NaN,NaN,NaN,NaN,NaN,NaN,,NaN,NaN,NaN,NaN,NaN,NaN,NaN,,NaN,NaN,NaN,NaN,NaN,NaN,NaN,,-0.11697196646865997,-0.12781700610823973,0.09957687064,-0.11742376536589094,,3.8422644e-05,-1.5497208e-06,-4.529953e-06,1.0,-3.8303435e-05,-2.9116869e-05,3.8318336e-05,0.9999999,-7.5101852e-06,2.9109418e-05,7.4505806e-06,1.0,130,0.393,0,0,0.0,False,-0.2635718541719685,0.9714459026983429
0.40284935594536364,17:43:24.369389,17:42:08.623240,0,,NaN,NaN,NaN,NaN,NaN,NaN,NaN,NaN,NaN,NaN,NaN,NaN,,NaN,NaN,NaN,NaN,NaN,NaN,NaN,NaN,NaN,NaN,NaN,NaN,,0.09797246,1.2937899,0.42507192,0.9825925,0.007564523,-0.18561974,-0.105016746,-0.8015881,-0.58858126,-0.15324292,0.59782875,-0.78684014,,NaN,NaN,NaN,NaN,NaN,NaN,NaN,NaN,NaN,NaN,NaN,NaN,,NaN,NaN,NaN,NaN,NaN,NaN,NaN,NaN,NaN,NaN,NaN,NaN,,NaN,NaN,NaN,NaN,NaN,NaN,NaN,,NaN,NaN,NaN,NaN,NaN,NaN,NaN,,-0.11697196646865997,-0.12781700610823973,0.09957687064,-0.11742376536589094,,3.8422644e-05,-1.5497208e-06,-4.529953e-06,1.0,-3.8303435e-05,-2.9116869e-05,3.8318336e-05,0.9999999,-7.5101852e-06,2.9109418e-05,7.4505806e-06,1.0,138,0.417,0,0,0.0,False,-0.26243987752006825,0.9687904916554726
0.43963597202673554,17:43:24.389589,17:42:08.623240,0,,NaN,NaN,NaN,NaN,NaN,NaN,NaN,NaN,NaN,NaN,NaN,NaN,,NaN,NaN,NaN,NaN,NaN,NaN,NaN,NaN,NaN,NaN,NaN,NaN,,0.09797246,1.2937899,0.42507192,0.9825925,0.007564523,-0.18561974,-0.105016746,-0.8015881,-0.58858126,-0.15324292,0.59782875,-0.78684014,,NaN,NaN,NaN,NaN,NaN,NaN,NaN,NaN,NaN,NaN,NaN,NaN,,NaN,NaN,NaN,NaN,NaN,NaN,NaN,NaN,NaN,NaN,NaN,NaN,,NaN,NaN,NaN,NaN,NaN,NaN,NaN,,NaN,NaN,NaN,NaN,NaN,NaN,NaN,,-0.11697196646865997,-0.12781700610823973,0.09957687064,-0.11742376536589094,,3.8422644e-05,-1.5497208e-06,-4.529953e-06,1.0,-3.8303435e-05,-2.9116869e-05,3.8318336e-05,0.9999999,-7.5101852e-06,2.9109418e-05,7.4505806e-06,1.0,146,0.442,0,0,0.0,False,-0.26297607698675796,0.9679214480414422
0.4598320231307298,17:43:24.419706,17:42:08.623240,0,,NaN,NaN,NaN,NaN,NaN,NaN,NaN,NaN,NaN,NaN,NaN,NaN,,NaN,NaN,NaN,NaN,NaN,NaN,NaN,NaN,NaN,NaN,NaN,NaN,,0.09797246,1.2937899,0.42507192,0.9825925,0.007564523,-0.18561974,-0.105016746,-0.8015881,-0.58858126,-0.15324292,0.59782875,-0.78684014,,NaN,NaN,NaN,NaN,NaN,NaN,NaN,NaN,NaN,NaN,NaN,NaN,,NaN,NaN,NaN,NaN,NaN,NaN,NaN,NaN,NaN,NaN,NaN,NaN,,NaN,NaN,NaN,NaN,NaN,NaN,NaN,,NaN,NaN,NaN,NaN,NaN,NaN,NaN,,-0.11697196646865997,-0.12781700610823973,0.09957687064,-0.11742376536589094,,3.8422644e-05,-1.5497208e-06,-4.529953e-06,1.0,-3.8303435e-05,-2.9116869e-05,3.8318336e-05,0.9999999,-7.5101852e-06,2.9109418e-05,7.4505806e-06,1.0,154,0.467,0,0,0.0,False,-0.26297607698675796,0.9625140655541431
0.4899501199834049,17:43:24.441940,17:42:08.623240,0,,NaN,NaN,NaN,NaN,NaN,NaN,NaN,NaN,NaN,NaN,NaN,NaN,,NaN,NaN,NaN,NaN,NaN,NaN,NaN,NaN,NaN,NaN,NaN,NaN,,0.09797246,1.2937899,0.42507192,0.9825925,0.007564523,-0.18561974,-0.105016746,-0.8015881,-0.58858126,-0.15324292,0.59782875,-0.78684014,,NaN,NaN,NaN,NaN,NaN,NaN,NaN,NaN,NaN,NaN,NaN,NaN,,NaN,NaN,NaN,NaN,NaN,NaN,NaN,NaN,NaN,NaN,NaN,NaN,,NaN,NaN,NaN,NaN,NaN,NaN,NaN,,NaN,NaN,NaN,NaN,NaN,NaN,NaN,,-0.11697196646865997,-0.12781700610823973,0.09957687064,-0.11742376536589094,,3.8422644e-05,-1.5497208e-06,-4.529953e-06,1.0,-3.8303435e-05,-2.9116869e-05,3.8318336e-05,0.9999999,-7.5101852e-06,2.9109418e-05,7.4505806e-06,1.0,162,0.49,0,0,0.0,False,-0.2629164992682367,0.9582171276847711
0.5121883191168308,17:43:24.465220,17:42:08.736250,0,,NaN,NaN,NaN,NaN,NaN,NaN,NaN,NaN,NaN,NaN,NaN,NaN,,NaN,NaN,NaN,NaN,NaN,NaN,NaN,NaN,NaN,NaN,NaN,NaN,,0.09797246,1.2937899,0.42507192,0.9825925,0.007564523,-0.18561974,-0.105016746,-0.8015881,-0.58858126,-0.15324292,0.59782875,-0.78684014,,NaN,NaN,NaN,NaN,NaN,NaN,NaN,NaN,NaN,NaN,NaN,NaN,,NaN,NaN,NaN,NaN,NaN,NaN,NaN,NaN,NaN,NaN,NaN,NaN,,NaN,NaN,NaN,NaN,NaN,NaN,NaN,,NaN,NaN,NaN,NaN,NaN,NaN,NaN,,-0.11697196646865997,-0.12781700610823973,0.09957687064,-0.11742376536589094,,3.8422644e-05,-1.5497208e-06,-4.529953e-06,1.0,-3.8303435e-05,-2.9116869e-05,3.8318336e-05,0.9999999,-7.5101852e-06,2.9109418e-05,7.4505806e-06,1.0,173,0.524,0,0,0.0,False,-0.26351227645344677,0.9539684700161788
0.5354581049177796,17:43:24.498470,17:42:08.736250,0,,NaN,NaN,NaN,NaN,NaN,NaN,NaN,NaN,NaN,NaN,NaN,NaN,,NaN,NaN,NaN,NaN,NaN,NaN,NaN,NaN,NaN,NaN,NaN,NaN,,0.09797246,1.2937899,0.42507192,0.9825925,0.007564523,-0.18561974,-0.105016746,-0.8015881,-0.58858126,-0.15324292,0.59782875,-0.78684014,,NaN,NaN,NaN,NaN,NaN,NaN,NaN,NaN,NaN,NaN,NaN,NaN,,NaN,NaN,NaN,NaN,NaN,NaN,NaN,NaN,NaN,NaN,NaN,NaN,,NaN,NaN,NaN,NaN,NaN,NaN,NaN,,NaN,NaN,NaN,NaN,NaN,NaN,NaN,,-0.11697196646865997,-0.12781700610823973,0.09957687064,-0.11742376536589094,,3.8422644e-05,-1.5497208e-06,-4.529953e-06,1.0,-3.8303435e-05,-2.9116869e-05,3.8318336e-05,0.9999999,-7.5101852e-06,2.9109418e-05,7.4505806e-06,1.0,181,0.549,0,0,0.0,False,-0.2629164992682367,0.9393395691800026
0.5686325510032475,17:43:24.516675,17:42:08.736250,0,,NaN,NaN,NaN,NaN,NaN,NaN,NaN,NaN,NaN,NaN,NaN,NaN,,NaN,NaN,NaN,NaN,NaN,NaN,NaN,NaN,NaN,NaN,NaN,NaN,,0.09797246,1.2937899,0.42507192,0.9825925,0.007564523,-0.18561974,-0.105016746,-0.8015881,-0.58858126,-0.15324292,0.59782875,-0.78684014,,NaN,NaN,NaN,NaN,NaN,NaN,NaN,NaN,NaN,NaN,NaN,NaN,,NaN,NaN,NaN,NaN,NaN,NaN,NaN,NaN,NaN,NaN,NaN,NaN,,NaN,NaN,NaN,NaN,NaN,NaN,NaN,,NaN,NaN,NaN,NaN,NaN,NaN,NaN,,-0.11697196646865997,-0.12781700610823973,0.09957687064,-0.11742376536589094,,3.8422644e-05,-1.5497208e-06,-4.529953e-06,1.0,-3.8303435e-05,-2.9116869e-05,3.8318336e-05,0.9999999,-7.5101852e-06,2.9109418e-05,7.4505806e-06,1.0,189,0.573,0,0,0.0,False,-0.26190367805337944,0.9373118007472656
0.5869238020386547,17:43:24.545194,17:42:08.736250,0,,NaN,NaN,NaN,NaN,NaN,NaN,NaN,NaN,NaN,NaN,NaN,NaN,,NaN,NaN,NaN,NaN,NaN,NaN,NaN,NaN,NaN,NaN,NaN,NaN,,0.09797246,1.2937899,0.42507192,0.9825925,0.007564523,-0.18561974,-0.105016746,-0.8015881,-0.58858126,-0.15324292,0.59782875,-0.78684014,,NaN,NaN,NaN,NaN,NaN,NaN,NaN,NaN,NaN,NaN,NaN,NaN,,NaN,NaN,NaN,NaN,NaN,NaN,NaN,NaN,NaN,NaN,NaN,NaN,,NaN,NaN,NaN,NaN,NaN,NaN,NaN,,NaN,NaN,NaN,NaN,NaN,NaN,NaN,,-0.11697196646865997,-0.12781700610823973,0.09957687064,-0.11742376536589094,,3.8422644e-05,-1.5497208e-06,-4.529953e-06,1.0,-3.8303435e-05,-2.9116869e-05,3.8318336e-05,0.9999999,-7.5101852e-06,2.9109418e-05,7.4505806e-06,1.0,197,0.598,0,0,0.0,False,-0.26160578946077395,0.9354771531176462
0.6154401961248368,17:43:24.572297,17:42:08.736250,0,,NaN,NaN,NaN,NaN,NaN,NaN,NaN,NaN,NaN,NaN,NaN,NaN,,NaN,NaN,NaN,NaN,NaN,NaN,NaN,NaN,NaN,NaN,NaN,NaN,,0.09797246,1.2937899,0.42507192,0.9825925,0.007564523,-0.18561974,-0.105016746,-0.8015881,-0.58858126,-0.15324292,0.59782875,-0.78684014,,NaN,NaN,NaN,NaN,NaN,NaN,NaN,NaN,NaN,NaN,NaN,NaN,,NaN,NaN,NaN,NaN,NaN,NaN,NaN,NaN,NaN,NaN,NaN,NaN,,NaN,NaN,NaN,NaN,NaN,NaN,NaN,,NaN,NaN,NaN,NaN,NaN,NaN,NaN,,-0.11697196646865997,-0.12781700610823973,0.09957687064,-0.11742376536589094,,3.8422644e-05,-1.5497208e-06,-4.529953e-06,1.0,-3.8303435e-05,-2.9116869e-05,3.8318336e-05,0.9999999,-7.5101852e-06,2.9109418e-05,7.4505806e-06,1.0,205,0.622,0,0,0.0,False,-0.2622611443645053,0.934946070909072
0.642539941938594,17:43:24.596151,17:42:08.736250,0,,NaN,NaN,NaN,NaN,NaN,NaN,NaN,NaN,NaN,NaN,NaN,NaN,,NaN,NaN,NaN,NaN,NaN,NaN,NaN,NaN,NaN,NaN,NaN,NaN,,0.09797246,1.2937899,0.42507192,0.9825925,0.007564523,-0.18561974,-0.105016746,-0.8015881,-0.58858126,-0.15324292,0.59782875,-0.78684014,,NaN,NaN,NaN,NaN,NaN,NaN,NaN,NaN,NaN,NaN,NaN,NaN,,NaN,NaN,NaN,NaN,NaN,NaN,NaN,NaN,NaN,NaN,NaN,NaN,,NaN,NaN,NaN,NaN,NaN,NaN,NaN,,NaN,NaN,NaN,NaN,NaN,NaN,NaN,,-0.11697196646865997,-0.12781700610823973,0.09957687064,-0.11742376536589094,,3.8422644e-05,-1.5497208e-06,-4.529953e-06,1.0,-3.8303435e-05,-2.9116869e-05,3.8318336e-05,0.9999999,-7.5101852e-06,2.9109418e-05,7.4505806e-06,1.0,220,0.667,0,0,0.0,False,-0.26243987752006825,0.9354288729168667
0.6663227120880038,17:43:24.638467,17:42:08.736250,0,,NaN,NaN,NaN,NaN,NaN,NaN,NaN,NaN,NaN,NaN,NaN,NaN,,NaN,NaN,NaN,NaN,NaN,NaN,NaN,NaN,NaN,NaN,NaN,NaN,,0.09797246,1.2937899,0.42507192,0.9825925,0.007564523,-0.18561974,-0.105016746,-0.8015881,-0.58858126,-0.15324292,0.59782875,-0.78684014,,NaN,NaN,NaN,NaN,NaN,NaN,NaN,NaN,NaN,NaN,NaN,NaN,,NaN,NaN,NaN,NaN,NaN,NaN,NaN,NaN,NaN,NaN,NaN,NaN,,NaN,NaN,NaN,NaN,NaN,NaN,NaN,,NaN,NaN,NaN,NaN,NaN,NaN,NaN,,-0.11697196646865997,-0.12781700610823973,0.09957687064,-0.11742376536589094,,3.8422644e-05,-1.5497208e-06,-4.529953e-06,1.0,-3.8303435e-05,-2.9116869e-05,3.8318336e-05,0.9999999,-7.5101852e-06,2.9109418e-05,7.4505806e-06,1.0,228,0.692,0,0,0.0,False,-0.26309523242380006,0.9362013561293381
0.7086984699126333,17:43:24.666149,17:42:08.736250,0,,NaN,NaN,NaN,NaN,NaN,NaN,NaN,NaN,NaN,NaN,NaN,NaN,,NaN,NaN,NaN,NaN,NaN,NaN,NaN,NaN,NaN,NaN,NaN,NaN,,0.09797246,1.2937899,0.42507192,0.9825925,0.007564523,-0.18561974,-0.105016746,-0.8015881,-0.58858126,-0.15324292,0.59782875,-0.78684014,,NaN,NaN,NaN,NaN,NaN,NaN,NaN,NaN,NaN,NaN,NaN,NaN,,NaN,NaN,NaN,NaN,NaN,NaN,NaN,NaN,NaN,NaN,NaN,NaN,,NaN,NaN,NaN,NaN,NaN,NaN,NaN,,NaN,NaN,NaN,NaN,NaN,NaN,NaN,,-0.11697196646865997,-0.12781700610823973,0.09957687064,-0.11742376536589094,,3.8422644e-05,-1.5497208e-06,-4.529953e-06,1.0,-3.8303435e-05,-2.9116869e-05,3.8318336e-05,0.9999999,-7.5101852e-06,2.9109418e-05,7.4505806e-06,1.0,236,0.716,0,0,0.0,False,-0.2630356547052788,0.9374083611488246
0.736321124015376,17:43:24.688937,17:42:08.736250,0,,NaN,NaN,NaN,NaN,NaN,NaN,NaN,NaN,NaN,NaN,NaN,NaN,,NaN,NaN,NaN,NaN,NaN,NaN,NaN,NaN,NaN,NaN,NaN,NaN,,0.09797246,1.2937899,0.42507192,0.9825925,0.007564523,-0.18561974,-0.105016746,-0.8015881,-0.58858126,-0.15324292,0.59782875,-0.78684014,,NaN,NaN,NaN,NaN,NaN,NaN,NaN,NaN,NaN,NaN,NaN,NaN,,NaN,NaN,NaN,NaN,NaN,NaN,NaN,NaN,NaN,NaN,NaN,NaN,,NaN,NaN,NaN,NaN,NaN,NaN,NaN,,NaN,NaN,NaN,NaN,NaN,NaN,NaN,,-0.11697196646865997,-0.12781700610823973,0.09957687064,-0.11742376536589094,,3.8422644e-05,-1.5497208e-06,-4.529953e-06,1.0,-3.8303435e-05,-2.9116869e-05,3.8318336e-05,0.9999999,-7.5101852e-06,2.9109418e-05,7.4505806e-06,1.0,244,0.741,0,0,0.0,False,-0.26196325577190027,0.9379877235581779
0.7591699711047113,17:43:24.710750,17:42:08.736250,0,,NaN,NaN,NaN,NaN,NaN,NaN,NaN,NaN,NaN,NaN,NaN,NaN,,NaN,NaN,NaN,NaN,NaN,NaN,NaN,NaN,NaN,NaN,NaN,NaN,,0.09797246,1.2937899,0.42507192,0.9825925,0.007564523,-0.18561974,-0.105016746,-0.8015881,-0.58858126,-0.15324292,0.59782875,-0.78684014,,NaN,NaN,NaN,NaN,NaN,NaN,NaN,NaN,NaN,NaN,NaN,NaN,,NaN,NaN,NaN,NaN,NaN,NaN,NaN,NaN,NaN,NaN,NaN,NaN,,NaN,NaN,NaN,NaN,NaN,NaN,NaN,,NaN,NaN,NaN,NaN,NaN,NaN,NaN,,-0.11697196646865997,-0.12781700610823973,0.09957687064,-0.11742376536589094,,3.8422644e-05,-1.5497208e-06,-4.529953e-06,1.0,-3.8303435e-05,-2.9116869e-05,3.8318336e-05,0.9999999,-7.5101852e-06,2.9109418e-05,7.4505806e-06,1.0,252,0.765,0,0,0.0,False,-0.2631548101423209,0.9404982939987101
0.7809441320132464,17:43:24.738924,17:42:08.736250,0,,NaN,NaN,NaN,NaN,NaN,NaN,NaN,NaN,NaN,NaN,NaN,NaN,,NaN,NaN,NaN,NaN,NaN,NaN,NaN,NaN,NaN,NaN,NaN,NaN,,0.09797246,1.2937899,0.42507192,0.9825925,0.007564523,-0.18561974,-0.105016746,-0.8015881,-0.58858126,-0.15324292,0.59782875,-0.78684014,,NaN,NaN,NaN,NaN,NaN,NaN,NaN,NaN,NaN,NaN,NaN,NaN,,NaN,NaN,NaN,NaN,NaN,NaN,NaN,NaN,NaN,NaN,NaN,NaN,,NaN,NaN,NaN,NaN,NaN,NaN,NaN,,NaN,NaN,NaN,NaN,NaN,NaN,NaN,,-0.11697196646865997,-0.12781700610823973,0.09957687064,-0.11742376536589094,,3.8422644e-05,-1.5497208e-06,-4.529953e-06,1.0,-3.8303435e-05,-2.9116869e-05,3.8318336e-05,0.9999999,-7.5101852e-06,2.9109418e-05,7.4505806e-06,1.0,263,0.798,0,0,0.0,False,-0.26249945523859,0.9467747201000394
0.8091731290332973,17:43:24.767577,17:42:08.736250,0,,NaN,NaN,NaN,NaN,NaN,NaN,NaN,NaN,NaN,NaN,NaN,NaN,,NaN,NaN,NaN,NaN,NaN,NaN,NaN,NaN,NaN,NaN,NaN,NaN,,0.09797246,1.2937899,0.42507192,0.9825925,0.007564523,-0.18561974,-0.105016746,-0.8015881,-0.58858126,-0.15324292,0.59782875,-0.78684014,,NaN,NaN,NaN,NaN,NaN,NaN,NaN,NaN,NaN,NaN,NaN,NaN,,NaN,NaN,NaN,NaN,NaN,NaN,NaN,NaN,NaN,NaN,NaN,NaN,,NaN,NaN,NaN,NaN,NaN,NaN,NaN,,NaN,NaN,NaN,NaN,NaN,NaN,NaN,,-0.11697196646865997,-0.12781700610823973,0.09957687064,-0.11742376536589094,,3.8422644e-05,-1.5497208e-06,-4.529953e-06,1.0,-3.8303435e-05,-2.9116869e-05,3.8318336e-05,0.9999999,-7.5101852e-06,2.9109418e-05,7.4505806e-06,1.0,271,0.823,0,0,0.0,False,-0.2629164992682367,0.9543064314216347
0.8377941909711808,17:43:24.800455,17:42:09.040171,0,,NaN,NaN,NaN,NaN,NaN,NaN,NaN,NaN,NaN,NaN,NaN,NaN,,NaN,NaN,NaN,NaN,NaN,NaN,NaN,NaN,NaN,NaN,NaN,NaN,,0.09797246,1.2937899,0.42507192,0.9825925,0.007564523,-0.18561974,-0.105016746,-0.8015881,-0.58858126,-0.15324292,0.59782875,-0.78684014,,NaN,NaN,NaN,NaN,NaN,NaN,NaN,NaN,NaN,NaN,NaN,NaN,,NaN,NaN,NaN,NaN,NaN,NaN,NaN,NaN,NaN,NaN,NaN,NaN,,NaN,NaN,NaN,NaN,NaN,NaN,NaN,,NaN,NaN,NaN,NaN,NaN,NaN,NaN,,-0.11697196646865997,-0.12781700610823973,0.09957687064,-0.11742376536589094,,3.8422644e-05,-1.5497208e-06,-4.529953e-06,1.0,-3.8303435e-05,-2.9116869e-05,3.8318336e-05,0.9999999,-7.5101852e-06,2.9109418e-05,7.4505806e-06,1.0,279,0.848,0,0,0.0,False,-0.26255903295711036,0.9602931763182878
0.8707032310776412,17:43:24.823765,17:42:09.040171,0,,NaN,NaN,NaN,NaN,NaN,NaN,NaN,NaN,NaN,NaN,NaN,NaN,,NaN,NaN,NaN,NaN,NaN,NaN,NaN,NaN,NaN,NaN,NaN,NaN,,0.09797246,1.2937899,0.42507192,0.9825925,0.007564523,-0.18561974,-0.105016746,-0.8015881,-0.58858126,-0.15324292,0.59782875,-0.78684014,,NaN,NaN,NaN,NaN,NaN,NaN,NaN,NaN,NaN,NaN,NaN,NaN,,NaN,NaN,NaN,NaN,NaN,NaN,NaN,NaN,NaN,NaN,NaN,NaN,,NaN,NaN,NaN,NaN,NaN,NaN,NaN,,NaN,NaN,NaN,NaN,NaN,NaN,NaN,,-0.11697196646865997,-0.12781700610823973,0.09957687064,-0.11742376536589094,,3.8422644e-05,-1.5497208e-06,-4.529953e-06,1.0,-3.8303435e-05,-2.9116869e-05,3.8318336e-05,0.9999999,-7.5101852e-06,2.9109418e-05,7.4505806e-06,1.0,287,0.872,0,0,0.0,False,-0.2626781883941529,0.9655557182032488
0.8940093559212983,17:43:24.847342,17:42:09.040171,0,,NaN,NaN,NaN,NaN,NaN,NaN,NaN,NaN,NaN,NaN,NaN,NaN,,NaN,NaN,NaN,NaN,NaN,NaN,NaN,NaN,NaN,NaN,NaN,NaN,,0.09797246,1.2937899,0.42507192,0.9825925,0.007564523,-0.18561974,-0.105016746,-0.8015881,-0.58858126,-0.15324292,0.59782875,-0.78684014,,NaN,NaN,NaN,NaN,NaN,NaN,NaN,NaN,NaN,NaN,NaN,NaN,,NaN,NaN,NaN,NaN,NaN,NaN,NaN,NaN,NaN,NaN,NaN,NaN,,NaN,NaN,NaN,NaN,NaN,NaN,NaN,,NaN,NaN,NaN,NaN,NaN,NaN,NaN,,-0.11697196646865997,-0.12781700610823973,0.09957687064,-0.11742376536589094,,3.8422644e-05,-1.5497208e-06,-4.529953e-06,1.0,-3.8303435e-05,-2.9116869e-05,3.8318336e-05,0.9999999,-7.5101852e-06,2.9109418e-05,7.4505806e-06,1.0,295,0.897,0,0,0.0,False,-0.26232072208302704,0.9693698540648259
0.9175868190359324,17:43:24.863401,17:42:09.040171,0,,NaN,NaN,NaN,NaN,NaN,NaN,NaN,NaN,NaN,NaN,NaN,NaN,,NaN,NaN,NaN,NaN,NaN,NaN,NaN,NaN,NaN,NaN,NaN,NaN,,0.09797246,1.2937899,0.42507192,0.9825925,0.007564523,-0.18561974,-0.105016746,-0.8015881,-0.58858126,-0.15324292,0.59782875,-0.78684014,,NaN,NaN,NaN,NaN,NaN,NaN,NaN,NaN,NaN,NaN,NaN,NaN,,NaN,NaN,NaN,NaN,NaN,NaN,NaN,NaN,NaN,NaN,NaN,NaN,,NaN,NaN,NaN,NaN,NaN,NaN,NaN,,NaN,NaN,NaN,NaN,NaN,NaN,NaN,,-0.11697196646865997,-0.12781700610823973,0.09957687064,-0.11742376536589094,,3.8422644e-05,-1.5497208e-06,-4.529953e-06,1.0,-3.8303435e-05,-2.9116869e-05,3.8318336e-05,0.9999999,-7.5101852e-06,2.9109418e-05,7.4505806e-06,1.0,314,0.954,0,0,0.0,False,-0.26243987752006825,0.97168730370224
0.9336374751292169,17:43:24.923075,17:42:09.040171,0,,NaN,NaN,NaN,NaN,NaN,NaN,NaN,NaN,NaN,NaN,NaN,NaN,,NaN,NaN,NaN,NaN,NaN,NaN,NaN,NaN,NaN,NaN,NaN,NaN,,0.09797246,1.2937899,0.42507192,0.9825925,0.007564523,-0.18561974,-0.105016746,-0.8015881,-0.58858126,-0.15324292,0.59782875,-0.78684014,,NaN,NaN,NaN,NaN,NaN,NaN,NaN,NaN,NaN,NaN,NaN,NaN,,NaN,NaN,NaN,NaN,NaN,NaN,NaN,NaN,NaN,NaN,NaN,NaN,,NaN,NaN,NaN,NaN,NaN,NaN,NaN,,NaN,NaN,NaN,NaN,NaN,NaN,NaN,,-0.11697196646865997,-0.12781700610823973,0.09957687064,-0.11742376536589094,,3.8422644e-05,-1.5497208e-06,-4.529953e-06,1.0,-3.8303435e-05,-2.9116869e-05,3.8318336e-05,0.9999999,-7.5101852e-06,2.9109418e-05,7.4505806e-06,1.0,322,0.979,0,0,0.0,False,-0.26190367805337944,0.9766118841817448
0.9931073901243508,17:43:24.951577,17:42:09.200411,0,,NaN,NaN,NaN,NaN,NaN,NaN,NaN,NaN,NaN,NaN,NaN,NaN,,NaN,NaN,NaN,NaN,NaN,NaN,NaN,NaN,NaN,NaN,NaN,NaN,,0.09797246,1.2937899,0.42507192,0.9825925,0.007564523,-0.18561974,-0.105016746,-0.8015881,-0.58858126,-0.15324292,0.59782875,-0.78684014,,NaN,NaN,NaN,NaN,NaN,NaN,NaN,NaN,NaN,NaN,NaN,NaN,,NaN,NaN,NaN,NaN,NaN,NaN,NaN,NaN,NaN,NaN,NaN,NaN,,NaN,NaN,NaN,NaN,NaN,NaN,NaN,,NaN,NaN,NaN,NaN,NaN,NaN,NaN,,-0.11697196646865997,-0.12781700610823973,0.09957687064,-0.11742376536589094,,3.8422644e-05,-1.5497208e-06,-4.529953e-06,1.0,-3.8303435e-05,-2.9116869e-05,3.8318336e-05,0.9999999,-7.5101852e-06,2.9109418e-05,7.4505806e-06,1.0,330,1.003,0,0,0.0,False,-0.2622015666459845,0.9792190150238356
1.0218168410938233,17:43:24.978485,17:42:09.200411,0,,NaN,NaN,NaN,NaN,NaN,NaN,NaN,NaN,NaN,NaN,NaN,NaN,,NaN,NaN,NaN,NaN,NaN,NaN,NaN,NaN,NaN,NaN,NaN,NaN,,0.09797246,1.2937899,0.42507192,0.9825925,0.007564523,-0.18561974,-0.105016746,-0.8015881,-0.58858126,-0.15324292,0.59782875,-0.78684014,,NaN,NaN,NaN,NaN,NaN,NaN,NaN,NaN,NaN,NaN,NaN,NaN,,NaN,NaN,NaN,NaN,NaN,NaN,NaN,NaN,NaN,NaN,NaN,NaN,,NaN,NaN,NaN,NaN,NaN,NaN,NaN,,NaN,NaN,NaN,NaN,NaN,NaN,NaN,,-0.11697196646865997,-0.12781700610823973,0.09957687064,-0.11742376536589094,,3.8422644e-05,-1.5497208e-06,-4.529953e-06,1.0,-3.8303435e-05,-2.9116869e-05,3.8318336e-05,0.9999999,-7.5101852e-06,2.9109418e-05,7.4505806e-06,1.0,342,1.04,0,0,0.0,False,-0.26285692154971585,0.9779154496027902
1.0487306241411716,17:43:25.010607,17:42:09.200411,0,,NaN,NaN,NaN,NaN,NaN,NaN,NaN,NaN,NaN,NaN,NaN,NaN,,NaN,NaN,NaN,NaN,NaN,NaN,NaN,NaN,NaN,NaN,NaN,NaN,,0.09797246,1.2937899,0.42507192,0.9825925,0.007564523,-0.18561974,-0.105016746,-0.8015881,-0.58858126,-0.15324292,0.59782875,-0.78684014,,NaN,NaN,NaN,NaN,NaN,NaN,NaN,NaN,NaN,NaN,NaN,NaN,,NaN,NaN,NaN,NaN,NaN,NaN,NaN,NaN,NaN,NaN,NaN,NaN,,NaN,NaN,NaN,NaN,NaN,NaN,NaN,,NaN,NaN,NaN,NaN,NaN,NaN,NaN,,-0.11697196646865997,-0.12781700610823973,0.09957687064,-0.11742376536589094,,3.8422644e-05,-1.5497208e-06,-4.529953e-06,1.0,-3.8303435e-05,-2.9116869e-05,3.8318336e-05,0.9999999,-7.5101852e-06,2.9109418e-05,7.4505806e-06,1.0,371,1.129,0,0,0.0,False,-0.2621419889274632,0.9694664144663849
1.0808255809824914,17:43:25.096992,17:42:09.315296,0,,NaN,NaN,NaN,NaN,NaN,NaN,NaN,NaN,NaN,NaN,NaN,NaN,,NaN,NaN,NaN,NaN,NaN,NaN,NaN,NaN,NaN,NaN,NaN,NaN,,0.09797246,1.2937899,0.42507192,0.9825925,0.007564523,-0.18561974,-0.105016746,-0.8015881,-0.58858126,-0.15324292,0.59782875,-0.78684014,,NaN,NaN,NaN,NaN,NaN,NaN,NaN,NaN,NaN,NaN,NaN,NaN,,NaN,NaN,NaN,NaN,NaN,NaN,NaN,NaN,NaN,NaN,NaN,NaN,,NaN,NaN,NaN,NaN,NaN,NaN,NaN,,NaN,NaN,NaN,NaN,NaN,NaN,NaN,,-0.11697196646865997,-0.12781700610823973,0.09957687064,-0.11742376536589094,,3.8422644e-05,-1.5497208e-06,-4.529953e-06,1.0,-3.8303435e-05,-2.9116869e-05,3.8318336e-05,0.9999999,-7.5101852e-06,2.9109418e-05,7.4505806e-06,1.0,375,1.141,0,0,0.0,False,-0.26309523242380006,0.9659902400102638
1.1671983830165118,17:43:25.119126,17:42:09.315296,0,,NaN,NaN,NaN,NaN,NaN,NaN,NaN,NaN,NaN,NaN,NaN,NaN,,NaN,NaN,NaN,NaN,NaN,NaN,NaN,NaN,NaN,NaN,NaN,NaN,,0.09797246,1.2937899,0.42507192,0.9825925,0.007564523,-0.18561974,-0.105016746,-0.8015881,-0.58858126,-0.15324292,0.59782875,-0.78684014,,NaN,NaN,NaN,NaN,NaN,NaN,NaN,NaN,NaN,NaN,NaN,NaN,,NaN,NaN,NaN,NaN,NaN,NaN,NaN,NaN,NaN,NaN,NaN,NaN,,NaN,NaN,NaN,NaN,NaN,NaN,NaN,,NaN,NaN,NaN,NaN,NaN,NaN,NaN,,-0.11697196646865997,-0.12781700610823973,0.09957687064,-0.11742376536589094,,3.8422644e-05,-1.5497208e-06,-4.529953e-06,1.0,-3.8303435e-05,-2.9116869e-05,3.8318336e-05,0.9999999,-7.5101852e-06,2.9109418e-05,7.4505806e-06,1.0,383,1.167,0,0,0.0,False,-0.26285692154971585,0.9659902400102638
1.1893731760792434,17:43:25.141483,17:42:09.315296,0,,NaN,NaN,NaN,NaN,NaN,NaN,NaN,NaN,NaN,NaN,NaN,NaN,,NaN,NaN,NaN,NaN,NaN,NaN,NaN,NaN,NaN,NaN,NaN,NaN,,0.09797246,1.2937899,0.42507192,0.9825925,0.007564523,-0.18561974,-0.105016746,-0.8015881,-0.58858126,-0.15324292,0.59782875,-0.78684014,,NaN,NaN,NaN,NaN,NaN,NaN,NaN,NaN,NaN,NaN,NaN,NaN,,NaN,NaN,NaN,NaN,NaN,NaN,NaN,NaN,NaN,NaN,NaN,NaN,,NaN,NaN,NaN,NaN,NaN,NaN,NaN,,NaN,NaN,NaN,NaN,NaN,NaN,NaN,,-0.11697196646865997,-0.12781700610823973,0.09957687064,-0.11742376536589094,,3.8422644e-05,-1.5497208e-06,-4.529953e-06,1.0,-3.8303435e-05,-2.9116869e-05,3.8318336e-05,0.9999999,-7.5101852e-06,2.9109418e-05,7.4505806e-06,1.0,391,1.192,0,0,0.0,False,-0.2618441003348577,0.9659419598094843
1.211726084118709,17:43:25.161498,17:42:09.315296,0,,NaN,NaN,NaN,NaN,NaN,NaN,NaN,NaN,NaN,NaN,NaN,NaN,,NaN,NaN,NaN,NaN,NaN,NaN,NaN,NaN,NaN,NaN,NaN,NaN,,0.09797246,1.2937899,0.42507192,0.9825925,0.007564523,-0.18561974,-0.105016746,-0.8015881,-0.58858126,-0.15324292,0.59782875,-0.78684014,,NaN,NaN,NaN,NaN,NaN,NaN,NaN,NaN,NaN,NaN,NaN,NaN,,NaN,NaN,NaN,NaN,NaN,NaN,NaN,NaN,NaN,NaN,NaN,NaN,,NaN,NaN,NaN,NaN,NaN,NaN,NaN,,NaN,NaN,NaN,NaN,NaN,NaN,NaN,,-0.11697196646865997,-0.12781700610823973,0.09957687064,-0.11742376536589094,,3.8422644e-05,-1.5497208e-06,-4.529953e-06,1.0,-3.8303435e-05,-2.9116869e-05,3.8318336e-05,0.9999999,-7.5101852e-06,2.9109418e-05,7.4505806e-06,1.0,399,1.216,0,0,0.0,False,-0.2622015666459845,0.9669075638250737
1.2317360199522227,17:43:25.190997,17:42:09.315296,0,,NaN,NaN,NaN,NaN,NaN,NaN,NaN,NaN,NaN,NaN,NaN,NaN,,NaN,NaN,NaN,NaN,NaN,NaN,NaN,NaN,NaN,NaN,NaN,NaN,,0.09797246,1.2937899,0.42507192,0.9825925,0.007564523,-0.18561974,-0.105016746,-0.8015881,-0.58858126,-0.15324292,0.59782875,-0.78684014,,NaN,NaN,NaN,NaN,NaN,NaN,NaN,NaN,NaN,NaN,NaN,NaN,,NaN,NaN,NaN,NaN,NaN,NaN,NaN,NaN,NaN,NaN,NaN,NaN,,NaN,NaN,NaN,NaN,NaN,NaN,NaN,,NaN,NaN,NaN,NaN,NaN,NaN,NaN,,-0.11697196646865997,-0.12781700610823973,0.09957687064,-0.11742376536589094,,3.8422644e-05,-1.5497208e-06,-4.529953e-06,1.0,-3.8303435e-05,-2.9116869e-05,3.8318336e-05,0.9999999,-7.5101852e-06,2.9109418e-05,7.4505806e-06,1.0,407,1.241,0,0,0.0,False,-0.2622015666459845,0.967583486635986
1.2612437191419303,17:43:25.219535,17:42:09.479506,0,,NaN,NaN,NaN,NaN,NaN,NaN,NaN,NaN,NaN,NaN,NaN,NaN,,NaN,NaN,NaN,NaN,NaN,NaN,NaN,NaN,NaN,NaN,NaN,NaN,,0.09797246,1.2937899,0.42507192,0.9825925,0.007564523,-0.18561974,-0.105016746,-0.8015881,-0.58858126,-0.15324292,0.59782875,-0.78684014,,NaN,NaN,NaN,NaN,NaN,NaN,NaN,NaN,NaN,NaN,NaN,NaN,,NaN,NaN,NaN,NaN,NaN,NaN,NaN,NaN,NaN,NaN,NaN,NaN,,NaN,NaN,NaN,NaN,NaN,NaN,NaN,,NaN,NaN,NaN,NaN,NaN,NaN,NaN,,-0.11697196646865997,-0.12781700610823973,0.09957687064,-0.11742376536589094,,3.8422644e-05,-1.5497208e-06,-4.529953e-06,1.0,-3.8303435e-05,-2.9116869e-05,3.8318336e-05,0.9999999,-7.5101852e-06,2.9109418e-05,7.4505806e-06,1.0,415,1.265,0,0,0.0,False,-0.2622015666459845,0.9683559698484574
1.2897831189911813,17:43:25.239372,17:42:09.479506,0,,NaN,NaN,NaN,NaN,NaN,NaN,NaN,NaN,NaN,NaN,NaN,NaN,,NaN,NaN,NaN,NaN,NaN,NaN,NaN,NaN,NaN,NaN,NaN,NaN,,0.09797246,1.2937899,0.42507192,0.9825925,0.007564523,-0.18561974,-0.105016746,-0.8015881,-0.58858126,-0.15324292,0.59782875,-0.78684014,,NaN,NaN,NaN,NaN,NaN,NaN,NaN,NaN,NaN,NaN,NaN,NaN,,NaN,NaN,NaN,NaN,NaN,NaN,NaN,NaN,NaN,NaN,NaN,NaN,,NaN,NaN,NaN,NaN,NaN,NaN,NaN,,NaN,NaN,NaN,NaN,NaN,NaN,NaN,,-0.11697196646865997,-0.12781700610823973,0.09957687064,-0.11742376536589094,,3.8422644e-05,-1.5497208e-06,-4.529953e-06,1.0,-3.8303435e-05,-2.9116869e-05,3.8318336e-05,0.9999999,-7.5101852e-06,2.9109418e-05,7.4505806e-06,1.0,452,1.379,0,0,0.0,False,-0.26273776611267374,0.9688870520570316
1.3096208840142936,17:43:25.350628,17:42:09.479506,0,,NaN,NaN,NaN,NaN,NaN,NaN,NaN,NaN,NaN,NaN,NaN,NaN,,NaN,NaN,NaN,NaN,NaN,NaN,NaN,NaN,NaN,NaN,NaN,NaN,,0.09797246,1.2937899,0.42507192,0.9825925,0.007564523,-0.18561974,-0.105016746,-0.8015881,-0.58858126,-0.15324292,0.59782875,-0.78684014,,NaN,NaN,NaN,NaN,NaN,NaN,NaN,NaN,NaN,NaN,NaN,NaN,,NaN,NaN,NaN,NaN,NaN,NaN,NaN,NaN,NaN,NaN,NaN,NaN,,NaN,NaN,NaN,NaN,NaN,NaN,NaN,,NaN,NaN,NaN,NaN,NaN,NaN,NaN,,-0.11697196646865997,-0.12781700610823973,0.09957687064,-0.11742376536589094,,3.8422644e-05,-1.5497208e-06,-4.529953e-06,1.0,-3.8303435e-05,-2.9116869e-05,3.8318336e-05,0.9999999,-7.5101852e-06,2.9109418e-05,7.4505806e-06,1.0,460,1.404,0,0,0.0,False,-0.26255903295711036,0.9761773623747296
1.4208752480335534,17:43:25.379944,17:42:09.628418,0,,NaN,NaN,NaN,NaN,NaN,NaN,NaN,NaN,NaN,NaN,NaN,NaN,,NaN,NaN,NaN,NaN,NaN,NaN,NaN,NaN,NaN,NaN,NaN,NaN,,0.09797246,1.2937899,0.42507192,0.9825925,0.007564523,-0.18561974,-0.105016746,-0.8015881,-0.58858126,-0.15324292,0.59782875,-0.78684014,,NaN,NaN,NaN,NaN,NaN,NaN,NaN,NaN,NaN,NaN,NaN,NaN,,NaN,NaN,NaN,NaN,NaN,NaN,NaN,NaN,NaN,NaN,NaN,NaN,,NaN,NaN,NaN,NaN,NaN,NaN,NaN,,NaN,NaN,NaN,NaN,NaN,NaN,NaN,,-0.11697196646865997,-0.12781700610823973,0.09957687064,-0.11742376536589094,,3.8422644e-05,-1.5497208e-06,-4.529953e-06,1.0,-3.8303435e-05,-2.9116869e-05,3.8318336e-05,0.9999999,-7.5101852e-06,2.9109418e-05,7.4505806e-06,1.0,468,1.429,0,0,0.0,False,-0.26196325577190027,0.9768050049848627
1.4501923790667206,17:43:25.400140,17:42:09.628418,0,,NaN,NaN,NaN,NaN,NaN,NaN,NaN,NaN,NaN,NaN,NaN,NaN,,NaN,NaN,NaN,NaN,NaN,NaN,NaN,NaN,NaN,NaN,NaN,NaN,,0.09793979,1.2937915,0.4250706,0.9825993,0.0076161586,-0.18558182,-0.10495345,-0.80158764,-0.58859324,-0.15324292,0.59782875,-0.78684014,,NaN,NaN,NaN,NaN,NaN,NaN,NaN,NaN,NaN,NaN,NaN,NaN,,NaN,NaN,NaN,NaN,NaN,NaN,NaN,NaN,NaN,NaN,NaN,NaN,,NaN,NaN,NaN,NaN,NaN,NaN,NaN,,NaN,NaN,NaN,NaN,NaN,NaN,NaN,,-0.11697196646865997,-0.12781700610823973,0.09957687064,-0.11742376536589094,,6.3478947e-06,-3.9339066e-06,1.5497208e-06,1.0,1.2375414e-05,9.402633e-06,-1.2367964e-05,1.0,2.413988e-06,-9.417534e-06,-2.413988e-06,1.0,476,1.454,0,0,0.0,False,-0.26232072208302704,0.9788810536183792
1.4703791979700327,17:43:25.423367,17:42:09.628418,0,,NaN,NaN,NaN,NaN,NaN,NaN,NaN,NaN,NaN,NaN,NaN,NaN,,NaN,NaN,NaN,NaN,NaN,NaN,NaN,NaN,NaN,NaN,NaN,NaN,,0.09793979,1.2937915,0.4250706,0.9825993,0.0076161586,-0.18558182,-0.10495345,-0.80158764,-0.58859324,-0.15324292,0.59782875,-0.78684014,,NaN,NaN,NaN,NaN,NaN,NaN,NaN,NaN,NaN,NaN,NaN,NaN,,NaN,NaN,NaN,NaN,NaN,NaN,NaN,NaN,NaN,NaN,NaN,NaN,,NaN,NaN,NaN,NaN,NaN,NaN,NaN,,NaN,NaN,NaN,NaN,NaN,NaN,NaN,,-0.11697196646865997,-0.12781700610823973,0.09957687064,-0.11742376536589094,,6.3478947e-06,-3.9339066e-06,1.5497208e-06,1.0,1.2375414e-05,9.402633e-06,-1.2367964e-05,1.0,2.413988e-06,-9.417534e-06,-2.413988e-06,1.0,484,1.478,0,0,0.0,False,-0.26273776611267374,0.9811985032557933
1.4936180119402707,17:43:25.453723,17:42:09.628418,0,,NaN,NaN,NaN,NaN,NaN,NaN,NaN,NaN,NaN,NaN,NaN,NaN,,NaN,NaN,NaN,NaN,NaN,NaN,NaN,NaN,NaN,NaN,NaN,NaN,,0.09793979,1.2937915,0.4250706,0.9825993,0.0076161586,-0.18558182,-0.10495345,-0.80158764,-0.58859324,-0.15324292,0.59782875,-0.78684014,,NaN,NaN,NaN,NaN,NaN,NaN,NaN,NaN,NaN,NaN,NaN,NaN,,NaN,NaN,NaN,NaN,NaN,NaN,NaN,NaN,NaN,NaN,NaN,NaN,,NaN,NaN,NaN,NaN,NaN,NaN,NaN,,NaN,NaN,NaN,NaN,NaN,NaN,NaN,,-0.11697196646865997,-0.12781700610823973,0.09957687064,-0.11742376536589094,,6.3478947e-06,-3.9339066e-06,1.5497208e-06,1.0,1.2375414e-05,9.402633e-06,-1.2367964e-05,1.0,2.413988e-06,-9.417534e-06,-2.413988e-06,1.0,492,1.503,0,0,0.0,False,-0.26148663402373185,0.9843849965072375
1.5239685899578035,17:43:25.474977,17:42:09.628418,0,,NaN,NaN,NaN,NaN,NaN,NaN,NaN,NaN,NaN,NaN,NaN,NaN,,NaN,NaN,NaN,NaN,NaN,NaN,NaN,NaN,NaN,NaN,NaN,NaN,,0.09793979,1.2937915,0.4250706,0.9825993,0.0076161586,-0.18558182,-0.10495345,-0.80158764,-0.58859324,-0.15324292,0.59782875,-0.78684014,,NaN,NaN,NaN,NaN,NaN,NaN,NaN,NaN,NaN,NaN,NaN,NaN,,NaN,NaN,NaN,NaN,NaN,NaN,NaN,NaN,NaN,NaN,NaN,NaN,,NaN,NaN,NaN,NaN,NaN,NaN,NaN,,NaN,NaN,NaN,NaN,NaN,NaN,NaN,,-0.11697196646865997,-0.12781700610823973,0.09957687064,-0.11742376536589094,,6.3478947e-06,-3.9339066e-06,1.5497208e-06,1.0,1.2375414e-05,9.402633e-06,-1.2367964e-05,1.0,2.413988e-06,-9.417534e-06,-2.413988e-06,1.0,525,1.604,0,0,0.0,False,-0.2618441003348577,0.9864610451407545
1.545225348090753,17:43:25.575047,17:42:09.825367,0,,NaN,NaN,NaN,NaN,NaN,NaN,NaN,NaN,NaN,NaN,NaN,NaN,,NaN,NaN,NaN,NaN,NaN,NaN,NaN,NaN,NaN,NaN,NaN,NaN,,0.09793979,1.2937915,0.4250706,0.9825993,0.0076161586,-0.18558182,-0.10495345,-0.80158764,-0.58859324,-0.15324292,0.59782875,-0.78684014,,NaN,NaN,NaN,NaN,NaN,NaN,NaN,NaN,NaN,NaN,NaN,NaN,,NaN,NaN,NaN,NaN,NaN,NaN,NaN,NaN,NaN,NaN,NaN,NaN,,NaN,NaN,NaN,NaN,NaN,NaN,NaN,,NaN,NaN,NaN,NaN,NaN,NaN,NaN,,-0.11697196646865997,-0.12781700610823973,0.09957687064,-0.11742376536589094,,6.3478947e-06,-3.9339066e-06,1.5497208e-06,1.0,1.2375414e-05,9.402633e-06,-1.2367964e-05,1.0,2.413988e-06,-9.417534e-06,-2.413988e-06,1.0,529,1.617,0,0,0.0,False,-0.26243987752006825,0.9882474125695941
1.6452965210191905,17:43:25.602319,17:42:09.825367,0,,NaN,NaN,NaN,NaN,NaN,NaN,NaN,NaN,NaN,NaN,NaN,NaN,,NaN,NaN,NaN,NaN,NaN,NaN,NaN,NaN,NaN,NaN,NaN,NaN,,0.09793979,1.2937915,0.4250706,0.9825993,0.0076161586,-0.18558182,-0.10495345,-0.80158764,-0.58859324,-0.15324292,0.59782875,-0.78684014,,NaN,NaN,NaN,NaN,NaN,NaN,NaN,NaN,NaN,NaN,NaN,NaN,,NaN,NaN,NaN,NaN,NaN,NaN,NaN,NaN,NaN,NaN,NaN,NaN,,NaN,NaN,NaN,NaN,NaN,NaN,NaN,,NaN,NaN,NaN,NaN,NaN,NaN,NaN,,-0.11697196646865997,-0.12781700610823973,0.09957687064,-0.11742376536589094,,6.3478947e-06,-3.9339066e-06,1.5497208e-06,1.0,1.2375414e-05,9.402633e-06,-1.2367964e-05,1.0,2.413988e-06,-9.417534e-06,-2.413988e-06,1.0,541,1.654,0,0,0.0,False,-0.26255903295711036,0.9878128907625792
1.6725536759477109,17:43:25.625155,17:42:09.825367,0,,NaN,NaN,NaN,NaN,NaN,NaN,NaN,NaN,NaN,NaN,NaN,NaN,,NaN,NaN,NaN,NaN,NaN,NaN,NaN,NaN,NaN,NaN,NaN,NaN,,0.09793979,1.2937915,0.4250706,0.9825993,0.0076161586,-0.18558182,-0.10495345,-0.80158764,-0.58859324,-0.15324292,0.59782875,-0.78684014,,NaN,NaN,NaN,NaN,NaN,NaN,NaN,NaN,NaN,NaN,NaN,NaN,,NaN,NaN,NaN,NaN,NaN,NaN,NaN,NaN,NaN,NaN,NaN,NaN,,NaN,NaN,NaN,NaN,NaN,NaN,NaN,,NaN,NaN,NaN,NaN,NaN,NaN,NaN,,-0.11697196646865997,-0.12781700610823973,0.09957687064,-0.11742376536589094,,6.3478947e-06,-3.9339066e-06,1.5497208e-06,1.0,1.2375414e-05,9.402633e-06,-1.2367964e-05,1.0,2.413988e-06,-9.417534e-06,-2.413988e-06,1.0,549,1.679,0,0,0.0,False,-0.2616653671792948,0.988102571967256
1.6953908801078796,17:43:25.653302,17:42:09.825367,0,,NaN,NaN,NaN,NaN,NaN,NaN,NaN,NaN,NaN,NaN,NaN,NaN,,NaN,NaN,NaN,NaN,NaN,NaN,NaN,NaN,NaN,NaN,NaN,NaN,,0.09793979,1.2937915,0.4250706,0.9825993,0.0076161586,-0.18558182,-0.10495345,-0.80158764,-0.58859324,-0.15324292,0.59782875,-0.78684014,,NaN,NaN,NaN,NaN,NaN,NaN,NaN,NaN,NaN,NaN,NaN,NaN,,NaN,NaN,NaN,NaN,NaN,NaN,NaN,NaN,NaN,NaN,NaN,NaN,,NaN,NaN,NaN,NaN,NaN,NaN,NaN,,NaN,NaN,NaN,NaN,NaN,NaN,NaN,,-0.11697196646865997,-0.12781700610823973,0.09957687064,-0.11742376536589094,,6.3478947e-06,-3.9339066e-06,1.5497208e-06,1.0,1.2375414e-05,9.402633e-06,-1.2367964e-05,1.0,2.413988e-06,-9.417534e-06,-2.413988e-06,1.0,557,1.704,0,0,0.0,False,-0.26202283349042155,0.9883439729711534
1.7235479350201786,17:43:25.682515,17:42:09.940346,0,,NaN,NaN,NaN,NaN,NaN,NaN,NaN,NaN,NaN,NaN,NaN,NaN,,NaN,NaN,NaN,NaN,NaN,NaN,NaN,NaN,NaN,NaN,NaN,NaN,,0.09793979,1.2937915,0.4250706,0.9825993,0.0076161586,-0.18558182,-0.10495345,-0.80158764,-0.58859324,-0.15324292,0.59782875,-0.78684014,,NaN,NaN,NaN,NaN,NaN,NaN,NaN,NaN,NaN,NaN,NaN,NaN,,NaN,NaN,NaN,NaN,NaN,NaN,NaN,NaN,NaN,NaN,NaN,NaN,,NaN,NaN,NaN,NaN,NaN,NaN,NaN,,NaN,NaN,NaN,NaN,NaN,NaN,NaN,,-0.11697196646865997,-0.12781700610823973,0.09957687064,-0.11742376536589094,,6.3478947e-06,-3.9339066e-06,1.5497208e-06,1.0,1.2375414e-05,9.402633e-06,-1.2367964e-05,1.0,2.413988e-06,-9.417534e-06,-2.413988e-06,1.0,565,1.728,0,0,0.0,False,-0.2623802998015474,0.9882956927703739
1.7527529869694263,17:43:25.705754,17:42:09.940346,0,,NaN,NaN,NaN,NaN,NaN,NaN,NaN,NaN,NaN,NaN,NaN,NaN,,NaN,NaN,NaN,NaN,NaN,NaN,NaN,NaN,NaN,NaN,NaN,NaN,,0.09793979,1.2937915,0.4250706,0.9825993,0.0076161586,-0.18558182,-0.10495345,-0.80158764,-0.58859324,-0.15324292,0.59782875,-0.78684014,,NaN,NaN,NaN,NaN,NaN,NaN,NaN,NaN,NaN,NaN,NaN,NaN,,NaN,NaN,NaN,NaN,NaN,NaN,NaN,NaN,NaN,NaN,NaN,NaN,,NaN,NaN,NaN,NaN,NaN,NaN,NaN,,NaN,NaN,NaN,NaN,NaN,NaN,NaN,,-0.11697196646865997,-0.12781700610823973,0.09957687064,-0.11742376536589094,,6.3478947e-06,-3.9339066e-06,1.5497208e-06,1.0,1.2375414e-05,9.402633e-06,-1.2367964e-05,1.0,2.413988e-06,-9.417534e-06,-2.413988e-06,1.0,573,1.753,0,0,0.0,False,-0.2623802998015474,0.9879094511641382
1.7760012890212238,17:43:25.731679,17:42:09.940346,0,,NaN,NaN,NaN,NaN,NaN,NaN,NaN,NaN,NaN,NaN,NaN,NaN,,NaN,NaN,NaN,NaN,NaN,NaN,NaN,NaN,NaN,NaN,NaN,NaN,,0.09793979,1.2937915,0.4250706,0.9825993,0.0076161586,-0.18558182,-0.10495345,-0.80158764,-0.58859324,-0.15324292,0.59782875,-0.78684014,,NaN,NaN,NaN,NaN,NaN,NaN,NaN,NaN,NaN,NaN,NaN,NaN,,NaN,NaN,NaN,NaN,NaN,NaN,NaN,NaN,NaN,NaN,NaN,NaN,,NaN,NaN,NaN,NaN,NaN,NaN,NaN,,NaN,NaN,NaN,NaN,NaN,NaN,NaN,,-0.11697196646865997,-0.12781700610823973,0.09957687064,-0.11742376536589094,,6.3478947e-06,-3.9339066e-06,1.5497208e-06,1.0,1.2375414e-05,9.402633e-06,-1.2367964e-05,1.0,2.413988e-06,-9.417534e-06,-2.413988e-06,1.0,602,1.842,0,0,0.0,False,-0.2618441003348577,0.9884888135734915
1.8019006410613656,17:43:25.810514,17:42:10.069972,0,,NaN,NaN,NaN,NaN,NaN,NaN,NaN,NaN,NaN,NaN,NaN,NaN,,NaN,NaN,NaN,NaN,NaN,NaN,NaN,NaN,NaN,NaN,NaN,NaN,,0.09793979,1.2937915,0.4250706,0.9825993,0.0076161586,-0.18558182,-0.10495345,-0.80158764,-0.58859324,-0.15324292,0.59782875,-0.78684014,,NaN,NaN,NaN,NaN,NaN,NaN,NaN,NaN,NaN,NaN,NaN,NaN,,NaN,NaN,NaN,NaN,NaN,NaN,NaN,NaN,NaN,NaN,NaN,NaN,,NaN,NaN,NaN,NaN,NaN,NaN,NaN,,NaN,NaN,NaN,NaN,NaN,NaN,NaN,,-0.11697196646865997,-0.12781700610823973,0.09957687064,-0.11742376536589094,,6.3478947e-06,-3.9339066e-06,1.5497208e-06,1.0,1.2375414e-05,9.402633e-06,-1.2367964e-05,1.0,2.413988e-06,-9.417534e-06,-2.413988e-06,1.0,610,1.866,0,0,0.0,False,-0.26249945523859,0.9879094511641382
1.880736461142078,17:43:25.842677,17:42:10.069972,0,,NaN,NaN,NaN,NaN,NaN,NaN,NaN,NaN,NaN,NaN,NaN,NaN,,NaN,NaN,NaN,NaN,NaN,NaN,NaN,NaN,NaN,NaN,NaN,NaN,,0.09793979,1.2937915,0.4250706,0.9825993,0.0076161586,-0.18558182,-0.10495345,-0.80158764,-0.58859324,-0.15324292,0.59782875,-0.78684014,,NaN,NaN,NaN,NaN,NaN,NaN,NaN,NaN,NaN,NaN,NaN,NaN,,NaN,NaN,NaN,NaN,NaN,NaN,NaN,NaN,NaN,NaN,NaN,NaN,,NaN,NaN,NaN,NaN,NaN,NaN,NaN,,NaN,NaN,NaN,NaN,NaN,NaN,NaN,,-0.11697196646865997,-0.12781700610823973,0.09957687064,-0.11742376536589094,,6.3478947e-06,-3.9339066e-06,1.5497208e-06,1.0,1.2375414e-05,9.402633e-06,-1.2367964e-05,1.0,2.413988e-06,-9.417534e-06,-2.413988e-06,1.0,618,1.892,0,0,0.0,False,-0.2612483231496481,0.988440533372712
1.9129252850543708,17:43:25.867213,17:42:10.069972,0,,NaN,NaN,NaN,NaN,NaN,NaN,NaN,NaN,NaN,NaN,NaN,NaN,,NaN,NaN,NaN,NaN,NaN,NaN,NaN,NaN,NaN,NaN,NaN,NaN,,0.09793979,1.2937915,0.4250706,0.9825993,0.0076161586,-0.18558182,-0.10495345,-0.80158764,-0.58859324,-0.15324292,0.59782875,-0.78684014,,NaN,NaN,NaN,NaN,NaN,NaN,NaN,NaN,NaN,NaN,NaN,NaN,,NaN,NaN,NaN,NaN,NaN,NaN,NaN,NaN,NaN,NaN,NaN,NaN,,NaN,NaN,NaN,NaN,NaN,NaN,NaN,,NaN,NaN,NaN,NaN,NaN,NaN,NaN,,-0.11697196646865997,-0.12781700610823973,0.09957687064,-0.11742376536589094,,6.3478947e-06,-3.9339066e-06,1.5497208e-06,1.0,1.2375414e-05,9.402633e-06,-1.2367964e-05,1.0,2.413988e-06,-9.417534e-06,-2.413988e-06,1.0,626,1.917,0,0,0.0,False,-0.2623802998015474,0.9873300887547847
1.9374448601156473,17:43:25.888013,17:42:10.069972,0,,NaN,NaN,NaN,NaN,NaN,NaN,NaN,NaN,NaN,NaN,NaN,NaN,,NaN,NaN,NaN,NaN,NaN,NaN,NaN,NaN,NaN,NaN,NaN,NaN,,0.09793979,1.2937915,0.4250706,0.9825993,0.0076161586,-0.18558182,-0.10495345,-0.80158764,-0.58859324,-0.15324292,0.59782875,-0.78684014,,NaN,NaN,NaN,NaN,NaN,NaN,NaN,NaN,NaN,NaN,NaN,NaN,,NaN,NaN,NaN,NaN,NaN,NaN,NaN,NaN,NaN,NaN,NaN,NaN,,NaN,NaN,NaN,NaN,NaN,NaN,NaN,,NaN,NaN,NaN,NaN,NaN,NaN,NaN,,-0.11697196646865997,-0.12781700610823973,0.09957687064,-0.11742376536589094,,6.3478947e-06,-3.9339066e-06,1.5497208e-06,1.0,1.2375414e-05,9.402633e-06,-1.2367964e-05,1.0,2.413988e-06,-9.417534e-06,-2.413988e-06,1.0,634,1.941,0,0,0.0,False,-0.26112916771260597,0.9881991323688146
1.9582606870681047,17:43:25.913516,17:42:10.069972,0,,NaN,NaN,NaN,NaN,NaN,NaN,NaN,NaN,NaN,NaN,NaN,NaN,,NaN,NaN,NaN,NaN,NaN,NaN,NaN,NaN,NaN,NaN,NaN,NaN,,0.09793979,1.2937915,0.4250706,0.9825993,0.0076161586,-0.18558182,-0.10495345,-0.80158764,-0.58859324,-0.15324292,0.59782875,-0.78684014,,NaN,NaN,NaN,NaN,NaN,NaN,NaN,NaN,NaN,NaN,NaN,NaN,,NaN,NaN,NaN,NaN,NaN,NaN,NaN,NaN,NaN,NaN,NaN,NaN,,NaN,NaN,NaN,NaN,NaN,NaN,NaN,,NaN,NaN,NaN,NaN,NaN,NaN,NaN,,-0.11697196646865997,-0.12781700610823973,0.09957687064,-0.11742376536589094,,6.3478947e-06,-3.9339066e-06,1.5497208e-06,1.0,1.2375414e-05,9.402633e-06,-1.2367964e-05,1.0,2.413988e-06,-9.417534e-06,-2.413988e-06,1.0,642,1.966,0,0,0.0,False,-0.2611887454311268,0.9881508521680356
1.983731715939939,17:43:25.941318,17:42:10.069972,0,,NaN,NaN,NaN,NaN,NaN,NaN,NaN,NaN,NaN,NaN,NaN,NaN,,NaN,NaN,NaN,NaN,NaN,NaN,NaN,NaN,NaN,NaN,NaN,NaN,,0.09793979,1.2937915,0.4250706,0.9825993,0.0076161586,-0.18558182,-0.10495345,-0.80158764,-0.58859324,-0.15324292,0.59782875,-0.78684014,,NaN,NaN,NaN,NaN,NaN,NaN,NaN,NaN,NaN,NaN,NaN,NaN,,NaN,NaN,NaN,NaN,NaN,NaN,NaN,NaN,NaN,NaN,NaN,NaN,,NaN,NaN,NaN,NaN,NaN,NaN,NaN,,NaN,NaN,NaN,NaN,NaN,NaN,NaN,,-0.11697196646865997,-0.12781700610823973,0.09957687064,-0.11742376536589094,,6.3478947e-06,-3.9339066e-06,1.5497208e-06,1.0,1.2375414e-05,9.402633e-06,-1.2367964e-05,1.0,2.413988e-06,-9.417534e-06,-2.413988e-06,1.0,650,1.99,0,0,0.0,False,-0.26059296824591627,0.9882956927703739
2.0115556600503623,17:43:25.966151,17:42:10.069972,0,,NaN,NaN,NaN,NaN,NaN,NaN,NaN,NaN,NaN,NaN,NaN,NaN,,NaN,NaN,NaN,NaN,NaN,NaN,NaN,NaN,NaN,NaN,NaN,NaN,,0.09793979,1.2937915,0.4250706,0.9825993,0.0076161586,-0.18558182,-0.10495345,-0.80158764,-0.58859324,-0.15324292,0.59782875,-0.78684014,,NaN,NaN,NaN,NaN,NaN,NaN,NaN,NaN,NaN,NaN,NaN,NaN,,NaN,NaN,NaN,NaN,NaN,NaN,NaN,NaN,NaN,NaN,NaN,NaN,,NaN,NaN,NaN,NaN,NaN,NaN,NaN,,NaN,NaN,NaN,NaN,NaN,NaN,NaN,,-0.11697196646865997,-0.12781700610823973,0.09957687064,-0.11742376536589094,,6.3478947e-06,-3.9339066e-06,1.5497208e-06,1.0,1.2375414e-05,9.402633e-06,-1.2367964e-05,1.0,2.413988e-06,-9.417534e-06,-2.413988e-06,1.0,671,2.055,0,0,0.0,False,-0.2616653671792948,0.9876680501602408
2.0363714250270277,17:43:26.026520,17:42:10.069972,0,,NaN,NaN,NaN,NaN,NaN,NaN,NaN,NaN,NaN,NaN,NaN,NaN,,NaN,NaN,NaN,NaN,NaN,NaN,NaN,NaN,NaN,NaN,NaN,NaN,,0.09793979,1.2937915,0.4250706,0.9825993,0.0076161586,-0.18558182,-0.10495345,-0.80158764,-0.58859324,-0.15324292,0.59782875,-0.78684014,,NaN,NaN,NaN,NaN,NaN,NaN,NaN,NaN,NaN,NaN,NaN,NaN,,NaN,NaN,NaN,NaN,NaN,NaN,NaN,NaN,NaN,NaN,NaN,NaN,,NaN,NaN,NaN,NaN,NaN,NaN,NaN,,NaN,NaN,NaN,NaN,NaN,NaN,NaN,,-0.11697196646865997,-0.12781700610823973,0.09957687064,-0.11742376536589094,,6.3478947e-06,-3.9339066e-06,1.5497208e-06,1.0,1.2375414e-05,9.402633e-06,-1.2367964e-05,1.0,2.413988e-06,-9.417534e-06,-2.413988e-06,1.0,679,2.079,0,0,0.0,False,-0.26112916771260597,0.9876680501602408
2.096766446949914,17:43:26.055447,17:42:10.303731,0,,NaN,NaN,NaN,NaN,NaN,NaN,NaN,NaN,NaN,NaN,NaN,NaN,,NaN,NaN,NaN,NaN,NaN,NaN,NaN,NaN,NaN,NaN,NaN,NaN,,0.09793979,1.2937915,0.4250706,0.9825993,0.0076161586,-0.18558182,-0.10495345,-0.80158764,-0.58859324,-0.15324292,0.59782875,-0.78684014,,NaN,NaN,NaN,NaN,NaN,NaN,NaN,NaN,NaN,NaN,NaN,NaN,,NaN,NaN,NaN,NaN,NaN,NaN,NaN,NaN,NaN,NaN,NaN,NaN,,NaN,NaN,NaN,NaN,NaN,NaN,NaN,,NaN,NaN,NaN,NaN,NaN,NaN,NaN,,-0.11697196646865997,-0.12781700610823973,0.09957687064,-0.11742376536589094,,6.3478947e-06,-3.9339066e-06,1.5497208e-06,1.0,1.2375414e-05,9.402633e-06,-1.2367964e-05,1.0,2.413988e-06,-9.417534e-06,-2.413988e-06,1.0,687,2.105,0,0,0.0,False,-0.26106958999408425,0.9874266491563435
2.125694849062711,17:43:26.082273,17:42:10.303731,0,,NaN,NaN,NaN,NaN,NaN,NaN,NaN,NaN,NaN,NaN,NaN,NaN,,NaN,NaN,NaN,NaN,NaN,NaN,NaN,NaN,NaN,NaN,NaN,NaN,,0.09793979,1.2937915,0.4250706,0.9825993,0.0076161586,-0.18558182,-0.10495345,-0.80158764,-0.58859324,-0.15324292,0.59782875,-0.78684014,,NaN,NaN,NaN,NaN,NaN,NaN,NaN,NaN,NaN,NaN,NaN,NaN,,NaN,NaN,NaN,NaN,NaN,NaN,NaN,NaN,NaN,NaN,NaN,NaN,,NaN,NaN,NaN,NaN,NaN,NaN,NaN,,NaN,NaN,NaN,NaN,NaN,NaN,NaN,,-0.11697196646865997,-0.12781700610823973,0.09957687064,-0.11742376536589094,,6.3478947e-06,-3.9339066e-06,1.5497208e-06,1.0,1.2375414e-05,9.402633e-06,-1.2367964e-05,1.0,2.413988e-06,-9.417534e-06,-2.413988e-06,1.0,695,2.13,0,0,0.0,False,-0.2608908568385213,0.987378368955564
2.1524980149697512,17:43:26.106278,17:42:10.303731,0,,NaN,NaN,NaN,NaN,NaN,NaN,NaN,NaN,NaN,NaN,NaN,NaN,,NaN,NaN,NaN,NaN,NaN,NaN,NaN,NaN,NaN,NaN,NaN,NaN,,0.09793979,1.2937915,0.4250706,0.9825993,0.0076161586,-0.18558182,-0.10495345,-0.80158764,-0.58859324,-0.15324292,0.59782875,-0.78684014,,NaN,NaN,NaN,NaN,NaN,NaN,NaN,NaN,NaN,NaN,NaN,NaN,,NaN,NaN,NaN,NaN,NaN,NaN,NaN,NaN,NaN,NaN,NaN,NaN,,NaN,NaN,NaN,NaN,NaN,NaN,NaN,,NaN,NaN,NaN,NaN,NaN,NaN,NaN,,-0.11697196646865997,-0.12781700610823973,0.09957687064,-0.11742376536589094,,6.3478947e-06,-3.9339066e-06,1.5497208e-06,1.0,1.2375414e-05,9.402633e-06,-1.2367964e-05,1.0,2.413988e-06,-9.417534e-06,-2.413988e-06,1.0,703,2.154,0,0,0.0,False,-0.26160578946077395,0.9871369679516666
2.1765157571062446,17:43:26.137261,17:42:10.303731,0,,NaN,NaN,NaN,NaN,NaN,NaN,NaN,NaN,NaN,NaN,NaN,NaN,,NaN,NaN,NaN,NaN,NaN,NaN,NaN,NaN,NaN,NaN,NaN,NaN,,0.09793979,1.2937915,0.4250706,0.9825993,0.0076161586,-0.18558182,-0.10495345,-0.80158764,-0.58859324,-0.15324292,0.59782875,-0.78684014,,NaN,NaN,NaN,NaN,NaN,NaN,NaN,NaN,NaN,NaN,NaN,NaN,,NaN,NaN,NaN,NaN,NaN,NaN,NaN,NaN,NaN,NaN,NaN,NaN,,NaN,NaN,NaN,NaN,NaN,NaN,NaN,,NaN,NaN,NaN,NaN,NaN,NaN,NaN,,-0.11697196646865997,-0.12781700610823973,0.09957687064,-0.11742376536589094,,6.3478947e-06,-3.9339066e-06,1.5497208e-06,1.0,1.2375414e-05,9.402633e-06,-1.2367964e-05,1.0,2.413988e-06,-9.417534e-06,-2.413988e-06,1.0,715,2.191,0,0,0.0,False,-0.2618441003348577,0.9867990065462104
2.207507654093206,17:43:26.161873,17:42:10.303731,0,,NaN,NaN,NaN,NaN,NaN,NaN,NaN,NaN,NaN,NaN,NaN,NaN,,NaN,NaN,NaN,NaN,NaN,NaN,NaN,NaN,NaN,NaN,NaN,NaN,,0.09793979,1.2937915,0.4250706,0.9825993,0.0076161586,-0.18558182,-0.10495345,-0.80158764,-0.58859324,-0.15324292,0.59782875,-0.78684014,,NaN,NaN,NaN,NaN,NaN,NaN,NaN,NaN,NaN,NaN,NaN,NaN,,NaN,NaN,NaN,NaN,NaN,NaN,NaN,NaN,NaN,NaN,NaN,NaN,,NaN,NaN,NaN,NaN,NaN,NaN,NaN,,NaN,NaN,NaN,NaN,NaN,NaN,NaN,,-0.11697196646865997,-0.12781700610823973,0.09957687064,-0.11742376536589094,,6.3478947e-06,-3.9339066e-06,1.5497208e-06,1.0,1.2375414e-05,9.402633e-06,-1.2367964e-05,1.0,2.413988e-06,-9.417534e-06,-2.413988e-06,1.0,740,2.268,0,0,0.0,False,-0.26160578946077395,0.9868955669477697
2.2320424269419163,17:43:26.239448,17:42:10.452588,0,,NaN,NaN,NaN,NaN,NaN,NaN,NaN,NaN,NaN,NaN,NaN,NaN,,NaN,NaN,NaN,NaN,NaN,NaN,NaN,NaN,NaN,NaN,NaN,NaN,,0.09793979,1.2937915,0.4250706,0.9825993,0.0076161586,-0.18558182,-0.10495345,-0.80158764,-0.58859324,-0.15324292,0.59782875,-0.78684014,,NaN,NaN,NaN,NaN,NaN,NaN,NaN,NaN,NaN,NaN,NaN,NaN,,NaN,NaN,NaN,NaN,NaN,NaN,NaN,NaN,NaN,NaN,NaN,NaN,,NaN,NaN,NaN,NaN,NaN,NaN,NaN,,NaN,NaN,NaN,NaN,NaN,NaN,NaN,,-0.11697196646865997,-0.12781700610823973,0.09957687064,-0.11742376536589094,,6.3478947e-06,-3.9339066e-06,1.5497208e-06,1.0,1.2375414e-05,9.402633e-06,-1.2367964e-05,1.0,2.413988e-06,-9.417534e-06,-2.413988e-06,1.0,748,2.292,0,0,0.0,False,-0.26106958999408425,0.9861713639360776
2.3096553559880704,17:43:26.268105,17:42:10.452588,0,,NaN,NaN,NaN,NaN,NaN,NaN,NaN,NaN,NaN,NaN,NaN,NaN,,NaN,NaN,NaN,NaN,NaN,NaN,NaN,NaN,NaN,NaN,NaN,NaN,,0.09793979,1.2937915,0.4250706,0.9825993,0.0076161586,-0.18558182,-0.10495345,-0.80158764,-0.58859324,-0.15324292,0.59782875,-0.78684014,,NaN,NaN,NaN,NaN,NaN,NaN,NaN,NaN,NaN,NaN,NaN,NaN,,NaN,NaN,NaN,NaN,NaN,NaN,NaN,NaN,NaN,NaN,NaN,NaN,,NaN,NaN,NaN,NaN,NaN,NaN,NaN,,NaN,NaN,NaN,NaN,NaN,NaN,NaN,,-0.11697196646865997,-0.12781700610823973,0.09957687064,-0.11742376536589094,,6.3478947e-06,-3.9339066e-06,1.5497208e-06,1.0,1.2375414e-05,9.402633e-06,-1.2367964e-05,1.0,2.413988e-06,-9.417534e-06,-2.413988e-06,1.0,756,2.318,0,0,0.0,False,-0.261427056305211,0.986412764939975
2.33835077797994,17:43:26.291751,17:42:10.452588,0,,NaN,NaN,NaN,NaN,NaN,NaN,NaN,NaN,NaN,NaN,NaN,NaN,,NaN,NaN,NaN,NaN,NaN,NaN,NaN,NaN,NaN,NaN,NaN,NaN,,0.09793979,1.2937915,0.4250706,0.9825993,0.0076161586,-0.18558182,-0.10495345,-0.80158764,-0.58859324,-0.15324292,0.59782875,-0.78684014,,NaN,NaN,NaN,NaN,NaN,NaN,NaN,NaN,NaN,NaN,NaN,NaN,,NaN,NaN,NaN,NaN,NaN,NaN,NaN,NaN,NaN,NaN,NaN,NaN,,NaN,NaN,NaN,NaN,NaN,NaN,NaN,,NaN,NaN,NaN,NaN,NaN,NaN,NaN,,-0.11697196646865997,-0.12781700610823973,0.09957687064,-0.11742376536589094,,6.3478947e-06,-3.9339066e-06,1.5497208e-06,1.0,1.2375414e-05,9.402633e-06,-1.2367964e-05,1.0,2.413988e-06,-9.417534e-06,-2.413988e-06,1.0,764,2.343,0,0,0.0,False,-0.2621419889274632,0.986412764939975
2.3619835830759257,17:43:26.318841,17:42:10.452588,0,,NaN,NaN,NaN,NaN,NaN,NaN,NaN,NaN,NaN,NaN,NaN,NaN,,NaN,NaN,NaN,NaN,NaN,NaN,NaN,NaN,NaN,NaN,NaN,NaN,,0.09793979,1.2937915,0.4250706,0.9825993,0.0076161586,-0.18558182,-0.10495345,-0.80158764,-0.58859324,-0.15324292,0.59782875,-0.78684014,,NaN,NaN,NaN,NaN,NaN,NaN,NaN,NaN,NaN,NaN,NaN,NaN,,NaN,NaN,NaN,NaN,NaN,NaN,NaN,NaN,NaN,NaN,NaN,NaN,,NaN,NaN,NaN,NaN,NaN,NaN,NaN,,NaN,NaN,NaN,NaN,NaN,NaN,NaN,,-0.11697196646865997,-0.12781700610823973,0.09957687064,-0.11742376536589094,,6.3478947e-06,-3.9339066e-06,1.5497208e-06,1.0,1.2375414e-05,9.402633e-06,-1.2367964e-05,1.0,2.413988e-06,-9.417534e-06,-2.413988e-06,1.0,772,2.367,0,0,0.0,False,-0.26160578946077395,0.9858816827314008
2.389083920046687,17:43:26.344344,17:42:10.597693,0,,NaN,NaN,NaN,NaN,NaN,NaN,NaN,NaN,NaN,NaN,NaN,NaN,,NaN,NaN,NaN,NaN,NaN,NaN,NaN,NaN,NaN,NaN,NaN,NaN,,0.09793979,1.2937915,0.4250706,0.9825993,0.0076161586,-0.18558182,-0.10495345,-0.80158764,-0.58859324,-0.15324292,0.59782875,-0.78684014,,NaN,NaN,NaN,NaN,NaN,NaN,NaN,NaN,NaN,NaN,NaN,NaN,,NaN,NaN,NaN,NaN,NaN,NaN,NaN,NaN,NaN,NaN,NaN,NaN,,NaN,NaN,NaN,NaN,NaN,NaN,NaN,,NaN,NaN,NaN,NaN,NaN,NaN,NaN,,-0.11697196646865997,-0.12781700610823973,0.09957687064,-0.11742376536589094,,6.3478947e-06,-3.9339066e-06,1.5497208e-06,1.0,1.2375414e-05,9.402633e-06,-1.2367964e-05,1.0,2.413988e-06,-9.417534e-06,-2.413988e-06,1.0,780,2.392,0,0,0.0,False,-0.261427056305211,0.9862196441368571
2.4145706410054117,17:43:26.358502,17:42:10.597693,0,,NaN,NaN,NaN,NaN,NaN,NaN,NaN,NaN,NaN,NaN,NaN,NaN,,NaN,NaN,NaN,NaN,NaN,NaN,NaN,NaN,NaN,NaN,NaN,NaN,,0.09793979,1.2937915,0.4250706,0.9825993,0.0076161586,-0.18558182,-0.10495345,-0.80158764,-0.58859324,-0.15324292,0.59782875,-0.78684014,,NaN,NaN,NaN,NaN,NaN,NaN,NaN,NaN,NaN,NaN,NaN,NaN,,NaN,NaN,NaN,NaN,NaN,NaN,NaN,NaN,NaN,NaN,NaN,NaN,,NaN,NaN,NaN,NaN,NaN,NaN,NaN,,NaN,NaN,NaN,NaN,NaN,NaN,NaN,,-0.11697196646865997,-0.12781700610823973,0.09957687064,-0.11742376536589094,,6.3478947e-06,-3.9339066e-06,1.5497208e-06,1.0,1.2375414e-05,9.402633e-06,-1.2367964e-05,1.0,2.413988e-06,-9.417534e-06,-2.413988e-06,1.0,805,2.469,0,0,0.0,False,-0.26255903295711036,0.9861230837352981
2.428750090068206,17:43:26.439026,17:42:10.597693,0,,NaN,NaN,NaN,NaN,NaN,NaN,NaN,NaN,NaN,NaN,NaN,NaN,,NaN,NaN,NaN,NaN,NaN,NaN,NaN,NaN,NaN,NaN,NaN,NaN,,0.09793979,1.2937915,0.4250706,0.9825993,0.0076161586,-0.18558182,-0.10495345,-0.80158764,-0.58859324,-0.15324292,0.59782875,-0.78684014,,NaN,NaN,NaN,NaN,NaN,NaN,NaN,NaN,NaN,NaN,NaN,NaN,,NaN,NaN,NaN,NaN,NaN,NaN,NaN,NaN,NaN,NaN,NaN,NaN,,NaN,NaN,NaN,NaN,NaN,NaN,NaN,,NaN,NaN,NaN,NaN,NaN,NaN,NaN,,-0.11697196646865997,-0.12781700610823973,0.09957687064,-0.11742376536589094,,6.3478947e-06,-3.9339066e-06,1.5497208e-06,1.0,1.2375414e-05,9.402633e-06,-1.2367964e-05,1.0,2.413988e-06,-9.417534e-06,-2.413988e-06,1.0,813,2.493,0,0,0.0,False,-0.26190367805337944,0.9861230837352981
2.5092738869134337,17:43:26.462811,17:42:10.726206,0,,NaN,NaN,NaN,NaN,NaN,NaN,NaN,NaN,NaN,NaN,NaN,NaN,,NaN,NaN,NaN,NaN,NaN,NaN,NaN,NaN,NaN,NaN,NaN,NaN,,0.09793979,1.2937915,0.4250706,0.9825993,0.0076161586,-0.18558182,-0.10495345,-0.80158764,-0.58859324,-0.15324292,0.59782875,-0.78684014,,NaN,NaN,NaN,NaN,NaN,NaN,NaN,NaN,NaN,NaN,NaN,NaN,,NaN,NaN,NaN,NaN,NaN,NaN,NaN,NaN,NaN,NaN,NaN,NaN,,NaN,NaN,NaN,NaN,NaN,NaN,NaN,,NaN,NaN,NaN,NaN,NaN,NaN,NaN,,-0.11697196646865997,-0.12781700610823973,0.09957687064,-0.11742376536589094,,6.3478947e-06,-3.9339066e-06,1.5497208e-06,1.0,1.2375414e-05,9.402633e-06,-1.2367964e-05,1.0,2.413988e-06,-9.417534e-06,-2.413988e-06,1.0,821,2.519,0,0,0.0,False,-0.26232072208302704,0.9860748035345186
2.5330118520651013,17:43:26.491278,17:42:10.726206,0,,NaN,NaN,NaN,NaN,NaN,NaN,NaN,NaN,NaN,NaN,NaN,NaN,,NaN,NaN,NaN,NaN,NaN,NaN,NaN,NaN,NaN,NaN,NaN,NaN,,0.09793979,1.2937915,0.4250706,0.9825993,0.0076161586,-0.18558182,-0.10495345,-0.80158764,-0.58859324,-0.15324292,0.59782875,-0.78684014,,NaN,NaN,NaN,NaN,NaN,NaN,NaN,NaN,NaN,NaN,NaN,NaN,,NaN,NaN,NaN,NaN,NaN,NaN,NaN,NaN,NaN,NaN,NaN,NaN,,NaN,NaN,NaN,NaN,NaN,NaN,NaN,,NaN,NaN,NaN,NaN,NaN,NaN,NaN,,-0.11697196646865997,-0.12781700610823973,0.09957687064,-0.11742376536589094,,6.3478947e-06,-3.9339066e-06,1.5497208e-06,1.0,1.2375414e-05,9.402633e-06,-1.2367964e-05,1.0,2.413988e-06,-9.417534e-06,-2.413988e-06,1.0,829,2.543,0,0,0.0,False,-0.2631548101423209,0.9865093253415336
2.5615150739904493,17:43:26.514063,17:42:10.726206,0,,NaN,NaN,NaN,NaN,NaN,NaN,NaN,NaN,NaN,NaN,NaN,NaN,,NaN,NaN,NaN,NaN,NaN,NaN,NaN,NaN,NaN,NaN,NaN,NaN,,0.09793979,1.2937915,0.4250706,0.9825993,0.0076161586,-0.18558182,-0.10495345,-0.80158764,-0.58859324,-0.15324292,0.59782875,-0.78684014,,NaN,NaN,NaN,NaN,NaN,NaN,NaN,NaN,NaN,NaN,NaN,NaN,,NaN,NaN,NaN,NaN,NaN,NaN,NaN,NaN,NaN,NaN,NaN,NaN,,NaN,NaN,NaN,NaN,NaN,NaN,NaN,,NaN,NaN,NaN,NaN,NaN,NaN,NaN,,-0.11697196646865997,-0.12781700610823973,0.09957687064,-0.11742376536589094,,6.3478947e-06,-3.9339066e-06,1.5497208e-06,1.0,1.2375414e-05,9.402633e-06,-1.2367964e-05,1.0,2.413988e-06,-9.417534e-06,-2.413988e-06,1.0,837,2.568,0,0,0.0,False,-0.262797343831195,0.9867024461446514
2.584278173977509,17:43:26.541444,17:42:10.726206,0,,NaN,NaN,NaN,NaN,NaN,NaN,NaN,NaN,NaN,NaN,NaN,NaN,,NaN,NaN,NaN,NaN,NaN,NaN,NaN,NaN,NaN,NaN,NaN,NaN,,0.09795781,1.2937938,0.42507672,0.9825945,0.007579302,-0.1856089,-0.10499863,-0.801588,-0.5885847,-0.15324292,0.59782875,-0.78684014,,NaN,NaN,NaN,NaN,NaN,NaN,NaN,NaN,NaN,NaN,NaN,NaN,,NaN,NaN,NaN,NaN,NaN,NaN,NaN,NaN,NaN,NaN,NaN,NaN,,NaN,NaN,NaN,NaN,NaN,NaN,NaN,,NaN,NaN,NaN,NaN,NaN,NaN,NaN,,-0.11697196646865997,-0.12781700610823973,0.09957687064,-0.11742376536589094,,2.2888184e-05,-1.9073486e-06,-7.867813e-06,1.0,-2.3797154e-05,-1.809001e-05,2.3812056e-05,1.0,-4.6491623e-06,1.8075109e-05,4.6491623e-06,1.0,845,2.592,0,0,0.0,False,-0.26160578946077395,0.9862679243376367
2.6116761919111013,17:43:26.565033,17:42:10.726206,0,,NaN,NaN,NaN,NaN,NaN,NaN,NaN,NaN,NaN,NaN,NaN,NaN,,NaN,NaN,NaN,NaN,NaN,NaN,NaN,NaN,NaN,NaN,NaN,NaN,,0.09795781,1.2937938,0.42507672,0.9825945,0.007579302,-0.1856089,-0.10499863,-0.801588,-0.5885847,-0.15324292,0.59782875,-0.78684014,,NaN,NaN,NaN,NaN,NaN,NaN,NaN,NaN,NaN,NaN,NaN,NaN,,NaN,NaN,NaN,NaN,NaN,NaN,NaN,NaN,NaN,NaN,NaN,NaN,,NaN,NaN,NaN,NaN,NaN,NaN,NaN,,NaN,NaN,NaN,NaN,NaN,NaN,NaN,,-0.11697196646865997,-0.12781700610823973,0.09957687064,-0.11742376536589094,,2.2888184e-05,-1.9073486e-06,-7.867813e-06,1.0,-2.3797154e-05,-1.809001e-05,2.3812056e-05,1.0,-4.6491623e-06,1.8075109e-05,4.6491623e-06,1.0,866,2.657,0,0,0.0,False,-0.2618441003348577,0.9860748035345186
2.635281855938956,17:43:26.632468,17:42:10.876795,0,,NaN,NaN,NaN,NaN,NaN,NaN,NaN,NaN,NaN,NaN,NaN,NaN,,NaN,NaN,NaN,NaN,NaN,NaN,NaN,NaN,NaN,NaN,NaN,NaN,,0.09795781,1.2937938,0.42507672,0.9825945,0.007579302,-0.1856089,-0.10499863,-0.801588,-0.5885847,-0.15324292,0.59782875,-0.78684014,,NaN,NaN,NaN,NaN,NaN,NaN,NaN,NaN,NaN,NaN,NaN,NaN,,NaN,NaN,NaN,NaN,NaN,NaN,NaN,NaN,NaN,NaN,NaN,NaN,,NaN,NaN,NaN,NaN,NaN,NaN,NaN,,NaN,NaN,NaN,NaN,NaN,NaN,NaN,,-0.11697196646865997,-0.12781700610823973,0.09957687064,-0.11742376536589094,,2.2888184e-05,-1.9073486e-06,-7.867813e-06,1.0,-2.3797154e-05,-1.809001e-05,2.3812056e-05,1.0,-4.6491623e-06,1.8075109e-05,4.6491623e-06,1.0,874,2.682,0,0,0.0,False,-0.2622015666459845,0.9861230837352981
2.702572976006195,17:43:26.653602,17:42:10.876795,0,,NaN,NaN,NaN,NaN,NaN,NaN,NaN,NaN,NaN,NaN,NaN,NaN,,NaN,NaN,NaN,NaN,NaN,NaN,NaN,NaN,NaN,NaN,NaN,NaN,,0.09795781,1.2937938,0.42507672,0.9825945,0.007579302,-0.1856089,-0.10499863,-0.801588,-0.5885847,-0.15324292,0.59782875,-0.78684014,,NaN,NaN,NaN,NaN,NaN,NaN,NaN,NaN,NaN,NaN,NaN,NaN,,NaN,NaN,NaN,NaN,NaN,NaN,NaN,NaN,NaN,NaN,NaN,NaN,,NaN,NaN,NaN,NaN,NaN,NaN,NaN,,NaN,NaN,NaN,NaN,NaN,NaN,NaN,,-0.11697196646865997,-0.12781700610823973,0.09957687064,-0.11742376536589094,,2.2888184e-05,-1.9073486e-06,-7.867813e-06,1.0,-2.3797154e-05,-1.809001e-05,2.3812056e-05,1.0,-4.6491623e-06,1.8075109e-05,4.6491623e-06,1.0,882,2.707,0,0,0.0,False,-0.26255903295711036,0.9858334025306215
2.723831190029159,17:43:26.689704,17:42:10.876795,0,,NaN,NaN,NaN,NaN,NaN,NaN,NaN,NaN,NaN,NaN,NaN,NaN,,NaN,NaN,NaN,NaN,NaN,NaN,NaN,NaN,NaN,NaN,NaN,NaN,,0.09795781,1.2937938,0.42507672,0.9825945,0.007579302,-0.1856089,-0.10499863,-0.801588,-0.5885847,-0.15324292,0.59782875,-0.78684014,,NaN,NaN,NaN,NaN,NaN,NaN,NaN,NaN,NaN,NaN,NaN,NaN,,NaN,NaN,NaN,NaN,NaN,NaN,NaN,NaN,NaN,NaN,NaN,NaN,,NaN,NaN,NaN,NaN,NaN,NaN,NaN,,NaN,NaN,NaN,NaN,NaN,NaN,NaN,,-0.11697196646865997,-0.12781700610823973,0.09957687064,-0.11742376536589094,,2.2888184e-05,-1.9073486e-06,-7.867813e-06,1.0,-2.3797154e-05,-1.809001e-05,2.3812056e-05,1.0,-4.6491623e-06,1.8075109e-05,4.6491623e-06,1.0,894,2.744,0,0,0.0,False,-0.26255903295711036,0.9857368421290624
2.7599498401395977,17:43:26.712660,17:42:10.876795,0,,NaN,NaN,NaN,NaN,NaN,NaN,NaN,NaN,NaN,NaN,NaN,NaN,,NaN,NaN,NaN,NaN,NaN,NaN,NaN,NaN,NaN,NaN,NaN,NaN,,0.09795781,1.2937938,0.42507672,0.9825945,0.007579302,-0.1856089,-0.10499863,-0.801588,-0.5885847,-0.15324292,0.59782875,-0.78684014,,NaN,NaN,NaN,NaN,NaN,NaN,NaN,NaN,NaN,NaN,NaN,NaN,,NaN,NaN,NaN,NaN,NaN,NaN,NaN,NaN,NaN,NaN,NaN,NaN,,NaN,NaN,NaN,NaN,NaN,NaN,NaN,,NaN,NaN,NaN,NaN,NaN,NaN,NaN,,-0.11697196646865997,-0.12781700610823973,0.09957687064,-0.11742376536589094,,2.2888184e-05,-1.9073486e-06,-7.867813e-06,1.0,-2.3797154e-05,-1.809001e-05,2.3812056e-05,1.0,-4.6491623e-06,1.8075109e-05,4.6491623e-06,1.0,902,2.769,0,0,0.0,False,-0.26232072208302704,0.9857368421290624
2.782868989976123,17:43:26.743208,17:42:10.876795,0,,NaN,NaN,NaN,NaN,NaN,NaN,NaN,NaN,NaN,NaN,NaN,NaN,,NaN,NaN,NaN,NaN,NaN,NaN,NaN,NaN,NaN,NaN,NaN,NaN,,0.09795781,1.2937938,0.42507672,0.9825945,0.007579302,-0.1856089,-0.10499863,-0.801588,-0.5885847,-0.15324292,0.59782875,-0.78684014,,NaN,NaN,NaN,NaN,NaN,NaN,NaN,NaN,NaN,NaN,NaN,NaN,,NaN,NaN,NaN,NaN,NaN,NaN,NaN,NaN,NaN,NaN,NaN,NaN,,NaN,NaN,NaN,NaN,NaN,NaN,NaN,,NaN,NaN,NaN,NaN,NaN,NaN,NaN,,-0.11697196646865997,-0.12781700610823973,0.09957687064,-0.11742376536589094,,2.2888184e-05,-1.9073486e-06,-7.867813e-06,1.0,-2.3797154e-05,-1.809001e-05,2.3812056e-05,1.0,-4.6491623e-06,1.8075109e-05,4.6491623e-06,1.0,910,2.793,0,0,0.0,False,-0.26249945523859,0.9862196441368571
2.8134541420731694,17:43:26.768885,17:42:11.034102,0,,NaN,NaN,NaN,NaN,NaN,NaN,NaN,NaN,NaN,NaN,NaN,NaN,,NaN,NaN,NaN,NaN,NaN,NaN,NaN,NaN,NaN,NaN,NaN,NaN,,0.09795781,1.2937938,0.42507672,0.9825945,0.007579302,-0.1856089,-0.10499863,-0.801588,-0.5885847,-0.15324292,0.59782875,-0.78684014,,NaN,NaN,NaN,NaN,NaN,NaN,NaN,NaN,NaN,NaN,NaN,NaN,,NaN,NaN,NaN,NaN,NaN,NaN,NaN,NaN,NaN,NaN,NaN,NaN,,NaN,NaN,NaN,NaN,NaN,NaN,NaN,,NaN,NaN,NaN,NaN,NaN,NaN,NaN,,-0.11697196646865997,-0.12781700610823973,0.09957687064,-0.11742376536589094,,2.2888184e-05,-1.9073486e-06,-7.867813e-06,1.0,-2.3797154e-05,-1.809001e-05,2.3812056e-05,1.0,-4.6491623e-06,1.8075109e-05,4.6491623e-06,1.0,931,2.858,0,0,0.0,False,-0.262797343831195,0.9856885619282829
2.8391238909680396,17:43:26.833550,17:42:11.034102,0,,NaN,NaN,NaN,NaN,NaN,NaN,NaN,NaN,NaN,NaN,NaN,NaN,,NaN,NaN,NaN,NaN,NaN,NaN,NaN,NaN,NaN,NaN,NaN,NaN,,0.09795781,1.2937938,0.42507672,0.9825945,0.007579302,-0.1856089,-0.10499863,-0.801588,-0.5885847,-0.15324292,0.59782875,-0.78684014,,NaN,NaN,NaN,NaN,NaN,NaN,NaN,NaN,NaN,NaN,NaN,NaN,,NaN,NaN,NaN,NaN,NaN,NaN,NaN,NaN,NaN,NaN,NaN,NaN,,NaN,NaN,NaN,NaN,NaN,NaN,NaN,,NaN,NaN,NaN,NaN,NaN,NaN,NaN,,-0.11697196646865997,-0.12781700610823973,0.09957687064,-0.11742376536589094,,2.2888184e-05,-1.9073486e-06,-7.867813e-06,1.0,-2.3797154e-05,-1.809001e-05,2.3812056e-05,1.0,-4.6491623e-06,1.8075109e-05,4.6491623e-06,1.0,939,2.882,0,0,0.0,False,-0.26154621174225356,0.9870886877508873
2.9037549460772425,17:43:26.856638,17:42:11.034102,0,,NaN,NaN,NaN,NaN,NaN,NaN,NaN,NaN,NaN,NaN,NaN,NaN,,NaN,NaN,NaN,NaN,NaN,NaN,NaN,NaN,NaN,NaN,NaN,NaN,,0.09795781,1.2937938,0.42507672,0.9825945,0.007579302,-0.1856089,-0.10499863,-0.801588,-0.5885847,-0.15324292,0.59782875,-0.78684014,,NaN,NaN,NaN,NaN,NaN,NaN,NaN,NaN,NaN,NaN,NaN,NaN,,NaN,NaN,NaN,NaN,NaN,NaN,NaN,NaN,NaN,NaN,NaN,NaN,,NaN,NaN,NaN,NaN,NaN,NaN,NaN,,NaN,NaN,NaN,NaN,NaN,NaN,NaN,,-0.11697196646865997,-0.12781700610823973,0.09957687064,-0.11742376536589094,,2.2888184e-05,-1.9073486e-06,-7.867813e-06,1.0,-2.3797154e-05,-1.809001e-05,2.3812056e-05,1.0,-4.6491623e-06,1.8075109e-05,4.6491623e-06,1.0,947,2.908,0,0,0.0,False,-0.2617249448978165,0.9870404075501078
2.926886511966586,17:43:26.883244,17:42:11.034102,0,,NaN,NaN,NaN,NaN,NaN,NaN,NaN,NaN,NaN,NaN,NaN,NaN,,NaN,NaN,NaN,NaN,NaN,NaN,NaN,NaN,NaN,NaN,NaN,NaN,,0.09795781,1.2937938,0.42507672,0.9825945,0.007579302,-0.1856089,-0.10499863,-0.801588,-0.5885847,-0.15324292,0.59782875,-0.78684014,,NaN,NaN,NaN,NaN,NaN,NaN,NaN,NaN,NaN,NaN,NaN,NaN,,NaN,NaN,NaN,NaN,NaN,NaN,NaN,NaN,NaN,NaN,NaN,NaN,,NaN,NaN,NaN,NaN,NaN,NaN,NaN,,NaN,NaN,NaN,NaN,NaN,NaN,NaN,,-0.11697196646865997,-0.12781700610823973,0.09957687064,-0.11742376536589094,,2.2888184e-05,-1.9073486e-06,-7.867813e-06,1.0,-2.3797154e-05,-1.809001e-05,2.3812056e-05,1.0,-4.6491623e-06,1.8075109e-05,4.6491623e-06,1.0,955,2.932,0,0,0.0,False,-0.26190367805337944,0.9875714897586818
2.9534874700475484,17:43:26.904036,17:42:11.034102,0,,NaN,NaN,NaN,NaN,NaN,NaN,NaN,NaN,NaN,NaN,NaN,NaN,,NaN,NaN,NaN,NaN,NaN,NaN,NaN,NaN,NaN,NaN,NaN,NaN,,0.09795781,1.2937938,0.42507672,0.9825945,0.007579302,-0.1856089,-0.10499863,-0.801588,-0.5885847,-0.15324292,0.59782875,-0.78684014,,NaN,NaN,NaN,NaN,NaN,NaN,NaN,NaN,NaN,NaN,NaN,NaN,,NaN,NaN,NaN,NaN,NaN,NaN,NaN,NaN,NaN,NaN,NaN,NaN,,NaN,NaN,NaN,NaN,NaN,NaN,NaN,,NaN,NaN,NaN,NaN,NaN,NaN,NaN,,-0.11697196646865997,-0.12781700610823973,0.09957687064,-0.11742376536589094,,2.2888184e-05,-1.9073486e-06,-7.867813e-06,1.0,-2.3797154e-05,-1.809001e-05,2.3812056e-05,1.0,-4.6491623e-06,1.8075109e-05,4.6491623e-06,1.0,963,2.957,0,0,0.0,False,-0.2621419889274632,0.989164736384404
2.974256179993972,17:43:26.929972,17:42:11.181329,0,,NaN,NaN,NaN,NaN,NaN,NaN,NaN,NaN,NaN,NaN,NaN,NaN,,NaN,NaN,NaN,NaN,NaN,NaN,NaN,NaN,NaN,NaN,NaN,NaN,,0.09795781,1.2937938,0.42507672,0.9825945,0.007579302,-0.1856089,-0.10499863,-0.801588,-0.5885847,-0.15324292,0.59782875,-0.78684014,,NaN,NaN,NaN,NaN,NaN,NaN,NaN,NaN,NaN,NaN,NaN,NaN,,NaN,NaN,NaN,NaN,NaN,NaN,NaN,NaN,NaN,NaN,NaN,NaN,,NaN,NaN,NaN,NaN,NaN,NaN,NaN,,NaN,NaN,NaN,NaN,NaN,NaN,NaN,,-0.11697196646865997,-0.12781700610823973,0.09957687064,-0.11742376536589094,,2.2888184e-05,-1.9073486e-06,-7.867813e-06,1.0,-2.3797154e-05,-1.809001e-05,2.3812056e-05,1.0,-4.6491623e-06,1.8075109e-05,4.6491623e-06,1.0,988,3.034,0,0,0.0,False,-0.26243987752006825,0.9908545434116851
3.0001962839160115,17:43:27.003111,17:42:11.181329,0,,NaN,NaN,NaN,NaN,NaN,NaN,NaN,NaN,NaN,NaN,NaN,NaN,,NaN,NaN,NaN,NaN,NaN,NaN,NaN,NaN,NaN,NaN,NaN,NaN,,0.09795781,1.2937938,0.42507672,0.9825945,0.007579302,-0.1856089,-0.10499863,-0.801588,-0.5885847,-0.15324292,0.59782875,-0.78684014,,NaN,NaN,NaN,NaN,NaN,NaN,NaN,NaN,NaN,NaN,NaN,NaN,,NaN,NaN,NaN,NaN,NaN,NaN,NaN,NaN,NaN,NaN,NaN,NaN,,NaN,NaN,NaN,NaN,NaN,NaN,NaN,,NaN,NaN,NaN,NaN,NaN,NaN,NaN,,-0.11697196646865997,-0.12781700610823973,0.09957687064,-0.11742376536589094,,2.2888184e-05,-1.9073486e-06,-7.867813e-06,1.0,-2.3797154e-05,-1.809001e-05,2.3812056e-05,1.0,-4.6491623e-06,1.8075109e-05,4.6491623e-06,1.0,992,3.046,0,0,0.0,False,-0.2618441003348577,0.9938479158600115
3.0733585220295936,17:43:27.024544,17:42:11.181329,0,,NaN,NaN,NaN,NaN,NaN,NaN,NaN,NaN,NaN,NaN,NaN,NaN,,NaN,NaN,NaN,NaN,NaN,NaN,NaN,NaN,NaN,NaN,NaN,NaN,,0.09795781,1.2937938,0.42507672,0.9825945,0.007579302,-0.1856089,-0.10499863,-0.801588,-0.5885847,-0.15324292,0.59782875,-0.78684014,,NaN,NaN,NaN,NaN,NaN,NaN,NaN,NaN,NaN,NaN,NaN,NaN,,NaN,NaN,NaN,NaN,NaN,NaN,NaN,NaN,NaN,NaN,NaN,NaN,,NaN,NaN,NaN,NaN,NaN,NaN,NaN,,NaN,NaN,NaN,NaN,NaN,NaN,NaN,,-0.11697196646865997,-0.12781700610823973,0.09957687064,-0.11742376536589094,,2.2888184e-05,-1.9073486e-06,-7.867813e-06,1.0,-2.3797154e-05,-1.809001e-05,2.3812056e-05,1.0,-4.6491623e-06,1.8075109e-05,4.6491623e-06,1.0,1000,3.071,0,0,0.0,False,-0.2620824112089424,0.9957308436904104
3.094787114067003,17:43:27.043390,17:42:11.181329,0,,NaN,NaN,NaN,NaN,NaN,NaN,NaN,NaN,NaN,NaN,NaN,NaN,,NaN,NaN,NaN,NaN,NaN,NaN,NaN,NaN,NaN,NaN,NaN,NaN,,0.09795781,1.2937938,0.42507672,0.9825945,0.007579302,-0.1856089,-0.10499863,-0.801588,-0.5885847,-0.15324292,0.59782875,-0.78684014,,NaN,NaN,NaN,NaN,NaN,NaN,NaN,NaN,NaN,NaN,NaN,NaN,,NaN,NaN,NaN,NaN,NaN,NaN,NaN,NaN,NaN,NaN,NaN,NaN,,NaN,NaN,NaN,NaN,NaN,NaN,NaN,,NaN,NaN,NaN,NaN,NaN,NaN,NaN,,-0.11697196646865997,-0.12781700610823973,0.09957687064,-0.11742376536589094,,2.2888184e-05,-1.9073486e-06,-7.867813e-06,1.0,-2.3797154e-05,-1.809001e-05,2.3812056e-05,1.0,-4.6491623e-06,1.8075109e-05,4.6491623e-06,1.0,1008,3.096,0,0,0.0,False,-0.26273776611267374,0.9981931339301626
3.113588527077809,17:43:27.069943,17:42:11.181329,0,,NaN,NaN,NaN,NaN,NaN,NaN,NaN,NaN,NaN,NaN,NaN,NaN,,NaN,NaN,NaN,NaN,NaN,NaN,NaN,NaN,NaN,NaN,NaN,NaN,,0.09795781,1.2937938,0.42507672,0.9825945,0.007579302,-0.1856089,-0.10499863,-0.801588,-0.5885847,-0.15324292,0.59782875,-0.78684014,,NaN,NaN,NaN,NaN,NaN,NaN,NaN,NaN,NaN,NaN,NaN,NaN,,NaN,NaN,NaN,NaN,NaN,NaN,NaN,NaN,NaN,NaN,NaN,NaN,,NaN,NaN,NaN,NaN,NaN,NaN,NaN,,NaN,NaN,NaN,NaN,NaN,NaN,NaN,,-0.11697196646865997,-0.12781700610823973,0.09957687064,-0.11742376536589094,,2.2888184e-05,-1.9073486e-06,-7.867813e-06,1.0,-2.3797154e-05,-1.809001e-05,2.3812056e-05,1.0,-4.6491623e-06,1.8075109e-05,4.6491623e-06,1.0,1029,3.161,0,0,0.0,False,-0.26243987752006825,0.9999795013590027
3.1401525330729783,17:43:27.137767,17:42:11.347742,0,,NaN,NaN,NaN,NaN,NaN,NaN,NaN,NaN,NaN,NaN,NaN,NaN,,NaN,NaN,NaN,NaN,NaN,NaN,NaN,NaN,NaN,NaN,NaN,NaN,,0.09795781,1.2937938,0.42507672,0.9825945,0.007579302,-0.1856089,-0.10499863,-0.801588,-0.5885847,-0.15324292,0.59782875,-0.78684014,,NaN,NaN,NaN,NaN,NaN,NaN,NaN,NaN,NaN,NaN,NaN,NaN,,NaN,NaN,NaN,NaN,NaN,NaN,NaN,NaN,NaN,NaN,NaN,NaN,,NaN,NaN,NaN,NaN,NaN,NaN,NaN,,NaN,NaN,NaN,NaN,NaN,NaN,NaN,,-0.11697196646865997,-0.12781700610823973,0.09957687064,-0.11742376536589094,,2.2888184e-05,-1.9073486e-06,-7.867813e-06,1.0,-2.3797154e-05,-1.809001e-05,2.3812056e-05,1.0,-4.6491623e-06,1.8075109e-05,4.6491623e-06,1.0,1037,3.186,0,0,0.0,False,-0.26196325577190027,1.00200726979174
3.20800792099908,17:43:27.157413,17:42:11.347742,0,,NaN,NaN,NaN,NaN,NaN,NaN,NaN,NaN,NaN,NaN,NaN,NaN,,NaN,NaN,NaN,NaN,NaN,NaN,NaN,NaN,NaN,NaN,NaN,NaN,,0.09795781,1.2937938,0.42507672,0.9825945,0.007579302,-0.1856089,-0.10499863,-0.801588,-0.5885847,-0.15324292,0.59782875,-0.78684014,,NaN,NaN,NaN,NaN,NaN,NaN,NaN,NaN,NaN,NaN,NaN,NaN,,NaN,NaN,NaN,NaN,NaN,NaN,NaN,NaN,NaN,NaN,NaN,NaN,,NaN,NaN,NaN,NaN,NaN,NaN,NaN,,NaN,NaN,NaN,NaN,NaN,NaN,NaN,,-0.11697196646865997,-0.12781700610823973,0.09957687064,-0.11742376536589094,,2.2888184e-05,-1.9073486e-06,-7.867813e-06,1.0,-2.3797154e-05,-1.809001e-05,2.3812056e-05,1.0,-4.6491623e-06,1.8075109e-05,4.6491623e-06,1.0,1062,3.263,0,0,0.0,False,-0.2631548101423209,1.001186506378489
3.227657370036468,17:43:27.229050,17:42:11.454857,0,,NaN,NaN,NaN,NaN,NaN,NaN,NaN,NaN,NaN,NaN,NaN,NaN,,NaN,NaN,NaN,NaN,NaN,NaN,NaN,NaN,NaN,NaN,NaN,NaN,,0.09795781,1.2937938,0.42507672,0.9825945,0.007579302,-0.1856089,-0.10499863,-0.801588,-0.5885847,-0.15324292,0.59782875,-0.78684014,,NaN,NaN,NaN,NaN,NaN,NaN,NaN,NaN,NaN,NaN,NaN,NaN,,NaN,NaN,NaN,NaN,NaN,NaN,NaN,NaN,NaN,NaN,NaN,NaN,,NaN,NaN,NaN,NaN,NaN,NaN,NaN,,NaN,NaN,NaN,NaN,NaN,NaN,NaN,,-0.11697196646865997,-0.12781700610823973,0.09957687064,-0.11742376536589094,,2.2888184e-05,-1.9073486e-06,-7.867813e-06,1.0,-2.3797154e-05,-1.809001e-05,2.3812056e-05,1.0,-4.6491623e-06,1.8075109e-05,4.6491623e-06,1.0,1070,3.289,0,0,0.0,False,-0.2629164992682367,0.9976137715208093
3.299263929016888,17:43:27.258676,17:42:11.454857,0,,NaN,NaN,NaN,NaN,NaN,NaN,NaN,NaN,NaN,NaN,NaN,NaN,,NaN,NaN,NaN,NaN,NaN,NaN,NaN,NaN,NaN,NaN,NaN,NaN,,0.09795781,1.2937938,0.42507672,0.9825945,0.007579302,-0.1856089,-0.10499863,-0.801588,-0.5885847,-0.15324292,0.59782875,-0.78684014,,NaN,NaN,NaN,NaN,NaN,NaN,NaN,NaN,NaN,NaN,NaN,NaN,,NaN,NaN,NaN,NaN,NaN,NaN,NaN,NaN,NaN,NaN,NaN,NaN,,NaN,NaN,NaN,NaN,NaN,NaN,NaN,,NaN,NaN,NaN,NaN,NaN,NaN,NaN,,-0.11697196646865997,-0.12781700610823973,0.09957687064,-0.11742376536589094,,2.2888184e-05,-1.9073486e-06,-7.867813e-06,1.0,-2.3797154e-05,-1.809001e-05,2.3812056e-05,1.0,-4.6491623e-06,1.8075109e-05,4.6491623e-06,1.0,1078,3.313,0,0,0.0,False,-0.26136747858668974,0.9975654913200298
3.3289134870283306,17:43:27.281033,17:42:11.454857,0,,NaN,NaN,NaN,NaN,NaN,NaN,NaN,NaN,NaN,NaN,NaN,NaN,,NaN,NaN,NaN,NaN,NaN,NaN,NaN,NaN,NaN,NaN,NaN,NaN,,0.09795781,1.2937938,0.42507672,0.9825945,0.007579302,-0.1856089,-0.10499863,-0.801588,-0.5885847,-0.15324292,0.59782875,-0.78684014,,NaN,NaN,NaN,NaN,NaN,NaN,NaN,NaN,NaN,NaN,NaN,NaN,,NaN,NaN,NaN,NaN,NaN,NaN,NaN,NaN,NaN,NaN,NaN,NaN,,NaN,NaN,NaN,NaN,NaN,NaN,NaN,,NaN,NaN,NaN,NaN,NaN,NaN,NaN,,-0.11697196646865997,-0.12781700610823973,0.09957687064,-0.11742376536589094,,2.2888184e-05,-1.9073486e-06,-7.867813e-06,1.0,-2.3797154e-05,-1.809001e-05,2.3812056e-05,1.0,-4.6491623e-06,1.8075109e-05,4.6491623e-06,1.0,1099,3.378,0,0,0.0,False,-0.26255903295711036,0.9976137715208093
3.3512233439832926,17:43:27.355959,17:42:11.588073,0,,NaN,NaN,NaN,NaN,NaN,NaN,NaN,NaN,NaN,NaN,NaN,NaN,,NaN,NaN,NaN,NaN,NaN,NaN,NaN,NaN,NaN,NaN,NaN,NaN,,0.09795781,1.2937938,0.42507672,0.9825945,0.007579302,-0.1856089,-0.10499863,-0.801588,-0.5885847,-0.15324292,0.59782875,-0.78684014,,NaN,NaN,NaN,NaN,NaN,NaN,NaN,NaN,NaN,NaN,NaN,NaN,,NaN,NaN,NaN,NaN,NaN,NaN,NaN,NaN,NaN,NaN,NaN,NaN,,NaN,NaN,NaN,NaN,NaN,NaN,NaN,,NaN,NaN,NaN,NaN,NaN,NaN,NaN,,-0.11697196646865997,-0.12781700610823973,0.09957687064,-0.11742376536589094,,2.2888184e-05,-1.9073486e-06,-7.867813e-06,1.0,-2.3797154e-05,-1.809001e-05,2.3812056e-05,1.0,-4.6491623e-06,1.8075109e-05,4.6491623e-06,1.0,1107,3.403,0,0,0.0,False,-0.26190367805337944,0.9992070181465313
3.4262035130523145,17:43:27.372097,17:42:11.588073,0,,NaN,NaN,NaN,NaN,NaN,NaN,NaN,NaN,NaN,NaN,NaN,NaN,,NaN,NaN,NaN,NaN,NaN,NaN,NaN,NaN,NaN,NaN,NaN,NaN,,0.09795781,1.2937938,0.42507672,0.9825945,0.007579302,-0.1856089,-0.10499863,-0.801588,-0.5885847,-0.15324292,0.59782875,-0.78684014,,NaN,NaN,NaN,NaN,NaN,NaN,NaN,NaN,NaN,NaN,NaN,NaN,,NaN,NaN,NaN,NaN,NaN,NaN,NaN,NaN,NaN,NaN,NaN,NaN,,NaN,NaN,NaN,NaN,NaN,NaN,NaN,,NaN,NaN,NaN,NaN,NaN,NaN,NaN,,-0.11697196646865997,-0.12781700610823973,0.09957687064,-0.11742376536589094,,2.2888184e-05,-1.9073486e-06,-7.867813e-06,1.0,-2.3797154e-05,-1.809001e-05,2.3812056e-05,1.0,-4.6491623e-06,1.8075109e-05,4.6491623e-06,1.0,1132,3.48,0,0,0.0,False,-0.2626186106756321,0.9995449795519877
3.442340736044571,17:43:27.447809,17:42:11.588073,0,,NaN,NaN,NaN,NaN,NaN,NaN,NaN,NaN,NaN,NaN,NaN,NaN,,NaN,NaN,NaN,NaN,NaN,NaN,NaN,NaN,NaN,NaN,NaN,NaN,,0.09795781,1.2937938,0.42507672,0.9825945,0.007579302,-0.1856089,-0.10499863,-0.801588,-0.5885847,-0.15324292,0.59782875,-0.78684014,,NaN,NaN,NaN,NaN,NaN,NaN,NaN,NaN,NaN,NaN,NaN,NaN,,NaN,NaN,NaN,NaN,NaN,NaN,NaN,NaN,NaN,NaN,NaN,NaN,,NaN,NaN,NaN,NaN,NaN,NaN,NaN,,NaN,NaN,NaN,NaN,NaN,NaN,NaN,,-0.11697196646865997,-0.12781700610823973,0.09957687064,-0.11742376536589094,,2.2888184e-05,-1.9073486e-06,-7.867813e-06,1.0,-2.3797154e-05,-1.809001e-05,2.3812056e-05,1.0,-4.6491623e-06,1.8075109e-05,4.6491623e-06,1.0,1136,3.493,0,0,0.0,False,-0.2612483231496481,0.9998346607566646
3.517547674011439,17:43:27.461034,17:42:11.588073,0,,NaN,NaN,NaN,NaN,NaN,NaN,NaN,NaN,NaN,NaN,NaN,NaN,,NaN,NaN,NaN,NaN,NaN,NaN,NaN,NaN,NaN,NaN,NaN,NaN,,0.09795781,1.2937938,0.42507672,0.9825945,0.007579302,-0.1856089,-0.10499863,-0.801588,-0.5885847,-0.15324292,0.59782875,-0.78684014,,NaN,NaN,NaN,NaN,NaN,NaN,NaN,NaN,NaN,NaN,NaN,NaN,,NaN,NaN,NaN,NaN,NaN,NaN,NaN,NaN,NaN,NaN,NaN,NaN,,NaN,NaN,NaN,NaN,NaN,NaN,NaN,,NaN,NaN,NaN,NaN,NaN,NaN,NaN,,-0.11697196646865997,-0.12781700610823973,0.09957687064,-0.11742376536589094,,2.2888184e-05,-1.9073486e-06,-7.867813e-06,1.0,-2.3797154e-05,-1.809001e-05,2.3812056e-05,1.0,-4.6491623e-06,1.8075109e-05,4.6491623e-06,1.0,1144,3.518,0,0,0.0,False,-0.26196325577190027,0.99843453493406
3.5312821590341628,17:43:27.493387,17:42:11.754283,0,,NaN,NaN,NaN,NaN,NaN,NaN,NaN,NaN,NaN,NaN,NaN,NaN,,NaN,NaN,NaN,NaN,NaN,NaN,NaN,NaN,NaN,NaN,NaN,NaN,,0.09795781,1.2937938,0.42507672,0.9825945,0.007579302,-0.1856089,-0.10499863,-0.801588,-0.5885847,-0.15324292,0.59782875,-0.78684014,,NaN,NaN,NaN,NaN,NaN,NaN,NaN,NaN,NaN,NaN,NaN,NaN,,NaN,NaN,NaN,NaN,NaN,NaN,NaN,NaN,NaN,NaN,NaN,NaN,,NaN,NaN,NaN,NaN,NaN,NaN,NaN,,NaN,NaN,NaN,NaN,NaN,NaN,NaN,,-0.11697196646865997,-0.12781700610823973,0.09957687064,-0.11742376536589094,,2.2888184e-05,-1.9073486e-06,-7.867813e-06,1.0,-2.3797154e-05,-1.809001e-05,2.3812056e-05,1.0,-4.6491623e-06,1.8075109e-05,4.6491623e-06,1.0,1165,3.583,0,0,0.0,False,-0.26148663402373185,0.9988207765402957
3.563634284073487,17:43:27.551877,17:42:11.754283,0,,NaN,NaN,NaN,NaN,NaN,NaN,NaN,NaN,NaN,NaN,NaN,NaN,,NaN,NaN,NaN,NaN,NaN,NaN,NaN,NaN,NaN,NaN,NaN,NaN,,0.09795781,1.2937938,0.42507672,0.9825945,0.007579302,-0.1856089,-0.10499863,-0.801588,-0.5885847,-0.15324292,0.59782875,-0.78684014,,NaN,NaN,NaN,NaN,NaN,NaN,NaN,NaN,NaN,NaN,NaN,NaN,,NaN,NaN,NaN,NaN,NaN,NaN,NaN,NaN,NaN,NaN,NaN,NaN,,NaN,NaN,NaN,NaN,NaN,NaN,NaN,,NaN,NaN,NaN,NaN,NaN,NaN,NaN,,-0.11697196646865997,-0.12781700610823973,0.09957687064,-0.11742376536589094,,2.2888184e-05,-1.9073486e-06,-7.867813e-06,1.0,-2.3797154e-05,-1.809001e-05,2.3812056e-05,1.0,-4.6491623e-06,1.8075109e-05,4.6491623e-06,1.0,1177,3.621,0,0,0.0,False,-0.2616653671792948,1.0005588637683562
3.6221229860093445,17:43:27.595971,17:42:11.754283,0,,NaN,NaN,NaN,NaN,NaN,NaN,NaN,NaN,NaN,NaN,NaN,NaN,,NaN,NaN,NaN,NaN,NaN,NaN,NaN,NaN,NaN,NaN,NaN,NaN,,0.09795781,1.2937938,0.42507672,0.9825945,0.007579302,-0.1856089,-0.10499863,-0.801588,-0.5885847,-0.15324292,0.59782875,-0.78684014,,NaN,NaN,NaN,NaN,NaN,NaN,NaN,NaN,NaN,NaN,NaN,NaN,,NaN,NaN,NaN,NaN,NaN,NaN,NaN,NaN,NaN,NaN,NaN,NaN,,NaN,NaN,NaN,NaN,NaN,NaN,NaN,,NaN,NaN,NaN,NaN,NaN,NaN,NaN,,-0.11697196646865997,-0.12781700610823973,0.09957687064,-0.11742376536589094,,2.2888184e-05,-1.9073486e-06,-7.867813e-06,1.0,-2.3797154e-05,-1.809001e-05,2.3812056e-05,1.0,-4.6491623e-06,1.8075109e-05,4.6491623e-06,1.0,1198,3.685,0,0,0.0,False,-0.26232072208302704,1.0011382261777095
3.666195238009095,17:43:27.654779,17:42:11.890826,0,,NaN,NaN,NaN,NaN,NaN,NaN,NaN,NaN,NaN,NaN,NaN,NaN,,NaN,NaN,NaN,NaN,NaN,NaN,NaN,NaN,NaN,NaN,NaN,NaN,,0.097928084,1.2937897,0.42507407,0.9825987,0.007611767,-0.18558505,-0.10495884,-0.8015877,-0.58859223,-0.15324292,0.59782875,-0.78684014,,NaN,NaN,NaN,NaN,NaN,NaN,NaN,NaN,NaN,NaN,NaN,NaN,,NaN,NaN,NaN,NaN,NaN,NaN,NaN,NaN,NaN,NaN,NaN,NaN,,NaN,NaN,NaN,NaN,NaN,NaN,NaN,,NaN,NaN,NaN,NaN,NaN,NaN,NaN,,-0.11697196646865997,-0.12781700610823973,0.09957687064,-0.11742376536589094,,-5.491078e-06,-4.7683716e-07,2.026558e-06,1.0,8.068979e-06,6.1243773e-06,-8.054078e-06,1.0,1.5497208e-06,-6.1243773e-06,-1.5795231e-06,1.0,1206,3.711,0,0,0.0,False,-0.26160578946077395,1.0020555499925194
3.7250211650971323,17:43:27.685467,17:42:11.890826,0,,NaN,NaN,NaN,NaN,NaN,NaN,NaN,NaN,NaN,NaN,NaN,NaN,,NaN,NaN,NaN,NaN,NaN,NaN,NaN,NaN,NaN,NaN,NaN,NaN,,0.097928084,1.2937897,0.42507407,0.9825987,0.007611767,-0.18558505,-0.10495884,-0.8015877,-0.58859223,-0.15324292,0.59782875,-0.78684014,,NaN,NaN,NaN,NaN,NaN,NaN,NaN,NaN,NaN,NaN,NaN,NaN,,NaN,NaN,NaN,NaN,NaN,NaN,NaN,NaN,NaN,NaN,NaN,NaN,,NaN,NaN,NaN,NaN,NaN,NaN,NaN,,NaN,NaN,NaN,NaN,NaN,NaN,NaN,,-0.11697196646865997,-0.12781700610823973,0.09957687064,-0.11742376536589094,,-5.491078e-06,-4.7683716e-07,2.026558e-06,1.0,8.068979e-06,6.1243773e-06,-8.054078e-06,1.0,1.5497208e-06,-6.1243773e-06,-1.5795231e-06,1.0,1214,3.735,0,0,0.0,False,-0.26154621174225356,1.0019107093901811
3.7556914740707725,17:43:27.711159,17:42:11.890826,0,,NaN,NaN,NaN,NaN,NaN,NaN,NaN,NaN,NaN,NaN,NaN,NaN,,NaN,NaN,NaN,NaN,NaN,NaN,NaN,NaN,NaN,NaN,NaN,NaN,,0.097928084,1.2937897,0.42507407,0.9825987,0.007611767,-0.18558505,-0.10495884,-0.8015877,-0.58859223,-0.15324292,0.59782875,-0.78684014,,NaN,NaN,NaN,NaN,NaN,NaN,NaN,NaN,NaN,NaN,NaN,NaN,,NaN,NaN,NaN,NaN,NaN,NaN,NaN,NaN,NaN,NaN,NaN,NaN,,NaN,NaN,NaN,NaN,NaN,NaN,NaN,,NaN,NaN,NaN,NaN,NaN,NaN,NaN,,-0.11697196646865997,-0.12781700610823973,0.09957687064,-0.11742376536589094,,-5.491078e-06,-4.7683716e-07,2.026558e-06,1.0,8.068979e-06,6.1243773e-06,-8.054078e-06,1.0,1.5497208e-06,-6.1243773e-06,-1.5795231e-06,1.0,1235,3.8,0,0,0.0,False,-0.26232072208302704,1.0020555499925194
3.781381518114358,17:43:27.775768,17:42:12.030110,0,,NaN,NaN,NaN,NaN,NaN,NaN,NaN,NaN,NaN,NaN,NaN,NaN,,NaN,NaN,NaN,NaN,NaN,NaN,NaN,NaN,NaN,NaN,NaN,NaN,,0.097928084,1.2937897,0.42507407,0.9825987,0.007611767,-0.18558505,-0.10495884,-0.8015877,-0.58859223,-0.15324292,0.59782875,-0.78684014,,NaN,NaN,NaN,NaN,NaN,NaN,NaN,NaN,NaN,NaN,NaN,NaN,,NaN,NaN,NaN,NaN,NaN,NaN,NaN,NaN,NaN,NaN,NaN,NaN,,NaN,NaN,NaN,NaN,NaN,NaN,NaN,,NaN,NaN,NaN,NaN,NaN,NaN,NaN,,-0.11697196646865997,-0.12781700610823973,0.09957687064,-0.11742376536589094,,-5.491078e-06,-4.7683716e-07,2.026558e-06,1.0,8.068979e-06,6.1243773e-06,-8.054078e-06,1.0,1.5497208e-06,-6.1243773e-06,-1.5795231e-06,1.0,1243,3.825,0,0,0.0,False,-0.2617249448978165,1.00200726979174
3.8459683661349118,17:43:27.802279,17:42:12.030110,0,,NaN,NaN,NaN,NaN,NaN,NaN,NaN,NaN,NaN,NaN,NaN,NaN,,NaN,NaN,NaN,NaN,NaN,NaN,NaN,NaN,NaN,NaN,NaN,NaN,,0.097928084,1.2937897,0.42507407,0.9825987,0.007611767,-0.18558505,-0.10495884,-0.8015877,-0.58859223,-0.15324292,0.59782875,-0.78684014,,NaN,NaN,NaN,NaN,NaN,NaN,NaN,NaN,NaN,NaN,NaN,NaN,,NaN,NaN,NaN,NaN,NaN,NaN,NaN,NaN,NaN,NaN,NaN,NaN,,NaN,NaN,NaN,NaN,NaN,NaN,NaN,,NaN,NaN,NaN,NaN,NaN,NaN,NaN,,-0.11697196646865997,-0.12781700610823973,0.09957687064,-0.11742376536589094,,-5.491078e-06,-4.7683716e-07,2.026558e-06,1.0,8.068979e-06,6.1243773e-06,-8.054078e-06,1.0,1.5497208e-06,-6.1243773e-06,-1.5795231e-06,1.0,1268,3.902,0,0,0.0,False,-0.261427056305211,1.0022003905948578
3.8724733099807054,17:43:27.878927,17:42:12.030110,0,,NaN,NaN,NaN,NaN,NaN,NaN,NaN,NaN,NaN,NaN,NaN,NaN,,NaN,NaN,NaN,NaN,NaN,NaN,NaN,NaN,NaN,NaN,NaN,NaN,,0.097928084,1.2937897,0.42507407,0.9825987,0.007611767,-0.18558505,-0.10495884,-0.8015877,-0.58859223,-0.15324292,0.59782875,-0.78684014,,NaN,NaN,NaN,NaN,NaN,NaN,NaN,NaN,NaN,NaN,NaN,NaN,,NaN,NaN,NaN,NaN,NaN,NaN,NaN,NaN,NaN,NaN,NaN,NaN,,NaN,NaN,NaN,NaN,NaN,NaN,NaN,,NaN,NaN,NaN,NaN,NaN,NaN,NaN,,-0.11697196646865997,-0.12781700610823973,0.09957687064,-0.11742376536589094,,-5.491078e-06,-4.7683716e-07,2.026558e-06,1.0,8.068979e-06,6.1243773e-06,-8.054078e-06,1.0,1.5497208e-06,-6.1243773e-06,-1.5795231e-06,1.0,1276,3.928,0,0,0.0,False,-0.261427056305211,1.0019107093901811
3.949173950124532,17:43:27.898340,17:42:12.150233,0,,NaN,NaN,NaN,NaN,NaN,NaN,NaN,NaN,NaN,NaN,NaN,NaN,,NaN,NaN,NaN,NaN,NaN,NaN,NaN,NaN,NaN,NaN,NaN,NaN,,0.097928084,1.2937897,0.42507407,0.9825987,0.007611767,-0.18558505,-0.10495884,-0.8015877,-0.58859223,-0.15324292,0.59782875,-0.78684014,,NaN,NaN,NaN,NaN,NaN,NaN,NaN,NaN,NaN,NaN,NaN,NaN,,NaN,NaN,NaN,NaN,NaN,NaN,NaN,NaN,NaN,NaN,NaN,NaN,,NaN,NaN,NaN,NaN,NaN,NaN,NaN,,NaN,NaN,NaN,NaN,NaN,NaN,NaN,,-0.11697196646865997,-0.12781700610823973,0.09957687064,-0.11742376536589094,,-5.491078e-06,-4.7683716e-07,2.026558e-06,1.0,8.068979e-06,6.1243773e-06,-8.054078e-06,1.0,1.5497208e-06,-6.1243773e-06,-1.5795231e-06,1.0,1297,3.992,0,0,0.0,False,-0.2622015666459845,1.0019589895909604
3.9685651359613985,17:43:27.966897,17:42:12.150233,0,,NaN,NaN,NaN,NaN,NaN,NaN,NaN,NaN,NaN,NaN,NaN,NaN,,NaN,NaN,NaN,NaN,NaN,NaN,NaN,NaN,NaN,NaN,NaN,NaN,,0.097928084,1.2937897,0.42507407,0.9825987,0.007611767,-0.18558505,-0.10495884,-0.8015877,-0.58859223,-0.15324292,0.59782875,-0.78684014,,NaN,NaN,NaN,NaN,NaN,NaN,NaN,NaN,NaN,NaN,NaN,NaN,,NaN,NaN,NaN,NaN,NaN,NaN,NaN,NaN,NaN,NaN,NaN,NaN,,NaN,NaN,NaN,NaN,NaN,NaN,NaN,,NaN,NaN,NaN,NaN,NaN,NaN,NaN,,-0.11697196646865997,-0.12781700610823973,0.09957687064,-0.11742376536589094,,-5.491078e-06,-4.7683716e-07,2.026558e-06,1.0,8.068979e-06,6.1243773e-06,-8.054078e-06,1.0,1.5497208e-06,-6.1243773e-06,-1.5795231e-06,1.0,1305,4.017,0,0,0.0,False,-0.2623802998015474,1.00200726979174
4.037143640918657,17:43:27.994539,17:42:12.150233,0,,NaN,NaN,NaN,NaN,NaN,NaN,NaN,NaN,NaN,NaN,NaN,NaN,,NaN,NaN,NaN,NaN,NaN,NaN,NaN,NaN,NaN,NaN,NaN,NaN,,0.097928084,1.2937897,0.42507407,0.9825987,0.007611767,-0.18558505,-0.10495884,-0.8015877,-0.58859223,-0.15324292,0.59782875,-0.78684014,,NaN,NaN,NaN,NaN,NaN,NaN,NaN,NaN,NaN,NaN,NaN,NaN,,NaN,NaN,NaN,NaN,NaN,NaN,NaN,NaN,NaN,NaN,NaN,NaN,,NaN,NaN,NaN,NaN,NaN,NaN,NaN,,NaN,NaN,NaN,NaN,NaN,NaN,NaN,,-0.11697196646865997,-0.12781700610823973,0.09957687064,-0.11742376536589094,,-5.491078e-06,-4.7683716e-07,2.026558e-06,1.0,8.068979e-06,6.1243773e-06,-8.054078e-06,1.0,1.5497208e-06,-6.1243773e-06,-1.5795231e-06,1.0,1313,4.042,0,0,0.0,False,-0.2626186106756321,1.0019107093901811
4.064782538916916,17:43:28.022458,17:42:12.150233,0,,NaN,NaN,NaN,NaN,NaN,NaN,NaN,NaN,NaN,NaN,NaN,NaN,,NaN,NaN,NaN,NaN,NaN,NaN,NaN,NaN,NaN,NaN,NaN,NaN,,0.097928084,1.2937897,0.42507407,0.9825987,0.007611767,-0.18558505,-0.10495884,-0.8015877,-0.58859223,-0.15324292,0.59782875,-0.78684014,,NaN,NaN,NaN,NaN,NaN,NaN,NaN,NaN,NaN,NaN,NaN,NaN,,NaN,NaN,NaN,NaN,NaN,NaN,NaN,NaN,NaN,NaN,NaN,NaN,,NaN,NaN,NaN,NaN,NaN,NaN,NaN,,NaN,NaN,NaN,NaN,NaN,NaN,NaN,,-0.11697196646865997,-0.12781700610823973,0.09957687064,-0.11742376536589094,,-5.491078e-06,-4.7683716e-07,2.026558e-06,1.0,8.068979e-06,6.1243773e-06,-8.054078e-06,1.0,1.5497208e-06,-6.1243773e-06,-1.5795231e-06,1.0,1334,4.107,0,0,0.0,False,-0.2613079008681689,1.0022969509964168
4.092703364090994,17:43:28.082594,17:42:12.305526,0,,NaN,NaN,NaN,NaN,NaN,NaN,NaN,NaN,NaN,NaN,NaN,NaN,,NaN,NaN,NaN,NaN,NaN,NaN,NaN,NaN,NaN,NaN,NaN,NaN,,0.097928084,1.2937897,0.42507407,0.9825987,0.007611767,-0.18558505,-0.10495884,-0.8015877,-0.58859223,-0.15324292,0.59782875,-0.78684014,,NaN,NaN,NaN,NaN,NaN,NaN,NaN,NaN,NaN,NaN,NaN,NaN,,NaN,NaN,NaN,NaN,NaN,NaN,NaN,NaN,NaN,NaN,NaN,NaN,,NaN,NaN,NaN,NaN,NaN,NaN,NaN,,NaN,NaN,NaN,NaN,NaN,NaN,NaN,,-0.11697196646865997,-0.12781700610823973,0.09957687064,-0.11742376536589094,,-5.491078e-06,-4.7683716e-07,2.026558e-06,1.0,8.068979e-06,6.1243773e-06,-8.054078e-06,1.0,1.5497208e-06,-6.1243773e-06,-1.5795231e-06,1.0,1342,4.133,0,0,0.0,False,-0.26196325577190027,1.0023452311971963
4.152843202929944,17:43:28.102143,17:42:12.305526,0,,NaN,NaN,NaN,NaN,NaN,NaN,NaN,NaN,NaN,NaN,NaN,NaN,,NaN,NaN,NaN,NaN,NaN,NaN,NaN,NaN,NaN,NaN,NaN,NaN,,0.097928084,1.2937897,0.42507407,0.9825987,0.007611767,-0.18558505,-0.10495884,-0.8015877,-0.58859223,-0.15324292,0.59782875,-0.78684014,,NaN,NaN,NaN,NaN,NaN,NaN,NaN,NaN,NaN,NaN,NaN,NaN,,NaN,NaN,NaN,NaN,NaN,NaN,NaN,NaN,NaN,NaN,NaN,NaN,,NaN,NaN,NaN,NaN,NaN,NaN,NaN,,NaN,NaN,NaN,NaN,NaN,NaN,NaN,,-0.11697196646865997,-0.12781700610823973,0.09957687064,-0.11742376536589094,,-5.491078e-06,-4.7683716e-07,2.026558e-06,1.0,8.068979e-06,6.1243773e-06,-8.054078e-06,1.0,1.5497208e-06,-6.1243773e-06,-1.5795231e-06,1.0,1346,4.145,0,0,0.0,False,-0.26285692154971585,1.0026349124018727
4.172390283085406,17:43:28.128432,17:42:12.305526,0,,NaN,NaN,NaN,NaN,NaN,NaN,NaN,NaN,NaN,NaN,NaN,NaN,,NaN,NaN,NaN,NaN,NaN,NaN,NaN,NaN,NaN,NaN,NaN,NaN,,0.097928084,1.2937897,0.42507407,0.9825987,0.007611767,-0.18558505,-0.10495884,-0.8015877,-0.58859223,-0.15324292,0.59782875,-0.78684014,,NaN,NaN,NaN,NaN,NaN,NaN,NaN,NaN,NaN,NaN,NaN,NaN,,NaN,NaN,NaN,NaN,NaN,NaN,NaN,NaN,NaN,NaN,NaN,NaN,,NaN,NaN,NaN,NaN,NaN,NaN,NaN,,NaN,NaN,NaN,NaN,NaN,NaN,NaN,,-0.11697196646865997,-0.12781700610823973,0.09957687064,-0.11742376536589094,,-5.491078e-06,-4.7683716e-07,2.026558e-06,1.0,8.068979e-06,6.1243773e-06,-8.054078e-06,1.0,1.5497208e-06,-6.1243773e-06,-1.5795231e-06,1.0,1371,4.222,1,1,0.013,False,-0.26202283349042155,1.0024900717995346
4.198676007101312,17:43:28.191148,17:42:12.414218,0,,NaN,NaN,NaN,NaN,NaN,NaN,NaN,NaN,NaN,NaN,NaN,NaN,,NaN,NaN,NaN,NaN,NaN,NaN,NaN,NaN,NaN,NaN,NaN,NaN,,0.097928084,1.2937897,0.42507407,0.9825987,0.007611767,-0.18558505,-0.10495884,-0.8015877,-0.58859223,-0.15324292,0.59782875,-0.78684014,,NaN,NaN,NaN,NaN,NaN,NaN,NaN,NaN,NaN,NaN,NaN,NaN,,NaN,NaN,NaN,NaN,NaN,NaN,NaN,NaN,NaN,NaN,NaN,NaN,,NaN,NaN,NaN,NaN,NaN,NaN,NaN,,NaN,NaN,NaN,NaN,NaN,NaN,NaN,,-0.11697196646865997,-0.12781700610823973,0.09957687064,-0.11742376536589094,,-5.491078e-06,-4.7683716e-07,2.026558e-06,1.0,8.068979e-06,6.1243773e-06,-8.054078e-06,1.0,1.5497208e-06,-6.1243773e-06,-1.5795231e-06,1.0,1384,4.263,1,1,0.054,False,-0.2629164992682367,1.0024417915987551
4.261394880944863,17:43:28.238124,17:42:12.414218,0,,NaN,NaN,NaN,NaN,NaN,NaN,NaN,NaN,NaN,NaN,NaN,NaN,,NaN,NaN,NaN,NaN,NaN,NaN,NaN,NaN,NaN,NaN,NaN,NaN,,0.097928084,1.2937897,0.42507407,0.9825987,0.007611767,-0.18558505,-0.10495884,-0.8015877,-0.58859223,-0.15324292,0.59782875,-0.78684014,,NaN,NaN,NaN,NaN,NaN,NaN,NaN,NaN,NaN,NaN,NaN,NaN,,NaN,NaN,NaN,NaN,NaN,NaN,NaN,NaN,NaN,NaN,NaN,NaN,,NaN,NaN,NaN,NaN,NaN,NaN,NaN,,NaN,NaN,NaN,NaN,NaN,NaN,NaN,,-0.11697196646865997,-0.12781700610823973,0.09957687064,-0.11742376536589094,,-5.491078e-06,-4.7683716e-07,2.026558e-06,1.0,8.068979e-06,6.1243773e-06,-8.054078e-06,1.0,1.5497208e-06,-6.1243773e-06,-1.5795231e-06,1.0,1397,4.304,1,1,0.095,False,-0.2623802998015474,1.0048075214369485
4.308350986102596,17:43:28.278602,17:42:12.545458,0,,NaN,NaN,NaN,NaN,NaN,NaN,NaN,NaN,NaN,NaN,NaN,NaN,,NaN,NaN,NaN,NaN,NaN,NaN,NaN,NaN,NaN,NaN,NaN,NaN,,0.097928084,1.2937897,0.42507407,0.9825987,0.007611767,-0.18558505,-0.10495884,-0.8015877,-0.58859223,-0.15324292,0.59782875,-0.78684014,,NaN,NaN,NaN,NaN,NaN,NaN,NaN,NaN,NaN,NaN,NaN,NaN,,NaN,NaN,NaN,NaN,NaN,NaN,NaN,NaN,NaN,NaN,NaN,NaN,,NaN,NaN,NaN,NaN,NaN,NaN,NaN,,NaN,NaN,NaN,NaN,NaN,NaN,NaN,,-0.11697196646865997,-0.12781700610823973,0.09957687064,-0.11742376536589094,,-5.491078e-06,-4.7683716e-07,2.026558e-06,1.0,8.068979e-06,6.1243773e-06,-8.054078e-06,1.0,1.5497208e-06,-6.1243773e-06,-1.5795231e-06,1.0,1406,4.332,1,1,0.123,False,-0.26196325577190027,1.0066904492673474
4.348846397129819,17:43:28.308517,17:42:12.545458,0,,NaN,NaN,NaN,NaN,NaN,NaN,NaN,NaN,NaN,NaN,NaN,NaN,,NaN,NaN,NaN,NaN,NaN,NaN,NaN,NaN,NaN,NaN,NaN,NaN,,0.097928084,1.2937897,0.42507407,0.9825987,0.007611767,-0.18558505,-0.10495884,-0.8015877,-0.58859223,-0.15324292,0.59782875,-0.78684014,,NaN,NaN,NaN,NaN,NaN,NaN,NaN,NaN,NaN,NaN,NaN,NaN,,NaN,NaN,NaN,NaN,NaN,NaN,NaN,NaN,NaN,NaN,NaN,NaN,,NaN,NaN,NaN,NaN,NaN,NaN,NaN,,NaN,NaN,NaN,NaN,NaN,NaN,NaN,,-0.11697196646865997,-0.12781700610823973,0.09957687064,-0.11742376536589094,,-5.491078e-06,-4.7683716e-07,2.026558e-06,1.0,8.068979e-06,6.1243773e-06,-8.054078e-06,1.0,1.5497208e-06,-6.1243773e-06,-1.5795231e-06,1.0,1415,4.361,1,1,0.152,False,-0.26309523242380006,1.0073180918774804
4.378763779066503,17:43:28.340278,17:42:12.545458,0,,NaN,NaN,NaN,NaN,NaN,NaN,NaN,NaN,NaN,NaN,NaN,NaN,,NaN,NaN,NaN,NaN,NaN,NaN,NaN,NaN,NaN,NaN,NaN,NaN,,0.097928084,1.2937897,0.42507407,0.9825987,0.007611767,-0.18558505,-0.10495884,-0.8015877,-0.58859223,-0.15324292,0.59782875,-0.78684014,,NaN,NaN,NaN,NaN,NaN,NaN,NaN,NaN,NaN,NaN,NaN,NaN,,NaN,NaN,NaN,NaN,NaN,NaN,NaN,NaN,NaN,NaN,NaN,NaN,,NaN,NaN,NaN,NaN,NaN,NaN,NaN,,NaN,NaN,NaN,NaN,NaN,NaN,NaN,,-0.11697196646865997,-0.12781700610823973,0.09957687064,-0.11742376536589094,,-5.491078e-06,-4.7683716e-07,2.026558e-06,1.0,8.068979e-06,6.1243773e-06,-8.054078e-06,1.0,1.5497208e-06,-6.1243773e-06,-1.5795231e-06,1.0,1424,4.39,0,1,0.165,False,-0.26285692154971585,1.0086216572985258
4.410506705986336,17:43:28.359636,17:42:12.545458,0,,NaN,NaN,NaN,NaN,NaN,NaN,NaN,NaN,NaN,NaN,NaN,NaN,,NaN,NaN,NaN,NaN,NaN,NaN,NaN,NaN,NaN,NaN,NaN,NaN,,0.097928084,1.2937897,0.42507407,0.9825987,0.007611767,-0.18558505,-0.10495884,-0.8015877,-0.58859223,-0.15324292,0.59782875,-0.78684014,,NaN,NaN,NaN,NaN,NaN,NaN,NaN,NaN,NaN,NaN,NaN,NaN,,NaN,NaN,NaN,NaN,NaN,NaN,NaN,NaN,NaN,NaN,NaN,NaN,,NaN,NaN,NaN,NaN,NaN,NaN,NaN,,NaN,NaN,NaN,NaN,NaN,NaN,NaN,,-0.11697196646865997,-0.12781700610823973,0.09957687064,-0.11742376536589094,,-5.491078e-06,-4.7683716e-07,2.026558e-06,1.0,8.068979e-06,6.1243773e-06,-8.054078e-06,1.0,1.5497208e-06,-6.1243773e-06,-1.5795231e-06,1.0,1433,4.418,0,1,0.165,False,-0.26190367805337944,1.0087182177000849
4.429885030956939,17:43:28.389877,17:42:12.654202,0,,NaN,NaN,NaN,NaN,NaN,NaN,NaN,NaN,NaN,NaN,NaN,NaN,,NaN,NaN,NaN,NaN,NaN,NaN,NaN,NaN,NaN,NaN,NaN,NaN,,0.097928084,1.2937897,0.42507407,0.9825987,0.007611767,-0.18558505,-0.10495884,-0.8015877,-0.58859223,-0.15324292,0.59782875,-0.78684014,,NaN,NaN,NaN,NaN,NaN,NaN,NaN,NaN,NaN,NaN,NaN,NaN,,NaN,NaN,NaN,NaN,NaN,NaN,NaN,NaN,NaN,NaN,NaN,NaN,,NaN,NaN,NaN,NaN,NaN,NaN,NaN,,NaN,NaN,NaN,NaN,NaN,NaN,NaN,,-0.11697196646865997,-0.12781700610823973,0.09957687064,-0.11742376536589094,,-5.491078e-06,-4.7683716e-07,2.026558e-06,1.0,8.068979e-06,6.1243773e-06,-8.054078e-06,1.0,1.5497208e-06,-6.1243773e-06,-1.5795231e-06,1.0,1442,4.447,0,1,0.165,False,-0.26202283349042155,1.009056179105541
4.460103884106502,17:43:28.426707,17:42:12.654202,0,,NaN,NaN,NaN,NaN,NaN,NaN,NaN,NaN,NaN,NaN,NaN,NaN,,NaN,NaN,NaN,NaN,NaN,NaN,NaN,NaN,NaN,NaN,NaN,NaN,,0.097928084,1.2937897,0.42507407,0.9825987,0.007611767,-0.18558505,-0.10495884,-0.8015877,-0.58859223,-0.15324292,0.59782875,-0.78684014,,NaN,NaN,NaN,NaN,NaN,NaN,NaN,NaN,NaN,NaN,NaN,NaN,,NaN,NaN,NaN,NaN,NaN,NaN,NaN,NaN,NaN,NaN,NaN,NaN,,NaN,NaN,NaN,NaN,NaN,NaN,NaN,,NaN,NaN,NaN,NaN,NaN,NaN,NaN,,-0.11697196646865997,-0.12781700610823973,0.09957687064,-0.11742376536589094,,-5.491078e-06,-4.7683716e-07,2.026558e-06,1.0,8.068979e-06,6.1243773e-06,-8.054078e-06,1.0,1.5497208e-06,-6.1243773e-06,-1.5795231e-06,1.0,1451,4.476,0,1,0.165,False,-0.26309523242380006,1.0125323535616622
4.496954584028572,17:43:28.455837,17:42:12.654202,0,,NaN,NaN,NaN,NaN,NaN,NaN,NaN,NaN,NaN,NaN,NaN,NaN,,NaN,NaN,NaN,NaN,NaN,NaN,NaN,NaN,NaN,NaN,NaN,NaN,,0.097928084,1.2937897,0.42507407,0.9825987,0.007611767,-0.18558505,-0.10495884,-0.8015877,-0.58859223,-0.15324292,0.59782875,-0.78684014,,NaN,NaN,NaN,NaN,NaN,NaN,NaN,NaN,NaN,NaN,NaN,NaN,,NaN,NaN,NaN,NaN,NaN,NaN,NaN,NaN,NaN,NaN,NaN,NaN,,NaN,NaN,NaN,NaN,NaN,NaN,NaN,,NaN,NaN,NaN,NaN,NaN,NaN,NaN,,-0.11697196646865997,-0.12781700610823973,0.09957687064,-0.11742376536589094,,-5.491078e-06,-4.7683716e-07,2.026558e-06,1.0,8.068979e-06,6.1243773e-06,-8.054078e-06,1.0,1.5497208e-06,-6.1243773e-06,-1.5795231e-06,1.0,1460,4.504,0,1,0.165,False,-0.2630356547052788,1.0123392327585439
4.526083212113008,17:43:28.479935,17:42:12.654202,0,,NaN,NaN,NaN,NaN,NaN,NaN,NaN,NaN,NaN,NaN,NaN,NaN,,NaN,NaN,NaN,NaN,NaN,NaN,NaN,NaN,NaN,NaN,NaN,NaN,,0.097928084,1.2937897,0.42507407,0.9825987,0.007611767,-0.18558505,-0.10495884,-0.8015877,-0.58859223,-0.15324292,0.59782875,-0.78684014,,NaN,NaN,NaN,NaN,NaN,NaN,NaN,NaN,NaN,NaN,NaN,NaN,,NaN,NaN,NaN,NaN,NaN,NaN,NaN,NaN,NaN,NaN,NaN,NaN,,NaN,NaN,NaN,NaN,NaN,NaN,NaN,,NaN,NaN,NaN,NaN,NaN,NaN,NaN,,-0.11697196646865997,-0.12781700610823973,0.09957687064,-0.11742376536589094,,-5.491078e-06,-4.7683716e-07,2.026558e-06,1.0,8.068979e-06,6.1243773e-06,-8.054078e-06,1.0,1.5497208e-06,-6.1243773e-06,-1.5795231e-06,1.0,1469,4.533,0,1,0.165,False,-0.2622611443645053,1.0106494257312628
4.550178952049464,17:43:28.507701,17:42:12.754140,0,,NaN,NaN,NaN,NaN,NaN,NaN,NaN,NaN,NaN,NaN,NaN,NaN,,NaN,NaN,NaN,NaN,NaN,NaN,NaN,NaN,NaN,NaN,NaN,NaN,,0.097928084,1.2937897,0.42507407,0.9825987,0.007611767,-0.18558505,-0.10495884,-0.8015877,-0.58859223,-0.15324292,0.59782875,-0.78684014,,NaN,NaN,NaN,NaN,NaN,NaN,NaN,NaN,NaN,NaN,NaN,NaN,,NaN,NaN,NaN,NaN,NaN,NaN,NaN,NaN,NaN,NaN,NaN,NaN,,NaN,NaN,NaN,NaN,NaN,NaN,NaN,,NaN,NaN,NaN,NaN,NaN,NaN,NaN,,-0.11697196646865997,-0.12781700610823973,0.09957687064,-0.11742376536589094,,-5.491078e-06,-4.7683716e-07,2.026558e-06,1.0,8.068979e-06,6.1243773e-06,-8.054078e-06,1.0,1.5497208e-06,-6.1243773e-06,-1.5795231e-06,1.0,1478,4.562,0,1,0.165,False,-0.2636314318904893,1.0096355415148943
4.577933202963322,17:43:28.538404,17:42:12.754140,0,,NaN,NaN,NaN,NaN,NaN,NaN,NaN,NaN,NaN,NaN,NaN,NaN,,NaN,NaN,NaN,NaN,NaN,NaN,NaN,NaN,NaN,NaN,NaN,NaN,,0.097928084,1.2937897,0.42507407,0.9825987,0.007611767,-0.18558505,-0.10495884,-0.8015877,-0.58859223,-0.15324292,0.59782875,-0.78684014,,NaN,NaN,NaN,NaN,NaN,NaN,NaN,NaN,NaN,NaN,NaN,NaN,,NaN,NaN,NaN,NaN,NaN,NaN,NaN,NaN,NaN,NaN,NaN,NaN,,NaN,NaN,NaN,NaN,NaN,NaN,NaN,,NaN,NaN,NaN,NaN,NaN,NaN,NaN,,-0.11697196646865997,-0.12781700610823973,0.09957687064,-0.11742376536589094,,-5.491078e-06,-4.7683716e-07,2.026558e-06,1.0,8.068979e-06,6.1243773e-06,-8.054078e-06,1.0,1.5497208e-06,-6.1243773e-06,-1.5795231e-06,1.0,1487,4.59,0,1,0.165,False,-0.26333354329788383,1.0104563049281452
4.608624045969918,17:43:28.558808,17:42:12.754140,0,,NaN,NaN,NaN,NaN,NaN,NaN,NaN,NaN,NaN,NaN,NaN,NaN,,NaN,NaN,NaN,NaN,NaN,NaN,NaN,NaN,NaN,NaN,NaN,NaN,,0.097928084,1.2937897,0.42507407,0.9825987,0.007611767,-0.18558505,-0.10495884,-0.8015877,-0.58859223,-0.15324292,0.59782875,-0.78684014,,NaN,NaN,NaN,NaN,NaN,NaN,NaN,NaN,NaN,NaN,NaN,NaN,,NaN,NaN,NaN,NaN,NaN,NaN,NaN,NaN,NaN,NaN,NaN,NaN,,NaN,NaN,NaN,NaN,NaN,NaN,NaN,,NaN,NaN,NaN,NaN,NaN,NaN,NaN,,-0.11697196646865997,-0.12781700610823973,0.09957687064,-0.11742376536589094,,-5.491078e-06,-4.7683716e-07,2.026558e-06,1.0,8.068979e-06,6.1243773e-06,-8.054078e-06,1.0,1.5497208e-06,-6.1243773e-06,-1.5795231e-06,1.0,1496,4.619,0,1,0.165,False,-0.2637505873275314,1.0099735029203507
4.629057928919792,17:43:28.588704,17:42:12.754140,0,,NaN,NaN,NaN,NaN,NaN,NaN,NaN,NaN,NaN,NaN,NaN,NaN,,NaN,NaN,NaN,NaN,NaN,NaN,NaN,NaN,NaN,NaN,NaN,NaN,,0.097928084,1.2937897,0.42507407,0.9825987,0.007611767,-0.18558505,-0.10495884,-0.8015877,-0.58859223,-0.15324292,0.59782875,-0.78684014,,NaN,NaN,NaN,NaN,NaN,NaN,NaN,NaN,NaN,NaN,NaN,NaN,,NaN,NaN,NaN,NaN,NaN,NaN,NaN,NaN,NaN,NaN,NaN,NaN,,NaN,NaN,NaN,NaN,NaN,NaN,NaN,,NaN,NaN,NaN,NaN,NaN,NaN,NaN,,-0.11697196646865997,-0.12781700610823973,0.09957687064,-0.11742376536589094,,-5.491078e-06,-4.7683716e-07,2.026558e-06,1.0,8.068979e-06,6.1243773e-06,-8.054078e-06,1.0,1.5497208e-06,-6.1243773e-06,-1.5795231e-06,1.0,1505,4.648,0,1,0.165,False,-0.26327396557936344,1.011035667337499
