AlexandreBanks6/ExpertPlaybackApp/resources/Motions/Pilot_04/PC1/Data_PC1_1.csv
Task Time,PC1 Time,PC2 Time,Gaze Calib,s_T_psm1,Tx,Ty,Tz,R00,R01,R02,R10,R11,R12,R20,R21,R22,s_T_psm3,Tx,Ty,Tz,R00,R01,R02,R10,R11,R12,R20,R21,R22,cart_T_ecm,Tx,Ty,Tz,R00,R01,R02,R10,R11,R12,R20,R21,R22,ecm_T_psm1,Tx,Ty,Tz,R00,R01,R02,R10,R11,R12,R20,R21,R22,ecm_T_psm3,Tx,Ty,Tz,R00,R01,R02,R10,R11,R12,R20,R21,R22,psm1_joints,q1,q2,q3,q4,q5,q6,jaw,psm3_joints,q1,q2,q3,q4,q5,q6,jaw,ecm_joints,q1,q2,q3,q4,ecmi_T_ecm,Tx,Ty,Tz,R00,R01,R02,R10,R11,R12,R20,R21,R22,Sample #,Task Duration (s),Collisions (binary),Collisions (increments),Cumulative Collision Time (s),Clutch Press,MTMR Angle,MTML Angle
""
lci_T_si,,,,,-0.064848,0.0060158353,0.24753708,0.99741,0.018062852,0.06962021,0.059872065,-0.74489254,-0.6644926,0.03985694,0.6669399,-0.7440447
rci_T_si,,,,,-0.07478864,0.010140588,0.2572284,0.9943315,0.005651281,0.106174365,0.075483374,-0.74079365,-0.6674781,0.07488119,0.6717089,-0.737021
ecm_T_lc,,,,,-4.4061628e-05,-0.00034663224,-0.01840835,-0.99912,0.030754527,0.028518902,-0.031987965,-0.99852574,-0.043852776,0.027128186,-0.04472645,0.9986309
ecm_T_rc,,,,,-0.0043358393,0.01870579,-0.007592615,-0.99555075,-0.052743673,-0.078081585,0.04863213,-0.9973746,0.053654674,-0.08070653,0.04961868,0.9955021
cart_T_ecmi,,,,,0.10781996,1.3465626,0.44453546,0.9966516,-0.008020006,-0.08137113,-0.05822047,-0.76835763,-0.6373672,-0.05741044,0.6399705,-0.7662518
ecmac_T_ecmrep_psm1,,,,,0.011947535,-0.24624088,-0.3140189,0.99787813,0.060519684,0.024013558,-0.059408683,0.9972389,-0.04455629,-0.026643785,0.04303513,0.9987182
ecmac_T_ecmrep_psm3,,,,,-0.020729378,-0.4297972,-0.5440064,0.99962926,-0.018584386,0.019899037,0.019259674,0.999226,-0.034299888,-0.019246193,0.03467042,0.99921346
""
0,15:49:01.381831,15:48:45.568637,0,,0.114456,0.0020981282,0.017969891,0.8615959,0.250712,-0.44135678,0.4171024,0.14582658,0.8970841,0.28927127,-0.95701504,0.021070868,,0.014827438,-0.04106316,0.07170403,-0.68887585,0.613257,0.3864784,0.3756568,-0.15395582,0.9138815,0.61994493,0.77473426,-0.124317914,,0.10785352,1.3465594,0.44453862,0.9966508,-0.008030153,-0.08137955,-0.05823363,-0.7683575,-0.6373661,-0.05741044,0.6399705,-0.7662518,,-0.07835345,0.26097906,-0.08037158,-0.8734678,-0.1989285,0.4443888,0.47648925,-0.5368359,0.6962508,0.10005975,0.81989914,0.5636962,,0.03840662,0.4640724,-0.3758446,0.5976648,-0.68519384,-0.41630065,0.7665623,0.33623323,0.54711014,-0.23490238,-0.6461088,0.7261985,,1.2393982307856688,0.16127383061243045,0.1842676235,3.6993499829539784,-0.251274523068645,-1.1410047551384657,-0.416527368642412,,-0.8509370444793019,-0.46026715657090655,0.14088987123000002,-3.9576879933269127,-1.269762992320238,1.2697428845141172,0.8763409148104081,,-0.039682242205656075,-0.08834420341282298,0.07698115776,-0.04579199763572349,,3.344938e-05,4.172325e-06,-3.0994415e-06,0.99999994,-1.0117888e-05,-8.448958e-06,1.0117888e-05,0.99999994,-7.4505806e-07,8.456409e-06,7.4505806e-07,1.0,39,0.119,1,1,0.094,False,-0.26243987752006825,1.0507702725789931
0.12804459800827317,15:49:01.413236,15:48:45.568637,0,,0.11444707,0.002093777,0.01796925,0.8616072,0.25054955,-0.44142705,0.41719165,0.14578542,0.8970493,0.28910893,-0.9570639,0.02108249,,0.014830828,-0.04106942,0.07170737,-0.68892884,0.613282,0.3863442,0.37564135,-0.15375936,0.9139209,0.6198954,0.7747535,-0.12444505,,0.10785352,1.3465594,0.44453862,0.9966508,-0.008030153,-0.08137955,-0.05823363,-0.7683575,-0.6373661,-0.05741044,0.6399705,-0.7662518,,-0.07834454,0.26097566,-0.0803744,-0.87347,-0.19876394,0.44445816,0.47644725,-0.53689396,0.69623476,0.10024056,0.81990105,0.56366134,,0.03840321,0.46406963,-0.37585112,0.59772354,-0.6852307,-0.4161556,0.76652366,0.33638793,0.54706913,-0.23487882,-0.6459892,0.7263125,,1.2394291217171658,0.1612352169480593,0.1842676235,3.6993499829539784,-0.25113788656887953,-1.1410344943020214,-0.41636402457627786,,-0.8509756581436729,-0.4603134929681519,0.14088987123000002,-3.957897683270397,-1.269762992320238,1.2697428845141172,0.8763409148104081,,-0.039682242205656075,-0.08834420341282298,0.07698115776,-0.04579199763572349,,3.344938e-05,4.172325e-06,-3.0994415e-06,0.99999994,-1.0117888e-05,-8.448958e-06,1.0117888e-05,0.99999994,-7.4505806e-07,8.456409e-06,7.4505806e-07,1.0,56,0.171,1,1,0.146,False,-0.2621419889274632,1.0505288715750958
0.15941212100733537,15:49:01.476123,15:48:45.682431,0,,0.11446161,0.00205943,0.017957613,0.86097026,0.25034222,-0.44278538,0.41845915,0.14628688,0.8963771,0.28917468,-0.9570416,0.021190494,,0.014834024,-0.0410904,0.07170814,-0.68901855,0.61323524,0.38625836,0.37577343,-0.15343952,0.9139204,0.61971563,0.77485394,-0.124715,,0.10785352,1.3465594,0.44453862,0.9966508,-0.008030153,-0.08137955,-0.05823363,-0.7683575,-0.6373661,-0.05741044,0.6399705,-0.7662518,,-0.078358606,0.26094186,-0.08038802,-0.8728307,-0.1985554,0.44580528,0.47745538,-0.5364991,0.69584846,0.10100966,0.82021004,0.56307423,,0.038401008,0.46405435,-0.3758657,0.59782547,-0.6852113,-0.4160411,0.7665108,0.3366956,0.54689795,-0.23466142,-0.64584947,0.726507,,1.2392360533953102,0.1611039304891975,0.18426114205000002,3.6980918432930716,-0.2505913405698178,-1.141480165916807,-0.41636402457627786,,-0.8509756581436729,-0.46046022489276217,0.14089376010000002,-3.958107373213882,-1.2696263558204728,1.2697131453505612,0.8761775707442738,,-0.039682242205656075,-0.08834420341282298,0.07698115776,-0.04579199763572349,,3.344938e-05,4.172325e-06,-3.0994415e-06,0.99999994,-1.0117888e-05,-8.448958e-06,1.0117888e-05,0.99999994,-7.4505806e-07,8.456409e-06,7.4505806e-07,1.0,64,0.196,1,1,0.171,False,-0.2621419889274632,1.0503840309727575
0.22232269900268875,15:49:01.503390,15:48:45.682431,0,,0.11449872,0.0020352006,0.017975003,0.8600165,0.25038072,-0.44461313,0.42010808,0.14712417,0.89546835,0.28962132,-0.9569032,0.021342158,,0.014833063,-0.04109934,0.07170969,-0.6890057,0.6131682,0.38638768,0.37583494,-0.15355921,0.913875,0.61969256,0.7748833,-0.12464705,,0.10785352,1.3465594,0.44453862,0.9966508,-0.008030153,-0.08137955,-0.05823363,-0.7683575,-0.6373661,-0.05741044,0.6399705,-0.7662518,,-0.07839672,0.26093423,-0.08041552,-0.8718932,-0.19859672,0.4476176,0.4790114,-0.5357842,0.6953297,0.10173623,0.8206672,0.5622767,,0.038402244,0.46404892,-0.37587294,0.5978121,-0.68514186,-0.4161746,0.7665392,0.3366345,0.5468956,-0.23460238,-0.64595497,0.72643226,,1.2389966486762092,0.16111937595494594,0.18422873480000002,3.6962046338017105,-0.250044794570756,-1.1419258375315928,-0.41636402457627786,,-0.8509602126779245,-0.4605297294886302,0.14089376010000002,-3.958107373213882,-1.2696263558204728,1.2698765028308423,0.8758508826120053,,-0.039682242205656075,-0.08834420341282298,0.07698115776,-0.04579199763572349,,3.344938e-05,4.172325e-06,-3.0994415e-06,0.99999994,-1.0117888e-05,-8.448958e-06,1.0117888e-05,0.99999994,-7.4505806e-07,8.456409e-06,7.4505806e-07,1.0,85,0.261,1,1,0.236,False,-0.261427056305211,1.050335750771978
0.24952781900356058,15:49:01.557574,15:48:45.682431,0,,0.114619024,0.001927346,0.018053994,0.8625664,0.24946187,-0.44016793,0.4162209,0.14473996,0.8976693,0.28764415,-0.95750666,0.021016419,,0.014835425,-0.041097224,0.07171184,-0.6888372,0.61301565,0.38693,0.37595206,-0.1542714,0.9137069,0.61980885,0.7748625,-0.12419683,,0.10785352,1.3465594,0.44453862,0.9966508,-0.008030153,-0.08137955,-0.05823363,-0.7683575,-0.6373661,-0.05741044,0.6399705,-0.7662518,,-0.07852161,0.26090273,-0.08054105,-0.8743555,-0.19765992,0.44320765,0.474718,-0.5379338,0.69661325,0.10072386,0.81948626,0.5641781,,0.038399555,0.46405166,-0.37587297,0.59762627,-0.6849522,-0.41675335,0.76668453,0.3361132,0.54701257,-0.23460114,-0.6464274,0.72601235,,1.238371107313397,0.1610730395577006,0.18409521693000003,3.7016565723323085,-0.24990815807099057,-1.1420372554352891,-0.41636402457627786,,-0.8509602126779245,-0.4605528976872529,0.14089376010000002,-3.957478303383428,-1.269762992320238,1.2699879207345388,0.8758508826120053,,-0.039682242205656075,-0.08834420341282298,0.07698115776,-0.04579199763572349,,3.344938e-05,4.172325e-06,-3.0994415e-06,0.99999994,-1.0117888e-05,-8.448958e-06,1.0117888e-05,0.99999994,-7.4505806e-07,8.456409e-06,7.4505806e-07,1.0,93,0.286,1,1,0.261,False,-0.261427056305211,1.0503840309727575
0.30376199301099405,15:49:01.586482,15:48:45.682431,0,,0.11471731,0.0018098652,0.018160194,0.86529666,0.24903496,-0.4350208,0.4117074,0.14195946,0.9001913,0.2859344,-0.9580339,0.020307422,,0.014840528,-0.04109189,0.071710706,-0.6889072,0.61281765,0.38711888,0.3761477,-0.15428746,0.9136236,0.61961234,0.77501595,-0.1242204,,0.10785352,1.3465594,0.44453862,0.9966508,-0.008030153,-0.08137955,-0.05823363,-0.7683575,-0.6373661,-0.05741044,0.6399705,-0.7662518,,-0.078626,0.26088288,-0.08069416,-0.8770154,-0.19722049,0.43811873,0.47013044,-0.54034334,0.6978585,0.09910253,0.8180056,0.5666088,,0.038394343,0.46405426,-0.37586832,0.5977073,-0.6847715,-0.41693413,0.76670504,0.3362257,0.5469147,-0.23432761,-0.6465604,0.72598225,,1.2379077433409436,0.1609417530988388,0.18393836584,3.7075278907498754,-0.2504547040700523,-1.1415915838205035,-0.41636402457627786,,-0.8509756581436729,-0.4605297294886302,0.14089376010000002,-3.9570589234964593,-1.269489719320707,1.2696834061870055,0.8760142266781396,,-0.039682242205656075,-0.08834420341282298,0.07698115776,-0.04579199763572349,,3.344938e-05,4.172325e-06,-3.0994415e-06,0.99999994,-1.0117888e-05,-8.448958e-06,1.0117888e-05,0.99999994,-7.4505806e-07,8.456409e-06,7.4505806e-07,1.0,110,0.339,1,1,0.314,False,-0.26196325577190027,1.0503840309727575
0.33268161200976465,15:49:01.636068,15:48:45.837557,0,,0.11492122,0.0014985502,0.018402353,0.868612,0.24958122,-0.42804465,0.4057117,0.13768217,0.9035715,0.28444856,-0.95851576,0.0183343,,0.014837399,-0.041091233,0.07171029,-0.68889475,0.61283684,0.3871105,0.3761434,-0.15428406,0.91362596,0.6196288,0.7750014,-0.12422928,,0.10785352,1.3465594,0.44453862,0.9966508,-0.008030153,-0.08137955,-0.05823363,-0.7683575,-0.6373661,-0.05741044,0.6399705,-0.7662518,,-0.0788441,0.26080588,-0.081073165,-0.8802793,-0.19776322,0.43127486,0.46456942,-0.54386836,0.69884366,0.09635119,0.8155347,0.57063085,,0.038397454,0.46405485,-0.37586772,0.5976933,-0.6847892,-0.41692498,0.7667115,0.33621633,0.5469114,-0.23434202,-0.6465465,0.72599,,1.2368033925399295,0.16033165720177506,0.18356762690000003,3.715076728715318,-0.25195770556747216,-1.140529344360124,-0.4160373364440093,,-0.8509524899450502,-0.46052200675575594,0.14089246381,-3.9570589234964593,-1.269489719320707,1.2696834061870055,0.8763409148104081,,-0.039682242205656075,-0.08834420341282298,0.07698115776,-0.04579199763572349,,3.344938e-05,4.172325e-06,-3.0994415e-06,0.99999994,-1.0117888e-05,-8.448958e-06,1.0117888e-05,0.99999994,-7.4505806e-07,8.456409e-06,7.4505806e-07,1.0,118,0.364,0,1,0.317,False,-0.26297607698675796,1.0505771517758753
0.382281124999281,15:49:01.672035,15:48:45.837557,0,,0.11510138,0.0012699068,0.018577904,0.87024283,0.25060302,-0.424117,0.40242183,0.13493189,0.9054556,0.2841368,-0.95864034,0.016575307,,0.014837012,-0.04109052,0.07171148,-0.68885565,0.6127762,0.38727614,0.37620232,-0.15446904,0.91357046,0.6196364,0.7750126,-0.12412116,,0.10785352,1.3465594,0.44453862,0.9966508,-0.008030153,-0.08137955,-0.05823363,-0.7683575,-0.6373661,-0.05741044,0.6399705,-0.7662518,,-0.079034515,0.26074684,-0.08134851,-0.8819089,-0.19879162,0.4274559,0.46185946,-0.5460325,0.6989523,0.09445892,0.8138369,0.5733647,,0.038397685,0.46405616,-0.3758681,0.5976507,-0.6847208,-0.41709837,0.76675564,0.33609432,0.5469245,-0.23430614,-0.6466823,0.72588056,,1.235791714533406,0.15993007509231538,0.18328762826000003,3.719270527585009,-0.25305079756559573,-1.139556322390412,-0.4162006805101435,,-0.850944767212176,-0.4605297294886302,0.14089116752000003,-3.9568492335529744,-1.269489719320707,1.2696834061870055,0.8763409148104081,,-0.039682242205656075,-0.08834420341282298,0.07698115776,-0.04579199763572349,,3.344938e-05,4.172325e-06,-3.0994415e-06,0.99999994,-1.0117888e-05,-8.448958e-06,1.0117888e-05,0.99999994,-7.4505806e-07,8.456409e-06,7.4505806e-07,1.0,135,0.417,0,1,0.317,False,-0.26255903295711036,1.0502391903704191
0.4182449920044746,15:49:01.714511,15:48:45.837557,0,,0.115429185,0.00097571313,0.018787563,0.87240815,0.25152597,-0.4190925,0.39816895,0.13158464,0.90782523,0.28348777,-0.95886385,0.014645606,,0.014839202,-0.041089505,0.071710885,-0.6888647,0.6127346,0.3873258,0.37619406,-0.15455067,0.91356003,0.61963135,0.7750292,-0.1240429,,0.10785352,1.3465594,0.44453862,0.9966508,-0.008030153,-0.08137955,-0.05823363,-0.7683575,-0.6373661,-0.05741044,0.6399705,-0.7662518,,-0.07937451,0.26065707,-0.0816866,-0.88405937,-0.19971924,0.4225533,0.45819053,-0.5487042,0.6992747,0.09219817,0.81181026,0.57659656,,0.038395517,0.4640563,-0.37586692,0.5976607,-0.6846772,-0.41715565,0.7667472,0.3360499,0.5469636,-0.23430838,-0.6467516,0.72581816,,1.2340077632394602,0.15969839310608863,0.18293762996000001,3.724512776172121,-0.25373398006442294,-1.1389992328719298,-0.41636402457627786,,-0.8509602126779245,-0.46052200675575594,0.14089246381,-3.9568492335529744,-1.269489719320707,1.269765084927146,0.8761775707442738,,-0.039682242205656075,-0.08834420341282298,0.07698115776,-0.04579199763572349,,3.344938e-05,4.172325e-06,-3.0994415e-06,0.99999994,-1.0117888e-05,-8.448958e-06,1.0117888e-05,0.99999994,-7.4505806e-07,8.456409e-06,7.4505806e-07,1.0,143,0.442,0,1,0.317,False,-0.262797343831195,1.0502874705711984
0.46069078700384125,15:49:01.745445,15:48:45.955347,0,,0.11579749,0.0007337183,0.018969953,0.87512785,0.25216913,-0.4129913,0.3929217,0.12781832,0.91064525,0.2824245,-0.9592043,0.012774527,,0.014836028,-0.04109022,0.071709335,-0.68884754,0.612758,0.38731945,0.37619728,-0.15454233,0.91356015,0.6196486,0.7750124,-0.12406203,,0.10785352,1.3465594,0.44453862,0.9966508,-0.008030153,-0.08137955,-0.05823363,-0.7683575,-0.6373661,-0.05741044,0.6399705,-0.7662518,,-0.07975323,0.26058674,-0.08196783,-0.8867469,-0.20036352,0.4165747,0.45348734,-0.55175734,0.6999379,0.08960613,0.8095791,0.5801314,,0.03839888,0.46405506,-0.3758664,0.5976416,-0.684699,-0.41714725,0.76675916,0.33604223,0.5469516,-0.23431812,-0.6467325,0.72583205,,1.2320539118222813,0.1597833431677051,0.1826213352,3.7312228543636268,-0.25414388956371925,-1.138419942940419,-0.4166907127085464,,-0.8509293217464275,-0.46052200675575594,0.14089246381,-3.9568492335529744,-1.269489719320707,1.269765084927146,0.8761775707442738,,-0.039682242205656075,-0.08834420341282298,0.07698115776,-0.04579199763572349,,3.344938e-05,4.172325e-06,-3.0994415e-06,0.99999994,-1.0117888e-05,-8.448958e-06,1.0117888e-05,0.99999994,-7.4505806e-07,8.456409e-06,7.4505806e-07,1.0,160,0.495,0,1,0.317,False,-0.2631548101423209,1.05014262996886
0.49158181001257617,15:49:01.796944,15:48:45.955347,0,,0.11628177,0.0005170554,0.019159183,0.8778311,0.25282288,-0.40680832,0.38746446,0.12446678,0.9134435,0.28157353,-0.959473,0.011300832,,0.014830217,-0.041094393,0.07170731,-0.6889589,0.61287004,0.38694382,0.37615547,-0.15400127,0.91366875,0.6195501,0.77503145,-0.12443408,,0.10785352,1.3465594,0.44453862,0.9966508,-0.008030153,-0.08137955,-0.05823363,-0.7683575,-0.6373661,-0.05741044,0.6399705,-0.7662518,,-0.080248,0.26053622,-0.0822323,-0.8894302,-0.20101994,0.4104934,0.44876975,-0.5544539,0.700847,0.08671543,0.8075716,0.5833597,,0.038405076,0.46405128,-0.37586793,0.59776497,-0.6848396,-0.4167394,0.76667494,0.33644092,0.5468246,-0.23427895,-0.6463762,0.72616196,,1.229559469103907,0.1603162117360266,0.18229078125,3.7381426224986156,-0.25414388956371925,-1.138419942940419,-0.4166907127085464,,-0.8508907080820565,-0.46052200675575594,0.14089116752000003,-3.9572686134399437,-1.2693530828209418,1.2696536670234497,0.8758508826120053,,-0.039682242205656075,-0.08834420341282298,0.07698115776,-0.04579199763572349,,3.344938e-05,4.172325e-06,-3.0994415e-06,0.99999994,-1.0117888e-05,-8.448958e-06,1.0117888e-05,0.99999994,-7.4505806e-07,8.456409e-06,7.4505806e-07,1.0,168,0.519,0,1,0.317,False,-0.2626186106756321,1.0508185527797727
0.5431189510127297,15:49:01.827475,15:48:45.955347,0,,0.116597325,0.00040403008,0.019209787,0.87950134,0.2535232,-0.40274465,0.38389814,0.12218049,0.9152562,0.28124622,-0.9595821,0.010130674,,0.0148271695,-0.04110065,0.07170683,-0.68899655,0.6130444,0.3866004,0.3759573,-0.15372604,0.91379666,0.61962855,0.77494824,-0.124561965,,0.10785352,1.3465594,0.44453862,0.9966508,-0.008030153,-0.08137955,-0.05823363,-0.7683575,-0.6373661,-0.05741044,0.6399705,-0.7662518,,-0.08056639,0.26047584,-0.082331754,-0.89109975,-0.20172565,0.40650705,0.44584218,-0.55625194,0.7012906,0.08465202,0.8061579,0.5856138,,0.03840847,0.46404675,-0.37587202,0.59780383,-0.6850176,-0.41639104,0.7665855,0.33656868,0.54687124,-0.23447223,-0.6461211,0.7263266,,1.2278604678715774,0.16067918018111516,0.18215337451000002,3.7425461113117904,-0.25428052606348467,-1.138226846296582,-0.41685405677468057,,-0.8508907080820565,-0.4605374522215044,0.14089246381,-3.957897683270397,-1.269489719320707,1.269928442407427,0.8761775707442739,,-0.039682242205656075,-0.08834420341282298,0.07698115776,-0.04579199763572349,,3.344938e-05,4.172325e-06,-3.0994415e-06,0.99999994,-1.0117888e-05,-8.448958e-06,1.0117888e-05,0.99999994,-7.4505806e-07,8.456409e-06,7.4505806e-07,1.0,185,0.573,0,1,0.317,False,-0.26249945523859,1.0502874705711984
0.5736821570026223,15:49:01.876712,15:48:45.955347,0,,0.11708835,0.00027306378,0.019262522,0.88117796,0.25463644,-0.3983535,0.37994647,0.120031476,0.9171875,0.2813643,-0.9595585,0.009020746,,0.014815353,-0.041114897,0.07170504,-0.6890662,0.6131039,0.38638192,0.3756891,-0.15371487,0.9139088,0.6197138,0.77490336,-0.12441698,,0.10785352,1.3465594,0.44453862,0.9966508,-0.008030153,-0.08137955,-0.05823363,-0.7683575,-0.6373661,-0.05741044,0.6399705,-0.7662518,,-0.08106021,0.260398,-0.08243723,-0.8928013,-0.20285,0.40219113,0.44292408,-0.5578723,0.7018524,0.082000524,0.80475485,0.58791625,,0.038421117,0.46403632,-0.37588084,0.5978772,-0.68507236,-0.41619554,0.7664527,0.33654043,0.54707474,-0.23471914,-0.64607775,0.7262854,,1.2252270159614669,0.1614205625370407,0.18198096794000002,3.747368980011935,-0.25414388956371925,-1.1385833004207002,-0.4166907127085464,,-0.8508289262190627,-0.46058378861874977,0.14089246381,-3.9589461329878195,-1.2696263558204728,1.2709383264526697,0.8756875385458711,,-0.039682242205656075,-0.08834420341282298,0.07698115776,-0.04579199763572349,,3.344938e-05,4.172325e-06,-3.0994415e-06,0.99999994,-1.0117888e-05,-8.448958e-06,1.0117888e-05,0.99999994,-7.4505806e-07,8.456409e-06,7.4505806e-07,1.0,193,0.597,0,1,0.317,False,-0.26297607698675796,1.0499495091657423
0.6228258010087302,15:49:01.906747,15:48:46.114132,0,,0.11733491,0.00021703541,0.019312352,0.8813103,0.25550157,-0.39750582,0.37915212,0.11970329,0.917559,0.28202054,-0.95936954,0.008621722,,0.0148069635,-0.041124105,0.07170111,-0.6890112,0.6127829,0.3869888,0.3757453,-0.15456575,0.9137422,0.6197408,0.77498806,-0.12375292,,0.10785352,1.3465594,0.44453862,0.9966508,-0.008030153,-0.08137955,-0.05823363,-0.7683575,-0.6373661,-0.05741044,0.6399705,-0.7662518,,-0.08130935,0.26038173,-0.08250108,-0.8929724,-0.20372565,0.40136775,0.44276533,-0.55801797,0.70183676,0.08098828,0.8044326,0.58849734,,0.038430337,0.46402782,-0.37588453,0.5978169,-0.68471986,-0.4168617,0.766506,0.336006,0.5473285,-0.23469865,-0.64672923,0.72571194,,1.2239450423043456,0.1618684810437457,0.18187726474000002,3.7482077397858724,-0.2540072530639538,-1.1388580758046778,-0.4166907127085464,,-0.850736253424572,-0.46063784774886934,0.14089376010000002,-3.9589461329878195,-1.2696263558204728,1.2719184713343565,0.8763409148104082,,-0.039682242205656075,-0.08834420341282298,0.07698115776,-0.04579199763572349,,3.344938e-05,4.172325e-06,-3.0994415e-06,0.99999994,-1.0117888e-05,-8.448958e-06,1.0117888e-05,0.99999994,-7.4505806e-07,8.456409e-06,7.4505806e-07,1.0,206,0.638,0,1,0.317,False,-0.2620824112089424,1.0502874705711984
0.6529157670011045,15:49:01.944081,15:48:46.114132,0,,0.11755762,0.00015982985,0.019374102,0.88166815,0.2560003,-0.39638987,0.37812606,0.11922571,0.91804445,0.28227952,-0.959296,0.008316994,,0.014793232,-0.041137785,0.07169658,-0.68886405,0.6127892,0.38724044,0.37577587,-0.1549466,0.91366506,0.61988586,0.77490693,-0.12353441,,0.10785352,1.3465594,0.44453862,0.9966508,-0.008030153,-0.08137955,-0.05823363,-0.7683575,-0.6373661,-0.05741044,0.6399705,-0.7662518,,-0.08153532,0.26037326,-0.08257558,-0.89334893,-0.20423013,0.4002721,0.44216222,-0.5583405,0.70196044,0.08012665,0.8040808,0.5890957,,0.038445152,0.46401626,-0.37589106,0.59765357,-0.68469816,-0.41713142,0.76660913,0.33567074,0.5473898,-0.234778,-0.6469262,0.72551066,,1.2228020778389603,0.16227778588607963,0.18176578380000002,3.74946587944678,-0.25373398006442294,-1.1391625903522111,-0.416527368642412,,-0.8505972442328359,-0.4607227978104858,0.14089505639000002,-3.9589461329878195,-1.269762992320238,1.2723566041986152,0.8753608504136023,,-0.039682242205656075,-0.08834420341282298,0.07698115776,-0.04579199763572349,,3.344938e-05,4.172325e-06,-3.0994415e-06,0.99999994,-1.0117888e-05,-8.448958e-06,1.0117888e-05,0.99999994,-7.4505806e-07,8.456409e-06,7.4505806e-07,1.0,214,0.663,0,1,0.317,False,-0.2630356547052788,1.0501909101696396
0.6902945730107604,15:49:01.968594,15:48:46.114132,0,,0.11777428,0.000109001994,0.019482166,0.8818693,0.25635493,-0.3957127,0.3774366,0.119161576,0.9183365,0.28257382,-0.9592093,0.0083271265,,0.0147779435,-0.04115185,0.071692884,-0.6888162,0.61287874,0.38718426,0.37580526,-0.15484032,0.9136711,0.6199213,0.7748574,-0.12366673,,0.10785352,1.3465594,0.44453862,0.9966508,-0.008030153,-0.08137955,-0.05823363,-0.7683575,-0.6373661,-0.05741044,0.6399705,-0.7662518,,-0.08175766,0.2604006,-0.08268055,-0.89356905,-0.20458914,0.3995969,0.44183826,-0.5583416,0.7021635,0.07945653,0.80398875,0.5893121,,0.038461436,0.46400514,-0.3758986,0.5976006,-0.68478703,-0.41706157,0.7666492,0.33570606,0.5473121,-0.2347821,-0.64681387,0.72560954,,1.2217749543666885,0.16277976352290421,0.18161541416000002,3.750304639220718,-0.25332407056512657,-1.1396602015435815,-0.4162006805101437,,-0.8504582350410999,-0.460800025139228,0.14089376010000002,-3.959155822931304,-1.269762992320238,1.2725199616788965,0.875687538545871,,-0.039682242205656075,-0.08834420341282298,0.07698115776,-0.04579199763572349,,3.344938e-05,4.172325e-06,-3.0994415e-06,0.99999994,-1.0117888e-05,-8.448958e-06,1.0117888e-05,0.99999994,-7.4505806e-07,8.456409e-06,7.4505806e-07,1.0,231,0.716,0,1,0.317,False,-0.26297607698675796,1.0499977893665218
0.7147673490107991,15:49:02.018458,15:48:46.114132,0,,0.11812184,3.0100346e-05,0.01975225,0.88291407,0.25708443,-0.39289975,0.3747807,0.11821118,0.91954625,0.28284615,-0.95913166,0.008019924,,0.014755562,-0.0411644,0.071685076,-0.6886917,0.61302835,0.38716853,0.3758808,-0.15475944,0.9136537,0.6200137,0.7747551,-0.123844236,,0.10785352,1.3465594,0.44453862,0.9966508,-0.008030153,-0.08137955,-0.05823363,-0.7683575,-0.6373661,-0.05741044,0.6399705,-0.7662518,,-0.08211944,0.26051086,-0.082919136,-0.89464086,-0.2053268,0.3968106,0.4400082,-0.5590208,0.702772,0.077527456,0.80332845,0.59046835,,0.038485147,0.46399313,-0.3759023,0.59746325,-0.6849286,-0.41702577,0.7667527,0.33568078,0.5471825,-0.2347934,-0.6466771,0.7257278,,1.2203308033192086,0.16374510513218227,0.18128874908,3.7532402984295015,-0.25318743406536115,-1.139771619447278,-0.4162006805101437,,-0.8502419985206217,-0.46086180700222185,0.14089246381,-3.959155822931304,-1.269762992320238,1.2725199616788965,0.875687538545871,,-0.039682242205656075,-0.08834420341282298,0.07698115776,-0.04579199763572349,,3.344938e-05,4.172325e-06,-3.0994415e-06,0.99999994,-1.0117888e-05,-8.448958e-06,1.0117888e-05,0.99999994,-7.4505806e-07,8.456409e-06,7.4505806e-07,1.0,239,0.741,0,1,0.317,False,-0.2617249448978165,1.05014262996886
0.7646682060003513,15:49:02.049394,15:48:46.114132,0,,0.11829903,-1.0639429e-05,0.019952863,0.88356113,0.2570997,-0.39143223,0.3733302,0.11794704,0.92017,0.28274366,-0.9591601,0.008230209,,0.014742106,-0.04116851,0.07167858,-0.688618,0.6131259,0.3871451,0.37590098,-0.15472126,0.9136518,0.62008333,0.77468556,-0.12393099,,0.10785352,1.3465594,0.44453862,0.9966508,-0.008030153,-0.08137955,-0.05823363,-0.7683575,-0.6373661,-0.05741044,0.6399705,-0.7662518,,-0.08230721,0.2606086,-0.083087906,-0.89528936,-0.20534194,0.39533737,0.4388389,-0.55923706,0.7033309,0.07666401,0.8031741,0.59079105,,0.038499407,0.4639873,-0.37590095,0.5973815,-0.68501985,-0.41699302,0.76680595,0.33565164,0.5471258,-0.23482764,-0.64659554,0.72578937,,1.219697539223522,0.16434747829637178,0.18106449091000001,3.7549178179773777,-0.25291416106583026,-1.1400761339948113,-0.4160373364440093,,-0.8501107120617598,-0.46086952973509604,0.14089246381,-3.959155822931304,-1.269762992320238,1.2725199616788965,0.875687538545871,,-0.039682242205656075,-0.08834420341282298,0.07698115776,-0.04579199763572349,,3.344938e-05,4.172325e-06,-3.0994415e-06,0.99999994,-1.0117888e-05,-8.448958e-06,1.0117888e-05,0.99999994,-7.4505806e-07,8.456409e-06,7.4505806e-07,1.0,256,0.794,0,1,0.317,False,-0.26202283349042155,1.0501909101696396
0.7956065780017525,15:49:02.096874,15:48:46.114132,0,,0.11850538,-6.505847e-05,0.020309955,0.88426304,0.25657535,-0.3901894,0.37199935,0.118088126,0.9206908,0.28230324,-0.9592831,0.008974969,,0.014734872,-0.041169286,0.071674824,-0.6885797,0.6131803,0.38712722,0.37590143,-0.1547054,0.9136542,0.6201256,0.7746457,-0.12396857,,0.10785352,1.3465594,0.44453862,0.9966508,-0.008030153,-0.08137955,-0.05823363,-0.7683575,-0.6373661,-0.05741044,0.6399705,-0.7662518,,-0.082532465,0.26079953,-0.08338096,-0.895974,-0.20481108,0.3940597,0.43753195,-0.5591975,0.70417607,0.076134115,0.80333716,0.5906378,,0.038507037,0.463985,-0.375899,0.59733886,-0.6850703,-0.4169713,0.76683027,0.33563074,0.5471045,-0.23485664,-0.646553,0.72581786,,1.219141502456578,0.16523559257690762,0.18068727052000003,3.7565953375252534,-0.25209434206723763,-1.14074464141699,-0.4160373364440093,,-0.8500412074658917,-0.46086180700222185,0.14089246381,-3.959155822931304,-1.269762992320238,1.2725199616788965,0.875687538545871,,-0.039682242205656075,-0.08834420341282298,0.07698115776,-0.04579199763572349,,3.344938e-05,4.172325e-06,-3.0994415e-06,0.99999994,-1.0117888e-05,-8.448958e-06,1.0117888e-05,0.99999994,-7.4505806e-07,8.456409e-06,7.4505806e-07,1.0,264,0.818,0,1,0.317,False,-0.26202283349042155,1.0502874705711984
0.8430665360065177,15:49:02.125909,15:48:46.332783,0,,0.11863648,-0.00010867417,0.020633638,0.8849393,0.2557253,-0.3892132,0.3709253,0.118314296,0.921095,0.28159675,-0.9594822,0.009845883,,0.014734156,-0.04117042,0.071674705,-0.6885749,0.6131844,0.38712925,0.3759089,-0.15470046,0.91365206,0.6201263,0.7746434,-0.12397882,,0.10785352,1.3465594,0.44453862,0.9966508,-0.008030153,-0.08137955,-0.05823363,-0.7683575,-0.6373661,-0.05741044,0.6399705,-0.7662518,,-0.08268075,0.26097858,-0.08364519,-0.8966176,-0.20395046,0.3930409,0.43623978,-0.55913496,0.7050269,0.07597234,0.8035996,0.5903016,,0.03850783,0.46398416,-0.3758997,0.5973336,-0.6850743,-0.41697207,0.76683575,0.33563238,0.5470958,-0.23485196,-0.6465478,0.725824,,1.218932988668974,0.16593063853558782,0.18035542028,3.7580631671296456,-0.251274523068645,-1.1414131488391686,-0.4160373364440093,,-0.8500334847330175,-0.46086952973509604,0.14089246381,-3.959155822931304,-1.269762992320238,1.2725199616788965,0.875687538545871,,-0.039682242205656075,-0.08834420341282298,0.07698115776,-0.04579199763572349,,3.344938e-05,4.172325e-06,-3.0994415e-06,0.99999994,-1.0117888e-05,-8.448958e-06,1.0117888e-05,0.99999994,-7.4505806e-07,8.456409e-06,7.4505806e-07,1.0,277,0.859,1,2,0.354,False,-0.2620824112089424,1.0506254319766548
0.8720765000034589,15:49:02.158436,15:48:46.332783,0,,0.11875344,-0.00014352798,0.021050662,0.885866,0.25288543,-0.38896048,0.37037513,0.11941296,0.9211746,0.2793985,-0.9600986,0.01212123,,0.014734082,-0.041169465,0.07167441,-0.6885754,0.6131862,0.3871256,0.37590224,-0.15470335,0.9136543,0.6201298,0.7746415,-0.12397343,,0.10785352,1.3465594,0.44453862,0.9966508,-0.008030153,-0.08137955,-0.05823363,-0.7683575,-0.6373661,-0.05741044,0.6399705,-0.7662518,,-0.0828198,0.2612268,-0.0839736,-0.8974295,-0.20107616,0.39266852,0.43433622,-0.5586381,0.7065943,0.077280335,0.8046688,0.588673,,0.03850788,0.4639847,-0.37589887,0.597334,-0.6850757,-0.4169692,0.76683325,0.3356288,0.5471015,-0.23485906,-0.6465482,0.7258214,,1.218932988668974,0.16685736648049476,0.17994060748000001,3.7597406866775214,-0.24881506607286705,-1.143418671105704,-0.4160373364440093,,-0.8500334847330175,-0.46086180700222185,0.14089246381,-3.959155822931304,-1.269762992320238,1.2725199616788965,0.875687538545871,,-0.039682242205656075,-0.08834420341282298,0.07698115776,-0.04579199763572349,,3.344938e-05,4.172325e-06,-3.0994415e-06,0.99999994,-1.0117888e-05,-8.448958e-06,1.0117888e-05,0.99999994,-7.4505806e-07,8.456409e-06,7.4505806e-07,1.0,285,0.884,1,2,0.379,False,-0.2617249448978165,1.0500943497680806
0.9046024970011786,15:49:02.187669,15:48:46.332783,0,,0.1187981,-0.00015930831,0.021275863,0.88725674,0.2510983,-0.38694313,0.36829308,0.119446635,0.9220046,0.27773282,-0.9605633,0.013501942,,0.014734156,-0.04117042,0.071674705,-0.6885749,0.6131844,0.38712925,0.3759089,-0.15470046,0.91365206,0.6201263,0.7746434,-0.12397882,,0.10785352,1.3465594,0.44453862,0.9966508,-0.008030153,-0.08137955,-0.05823363,-0.7683575,-0.6373661,-0.05741044,0.6399705,-0.7662518,,-0.08287639,0.2613637,-0.08414972,-0.89874125,-0.19926679,0.3905854,0.4316316,-0.5588666,0.7080694,0.07719042,0.80496013,0.58828634,,0.03850783,0.46398416,-0.3758997,0.5973336,-0.6850743,-0.41697207,0.76683575,0.33563238,0.5470958,-0.23485196,-0.6465478,0.725824,,1.21907199786071,0.16732073045294824,0.17972153447000003,3.7626763458863053,-0.24799524707427442,-1.1444955722285854,-0.4155473042456064,,-0.8500334847330175,-0.46086952973509604,0.14089246381,-3.959155822931304,-1.269762992320238,1.2725199616788965,0.875687538545871,,-0.039682242205656075,-0.08834420341282298,0.07698115776,-0.04579199763572349,,3.344938e-05,4.172325e-06,-3.0994415e-06,0.99999994,-1.0117888e-05,-8.448958e-06,1.0117888e-05,0.99999994,-7.4505806e-07,8.456409e-06,7.4505806e-07,1.0,298,0.925,1,2,0.42,False,-0.2623802998015474,1.05014262996886
0.9338819990080083,15:49:02.226930,15:48:46.332783,0,,0.11883786,-0.00016131997,0.021681815,0.8886429,0.24658234,-0.38666624,0.3671815,0.12258366,0.9220362,0.2747568,-0.9613377,0.018392533,,0.0147342235,-0.041171372,0.071675,-0.68857443,0.61318266,0.38713282,0.3759156,-0.15469766,0.9136498,0.6201228,0.77464545,-0.12398428,,0.10785352,1.3465594,0.44453862,0.9966508,-0.008030153,-0.08137955,-0.05823363,-0.7683575,-0.6373661,-0.05741044,0.6399705,-0.7662518,,-0.0829376,0.2616314,-0.0844513,-0.89997387,-0.19469956,0.39005017,0.42877716,-0.5569037,0.7113427,0.07872228,0.8074344,0.5846815,,0.03850778,0.46398363,-0.37590054,0.5973332,-0.68507296,-0.41697493,0.76683825,0.33563596,0.5470901,-0.23484486,-0.64654744,0.7258267,,1.2195276391002892,0.16820884473348405,0.17934042521000002,3.765192625208119,-0.24539915357873104,-1.148899517122753,-0.4155473042456064,,-0.8500334847330175,-0.4608772524679703,0.14089246381,-3.959155822931304,-1.269762992320238,1.2725199616788965,0.875687538545871,,-0.039682242205656075,-0.08834420341282298,0.07698115776,-0.04579199763572349,,3.344938e-05,4.172325e-06,-3.0994415e-06,0.99999994,-1.0117888e-05,-8.448958e-06,1.0117888e-05,0.99999994,-7.4505806e-07,8.456409e-06,7.4505806e-07,1.0,306,0.95,1,2,0.445,False,-0.2622015666459845,1.0499495091657423
0.9731429400126217,15:49:02.254217,15:48:46.332783,0,,0.118823744,-0.00013464689,0.021903306,0.88837063,0.24436672,-0.38869318,0.36839488,0.12586719,0.9211093,0.27401218,-0.9614791,0.021793157,,0.0147342235,-0.041171372,0.071675,-0.68857443,0.6132143,0.3870827,0.3759156,-0.15462303,0.91366243,0.6201228,0.7746353,-0.12404752,,0.10785352,1.3465594,0.44453862,0.9966508,-0.008030153,-0.08137955,-0.05823363,-0.7683575,-0.6373661,-0.05741044,0.6399705,-0.7662518,,-0.08293508,0.2617993,-0.084598884,-0.89965606,-0.19246212,0.39188936,0.4291936,-0.5544821,0.7129814,0.080073714,0.80963445,0.5814467,,0.03850778,0.46398363,-0.37590054,0.5973332,-0.685107,-0.41691896,0.76683825,0.33568063,0.5470627,-0.23484486,-0.64648813,0.72587943,,1.2199987258056169,0.16871854510318288,0.17914857429000003,3.7641441754906966,-0.24403278858107663,-1.1518923071829503,-0.41701740084081496,,-0.8500334847330175,-0.4608772524679703,0.14089246381,-3.959155822931304,-1.269762992320238,1.2724382829387557,0.8758508826120053,,-0.039682242205656075,-0.08834420341282298,0.07698115776,-0.04579199763572349,,3.344938e-05,4.172325e-06,-3.0994415e-06,0.99999994,-1.0117888e-05,-8.448958e-06,1.0117888e-05,0.99999994,-7.4505806e-07,8.456409e-06,7.4505806e-07,1.0,319,0.99,1,2,0.485,False,-0.2621419889274632,1.05014262996886
1.0004267250042176,15:49:02.296618,15:48:46.332783,0,,0.118745424,-9.1686845e-05,0.02215892,0.88754326,0.24058524,-0.3929192,0.37181103,0.12959939,0.9192172,0.27207217,-0.96193683,0.025572687,,0.01473394,-0.04117173,0.07167488,-0.6886134,0.6132751,0.38691697,0.37585664,-0.15443814,0.913718,0.6201153,0.77462405,-0.12415561,,0.10785352,1.3465594,0.44453862,0.9966508,-0.008030153,-0.08137955,-0.05823363,-0.7683575,-0.6373661,-0.05741044,0.6399705,-0.7662518,,-0.08287017,0.26200408,-0.08476374,-0.89870906,-0.1886419,0.39589927,0.4304722,-0.55188787,0.7142223,0.08375974,0.8123017,0.5771917,,0.03850808,0.46398333,-0.37590075,0.5973757,-0.6851755,-0.4167455,0.76679415,0.33580256,0.5470497,-0.23488085,-0.64635223,0.72598886,,1.220825058223159,0.1692668591372528,0.17893727902,3.761418206225398,-0.24075351258670605,-1.1552197667927886,-0.4160373364440091,,-0.8500412074658917,-0.46086952973509604,0.14089246381,-3.959365512874789,-1.269762992320238,1.2724382829387557,0.8758508826120053,,-0.039682242205656075,-0.08834420341282298,0.07698115776,-0.04579199763572349,,3.344938e-05,4.172325e-06,-3.0994415e-06,0.99999994,-1.0117888e-05,-8.448958e-06,1.0117888e-05,0.99999994,-7.4505806e-07,8.456409e-06,7.4505806e-07,1.0,332,1.031,0,2,0.507,False,-0.26190367805337944,1.0502874705711984
1.042762141005369,15:49:02.331563,15:48:46.546256,0,,0.11861357,-5.093217e-05,0.022416145,0.887535,0.23647377,-0.3954261,0.37333688,0.13383365,0.9179913,0.27000213,-0.9623765,0.03049758,,0.014733143,-0.04117194,0.071674526,-0.6886091,0.61328095,0.38691542,0.37585747,-0.15443602,0.913718,0.6201195,0.7746198,-0.12416041,,0.10785352,1.3465594,0.44453862,0.9966508,-0.008030153,-0.08137955,-0.05823363,-0.7683575,-0.6373661,-0.05741044,0.6399705,-0.7662518,,-0.0827519,0.26220995,-0.08493355,-0.89858305,-0.18449046,0.3981354,0.43023008,-0.5488971,0.7166687,0.08631684,0.81527615,0.572603,,0.03850892,0.46398303,-0.37590063,0.5973709,-0.68518096,-0.4167434,0.7667971,0.33580065,0.5470467,-0.23488328,-0.64634746,0.7259923,,1.2219834681542927,0.16963755031521557,0.17873376149000003,3.7605794464514597,-0.23856732859045904,-1.1594528154561483,-0.4160373364440093,,-0.8500334847330175,-0.46086952973509604,0.14089246381,-3.959365512874789,-1.269762992320238,1.2724382829387557,0.8758508826120053,,-0.039682242205656075,-0.08834420341282298,0.07698115776,-0.04579199763572349,,3.344938e-05,4.172325e-06,-3.0994415e-06,0.99999994,-1.0117888e-05,-8.448958e-06,1.0117888e-05,0.99999994,-7.4505806e-07,8.456409e-06,7.4505806e-07,1.0,345,1.072,0,2,0.507,False,-0.2620824112089424,1.0503840309727575
1.0777652850083541,15:49:02.377387,15:48:46.546256,0,,0.11841966,-2.2441149e-05,0.022772968,0.88561815,0.23611444,-0.39991298,0.37708646,0.13704666,0.91598237,0.27108338,-0.9620125,0.03233537,,0.014731564,-0.041172296,0.07167369,-0.68860054,0.6132926,0.3869122,0.37585905,-0.15443188,0.913718,0.62012815,0.7746114,-0.124169946,,0.10785352,1.3465594,0.44453862,0.9966508,-0.008030153,-0.08137955,-0.05823363,-0.7683575,-0.6373661,-0.05741044,0.6399705,-0.7662518,,-0.08257701,0.26247498,-0.085188314,-0.8967062,-0.1841338,0.40250802,0.4338042,-0.54624945,0.7165371,0.087931074,0.817133,0.5697033,,0.038510606,0.4639824,-0.37590036,0.5973613,-0.6851918,-0.4167392,0.7668031,0.33579677,0.5470407,-0.23488815,-0.6463379,0.72599924,,1.2236438557222509,0.1698306186370712,0.17844857769000003,3.755546887807831,-0.23856732859045904,-1.1600245666371323,-0.4158739923778749,,-0.8500180392672692,-0.46086952973509604,0.14089246381,-3.959365512874789,-1.269762992320238,1.2724382829387557,0.8758508826120053,,-0.039682242205656075,-0.08834420341282298,0.07698115776,-0.04579199763572349,,3.344938e-05,4.172325e-06,-3.0994415e-06,0.99999994,-1.0117888e-05,-8.448958e-06,1.0117888e-05,0.99999994,-7.4505806e-07,8.456409e-06,7.4505806e-07,1.0,354,1.101,0,2,0.507,False,-0.26059296824591627,1.0506737121774343
1.123596012010239,15:49:02.408049,15:48:46.546256,0,,0.11822686,1.8566847e-05,0.022936344,0.88432705,0.23602356,-0.4028131,0.37921926,0.14012632,0.914635,0.2723201,-0.96159106,0.034412682,,0.014732428,-0.04117304,0.07167435,-0.6886044,0.61328506,0.3869174,0.3758649,-0.1544311,0.9137157,0.6201204,0.77461755,-0.1241706,,0.10785352,1.3465594,0.44453862,0.9966508,-0.008030153,-0.08137955,-0.05823363,-0.7683575,-0.6373661,-0.05741044,0.6399705,-0.7662518,,-0.082392916,0.26262045,-0.08529075,-0.8954711,-0.184049,0.4052869,0.43625772,-0.5436713,0.7170082,0.08837823,0.81886965,0.56713474,,0.038509715,0.46398216,-0.3759013,0.59736574,-0.685185,-0.41674417,0.7668026,0.3358023,0.547038,-0.23487861,-0.6463423,0.7259984,,1.2250262249067372,0.1697379458425805,0.17834617078,3.7521918487120787,-0.23952378408881708,-1.1611232523344903,-0.4153839601794722,,-0.8500257620001433,-0.4608772524679703,0.14089246381,-3.959365512874789,-1.269762992320238,1.2724382829387557,0.8758508826120053,,-0.039682242205656075,-0.08834420341282298,0.07698115776,-0.04579199763572349,,3.344938e-05,4.172325e-06,-3.0994415e-06,0.99999994,-1.0117888e-05,-8.448958e-06,1.0117888e-05,0.99999994,-7.4505806e-07,8.456409e-06,7.4505806e-07,1.0,367,1.142,0,2,0.507,False,-0.26101001227556386,1.0503840309727575
1.1542553960025543,15:49:02.448424,15:48:46.546256,0,,0.11795912,3.0398369e-05,0.02336371,0.88287663,0.2372859,-0.40524566,0.38044682,0.14447936,0.9134472,0.2752978,-0.96063566,0.037282705,,0.014733218,-0.04117289,0.071674764,-0.68860865,0.61327916,0.386919,0.3758641,-0.15443319,0.9137157,0.6201161,0.7746217,-0.1241658,,0.10785352,1.3465594,0.44453862,0.9966508,-0.008030153,-0.08137955,-0.05823363,-0.7683575,-0.6373661,-0.05741044,0.6399705,-0.7662518,,-0.0821481,0.26292238,-0.08561228,-0.8941738,-0.18533696,0.40755782,0.4392017,-0.53983104,0.71811163,0.08691975,0.8211167,0.5641031,,0.038508873,0.4639825,-0.37590146,0.5973705,-0.68517953,-0.41674626,0.7667996,0.3358042,0.547041,-0.23487619,-0.64634705,0.72599494,,1.2273198765703817,0.16963755031521557,0.17800524651000002,3.7482077397858724,-0.24307633308271853,-1.1619836088848494,-0.41505727204720344,,-0.8500334847330175,-0.4608772524679703,0.14089246381,-3.959365512874789,-1.269762992320238,1.2724382829387557,0.8758508826120053,,-0.039682242205656075,-0.08834420341282298,0.07698115776,-0.04579199763572349,,3.344938e-05,4.172325e-06,-3.0994415e-06,0.99999994,-1.0117888e-05,-8.448958e-06,1.0117888e-05,0.99999994,-7.4505806e-07,8.456409e-06,7.4505806e-07,1.0,380,1.183,0,2,0.507,False,-0.2630356547052788,1.0499012289649627
1.1946121020009741,15:49:02.482147,15:48:46.546256,0,,0.11767231,6.1005354e-05,0.023634434,0.8799798,0.24149258,-0.4090439,0.38330203,0.14761534,0.9117506,0.28056213,-0.9591094,0.037333876,,0.01478719,-0.04118274,0.07166189,-0.6885752,0.61336607,0.3868411,0.37582976,-0.15437004,0.9137405,0.6201741,0.77456564,-0.124225885,,0.10777433,1.3465655,0.44453242,0.99665475,-0.007978553,-0.081336744,-0.058166698,-0.76835805,-0.6373716,-0.05741044,0.6399705,-0.7662518,,-0.08180678,0.26313868,-0.08581545,-0.891571,-0.1896095,0.41127783,0.44488102,-0.53662246,0.7170197,0.08474719,0.82224363,0.5627907,,0.038528387,0.4639721,-0.3759001,0.5973033,-0.6852523,-0.416723,0.766841,0.33577082,0.5470035,-0.23491198,-0.64628726,0.72603655,,1.2295363009052842,0.16922824547288168,0.17784450655000003,3.7417073515378525,-0.24785861057450898,-1.160207629499129,-0.4162006805101435,,-0.8500180392672692,-0.46089269793371873,0.14089246381,-3.959365512874789,-1.269762992320238,1.2724382829387557,0.8758508826120053,,-0.039682242205656075,-0.08834420341282298,0.07698115776,-0.04579199763572349,,-4.547648e-05,-3.874302e-06,4.2915344e-06,1.0,4.1339546e-05,3.453344e-05,-4.1339546e-05,1.0,3.1292439e-06,-3.4522265e-05,-3.0994415e-06,1.0,393,1.224,0,2,0.507,False,-0.26160578946077395,1.0501909101696396
1.2283257600065554,15:49:02.526354,15:48:46.735648,0,,0.11729105,0.00012496114,0.023798063,0.8763073,0.2447268,-0.414963,0.38829,0.15106466,0.90907115,0.28516033,-0.9577515,0.037354052,,0.014792964,-0.04117979,0.07166302,-0.6886275,0.61322683,0.38696855,0.3759275,-0.15442225,0.9136915,0.6200568,0.7746654,-0.124189496,,0.10777433,1.3465655,0.44453242,0.99665475,-0.007978553,-0.081336744,-0.058166698,-0.76835805,-0.6373716,-0.05741044,0.6399705,-0.7662518,,-0.081434384,0.26330733,-0.08591087,-0.8881209,-0.1928929,0.41717342,0.4517762,-0.5332494,0.7152226,0.08449612,0.8236731,0.56073433,,0.03852239,0.4639744,-0.3758987,0.59736305,-0.6851223,-0.416851,0.7668404,0.3358144,0.54697764,-0.234762,-0.6464024,0.72598255,,1.232524998527609,0.1685100313155788,0.1777602477,3.7324809940245336,-0.25209434206723763,-1.1579788555866486,-0.4158739923778747,,-0.8500566529316402,-0.46088497520084454,0.14089246381,-3.959155822931304,-1.2696263558204728,1.2723268650350592,0.8758508826120053,,-0.039682242205656075,-0.08834420341282298,0.07698115776,-0.04579199763572349,,-4.547648e-05,-3.874302e-06,4.2915344e-06,1.0,4.1339546e-05,3.453344e-05,-4.1339546e-05,1.0,3.1292439e-06,-3.4522265e-05,-3.0994415e-06,1.0,402,1.253,0,2,0.507,False,-0.26101001227556386,1.0506254319766548
1.272523635008838,15:49:02.558975,15:48:46.735648,0,,0.117077395,0.00018560886,0.023940861,0.87370914,0.24802703,-0.41846728,0.39118108,0.1531103,0.907488,0.2891532,-0.95657706,0.036750376,,0.014792964,-0.04117979,0.07166302,-0.6886275,0.61322683,0.38696855,0.3759275,-0.15442225,0.9136915,0.6200568,0.7746654,-0.124189496,,0.10777433,1.3465655,0.44453242,0.99665475,-0.007978553,-0.081336744,-0.058166698,-0.76835805,-0.6373716,-0.05741044,0.6399705,-0.7662518,,-0.08122828,0.26345438,-0.08598582,-0.8857226,-0.19623986,0.42069632,0.45667213,-0.53104633,0.7137509,0.08334286,0.8243056,0.559977,,0.03852239,0.4639744,-0.3758987,0.59736305,-0.6851223,-0.416851,0.7668404,0.3358144,0.54697764,-0.234762,-0.6464024,0.72598255,,1.2335135083355098,0.16840191305533966,0.17772006271000002,3.7272387454374205,-0.25455379906301556,-1.1564634057609562,-0.41554730424560615,,-0.8500566529316402,-0.46088497520084454,0.14089246381,-3.959155822931304,-1.2696263558204728,1.2723268650350592,0.8758508826120053,,-0.039682242205656075,-0.08834420341282298,0.07698115776,-0.04579199763572349,,-4.547648e-05,-3.874302e-06,4.2915344e-06,1.0,4.1339546e-05,3.453344e-05,-4.1339546e-05,1.0,3.1292439e-06,-3.4522265e-05,-3.0994415e-06,1.0,415,1.294,0,2,0.507,False,-0.2611887454311268,1.0505771517758753
1.3051723440003116,15:49:02.593934,15:48:46.735648,0,,0.11676729,0.00021457672,0.024018377,0.8721897,0.24786863,-0.4217182,0.3932138,0.15756223,0.905846,0.29097766,-0.95589495,0.039958775,,0.014793307,-0.041176185,0.07166237,-0.6885509,0.61311036,0.38728923,0.37602538,-0.1548006,0.9135872,0.6200825,0.77468204,-0.12395707,,0.10777433,1.3465655,0.44453242,0.99665475,-0.007978553,-0.081336744,-0.058166698,-0.76835805,-0.6373716,-0.05741044,0.6399705,-0.7662518,,-0.08092255,0.26353735,-0.08603746,-0.8842912,-0.19609441,0.42376423,0.4594499,-0.52726996,0.7147672,0.08327629,0.82676077,0.5563557,,0.038521934,0.46397656,-0.37589577,0.59727925,-0.6849894,-0.41718936,0.76692116,0.33555984,0.5470206,-0.23471132,-0.6466754,0.7257558,,1.2353592414924495,0.16773775802815635,0.17771358126000003,3.7234643264546987,-0.2567399830592626,-1.1586012988285606,-0.41652736864241224,,-0.8500412074658917,-0.4608772524679703,0.14089246381,-3.958736443044335,-1.2696263558204728,1.2723268650350592,0.8758508826120053,,-0.039682242205656075,-0.08834420341282298,0.07698115776,-0.04579199763572349,,-4.547648e-05,-3.874302e-06,4.2915344e-06,1.0,4.1339546e-05,3.453344e-05,-4.1339546e-05,1.0,3.1292439e-06,-3.4522265e-05,-3.0994415e-06,1.0,428,1.335,0,2,0.507,False,-0.261427056305211,1.0508185527797727
1.3401246020075632,15:49:02.636941,15:48:46.735648,0,,0.11645706,0.00021332502,0.024012595,0.86807966,0.24903698,-0.42943954,0.40009955,0.16110846,0.9021997,0.29386744,-0.9549997,0.040215313,,0.014793418,-0.04117541,0.07166237,-0.68861586,0.61312866,0.38714486,0.37607563,-0.15450329,0.91361684,0.61997986,0.77472705,-0.12418944,,0.10777433,1.3465655,0.44453242,0.99665475,-0.007978553,-0.081336744,-0.058166698,-0.76835805,-0.6373716,-0.05741044,0.6399705,-0.7662518,,-0.080612466,0.2635423,-0.08604732,-0.8803037,-0.19728988,0.43144187,0.46663454,-0.52406806,0.7124639,0.085542984,0.82851034,0.55340135,,0.038521778,0.46397716,-0.37589523,0.5973524,-0.6850274,-0.4170223,0.7668968,0.33580673,0.5469032,-0.2346048,-0.646507,0.7259403,,1.2368806198686717,0.16680330735037519,0.17776802544,3.71423796894138,-0.2575598020578552,-1.1583411851070848,-0.415383960179472,,-0.8500412074658917,-0.46086952973509604,0.14089116752000003,-3.958736443044335,-1.269489719320707,1.2720520896510816,0.8761775707442738,,-0.039682242205656075,-0.08834420341282298,0.07698115776,-0.04579199763572349,,-4.547648e-05,-3.874302e-06,4.2915344e-06,1.0,4.1339546e-05,3.453344e-05,-4.1339546e-05,1.0,3.1292439e-06,-3.4522265e-05,-3.0994415e-06,1.0,437,1.363,0,2,0.507,False,-0.26112916771260597,1.0503840309727575
1.3830917490122374,15:49:02.671275,15:48:46.879335,0,,0.116235435,0.00021845102,0.024023771,0.86843455,0.2476388,-0.42953038,0.40035135,0.16079539,0.90214384,0.2924723,-0.95541596,0.04049772,,0.01479461,-0.041174337,0.071664274,-0.6885855,0.6130245,0.38736385,0.37613302,-0.15476698,0.9135486,0.61997885,0.7747568,-0.12400854,,0.10777433,1.3465655,0.44453242,0.99665475,-0.007978553,-0.081336744,-0.058166698,-0.76835805,-0.6373716,-0.05741044,0.6399705,-0.7662518,,-0.08039173,0.2635605,-0.08606172,-0.880583,-0.19587328,0.43151736,0.4658815,-0.52453476,0.7126133,0.08676395,0.8285511,0.5531501,,0.03852033,0.46397907,-0.3758959,0.5973194,-0.68491393,-0.41725588,0.766935,0.33564398,0.54694957,-0.23456395,-0.6467117,0.7257711,,1.238062197998428,0.1662781615149279,0.17779395124000003,3.7144476588848643,-0.2572865290583244,-1.1580739484736342,-0.4147305839149349,,-0.850048930198766,-0.4608772524679703,0.14088987123000002,-3.958526753100851,-1.269489719320707,1.2721337683912224,0.8763409148104081,,-0.039682242205656075,-0.08834420341282298,0.07698115776,-0.04579199763572349,,-4.547648e-05,-3.874302e-06,4.2915344e-06,1.0,4.1339546e-05,3.453344e-05,-4.1339546e-05,1.0,3.1292439e-06,-3.4522265e-05,-3.0994415e-06,1.0,450,1.404,0,2,0.507,False,-0.26112916771260597,1.0504805913743163
1.4174842570064357,15:49:02.709670,15:48:46.879335,0,,0.11595023,0.0001744777,0.023967966,0.86682534,0.24562523,-0.4339149,0.4044482,0.16258347,0.8999934,0.29160845,-0.95563316,0.041588753,,0.014828354,-0.041138098,0.0716607,-0.6881417,0.61102486,0.39129192,0.37815905,-0.1582225,0.91211915,0.61923873,0.7756379,-0.12218517,,0.10777433,1.3465655,0.44453242,0.99665475,-0.007978553,-0.081336744,-0.058166698,-0.76835805,-0.6373716,-0.05741044,0.6399705,-0.7662518,,-0.080104195,0.26349953,-0.0860618,-0.87890875,-0.19384165,0.43582663,0.46840885,-0.523284,0.7118757,0.09006994,0.82981884,0.55071604,,0.038485393,0.46399966,-0.37586722,0.59685683,-0.6828498,-0.42128146,0.7678833,0.3339093,0.54668075,-0.23263104,-0.6497851,0.72364503,,1.2392669443268072,0.16524331530978184,0.17786913606000002,3.710463549958658,-0.2560568005604354,-1.1591583883470427,-0.4148939279810693,,-0.8500103165343948,-0.46089269793371873,0.14089116752000003,-3.9524457447397996,-1.2682599908228183,1.2703958985966894,0.8758508826120054,,-0.039682242205656075,-0.08834420341282298,0.07698115776,-0.04579199763572349,,-4.547648e-05,-3.874302e-06,4.2915344e-06,1.0,4.1339546e-05,3.453344e-05,-4.1339546e-05,1.0,3.1292439e-06,-3.4522265e-05,-3.0994415e-06,1.0,463,1.445,0,2,0.507,False,-0.26011634649774784,1.050335750771978
1.455857320004725,15:49:02.750504,15:48:46.879335,0,,0.11571327,0.0001681894,0.023968488,0.86462265,0.24564585,-0.43827587,0.40842882,0.16437191,0.8978684,0.2925979,-0.9553219,0.041790783,,0.014823645,-0.041144326,0.071659625,-0.6881529,0.61117655,0.39103514,0.37813807,-0.15786216,0.9121903,0.61923903,0.77559185,-0.12247598,,0.10777433,1.3465655,0.44453242,0.99665475,-0.007978553,-0.081336744,-0.058166698,-0.76835805,-0.6373716,-0.05741044,0.6399705,-0.7662518,,-0.07986763,0.26350263,-0.08607655,-0.8767407,-0.19386935,0.4401596,0.47210297,-0.5217448,0.71056396,0.091894396,0.830781,0.54896116,,0.038490504,0.46399483,-0.37587082,0.596869,-0.6830136,-0.42099854,0.7678693,0.33412707,0.5465673,-0.23264593,-0.64950097,0.7238953,,1.240433076990815,0.16454826935110162,0.17790413589,3.70543099131503,-0.2561934370602008,-1.1589652917032056,-0.4147305839149349,,-0.8499717028700238,-0.4609235888652156,0.14089116752000003,-3.9526554346832836,-1.2682599908228183,1.2702325411164084,0.8761775707442739,,-0.039682242205656075,-0.08834420341282298,0.07698115776,-0.04579199763572349,,-4.547648e-05,-3.874302e-06,4.2915344e-06,1.0,4.1339546e-05,3.453344e-05,-4.1339546e-05,1.0,3.1292439e-06,-3.4522265e-05,-3.0994415e-06,1.0,472,1.474,0,2,0.507,False,-0.26136747858668974,1.0505288715750958
1.496711209998466,15:49:02.781510,15:48:46.879335,0,,0.11556594,0.00014311075,0.023983568,0.8647661,0.24476403,-0.43848607,0.40868038,0.16439435,0.8977498,0.2918215,-0.9555443,0.042132437,,0.014825299,-0.041144922,0.07166064,-0.688161,0.6111631,0.39104187,0.3781431,-0.15786344,0.91218793,0.61922693,0.77560216,-0.12247175,,0.10777433,1.3465655,0.44453242,0.99665475,-0.007978553,-0.081336744,-0.058166698,-0.76835805,-0.6373716,-0.05741044,0.6399705,-0.7662518,,-0.07972144,0.2634986,-0.086110815,-0.87684155,-0.19297688,0.44035077,0.47176862,-0.52184856,0.7107098,0.092645854,0.83092356,0.5486189,,0.03848877,0.46399492,-0.3758719,0.5968781,-0.68300134,-0.42100558,0.76786584,0.3341345,0.5465677,-0.23263396,-0.6495101,0.72389096,,1.2411744593467404,0.16406173718002548,0.17790413589,3.70543099131503,-0.2561934370602008,-1.1590469704433461,-0.4148939279810693,,-0.8499871483357722,-0.46093131159808987,0.14089116752000003,-3.9526554346832836,-1.2682599908228183,1.2702325411164084,0.8761775707442739,,-0.039682242205656075,-0.08834420341282298,0.07698115776,-0.04579199763572349,,-4.547648e-05,-3.874302e-06,4.2915344e-06,1.0,4.1339546e-05,3.453344e-05,-4.1339546e-05,1.0,3.1292439e-06,-3.4522265e-05,-3.0994415e-06,1.0,485,1.515,0,2,0.507,False,-0.26190367805337944,1.0501909101696396
1.5276902360055828,15:49:02.813371,15:48:47.018520,0,,0.11536968,7.945299e-05,0.023998648,0.8648692,0.24234796,-0.4396234,0.4096543,0.1654422,0.8971132,0.29014578,-0.95597917,0.04380691,,0.01482451,-0.0411451,0.07166022,-0.6881568,0.61120087,0.39099038,0.3781439,-0.15778688,0.9122008,0.6192312,0.775588,-0.12253991,,0.10777433,1.3465655,0.44453242,0.99665475,-0.007978553,-0.081336744,-0.058166698,-0.76835805,-0.6373716,-0.05741044,0.6399705,-0.7662518,,-0.079526596,0.2634674,-0.08617292,-0.8768506,-0.19053571,0.4413945,0.47137454,-0.5212818,0.7113869,0.09454633,0.8318422,0.5469,,0.038489614,0.4639946,-0.37587178,0.59687334,-0.68304116,-0.4209477,0.7678688,0.3341772,0.54653734,-0.23263639,-0.6494462,0.72394747,,1.2420625736272763,0.16328946389260304,0.17789506186,3.705221301371546,-0.2553736180616082,-1.1606956227472114,-0.4155473042456064,,-0.849979425602898,-0.46093131159808987,0.14089116752000003,-3.9526554346832836,-1.2682599908228183,1.2701508623762678,0.8760142266781396,,-0.039682242205656075,-0.08834420341282298,0.07698115776,-0.04579199763572349,,-4.547648e-05,-3.874302e-06,4.2915344e-06,1.0,4.1339546e-05,3.453344e-05,-4.1339546e-05,1.0,3.1292439e-06,-3.4522265e-05,-3.0994415e-06,1.0,498,1.556,0,2,0.507,False,-0.26190367805337944,1.0506254319766548
1.5595016300067073,15:49:02.860845,15:48:47.018520,0,,0.11524433,8.955598e-05,0.024062425,0.8655219,0.24168344,-0.43870378,0.4087684,0.16532302,0.89753914,0.28944817,-0.956168,0.044298053,,0.014822379,-0.04114707,0.071661055,-0.6881472,0.6112091,0.39099437,0.3781588,-0.15777704,0.9121964,0.6192327,0.7755835,-0.12256038,,0.10777433,1.3465655,0.44453242,0.99665475,-0.007978553,-0.081336744,-0.058166698,-0.76835805,-0.6373716,-0.05741044,0.6399705,-0.7662518,,-0.07940475,0.26352134,-0.08621898,-0.87747014,-0.18986276,0.44045243,0.4702292,-0.5214755,0.71200264,0.09450236,0.83187467,0.5468582,,0.038491733,0.46399394,-0.3758738,0.596863,-0.6830493,-0.42094922,0.7678797,0.33418056,0.54651994,-0.23262702,-0.6494359,0.72395974,,1.2428811833119442,0.16310411830362165,0.17786265461,3.706269751088968,-0.25578352756090456,-1.160606405256544,-0.41571064831174076,,-0.8499639801371496,-0.4609467570638383,0.14088987123000002,-3.9526554346832836,-1.2682599908228183,1.2701508623762678,0.8760142266781396,,-0.039682242205656075,-0.08834420341282298,0.07698115776,-0.04579199763572349,,-4.547648e-05,-3.874302e-06,4.2915344e-06,1.0,4.1339546e-05,3.453344e-05,-4.1339546e-05,1.0,3.1292439e-06,-3.4522265e-05,-3.0994415e-06,1.0,507,1.584,0,2,0.507,False,-0.26106958999408425,1.0505771517758753
1.6070523240050534,15:49:02.891476,15:48:47.018520,0,,0.1151924,9.688735e-05,0.02412486,0.865612,0.24099576,-0.43890426,0.4088301,0.16591644,0.8974016,0.28909138,-0.95623875,0.04509291,,0.0148225725,-0.041147515,0.07166278,-0.68815106,0.61120147,0.39099953,0.37816465,-0.15777624,0.91219413,0.6192249,0.77558964,-0.12256107,,0.10777433,1.3465655,0.44453242,0.99665475,-0.007978553,-0.081336744,-0.058166698,-0.76835805,-0.6373716,-0.05741044,0.6399705,-0.7662518,,-0.07935615,0.26357004,-0.08626278,-0.8775409,-0.1891692,0.44060984,0.47003463,-0.5210589,0.71243596,0.094812766,0.83229357,0.5461666,,0.038491376,0.4639947,-0.37587535,0.5968673,-0.68304247,-0.42095417,0.76787925,0.33418608,0.54651725,-0.2326175,-0.6494402,0.7239589,,1.2432827654214038,0.16311184103649587,0.17781728446000003,3.706269751088968,-0.2556468910611391,-1.161126216860943,-0.4152206161133378,,-0.8499717028700238,-0.46095447979671256,0.14088857494,-3.9526554346832836,-1.2682599908228183,1.2701508623762678,0.8760142266781396,,-0.039682242205656075,-0.08834420341282298,0.07698115776,-0.04579199763572349,,-4.547648e-05,-3.874302e-06,4.2915344e-06,1.0,4.1339546e-05,3.453344e-05,-4.1339546e-05,1.0,3.1292439e-06,-3.4522265e-05,-3.0994415e-06,1.0,520,1.625,0,2,0.507,False,-0.2616653671792948,1.0505288715750958
1.637673255012487,15:49:02.927884,15:48:47.018520,0,,0.11518158,0.000112235546,0.02421543,0.8659996,0.23872755,-0.43937883,0.40852606,0.1689341,0.89697695,0.28835914,-0.9562794,0.048770458,,0.0148225725,-0.041147515,0.07166278,-0.68815106,0.61120147,0.39099953,0.37816465,-0.15777624,0.91219413,0.6192249,0.77558964,-0.12256107,,0.10777433,1.3465655,0.44453242,0.99665475,-0.007978553,-0.081336744,-0.058166698,-0.76835805,-0.6373716,-0.05741044,0.6399705,-0.7662518,,-0.07935007,0.26364216,-0.086320385,-0.8778908,-0.18688619,0.44088686,0.46930808,-0.51876646,0.7145847,0.09517129,0.8342391,0.5431275,,0.038491376,0.4639947,-0.37587535,0.5968673,-0.68304247,-0.42095417,0.76787925,0.33418608,0.54651725,-0.2326175,-0.6494402,0.7239589,,1.2435376156062532,0.16333580028984837,0.17774209964,3.7068988209194216,-0.25510034506207735,-1.16467568060107,-0.4155473042456064,,-0.8499717028700238,-0.46095447979671256,0.14088857494,-3.9526554346832836,-1.2682599908228183,1.2701508623762678,0.8760142266781396,,-0.039682242205656075,-0.08834420341282298,0.07698115776,-0.04579199763572349,,-4.547648e-05,-3.874302e-06,4.2915344e-06,1.0,4.1339546e-05,3.453344e-05,-4.1339546e-05,1.0,3.1292439e-06,-3.4522265e-05,-3.0994415e-06,1.0,533,1.666,0,2,0.507,False,-0.2611887454311268,1.050963393382111
1.6740631770080654,15:49:02.966859,15:48:47.172837,0,,0.11522518,0.00010406971,0.024399504,0.86612904,0.23881254,-0.43907753,0.40810424,0.16928309,0.8971031,0.28856787,-0.9561964,0.04916063,,0.0148215145,-0.041150495,0.07166141,-0.68818086,0.61127114,0.39083812,0.3781206,-0.15758175,0.912246,0.61921865,0.7755744,-0.122689486,,0.10777433,1.3465655,0.44453242,0.99665475,-0.007978553,-0.081336744,-0.058166698,-0.76835805,-0.6373716,-0.05741044,0.6399705,-0.7662518,,-0.07940339,0.26375735,-0.08646087,-0.8780333,-0.1869736,0.440566,0.4691288,-0.51845384,0.7149292,0.09474023,0.8344139,0.5429344,,0.03849273,0.46399173,-0.37587637,0.59689987,-0.6831198,-0.42078257,0.7678459,0.33431137,0.5464875,-0.232644,-0.6492945,0.7240811,,1.2436534565993667,0.16370649146781116,0.1775658042,3.707108510862906,-0.2552369815618427,-1.164727620177655,-0.41587399237787515,,-0.8499639801371496,-0.46096220252958675,0.14088987123000002,-3.952865124626769,-1.2682599908228183,1.2701508623762678,0.8756875385458711,,-0.039682242205656075,-0.08834420341282298,0.07698115776,-0.04579199763572349,,-4.547648e-05,-3.874302e-06,4.2915344e-06,1.0,4.1339546e-05,3.453344e-05,-4.1339546e-05,1.0,3.1292439e-06,-3.4522265e-05,-3.0994415e-06,1.0,542,1.695,0,2,0.507,False,-0.26148663402373185,1.0499977893665218
1.7130562079983065,15:49:03.003094,15:48:47.172837,0,,0.11524552,6.0737133e-05,0.024519742,0.86606896,0.2377179,-0.43978935,0.40863866,0.17015085,0.8966956,0.2879911,-0.95631516,0.050221622,,0.014821589,-0.04115145,0.07166165,-0.68818045,0.6112693,0.39084172,0.37812716,-0.15757889,0.9122437,0.6192151,0.7755763,-0.12269497,,0.10777433,1.3465655,0.44453242,0.99665475,-0.007978553,-0.081336744,-0.058166698,-0.76835805,-0.6373716,-0.05741044,0.6399705,-0.7662518,,-0.0794303,0.26380455,-0.08657834,-0.87794,-0.18586968,0.44121853,0.46914458,-0.51785207,0.71535486,0.09552314,0.83503395,0.5418428,,0.038492683,0.4639912,-0.3758772,0.59689945,-0.68311834,-0.42078543,0.7678484,0.33431497,0.5464818,-0.2326369,-0.6492941,0.7240837,,1.2436611793322407,0.16377599606367918,0.17743487891,3.7068988209194216,-0.2544171625632501,-1.165886200040677,-0.4158739923778749,,-0.8499639801371496,-0.460969925262461,0.14088987123000002,-3.952865124626769,-1.2682599908228183,1.2701508623762678,0.8756875385458711,,-0.039682242205656075,-0.08834420341282298,0.07698115776,-0.04579199763572349,,-4.547648e-05,-3.874302e-06,4.2915344e-06,1.0,4.1339546e-05,3.453344e-05,-4.1339546e-05,1.0,3.1292439e-06,-3.4522265e-05,-3.0994415e-06,1.0,555,1.736,0,2,0.507,False,-0.2607717014014801,1.0506737121774343
1.7492846610111883,15:49:03.043146,15:48:47.172837,0,,0.11526649,1.0803342e-05,0.024695396,0.8663168,0.2365216,-0.43994632,0.4084775,0.1714463,0.89652234,0.28747404,-0.9563804,0.051912993,,0.014820933,-0.041153505,0.07166171,-0.6881752,0.6112717,0.39084727,0.37814134,-0.1575711,0.91223925,0.6192124,0.77557606,-0.122710675,,0.10777433,1.3465655,0.44453242,0.99665475,-0.007978553,-0.081336744,-0.058166698,-0.76835805,-0.6373716,-0.05741044,0.6399705,-0.7662518,,-0.079460785,0.2638837,-0.08674139,-0.87816095,-0.18466482,0.4412848,0.46867222,-0.5168928,0.7163576,0.09581091,0.8358952,0.5404624,,0.038493425,0.4639898,-0.37587872,0.5968938,-0.6831211,-0.42078903,0.76785636,0.33432025,0.5464674,-0.23262511,-0.64928854,0.72409254,,1.2437770203253542,0.16389183705679256,0.17725210202000002,3.70731820080639,-0.2540072530639538,-1.1675273135940152,-0.4158739923778749,,-0.8499562574042753,-0.46098537072820944,0.14088987123000002,-3.952865124626769,-1.2682599908228183,1.2701508623762678,0.8756875385458711,,-0.039682242205656075,-0.08834420341282298,0.07698115776,-0.04579199763572349,,-4.547648e-05,-3.874302e-06,4.2915344e-06,1.0,4.1339546e-05,3.453344e-05,-4.1339546e-05,1.0,3.1292439e-06,-3.4522265e-05,-3.0994415e-06,1.0,568,1.777,0,2,0.507,False,-0.2623802998015474,1.0502391903704191
1.7893549709988292,15:49:03.080975,15:48:47.172837,0,,0.1152702,-3.321469e-05,0.024964318,0.86672807,0.23483115,-0.44004184,0.40808615,0.17340297,0.89632416,0.2867894,-0.95644426,0.054461896,,0.014821261,-0.04115556,0.071662605,-0.68823814,0.6112219,0.39081416,0.37821203,-0.15741444,0.9122369,0.61909914,0.7756471,-0.12283301,,0.10777433,1.3465655,0.44453242,0.99665475,-0.007978553,-0.081336744,-0.058166698,-0.76835805,-0.6373716,-0.05741044,0.6399705,-0.7662518,,-0.07947895,0.26402998,-0.086970635,-0.8785374,-0.18296309,0.44124427,0.46791157,-0.51542443,0.7179112,0.096076824,0.83717513,0.53843015,,0.038493115,0.46398878,-0.37588072,0.5969651,-0.6830873,-0.42074278,0.7678398,0.33448854,0.5463877,-0.23249686,-0.6492374,0.72417957,,1.2441786024348138,0.16414668724164194,0.17699025144000002,3.707947270636844,-0.25359734356465746,-1.1697401783283372,-0.41603733644400953,,-0.8499562574042753,-0.4610008161939579,0.14088857494,-3.952865124626769,-1.2681233543230528,1.2700394444725713,0.8756875385458711,,-0.039682242205656075,-0.08834420341282298,0.07698115776,-0.04579199763572349,,-4.547648e-05,-3.874302e-06,4.2915344e-06,1.0,4.1339546e-05,3.453344e-05,-4.1339546e-05,1.0,3.1292439e-06,-3.4522265e-05,-3.0994415e-06,1.0,577,1.806,0,2,0.507,False,-0.2621419889274632,1.050963393382111
1.8271873710036743,15:49:03.113818,15:48:47.328479,0,,0.115251765,-7.4222684e-05,0.025193527,0.8662959,0.23492952,-0.44083965,0.4085227,0.17467746,0.8958777,0.28747284,-0.9561881,0.055348307,,0.014821544,-0.041155234,0.071662664,-0.68819875,0.6111285,0.39102948,0.37827107,-0.1576736,0.9121678,0.6191068,0.775668,-0.12266156,,0.10777433,1.3465655,0.44453242,0.99665475,-0.007978553,-0.081336744,-0.058166698,-0.76835805,-0.6373716,-0.05741044,0.6399705,-0.7662518,,-0.0794729,0.2641527,-0.087169275,-0.87813973,-0.18306819,0.44199166,0.46870577,-0.5143073,0.7181942,0.095841035,0.8378389,0.5374388,,0.03849281,0.46398908,-0.3758805,0.5969221,-0.68298376,-0.42097166,0.767884,0.334322,0.5464274,-0.23246096,-0.649432,0.72401655,,1.2446342436743931,0.16423936003613265,0.17677117843,3.7068988209194216,-0.25414388956371925,-1.1701929728550977,-0.4162006805101435,,-0.8499485346714011,-0.4610085389268321,0.14088857494,-3.9526554346832836,-1.2681233543230528,1.2701211232127116,0.8758508826120053,,-0.039682242205656075,-0.08834420341282298,0.07698115776,-0.04579199763572349,,-4.547648e-05,-3.874302e-06,4.2915344e-06,1.0,4.1339546e-05,3.453344e-05,-4.1339546e-05,1.0,3.1292439e-06,-3.4522265e-05,-3.0994415e-06,1.0,590,1.847,0,2,0.507,False,-0.2622015666459845,1.050335750771978
1.8599821250099922,15:49:03.151881,15:48:47.328479,0,,0.115219444,-0.000115305185,0.025609553,0.86570364,0.23549981,-0.44169784,0.40845016,0.17774373,0.8953075,0.2893538,-0.9554825,0.05768341,,0.014820963,-0.041158274,0.07166308,-0.688193,0.61112916,0.3910387,0.37829176,-0.15766299,0.912161,0.6191006,0.7756697,-0.12268263,,0.10777433,1.3465655,0.44453242,0.99665475,-0.007978553,-0.081336744,-0.058166698,-0.76835805,-0.6373716,-0.05741044,0.6399705,-0.7662518,,-0.079462856,0.2644003,-0.08750752,-0.8776483,-0.18365893,0.44272205,0.4699235,-0.5115706,0.7193521,0.09436813,0.83938366,0.5352847,,0.0384935,0.46398717,-0.3758829,0.5969161,-0.68298507,-0.42097813,0.76789445,0.3343309,0.54640734,-0.23244207,-0.6494261,0.72402793,,1.2455609716193001,0.1645405466182274,0.17638877288000002,3.70543099131503,-0.2560568005604354,-1.1714918781082675,-0.41571064831174076,,-0.8499408119385269,-0.46103170712545477,0.14088857494,-3.9526554346832836,-1.2681233543230528,1.2701211232127116,0.8758508826120053,,-0.039682242205656075,-0.08834420341282298,0.07698115776,-0.04579199763572349,,-4.547648e-05,-3.874302e-06,4.2915344e-06,1.0,4.1339546e-05,3.453344e-05,-4.1339546e-05,1.0,3.1292439e-06,-3.4522265e-05,-3.0994415e-06,1.0,603,1.888,0,2,0.507,False,-0.2623802998015474,1.0506737121774343
1.8980876929999795,15:49:03.186802,15:48:47.328479,0,,0.11517765,-0.00018185377,0.026034266,0.8657314,0.2358129,-0.4414764,0.40765464,0.1795452,0.89531064,0.29039073,-0.95506835,0.059307635,,0.014821976,-0.041160926,0.071664214,-0.68819594,0.611118,0.391051,0.37831092,-0.15765655,0.91215414,0.61908567,0.77567977,-0.122694135,,0.10777433,1.3465655,0.44453242,0.99665475,-0.007978553,-0.081336744,-0.058166698,-0.76835805,-0.6373716,-0.05741044,0.6399705,-0.7662518,,-0.079443954,0.264635,-0.08786961,-0.8777351,-0.18398403,0.44241497,0.47002083,-0.50996226,0.72042966,0.09306741,0.8402906,0.53408813,,0.03849251,0.46398586,-0.3758855,0.5969196,-0.6829755,-0.42098877,0.7678989,0.33434358,0.5463933,-0.23241831,-0.6494297,0.72403234,,1.2465108677628296,0.1647258922072088,0.17598951556,3.705221301371546,-0.2576964385576207,-1.172115153027284,-0.415383960179472,,-0.8499485346714011,-0.46105487532407746,0.14088857494,-3.9526554346832836,-1.2681233543230528,1.2701211232127116,0.8758508826120053,,-0.039682242205656075,-0.08834420341282298,0.07698115776,-0.04579199763572349,,-4.547648e-05,-3.874302e-06,4.2915344e-06,1.0,4.1339546e-05,3.453344e-05,-4.1339546e-05,1.0,3.1292439e-06,-3.4522265e-05,-3.0994415e-06,1.0,612,1.916,0,2,0.507,False,-0.26160578946077395,1.0505771517758753
1.9329714480118128,15:49:03.222976,15:48:47.328479,0,,0.115143016,-0.0002452433,0.02638492,0.86471987,0.23693106,-0.44285798,0.40864438,0.1807499,0.8946167,0.29200903,-0.95456433,0.05947745,,0.014820524,-0.04116325,0.071663916,-0.68818635,0.6110943,0.39110488,0.37832576,-0.15772119,0.9121368,0.6190872,0.7756853,-0.12265125,,0.10777433,1.3465655,0.44453242,0.99665475,-0.007978553,-0.081336744,-0.058166698,-0.76835805,-0.6373716,-0.05741044,0.6399705,-0.7662518,,-0.079428256,0.26482248,-0.08817421,-0.8768054,-0.18512096,0.44378197,0.4718682,-0.50876397,0.72006917,0.09248038,0.8407672,0.5334397,,0.03849409,0.46398416,-0.37588692,0.59690917,-0.68294924,-0.42104605,0.7679098,0.33430234,0.54640317,-0.23240896,-0.6494785,0.7239916,,1.2472522501187553,0.16482628773457372,0.17565636903,3.7029147119932153,-0.2589261670555097,-1.171520785594719,-0.4155473042456066,,-0.8499330892056527,-0.4610703207898259,0.14088857494,-3.9526554346832836,-1.2681233543230528,1.2702028019528524,0.8760142266781397,,-0.039682242205656075,-0.08834420341282298,0.07698115776,-0.04579199763572349,,-4.547648e-05,-3.874302e-06,4.2915344e-06,1.0,4.1339546e-05,3.453344e-05,-4.1339546e-05,1.0,3.1292439e-06,-3.4522265e-05,-3.0994415e-06,1.0,638,1.998,0,2,0.507,False,-0.2626781883941529,1.0505288715750958
1.9691836960118962,15:49:03.297767,15:48:47.478868,0,,0.11514084,-0.00042136014,0.027356774,0.862942,0.2435611,-0.44272906,0.404047,0.19355392,0.89402616,0.3034419,-0.95037615,0.068615586,,0.014820442,-0.041162267,0.07166368,-0.6881868,0.6111599,0.39100146,0.3783192,-0.15757501,0.9121648,0.61909074,0.7756633,-0.122772545,,0.10777433,1.3465655,0.44453242,0.99665475,-0.007978553,-0.081336744,-0.058166698,-0.76835805,-0.6373716,-0.05741044,0.6399705,-0.7662518,,-0.079478465,0.26533887,-0.089014664,-0.8756594,-0.19189605,0.44316643,0.4761161,-0.496642,0.72571355,0.0808335,0.8464766,0.52625406,,0.038494144,0.4639847,-0.37588608,0.5969096,-0.6830194,-0.42093164,0.7679074,0.334388,0.54635423,-0.23241606,-0.6493606,0.724095,,1.2491597651386888,0.1649498514605613,0.17472952168000003,3.6997693628409474,-0.2721799075327574,-1.1781924993262465,-0.4178341211714862,,-0.8499330892056527,-0.46106259805695166,0.14088857494,-3.9526554346832836,-1.2681233543230528,1.2700394444725713,0.8760142266781396,,-0.039682242205656075,-0.08834420341282298,0.07698115776,-0.04579199763572349,,-4.547648e-05,-3.874302e-06,4.2915344e-06,1.0,4.1339546e-05,3.453344e-05,-4.1339546e-05,1.0,3.1292439e-06,-3.4522265e-05,-3.0994415e-06,1.0,647,2.027,0,2,0.507,False,-0.26196325577190027,1.0508668329805522
2.043961481002043,15:49:03.326054,15:48:47.478868,0,,0.115131855,-0.00046007335,0.02757667,0.86185175,0.24586564,-0.4435782,0.40391997,0.19614801,0.8935181,0.3066924,-0.94925016,0.069740355,,0.014819726,-0.04116337,0.07166356,-0.688182,0.6111641,0.39100352,0.3783266,-0.15757015,0.91216254,0.6190915,0.7756611,-0.1227828,,0.10777433,1.3465655,0.44453242,0.99665475,-0.007978553,-0.081336744,-0.058166698,-0.76835805,-0.6373716,-0.05741044,0.6399705,-0.7662518,,-0.07948132,0.2654568,-0.08920444,-0.8747434,-0.1942433,0.4439522,0.4782213,-0.49403146,0.72611105,0.07828415,0.84746826,0.52504206,,0.038494933,0.46398386,-0.37588677,0.5969044,-0.68302345,-0.4209324,0.7679128,0.33438966,0.54634553,-0.23241138,-0.6493555,0.7241011,,1.2495999609125195,0.16494212872768707,0.17453507818000003,3.6976724634061027,-0.27518591052759706,-1.1784367038695636,-0.4147305839149349,,-0.8499253664727784,-0.4610703207898259,0.14088857494,-3.9526554346832836,-1.2681233543230528,1.2700394444725713,0.8760142266781396,,-0.039682242205656075,-0.08834420341282298,0.07698115776,-0.04579199763572349,,-4.547648e-05,-3.874302e-06,4.2915344e-06,1.0,4.1339546e-05,3.453344e-05,-4.1339546e-05,1.0,3.1292439e-06,-3.4522265e-05,-3.0994415e-06,1.0,660,2.068,0,2,0.507,False,-0.26202283349042155,1.0501909101696396
2.0721824880019994,15:49:03.368914,15:48:47.478868,0,,0.115066156,-0.0005529672,0.028071254,0.8616309,0.2468783,-0.4434448,0.40261742,0.1994932,0.8933653,0.3090167,-0.9482897,0.07249197,,0.014818862,-0.041162655,0.0716629,-0.68817824,0.6112036,0.39094839,0.37832075,-0.15749636,0.9121777,0.6190993,0.7756449,-0.12284553,,0.10777433,1.3465655,0.44453242,0.99665475,-0.007978553,-0.081336744,-0.058166698,-0.76835805,-0.6373716,-0.05741044,0.6399705,-0.7662518,,-0.0794424,0.26571918,-0.089637116,-0.87465274,-0.19528778,0.44367248,0.4788064,-0.49093094,0.72782636,0.075676955,0.8490285,0.52289915,,0.038495827,0.46398407,-0.3758858,0.59690005,-0.6830647,-0.42087168,0.7679133,0.3344288,0.5463209,-0.23242092,-0.64929193,0.724155,,1.250820152706647,0.16497301965918398,0.17407100636000003,3.697043393575649,-0.2784651865219676,-1.1799282899280183,-0.41652736864241224,,-0.8499176437399042,-0.46106259805695166,0.14088857494,-3.9526554346832836,-1.2681233543230528,1.2699577657324308,0.8758508826120054,,-0.039682242205656075,-0.08834420341282298,0.07698115776,-0.04579199763572349,,-4.547648e-05,-3.874302e-06,4.2915344e-06,1.0,4.1339546e-05,3.453344e-05,-4.1339546e-05,1.0,3.1292439e-06,-3.4522265e-05,-3.0994415e-06,1.0,669,2.096,0,2,0.507,False,-0.26196325577190027,1.0503840309727575
2.1151004190032836,15:49:03.401933,15:48:47.478868,0,,0.1150213,-0.0005568862,0.028262585,0.86039937,0.25041693,-0.44385174,0.40191382,0.20206192,0.8931048,0.31333408,-0.94681686,0.073207825,,0.014819726,-0.04116337,0.07166356,-0.688182,0.611196,0.39095357,0.3783266,-0.15749556,0.9121754,0.6190915,0.7756511,-0.12284613,,0.10777433,1.3465655,0.44453242,0.99665475,-0.007978553,-0.081336744,-0.058166698,-0.76835805,-0.6373716,-0.05741044,0.6399705,-0.7662518,,-0.07940774,0.26584515,-0.089783974,-0.8736551,-0.19888589,0.44403964,0.48119742,-0.48814693,0.728122,0.0719434,0.8497982,0.52217543,,0.038494933,0.46398386,-0.37588677,0.5969044,-0.68305784,-0.42087662,0.7679128,0.3344343,0.54631823,-0.23241138,-0.6492963,0.7241542,,1.2515306441310756,0.16493440599481285,0.17391545156000002,3.694736804197319,-0.28297419101422716,-1.1796003274517992,-0.4153839601794722,,-0.8499253664727784,-0.4610703207898259,0.14088857494,-3.9526554346832836,-1.2681233543230528,1.2699577657324308,0.8758508826120054,,-0.039682242205656075,-0.08834420341282298,0.07698115776,-0.04579199763572349,,-4.547648e-05,-3.874302e-06,4.2915344e-06,1.0,4.1339546e-05,3.453344e-05,-4.1339546e-05,1.0,3.1292439e-06,-3.4522265e-05,-3.0994415e-06,1.0,682,2.137,0,2,0.507,False,-0.2621419889274632,1.0504805913743163
2.1481407990067964,15:49:03.448881,15:48:47.660531,0,,0.11493589,-0.0005835295,0.028549105,0.86043817,0.25090942,-0.4434982,0.40017718,0.20606267,0.89297044,0.31544313,-0.9458237,0.07689595,,0.0148181245,-0.041163757,0.071662724,-0.6881734,0.61120766,0.39095038,0.3783282,-0.15749148,0.91217554,0.6191001,0.7756427,-0.12285572,,0.10777433,1.3465655,0.44453242,0.99665475,-0.007978553,-0.081336744,-0.058166698,-0.76835805,-0.6373716,-0.05741044,0.6399705,-0.7662518,,-0.07933775,0.26601887,-0.09001853,-0.87381464,-0.19940922,0.44349065,0.48130745,-0.4845199,0.7304681,0.06921797,0.85174906,0.5193577,,0.038496617,0.46398324,-0.37588653,0.59689486,-0.68306875,-0.42087242,0.76791877,0.33443046,0.5463122,-0.23241624,-0.6492868,0.72416115,,1.2525963812677186,0.16490351506331596,0.17366915646000003,3.694736804197319,-0.2862534670085977,-1.182235415872222,-0.4158739923778749,,-0.84990992100703,-0.4610703207898259,0.14088857494,-3.9526554346832836,-1.2681233543230528,1.2699577657324308,0.8758508826120054,,-0.039682242205656075,-0.08834420341282298,0.07698115776,-0.04579199763572349,,-4.547648e-05,-3.874302e-06,4.2915344e-06,1.0,4.1339546e-05,3.453344e-05,-4.1339546e-05,1.0,3.1292439e-06,-3.4522265e-05,-3.0994415e-06,1.0,695,2.178,0,2,0.507,False,-0.2620824112089424,1.0504805913743163
2.195083867001813,15:49:03.480633,15:48:47.660531,0,,0.11490068,-0.00059324503,0.028673202,0.8593286,0.25250772,-0.4447405,0.40110716,0.20673591,0.89239746,0.31728107,-0.9452512,0.0763714,,0.0148181245,-0.041163757,0.071662724,-0.6881734,0.61120766,0.39095038,0.3783282,-0.15749148,0.91217554,0.6191001,0.7756427,-0.12285572,,0.10777433,1.3465655,0.44453242,0.99665475,-0.007978553,-0.081336744,-0.058166698,-0.76835805,-0.6373716,-0.05741044,0.6399705,-0.7662518,,-0.07930921,0.26609543,-0.09011882,-0.8727991,-0.20103203,0.44475597,0.48325974,-0.4836871,0.72973067,0.068423495,0.8518409,0.5193123,,0.038496617,0.46398324,-0.37588653,0.59689486,-0.68306875,-0.42087242,0.76791877,0.33443046,0.5463122,-0.23241624,-0.6492868,0.72416115,,1.2530211315758009,0.1648880695975675,0.17356286068000001,3.6924302148189896,-0.28761983200625213,-1.181202915575398,-0.4160373364440091,,-0.84990992100703,-0.4610703207898259,0.14088857494,-3.9526554346832836,-1.2681233543230528,1.2699577657324308,0.8758508826120054,,-0.039682242205656075,-0.08834420341282298,0.07698115776,-0.04579199763572349,,-4.547648e-05,-3.874302e-06,4.2915344e-06,1.0,4.1339546e-05,3.453344e-05,-4.1339546e-05,1.0,3.1292439e-06,-3.4522265e-05,-3.0994415e-06,1.0,708,2.219,0,2,0.507,False,-0.26178452261633733,1.050335750771978
2.226806941005634,15:49:03.525404,15:48:47.660531,0,,0.114881635,-0.00064073503,0.02884297,0.8595165,0.25282556,-0.44419664,0.39997172,0.20835301,0.8925309,0.31820434,-0.9448111,0.077959746,,0.01481805,-0.041167006,0.07166344,-0.6882114,0.6112638,0.3907957,0.37828916,-0.1572982,0.912225,0.6190817,0.7756376,-0.12298006,,0.10777433,1.3465655,0.44453242,0.99665475,-0.007978553,-0.081336744,-0.058166698,-0.76835805,-0.6373716,-0.05741044,0.6399705,-0.7662518,,-0.07929943,0.26617375,-0.09027759,-0.8730415,-0.2013642,0.4441295,0.48302302,-0.482199,0.7308713,0.066987485,0.85260576,0.5182433,,0.038496777,0.46398136,-0.37588924,0.5969365,-0.6831337,-0.42070785,0.76788193,0.33456314,0.5462827,-0.2324308,-0.6491501,0.724279,,1.2534149909523864,0.16481084226882525,0.17339823185000003,3.6928495947059585,-0.28925947000343744,-1.1823979416753985,-0.41620068051014325,,-0.8499176437399042,-0.46108576625557435,0.14088857494,-3.952865124626769,-1.2681233543230528,1.2699577657324308,0.8758508826120054,,-0.039682242205656075,-0.08834420341282298,0.07698115776,-0.04579199763572349,,-4.547648e-05,-3.874302e-06,4.2915344e-06,1.0,4.1339546e-05,3.453344e-05,-4.1339546e-05,1.0,3.1292439e-06,-3.4522265e-05,-3.0994415e-06,1.0,717,2.248,0,2,0.507,False,-0.2626186106756321,1.050335750771978
2.271603101005894,15:49:03.555193,15:48:47.660531,0,,0.11489533,-0.00066001713,0.02897805,0.8585267,0.25601384,-0.44428447,0.3993499,0.20965144,0.89250535,0.3216386,-0.94366467,0.07775226,,0.01481726,-0.041167185,0.07166308,-0.6882071,0.61126965,0.3907941,0.37828997,-0.15729612,0.91222507,0.61908597,0.77563345,-0.122984916,,0.10777433,1.3465655,0.44453242,0.99665475,-0.007978553,-0.081336744,-0.058166698,-0.76835805,-0.6373716,-0.05741044,0.6399705,-0.7662518,,-0.079320356,0.26624894,-0.09039035,-0.8722382,-0.20460184,0.44422805,0.48487893,-0.48056784,0.73071676,0.063975714,0.8527559,0.51837677,,0.03849762,0.46398103,-0.3758891,0.59693176,-0.68313915,-0.42070577,0.7678849,0.33456123,0.5462797,-0.23243323,-0.6491453,0.7242825,,1.253646672938613,0.16481084226882525,0.17327508430000002,3.691172075158082,-0.29267538249757347,-1.1815727838463614,-0.4162006805101435,,-0.84990992100703,-0.46108576625557435,0.14088857494,-3.952865124626769,-1.2681233543230528,1.2699577657324308,0.8758508826120054,,-0.039682242205656075,-0.08834420341282298,0.07698115776,-0.04579199763572349,,-4.547648e-05,-3.874302e-06,4.2915344e-06,1.0,4.1339546e-05,3.453344e-05,-4.1339546e-05,1.0,3.1292439e-06,-3.4522265e-05,-3.0994415e-06,1.0,730,2.289,0,2,0.507,False,-0.2631548101423209,1.0503840309727575
2.3014050720084924,15:49:03.598281,15:48:47.824153,0,,0.114888,-0.0007366538,0.029231861,0.85851705,0.25532082,-0.4447019,0.39948174,0.21071336,0.8921962,0.3215009,-0.9436159,0.07890496,,0.014818408,-0.0411634,0.07166284,-0.688134,0.6111463,0.39111578,0.37838715,-0.1576761,0.91211915,0.6191079,0.7756536,-0.12274772,,0.10777433,1.3465655,0.44453242,0.99665475,-0.007978553,-0.081336744,-0.058166698,-0.76835805,-0.6373716,-0.05741044,0.6399705,-0.7662518,,-0.079326876,0.26636118,-0.09063058,-0.8722205,-0.20390679,0.44458228,0.4848857,-0.47972244,0.7312676,0.064165674,0.85339814,0.51729524,,0.03849631,0.46398354,-0.37588632,0.5968519,-0.6829996,-0.42104554,0.76796305,0.3343086,0.5463246,-0.23238036,-0.6494223,0.7240512,,1.2540328095823243,0.16482628773457372,0.17301712259000002,3.6909623852145974,-0.29267538249757347,-1.1824712499879078,-0.41636402457627786,,-0.8499021982741557,-0.46107804352270015,0.14088857494,-3.9524457447397996,-1.2681233543230528,1.2699577657324308,0.8758508826120054,,-0.039682242205656075,-0.08834420341282298,0.07698115776,-0.04579199763572349,,-4.547648e-05,-3.874302e-06,4.2915344e-06,1.0,4.1339546e-05,3.453344e-05,-4.1339546e-05,1.0,3.1292439e-06,-3.4522265e-05,-3.0994415e-06,1.0,739,2.318,0,2,0.507,False,-0.2618441003348577,1.0507702725789931
2.344459038009518,15:49:03.626750,15:48:47.824153,0,,0.11484086,-0.000788033,0.029473782,0.8586055,0.2551655,-0.44462022,0.3992195,0.21127349,0.89218116,0.32159027,-0.9435326,0.07953343,,0.014832899,-0.041154444,0.07167578,-0.6881791,0.61117893,0.39098534,0.37833285,-0.15753612,0.9121659,0.6190909,0.7756562,-0.122816116,,0.107835665,1.3465612,0.44453633,0.99665016,-0.008039416,-0.08138723,-0.058245644,-0.7683574,-0.63736516,-0.05741044,0.6399705,-0.7662518,,-0.07934247,0.26648462,-0.09083864,-0.8722823,-0.20373896,0.44453797,0.48480037,-0.47922856,0.73164785,0.06397012,0.85371566,0.51679534,,0.038428012,0.46398777,-0.37588784,0.59693605,-0.68305206,-0.4208411,0.7678794,0.33444834,0.54635656,-0.23244035,-0.64929515,0.7241459,,1.2544807280890293,0.16487262413181905,0.17279156813000002,3.6909623852145974,-0.2930852919968697,-1.1827087474578024,-0.4158739923778749,,-0.8498867528084073,-0.46108576625557435,0.14088857494,-3.9526554346832836,-1.2681233543230528,1.2700394444725713,0.8760142266781396,,-0.039682242205656075,-0.08834420341282298,0.07698115776,-0.04579199763572349,,1.5685335e-05,1.4901161e-06,-1.0728836e-06,1.0,-1.9356608e-05,-1.6156584e-05,1.9356608e-05,1.0,-1.4007092e-06,1.616776e-05,1.4603138e-06,1.0,761,2.387,0,2,0.507,False,-0.26190367805337944,1.0504805913743163
2.372946325005614,15:49:03.687765,15:48:47.824153,0,,0.11479416,-0.0008621514,0.029977292,0.85724825,0.25926217,-0.44486904,0.39667475,0.21832833,0.8916174,0.32829016,-0.94080585,0.08431879,,0.014796026,-0.041163713,0.07165903,-0.68796057,0.6115162,0.39084262,0.37825888,-0.15748051,0.9122062,0.619379,0.77540165,-0.12297118,,0.107835665,1.3465612,0.44453633,0.99665016,-0.008039416,-0.08138723,-0.058245644,-0.7683574,-0.63736516,-0.05741044,0.6399705,-0.7662518,,-0.07932288,0.26676634,-0.09126461,-0.8712952,-0.20793656,0.44453016,0.4874108,-0.4722839,0.734424,0.057230853,0.85656893,0.5128492,,0.038466904,0.46397382,-0.37588346,0.59669155,-0.68336207,-0.42068458,0.76799315,0.33428207,0.54629844,-0.23269232,-0.6490545,0.72428066,,1.2557858699447733,0.1648494559331964,0.17233657034000002,3.688655795836268,-0.3008735724834999,-1.185750982063271,-0.41603733644400953,,-0.8495469525619415,-0.46108576625557435,0.14088857494,-3.952865124626769,-1.2682599908228183,1.2702325411164082,0.8758508826120053,,-0.039682242205656075,-0.08834420341282298,0.07698115776,-0.04579199763572349,,1.5685335e-05,1.4901161e-06,-1.0728836e-06,1.0,-1.9356608e-05,-1.6156584e-05,1.9356608e-05,1.0,-1.4007092e-06,1.616776e-05,1.4603138e-06,1.0,774,2.428,0,2,0.507,False,-0.26243987752006825,1.0505288715750958
2.433978469009162,15:49:03.729490,15:48:47.824153,0,,0.114746444,-0.0008907169,0.03031692,0.8558881,0.2625512,-0.44555846,0.39475593,0.22491223,0.8908323,0.33410063,-0.9383395,0.08885601,,0.014769621,-0.041172117,0.07164645,-0.68785703,0.61173517,0.3906821,0.37823948,-0.15729603,0.91224605,0.61950576,0.77526635,-0.12318528,,0.107835665,1.3465612,0.44453633,0.99665016,-0.008039416,-0.08138723,-0.058245644,-0.7683574,-0.63736516,-0.05741044,0.6399705,-0.7662518,,-0.07929337,0.26697284,-0.09153836,-0.87025476,-0.21131635,0.44497427,0.48989508,-0.46583837,0.7368836,0.051570542,0.8592671,0.5089209,,0.038494904,0.46396217,-0.37588114,0.596576,-0.6835741,-0.42050397,0.7680521,0.33430335,0.54620254,-0.23279402,-0.6488203,0.72445786,,1.2568284388827935,0.16483401046744794,0.17204490509,3.686349206457938,-0.307432124472241,-1.1888975116604614,-0.4173440889730835,,-0.8492998251099663,-0.4610934889884486,0.14088857494,-3.9530748145702534,-1.2682599908228183,1.270314219856549,0.875687538545871,,-0.039682242205656075,-0.08834420341282298,0.07698115776,-0.04579199763572349,,1.5685335e-05,1.4901161e-06,-1.0728836e-06,1.0,-1.9356608e-05,-1.6156584e-05,1.9356608e-05,1.0,-1.4007092e-06,1.616776e-05,1.4603138e-06,1.0,787,2.469,0,2,0.507,False,-0.26243987752006825,1.05014262996886
2.4756874360027723,15:49:03.775702,15:48:47.991597,0,,0.1146511,-0.0009652078,0.030727267,0.85621893,0.26328298,-0.4444898,0.39312127,0.22617269,0.8912358,0.3351787,-0.9378314,0.09015119,,0.014760219,-0.04117629,0.07164228,-0.6878045,0.6117061,0.39082015,0.37826234,-0.15748891,0.9122033,0.6195502,0.77525014,-0.12306389,,0.107835665,1.3465612,0.44453633,0.99665016,-0.008039416,-0.08138723,-0.058245644,-0.7683574,-0.63736516,-0.05741044,0.6399705,-0.7662518,,-0.079220265,0.2671937,-0.09189736,-0.8706508,-0.21206729,0.44384074,0.48938513,-0.4645836,0.73801374,0.049692556,0.8597613,0.50827265,,0.038504906,0.46395734,-0.37588128,0.5965178,-0.6835337,-0.42065206,0.7680928,0.33415374,0.5462369,-0.23280889,-0.64893985,0.724346,,1.2583420945261417,0.16474906040583145,0.17159379617,3.686768586344907,-0.31057476396684613,-1.1887852620796604,-0.41636402457627786,,-0.8492071523154755,-0.46110893445419704,0.14088857494,-3.9530748145702534,-1.2682599908228183,1.2705592560769707,0.8758508826120053,,-0.039682242205656075,-0.08834420341282298,0.07698115776,-0.04579199763572349,,1.5685335e-05,1.4901161e-06,-1.0728836e-06,1.0,-1.9356608e-05,-1.6156584e-05,1.9356608e-05,1.0,-1.4007092e-06,1.616776e-05,1.4603138e-06,1.0,809,2.539,0,2,0.507,False,-0.2631548101423209,1.0502391903704191
2.52185401400493,15:49:03.838690,15:48:47.991597,0,,0.11454895,-0.0010881573,0.031226188,0.8562193,0.26331928,-0.4444676,0.39164254,0.2302225,0.89084995,0.3369044,-0.9368353,0.09399381,,0.014763489,-0.041172624,0.071644545,-0.68772346,0.6116652,0.39102674,0.37824655,-0.15784067,0.912149,0.6196497,0.775211,-0.12280956,,0.107835665,1.3465612,0.44453633,0.99665016,-0.008039416,-0.08138723,-0.058245644,-0.7683574,-0.63736516,-0.05741044,0.6399705,-0.7662518,,-0.07914533,0.26743773,-0.09235487,-0.8707504,-0.21213466,0.4436131,0.48943314,-0.46090373,0.7402857,0.04742269,0.86172307,0.5051579,,0.03850123,0.4639612,-0.37588036,0.5964274,-0.6834711,-0.42088205,0.7681387,0.33387312,0.5463439,-0.23288906,-0.64915025,0.72413164,,1.2595082271901494,0.1645714375497243,0.17119713143,3.6865588964014226,-0.31303422096262407,-1.191598785481418,-0.41685405677468057,,-0.8492380432469724,-0.4611012117213228,0.14088857494,-3.952865124626769,-1.2683966273225837,1.2706706739806668,0.8758508826120053,,-0.039682242205656075,-0.08834420341282298,0.07698115776,-0.04579199763572349,,1.5685335e-05,1.4901161e-06,-1.0728836e-06,1.0,-1.9356608e-05,-1.6156584e-05,1.9356608e-05,1.0,-1.4007092e-06,1.616776e-05,1.4603138e-06,1.0,818,2.567,0,2,0.507,False,-0.26202283349042155,1.0505288715750958
2.584900664005545,15:49:03.869702,15:48:47.991597,0,,0.114463,-0.0011848807,0.031545907,0.8568199,0.26162985,-0.44430783,0.39084578,0.2324759,0.8906146,0.33630222,-0.9367521,0.09693301,,0.014761105,-0.04117319,0.07164341,-0.6877105,0.61168265,0.391022,0.378249,-0.15783444,0.9121491,0.6196626,0.77519834,-0.12282404,,0.107835665,1.3465612,0.44453633,0.99665016,-0.008039416,-0.08138723,-0.058245644,-0.7683574,-0.63736516,-0.05741044,0.6399705,-0.7662518,,-0.07907694,0.26758137,-0.09266088,-0.8713226,-0.21044002,0.44329676,0.48841947,-0.4591165,0.74206364,0.04736496,0.8630915,0.50282156,,0.038503755,0.46396026,-0.37587997,0.596413,-0.6834874,-0.42087576,0.76814765,0.33386737,0.54633486,-0.23289633,-0.64913595,0.72414213,,1.2604581233336791,0.16436292376212025,0.17088731812000002,3.687397656175361,-0.31358076696168585,-1.194011869771552,-0.4163640245762781,,-0.8492148750483498,-0.4611012117213228,0.14088857494,-3.952865124626769,-1.2683966273225837,1.2706706739806668,0.8758508826120053,,-0.039682242205656075,-0.08834420341282298,0.07698115776,-0.04579199763572349,,1.5685335e-05,1.4901161e-06,-1.0728836e-06,1.0,-1.9356608e-05,-1.6156584e-05,1.9356608e-05,1.0,-1.4007092e-06,1.616776e-05,1.4603138e-06,1.0,831,2.608,1,3,0.507,False,-0.2622015666459845,1.0503840309727575
2.6159147310099797,15:49:03.911396,15:48:47.991597,0,,0.11437809,-0.0012753457,0.03185609,0.85636574,0.2632799,-0.44420862,0.3896005,0.23514584,0.8904593,0.33889383,-0.9356227,0.098796844,,0.014761388,-0.041172832,0.07164347,-0.6876711,0.6116212,0.39118743,0.3783079,-0.15801904,0.9120927,0.6196704,0.7752092,-0.12271604,,0.107835665,1.3465612,0.44453633,0.99665016,-0.008039416,-0.08138723,-0.058245644,-0.7683574,-0.63736516,-0.05741044,0.6399705,-0.7662518,,-0.07900904,0.2677233,-0.09295561,-0.87101287,-0.21213327,0.44309822,0.4892326,-0.45642644,0.7431866,0.04458714,0.8641032,0.5013358,,0.03850345,0.46396056,-0.37587976,0.5963701,-0.6834183,-0.4210489,0.7681919,0.3337455,0.54634714,-0.23286043,-0.6492714,0.72403216,,1.2614620786073283,0.16401540078278012,0.17059694916,3.6865588964014226,-0.3172699524553527,-1.1949241658984955,-0.4166907127085464,,-0.8492071523154755,-0.46110893445419704,0.14088857494,-3.9526554346832836,-1.2683966273225837,1.2706706739806668,0.8758508826120053,,-0.039682242205656075,-0.08834420341282298,0.07698115776,-0.04579199763572349,,1.5685335e-05,1.4901161e-06,-1.0728836e-06,1.0,-1.9356608e-05,-1.6156584e-05,1.9356608e-05,1.0,-1.4007092e-06,1.616776e-05,1.4603138e-06,1.0,840,2.637,1,3,0.536,False,-0.26309523242380006,1.0503840309727575
2.6575822750019142,15:49:03.943585,15:48:47.991597,0,,0.11429934,-0.0013551414,0.032073975,0.8563579,0.26395515,-0.4438229,0.3884505,0.23700261,0.8904695,0.34023118,-0.9349637,0.10042554,,0.01476305,-0.0411734,0.071644485,-0.6876793,0.6116077,0.3911942,0.37831295,-0.15802035,0.91209036,0.6196582,0.7752196,-0.1227119,,0.107835665,1.3465612,0.44453633,0.99665016,-0.008039416,-0.08138723,-0.058245644,-0.7683574,-0.63736516,-0.05741044,0.6399705,-0.7662518,,-0.078942366,0.26781148,-0.09317428,-0.87108195,-0.21283254,0.44262686,0.48926705,-0.45462513,0.7442672,0.042825013,0.8648805,0.5001477,,0.038501713,0.46396065,-0.37588084,0.5963792,-0.68340594,-0.42105594,0.76818836,0.33375296,0.5463475,-0.23284848,-0.6492806,0.7240278,,1.262242074627625,0.16364470960481736,0.17038954276,3.6865588964014226,-0.31972940945113065,-1.1959407570171607,-0.4162006805101437,,-0.849222597781224,-0.46111665718707123,0.14088857494,-3.9526554346832836,-1.2683966273225837,1.2706706739806668,0.8758508826120053,,-0.039682242205656075,-0.08834420341282298,0.07698115776,-0.04579199763572349,,1.5685335e-05,1.4901161e-06,-1.0728836e-06,1.0,-1.9356608e-05,-1.6156584e-05,1.9356608e-05,1.0,-1.4007092e-06,1.616776e-05,1.4603138e-06,1.0,853,2.678,1,3,0.577,False,-0.26243987752006825,1.0503840309727575
2.6897965660027694,15:49:03.974861,15:48:47.991597,0,,0.11419992,-0.0014441013,0.032262355,0.856144,0.26203382,-0.44537136,0.38933796,0.23958549,0.88939005,0.3397548,-0.9348458,0.1031,,0.014763117,-0.041174352,0.07164478,-0.68767875,0.611606,0.39119777,0.37831962,-0.15801755,0.91208816,0.61965466,0.7752216,-0.12271732,,0.107835665,1.3465612,0.44453633,0.99665016,-0.008039416,-0.08138723,-0.058245644,-0.7683574,-0.63736516,-0.05741044,0.6399705,-0.7662518,,-0.078853525,0.26787382,-0.093378015,-0.8708384,-0.21090642,0.44402584,0.48961756,-0.452562,0.74529344,0.04376206,0.86643296,0.49737185,,0.03850166,0.4639601,-0.37588167,0.5963788,-0.68340456,-0.42105877,0.76819086,0.33375654,0.54634184,-0.23284137,-0.6492802,0.7240305,,1.2629680115178021,0.16322768202960924,0.17020158071000002,3.6857201366274843,-0.31959277295136523,-1.198502537125074,-0.4158739923778749,,-0.849222597781224,-0.4611243799199455,0.14088857494,-3.9526554346832836,-1.2683966273225837,1.2706706739806668,0.8758508826120053,,-0.039682242205656075,-0.08834420341282298,0.07698115776,-0.04579199763572349,,1.5685335e-05,1.4901161e-06,-1.0728836e-06,1.0,-1.9356608e-05,-1.6156584e-05,1.9356608e-05,1.0,-1.4007092e-06,1.616776e-05,1.4603138e-06,1.0,862,2.707,1,3,0.606,False,-0.26232072208302704,1.0506254319766548
2.721011328001623,15:49:04.013156,15:48:48.216588,0,,0.114110544,-0.0015533566,0.03251013,0.85600775,0.26302728,-0.44504744,0.38898754,0.23931152,0.88961715,0.34049854,-0.934637,0.10253814,,0.014761604,-0.041175723,0.07164425,-0.68766975,0.6116159,0.39119816,0.3783278,-0.15801054,0.9120859,0.61965966,0.77521515,-0.12273234,,0.107835665,1.3465612,0.44453633,0.99665016,-0.008039416,-0.08138723,-0.058245644,-0.7683574,-0.63736516,-0.05741044,0.6399705,-0.7662518,,-0.07877798,0.2679603,-0.093639016,-0.87074363,-0.21191098,0.44373333,0.48985627,-0.45265815,0.74507815,0.04296928,0.86613756,0.49795514,,0.038503297,0.46395895,-0.37588227,0.59636885,-0.6834141,-0.42105743,0.76819927,0.33375633,0.5463301,-0.23283911,-0.6492703,0.7240401,,1.2637788984695957,0.16275659532428155,0.16995528561,3.6853007567405154,-0.3212324109485505,-1.197328879760998,-0.4155473042456064,,-0.8492071523154755,-0.4611321026528197,0.14088857494,-3.9526554346832836,-1.2683966273225837,1.2706706739806668,0.8758508826120053,,-0.039682242205656075,-0.08834420341282298,0.07698115776,-0.04579199763572349,,1.5685335e-05,1.4901161e-06,-1.0728836e-06,1.0,-1.9356608e-05,-1.6156584e-05,1.9356608e-05,1.0,-1.4007092e-06,1.616776e-05,1.4603138e-06,1.0,875,2.748,1,3,0.647,False,-0.2622611443645053,1.0506737121774343
2.7593595670041395,15:49:04.045775,15:48:48.216588,0,,0.11407513,-0.0016242266,0.032699406,0.8554937,0.26254335,-0.44631985,0.3898788,0.24064597,0.88886666,0.34077105,-0.9344305,0.103511006,,0.014760725,-0.04117909,0.071644545,-0.6877034,0.611678,0.39104185,0.3782896,-0.15781528,0.9121356,0.61964566,0.77520597,-0.122861445,,0.107835665,1.3465612,0.44453633,0.99665016,-0.008039416,-0.08138723,-0.058245644,-0.7683574,-0.63736516,-0.05741044,0.6399705,-0.7662518,,-0.07875301,0.26803473,-0.09382862,-0.87024,-0.21143153,0.44494846,0.490718,-0.45151114,0.7452071,0.043338917,0.8668532,0.4966763,,0.038504295,0.46395674,-0.37588483,0.59640574,-0.68348455,-0.42089075,0.76816547,0.33388707,0.5462977,-0.2328561,-0.64912885,0.72416145,,1.264203648777678,0.16259441793392282,0.16976343469000002,3.6840426170796086,-0.32136904744831596,-1.198115927998848,-0.41473058391493534,,-0.8492071523154755,-0.4611475481185682,0.14088857494,-3.952865124626769,-1.2683966273225837,1.2706706739806668,0.8758508826120053,,-0.039682242205656075,-0.08834420341282298,0.07698115776,-0.04579199763572349,,1.5685335e-05,1.4901161e-06,-1.0728836e-06,1.0,-1.9356608e-05,-1.6156584e-05,1.9356608e-05,1.0,-1.4007092e-06,1.616776e-05,1.4603138e-06,1.0,884,2.776,1,3,0.675,False,-0.2620824112089424,1.050335750771978
2.791925245008315,15:49:04.081589,15:48:48.216588,0,,0.11407078,-0.0017085373,0.03293267,0.85581535,0.2603506,-0.4469872,0.38981622,0.24342322,0.8881376,0.34003425,-0.9343246,0.10683638,,0.014765531,-0.041174382,0.07164627,-0.68767214,0.6114552,0.39144507,0.37850004,-0.15816256,0.9119881,0.6195519,0.7753109,-0.1226719,,0.107835665,1.3465612,0.44453633,0.99665016,-0.008039416,-0.08138723,-0.058245644,-0.7683574,-0.63736516,-0.05741044,0.6399705,-0.7662518,,-0.078761466,0.26812747,-0.094058536,-0.87052244,-0.20923272,0.445435,0.4901704,-0.44930264,0.7469003,0.043859124,0.86853254,0.49368775,,0.038499102,0.46396083,-0.3758827,0.5963742,-0.6832573,-0.4213042,0.76825434,0.33372602,0.5462712,-0.23264362,-0.64945084,0.72394097,,1.2645357262912698,0.16256352700242593,0.16951973217000002,3.684461996966577,-0.3209591379490196,-1.201472295095138,-0.41652736864241224,,-0.849222597781224,-0.4611475481185682,0.14088727865,-3.952236054796315,-1.2682599908228183,1.27047757733683,0.8760142266781397,,-0.039682242205656075,-0.08834420341282298,0.07698115776,-0.04579199763572349,,1.5685335e-05,1.4901161e-06,-1.0728836e-06,1.0,-1.9356608e-05,-1.6156584e-05,1.9356608e-05,1.0,-1.4007092e-06,1.616776e-05,1.4603138e-06,1.0,897,2.817,1,3,0.716,False,-0.26160578946077395,1.0505288715750958
2.827788569004042,15:49:04.116705,15:48:48.216588,0,,0.11409676,-0.0018166602,0.03328654,0.8559034,0.25967115,-0.4472138,0.3888044,0.24706826,0.88757443,0.3409698,-0.93355656,0.11050525,,0.0147682205,-0.041169316,0.07164657,-0.687608,0.6113855,0.39166647,0.3785889,-0.15840048,0.91190994,0.6195687,0.7753173,-0.122546464,,0.107835665,1.3465612,0.44453633,0.99665016,-0.008039416,-0.08138723,-0.058245644,-0.7683574,-0.63736516,-0.05741044,0.6399705,-0.7662518,,-0.078806706,0.26828185,-0.09439276,-0.8706653,-0.20857544,0.44546404,0.49003708,-0.4460539,0.7489323,0.0424921,0.87036324,0.49057335,,0.03849616,0.46396446,-0.37587932,0.5963043,-0.6831768,-0.42153367,0.76832396,0.33356288,0.54627293,-0.23259303,-0.64961934,0.7238061,,1.264960476599352,0.1626098633996713,0.16915806726000002,3.6846716869100615,-0.3224621394464394,-1.204820707602349,-0.4158739923778749,,-0.8492303205140982,-0.4611321026528197,0.14088727865,-3.951816674909346,-1.2682599908228183,1.270314219856549,0.8760142266781397,,-0.039682242205656075,-0.08834420341282298,0.07698115776,-0.04579199763572349,,1.5685335e-05,1.4901161e-06,-1.0728836e-06,1.0,-1.9356608e-05,-1.6156584e-05,1.9356608e-05,1.0,-1.4007092e-06,1.616776e-05,1.4603138e-06,1.0,906,2.846,1,3,0.745,False,-0.26190367805337944,1.050963393382111
2.862911799005815,15:49:04.151930,15:48:48.362157,0,,0.11411142,-0.0019316524,0.033620536,0.8557977,0.2580896,-0.44833028,0.38908204,0.25001496,0.8866271,0.34091848,-0.9332106,0.11354414,,0.014768705,-0.04116735,0.07164502,-0.68758965,0.61122555,0.39194822,0.3787519,-0.15862226,0.9118037,0.61948955,0.775398,-0.1224359,,0.107835665,1.3465612,0.44453633,0.99665016,-0.008039416,-0.08138723,-0.058245644,-0.7683574,-0.63736516,-0.05741044,0.6399705,-0.7662518,,-0.078839645,0.26841825,-0.09471726,-0.8705555,-0.20699869,0.44641307,0.4902131,-0.4435784,0.75028616,0.042710926,0.8720033,0.48763308,,0.038495738,0.46396482,-0.37587684,0.5962865,-0.6830156,-0.42182007,0.768389,0.33347118,0.54623747,-0.23242387,-0.6498359,0.723666,,1.265338890510189,0.1626175861325455,0.16880936525,3.684252307023093,-0.3224621394464394,-1.207761142247409,-0.41652736864241224,,-0.8492071523154755,-0.4611321026528197,0.14088727865,-3.951397295022377,-1.2681233543230528,1.2702028019528524,0.8760142266781397,,-0.039682242205656075,-0.08834420341282298,0.07698115776,-0.04579199763572349,,1.5685335e-05,1.4901161e-06,-1.0728836e-06,1.0,-1.9356608e-05,-1.6156584e-05,1.9356608e-05,1.0,-1.4007092e-06,1.616776e-05,1.4603138e-06,1.0,915,2.875,1,3,0.774,False,-0.26148663402373185,1.0503840309727575
2.898135971001466,15:49:04.185375,15:48:48.362157,0,,0.11411614,-0.0021009445,0.034140617,0.85635203,0.25553194,-0.44873652,0.38903087,0.2522045,0.8860292,0.33958215,-0.9333253,0.116566,,0.01476936,-0.041165233,0.0716449,-0.68759495,0.6112233,0.39194268,0.3787378,-0.15863004,0.9118082,0.6194923,0.77539825,-0.12242025,,0.107835665,1.3465612,0.44453633,0.99665016,-0.008039416,-0.08138723,-0.058245644,-0.7683574,-0.63736516,-0.05741044,0.6399705,-0.7662518,,-0.07887278,0.2686385,-0.09521683,-0.8710387,-0.20442694,0.44665563,0.4892672,-0.44194332,0.7518668,0.04369463,0.873439,0.4849691,,0.038494997,0.46396622,-0.3758753,0.5962921,-0.6830129,-0.42181647,0.76838106,0.33346587,0.54625183,-0.23243567,-0.6498414,0.72365725,,1.2660725501332404,0.16268709072841353,0.16825714571000003,3.684881376853547,-0.3216423204478468,-1.2104716181731017,-0.4160373364440091,,-0.8492148750483498,-0.46111665718707123,0.14088727865,-3.951397295022377,-1.2681233543230528,1.2702028019528524,0.8760142266781397,,-0.039682242205656075,-0.08834420341282298,0.07698115776,-0.04579199763572349,,1.5685335e-05,1.4901161e-06,-1.0728836e-06,1.0,-1.9356608e-05,-1.6156584e-05,1.9356608e-05,1.0,-1.4007092e-06,1.616776e-05,1.4603138e-06,1.0,928,2.916,1,3,0.815,False,-0.2618441003348577,1.0501909101696396
2.931561358011095,15:49:04.217365,15:48:48.362157,0,,0.11411164,-0.002234608,0.0346075,0.85674775,0.25405017,-0.44882277,0.38865802,0.25400707,0.8856779,0.33901075,-0.933241,0.118881255,,0.01476936,-0.041165233,0.0716449,-0.68759495,0.6112233,0.39194268,0.3787378,-0.15863004,0.9118082,0.6194923,0.77539825,-0.12242025,,0.107835665,1.3465612,0.44453633,0.99665016,-0.008039416,-0.08138723,-0.058245644,-0.7683574,-0.63736516,-0.05741044,0.6399705,-0.7662518,,-0.07889371,0.26885012,-0.095653474,-0.8714055,-0.2029421,0.4466173,0.48859632,-0.44049773,0.75315034,0.043887995,0.8745149,0.4830089,,0.038494997,0.46396622,-0.3758753,0.5962921,-0.6830129,-0.42181647,0.76838106,0.33346587,0.54625183,-0.23243567,-0.6498414,0.72365725,,1.2667984870234175,0.16277204079003,0.16779955534000002,3.6853007567405154,-0.3216423204478468,-1.212268550456194,-0.4153839601794722,,-0.8492148750483498,-0.46111665718707123,0.14088727865,-3.951397295022377,-1.2681233543230528,1.2702028019528524,0.8760142266781397,,-0.039682242205656075,-0.08834420341282298,0.07698115776,-0.04579199763572349,,1.5685335e-05,1.4901161e-06,-1.0728836e-06,1.0,-1.9356608e-05,-1.6156584e-05,1.9356608e-05,1.0,-1.4007092e-06,1.616776e-05,1.4603138e-06,1.0,946,2.973,1,3,0.872,False,-0.2622611443645053,1.0502874705711984
2.963576706999447,15:49:04.275654,15:48:48.362157,0,,0.114086576,-0.0024503917,0.035612583,0.8555388,0.2588025,-0.44841337,0.38430884,0.26291722,0.8849752,0.34692943,-0.9294598,0.12547573,,0.014770158,-0.041165024,0.07164526,-0.6875992,0.6112174,0.39194423,0.37873697,-0.15863216,0.9118082,0.61948806,0.7754025,-0.122415364,,0.107835665,1.3465612,0.44453633,0.99665016,-0.008039416,-0.08138723,-0.058245644,-0.7683574,-0.63736516,-0.05741044,0.6399705,-0.7662518,,-0.07892304,0.2693598,-0.09654608,-0.8706406,-0.20784034,0.44585574,0.49066976,-0.4314888,0.75700766,0.035045035,0.8778495,0.47765267,,0.038494155,0.46396652,-0.3758754,0.59629685,-0.6830075,-0.42181855,0.7683781,0.33346778,0.5462549,-0.23243324,-0.6498462,0.72365373,,1.268914515830955,0.16281837718727535,0.16684418961000003,3.6834135472491547,-0.3317534214304894,-1.2162754366037432,-0.41571064831174054,,-0.849222597781224,-0.46111665718707123,0.14088727865,-3.951397295022377,-1.2681233543230528,1.2702028019528524,0.8760142266781397,,-0.039682242205656075,-0.08834420341282298,0.07698115776,-0.04579199763572349,,1.5685335e-05,1.4901161e-06,-1.0728836e-06,1.0,-1.9356608e-05,-1.6156584e-05,1.9356608e-05,1.0,-1.4007092e-06,1.616776e-05,1.4603138e-06,1.0,959,3.014,1,3,0.913,False,-0.26148663402373185,1.0507702725789931
