AlexandreBanks6/ExpertPlaybackApp/resources/Motions/Pilot_04/PC1/Data_PC1_3.csv
Task Time,PC1 Time,PC2 Time,Gaze Calib,s_T_psm1,Tx,Ty,Tz,R00,R01,R02,R10,R11,R12,R20,R21,R22,s_T_psm3,Tx,Ty,Tz,R00,R01,R02,R10,R11,R12,R20,R21,R22,cart_T_ecm,Tx,Ty,Tz,R00,R01,R02,R10,R11,R12,R20,R21,R22,ecm_T_psm1,Tx,Ty,Tz,R00,R01,R02,R10,R11,R12,R20,R21,R22,ecm_T_psm3,Tx,Ty,Tz,R00,R01,R02,R10,R11,R12,R20,R21,R22,psm1_joints,q1,q2,q3,q4,q5,q6,jaw,psm3_joints,q1,q2,q3,q4,q5,q6,jaw,ecm_joints,q1,q2,q3,q4,ecmi_T_ecm,Tx,Ty,Tz,R00,R01,R02,R10,R11,R12,R20,R21,R22,Sample #,Task Duration (s),Collisions (binary),Collisions (increments),Cumulative Collision Time (s),Clutch Press,MTMR Angle,MTML Angle
""
lci_T_si,,,,,-0.064848,0.0060158353,0.24753708,0.99741,0.018062852,0.06962021,0.059872065,-0.74489254,-0.6644926,0.03985694,0.6669399,-0.7440447
rci_T_si,,,,,-0.07478864,0.010140588,0.2572284,0.9943315,0.005651281,0.106174365,0.075483374,-0.74079365,-0.6674781,0.07488119,0.6717089,-0.737021
ecm_T_lc,,,,,-4.4061628e-05,-0.00034663224,-0.01840835,-0.99912,0.030754527,0.028518902,-0.031987965,-0.99852574,-0.043852776,0.027128186,-0.04472645,0.9986309
ecm_T_rc,,,,,-0.0043358393,0.01870579,-0.007592615,-0.99555075,-0.052743673,-0.078081585,0.04863213,-0.9973746,0.053654674,-0.08070653,0.04961868,0.9955021
cart_T_ecmi,,,,,0.10781996,1.3465626,0.44453546,0.9966516,-0.008020006,-0.08137113,-0.05822047,-0.76835763,-0.6373672,-0.05741044,0.6399705,-0.7662518
ecmac_T_ecmrep_psm1,,,,,0.011947535,-0.24624088,-0.3140189,0.99787813,0.060519684,0.024013558,-0.059408683,0.9972389,-0.04455629,-0.026643785,0.04303513,0.9987182
ecmac_T_ecmrep_psm3,,,,,-0.020729378,-0.4297972,-0.5440064,0.99962926,-0.018584386,0.019899037,0.019259674,0.999226,-0.034299888,-0.019246193,0.03467042,0.99921346
""
0,15:53:48.327556,NaN,0,,0.109482005,-0.00075416267,0.015315443,0.901507,0.05299156,-0.4295078,0.42886302,-0.24235779,0.8702523,-0.05797854,-0.96873856,-0.24121344,,0.051373757,-0.011697501,0.011602521,-0.95528823,-0.29445148,0.026876938,-0.021110125,0.15858969,0.9871189,-0.29492107,0.94241583,-0.15771493,,0.10776102,1.346565,0.44453263,0.9966544,-0.007983177,-0.08134058,-0.058172695,-0.768358,-0.6373711,-0.05741044,0.6399705,-0.7662518,,-0.0731779,0.25724557,-0.080523886,-0.8949068,-0.0029156595,0.4462435,0.25259674,-0.8276703,0.50115544,0.36788127,0.56120706,0.7414243,,0.0072506987,0.44153458,-0.31007978,0.9815014,0.18200277,-0.05941338,-0.10692975,0.77853066,0.6184303,0.15881117,-0.60063714,0.7835905,,1.245900771865766,0.1435887723304563,0.18623668801,3.8551496109629806,0.04604650042095343,-0.8957463562025814,-0.4121170788567866,,-0.8689310120762449,-0.20235104677043061,0.20265938602000003,-4.537690377005107,-0.22900277360687818,1.3967252630374913,0.8523293370886691,,-0.039682242205656075,-0.08834420341282298,0.07698115776,-0.046119083333121515,,-5.872734e-05,-3.2782555e-06,5.4836273e-06,1.0,3.6727637e-05,3.068149e-05,-3.6731362e-05,1.0,2.771616e-06,-3.0670315e-05,-2.7418137e-06,1.0,37,0.111,1,1,0.072,False,-0.2596993024681016,1.0256645681736747
0.12917215000197757,15:53:48.359020,NaN,0,,0.10925315,-0.0008574277,0.015807271,0.90095145,0.05250641,-0.43073148,0.4303093,-0.2359016,0.8713118,-0.055860758,-0.97035724,-0.23512983,,0.051376544,-0.011698395,0.01160413,-0.9552836,-0.29447034,0.026836652,-0.021105744,0.15843225,0.98714423,-0.29493654,0.94243646,-0.15756291,,0.10776102,1.346565,0.44453263,0.9966544,-0.007983177,-0.08134058,-0.058172695,-0.768358,-0.6373711,-0.05741044,0.6399705,-0.7662518,,-0.07297594,0.2575035,-0.08096841,-0.8944565,-0.0023115652,0.447149,0.25510272,-0.82392335,0.5060365,0.36724678,0.5666965,0.73755324,,0.0072478065,0.44153467,-0.31008142,0.98149824,0.18202722,-0.059391174,-0.10693737,0.7784306,0.61855495,0.15882574,-0.6007595,0.78349376,,1.2478237323514478,0.14313313109087705,0.18579335683,3.8526333316411665,0.04317713392587918,-0.9009210243178882,-0.4121170788567866,,-0.8689464575419934,-0.20235876950330484,0.20265938602000003,-4.537690377005107,-0.22900277360687818,1.3968886205177724,0.8523293370886692,,-0.039682242205656075,-0.08834420341282298,0.07698115776,-0.046119083333121515,,-5.872734e-05,-3.2782555e-06,5.4836273e-06,1.0,3.6727637e-05,3.068149e-05,-3.6731362e-05,1.0,2.771616e-06,-3.0670315e-05,-2.7418137e-06,1.0,49,0.148,1,1,0.109,False,-0.2604738128088746,1.0252300463666597
0.16056647199729923,15:53:48.400522,NaN,0,,0.10890284,-0.00096933544,0.016400084,0.900485,0.052761525,-0.43167463,0.43157735,-0.23064628,0.87209123,-0.053551316,-0.9716059,-0.23046425,,0.051377803,-0.011698142,0.0116048455,-0.95528144,-0.29448378,0.026766386,-0.021104418,0.15818858,0.98718333,-0.29494366,0.9424732,-0.15732965,,0.10776102,1.346565,0.44453263,0.9966544,-0.007983177,-0.08134058,-0.058172695,-0.768358,-0.6373711,-0.05741044,0.6399705,-0.7662518,,-0.07265809,0.2578261,-0.08149903,-0.89410627,-0.0024725844,0.447848,0.25760084,-0.82084787,0.5097554,0.36635467,0.5711415,0.7345622,,0.0072464608,0.4415352,-0.31008172,0.9814968,0.18204886,-0.05934871,-0.10694138,0.7782772,0.61874723,0.15883197,-0.6009516,0.7833451,,1.2505575797889232,0.14243808513219686,0.1852787297,3.8501170523193515,0.03935131193244685,-0.9041722647453523,-0.41309714325359226,,-0.8689541802748676,-0.20235876950330484,0.20265938602000003,-4.537690377005107,-0.22900277360687818,1.3971336567381942,0.8515126167579977,,-0.039682242205656075,-0.08834420341282298,0.07698115776,-0.046119083333121515,,-5.872734e-05,-3.2782555e-06,5.4836273e-06,1.0,3.6727637e-05,3.068149e-05,-3.6731362e-05,1.0,2.771616e-06,-3.0670315e-05,-2.7418137e-06,1.0,57,0.174,1,1,0.135,False,-0.26106958999408425,1.0250852057643212
0.20215165700938087,15:53:48.428531,15:53:32.647449,0,,0.10865385,-0.0010440499,0.01680383,0.89979553,0.05451662,-0.4328925,0.43335205,-0.22703409,0.872159,-0.050734192,-0.97235954,-0.22790918,,0.051376544,-0.011698395,0.01160413,-0.9552836,-0.29447693,0.026764493,-0.021105744,0.15819031,0.987183,-0.29493654,0.94247496,-0.15733194,,0.10776102,1.346565,0.44453263,0.9966544,-0.007983177,-0.08134058,-0.058172695,-0.768358,-0.6373711,-0.05741044,0.6399705,-0.7662518,,-0.07243122,0.25804725,-0.08185989,-0.8935576,-0.0041663162,0.44892925,0.26082167,-0.8187138,0.51154643,0.3654133,0.5741867,0.7326546,,0.0072478065,0.44153467,-0.31008142,0.98149824,0.18204176,-0.059346568,-0.10693737,0.77827895,0.6187457,0.15882574,-0.60095143,0.7833465,,1.252511431206102,0.14191293929674959,0.18493132398,3.8469717031670836,0.03593539943831084,-0.9057157903803916,-0.41260711105518943,,-0.8689464575419934,-0.20235876950330484,0.20265938602000003,-4.537690377005107,-0.22900277360687818,1.3971336567381942,0.8515126167579977,,-0.039682242205656075,-0.08834420341282298,0.07698115776,-0.046119083333121515,,-5.872734e-05,-3.2782555e-06,5.4836273e-06,1.0,3.6727637e-05,3.068149e-05,-3.6731362e-05,1.0,2.771616e-06,-3.0670315e-05,-2.7418137e-06,1.0,78,0.238,1,1,0.199,False,-0.2607717014014801,1.0257611285752335
0.23010363800858613,15:53:48.485255,15:53:32.647449,0,,0.10825,-0.0011938959,0.017327935,0.8984545,0.056490935,-0.43541744,0.43644807,-0.22305343,0.87164223,-0.047881484,-0.97316784,-0.22505876,,0.05137807,-0.011699647,0.011604965,-0.95528114,-0.29448017,0.026818514,-0.021102667,0.15835711,0.9871564,-0.29494494,0.942446,-0.15749002,,0.10776102,1.346565,0.44453263,0.9966544,-0.007983177,-0.08134058,-0.058172695,-0.768358,-0.6373711,-0.05741044,0.6399705,-0.7662518,,-0.07205648,0.25829747,-0.082367025,-0.8923531,-0.006074124,0.45129704,0.26507115,-0.8163485,0.5131398,0.36529878,0.5775277,0.7300812,,0.00724626,0.44153416,-0.3100828,0.9814965,0.18203972,-0.059381694,-0.106940985,0.7783827,0.61861455,0.1588341,-0.6008177,0.78344744,,1.255330228705194,0.14079314302998702,0.18447762248000002,3.8423585244104244,0.0321095774448785,-0.9072517772649038,-0.41244376698905505,,-0.8689541802748676,-0.20236649223617906,0.20265938602000003,-4.537690377005107,-0.22900277360687818,1.396970299257913,0.8515126167579976,,-0.039682242205656075,-0.08834420341282298,0.07698115776,-0.046119083333121515,,-5.872734e-05,-3.2782555e-06,5.4836273e-06,1.0,3.6727637e-05,3.068149e-05,-3.6731362e-05,1.0,2.771616e-06,-3.0670315e-05,-2.7418137e-06,1.0,86,0.264,1,1,0.225,False,-0.26106958999408425,1.0249886453627624
0.2868758760014316,15:53:48.516112,15:53:32.647449,0,,0.10805753,-0.001284346,0.017564565,0.89849335,0.056522127,-0.43533316,0.43661302,-0.21805656,0.8728231,-0.04559344,-0.9742978,-0.22060072,,0.05137807,-0.011699647,0.011604965,-0.95528114,-0.29448456,0.026770405,-0.021102667,0.15819588,0.9871822,-0.29494494,0.94247174,-0.15733603,,0.10776102,1.346565,0.44453263,0.9966544,-0.007983177,-0.08134058,-0.058172695,-0.768358,-0.6373711,-0.05741044,0.6399705,-0.7662518,,-0.07187727,0.25839376,-0.08261164,-0.8925122,-0.00601918,0.4509831,0.26671726,-0.8133794,0.51698726,0.36370853,0.5817024,0.72755647,,0.00724626,0.44153416,-0.3100828,0.9814965,0.18204942,-0.059351955,-0.106940985,0.7782817,0.6187417,0.1588341,-0.60094565,0.7833493,,1.2566971524239319,0.14005948340693572,0.18425854947,3.841100384749517,0.028557028450977053,-0.9113792834208853,-0.41309714325359226,,-0.8689541802748676,-0.20236649223617906,0.20265938602000003,-4.537690377005107,-0.22900277360687818,1.3971336567381942,0.8515126167579977,,-0.039682242205656075,-0.08834420341282298,0.07698115776,-0.046119083333121515,,-5.872734e-05,-3.2782555e-06,5.4836273e-06,1.0,3.6727637e-05,3.068149e-05,-3.6731362e-05,1.0,2.771616e-06,-3.0670315e-05,-2.7418137e-06,1.0,94,0.288,1,1,0.249,False,-0.2618441003348577,1.0254714473705566
0.3176866520079784,15:53:48.541161,15:53:32.647449,0,,0.10791616,-0.001393035,0.017798737,0.8984248,0.057749502,-0.43531358,0.43699312,-0.2151953,0.87334293,-0.04324235,-0.97486186,-0.21857294,,0.05137807,-0.011699647,0.011604965,-0.95528114,-0.29448235,0.026794463,-0.021102667,0.15827656,0.98716927,-0.29494494,0.94245887,-0.15741307,,0.10776102,1.346565,0.44453263,0.9966544,-0.007983177,-0.08134058,-0.058172695,-0.768358,-0.6373711,-0.05741044,0.6399705,-0.7662518,,-0.07174907,0.25847325,-0.08286439,-0.89256614,-0.007199919,0.45085898,0.26856908,-0.81166196,0.5187249,0.3622103,0.5840831,0.72639567,,0.00724626,0.44153416,-0.3100828,0.9814965,0.18204457,-0.059366822,-0.106940985,0.77833223,0.6186781,0.1588341,-0.60088164,0.78339833,,1.257701107697581,0.13941849657837507,0.18404077275000003,3.8396325551451254,0.025551025456137362,-0.9130937052867326,-0.4132604873197264,,-0.8689541802748676,-0.20236649223617906,0.20265938602000003,-4.537690377005107,-0.22900277360687818,1.3970519779980535,0.8513492726918633,,-0.039682242205656075,-0.08834420341282298,0.07698115776,-0.046119083333121515,,-5.872734e-05,-3.2782555e-06,5.4836273e-06,1.0,3.6727637e-05,3.068149e-05,-3.6731362e-05,1.0,2.771616e-06,-3.0670315e-05,-2.7418137e-06,1.0,107,0.328,1,1,0.289,False,-0.26148663402373185,1.0246024037565267
0.34279124600288924,15:53:48.581228,15:53:32.647449,0,,0.10778847,-0.0015188158,0.017932504,0.8974323,0.056817174,-0.4374779,0.43893725,-0.21424651,0.8726009,-0.04414943,-0.97512555,-0.21721101,,0.05137959,-0.011700809,0.011605799,-0.9552785,-0.2944878,0.02682444,-0.02109959,0.15836272,0.9871555,-0.29495332,0.94244266,-0.15749413,,0.10776102,1.346565,0.44453263,0.9966544,-0.007983177,-0.08134058,-0.058172695,-0.768358,-0.6373711,-0.05741044,0.6399705,-0.7662518,,-0.07162931,0.25847268,-0.083053246,-0.8915169,-0.0062499596,0.45294422,0.26944435,-0.8111015,0.51914746,0.3641391,0.584872,0.72479475,,0.007244713,0.44153368,-0.31008416,0.9814947,0.18204738,-0.059387077,-0.1069446,0.77838546,0.6186105,0.15884246,-0.60081184,0.7834502,,1.2583112035946447,0.13871572788682066,0.18389818085,3.837955035597249,0.026370844454730008,-0.9144156426300356,-0.4132604873197264,,-0.8689619030077418,-0.20237421496905328,0.20265938602000003,-4.537690377005107,-0.22900277360687818,1.396970299257913,0.8508592404934606,,-0.039682242205656075,-0.08834420341282298,0.07698115776,-0.046119083333121515,,-5.872734e-05,-3.2782555e-06,5.4836273e-06,1.0,3.6727637e-05,3.068149e-05,-3.6731362e-05,1.0,2.771616e-06,-3.0670315e-05,-2.7418137e-06,1.0,128,0.394,1,1,0.355,False,-0.2607121236829584,1.0243127225518498
0.3828374910081038,15:53:48.643139,15:53:32.647449,0,,0.10770585,-0.0016119182,0.018149763,0.8966817,0.05985216,-0.43861088,0.4407183,-0.21377432,0.87181866,-0.04158351,-0.9750477,-0.2180655,,0.051284768,-0.011706546,0.011610389,-0.95527166,-0.29450214,0.026908606,-0.02097617,0.15823835,0.9871781,-0.2949841,0.942459,-0.15733829,,0.10785241,1.3465623,0.44454128,0.99665046,-0.008034768,-0.08138338,-0.058239616,-0.76835746,-0.63736564,-0.05741044,0.6399705,-0.7662518,,-0.07163982,0.25854698,-0.083266035,-0.8908642,-0.009298857,0.45417455,0.2725517,-0.8107903,0.5180103,0.3634234,0.5852629,0.72483844,,0.007257291,0.4415344,-0.31008536,0.98148644,0.18208034,-0.05942321,-0.10692495,0.7782948,0.618728,0.15890698,-0.60091925,0.7833547,,1.2582416989987766,0.13843770950334855,0.18362466366000002,3.8350193763884657,0.024731206457544723,-0.9137320577068031,-0.4122804229229209,,-0.8689773484734903,-0.20237421496905328,0.20265938602000003,-4.537690377005107,-0.22900277360687818,1.397133656738194,0.8502058642289235,,-0.039682242205656075,-0.08834420341282298,0.07698115776,-0.046119083333121515,,3.2024458e-05,3.7550926e-06,-6.914139e-06,0.99999994,-1.4722347e-05,-1.2293458e-05,1.4722347e-05,1.0,-1.0728836e-06,1.2304634e-05,1.1026859e-06,1.0,136,0.419,1,1,0.38,False,-0.2607121236829584,1.0235402393393787
0.4447547330055386,15:53:48.669962,15:53:32.647449,0,,0.107746765,-0.0016705096,0.018236801,0.89660686,0.060049884,-0.43873683,0.44088435,-0.21376002,0.87173826,-0.041436583,-0.9750387,-0.21813369,,0.051285036,-0.011708051,0.011610508,-0.95527136,-0.29449853,0.026960742,-0.020974435,0.15840688,0.987151,-0.29498535,0.9424318,-0.15749869,,0.10785241,1.3465623,0.44454128,0.99665046,-0.008034768,-0.08138338,-0.058239616,-0.76835746,-0.63736564,-0.05741044,0.6399705,-0.7662518,,-0.0716856,0.25856003,-0.08336809,-0.89079636,-0.009496699,0.4543035,0.27277565,-0.8107798,0.5179089,0.36342168,0.5852743,0.72483015,,0.00725709,0.44153336,-0.31008643,0.98148614,0.18207121,-0.059456196,-0.10692455,0.7784003,0.61859524,0.1589091,-0.6007853,0.783457,,1.2580872443412923,0.138383650373229,0.18351577530000002,3.8348096864449817,0.024731206457544723,-0.9138137364469436,-0.4127704551213236,,-0.8689773484734903,-0.2023819377019275,0.20265938602000003,-4.537690377005107,-0.22900277360687818,1.396970299257913,0.8502058642289236,,-0.039682242205656075,-0.08834420341282298,0.07698115776,-0.046119083333121515,,3.2024458e-05,3.7550926e-06,-6.914139e-06,0.99999994,-1.4722347e-05,-1.2293458e-05,1.4722347e-05,1.0,-1.0728836e-06,1.2304634e-05,1.1026859e-06,1.0,149,0.459,1,1,0.42,False,-0.2602950796533112,1.02339539873704
0.471588997010258,15:53:48.710473,15:53:32.948004,0,,0.107788704,-0.0018050969,0.018388122,0.8963583,0.059537053,-0.43931425,0.44141486,-0.21186975,0.8719312,-0.041165173,-0.9754827,-0.21619177,,0.051286176,-0.011710733,0.011612594,-0.9552685,-0.2945069,0.026970685,-0.020969614,0.1584197,0.9871491,-0.294995,0.9424271,-0.15750921,,0.10785241,1.3465623,0.44454128,0.99665046,-0.008034768,-0.08138338,-0.058239616,-0.76835746,-0.63736564,-0.05741044,0.6399705,-0.7662518,,-0.07173621,0.25855926,-0.08356863,-0.8905597,-0.0089510325,0.45477834,0.27335954,-0.80965114,0.5193646,0.36356294,0.5868432,0.7234895,,0.007255871,0.44153264,-0.31008974,0.9814841,0.18207942,-0.059464827,-0.10692776,0.7784075,0.61858565,0.15891959,-0.6007736,0.7834639,,1.2579018987523107,0.13805157285963734,0.18332003551,3.834180616614528,0.024594569957779283,-0.9161526807474641,-0.4140772076503979,,-0.8689850712063645,-0.20239738316767594,0.20265808973000002,-4.537690377005107,-0.22900277360687818,1.3969702992579127,0.8495524879643862,,-0.039682242205656075,-0.08834420341282298,0.07698115776,-0.046119083333121515,,3.2024458e-05,3.7550926e-06,-6.914139e-06,0.99999994,-1.4722347e-05,-1.2293458e-05,1.4722347e-05,1.0,-1.0728836e-06,1.2304634e-05,1.1026859e-06,1.0,170,0.525,1,1,0.486,False,-0.2607717014014801,1.023057437331584
0.5120848439983092,15:53:48.773293,15:53:32.948004,0,,0.10777548,-0.0020234883,0.018613026,0.8956096,0.05937898,-0.4408598,0.442955,-0.21019715,0.87155485,-0.04091543,-0.975854,-0.21455681,,0.051293083,-0.011711985,0.011616766,-0.95529497,-0.29442403,0.026934713,-0.020960204,0.15831652,0.98716587,-0.29490966,0.9424703,-0.15741038,,0.10785241,1.3465623,0.44454128,0.99665046,-0.008034768,-0.08138338,-0.058239616,-0.76835746,-0.63736564,-0.05741044,0.6399705,-0.7662518,,-0.071736075,0.2585468,-0.08388213,-0.8898171,-0.008764623,0.45623314,0.2746969,-0.80864745,0.52022195,0.36437222,0.5882282,0.72195596,,0.007248616,0.44153374,-0.31009337,0.98150074,0.18199764,-0.059440687,-0.1068609,0.77835125,0.61866796,0.15886185,-0.60087115,0.7834008,,1.2579636806153045,0.13727929957221488,0.18303744429000002,3.8325030970666516,0.02445793345801384,-0.9182465888275628,-0.41260711105518943,,-0.8690314076036099,-0.20241282863342439,0.20265808973000002,-4.537690377005107,-0.22913941010664365,1.3970817171616092,0.8488991116998492,,-0.039682242205656075,-0.08834420341282298,0.07698115776,-0.046119083333121515,,3.2024458e-05,3.7550926e-06,-6.914139e-06,0.99999994,-1.4722347e-05,-1.2293458e-05,1.4722347e-05,1.0,-1.0728836e-06,1.2304634e-05,1.1026859e-06,1.0,191,0.59,1,1,0.551,False,-0.26148663402373185,1.0225263551230097
0.5748948300024495,15:53:48.838306,15:53:32.948004,0,,0.107797116,-0.002301246,0.018978044,0.8951803,0.063803,-0.44111377,0.44425082,-0.20758605,0.8715212,-0.03596337,-0.9761337,-0.21417144,,0.05129487,-0.011717677,0.011616528,-0.9553316,-0.29430622,0.026921399,-0.020953886,0.15831739,0.98716587,-0.29479128,0.9425069,-0.15741271,,0.10785241,1.3465623,0.44454128,0.99665046,-0.008034768,-0.08138338,-0.058239616,-0.76835746,-0.63736564,-0.05741044,0.6399705,-0.7662518,,-0.07177847,0.25858238,-0.08433798,-0.88964355,-0.013153673,0.4564662,0.2789752,-0.80702704,0.52046156,0.36153457,0.590368,0.72163594,,0.007247159,0.44152918,-0.3100969,0.98152393,0.18187667,-0.05942722,-0.10677317,0.77836335,0.6186679,0.15877724,-0.6008921,0.78340185,,1.2581567489371601,0.13632168069581105,0.18259800198,3.8291480579708996,0.019675655966223424,-0.9191660078664814,-0.4127704551213236,,-0.8690391303364841,-0.2024437195649213,0.20265938602000003,-4.537690377005107,-0.22927604660640907,1.3971114563251652,0.848735767633715,,-0.039682242205656075,-0.08834420341282298,0.07698115776,-0.046119083333121515,,3.2024458e-05,3.7550926e-06,-6.914139e-06,0.99999994,-1.4722347e-05,-1.2293458e-05,1.4722347e-05,1.0,-1.0728836e-06,1.2304634e-05,1.1026859e-06,1.0,199,0.616,1,1,0.577,False,-0.261427056305211,1.0235885195401577
0.6399338530027308,15:53:48.872129,15:53:33.098396,0,,0.10783857,-0.0024774075,0.019349322,0.89392066,0.06816536,-0.44301143,0.44715673,-0.20381853,0.87092406,-0.030927107,-0.9766326,-0.21267825,,0.051300444,-0.011719495,0.011619687,-0.95532227,-0.2943308,0.026985101,-0.02094511,0.15848616,0.987139,-0.29482225,0.9424709,-0.15757036,,0.10785241,1.3465623,0.44454128,0.99665046,-0.008034768,-0.08138338,-0.058239616,-0.76835746,-0.63736564,-0.05741044,0.6399705,-0.7662518,,-0.071840465,0.2586972,-0.084729865,-0.8886368,-0.01746339,0.45827898,0.28453523,-0.80468917,0.521071,0.35967246,0.5934394,0.7200454,,0.007241375,0.44152933,-0.3101002,0.98151755,0.18189646,-0.059471987,-0.10678842,0.7784663,0.61853576,0.1588064,-0.60075283,0.78350276,,1.2584347673206322,0.13595871225072248,0.18218707805,3.8241154993272706,0.015986470472556535,-0.9207317339145495,-0.41309714325359237,,-0.8690700212679809,-0.20245916503066974,0.20265938602000003,-4.537690377005107,-0.22927604660640907,1.3969480988448841,0.8490624557659835,,-0.039682242205656075,-0.08834420341282298,0.07698115776,-0.046119083333121515,,3.2024458e-05,3.7550926e-06,-6.914139e-06,0.99999994,-1.4722347e-05,-1.2293458e-05,1.4722347e-05,1.0,-1.0728836e-06,1.2304634e-05,1.1026859e-06,1.0,212,0.656,1,1,0.617,False,-0.2616653671792948,1.0248438047604238
0.673759223005618,15:53:48.902696,15:53:33.098396,0,,0.10785858,-0.0026054978,0.019660935,0.8931377,0.07174532,-0.44402424,0.44895446,-0.20210171,0.8703991,-0.027291,-0.9767329,-0.21271512,,0.05130457,-0.011719853,0.01162231,-0.95535356,-0.29422683,0.027013429,-0.02094008,0.15862116,0.9871174,-0.29472142,0.9424806,-0.1577006,,0.10785241,1.3465623,0.44454128,0.99665046,-0.008034768,-0.08138338,-0.058239616,-0.76835746,-0.63736564,-0.05741044,0.6399705,-0.7662518,,-0.07187761,0.25880876,-0.08504623,-0.8880378,-0.021023821,0.4592895,0.28832176,-0.8035891,0.5206871,0.3581332,0.594813,0.7196792,,0.007237012,0.44153038,-0.3101022,0.9815374,0.18178536,-0.059484888,-0.10671392,0.77856064,0.61842984,0.15873408,-0.60066414,0.7835854,,1.2587745675670983,0.13571930753162154,0.18185263523000003,3.820760460231518,0.013117103977482282,-0.9205972839207197,-0.4129337991874579,,-0.8691009121994778,-0.20246688776354396,0.20265938602000003,-4.537690377005107,-0.22941268310617452,1.396814480528159,0.8495524879643863,,-0.039682242205656075,-0.08834420341282298,0.07698115776,-0.046119083333121515,,3.2024458e-05,3.7550926e-06,-6.914139e-06,0.99999994,-1.4722347e-05,-1.2293458e-05,1.4722347e-05,1.0,-1.0728836e-06,1.2304634e-05,1.1026859e-06,1.0,220,0.682,1,1,0.643,False,-0.26059296824591627,1.0235885195401577
0.7043244250089629,15:53:48.930454,15:53:33.098396,0,,0.107872635,-0.0026876032,0.019908354,0.8923819,0.07660383,-0.44473165,0.45071584,-0.20058712,0.869839,-0.02257444,-0.9766762,-0.21352693,,0.051307768,-0.01171878,0.011625946,-0.9553851,-0.29412866,0.026965633,-0.020936787,0.1585069,0.98713577,-0.29461926,0.9425305,-0.15759352,,0.10785241,1.3465623,0.44454128,0.99665046,-0.008034768,-0.08138338,-0.058239616,-0.76835746,-0.63736564,-0.05741044,0.6399705,-0.7662518,,-0.07190519,0.258912,-0.08528442,-0.88752335,-0.025870388,0.4600359,0.29280028,-0.8025751,0.5197511,0.3557672,0.5959899,0.71987903,,0.0072333785,0.44153327,-0.310104,0.9815575,0.18168826,-0.059449993,-0.106639825,0.778499,0.6185202,0.15865962,-0.6007734,0.78351676,,1.259145258745061,0.1355571301412628,0.18159467352000003,3.8169860412487964,0.009291281984049951,-0.9196012298608744,-0.4135871754519951,,-0.8691318031309748,-0.20246688776354396,0.20265808973000002,-4.537690377005107,-0.22954931960593997,1.396925898431855,0.8498791760966548,,-0.039682242205656075,-0.08834420341282298,0.07698115776,-0.046119083333121515,,3.2024458e-05,3.7550926e-06,-6.914139e-06,0.99999994,-1.4722347e-05,-1.2293458e-05,1.4722347e-05,1.0,-1.0728836e-06,1.2304634e-05,1.1026859e-06,1.0,233,0.722,1,1,0.683,False,-0.2621419889274632,1.0232505581347018
0.7320743510063039,15:53:48.971609,15:53:33.098396,0,,0.1078785,-0.0028620362,0.020540267,0.89034915,0.08945324,-0.4464039,0.45520407,-0.19260827,0.869305,-0.008218944,-0.97718984,-0.21220815,,0.05132536,-0.011717975,0.011634469,-0.9553563,-0.29422155,0.026974265,-0.020916104,0.15841803,0.98715043,-0.2947142,0.94251645,-0.15749976,,0.10785241,1.3465623,0.44454128,0.99665046,-0.008034768,-0.08138338,-0.058239616,-0.76835746,-0.63736564,-0.05741044,0.6399705,-0.7662518,,-0.071945414,0.25920287,-0.085870564,-0.88622934,-0.03863194,0.46163312,0.30577254,-0.7973753,0.5202843,0.34799525,0.6022459,0.71847004,,0.0072149565,0.4415376,-0.31010896,0.9815381,0.18178646,-0.059469473,-0.10669119,0.77843446,0.6185926,0.15874486,-0.60082734,0.78345805,,1.260388618737811,0.1351401025660547,0.18095560255,3.8062918541310857,-0.002732729995308809,-0.9202513330735815,-0.4129337991874579,,-0.8692321986583397,-0.20248233322929243,0.20265938602000003,-4.537690377005107,-0.22954931960593997,1.3970075771719959,0.8490624557659835,,-0.039682242205656075,-0.08834420341282298,0.07698115776,-0.046119083333121515,,3.2024458e-05,3.7550926e-06,-6.914139e-06,0.99999994,-1.4722347e-05,-1.2293458e-05,1.4722347e-05,1.0,-1.0728836e-06,1.2304634e-05,1.1026859e-06,1.0,241,0.747,1,1,0.708,False,-0.261427056305211,1.0244092829534086
0.7732399570086272,15:53:48.999577,15:53:33.098396,0,,0.10782714,-0.0030164123,0.021058574,0.88961643,0.099002324,-0.44584876,0.45670074,-0.18717408,0.86970687,0.0026516318,-0.977325,-0.21172765,,0.05133605,-0.011715472,0.011642158,-0.9553368,-0.29428542,0.026967242,-0.020904206,0.1583215,0.9871663,-0.29477823,0.94251275,-0.15740234,,0.10785241,1.3465623,0.44454128,0.99665046,-0.008034768,-0.08138338,-0.058239616,-0.76835746,-0.63736564,-0.05741044,0.6399705,-0.7662518,,-0.071922384,0.2594348,-0.08636127,-0.886065,-0.048131395,0.4610555,0.31415328,-0.79371595,0.5208865,0.3408761,0.6063814,0.71840453,,0.0072033755,0.4415434,-0.3101124,0.9815251,0.18185516,-0.05947388,-0.1067273,0.77836794,0.61867005,0.1588009,-0.60089266,0.7833966,,1.261686037860681,0.1345686203333621,0.18043967913000003,3.8000011558265507,-0.013117103977482282,-0.9200331251468502,-0.41309714325359215,,-0.8693017032542077,-0.20248233322929243,0.20265808973000002,-4.537690377005107,-0.22954931960593997,1.3970892559121364,0.8492257998321179,,-0.039682242205656075,-0.08834420341282298,0.07698115776,-0.046119083333121515,,3.2024458e-05,3.7550926e-06,-6.914139e-06,0.99999994,-1.4722347e-05,-1.2293458e-05,1.4722347e-05,1.0,-1.0728836e-06,1.2304634e-05,1.1026859e-06,1.0,254,0.787,1,1,0.748,False,-0.2603546573718325,1.0262439305830282
0.8012074410071364,15:53:49.036015,15:53:33.250980,0,,0.10768765,-0.0032948256,0.02171497,0.8866137,0.112754755,-0.44855592,0.46218422,-0.17956758,0.868413,0.017371565,-0.97726226,-0.21132058,,0.051353045,-0.011710733,0.011659682,-0.95534027,-0.29425868,0.027136318,-0.020883732,0.15882939,0.9870851,-0.2947685,0.9424357,-0.15788153,,0.10785241,1.3465623,0.44454128,0.99665046,-0.008034768,-0.08138338,-0.058239616,-0.76835746,-0.63736564,-0.05741044,0.6399705,-0.7662518,,-0.07181932,0.25966907,-0.087041214,-0.8838165,-0.06182717,0.46373037,0.3281403,-0.78843784,0.52027845,0.33345523,0.6119993,0.7171224,,0.0071843667,0.4415567,-0.31012133,0.98152643,0.18181139,-0.059585623,-0.10670537,0.7786874,0.61827165,0.15880741,-0.6004919,0.78370255,,1.2635240482847463,0.13324031027899547,0.17977208978,3.787839139104448,-0.025960934955433685,-0.9196063272366757,-0.4145672398488006,,-0.8694329897130695,-0.20248233322929243,0.20265160828,-4.537690377005107,-0.22968595610570539,1.3965472438947084,0.8521659930225349,,-0.039682242205656075,-0.08834420341282298,0.07698115776,-0.046119083333121515,,3.2024458e-05,3.7550926e-06,-6.914139e-06,0.99999994,-1.4722347e-05,-1.2293458e-05,1.4722347e-05,1.0,-1.0728836e-06,1.2304634e-05,1.1026859e-06,1.0,262,0.813,1,1,0.774,False,-0.2618441003348577,1.0268715731931612
0.8376346550066955,15:53:49.062882,15:53:33.250980,0,,0.10763316,-0.0034206212,0.0220619,0.8853096,0.12188208,-0.44874454,0.46420407,-0.17513973,0.8682399,0.027229875,-0.97697014,-0.211631,,0.05135449,-0.011708066,0.011688948,-0.9553164,-0.29433188,0.0271812,-0.020869195,0.15889066,0.98707557,-0.2948467,0.9424025,-0.1579335,,0.10785241,1.3465623,0.44454128,0.99665046,-0.008034768,-0.08138338,-0.058239616,-0.76835746,-0.63736564,-0.05741044,0.6399705,-0.7662518,,-0.07178393,0.25980818,-0.087385505,-0.88302517,-0.07093345,0.46393424,0.33625433,-0.7852302,0.5199486,0.32741344,0.61512756,0.7172297,,0.0071796156,0.44157803,-0.310141,0.9815106,0.18188454,-0.059624054,-0.106749505,0.7787185,0.618225,0.15887591,-0.60042953,0.78373647,,1.264512558092647,0.1325916007175606,0.17942468406,3.7813387508564276,-0.03497894393995275,-0.9187053660638165,-0.41505727204720355,,-0.8695179397746859,-0.20248233322929243,0.20262697877000002,-4.537690377005107,-0.22968595610570539,1.3964655651545677,0.8520026489564005,,-0.039682242205656075,-0.08834420341282298,0.07698115776,-0.046119083333121515,,3.2024458e-05,3.7550926e-06,-6.914139e-06,0.99999994,-1.4722347e-05,-1.2293458e-05,1.4722347e-05,1.0,-1.0728836e-06,1.2304634e-05,1.1026859e-06,1.0,275,0.853,1,1,0.814,False,-0.2621419889274632,1.0270646939962789
0.864347014008672,15:53:49.102559,15:53:33.250980,0,,0.107522935,-0.0036516488,0.022665814,0.8820281,0.13891739,-0.45025355,0.46901155,-0.1669136,0.8672762,0.045326293,-0.976136,-0.21237639,,0.05134646,-0.011704102,0.011754572,-0.9552774,-0.29445076,0.027263403,-0.020845383,0.15902019,0.9870552,-0.29497465,0.9423435,-0.15804654,,0.10785241,1.3465623,0.44454128,0.99665046,-0.008034768,-0.08138338,-0.058239616,-0.76835746,-0.63736564,-0.05741044,0.6399705,-0.7662518,,-0.071707055,0.2600419,-0.08799354,-0.8806806,-0.08794498,0.46547544,0.351996,-0.7790795,0.51878124,0.31701815,0.62072605,0.7170765,,0.007180266,0.44162568,-0.31018704,0.98148453,0.18200244,-0.059692368,-0.10682172,0.77878755,0.61812544,0.15898801,-0.6003041,0.7838098,,1.2662887866537187,0.13133279525906202,0.17882061292,3.768128284416903,-0.05096541441250929,-0.9167777799904515,-0.41375051951812925,,-0.869656948966422,-0.20248233322929243,0.20256605314,-4.537690377005107,-0.22968595610570539,1.3963022076742866,0.8526560252209378,,-0.039682242205656075,-0.08834420341282298,0.07698115776,-0.046119083333121515,,3.2024458e-05,3.7550926e-06,-6.914139e-06,0.99999994,-1.4722347e-05,-1.2293458e-05,1.4722347e-05,1.0,-1.0728836e-06,1.2304634e-05,1.1026859e-06,1.0,296,0.918,1,1,0.879,False,-0.2622015666459845,1.0272095345986172
0.9041888659994584,15:53:49.168201,15:53:33.394991,0,,0.10749933,-0.004045859,0.023834333,0.87535423,0.17327052,-0.451367,0.476231,-0.14792678,0.866788,0.08341955,-0.9737016,-0.21200517,,0.05131059,-0.011699513,0.011887908,-0.95522326,-0.2946265,0.027262658,-0.020812318,0.15881494,0.987089,-0.29515237,0.9423232,-0.15783575,,0.10785241,1.3465623,0.44454128,0.99665046,-0.008034768,-0.08138338,-0.058239616,-0.76835746,-0.63736564,-0.05741044,0.6399705,-0.7662518,,-0.07174744,0.26052746,-0.08912668,-0.8759939,-0.12227722,0.46656504,0.3829643,-0.7643879,0.51869977,0.2932115,0.6330556,0.71642697,,0.00720116,0.44172207,-0.31028384,0.9814484,0.1821895,-0.059716213,-0.106922016,0.7786423,0.61829114,0.15914372,-0.60043585,0.7836773,,1.2689222385638292,0.12948706210212235,0.17764098902000003,3.742755801255275,-0.0844413568550422,-0.9144740880678404,-0.4153839601794722,,-0.8698500172882776,-0.20248233322929243,0.20243253527000002,-4.537690377005107,-0.22968595610570539,1.3964655651545677,0.8529827133532063,,-0.039682242205656075,-0.08834420341282298,0.07698115776,-0.046119083333121515,,3.2024458e-05,3.7550926e-06,-6.914139e-06,0.99999994,-1.4722347e-05,-1.2293458e-05,1.4722347e-05,1.0,-1.0728836e-06,1.2304634e-05,1.1026859e-06,1.0,304,0.944,1,1,0.905,False,-0.26041423509035333,1.0287062208227804
0.9698313780099852,15:53:49.196073,15:53:33.394991,0,,0.10752352,-0.004181564,0.024349406,0.8709419,0.19129592,-0.45262122,0.48072156,-0.14083886,0.86548895,0.10181782,-0.97137535,-0.21462256,,0.051299296,-0.011695862,0.011956215,-0.95518637,-0.29473406,0.027391147,-0.020789832,0.1591075,0.98704225,-0.29527318,0.9422402,-0.15810496,,0.10785241,1.3465623,0.44454128,0.99665046,-0.008034768,-0.08138338,-0.058239616,-0.76835746,-0.63736564,-0.05741044,0.6399705,-0.7662518,,-0.07179958,0.26076877,-0.08959929,-0.8725377,-0.14036247,0.46794912,0.39870644,-0.758122,0.5160273,0.28233168,0.6368276,0.7174535,,0.0072047864,0.44177157,-0.31033218,0.9814238,0.18229052,-0.0598122,-0.1069902,0.77881414,0.61806285,0.15924959,-0.60018224,0.78385,,1.2699725302347238,0.1289078571365555,0.17713154705,3.729125954928781,-0.09960800832900608,-0.9101928960314531,-0.41424055171653207,,-0.8699813037471394,-0.20248233322929243,0.20236772077,-4.537690377005107,-0.22968595610570539,1.3961388501940055,0.8542894658822803,,-0.039682242205656075,-0.08834420341282298,0.07698115776,-0.046119083333121515,,3.2024458e-05,3.7550926e-06,-6.914139e-06,0.99999994,-1.4722347e-05,-1.2293458e-05,1.4722347e-05,1.0,-1.0728836e-06,1.2304634e-05,1.1026859e-06,1.0,317,0.984,1,1,0.945,False,-0.26017592421626956,1.0280785782126476
0.9976928780088201,15:53:49.235580,15:53:33.394991,0,,0.107523695,-0.004334688,0.024833098,0.86711967,0.20544554,-0.45375705,0.48403257,-0.1325798,0.8649479,0.11754066,-0.9696466,-0.21440494,,0.051284634,-0.011694849,0.012016892,-0.95519817,-0.29470956,0.027243957,-0.020772912,0.15858153,0.9871272,-0.29523632,0.94233644,-0.15759897,,0.10785241,1.3465623,0.44454128,0.99665046,-0.008034768,-0.08138338,-0.058239616,-0.76835746,-0.63736564,-0.05741044,0.6399705,-0.7662518,,-0.07182617,0.26097694,-0.09006118,-0.86953545,-0.15453957,0.4690689,0.41176867,-0.7512602,0.5158048,0.27268058,0.6416585,0.71688193,,0.007212702,0.44181445,-0.31037682,0.9814306,0.18228228,-0.05972529,-0.106951825,0.7784885,0.6184795,0.1592333,-0.600607,0.7835279,,1.2709919309741213,0.1282050884450011,0.17664932717,3.7178026979806167,-0.11299838530601926,-0.9089120328057902,-0.4129337991874582,,-0.8700816992745044,-0.20249005596216665,0.20230809143000003,-4.537690377005107,-0.22982259260547083,1.3966586617984047,0.8534727455516089,,-0.039682242205656075,-0.08834420341282298,0.07698115776,-0.046119083333121515,,3.2024458e-05,3.7550926e-06,-6.914139e-06,0.99999994,-1.4722347e-05,-1.2293458e-05,1.4722347e-05,1.0,-1.0728836e-06,1.2304634e-05,1.1026859e-06,1.0,330,1.025,1,1,0.986,False,-0.26041423509035333,1.0278854574095297
1.0372030980070122,15:53:49.274259,15:53:33.394991,0,,0.10748438,-0.004438281,0.025476292,0.86265194,0.22312334,-0.4539246,0.48652354,-0.12065771,0.8652956,0.13829814,-0.96729386,-0.21264035,,0.051268004,-0.011694774,0.012056291,-0.9551513,-0.29485115,0.027353264,-0.020766906,0.15884468,0.9870851,-0.29538816,0.94224787,-0.15784413,,0.10785241,1.3465623,0.44454128,0.99665046,-0.008034768,-0.08138338,-0.058239616,-0.76835746,-0.63736564,-0.05741044,0.6399705,-0.7662518,,-0.071821496,0.26132953,-0.090610385,-0.8661594,-0.17225339,0.46914467,0.42759463,-0.74136406,0.51724476,0.25870985,0.6486201,0.715794,,0.0072249277,0.44184268,-0.3104066,0.9814003,0.1824192,-0.059805073,-0.10705398,0.7786387,0.6182727,0.15935136,-0.60037065,0.783685,,1.2727758822680673,0.12763360621230846,0.17605692264000003,3.7043825415976075,-0.13144431277435373,-0.9079193591109501,-0.41685405677468046,,-0.8701048674731271,-0.20249005596216665,0.20226531386000002,-4.537690377005107,-0.22968595610570539,1.3963838864144271,0.853472745551609,,-0.039682242205656075,-0.08834420341282298,0.07698115776,-0.046119083333121515,,3.2024458e-05,3.7550926e-06,-6.914139e-06,0.99999994,-1.4722347e-05,-1.2293458e-05,1.4722347e-05,1.0,-1.0728836e-06,1.2304634e-05,1.1026859e-06,1.0,339,1.053,1,1,1.014,False,-0.26095043455704303,1.02875450102356
1.0758359739993466,15:53:49.303074,15:53:33.394991,0,,0.10740106,-0.004543096,0.026059434,0.85818,0.2397183,-0.4539406,0.48919708,-0.11385,0.8647105,0.15560578,-0.9641437,-0.2149733,,0.051257588,-0.011695415,0.012071252,-0.95515347,-0.29482862,0.027519945,-0.020768233,0.1594108,0.9869938,-0.29538107,0.94215935,-0.1583851,,0.10785241,1.3465623,0.44454128,0.99665046,-0.008034768,-0.08138338,-0.058239616,-0.76835746,-0.63736564,-0.05741044,0.6399705,-0.7662518,,-0.07176972,0.26164258,-0.09111766,-0.8625956,-0.18895532,0.46928105,0.4412582,-0.7347132,0.515255,0.24742682,0.6515308,0.71713847,,0.007233683,0.4418533,-0.31041852,0.98140174,0.18237789,-0.059907213,-0.107049964,0.7789939,0.61782587,0.15934514,-0.59992236,0.78402954,,1.274621615425007,0.12696945118512518,0.17551507342000003,3.6922205248755047,-0.1470208737476139,-0.9028138409226303,-0.4142405517165323,,-0.8700971447402528,-0.20249005596216665,0.20224716580000002,-4.537690377005107,-0.22968595610570539,1.3958121352334434,0.8546161540145489,,-0.039682242205656075,-0.08834420341282298,0.07698115776,-0.046119083333121515,,3.2024458e-05,3.7550926e-06,-6.914139e-06,0.99999994,-1.4722347e-05,-1.2293458e-05,1.4722347e-05,1.0,-1.0728836e-06,1.2304634e-05,1.1026859e-06,1.0,362,1.127,1,1,1.085,False,-0.26160578946077395,1.0288993416258982
1.1046913760073949,15:53:49.377495,15:53:33.587644,0,,0.107159436,-0.004788518,0.027439982,0.84714353,0.28216934,-0.4502535,0.48821878,-0.07886529,0.86915046,0.20973824,-0.9561174,-0.20457062,,0.051248737,-0.011694506,0.012085319,-0.95511574,-0.29495093,0.027521417,-0.020769283,0.1593512,0.9870033,-0.29550323,0.9421311,-0.15832499,,0.10785241,1.3465623,0.44454128,0.99665046,-0.008034768,-0.08138338,-0.058239616,-0.76835746,-0.63736564,-0.05741044,0.6399705,-0.7662518,,-0.071602814,0.2623871,-0.09231864,-0.85444504,-0.23158474,0.4650722,0.4769418,-0.70463043,0.5253784,0.20603439,0.6707194,0.7125204,,0.0072408887,0.44186437,-0.31042868,0.98137754,0.1825054,-0.05991568,-0.10713647,0.7789447,0.6178729,0.15943614,-0.59994745,0.7839918,,1.2794328780056488,0.12455995852836711,0.17431730146000002,3.6624445529007024,-0.19880610715871586,-0.9043662601370279,-0.42289778722164895,,-0.8700894220073786,-0.20248233322929243,0.20223031403000002,-4.537690377005107,-0.22954931960593997,1.395864074810028,0.8542894658822805,,-0.039682242205656075,-0.08834420341282298,0.07698115776,-0.046119083333121515,,3.2024458e-05,3.7550926e-06,-6.914139e-06,0.99999994,-1.4722347e-05,-1.2293458e-05,1.4722347e-05,1.0,-1.0728836e-06,1.2304634e-05,1.1026859e-06,1.0,371,1.156,0,1,1.085,False,-0.26053339052739544,1.0291890228305751
1.1791049070016015,15:53:49.403151,15:53:33.587644,0,,0.10690096,-0.0050910115,0.027594835,0.8427209,0.28140444,-0.45894763,0.4956442,-0.07279378,0.8654697,0.21013844,-0.95682406,-0.20082125,,0.05124809,-0.0116945505,0.012086391,-0.95511574,-0.29495093,0.027521417,-0.020769283,0.1593512,0.9870033,-0.29550323,0.9421311,-0.15832499,,0.10785241,1.3465623,0.44454128,0.99665046,-0.008034768,-0.08138338,-0.058239616,-0.76835746,-0.63736564,-0.05741044,0.6399705,-0.7662518,,-0.071354516,0.262273,-0.09264668,-0.85001034,-0.23075117,0.47353598,0.4828794,-0.7005537,0.52540654,0.21049921,0.67526174,0.70690286,,0.007241418,0.44186515,-0.31042954,0.98137754,0.1825054,-0.05991568,-0.10713647,0.7789447,0.6178729,0.15943614,-0.59994745,0.7839918,,1.2803673286834298,0.12255204798106874,0.1741176728,3.654266645104806,-0.19757637866082686,-0.9087178496160587,-0.43318846338810857,,-0.8700971447402528,-0.20248233322929243,0.20222901774000002,-4.537690377005107,-0.22954931960593997,1.395864074810028,0.8542894658822805,,-0.039682242205656075,-0.08834420341282298,0.07698115776,-0.046119083333121515,,3.2024458e-05,3.7550926e-06,-6.914139e-06,0.99999994,-1.4722347e-05,-1.2293458e-05,1.4722347e-05,1.0,-1.0728836e-06,1.2304634e-05,1.1026859e-06,1.0,385,1.201,0,1,1.085,False,-0.2608908568385213,1.0293338634329134
1.2047806220070925,15:53:49.452616,15:53:33.587644,0,,0.106475264,-0.0056749433,0.028078064,0.83774275,0.29576963,-0.4590286,0.49943706,-0.075119555,0.8630872,0.22079296,-0.9523009,-0.21064916,,0.051252417,-0.011693209,0.012093425,-0.9551049,-0.29498744,0.02750681,-0.02076266,0.15926176,0.9870179,-0.29553878,0.94213486,-0.15823662,,0.10785241,1.3465623,0.44454128,0.99665046,-0.008034768,-0.08138338,-0.058239616,-0.76835746,-0.63736564,-0.05741044,0.6399705,-0.7662518,,-0.07095811,0.26217327,-0.0934139,-0.84558296,-0.24534783,0.4741243,0.49296004,-0.6997231,0.517086,0.20488982,0.67096347,0.7126206,,0.0072362963,0.44187033,-0.31043357,0.9813703,0.18254574,-0.059911504,-0.10715653,0.77888536,0.61794424,0.15946728,-0.60001224,0.7839359,,1.2826146439498292,0.11848216775635242,0.17357711987000002,3.643782147930579,-0.2094637541404202,-0.8971458809712372,-0.43008492613155713,,-0.8701280356717497,-0.20248233322929243,0.20222512887000002,-4.537690377005107,-0.22954931960593997,1.3959457535501685,0.8541261218161461,,-0.039682242205656075,-0.08834420341282298,0.07698115776,-0.046119083333121515,,3.2024458e-05,3.7550926e-06,-6.914139e-06,0.99999994,-1.4722347e-05,-1.2293458e-05,1.4722347e-05,1.0,-1.0728836e-06,1.2304634e-05,1.1026859e-06,1.0,394,1.229,0,1,1.085,False,-0.26106958999408425,1.0292373030313546
1.2542168509971816,15:53:49.479037,15:53:33.719425,0,,0.10642029,-0.00581944,0.028318837,0.8344978,0.3072893,-0.4573692,0.49966693,-0.07213324,0.86320895,0.23226333,-0.94887817,-0.21373737,,0.051249743,-0.01169306,0.012100816,-0.9551027,-0.29499656,0.027484607,-0.020761333,0.15917942,0.98703134,-0.29554588,0.9421458,-0.15815741,,0.10785241,1.3465623,0.44454128,0.99665046,-0.008034768,-0.08138338,-0.058239616,-0.76835746,-0.63736564,-0.05741044,0.6399705,-0.7662518,,-0.07091672,0.26222774,-0.09369173,-0.8429485,-0.25701645,0.47263137,0.5008753,-0.69557875,0.51506716,0.19637161,0.67090446,0.71507025,,0.0072381315,0.4418757,-0.31043908,0.98136884,0.18255772,-0.059898738,-0.10716054,0.7788331,0.6180094,0.15947351,-0.6000764,0.78388554,,1.2834564218331197,0.11700712577737554,0.17322712157,3.634765480360745,-0.2266799531108657,-0.8911117416392633,-0.42943154986702026,,-0.870135758404624,-0.20248233322929243,0.20221735113000003,-4.537690377005107,-0.22954931960593997,1.396027432290309,0.8539627777500118,,-0.039682242205656075,-0.08834420341282298,0.07698115776,-0.046119083333121515,,3.2024458e-05,3.7550926e-06,-6.914139e-06,0.99999994,-1.4722347e-05,-1.2293458e-05,1.4722347e-05,1.0,-1.0728836e-06,1.2304634e-05,1.1026859e-06,1.0,403,1.258,0,1,1.085,False,-0.260652545964438,1.0285613802204423
1.2806405020091916,15:53:49.510077,15:53:33.719425,0,,0.10649223,-0.0059547722,0.028750822,0.8310975,0.32536885,-0.4510121,0.49355665,-0.057810903,0.8677901,0.25627846,-0.9438182,-0.20863459,,0.05124838,-0.011695862,0.012104809,-0.9551402,-0.29487947,0.027439024,-0.020758547,0.15908507,0.9870465,-0.295425,0.94219846,-0.15807003,,0.10785241,1.3465623,0.44454128,0.99665046,-0.008034768,-0.08138338,-0.058239616,-0.76835746,-0.63736564,-0.05741044,0.6399705,-0.7662518,,-0.07101214,0.26241246,-0.09410023,-0.8408566,-0.27526197,0.46603757,0.51242983,-0.6821031,0.52168095,0.17428675,0.67747045,0.71460336,,0.0072391983,0.44187644,-0.31044394,0.9813928,0.18244055,-0.059863746,-0.10707363,0.7787858,0.618084,0.15938464,-0.60017335,0.78382933,,1.284159190524674,0.11624257522282733,0.17293286374000003,3.6284747820562093,-0.24567242657826194,-0.8931855821556816,-0.4282881414040802,,-0.8701434811374982,-0.20249777869504088,0.20221346226000003,-4.537690377005107,-0.22968595610570539,1.3961388501940055,0.8539627777500118,,-0.039682242205656075,-0.08834420341282298,0.07698115776,-0.046119083333121515,,3.2024458e-05,3.7550926e-06,-6.914139e-06,0.99999994,-1.4722347e-05,-1.2293458e-05,1.4722347e-05,1.0,-1.0728836e-06,1.2304634e-05,1.1026859e-06,1.0,417,1.303,0,1,1.085,False,-0.26101001227556386,1.02875450102356
1.3116556930035586,15:53:49.549825,15:53:33.719425,0,,0.10651732,-0.0060173273,0.02906771,0.8281501,0.3341505,-0.450012,0.49283484,-0.051673055,0.86858714,0.2669853,-0.941102,-0.20747408,,0.051244237,-0.011694729,0.012108445,-0.9551427,-0.2948696,0.027457181,-0.020761639,0.15916014,0.9870344,-0.29541662,0.94218886,-0.15814278,,0.10785241,1.3465623,0.44454128,0.99665046,-0.008034768,-0.08138338,-0.058239616,-0.76835746,-0.63736564,-0.05741044,0.6399705,-0.7662518,,-0.0710543,0.2625762,-0.09437659,-0.83848387,-0.28414223,0.46498173,0.519118,-0.6759956,0.52301663,0.1657145,0.6799214,0.71431476,,0.0072428584,0.44188014,-0.31044605,0.9813945,0.18242802,-0.05987325,-0.10707002,0.7788336,0.61802447,0.15937626,-0.6001152,0.7838756,,1.284769286421738,0.11591822044210989,0.17263990220000003,3.6223937736951584,-0.25578352756090456,-0.8921283864145158,-0.4289415176686172,,-0.870135758404624,-0.20249005596216665,0.20220827710000003,-4.537690377005107,-0.22968595610570539,1.3960571714538648,0.8541261218161461,,-0.039682242205656075,-0.08834420341282298,0.07698115776,-0.046119083333121515,,3.2024458e-05,3.7550926e-06,-6.914139e-06,0.99999994,-1.4722347e-05,-1.2293458e-05,1.4722347e-05,1.0,-1.0728836e-06,1.2304634e-05,1.1026859e-06,1.0,426,1.332,0,1,1.085,False,-0.26041423509035333,1.0285613802204423
1.3514535980066285,15:53:49.587561,15:53:33.719425,0,,0.10649945,-0.006091699,0.029568061,0.8257957,0.33863288,-0.4509869,0.4944845,-0.050220996,0.8677343,0.2711943,-0.9395772,-0.20892102,,0.05124139,-0.011697337,0.012120187,-0.9551376,-0.29488933,0.027420875,-0.02075547,0.15900993,0.98705876,-0.29543337,0.94220805,-0.15799719,,0.10785241,1.3465623,0.44454128,0.99665046,-0.008034768,-0.08138338,-0.058239616,-0.76835746,-0.63736564,-0.05741044,0.6399705,-0.7662518,,-0.07106334,0.26285473,-0.09479913,-0.8363468,-0.28869125,0.46602726,0.52322525,-0.6740383,0.5214477,0.16358282,0.67994833,0.71478033,,0.0072445404,0.44188637,-0.3104566,0.981391,0.1824531,-0.059854243,-0.10707724,0.778738,0.6181436,0.159393,-0.6002316,0.7837831,,1.2858273008255066,0.11601089323660059,0.17217194151,3.617570904995014,-0.2589261670555097,-0.8889123447083737,-0.429268205800886,,-0.8701512038703724,-0.2025055014279151,0.20219661049,-4.537690377005107,-0.22968595610570539,1.396220528934146,0.8537994336838777,,-0.039682242205656075,-0.08834420341282298,0.07698115776,-0.046119083333121515,,3.2024458e-05,3.7550926e-06,-6.914139e-06,0.99999994,-1.4722347e-05,-1.2293458e-05,1.4722347e-05,1.0,-1.0728836e-06,1.2304634e-05,1.1026859e-06,1.0,449,1.406,0,1,1.085,False,-0.2596993024681016,1.028416539618104
1.3891847339982633,15:53:49.647384,15:53:33.859204,0,,0.106303826,-0.0062946677,0.030364916,0.8238725,0.34420955,-0.4502819,0.49261847,-0.041996688,0.86923146,0.28028736,-0.937953,-0.20416391,,0.051243424,-0.011698246,0.01212883,-0.9551236,-0.29495007,0.02725451,-0.020952545,0.15905654,0.987047,-0.2954647,0.94218117,-0.15809888,,0.10785241,1.3465623,0.44454128,0.99665046,-0.008034768,-0.08138338,-0.058239616,-0.76835746,-0.63736564,-0.05741044,0.6399705,-0.7662518,,-0.070911236,0.26324055,-0.09553564,-0.83491755,-0.29430217,0.4650795,0.52795357,-0.66700333,0.5257106,0.1554918,0.68446535,0.7122707,,0.007241633,0.44189122,-0.31046346,0.9813905,0.18251397,-0.059677448,-0.10724479,0.7787611,0.6180855,0.15928371,-0.6001831,0.7838424,,1.2884066936054976,0.1150069379629514,0.17144601911000001,3.612957726238355,-0.26972045053697946,-0.8903201728339266,-0.4291048617347516,,-0.8701820948018693,-0.20251322416078932,0.20219012904000003,-4.537900066948591,-0.22968595610570539,1.396220528934146,0.8537994336838777,,-0.039682242205656075,-0.08834420341282298,0.07698115776,-0.046119083333121515,,3.2024458e-05,3.7550926e-06,-6.914139e-06,0.99999994,-1.4722347e-05,-1.2293458e-05,1.4722347e-05,1.0,-1.0728836e-06,1.2304634e-05,1.1026859e-06,1.0,458,1.434,0,1,1.085,False,-0.26106958999408425,1.0288027812243394
1.4490063359990017,15:53:49.681053,15:53:33.859204,0,,0.10613926,-0.006367326,0.030675188,0.8233893,0.34575775,-0.44997954,0.49106428,-0.036724865,0.8703488,0.2844044,-0.9376047,-0.20002818,,0.05124212,-0.011698276,0.012131035,-0.9551236,-0.29495007,0.02725451,-0.020952545,0.15905654,0.987047,-0.2954647,0.94218117,-0.15809888,,0.10785241,1.3465623,0.44454128,0.99665046,-0.008034768,-0.08138338,-0.058239616,-0.76835746,-0.63736564,-0.05741044,0.6399705,-0.7662518,,-0.07076372,0.2633983,-0.095821954,-0.8346612,-0.29583853,0.4645646,0.5295538,-0.662892,0.5292891,0.15137203,0.687789,0.70995265,,0.007242692,0.44189283,-0.3104652,0.9813905,0.18251397,-0.059677448,-0.10724479,0.7787611,0.6180855,0.15928371,-0.6001831,0.7838424,,1.2899357947145942,0.11434278293576809,0.17118935369000002,3.611489896633963,-0.27532254702736253,-0.8927764104344618,-0.42943154986702015,,-0.8701820948018693,-0.20251322416078932,0.20218753646,-4.537900066948591,-0.22968595610570539,1.396220528934146,0.8537994336838777,,-0.039682242205656075,-0.08834420341282298,0.07698115776,-0.046119083333121515,,3.2024458e-05,3.7550926e-06,-6.914139e-06,0.99999994,-1.4722347e-05,-1.2293458e-05,1.4722347e-05,1.0,-1.0728836e-06,1.2304634e-05,1.1026859e-06,1.0,481,1.508,0,1,1.085,False,-0.26160578946077395,1.0283682594173245
1.482641415001126,15:53:49.756084,15:53:33.859204,0,,0.105609655,-0.006527737,0.030889139,0.8218914,0.34729245,-0.45153362,0.49264428,-0.0353781,0.86951125,0.2860003,-0.9370892,-0.20016858,,0.05137573,-0.011667505,0.012144387,-0.9551032,-0.29504743,0.026919853,-0.021290936,0.15897897,0.9870523,-0.295507,0.9421638,-0.15812322,,0.10787478,1.3465582,0.4445348,0.9966489,-0.008055747,-0.08140078,-0.058266826,-0.7683573,-0.63736343,-0.05741044,0.6399705,-0.7662518,,-0.0702661,0.26344043,-0.09611576,-0.83322763,-0.29739296,0.46614283,0.53185886,-0.66158587,0.5286116,0.15118814,0.688376,0.7094227,,0.00708796,0.4419102,-0.31045464,0.98139226,0.18262221,-0.05931618,-0.107544705,0.7786983,0.6181125,0.15907048,-0.60023165,0.7838485,,1.2929322150697933,0.1121109131351172,0.17105324324,3.607925167594726,-0.2791483690207948,-0.8907185327527892,-0.42959489393315464,,-0.8701743720689951,-0.20252094689366354,0.20218105501000003,-4.538109756892076,-0.22968595610570539,1.3963022076742866,0.8536360896177434,,-0.039682242205656075,-0.08834420341282298,0.07698115776,-0.046119083333121515,,5.492568e-05,2.5629997e-06,-1.1920929e-06,1.0,-3.5639852e-05,-2.976507e-05,3.5643578e-05,1.0,-2.6524067e-06,2.977252e-05,2.682209e-06,1.0,490,1.537,0,1,1.085,False,-0.26148663402373185,1.02875450102356
1.557714800001122,15:53:49.797378,15:53:34.025245,0,,0.10544877,-0.0065775514,0.03089492,0.82211286,0.3472023,-0.45119977,0.4923331,-0.035582453,0.8696792,0.28589982,-0.9371149,-0.20019194,,0.051341362,-0.011671439,0.012176275,-0.95504636,-0.29521868,0.027058326,-0.021301463,0.15937385,0.98698837,-0.29568988,0.9420434,-0.15849808,,0.10787478,1.3465582,0.4445348,0.9966489,-0.008055747,-0.08140078,-0.058266826,-0.7683573,-0.63736343,-0.05741044,0.6399705,-0.7662518,,-0.07010602,0.2634122,-0.09616021,-0.8334451,-0.2973027,0.4658116,0.53155315,-0.6617524,0.5287107,0.15106484,0.68825495,0.7095664,,0.0071188128,0.4419324,-0.3104824,0.9813562,0.18278539,-0.05940974,-0.10768083,0.77892756,0.6177999,0.15920068,-0.59988445,0.78408784,,1.2937199338229641,0.11136953077919165,0.17106879872000003,3.6081348575382104,-0.2802414610189184,-0.8903172619640611,-0.42992158206542286,,-0.8700894220073786,-0.20252094689366354,0.20213568486000003,-4.538109756892076,-0.22941268310617452,1.3959160143866125,0.8539627777500118,,-0.039682242205656075,-0.08834420341282298,0.07698115776,-0.046119083333121515,,5.492568e-05,2.5629997e-06,-1.1920929e-06,1.0,-3.5639852e-05,-2.976507e-05,3.5643578e-05,1.0,-2.6524067e-06,2.977252e-05,2.682209e-06,1.0,513,1.61,0,1,1.085,False,-0.2622611443645053,1.0283682594173245
1.5989821770053823,15:53:49.860288,15:53:34.025245,0,,0.105401464,-0.00656195,0.030719653,0.82358956,0.34677714,-0.44882733,0.48970848,-0.03551939,0.8711624,0.2861571,-0.9372747,-0.19907302,,0.051316477,-0.011678949,0.012176871,-0.9550782,-0.2951241,0.026965596,-0.02131781,0.15917295,0.9870205,-0.2955858,0.9421071,-0.15831414,,0.10787478,1.3465582,0.4445348,0.9966489,-0.008055747,-0.08140078,-0.058266826,-0.7683573,-0.63736343,-0.05741044,0.6399705,-0.7662518,,-0.07004942,0.26330853,-0.09602146,-0.8349474,-0.2968693,0.46339127,0.5297228,-0.6617986,0.53048694,0.1491864,0.6883976,0.70982546,,0.007143828,0.44193003,-0.31048903,0.98137736,0.18269472,-0.059339266,-0.10761986,0.7788117,0.6179566,0.15911151,-0.6000625,0.78396976,,1.2936890428914671,0.1110065623341031,0.17124768674000002,3.6108608268035094,-0.2821543720156345,-0.8915344884770904,-0.43073830239609434,,-0.8699735810142653,-0.20253639235941198,0.20212272196000003,-4.538109756892076,-0.22941268310617452,1.3961610506070343,0.853472745551609,,-0.039682242205656075,-0.08834420341282298,0.07698115776,-0.046119083333121515,,5.492568e-05,2.5629997e-06,-1.1920929e-06,1.0,-3.5639852e-05,-2.976507e-05,3.5643578e-05,1.0,-2.6524067e-06,2.977252e-05,2.682209e-06,1.0,522,1.639,0,1,1.085,False,-0.26136747858668974,1.0279337376103093
1.6619006510009058,15:53:49.889227,15:53:34.025245,0,,0.10544591,-0.006500393,0.030509904,0.8234082,0.3486264,-0.44772613,0.4882884,-0.033340275,0.87204516,0.28909063,-0.9366685,-0.19768283,,0.0513136,-0.011677593,0.012181222,-0.9550785,-0.29512334,0.026961561,-0.021319576,0.15916565,0.98702157,-0.29558453,0.9421085,-0.1583077,,0.10787478,1.3465582,0.4445348,0.9966489,-0.008055747,-0.08140078,-0.058266826,-0.7683573,-0.63736343,-0.05741044,0.6399705,-0.7662518,,-0.07008236,0.26321325,-0.09582248,-0.83492917,-0.2987364,0.46222275,0.530625,-0.6598291,0.5320364,0.14604937,0.68947965,0.70942754,,0.007146146,0.44193426,-0.31049144,0.98137766,0.18269415,-0.059336014,-0.10762026,0.7788072,0.6179621,0.15910938,-0.60006845,0.7839656,,1.2931793425217684,0.11101428506697733,0.17145638943000002,3.610651136860025,-0.28516037501047425,-0.892840516642235,-0.42894151766861743,,-0.8699735810142653,-0.20252866962653776,0.20211753680000002,-4.538109756892076,-0.22941268310617452,1.3961610506070343,0.853472745551609,,-0.039682242205656075,-0.08834420341282298,0.07698115776,-0.046119083333121515,,5.492568e-05,2.5629997e-06,-1.1920929e-06,1.0,-3.5639852e-05,-2.976507e-05,3.5643578e-05,1.0,-2.6524067e-06,2.977252e-05,2.682209e-06,1.0,545,1.713,0,1,1.085,False,-0.25737577144578117,1.028030298011868
1.6908150410017697,15:53:49.959824,15:53:34.169262,0,,0.1055031,-0.0066060424,0.030094162,0.8316282,0.3349371,-0.4429579,0.4807426,-0.03491491,0.87616634,0.2779948,-0.9415933,-0.19005477,,0.051311903,-0.011679113,0.0121846795,-0.9550782,-0.2951285,0.02691738,-0.02131781,0.15901166,0.9870465,-0.2955858,0.94213283,-0.15816021,,0.10787478,1.3465582,0.4445348,0.9966489,-0.008055747,-0.08140078,-0.058266826,-0.7683573,-0.63736343,-0.05741044,0.6399705,-0.7662518,,-0.07011803,0.26285577,-0.09558123,-0.8425907,-0.28481427,0.45707962,0.5173527,-0.6638547,0.5400399,0.14962341,0.69150394,0.70670724,,0.0071475343,0.44193563,-0.3104951,0.98137736,0.1827044,-0.05930942,-0.10761986,0.7787107,0.6180838,0.15911151,-0.6001905,0.7838717,,1.2917969733372823,0.11041191190278782,0.17176490645,3.626587572564848,-0.2795582785200912,-0.904351343605736,-0.4271447329411402,,-0.8699735810142653,-0.20253639235941198,0.20211364793000003,-4.538109756892076,-0.22941268310617452,1.3963244080873154,0.8534727455516089,,-0.039682242205656075,-0.08834420341282298,0.07698115776,-0.046119083333121515,,5.492568e-05,2.5629997e-06,-1.1920929e-06,1.0,-3.5639852e-05,-2.976507e-05,3.5643578e-05,1.0,-2.6524067e-06,2.977252e-05,2.682209e-06,1.0,554,1.741,0,1,1.085,False,-0.025141824650793065,1.0287062208227804
1.7614193870103918,15:53:49.998740,15:53:34.169262,0,,0.10546785,-0.006771922,0.029787287,0.8369886,0.3180605,-0.44529507,0.48226458,-0.044195563,0.87491,0.25859424,-0.9470396,-0.19038045,,0.05131091,-0.011677891,0.012185335,-0.95504034,-0.29523978,0.027039345,-0.021318868,0.15935516,0.98699105,-0.29570794,0.94203997,-0.15848485,,0.10787478,1.3465582,0.4445348,0.9966489,-0.008055747,-0.08140078,-0.058266826,-0.7683573,-0.63736343,-0.05741044,0.6399705,-0.7662518,,-0.07006749,0.2625288,-0.09546512,-0.8469085,-0.26772296,0.45942396,0.50539285,-0.6738695,0.53896004,0.1652998,0.68863946,0.7060111,,0.007148385,0.44193706,-0.31049484,0.9813531,0.18280765,-0.059392467,-0.107706375,0.77891386,0.61781275,0.15920252,-0.5998955,0.784079,,1.2906462861390227,0.10991765699883745,0.17194768334000002,3.6377011395695287,-0.2620688065501148,-0.9088930652021511,-0.41554730424560626,,-0.8699658582813911,-0.20252866962653776,0.20211235164000002,-4.538109756892076,-0.22927604660640907,1.3959679539631973,0.8539627777500118,,-0.039682242205656075,-0.08834420341282298,0.07698115776,-0.046119083333121515,,5.492568e-05,2.5629997e-06,-1.1920929e-06,1.0,-3.5639852e-05,-2.976507e-05,3.5643578e-05,1.0,-2.6524067e-06,2.977252e-05,2.682209e-06,1.0,577,1.815,0,1,1.085,False,0.6081097455092688,1.0289476218266778
1.8003637980000349,15:53:50.062875,15:53:34.169262,0,,0.105582125,-0.006892979,0.029300883,0.8377954,0.32057014,-0.44196585,0.48324734,-0.058637142,0.873518,0.2541082,-0.945408,-0.20404047,,0.05130796,-0.011679739,0.012188077,-0.9550421,-0.29523814,0.02699326,-0.02131845,0.15920296,0.9870156,-0.2957021,0.9420663,-0.15833971,,0.10787478,1.3465582,0.4445348,0.9966489,-0.008055747,-0.08140078,-0.058266826,-0.7683573,-0.63736343,-0.05741044,0.6399705,-0.7662518,,-0.07015651,0.26211095,-0.09517914,-0.8474715,-0.2703927,0.456815,0.5031109,-0.68362075,0.52871746,0.16932689,0.6779015,0.71538657,,0.0071511143,0.44193786,-0.31049824,0.98135424,0.18281083,-0.059363708,-0.107701965,0.77881914,0.61793286,0.15919842,-0.6000175,0.78398657,,1.2886152073931016,0.10915310644428922,0.17230545938000003,3.6402174188913428,-0.2574231655580898,-0.8974890282616848,-0.3436759151465235,,-0.8699581355485168,-0.20253639235941198,0.20210846277000002,-4.538109756892076,-0.22927604660640907,1.3961313114434784,0.8542894658822806,,-0.039682242205656075,-0.08834420341282298,0.07698115776,-0.046119083333121515,,5.492568e-05,2.5629997e-06,-1.1920929e-06,1.0,-3.5639852e-05,-2.976507e-05,3.5643578e-05,1.0,-2.6524067e-06,2.977252e-05,2.682209e-06,1.0,609,1.918,0,1,1.085,False,0.927327161344965,1.0293338634329134
1.8644951640017098,15:53:50.163533,15:53:34.327425,0,,0.105430424,-0.0067649186,0.027989164,0.838323,0.3151696,-0.44484025,0.48956978,-0.07620329,0.8686279,0.23986681,-0.9459709,-0.21818042,,0.05130387,-0.011678904,0.012188733,-0.9550469,-0.29522365,0.02698543,-0.021322839,0.15919921,0.98701614,-0.29568663,0.9420714,-0.15833777,,0.10787478,1.3465582,0.4445348,0.9966489,-0.008055747,-0.08140078,-0.058266826,-0.7683573,-0.63736343,-0.05741044,0.6399705,-0.7662518,,-0.06993491,0.26133716,-0.094124556,-0.8472107,-0.26506406,0.46040756,0.4983164,-0.6969145,0.51574314,0.18415973,0.6663717,0.72251916,,0.007155056,0.44193938,-0.31049833,0.98135746,0.18279609,-0.059356164,-0.10769434,0.7788182,0.61793536,0.15918383,-0.60002315,0.78398514,,1.2864065057910734,0.10837311042399254,0.17353693488000002,3.6429433881566418,-0.2415733315852987,-0.8875434578511123,-0.1238148021297838,,-0.8699426900827684,-0.20252866962653776,0.20210587019,-4.538109756892076,-0.22927604660640907,1.3961313114434784,0.8546161540145489,,-0.039682242205656075,-0.08834420341282298,0.07698115776,-0.046119083333121515,,5.492568e-05,2.5629997e-06,-1.1920929e-06,1.0,-3.5639852e-05,-2.976507e-05,3.5643578e-05,1.0,-2.6524067e-06,2.977252e-05,2.682209e-06,1.0,618,1.946,0,1,1.085,False,1.0403460933793651,1.0299132258422672
1.9651465930073755,15:53:50.201056,15:53:34.327425,0,,0.10534694,-0.006674826,0.027307808,0.8393116,0.31104094,-0.44588074,0.49115068,-0.08219531,0.86718786,0.23308165,-0.9468354,-0.22175533,,0.051302224,-0.011680663,0.012189269,-0.9550487,-0.29521757,0.026987568,-0.021322414,0.15920824,0.98701465,-0.2956808,0.9420718,-0.15834644,,0.10787478,1.3465582,0.4445348,0.9966489,-0.008055747,-0.08140078,-0.058266826,-0.7683573,-0.63736343,-0.05741044,0.6399705,-0.7662518,,-0.069815,0.26095295,-0.09356123,-0.84783036,-0.26092756,0.46162805,0.49494258,-0.7018255,0.512321,0.19030367,0.66284066,0.7241731,,0.0071567264,0.4419386,-0.3105,0.9813586,0.18278955,-0.05935727,-0.10768993,0.77882445,0.61792827,0.15917973,-0.600017,0.7839907,,1.2853948277845502,0.10802558744465245,0.17419026504000001,3.6456693574219403,-0.23474150659702667,-0.8860083026437044,-0.02482829805241038,,-0.8699349673498942,-0.20253639235941198,0.20210457390000003,-4.538109756892076,-0.22927604660640907,1.3961313114434784,0.8546161540145489,,-0.039682242205656075,-0.08834420341282298,0.07698115776,-0.046119083333121515,,5.492568e-05,2.5629997e-06,-1.1920929e-06,1.0,-3.5639852e-05,-2.976507e-05,3.5643578e-05,1.0,-2.6524067e-06,2.977252e-05,2.682209e-06,1.0,632,1.991,0,1,1.085,False,1.0431462461498535,1.0297201050391491
2.002681519006728,15:53:50.239887,15:53:34.327425,0,,0.10530682,-0.006532058,0.02615659,0.8419752,0.30319896,-0.44626015,0.4911694,-0.08853763,0.8665527,0.22322707,-0.9488052,-0.22346854,,0.051302172,-0.011680439,0.012192249,-0.95504653,-0.29522002,0.027037688,-0.021321088,0.15936768,0.9869889,-0.29568788,0.9420441,-0.15849808,,0.10787478,1.3465582,0.4445348,0.9966489,-0.008055747,-0.08140078,-0.058266826,-0.7683573,-0.63736343,-0.05741044,0.6399705,-0.7662518,,-0.069713235,0.26029357,-0.09261144,-0.84996855,-0.25302637,0.46209422,0.48830733,-0.7076177,0.5107182,0.19776088,0.6597384,0.7250075,,0.007156444,0.44194075,-0.31050202,0.98135716,0.18278694,-0.05938928,-0.10769394,0.77892363,0.61780256,0.15918596,-0.5998891,0.7840873,,1.2832401853126414,0.10756222347219897,0.17527396348000002,3.6521697456699607,-0.22558686111274218,-0.8879191478618065,0.11711769541827821,,-0.8699426900827684,-0.20253639235941198,0.20210198132,-4.538109756892076,-0.22927604660640907,1.3959679539631973,0.8549428421468176,,-0.039682242205656075,-0.08834420341282298,0.07698115776,-0.046119083333121515,,5.492568e-05,2.5629997e-06,-1.1920929e-06,1.0,-3.5639852e-05,-2.976507e-05,3.5643578e-05,1.0,-2.6524067e-06,2.977252e-05,2.682209e-06,1.0,641,2.02,0,1,1.085,False,1.044516533675837,1.0294304238344725
2.0415102730039507,15:53:50.272668,15:53:34.495723,0,,0.10530236,-0.0064069927,0.025014743,0.8458549,0.29263398,-0.44597647,0.4910302,-0.10056454,0.8653185,0.20837219,-0.95092165,-0.22875509,,0.051290043,-0.011682317,0.012195706,-0.9550595,-0.29518333,0.026978076,-0.021329038,0.15921706,0.9870131,-0.29564527,0.942081,-0.1583578,,0.10787478,1.3465582,0.4445348,0.9966489,-0.008055747,-0.08140078,-0.058266826,-0.7683573,-0.63736343,-0.05741044,0.6399705,-0.7662518,,-0.06964769,0.25962612,-0.091678865,-0.8530572,-0.24242872,0.46208414,0.47818482,-0.7176577,0.5062675,0.20888443,0.65283674,0.7281288,,0.007168197,0.44194305,-0.31050643,0.98136586,0.1827541,-0.059346538,-0.10766988,0.7788333,0.6179206,0.15914859,-0.6000163,0.78399754,,1.2808152471901348,0.10734598695172068,0.17632784725000003,3.6616057931267645,-0.21178657463643272,-0.8868388663739202,0.22966175698479652,,-0.8698886309526488,-0.20253639235941198,0.20209290729,-4.538109756892076,-0.22927604660640907,1.3961313114434786,0.8549428421468176,,-0.039682242205656075,-0.08834420341282298,0.07698115776,-0.046119083333121515,,5.492568e-05,2.5629997e-06,-1.1920929e-06,1.0,-3.5639852e-05,-2.976507e-05,3.5643578e-05,1.0,-2.6524067e-06,2.977252e-05,2.682209e-06,1.0,664,2.094,0,1,1.085,False,1.0443378005202737,1.0295269842360313
2.074287280003773,15:53:50.340961,15:53:34.495723,0,,0.10542607,-0.0060337484,0.021507755,0.8600192,0.2524981,-0.44340923,0.48624212,-0.14206323,0.8621987,0.15471141,-0.95711154,-0.24495223,,0.051235884,-0.011695221,0.012197077,-0.95509005,-0.29508436,0.026979055,-0.02136723,0.15939686,0.9869833,-0.29554376,0.9420817,-0.15854356,,0.10787478,1.3465582,0.4445348,0.9966489,-0.008055747,-0.08140078,-0.058266826,-0.7683573,-0.63736343,-0.05741044,0.6399705,-0.7662518,,-0.06958361,0.25756374,-0.08881597,-0.86438704,-0.20224419,0.4603611,0.4384215,-0.7514436,0.49307105,0.24621467,0.6280364,0.7382063,,0.007222478,0.44194043,-0.31051862,0.9813871,0.1826467,-0.059325848,-0.10762685,0.77895516,0.6177745,0.15904665,-0.5998908,0.78411424,,1.2726445958092054,0.10727648235585266,0.17953746129,3.697882153349587,-0.1631439807199359,-0.8837856589963322,0.4692875020037842,,-0.8696415035006736,-0.20255183782516045,0.20206438891000003,-4.538109756892076,-0.22913941010664365,1.396019893539782,0.8546161540145489,,-0.039682242205656075,-0.08834420341282298,0.07698115776,-0.046119083333121515,,5.492568e-05,2.5629997e-06,-1.1920929e-06,1.0,-3.5639852e-05,-2.976507e-05,3.5643578e-05,1.0,-2.6524067e-06,2.977252e-05,2.682209e-06,1.0,673,2.122,0,1,1.085,False,1.0444569559573162,1.031071950660974
2.1425758929981384,15:53:50.372039,15:53:34.495723,0,,0.10559225,-0.0057904273,0.019636706,0.8661908,0.23482691,-0.44110087,0.48163202,-0.1570136,0.8621933,0.13320738,-0.959272,-0.24910375,,0.051219814,-0.011700705,0.01220274,-0.9551068,-0.2950267,0.027020127,-0.02137433,0.15958676,0.9869524,-0.2954894,0.9420675,-0.15872845,,0.10787478,1.3465582,0.4445348,0.9966489,-0.008055747,-0.08140078,-0.058266826,-0.7683573,-0.63736343,-0.05741044,0.6399705,-0.7662518,,-0.06964922,0.2564932,-0.0872548,-0.8694364,-0.1845637,0.45827568,0.420466,-0.7634685,0.49022868,0.25940064,0.618912,0.74139005,,0.0072380966,0.44194192,-0.31052724,0.9813981,0.18258141,-0.059344992,-0.10759396,0.7790792,0.6176238,0.15900107,-0.5997496,0.7842315,,1.2681036288791614,0.10738460061609181,0.18126411957000002,3.7146573488283487,-0.14387823425300877,-0.8854468401133508,0.543445708028747,,-0.8695797216376798,-0.2025672832909089,0.20205142601,-4.538109756892076,-0.22913941010664365,1.395856536059501,0.8559229065436232,,-0.039682242205656075,-0.08834420341282298,0.07698115776,-0.046119083333121515,,5.492568e-05,2.5629997e-06,-1.1920929e-06,1.0,-3.5639852e-05,-2.976507e-05,3.5643578e-05,1.0,-2.6524067e-06,2.977252e-05,2.682209e-06,1.0,687,2.167,0,1,1.085,False,1.0448144222684426,1.0315064724679892
2.1736708079988603,15:53:50.413607,15:53:34.495723,0,,0.1058473,-0.005449593,0.016923115,0.875781,0.205788,-0.43664518,0.47248125,-0.1802324,0.86271524,0.098838866,-0.9618562,-0.2550751,,0.05121343,-0.0117016435,0.012205005,-0.95511323,-0.29500395,0.027038526,-0.021378316,0.15967265,0.9869384,-0.2954681,0.9420601,-0.15881225,,0.10787478,1.3465582,0.4445348,0.9966489,-0.008055747,-0.08140078,-0.058266826,-0.7683573,-0.63736343,-0.05741044,0.6399705,-0.7662518,,-0.06975847,0.25493118,-0.08499803,-0.87724304,-0.15555343,0.45414513,0.3904493,-0.7815801,0.4864996,0.27927414,0.60409904,0.74637145,,0.0072442354,0.44194347,-0.31052986,0.98140246,0.1825553,-0.059353456,-0.10758193,0.779135,0.6175555,0.15898238,-0.59968513,0.7842846,,1.261485246805951,0.10758539167082165,0.18376984814000002,3.742126731424822,-0.11381820430461188,-0.8875788041280495,0.6484759425530886,,-0.8695565534390571,-0.2025672832909089,0.20204624085000003,-4.538109756892076,-0.22913941010664365,1.3957748573193602,0.8564129387420261,,-0.039682242205656075,-0.08834420341282298,0.07698115776,-0.046119083333121515,,5.492568e-05,2.5629997e-06,-1.1920929e-06,1.0,-3.5639852e-05,-2.976507e-05,3.5643578e-05,1.0,-2.6524067e-06,2.977252e-05,2.682209e-06,1.0,696,2.196,0,1,1.085,False,1.0448144222684426,1.0314581922672097
2.2152336340077454,15:53:50.455902,15:53:34.669244,0,,0.106157795,-0.005140245,0.014239952,0.88472295,0.17475817,-0.43211675,0.46213514,-0.20794898,0.8620837,0.06079793,-0.9624015,-0.26473907,,0.051213764,-0.011699915,0.012206733,-0.95511144,-0.2950122,0.027012303,-0.021378726,0.15958303,0.9869529,-0.29547393,0.94207263,-0.15872663,,0.10787478,1.3465582,0.4445348,0.9966489,-0.008055747,-0.08140078,-0.058266826,-0.7683573,-0.63736343,-0.05741044,0.6399705,-0.7662518,,-0.06992486,0.25336424,-0.082782514,-0.88421434,-0.12468704,0.45013124,0.35711542,-0.801622,0.47944838,0.30105412,0.58468395,0.75333333,,0.0072436235,0.44194585,-0.31052995,0.98140126,0.18256667,-0.059337445,-0.10758634,0.7790783,0.61762625,0.1589865,-0.5997553,0.7842301,,1.2546042918150169,0.10790974645153907,0.18623668801,3.771273633569171,-0.08020562536231354,-0.8854199045064857,0.694375625136821,,-0.8695642761719313,-0.20255956055803467,0.20204494456000002,-4.538109756892076,-0.22913941010664365,1.3958565360595008,0.8565762828081602,,-0.039682242205656075,-0.08834420341282298,0.07698115776,-0.046119083333121515,,5.492568e-05,2.5629997e-06,-1.1920929e-06,1.0,-3.5639852e-05,-2.976507e-05,3.5643578e-05,1.0,-2.6524067e-06,2.977252e-05,2.682209e-06,1.0,719,2.27,0,1,1.085,False,1.0446356891128792,1.030347747649282
2.257527328998549,15:53:50.518622,15:53:34.669244,0,,0.1071208,-0.0045600384,0.009943292,0.90089446,0.12152511,-0.4166784,0.4340228,-0.24413285,0.86719275,0.0036608279,-0.962097,-0.2726825,,0.051214635,-0.0116981715,0.012209892,-0.9550693,-0.29515484,0.026945226,-0.021377146,0.15927792,0.98700225,-0.2956103,0.94207966,-0.15843117,,0.10787478,1.3465582,0.4445348,0.9966489,-0.008055747,-0.08140078,-0.058266826,-0.7683573,-0.63736343,-0.05741044,0.6399705,-0.7662518,,-0.07065597,0.25090364,-0.07915812,-0.8974893,-0.07173915,0.4351625,0.29759517,-0.8267109,0.47747898,0.32549968,0.55803454,0.7633134,,0.0072423206,0.4419492,-0.31053108,0.98137414,0.18272288,-0.05930542,-0.10768089,0.7788741,0.61786723,0.15908994,-0.5999729,0.78404266,,1.2419158417026661,0.10961647041674269,0.19015926155,3.8257930188751472,-0.03169966794558218,-0.8885445422160245,0.7567730584001159,,-0.8695719989048055,-0.20255183782516045,0.20204235198,-4.538109756892076,-0.22900277360687818,1.3961535118565074,0.8554328743452203,,-0.039682242205656075,-0.08834420341282298,0.07698115776,-0.046119083333121515,,5.492568e-05,2.5629997e-06,-1.1920929e-06,1.0,-3.5639852e-05,-2.976507e-05,3.5643578e-05,1.0,-2.6524067e-06,2.977252e-05,2.682209e-06,1.0,728,2.299,0,1,1.085,False,1.04409948964619,1.0302511872477231
2.320218273001956,15:53:50.549163,15:53:34.669244,0,,0.10772063,-0.004325375,0.008381993,0.9076803,0.09935865,-0.4077309,0.41923743,-0.2583994,0.8703273,-0.01888287,-0.96091485,-0.27619886,,0.051207297,-0.011700705,0.0122087,-0.9550848,-0.29508874,0.027117793,-0.02117788,0.15924782,0.98701143,-0.29557446,0.9421055,-0.15834466,,0.10787478,1.3465582,0.4445348,0.9966489,-0.008055747,-0.08140078,-0.058266826,-0.7683573,-0.63736343,-0.05741044,0.6399705,-0.7662518,,-0.071171075,0.25001946,-0.077814475,-0.90315145,-0.04974301,0.42643058,0.27134663,-0.83585846,0.47719136,0.3326987,0.5466866,0.7684044,,0.0072498717,0.4419473,-0.3105322,0.98137563,0.18265599,-0.0594866,-0.10750853,0.7788619,0.6179127,0.1591973,-0.60000914,0.7839931,,1.23620101937574,0.11093705773823508,0.19155536588000002,3.850326742262836,-0.012707194478185961,-0.8890027426439635,0.7747409056748864,,-0.8695333852404344,-0.20255956055803467,0.20203975940000002,-4.537900066948591,-0.22900277360687818,1.3961535118565074,0.8554328743452203,,-0.039682242205656075,-0.08834420341282298,0.07698115776,-0.046119083333121515,,5.492568e-05,2.5629997e-06,-1.1920929e-06,1.0,-3.5639852e-05,-2.976507e-05,3.5643578e-05,1.0,-2.6524067e-06,2.977252e-05,2.682209e-06,1.0,742,2.344,0,1,1.085,False,1.0429079352757693,1.0297683852399286
2.350771633005934,15:53:50.595138,15:53:34.799987,0,,0.10873367,-0.003968671,0.0064787418,0.9149355,0.07099961,-0.39730614,0.40066507,-0.27828458,0.87294054,-0.048585698,-0.9578709,-0.28305948,,0.05119171,-0.011704743,0.01220715,-0.9551112,-0.2949862,0.027304977,-0.020985223,0.15930706,0.98700595,-0.29550305,0.9421276,-0.15834644,,0.10787478,1.3465582,0.4445348,0.9966489,-0.008055747,-0.08140078,-0.058266826,-0.7683573,-0.63736343,-0.05741044,0.6399705,-0.7662518,,-0.07208003,0.24898542,-0.076117285,-0.9089238,-0.02169168,0.41639766,0.23749194,-0.84775776,0.47424084,0.34271726,0.5299399,0.7756988,,0.0072657145,0.44194505,-0.31053454,0.98138434,0.18254879,-0.059671972,-0.10731612,0.7789089,0.61788684,0.15927352,-0.5999807,0.78399944,,1.227976308864691,0.11360912331271676,0.19324054288000003,3.881151163955061,0.014346832475371248,-0.8865598655336864,0.7982624511982228,,-0.8694561579116922,-0.2025672832909089,0.20203327795,-4.537690377005107,-0.22900277360687818,1.3960718331163666,0.8555962184113547,,-0.039682242205656075,-0.08834420341282298,0.07698115776,-0.046119083333121515,,5.492568e-05,2.5629997e-06,-1.1920929e-06,1.0,-3.5639852e-05,-2.976507e-05,3.5643578e-05,1.0,-2.6524067e-06,2.977252e-05,2.682209e-06,1.0,751,2.372,0,1,1.085,False,1.0366522748310607,1.0294304238344725
2.396735565009294,15:53:50.619640,15:53:34.799987,0,,0.109660745,-0.0036858767,0.005279109,0.9190177,0.052425466,-0.390715,0.3883081,-0.29133683,0.8742652,-0.06799592,-0.9551828,-0.28810093,,0.05119159,-0.011704743,0.012209773,-0.95507085,-0.29511836,0.027288228,-0.020983204,0.15917236,0.98702776,-0.2956336,0.94210887,-0.1582135,,0.10787478,1.3465582,0.4445348,0.9966489,-0.008055747,-0.08140078,-0.058266826,-0.7683573,-0.63736343,-0.05741044,0.6399705,-0.7662518,,-0.07294079,0.24836782,-0.07499648,-0.912039,-0.0033559732,0.4100898,0.21522509,-0.85510975,0.47166243,0.3490889,0.51843613,0.78061575,,0.007265552,0.4419468,-0.31053647,0.98135835,0.18268882,-0.059670873,-0.10740625,0.77881193,0.6179935,0.15937288,-0.600064,0.78391546,,1.221512381448965,0.11625802068857577,0.19428016746000001,3.901281398529576,0.03361257894229835,-0.884137109643677,0.8128000730841738,,-0.8694561579116922,-0.2025672832909089,0.20203068537000002,-4.537690377005107,-0.22886613710711273,1.396205451433092,0.8544528099484147,,-0.039682242205656075,-0.08834420341282298,0.07698115776,-0.046119083333121515,,5.492568e-05,2.5629997e-06,-1.1920929e-06,1.0,-3.5639852e-05,-2.976507e-05,3.5643578e-05,1.0,-2.6524067e-06,2.977252e-05,2.682209e-06,1.0,774,2.446,0,1,1.085,False,1.035520298179161,1.0281751386142066
2.421263882002677,15:53:50.703198,15:53:34.799987,0,,0.11239676,-0.0027688742,0.0034054965,0.9297648,0.018563313,-0.3676861,0.35498592,-0.30992922,0.8820027,-0.09758367,-0.95057833,-0.29475084,,0.05116757,-0.011710867,0.01224637,-0.9550358,-0.29523674,0.027229626,-0.02097994,0.15890357,0.9870711,-0.2957466,0.9421172,-0.15795279,,0.10787478,1.3465582,0.4445348,0.9966489,-0.008055747,-0.08140078,-0.058266826,-0.7683573,-0.63736343,-0.05741044,0.6399705,-0.7662518,,-0.07556886,0.24771701,-0.07287356,-0.92138326,0.030115006,0.38748682,0.17034829,-0.8648337,0.47227553,0.3493342,0.5011544,0.79171324,,0.007285734,0.4419694,-0.31056866,0.98133576,0.182819,-0.059643183,-0.107483156,0.77863264,0.61820596,0.15945992,-0.600257,0.78375,,1.206306320419617,0.12544807280890294,0.19587460416000002,3.946574426322233,0.06490233738858421,-0.881390965501523,0.8390984677317925,,-0.8694329897130695,-0.20259045148953156,0.20198661151000002,-4.537690377005107,-0.2287295006073473,1.3965024272300983,0.8533094014854748,,-0.039682242205656075,-0.08834420341282298,0.07698115776,-0.046119083333121515,,5.492568e-05,2.5629997e-06,-1.1920929e-06,1.0,-3.5639852e-05,-2.976507e-05,3.5643578e-05,1.0,-2.6524067e-06,2.977252e-05,2.682209e-06,1.0,783,2.475,0,1,1.085,False,1.0359373422088085,1.028126858413427
2.5048283390060533,15:53:50.725049,15:53:34.799987,0,,0.11291844,-0.002527848,0.0032155663,0.9308764,0.01473585,-0.36503714,0.3512382,-0.31097472,0.8831344,-0.10050355,-0.9503039,-0.29465473,,0.051143758,-0.011721164,0.012284815,-0.95503813,-0.295221,0.027322374,-0.020972133,0.15919268,0.98702466,-0.29574,0.9420733,-0.15822658,,0.10787478,1.3465582,0.4445348,0.9966489,-0.008055747,-0.08140078,-0.058266826,-0.7683573,-0.63736343,-0.05741044,0.6399705,-0.7662518,,-0.07607845,0.24775371,-0.07254909,-0.9223588,0.033916928,0.38484263,0.1655758,-0.86530995,0.47309977,0.34905425,0.50008833,0.79251045,,0.0073057227,0.44199008,-0.31060502,0.9813369,0.18279357,-0.059703186,-0.10747275,0.77881444,0.6179787,0.15946023,-0.6000288,0.78392464,,1.203865936831362,0.12764905167805693,0.19605219589000003,3.9516069849658613,0.06941134188084375,-0.8815555704974607,0.8428553812528807,,-0.8694175442473211,-0.20263678788677691,0.20194124136000002,-4.537690377005107,-0.2287295006073473,1.3962573910096765,0.853472745551609,,-0.039682242205656075,-0.08834420341282298,0.07698115776,-0.046119083333121515,,5.492568e-05,2.5629997e-06,-1.1920929e-06,1.0,-3.5639852e-05,-2.976507e-05,3.5643578e-05,1.0,-2.6524067e-06,2.977252e-05,2.682209e-06,1.0,797,2.52,0,1,1.085,False,1.0344478992457824,1.028319979216545
2.5266484410094563,15:53:50.773709,15:53:34.993003,0,,0.11383562,-0.0019266605,0.003059283,0.93459564,-0.0023853537,-0.35570413,0.33689117,-0.31502688,0.88727796,-0.114172846,-0.9490797,-0.29361913,,0.05112613,-0.011733741,0.012321949,-0.9549949,-0.2953526,0.027410183,-0.020956196,0.1593582,0.9869983,-0.29588065,0.9420041,-0.15837574,,0.10787478,1.3465582,0.4445348,0.9966489,-0.008055747,-0.08140078,-0.058266826,-0.7683573,-0.63736343,-0.05741044,0.6399705,-0.7662518,,-0.07698285,0.24806878,-0.07199243,-0.9254261,0.0509274,0.37549022,0.14566259,-0.8669772,0.4765846,0.3498127,0.49573874,0.7949051,,0.007319824,0.44200754,-0.31064168,0.9813084,0.18292344,-0.059772845,-0.10755971,0.77890456,0.61785,0.15957658,-0.59987223,0.7840208,,1.1999736794627527,0.13269199624492553,0.19626997261,3.9711081497099223,0.0828017188578569,-0.881284537660453,0.8515126167579978,,-0.8694175442473211,-0.2026985697497707,0.20189976008000002,-4.537690377005107,-0.22859286410758187,1.3961459731059802,0.853472745551609,,-0.039682242205656075,-0.08834420341282298,0.07698115776,-0.046119083333121515,,5.492568e-05,2.5629997e-06,-1.1920929e-06,1.0,-3.5639852e-05,-2.976507e-05,3.5643578e-05,1.0,-2.6524067e-06,2.977252e-05,2.682209e-06,1.0,806,2.548,0,1,1.085,False,1.031469013319731,1.0287062208227804
2.575327220998588,15:53:50.801404,15:53:34.993003,0,,0.1142921,-0.0016037077,0.0031154305,0.93745816,-0.0150384605,-0.3477731,0.32551384,-0.31612545,0.8911259,-0.123341024,-0.94859815,-0.29145905,,0.051118173,-0.011741504,0.012340784,-0.95495266,-0.29548195,0.02748594,-0.02094549,0.15950182,0.9869754,-0.29601753,0.94193923,-0.15850577,,0.10787478,1.3465582,0.4445348,0.9966489,-0.008055747,-0.08140078,-0.058266826,-0.7683573,-0.63736343,-0.05741044,0.6399705,-0.7662518,,-0.07743993,0.24833252,-0.07179917,-0.92786026,0.06353123,0.3674767,0.13098772,-0.86707854,0.48064232,0.34916693,0.49410385,0.7962059,,0.007326065,0.44201532,-0.31066117,0.98128086,0.18305162,-0.059832785,-0.10764787,0.77898127,0.61773795,0.15968655,-0.59973353,0.7841045,,1.1982437872989264,0.13547990281252056,0.19626608374,3.985786445753839,0.09004345334542525,-0.8824523196282106,0.854126121816146,,-0.8694175442473211,-0.20273718341414182,0.20187901944000003,-4.537690377005107,-0.22845622760781642,1.396034555202284,0.853472745551609,,-0.039682242205656075,-0.08834420341282298,0.07698115776,-0.046119083333121515,,5.492568e-05,2.5629997e-06,-1.1920929e-06,1.0,-3.5639852e-05,-2.976507e-05,3.5643578e-05,1.0,-2.6524067e-06,2.977252e-05,2.682209e-06,1.0,820,2.593,0,1,1.085,False,1.0247963088453753,1.0282716990157654
2.6030036230076803,15:53:50.838191,15:53:34.993003,0,,0.11482775,-0.0012296736,0.0032276958,0.9397287,-0.021221621,-0.34126192,0.31750762,-0.31620833,0.8939805,-0.12688154,-0.94845235,-0.29041195,,0.051111512,-0.0117447525,0.012353361,-0.954952,-0.29548123,0.027518135,-0.02094201,0.15959698,0.98696005,-0.29602006,0.9419233,-0.1585955,,0.10787478,1.3465582,0.4445348,0.9966489,-0.008055747,-0.08140078,-0.058266826,-0.7683573,-0.63736343,-0.05741044,0.6399705,-0.7662518,,-0.07797876,0.24866922,-0.07161015,-0.9299831,0.06969747,0.3609346,0.12259262,-0.8668495,0.48326287,0.34655815,0.4936742,0.79761094,,0.007331482,0.44202206,-0.3106729,0.98128027,0.18304785,-0.059854236,-0.10764708,0.77904063,0.6176632,0.1596908,-0.59965754,0.78416175,,1.1964675587378548,0.13865394602382686,0.19621552843,3.9952224932106426,0.09359600233932672,-0.8824087504792575,0.8524926811548035,,-0.8694175442473211,-0.2027526288798903,0.20186476025000002,-4.537690377005107,-0.22845622760781642,1.3959528764621432,0.8536360896177434,,-0.039682242205656075,-0.08834420341282298,0.07698115776,-0.046119083333121515,,5.492568e-05,2.5629997e-06,-1.1920929e-06,1.0,-3.5639852e-05,-2.976507e-05,3.5643578e-05,1.0,-2.6524067e-06,2.977252e-05,2.682209e-06,1.0,829,2.622,0,1,1.085,False,1.0196726250525665,1.0288993416258982
2.6398193659988465,15:53:50.874386,15:53:34.993003,0,,0.11569384,-0.0007111579,0.0033822805,0.9408474,-0.023722626,-0.33799917,0.31376538,-0.3155389,0.8955369,-0.12789637,-0.94861597,-0.28943068,,0.051112413,-0.0117354095,0.012345195,-0.9549708,-0.29542446,0.027476419,-0.020954296,0.15953025,0.98697054,-0.29595867,0.94195235,-0.15853736,,0.107873954,1.3465593,0.44453457,0.99664843,-0.008061904,-0.081405886,-0.058274817,-0.76835716,-0.6373628,-0.05741044,0.6399705,-0.7662518,,-0.078847,0.24913283,-0.0713414,-0.931064,0.07220439,0.35763994,0.119099125,-0.8663817,0.4849723,0.34486982,0.49413487,0.7980574,,0.0073329937,0.4420241,-0.31066036,0.981293,0.18299343,-0.059811857,-0.107619025,0.7790033,0.6177151,0.15963145,-0.5997226,0.7841241,,1.193687374903134,0.1433957040086007,0.19615330651000001,3.999835671967302,0.09810500683158624,-0.8816748893336489,0.848735767633715,,-0.8694175442473211,-0.2027603516127645,0.20185957509000002,-4.537690377005107,-0.22845622760781642,1.396034555202284,0.853472745551609,,-0.039682242205656075,-0.08834420341282298,0.07698115776,-0.046119083333121515,,5.405955e-05,1.6093254e-06,-1.5497208e-06,1.0,-4.178658e-05,-3.489107e-05,4.1782856e-05,1.0,-3.0994415e-06,3.4902245e-05,3.1292439e-06,1.0,852,2.696,0,1,1.085,False,1.0177661380598932,1.0285131000196626
2.676017067002249,15:53:50.946970,15:53:35.137786,0,,0.117047906,0.00019085407,0.0035529882,0.9424967,-0.02471072,-0.3333006,0.30898774,-0.3156728,0.89714944,-0.12738313,-0.9485462,-0.2898853,,0.051103994,-0.011739939,0.012364149,-0.9549675,-0.29543367,0.027490407,-0.02094774,0.15955043,0.98696744,-0.29596958,0.9419461,-0.15855426,,0.107873954,1.3465593,0.44453457,0.99664843,-0.008061904,-0.081405886,-0.058274817,-0.76835716,-0.6373628,-0.05741044,0.6399705,-0.7662518,,-0.08020335,0.24987622,-0.070808545,-0.9327638,0.07318667,0.3529807,0.115829825,-0.866404,0.4857237,0.3413724,0.49395117,0.79967314,,0.007339514,0.4420344,-0.3106778,0.98129064,0.1830022,-0.05982375,-0.10762185,0.77901495,0.6177,0.15964405,-0.59970486,0.7841351,,1.1891309625073416,0.1509562594924665,0.19613256587000003,4.005287610497899,0.10411701282126563,-0.8786544393026569,0.8441621337819551,,-0.8694252669801953,-0.20278351981138718,0.20183883445000003,-4.537690377005107,-0.22845622760781642,1.396034555202284,0.8537994336838778,,-0.039682242205656075,-0.08834420341282298,0.07698115776,-0.046119083333121515,,5.405955e-05,1.6093254e-06,-1.5497208e-06,1.0,-4.178658e-05,-3.489107e-05,4.1782856e-05,1.0,-3.0994415e-06,3.4902245e-05,3.1292439e-06,1.0,861,2.724,0,1,1.085,False,1.0156213401931358,1.0278371772087502
2.7485819709982025,15:53:50.971989,15:53:35.137786,0,,0.11743811,0.00058177114,0.0036099106,0.9427469,-0.024707666,-0.3325928,0.3085727,-0.31374395,0.89796853,-0.12653565,-0.94918597,-0.28815702,,0.051103555,-0.011741221,0.012368321,-0.954965,-0.2954458,0.027448073,-0.020944677,0.15939471,0.98699266,-0.29597798,0.9419687,-0.1584045,,0.107873954,1.3465593,0.44453457,0.99664843,-0.008061904,-0.081405886,-0.058274817,-0.76835716,-0.6373628,-0.05741044,0.6399705,-0.7662518,,-0.080593914,0.25019318,-0.07057337,-0.93306065,0.07322783,0.3521868,0.11607741,-0.86539334,0.48746327,0.34047598,0.49571374,0.7989643,,0.007339561,0.4420363,-0.31068176,0.9812889,0.18301962,-0.059799254,-0.10762546,0.7789167,0.61782324,0.15965241,-0.5998271,0.78403986,,1.188080670836447,0.15375961152581,0.19616886199000003,4.005706990384869,0.1057566508184509,-0.8790929880054679,0.8426920371867468,,-0.8694329897130695,-0.2027912425442614,0.20183494558,-4.537690377005107,-0.22845622760781642,1.396197912682565,0.8534727455516091,,-0.039682242205656075,-0.08834420341282298,0.07698115776,-0.046119083333121515,,5.405955e-05,1.6093254e-06,-1.5497208e-06,1.0,-4.178658e-05,-3.489107e-05,4.1782856e-05,1.0,-3.0994415e-06,3.4902245e-05,3.1292439e-06,1.0,875,2.77,0,1,1.085,False,1.0103785009632849,1.0285131000196626
2.773584409005707,15:53:51.024040,15:53:35.137786,0,,0.11781332,0.0012819469,0.0036557466,0.9428504,-0.027202288,-0.3321042,0.3077208,-0.31126982,0.89912117,-0.12783217,-0.9499321,-0.2851102,,0.05109679,-0.01174368,0.012371898,-0.9549712,-0.29542375,0.027470544,-0.020946912,0.15948787,0.9869776,-0.29595792,0.94195986,-0.15849471,,0.107873954,1.3465593,0.44453457,0.99664843,-0.008061904,-0.081405886,-0.058274817,-0.76835716,-0.6373628,-0.05741044,0.6399705,-0.7662518,,-0.08096727,0.25073364,-0.07012433,-0.9331,0.07577167,0.35154387,0.114575624,-0.8639689,0.49033678,0.3408766,0.4978116,0.7974878,,0.0073460233,0.4420376,-0.31068635,0.98129296,0.18299402,-0.059811007,-0.10761304,0.778977,0.6177494,0.15963586,-0.5997567,0.78409714,,1.1876095841311194,0.15796850094226234,0.19633349082,4.007384509932745,0.10971910931164867,-0.8793019938274631,0.8366483067397785,,-0.8694098215144469,-0.20279896527713562,0.20182846413000002,-4.537690377005107,-0.22845622760781642,1.3961162339424242,0.853962777750012,,-0.039682242205656075,-0.08834420341282298,0.07698115776,-0.046119083333121515,,5.405955e-05,1.6093254e-06,-1.5497208e-06,1.0,-4.178658e-05,-3.489107e-05,4.1782856e-05,1.0,-3.0994415e-06,3.4902245e-05,3.1292439e-06,1.0,884,2.798,0,1,1.085,False,1.0067442601335022,1.0280785782126476
2.8256658890022663,15:53:51.050220,15:53:35.137786,0,,0.11795464,0.001671195,0.0036028177,0.94276106,-0.028249769,-0.33227026,0.30783108,-0.30940986,0.8997252,-0.12822473,-0.95050895,-0.2830035,,0.051094823,-0.011743709,0.012375236,-0.9549712,-0.29542375,0.027470544,-0.020946912,0.15948787,0.9869776,-0.29595792,0.94195986,-0.15849471,,0.107873954,1.3465593,0.44453457,0.99664843,-0.008061904,-0.081405886,-0.058274817,-0.76835716,-0.6373628,-0.05741044,0.6399705,-0.7662518,,-0.0811035,0.25098395,-0.06981926,-0.9329894,0.07685817,0.3516014,0.11439902,-0.8629347,0.4921956,0.34123832,0.49943617,0.7963165,,0.00734761,0.44204003,-0.31068894,0.98129296,0.18299402,-0.059811007,-0.10761304,0.778977,0.6177494,0.15963586,-0.5997567,0.78409714,,1.1875709704667483,0.16002274788680607,0.19650719368000003,4.0075941998762294,0.1114953838085994,-0.879933639174111,0.8363216186075098,,-0.8694098215144469,-0.20279896527713562,0.20182457526000003,-4.537690377005107,-0.22845622760781642,1.3961162339424242,0.853962777750012,,-0.039682242205656075,-0.08834420341282298,0.07698115776,-0.046119083333121515,,5.405955e-05,1.6093254e-06,-1.5497208e-06,1.0,-4.178658e-05,-3.489107e-05,4.1782856e-05,1.0,-3.0994415e-06,3.4902245e-05,3.1292439e-06,1.0,898,2.843,0,1,1.085,False,1.0047186177037868,1.0283682594173245
2.8517730989988195,15:53:51.098708,15:53:35.295592,0,,0.11816409,0.0021350235,0.0034199208,0.9420228,-0.02845438,-0.3343403,0.3100489,-0.3071904,0.8997242,-0.1283072,-0.9512225,-0.2805581,,0.051095426,-0.011743486,0.012377083,-0.9549689,-0.29543284,0.027448304,-0.020945586,0.1594055,0.9869909,-0.29596502,0.9419708,-0.15841547,,0.107873954,1.3465593,0.44453457,0.99664843,-0.008061904,-0.081405886,-0.058274817,-0.76835716,-0.6373628,-0.05741044,0.6399705,-0.7662518,,-0.08130048,0.25120112,-0.06936482,-0.93223596,0.07711215,0.35353908,0.11601961,-0.86175007,0.49388897,0.34274715,0.5014385,0.79440784,,0.0073467987,0.44204137,-0.3106901,0.9812915,0.183006,-0.059798207,-0.10761705,0.7789247,0.6178146,0.15964209,-0.59982085,0.78404677,,1.1871384974257917,0.16241679507781567,0.19682089586,4.005706990384869,0.11436475030367366,-0.8808848765693463,0.8338714576154956,,-0.8694175442473211,-0.20279896527713562,0.20182327897000002,-4.537690377005107,-0.22845622760781642,1.396197912682565,0.8531460574193405,,-0.039682242205656075,-0.08834420341282298,0.07698115776,-0.046119083333121515,,5.405955e-05,1.6093254e-06,-1.5497208e-06,1.0,-4.178658e-05,-3.489107e-05,4.1782856e-05,1.0,-3.0994415e-06,3.4902245e-05,3.1292439e-06,1.0,907,2.872,0,1,1.085,False,1.0038249519259712,1.0278854574095297
2.9003080890106503,15:53:51.120712,15:53:35.295592,0,,0.11832641,0.002360493,0.0032869577,0.94198185,-0.028704464,-0.33443427,0.31019267,-0.30626836,0.89998895,-0.12826034,-0.9515122,-0.27959538,,0.05109346,-0.0117435455,0.012380481,-0.9549689,-0.29543284,0.027448304,-0.020945586,0.1594055,0.9869909,-0.29596502,0.9419708,-0.15841547,,0.107873954,1.3465593,0.44453457,0.99664843,-0.008061904,-0.081405886,-0.058274817,-0.76835716,-0.6373628,-0.05741044,0.6399705,-0.7662518,,-0.08145434,0.25127545,-0.069108576,-0.93219674,0.07738216,0.35358337,0.11615923,-0.8612483,0.4947306,0.34280643,0.50225824,0.79386425,,0.007348385,0.44204378,-0.31069273,0.9812915,0.183006,-0.059798207,-0.10761705,0.7789247,0.6178146,0.15964209,-0.59982085,0.78404677,,1.1865824606588475,0.16364470960481736,0.19700626533,4.005706990384869,0.11559447880156261,-0.8813158865216302,0.832401361020287,,-0.8694175442473211,-0.20279896527713562,0.20181939010000002,-4.537690377005107,-0.22845622760781642,1.396197912682565,0.8531460574193405,,-0.039682242205656075,-0.08834420341282298,0.07698115776,-0.046119083333121515,,5.405955e-05,1.6093254e-06,-1.5497208e-06,1.0,-4.178658e-05,-3.489107e-05,4.1782856e-05,1.0,-3.0994415e-06,3.4902245e-05,3.1292439e-06,1.0,921,2.917,0,1,1.085,False,1.0025142421185085,1.027499215803294
2.9223330859967973,15:53:51.167629,15:53:35.295592,0,,0.118910626,0.00292629,0.0029628575,0.9418697,-0.02637859,-0.33494133,0.31164068,-0.30392513,0.900283,-0.12554532,-0.9523306,-0.27803725,,0.051084623,-0.011745304,0.012378335,-0.954982,-0.2953873,0.02748517,-0.020953536,0.15957725,0.986963,-0.29592237,0.94195616,-0.15858302,,0.107873954,1.3465593,0.44453457,0.99664843,-0.008061904,-0.081405886,-0.058274817,-0.76835716,-0.6373628,-0.05741044,0.6399705,-0.7662518,,-0.08201753,0.25146276,-0.068464994,-0.9322207,0.07511546,0.35400885,0.11905052,-0.86012053,0.4960037,0.34174785,0.50452983,0.7928796,,0.00735748,0.44204205,-0.31069276,0.9813002,0.1829537,-0.05981521,-0.10759299,0.7790363,0.6176781,0.15960471,-0.5996919,0.784153,,1.1844200954540647,0.16711221666534418,0.19744052248000002,4.003819780893508,0.1175073897982788,-0.8818955922916933,0.8307679203589443,,-0.8693712078500757,-0.20279896527713562,0.20181679752,-4.537690377005107,-0.22845622760781642,1.396034555202284,0.853472745551609,,-0.039682242205656075,-0.08834420341282298,0.07698115776,-0.046119083333121515,,5.405955e-05,1.6093254e-06,-1.5497208e-06,1.0,-4.178658e-05,-3.489107e-05,4.1782856e-05,1.0,-3.0994415e-06,3.4902245e-05,3.1292439e-06,1.0,930,2.946,0,1,1.085,False,0.9976288691997839,1.0279820178110888
2.9692162800056394,15:53:51.196311,15:53:35.295592,0,,0.1194209,0.0033480227,0.0027045459,0.9417711,-0.023733215,-0.33541623,0.31290168,-0.3033988,0.90002304,-0.123125315,-0.95256793,-0.27830607,,0.051081605,-0.011747405,0.012380719,-0.95494556,-0.295502,0.02751688,-0.02095247,0.15961465,0.98695695,-0.29603994,0.9419138,-0.1586149,,0.107873954,1.3465593,0.44453457,0.99664843,-0.008061904,-0.081405886,-0.058274817,-0.76835716,-0.6373628,-0.05741044,0.6399705,-0.7662518,,-0.08251116,0.25158888,-0.06796963,-0.9322435,0.07248921,0.3544959,0.12160547,-0.8599694,0.4956458,0.3407846,0.50517124,0.7928858,,0.007360325,0.44204244,-0.3106961,0.98127675,0.18307035,-0.059842918,-0.107674725,0.7790482,0.61764884,0.1596937,-0.59964085,0.7841739,,1.1824353531053888,0.1698383413699454,0.19777237272,4.0021422613456314,0.11901039129569863,-0.8809975419886993,0.8275010390362587,,-0.8693557623843273,-0.20280668801000984,0.20181290865,-4.537690377005107,-0.228319591108051,1.396004816038728,0.8533094014854747,,-0.039682242205656075,-0.08834420341282298,0.07698115776,-0.046119083333121515,,5.405955e-05,1.6093254e-06,-1.5497208e-06,1.0,-4.178658e-05,-3.489107e-05,4.1782856e-05,1.0,-3.0994415e-06,3.4902245e-05,3.1292439e-06,1.0,953,3.019,0,1,1.085,False,0.9938754729329586,1.027402655401735
2.997937804000685,15:53:51.269173,15:53:35.295592,0,,0.12000802,0.0037694722,0.0023213476,0.94200855,-0.023667099,-0.3347534,0.31193075,-0.30614692,0.8994294,-0.123770624,-0.9516899,-0.28101057,,0.051076084,-0.011749551,0.012385011,-0.95494956,-0.2955003,0.027396433,-0.020953372,0.15922233,0.9870203,-0.296027,0.9419807,-0.15824121,,0.107873954,1.3465593,0.44453457,0.99664843,-0.008061904,-0.081405886,-0.058274817,-0.76835716,-0.6373628,-0.05741044,0.6399705,-0.7662518,,-0.08307489,0.2516292,-0.067378245,-0.9324517,0.07236198,0.35397395,0.12044471,-0.861434,0.49338078,0.34062722,0.50268805,0.79453,,0.0073654475,0.44204432,-0.31070095,0.9812794,0.18308115,-0.059767105,-0.10766631,0.7788039,0.6179583,0.15968338,-0.59995484,0.78393584,,1.1798173466610269,0.17260307973891778,0.19821440761000003,4.003819780893508,0.1229728497888964,-0.8776943619846506,0.8219473407876932,,-0.8693403169185788,-0.20281441074288406,0.20180642720000003,-4.537690377005107,-0.228319591108051,1.3964132097394308,0.852819369287072,,-0.039682242205656075,-0.08834420341282298,0.07698115776,-0.046119083333121515,,5.405955e-05,1.6093254e-06,-1.5497208e-06,1.0,-4.178658e-05,-3.489107e-05,4.1782856e-05,1.0,-3.0994415e-06,3.4902245e-05,3.1292439e-06,1.0,976,3.093,0,1,1.085,False,0.9846409265621987,1.0273543752009557
3.0708004990010522,15:53:51.339869,15:53:35.504099,0,,0.120510906,0.0040260255,0.0018322468,0.94123596,-0.031610906,-0.33626723,0.3097629,-0.31602862,0.89675677,-0.13461734,-0.94822276,-0.28766564,,0.051047094,-0.011758432,0.012387991,-0.9548306,-0.2958711,0.027540639,-0.020968527,0.15953952,0.98696876,-0.29640943,0.9418106,-0.15853739,,0.107873954,1.3465593,0.44453457,0.99664843,-0.008061904,-0.081405886,-0.058274817,-0.76835716,-0.6373628,-0.05741044,0.6399705,-0.7662518,,-0.08354981,0.25147873,-0.06682167,-0.9311178,0.08005807,0.35582355,0.111626916,-0.8662376,0.4870029,0.34721625,0.49317655,0.7976326,,0.007394357,0.44204295,-0.31071046,0.98120356,0.18345176,-0.05987552,-0.10794595,0.77896476,0.6177067,0.1599603,-0.5996327,0.78412586,,1.1767900353743308,0.17451831749172547,0.19871477555000003,4.0103201691415284,0.1358166807668478,-0.8701983221011905,0.7987524833966255,,-0.8691858622610943,-0.20282985620863253,0.20178827914000003,-4.537690377005107,-0.2277730451089892,1.396130895604926,0.8521659930225348,,-0.039682242205656075,-0.08834420341282298,0.07698115776,-0.046119083333121515,,5.405955e-05,1.6093254e-06,-1.5497208e-06,1.0,-4.178658e-05,-3.489107e-05,4.1782856e-05,1.0,-3.0994415e-06,3.4902245e-05,3.1292439e-06,1.0,985,3.122,0,1,1.085,False,0.9575926423536494,1.0263887711853665
3.141498668002896,15:53:51.371653,15:53:35.504099,0,,0.1206968,0.0040668845,0.0017333478,0.9412136,-0.03686265,-0.3357948,0.30753693,-0.31780273,0.896896,-0.13977847,-0.9474399,-0.28778362,,0.05103088,-0.011762902,0.012387574,-0.95485204,-0.29580116,0.02754984,-0.020980038,0.15964499,0.9869514,-0.29633966,0.9418148,-0.15864348,,0.107873954,1.3465593,0.44453457,0.99664843,-0.008061904,-0.081405886,-0.058274817,-0.76835716,-0.6373628,-0.05741044,0.6399705,-0.7662518,,-0.08372999,0.25143746,-0.066712864,-0.93083423,0.08525143,0.35535878,0.10653049,-0.8668733,0.4870132,0.34956962,0.49118507,0.7978335,,0.007410723,0.4420412,-0.31071395,0.9812178,0.18337655,-0.059872262,-0.10790547,0.7790375,0.6176221,0.15990014,-0.5995613,0.78419274,,1.1756547936418198,0.17511296792304076,0.19880551585000003,4.014513968011219,0.14100886775793453,-0.869858192993783,0.7889518394285686,,-0.8691086349323521,-0.20283757894150675,0.2017805014,-4.537690377005107,-0.2277730451089892,1.3960492168647856,0.852329337088669,,-0.039682242205656075,-0.08834420341282298,0.07698115776,-0.046119083333121515,,5.405955e-05,1.6093254e-06,-1.5497208e-06,1.0,-4.178658e-05,-3.489107e-05,4.1782856e-05,1.0,-3.0994415e-06,3.4902245e-05,3.1292439e-06,1.0,999,3.167,0,1,1.085,False,0.9282804048413014,1.026726732590823
3.1732551099994453,15:53:51.411963,15:53:35.504099,0,,0.12087773,0.0040309876,0.0016270578,0.9404298,-0.043511845,-0.3371921,0.30615392,-0.3229318,0.89553595,-0.14785649,-0.94542134,-0.29037344,,0.05101812,-0.011764824,0.012392223,-0.9548651,-0.29576907,0.027441807,-0.020988002,0.15933311,0.98700166,-0.296297,0.9418776,-0.1583494,,0.107873954,1.3465593,0.44453457,0.99664843,-0.008061904,-0.081405886,-0.058274817,-0.76835716,-0.6373628,-0.05741044,0.6399705,-0.7662518,,-0.083905235,0.25133422,-0.066649966,-0.9296314,0.09175687,0.35688388,0.1001425,-0.86914176,0.48431817,0.35462222,0.48597664,0.7987927,,0.007422986,0.4420443,-0.31071922,0.9812265,0.18335357,-0.059799466,-0.10788142,0.77884626,0.61786735,0.15986277,-0.59981656,0.78400505,,1.1742647017244594,0.1754373227037582,0.19887940438,4.0189174568243935,0.1493436942436264,-0.8669349150425378,0.7649402617068297,,-0.8690622985351067,-0.20283757894150675,0.20177013108000003,-4.537690377005107,-0.2277730451089892,1.396375931825348,0.8520026489564007,,-0.039682242205656075,-0.08834420341282298,0.07698115776,-0.046119083333121515,,5.405955e-05,1.6093254e-06,-1.5497208e-06,1.0,-4.178658e-05,-3.489107e-05,4.1782856e-05,1.0,-3.0994415e-06,3.4902245e-05,3.1292439e-06,1.0,1032,3.273,0,1,1.085,False,0.8807969631800381,1.0255680077721157
3.2135768690059194,15:53:51.522404,15:53:35.696856,0,,0.12085326,0.0039391518,0.0015681386,0.9378488,-0.057201825,-0.34229752,0.30458862,-0.3370477,0.890856,-0.16632919,-0.9397481,-0.29867676,,0.050929464,-0.011790544,0.012427092,-0.954877,-0.29573154,0.027429223,-0.021028519,0.15944129,0.98698336,-0.29625553,0.9418711,-0.15846586,,0.107873954,1.3465593,0.44453457,0.99664843,-0.008061904,-0.081405886,-0.058274817,-0.76835716,-0.6373628,-0.05741044,0.6399705,-0.7662518,,-0.08387817,0.25122732,-0.06666846,-0.92608476,0.10505154,0.36239645,0.08674935,-0.8754503,0.475459,0.3672078,0.471753,0.80162805,,0.0075085056,0.4420584,-0.31076637,0.981236,0.18331157,-0.059773408,-0.107882224,0.77891743,0.61777747,0.15980431,-0.599737,0.7840779,,1.1734383693069173,0.17536009537501593,0.19892607082000002,4.0270953646202905,0.16683316621360278,-0.8566111059333705,0.6269145258233637,,-0.8687224982886409,-0.20289936080450055,0.20169494626,-4.537690377005107,-0.22749977210945835,1.3963981322383767,0.8508592404934606,,-0.039682242205656075,-0.08834420341282298,0.07698115776,-0.046119083333121515,,5.405955e-05,1.6093254e-06,-1.5497208e-06,1.0,-4.178658e-05,-3.489107e-05,4.1782856e-05,1.0,-3.0994415e-06,3.4902245e-05,3.1292439e-06,1.0,1051,3.335,0,1,1.085,False,0.559375171759064,1.024747244358865
3.3240324840007816,15:53:51.583241,15:53:35.696856,0,,0.1206872,0.003878057,0.0016034693,0.9326628,-0.066866495,-0.35449815,0.31017482,-0.35313305,0.8826599,-0.18420535,-0.93318045,-0.30861375,,0.05083973,-0.0118127465,0.01244837,-0.9549392,-0.29553217,0.02741377,-0.021081522,0.15966949,0.9869454,-0.2960513,0.9418951,-0.158705,,0.107873954,1.3465593,0.44453457,0.99664843,-0.008061904,-0.081405886,-0.058274817,-0.76835716,-0.6373628,-0.05741044,0.6399705,-0.7662518,,-0.083714545,0.25121054,-0.066742636,-0.91993004,0.11426869,0.37506178,0.0791635,-0.88275635,0.4631138,0.38400757,0.45572352,0.80302817,,0.0075964145,0.44206616,-0.31080118,0.9812782,0.18309952,-0.059730176,-0.10777801,0.7790794,0.6175915,0.15961526,-0.5995915,0.78422767,,1.1734306465740432,0.17532920444351904,0.19891958937,4.027934124394228,0.18623554918029533,-0.843599852988644,0.4686341257392472,,-0.868351807110678,-0.20293797446887166,0.20163142805000003,-4.537690377005107,-0.2273631356096929,1.3962867143346802,0.8508592404934606,,-0.039682242205656075,-0.08834420341282298,0.07698115776,-0.046119083333121515,,5.405955e-05,1.6093254e-06,-1.5497208e-06,1.0,-4.178658e-05,-3.489107e-05,4.1782856e-05,1.0,-3.0994415e-06,3.4902245e-05,3.1292439e-06,1.0,1070,3.396,0,1,1.085,False,0.1262451581111521,1.0255680077721157
3.3848642189987004,15:53:51.648345,15:53:35.846414,0,,0.12061994,0.0037949383,0.0016180873,0.92812675,-0.07387076,-0.36486155,0.31460777,-0.36829844,0.874859,-0.19900441,-0.9267681,-0.31858733,,0.050788045,-0.011828005,0.012452662,-0.9549647,-0.29544842,0.027426511,-0.021113738,0.15986031,0.9869138,-0.2959666,0.941889,-0.15889916,,0.107873954,1.3465593,0.44453457,0.99664843,-0.008061904,-0.081405886,-0.058274817,-0.76835716,-0.6373628,-0.05741044,0.6399705,-0.7662518,,-0.083648585,0.25116044,-0.06681184,-0.91459334,0.12084235,0.38589656,0.072748244,-0.8895638,0.45098108,0.39777723,0.44053757,0.80479807,,0.007648027,0.4420635,-0.31081703,0.98129594,0.18300743,-0.059720166,-0.107742354,0.7792066,0.61743724,0.15952995,-0.5994543,0.7843499,,1.1729981735330866,0.17530603624489638,0.19891051534,4.028772884168166,0.2026319291521482,-0.8309144833273752,0.28748555639633133,,-0.8681124023915772,-0.20296886540036857,0.20160161338000002,-4.537690377005107,-0.22722649910992745,1.3961752964309837,0.8508592404934606,,-0.039682242205656075,-0.08834420341282298,0.07698115776,-0.046119083333121515,,5.405955e-05,1.6093254e-06,-1.5497208e-06,1.0,-4.178658e-05,-3.489107e-05,4.1782856e-05,1.0,-3.0994415e-06,3.4902245e-05,3.1292439e-06,1.0,1103,3.503,0,1,1.085,False,-0.25397984149008224,1.0250369255635419
