AlexandreBanks6/ExpertPlaybackApp/resources/Motions/Pilot_04/PC1/Data_PC1_4.csv
Task Time,PC1 Time,PC2 Time,Gaze Calib,s_T_psm1,Tx,Ty,Tz,R00,R01,R02,R10,R11,R12,R20,R21,R22,s_T_psm3,Tx,Ty,Tz,R00,R01,R02,R10,R11,R12,R20,R21,R22,cart_T_ecm,Tx,Ty,Tz,R00,R01,R02,R10,R11,R12,R20,R21,R22,ecm_T_psm1,Tx,Ty,Tz,R00,R01,R02,R10,R11,R12,R20,R21,R22,ecm_T_psm3,Tx,Ty,Tz,R00,R01,R02,R10,R11,R12,R20,R21,R22,psm1_joints,q1,q2,q3,q4,q5,q6,jaw,psm3_joints,q1,q2,q3,q4,q5,q6,jaw,ecm_joints,q1,q2,q3,q4,ecmi_T_ecm,Tx,Ty,Tz,R00,R01,R02,R10,R11,R12,R20,R21,R22,Sample #,Task Duration (s),Collisions (binary),Collisions (increments),Cumulative Collision Time (s),Clutch Press,MTMR Angle,MTML Angle
""
lci_T_si,,,,,-0.064848,0.0060158353,0.24753708,0.99741,0.018062852,0.06962021,0.059872065,-0.74489254,-0.6644926,0.03985694,0.6669399,-0.7440447
rci_T_si,,,,,-0.07478864,0.010140588,0.2572284,0.9943315,0.005651281,0.106174365,0.075483374,-0.74079365,-0.6674781,0.07488119,0.6717089,-0.737021
ecm_T_lc,,,,,-4.4061628e-05,-0.00034663224,-0.01840835,-0.99912,0.030754527,0.028518902,-0.031987965,-0.99852574,-0.043852776,0.027128186,-0.04472645,0.9986309
ecm_T_rc,,,,,-0.0043358393,0.01870579,-0.007592615,-0.99555075,-0.052743673,-0.078081585,0.04863213,-0.9973746,0.053654674,-0.08070653,0.04961868,0.9955021
cart_T_ecmi,,,,,0.10781996,1.3465626,0.44453546,0.9966516,-0.008020006,-0.08137113,-0.05822047,-0.76835763,-0.6373672,-0.05741044,0.6399705,-0.7662518
ecmac_T_ecmrep_psm1,,,,,0.011947535,-0.24624088,-0.3140189,0.99787813,0.060519684,0.024013558,-0.059408683,0.9972389,-0.04455629,-0.026643785,0.04303513,0.9987182
ecmac_T_ecmrep_psm3,,,,,-0.020729378,-0.4297972,-0.5440064,0.99962926,-0.018584386,0.019899037,0.019259674,0.999226,-0.034299888,-0.019246193,0.03467042,0.99921346
""
0,15:55:21.579932,15:55:05.752778,0,,0.111496516,0.005513683,0.024540737,0.97491825,0.06994094,-0.2112878,0.21914211,-0.13585502,0.9661884,0.038871594,-0.98825675,-0.14777473,,0.06377313,-0.009146333,0.010238886,-0.37749088,0.476973,0.7937236,0.89001596,-0.049782574,0.453203,0.25567907,0.8775069,-0.4057214,,0.10787553,1.346559,0.4445378,0.9966492,-0.008051255,-0.08139706,-0.058261003,-0.7683573,-0.6373639,-0.05741044,0.6399705,-0.7662518,,-0.07574561,0.2679964,-0.08310642,-0.9744235,-0.018262899,0.22397612,0.1586338,-0.76185197,0.6280262,0.15916707,0.64749366,0.7452636,,-0.005141891,0.44112426,-0.30677313,0.302147,-0.5663039,-0.7668162,0.8676192,0.4966061,-0.024883976,0.39489752,-0.6577859,0.64138424,,1.2720962817751356,0.1875774587820391,0.18007282906000002,4.0071748199892605,-0.12584221628397066,-0.9499780348870215,-0.4193042177666948,,-0.9106028786655603,-0.21637552967002233,0.21083379076000003,-3.156882099159514,-0.41974732727943304,0.5550489182215712,0.8773209792072139,,-0.0396756972209611,-0.08834420341282298,0.07698115776,-0.046119083333121515,,5.5462122e-05,3.7550926e-06,-4.053116e-06,0.99999994,-3.116578e-05,-2.6028603e-05,3.116578e-05,0.99999994,-2.3245811e-06,2.603978e-05,2.3245811e-06,1.0,36,0.109,1,1,0.084,False,-0.26196325577190027,1.051494475590685
0.12855782799306326,15:55:21.616898,15:55:05.752778,0,,0.11152287,0.0054694265,0.024500296,0.9732925,0.07596062,-0.21663669,0.22531633,-0.13530797,0.9648441,0.043977477,-0.9878874,-0.14880955,,0.063774675,-0.009147555,0.01023978,-0.3774888,0.47690025,0.79376817,0.89001894,-0.04981816,0.45319334,0.25567192,0.87754446,-0.40564466,,0.10787553,1.346559,0.4445378,0.9966492,-0.008051255,-0.08139706,-0.058261003,-0.7683573,-0.6373639,-0.05741044,0.6399705,-0.7662518,,-0.07577003,0.26793566,-0.08310471,-0.97303736,-0.02429068,0.22936502,0.16668673,-0.7613868,0.6265027,0.15941732,0.64784265,0.7449067,,-0.005143458,0.44112378,-0.3067746,0.30214557,-0.56623393,-0.7668684,0.8676164,0.49661303,-0.0248448,0.39490482,-0.6578409,0.64132327,,1.2718182633916635,0.18726854946707014,0.18008708825000003,3.999206602136849,-0.12748185428115594,-0.9485593413025237,-0.4194675618328292,,-0.9106106013984346,-0.21638325240289655,0.21083379076000003,-3.156882099159514,-0.41974732727943304,0.5551305969617117,0.8771576351410796,,-0.0396756972209611,-0.08834420341282298,0.07698115776,-0.046119083333121515,,5.5462122e-05,3.7550926e-06,-4.053116e-06,0.99999994,-3.116578e-05,-2.6028603e-05,3.116578e-05,0.99999994,-2.3245811e-06,2.603978e-05,2.3245811e-06,1.0,44,0.133,1,1,0.108,False,-0.2612483231496481,1.0516393161930233
0.16550641600042582,15:55:21.648902,15:55:05.870745,0,,0.1115632,0.005471289,0.024474546,0.972047,0.08094821,-0.2203904,0.22975586,-0.13468993,0.9638831,0.04834023,-0.98757565,-0.14952335,,0.0637785,-0.009146735,0.010242224,-0.3774925,0.47688064,0.7937783,0.8900181,-0.049824685,0.4531941,0.2556692,0.87755466,-0.40562418,,0.10787553,1.346559,0.4445378,0.9966492,-0.008051255,-0.08139706,-0.058261003,-0.7683573,-0.6373639,-0.05741044,0.6399705,-0.7662518,,-0.07580892,0.26791865,-0.08308259,-0.9720007,-0.029284403,0.23314606,0.17294021,-0.76087487,0.62542874,0.15907967,0.64823747,0.74463534,,-0.0051475614,0.44112563,-0.30677566,0.3021496,-0.5662153,-0.76688063,0.8676144,0.4966172,-0.024831649,0.39490616,-0.6578538,0.6413092,,1.2716020268711852,0.1872531040013217,0.18010523631000003,3.9931255937757975,-0.12912149227834124,-0.9473856839384478,-0.4191408737005605,,-0.9106337695970573,-0.21638325240289655,0.21083379076000003,-3.156882099159514,-0.41974732727943304,0.5551305969617117,0.8771576351410796,,-0.0396756972209611,-0.08834420341282298,0.07698115776,-0.046119083333121515,,5.5462122e-05,3.7550926e-06,-4.053116e-06,0.99999994,-3.116578e-05,-2.6028603e-05,3.116578e-05,0.99999994,-2.3245811e-06,2.603978e-05,2.3245811e-06,1.0,57,0.174,1,1,0.149,False,-0.2616653671792948,1.051494475590685
0.1974989799928153,15:55:21.673641,15:55:05.870745,0,,0.11158722,0.0055013895,0.024466112,0.970459,0.08698224,-0.22504073,0.23522733,-0.1337378,0.96269524,0.053640917,-0.98719203,-0.15024775,,0.063774675,-0.009147555,0.01023978,-0.3774888,0.47690025,0.79376817,0.89001894,-0.04981816,0.45319334,0.25567192,0.87754446,-0.40564466,,0.10787553,1.346559,0.4445378,0.9966492,-0.008051255,-0.08139706,-0.058261003,-0.7683573,-0.6373639,-0.05741044,0.6399705,-0.7662518,,-0.0758323,0.26793468,-0.083055206,-0.9706662,-0.035325106,0.2378218,0.18059817,-0.7600989,0.6242067,0.15871792,0.64884657,0.74418193,,-0.005143458,0.44112378,-0.3067746,0.30214557,-0.56623393,-0.7668684,0.8676164,0.49661303,-0.0248448,0.39490482,-0.6578409,0.64132327,,1.2715711359396882,0.18733805406293816,0.18012338437000003,3.9855767558103543,-0.1311710397748228,-0.9458777728632828,-0.418814185568292,,-0.9106106013984346,-0.21638325240289655,0.21083379076000003,-3.156882099159514,-0.41974732727943304,0.5551305969617117,0.8771576351410796,,-0.0396756972209611,-0.08834420341282298,0.07698115776,-0.046119083333121515,,5.5462122e-05,3.7550926e-06,-4.053116e-06,0.99999994,-3.116578e-05,-2.6028603e-05,3.116578e-05,0.99999994,-2.3245811e-06,2.603978e-05,2.3245811e-06,1.0,65,0.199,1,1,0.174,False,-0.261427056305211,1.0513496349883464
0.2222533040039707,15:55:21.701497,15:55:05.870745,0,,0.111598805,0.005518645,0.024469942,0.9695749,0.093410216,-0.22627163,0.23749334,-0.13487658,0.96197975,0.05933997,-0.9864495,-0.15295741,,0.06377341,-0.009147853,0.0102389455,-0.37748754,0.47690672,0.7937649,0.8900192,-0.049815953,0.45319307,0.2556729,0.87754107,-0.40565148,,0.10787553,1.346559,0.4445378,0.9966492,-0.008051255,-0.08139706,-0.058261003,-0.7683573,-0.6373639,-0.05741044,0.6399705,-0.7662518,,-0.07584398,0.26794973,-0.08304604,-0.970073,-0.041789375,0.23919053,0.18611124,-0.760654,0.6219069,0.15595213,0.64781106,0.74566734,,-0.00514209,0.44112316,-0.30677423,0.30214423,-0.56624013,-0.76686436,0.8676171,0.49661165,-0.024849184,0.39490438,-0.6578366,0.641328,,1.2716946996656757,0.1872917176656928,0.18012986582,3.9807538871102106,-0.13527013476778604,-0.94253523575239,-0.4184874974360233,,-0.9106028786655603,-0.21638325240289655,0.21083379076000003,-3.156882099159514,-0.41974732727943304,0.5551305969617117,0.8771576351410796,,-0.0396756972209611,-0.08834420341282298,0.07698115776,-0.046119083333121515,,5.5462122e-05,3.7550926e-06,-4.053116e-06,0.99999994,-3.116578e-05,-2.6028603e-05,3.116578e-05,0.99999994,-2.3245811e-06,2.603978e-05,2.3245811e-06,1.0,86,0.264,1,1,0.239,False,-0.2613079008681689,1.0514461953899055
0.2501002719945973,15:55:21.761119,15:55:05.870745,0,,0.11156858,0.005586013,0.02448909,0.9664314,0.1111907,-0.23161785,0.24570361,-0.1364711,0.9596902,0.07509946,-0.98438406,-0.15921,,0.0637742,-0.009152487,0.010239303,-0.37747762,0.47690246,0.7937722,0.8900288,-0.049805045,0.4531755,0.25565425,0.877544,-0.4056568,,0.10787553,1.346559,0.4445378,0.9966492,-0.008051255,-0.08139706,-0.058261003,-0.7683573,-0.6373639,-0.05741044,0.6399705,-0.7662518,,-0.07581445,0.26801363,-0.08301664,-0.9677241,-0.059662517,0.24484786,0.20282683,-0.7610228,0.61620253,0.14957061,0.6459757,0.74856126,,-0.0051426864,0.44111988,-0.30677757,0.3021359,-0.56623673,-0.76687014,0.8676106,0.49662212,-0.024866492,0.394925,-0.6578316,0.64132035,,1.2723665774257333,0.18711409480958566,0.18015968049000003,3.96544652123584,-0.1459277817494904,-0.9341713542246314,-0.4184874974360233,,-0.9106028786655603,-0.2164064206015192,0.21083379076000003,-3.156882099159514,-0.41974732727943304,0.5551305969617117,0.8771576351410796,,-0.0396756972209611,-0.08834420341282298,0.07698115776,-0.046119083333121515,,5.5462122e-05,3.7550926e-06,-4.053116e-06,0.99999994,-3.116578e-05,-2.6028603e-05,3.116578e-05,0.99999994,-2.3245811e-06,2.603978e-05,2.3245811e-06,1.0,94,0.289,1,1,0.264,False,-0.26160578946077395,1.0516393161930233
0.30971418200351764,15:55:21.790643,15:55:05.870745,0,,0.111619875,0.0056497306,0.024523541,0.9642311,0.1290746,-0.23151222,0.24828777,-0.13404298,0.9593673,0.09279734,-0.98253334,-0.16129613,,0.063774675,-0.009147555,0.01023978,-0.3774888,0.47690025,0.79376817,0.89001894,-0.04981816,0.45319334,0.25567192,0.87754446,-0.40564466,,0.10787553,1.346559,0.4445378,0.9966492,-0.008051255,-0.08139706,-0.058261003,-0.7683573,-0.6373639,-0.05741044,0.6399705,-0.7662518,,-0.07586716,0.26808244,-0.08299758,-0.9664498,-0.07760607,0.24485108,0.21661258,-0.75854087,0.6145687,0.1380353,0.6469876,0.7499022,,-0.005143458,0.44112378,-0.3067746,0.30214557,-0.56623393,-0.7668684,0.8676164,0.49661303,-0.0248448,0.39490482,-0.6578409,0.64132327,,1.2728144959324383,0.18702914474796917,0.18016616194,3.9543329542311603,-0.16068452372415798,-0.930142737159193,-0.42012093809736606,,-0.9106106013984346,-0.21638325240289655,0.21083379076000003,-3.156882099159514,-0.41974732727943304,0.5551305969617117,0.8771576351410796,,-0.0396756972209611,-0.08834420341282298,0.07698115776,-0.046119083333121515,,5.5462122e-05,3.7550926e-06,-4.053116e-06,0.99999994,-3.116578e-05,-2.6028603e-05,3.116578e-05,0.99999994,-2.3245811e-06,2.603978e-05,2.3245811e-06,1.0,111,0.342,1,1,0.317,False,-0.26273776611267374,1.0515427557914643
0.3392517860047519,15:55:21.845101,15:55:06.085771,0,,0.111722246,0.0057843626,0.024620458,0.9569298,0.17424223,-0.2322171,0.25537235,-0.1247226,0.9587643,0.1380945,-0.97677207,-0.1638475,,0.0637742,-0.009152487,0.010239303,-0.37747762,0.47690246,0.7937722,0.8900288,-0.049805045,0.4531755,0.25565425,0.877544,-0.4056568,,0.10787553,1.346559,0.4445378,0.9966492,-0.008051255,-0.08139706,-0.058261003,-0.7683573,-0.6373639,-0.05741044,0.6399705,-0.7662518,,-0.07597379,0.26824412,-0.08297547,-0.9615184,-0.12296483,0.24568677,0.25229964,-0.7491729,0.6124417,0.108753085,0.65086067,0.7513675,,-0.0051426864,0.44111988,-0.30677757,0.3021359,-0.56623673,-0.76687014,0.8676106,0.49662212,-0.024866492,0.394925,-0.6578316,0.64132035,,1.2739883513293204,0.1865657807755157,0.18017653226000002,3.924766672199843,-0.1982595611596541,-0.9219644671813316,-0.41897752963442614,,-0.9106028786655603,-0.2164064206015192,0.21083379076000003,-3.156882099159514,-0.41974732727943304,0.5551305969617117,0.8771576351410796,,-0.0396756972209611,-0.08834420341282298,0.07698115776,-0.046119083333121515,,5.5462122e-05,3.7550926e-06,-4.053116e-06,0.99999994,-3.116578e-05,-2.6028603e-05,3.116578e-05,0.99999994,-2.3245811e-06,2.603978e-05,2.3245811e-06,1.0,132,0.408,1,1,0.383,False,-0.2616653671792948,1.0515427557914643
0.3936968140042154,15:55:21.910825,15:55:06.085771,0,,0.11150136,0.0058707,0.024717942,0.95198166,0.19065398,-0.23954475,0.2664184,-0.13039955,0.9549958,0.15083721,-0.97295773,-0.17493185,,0.06377354,-0.009149179,0.0102421045,-0.37748548,0.47689876,0.79377073,0.89002216,-0.049814522,0.45318747,0.25566572,0.8775455,-0.40564644,,0.10787553,1.346559,0.4445378,0.9966492,-0.008051255,-0.08139706,-0.058261003,-0.7683573,-0.6373639,-0.05741044,0.6399705,-0.7662518,,-0.07575791,0.2683803,-0.0829999,-0.95719266,-0.13958558,0.25357056,0.26917458,-0.7513753,0.6024784,0.10642936,0.64494264,0.75678384,,-0.005142501,0.44112426,-0.3067774,0.3021428,-0.5662328,-0.7668704,0.86761427,0.4966165,-0.02485057,0.3949117,-0.65783924,0.64132077,,1.2756255706986561,0.18617192139893027,0.18017912484,3.9073624068906265,-0.20550129564722242,-0.907728086791084,-0.41963090589896335,,-0.9106106013984346,-0.21639097513577077,0.21083119818,-3.156882099159514,-0.41974732727943304,0.5551305969617117,0.8771576351410796,,-0.0396756972209611,-0.08834420341282298,0.07698115776,-0.046119083333121515,,5.5462122e-05,3.7550926e-06,-4.053116e-06,0.99999994,-3.116578e-05,-2.6028603e-05,3.116578e-05,0.99999994,-2.3245811e-06,2.603978e-05,2.3245811e-06,1.0,140,0.432,1,1,0.407,False,-0.2621419889274632,1.0519772775984795
0.4594500069943024,15:55:21.934620,15:55:06.085771,0,,0.111568406,0.005942151,0.024764434,0.9488855,0.20648003,-0.23870948,0.26877773,-0.13216004,0.95409226,0.16545314,-0.9694841,-0.18090212,,0.0638148,-0.009113774,0.010237336,-0.37750196,0.47691503,0.79375315,0.89001805,-0.049787253,0.45319867,0.2556559,0.8775382,-0.40566838,,0.10792179,1.3465582,0.44453314,0.9966452,-0.008104554,-0.08144127,-0.058330137,-0.76835674,-0.63735825,-0.05741044,0.6399705,-0.7662518,,-0.07586277,0.26846886,-0.08298201,-0.9548425,-0.1555939,0.25311315,0.28081864,-0.75085753,0.59779084,0.0970393,0.641875,0.7606444,,-0.005221299,0.44114435,-0.30675,0.30222407,-0.5662523,-0.76682395,0.867592,0.4966574,-0.024811728,0.39489847,-0.65779155,0.64137775,,1.2763978439860786,0.18616419866605602,0.18019079145000003,3.8972972896033697,-0.21766194412634665,-0.8990370744642109,-0.4197942499650976,,-0.9106106013984346,-0.2164064206015192,0.21082990189000003,-3.156882099159514,-0.41974732727943304,0.5551305969617117,0.8771576351410796,,-0.0396756972209611,-0.08834420341282298,0.07698115776,-0.046119083333121515,,0.000101869926,1.013279e-06,-3.695488e-06,1.0,-8.4314495e-05,-7.041916e-05,8.4314495e-05,0.99999994,-6.3180923e-06,7.042289e-05,6.3180923e-06,1.0,153,0.473,1,1,0.448,False,-0.2621419889274632,1.0520738380000385
0.48324539499299135,15:55:21.979263,15:55:06.085771,0,,0.11153287,0.006052822,0.02480638,0.9446832,0.22630385,-0.23740312,0.27145684,-0.13323644,0.95318365,0.18407837,-0.9649012,-0.18729797,,0.06380574,-0.009120986,0.010245144,-0.37748507,0.47692886,0.79375285,0.8900316,-0.049766093,0.45317447,0.25563386,0.8775318,-0.40569597,,0.10792179,1.3465582,0.44453314,0.9966452,-0.008104554,-0.08144127,-0.058330137,-0.76835674,-0.63735825,-0.05741044,0.6399705,-0.7662518,,-0.0758289,0.26858038,-0.08294092,-0.95161736,-0.17563803,0.25214222,0.2953555,-0.749226,0.59281164,0.084791236,0.6386014,0.76485205,,-0.0052127917,0.44114527,-0.30676103,0.302209,-0.5662664,-0.7668195,0.8675853,0.4966672,-0.024847955,0.39492464,-0.657772,0.64138174,,1.277340017396734,0.18598657580994887,0.18023745789,3.8845062030508135,-0.23337514159937228,-0.8890827714440421,-0.4206109702957689,,-0.910587433199812,-0.2164373115330161,0.21081823528000002,-3.156882099159514,-0.41974732727943304,0.5551305969617117,0.8771576351410796,,-0.0396756972209611,-0.08834420341282298,0.07698115776,-0.046119083333121515,,0.000101869926,1.013279e-06,-3.695488e-06,1.0,-8.4314495e-05,-7.041916e-05,8.4314495e-05,0.99999994,-6.3180923e-06,7.042289e-05,6.3180923e-06,1.0,161,0.498,1,1,0.473,False,-0.260652545964438,1.0522186786023768
0.5278841310064308,15:55:22.008840,15:55:06.235165,0,,0.11142531,0.0060711056,0.024796262,0.94288397,0.23017678,-0.24080774,0.27522653,-0.13102677,0.9524086,0.18767002,-0.96428746,-0.18689394,,0.0637811,-0.009124026,0.010255456,-0.37747267,0.477059,0.79368055,0.89003414,-0.049707174,0.45317584,0.25564304,0.8774645,-0.40583587,,0.10792179,1.3465582,0.44453314,0.9966452,-0.008104554,-0.08144127,-0.058330137,-0.76835674,-0.63735825,-0.05741044,0.6399705,-0.7662518,,-0.075720854,0.26859063,-0.08292582,-0.9499904,-0.17952599,0.25551644,0.3006134,-0.74729186,0.5926099,0.08455648,0.63978535,0.763888,,-0.005189293,0.44115263,-0.30677184,0.30219558,-0.5663912,-0.7667326,0.867592,0.49665126,-0.024932362,0.39492017,-0.6576766,0.64148235,,1.2779192223623008,0.18565449829635722,0.18027764288,3.8788445745767315,-0.23528805259608845,-0.88866642315426,-0.4191408737005605,,-0.9105102058710697,-0.2164373115330161,0.21079619835000002,-3.156882099159514,-0.41974732727943304,0.5550489182215712,0.8769942910749453,,-0.0396756972209611,-0.08834420341282298,0.07698115776,-0.046119083333121515,,0.000101869926,1.013279e-06,-3.695488e-06,1.0,-8.4314495e-05,-7.041916e-05,8.4314495e-05,0.99999994,-6.3180923e-06,7.042289e-05,6.3180923e-06,1.0,178,0.551,1,1,0.526,False,-0.261427056305211,1.0520738380000385
0.5574436349997995,15:55:22.054844,15:55:06.235165,0,,0.11131796,0.0061033666,0.024792805,0.93859804,0.24624147,-0.24165818,0.28008652,-0.13483816,0.9504578,0.20145732,-0.959783,-0.19552791,,0.06375905,-0.009133503,0.010261059,-0.37744588,0.47699538,0.7937315,0.8900497,-0.04974249,0.45314133,0.25562838,0.8774971,-0.40577465,,0.10792179,1.3465582,0.44453314,0.9966452,-0.008104554,-0.08144127,-0.058330137,-0.76835674,-0.63735825,-0.05741044,0.6399705,-0.7662518,,-0.07561331,0.26861572,-0.08290636,-0.94641393,-0.19582695,0.25681207,0.3135544,-0.74763274,0.5854305,0.07735805,0.6345841,0.7689725,,-0.005167536,0.44115183,-0.30678338,0.30216977,-0.56632984,-0.76678807,0.8675907,0.49665403,-0.024922527,0.39494276,-0.65772736,0.6414163,,1.2787764457113397,0.18501351146779657,0.18033597593000003,3.866472867911144,-0.2459456995777928,-0.8771987495011602,-0.4186508415021576,,-0.9104252558094532,-0.216468202464513,0.21077934658000003,-3.156882099159514,-0.41974732727943304,0.5552122757018523,0.8769942910749453,,-0.0396756972209611,-0.08834420341282298,0.07698115776,-0.046119083333121515,,0.000101869926,1.013279e-06,-3.695488e-06,1.0,-8.4314495e-05,-7.041916e-05,8.4314495e-05,0.99999994,-6.3180923e-06,7.042289e-05,6.3180923e-06,1.0,199,0.617,1,1,0.592,False,-0.2616653671792948,1.0516393161930233
0.603442363004433,15:55:22.117952,15:55:06.235165,0,,0.11114916,0.006114885,0.02477111,0.93460155,0.25988156,-0.24286103,0.2843086,-0.13549855,0.9491093,0.21374866,-0.9560865,-0.2005238,,0.06375055,-0.009139389,0.010264635,-0.37743104,0.47701713,0.7937255,0.8900603,-0.04972282,0.4531227,0.25561342,0.87748635,-0.4058073,,0.10792179,1.3465582,0.44453314,0.9966452,-0.008104554,-0.08144127,-0.058330137,-0.76835674,-0.63735825,-0.05741044,0.6399705,-0.7662518,,-0.075443536,0.26861513,-0.08288981,-0.9430507,-0.20964696,0.25827032,0.32501438,-0.74608845,0.5811348,0.07085937,0.63198113,0.7717375,,-0.005159197,0.44115084,-0.30679038,0.30215612,-0.5663513,-0.76677763,0.8675869,0.49665895,-0.02495737,0.3949616,-0.6577052,0.6414275,,1.2798421828479827,0.18410995172151232,0.18041245704000003,3.8553593009064646,-0.2559201640606699,-0.8696369937123054,-0.41946756183282896,,-0.9103943648779563,-0.21649137066313567,0.21077156884000003,-3.156882099159514,-0.41974732727943304,0.5552122757018523,0.8769942910749453,,-0.0396756972209611,-0.08834420341282298,0.07698115776,-0.046119083333121515,,0.000101869926,1.013279e-06,-3.695488e-06,1.0,-8.4314495e-05,-7.041916e-05,8.4314495e-05,0.99999994,-6.3180923e-06,7.042289e-05,6.3180923e-06,1.0,220,0.682,1,1,0.657,False,-0.26202283349042155,1.0525566400078332
0.6665729509986704,15:55:22.183968,15:55:06.399948,0,,0.110985234,0.0061599314,0.024756223,0.9290886,0.27514145,-0.24716675,0.2918445,-0.13485602,0.946911,0.22720252,-0.95189846,-0.2055918,,0.063748986,-0.009142518,0.010268152,-0.37742442,0.4770143,0.7937303,0.89006674,-0.04971555,0.453111,0.25560105,0.87748826,-0.40581086,,0.10792179,1.3465582,0.44453314,0.9966452,-0.008104554,-0.08144127,-0.058330137,-0.76835674,-0.63735825,-0.05741044,0.6399705,-0.7662518,,-0.075278796,0.2686439,-0.082855746,-0.9382168,-0.2251034,0.26282626,0.33976528,-0.74329656,0.57625496,0.06564091,0.6299513,0.7738557,,-0.0051578623,0.44115105,-0.30679515,0.30215058,-0.566349,-0.76678145,0.86758256,0.49666592,-0.024968907,0.39497533,-0.65770185,0.64142245,,1.280884751786003,0.1833840148313352,0.1804954196,3.840261624975579,-0.2650748095449545,-0.8615185642435205,-0.4191408737005604,,-0.9103943648779563,-0.21650681612888412,0.21076767997,-3.156882099159514,-0.41974732727943304,0.5552122757018523,0.8769942910749453,,-0.0396756972209611,-0.08834420341282298,0.07698115776,-0.046119083333121515,,0.000101869926,1.013279e-06,-3.695488e-06,1.0,-8.4314495e-05,-7.041916e-05,8.4314495e-05,0.99999994,-6.3180923e-06,7.042289e-05,6.3180923e-06,1.0,241,0.748,1,1,0.723,False,-0.26101001227556386,1.0518807171969207
0.7325730779994046,15:55:22.247404,15:55:06.399948,0,,0.11078264,0.006242901,0.02478616,0.9217361,0.29328486,-0.25374454,0.30199254,-0.13229752,0.9440856,0.24331626,-0.9468268,-0.21051338,,0.06374518,-0.009144396,0.010271788,-0.37741986,0.47695452,0.79376847,0.8900701,-0.04974675,0.4531008,0.25559577,0.877519,-0.40574777,,0.10792179,1.3465582,0.44453314,0.9966452,-0.008104554,-0.08144127,-0.058330137,-0.76835674,-0.63735825,-0.05741044,0.6399705,-0.7662518,,-0.07507764,0.26873198,-0.08283139,-0.93167263,-0.24347569,0.26963988,0.3582921,-0.7385787,0.57107645,0.060107015,0.62866616,0.77534896,,-0.0051543834,0.4411525,-0.3067993,0.30214646,-0.56629145,-0.7668256,0.86758107,0.49667007,-0.024938492,0.39498177,-0.6577483,0.6413709,,1.2822671209704892,0.18272758253702612,0.18056541926000003,3.820760460231518,-0.27532254702736253,-0.852590470285305,-0.42093765842803765,,-0.9103866421450821,-0.21651453886175837,0.21076249481000003,-3.156882099159514,-0.41974732727943304,0.5552939544419928,0.8774843232733481,,-0.0396756972209611,-0.08834420341282298,0.07698115776,-0.046119083333121515,,0.000101869926,1.013279e-06,-3.695488e-06,1.0,-8.4314495e-05,-7.041916e-05,8.4314495e-05,0.99999994,-6.3180923e-06,7.042289e-05,6.3180923e-06,1.0,249,0.772,1,1,0.747,False,-0.26059296824591627,1.0523635192047154
0.7960295579978265,15:55:22.276741,15:55:06.399948,0,,0.11070077,0.0062924325,0.02480933,0.91830915,0.30372736,-0.25388557,0.3046547,-0.13271654,0.943171,0.25277197,-0.94347,-0.21440691,,0.06373825,-0.0091471225,0.010271907,-0.3774116,0.47697926,0.7937575,0.8900744,-0.049734294,0.45309386,0.25559327,0.87750626,-0.40577683,,0.10792179,1.3465582,0.44453314,0.9966452,-0.008104554,-0.08144127,-0.058330137,-0.76835674,-0.63735825,-0.05741044,0.6399705,-0.7662518,,-0.07499684,0.26878688,-0.082819134,-0.9287365,-0.2540833,0.26998186,0.36668277,-0.73698086,0.56780535,0.0547016,0.62633926,0.777629,,-0.00514738,0.44115135,-0.30680153,0.30213833,-0.56631523,-0.76681125,0.8675816,0.496668,-0.024961798,0.39498687,-0.6577294,0.6413871,,1.2829776123949177,0.18241867322205715,0.1805991228,3.812372862492137,-0.2828375545144617,-0.8462174493615803,-0.4201209380973663,,-0.9103557512135853,-0.2165222615946326,0.21075860594,-3.156882099159514,-0.41974732727943304,0.5552939544419928,0.8778110114056167,,-0.0396756972209611,-0.08834420341282298,0.07698115776,-0.046119083333121515,,0.000101869926,1.013279e-06,-3.695488e-06,1.0,-8.4314495e-05,-7.041916e-05,8.4314495e-05,0.99999994,-6.3180923e-06,7.042289e-05,6.3180923e-06,1.0,262,0.813,1,1,0.788,False,-0.261427056305211,1.052122118200818
0.825358875998063,15:55:22.317034,15:55:06.399948,0,,0.11059885,0.0063529015,0.024856478,0.9133976,0.31768292,-0.2545236,0.30859372,-0.13262379,0.94190264,0.2654705,-0.93887603,-0.2191734,,0.06372993,-0.009149879,0.010274172,-0.37740338,0.4770039,0.79374665,0.89007854,-0.049721926,0.4530869,0.25559068,0.8774936,-0.4058059,,0.10792179,1.3465582,0.44453314,0.9966452,-0.008104554,-0.08144127,-0.058330137,-0.76835674,-0.63735825,-0.05741044,0.6399705,-0.7662518,,-0.07489722,0.26886654,-0.08281825,-0.92448264,-0.26826176,0.27086434,0.37823173,-0.7342873,0.56370455,0.047671877,0.62358457,0.78030103,,-0.0051392214,0.44115177,-0.30680543,0.30213022,-0.56633896,-0.76679695,0.8675821,0.49666592,-0.024985101,0.39499193,-0.65771055,0.6414033,,1.2838888948740763,0.1820248138454717,0.18062634489,3.8006302256570037,-0.29267538249757347,-0.8380320028151567,-0.4194675618328291,,-0.9103248602820883,-0.2165299843275068,0.21075212449000003,-3.156882099159514,-0.41974732727943304,0.5552939544419928,0.8778110114056167,,-0.0396756972209611,-0.08834420341282298,0.07698115776,-0.046119083333121515,,0.000101869926,1.013279e-06,-3.695488e-06,1.0,-8.4314495e-05,-7.041916e-05,8.4314495e-05,0.99999994,-6.3180923e-06,7.042289e-05,6.3180923e-06,1.0,283,0.879,1,1,0.854,False,-0.26112916771260597,1.0522186786023768
0.8655876050033839,15:55:22.376119,15:55:06.574931,0,,0.11049844,0.0064427853,0.024942636,0.90548,0.33834487,-0.25618076,0.31496742,-0.1311948,0.9399911,0.28443155,-0.9318317,-0.22536206,,0.06371779,-0.009154528,0.010280132,-0.37739056,0.47696882,0.7937738,0.89008623,-0.049740672,0.4530698,0.25558296,0.8775116,-0.40577185,,0.10792179,1.3465582,0.44453314,0.9966452,-0.008104554,-0.08144127,-0.058330137,-0.76835674,-0.63735825,-0.05741044,0.6399705,-0.7662518,,-0.07480104,0.26899403,-0.08282671,-0.91754526,-0.28925952,0.27283633,0.39586124,-0.7291754,0.5582088,0.037478305,0.6201872,0.7835581,,-0.005127585,0.44115365,-0.3068135,0.30211797,-0.56630516,-0.76682675,0.8675811,0.496668,-0.02497799,0.39500347,-0.6577381,0.641368,,1.2849700774764676,0.18160778627026358,0.18064319666,3.7823872005738504,-0.3067489419734138,-0.8266376374745659,-0.42012093809736617,,-0.9102862466177172,-0.21654542979325525,0.21074045788,-3.156882099159514,-0.41974732727943304,0.5553756331821333,0.8776476673394824,,-0.0396756972209611,-0.08834420341282298,0.07698115776,-0.046119083333121515,,0.000101869926,1.013279e-06,-3.695488e-06,1.0,-8.4314495e-05,-7.041916e-05,8.4314495e-05,0.99999994,-6.3180923e-06,7.042289e-05,6.3180923e-06,1.0,291,0.903,1,1,0.878,False,-0.26148663402373185,1.0521703984015973
0.9247076080064289,15:55:22.408887,15:55:06.574931,0,,0.110450864,0.0065454394,0.025039196,0.89632505,0.36048368,-0.2581723,0.32198662,-0.1288729,0.9379319,0.30483767,-0.9238198,-0.23158303,,0.06370534,-0.009159893,0.010278106,-0.37737408,0.47714776,0.793674,0.89009464,-0.049641818,0.45306408,0.25557786,0.8774198,-0.40597335,,0.10792179,1.3465582,0.44453314,0.9966452,-0.008104554,-0.08144127,-0.058330137,-0.76835674,-0.63735825,-0.05741044,0.6399705,-0.7662518,,-0.074758075,0.26913637,-0.0828321,-0.9094451,-0.31177843,0.27514318,0.4149731,-0.72279966,0.55259204,0.026587114,0.61672914,0.7867263,,-0.0051147337,0.44114974,-0.30681625,0.30210173,-0.56647784,-0.7667055,0.86758214,0.4966598,-0.025105732,0.39501363,-0.6575955,0.64150786,,1.2857964098940098,0.1813606588182884,0.18064967811000002,3.7622569659993363,-0.32136904744831596,-0.8146342430389082,-0.41979424996509773,,-0.9102244647547234,-0.2165608752590037,0.21073527272000003,-3.156882099159514,-0.41974732727943304,0.5552122757018523,0.8773209792072139,,-0.0396756972209611,-0.08834420341282298,0.07698115776,-0.046119083333121515,,0.000101869926,1.013279e-06,-3.695488e-06,1.0,-8.4314495e-05,-7.041916e-05,8.4314495e-05,0.99999994,-6.3180923e-06,7.042289e-05,6.3180923e-06,1.0,304,0.944,1,1,0.919,False,-0.26148663402373185,1.0516393161930233
0.9575111339945579,15:55:22.446160,15:55:06.574931,0,,0.110460445,0.0066366494,0.025122225,0.889469,0.37800175,-0.25682583,0.32399634,-0.12526897,0.9377281,0.32229048,-0.9172907,-0.23389411,,0.06369388,-0.009163469,0.010276914,-0.37736213,0.47719207,0.7936531,0.89009964,-0.049622864,0.45305634,0.25557807,0.8773969,-0.40602288,,0.10792179,1.3465582,0.44453314,0.9966452,-0.008104554,-0.08144127,-0.058330137,-0.76835674,-0.63735825,-0.05741044,0.6399705,-0.7662518,,-0.074771546,0.26925933,-0.08283261,-0.90351164,-0.3295977,0.27391982,0.42831308,-0.71631217,0.55085826,0.014650492,0.6150303,0.7883674,,-0.0051030517,0.44114754,-0.30681828,0.3020896,-0.5665203,-0.766679,0.86758465,0.49665353,-0.025142187,0.3950174,-0.65756375,0.64153814,,1.2863370011952056,0.18125254055804924,0.18065356698,3.748627119672842,-0.3357158799236872,-0.8072643363782338,-0.43596531251239123,,-0.9101704056246038,-0.21656859799187791,0.21073008756000003,-3.156882099159514,-0.41974732727943304,0.5552122757018523,0.8773209792072139,,-0.0396756972209611,-0.08834420341282298,0.07698115776,-0.046119083333121515,,0.000101869926,1.013279e-06,-3.695488e-06,1.0,-8.4314495e-05,-7.041916e-05,8.4314495e-05,0.99999994,-6.3180923e-06,7.042289e-05,6.3180923e-06,1.0,312,0.969,0,1,0.938,False,-0.2613079008681689,1.0523152390039359
0.994783518006443,15:55:22.473756,15:55:06.574931,0,,0.11052936,0.006746426,0.025235087,0.8814837,0.39811295,-0.253954,0.3218674,-0.11303529,0.94001293,0.34552547,-0.91034544,-0.22777846,,0.06368074,-0.009168908,0.01027602,-0.37734562,0.47724134,0.7936313,0.8901081,-0.04959801,0.45304248,0.255573,0.87737143,-0.406081,,0.10792179,1.3465582,0.44453314,0.9966452,-0.008104554,-0.08144127,-0.058330137,-0.76835674,-0.63735825,-0.05741044,0.6399705,-0.7662518,,-0.07484575,0.26941416,-0.082840376,-0.8967788,-0.34998173,0.27074075,0.44245726,-0.7031989,0.5565455,-0.0043961406,0.6188894,0.78546584,,-0.005089624,0.4411444,-0.30682188,0.30207333,-0.5665677,-0.7666503,0.86758566,0.49664938,-0.025188792,0.39502758,-0.65752596,0.64157057,,1.2868544242977784,0.1811444222978101,0.18065097440000003,3.734787583402863,-0.3571678103868613,-0.8070059396675543,-0.4227344431555148,,-0.9101086237616101,-0.21658404345762639,0.21072360611000002,-3.156882099159514,-0.41974732727943304,0.5552122757018523,0.8773209792072139,,-0.0396756972209611,-0.08834420341282298,0.07698115776,-0.046119083333121515,,0.000101869926,1.013279e-06,-3.695488e-06,1.0,-8.4314495e-05,-7.041916e-05,8.4314495e-05,0.99999994,-6.3180923e-06,7.042289e-05,6.3180923e-06,1.0,325,1.01,0,1,0.938,False,-0.26053339052739544,1.0525083598070537
1.022377340006642,15:55:22.515211,15:55:06.717844,0,,0.11049302,0.0068544447,0.025364563,0.8685858,0.42149058,-0.26058468,0.3331697,-0.107453376,0.93672377,0.36681953,-0.90044385,-0.2337605,,0.063665435,-0.009177685,0.010276675,-0.37732133,0.47722957,0.79365003,0.89012325,-0.04960072,0.4530126,0.2555565,0.87737775,-0.4060778,,0.10792179,1.3465582,0.44453314,0.9966452,-0.008104554,-0.08144127,-0.058330137,-0.76835674,-0.63735825,-0.05741044,0.6399705,-0.7662518,,-0.07481573,0.26958203,-0.0828662,-0.884965,-0.37382007,0.2776608,0.46546894,-0.693174,0.55031663,-0.013252172,0.61625344,0.78743637,,-0.0050740726,0.4411401,-0.30682907,0.30205023,-0.5665565,-0.7666677,0.86758304,0.4966529,-0.025210755,0.39505106,-0.657533,0.64154893,,1.2874645201948423,0.18099769037319982,0.18062893747000003,3.708366650523813,-0.36987500486504726,-0.7941937124195703,-0.4286148295363488,,-0.910039119165742,-0.21661493438912327,0.21071453208000002,-3.156882099159514,-0.41974732727943304,0.5552939544419928,0.8774843232733481,,-0.0396756972209611,-0.08834420341282298,0.07698115776,-0.046119083333121515,,0.000101869926,1.013279e-06,-3.695488e-06,1.0,-8.4314495e-05,-7.041916e-05,8.4314495e-05,0.99999994,-6.3180923e-06,7.042289e-05,6.3180923e-06,1.0,334,1.039,0,1,0.938,False,-0.261427056305211,1.0523635192047154
1.063835826003924,15:55:22.546579,15:55:06.717844,0,,0.11052212,0.0069241673,0.025516212,0.86088574,0.4404382,-0.2547346,0.33282518,-0.10879317,0.93669164,0.38484138,-0.8911667,-0.24024758,,0.063650265,-0.0091867745,0.01027441,-0.37729576,0.4772242,0.79366535,0.8901385,-0.049601227,0.45298237,0.25554082,0.8773806,-0.40608147,,0.10792179,1.3465582,0.44453314,0.9966452,-0.008104554,-0.08144127,-0.058330137,-0.76835674,-0.63735825,-0.05741044,0.6399705,-0.7662518,,-0.07485244,0.2697341,-0.08293125,-0.8782316,-0.39323914,0.27216217,0.47746038,-0.6885837,0.54578763,-0.027218625,0.6092746,0.79249203,,-0.005058309,0.44113356,-0.3068342,0.30202577,-0.5665515,-0.766681,0.86758107,0.49665502,-0.025237098,0.3950741,-0.6575357,0.64153194,,1.2879896660302894,0.18087412664721225,0.18057060442000003,3.6953658740277726,-0.3858614753376038,-0.7807494239863861,-0.42877817360248305,,-0.9099618918369997,-0.21664582532062018,0.21070805063000003,-3.156882099159514,-0.41974732727943304,0.5553756331821333,0.8776476673394824,,-0.0396756972209611,-0.08834420341282298,0.07698115776,-0.046119083333121515,,0.000101869926,1.013279e-06,-3.695488e-06,1.0,-8.4314495e-05,-7.041916e-05,8.4314495e-05,0.99999994,-6.3180923e-06,7.042289e-05,6.3180923e-06,1.0,347,1.08,0,1,0.938,False,-0.26095043455704303,1.0520738380000385
1.0951910169969779,15:55:22.582985,15:55:06.717844,0,,0.110534325,0.006989643,0.025807738,0.84811306,0.46494624,-0.25402606,0.33693948,-0.10331264,0.93584085,0.40887153,-0.87929016,-0.24427971,,0.06362754,-0.009198695,0.010271788,-0.37741977,0.4773147,0.79355186,0.8901204,-0.04936883,0.45304346,0.25542098,0.8773444,-0.40623504,,0.10792179,1.3465582,0.44453314,0.9966452,-0.008104554,-0.08144127,-0.058330137,-0.76835674,-0.63735825,-0.05741044,0.6399705,-0.7662518,,-0.07487968,0.26997676,-0.0831039,-0.8667264,-0.41831133,0.2716634,0.49693567,-0.67735386,0.5424451,-0.04289869,0.6051507,0.7949543,,-0.0050348556,0.44112554,-0.30684137,0.3021628,-0.5666492,-0.76655483,0.8675013,0.496792,-0.025282167,0.3951444,-0.657348,0.641681,,1.2887696620505862,0.18069650379110508,0.18040208672000002,3.6727193601314436,-0.4047173123052346,-0.7675790792600751,-0.42861482953634855,,-0.9098537735767606,-0.2166844389849913,0.21069768031000002,-3.1570917891029984,-0.41974732727943304,0.5553756331821333,0.8776476673394824,,-0.0396756972209611,-0.08834420341282298,0.07698115776,-0.046119083333121515,,0.000101869926,1.013279e-06,-3.695488e-06,1.0,-8.4314495e-05,-7.041916e-05,8.4314495e-05,0.99999994,-6.3180923e-06,7.042289e-05,6.3180923e-06,1.0,360,1.121,0,1,0.938,False,-0.26053339052739544,1.0521703984015973
1.131606484996155,15:55:22.625894,15:55:06.717844,0,,0.11058456,0.0070726424,0.026244879,0.8335687,0.49340692,-0.24842069,0.33696765,-0.097807854,0.9364221,0.4377396,-0.8642818,-0.24779183,,0.06361613,-0.009206772,0.010273457,-0.3772401,0.47728345,0.7936562,0.8901726,-0.049559474,0.45292,0.25550425,0.87735075,-0.40616906,,0.10792179,1.3465582,0.44453314,0.9966452,-0.008104554,-0.08144127,-0.058330137,-0.76835674,-0.63735825,-0.05741044,0.6399705,-0.7662518,,-0.074952535,0.27032828,-0.083371565,-0.8537303,-0.4474962,0.266255,0.51664525,-0.66414285,0.54036283,-0.06497896,0.5988835,0.79819566,,-0.005023307,0.44112197,-0.3068486,0.30197278,-0.5666092,-0.76665926,0.8675756,0.49665928,-0.0253405,0.3951266,-0.65748274,0.64155394,,1.289796785522858,0.18067333559248241,0.18013116211000002,3.6492340864611776,-0.42985842826207565,-0.7516521944278051,-0.42926820580088576,,-0.909799714446641,-0.2167153299164882,0.21068990257000003,-3.156882099159514,-0.41974732727943304,0.555457311922274,0.8774843232733481,,-0.0396756972209611,-0.08834420341282298,0.07698115776,-0.046119083333121515,,0.000101869926,1.013279e-06,-3.695488e-06,1.0,-8.4314495e-05,-7.041916e-05,8.4314495e-05,0.99999994,-6.3180923e-06,7.042289e-05,6.3180923e-06,1.0,369,1.149,0,1,0.938,False,-0.2616653671792948,1.0521703984015973
1.1745141400024295,15:55:22.660886,15:55:06.892602,0,,0.110599905,0.0071855634,0.026651576,0.81791824,0.5198308,-0.24654755,0.33678168,-0.08515519,0.9377241,0.46646303,-0.8500142,-0.24471956,,0.063602984,-0.009212196,0.010272622,-0.37690678,0.4773264,0.79378873,0.8902565,-0.04989949,0.45271757,0.2557036,0.87730813,-0.40613562,,0.10792179,1.3465582,0.44453314,0.9966452,-0.008104554,-0.08144127,-0.058330137,-0.76835674,-0.63735825,-0.05741044,0.6399705,-0.7662518,,-0.07498878,0.2706829,-0.083598085,-0.83962315,-0.47456926,0.26422897,0.5361335,-0.6460362,0.5433213,-0.0871421,0.59784716,0.7968595,,-0.0050098924,0.44111887,-0.3068522,0.30161598,-0.56663007,-0.7667843,0.8677337,0.49637577,-0.025481852,0.39505193,-0.65767884,0.64139885,,1.2909165817896207,0.18063472192811128,0.1799120891,3.624700363073488,-0.4549995442189167,-0.7421779300666393,-0.42943154986702003,,-0.909730209850773,-0.21673077538223665,0.21068342112000002,-3.1564627192725454,-0.41974732727943304,0.555457311922274,0.8774843232733481,,-0.0396756972209611,-0.08834420341282298,0.07698115776,-0.046119083333121515,,0.000101869926,1.013279e-06,-3.695488e-06,1.0,-8.4314495e-05,-7.041916e-05,8.4314495e-05,0.99999994,-6.3180923e-06,7.042289e-05,6.3180923e-06,1.0,382,1.19,0,1,0.938,False,-0.26106958999408425,1.052122118200818
1.2094921719981357,15:55:22.695966,15:55:06.892602,0,,0.11055127,0.0072630644,0.026932657,0.8070832,0.53618467,-0.24722993,0.33919397,-0.07831612,0.93745077,0.48328456,-0.84045964,-0.2450783,,0.06358879,-0.009216696,0.010270119,-0.37694678,0.47732097,0.79377294,0.8902091,-0.049987078,0.45280123,0.25580975,0.8773061,-0.40607318,,0.10792179,1.3465582,0.44453314,0.9966452,-0.008104554,-0.08144127,-0.058330137,-0.76835674,-0.63735825,-0.05741044,0.6399705,-0.7662518,,-0.074954666,0.27092943,-0.083757564,-0.82968074,-0.49136856,0.2649279,0.5494772,-0.6350862,0.54289997,-0.09851193,0.5960055,0.7969146,,-0.004995302,0.44111544,-0.3068541,0.30164656,-0.56662005,-0.76677966,0.86777407,0.49631053,-0.0253768,0.39493984,-0.6577367,0.64140856,,1.2918510324674017,0.1806038309966144,0.17975912688,3.606876717877303,-0.46838992119592987,-0.7336276589684665,-0.42926820580088587,,-0.9096607052549049,-0.2167462208479851,0.21067823596000002,-3.1564627192725454,-0.4198839637791985,0.5555687298259704,0.8774843232733481,,-0.0396756972209611,-0.08834420341282298,0.07698115776,-0.046119083333121515,,0.000101869926,1.013279e-06,-3.695488e-06,1.0,-8.4314495e-05,-7.041916e-05,8.4314495e-05,0.99999994,-6.3180923e-06,7.042289e-05,6.3180923e-06,1.0,395,1.231,0,1,0.938,False,-0.26196325577190027,1.0516875963938028
1.2445826850016601,15:55:22.730310,15:55:06.892602,0,,0.11047232,0.0073489845,0.027261466,0.79651755,0.5528078,-0.24487394,0.34047616,-0.07542163,0.9372232,0.4996355,-0.82988846,-0.24829262,,0.06356925,-0.0092279315,0.010269582,-0.37691543,0.47739205,0.7937451,0.89022815,-0.049942583,0.4527687,0.2557898,0.8772699,-0.40616387,,0.10792179,1.3465582,0.44453314,0.9966452,-0.008104554,-0.08144127,-0.058330137,-0.76835674,-0.63735825,-0.05741044,0.6399705,-0.7662518,,-0.074892774,0.271215,-0.08394824,-0.8199885,-0.50851196,0.26274413,0.561657,-0.6264062,0.5405152,-0.11027388,0.5907883,0.7992552,,-0.004975275,0.44110897,-0.30686218,0.30161667,-0.56668895,-0.7667405,0.86777127,0.4963113,-0.02545824,0.3949689,-0.65767676,0.64145213,,1.293063501528655,0.18061155372948862,0.17957634999000002,3.5898918324550566,-0.48205357117247394,-0.7210156512762942,-0.42926820580088576,,-0.9095680324604143,-0.21678483451235622,0.21066786564,-3.1564627192725454,-0.4198839637791985,0.5555687298259704,0.8774843232733481,,-0.0396756972209611,-0.08834420341282298,0.07698115776,-0.046119083333121515,,0.000101869926,1.013279e-06,-3.695488e-06,1.0,-8.4314495e-05,-7.041916e-05,8.4314495e-05,0.99999994,-6.3180923e-06,7.042289e-05,6.3180923e-06,1.0,408,1.272,0,1,0.938,False,-0.26249945523859,1.0525083598070537
1.2788987380045,15:55:22.770668,15:55:06.892602,0,,0.11040373,0.0074533373,0.027491331,0.786498,0.567443,-0.24378103,0.34185696,-0.07125959,0.9370463,0.5143485,-0.82032335,-0.25003004,,0.06353962,-0.0092460215,0.01026392,-0.3768643,0.47744617,0.7937368,0.8902588,-0.04990655,0.45271242,0.2557584,0.8772425,-0.40624285,,0.10792179,1.3465582,0.44453314,0.9966452,-0.008104554,-0.08144127,-0.058330137,-0.76835674,-0.63735825,-0.05741044,0.6399705,-0.7662518,,-0.07483588,0.27144805,-0.08405257,-0.81075436,-0.5236101,0.26174375,0.5728019,-0.61739,0.5391916,-0.12072819,0.5870793,0.8004765,,-0.004944331,0.44109514,-0.3068716,0.30156776,-0.5667415,-0.7667209,0.8677673,0.49631354,-0.02555151,0.39501506,-0.6576297,0.6414719,,1.2940133976721846,0.18065016739385972,0.17948172082000002,3.5739553967502333,-0.49407758315183264,-0.7108024820503063,-0.43008492613155713,,-0.9094135778029299,-0.21684661637535002,0.21065619903000002,-3.1564627192725454,-0.4198839637791985,0.5556504085661109,0.8776476673394824,,-0.0396756972209611,-0.08834420341282298,0.07698115776,-0.046119083333121515,,0.000101869926,1.013279e-06,-3.695488e-06,1.0,-8.4314495e-05,-7.041916e-05,8.4314495e-05,0.99999994,-6.3180923e-06,7.042289e-05,6.3180923e-06,1.0,417,1.301,0,1,0.938,False,-0.26202283349042155,1.0516393161930233
1.3192533700057538,15:55:22.803120,15:55:06.892602,0,,0.11039762,0.0075241774,0.027601898,0.7813727,0.57543594,-0.24151626,0.34128892,-0.07001528,0.93734705,0.52247334,-0.81484425,-0.25109807,,0.063514814,-0.009261489,0.010261476,-0.37682143,0.47734603,0.7938174,0.89028525,-0.049956918,0.45265487,0.25572956,0.8772941,-0.40614945,,0.10792179,1.3465582,0.44453314,0.9966452,-0.008104554,-0.08144127,-0.058330137,-0.76835674,-0.63735825,-0.05741044,0.6399705,-0.7662518,,-0.07483525,0.27157468,-0.08408782,-0.8060694,-0.53187495,0.25954035,0.5779522,-0.6130623,0.5386333,-0.12737116,0.58417773,0.80156904,,-0.004918658,0.44108486,-0.30688134,0.301527,-0.56664515,-0.76680815,0.86776274,0.496322,-0.025540395,0.3950561,-0.6577064,0.64136803,,1.2943995343158958,0.18078145385272154,0.17944672099000003,3.5664065587847906,-0.501319317639401,-0.7047339756741149,-0.4297582379992888,,-0.9092900140769422,-0.21690067550546957,0.21064453242000003,-3.1564627192725454,-0.4198839637791985,0.5558954447865327,0.8774843232733481,,-0.0396756972209611,-0.08834420341282298,0.07698115776,-0.046119083333121515,,0.000101869926,1.013279e-06,-3.695488e-06,1.0,-8.4314495e-05,-7.041916e-05,8.4314495e-05,0.99999994,-6.3180923e-06,7.042289e-05,6.3180923e-06,1.0,430,1.342,0,1,0.938,False,-0.26196325577190027,1.0518807171969207
1.3517310339957476,15:55:22.849394,15:55:07.074820,0,,0.11040224,0.0076233447,0.027689725,0.7751469,0.58389974,-0.2412642,0.34315553,-0.06847879,0.9367789,0.53046346,-0.80893236,-0.2534496,,0.06349072,-0.009283364,0.010274529,-0.37676826,0.47733572,0.7938488,0.89032626,-0.049926072,0.45257756,0.25566506,0.8773015,-0.40617415,,0.10792179,1.3465582,0.44453314,0.9966452,-0.008104554,-0.08144127,-0.058330137,-0.76835674,-0.63735825,-0.05741044,0.6399705,-0.7662518,,-0.074843965,0.27170694,-0.08408681,-0.80026513,-0.5406313,0.25941,0.58486116,-0.60824335,0.53663534,-0.1323375,0.58116937,0.80295014,,-0.0048950543,0.44108015,-0.30690688,0.30147913,-0.5666373,-0.76683277,0.867744,0.49635077,-0.02561726,0.39513373,-0.6576915,0.6413355,,1.2946389390349968,0.18109036316769053,0.17943505438000001,3.556341441497533,-0.5067847776300186,-0.6975001823614788,-0.4297582379992886,,-0.9092050640153257,-0.21699334829996028,0.21061860662,-3.1564627192725454,-0.4198839637791985,0.5559771235266733,0.8769942910749453,,-0.0396756972209611,-0.08834420341282298,0.07698115776,-0.046119083333121515,,0.000101869926,1.013279e-06,-3.695488e-06,1.0,-8.4314495e-05,-7.041916e-05,8.4314495e-05,0.99999994,-6.3180923e-06,7.042289e-05,6.3180923e-06,1.0,443,1.383,0,1,0.938,False,-0.26243987752006825,1.0519289973977002
1.3980200579972006,15:55:22.882491,15:55:07.074820,0,,0.1104258,0.007684335,0.02771318,0.77139884,0.58874995,-0.2414895,0.34413874,-0.066756785,0.9365425,0.5352683,-0.8055537,-0.25410786,,0.06346087,-0.009310871,0.010288417,-0.37654236,0.47740546,0.7939141,0.89041543,-0.050022036,0.45239145,0.25568718,0.8772581,-0.4062539,,0.10792179,1.3465582,0.44453314,0.9966452,-0.008104554,-0.08144127,-0.058330137,-0.76835674,-0.63735825,-0.05741044,0.6399705,-0.7662518,,-0.074868396,0.27176726,-0.08406256,-0.79677135,-0.5456442,0.25966856,0.58891225,-0.6048609,0.53602767,-0.13541704,0.58001345,0.8032724,,-0.0048655416,0.4410724,-0.30693704,0.30124795,-0.56669694,-0.76687956,0.8677995,0.49624345,-0.025814759,0.3951881,-0.6577211,0.64127165,,1.2946157708363741,0.18129115422242037,0.17945060986000003,3.5504701230799665,-0.5100640536243892,-0.6941727227516403,-0.43008492613155724,,-0.9090892230222124,-0.21710918929307363,0.21059138453,-3.15625302932906,-0.4198839637791985,0.5559771235266733,0.8773209792072139,,-0.0396756972209611,-0.08834420341282298,0.07698115776,-0.046119083333121515,,0.000101869926,1.013279e-06,-3.695488e-06,1.0,-8.4314495e-05,-7.041916e-05,8.4314495e-05,0.99999994,-6.3180923e-06,7.042289e-05,6.3180923e-06,1.0,452,1.411,0,1,0.938,False,-0.2618441003348577,1.0516393161930233
1.431114061997505,15:55:22.918175,15:55:07.074820,0,,0.11044358,0.0077097416,0.027694553,0.7706063,0.59043753,-0.23989461,0.34346604,-0.067682475,0.936723,0.5368397,-0.8042403,-0.2549519,,0.06344409,-0.009334266,0.010289192,-0.37632674,0.4773287,0.79406244,0.89049745,-0.050205767,0.45220962,0.25571898,0.8772894,-0.40616637,,0.10792179,1.3465582,0.44453314,0.9966452,-0.008104554,-0.08144127,-0.058330137,-0.76835674,-0.63735825,-0.05741044,0.6399705,-0.7662518,,-0.074885026,0.27177322,-0.084030986,-0.7960667,-0.5474039,0.25812158,0.5894828,-0.6047283,0.53554994,-0.1370687,0.57849175,0.80408925,,-0.0048478013,0.4410576,-0.3069542,0.3010263,-0.56661487,-0.7670272,0.86785734,0.49613756,-0.025906535,0.39523005,-0.65787166,0.64109135,,1.294546266240506,0.18135293608541417,0.17948172082000002,3.549631363306028,-0.5117036916215745,-0.6921822779861587,-0.42877817360248305,,-0.9089965502277216,-0.21720958482043856,0.21058101421000003,-3.156043339385576,-0.4198839637791985,0.5561404810069543,0.8776476673394824,,-0.0396756972209611,-0.08834420341282298,0.07698115776,-0.046119083333121515,,0.000101869926,1.013279e-06,-3.695488e-06,1.0,-8.4314495e-05,-7.041916e-05,8.4314495e-05,0.99999994,-6.3180923e-06,7.042289e-05,6.3180923e-06,1.0,465,1.452,0,1,0.938,False,-0.26196325577190027,1.0517358765945823
1.4667752050008858,15:55:22.958736,15:55:07.074820,0,,0.1104265,0.007733315,0.027608126,0.7701292,0.59061444,-0.24098861,0.34505486,-0.06796822,0.93611825,0.53650534,-0.8040862,-0.2561388,,0.06343144,-0.009353995,0.010288119,-0.3761202,0.47737142,0.7941346,0.89057255,-0.05032721,0.4520482,0.25576136,0.87725925,-0.40620494,,0.10792179,1.3465582,0.44453314,0.9966452,-0.008104554,-0.08144127,-0.058330137,-0.76835674,-0.63735825,-0.05741044,0.6399705,-0.7662518,,-0.074863285,0.27173376,-0.08395174,-0.795564,-0.54759026,0.2592736,0.5904587,-0.6048441,0.53434277,-0.1357808,0.5781942,0.8045216,,-0.004834126,0.44104376,-0.30696732,0.3008129,-0.5666479,-0.76708657,0.86791813,0.49602327,-0.026059093,0.3952591,-0.6579294,0.64101416,,1.294438147980267,0.18131432242104303,0.17956597967000001,3.5483732236451213,-0.5104739631236854,-0.6913064280961936,-0.4299215820654231,,-0.9089193228989795,-0.21729453488205502,0.21057453276000002,-3.1558336494420915,-0.4198839637791985,0.5561404810069543,0.8776476673394824,,-0.0396756972209611,-0.08834420341282298,0.07698115776,-0.046119083333121515,,0.000101869926,1.013279e-06,-3.695488e-06,1.0,-8.4314495e-05,-7.041916e-05,8.4314495e-05,0.99999994,-6.3180923e-06,7.042289e-05,6.3180923e-06,1.0,478,1.493,0,1,0.938,False,-0.2620824112089424,1.0518807171969207
1.5073441779968562,15:55:22.998433,15:55:07.220946,0,,0.11039792,0.0077525675,0.027475744,0.76977885,0.5908075,-0.24163406,0.3456751,-0.06760979,0.93591535,0.5366089,-0.8039746,-0.25627217,,0.06341995,-0.009360924,0.010285199,-0.37610042,0.4774841,0.7940762,0.8905842,-0.050261825,0.45203257,0.25574997,0.8772016,-0.4063365,,0.10792179,1.3465582,0.44453314,0.9966452,-0.008104554,-0.08144127,-0.058330137,-0.76835674,-0.63735825,-0.05741044,0.6399705,-0.7662518,,-0.07482763,0.27166077,-0.08384164,-0.79521626,-0.54778695,0.25992408,0.59100074,-0.60450876,0.5341229,-0.1354592,0.57835853,0.8044577,,-0.0048220586,0.44103798,-0.30697036,0.3007939,-0.56675684,-0.7670135,0.8679169,0.4960205,-0.02615197,0.39527622,-0.6578376,0.6410978,,1.2943145842542794,0.18110580863343897,0.17969560867,3.5477441538146675,-0.5103373266239201,-0.6914178459998899,-0.4299215820654231,,-0.9088575410359856,-0.21731770308067772,0.21057064389000002,-3.1558336494420915,-0.4198839637791985,0.5560588022668138,0.8774843232733482,,-0.0396756972209611,-0.08834420341282298,0.07698115776,-0.046119083333121515,,0.000101869926,1.013279e-06,-3.695488e-06,1.0,-8.4314495e-05,-7.041916e-05,8.4314495e-05,0.99999994,-6.3180923e-06,7.042289e-05,6.3180923e-06,1.0,487,1.522,0,1,0.938,False,-0.26059296824591627,1.0518807171969207
1.5470593390055,15:55:23.022903,15:55:07.220946,0,,0.11037639,0.007731065,0.02736704,0.7683331,0.5918745,-0.24361618,0.34731758,-0.06583977,0.9354334,0.53761935,-0.8033365,-0.25615537,,0.06341627,-0.00936304,0.010285914,-0.37609464,0.4775606,0.79403293,0.8905879,-0.050216854,0.4520303,0.25574553,0.8771626,-0.40642354,,0.10792179,1.3465582,0.44453314,0.9966452,-0.008104554,-0.08144127,-0.058330137,-0.76835674,-0.63735825,-0.05741044,0.6399705,-0.7662518,,-0.07480049,0.271573,-0.08377606,-0.79381716,-0.54887664,0.26189458,0.59294295,-0.60279816,0.5339036,-0.13517763,0.5791104,0.8039641,,-0.0048183715,0.44103727,-0.30697247,0.30078846,-0.5668308,-0.766961,0.86791605,0.4960191,-0.026207017,0.39528224,-0.657775,0.64115834,,1.2940829022680527,0.18072739472260196,0.17978634897,3.5452278744928534,-0.5104739631236854,-0.6917148217968964,-0.42943154986702015,,-0.9088420955702372,-0.21732542581355194,0.21056805131000003,-3.1558336494420915,-0.4198839637791985,0.5559771235266733,0.8773209792072139,,-0.0396756972209611,-0.08834420341282298,0.07698115776,-0.046119083333121515,,0.000101869926,1.013279e-06,-3.695488e-06,1.0,-8.4314495e-05,-7.041916e-05,8.4314495e-05,0.99999994,-6.3180923e-06,7.042289e-05,6.3180923e-06,1.0,500,1.563,0,1,0.938,False,-0.25451604095677105,1.052025557799259
1.5715267269988544,15:55:23.066823,15:55:07.220946,0,,0.110473484,0.0074953586,0.027207732,0.7770308,0.5790368,-0.24685903,0.345748,-0.06489557,0.9360806,0.526005,-0.81271446,-0.25062665,,0.063328736,-0.009420335,0.010294557,-0.3760262,0.47751206,0.7940946,0.8906182,-0.050274342,0.4519643,0.25574097,0.8771856,-0.40637654,,0.107882276,1.3465579,0.44454676,0.9966487,-0.008057641,-0.081402354,-0.058269285,-0.7683572,-0.6373632,-0.05741044,0.6399705,-0.7662518,,-0.07485958,0.2712757,-0.08380552,-0.80191875,-0.5355502,0.26478732,0.58372617,-0.6079685,0.53818035,-0.12724024,0.5861402,0.800156,,-0.004698019,0.44100204,-0.30701315,0.3006634,-0.56677973,-0.76704776,0.86794037,0.4959733,-0.026269168,0.39532402,-0.6578535,0.641052,,1.2936195382955993,0.18000145783242488,0.17981875622000001,3.559067410762832,-0.5021391366379937,-0.7053723280941853,-0.42747142107340874,,-0.9088498183031114,-0.21732542581355194,0.21056675502000002,-3.1558336494420915,-0.4198839637791985,0.5559771235266733,0.8773209792072139,,-0.0396756972209611,-0.08834420341282298,0.07698115776,-0.046119083333121515,,6.173551e-05,1.0311604e-05,-1.0728836e-05,0.99999994,-3.75323e-05,-3.1344593e-05,3.75323e-05,1.0,-2.8014183e-06,3.135577e-05,2.8014183e-06,1.0,513,1.604,0,1,0.938,False,0.3014036505629898,1.0517841567953616
1.6154222579934867,15:55:23.102512,15:55:07.220946,0,,0.110455565,0.007294774,0.027040586,0.78845066,0.56148005,-0.25116852,0.34517062,-0.065897435,0.9362237,0.5091195,-0.8248621,-0.24576327,,0.06333362,-0.009417802,0.010296226,-0.37619236,0.47749415,0.79402673,0.8905765,-0.050103307,0.4520655,0.25564197,0.87720513,-0.40639666,,0.107882276,1.3465579,0.44454676,0.9966487,-0.008057641,-0.081402354,-0.058269285,-0.7683572,-0.6373632,-0.05741044,0.6399705,-0.7662518,,-0.074833915,0.27101544,-0.08381576,-0.8124318,-0.5173807,0.26883405,0.5716881,-0.6162587,0.5416622,-0.114574246,0.59375286,0.7964486,,-0.004703175,0.44100448,-0.30701244,0.3008412,-0.5667727,-0.7669833,0.86786187,0.49611425,-0.026200566,0.3953611,-0.6577533,0.641132,,1.2930712242615292,0.17945314379835492,0.17982523767000003,3.5764716760720474,-0.4884754866614496,-0.7206797342109961,-0.4135871754519952,,-0.9088807092346083,-0.21731770308067772,0.21056805131000003,-3.156043339385576,-0.4198839637791985,0.5559771235266733,0.8773209792072139,,-0.0396756972209611,-0.08834420341282298,0.07698115776,-0.046119083333121515,,6.173551e-05,1.0311604e-05,-1.0728836e-05,0.99999994,-3.75323e-05,-3.1344593e-05,3.75323e-05,1.0,-2.8014183e-06,3.135577e-05,2.8014183e-06,1.0,522,1.633,0,1,0.938,False,0.692114328623926,1.0518324369961412
1.6511385589983547,15:55:23.141113,15:55:07.361399,0,,0.110491745,0.007090047,0.026851624,0.7998312,0.54413366,-0.25335428,0.3432282,-0.06835097,0.93676174,0.49240655,-0.8362096,-0.24143124,,0.06334105,-0.009414732,0.010299504,-0.37636095,0.47739828,0.7940044,0.89053416,-0.049973547,0.45216316,0.25554106,0.87726474,-0.40633148,,0.107882276,1.3465579,0.44454676,0.9966487,-0.008057641,-0.081402354,-0.058269285,-0.7683572,-0.6373632,-0.05741044,0.6399705,-0.7662518,,-0.07486114,0.2707359,-0.0838102,-0.8229221,-0.4994715,0.27079034,0.55874926,-0.6251039,0.54501784,-0.102948785,0.59981114,0.7934911,,-0.0047110645,0.44100812,-0.30701244,0.3010217,-0.5666905,-0.76697314,0.867782,0.49626017,-0.026082683,0.39539903,-0.657714,0.64114887,,1.292198555446742,0.178974334360153,0.17984338573000003,3.594714701155201,-0.47549501918373277,-0.7347766208882004,-0.3771614487040508,,-0.9089270456318537,-0.21730998034780347,0.2105693476,-3.15625302932906,-0.4198839637791985,0.5560588022668138,0.8774843232733482,,-0.0396756972209611,-0.08834420341282298,0.07698115776,-0.046119083333121515,,6.173551e-05,1.0311604e-05,-1.0728836e-05,0.99999994,-3.75323e-05,-3.1344593e-05,3.75323e-05,1.0,-2.8014183e-06,3.135577e-05,2.8014183e-06,1.0,535,1.673,0,1,0.938,False,0.9773128671841116,1.0518324369961412
1.6897101280046627,15:55:23.181716,15:55:07.361399,0,,0.110537626,0.0069213957,0.026551113,0.8164248,0.51766795,-0.25587177,0.33995956,-0.07271001,0.937625,0.46677396,-0.8524863,-0.23534843,,0.063354835,-0.009411022,0.010302842,-0.3764298,0.47734308,0.794005,0.8904757,-0.05007097,0.45226747,0.25564325,0.8772893,-0.40621433,,0.107882276,1.3465579,0.44454676,0.9966487,-0.008057641,-0.081402354,-0.058269285,-0.7683572,-0.6373632,-0.05741044,0.6399705,-0.7662518,,-0.074891955,0.27040857,-0.083697185,-0.838153,-0.4722051,0.27298695,0.53871614,-0.6383674,0.54979265,-0.085348934,0.60787284,0.7894341,,-0.0047252965,0.44101155,-0.30701175,0.30108187,-0.56663346,-0.7669917,0.8678148,0.49621087,-0.025927762,0.39528117,-0.6578004,0.641133,,1.291101927378602,0.1789125524971592,0.17994708893000003,3.6215550139212205,-0.45513618071868217,-0.7541549657037462,-0.32260453061520156,,-0.9089965502277216,-0.21730998034780347,0.21057453276000002,-3.15625302932906,-0.42002060027896393,0.5560885414303697,0.8773209792072139,,-0.0396756972209611,-0.08834420341282298,0.07698115776,-0.046119083333121515,,6.173551e-05,1.0311604e-05,-1.0728836e-05,0.99999994,-3.75323e-05,-3.1344593e-05,3.75323e-05,1.0,-2.8014183e-06,3.135577e-05,2.8014183e-06,1.0,548,1.714,0,1,0.938,False,1.0427292021202064,1.0520738380000385
1.7303423779958393,15:55:23.211230,15:55:07.361399,0,,0.11054717,0.0068746954,0.026403949,0.82296526,0.506822,-0.25663117,0.3381417,-0.07401541,0.9381801,0.45649564,-0.8588673,-0.23228976,,0.06335725,-0.009409189,0.010301352,-0.37643436,0.47733793,0.7940059,0.8904723,-0.050076842,0.45227355,0.25564858,0.8772917,-0.40620568,,0.107882276,1.3465579,0.44454676,0.9966487,-0.008057641,-0.081402354,-0.058269285,-0.7683572,-0.6373632,-0.05741044,0.6399705,-0.7662518,,-0.07489394,0.2702754,-0.08361845,-0.84415,-0.46104375,0.27358633,0.5303088,-0.6432517,0.5522679,-0.07863477,0.61128217,0.78749645,,-0.0047276174,0.44101164,-0.3070093,0.30108598,-0.56662834,-0.7669938,0.8678163,0.49620876,-0.025917614,0.39527473,-0.65780634,0.6411308,,1.2906385634061486,0.1789125524971592,0.18003782923000003,3.633297650756354,-0.4462548082339285,-0.7632757404672466,-0.28862896485927136,,-0.9090042729605959,-0.21730225761492925,0.21057712534000003,-3.15625302932906,-0.42002060027896393,0.5560885414303697,0.8773209792072139,,-0.0396756972209611,-0.08834420341282298,0.07698115776,-0.046119083333121515,,6.173551e-05,1.0311604e-05,-1.0728836e-05,0.99999994,-3.75323e-05,-3.1344593e-05,3.75323e-05,1.0,-2.8014183e-06,3.135577e-05,2.8014183e-06,1.0,557,1.743,0,1,0.938,False,1.0429079352757693,1.0517841567953616
1.7598551059927559,15:55:23.251425,15:55:07.361399,0,,0.110540524,0.0067633986,0.025870338,0.8400939,0.47812718,-0.25619632,0.330648,-0.07695478,0.94061136,0.43001637,-0.8749126,-0.22274101,,0.06336418,-0.009398565,0.010299981,-0.37630117,0.47731382,0.79408354,0.8904897,-0.050290912,0.4522155,0.2557838,0.8772926,-0.4061186,,0.107882276,1.3465579,0.44454676,0.9966487,-0.008057641,-0.081402354,-0.058269285,-0.7683572,-0.6373632,-0.05741044,0.6399705,-0.7662518,,-0.074859664,0.2698372,-0.08329605,-0.859893,-0.4315561,0.27265975,0.5065469,-0.65523356,0.5604277,-0.063200206,0.62002283,0.78203416,,-0.004734889,0.44101778,-0.30700082,0.30093822,-0.5665937,-0.76707745,0.8679047,0.4960544,-0.025910785,0.39519304,-0.6579526,0.6410311,,1.2894955989407633,0.1785650295178191,0.18038004979000002,3.662654242844187,-0.42849206326442124,-0.7842943671590263,-0.17559487109435024,,-0.9090351638920928,-0.21725592121768392,0.2105823105,-3.156043339385576,-0.42002060027896393,0.5560885414303697,0.8773209792072139,,-0.0396756972209611,-0.08834420341282298,0.07698115776,-0.046119083333121515,,6.173551e-05,1.0311604e-05,-1.0728836e-05,0.99999994,-3.75323e-05,-3.1344593e-05,3.75323e-05,1.0,-2.8014183e-06,3.135577e-05,2.8014183e-06,1.0,570,1.784,0,1,0.938,False,1.0452314662980897,1.0516875963938028
1.7999758319929242,15:55:23.289346,15:55:07.529104,0,,0.11043646,0.006568417,0.025047958,0.8599352,0.44036305,-0.2580535,0.32448623,-0.08141622,0.94237995,0.39397955,-0.8941206,-0.21290448,,0.06336301,-0.009393781,0.010297298,-0.37625542,0.4773874,0.79406095,0.8905333,-0.05018869,0.4521409,0.2556992,0.87725836,-0.4062458,,0.107882276,1.3465579,0.44454676,0.9966487,-0.008057641,-0.081402354,-0.058269285,-0.7683572,-0.6373632,-0.05741044,0.6399705,-0.7662518,,-0.07471326,0.26914725,-0.08281886,-0.877832,-0.39285272,0.27400318,0.4773246,-0.6701725,0.56835735,-0.039651334,0.62971073,0.7758171,,-0.004733679,0.44101962,-0.30699566,0.30089977,-0.5666682,-0.76703745,0.86787534,0.49609873,-0.026048107,0.39528695,-0.65785503,0.64107335,,1.2878197659070565,0.17748384691542768,0.18094652852,3.697882153349587,-0.4010281268115677,-0.809874836667489,-0.08869582791091357,,-0.9090274411592186,-0.217225030286187,0.21058360679000002,-3.156043339385576,-0.4198839637791985,0.5559771235266733,0.8773209792072139,,-0.0396756972209611,-0.08834420341282298,0.07698115776,-0.046119083333121515,,6.173551e-05,1.0311604e-05,-1.0728836e-05,0.99999994,-3.75323e-05,-3.1344593e-05,3.75323e-05,1.0,-2.8014183e-06,3.135577e-05,2.8014183e-06,1.0,583,1.825,0,1,0.938,False,1.0457080880462577,1.051494475590685
1.8379127649968723,15:55:23.325996,15:55:07.529104,0,,0.11022313,0.006215915,0.023736343,0.88315356,0.3904188,-0.26002452,0.31874192,-0.092770696,0.9432906,0.3441557,-0.91595113,-0.20637351,,0.06336194,-0.009387627,0.010296881,-0.3762686,0.477458,0.7940123,0.89052063,-0.05016631,0.45216838,0.25572404,0.87722117,-0.40631032,,0.107882276,1.3465579,0.44454676,0.9966487,-0.008057641,-0.081402354,-0.058269285,-0.7683572,-0.6373632,-0.05741044,0.6399705,-0.7662518,,-0.0744327,0.2680174,-0.08208752,-0.8984112,-0.34188455,0.2756306,0.4391217,-0.691613,0.57344884,-0.0054235747,0.6362282,0.7714818,,-0.0047328854,0.441024,-0.30699122,0.30091083,-0.5667354,-0.7669835,0.867884,0.49608257,-0.026065573,0.39525944,-0.65780926,0.6411372,,1.28504730480521,0.17510524519016654,0.18187078329,3.741078281707399,-0.3616768148791209,-0.8359189661616568,0.047533123245075304,,-0.9090274411592186,-0.21719413935469012,0.21058360679000002,-3.156043339385576,-0.4198839637791985,0.5558954447865326,0.8771576351410795,,-0.0396756972209611,-0.08834420341282298,0.07698115776,-0.046119083333121515,,6.173551e-05,1.0311604e-05,-1.0728836e-05,0.99999994,-3.75323e-05,-3.1344593e-05,3.75323e-05,1.0,-2.8014183e-06,3.135577e-05,2.8014183e-06,1.0,592,1.854,0,1,0.938,False,1.0458272434832998,1.0515910359922438
1.8746174219995737,15:55:23.359821,15:55:07.529104,0,,0.110073626,0.0058891475,0.022587806,0.8974206,0.3566394,-0.25970095,0.3145595,-0.10451159,0.9434667,0.30933565,-0.92837787,-0.20597523,,0.063357495,-0.009388596,0.010293961,-0.3761058,0.47754225,0.7940388,0.8905592,-0.050304115,0.45207715,0.25582933,0.87716746,-0.4063601,,0.107882276,1.3465579,0.44454676,0.9966487,-0.008057641,-0.081402354,-0.058269285,-0.7683572,-0.6373632,-0.05741044,0.6399705,-0.7662518,,-0.07422437,0.2670134,-0.081457585,-0.9108375,-0.30755815,0.27528736,0.41235933,-0.7075823,0.5738354,0.01830071,0.6361881,0.77131695,,-0.004728107,0.44102186,-0.30698997,0.3007358,-0.56680626,-0.7669998,0.8679647,0.49593595,-0.026168913,0.39521545,-0.6578588,0.6411135,,1.282367516497854,0.17265713886903736,0.18269911260000002,3.7700154939082635,-0.3342128784262673,-0.849247624649035,0.14602959512404579,,-0.9089965502277216,-0.21719413935469012,0.21058360679000002,-3.1558336494420915,-0.4198839637791985,0.5558137660463921,0.8769942910749453,,-0.0396756972209611,-0.08834420341282298,0.07698115776,-0.046119083333121515,,6.173551e-05,1.0311604e-05,-1.0728836e-05,0.99999994,-3.75323e-05,-3.1344593e-05,3.75323e-05,1.0,-2.8014183e-06,3.135577e-05,2.8014183e-06,1.0,605,1.895,0,1,0.938,False,1.0467804869796362,1.0515427557914643
1.9084439940052107,15:55:23.397106,15:55:07.529104,0,,0.109877944,0.0053733885,0.02062039,0.91714984,0.30756503,-0.25345558,0.30255663,-0.12337446,0.9451127,0.25941366,-0.9434947,-0.20620877,,0.06334102,-0.009389877,0.010291159,-0.37577966,0.47760203,0.7941572,0.89063376,-0.050650597,0.45189148,0.25604877,0.877115,-0.40633518,,0.107882276,1.3465579,0.44454676,0.9966487,-0.008057641,-0.081402354,-0.058269285,-0.7683572,-0.6373632,-0.05741044,0.6399705,-0.7662518,,-0.07392759,0.26532444,-0.080346555,-0.92796093,-0.25785422,0.269072,0.36953735,-0.73017114,0.57471055,0.048277073,0.6327411,0.77285707,,-0.00471137,0.44102082,-0.30698952,0.30038443,-0.56684244,-0.7671107,0.86813015,0.49563923,-0.026302006,0.39511925,-0.65805125,0.6409753,,1.2777261540404452,0.16839419032246544,0.18417299433,3.8153085217009206,-0.29745765998936385,-0.8668855509821475,0.279155009023483,,-0.9089116001661052,-0.2171864166218159,0.21057712534000003,-3.1554142695551226,-0.4198839637791985,0.5558137660463921,0.8769942910749453,,-0.0396756972209611,-0.08834420341282298,0.07698115776,-0.046119083333121515,,6.173551e-05,1.0311604e-05,-1.0728836e-05,0.99999994,-3.75323e-05,-3.1344593e-05,3.75323e-05,1.0,-2.8014183e-06,3.135577e-05,2.8014183e-06,1.0,627,1.964,0,1,0.938,False,1.0463634429499895,1.050963393382111
1.945726663005189,15:55:23.464448,15:55:07.688278,0,,0.109544866,0.0045844316,0.016954497,0.9419303,0.24067879,-0.23418131,0.27572647,-0.15624702,0.94845223,0.19168222,-0.95794594,-0.21353537,,0.06328568,-0.009405747,0.010262549,-0.37550542,0.47779804,0.79416907,0.89074457,-0.05069396,0.45166817,0.25606564,0.8770057,-0.40656024,,0.107882276,1.3465579,0.44454676,0.9966487,-0.008057641,-0.081402354,-0.058269285,-0.7683572,-0.6373632,-0.05741044,0.6399705,-0.7662518,,-0.07340519,0.2623046,-0.07816029,-0.9492651,-0.19047387,0.25023067,0.30364415,-0.7621967,0.57171357,0.08182848,0.6186889,0.781363,,-0.004652534,0.44099617,-0.30698174,0.30010474,-0.567023,-0.7670868,0.86819273,0.49551272,-0.026618047,0.3951943,-0.65799093,0.6409909,,1.2697176800498744,0.1604088845305173,0.18708446167,3.883457753333391,-0.25182106906770674,-0.8840061607421739,0.4460926446127166,,-0.9085872453853878,-0.21720186208756434,0.21057064389000002,-3.155204579611638,-0.41974732727943304,0.5558657056229768,0.8769942910749453,,-0.0396756972209611,-0.08834420341282298,0.07698115776,-0.046119083333121515,,6.173551e-05,1.0311604e-05,-1.0728836e-05,0.99999994,-3.75323e-05,-3.1344593e-05,3.75323e-05,1.0,-2.8014183e-06,3.135577e-05,2.8014183e-06,1.0,640,2.005,0,1,0.938,False,1.0461847097944261,1.0512047943860081
2.013075102993753,15:55:23.503257,15:55:07.688278,0,,0.10922175,0.0040806085,0.014143214,0.9557031,0.19802225,-0.2177585,0.2534797,-0.17770511,0.9508779,0.1495982,-0.96395427,-0.22002795,,0.06323177,-0.009411201,0.010228097,-0.37530857,0.47807097,0.7940978,0.89078027,-0.050799906,0.45158595,0.25623012,0.87685084,-0.4067906,,0.107882276,1.3465579,0.44454676,0.9966487,-0.008057641,-0.081402354,-0.058269285,-0.7683572,-0.6373632,-0.05741044,0.6399705,-0.7662518,,-0.07293644,0.26006627,-0.0764191,-0.96091014,-0.14767462,0.23418775,0.2585986,-0.7808514,0.56868076,0.09888612,0.60701174,0.7885165,,-0.0045950054,0.44097513,-0.30696258,0.29988968,-0.56727177,-0.7669869,0.86830705,0.4953012,-0.026824519,0.39510635,-0.6579358,0.6411018,,1.2643581034351625,0.15432337102562838,0.18941648738000003,3.9289604710695327,-0.22545022461297673,-0.8929312901739367,0.5235177319603651,,-0.9082628906046704,-0.21717097115606743,0.21057064389000002,-3.1549948896681532,-0.41974732727943304,0.5558657056229768,0.8769942910749453,,-0.0396756972209611,-0.08834420341282298,0.07698115776,-0.046119083333121515,,6.173551e-05,1.0311604e-05,-1.0728836e-05,0.99999994,-3.75323e-05,-3.1344593e-05,3.75323e-05,1.0,-2.8014183e-06,3.135577e-05,2.8014183e-06,1.0,649,2.034,0,1,0.938,False,1.045886821201821,1.0514461953899055
2.0518780480051646,15:55:23.544777,15:55:07.688278,0,,0.108724706,0.0035805404,0.011059418,0.96802497,0.15025489,-0.20087583,0.22926101,-0.2048899,0.9515563,0.10181856,-0.96718323,-0.23278612,,0.063192174,-0.009403884,0.010203302,-0.37530556,0.47827446,0.79397666,0.8907561,-0.050772727,0.4516367,0.25631863,0.87674147,-0.4069707,,0.107882276,1.3465579,0.44454676,0.9966487,-0.008057641,-0.081402354,-0.058269285,-0.7683572,-0.6373632,-0.05741044,0.6399705,-0.7662518,,-0.07227956,0.25765464,-0.074480176,-0.9708155,-0.09994959,0.21800786,0.20833449,-0.80176103,0.5601571,0.11880274,0.58922774,0.799185,,-0.0045533637,0.4409683,-0.30694118,0.2998783,-0.56746334,-0.76684964,0.868348,0.4952257,-0.026894026,0.395025,-0.65782744,0.64126307,,1.2592224860738033,0.1477127116852922,0.19204017834,3.9771891580709733,-0.19429710266645633,-0.8957912399379255,0.5797080907105571,,-0.9080389313513179,-0.2170937438273252,0.21057064389000002,-3.1549948896681532,-0.41974732727943304,0.5558657056229768,0.8769942910749453,,-0.0396756972209611,-0.08834420341282298,0.07698115776,-0.046119083333121515,,6.173551e-05,1.0311604e-05,-1.0728836e-05,0.99999994,-3.75323e-05,-3.1344593e-05,3.75323e-05,1.0,-2.8014183e-06,3.135577e-05,2.8014183e-06,1.0,662,2.075,0,1,0.938,False,1.046244287512947,1.050963393382111
2.0933982230053516,15:55:23.572890,15:55:07.688278,0,,0.10823697,0.0028672516,0.00812611,0.97766167,0.10579418,-0.18161803,0.20175451,-0.23009619,0.9520246,0.05892902,-0.96740013,-0.24630073,,0.06317706,-0.009386778,0.010194898,-0.3753916,0.47809446,0.79404444,0.8906642,-0.051021904,0.4517898,0.25651184,0.8768251,-0.40666857,,0.107882276,1.3465579,0.44454676,0.9966487,-0.008057641,-0.081402354,-0.058269285,-0.7683572,-0.6373632,-0.05741044,0.6399705,-0.7662518,,-0.07164109,0.2551841,-0.072794996,-0.9783159,-0.05567533,0.19949512,0.15896297,-0.8192933,0.55089855,0.13277356,0.5706651,0.810378,,-0.004538297,0.44097695,-0.30692413,0.29994735,-0.5672812,-0.7669574,0.8684189,0.49511796,-0.026587054,0.39481673,-0.65806556,0.641147,,1.254055977780947,0.1401830471329233,0.19450961079,4.025417845072414,-0.16806289471149174,-0.8974989010737628,0.6228309241700067,,-0.9079694267554498,-0.2170010710328345,0.21057064389000002,-3.1549948896681532,-0.4198839637791985,0.5562221597470949,0.8768309470088109,,-0.0396756972209611,-0.08834420341282298,0.07698115776,-0.046119083333121515,,6.173551e-05,1.0311604e-05,-1.0728836e-05,0.99999994,-3.75323e-05,-3.1344593e-05,3.75323e-05,1.0,-2.8014183e-06,3.135577e-05,2.8014183e-06,1.0,675,2.116,0,1,0.938,False,1.0461251320759053,1.0516393161930233
2.1215013949986314,15:55:23.617920,15:55:07.688278,0,,0.10791057,0.0021744967,0.0060398728,0.98302996,0.07520061,-0.16732273,0.18090566,-0.2461653,0.95219517,0.030416608,-0.966306,-0.2555921,,0.06317922,-0.009374723,0.01019609,-0.37536404,0.47808295,0.79406434,0.8906941,-0.050979912,0.45173565,0.25644842,0.8768338,-0.40668976,,0.107882276,1.3465579,0.44454676,0.9966487,-0.008057641,-0.081402354,-0.058269285,-0.7683572,-0.6373632,-0.05741044,0.6399705,-0.7662518,,-0.071208455,0.2532882,-0.071719274,-0.9822791,-0.025269052,0.18571272,0.12426443,-0.8295786,0.54438746,0.14030714,0.55781794,0.8180178,,-0.004541182,0.4409864,-0.30691677,0.29992536,-0.5672728,-0.7669722,0.8683955,0.49515593,-0.026643308,0.39488485,-0.65804416,0.641127,,1.250163720412338,0.13425198828551888,0.19615201022,4.057919786312516,-0.1516665147396389,-0.8995973833779358,0.655663081462997,,-0.9079925949540725,-0.2169392891698407,0.21057064389000002,-3.1549948896681532,-0.41974732727943304,0.556192420583539,0.8766676029426768,,-0.0396756972209611,-0.08834420341282298,0.07698115776,-0.046119083333121515,,6.173551e-05,1.0311604e-05,-1.0728836e-05,0.99999994,-3.75323e-05,-3.1344593e-05,3.75323e-05,1.0,-2.8014183e-06,3.135577e-05,2.8014183e-06,1.0,684,2.145,0,1,0.938,False,1.045767665764779,1.0511565141852286
2.1664272759953747,15:55:23.647878,15:55:07.873111,0,,0.107597835,0.0013791472,0.0040252954,0.98735553,0.04394318,-0.15230845,0.15850967,-0.26226583,0.95188826,0.001883693,-0.9639945,-0.26591507,,0.063180216,-0.009372875,0.010196865,-0.37536854,0.4780779,0.7940653,0.8906906,-0.050985813,0.45174176,0.2564537,0.8768363,-0.40668118,,0.107882276,1.3465579,0.44454676,0.9966487,-0.008057641,-0.081402354,-0.058269285,-0.7683572,-0.6373632,-0.05741044,0.6399705,-0.7662518,,-0.070793785,0.25136316,-0.0707647,-0.9852084,0.005735559,0.17126442,0.088432185,-0.8390554,0.53681076,0.14677925,0.54401577,0.82613724,,-0.0045423503,0.44098812,-0.30691603,0.29992944,-0.5672677,-0.76697433,0.868397,0.49515384,-0.026633164,0.39487842,-0.6580502,0.64112484,,1.2460011673931308,0.12778033813691875,0.19777496530000002,4.0927283169309465,-0.13458695226895884,-0.9008644166182016,0.686208421830107,,-0.9080003176869468,-0.21693156643696648,0.21057064389000002,-3.1549948896681532,-0.41974732727943304,0.556192420583539,0.8766676029426768,,-0.0396756972209611,-0.08834420341282298,0.07698115776,-0.046119083333121515,,6.173551e-05,1.0311604e-05,-1.0728836e-05,0.99999994,-3.75323e-05,-3.1344593e-05,3.75323e-05,1.0,-2.8014183e-06,3.135577e-05,2.8014183e-06,1.0,697,2.185,0,1,0.938,False,1.042550468964643,1.0508185527797727
2.196502345992485,15:55:23.689993,15:55:07.873111,0,,0.10719855,-0.000121831894,0.00097203255,0.9910856,-0.0033343062,-0.13318485,0.1266659,-0.28626168,0.949742,-0.041292444,-0.95814556,-0.28328747,,0.06317798,-0.009371653,0.010196984,-0.3753706,0.47808588,0.79405946,0.8906878,-0.050987214,0.45174733,0.25646088,0.8768319,-0.40668625,,0.107882276,1.3465579,0.44454676,0.9966487,-0.008057641,-0.081402354,-0.058269285,-0.7683572,-0.6373632,-0.05741044,0.6399705,-0.7662518,,-0.0702415,0.24822308,-0.06951186,-0.9868185,0.052508038,0.15307587,0.035823185,-0.8515561,0.52303815,0.1578164,0.52162737,0.83845025,,-0.004540209,0.44098938,-0.3069154,0.29993087,-0.5672751,-0.76696837,0.86839986,0.49514893,-0.026631786,0.39487112,-0.6580475,0.64113206,,1.2390198168748319,0.117400985153961,0.2000434728,4.140957003932387,-0.10739628881563619,-0.9015550707968216,0.7340682332074508,,-0.9079925949540725,-0.21692384370409226,0.2105693476,-3.1549948896681532,-0.41974732727943304,0.556192420583539,0.8766676029426768,,-0.0396756972209611,-0.08834420341282298,0.07698115776,-0.046119083333121515,,6.173551e-05,1.0311604e-05,-1.0728836e-05,0.99999994,-3.75323e-05,-3.1344593e-05,3.75323e-05,1.0,-2.8014183e-06,3.135577e-05,2.8014183e-06,1.0,710,2.226,0,1,0.938,False,1.0346862101198666,1.0516875963938028
2.2384942200005753,15:55:23.730525,15:55:07.873111,0,,0.10710321,-0.0013221651,-0.0008264035,0.9920802,-0.036275823,-0.12025284,0.10418155,-0.29714698,0.949131,-0.07016328,-0.95414233,-0.2910144,,0.06317544,-0.009372175,0.010195315,-0.37536815,0.47816375,0.7940138,0.8906883,-0.050945938,0.45175096,0.25646263,0.8767918,-0.40677148,,0.107882276,1.3465579,0.44454676,0.9966487,-0.008057641,-0.081402354,-0.058269285,-0.7683572,-0.6373632,-0.05741044,0.6399705,-0.7662518,,-0.07005755,0.24613352,-0.068978816,-0.9864041,0.08513274,0.14056787,-0.0001957388,-0.8559674,0.51702976,0.16433768,0.5099728,0.8443464,,-0.004537474,0.44098815,-0.3069147,0.2999282,-0.56735015,-0.7669139,0.86840117,0.49514395,-0.026680997,0.39487025,-0.6579865,0.6411952,,1.2335521219998808,0.11026517997817754,0.20128402233,4.174088015002941,-0.08785726934917822,-0.9062978436261527,0.7646135735745612,,-0.9079771494883241,-0.21692384370409226,0.2105693476,-3.1549948896681532,-0.41974732727943304,0.5561107418433985,0.8765042588765424,,-0.0396756972209611,-0.08834420341282298,0.07698115776,-0.046119083333121515,,6.173551e-05,1.0311604e-05,-1.0728836e-05,0.99999994,-3.75323e-05,-3.1344593e-05,3.75323e-05,1.0,-2.8014183e-06,3.135577e-05,2.8014183e-06,1.0,719,2.255,0,1,0.938,False,1.0317073241938153,1.0512047943860081
2.2791062309988774,15:55:23.764838,15:55:07.873111,0,,0.10716983,-0.0018974692,-0.0019218177,0.99223715,-0.0521418,-0.11290088,0.09185456,-0.30472142,0.94800186,-0.08383384,-0.9510131,-0.2975665,,0.06317022,-0.009373069,0.010195076,-0.3753644,0.47818336,0.7940037,0.890689,-0.05093935,0.45175016,0.25646535,0.87678146,-0.40679199,,0.107882276,1.3465579,0.44454676,0.9966487,-0.008057641,-0.081402354,-0.058269285,-0.7683572,-0.6373632,-0.05741044,0.6399705,-0.7662518,,-0.07006917,0.24497296,-0.068544865,-0.98590326,0.10077007,0.13356705,-0.018493174,-0.859029,0.51159275,0.1662912,0.5019109,0.8487831,,-0.0045322212,0.4409879,-0.30691534,0.29992414,-0.5673688,-0.7669017,0.86840314,0.49513978,-0.026694147,0.39486894,-0.6579736,0.64120924,,1.2299456057476181,0.10676678198615384,0.20209809245000002,4.192121350142611,-0.07788280486630106,-0.9061001191016541,0.7814380123863919,,-0.9079539812897014,-0.21692384370409226,0.21056675502000002,-3.1549948896681532,-0.41974732727943304,0.5561107418433985,0.8765042588765424,,-0.0396756972209611,-0.08834420341282298,0.07698115776,-0.046119083333121515,,6.173551e-05,1.0311604e-05,-1.0728836e-05,0.99999994,-3.75323e-05,-3.1344593e-05,3.75323e-05,1.0,-2.8014183e-06,3.135577e-05,2.8014183e-06,1.0,732,2.296,0,1,0.938,False,1.0272985730232587,1.0506737121774343
2.313457873999141,15:55:23.790984,15:55:07.873111,0,,0.10738675,-0.0022670776,-0.0027802438,0.99221855,-0.06719455,-0.104818836,0.079016656,-0.31077015,0.9471949,-0.096220896,-0.94810677,-0.3030425,,0.06316553,-0.009375185,0.01019299,-0.37514377,0.47819915,0.79409856,0.89078355,-0.051036358,0.45155284,0.25646004,0.87676716,-0.40682608,,0.107882276,1.3465579,0.44454676,0.9966487,-0.008057641,-0.081402354,-0.058269285,-0.7683572,-0.6373632,-0.05741044,0.6399705,-0.7662518,,-0.07024234,0.24411884,-0.068143524,-0.9852979,0.11561529,0.12578195,-0.036310636,-0.8611279,0.5070899,0.1669417,0.49506745,0.85266566,,-0.004527238,0.4409855,-0.30691543,0.2997009,-0.56737804,-0.7669821,0.8684448,0.49505708,-0.026872667,0.39494687,-0.6580278,0.6411056,,1.226678889741821,0.1049596624935853,0.20270345988000002,4.20826747579092,-0.06900143238154742,-0.9056644812687087,0.7979357630659542,,-0.9079230903582045,-0.21692384370409226,0.21056545873000002,-3.1547851997246688,-0.4196106907796676,0.5560810026798426,0.8769942910749453,,-0.0396756972209611,-0.08834420341282298,0.07698115776,-0.046119083333121515,,6.173551e-05,1.0311604e-05,-1.0728836e-05,0.99999994,-3.75323e-05,-3.1344593e-05,3.75323e-05,1.0,-2.8014183e-06,3.135577e-05,2.8014183e-06,1.0,741,2.325,0,1,0.938,False,1.0211620680155922,1.051108233984449
2.339604277003673,15:55:23.829890,15:55:07.873111,0,,0.10773206,-0.002323091,-0.003542319,0.9930657,-0.069618195,-0.0947299,0.067634046,-0.3207559,0.944744,-0.09615654,-0.94459975,-0.31382313,,0.063154474,-0.009380519,0.010188878,-0.37512726,0.47818363,0.7941157,0.890792,-0.051048428,0.4515348,0.25645477,0.876775,-0.40681258,,0.107882276,1.3465579,0.44454676,0.9966487,-0.008057641,-0.081402354,-0.058269285,-0.7683572,-0.6373632,-0.05741044,0.6399705,-0.7662518,,-0.07054711,0.24355856,-0.06759917,-0.98620814,0.11779641,0.11626476,-0.044774976,-0.8661553,0.49776515,0.1593383,0.4856943,0.8594838,,-0.004515546,0.44098002,-0.30691653,0.29968464,-0.56736284,-0.7669997,0.8684457,0.49505514,-0.026878823,0.39495718,-0.65804243,0.64108425,,1.2239141513728486,0.10459669404849677,0.20332827166000003,4.219381042795599,-0.07077770687849815,-0.8977634280495507,0.8092065036292193,,-0.9078613084952107,-0.2169392891698407,0.21056286615000003,-3.1547851997246688,-0.4196106907796676,0.5561626814199832,0.8768309470088111,,-0.0396756972209611,-0.08834420341282298,0.07698115776,-0.046119083333121515,,6.173551e-05,1.0311604e-05,-1.0728836e-05,0.99999994,-3.75323e-05,-3.1344593e-05,3.75323e-05,1.0,-2.8014183e-06,3.135577e-05,2.8014183e-06,1.0,754,2.366,0,1,0.938,False,1.0137744309189838,1.0507702725789931
2.3785136030055583,15:55:23.864827,15:55:07.873111,0,,0.10835929,-0.0024182647,-0.004276678,0.99393886,-0.06345766,-0.08976933,0.06381595,-0.3318574,0.9411685,-0.08951497,-0.9411926,-0.32579634,,0.06312506,-0.009386703,0.010173082,-0.37478253,0.478255,0.7942354,0.8908726,-0.051401794,0.4513355,0.25667846,0.8767154,-0.4067999,,0.107882276,1.3465579,0.44454676,0.9966487,-0.008057641,-0.081402354,-0.058269285,-0.7683572,-0.6373632,-0.05741044,0.6399705,-0.7662518,,-0.0711351,0.24297872,-0.06708947,-0.9874521,0.11140483,0.111925766,-0.043221965,-0.87234944,0.48696852,0.15188903,0.47602043,0.8662184,,-0.004484319,0.4409682,-0.30691043,0.29931408,-0.56740946,-0.76710993,0.8686164,0.49474734,-0.027030297,0.39486283,-0.6582337,0.640946,,1.2199523894083715,0.10464303044574211,0.20386752830000002,4.22126825228696,-0.07487680187146135,-0.887559876766851,0.8173737069359335,,-0.9076836856391035,-0.2169392891698407,0.21056027357,-3.1543658198377003,-0.4196106907796676,0.5562443601601237,0.8766676029426768,,-0.0396756972209611,-0.08834420341282298,0.07698115776,-0.046119083333121515,,6.173551e-05,1.0311604e-05,-1.0728836e-05,0.99999994,-3.75323e-05,-3.1344593e-05,3.75323e-05,1.0,-2.8014183e-06,3.135577e-05,2.8014183e-06,1.0,767,2.407,0,1,0.938,False,1.0085911694076541,1.0513013547875674
2.41342263900151,15:55:23.910278,15:55:07.873111,0,,0.10899672,-0.0026426017,-0.004551813,0.9947911,-0.05790981,-0.083887726,0.0591241,-0.34258524,0.93762445,-0.08303633,-0.93770015,-0.33737683,,0.063105255,-0.00939092,0.010161936,-0.3747639,0.47835284,0.79418534,0.89087665,-0.051368833,0.45133147,0.25669202,0.8766639,-0.40690225,,0.107882276,1.3465579,0.44454676,0.9966487,-0.008057641,-0.081402354,-0.058269285,-0.7683572,-0.6373632,-0.05741044,0.6399705,-0.7662518,,-0.07175827,0.2426083,-0.067007005,-0.98867106,0.10562253,0.106646426,-0.042427864,-0.87818915,0.4764281,0.14397727,0.4665059,0.8727215,,-0.004463229,0.4409598,-0.30690598,0.2992939,-0.5675026,-0.76704884,0.86862624,0.49472642,-0.027096057,0.3948564,-0.6581691,0.6410163,,1.2164462686834736,0.10465847591149055,0.20394012054000002,4.223994221552259,-0.07952244286348634,-0.8776457625306304,0.8206405882586189,,-0.9075678446459902,-0.2169392891698407,0.21055897728000003,-3.1543658198377003,-0.4196106907796676,0.5562443601601237,0.8763409148104082,,-0.0396756972209611,-0.08834420341282298,0.07698115776,-0.046119083333121515,,6.173551e-05,1.0311604e-05,-1.0728836e-05,0.99999994,-3.75323e-05,-3.1344593e-05,3.75323e-05,1.0,-2.8014183e-06,3.135577e-05,2.8014183e-06,1.0,776,2.435,0,1,0.938,False,0.9990587344442892,1.0513496349883464
2.4588643619936192,15:55:23.941792,15:55:07.873111,0,,0.10962418,-0.0027541071,-0.0047203004,0.9952308,-0.05340086,-0.08163342,0.057754483,-0.35184714,0.934274,-0.078613505,-0.9345329,-0.347085,,0.06310557,-0.009389132,0.010163724,-0.3747684,0.47834766,0.79418623,0.8908732,-0.051374704,0.45133758,0.25669736,0.8766664,-0.40689367,,0.107882276,1.3465579,0.44454676,0.9966487,-0.008057641,-0.081402354,-0.058269285,-0.7683572,-0.6373632,-0.05741044,0.6399705,-0.7662518,,-0.07237651,0.24239331,-0.06692907,-0.9893516,0.10090273,0.10489119,-0.0405153,-0.8831207,0.46739307,0.13979281,0.45816636,0.877805,,-0.004463823,0.4409623,-0.30690607,0.299298,-0.56749755,-0.767051,0.8686278,0.4947243,-0.027085913,0.39484996,-0.65817505,0.64101416,,1.2132258890749221,0.10533035367154808,0.20395308344000002,4.224203911495743,-0.08102544436090618,-0.8684156490561945,0.8194971797956788,,-0.9075755673788644,-0.21693156643696648,0.21055768099000002,-3.1543658198377003,-0.4196106907796676,0.5562443601601237,0.8763409148104082,,-0.0396756972209611,-0.08834420341282298,0.07698115776,-0.046119083333121515,,6.173551e-05,1.0311604e-05,-1.0728836e-05,0.99999994,-3.75323e-05,-3.1344593e-05,3.75323e-05,1.0,-2.8014183e-06,3.135577e-05,2.8014183e-06,1.0,789,2.476,0,1,0.938,False,0.9950074495848584,1.051108233984449
2.490386698002112,15:55:23.981771,15:55:08.193742,0,,0.11032603,-0.002578795,-0.004817188,0.9956151,-0.051025927,-0.078401156,0.055165865,-0.35659024,0.93263066,-0.075545445,-0.9328663,-0.35221183,,0.06310557,-0.009389132,0.010163724,-0.3747684,0.47834766,0.79418623,0.8908732,-0.051374704,0.45133758,0.25669736,0.8766664,-0.40689367,,0.107882276,1.3465579,0.44454676,0.9966487,-0.008057641,-0.081402354,-0.058269285,-0.7683572,-0.6373632,-0.05741044,0.6399705,-0.7662518,,-0.073071316,0.2424374,-0.0667099,-0.9899116,0.09841756,0.10192605,-0.040411856,-0.8856186,0.46265164,0.13580066,0.45386523,0.8806614,,-0.004463823,0.4409623,-0.30690607,0.299298,-0.56749755,-0.767051,0.8686278,0.4947243,-0.027085913,0.39484996,-0.65817505,0.64101416,,1.2102140232539744,0.1076008371365701,0.2039841944,4.225881431043619,-0.08102544436090618,-0.8628614947266363,0.8185171153988734,,-0.9075755673788644,-0.21693156643696648,0.21055768099000002,-3.1543658198377003,-0.4196106907796676,0.5562443601601237,0.8763409148104082,,-0.0396756972209611,-0.08834420341282298,0.07698115776,-0.046119083333121515,,6.173551e-05,1.0311604e-05,-1.0728836e-05,0.99999994,-3.75323e-05,-3.1344593e-05,3.75323e-05,1.0,-2.8014183e-06,3.135577e-05,2.8014183e-06,1.0,798,2.505,0,1,0.938,False,0.9947691387107742,1.0506737121774343
2.5303974410053343,15:55:24.014505,15:55:08.193742,0,,0.11092434,-0.0022070855,-0.0048303455,0.9958508,-0.049055494,-0.076646015,0.054166332,-0.35726133,0.9324324,-0.07312359,-0.93271524,-0.35312188,,0.06310545,-0.009388864,0.010166705,-0.3747697,0.47834122,0.7941896,0.89087296,-0.05137688,0.45133787,0.25669643,0.8766698,-0.40688682,,0.107882276,1.3465579,0.44454676,0.9966487,-0.008057641,-0.081402354,-0.058269285,-0.7683572,-0.6373632,-0.05741044,0.6399705,-0.7662518,,-0.07366609,0.24268685,-0.06642645,-0.9902805,0.096438326,0.100220494,-0.039550353,-0.88607967,0.4618426,0.13334267,0.45338997,0.8812816,,-0.004464042,0.44096452,-0.3069081,0.29929933,-0.56749135,-0.7670551,0.86862713,0.4947257,-0.027081529,0.39485037,-0.65817934,0.64100945,,1.2082215581724245,0.11050458469727852,0.20401919423000003,4.226091120987103,-0.08061553486160986,-0.8602553137926654,0.8178637391343362,,-0.9075832901117385,-0.21693156643696648,0.21055508841,-3.1543658198377003,-0.4196106907796676,0.5562443601601237,0.8763409148104082,,-0.0396756972209611,-0.08834420341282298,0.07698115776,-0.046119083333121515,,6.173551e-05,1.0311604e-05,-1.0728836e-05,0.99999994,-3.75323e-05,-3.1344593e-05,3.75323e-05,1.0,-2.8014183e-06,3.135577e-05,2.8014183e-06,1.0,811,2.546,0,1,0.938,False,0.9951266050219005,1.0512530745867876
2.563130173002719,15:55:24.052587,15:55:08.193742,0,,0.111734025,-0.0014497489,-0.0047537535,0.9959863,-0.047875773,-0.075625,0.053605046,-0.35756832,0.9323472,-0.07167794,-0.9326589,-0.3535667,,0.06310348,-0.009389177,0.010167003,-0.3747684,0.47834766,0.79418623,0.8908732,-0.051374704,0.45133758,0.25669736,0.8766664,-0.40689367,,0.107882276,1.3465579,0.44454676,0.9966487,-0.008057641,-0.081402354,-0.058269285,-0.7683572,-0.6373632,-0.05741044,0.6399705,-0.7662518,,-0.07447462,0.24327677,-0.06594349,-0.9904953,0.09525565,0.09922402,-0.039009597,-0.8863078,0.46145076,0.1318988,0.4531941,0.88159955,,-0.0044620996,0.4409647,-0.3069086,0.299298,-0.56749755,-0.767051,0.8686278,0.4947243,-0.027085913,0.39484996,-0.65817505,0.64101416,,1.2059896883717736,0.11577921125037385,0.20406845325000003,4.226091120987103,-0.07774616836653561,-0.8562241480393264,0.8175370510020677,,-0.9075755673788644,-0.21693156643696648,0.21055379212000003,-3.1543658198377003,-0.4196106907796676,0.5562443601601237,0.8763409148104082,,-0.0396756972209611,-0.08834420341282298,0.07698115776,-0.046119083333121515,,6.173551e-05,1.0311604e-05,-1.0728836e-05,0.99999994,-3.75323e-05,-3.1344593e-05,3.75323e-05,1.0,-2.8014183e-06,3.135577e-05,2.8014183e-06,1.0,824,2.587,0,1,0.938,False,0.9948287164292955,1.0509151131813312
2.6011866640037624,15:55:24.093050,15:55:08.319187,0,,0.11262918,-0.00054709613,-0.004646346,0.9962078,-0.046234854,-0.07370409,0.05247815,-0.3563764,0.9328675,-0.0693974,-0.9331976,-0.3525986,,0.06309374,-0.009390891,0.010165393,-0.374761,0.47832194,0.79420525,0.89087474,-0.051398426,0.45133176,0.2567027,0.87667906,-0.40686294,,0.107882276,1.3465579,0.44454676,0.9966487,-0.008057641,-0.081402354,-0.058269285,-0.7683572,-0.6373632,-0.05741044,0.6399705,-0.7662518,,-0.07536936,0.24399282,-0.06538284,-0.99084324,0.09365195,0.097257376,-0.038336687,-0.8858301,0.46242326,0.12946036,0.45446044,0.8813091,,-0.00445217,0.44096342,-0.30690902,0.29928994,-0.56747216,-0.7670729,0.8686317,0.49471813,-0.02707181,0.3948474,-0.6582016,0.64098847,,1.2037114821738775,0.12190333841963388,0.20413197146000003,4.226300810930589,-0.07542334787052313,-0.8530541705134509,0.817700395068202,,-0.9075292309816191,-0.21693156643696648,0.21054990325000003,-3.1543658198377003,-0.4196106907796676,0.5563260389002642,0.8768309470088109,,-0.0396756972209611,-0.08834420341282298,0.07698115776,-0.046119083333121515,,6.173551e-05,1.0311604e-05,-1.0728836e-05,0.99999994,-3.75323e-05,-3.1344593e-05,3.75323e-05,1.0,-2.8014183e-06,3.135577e-05,2.8014183e-06,1.0,833,2.616,0,1,0.938,False,0.9958415376441532,1.05105995378367
2.6416394080006285,15:55:24.122363,15:55:08.319187,0,,0.11309501,-0.00012429059,-0.0045772195,0.99630696,-0.046052456,-0.0724667,0.05154157,-0.3542357,0.93373466,-0.06867106,-0.93402135,-0.35055387,,0.06308758,-0.009391278,0.010172188,-0.3747597,0.4782636,0.794241,0.890875,-0.051433086,0.4513273,0.25670362,0.87670887,-0.40679818,,0.107882276,1.3465579,0.44454676,0.9966487,-0.008057641,-0.081402354,-0.058269285,-0.7683572,-0.6373632,-0.05741044,0.6399705,-0.7662518,,-0.07583592,0.2443393,-0.06513223,-0.99098575,0.09352487,0.09591816,-0.03855367,-0.8847897,0.4643929,0.12829968,0.45650876,0.88041973,,-0.0044467812,0.44096836,-0.3069146,0.29928857,-0.5674157,-0.7671152,0.8686324,0.49471894,-0.027035784,0.39484695,-0.6582496,0.6409394,,1.2024449539825046,0.12490748150770722,0.20413974920000003,4.226929880761042,-0.07392034637310328,-0.8532996225724245,0.8175370510020676,,-0.9075215082487448,-0.21693156643696648,0.21054082922000003,-3.1543658198377003,-0.4196106907796676,0.5564077176404048,0.8766676029426768,,-0.0396756972209611,-0.08834420341282298,0.07698115776,-0.046119083333121515,,6.173551e-05,1.0311604e-05,-1.0728836e-05,0.99999994,-3.75323e-05,-3.1344593e-05,3.75323e-05,1.0,-2.8014183e-06,3.135577e-05,2.8014183e-06,1.0,846,2.657,0,1,0.938,False,0.9946499832737326,1.0513013547875674
2.670987334000529,15:55:24.156745,15:55:08.319187,0,,0.114175916,0.0006662756,-0.004477486,0.9966147,-0.04425949,-0.069282755,0.04946246,-0.35034487,0.93531376,-0.06566935,-0.9355743,-0.34696966,,0.06307736,-0.009391993,0.0101825595,-0.37475723,0.4782118,0.7942733,0.8908755,-0.05146557,0.45132256,0.25670546,0.8767352,-0.40674022,,0.107882276,1.3465579,0.44454676,0.9966487,-0.008057641,-0.081402354,-0.058269285,-0.7683572,-0.6373632,-0.05741044,0.6399705,-0.7662518,,-0.076916344,0.24496093,-0.064632624,-0.99146307,0.091837466,0.092557475,-0.03811242,-0.8829816,0.46785778,0.124693416,0.46033612,0.8789438,,-0.004437727,0.4409759,-0.3069232,0.2992859,-0.5673655,-0.7671534,0.8686337,0.49471837,-0.027004145,0.39484608,-0.65829337,0.640895,,1.1991087333808397,0.13093893588247657,0.20415660097000002,4.227978330478464,-0.07173416237685623,-0.8536120917090373,0.8175370510020677,,-0.9075060627829964,-0.21693156643696648,0.21052657003000003,-3.1543658198377003,-0.4196106907796676,0.5564893963805454,0.8765042588765424,,-0.0396756972209611,-0.08834420341282298,0.07698115776,-0.046119083333121515,,6.173551e-05,1.0311604e-05,-1.0728836e-05,0.99999994,-3.75323e-05,-3.1344593e-05,3.75323e-05,1.0,-2.8014183e-06,3.135577e-05,2.8014183e-06,1.0,855,2.685,0,1,0.938,False,0.9950670273033797,1.0513496349883464
2.7053517650056165,15:55:24.189803,15:55:08.319187,0,,0.11509049,0.0012074411,-0.004428506,0.99693304,-0.04204059,-0.066008665,0.047330763,-0.34782138,0.9363653,-0.062324565,-0.93661773,-0.34476483,,0.06310875,-0.009392634,0.01017797,-0.37478447,0.47822532,0.79425246,0.89086413,-0.051444054,0.4513475,0.25670528,0.8767292,-0.40675348,,0.10784153,1.3465618,0.44453755,0.9966507,-0.008032315,-0.08138134,-0.058236435,-0.7683575,-0.6373659,-0.05741044,0.6399705,-0.7662518,,-0.07779384,0.24537472,-0.06427785,-0.9919709,0.08970295,0.08914656,-0.037507392,-0.8818647,0.4700083,0.12077633,0.4628909,0.8781487,,-0.004432694,0.44097784,-0.3069259,0.2992832,-0.5673779,-0.7671453,0.868635,0.49471557,-0.027012913,0.39484525,-0.6582847,0.6409044,,1.1962127085530054,0.13534089362078452,0.20416308242000003,4.229026780195887,-0.07105097987802904,-0.853679108786676,0.8181904272666046,,-0.9074906173172479,-0.21693156643696648,0.21052138487000002,-3.1543658198377003,-0.4196106907796676,0.5564893963805454,0.8765042588765424,,-0.0396756972209611,-0.08834420341282298,0.07698115776,-0.046119083333121515,,2.1418557e-05,1.847744e-06,-2.861023e-06,1.0,-1.2271106e-05,-1.0251999e-05,1.2278557e-05,1.0,-9.23872e-07,1.0251999e-05,9.23872e-07,1.0,868,2.726,0,1,0.938,False,0.995424493614506,1.0516875963938028
2.7384094070002902,15:55:24.226076,15:55:08.319187,0,,0.116489395,0.0019706637,-0.00438118,0.99749935,-0.038345538,-0.059368398,0.04259182,-0.34419212,0.9379326,-0.056399666,-0.9381158,-0.34169823,,0.06303592,-0.009405538,0.010178566,-0.37470192,0.47838253,0.79419667,0.89089584,-0.051406235,0.45128906,0.25671536,0.8766457,-0.4069271,,0.10784153,1.3465618,0.44453755,0.9966507,-0.008032315,-0.08138134,-0.058236435,-0.7683575,-0.6373659,-0.05741044,0.6399705,-0.7662518,,-0.079189196,0.24593107,-0.06374386,-0.9928753,0.08611174,0.08236173,-0.03710836,-0.88027465,0.47301108,0.11323275,0.46658468,0.8771984,,-0.0043597985,0.44097674,-0.30693838,0.2991986,-0.5675268,-0.7670681,0.86865604,0.49467027,-0.027165728,0.39486307,-0.6581904,0.64099026,,1.1913628323079923,0.14187432563237848,0.20420715628000002,4.231752749461187,-0.07105097987802904,-0.8539241450070977,0.8177003950682017,,-0.9074442809200025,-0.21693156643696648,0.21051879229000003,-3.1543658198377003,-0.4196106907796676,0.5564077176404048,0.8769942910749453,,-0.0396756972209611,-0.08834420341282298,0.07698115776,-0.046119083333121515,,2.1418557e-05,1.847744e-06,-2.861023e-06,1.0,-1.2271106e-05,-1.0251999e-05,1.2278557e-05,1.0,-9.23872e-07,1.0251999e-05,9.23872e-07,1.0,877,2.755,0,1,0.938,False,0.9942925169626062,1.05105995378367
2.774697531000129,15:55:24.259235,15:55:08.319187,0,,0.11755097,0.0024987757,-0.004427552,0.9979146,-0.03549707,-0.053909753,0.0385432,-0.34224543,0.9388197,-0.05177572,-0.93893975,-0.3401636,,0.06303843,-0.009402305,0.010179281,-0.37476534,0.47824457,0.7942499,0.89083606,-0.051565737,0.45138884,0.25683028,0.87671155,-0.40671262,,0.10784153,1.3465618,0.44453755,0.9966507,-0.008032315,-0.08138134,-0.058236435,-0.7683575,-0.6373659,-0.05741044,0.6399705,-0.7662518,,-0.08024401,0.24626036,-0.0633115,-0.99355626,0.08332128,0.076834306,-0.037057057,-0.87946254,0.4745234,0.10711079,0.46861845,0.87688315,,-0.004362537,0.44097933,-0.30693665,0.2992521,-0.567389,-0.7671492,0.86869574,0.49461207,-0.026954904,0.3947352,-0.658353,0.6409021,,1.1875014658708802,0.14646935169254205,0.20429660029000002,4.234269028783,-0.0713242528775599,-0.8537013091997048,0.8173737069359334,,-0.907459726385751,-0.21692384370409226,0.21052008858000001,-3.1543658198377003,-0.41974732727943304,0.5566008142842418,0.8771576351410795,,-0.0396756972209611,-0.08834420341282298,0.07698115776,-0.046119083333121515,,2.1418557e-05,1.847744e-06,-2.861023e-06,1.0,-1.2271106e-05,-1.0251999e-05,1.2278557e-05,1.0,-9.23872e-07,1.0251999e-05,9.23872e-07,1.0,890,2.796,0,1,0.938,False,0.994232939244085,1.0518807171969207
2.807851578996633,15:55:24.295779,15:55:08.503092,0,,0.11894868,0.0031060576,-0.0043643415,0.99836373,-0.03096509,-0.048072442,0.0346751,-0.34064716,0.93955153,-0.045469046,-0.93968105,-0.33901605,,0.06304097,-0.009401754,0.010180891,-0.3747678,0.4781018,0.7943346,0.8908355,-0.05164382,0.45138097,0.25682846,0.8767848,-0.40655577,,0.10784153,1.3465618,0.44453755,0.9966507,-0.008032315,-0.08138134,-0.058236435,-0.7683575,-0.6373659,-0.05741044,0.6399705,-0.7662518,,-0.08163986,0.24671112,-0.06289339,-0.9943591,0.07884346,0.070948415,-0.03575116,-0.8789077,0.47565025,0.09985902,0.47043067,0.8767686,,-0.0043652724,0.44098055,-0.30693734,0.29925478,-0.56725127,-0.76725,0.8686944,0.49461925,-0.026865337,0.39473602,-0.6584662,0.6407852,,1.182404462173892,0.15230001501258156,0.20427845223000002,4.236156238274361,-0.07146088937732537,-0.8524463889340406,0.8163936425391277,,-0.9074751718514995,-0.21692384370409226,0.21052008858000001,-3.1543658198377003,-0.41974732727943304,0.556764171764523,0.8768309470088109,,-0.0396756972209611,-0.08834420341282298,0.07698115776,-0.046119083333121515,,2.1418557e-05,1.847744e-06,-2.861023e-06,1.0,-1.2271106e-05,-1.0251999e-05,1.2278557e-05,1.0,-9.23872e-07,1.0251999e-05,9.23872e-07,1.0,903,2.837,0,1,0.938,False,0.9913136310365545,1.0508668329805522
2.8443925299943658,15:55:24.340295,15:55:08.503092,0,,0.12006448,0.003419906,-0.004366711,0.9987601,-0.027701713,-0.041361358,0.029411614,-0.3419786,0.93924737,-0.040163457,-0.9392992,-0.3407399,,0.06303661,-0.009405509,0.0101774335,-0.37470192,0.4781878,0.7943139,0.89089584,-0.05151683,0.45127642,0.25671536,0.87674534,-0.40671232,,0.10784153,1.3465618,0.44453755,0.9966507,-0.008032315,-0.08138134,-0.058236435,-0.7683575,-0.6373659,-0.05741044,0.6399705,-0.7662518,,-0.082752295,0.24690841,-0.06263435,-0.9950638,0.0755574,0.06433646,-0.036150247,-0.87974757,0.4740647,0.09241894,0.46939883,0.8781364,,-0.0043603727,0.44097596,-0.30693755,0.2991986,-0.5673388,-0.76720715,0.86865604,0.49467692,-0.027044514,0.39486307,-0.6583475,0.64082897,,1.1779793362369613,0.1561227677853227,0.20426030417000002,4.239720967313598,-0.07269061787521432,-0.849728374257821,0.8145968578116507,,-0.9074442809200025,-0.21693156643696648,0.21052008858000001,-3.1543658198377003,-0.4196106907796676,0.5566527538608266,0.8768309470088109,,-0.0396756972209611,-0.08834420341282298,0.07698115776,-0.046119083333121515,,2.1418557e-05,1.847744e-06,-2.861023e-06,1.0,-1.2271106e-05,-1.0251999e-05,1.2278557e-05,1.0,-9.23872e-07,1.0251999e-05,9.23872e-07,1.0,912,2.865,0,1,0.938,False,0.9908965870069073,1.0508668329805522
2.8889122669934295,15:55:24.363927,15:55:08.503092,0,,0.120668486,0.0034594238,-0.0044112355,0.9989558,-0.027681015,-0.036346406,0.024696197,-0.3421367,0.9393256,-0.038436938,-0.93924224,-0.3410959,,0.06303863,-0.009401858,0.010178864,-0.374711,0.4781777,0.7943157,0.8908889,-0.051528484,0.4512887,0.25672597,0.87675023,-0.40669516,,0.10784153,1.3465618,0.44453755,0.9966507,-0.008032315,-0.08138134,-0.058236435,-0.7683575,-0.6373659,-0.05741044,0.6399705,-0.7662518,,-0.08335287,0.24688928,-0.06254891,-0.99537563,0.07553288,0.059347864,-0.0385193,-0.8798281,0.47372863,0.08799801,0.4692519,0.8786689,,-0.0043627103,0.44097936,-0.30693603,0.2992068,-0.5673287,-0.76721144,0.8686591,0.4946727,-0.02702423,0.39485016,-0.6583594,0.6408247,,1.1752609342652343,0.15758236429855113,0.20424604498,4.243914766183289,-0.0729638908747452,-0.8497505746708498,0.8137801374809791,,-0.907459726385751,-0.21691612097121804,0.21052008858000001,-3.1543658198377003,-0.4196106907796676,0.5566527538608266,0.8768309470088109,,-0.0396756972209611,-0.08834420341282298,0.07698115776,-0.046119083333121515,,2.1418557e-05,1.847744e-06,-2.861023e-06,1.0,-1.2271106e-05,-1.0251999e-05,1.2278557e-05,1.0,-9.23872e-07,1.0251999e-05,9.23872e-07,1.0,925,2.906,0,1,0.938,False,0.9913732087550757,1.0511565141852286
2.912549870001385,15:55:24.404840,15:55:08.503092,0,,0.12108429,0.003395602,-0.0044825375,0.9991633,-0.027231725,-0.030512743,0.01940659,-0.34103703,0.9398495,-0.0359997,-0.9396552,-0.34022325,,0.06303963,-0.009406075,0.010178745,-0.37464678,0.47823632,0.7943108,0.8909514,-0.051406622,0.45117936,0.2566031,0.87672544,-0.40682614,,0.10784153,1.3465618,0.44453755,0.9966507,-0.008032315,-0.08138134,-0.058236435,-0.7683575,-0.6373659,-0.05741044,0.6399705,-0.7662518,,-0.08376464,0.24678117,-0.06252057,-0.99574,0.07511194,0.053479057,-0.040843014,-0.879298,0.47451758,0.082665965,0.4703119,0.87861997,,-0.00436348,0.44097608,-0.30693874,0.29915324,-0.5673903,-0.7671868,0.86861587,0.49473938,-0.027191639,0.3949858,-0.6582562,0.64084715,,1.1732453009850616,0.15809978740112415,0.20424345240000003,4.248318254996463,-0.07515007487099225,-0.8516434315180322,0.8145968578116506,,-0.907459726385751,-0.21693156643696648,0.21052008858000001,-3.1543658198377003,-0.4194740542799022,0.5565413359571302,0.8768309470088109,,-0.0396756972209611,-0.08834420341282298,0.07698115776,-0.046119083333121515,,2.1418557e-05,1.847744e-06,-2.861023e-06,1.0,-1.2271106e-05,-1.0251999e-05,1.2278557e-05,1.0,-9.23872e-07,1.0251999e-05,9.23872e-07,1.0,934,2.935,0,1,0.938,False,0.9912540533180332,1.051494475590685
2.9533968049945543,15:55:24.446451,15:55:08.667628,0,,0.121135086,0.003410697,-0.004484102,0.99917316,-0.026238801,-0.031056888,0.020264242,-0.34083298,0.9399054,-0.035247207,-0.93975747,-0.34001946,,0.06303963,-0.009406075,0.010178745,-0.37464678,0.47823632,0.7943108,0.8909514,-0.051406622,0.45117936,0.2566031,0.87672544,-0.40682614,,0.10784153,1.3465618,0.44453755,0.9966507,-0.008032315,-0.08138134,-0.058236435,-0.7683575,-0.6373659,-0.05741044,0.6399705,-0.7662518,,-0.08381521,0.24678978,-0.06250715,-0.99578506,0.074126914,0.054011952,-0.03970296,-0.8792452,0.47471204,0.08267869,0.47056672,0.87848234,,-0.00436348,0.44097608,-0.30693874,0.29915324,-0.5673903,-0.7671868,0.86861587,0.49473938,-0.027191639,0.3949858,-0.6582562,0.64084715,,1.173044509930332,0.1582696875243571,0.20424474869000003,4.247269805279041,-0.07528671137075768,-0.8516953710946171,0.8145968578116507,,-0.907459726385751,-0.21693156643696648,0.21052008858000001,-3.1543658198377003,-0.4194740542799022,0.5565413359571302,0.8768309470088109,,-0.0396756972209611,-0.08834420341282298,0.07698115776,-0.046119083333121515,,2.1418557e-05,1.847744e-06,-2.861023e-06,1.0,-1.2271106e-05,-1.0251999e-05,1.2278557e-05,1.0,-9.23872e-07,1.0251999e-05,9.23872e-07,1.0,947,2.976,0,1,0.938,False,0.9877389679252926,1.051108233984449
