AlexandreBanks6/ExpertPlaybackApp/resources/Motions/Pilot_04/PC1/OneHanded_05.csv
Task Time,PC1 Time,PC2 Time,Gaze Calib,s_T_psm1,Tx,Ty,Tz,R00,R01,R02,R10,R11,R12,R20,R21,R22,s_T_psm3,Tx,Ty,Tz,R00,R01,R02,R10,R11,R12,R20,R21,R22,cart_T_ecm,Tx,Ty,Tz,R00,R01,R02,R10,R11,R12,R20,R21,R22,ecm_T_psm1,Tx,Ty,Tz,R00,R01,R02,R10,R11,R12,R20,R21,R22,ecm_T_psm3,Tx,Ty,Tz,R00,R01,R02,R10,R11,R12,R20,R21,R22,psm1_joints,q1,q2,q3,q4,q5,q6,jaw,psm3_joints,q1,q2,q3,q4,q5,q6,jaw,ecm_joints,q1,q2,q3,q4,ecmi_T_ecm,Tx,Ty,Tz,R00,R01,R02,R10,R11,R12,R20,R21,R22,Sample #,Task Duration (s),Collisions (binary),Collisions (increments),Cumulative Collision Time (s),Clutch Press,MTMR Angle,MTML Angle
""
lci_T_si,,,,,-0.064848,0.0060158353,0.24753708,0.99741,0.018062852,0.06962021,0.059872065,-0.74489254,-0.6644926,0.03985694,0.6669399,-0.7440447
rci_T_si,,,,,-0.07478864,0.010140588,0.2572284,0.9943315,0.005651281,0.106174365,0.075483374,-0.74079365,-0.6674781,0.07488119,0.6717089,-0.737021
ecm_T_lc,,,,,-4.4061628e-05,-0.00034663224,-0.01840835,-0.99912,0.030754527,0.028518902,-0.031987965,-0.99852574,-0.043852776,0.027128186,-0.04472645,0.9986309
ecm_T_rc,,,,,-0.0043358393,0.01870579,-0.007592615,-0.99555075,-0.052743673,-0.078081585,0.04863213,-0.9973746,0.053654674,-0.08070653,0.04961868,0.9955021
cart_T_ecmi,,,,,0.10781996,1.3465626,0.44453546,0.9966516,-0.008020006,-0.08137113,-0.05822047,-0.76835763,-0.6373672,-0.05741044,0.6399705,-0.7662518
ecmac_T_ecmrep_psm1,,,,,0.011947535,-0.24624088,-0.3140189,0.99787813,0.060519684,0.024013558,-0.059408683,0.9972389,-0.04455629,-0.026643785,0.04303513,0.9987182
ecmac_T_ecmrep_psm3,,,,,-0.020729378,-0.4297972,-0.5440064,0.99962926,-0.018584386,0.019899037,0.019259674,0.999226,-0.034299888,-0.019246193,0.03467042,0.99921346
""
0,15:57:01.761914,15:56:45.942305,0,,0.105550736,-0.001633212,0.03289488,0.9546021,0.27364102,-0.117708996,0.062315673,0.20296207,0.97720164,0.2912929,-0.9401738,0.17669585,,0.046100296,-0.0053302944,0.014098108,-0.6498657,0.18200105,0.7379363,0.68915075,-0.2683653,0.6730909,0.3205397,0.9459681,0.04897517,,0.10790487,1.3465595,0.44453815,0.9966465,-0.008087284,-0.08142694,-0.058307733,-0.7683569,-0.6373601,-0.05741044,0.6399705,-0.7662518,,-0.07031099,0.26842636,-0.09433863,-0.968331,-0.22239976,0.11346142,0.21063964,-0.4837484,0.8494813,-0.13403764,0.84647846,0.51527476,,0.011770186,0.4484605,-0.3078562,0.5756827,-0.26987684,-0.77185225,0.7931012,0.41397104,0.44678685,0.19894706,-0.8693644,0.4523556,,1.3219928588755,0.13739514056532826,0.17190490577,4.021014356259239,-0.49421421965159806,-1.2712522577312886,-0.41195373479065234,,-0.8560417709091642,-0.1902186334250239,0.19948347552,-3.4714170143863003,-0.6167771599411982,1.1422399163658268,0.8394251558640611,,-0.0396756972209611,-0.088337658428128,0.07698115776,-0.046119083333121515,,8.464791e-05,3.516674e-06,-7.033348e-06,1.0,-6.70962e-05,-5.6028366e-05,6.709248e-05,1.0,-4.976988e-06,5.6039542e-05,5.0365925e-06,1.0,38,0.115,1,1,0.091,False,-0.26148663402373185,1.0134979575772511
0.12338256298971828,15:57:01.797622,15:56:45.942305,0,,0.10550332,-0.0016305,0.033183604,0.951738,0.28203478,-0.12104218,0.06447187,0.20186466,0.9772891,0.30006364,-0.9379269,0.17393896,,0.046101548,-0.005330026,0.014098823,-0.6498675,0.18199387,0.73793644,0.6891506,-0.26836744,0.6730902,0.32053632,0.945969,0.048982024,,0.10790487,1.3465595,0.44453815,0.9966465,-0.008087284,-0.08142694,-0.058307733,-0.7683569,-0.6373601,-0.05741044,0.6399705,-0.7662518,,-0.070278905,0.26862225,-0.09455362,-0.9659234,-0.23090649,0.11693627,0.21817939,-0.48333162,0.84781384,-0.13924672,0.84443635,0.5172404,,0.011768857,0.44846103,-0.30785647,0.5756849,-0.2698697,-0.7718531,0.793099,0.4139708,0.44679093,0.19894932,-0.86936677,0.4523501,,1.3231203778751368,0.13731791323658601,0.1716936105,4.013255828350312,-0.5021391366379937,-1.2653617704978801,-0.4108103263277123,,-0.8560494936420384,-0.1902186334250239,0.19948347552,-3.4714170143863003,-0.6167771599411982,1.1422399163658268,0.8394251558640611,,-0.0396756972209611,-0.088337658428128,0.07698115776,-0.046119083333121515,,8.464791e-05,3.516674e-06,-7.033348e-06,1.0,-6.70962e-05,-5.6028366e-05,6.709248e-05,1.0,-4.976988e-06,5.6039542e-05,5.0365925e-06,1.0,50,0.152,1,1,0.128,False,-0.26160578946077395,1.0139324793842663
0.15909156198904384,15:57:01.829325,15:56:45.942305,0,,0.10543127,-0.0016250461,0.033419907,0.94900614,0.2899473,-0.12376528,0.06560153,0.20236781,0.9771098,0.30835646,-0.9354024,0.17302725,,0.04609946,-0.0053322613,0.014096737,-0.6501018,0.18208906,0.7377065,0.6890509,-0.26794335,0.67336106,0.3202752,0.9460708,0.04872185,,0.10790487,1.3465595,0.44453815,0.9966465,-0.008087284,-0.08142694,-0.058307733,-0.7683569,-0.6373601,-0.05741044,0.6399705,-0.7662518,,-0.070219435,0.26878598,-0.09472884,-0.9636283,-0.2389387,0.11970279,0.22463174,-0.48152235,0.8471581,-0.14477928,0.84323454,0.5176818,,0.011771266,0.44845822,-0.30785656,0.5759509,-0.26999658,-0.77161026,0.79287714,0.4143405,0.44684198,0.19906357,-0.8691512,0.4527139,,1.3242787878062705,0.1371248449147304,0.17153675941000002,4.006755440102292,-0.5102006901241547,-1.2617285488248513,-0.41113701445998063,,-0.8560417709091642,-0.1902186334250239,0.19948347552,-3.47183639427327,-0.6166405234414327,1.1421284984621303,0.8394251558640611,,-0.0396756972209611,-0.088337658428128,0.07698115776,-0.046119083333121515,,8.464791e-05,3.516674e-06,-7.033348e-06,1.0,-6.70962e-05,-5.6028366e-05,6.709248e-05,1.0,-4.976988e-06,5.6039542e-05,5.0365925e-06,1.0,54,0.165,1,1,0.141,False,-0.26148663402373185,1.0139324793842663
0.19080051498895045,15:57:01.855141,15:56:45.942305,0,,0.105559066,-0.0016814917,0.033627912,0.94354355,0.30507857,-0.12904438,0.06661637,0.20684859,0.9761023,0.32448053,-0.92959166,0.1748473,,0.045961283,-0.005388245,0.014092684,-0.64987147,0.18201843,0.7379268,0.68923324,-0.2680902,0.67311597,0.3203504,0.9460428,0.048770905,,0.10785026,1.3465598,0.44453737,0.996651,-0.008027723,-0.081377536,-0.05823048,-0.7683575,-0.63736635,-0.05741044,0.6399705,-0.7662518,,-0.070315234,0.26887515,-0.09492301,-0.9590277,-0.2543455,0.124796756,0.23624544,-0.47480464,0.8477905,-0.1563776,0.84253716,0.5154388,,0.011954744,0.448432,-0.30790016,0.5756479,-0.26989755,-0.771871,0.79306954,0.41420934,0.44662216,0.19917396,-0.86924446,0.45248625,,1.3253213567442907,0.1366923718737738,0.17142398218000002,3.9958515630410965,-0.5256406145976494,-1.259511525705007,-0.4096669178647723,,-0.8560494936420384,-0.19022635615789812,0.19948347552,-3.4716267043297857,-0.6166405234414327,1.1421284984621303,0.8394251558640611,,-0.0396756972209611,-0.088337658428128,0.07698115776,-0.046119083333121515,,3.025122e-05,3.1590462e-06,-2.026558e-06,0.99999994,-7.69645e-06,-6.429851e-06,7.69645e-06,0.99999994,-5.9604645e-07,6.4335763e-06,5.662441e-07,1.0,71,0.217,1,1,0.193,False,-0.26112916771260597,1.0142704407897223
0.2165695519943256,15:57:01.909811,15:56:46.116778,0,,0.105468236,-0.0016533434,0.033891574,0.9306152,0.3325942,-0.15276213,0.080735534,0.2205548,0.9720273,0.3569831,-0.91691685,0.17839932,,0.045994572,-0.0053824633,0.014086068,-0.6499049,0.18188892,0.7379292,0.6892297,-0.26812837,0.6731043,0.3202899,0.94605696,0.048894554,,0.10785026,1.3465598,0.44453737,0.996651,-0.008027723,-0.081377536,-0.05823048,-0.7683575,-0.63736635,-0.05741044,0.6399705,-0.7662518,,-0.07023834,0.26907465,-0.095104285,-0.9477629,-0.28242016,0.14827125,0.2688256,-0.45701057,0.84786445,-0.17169249,0.84343356,0.5090594,,0.011922127,0.44842815,-0.30788988,0.5756879,-0.2697686,-0.7718862,0.79303026,0.41420496,0.44669592,0.19921458,-0.8692866,0.45238742,,1.3267268941273997,0.1354567346138979,0.17133324188000001,3.9608333424791806,-0.5505084575549596,-1.2533638892765757,-0.40983026193090644,,-0.8561885028337745,-0.19022635615789812,0.19950551245000003,-3.4716267043297857,-0.6166405234414327,1.1421284984621303,0.8394251558640611,,-0.0396756972209611,-0.088337658428128,0.07698115776,-0.046119083333121515,,3.025122e-05,3.1590462e-06,-2.026558e-06,0.99999994,-7.69645e-06,-6.429851e-06,7.69645e-06,0.99999994,-5.9604645e-07,6.4335763e-06,5.662441e-07,1.0,83,0.255,1,1,0.231,False,-0.2617249448978165,1.0140773199866044
0.27128400599758606,15:57:01.930789,15:56:46.116778,0,,0.10540183,-0.0016737878,0.03395383,0.9267144,0.3404973,-0.15893951,0.08523942,0.22146156,0.97143644,0.3659705,-0.9137922,0.17620772,,0.046014637,-0.0053787827,0.014085412,-0.6499272,0.1818026,0.7379308,0.68922734,-0.2681538,0.67309654,0.32024962,0.9460663,0.048977047,,0.10785026,1.3465598,0.44453737,0.996651,-0.008027723,-0.081377536,-0.05823048,-0.7683575,-0.63736635,-0.05741044,0.6399705,-0.7662518,,-0.07017543,0.26910296,-0.09516706,-0.94431937,-0.29047263,0.15455276,0.27829152,-0.45450088,0.84615767,-0.17554128,0.8420538,0.5100301,,0.011902084,0.44842824,-0.30788597,0.5757145,-0.26968262,-0.77189636,0.7930041,0.41420203,0.4467451,0.19924167,-0.8693147,0.45232156,,1.3272134262984758,0.13481574778533725,0.17131639011000002,3.950348845304954,-0.5573402825432316,-1.2482013877924574,-0.41195373479065234,,-0.8562811756282652,-0.19022635615789812,0.19951588277,-3.4716267043297857,-0.6166405234414327,1.1421284984621303,0.8394251558640611,,-0.0396756972209611,-0.088337658428128,0.07698115776,-0.046119083333121515,,3.025122e-05,3.1590462e-06,-2.026558e-06,0.99999994,-7.69645e-06,-6.429851e-06,7.69645e-06,0.99999994,-5.9604645e-07,6.4335763e-06,5.662441e-07,1.0,87,0.268,1,1,0.244,False,-0.26005676877922745,1.013787638781928
0.2922638789896155,15:57:01.959826,15:56:46.116778,0,,0.105344534,-0.001695171,0.034059778,0.91843265,0.3587825,-0.16660285,0.090556905,0.21928537,0.9714489,0.3850725,-0.90729755,0.16890845,,0.04604031,-0.0053736717,0.014089465,-0.64995885,0.18168026,0.73793316,0.689224,-0.26818985,0.6730856,0.32019252,0.9460796,0.049093813,,0.10785026,1.3465598,0.44453737,0.996651,-0.008027723,-0.081377536,-0.05823048,-0.7683575,-0.63736635,-0.05741044,0.6399705,-0.7662518,,-0.07012393,0.26915944,-0.0952626,-0.93703204,-0.30908728,0.16259164,0.29523996,-0.4523683,0.841544,-0.18655924,0.8365572,0.5151385,,0.011875905,0.44843182,-0.30788428,0.5757523,-0.2695608,-0.7719108,0.792967,0.41419786,0.44681475,0.19928004,-0.8693544,0.45222825,,1.3279007495242818,0.1337886243130654,0.17130213092000002,3.9321058202218007,-0.5734633895155536,-1.2347273601957174,-0.411300358526115,,-0.856412462087127,-0.19022635615789812,0.19952495680000001,-3.4716267043297857,-0.6166405234414327,1.1421284984621303,0.8397518439963297,,-0.0396756972209611,-0.088337658428128,0.07698115776,-0.046119083333121515,,3.025122e-05,3.1590462e-06,-2.026558e-06,0.99999994,-7.69645e-06,-6.429851e-06,7.69645e-06,0.99999994,-5.9604645e-07,6.4335763e-06,5.662441e-07,1.0,100,0.307,1,1,0.283,False,-0.26148663402373185,1.013691078380369
0.3212740929884603,15:57:01.992105,15:56:46.116778,0,,0.10528389,-0.0017195642,0.034193173,0.9081957,0.38198265,-0.17108358,0.09136036,0.21797687,0.9716681,0.40845272,-0.89809525,0.16306749,,0.046050027,-0.0053735226,0.014087319,-0.649966,0.18170218,0.7379214,0.68922764,-0.26813987,0.6731018,0.32017022,0.9460895,0.04904753,,0.10785026,1.3465598,0.44453737,0.996651,-0.008027723,-0.081377536,-0.05823048,-0.7683575,-0.63736635,-0.05741044,0.6399705,-0.7662518,,-0.07007057,0.26923203,-0.09538069,-0.9280428,-0.3327486,0.16737635,0.3117369,-0.44793928,0.83795613,-0.2038543,0.8298366,0.51943684,,0.01186648,0.44842947,-0.3078822,0.5757617,-0.26958615,-0.77189493,0.7929556,0.41423884,0.44679707,0.19929855,-0.869327,0.4522727,,1.328873813866434,0.13257615525181216,0.17129694576,3.9149112448560697,-0.5961450484766166,-1.2217861425116698,-0.4116270466583838,,-0.8564510757514981,-0.19023407889077235,0.19953143825000003,-3.4716267043297857,-0.6166405234414327,1.14204681972199,0.839915188062464,,-0.0396756972209611,-0.088337658428128,0.07698115776,-0.046119083333121515,,3.025122e-05,3.1590462e-06,-2.026558e-06,0.99999994,-7.69645e-06,-6.429851e-06,7.69645e-06,0.99999994,-5.9604645e-07,6.4335763e-06,5.662441e-07,1.0,108,0.332,1,1,0.308,False,-0.2607121236829584,1.0139324793842663
0.3535442619904643,15:57:02.024270,15:56:46.116778,0,,0.10517998,-0.0017648339,0.03439571,0.8932208,0.41349587,-0.17657182,0.08803387,0.22427455,0.9705414,0.44091552,-0.8824522,0.1639249,,0.046051666,-0.0053755194,0.014076233,-0.64995843,0.18184187,0.73789376,0.68923277,-0.268018,0.67314506,0.32017475,0.94609714,0.048869103,,0.10785026,1.3465598,0.44453737,0.996651,-0.008027723,-0.081377536,-0.05823048,-0.7683575,-0.63736635,-0.05741044,0.6399705,-0.7662518,,-0.06997777,0.2693365,-0.09556601,-0.91482496,-0.3650117,0.17280544,0.33135676,-0.4338126,0.83786,-0.23086351,0.8237555,0.5178117,,0.011866154,0.44842044,-0.3078753,0.57575333,-0.26973182,-0.7718503,0.79296154,0.41431826,0.44671282,0.199299,-0.869244,0.45243207,,1.3304415286399016,0.13077675849211784,0.17129435318000003,3.8943616303945863,-0.6303041734179768,-1.213371206741018,-0.41391386358426363,,-0.8564279075528755,-0.19024180162364657,0.19954180857,-3.4716267043297857,-0.6166405234414327,1.141883462241709,0.8395884999301952,,-0.0396756972209611,-0.088337658428128,0.07698115776,-0.046119083333121515,,3.025122e-05,3.1590462e-06,-2.026558e-06,0.99999994,-7.69645e-06,-6.429851e-06,7.69645e-06,0.99999994,-5.9604645e-07,6.4335763e-06,5.662441e-07,1.0,121,0.373,1,1,0.349,False,-0.2611887454311268,1.013691078380369
0.3857255569892004,15:57:02.060082,15:56:46.116778,0,,0.10502873,-0.0017679632,0.034598395,0.8799967,0.4367624,-0.18666612,0.08987264,0.23278883,0.96836567,0.4663995,-0.86893487,0.16560036,,0.046054773,-0.005373597,0.0140692,-0.64983094,0.18186852,0.7379995,0.6893141,-0.26809713,0.6730303,0.32025856,0.9460696,0.04885316,,0.10785026,1.3465598,0.44453737,0.996651,-0.008027723,-0.081377536,-0.05823048,-0.7683575,-0.63736635,-0.05741044,0.6399705,-0.7662518,,-0.06983748,0.26947397,-0.095725365,-0.9029587,-0.38891542,0.1827852,0.3501204,-0.41919217,0.8376716,-0.24916126,0.8203796,0.51468045,,0.0118637355,0.4484168,-0.30786866,0.57561356,-0.2697513,-0.77194774,0.7930633,0.4142387,0.44660604,0.19929805,-0.86927587,0.45237124,,1.3319937979476209,0.1292785483145183,0.17127750141,3.8715054265547733,-0.6558551988741141,-1.205849693392699,-0.4116270466583838,,-0.8564201848200013,-0.19023407889077235,0.19954958631000003,-3.4714170143863003,-0.6166405234414327,1.1418017835015681,0.8394251558640611,,-0.0396756972209611,-0.088337658428128,0.07698115776,-0.046119083333121515,,3.025122e-05,3.1590462e-06,-2.026558e-06,0.99999994,-7.69645e-06,-6.429851e-06,7.69645e-06,0.99999994,-5.9604645e-07,6.4335763e-06,5.662441e-07,1.0,129,0.398,1,1,0.374,False,-0.26017592421626956,1.0129185951678976
0.4215565889899153,15:57:02.082930,15:56:46.116778,0,,0.10487855,-0.0018093735,0.03470157,0.8751611,0.44521075,-0.18942063,0.090997756,0.23305517,0.96819645,0.47519702,-0.8645649,0.16344756,,0.04605761,-0.0053748637,0.014064729,-0.6498288,0.18180582,0.7380167,0.6893186,-0.2681466,0.67300594,0.32025307,0.9460677,0.0489271,,0.10785026,1.3465598,0.44453737,0.996651,-0.008027723,-0.081377536,-0.05823048,-0.7683575,-0.63736635,-0.05741044,0.6399705,-0.7662518,,-0.069693185,0.26951656,-0.095836185,-0.8985896,-0.39758173,0.18564884,0.3569717,-0.416347,0.83619756,-0.25516254,0.8176698,0.5160505,,0.011861468,0.44841257,-0.30786613,0.5756118,-0.26968634,-0.7719717,0.7930627,0.4142079,0.44663557,0.19930527,-0.8693107,0.45230114,,1.332959139556899,0.12835182036961135,0.17125416819000003,3.8635372087023616,-0.664190025359806,-1.200441739849607,-0.4114637025922492,,-0.856412462087127,-0.19024180162364657,0.19955995663,-3.4714170143863003,-0.6166405234414327,1.1418017835015681,0.8390984677317926,,-0.0396756972209611,-0.088337658428128,0.07698115776,-0.046119083333121515,,3.025122e-05,3.1590462e-06,-2.026558e-06,0.99999994,-7.69645e-06,-6.429851e-06,7.69645e-06,0.99999994,-5.9604645e-07,6.4335763e-06,5.662441e-07,1.0,142,0.439,1,1,0.415,False,-0.26011634649774784,1.013787638781928
0.4443719359987881,15:57:02.123278,15:56:46.341371,0,,0.10459863,-0.0019042194,0.035032466,0.86172825,0.470683,-0.18942511,0.089480534,0.22650835,0.9698901,0.49941725,-0.85273165,0.15307161,,0.04606781,-0.005372897,0.014047623,-0.6497204,0.18182135,0.7381084,0.68933266,-0.2683829,0.67289746,0.32044274,0.9459977,0.04903835,,0.10785026,1.3465598,0.44453737,0.996651,-0.008027723,-0.081377536,-0.05823048,-0.7683575,-0.63736635,-0.05741044,0.6399705,-0.7662518,,-0.06943168,0.26967514,-0.09615761,-0.88646567,-0.42367902,0.18621151,0.37239954,-0.41413915,0.83054644,-0.27476764,0.80559593,0.524898,,0.011853099,0.44840145,-0.30785167,0.5754829,-0.26968223,-0.7720693,0.79318774,0.4139855,0.4466198,0.19918005,-0.8694179,0.4521502,,1.3353222958164115,0.12624351429494807,0.17113490951000002,3.844036043958301,-0.6908341428140669,-1.1787969273689454,-0.41113701445998085,,-0.8564201848200013,-0.19024180162364657,0.19957680840000003,-3.471207324442816,-0.6167771599411982,1.1419132014052646,0.838771779599524,,-0.0396756972209611,-0.088337658428128,0.07698115776,-0.046119083333121515,,3.025122e-05,3.1590462e-06,-2.026558e-06,0.99999994,-7.69645e-06,-6.429851e-06,7.69645e-06,0.99999994,-5.9604645e-07,6.4335763e-06,5.662441e-07,1.0,150,0.463,1,1,0.439,False,-0.26154621174225356,1.0131117159710155
0.48475058798794635,15:57:02.155268,15:56:46.341371,0,,0.10432901,-0.0019780993,0.03529592,0.85347885,0.4830452,-0.19555333,0.09119032,0.23102713,0.9686643,0.5130868,-0.8445672,0.15312749,,0.0460793,-0.00537242,0.014024377,-0.64971846,0.18170795,0.73813796,0.68933284,-0.26849073,0.6728542,0.32044607,0.9459889,0.04918602,,0.10785026,1.3465598,0.44453737,0.996651,-0.008027723,-0.081377536,-0.05823048,-0.7683575,-0.63736635,-0.05741044,0.6399705,-0.7662518,,-0.06917678,0.26980406,-0.09641444,-0.8789424,-0.43643183,0.19232157,0.38303956,-0.40572026,0.8298625,-0.28414965,0.8030681,0.5237754,,0.011844195,0.448385,-0.3078337,0.57548064,-0.26956326,-0.7721125,0.7931899,0.41391277,0.44668332,0.1991778,-0.86948943,0.45201364,,1.3372529790349676,0.12468352225435471,0.17101694712,3.8293577479143837,-0.7051809752894381,-1.1724071655899577,-0.4111370144599811,,-0.856412462087127,-0.19024180162364657,0.19960143791,-3.471207324442816,-0.6167771599411982,1.1420765588855457,0.8390984677317925,,-0.0396756972209611,-0.088337658428128,0.07698115776,-0.046119083333121515,,3.025122e-05,3.1590462e-06,-2.026558e-06,0.99999994,-7.69645e-06,-6.429851e-06,7.69645e-06,0.99999994,-5.9604645e-07,6.4335763e-06,5.662441e-07,1.0,163,0.504,1,1,0.48,False,-0.26059296824591627,1.0132082763725743
0.5167242089955835,15:57:02.190943,15:56:46.341371,0,,0.10393851,-0.0020574033,0.035653844,0.84266484,0.49984378,-0.20018014,0.09296252,0.23113653,0.96846974,0.53035253,-0.83470476,0.1483038,,0.046078205,-0.0053739697,0.014005899,-0.64970547,0.18175831,0.73813707,0.68933415,-0.26847583,0.6728587,0.32046962,0.9459834,0.04913789,,0.10785026,1.3465598,0.44453737,0.996651,-0.008027723,-0.081377536,-0.05823048,-0.7683575,-0.63736635,-0.05741044,0.6399705,-0.7662518,,-0.0688062,0.2699957,-0.096750334,-0.8690481,-0.45372802,0.19719613,0.3962025,-0.39959428,0.82664865,-0.2962752,0.796527,0.5270348,,0.011847365,0.44837165,-0.3078212,0.5754651,-0.26961342,-0.7721066,0.79320514,0.4139145,0.44665465,0.199162,-0.86947304,0.4520521,,1.34001771740394,0.12265244350843366,0.17086917006000002,3.810275963057292,-0.7237635392575381,-1.1577444031280877,-0.4103202941293096,,-0.8563584029570074,-0.19024180162364657,0.19961699339000002,-3.471207324442816,-0.6167771599411982,1.1420765588855457,0.8390984677317925,,-0.0396756972209611,-0.088337658428128,0.07698115776,-0.046119083333121515,,3.025122e-05,3.1590462e-06,-2.026558e-06,0.99999994,-7.69645e-06,-6.429851e-06,7.69645e-06,0.99999994,-5.9604645e-07,6.4335763e-06,5.662441e-07,1.0,171,0.529,1,1,0.505,False,-0.26053339052739544,1.0133048367741333
0.5524106599914376,15:57:02.211670,15:56:46.341371,0,,0.10376622,-0.0021122694,0.03578867,0.83917755,0.5060891,-0.19913471,0.09177384,0.22912762,0.9690603,0.5360581,-0.8314892,0.14583296,,0.046081066,-0.0053754896,0.013998508,-0.6497015,0.18176305,0.73813933,0.6893389,-0.26846817,0.6728569,0.3204674,0.94598466,0.049127698,,0.10785026,1.3465598,0.44453737,0.996651,-0.008027723,-0.081377536,-0.05823048,-0.7683575,-0.63736635,-0.05741044,0.6399705,-0.7662518,,-0.06864158,0.27005005,-0.09689464,-0.8658741,-0.46014538,0.19628608,0.39922762,-0.3991444,0.82540965,-0.30146194,0.7930637,0.52931154,,0.011845404,0.4483653,-0.30781665,0.57546115,-0.26961866,-0.77210766,0.79320675,0.41392043,0.44664624,0.19916698,-0.86946857,0.4520585,,1.3412224637323191,0.12172571556352672,0.17081342959,3.8056627843006328,-0.7312785467446373,-1.1517797759050654,-0.4103202941293096,,-0.8563506802241332,-0.1902495243565208,0.19962477113000002,-3.471207324442816,-0.6167771599411982,1.1420765588855457,0.8390984677317925,,-0.0396756972209611,-0.088337658428128,0.07698115776,-0.046119083333121515,,3.025122e-05,3.1590462e-06,-2.026558e-06,0.99999994,-7.69645e-06,-6.429851e-06,7.69645e-06,0.99999994,-5.9604645e-07,6.4335763e-06,5.662441e-07,1.0,184,0.57,1,1,0.546,False,-0.261427056305211,1.0133048367741333
0.5730777779972414,15:57:02.261243,15:56:46.480545,0,,0.10322418,-0.0022608936,0.036113814,0.82859945,0.5224252,-0.20123321,0.09099783,0.22898564,0.9691671,0.5523968,-0.82136315,0.1421977,,0.04609126,-0.0053748786,0.013980448,-0.6497015,0.18176305,0.73813933,0.6893389,-0.26846817,0.6728569,0.3204674,0.94598466,0.049127698,,0.10785026,1.3465598,0.44453737,0.996651,-0.008027723,-0.081377536,-0.05823048,-0.7683575,-0.63736635,-0.05741044,0.6399705,-0.7662518,,-0.068118304,0.27017292,-0.097258896,-0.85617983,-0.47699502,0.19857459,0.40986693,-0.39301568,0.82313293,-0.31458738,0.78613895,0.5319966,,0.011837219,0.44835255,-0.30780247,0.57546115,-0.26961866,-0.77210766,0.79320675,0.41392043,0.44664624,0.19916698,-0.86946857,0.4520585,,1.3446359116627262,0.1188528589343152,0.17071880042,3.7890972787653547,-0.7515007487099225,-1.1382303608030555,-0.411300358526115,,-0.8563506802241332,-0.1902495243565208,0.19964551177,-3.471207324442816,-0.6167771599411982,1.1420765588855457,0.8390984677317925,,-0.0396756972209611,-0.088337658428128,0.07698115776,-0.046119083333121515,,3.025122e-05,3.1590462e-06,-2.026558e-06,0.99999994,-7.69645e-06,-6.429851e-06,7.69645e-06,0.99999994,-5.9604645e-07,6.4335763e-06,5.662441e-07,1.0,205,0.635,1,1,0.611,False,-0.260652545964438,1.013401397175692
0.6226399359875359,15:57:02.323261,15:56:46.480545,0,,0.10259855,-0.0024321973,0.03642164,0.81565505,0.5407864,-0.20556416,0.09159638,0.230124,0.96884084,0.5712413,-0.8090691,0.13816774,,0.04610145,-0.0053742975,0.013962388,-0.6497015,0.18176305,0.73813933,0.6893389,-0.26846817,0.6728569,0.3204674,0.94598466,0.049127698,,0.10785026,1.3465598,0.44453737,0.996651,-0.008027723,-0.081377536,-0.05823048,-0.7683575,-0.63736635,-0.05741044,0.6399705,-0.7662518,,-0.06751077,0.27027,-0.09762904,-0.84424806,-0.49597493,0.20311098,0.4232741,-0.384552,0.82034063,-0.32876167,0.77854264,0.5345906,,0.0118290335,0.4483398,-0.3077883,0.57546115,-0.26961866,-0.77210766,0.79320675,0.41392043,0.44664624,0.19916698,-0.86946857,0.4520585,,1.3482578733807375,0.11540852007241108,0.1706695414,3.767499214586449,-0.7739091346714547,-1.122081471840497,-0.4106469822615779,,-0.8563506802241332,-0.1902495243565208,0.19966625241000002,-3.471207324442816,-0.6167771599411982,1.1420765588855457,0.8390984677317925,,-0.0396756972209611,-0.088337658428128,0.07698115776,-0.046119083333121515,,3.025122e-05,3.1590462e-06,-2.026558e-06,0.99999994,-7.69645e-06,-6.429851e-06,7.69645e-06,0.99999994,-5.9604645e-07,6.4335763e-06,5.662441e-07,1.0,213,0.66,1,1,0.636,False,-0.2623802998015474,1.0135945179788102
0.6846950089966413,15:57:02.343531,15:56:46.480545,0,,0.10239659,-0.0024655461,0.036537305,0.8105383,0.5456484,-0.21282713,0.09383607,0.23770323,0.9667945,0.57811964,-0.80359495,0.14146599,,0.046100363,-0.005375549,0.013955116,-0.6497131,0.18184105,0.73810995,0.68927246,-0.268562,0.67288756,0.32058683,0.94594306,0.04915011,,0.10785026,1.3465598,0.44453737,0.996651,-0.008027723,-0.081377536,-0.05823048,-0.7683575,-0.63736635,-0.05741044,0.6399705,-0.7662518,,-0.0673154,0.27032855,-0.097745985,-0.83949065,-0.50107944,0.21017821,0.42968598,-0.37541023,0.8212412,-0.33260402,0.7797349,0.5304602,,0.011830961,0.44833413,-0.30778384,0.57546306,-0.26968682,-0.77208245,0.7932388,0.41381502,0.446687,0.1990337,-0.86949766,0.45206133,,1.3493776696475002,0.11437367386726499,0.17064620818,3.7570147174122233,-0.7806043231599613,-1.1216860764480874,-0.41456723984880095,,-0.8563275120255105,-0.190257247089395,0.19967273386,-3.471207324442816,-0.6169137964409637,1.1421062980491017,0.8392618117979268,,-0.0396756972209611,-0.088337658428128,0.07698115776,-0.046119083333121515,,3.025122e-05,3.1590462e-06,-2.026558e-06,0.99999994,-7.69645e-06,-6.429851e-06,7.69645e-06,0.99999994,-5.9604645e-07,6.4335763e-06,5.662441e-07,1.0,226,0.701,1,1,0.677,False,-0.26202283349042155,1.012773754565559
0.704977773988503,15:57:02.389551,15:56:46.480545,0,,0.102010414,-0.0025678873,0.03667347,0.80488104,0.55282176,-0.21576473,0.095263004,0.23850709,0.966457,0.58574,-0.7984374,0.13930628,,0.04610803,-0.0053753257,0.013938606,-0.6497112,0.18184821,0.7381098,0.68927276,-0.26855984,0.67288816,0.32059014,0.94594234,0.049143225,,0.10785026,1.3465598,0.44453737,0.996651,-0.008027723,-0.081377536,-0.05823048,-0.7683575,-0.63736635,-0.05741044,0.6399705,-0.7662518,,-0.06693752,0.27035514,-0.09793214,-0.8342371,-0.5085114,0.21322417,0.43600366,-0.37159988,0.81964284,-0.33756366,0.776743,0.5317153,,0.011825129,0.44832245,-0.3077712,0.57546085,-0.26969397,-0.77208155,0.793241,0.41381526,0.44668293,0.19903146,-0.86949533,0.4520668,,1.3514164711262955,0.11239665425146352,0.17063972673000002,3.746110840351028,-0.7897589686442458,-1.1137310044595836,-0.41293379918745776,,-0.8563197892926363,-0.190257247089395,0.19969088192,-3.471207324442816,-0.6169137964409637,1.1421062980491017,0.8392618117979268,,-0.0396756972209611,-0.088337658428128,0.07698115776,-0.046119083333121515,,3.025122e-05,3.1590462e-06,-2.026558e-06,0.99999994,-7.69645e-06,-6.429851e-06,7.69645e-06,0.99999994,-5.9604645e-07,6.4335763e-06,5.662441e-07,1.0,251,0.779,1,1,0.755,False,-0.26101001227556386,1.0133048367741333
0.7509945569909178,15:57:02.463322,15:56:46.656811,0,,0.10176425,-0.0025267303,0.03685583,0.79102623,0.5719563,-0.21712509,0.09514578,0.23557377,0.96718764,0.60433817,-0.78572947,0.1319257,,0.046118222,-0.0053747296,0.013920546,-0.6497112,0.18184821,0.7381098,0.68927276,-0.26855984,0.67288816,0.32059014,0.94594234,0.049143225,,0.10785026,1.3465598,0.44453737,0.996651,-0.008027723,-0.081377536,-0.05823048,-0.7683575,-0.63736635,-0.05741044,0.6399705,-0.7662518,,-0.06670113,0.27051502,-0.0980509,-0.82138693,-0.528307,0.21497712,0.44874194,-0.36591834,0.81531245,-0.35207126,0.76615626,0.5376341,,0.011816945,0.4483097,-0.30775702,0.57546085,-0.26969397,-0.77208155,0.793241,0.41381526,0.44668293,0.19903146,-0.86949533,0.4520668,,1.3529687404340145,0.11104517599847423,0.1706825043,3.723883706341668,-0.8094346246104692,-1.0922960294780217,-0.41195373479065234,,-0.8563197892926363,-0.190257247089395,0.19971162256000002,-3.471207324442816,-0.6169137964409637,1.1421062980491017,0.8392618117979268,,-0.0396756972209611,-0.088337658428128,0.07698115776,-0.046119083333121515,,3.025122e-05,3.1590462e-06,-2.026558e-06,0.99999994,-7.69645e-06,-6.429851e-06,7.69645e-06,0.99999994,-5.9604645e-07,6.4335763e-06,5.662441e-07,1.0,259,0.804,1,1,0.78,False,-0.2617249448978165,1.013401397175692
0.8247909599886043,15:57:02.487557,15:56:46.656811,0,,0.10169841,-0.0025036186,0.036935464,0.7829461,0.5820416,-0.21959665,0.094715625,0.23735043,0.9667955,0.6148366,-0.7777481,0.13070402,,0.04611574,-0.0053754747,0.013916194,-0.64970565,0.18186979,0.73810935,0.6892733,-0.26855353,0.6728902,0.3206002,0.94594,0.04912266,,0.10785026,1.3465598,0.44453737,0.996651,-0.008027723,-0.081377536,-0.05823048,-0.7683575,-0.63736635,-0.05741044,0.6399705,-0.7662518,,-0.06663948,0.27058735,-0.09809755,-0.8138762,-0.53879106,0.21750776,0.45566952,-0.3595931,0.8142838,-0.36051455,0.7618379,0.538175,,0.011819914,0.4483065,-0.30775446,0.5754542,-0.26971546,-0.77207905,0.7932475,0.413816,0.44667065,0.19902469,-0.8694883,0.45208326,,1.3533780452763484,0.11046597103290738,0.17070843010000003,3.711511999676081,-0.8203655445917044,-1.0838726696231513,-0.41293379918745776,,-0.8562966210940136,-0.190257247089395,0.19971421514,-3.471207324442816,-0.6169137964409637,1.1421062980491017,0.8392618117979268,,-0.0396756972209611,-0.088337658428128,0.07698115776,-0.046119083333121515,,3.025122e-05,3.1590462e-06,-2.026558e-06,0.99999994,-7.69645e-06,-6.429851e-06,7.69645e-06,0.99999994,-5.9604645e-07,6.4335763e-06,5.662441e-07,1.0,272,0.844,1,1,0.82,False,-0.26005676877922745,1.0136427981795895
0.8490307469910476,15:57:02.527593,15:56:46.656811,0,,0.10167886,-0.002531588,0.036985412,0.7738028,0.59514433,-0.21686928,0.0908286,0.23458505,0.9678428,0.62688065,-0.7686175,0.12746638,,0.046116054,-0.0053771734,0.013913333,-0.6497017,0.1819349,0.73809683,0.6892781,-0.26849088,0.67291033,0.32059813,0.94594526,0.04903516,,0.10785026,1.3465598,0.44453737,0.996651,-0.008027723,-0.081377536,-0.05823048,-0.7683575,-0.63736635,-0.05741044,0.6399705,-0.7662518,,-0.06662276,0.2706004,-0.09815419,-0.80540395,-0.55237323,0.21496119,0.46108457,-0.35598075,0.81282145,-0.3724588,0.75376487,0.54139906,,0.011820001,0.4483033,-0.30775344,0.57545024,-0.2697838,-0.7720581,0.7932492,0.41385844,0.44662845,0.19902965,-0.8694469,0.4521607,,1.3534938862694619,0.10963191588249115,0.17075250396000002,3.7012371924453396,-0.8349856500666065,-1.0721959901480562,-0.41260711105518943,,-0.8562888983611394,-0.19026496982226926,0.19971680772000003,-3.471207324442816,-0.6169137964409637,1.1420246193089612,0.8390984677317926,,-0.0396756972209611,-0.088337658428128,0.07698115776,-0.046119083333121515,,3.025122e-05,3.1590462e-06,-2.026558e-06,0.99999994,-7.69645e-06,-6.429851e-06,7.69645e-06,0.99999994,-5.9604645e-07,6.4335763e-06,5.662441e-07,1.0,289,0.897,1,1,0.873,False,-0.2608908568385213,1.013835918982707
0.8890109809872229,15:57:02.578952,15:56:46.803486,0,,0.10154992,-0.002603948,0.036993578,0.76380986,0.60636544,-0.22116779,0.092555195,0.23622191,0.967281,0.6387706,-0.75928915,0.12430626,,0.046117365,-0.005380377,0.013914645,-0.64971656,0.18179835,0.7381175,0.6892199,-0.2687469,0.6728676,0.32069296,0.9458987,0.049310207,,0.10785026,1.3465598,0.44453737,0.996651,-0.008027723,-0.081377536,-0.05823048,-0.7683575,-0.63736635,-0.05741044,0.6399705,-0.7662518,,-0.066494815,0.27055597,-0.09821409,-0.7960453,-0.5640635,0.21941788,0.47060612,-0.34889776,0.81043214,-0.38058078,0.7484001,0.5431902,,0.011818722,0.44830167,-0.3077565,0.5754576,-0.26963028,-0.7721063,0.79327136,0.41365397,0.4467784,0.19891985,-0.8695918,0.45193028,,1.3536637863926948,0.10814915117064003,0.17082509620000003,3.684252307023093,-0.8465997525466691,-1.0602751061296432,-0.41309714325359215,,-0.8562966210940136,-0.19028813802089192,0.19971680772000003,-3.471207324442816,-0.617050432940729,1.1422993946929385,0.8390984677317925,,-0.0396756972209611,-0.088337658428128,0.07698115776,-0.046119083333121515,,3.025122e-05,3.1590462e-06,-2.026558e-06,0.99999994,-7.69645e-06,-6.429851e-06,7.69645e-06,0.99999994,-5.9604645e-07,6.4335763e-06,5.662441e-07,1.0,297,0.922,1,1,0.898,False,-0.2618441003348577,1.0134979575772511
0.94040212300024,15:57:02.600006,15:56:46.803486,0,,0.1014559,-0.002663076,0.036985293,0.7579961,0.6121742,-0.22513224,0.09531587,0.23749232,0.96670157,0.645257,-0.75421476,0.12166828,,0.04611352,-0.0053872913,0.013912141,-0.64970064,0.18181741,0.73812675,0.6892389,-0.26871634,0.6728604,0.32068437,0.9459038,0.049269408,,0.10785026,1.3465598,0.44453737,0.996651,-0.008027723,-0.081377536,-0.05823048,-0.7683575,-0.63736635,-0.05741044,0.6399705,-0.7662518,,-0.06640079,0.27050933,-0.09825139,-0.7905684,-0.5701258,0.22351326,0.47716692,-0.34475252,0.80836713,-0.38381422,0.74572265,0.5445956,,0.011823161,0.44829533,-0.30775952,0.5754418,-0.2696513,-0.7721107,0.79327786,0.41367778,0.44674483,0.19893973,-0.86957395,0.45195588,,1.3536946773241916,0.10713747316411662,0.17086787377,3.6727193601314436,-0.8519285760375213,-1.0524993007995793,-0.41309714325359215,,-0.8562657301625167,-0.1903190289523888,0.19971680772000003,-3.471207324442816,-0.617050432940729,1.1422993946929385,0.8390984677317925,,-0.0396756972209611,-0.088337658428128,0.07698115776,-0.046119083333121515,,3.025122e-05,3.1590462e-06,-2.026558e-06,0.99999994,-7.69645e-06,-6.429851e-06,7.69645e-06,0.99999994,-5.9604645e-07,6.4335763e-06,5.662441e-07,1.0,310,0.963,1,1,0.939,False,-0.26112916771260597,1.0140773199866044
0.9614282709953841,15:57:02.648076,15:56:46.803486,0,,0.10137254,-0.0027062148,0.037005797,0.75031555,0.6209875,-0.22671771,0.09615466,0.23678797,0.9667913,0.6540494,-0.74719864,0.11795473,,0.046111174,-0.005404994,0.013910592,-0.6496871,0.18181562,0.7381391,0.68922263,-0.268802,0.67284274,0.3207465,0.9458798,0.049325645,,0.10785026,1.3465598,0.44453737,0.996651,-0.008027723,-0.081377536,-0.05823048,-0.7683575,-0.63736635,-0.05741044,0.6399705,-0.7662518,,-0.06631886,0.27049348,-0.09829899,-0.78335965,-0.5793017,0.2252935,0.4838907,-0.34087893,0.8060095,-0.3901249,0.7404128,0.5473496,,0.011826548,0.44828153,-0.30777043,0.5754224,-0.2696426,-0.77212816,0.79330593,0.41359887,0.44676802,0.19888365,-0.8696142,0.45190313,,1.3537873501186823,0.10614896335621589,0.17091194763,3.659928273578888,-0.8606733120225094,-1.0412846179559803,-0.41309714325359215,,-0.8562348392310198,-0.19041170174687952,0.19971680772000003,-3.471207324442816,-0.6171870694404945,1.142410812596635,0.8390984677317925,,-0.0396756972209611,-0.088337658428128,0.07698115776,-0.046119083333121515,,3.025122e-05,3.1590462e-06,-2.026558e-06,0.99999994,-7.69645e-06,-6.429851e-06,7.69645e-06,0.99999994,-5.9604645e-07,6.4335763e-06,5.662441e-07,1.0,318,0.987,1,1,0.963,False,-0.2608908568385213,1.0141738803881637
1.0095510429964634,15:57:02.678554,15:56:46.803486,0,,0.10132698,-0.0027146935,0.037030652,0.7433454,0.6286146,-0.22865082,0.09670061,0.23724785,0.96662414,0.66188097,-0.74064636,0.11556959,,0.04611235,-0.0054174364,0.013909817,-0.64968556,0.1817995,0.73814446,0.68919235,-0.26891065,0.67283046,0.32081515,0.94585204,0.04941246,,0.10785026,1.3465598,0.44453737,0.996651,-0.008027723,-0.081377536,-0.05823048,-0.7683575,-0.63736635,-0.05741044,0.6399705,-0.7662518,,-0.06627473,0.27050516,-0.09832511,-0.77681094,-0.58726233,0.22734924,0.48973387,-0.3364098,0.8043564,-0.3958857,0.73617345,0.5489291,,0.011826094,0.44827172,-0.30777818,0.57541496,-0.2696181,-0.7721423,0.7933292,0.4135021,0.44681635,0.19881268,-0.8696678,0.4518312,,1.353779627385808,0.1055234219934037,0.17094954004000001,3.6483953266872393,-0.868324956009374,-1.032186459444061,-0.41326048731972675,,-0.8562271164981456,-0.19048120634274754,0.19971810401,-3.471207324442816,-0.61732370594026,1.1425222305003313,0.8390984677317925,,-0.0396756972209611,-0.088337658428128,0.07698115776,-0.046119083333121515,,3.025122e-05,3.1590462e-06,-2.026558e-06,0.99999994,-7.69645e-06,-6.429851e-06,7.69645e-06,0.99999994,-5.9604645e-07,6.4335763e-06,5.662441e-07,1.0,336,1.045,1,1,1.021,False,-0.2602950796533112,1.0140773199866044
1.0399665649892995,15:57:02.729553,15:56:46.946311,0,,0.10124749,-0.0026925802,0.037132517,0.7266582,0.6456739,-0.23467623,0.09729144,0.24143566,0.96552724,0.680075,-0.72444046,0.11262259,,0.04611615,-0.0054397285,0.013911366,-0.64967096,0.18175924,0.73816717,0.6891935,-0.26898265,0.6728004,0.3208418,0.9458393,0.049482882,,0.10785026,1.3465598,0.44453737,0.996651,-0.008027723,-0.081377536,-0.05823048,-0.7683575,-0.63736635,-0.05741044,0.6399705,-0.7662518,,-0.06620064,0.270592,-0.09838953,-0.7611072,-0.605133,0.23351628,0.50281924,-0.32302698,0.80176455,-0.40974212,0.7276453,0.55013067,,0.011823276,0.4482559,-0.3077942,0.57539755,-0.26957312,-0.77217096,0.7933463,0.41344503,0.44683874,0.19879453,-0.8697089,0.45176008,,1.3537641819200597,0.10442679392526381,0.17101046567000003,3.6209259440907666,-0.8862243374786468,-1.0133434195725204,-0.412933799187458,,-0.8562271164981456,-0.19060477006873514,0.19971810401,-3.471207324442816,-0.6174603424400255,1.1426336484040278,0.8390984677317925,,-0.0396756972209611,-0.088337658428128,0.07698115776,-0.046119083333121515,,3.025122e-05,3.1590462e-06,-2.026558e-06,0.99999994,-7.69645e-06,-6.429851e-06,7.69645e-06,0.99999994,-5.9604645e-07,6.4335763e-06,5.662441e-07,1.0,350,1.09,1,1,1.066,False,-0.2622015666459845,1.013835918982707
1.0909981889999472,15:57:02.776419,15:56:46.946311,0,,0.10117254,-0.002702564,0.037202165,0.7171066,0.6551942,-0.23765197,0.09872204,0.24205613,0.96522665,0.68993616,-0.715632,0.108897865,,0.046109393,-0.005455017,0.013905287,-0.64963704,0.18173468,0.73820305,0.6892361,-0.2689708,0.67276156,0.32081914,0.9458474,0.049475253,,0.10785026,1.3465598,0.44453737,0.996651,-0.008027723,-0.081377536,-0.05823048,-0.7683575,-0.63736635,-0.05741044,0.6399705,-0.7662518,,-0.06612952,0.2706333,-0.09845122,-0.7520835,-0.61510277,0.23668334,0.51075464,-0.31699437,0.7991522,-0.41653347,0.72191626,0.55257285,,0.011831422,0.44824132,-0.30780035,0.5753642,-0.2695502,-0.7722038,0.79335874,0.41346186,0.44680107,0.19884151,-0.869708,0.45174116,,1.3538027955844307,0.1036313524392187,0.17102731744000002,3.6039410586685197,-0.8953789829629313,-0.9996708357741775,-0.41358717545199486,,-0.8561653346351518,-0.19067427466460315,0.19971940030000002,-3.471207324442816,-0.6174603424400255,1.1427153271441686,0.8392618117979267,,-0.0396756972209611,-0.088337658428128,0.07698115776,-0.046119083333121515,,3.025122e-05,3.1590462e-06,-2.026558e-06,0.99999994,-7.69645e-06,-6.429851e-06,7.69645e-06,0.99999994,-5.9604645e-07,6.4335763e-06,5.662441e-07,1.0,359,1.118,1,1,1.094,False,-0.2618441003348577,1.0135945179788102
1.1378828890010482,15:57:02.809840,15:56:46.946311,0,,0.101137966,-0.0027118027,0.03727539,0.7082013,0.6640915,-0.23965222,0.09812021,0.24357072,0.964907,0.69915897,-0.70686316,0.10733619,,0.046101063,-0.0054689646,0.013901353,-0.6496053,0.18177283,0.73822165,0.6892741,-0.26890954,0.67274714,0.320802,0.9458574,0.049393654,,0.10785026,1.3465598,0.44453737,0.996651,-0.008027723,-0.081377536,-0.05823048,-0.7683575,-0.63736635,-0.05741044,0.6399705,-0.7662518,,-0.06609892,0.27067629,-0.09851332,-0.7436821,-0.6244436,0.23876172,0.51673025,-0.31030244,0.79793626,-0.42417786,0.71678627,0.55343527,,0.011840812,0.4482294,-0.30780727,0.5753326,-0.26959226,-0.7722127,0.79337174,0.4135095,0.44673395,0.19888127,-0.8696723,0.45179236,,1.3537487364543113,0.10300581107640651,0.17103509518,3.5898918324550566,-0.9050801744462775,-0.9891464449272336,-0.4139138635842634,,-0.856103552772158,-0.19073605652759695,0.19971810401,-3.471207324442816,-0.6174603424400255,1.1427153271441686,0.8392618117979267,,-0.0396756972209611,-0.088337658428128,0.07698115776,-0.046119083333121515,,3.025122e-05,3.1590462e-06,-2.026558e-06,0.99999994,-7.69645e-06,-6.429851e-06,7.69645e-06,0.99999994,-5.9604645e-07,6.4335763e-06,5.662441e-07,1.0,373,1.164,1,1,1.14,False,-0.2607717014014801,1.013787638781928
1.1712963119935011,15:57:02.848280,15:56:47.081959,0,,0.101059735,-0.0026958585,0.037414446,0.6924751,0.67813015,-0.24620639,0.0992749,0.2484551,0.9635426,0.7145786,-0.6916714,0.10472754,,0.04609081,-0.005486369,0.013896227,-0.64956546,0.18182051,0.7382449,0.6893215,-0.26883295,0.67272913,0.3207805,0.94587004,0.0492917,,0.10785026,1.3465598,0.44453737,0.996651,-0.008027723,-0.081377536,-0.05823048,-0.7683575,-0.63736635,-0.05741044,0.6399705,-0.7662518,,-0.06602808,0.27078328,-0.09860951,-0.72878814,-0.63924044,0.2454374,0.52835715,-0.29698166,0.7953871,-0.4355532,0.70934725,0.55418396,,0.011852423,0.4482143,-0.3078157,0.575293,-0.26964486,-0.77222383,0.79338795,0.41356903,0.44665003,0.19893096,-0.8696277,0.45185634,,1.3536560636598205,0.1020868058643738,0.17104157663000003,3.5624224498585844,-0.9197002799211796,-0.9706087512803312,-0.41440389578266634,,-0.8560263254434157,-0.1908132838563392,0.19971680772000003,-3.471207324442816,-0.6174603424400255,1.1427153271441686,0.8392618117979267,,-0.0396756972209611,-0.088337658428128,0.07698115776,-0.046119083333121515,,3.025122e-05,3.1590462e-06,-2.026558e-06,0.99999994,-7.69645e-06,-6.429851e-06,7.69645e-06,0.99999994,-5.9604645e-07,6.4335763e-06,5.662441e-07,1.0,382,1.192,1,1,1.168,False,-0.2611887454311268,1.0137393585811485
1.2097289269877365,15:57:02.878348,15:56:47.081959,0,,0.10099715,-0.0026943088,0.037526533,0.68020946,0.68889534,-0.25047597,0.09984523,0.2514453,0.96270764,0.7261858,-0.6798518,0.10225245,,0.04608284,-0.0054935217,0.013892174,-0.64969283,0.1819563,0.73809934,0.6891838,-0.2687732,0.6728941,0.3208186,0.945861,0.049218595,,0.10785026,1.3465598,0.44453737,0.996651,-0.008027723,-0.081377536,-0.05823048,-0.7683575,-0.63736635,-0.05741044,0.6399705,-0.7662518,,-0.0659715,0.27086106,-0.098694526,-0.7171512,-0.6506,0.24982753,0.53690004,-0.28721622,0.7932498,-0.44433376,0.7030124,0.5552846,,0.011861138,0.4482072,-0.30781797,0.5754222,-0.26978168,-0.7720797,0.793326,0.41359195,0.44673875,0.19880404,-0.86957437,0.45201486,,1.3535479453995813,0.10133770077557401,0.17103898405,3.5410340756231626,-0.9309044729019458,-0.9551832201864011,-0.41391386358426385,,-0.8559799890461705,-0.19084417478783608,0.19971680772000003,-3.4714170143863003,-0.6175969789397908,1.1427450663077243,0.839425155864061,,-0.0396756972209611,-0.088337658428128,0.07698115776,-0.046119083333121515,,3.025122e-05,3.1590462e-06,-2.026558e-06,0.99999994,-7.69645e-06,-6.429851e-06,7.69645e-06,0.99999994,-5.9604645e-07,6.4335763e-06,5.662441e-07,1.0,396,1.237,1,1,1.213,False,-0.2618441003348577,1.013691078380369
1.2398153779940913,15:57:02.922579,15:56:47.081959,0,,0.10092005,-0.0026917458,0.037713483,0.6612297,0.70451474,-0.2577482,0.100215435,0.25754574,0.96105504,0.7434594,-0.6613086,0.09969357,,0.046076953,-0.0055009127,0.013890028,-0.6491564,0.18182746,0.73860294,0.68955016,-0.2692509,0.6723275,0.32111707,0.9457498,0.049406677,,0.10785026,1.3465598,0.44453737,0.996651,-0.008027723,-0.081377536,-0.05823048,-0.7683575,-0.63736635,-0.05741044,0.6399705,-0.7662518,,-0.065904394,0.27098995,-0.098835215,-0.6991106,-0.6671463,0.25721607,0.54927963,-0.27080604,0.7905416,-0.4577512,0.6939596,0.55577326,,0.011867591,0.448201,-0.30782163,0.57483876,-0.2696176,-0.7725715,0.7937358,0.41318032,0.4463916,0.19885631,-0.8698209,0.4515172,,1.3532544815503609,0.10030285457042794,0.17101565083,3.507903064552608,-0.9477107623730949,-0.9325758353564202,-0.41505727204720366,,-0.8559182071831767,-0.1908827884522072,0.19971551143000002,-3.470578254612363,-0.6175969789397908,1.1427450663077243,0.839425155864061,,-0.0396756972209611,-0.088337658428128,0.07698115776,-0.046119083333121515,,3.025122e-05,3.1590462e-06,-2.026558e-06,0.99999994,-7.69645e-06,-6.429851e-06,7.69645e-06,0.99999994,-5.9604645e-07,6.4335763e-06,5.662441e-07,1.0,405,1.266,1,1,1.242,False,-0.26148663402373185,1.0139324793842663
1.2840469679940725,15:57:02.955753,15:56:47.081959,0,,0.10087496,-0.0027350038,0.03791584,0.6442571,0.7172114,-0.26559448,0.1015172,0.2640026,0.9591645,0.7580414,-0.64491105,0.09727612,,0.04607357,-0.0055049807,0.013889432,-0.6492762,0.18182027,0.7384994,0.68947417,-0.26915988,0.6724419,0.32103798,0.9457772,0.04939863,,0.10785026,1.3465598,0.44453737,0.996651,-0.008027723,-0.081377536,-0.05823048,-0.7683575,-0.63736635,-0.05741044,0.6399705,-0.7662518,,-0.065870315,0.27109396,-0.09901651,-0.68292695,-0.6806586,0.26516917,0.56049705,-0.25546825,0.78776836,-0.468459,0.6866148,0.5559733,,0.011871222,0.44819796,-0.30782408,0.5749701,-0.269618,-0.7724736,0.7936403,0.4132663,0.44648185,0.19885775,-0.8697799,0.45159552,,1.352744781180662,0.09931434476252719,0.17092879940000003,3.4770786428603833,-0.9611011393501082,-0.9123455044181467,-0.41701740084081496,,-0.8559027617174282,-0.19089823391795566,0.19971421514,-3.4707879445558474,-0.6175969789397908,1.1428267450478646,0.8395884999301954,,-0.0396756972209611,-0.088337658428128,0.07698115776,-0.046119083333121515,,3.025122e-05,3.1590462e-06,-2.026558e-06,0.99999994,-7.69645e-06,-6.429851e-06,7.69645e-06,0.99999994,-5.9604645e-07,6.4335763e-06,5.662441e-07,1.0,419,1.311,1,1,1.287,False,-0.26112916771260597,1.0143187209905018
1.3172172689955914,15:57:02.994556,15:56:47.081959,0,,0.10086472,-0.0028104484,0.038054958,0.633429,0.72469383,-0.27126813,0.10531798,0.26656213,0.9580462,0.7666,-0.6354237,0.09252483,,0.046201654,-0.005472958,0.013890326,-0.64936775,0.18194361,0.7383886,0.6893829,-0.26907098,0.67257106,0.3210489,0.9457787,0.049297124,,0.10787323,1.3465607,0.4445408,0.99664754,-0.008073364,-0.08141539,-0.05828968,-0.76835704,-0.6373615,-0.05741044,0.6399705,-0.7662518,,-0.06588193,0.2711321,-0.09916405,-0.672539,-0.6886043,0.27113724,0.5693996,-0.24744102,0.78393686,-0.47273183,0.68161356,0.55850476,,0.011728399,0.44820508,-0.30779403,0.5751081,-0.26975936,-0.7723215,0.793565,0.41332856,0.4465581,0.19875932,-0.8697065,0.4517802,,1.3520420124891075,0.09851118054360784,0.17081213330000003,3.454851508851023,-0.9667032358404912,-0.8959339530462118,-0.4155473042456064,,-0.855895038984554,-0.1909136793837041,0.19971291885000003,-3.4707879445558474,-0.6175969789397908,1.1427450663077243,0.839425155864061,,-0.0396756972209611,-0.088337658428128,0.07698115776,-0.046119083333121515,,5.289726e-05,4.4703484e-06,-7.1525574e-06,0.99999994,-5.3215772e-05,-4.4442713e-05,5.3212047e-05,0.99999994,-3.993511e-06,4.4450164e-05,3.963709e-06,1.0,428,1.34,1,1,1.316,False,-0.26112916771260597,1.0136427981795895
1.3560159740009112,15:57:03.017099,15:56:47.081959,0,,0.10090327,-0.002865851,0.038127616,0.6299377,0.72780323,-0.27107328,0.10536578,0.2657162,0.9582759,0.7694649,-0.63221604,0.09069896,,0.04618404,-0.005476013,0.013888061,-0.64938366,0.18201722,0.73835653,0.68924636,-0.2693633,0.67259395,0.32130978,0.94568133,0.04946533,,0.10787323,1.3465607,0.4445408,0.99664754,-0.008073364,-0.08141539,-0.05828968,-0.76835704,-0.6373615,-0.05741044,0.6399705,-0.7662518,,-0.06592456,0.27113804,-0.09925337,-0.669204,-0.6918837,0.27104053,0.5714533,-0.24603146,0.78288543,-0.47498116,0.67879707,0.56002444,,0.01174629,0.44820327,-0.3077952,0.5751024,-0.26980713,-0.77230906,0.79364043,0.41304016,0.4466908,0.1984743,-0.8698287,0.45167026,,1.3516944895097676,0.09826405309163266,0.17073824477000002,3.449189880376941,-0.9694359658357999,-0.8901117304060986,-0.41456723984880073,,-0.8558100889229375,-0.19092140211657832,0.19970773369000003,-3.4707879445558474,-0.6178702519393217,1.1429679021151171,0.839425155864061,,-0.0396756972209611,-0.088337658428128,0.07698115776,-0.046119083333121515,,5.289726e-05,4.4703484e-06,-7.1525574e-06,0.99999994,-5.3215772e-05,-4.4442713e-05,5.3212047e-05,0.99999994,-3.993511e-06,4.4450164e-05,3.963709e-06,1.0,442,1.385,1,1,1.361,False,-0.26160578946077395,1.0140773199866044
1.378488895992632,15:57:03.072209,15:56:47.081959,0,,0.10099182,-0.0028835833,0.03839527,0.6193918,0.7349559,-0.27603164,0.108917266,0.26775187,0.9573117,0.7774899,-0.62301564,0.08579388,,0.046129562,-0.0054908693,0.013859034,-0.6493353,0.18225577,0.7383402,0.68912524,-0.2696317,0.6726105,0.32166708,0.9455589,0.049484223,,0.10787323,1.3465607,0.4445408,0.99664754,-0.008073364,-0.08141539,-0.05828968,-0.76835704,-0.6373615,-0.05741044,0.6399705,-0.7662518,,-0.06602725,0.27130038,-0.09946049,-0.65907866,-0.69950217,0.27624628,0.5797762,-0.23860875,0.77905416,-0.4790353,0.673619,0.5628167,,0.011804276,0.44817895,-0.3077864,0.57502174,-0.27001718,-0.7722958,0.7937845,0.41273448,0.44671738,0.19813171,-0.86990863,0.45166674,,1.3509531071538419,0.0983412804203749,0.17050491257000003,3.4273821262545505,-0.973808333828294,-0.8732327228449016,-0.41505727204720344,,-0.8554780114093459,-0.190944570315201,0.19970773369000003,-3.4707879445558474,-0.6181435249388526,1.1432724166626507,0.8395884999301954,,-0.0396756972209611,-0.088337658428128,0.07698115776,-0.046119083333121515,,5.289726e-05,4.4703484e-06,-7.1525574e-06,0.99999994,-5.3215772e-05,-4.4442713e-05,5.3212047e-05,0.99999994,-3.993511e-06,4.4450164e-05,3.963709e-06,1.0,451,1.413,1,1,1.389,False,-0.26136747858668974,1.0142221605889432
1.4336378939915448,15:57:03.101460,15:56:47.332369,0,,0.10099904,-0.0028239489,0.038533613,0.6122123,0.7399854,-0.2785992,0.109934926,0.26926488,0.9567708,0.7830135,-0.61637473,0.08349693,,0.046090573,-0.0055031627,0.0138370395,-0.6494008,0.18233669,0.7382626,0.68905497,-0.2695892,0.6726995,0.3216853,0.9455554,0.049431324,,0.10787323,1.3465607,0.4445408,0.99664754,-0.008073364,-0.08141539,-0.05828968,-0.76835704,-0.6373615,-0.05741044,0.6399705,-0.7662518,,-0.066041455,0.27143678,-0.099523306,-0.6521962,-0.7048679,0.27892888,0.58443934,-0.2332143,0.77720124,-0.482774,0.6699047,0.564054,,0.01184599,0.44815952,-0.30778033,0.5750883,-0.27009925,-0.77221745,0.7937522,0.41275454,0.44675618,0.19806775,-0.8698736,0.4517622,,1.3507909297634833,0.09856523967372742,0.17043491291,3.413123210097603,-0.9777707923214919,-0.8620787658440708,-0.41456723984880073,,-0.8552386066902449,-0.19096001578094945,0.19970773369000003,-3.470997634499332,-0.6181435249388526,1.1435174528830723,0.8400785321285983,,-0.0396756972209611,-0.088337658428128,0.07698115776,-0.046119083333121515,,5.289726e-05,4.4703484e-06,-7.1525574e-06,0.99999994,-5.3215772e-05,-4.4442713e-05,5.3212047e-05,0.99999994,-3.993511e-06,4.4450164e-05,3.963709e-06,1.0,465,1.458,1,1,1.434,False,-0.2607717014014801,1.014125600187384
1.462931429996388,15:57:03.137592,15:56:47.332369,0,,0.100883916,-0.0026652217,0.03874068,0.5976509,0.7474659,-0.29001376,0.11513743,0.27795887,0.95366764,0.79344606,-0.60335183,0.08006096,,0.04603602,-0.0055242926,0.0138120055,-0.64930767,0.182571,0.73828655,0.6890908,-0.26951972,0.67269063,0.32179654,0.94553,0.049193114,,0.10787323,1.3465607,0.4445408,0.99664754,-0.008073364,-0.08141539,-0.05828968,-0.76835704,-0.6373615,-0.05741044,0.6399705,-0.7662518,,-0.0659366,0.2716966,-0.09957641,-0.6381796,-0.71298033,0.29049245,0.59572214,-0.2182942,0.7729572,-0.48769045,0.66633826,0.56404907,,0.011903934,0.44813326,-0.30777866,0.574982,-0.27033263,-0.77221495,0.79384255,0.41276285,0.44658795,0.19801435,-0.86979717,0.45193276,,1.3508372661607286,0.0988432580571995,0.17038565389000002,3.380830958800986,-0.9828263428128131,-0.8424373427805965,-0.4148939279810693,,-0.8549065291766532,-0.1910063521781948,0.19970254853000002,-3.470997634499332,-0.6181435249388526,1.1435991316232128,0.839915188062464,,-0.0396756972209611,-0.088337658428128,0.07698115776,-0.046119083333121515,,5.289726e-05,4.4703484e-06,-7.1525574e-06,0.99999994,-5.3215772e-05,-4.4442713e-05,5.3212047e-05,0.99999994,-3.993511e-06,4.4450164e-05,3.963709e-06,1.0,474,1.487,1,1,1.463,False,-0.2621419889274632,1.0140773199866044
1.4990359299990814,15:57:03.165148,15:56:47.332369,0,,0.10083167,-0.0025963485,0.038821563,0.59182066,0.75176877,-0.29084706,0.11609584,0.27756307,0.9536667,0.7976653,-0.5981658,0.07699028,,0.046015732,-0.0055390745,0.013801515,-0.6491315,0.18263969,0.73842454,0.6892118,-0.26957324,0.67254525,0.32189295,0.9455015,0.04911095,,0.10787323,1.3465607,0.4445408,0.99664754,-0.008073364,-0.08141539,-0.05828968,-0.76835704,-0.6373615,-0.05741044,0.6399705,-0.7662518,,-0.06588835,0.27180344,-0.09959288,-0.63257575,-0.7175537,0.29148707,0.59942985,-0.21526851,0.77093667,-0.49044043,0.66240185,0.5662967,,0.011925953,0.44811764,-0.30778188,0.5747905,-0.27039504,-0.7723357,0.79397655,0.41269678,0.44641083,0.19803315,-0.8698091,0.4519015,,1.3509299389552192,0.09895909905031287,0.17037787615000002,3.368668942078884,-0.9856957093078874,-0.8310312266473692,-0.4160373364440093,,-0.8547675199849172,-0.19106041130831436,0.19970125224000002,-3.4707879445558474,-0.6181435249388526,1.1435991316232128,0.839915188062464,,-0.0396756972209611,-0.088337658428128,0.07698115776,-0.046119083333121515,,5.289726e-05,4.4703484e-06,-7.1525574e-06,0.99999994,-5.3215772e-05,-4.4442713e-05,5.3212047e-05,0.99999994,-3.993511e-06,4.4450164e-05,3.963709e-06,1.0,488,1.532,1,1,1.508,False,-0.2616653671792948,1.014125600187384
1.5266227029933361,15:57:03.213288,15:56:47.332369,0,,0.10060013,-0.0022879243,0.039114073,0.5679948,0.76146895,-0.3123248,0.12624505,0.29438195,0.9473126,0.81329197,-0.5774982,0.07107562,,0.045977347,-0.0055788904,0.0137886405,-0.64902735,0.18281889,0.7384717,0.68931377,-0.2693891,0.67251456,0.3218845,0.9455193,0.04882121,,0.10787323,1.3465607,0.4445408,0.99664754,-0.008073364,-0.08141539,-0.05828968,-0.76835704,-0.6373615,-0.05741044,0.6399705,-0.7662518,,-0.06567096,0.27223536,-0.09961471,-0.60955614,-0.7282436,0.3132133,0.6181489,-0.189271,0.762934,-0.49631965,0.65866363,0.5655343,,0.011967472,0.44808397,-0.30780104,0.57468295,-0.27058414,-0.7723495,0.7940345,0.4128245,0.44618958,0.198113,-0.8696897,0.45209634,,1.351053502681207,0.09972364960486109,0.17034417261,3.3141495567729073,-0.9903413502999123,-0.7999623187147432,-0.4147305839149351,,-0.854520392532942,-0.1912225886986731,0.19969217821000002,-3.4707879445558474,-0.6181435249388526,1.1435991316232128,0.8395884999301952,,-0.0396756972209611,-0.088337658428128,0.07698115776,-0.046119083333121515,,5.289726e-05,4.4703484e-06,-7.1525574e-06,0.99999994,-5.3215772e-05,-4.4442713e-05,5.3212047e-05,0.99999994,-3.993511e-06,4.4450164e-05,3.963709e-06,1.0,497,1.561,1,1,1.537,False,-0.26136747858668974,1.0146084021951787
1.574761680996744,15:57:03.241624,15:56:47.332369,0,,0.10059852,-0.0021693558,0.039219305,0.5615249,0.765019,-0.315334,0.1269503,0.29692584,0.946424,0.8176632,-0.5714725,0.06961188,,0.045971863,-0.005590737,0.013785005,-0.6490014,0.1827244,0.7385179,0.6893468,-0.26944745,0.67245734,0.32186604,0.945521,0.048911214,,0.10787323,1.3465607,0.4445408,0.99664754,-0.008073364,-0.08141539,-0.05828968,-0.76835704,-0.6373615,-0.05741044,0.6399705,-0.7662518,,-0.065674275,0.27239385,-0.09961399,-0.60332304,-0.7320938,0.31629092,0.6217893,-0.18347207,0.7613909,-0.499379,0.656031,0.565901,,0.011973911,0.4480734,-0.30780658,0.5746575,-0.27048758,-0.7724022,0.7940436,0.4127931,0.4462024,0.1981501,-0.86973464,0.45199358,,1.3509762753524646,0.1003260227690506,0.17031954310000003,3.3009390903333826,-0.9928008072956902,-0.7906057098355568,-0.41636402457627764,,-0.8544740561356966,-0.19127664782879267,0.19969217821000002,-3.4707879445558474,-0.6181435249388526,1.1437624891034939,0.8399151880624638,,-0.0396756972209611,-0.088337658428128,0.07698115776,-0.046119083333121515,,5.289726e-05,4.4703484e-06,-7.1525574e-06,0.99999994,-5.3215772e-05,-4.4442713e-05,5.3212047e-05,0.99999994,-3.993511e-06,4.4450164e-05,3.963709e-06,1.0,511,1.606,1,1,1.582,False,-0.26011634649774784,1.014029039785825
1.6030883459898178,15:57:03.287312,15:56:47.332369,0,,0.10071801,-0.0016998351,0.039782956,0.5368594,0.77627015,-0.33043388,0.13053572,0.3105166,0.94156235,0.83351195,-0.54862,0.065372705,,0.045967355,-0.005617216,0.013785422,-0.6489545,0.18260565,0.7385885,0.6894254,-0.26945037,0.67237556,0.32179254,0.94554305,0.048967928,,0.10787323,1.3465607,0.4445408,0.99664754,-0.008073364,-0.08141539,-0.05828968,-0.76835704,-0.6373615,-0.05741044,0.6399705,-0.7662518,,-0.0658209,0.2731155,-0.099714935,-0.5795119,-0.7444655,0.33156765,0.6357922,-0.15847252,0.7554169,-0.50983745,0.6485812,0.56516206,,0.011979668,0.4480547,-0.30782497,0.5746149,-0.27037194,-0.7724744,0.7940472,0.4128188,0.44617233,0.19825947,-0.86975837,0.45189992,,1.3504125158526463,0.10345372958311153,0.17003954446000002,3.249984434066643,-0.9994959957841969,-0.7586006420087494,-0.4135871754519951,,-0.8544277197384513,-0.19140793428765449,0.19968828934000002,-3.4707879445558474,-0.6181435249388526,1.143925846583775,0.839915188062464,,-0.0396756972209611,-0.088337658428128,0.07698115776,-0.046119083333121515,,5.289726e-05,4.4703484e-06,-7.1525574e-06,0.99999994,-5.3215772e-05,-4.4442713e-05,5.3212047e-05,0.99999994,-3.993511e-06,4.4450164e-05,3.963709e-06,1.0,534,1.68,1,1,1.656,False,-0.26160578946077395,1.0144152813920608
1.6487771479878575,15:57:03.362088,15:56:47.546778,0,,0.101281136,-0.0007546097,0.04058267,0.49713266,0.79204834,-0.35428593,0.1293163,0.33612254,0.9328979,0.8579838,-0.5095891,0.06467265,,0.04596839,-0.005628854,0.013788283,-0.64893764,0.18252593,0.738623,0.6894618,-0.26946098,0.6723341,0.3217484,0.9455555,0.04901862,,0.10787323,1.3465607,0.4445408,0.99664754,-0.008073364,-0.08141539,-0.05828968,-0.76835704,-0.6373615,-0.05741044,0.6399705,-0.7662518,,-0.06642048,0.27433494,-0.09965514,-0.5411432,-0.7621494,0.3553764,0.6524319,-0.11388356,0.7492417,-0.5305626,0.637306,0.5588779,,0.011978919,0.4480479,-0.3078349,0.5746012,-0.2702936,-0.7725121,0.79404265,0.4128281,0.44617176,0.1983173,-0.86977834,0.45183614,,1.347856291271278,0.11067448482051145,0.16968047213,3.1742863644687294,-1.011656644263321,-0.7166663824446674,-0.4158739923778749,,-0.8544277197384513,-0.19146971615064826,0.19968569676000003,-3.4707879445558474,-0.6181435249388526,1.1440075253239157,0.8397518439963296,,-0.0396756972209611,-0.088337658428128,0.07698115776,-0.046119083333121515,,5.289726e-05,4.4703484e-06,-7.1525574e-06,0.99999994,-5.3215772e-05,-4.4442713e-05,5.3212047e-05,0.99999994,-3.993511e-06,4.4450164e-05,3.963709e-06,1.0,548,1.725,1,1,1.701,False,-0.2622015666459845,1.0143670011912813
1.7235628319904208,15:57:03.409032,15:56:47.546778,0,,0.10227281,-0.00017610192,0.040729836,0.48197815,0.79906493,-0.35943294,0.12662911,0.34239268,0.9309845,0.86698437,-0.49422893,0.063840866,,0.04597278,-0.00562796,0.013789237,-0.64894325,0.18250434,0.7386234,0.68946123,-0.26946735,0.67233205,0.32173836,0.94555783,0.049039245,,0.10787323,1.3465607,0.4445408,0.99664754,-0.008073364,-0.08141539,-0.05828968,-0.76835704,-0.6373615,-0.05741044,0.6399705,-0.7662518,,-0.06741543,0.27483296,-0.09933609,-0.526501,-0.76993537,0.36054987,0.65690094,-0.099197604,0.74742293,-0.5397017,0.6303644,0.5579989,,0.011974417,0.4480487,-0.3078348,0.57460785,-0.2702721,-0.7725146,0.79403615,0.41282734,0.44618404,0.19832404,-0.86978537,0.45181966,,1.343075919622133,0.1167445528596519,0.16955862087,3.152897990233308,-1.0142527377588644,-0.7048296721977084,-0.4153839601794722,,-0.854450887937074,-0.19146971615064826,0.19968699305,-3.4707879445558474,-0.6181435249388526,1.1440075253239157,0.8397518439963296,,-0.0396756972209611,-0.088337658428128,0.07698115776,-0.046119083333121515,,5.289726e-05,4.4703484e-06,-7.1525574e-06,0.99999994,-5.3215772e-05,-4.4442713e-05,5.3212047e-05,0.99999994,-3.993511e-06,4.4450164e-05,3.963709e-06,1.0,557,1.753,1,1,1.729,False,-0.26243987752006825,1.0136427981795895
1.7704505110013997,15:57:03.432570,15:56:47.546778,0,,0.10281083,5.543232e-06,0.04066743,0.47885764,0.80127466,-0.35868385,0.12714261,0.3409672,0.9314375,0.8686368,-0.49163002,0.061398566,,0.0459762,-0.0056288242,0.013789594,-0.64894485,0.18254788,0.73861116,0.6894654,-0.26941115,0.67235035,0.32172614,0.94556546,0.048972458,,0.10787323,1.3465607,0.4445408,0.99664754,-0.008073364,-0.08141539,-0.05828968,-0.76835704,-0.6373615,-0.05741044,0.6399705,-0.7662518,,-0.067948416,0.27490988,-0.09914536,-0.52346957,-0.77228713,0.35993353,0.65848213,-0.09859728,0.74610984,-0.54072255,0.6275756,0.56014997,,0.011971024,0.44804794,-0.30783546,0.5746106,-0.27031898,-0.77249616,0.7940312,0.412869,0.44615424,0.19833577,-0.86975104,0.45188063,,1.3402957357874121,0.11922355011227798,0.16953917652000003,3.151010780741948,-1.0124764632619139,-0.7024392041591556,-0.41718074490694934,,-0.8544663334028224,-0.1914774388835225,0.19968828934000002,-3.4707879445558474,-0.6181435249388526,1.143925846583775,0.8395884999301952,,-0.0396756972209611,-0.088337658428128,0.07698115776,-0.046119083333121515,,5.289726e-05,4.4703484e-06,-7.1525574e-06,0.99999994,-5.3215772e-05,-4.4442713e-05,5.3212047e-05,0.99999994,-3.993511e-06,4.4450164e-05,3.963709e-06,1.0,580,1.827,1,1,1.803,False,-0.26243987752006825,1.012870314967118
1.7940436889912235,15:57:03.505523,15:56:47.692391,0,,0.104768574,0.0006543398,0.04029052,0.46536136,0.80608314,-0.3656071,0.13596725,0.34305358,0.92942286,0.874615,-0.48222816,0.050042897,,0.04597915,-0.0056242496,0.013782561,-0.64895123,0.18249482,0.73861873,0.68945175,-0.26948267,0.6723356,0.3217427,0.9455553,0.04905963,,0.10787323,1.3465607,0.4445408,0.99664754,-0.008073364,-0.08141539,-0.05828968,-0.76835704,-0.6373615,-0.05741044,0.6399705,-0.7662518,,-0.06987994,0.27508086,-0.098348044,-0.51026136,-0.77757525,0.36743715,0.66946256,-0.090929195,0.7372596,-0.53986406,0.6221805,0.56695515,,0.011968629,0.4480463,-0.3078271,0.5746158,-0.27026162,-0.7725124,0.79403293,0.41281542,0.44620082,0.19831409,-0.8697943,0.45180684,,1.3294375733662525,0.12812786111625885,0.1695676949,3.1378003143024222,-1.000179178283024,-0.6966211399045646,-0.4152206161133378,,-0.8544663334028224,-0.1914542706848998,0.19969606708,-3.4707879445558474,-0.6181435249388526,1.1440075253239157,0.8384450914672554,,-0.0396756972209611,-0.088337658428128,0.07698115776,-0.046119083333121515,,5.289726e-05,4.4703484e-06,-7.1525574e-06,0.99999994,-5.3215772e-05,-4.4442713e-05,5.3212047e-05,0.99999994,-3.993511e-06,4.4450164e-05,3.963709e-06,1.0,594,1.872,1,1,1.848,False,-0.26249945523859,1.0135462377780307
1.866978982987348,15:57:03.558105,15:56:47.692391,0,,0.10585067,0.001308158,0.04002677,0.4579652,0.80794233,-0.3708059,0.1396985,0.346528,0.9275788,0.87792486,-0.4765999,0.045829356,,0.0459814,-0.0056182295,0.01378268,-0.648574,0.18249115,0.7389509,0.6896946,-0.26978087,0.6719669,0.32198286,0.9454709,0.049109608,,0.10787323,1.3465607,0.4445408,0.99664754,-0.008073364,-0.08141539,-0.05828968,-0.76835704,-0.6373615,-0.05741044,0.6399705,-0.7662518,,-0.070943035,0.27535838,-0.09766924,-0.5030308,-0.77971095,0.37284166,0.6746793,-0.08464883,0.7332411,-0.5401555,0.62039137,0.56863576,,0.011966079,0.44805056,-0.30782297,0.57420295,-0.27023378,-0.772829,0.79433036,0.41253996,0.4459261,0.19831854,-0.8699336,0.45153657,,1.3238926511625593,0.1346381249292301,0.16977121243,3.1304611662804644,-0.9929374437954557,-0.6957469533688082,-0.41685405677468057,,-0.8544663334028224,-0.19143110248627715,0.19969736337000002,-3.4701588747253935,-0.6181435249388526,1.1438441678436346,0.8384450914672554,,-0.0396756972209611,-0.088337658428128,0.07698115776,-0.046119083333121515,,5.289726e-05,4.4703484e-06,-7.1525574e-06,0.99999994,-5.3215772e-05,-4.4442713e-05,5.3212047e-05,0.99999994,-3.993511e-06,4.4450164e-05,3.963709e-06,1.0,603,1.901,1,1,1.877,False,-0.2618441003348577,1.0138841991834868
1.9195778389985207,15:57:03.587076,15:56:47.692391,0,,0.10633397,0.001913935,0.03999202,0.45278442,0.8084566,-0.3760108,0.14416921,0.34978345,0.92567074,0.8798871,-0.47333857,0.041821837,,0.045978613,-0.00561738,0.0137812495,-0.6485724,0.18238725,0.7389779,0.68969035,-0.26989195,0.6719266,0.32199505,0.94545925,0.049253643,,0.10787323,1.3465607,0.4445408,0.99664754,-0.008073364,-0.08141539,-0.05828968,-0.76835704,-0.6373615,-0.05741044,0.6399705,-0.7662518,,-0.07142054,0.27577144,-0.09721856,-0.49793714,-0.7803796,0.3782411,0.6794798,-0.08006653,0.7293124,-0.538856,0.6201589,0.5701202,,0.011968961,0.44805053,-0.30782145,0.5742002,-0.27012375,-0.77286947,0.79433525,0.41246188,0.44598958,0.19830683,-0.8700048,0.45140454,,1.322093254402865,0.13937216018112972,0.16989695256,3.121654188654114,-0.9856957093078874,-0.6920956896682727,-0.41620068051014325,,-0.854450887937074,-0.19142337975340293,0.19969736337000002,-3.4701588747253935,-0.6181435249388526,1.1440075253239157,0.838771779599524,,-0.0396756972209611,-0.088337658428128,0.07698115776,-0.046119083333121515,,5.289726e-05,4.4703484e-06,-7.1525574e-06,0.99999994,-5.3215772e-05,-4.4442713e-05,5.3212047e-05,0.99999994,-3.993511e-06,4.4450164e-05,3.963709e-06,1.0,617,1.946,1,1,1.922,False,-0.26101001227556386,1.0133048367741333
1.94852602899482,15:57:03.627696,15:56:47.841925,0,,0.106466696,0.0023083836,0.040039226,0.4473207,0.8099976,-0.37922016,0.14880332,0.35069394,0.9245923,0.8819079,-0.47001857,0.036342263,,0.04597736,-0.0056176484,0.013780534,-0.64857054,0.18233407,0.7389928,0.6896906,-0.26994473,0.6719052,0.32199836,0.94545454,0.049323976,,0.10787323,1.3465607,0.4445408,0.99664754,-0.008073364,-0.08141539,-0.05828968,-0.76835704,-0.6373615,-0.05741044,0.6399705,-0.7662518,,-0.071553476,0.27609265,-0.0969849,-0.49256322,-0.7820893,0.38173008,0.68444985,-0.07722438,0.7249585,-0.53750336,0.61836296,0.57333875,,0.011970293,0.44805,-0.30782118,0.574198,-0.27006778,-0.7728907,0.79433745,0.4124257,0.44601917,0.19830458,-0.87003934,0.45133898,,1.3217688996221475,0.14212145308435364,0.16995917448000003,3.109701861875496,-0.9803668858170351,-0.6827189595688188,-0.4162006805101435,,-0.8544431652041997,-0.19142337975340293,0.19969736337000002,-3.4701588747253935,-0.6181435249388526,1.1440892040640562,0.8389351236656584,,-0.0396756972209611,-0.088337658428128,0.07698115776,-0.046119083333121515,,5.289726e-05,4.4703484e-06,-7.1525574e-06,0.99999994,-5.3215772e-05,-4.4442713e-05,5.3212047e-05,0.99999994,-3.993511e-06,4.4450164e-05,3.963709e-06,1.0,626,1.975,1,1,1.951,False,-0.26112916771260597,1.013401397175692
1.989172077999683,15:57:03.658482,15:56:47.841925,0,,0.10645657,0.0027432442,0.04013805,0.43468773,0.81437725,-0.38449457,0.1526196,0.3541507,0.9226506,0.8875548,-0.4597464,0.02965495,,0.045979537,-0.005618766,0.013780117,-0.6485703,0.18232445,0.7389953,0.6896949,-0.26994124,0.6719021,0.32198954,0.94545734,0.049327552,,0.10787323,1.3465607,0.4445408,0.99664754,-0.008073364,-0.08141539,-0.05828968,-0.76835704,-0.6373615,-0.05741044,0.6399705,-0.7662518,,-0.07154625,0.2764828,-0.09676876,-0.4802265,-0.7869878,0.38734055,0.691451,-0.06794198,0.71922135,-0.53970176,0.61321616,0.57679105,,0.011968231,0.44804868,-0.30782157,0.57419854,-0.27005872,-0.7728935,0.7943347,0.41243118,0.446019,0.19831406,-0.8700395,0.4513344,,1.3217843450878959,0.14469312313147042,0.17005250736000002,3.084119688770384,-0.9783173383205537,-0.6633987919081404,-0.41571064831174054,,-0.854450887937074,-0.19143110248627715,0.19969865966000003,-3.4701588747253935,-0.6181435249388526,1.1440892040640562,0.8389351236656584,,-0.0396756972209611,-0.088337658428128,0.07698115776,-0.046119083333121515,,5.289726e-05,4.4703484e-06,-7.1525574e-06,0.99999994,-5.3215772e-05,-4.4442713e-05,5.3212047e-05,0.99999994,-3.993511e-06,4.4450164e-05,3.963709e-06,1.0,640,2.02,1,1,1.996,False,-0.2623802998015474,1.014029039785825
2.019955901996582,15:57:03.708108,15:56:47.841925,0,,0.10656488,0.0030863285,0.040272757,0.4268177,0.815639,-0.39058873,0.15567055,0.35919344,0.92018825,0.8908384,-0.45355582,0.026339114,,0.04599215,-0.0056099743,0.013788998,-0.6465225,0.18173951,0.7409312,0.69105786,-0.27191737,0.6697013,0.32318318,0.9450036,0.050208062,,0.10787323,1.3465607,0.4445408,0.99664754,-0.008073364,-0.08141539,-0.05828968,-0.76835704,-0.6373615,-0.05741044,0.6399705,-0.7662518,,-0.0716597,0.27682477,-0.09663549,-0.47252497,-0.7885483,0.3935883,0.69615823,-0.060099784,0.7153683,-0.54044783,0.6120291,0.577353,,0.011954301,0.44805968,-0.30782157,0.5719672,-0.26932916,-0.7748002,0.7959091,0.410738,0.444773,0.19844954,-0.8710661,0.4492902,,1.3215372176359208,0.14719528858271916,0.17004084075,3.0686026329525293,-0.975311335325714,-0.6550683920909076,-0.4150572720472039,,-0.854450887937074,-0.19143110248627715,0.19969736337000002,-3.466803835629641,-0.6181435249388526,1.143925846583775,0.8389351236656581,,-0.0396756972209611,-0.088337658428128,0.07698115776,-0.046119083333121515,,5.289726e-05,4.4703484e-06,-7.1525574e-06,0.99999994,-5.3215772e-05,-4.4442713e-05,5.3212047e-05,0.99999994,-3.993511e-06,4.4450164e-05,3.963709e-06,1.0,654,2.065,1,1,2.041,False,-0.2607121236829584,1.0146084021951787
2.06957920298737,15:57:03.746912,15:56:47.841925,0,,0.10676129,0.0034451187,0.040411368,0.40947524,0.8196754,-0.4005772,0.1677241,0.36395624,0.91619,0.89677113,-0.4423436,0.011551619,,0.04598865,-0.0056161582,0.013785183,-0.6471204,0.1820904,0.7403229,0.69078076,-0.27082747,0.67042834,0.32257828,0.94524896,0.049473345,,0.10787323,1.3465607,0.4445408,0.99664754,-0.008073364,-0.08141539,-0.05828968,-0.76835704,-0.6373615,-0.05741044,0.6399705,-0.7662518,,-0.07186124,0.2771783,-0.09649084,-0.45545626,-0.7931468,0.4043238,0.7096344,-0.049207274,0.7028496,-0.5375673,0.60703933,0.58525604,,0.011958502,0.44805294,-0.3078231,0.5726404,-0.26975906,-0.7741531,0.79536724,0.41166547,0.44488478,0.1986804,-0.870495,0.4502938,,1.3200003937939502,0.1503616090611512,0.16996306335000003,3.0346328621080363,-0.9653368708428368,-0.6308571179650838,-0.4140772076503978,,-0.8544431652041997,-0.19143882521915137,0.19969736337000002,-3.467852285347064,-0.6178702519393217,1.143539653296101,0.8392618117979267,,-0.0396756972209611,-0.088337658428128,0.07698115776,-0.046119083333121515,,5.289726e-05,4.4703484e-06,-7.1525574e-06,0.99999994,-5.3215772e-05,-4.4442713e-05,5.3212047e-05,0.99999994,-3.993511e-06,4.4450164e-05,3.963709e-06,1.0,663,2.093,1,1,2.069,False,-0.261427056305211,1.0143670011912813
2.108340936989407,15:57:03.774438,15:56:47.841925,0,,0.10708918,0.0037341565,0.04048063,0.3981325,0.82499254,-0.40109554,0.17708018,0.35990006,0.91603184,0.9000739,-0.43572813,-0.0028020442,,0.045992248,-0.0056179017,0.013786256,-0.6471028,0.18207562,0.74034196,0.69085664,-0.2706656,0.67041564,0.32245135,0.9452982,0.049360186,,0.10787323,1.3465607,0.4445408,0.99664754,-0.008073364,-0.08141539,-0.05828968,-0.76835704,-0.6373615,-0.05741044,0.6399705,-0.7662518,,-0.07219076,0.27742952,-0.09633549,-0.4442541,-0.79882836,0.40560022,0.7191608,-0.04798813,0.6931846,-0.53427154,0.59964186,0.595805,,0.011954907,0.44805196,-0.30782488,0.57263285,-0.2697579,-0.7741591,0.79533637,0.41181916,0.44479778,0.19882585,-0.87042266,0.45036945,,1.3180851560411424,0.15336575214922454,0.1698917674,3.0142929375900374,-0.9561822253585524,-0.609407843502985,-0.41375051951812925,,-0.8544586106699482,-0.1914465479520256,0.19969736337000002,-3.467852285347064,-0.6177336154395563,1.1434282353924046,0.8392618117979267,,-0.0396756972209611,-0.088337658428128,0.07698115776,-0.046119083333121515,,5.289726e-05,4.4703484e-06,-7.1525574e-06,0.99999994,-5.3215772e-05,-4.4442713e-05,5.3212047e-05,0.99999994,-3.993511e-06,4.4450164e-05,3.963709e-06,1.0,686,2.167,1,1,2.143,False,-0.26160578946077395,1.0140773199866044
2.1358873229910387,15:57:03.850596,15:56:48.039826,0,,0.108184665,0.0042524636,0.04063253,0.3625219,0.8356292,-0.4126761,0.17974254,0.37179527,0.9107473,0.9144781,-0.4043413,-0.015414298,,0.045994677,-0.0056272596,0.013786972,-0.64682996,0.18191713,0.74061924,0.6910588,-0.2709401,0.6700963,0.32256538,0.94525003,0.049536675,,0.10787323,1.3465607,0.4445408,0.99664754,-0.008073364,-0.08141539,-0.05828968,-0.76835704,-0.6373615,-0.05741044,0.6399705,-0.7662518,,-0.07328996,0.27788264,-0.09605566,-0.40944195,-0.8110472,0.41780347,0.73185617,-0.018546509,0.6812067,-0.544742,0.58468664,0.6011636,,0.011952886,0.44804534,-0.30783165,0.5723395,-0.26958147,-0.7744375,0.7955312,0.4116024,0.44464988,0.19889097,-0.87057984,0.45003676,,1.3110651918584724,0.15992235235944113,0.16974917550000002,2.9604026221145148,-0.9561822253585524,-0.57526613012423,-0.4134238313858607,,-0.854450887937074,-0.19150060708214517,0.19969736337000002,-3.467432905460095,-0.6177336154395563,1.143509914132545,0.8394251558640611,,-0.0396756972209611,-0.088337658428128,0.07698115776,-0.046119083333121515,,5.289726e-05,4.4703484e-06,-7.1525574e-06,0.99999994,-5.3215772e-05,-4.4442713e-05,5.3212047e-05,0.99999994,-3.993511e-06,4.4450164e-05,3.963709e-06,1.0,700,2.212,1,1,2.188,False,-0.2602950796533112,1.0138841991834868
2.212044577987399,15:57:03.899901,15:56:48.039826,0,,0.108762525,0.0040930063,0.04041986,0.34718716,0.8389264,-0.41912228,0.18644714,0.37625232,0.90756345,0.91907465,-0.3932386,-0.025785565,,0.04599821,-0.00563474,0.013788521,-0.6470812,0.18197158,0.7403863,0.6909108,-0.27065808,0.67036283,0.32237846,0.94532037,0.049411505,,0.10787323,1.3465607,0.4445408,0.99664754,-0.008073364,-0.08141539,-0.05828968,-0.76835704,-0.6373615,-0.05741044,0.6399705,-0.7662518,,-0.0738566,0.277604,-0.095978945,-0.39433616,-0.8149033,0.42477232,0.740394,-0.007931601,0.6721263,-0.54434884,0.57954264,0.60647726,,0.011949593,0.44804043,-0.30783764,0.57261664,-0.2696574,-0.77420604,0.79532516,0.411851,0.44478828,0.19891708,-0.87043875,0.45029807,,1.3060454154902263,0.1606946256468636,0.16970899051000002,2.939014247879093,-0.9524930398648853,-0.5625104166769049,-0.4162006805101437,,-0.8544740561356966,-0.1915392207465163,0.19969736337000002,-3.467852285347064,-0.6177336154395563,1.143509914132545,0.8394251558640611,,-0.0396756972209611,-0.088337658428128,0.07698115776,-0.046119083333121515,,5.289726e-05,4.4703484e-06,-7.1525574e-06,0.99999994,-5.3215772e-05,-4.4442713e-05,5.3212047e-05,0.99999994,-3.993511e-06,4.4450164e-05,3.963709e-06,1.0,723,2.286,0,1,2.242,False,-0.26196325577190027,1.0146084021951787
2.261351167995599,15:57:03.970856,15:56:48.194262,0,,0.109019876,0.0037396103,0.040179864,0.322009,0.842478,-0.43190378,0.19184723,0.38867167,0.9011818,0.9270947,-0.37304828,-0.036471367,,0.04599765,-0.005635649,0.013788164,-0.64681923,0.18195584,0.7406191,0.69108593,-0.27085423,0.6701031,0.32252896,0.9452672,0.049446553,,0.10787323,1.3465607,0.4445408,0.99664754,-0.008073364,-0.08141539,-0.05828968,-0.76835704,-0.6373615,-0.05741044,0.6399705,-0.7662518,,-0.07410278,0.27717277,-0.09602508,-0.3695891,-0.81945175,0.438067,0.75054896,0.0146624725,0.66065216,-0.5477957,0.57296056,0.60961956,,0.011950229,0.4480396,-0.30783802,0.57233137,-0.2696261,-0.7744279,0.79552567,0.4116728,0.44459468,0.19893658,-0.87053275,0.45010772,,1.3014194984985659,0.15954393844860415,0.16970769422,2.8991731586170335,-0.9531762223637126,-0.5409618909422983,-0.4135871754519951,,-0.8544586106699482,-0.19154694347939052,0.19969736337000002,-3.467432905460095,-0.6177336154395563,1.1434282353924046,0.8392618117979267,,-0.0396756972209611,-0.088337658428128,0.07698115776,-0.046119083333121515,,5.289726e-05,4.4703484e-06,-7.1525574e-06,0.99999994,-5.3215772e-05,-4.4442713e-05,5.3212047e-05,0.99999994,-3.993511e-06,4.4450164e-05,3.963709e-06,1.0,746,2.36,0,1,2.242,False,-0.26017592421626956,1.0141738803881637
2.332316716987407,15:57:04.043948,15:56:48.194262,0,,0.108668774,0.0035104156,0.04012923,0.28154057,0.84866095,-0.44778267,0.19516298,0.40625995,0.8926724,0.9394925,-0.33871418,-0.05124864,,0.045998998,-0.005643785,0.013789177,-0.6469558,0.18191561,0.7405097,0.6909563,-0.27090815,0.6702149,0.3225326,0.9452595,0.049569726,,0.10787323,1.3465607,0.4445408,0.99664754,-0.008073364,-0.08141539,-0.05828968,-0.76835704,-0.6373615,-0.05741044,0.6399705,-0.7662518,,-0.073750734,0.27697927,-0.09615539,-0.32981634,-0.8273486,0.45465976,0.7625463,0.050448835,0.6449636,-0.5565468,0.5594187,0.61425275,,0.011949187,0.44803417,-0.3078442,0.5724731,-0.26958263,-0.77433825,0.79544777,0.41163245,0.4447714,0.1988401,-0.8705653,0.45008743,,1.2994502016156386,0.15805345100387883,0.16974528663000002,2.82808826777578,-0.9560455888587869,-0.4950873464697536,-0.41391386358426363,,-0.8544663334028224,-0.19159327987663585,0.19969736337000002,-3.4676425954035794,-0.6178702519393217,1.1436213320362416,0.8397518439963296,,-0.0396756972209611,-0.088337658428128,0.07698115776,-0.046119083333121515,,5.289726e-05,4.4703484e-06,-7.1525574e-06,0.99999994,-5.3215772e-05,-4.4442713e-05,5.3212047e-05,0.99999994,-3.993511e-06,4.4450164e-05,3.963709e-06,1.0,755,2.388,0,1,2.242,False,-0.2620824112089424,1.014753242797517
2.405386788988835,15:57:04.066657,15:56:48.194262,0,,0.10854179,0.0034845173,0.04013358,0.2735953,0.8511613,-0.44796193,0.19462755,0.40710682,0.8924034,0.9419477,-0.33134317,-0.054277062,,0.045998745,-0.0056471825,0.013788819,-0.6470797,0.18195489,0.7403918,0.6908803,-0.27076668,0.67035043,0.32244694,0.9452925,0.04949844,,0.10787323,1.3465607,0.4445408,0.99664754,-0.008073364,-0.08141539,-0.05828968,-0.76835704,-0.6373615,-0.05741044,0.6399705,-0.7662518,,-0.0736243,0.27696684,-0.096181355,-0.32201514,-0.83023095,0.4549976,0.76403195,0.055912577,0.6427511,-0.55907196,0.5546083,0.6163183,,0.011949647,0.44803143,-0.30784628,0.57260925,-0.26963234,-0.7742203,0.7953483,0.41175425,0.44483656,0.19884618,-0.8704923,0.4502259,,1.2994347561498902,0.15772137349028717,0.16976861985000002,2.812990591844894,-0.9574119538564413,-0.48204807137226746,-0.41571064831174076,,-0.8544663334028224,-0.19160872534238432,0.19969736337000002,-3.467852285347064,-0.6178702519393217,1.1436213320362416,0.8397518439963296,,-0.0396756972209611,-0.088337658428128,0.07698115776,-0.046119083333121515,,5.289726e-05,4.4703484e-06,-7.1525574e-06,0.99999994,-5.3215772e-05,-4.4442713e-05,5.3212047e-05,0.99999994,-3.993511e-06,4.4450164e-05,3.963709e-06,1.0,769,2.433,0,1,2.242,False,-0.26112916771260597,1.0143670011912813
2.428106344988919,15:57:04.113996,15:56:48.319365,0,,0.10806964,0.0033593923,0.040052056,0.24758857,0.8542619,-0.4570959,0.19658971,0.4176756,0.88707364,0.94871086,-0.3094896,-0.0645273,,0.045874782,-0.005706772,0.013786852,-0.6469804,0.18195212,0.7404793,0.69099414,-0.27069917,0.67026055,0.32240236,0.9453124,0.04940915,,0.10785232,1.346561,0.44453493,0.99664986,-0.008043194,-0.081390366,-0.058250546,-0.7683574,-0.63736475,-0.05741044,0.6399705,-0.7662518,,-0.07313456,0.27683586,-0.09623166,-0.29640165,-0.8344429,0.46459782,0.7708062,0.07822381,0.63224906,-0.56391835,0.5455145,0.62000805,,0.012090719,0.44800475,-0.30789542,0.57248086,-0.26962566,-0.77431756,0.79540807,0.41181135,0.44467673,0.19897649,-0.87046736,0.45021656,,1.2993652515540222,0.15638534070304633,0.16988528595000002,2.7662297344478453,-0.9575485903562067,-0.4501636235538924,-0.4153839601794722,,-0.8544586106699482,-0.19165506173962965,0.19969606708,-3.467852285347064,-0.6178702519393217,1.143539653296101,0.8399151880624638,,-0.0396756972209611,-0.088337658428128,0.07698115776,-0.046119083333121515,,3.2372773e-05,6.556511e-07,-1.1920929e-06,1.0,-2.3122877e-05,-1.9311905e-05,2.3122877e-05,1.0,-1.6987324e-06,1.931563e-05,1.758337e-06,1.0,778,2.462,0,1,2.242,False,-0.2612483231496481,1.0143670011912813
2.4754700279881945,15:57:04.142477,15:56:48.319365,0,,0.10776165,0.0032045841,0.039937407,0.22994752,0.8577291,-0.45980978,0.19666243,0.42176956,0.88511825,0.95312524,-0.29395807,-0.07169819,,0.0458918,-0.005709052,0.013790011,-0.6468627,0.18182641,0.740613,0.69109535,-0.27082855,0.6701038,0.3224216,0.9452995,0.049529433,,0.10785232,1.346561,0.44453493,0.99664986,-0.008043194,-0.081390366,-0.058250546,-0.7683574,-0.63736475,-0.05741044,0.6399705,-0.7662518,,-0.072821766,0.2766538,-0.09626288,-0.27901882,-0.8387054,0.46767697,0.77435434,0.09151354,0.6260995,-0.5679118,0.5368413,0.62392116,,0.012073585,0.44800335,-0.30789852,0.57235676,-0.2694929,-0.7744555,0.79548246,0.4117214,0.44462696,0.1990361,-0.870551,0.45002842,,1.2990254513075563,0.15501841698430857,0.16999287802000002,2.734356863038198,-0.9587783188540956,-0.42490227659887747,-0.4150572720472038,,-0.8545358379986905,-0.19168595267112656,0.19970125224000002,-3.4676425954035794,-0.6178702519393217,1.143539653296101,0.8399151880624638,,-0.0396756972209611,-0.088337658428128,0.07698115776,-0.046119083333121515,,3.2372773e-05,6.556511e-07,-1.1920929e-06,1.0,-2.3122877e-05,-1.9311905e-05,2.3122877e-05,1.0,-1.6987324e-06,1.931563e-05,1.758337e-06,1.0,801,2.536,0,1,2.242,False,-0.26136747858668974,1.0143670011912813
2.5039412379992427,15:57:04.221684,15:56:48.319365,0,,0.106977135,0.0025841892,0.039461583,0.18380204,0.8607187,-0.4747421,0.20037735,0.44002053,0.8753461,0.962323,-0.25601792,-0.091591895,,0.045926966,-0.0057038963,0.0138065815,-0.6467792,0.18152991,0.7407587,0.6911843,-0.27105758,0.6699195,0.3223986,0.9452908,0.04984373,,0.10785232,1.346561,0.44453493,0.99664986,-0.008043194,-0.081390366,-0.058250546,-0.7683574,-0.63736475,-0.05741044,0.6399705,-0.7662518,,-0.07201648,0.2758991,-0.09635647,-0.23340566,-0.8436015,0.48358893,0.7846961,0.13029604,0.60603213,-0.5742594,0.5209217,0.631559,,0.012036616,0.4480143,-0.30790558,0.5722718,-0.26918605,-0.77462494,0.79552335,0.41157973,0.44468498,0.19911692,-0.87071294,0.4496793,,1.2973573410067238,0.15039249999264812,0.17029620988000002,2.652577785079233,-0.9571386808569103,-0.36906417334484093,-0.4158739923778749,,-0.8547366290534203,-0.191701398136875,0.19970384482000003,-3.467432905460095,-0.6178702519393217,1.1436213320362416,0.8397518439963296,,-0.0396756972209611,-0.088337658428128,0.07698115776,-0.046119083333121515,,3.2372773e-05,6.556511e-07,-1.1920929e-06,1.0,-2.3122877e-05,-1.9311905e-05,2.3122877e-05,1.0,-1.6987324e-06,1.931563e-05,1.758337e-06,1.0,810,2.564,0,1,2.242,False,-0.2607121236829584,1.0145118417936196
2.583132151994505,15:57:04.246388,15:56:48.489056,0,,0.106664345,0.0023291856,0.03926447,0.16745287,0.8616171,-0.47914037,0.20164874,0.4457948,0.8721266,0.96503735,-0.24265814,-0.09909439,,0.04592915,-0.005705014,0.013806164,-0.64677894,0.18152031,0.7407612,0.69118863,-0.27105412,0.66991633,0.32238978,0.9452936,0.049847305,,0.10785232,1.346561,0.44453493,0.99664986,-0.008043194,-0.081390366,-0.058250546,-0.7683574,-0.63736475,-0.05741044,0.6399705,-0.7662518,,-0.07169507,0.2755876,-0.09639339,-0.21721654,-0.8451749,0.4883609,0.7879641,0.14347123,0.5987725,-0.57613325,0.51487416,0.6348032,,0.012034555,0.44801298,-0.30790597,0.57227236,-0.269177,-0.77462775,0.7955206,0.41158518,0.4446848,0.19912638,-0.8707131,0.44967467,,1.2968630861027735,0.1485081531713373,0.17041806114000002,2.6236405728783687,-0.9559089523590214,-0.34842206834085965,-0.41587399237787503,,-0.8547443517862945,-0.19170912086974923,0.19970514111,-3.467432905460095,-0.6178702519393217,1.1436213320362416,0.8397518439963296,,-0.0396756972209611,-0.088337658428128,0.07698115776,-0.046119083333121515,,3.2372773e-05,6.556511e-07,-1.1920929e-06,1.0,-2.3122877e-05,-1.9311905e-05,2.3122877e-05,1.0,-1.6987324e-06,1.931563e-05,1.758337e-06,1.0,824,2.609,0,1,2.242,False,-0.2617249448978165,1.0139324793842663
2.6078380010003457,15:57:04.292210,15:56:48.489056,0,,0.10599087,0.0019013584,0.03899482,0.13624196,0.86369956,-0.48524335,0.20374429,0.45491144,0.8669163,0.9694979,-0.21697594,-0.11399585,,0.045926258,-0.0057102144,0.0138043165,-0.64676696,0.18153459,0.74076813,0.6912029,-0.27103123,0.669911,0.3223832,0.9452975,0.049816757,,0.10785232,1.346561,0.44453493,0.99664986,-0.008043194,-0.081390366,-0.058250546,-0.7683574,-0.63736475,-0.05741044,0.6399705,-0.7662518,,-0.07101056,0.27511027,-0.09650712,-0.1862747,-0.8485651,0.49521613,0.7934753,0.16730957,0.58515346,-0.5793952,0.501941,0.64214987,,0.012037885,0.4480082,-0.30790824,0.5722605,-0.26919276,-0.774631,0.7955254,0.4116031,0.44465968,0.19914137,-0.8706998,0.44969386,,1.2968013042397797,0.14533410996003104,0.170591764,2.56807273785497,-0.9518098573660582,-0.3063512259335997,-0.41375051951812925,,-0.8547211835876718,-0.1917322890683719,0.19970514111,-3.467432905460095,-0.6178702519393217,1.1436213320362416,0.8397518439963296,,-0.0396756972209611,-0.088337658428128,0.07698115776,-0.046119083333121515,,3.2372773e-05,6.556511e-07,-1.1920929e-06,1.0,-2.3122877e-05,-1.9311905e-05,2.3122877e-05,1.0,-1.6987324e-06,1.931563e-05,1.758337e-06,1.0,833,2.638,0,1,2.242,False,-0.2623802998015474,1.0144635615928401
2.653683775992249,15:57:04.325490,15:56:48.489056,0,,0.1053992,0.0016127676,0.03879848,0.10960808,0.86274886,-0.49360964,0.2070592,0.4658888,0.8602756,0.9721689,-0.19649951,-0.12757489,,0.045925587,-0.005713418,0.01380378,-0.6467608,0.1815369,0.7407729,0.6912122,-0.271018,0.66990674,0.32237554,0.9453008,0.049803257,,0.10785232,1.346561,0.44453493,0.99664986,-0.008043194,-0.081390366,-0.058250546,-0.7683574,-0.63736475,-0.05741044,0.6399705,-0.7662518,,-0.07041087,0.274783,-0.09657897,-0.1598022,-0.84864086,0.50425386,0.79855907,0.18916082,0.57142067,-0.580316,0.49399078,0.64746153,,0.012038776,0.44800556,-0.30791003,0.5722548,-0.2691961,-0.77463406,0.79552644,0.4116148,0.444647,0.1991536,-0.87069327,0.44970113,,1.29729555914373,0.14314085382375127,0.17072917074000002,2.5211021905144366,-0.9444314863787243,-0.2747138935284075,-0.4142405517165323,,-0.8547134608547976,-0.19174773453412036,0.19970514111,-3.467432905460095,-0.6178702519393217,1.1436213320362416,0.8397518439963296,,-0.0396756972209611,-0.088337658428128,0.07698115776,-0.046119083333121515,,3.2372773e-05,6.556511e-07,-1.1920929e-06,1.0,-2.3122877e-05,-1.9311905e-05,2.3122877e-05,1.0,-1.6987324e-06,1.931563e-05,1.758337e-06,1.0,847,2.683,0,1,2.242,False,-0.2616653671792948,1.0138841991834868
2.6869387670012657,15:57:04.366285,15:56:48.489056,0,,0.10452166,0.001210168,0.03850904,0.07774153,0.8642306,-0.49705318,0.20930517,0.47330314,0.8556726,0.97475505,-0.17055708,-0.14409256,,0.04593397,-0.0057162642,0.013805211,-0.6467639,0.18149364,0.74078083,0.69122475,-0.27101195,0.6698961,0.32234228,0.94531083,0.049827754,,0.10785232,1.346561,0.44453493,0.99664986,-0.008043194,-0.081390366,-0.058250546,-0.7683574,-0.63736475,-0.05741044,0.6399705,-0.7662518,,-0.069521405,0.27431768,-0.09666993,-0.12810569,-0.85145396,0.5085421,0.80295396,0.21192305,0.55709386,-0.58211154,0.4797028,0.6565298,,0.012030439,0.4480035,-0.30791262,0.5722608,-0.26915455,-0.7746441,0.79551387,0.41163072,0.4446547,0.19918646,-0.8706986,0.4496763,,1.2985852555337256,0.13987413781795432,0.17095472520000002,2.4659537353780063,-0.9365065693923288,-0.2306986705359324,-0.41489392798106917,,-0.8547520745191687,-0.19177090273274303,0.19970773369000003,-3.467432905460095,-0.6178702519393217,1.1436213320362416,0.8397518439963296,,-0.0396756972209611,-0.088337658428128,0.07698115776,-0.046119083333121515,,3.2372773e-05,6.556511e-07,-1.1920929e-06,1.0,-2.3122877e-05,-1.9311905e-05,2.3122877e-05,1.0,-1.6987324e-06,1.931563e-05,1.758337e-06,1.0,856,2.712,0,1,2.242,False,-0.2620824112089424,1.0143187209905018
2.72772854998766,15:57:04.392552,15:56:48.489056,0,,0.10385168,0.0008806735,0.038263023,0.057513904,0.8638053,-0.50053227,0.21135277,0.47946328,0.8517306,0.9757161,-0.15477523,-0.1549918,,0.045935854,-0.005715966,0.013804793,-0.64676577,0.18148647,0.74078095,0.6912246,-0.27101406,0.66989547,0.32233897,0.9453116,0.04983467,,0.10785232,1.346561,0.44453493,0.99664986,-0.008043194,-0.081390366,-0.058250546,-0.7683574,-0.63736475,-0.05741044,0.6399705,-0.7662518,,-0.068841115,0.27392927,-0.09673552,-0.10794663,-0.85183173,0.51257217,0.80575365,0.22704095,0.5470041,-0.5823303,0.47205415,0.6618582,,0.012028598,0.44800323,-0.307912,0.572263,-0.2691474,-0.7746449,0.7955117,0.41163045,0.44465882,0.19918868,-0.8707009,0.4496708,,1.299805447327853,0.13703989485311394,0.17114527983000002,2.4305161349291216,-0.9300846539033532,-0.2038355671344232,-0.41571064831174076,,-0.854759797252043,-0.19177090273274303,0.19970902998,-3.467432905460095,-0.6178702519393217,1.1436213320362416,0.8397518439963296,,-0.0396756972209611,-0.088337658428128,0.07698115776,-0.046119083333121515,,3.2372773e-05,6.556511e-07,-1.1920929e-06,1.0,-2.3122877e-05,-1.9311905e-05,2.3122877e-05,1.0,-1.6987324e-06,1.931563e-05,1.758337e-06,1.0,870,2.757,1,2,2.278,False,-0.26202283349042155,1.014849803199076
2.754003843991086,15:57:04.443359,15:56:48.645498,0,,0.10255852,0.00025685132,0.037692666,0.02140957,0.8595723,-0.51056534,0.21337858,0.49498713,0.8422929,0.9767349,-0.12697685,-0.1728169,,0.045932107,-0.0057168156,0.013802648,-0.64676017,0.18156855,0.74076575,0.69122523,-0.270953,0.66991955,0.32234895,0.94531333,0.049736798,,0.10785232,1.346561,0.44453493,0.99664986,-0.008043194,-0.081390366,-0.058250546,-0.7683574,-0.63736475,-0.05741044,0.6399705,-0.7662518,,-0.06752292,0.273125,-0.09678295,-0.071936525,-0.84899324,0.5234841,0.809073,0.2572608,0.5284106,-0.58328897,0.4615489,0.66839105,,0.012032591,0.44800162,-0.30791122,0.5722563,-0.26923215,-0.7746204,0.7955182,0.41166753,0.44461286,0.19918199,-0.87065715,0.4497584,,1.3022381081832337,0.1314177453206785,0.17161842568000002,2.36739946194028,-0.9186071879230561,-0.1610836348352439,-0.4153839601794722,,-0.8547366290534203,-0.19177090273274303,0.19970902998,-3.467432905460095,-0.6178702519393217,1.143539653296101,0.8399151880624638,,-0.0396756972209611,-0.088337658428128,0.07698115776,-0.046119083333121515,,3.2372773e-05,6.556511e-07,-1.1920929e-06,1.0,-2.3122877e-05,-1.9311905e-05,2.3122877e-05,1.0,-1.6987324e-06,1.931563e-05,1.758337e-06,1.0,879,2.786,1,2,2.307,False,-0.2602950796533112,1.0151877646045322
2.8048304339899914,15:57:04.473680,15:56:48.645498,0,,0.10173659,-0.0001436919,0.037172973,0.0044649374,0.85954565,-0.51103944,0.2196871,0.4977165,0.8390565,0.97556007,-0.11601509,-0.18660885,,0.045933932,-0.0057194084,0.013803542,-0.6467578,0.18167752,0.74074113,0.6912342,-0.2708346,0.66995823,0.3223346,0.94532645,0.04958263,,0.10785232,1.346561,0.44453493,0.99664986,-0.008043194,-0.081390366,-0.058250546,-0.7683574,-0.63736475,-0.05741044,0.6399705,-0.7662518,,-0.06667679,0.27250606,-0.09669885,-0.054920036,-0.8495322,0.52467024,0.8135214,0.2665986,0.5168251,-0.5789359,0.45521447,0.676471,,0.012030819,0.44800007,-0.3079135,0.5722551,-0.2693477,-0.77458113,0.79551494,0.41175136,0.44454116,0.19919868,-0.8705818,0.44989693,,1.3039602776141859,0.1273246968973395,0.17203842364000002,2.340139769287292,-0.9079495409413517,-0.1375111289680428,-0.4155473042456064,,-0.8547443517862945,-0.19178634819849147,0.19970902998,-3.467432905460095,-0.6178702519393217,1.1433762958158198,0.839915188062464,,-0.0396756972209611,-0.088337658428128,0.07698115776,-0.046119083333121515,,3.2372773e-05,6.556511e-07,-1.1920929e-06,1.0,-2.3122877e-05,-1.9311905e-05,2.3122877e-05,1.0,-1.6987324e-06,1.931563e-05,1.758337e-06,1.0,893,2.831,0,2,2.32,False,-0.2607121236829584,1.0152360448053117
2.8351429689937504,15:57:04.509922,15:56:48.645498,0,,0.100651875,-0.00065894425,0.036487937,-0.0094062835,0.85760206,-0.5142277,0.2271815,0.50263566,0.83411384,0.9738069,-0.10897708,-0.19955927,,0.045937024,-0.0057219714,0.013802111,-0.64675546,0.18178646,0.74071646,0.691243,-0.2707162,0.6699969,0.32232022,0.9453393,0.049428493,,0.10785232,1.346561,0.44453493,0.99664986,-0.008043194,-0.081390366,-0.058250546,-0.7683574,-0.63736475,-0.05741044,0.6399705,-0.7662518,,-0.0655601,0.27169976,-0.096579604,-0.040935673,-0.84793764,0.528513,0.81837165,0.27501372,0.504614,-0.57322955,0.45317677,0.68267024,,0.012028027,0.4479969,-0.30791405,0.5722539,-0.26946324,-0.77454185,0.7955116,0.41183516,0.44446942,0.19921538,-0.8705064,0.4500354,,1.3065860067914221,0.121563538173168,0.17263082817000003,2.316654495617025,-0.8974285304594128,-0.11938135952670331,-0.41505727204720366,,-0.8547520745191687,-0.1918017936642399,0.19971162256000002,-3.467432905460095,-0.6178702519393217,1.1432129383355387,0.8402418761947326,,-0.0396756972209611,-0.088337658428128,0.07698115776,-0.046119083333121515,,3.2372773e-05,6.556511e-07,-1.1920929e-06,1.0,-2.3122877e-05,-1.9311905e-05,2.3122877e-05,1.0,-1.6987324e-06,1.931563e-05,1.758337e-06,1.0,902,2.859,0,2,2.32,False,-0.25975888018662197,1.0155257260099881
2.871390505999443,15:57:04.533871,15:56:48.645498,0,,0.10009438,-0.00086538494,0.03612736,-0.014639776,0.855986,-0.5167917,0.2280801,0.50608003,0.8317827,0.9735322,-0.105692774,-0.2026422,,0.045935713,-0.00572519,0.013802707,-0.64674944,0.18178877,0.74072117,0.69125223,-0.270703,0.6699927,0.3223125,0.94534266,0.049414992,,0.10785232,1.346561,0.44453493,0.99664986,-0.008043194,-0.081390366,-0.058250546,-0.7683574,-0.63736475,-0.05741044,0.6399705,-0.7662518,,-0.06498541,0.27132317,-0.09647305,-0.035690255,-0.8464793,0.5312241,0.81902206,0.27981883,0.5009034,-0.5726509,0.45296162,0.6832984,,0.012029427,0.44799507,-0.3079167,0.5722482,-0.26946658,-0.7745449,0.7955126,0.41184685,0.44445676,0.1992276,-0.87049985,0.4500427,,1.307991544174531,0.11880652253706986,0.17299249308,2.30575061855583,-0.8952423464631658,-0.11217938457038418,-0.41571064831174065,,-0.8547443517862945,-0.19181723912998838,0.19971032627000002,-3.467432905460095,-0.6178702519393217,1.1432129383355387,0.8402418761947326,,-0.0396756972209611,-0.088337658428128,0.07698115776,-0.046119083333121515,,3.2372773e-05,6.556511e-07,-1.1920929e-06,1.0,-2.3122877e-05,-1.9311905e-05,2.3122877e-05,1.0,-1.6987324e-06,1.931563e-05,1.758337e-06,1.0,916,2.904,0,2,2.32,False,-0.26148663402373185,1.0153326052068705
2.895342540999991,15:57:04.596523,15:56:48.778688,0,,0.09837806,-0.0014813542,0.034906507,-0.039221875,0.8496963,-0.5258116,0.24168938,0.5186589,0.82010925,0.9695605,-0.094916835,-0.2257053,,0.045935713,-0.005761221,0.013805032,-0.64669126,0.18175925,0.74077916,0.6913622,-0.2705615,0.6699364,0.3221934,0.94538885,0.04930824,,0.10785232,1.346561,0.44453493,0.99664986,-0.008043194,-0.081390366,-0.058250546,-0.7683574,-0.63736475,-0.05741044,0.6399705,-0.7662518,,-0.06321019,0.2701046,-0.09604957,-0.010860125,-0.8407017,0.54138964,0.8272858,0.29656747,0.47712255,-0.56167626,0.45306557,0.6922798,,0.01203099,0.44797012,-0.30794275,0.57219785,-0.2694494,-0.77458805,0.7955076,0.4119851,0.44433764,0.19939221,-0.8704397,0.45008606,,1.312393501912839,0.11079804854649904,0.17412415425000002,2.269054878446038,-0.8737904159999917,-0.0898944490022685,-0.41440389578266634,,-0.8547134608547976,-0.19200258471896975,0.19970643740000002,-3.467432905460095,-0.6178702519393217,1.1432129383355387,0.8402418761947326,,-0.0396756972209611,-0.088337658428128,0.07698115776,-0.046119083333121515,,3.2372773e-05,6.556511e-07,-1.1920929e-06,1.0,-2.3122877e-05,-1.9311905e-05,2.3122877e-05,1.0,-1.6987324e-06,1.931563e-05,1.758337e-06,1.0,930,2.949,1,3,2.359,False,-0.26190367805337944,1.0152360448053117
2.9579888959997334,15:57:04.629003,15:56:48.778688,0,,0.097395286,-0.0017557889,0.034174502,-0.053027738,0.8449512,-0.53220814,0.25077516,0.5271465,0.81192875,0.96659184,-0.090409815,-0.23984614,,0.045941465,-0.0057965964,0.01380837,-0.6466579,0.1816964,0.74082375,0.69140434,-0.27058354,0.6698841,0.3221702,0.9453946,0.04934925,,0.10785232,1.346561,0.44453493,0.99664986,-0.008043194,-0.081390366,-0.058250546,-0.7683574,-0.63736475,-0.05741044,0.6399705,-0.7662518,,-0.062191527,0.26944318,-0.09573034,0.003131806,-0.8361566,0.5484819,0.8325098,0.30604282,0.46180645,-0.55400145,0.45517024,0.697067,,0.012026703,0.44794565,-0.30796885,0.57216513,-0.26938653,-0.7746341,0.7955194,0.41197965,0.4443216,0.19943924,-0.87046176,0.45002258,,1.3151273493503144,0.1065968818629209,0.17482933601000003,2.2506021634194,-0.8595802200243859,-0.08122558343183683,-0.4152206161133378,,-0.8547134608547976,-0.19219565304082536,0.19970514111,-3.467432905460095,-0.6180068884390871,1.1433243562392352,0.8402418761947326,,-0.0396756972209611,-0.088337658428128,0.07698115776,-0.046119083333121515,,3.2372773e-05,6.556511e-07,-1.1920929e-06,1.0,-2.3122877e-05,-1.9311905e-05,2.3122877e-05,1.0,-1.6987324e-06,1.931563e-05,1.758337e-06,1.0,939,2.978,1,3,2.388,False,-0.2607717014014801,1.0152360448053117
2.9904775350005366,15:57:04.658880,15:56:48.778688,0,,0.096928656,-0.0018470138,0.03381163,-0.06004545,0.83896196,-0.5408671,0.25320444,0.5369242,0.8047359,0.96554744,-0.088629216,-0.24466875,,0.0459499,-0.0058325827,0.013810933,-0.646607,0.18162851,0.74088484,0.69151765,-0.27044705,0.6698221,0.32202888,0.9454467,0.04927358,,0.10785232,1.346561,0.44453493,0.99664986,-0.008043194,-0.081390366,-0.058250546,-0.7683574,-0.63736475,-0.05741044,0.6399705,-0.7662518,,-0.061706845,0.26914808,-0.095541336,0.010207821,-0.8302179,0.5573455,0.8338438,0.31470174,0.45350558,-0.55190605,0.4601098,0.6954845,,0.012019866,0.44791993,-0.3079946,0.5721242,-0.26933166,-0.7746834,0.7955029,0.4121224,0.4442187,0.19962221,-0.87041116,0.4500393,,1.3163938775416872,0.10482065330184927,0.17520396382000003,2.2403273561886583,-0.8541147600337682,-0.08282354367477418,-0.41636402457627775,,-0.8547211835876718,-0.19238872136268098,0.19970514111,-3.467432905460095,-0.6180068884390871,1.1433243562392352,0.8402418761947326,,-0.0396756972209611,-0.088337658428128,0.07698115776,-0.046119083333121515,,3.2372773e-05,6.556511e-07,-1.1920929e-06,1.0,-2.3122877e-05,-1.9311905e-05,2.3122877e-05,1.0,-1.6987324e-06,1.931563e-05,1.758337e-06,1.0,953,3.023,0,3,2.4,False,-0.26101001227556386,1.0148980833998553
3.0203430249966914,15:57:04.702142,15:56:48.778688,0,,0.09571062,-0.0020414293,0.032773674,-0.08771206,0.81710535,-0.5697767,0.25561446,0.5712913,0.7799279,0.96279156,-0.07723406,-0.258973,,0.04596266,-0.0059096366,0.01381433,-0.6467706,0.18158612,0.74075234,0.69151694,-0.27005312,0.66998184,0.32170182,0.9455675,0.0490925,,0.10785232,1.346561,0.44453493,0.99664986,-0.008043194,-0.081390366,-0.058250546,-0.7683574,-0.63736475,-0.05741044,0.6399705,-0.7662518,,-0.06043664,0.26834986,-0.09495132,0.037993975,-0.8088119,0.5868388,0.8346701,0.34858418,0.42639753,-0.5494381,0.47361624,0.68833524,,0.01201072,0.44786406,-0.30804852,0.5723222,-0.26932254,-0.7745403,0.79530203,0.41249773,0.44423,0.19985497,-0.87023616,0.45027435,,1.3192976251023956,0.10081255494012675,0.17627340307000003,2.2000668870396294,-0.8381282895612117,-0.08613966833052855,-0.4197942499650976,,-0.8547211835876718,-0.19279802620501488,0.19970514111,-3.467852285347064,-0.6181435249388526,1.1434357741429317,0.8402418761947326,,-0.0396756972209611,-0.088337658428128,0.07698115776,-0.046119083333121515,,3.2372773e-05,6.556511e-07,-1.1920929e-06,1.0,-2.3122877e-05,-1.9311905e-05,2.3122877e-05,1.0,-1.6987324e-06,1.931563e-05,1.758337e-06,1.0,962,3.052,0,3,2.4,False,-0.26160578946077395,1.015477445809209
3.063594874998671,15:57:04.740812,15:56:48.778688,0,,0.09504454,-0.0021211356,0.032052934,-0.095586486,0.82009095,-0.56419337,0.27672055,0.5663395,0.7763281,0.9561845,-0.081917405,-0.28107035,,0.04596702,-0.005932048,0.013816893,-0.6464787,0.181466,0.7410365,0.6917598,-0.27022308,0.6696624,0.3217661,0.945542,0.049162537,,0.10785232,1.346561,0.44453493,0.99664986,-0.008043194,-0.081390366,-0.058250546,-0.7683574,-0.63736475,-0.05741044,0.6399705,-0.7662518,,-0.05973377,0.26783112,-0.094496995,0.04631958,-0.81157184,0.5824137,0.84624,0.34168088,0.40881783,-0.53078467,0.47392547,0.702611,,0.0120072365,0.4478488,-0.30806533,0.5720132,-0.26919195,-0.7748139,0.7954916,0.41236883,0.44401026,0.19998513,-0.87033767,0.45002034,,1.3224485001150792,0.09696663396876294,0.17711080641000002,2.1985990574352376,-0.8106643531083583,-0.07627156461798706,-0.41832415336988915,,-0.8547134608547976,-0.19292158993100247,0.19970384482000003,-3.467432905460095,-0.6181435249388526,1.1434357741429317,0.8402418761947326,,-0.0396756972209611,-0.088337658428128,0.07698115776,-0.046119083333121515,,3.2372773e-05,6.556511e-07,-1.1920929e-06,1.0,-2.3122877e-05,-1.9311905e-05,2.3122877e-05,1.0,-1.6987324e-06,1.931563e-05,1.758337e-06,1.0,976,3.097,1,4,2.403,False,-0.26095043455704303,1.0150429240021939
3.102281633997336,15:57:04.781411,15:56:48.997863,0,,0.09400801,-0.0023212582,0.031239748,-0.11332466,0.8149035,-0.5684099,0.28798324,0.5744773,0.76618636,0.95090634,-0.07686472,-0.299781,,0.045970954,-0.0059387386,0.013818681,-0.64647186,0.18143946,0.74104893,0.6917822,-0.2701996,0.6696489,0.3217318,0.9455537,0.049159795,,0.10785232,1.346561,0.44453493,0.99664986,-0.008043194,-0.081390366,-0.058250546,-0.7683574,-0.63736475,-0.05741044,0.6399705,-0.7662518,,-0.058656745,0.26717272,-0.09407017,0.0643721,-0.8066157,0.58756053,0.8516705,0.35127297,0.38892755,-0.5201092,0.4753719,0.709583,,0.012003476,0.44784462,-0.30807096,0.572009,-0.26916808,-0.7748253,0.79548436,0.41239694,0.44399706,0.20002574,-0.8703317,0.4500138,,1.324742151778724,0.09431773659290393,0.17772006271000002,2.183501381504352,-0.7948145191355671,-0.07228854223767561,-0.4338418396526457,,-0.8547289063205461,-0.1929602035953736,0.19970384482000003,-3.467432905460095,-0.6181435249388526,1.1434357741429317,0.8402418761947326,,-0.0396756972209611,-0.088337658428128,0.07698115776,-0.046119083333121515,,3.2372773e-05,6.556511e-07,-1.1920929e-06,1.0,-2.3122877e-05,-1.9311905e-05,2.3122877e-05,1.0,-1.6987324e-06,1.931563e-05,1.758337e-06,1.0,985,3.126,0,4,2.418,False,-0.2611887454311268,1.0149946438014144
