AlexandreBanks6/ExpertPlaybackApp/resources/Motions/Pilot_04/PC1/OneHanded_02.csv
Task Time,PC1 Time,PC2 Time,Gaze Calib,s_T_psm1,Tx,Ty,Tz,R00,R01,R02,R10,R11,R12,R20,R21,R22,s_T_psm3,Tx,Ty,Tz,R00,R01,R02,R10,R11,R12,R20,R21,R22,cart_T_ecm,Tx,Ty,Tz,R00,R01,R02,R10,R11,R12,R20,R21,R22,ecm_T_psm1,Tx,Ty,Tz,R00,R01,R02,R10,R11,R12,R20,R21,R22,ecm_T_psm3,Tx,Ty,Tz,R00,R01,R02,R10,R11,R12,R20,R21,R22,psm1_joints,q1,q2,q3,q4,q5,q6,jaw,psm3_joints,q1,q2,q3,q4,q5,q6,jaw,ecm_joints,q1,q2,q3,q4,ecmi_T_ecm,Tx,Ty,Tz,R00,R01,R02,R10,R11,R12,R20,R21,R22,Sample #,Task Duration (s),Collisions (binary),Collisions (increments),Cumulative Collision Time (s),Clutch Press,MTMR Angle,MTML Angle
""
lci_T_si,,,,,-0.064848,0.0060158353,0.24753708,0.99741,0.018062852,0.06962021,0.059872065,-0.74489254,-0.6644926,0.03985694,0.6669399,-0.7440447
rci_T_si,,,,,-0.07478864,0.010140588,0.2572284,0.9943315,0.005651281,0.106174365,0.075483374,-0.74079365,-0.6674781,0.07488119,0.6717089,-0.737021
ecm_T_lc,,,,,-4.4061628e-05,-0.00034663224,-0.01840835,-0.99912,0.030754527,0.028518902,-0.031987965,-0.99852574,-0.043852776,0.027128186,-0.04472645,0.9986309
ecm_T_rc,,,,,-0.0043358393,0.01870579,-0.007592615,-0.99555075,-0.052743673,-0.078081585,0.04863213,-0.9973746,0.053654674,-0.08070653,0.04961868,0.9955021
cart_T_ecmi,,,,,0.10781996,1.3465626,0.44453546,0.9966516,-0.008020006,-0.08137113,-0.05822047,-0.76835763,-0.6373672,-0.05741044,0.6399705,-0.7662518
ecmac_T_ecmrep_psm1,,,,,0.011947535,-0.24624088,-0.3140189,0.99787813,0.060519684,0.024013558,-0.059408683,0.9972389,-0.04455629,-0.026643785,0.04303513,0.9987182
ecmac_T_ecmrep_psm3,,,,,-0.020729378,-0.4297972,-0.5440064,0.99962926,-0.018584386,0.019899037,0.019259674,0.999226,-0.034299888,-0.019246193,0.03467042,0.99921346
""
0,15:52:02.129904,NaN,0,,0.10960707,0.0011284798,0.023076564,0.9399182,-0.03194653,-0.3399017,0.33382004,-0.12262821,0.9346264,-0.071539596,-0.99193823,-0.10459605,,0.0259986,0.007016182,0.024832428,-0.9014976,-0.19320664,0.38726348,0.40131202,-0.038196146,0.91514456,-0.16202012,0.9804143,0.11196986,,0.10783088,1.3465632,0.4445395,0.9966513,-0.008024139,-0.08137456,-0.05822583,-0.7683576,-0.6373668,-0.05741044,0.6399705,-0.7662518,,-0.07376515,0.26381278,-0.08502419,-0.93302786,0.08375141,0.34992105,0.17158261,-0.75125754,0.63731587,0.31625694,0.6546738,0.6865739,,0.030000972,0.46694073,-0.30835864,0.892358,0.08729989,-0.44280466,0.28681296,0.6478404,0.7057203,0.34847605,-0.75675726,0.5530668,,1.264721071880251,0.16358292774182356,0.17989394104,3.9516069849658613,0.015986470472556535,-1.0109867417698708,-0.40803347720342953,,-0.7990634477631358,-0.08037048102205448,0.18061986344000003,-4.054355057273279,-0.18295627318592475,1.3911954956268975,0.8748708182151996,,-0.039682242205656075,-0.08834420341282298,0.07698115776,-0.046119083333121515,,1.0617077e-05,1.9669533e-06,-4.4107437e-06,1.0,-4.120171e-06,-3.4421682e-06,4.120171e-06,1.0,-2.9802322e-07,3.4496188e-06,3.2782555e-07,1.0,37,0.11,0,0,0.0,False,-0.26232072208302704,1.0497563883626244
0.1302476970013231,15:52:02.167274,NaN,0,,0.109501086,0.0007389188,0.023765028,0.9368814,-0.02826948,-0.34850264,0.34313172,-0.117185295,0.9319486,-0.06718506,-0.9927075,-0.10008851,,0.025789984,0.0069696754,0.024767637,-0.90157545,-0.19238988,0.3874888,0.4014033,-0.037935436,0.91511536,-0.16135943,0.9805851,0.111427575,,0.10783088,1.3465632,0.4445395,0.9966513,-0.008024139,-0.08137456,-0.05822583,-0.7683576,-0.6373668,-0.05741044,0.6399705,-0.7662518,,-0.07369782,0.26398453,-0.08580067,-0.9301763,0.080149196,0.358257,0.18151683,-0.7478301,0.6385936,0.31909811,0.6590344,0.6810654,,0.030217474,0.46688625,-0.3083519,0.89235896,0.086457305,-0.442968,0.28732988,0.64805615,0.70531183,0.3480475,-0.7566693,0.5534569,,1.2658949272771332,0.162463131475061,0.17914209284000002,3.940703107904666,0.014756741974667567,-1.0150480625253178,-0.40868685346796674,,-0.7977737513731403,-0.08033959009055758,0.18058615990000002,-4.054145367329794,-0.18254636368662844,1.3913513143566518,0.8745441300829312,,-0.039682242205656075,-0.08834420341282298,0.07698115776,-0.046119083333121515,,1.0617077e-05,1.9669533e-06,-4.4107437e-06,1.0,-4.120171e-06,-3.4421682e-06,4.120171e-06,1.0,-2.9802322e-07,3.4496188e-06,3.2782555e-07,1.0,48,0.144,0,0,0.0,False,-0.26196325577190027,1.0493218665556094
0.16760698800499085,15:52:02.198272,NaN,0,,0.10926074,0.00048328936,0.024254888,0.93332803,-0.02442601,-0.35819283,0.35358816,-0.11042765,0.9288601,-0.062242717,-0.9935839,-0.09442848,,0.025720105,0.0069557726,0.024742544,-0.901662,-0.19201049,0.3874757,0.40134332,-0.037917376,0.91514254,-0.16102499,0.9806601,0.11125073,,0.10783088,1.3465632,0.4445395,0.9966513,-0.008024139,-0.08137456,-0.05822583,-0.7683576,-0.6373668,-0.05741044,0.6399705,-0.7662518,,-0.073485106,0.264128,-0.086345874,-0.92683405,0.07639345,0.36761752,0.19271174,-0.74349964,0.64036745,0.32224336,0.6643586,0.6743789,,0.030290268,0.466867,-0.30834606,0.89241153,0.08607159,-0.44293717,0.2875186,0.64807767,0.70521516,0.34775668,-0.7566948,0.55360484,,1.2676557103724564,0.16130472154392733,0.17864820635,3.9283314012390793,0.013117103977482282,-1.0198369531915028,-0.4095035737986382,,-0.7973412783321837,-0.08032414462480912,0.18057838216000002,-4.054145367329794,-0.18254636368662844,1.3914329930967924,0.8743807860167969,,-0.039682242205656075,-0.08834420341282298,0.07698115776,-0.046119083333121515,,1.0617077e-05,1.9669533e-06,-4.4107437e-06,1.0,-4.120171e-06,-3.4421682e-06,4.120171e-06,1.0,-2.9802322e-07,3.4496188e-06,3.2782555e-07,1.0,56,0.169,0,0,0.0,False,-0.26154621174225356,1.0494667071579475
0.19862039700092282,15:52:02.221896,NaN,0,,0.108872935,0.00030109286,0.024698988,0.9309076,-0.018660052,-0.3647779,0.36114538,-0.10236511,0.9268739,-0.05463603,-0.9945718,-0.08855343,,0.025727205,0.0069508255,0.02474773,-0.90168434,-0.19218177,0.3873386,0.40119916,-0.037767082,0.9152119,-0.16125847,0.9806323,0.11115709,,0.10783088,1.3465632,0.4445395,0.9966513,-0.008024139,-0.08137456,-0.05822583,-0.7683576,-0.6373668,-0.05741044,0.6399705,-0.7662518,,-0.07312232,0.2643003,-0.08681441,-0.9247795,0.07073077,0.37387174,0.20348626,-0.73833156,0.6430084,0.3215218,0.6707188,0.6684011,,0.030282902,0.46686602,-0.3083529,0.8924664,0.08623706,-0.44279438,0.28725904,0.6481887,0.70521885,0.34783033,-0.7565808,0.5537143,,1.2704127260085545,0.15986057049644736,0.17825413419000002,3.917427524177884,0.006831824988272023,-1.0245131784383348,-0.40983026193090655,,-0.7973798919965549,-0.08035503555630602,0.18057578958,-4.054355057273279,-0.182409727186863,1.3914032539332362,0.8745441300829311,,-0.039682242205656075,-0.08834420341282298,0.07698115776,-0.046119083333121515,,1.0617077e-05,1.9669533e-06,-4.4107437e-06,1.0,-4.120171e-06,-3.4421682e-06,4.120171e-06,1.0,-2.9802322e-07,3.4496188e-06,3.2782555e-07,1.0,68,0.204,1,1,0.029,False,-0.2620824112089424,1.049514987358727
0.22219347700593062,15:52:02.261044,NaN,0,,0.108322226,0.00019170344,0.025161952,0.9272281,-0.007516427,-0.3744216,0.37208408,-0.094821215,0.923343,-0.042443335,-0.9954659,-0.085124105,,0.025777556,0.006954342,0.024773896,-0.90161216,-0.19249761,0.38734972,0.40125293,-0.037803918,0.9151869,-0.16152799,0.980569,0.11132467,,0.10783088,1.3465632,0.4445395,0.9966513,-0.008024139,-0.08137456,-0.05822583,-0.7683576,-0.6373668,-0.05741044,0.6399705,-0.7662518,,-0.07259748,0.26454452,-0.0872554,-0.92169243,0.05969031,0.38330156,0.21987516,-0.733656,0.64296484,0.31959024,0.67689437,0.66308075,,0.030229896,0.46688053,-0.30836746,0.8924213,0.08655937,-0.44282237,0.2871107,0.64815414,0.70531106,0.34806845,-0.7565736,0.55357444,,1.2743281515757863,0.15823107385998597,0.17790672847000003,3.9010717085860915,-0.0028693664950742498,-1.0258322049117727,-0.4083601653356982,,-0.7977042467772723,-0.08040137195355138,0.18057319700000002,-4.054355057273279,-0.182409727186863,1.3914032539332362,0.8745441300829311,,-0.039682242205656075,-0.08834420341282298,0.07698115776,-0.046119083333121515,,1.0617077e-05,1.9669533e-06,-4.4107437e-06,1.0,-4.120171e-06,-3.4421682e-06,4.120171e-06,1.0,-2.9802322e-07,3.4496188e-06,3.2782555e-07,1.0,76,0.229,1,1,0.054,False,-0.26243987752006825,1.0488873447485942
0.26136668100662064,15:52:02.283253,15:51:46.516385,0,,0.10767124,0.00017042458,0.025628805,0.9259705,0.00089627877,-0.37759477,0.37626326,-0.08612946,0.92250085,-0.031695187,-0.9962835,-0.08009055,,0.025814578,0.0069557726,0.024796665,-0.90162796,-0.19275741,0.38718387,0.40111038,-0.03777927,0.9152503,-0.1617938,0.98051894,0.1113798,,0.10783088,1.3465632,0.4445395,0.9966513,-0.008024139,-0.08137456,-0.05822583,-0.7683576,-0.6373668,-0.05741044,0.6399705,-0.7662518,,-0.071972236,0.26486012,-0.087644815,-0.9209833,0.051378958,0.38619933,0.23018937,-0.72798866,0.6457905,0.3143288,0.6836613,0.65863854,,0.030190593,0.4668927,-0.30838156,0.89247304,0.08682149,-0.44266686,0.28683,0.64816755,0.7054129,0.34816727,-0.75653213,0.553569,,1.2790390186290632,0.15667108181939263,0.17761506322,3.8916356611292877,-0.014893378474433009,-1.0283609191477123,-0.40852350940183235,,-0.7979513742292474,-0.0804399856179225,0.18056801184000001,-4.054564747216763,-0.182409727186863,1.3914032539332362,0.8745441300829311,,-0.039682242205656075,-0.08834420341282298,0.07698115776,-0.046119083333121515,,1.0617077e-05,1.9669533e-06,-4.4107437e-06,1.0,-4.120171e-06,-3.4421682e-06,4.120171e-06,1.0,-2.9802322e-07,3.4496188e-06,3.2782555e-07,1.0,88,0.266,1,1,0.091,False,-0.2607121236829584,1.049418426957168
0.2835216189996572,15:52:02.318054,15:51:46.516385,0,,0.106937185,0.00019571185,0.02610062,0.9227369,0.011695771,-0.3852531,0.38500655,-0.07484168,0.9198743,-0.018074319,-0.9971267,-0.073562145,,0.025829501,0.006948605,0.024812222,-0.9015619,-0.19294186,0.38724568,0.4011644,-0.0375973,0.91523415,-0.16202767,0.9804896,0.11129767,,0.10783088,1.3465632,0.4445395,0.9966513,-0.008024139,-0.08137456,-0.05822583,-0.7683576,-0.6373668,-0.05741044,0.6399705,-0.7662518,,-0.071264066,0.26521632,-0.08801047,-0.9184287,0.04069935,0.39348733,0.24588013,-0.7204791,0.6484234,0.3098898,0.69228137,0.6517015,,0.03017446,0.46689618,-0.30839717,0.8924301,0.086998634,-0.44271854,0.28670633,0.6483023,0.7053393,0.34837902,-0.7563963,0.5536215,,1.2843059224492843,0.15508019884730237,0.17735969409000002,3.8763282952549174,-0.02760057295261897,-1.031639403707419,-0.4090135416002352,,-0.7980517697566124,-0.08049404474804206,0.18055893781000001,-4.054564747216763,-0.18227309068709754,1.3912918360295399,0.8745441300829311,,-0.039682242205656075,-0.08834420341282298,0.07698115776,-0.046119083333121515,,1.0617077e-05,1.9669533e-06,-4.4107437e-06,1.0,-4.120171e-06,-3.4421682e-06,4.120171e-06,1.0,-2.9802322e-07,3.4496188e-06,3.2782555e-07,1.0,96,0.291,1,1,0.116,False,-0.26196325577190027,1.0495632675595068
0.3183943730109604,15:52:02.341071,15:51:46.516385,0,,0.10651126,0.0002167821,0.026372075,0.92271966,0.016252043,-0.38512886,0.38523176,-0.07412067,0.91983837,-0.013596728,-0.9971168,-0.07465339,,0.025825284,0.006939143,0.024819016,-0.9015553,-0.19296905,0.38724765,0.401174,-0.03762451,0.9152288,-0.16204086,0.98048323,0.11133474,,0.10783088,1.3465632,0.4445395,0.9966513,-0.008024139,-0.08137456,-0.05822583,-0.7683576,-0.6373668,-0.05741044,0.6399705,-0.7662518,,-0.070852995,0.26542625,-0.08821664,-0.91864735,0.036152832,0.39342085,0.24903171,-0.72007805,0.6476657,0.30670866,0.69295067,0.6524946,,0.030178376,0.46689418,-0.30840877,0.89242446,0.08702768,-0.44272423,0.28670385,0.64828104,0.70535994,0.34839553,-0.7564112,0.55359066,,1.2873486792017288,0.15421525276538922,0.17721839848,3.8736023259896184,-0.034159124941360114,-1.0288233852743482,-0.41015695006317543,,-0.7980363242908639,-0.08054038114528742,0.18054986378000001,-4.054564747216763,-0.18227309068709754,1.3913735147696804,0.8747074741490655,,-0.039682242205656075,-0.08834420341282298,0.07698115776,-0.046119083333121515,,1.0617077e-05,1.9669533e-06,-4.4107437e-06,1.0,-4.120171e-06,-3.4421682e-06,4.120171e-06,1.0,-2.9802322e-07,3.4496188e-06,3.2782555e-07,1.0,109,0.331,1,1,0.156,False,-0.26255903295711036,1.049418426957168
0.341417089002789,15:52:02.381264,15:51:46.516385,0,,0.10571964,0.00022132695,0.026898861,0.9176755,0.018095575,-0.39691854,0.39717725,-0.06954551,0.9151031,-0.011044547,-0.9974146,-0.07100734,,0.025790006,0.006914392,0.02483964,-0.901639,-0.19286045,0.38710693,0.40099087,-0.037456512,0.91531587,-0.16202867,0.98051107,0.11110741,,0.10783088,1.3465632,0.4445395,0.9966513,-0.008024139,-0.08137456,-0.05822583,-0.7683576,-0.6373668,-0.05741044,0.6399705,-0.7662518,,-0.07009036,0.26580542,-0.08863945,-0.9136819,0.03435197,0.40497568,0.25979033,-0.7169255,0.6469365,0.31256092,0.69630295,0.64611757,,0.030212402,0.46689367,-0.3084423,0.8925155,0.08690836,-0.44256425,0.28658643,0.6484113,0.7052879,0.34825906,-0.75631326,0.55381036,,1.2925692466247047,0.15290238817677107,0.17692284436000003,3.8599724796631243,-0.03497894393995275,-1.0288899865134349,-0.4093402297325037,,-0.7978818696333795,-0.08062533120690388,0.18051356766,-4.054774437160248,-0.18227309068709754,1.3913735147696804,0.8747074741490655,,-0.039682242205656075,-0.08834420341282298,0.07698115776,-0.046119083333121515,,1.0617077e-05,1.9669533e-06,-4.4107437e-06,1.0,-4.120171e-06,-3.4421682e-06,4.120171e-06,1.0,-2.9802322e-07,3.4496188e-06,3.2782555e-07,1.0,130,0.397,1,1,0.222,False,-0.26190367805337944,1.049514987358727
0.38161212400882505,15:52:02.446995,15:51:46.639049,0,,0.10528554,0.00021782517,0.027504832,0.9115388,0.027377151,-0.41030172,0.41120964,-0.06533489,0.9091963,-0.0019158125,-0.99748766,-0.07081303,,0.025754064,0.006911963,0.024932086,-0.9015681,-0.19306533,0.38716966,0.40116963,-0.038009763,0.9152148,-0.16198006,0.9804494,0.111720294,,0.10783088,1.3465632,0.4445395,0.9966513,-0.008024139,-0.08137456,-0.05822583,-0.7683576,-0.6373668,-0.05741044,0.6399705,-0.7662518,,-0.06968896,0.26622015,-0.08911119,-0.90796256,0.025109772,0.41829827,0.27651978,-0.7141281,0.64308465,0.31486627,0.6995646,0.6414582,,0.030238176,0.46695757,-0.30851367,0.8924309,0.08714637,-0.44268796,0.28674266,0.64798546,0.7056157,0.3483472,-0.75665075,0.55329365,,1.2962298220070871,0.15249308333443717,0.17647951318000002,3.841519764636486,-0.03880476593338509,-1.0258519639500756,-0.4095035737986381,,-0.7979282060306248,-0.08057899480965854,0.18041504962000002,-4.054564747216763,-0.18227309068709754,1.391863587210524,0.8750341622813339,,-0.039682242205656075,-0.08834420341282298,0.07698115776,-0.046119083333121515,,1.0617077e-05,1.9669533e-06,-4.4107437e-06,1.0,-4.120171e-06,-3.4421682e-06,4.120171e-06,1.0,-2.9802322e-07,3.4496188e-06,3.2782555e-07,1.0,151,0.462,1,1,0.287,False,-0.26196325577190027,1.0503840309727575
0.44732432400633115,15:52:02.514070,15:51:46.639049,0,,0.10538608,0.00014871359,0.027783439,0.9110542,0.035432644,-0.41076124,0.4122511,-0.06521988,0.9087329,0.005409032,-0.9972415,-0.07402596,,0.025757246,0.006899148,0.024984956,-0.9002319,-0.196643,0.3884763,0.40270656,-0.0367817,0.91458976,-0.16555893,0.9797851,0.11230144,,0.10783088,1.3465632,0.4445395,0.9966513,-0.008024139,-0.08137456,-0.05822583,-0.7683576,-0.6373668,-0.05741044,0.6399705,-0.7662518,,-0.069804475,0.26635113,-0.08936021,-0.9078608,0.017053269,0.41892472,0.28219125,-0.71413094,0.6406131,0.31009164,0.69980437,0.6435192,,0.030229934,0.46698308,-0.30856112,0.89141524,0.090708494,-0.44401675,0.28533697,0.648841,0.7053993,0.35208198,-0.75549805,0.55250424,,1.2963919993974458,0.1526012015946763,0.17618395906,3.8371162758233113,-0.04481677192306447,-1.0222564360296822,-0.40852350940183246,,-0.7978895923662537,-0.08052493567953896,0.18035930915,-4.053725987442824,-0.17817399569413436,1.3921149146658158,0.8758508826120054,,-0.039682242205656075,-0.08834420341282298,0.07698115776,-0.046119083333121515,,1.0617077e-05,1.9669533e-06,-4.4107437e-06,1.0,-4.120171e-06,-3.4421682e-06,4.120171e-06,1.0,-2.9802322e-07,3.4496188e-06,3.2782555e-07,1.0,159,0.488,1,1,0.313,False,-0.2611887454311268,1.0510116735828905
0.5143471570045222,15:52:02.545506,15:51:46.639049,0,,0.10540591,8.428097e-05,0.027895823,0.91048014,0.03685448,-0.41190743,0.41348797,-0.063480824,0.90829396,0.0073264986,-0.9973023,-0.07303685,,0.025692329,0.006908223,0.024991333,-0.9017057,-0.19336131,0.38670155,0.40131968,-0.041595846,0.91499305,-0.16083916,0.9802455,0.11510682,,0.10783088,1.3465632,0.4445395,0.9966513,-0.008024139,-0.08137456,-0.05822583,-0.7683576,-0.6373668,-0.05741044,0.6399705,-0.7662518,,-0.06983056,0.2663774,-0.08948592,-0.9073825,0.015645895,0.42001462,0.2844083,-0.71292025,0.640981,0.30946565,0.70107055,0.6424415,,0.03029323,0.46700117,-0.30856267,0.8924359,0.087643296,-0.4425797,0.28763008,0.6452419,0.70776534,0.34760186,-0.75893444,0.55062824,,1.2964460585275654,0.15245446967006604,0.17605433006,3.8350193763884657,-0.04604650042095343,-1.0232139646597878,-0.4088501975341011,,-0.797796919571763,-0.08054038114528742,0.18033727222,-4.054145367329794,-0.18322954618545564,1.3952572322208967,0.8760142266781394,,-0.039682242205656075,-0.08834420341282298,0.07698115776,-0.046119083333121515,,1.0617077e-05,1.9669533e-06,-4.4107437e-06,1.0,-4.120171e-06,-3.4421682e-06,4.120171e-06,1.0,-2.9802322e-07,3.4496188e-06,3.2782555e-07,1.0,172,0.528,1,1,0.353,False,-0.2613079008681689,1.05105995378367
0.5458027929998934,15:52:02.574864,15:51:46.639049,0,,0.105375096,8.265674e-05,0.027976587,0.9107001,0.040774155,-0.41105083,0.412893,-0.060880393,0.90874255,0.012028247,-0.99731183,-0.072279125,,0.025661372,0.006910756,0.024983644,-0.9021815,-0.19161762,0.3864595,0.40094948,-0.042103082,0.9151321,-0.15908438,0.98056614,0.11481354,,0.10783088,1.3465632,0.4445395,0.9966513,-0.008024139,-0.08137456,-0.05822583,-0.7683576,-0.6373668,-0.05741044,0.6399705,-0.7662518,,-0.06980407,0.26643094,-0.089548394,-0.90785414,0.011746089,0.4191215,0.28709075,-0.7111121,0.6417932,0.30558094,0.7029805,0.6422139,,0.03032467,0.46700132,-0.3085567,0.89273655,0.08590293,-0.44231457,0.28858176,0.64489007,0.70769864,0.3460377,-0.7594323,0.5509269,,1.29694803616439,0.15228456954683312,0.17599081185,3.83334185684059,-0.05096541441250929,-1.023613572094307,-0.40917688566636956,,-0.7976965240443981,-0.08054038114528742,0.18033467964000002,-4.054145367329794,-0.18500582068240637,1.3950720901661389,0.8763409148104082,,-0.039682242205656075,-0.08834420341282298,0.07698115776,-0.046119083333121515,,1.0617077e-05,1.9669533e-06,-4.4107437e-06,1.0,-4.120171e-06,-3.4421682e-06,4.120171e-06,1.0,-2.9802322e-07,3.4496188e-06,3.2782555e-07,1.0,180,0.553,1,1,0.378,False,-0.2620824112089424,1.0512530745867876
0.5752116880030371,15:52:02.606387,15:51:46.828583,0,,0.10529474,0.00010383129,0.028024107,0.90953594,0.041837845,-0.41351426,0.4153979,-0.05859831,0.9077504,0.013747111,-0.99740446,-0.070676625,,0.025661983,0.00690718,0.024985075,-0.9026388,-0.19159994,0.38539892,0.39982235,-0.04180014,0.915639,-0.1593267,0.9805826,0.11433631,,0.10783088,1.3465632,0.4445395,0.9966513,-0.008024139,-0.08137456,-0.05822583,-0.7683576,-0.6373668,-0.05741044,0.6399705,-0.7662518,,-0.06972624,0.26648092,-0.08957309,-0.9067693,0.010700928,0.42149132,0.29013875,-0.70950687,0.642199,0.3059231,0.70461726,0.6402543,,0.030324092,0.46699956,-0.30856016,0.8932737,0.08586828,-0.4412354,0.2876407,0.6451221,0.70787024,0.3454343,-0.75923914,0.5515714,,1.2975272411299568,0.1522150649509651,0.17597525637000003,3.829986817744837,-0.05164859691133649,-1.0246900573786362,-0.40983026193090655,,-0.7977119695101466,-0.08055582661103586,0.18033338335000001,-4.055403506990701,-0.18514245718217182,1.3950201505895545,0.8763409148104083,,-0.039682242205656075,-0.08834420341282298,0.07698115776,-0.046119083333121515,,1.0617077e-05,1.9669533e-06,-4.4107437e-06,1.0,-4.120171e-06,-3.4421682e-06,4.120171e-06,1.0,-2.9802322e-07,3.4496188e-06,3.2782555e-07,1.0,193,0.593,1,1,0.418,False,-0.2618441003348577,1.05105995378367
0.6067311299993889,15:52:02.645982,15:51:46.828583,0,,0.10519514,0.00012975931,0.028057963,0.90949684,0.041206043,-0.4136637,0.41549885,-0.058326095,0.9077217,0.013276249,-0.9974467,-0.070168436,,0.025683045,0.006875813,0.02497363,-0.90382534,-0.19176191,0.38252687,0.39684772,-0.041308254,0.9169544,-0.16003546,0.9805718,0.113435715,,0.10783088,1.3465632,0.4445395,0.9966513,-0.008024139,-0.08137456,-0.05822583,-0.7683576,-0.6373668,-0.05741044,0.6399705,-0.7662518,,-0.06962843,0.2665259,-0.089585245,-0.9067048,0.011335519,0.4216135,0.28990147,-0.7093124,0.64252084,0.306339,0.7048031,0.63985074,,0.030306008,0.46696654,-0.30857196,0.8946788,0.08600547,-0.43835256,0.28510857,0.6454949,0.7085545,0.3438939,-0.7589067,0.55298966,,1.2981682279585174,0.1521301148893486,0.17597784895000002,3.829986817744837,-0.05164859691133649,-1.0247717361187767,-0.40999360599704093,,-0.7977891968388887,-0.08074889493289147,0.18034893883000003,-4.0587585460864535,-0.18555236668146813,1.3953544043006438,0.8763409148104083,,-0.039682242205656075,-0.08834420341282298,0.07698115776,-0.046119083333121515,,1.0617077e-05,1.9669533e-06,-4.4107437e-06,1.0,-4.120171e-06,-3.4421682e-06,4.120171e-06,1.0,-2.9802322e-07,3.4496188e-06,3.2782555e-07,1.0,214,0.659,1,1,0.484,False,-0.26196325577190027,1.0513496349883464
0.6463138260005508,15:52:02.712339,15:51:46.828583,0,,0.10516904,0.000119403005,0.028025568,0.90877044,0.045895353,-0.4147649,0.41688997,-0.055992424,0.90723073,0.01841399,-0.9973757,-0.07001755,,0.025717713,0.0067344755,0.024949789,-0.9043504,-0.1912691,0.38153124,0.39574003,-0.04106334,0.917444,-0.15981181,0.9806783,0.11282843,,0.10783088,1.3465632,0.4445395,0.9966513,-0.008024139,-0.08137456,-0.05822583,-0.7683576,-0.6373668,-0.05741044,0.6399705,-0.7662518,,-0.06960071,0.26649743,-0.089569196,-0.906244,0.0066614845,0.4227026,0.2943838,-0.7076734,0.6422901,0.303414,0.70650834,0.6393637,,0.030281309,0.46684274,-0.30864817,0.89523166,0.085492276,-0.43732285,0.28450042,0.64569193,0.7086194,0.34295732,-0.7587971,0.55372125,,1.2983458508146246,0.1517748691771343,0.17601025620000002,3.8262123987621157,-0.055884328404065146,-1.0248299669302319,-0.40983026193090666,,-0.7977891968388887,-0.08161384101480462,0.18036838318,-4.06001668574736,-0.18664545867959165,1.3958373538295121,0.8760142266781396,,-0.039682242205656075,-0.08834420341282298,0.07698115776,-0.046119083333121515,,1.0617077e-05,1.9669533e-06,-4.4107437e-06,1.0,-4.120171e-06,-3.4421682e-06,4.120171e-06,1.0,-2.9802322e-07,3.4496188e-06,3.2782555e-07,1.0,222,0.684,1,1,0.509,False,-0.26190367805337944,1.0504805913743163
0.7126903739990667,15:52:02.736231,15:51:46.828583,0,,0.10515236,9.505451e-05,0.028001294,0.9080255,0.046455536,-0.416331,0.41847676,-0.05515495,0.9065512,0.019151613,-0.99739647,-0.06952268,,0.02575145,0.006486684,0.02493,-0.90802354,-0.19048807,0.37310487,0.38699841,-0.04043287,0.9211934,-0.16039075,0.98085654,0.110432506,,0.10783088,1.3465632,0.4445395,0.9966513,-0.008024139,-0.08137456,-0.05822583,-0.7683576,-0.6373668,-0.05741044,0.6399705,-0.7662518,,-0.069582894,0.26646364,-0.08956809,-0.90553075,0.006107644,0.42423666,0.29608086,-0.7070808,0.6421626,0.3038917,0.7071064,0.63847506,,0.030262465,0.46664336,-0.30879927,0.89938223,0.08466571,-0.42888612,0.27808398,0.6461888,0.7107104,0.33731422,-0.7584667,0.5576266,,1.298322682616002,0.15155090992378178,0.17602581168,3.824325189270755,-0.055884328404065146,-1.0254017181112156,-0.40868685346796674,,-0.797796919571763,-0.08306571479515883,0.18037356834,-4.069662423147649,-0.18965146167443137,1.3978801540101307,0.8760142266781396,,-0.039682242205656075,-0.08834420341282298,0.07698115776,-0.046119083333121515,,1.0617077e-05,1.9669533e-06,-4.4107437e-06,1.0,-4.120171e-06,-3.4421682e-06,4.120171e-06,1.0,-2.9802322e-07,3.4496188e-06,3.2782555e-07,1.0,235,0.725,1,1,0.55,False,-0.2618441003348577,1.0511565141852286
0.736514566000551,15:52:02.774448,15:51:46.828583,0,,0.10513754,7.085502e-05,0.027985618,0.90846467,0.046406023,-0.41537744,0.41753423,-0.05583161,0.9069443,0.01889649,-0.99736106,-0.07009712,,0.025796853,0.0062119067,0.024917245,-0.9107475,-0.1896558,0.36683688,0.37999338,-0.03706962,0.9242461,-0.16169018,0.9811506,0.10582894,,0.10783088,1.3465632,0.4445395,0.9966513,-0.008024139,-0.08137456,-0.05822583,-0.7683576,-0.6373668,-0.05741044,0.6399705,-0.7662518,,-0.06956739,0.26643562,-0.0895732,-0.90596074,0.0061516175,0.42331696,0.2951949,-0.7075598,0.6420429,0.30347168,0.70662665,0.6392055,,0.030232634,0.4664275,-0.3089732,0.90258116,0.083637804,-0.42231742,0.27236006,0.64876926,0.7105761,0.3334176,-0.756375,0.5627873,,1.2983304053488762,0.1513655643348004,0.17603358942000003,3.825373638988178,-0.056294237903361466,-1.0249857856599858,-0.4088501975341011,,-0.7977891968388887,-0.08465659776724907,0.18037227205,-4.077630641000061,-0.19142773617138206,1.3972049395145296,0.8763409148104082,,-0.039682242205656075,-0.08834420341282298,0.07698115776,-0.046119083333121515,,1.0617077e-05,1.9669533e-06,-4.4107437e-06,1.0,-4.120171e-06,-3.4421682e-06,4.120171e-06,1.0,-2.9802322e-07,3.4496188e-06,3.2782555e-07,1.0,243,0.749,1,1,0.574,False,-0.2620824112089424,1.051397915189126
0.7747708860115381,15:52:02.806782,15:51:46.828583,0,,0.10514132,7.733703e-05,0.02798134,0.90823466,0.049037457,-0.41557822,0.41792363,-0.055966377,0.90675664,0.021206647,-0.99722767,-0.07132447,,0.02588927,0.005860731,0.024916649,-0.9129222,-0.1923632,0.35995725,0.37202877,-0.029541224,0.92775095,-0.16783164,0.98087907,0.09853345,,0.10783088,1.3465632,0.4445395,0.9966513,-0.008024139,-0.08137456,-0.05822583,-0.7683576,-0.6373668,-0.05741044,0.6399705,-0.7662518,,-0.06957091,0.2664375,-0.08956554,-0.90585124,0.003516132,0.4235814,0.2970314,-0.7076538,0.6410916,0.30200315,0.7065506,0.63998467,,0.03015866,0.4661584,-0.3092055,0.90580875,0.08597542,-0.414872,0.26263607,0.65442926,0.7090449,0.3324648,-0.7512194,0.5702075,,1.2983767417461214,0.15131922793755503,0.17604007087,3.823905809383786,-0.05820714890007763,-1.0236709712286576,-0.40934022973250384,,-0.7977891968388887,-0.0865872809858052,0.18036319802,-4.0876957582873175,-0.1888316426758387,1.3946796056435948,0.8758508826120055,,-0.039682242205656075,-0.08834420341282298,0.07698115776,-0.046119083333121515,,1.0617077e-05,1.9669533e-06,-4.4107437e-06,1.0,-4.120171e-06,-3.4421682e-06,4.120171e-06,1.0,-2.9802322e-07,3.4496188e-06,3.2782555e-07,1.0,260,0.802,1,1,0.627,False,-0.26190367805337944,1.0508185527797727
0.8071261940058321,15:52:02.848027,15:51:47.031387,0,,0.10512732,0.000109151006,0.027973086,0.9081415,0.050785884,-0.41557172,0.41796532,-0.05268079,0.90693426,0.024166837,-0.99731904,-0.06906828,,0.026043512,0.005227998,0.024925828,-0.9180767,-0.19894685,0.34286296,0.3532372,-0.01808989,0.9353589,-0.17988442,0.97984326,0.08688325,,0.10783088,1.3465632,0.4445395,0.9966513,-0.008024139,-0.08137456,-0.05822583,-0.7683576,-0.6373668,-0.05741044,0.6399705,-0.7662518,,-0.069556326,0.26645613,-0.08953876,-0.9059147,0.0017924745,0.42345643,0.29903764,-0.7053216,0.64272696,0.29982504,0.7088852,0.6384252,,0.030036451,0.46568167,-0.30963215,0.9131828,0.092046425,-0.39701965,0.24132338,0.66289514,0.7087546,0.32842073,-0.74303263,0.5831315,,1.2985852555337256,0.1513115052046808,0.17606470038000002,3.8224379797793944,-0.06093987889538644,-1.0256899076420383,-0.41195373479065234,,-0.7977737513731403,-0.09001617438196088,0.18033467964000002,-4.110551962127131,-0.18418600168381372,1.3934234378622739,0.8763409148104083,,-0.039682242205656075,-0.08834420341282298,0.07698115776,-0.046119083333121515,,1.0617077e-05,1.9669533e-06,-4.4107437e-06,1.0,-4.120171e-06,-3.4421682e-06,4.120171e-06,1.0,-2.9802322e-07,3.4496188e-06,3.2782555e-07,1.0,281,0.868,1,1,0.693,False,-0.26202283349042155,1.051397915189126
0.8483729250001488,15:52:02.916846,15:51:47.031387,0,,0.10508569,0.00013028085,0.027940512,0.90834826,0.05239686,-0.4149193,0.41739625,-0.051547408,0.9072614,0.026149675,-0.997295,-0.06869319,,0.026376761,0.0037045479,0.024964929,-0.9193674,-0.20229556,0.3374016,0.34595358,-0.007418692,0.9382223,-0.1872952,0.9792964,0.07680529,,0.10783088,1.3465632,0.4445395,0.9966513,-0.008024139,-0.08137456,-0.05822583,-0.7683576,-0.6373668,-0.05741044,0.6399705,-0.7662518,,-0.06951292,0.26645148,-0.089502245,-0.90622914,0.00018852457,0.4227868,0.29992825,-0.70451164,0.64320016,0.29797947,0.7096924,0.6383924,,0.02977822,0.46454945,-0.3106737,0.91563624,0.094892055,-0.39064783,0.23115559,0.6707558,0.70473665,0.32890323,-0.7355828,0.59223354,,1.298847828451449,0.15115705054719633,0.17611266311,3.8220185998924254,-0.06326269939139893,-1.0259194505228537,-0.40999360599704104,,-0.7977891968388887,-0.09889731718731908,0.18026208740000002,-4.121036459301357,-0.1837760921845174,1.393742614072309,0.8766676029426769,,-0.039682242205656075,-0.08834420341282298,0.07698115776,-0.046119083333121515,,1.0617077e-05,1.9669533e-06,-4.4107437e-06,1.0,-4.120171e-06,-3.4421682e-06,4.120171e-06,1.0,-2.9802322e-07,3.4496188e-06,3.2782555e-07,1.0,298,0.921,1,1,0.746,False,-0.2622611443645053,1.0509151131813312
0.9171963800035883,15:52:02.974675,15:51:47.193598,0,,0.105069816,0.00012873113,0.027898595,0.9083317,0.05233913,-0.414963,0.4174367,-0.051576942,0.9072411,0.026081696,-0.99729645,-0.068697214,,0.026793852,0.0023273826,0.025004804,-0.9195908,-0.20362094,0.3359926,0.3434225,-0.0012305975,0.93918014,-0.19082338,0.9790491,0.071059614,,0.10783088,1.3465632,0.4445395,0.9966513,-0.008024139,-0.08137456,-0.05822583,-0.7683576,-0.6373668,-0.05741044,0.6399705,-0.7662518,,-0.06949485,0.2664229,-0.08947278,-0.90620875,0.0002460945,0.42283055,0.29991361,-0.7045328,0.6431837,0.29805627,0.7096714,0.63838,,0.029429272,0.46351618,-0.31161323,0.9163688,0.095922574,-0.38867348,0.22696112,0.6752926,0.701761,0.32978308,-0.7312857,0.5970464,,1.2988323829857007,0.15104120955408296,0.1761528481,3.8220185998924254,-0.06326269939139893,-1.0260011292629945,-0.40983026193090666,,-0.7984919655304432,-0.10719925502711042,0.18025690224000002,-4.125649638058016,-0.1860989126805299,1.3956367184351484,0.8763409148104081,,-0.039682242205656075,-0.08834420341282298,0.07698115776,-0.046119083333121515,,1.0617077e-05,1.9669533e-06,-4.4107437e-06,1.0,-4.120171e-06,-3.4421682e-06,4.120171e-06,1.0,-2.9802322e-07,3.4496188e-06,3.2782555e-07,1.0,319,0.987,1,1,0.812,False,-0.26190367805337944,1.0506254319766548
0.9750217440014239,15:52:03.037402,15:51:47.193598,0,,0.1050524,0.00012819469,0.027866274,0.9082364,0.052385785,-0.4151655,0.41764274,-0.051597238,0.90714514,0.0261001,-0.99729294,-0.06874105,,0.027850024,0.0009574443,0.02518648,-0.9142259,-0.20169099,0.35144216,0.35932946,-0.002677679,0.9332068,-0.18727843,0.9794456,0.07492152,,0.10783088,1.3465632,0.4445395,0.9966513,-0.008024139,-0.08137456,-0.05822583,-0.7683576,-0.6373668,-0.05741044,0.6399705,-0.7662518,,-0.06947575,0.2664015,-0.089449845,-0.9061135,0.0001992116,0.4230346,0.3000824,-0.7045471,0.64308935,0.29817593,0.7096572,0.6383399,,0.028430087,0.46251228,-0.31262273,0.90985507,0.09403645,-0.40412983,0.24044624,0.6742789,0.69823605,0.33815587,-0.7324651,0.59088534,,1.298847828451449,0.15094081402671805,0.17618525535000001,3.821808909948941,-0.06326269939139893,-1.0260011292629945,-0.40983026193090666,,-0.8029479823988708,-0.11663643459941277,0.18041504962000002,-4.109713202353192,-0.19443373916622175,1.3984309522937424,0.876830947008811,,-0.039682242205656075,-0.08834420341282298,0.07698115776,-0.046119083333121515,,1.0617077e-05,1.9669533e-06,-4.4107437e-06,1.0,-4.120171e-06,-3.4421682e-06,4.120171e-06,1.0,-2.9802322e-07,3.4496188e-06,3.2782555e-07,1.0,332,1.028,1,1,0.853,False,-0.2618441003348577,1.0510116735828905
1.0377392520022113,15:52:03.079470,15:51:47.193598,0,,0.10504364,0.00011496246,0.027852148,0.90817565,0.05183156,-0.4153679,0.4177931,-0.051068097,0.90710574,0.025804654,-0.99734914,-0.068033636,,0.028702646,0.00072330236,0.02533269,-0.90855134,-0.19894193,0.36736396,0.37658203,-0.009255499,0.926337,-0.1808872,0.97996753,0.083326995,,0.10783088,1.3465632,0.4445395,0.9966513,-0.008024139,-0.08137456,-0.05822583,-0.7683576,-0.6373668,-0.05741044,0.6399705,-0.7662518,,-0.06946633,0.26638252,-0.089448534,-0.90603644,0.00075843924,0.42319903,0.29999948,-0.7041729,0.6435377,0.2984934,0.7100281,0.63777876,,0.027579535,0.46234336,-0.312849,0.9026571,0.09158235,-0.4205031,0.25678822,0.66948134,0.69703263,0.34535488,-0.7371617,0.5807948,,1.2988246602528264,0.15084041849935312,0.17619432938000001,3.821808909948941,-0.06298942639186804,-1.0267957162513712,-0.40999360599704104,,-0.8075430084590343,-0.11942434116700781,0.18063541892,-4.090631417496102,-0.20153883715402465,1.3993239588775226,0.8771576351410797,,-0.039682242205656075,-0.08834420341282298,0.07698115776,-0.046119083333121515,,1.0617077e-05,1.9669533e-06,-4.4107437e-06,1.0,-4.120171e-06,-3.4421682e-06,4.120171e-06,1.0,-2.9802322e-07,3.4496188e-06,3.2782555e-07,1.0,345,1.069,1,1,0.894,False,-0.26190367805337944,1.0515910359922438
1.0798014200117905,15:52:03.120001,15:51:47.323135,0,,0.105094954,4.2065978e-05,0.0278638,0.90813243,0.051795874,-0.4154668,0.4178902,-0.051095843,0.90705943,0.02575329,-0.9973496,-0.06804678,,0.02981776,0.00076813996,0.025463223,-0.9055262,-0.19699857,0.37578386,0.3862778,-0.016359448,0.9222374,-0.1755319,0.9802673,0.09091005,,0.10778708,1.3465663,0.4445392,0.9966531,-0.008000873,-0.08135526,-0.05819565,-0.7683578,-0.6373692,-0.05741044,0.6399705,-0.7662518,,-0.06947921,0.2663351,-0.089506395,-0.90600276,0.00079653144,0.42327097,0.30001742,-0.704194,0.6435063,0.29857746,0.7100072,0.6377627,,0.026495162,0.46234375,-0.31286392,0.8985702,0.0899778,-0.42950624,0.26718813,0.66424036,0.698137,0.34811223,-0.742084,0.5728256,,1.2988169375199523,0.15063190471174906,0.17619562567000002,3.821808909948941,-0.06312606289163349,-1.0269293345680965,-0.4095035737986381,,-0.8144702998472136,-0.12082987855011668,0.18105541688000001,-4.079517850491421,-0.21055684613854375,1.3998982050898197,0.8778110114056168,,-0.039682242205656075,-0.08834420341282298,0.07698115776,-0.046119083333121515,,-3.3197924e-05,-2.3841858e-07,-2.503395e-06,1.0,1.9080937e-05,1.5936792e-05,-1.9080937e-05,1.0,1.4305115e-06,-1.5936792e-05,-1.4305115e-06,1.0,354,1.097,1,1,0.922,False,-0.26190367805337944,1.051397915189126
1.1203401090024272,15:52:03.147844,15:51:47.323135,0,,0.105087206,2.9563904e-05,0.027860284,0.9081637,0.052054435,-0.41536605,0.41781193,-0.051277936,0.9070853,0.025918663,-0.9973268,-0.06831774,,0.030295819,0.00082039833,0.025486529,-0.9042236,-0.1970357,0.37888825,0.3898316,-0.018538326,0.9206995,-0.17438675,0.98022103,0.09357348,,0.10778708,1.3465663,0.4445392,0.9966531,-0.008000873,-0.08135526,-0.05819565,-0.7683578,-0.6373692,-0.05741044,0.6399705,-0.7662518,,-0.06947135,0.2663237,-0.08951247,-0.90604323,0.00053616764,0.42318484,0.30006832,-0.7043226,0.64334184,0.2984036,0.7098799,0.6379858,,0.026015371,0.462345,-0.3128237,0.8969732,0.090129666,-0.43279985,0.27042514,0.6626095,0.6984403,0.34972748,-0.7435222,0.56996965,,1.2988323829857007,0.15053150918438415,0.17619562567000002,3.821808909948941,-0.06339933589116437,-1.0267064987607037,-0.4095035737986381,,-0.8170651380929531,-0.12125462885819903,0.18125115667000002,-4.0755337415652155,-0.21301630313432166,1.3998617588528413,0.8774843232733481,,-0.039682242205656075,-0.08834420341282298,0.07698115776,-0.046119083333121515,,-3.3197924e-05,-2.3841858e-07,-2.503395e-06,1.0,1.9080937e-05,1.5936792e-05,-1.9080937e-05,1.0,1.4305115e-06,-1.5936792e-05,-1.4305115e-06,1.0,367,1.138,1,1,0.963,False,-0.26196325577190027,1.0512047943860081
1.1481528010044713,15:52:03.194892,15:51:47.323135,0,,0.10507476,9.4771385e-06,0.027857304,0.9080627,0.052020505,-0.41559112,0.41803196,-0.051182568,0.9069892,0.025911018,-0.9973334,-0.06822318,,0.031165056,0.0007722527,0.025505483,-0.90148705,-0.19579402,0.3859865,0.39774036,-0.023128599,0.9172064,-0.1706563,0.9803723,0.0987252,,0.10778708,1.3465663,0.4445392,0.9966531,-0.008000873,-0.08135526,-0.05819565,-0.7683578,-0.6373692,-0.05741044,0.6399705,-0.7662518,,-0.06945887,0.26630715,-0.08952419,-0.9059408,0.000570903,0.4234041,0.30023032,-0.70425487,0.64334035,0.2985517,0.709947,0.63784176,,0.025152765,0.46222615,-0.31282997,0.89345205,0.08911222,-0.44023004,0.27843606,0.65919405,0.69852453,0.3524441,-0.7466741,0.5641462,,1.298847828451449,0.15039249999264812,0.17619303309,3.8215992200054565,-0.06339933589116437,-1.0268698562409848,-0.40983026193090644,,-0.8215906595572486,-0.12288412549466039,0.18162059932000002,-4.066517073995381,-0.21902830912400104,1.4001901371676122,0.8774843232733481,,-0.039682242205656075,-0.08834420341282298,0.07698115776,-0.046119083333121515,,-3.3197924e-05,-2.3841858e-07,-2.503395e-06,1.0,1.9080937e-05,1.5936792e-05,-1.9080937e-05,1.0,1.4305115e-06,-1.5936792e-05,-1.4305115e-06,1.0,376,1.167,1,1,0.992,False,-0.26160578946077395,1.0506737121774343
1.195237680003629,15:52:03.215653,15:51:47.323135,0,,0.105074465,8.806586e-06,0.027858645,0.9080846,0.05212965,-0.41552955,0.41797745,-0.051163852,0.90701544,0.02602227,-0.99732876,-0.06825015,,0.03156516,0.0006379783,0.025509834,-0.898986,-0.19439638,0.39247173,0.4045831,-0.025396973,0.91414857,-0.16773963,0.9805942,0.10148096,,0.10778708,1.3465663,0.4445392,0.9966531,-0.008000873,-0.08135526,-0.05819565,-0.7683578,-0.6373692,-0.05741044,0.6399705,-0.7662518,,-0.069458656,0.26630753,-0.08952562,-0.9059688,0.00046176714,0.4233442,0.30026314,-0.7042412,0.64334,0.2984335,0.70996064,0.63788193,,0.024761852,0.46208602,-0.31290528,0.89030683,0.08781506,-0.44681343,0.28514484,0.6575179,0.69739705,0.3550298,-0.7483039,0.5603527,,1.2988555511843234,0.15038477725977387,0.17619173680000003,3.8215992200054565,-0.06353597239092981,-1.0268401170774288,-0.40999360599704104,,-0.8235213427758048,-0.12430510834351771,0.18178652444,-4.0587585460864535,-0.22230758511837162,1.399923732211266,0.8774843232733479,,-0.039682242205656075,-0.08834420341282298,0.07698115776,-0.046119083333121515,,-3.3197924e-05,-2.3841858e-07,-2.503395e-06,1.0,1.9080937e-05,1.5936792e-05,-1.9080937e-05,1.0,1.4305115e-06,-1.5936792e-05,-1.4305115e-06,1.0,385,1.196,1,1,1.021,False,-0.26190367805337944,1.051108233984449
1.2159944650047692,15:52:03.246508,15:51:47.450728,0,,0.105076775,1.0579824e-05,0.027858853,0.90808713,0.05214154,-0.41552258,0.41797101,-0.051154226,0.90701896,0.026037663,-0.9973286,-0.068246126,,0.032105096,0.00025577843,0.025568306,-0.8937326,-0.1936135,0.4046673,0.41710877,-0.026636332,0.9084662,-0.16511256,0.9807163,0.104563594,,0.10778708,1.3465663,0.4445392,0.9966531,-0.008000873,-0.08135526,-0.05819565,-0.7683578,-0.6373692,-0.05741044,0.6399705,-0.7662518,,-0.069460966,0.26630893,-0.08952449,-0.9059722,0.0004499319,0.423337,0.30026853,-0.7042343,0.64334506,0.2984179,0.7099675,0.6378816,,0.024238737,0.46178406,-0.31318134,0.88417375,0.08708713,-0.45896912,0.29553998,0.6566005,0.693925,0.36179128,-0.749194,0.5548112,,1.298847828451449,0.15040022272552234,0.17619173680000003,3.8215992200054565,-0.06353597239092981,-1.0268401170774288,-0.40999360599704104,,-0.8259308354325628,-0.12731697416446527,0.18194337553,-4.045128699759959,-0.22490367861391497,1.398528486555454,0.877320979207214,,-0.039682242205656075,-0.08834420341282298,0.07698115776,-0.046119083333121515,,-3.3197924e-05,-2.3841858e-07,-2.503395e-06,1.0,1.9080937e-05,1.5936792e-05,-1.9080937e-05,1.0,1.4305115e-06,-1.5936792e-05,-1.4305115e-06,1.0,394,1.224,1,1,1.049,False,-0.2621419889274632,1.0512530745867876
1.2468231060047401,15:52:03.270100,15:51:47.450728,0,,0.10507742,1.1622906e-05,0.027859166,0.9081683,0.05205123,-0.4153565,0.41780028,-0.0512051,0.9070947,0.02594705,-0.99733067,-0.06824979,,0.032559365,-0.00029285252,0.02560854,-0.8879843,-0.1935583,0.41715574,0.43037862,-0.030143112,0.90214497,-0.16204336,0.9806256,0.1100699,,0.10778708,1.3465663,0.4445392,0.9966531,-0.008000873,-0.08135526,-0.05819565,-0.7683578,-0.6373692,-0.05741044,0.6399705,-0.7662518,,-0.06946162,0.2663099,-0.08952401,-0.9060493,0.00053995865,0.42317173,0.3000784,-0.7042708,0.6433939,0.2983749,0.70993125,0.637942,,0.023811061,0.46135688,-0.31356022,0.87746364,0.0872192,-0.4716465,0.3067235,0.65395224,0.6915686,0.36875233,-0.75149137,0.5470671,,1.298847828451449,0.15040794545839656,0.17619173680000003,3.821808909948941,-0.06353597239092981,-1.0268401170774288,-0.40999360599704104,,-0.8276684503292634,-0.13115517240295485,0.18206652308000001,-4.030660093659527,-0.22763640860922377,1.4002667721885391,0.8773209792072139,,-0.039682242205656075,-0.08834420341282298,0.07698115776,-0.046119083333121515,,-3.3197924e-05,-2.3841858e-07,-2.503395e-06,1.0,1.9080937e-05,1.5936792e-05,-1.9080937e-05,1.0,1.4305115e-06,-1.5936792e-05,-1.4305115e-06,1.0,408,1.269,1,1,1.094,False,-0.2618441003348577,1.0507702725789931
1.2704317739990074,15:52:03.321750,15:51:47.450728,0,,0.10507609,1.3098121e-05,0.027861625,0.90816903,0.052039973,-0.4153564,0.4177991,-0.051192045,0.907096,0.02594231,-0.997332,-0.06823328,,0.033161424,-0.0014198422,0.025690615,-0.8826569,-0.18658856,0.4313946,0.4446044,-0.03374043,0.8950913,-0.15245838,0.9818586,0.112739265,,0.10778708,1.3465663,0.4445392,0.9966531,-0.008000873,-0.08135526,-0.05819565,-0.7683578,-0.6373692,-0.05741044,0.6399705,-0.7662518,,-0.06946041,0.26631266,-0.0895249,-0.9060498,0.0005513346,0.4231708,0.3000743,-0.70426154,0.64340585,0.29837766,0.7099404,0.6379306,,0.023261312,0.4605155,-0.31435347,0.8704158,0.0803473,-0.4857166,0.32300785,0.65135735,0.6865854,0.37154037,-0.7545051,0.54099894,,1.2988632739171977,0.15041566819127078,0.17619044051000002,3.821808909948941,-0.06353597239092981,-1.0268401170774288,-0.40999360599704104,,-0.8299157655956627,-0.13870028242107219,0.18219226321,-4.014304278067734,-0.23925051108928622,1.4008343113274135,0.8768309470088111,,-0.039682242205656075,-0.08834420341282298,0.07698115776,-0.046119083333121515,,-3.3197924e-05,-2.3841858e-07,-2.503395e-06,1.0,1.9080937e-05,1.5936792e-05,-1.9080937e-05,1.0,1.4305115e-06,-1.5936792e-05,-1.4305115e-06,1.0,431,1.343,1,1,1.168,False,-0.26196325577190027,1.0507702725789931
1.3220546350057703,15:52:03.394788,15:51:47.608148,0,,0.10509408,3.5002828e-05,0.027870715,0.9069403,0.05818213,-0.41722187,0.42008913,-0.051149875,0.9060401,0.03137447,-0.9969946,-0.07083163,,0.034260124,-0.0030788183,0.026032746,-0.8770659,-0.18250023,0.44435224,0.4572872,-0.03390327,0.8886726,-0.14711802,0.98262113,0.11319038,,0.10778708,1.3465663,0.4445392,0.9966531,-0.008000873,-0.08135526,-0.05819565,-0.7683578,-0.6373692,-0.05741044,0.6399705,-0.7662518,,-0.06947874,0.26633447,-0.089516304,-0.90509826,-0.0055997586,0.4251656,0.30543837,-0.7041981,0.64094645,0.29581168,0.70998144,0.6390789,,0.022217114,0.45940128,-0.31567425,0.86364496,0.07621382,-0.498306,0.33529305,0.65129507,0.68073,0.37642527,-0.75498754,0.5369337,,1.2989482239788142,0.150423390924145,0.17618914422,3.8169860412487964,-0.0672251578845967,-1.023913512417766,-0.4095035737986379,,-0.8347501963749272,-0.14983646322570393,0.18228559609000003,-4.001093811628209,-0.2514111595684104,1.4009490559395277,0.8765042588765425,,-0.039682242205656075,-0.08834420341282298,0.07698115776,-0.046119083333121515,,-3.3197924e-05,-2.3841858e-07,-2.503395e-06,1.0,1.9080937e-05,1.5936792e-05,-1.9080937e-05,1.0,1.4305115e-06,-1.5936792e-05,-1.4305115e-06,1.0,445,1.388,1,1,1.213,False,-0.261427056305211,1.051108233984449
1.3951344460074324,15:52:03.434914,15:51:47.608148,0,,0.10508619,3.6284328e-05,0.027873099,0.9068126,0.057355992,-0.41761354,0.42037737,-0.049713433,0.9059864,0.031202763,-0.99711525,-0.06919193,,0.034704715,-0.0035165697,0.026189327,-0.8761664,-0.1826952,0.44604328,0.45895493,-0.033446103,0.8878298,-0.14728385,0.98260057,0.11315319,,0.10778708,1.3465663,0.4445392,0.9966531,-0.008000873,-0.08135526,-0.05819565,-0.7683578,-0.6373692,-0.05741044,0.6399705,-0.7662518,,-0.06947099,0.26633728,-0.08951756,-0.90496016,-0.0047608255,0.42546964,0.3055427,-0.7031823,0.64201117,0.2961262,0.7109937,0.6378066,,0.02178082,0.45913443,-0.31606442,0.8626858,0.07638653,-0.49993828,0.33631074,0.6516394,0.6798979,0.3777145,-0.7546729,0.5364705,,1.2989868376431852,0.150423390924145,0.17618914422,3.8167763513053123,-0.06695188488506582,-1.0255248868075486,-0.41064698226157803,,-0.837630775737013,-0.15375961152581,0.18234392914000003,-3.999835671967302,-0.25578352756090456,1.40116560051205,0.8766676029426766,,-0.039682242205656075,-0.08834420341282298,0.07698115776,-0.046119083333121515,,-3.3197924e-05,-2.3841858e-07,-2.503395e-06,1.0,1.9080937e-05,1.5936792e-05,-1.9080937e-05,1.0,1.4305115e-06,-1.5936792e-05,-1.4305115e-06,1.0,454,1.417,1,1,1.242,False,-0.2607121236829584,1.0512530745867876
1.435265452004387,15:52:03.464817,15:51:47.608148,0,,0.10507388,4.0337443e-05,0.027877957,0.9067068,0.056544546,-0.41795388,0.4206112,-0.048090786,0.90596545,0.031127691,-0.99724114,-0.06738749,,0.03520062,-0.003954485,0.026335001,-0.8760661,-0.18152782,0.44671646,0.45935878,-0.03249052,0.88765633,-0.14662035,0.98284894,0.11185023,,0.10778708,1.3465663,0.4445392,0.9966531,-0.008000873,-0.08135526,-0.05819565,-0.7683578,-0.6373692,-0.05741044,0.6399705,-0.7662518,,-0.06945892,0.26634392,-0.089518994,-0.9048493,-0.0039352886,0.42571387,0.30567023,-0.70203173,0.6432085,0.29633343,0.71213484,0.6364358,,0.021294776,0.45885456,-0.3164444,0.86249375,0.07515236,-0.5004564,0.33703998,0.6523798,0.6788259,0.37750304,-0.75415695,0.53734416,,1.2990640649719274,0.150423390924145,0.17618914422,3.816566661361828,-0.06681524838530038,-1.027269879514056,-0.4093402297325037,,-0.8395073998254495,-0.15613821325107113,0.18240485477,-3.999835671967302,-0.2589261670555097,1.4003793839513048,0.8765042588765424,,-0.039682242205656075,-0.08834420341282298,0.07698115776,-0.046119083333121515,,-3.3197924e-05,-2.3841858e-07,-2.503395e-06,1.0,1.9080937e-05,1.5936792e-05,-1.9080937e-05,1.0,1.4305115e-06,-1.5936792e-05,-1.4305115e-06,1.0,468,1.462,1,1,1.287,False,-0.26101001227556386,1.0509151131813312
1.4651681420073146,15:52:03.501691,15:51:47.608148,0,,0.10510257,7.227063e-05,0.027889341,0.90651983,0.06344074,-0.41736916,0.4204455,-0.046581507,0.90612125,0.03804332,-0.9968978,-0.06890041,,0.035494857,-0.004390925,0.026400864,-0.876872,-0.17913496,0.4461007,0.45863387,-0.033670306,0.88798726,-0.14404926,0.98324823,0.11168182,,0.10778708,1.3465663,0.4445392,0.9966531,-0.008000873,-0.08135526,-0.05819565,-0.7683578,-0.6373692,-0.05741044,0.6399705,-0.7662518,,-0.069488004,0.26637438,-0.089504935,-0.9050295,-0.010831916,0.42521086,0.31016028,-0.7008949,0.6422982,0.2910708,0.71318233,0.6376902,,0.021017538,0.4585447,-0.3167738,0.86305135,0.07279291,-0.49984348,0.33831206,0.6515136,0.67902505,0.37508303,-0.7551366,0.537663,,1.2992107968965376,0.15040794545839656,0.17618914422,3.81342131220956,-0.07310052737451063,-1.0254118055496433,-0.4093402297325036,,-0.8408743235441873,-0.15910374267477334,0.18246707669,-4.00067443174124,-0.2646649000456581,1.401791786300932,0.8768309470088111,,-0.039682242205656075,-0.08834420341282298,0.07698115776,-0.046119083333121515,,-3.3197924e-05,-2.3841858e-07,-2.503395e-06,1.0,1.9080937e-05,1.5936792e-05,-1.9080937e-05,1.0,1.4305115e-06,-1.5936792e-05,-1.4305115e-06,1.0,477,1.491,1,1,1.316,False,-0.260652545964438,1.0517358765945823
1.502040457999101,15:52:03.535388,15:51:47.759300,0,,0.10508242,7.775426e-05,0.027897209,0.90666044,0.06339252,-0.41707093,0.42012826,-0.04616809,0.90628946,0.038196623,-0.9969201,-0.06849176,,0.03556422,-0.004748687,0.026376367,-0.8774168,-0.17522058,0.44658405,0.4584874,-0.032347232,0.888112,-0.14116985,0.9839977,0.108718425,,0.10778708,1.3465663,0.4445392,0.9966531,-0.008000873,-0.08135526,-0.05819565,-0.7683578,-0.6373692,-0.05741044,0.6399705,-0.7662518,,-0.069468275,0.26638433,-0.089507975,-0.9051797,-0.010780408,0.4248923,0.31002164,-0.7006002,0.6426865,0.29075122,0.7134726,0.63751125,,0.020969383,0.45825735,-0.31699404,0.863287,0.06875855,-0.5000079,0.34018698,0.6525557,0.67708486,0.37283838,-0.7546147,0.53995204,,1.299357528821148,0.15037705452689965,0.17618914422,3.8136310021530444,-0.07351043687380696,-1.0257309817596785,-0.4096669178647723,,-0.8409129372085584,-0.16131244427680155,0.18250855797,-4.00067443174124,-0.26903726803815226,1.4003747560706432,0.8766676029426769,,-0.039682242205656075,-0.08834420341282298,0.07698115776,-0.046119083333121515,,-3.3197924e-05,-2.3841858e-07,-2.503395e-06,1.0,1.9080937e-05,1.5936792e-05,-1.9080937e-05,1.0,1.4305115e-06,-1.5936792e-05,-1.4305115e-06,1.0,491,1.536,1,1,1.361,False,-0.26005676877922745,1.051397915189126
1.5357388870033901,15:52:03.583932,15:51:47.759300,0,,0.105057195,0.000101834536,0.027914107,0.9048356,0.069535516,-0.42004454,0.42349494,-0.045334607,0.90476334,0.043870628,-0.9965488,-0.07046825,,0.03556817,-0.0053171515,0.026308835,-0.8773184,-0.17340478,0.44748515,0.45882022,-0.029699057,0.88803256,-0.14069928,0.9844028,0.105617106,,0.10778708,1.3465663,0.4445392,0.9966531,-0.008000873,-0.08135526,-0.05819565,-0.7683578,-0.6373692,-0.05741044,0.6399705,-0.7662518,,-0.069443844,0.26641434,-0.08950557,-0.9036399,-0.016929958,0.42795828,0.31636766,-0.6999245,0.64032584,0.2886978,0.71401614,0.6378358,,0.0210015,0.4577933,-0.31732774,0.8631214,0.06677812,-0.50056183,0.34073532,0.65457517,0.6748561,0.372721,-0.75304186,0.5422241,,1.2996741608689912,0.15029210446528318,0.17619173680000003,3.8075499937919934,-0.0770629858677084,-1.0232425099642743,-0.40787013313729537,,-0.840179277585507,-0.16452510115247895,0.18254096522000002,-4.000884121684725,-0.2709501790348684,1.40005599569916,0.8768309470088109,,-0.039682242205656075,-0.08834420341282298,0.07698115776,-0.046119083333121515,,-3.3197924e-05,-2.3841858e-07,-2.503395e-06,1.0,1.9080937e-05,1.5936792e-05,-1.9080937e-05,1.0,1.4305115e-06,-1.5936792e-05,-1.4305115e-06,1.0,500,1.564,1,1,1.389,False,-0.2607717014014801,1.0515427557914643
1.5842838880053023,15:52:03.613156,15:51:47.759300,0,,0.10505074,0.00011244416,0.027924702,0.9048834,0.073462516,-0.41927224,0.42301124,-0.045494884,0.90498155,0.047407493,-0.9962597,-0.072242975,,0.03554003,-0.00578852,0.026242554,-0.877083,-0.17278886,0.4481844,0.45918292,-0.027750313,0.8879081,-0.14098346,0.9845679,0.10368097,,0.10778708,1.3465663,0.4445392,0.9966531,-0.008000873,-0.08135526,-0.05819565,-0.7683578,-0.6373692,-0.05741044,0.6399705,-0.7662518,,-0.069437906,0.2664295,-0.08950665,-0.90387744,-0.020867547,0.4272822,0.31836227,-0.69997454,0.63928175,0.28574643,0.7138629,0.6393346,,0.021060435,0.45740512,-0.31759837,0.8629002,0.06605034,-0.50103956,0.3407866,0.65605205,0.6733945,0.37318596,-0.75181985,0.54359835,,1.2998672291908469,0.15019170893791828,0.17619044051000002,3.8062918541310857,-0.08061553486160986,-1.0212441106097137,-0.4090135416002354,,-0.8393529451679651,-0.1671199393982184,0.18256170586,-4.001093811628209,-0.2716333615336956,1.4005314064775016,0.8769942910749451,,-0.039682242205656075,-0.08834420341282298,0.07698115776,-0.046119083333121515,,-3.3197924e-05,-2.3841858e-07,-2.503395e-06,1.0,1.9080937e-05,1.5936792e-05,-1.9080937e-05,1.0,1.4305115e-06,-1.5936792e-05,-1.4305115e-06,1.0,514,1.609,1,1,1.434,False,-0.26053339052739544,1.0515427557914643
1.6135027280106442,15:52:03.658627,15:51:47.759300,0,,0.10498306,6.4864755e-05,0.02799578,0.90477014,0.07345886,-0.41951722,0.42315754,-0.043445557,0.9050138,0.048255146,-0.99635136,-0.07039288,,0.035513006,-0.006463811,0.026167512,-0.8749069,-0.17374468,0.45205143,0.46208456,-0.020077497,0.8866085,-0.14496754,0.9845861,0.09785062,,0.10778708,1.3465663,0.4445392,0.9966531,-0.008000873,-0.08135526,-0.05819565,-0.7683578,-0.6373692,-0.05741044,0.6399705,-0.7662518,,-0.06937434,0.26644355,-0.08959417,-0.9038085,-0.020848216,0.42742905,0.31903958,-0.6985087,0.64054614,0.28520864,0.7152978,0.63796943,,0.0211295,0.4568608,-0.31800008,0.86102587,0.066609986,-0.50418013,0.34002224,0.6618184,0.6681177,0.37817898,-0.7466991,0.5471939,,1.3003151476975519,0.1498287404928297,0.17612432972000003,3.8056627843006328,-0.08184526335949882,-1.0229367479010845,-0.408850197534101,,-0.8381018624423406,-0.17073417838335547,0.18257207618000001,-3.999416292080333,-0.26821744903955963,1.3971742077041072,0.8768309470088111,,-0.039682242205656075,-0.08834420341282298,0.07698115776,-0.046119083333121515,,-3.3197924e-05,-2.3841858e-07,-2.503395e-06,1.0,1.9080937e-05,1.5936792e-05,-1.9080937e-05,1.0,1.4305115e-06,-1.5936792e-05,-1.4305115e-06,1.0,523,1.638,1,1,1.463,False,-0.2611887454311268,1.051397915189126
1.6589705720107304,15:52:03.696677,15:51:47.922946,0,,0.1049393,3.2186508e-06,0.028100818,0.9046652,0.073956,-0.41965625,0.4233393,-0.043598205,0.90492153,0.048628137,-0.9963079,-0.07075021,,0.035560325,-0.0067771524,0.026151001,-0.8704851,-0.18153456,0.4574938,0.46675485,-0.009502292,0.88433564,-0.1561903,0.9833386,0.09300375,,0.10778708,1.3465663,0.4445392,0.9966531,-0.008000873,-0.08135526,-0.05819565,-0.7683578,-0.6373692,-0.05741044,0.6399705,-0.7662518,,-0.06933652,0.26646897,-0.08971528,-0.9037224,-0.02134776,0.42758632,0.3194268,-0.69860905,0.64024365,0.28504792,0.71518505,0.6381677,,0.021100124,0.45661393,-0.3181972,0.85761863,0.073945425,-0.5089424,0.3354786,0.66963124,0.6626071,0.38980052,-0.7390034,0.5494811,,1.300670393409766,0.1495352766436092,0.17601673765,3.805243404413663,-0.08252844585832604,-1.022461337122743,-0.4090135416002352,,-0.8374454301480316,-0.17215516123221278,0.18256559473000003,-3.996690322815034,-0.2560568005604354,1.3922404174237,0.8776476673394824,,-0.039682242205656075,-0.08834420341282298,0.07698115776,-0.046119083333121515,,-3.3197924e-05,-2.3841858e-07,-2.503395e-06,1.0,1.9080937e-05,1.5936792e-05,-1.9080937e-05,1.0,1.4305115e-06,-1.5936792e-05,-1.4305115e-06,1.0,537,1.683,1,1,1.508,False,-0.26053339052739544,1.0513013547875674
1.697026199006359,15:52:03.730843,15:51:47.922946,0,,0.1049045,-8.2463026e-05,0.028324276,0.9038741,0.0818602,-0.41989323,0.42421508,-0.044737875,0.90445566,0.055253804,-0.9956391,-0.07516372,,0.03576024,-0.007147357,0.026164055,-0.8563917,-0.21685034,0.46858183,0.47701916,0.0150232315,0.87876445,-0.19760002,0.9760893,0.09057596,,0.10778708,1.3465663,0.4445392,0.9966531,-0.008000873,-0.08135526,-0.05819565,-0.7683578,-0.6373692,-0.05741044,0.6399705,-0.7662518,,-0.06931406,0.2665551,-0.089940146,-0.9032786,-0.029282186,0.4280541,0.32451856,-0.69926053,0.6369634,0.28066966,0.71426696,0.64112973,,0.020918917,0.45632806,-0.31844744,0.8476044,0.10855614,-0.51940584,0.31382915,0.68674695,0.65565985,0.42787626,-0.7187449,0.5480216,,1.3013654393684464,0.14908735813690416,0.17579636835,3.801049605543973,-0.08867708834777085,-1.017447531456404,-0.4090135416002352,,-0.8362870202168979,-0.1729814936497548,0.18253837264000003,-3.992915903832313,-0.21096675563784006,1.3881440052601057,0.8766676029426766,,-0.039682242205656075,-0.08834420341282298,0.07698115776,-0.046119083333121515,,-3.3197924e-05,-2.3841858e-07,-2.503395e-06,1.0,1.9080937e-05,1.5936792e-05,-1.9080937e-05,1.0,1.4305115e-06,-1.5936792e-05,-1.4305115e-06,1.0,546,1.712,1,1,1.537,False,-0.2607121236829584,1.0522669588031563
1.7311915980099002,15:52:03.755556,15:51:47.922946,0,,0.10487309,-0.00013369322,0.028463528,0.903026,0.08390549,-0.421312,0.42577207,-0.04441887,0.90373945,0.057114467,-0.99548316,-0.07583603,,0.035809986,-0.007282302,0.026163578,-0.84963363,-0.23584302,0.4716996,0.48106492,0.019912839,0.87645876,-0.21609962,0.9715872,0.09653711,,0.10778708,1.3465663,0.4445392,0.9966531,-0.008000873,-0.08135526,-0.05819565,-0.7683578,-0.6373692,-0.05741044,0.6399705,-0.7662518,,-0.06929033,0.26661068,-0.09007926,-0.9025219,-0.03133115,0.42950267,0.32694495,-0.69898313,0.6360264,0.28028768,0.7144515,0.64109117,,0.020876387,0.4562229,-0.31853586,0.8426992,0.12765417,-0.52303195,0.30370897,0.68943834,0.6575984,0.44454348,-0.71300715,0.54221946,,1.301767021477906,0.14890201254792276,0.1756602579,3.7985333262221586,-0.0899068168456598,-1.016444770323136,-0.4090135416002352,,-0.8355765287924692,-0.1731127801086166,0.18252022458000003,-3.991448074227921,-0.19047128067302396,1.3934845795435944,0.8760142266781394,,-0.039682242205656075,-0.08834420341282298,0.07698115776,-0.046119083333121515,,-3.3197924e-05,-2.3841858e-07,-2.503395e-06,1.0,1.9080937e-05,1.5936792e-05,-1.9080937e-05,1.0,1.4305115e-06,-1.5936792e-05,-1.4305115e-06,1.0,560,1.757,1,1,1.582,False,-0.2611887454311268,1.0519289973977002
1.7559060690109618,15:52:03.799844,15:51:47.922946,0,,0.10477933,-0.00022085011,0.028828919,0.90222585,0.09456857,-0.42076746,0.42589816,-0.04195535,0.9037978,0.067817464,-0.9946338,-0.07812968,,0.035746813,-0.0076018274,0.026115,-0.840724,-0.25332367,0.47854978,0.4867723,0.03347075,0.8728874,-0.23714054,0.96680236,0.09517127,,0.10778708,1.3465663,0.4445392,0.9966531,-0.008000873,-0.08135526,-0.05819565,-0.7683578,-0.6373692,-0.05741044,0.6399705,-0.7662518,,-0.06921651,0.26679215,-0.090413205,-0.9022887,-0.042011086,0.4290806,0.33419502,-0.6969163,0.6345246,0.27237618,0.7159209,0.6428596,,0.020960521,0.45596218,-0.31871864,0.83585006,0.14484414,-0.52950436,0.29287758,0.6981555,0.6533005,0.46430317,-0.70114124,0.54113173,,1.3032266179911345,0.14830736211660747,0.17533100024,3.7928716977480765,-0.10056446382736416,-1.0128182557235301,-0.40966691786477216,,-0.8338157456971461,-0.17401633985490086,0.18248263217000002,-3.9883027250756538,-0.16642325671430647,1.391680993843667,0.8769942910749454,,-0.039682242205656075,-0.08834420341282298,0.07698115776,-0.046119083333121515,,-3.3197924e-05,-2.3841858e-07,-2.503395e-06,1.0,1.9080937e-05,1.5936792e-05,-1.9080937e-05,1.0,1.4305115e-06,-1.5936792e-05,-1.4305115e-06,1.0,569,1.785,1,1,1.61,False,-0.26095043455704303,1.052025557799259
1.8001826590043493,15:52:03.840622,15:51:47.922946,0,,0.104648225,-0.00026890635,0.028961465,0.901956,0.100728504,-0.4199155,0.425488,-0.041286618,0.90402174,0.07372387,-0.9940568,-0.0800975,,0.035683177,-0.008109212,0.026087224,-0.83987784,-0.25268182,0.48037153,0.48816115,0.035253793,0.87204117,-0.23728397,0.96690696,0.09374049,,0.10778708,1.3465663,0.4445392,0.9966531,-0.008000873,-0.08135526,-0.05819565,-0.7683578,-0.6373692,-0.05741044,0.6399705,-0.7662518,,-0.069092855,0.26684877,-0.09054948,-0.90233403,-0.0481893,0.4283352,0.33783314,-0.69622695,0.63335365,0.26769763,0.7162024,0.64450926,,0.021052327,0.45557714,-0.31904358,0.83495545,0.14410554,-0.5311149,0.2937108,0.6994671,0.651521,0.4653852,-0.6999852,0.5416985,,1.3043078005935258,0.14762776162367572,0.17522988962000002,3.7901457284827775,-0.10712301581610531,-1.0100839160305999,-0.4086868534679666,,-0.8328581268207422,-0.17678880095674748,0.18245670637000003,-3.9870445854147456,-0.16696980271336823,1.3922900229387336,0.8769942910749453,,-0.039682242205656075,-0.08834420341282298,0.07698115776,-0.046119083333121515,,-3.3197924e-05,-2.3841858e-07,-2.503395e-06,1.0,1.9080937e-05,1.5936792e-05,-1.9080937e-05,1.0,1.4305115e-06,-1.5936792e-05,-1.4305115e-06,1.0,583,1.83,1,1,1.655,False,-0.26053339052739544,1.052122118200818
1.8409659690078115,15:52:03.877597,15:51:47.922946,0,,0.104469255,-0.00033257902,0.029075503,0.9008068,0.109767966,-0.4201166,0.42617238,-0.038089216,0.9038397,0.08321069,-0.9932271,-0.081091136,,0.03575805,-0.008710027,0.026123881,-0.83941686,-0.25207177,0.4814965,0.48877642,0.037257224,0.87161314,-0.23764837,0.96699107,0.09193233,,0.10778708,1.3465663,0.4445392,0.9966531,-0.008000873,-0.08135526,-0.05819565,-0.7683578,-0.6373692,-0.05741044,0.6399705,-0.7662518,,-0.06892051,0.26688293,-0.090684466,-0.901685,-0.057243,0.42858765,0.34469986,-0.6935755,0.6325623,0.2610481,0.71810603,0.6451183,,0.021004349,0.455151,-0.31947258,0.8345063,0.14338961,-0.53201383,0.29386953,0.70093083,0.6498744,0.4660901,-0.6986669,0.54279333,,1.3056438333807667,0.14656974721990698,0.17515340851000002,3.7844841000086955,-0.11668757079968614,-1.0080838533218301,-0.4085235094018326,,-0.8327036721632578,-0.18028719894877118,0.18243726202000002,-3.9868348954712616,-0.16860944071055353,1.3928919291218256,0.8771576351410797,,-0.039682242205656075,-0.08834420341282298,0.07698115776,-0.046119083333121515,,-3.3197924e-05,-2.3841858e-07,-2.503395e-06,1.0,1.9080937e-05,1.5936792e-05,-1.9080937e-05,1.0,1.4305115e-06,-1.5936792e-05,-1.4305115e-06,1.0,592,1.859,1,1,1.684,False,-0.261427056305211,1.052025557799259
1.8779397190082818,15:52:03.914726,15:51:48.130749,0,,0.10435048,-0.00042267144,0.029186368,0.9008634,0.11522445,-0.4185312,0.424375,-0.03079921,0.90496254,0.0913834,-0.99286175,-0.07664421,,0.035988048,-0.009686336,0.026237309,-0.8383026,-0.25232422,0.48330212,0.4897048,0.041193247,0.87091464,-0.23966172,0.9667655,0.089031905,,0.10778708,1.3465663,0.4445392,0.9966531,-0.008000873,-0.08135526,-0.05819565,-0.7683578,-0.6373692,-0.05741044,0.6399705,-0.7662518,,-0.06880824,0.2668934,-0.09083212,-0.9021836,-0.06267259,0.42677507,0.3488041,-0.68807185,0.63631195,0.2537726,0.722931,0.64262754,,0.020812973,0.4544826,-0.3202044,0.83357173,0.14346603,-0.5334563,0.2930856,0.7037058,0.64722407,0.46825096,-0.69585603,0.5445415,,1.3066168977229191,0.14555034648050932,0.17505618676,3.7819678206868814,-0.12611548928350153,-1.0119127203265963,-0.4093402297325037,,-0.8331052542727174,-0.18607924860443956,0.18241133622000003,-3.9868348954712616,-0.17038571520750423,1.393605253208614,0.8773209792072139,,-0.039682242205656075,-0.08834420341282298,0.07698115776,-0.046119083333121515,,-3.3197924e-05,-2.3841858e-07,-2.503395e-06,1.0,1.9080937e-05,1.5936792e-05,-1.9080937e-05,1.0,1.4305115e-06,-1.5936792e-05,-1.4305115e-06,1.0,606,1.904,1,1,1.729,False,-0.26101001227556386,1.052122118200818
1.9150713090057252,15:52:03.952716,15:51:48.130749,0,,0.104263596,-0.00051663816,0.029246941,0.90011483,0.11763856,-0.4194692,0.42545438,-0.03025186,0.9044741,0.09371129,-0.9925955,-0.077279985,,0.03621842,-0.010506481,0.026337624,-0.83721596,-0.25312278,0.48476595,0.49039268,0.044840544,0.87034726,-0.24204198,0.9663944,0.08658832,,0.10778708,1.3465663,0.4445392,0.9966531,-0.008000873,-0.08135526,-0.05819565,-0.7683578,-0.6373692,-0.05741044,0.6399705,-0.7662518,,-0.06872519,0.26686648,-0.09094359,-0.9015536,-0.065094486,0.42774278,0.35118276,-0.68756235,0.63555384,0.2527288,0.7232017,0.64273435,,0.020614767,0.45392036,-0.3208211,0.8327166,0.14411503,-0.5346157,0.2918827,0.7062313,0.6450131,0.4705184,-0.69315815,0.5460258,,1.3070725389624982,0.14482440959033224,0.17498748339,3.779661231308552,-0.128438309779514,-1.0111621183257251,-0.4093402297325037,,-0.8336226773752905,-0.19096773851382368,0.18240615106000002,-3.9870445854147456,-0.17134217070586233,1.3941401423140674,0.8771576351410794,,-0.039682242205656075,-0.08834420341282298,0.07698115776,-0.046119083333121515,,-3.3197924e-05,-2.3841858e-07,-2.503395e-06,1.0,1.9080937e-05,1.5936792e-05,-1.9080937e-05,1.0,1.4305115e-06,-1.5936792e-05,-1.4305115e-06,1.0,629,1.978,1,1,1.803,False,-0.26041423509035333,1.0524117994054947
1.9530675830028486,15:52:04.026077,15:51:48.130749,0,,0.10444058,-0.0005981773,0.02947104,0.89783055,0.14019774,-0.41742632,0.42489487,-0.026955426,0.9048412,0.11560479,-0.98975646,-0.08377066,,0.03632322,-0.010922462,0.026370287,-0.8369342,-0.25305474,0.48528776,0.49057376,0.046256363,0.87017107,-0.24264863,0.96634555,0.08542839,,0.10778708,1.3465663,0.4445392,0.9966531,-0.008000873,-0.08135526,-0.05819565,-0.7683578,-0.6373692,-0.05741044,0.6399705,-0.7662518,,-0.06891421,0.26694947,-0.09115706,-0.9004343,-0.08775459,0.42604828,0.36542448,-0.6839225,0.6314388,0.23597236,0.72425765,0.647895,,0.020528175,0.45362434,-0.32112107,0.8324936,0.1439813,-0.5349989,0.2915798,0.7072334,0.64405125,0.47110045,-0.69216347,0.5467853,,1.3070725389624982,0.14433787741925608,0.17473859571000003,3.7689670441908407,-0.14811396574573746,-1.0032858142074967,-0.4103202941293095,,-0.8338003002313976,-0.19344673576644975,0.18241652138000003,-3.987254275358231,-0.17243526270398585,1.3946230918429359,0.8776476673394823,,-0.039682242205656075,-0.08834420341282298,0.07698115776,-0.046119083333121515,,-3.3197924e-05,-2.3841858e-07,-2.503395e-06,1.0,1.9080937e-05,1.5936792e-05,-1.9080937e-05,1.0,1.4305115e-06,-1.5936792e-05,-1.4305115e-06,1.0,643,2.023,1,1,1.848,False,-0.26160578946077395,1.0530394420156275
2.0264267989987275,15:52:04.075553,15:51:48.130749,0,,0.10452447,-0.0007093698,0.029734462,0.896577,0.15815379,-0.41368717,0.4219821,-0.021460444,0.90635,0.13446479,-0.9871811,-0.085978985,,0.036292635,-0.010752991,0.026304185,-0.83720034,-0.2524129,0.48516285,0.4906885,0.0450432,0.87017,-0.24149548,0.9665706,0.08614585,,0.10778708,1.3465663,0.4445392,0.9966531,-0.008000873,-0.08135526,-0.05819565,-0.7683578,-0.6373692,-0.05741044,0.6399705,-0.7662518,,-0.069012515,0.2670395,-0.09142356,-0.9001961,-0.1057925,0.42243928,0.3758594,-0.678676,0.6309743,0.21994705,0.7267784,0.65070456,,0.020557163,0.45370835,-0.32095942,0.8326269,0.14338088,-0.5349527,0.29246366,0.70641977,0.64454335,0.47031632,-0.69311833,0.5462504,,1.3075590711335745,0.14355788139895942,0.17446637481000002,3.761837586112367,-0.16683316621360278,-0.9995382637609063,-0.4088501975341009,,-0.8336767365054101,-0.192458225958549,0.18246578040000003,-3.9868348954712616,-0.17284517220328216,1.3946306305934628,0.8779743554717511,,-0.039682242205656075,-0.08834420341282298,0.07698115776,-0.046119083333121515,,-3.3197924e-05,-2.3841858e-07,-2.503395e-06,1.0,1.9080937e-05,1.5936792e-05,-1.9080937e-05,1.0,1.4305115e-06,-1.5936792e-05,-1.4305115e-06,1.0,652,2.052,1,1,1.877,False,-0.26011634649774784,1.0526532004093918
2.07590147999872,15:52:04.103420,15:51:48.324744,0,,0.10447009,-0.00081813335,0.0299111,0.8954861,0.16794607,-0.41218767,0.42151958,-0.022636414,0.9065367,0.14291883,-0.98553616,-0.09106314,,0.03630366,-0.010717407,0.02626586,-0.83748055,-0.25230607,0.4847347,0.49027973,0.044858754,0.87040997,-0.24135438,0.96660715,0.08613217,,0.10778708,1.3465663,0.4445392,0.9966531,-0.008000873,-0.08135526,-0.05819565,-0.7683578,-0.6373692,-0.05741044,0.6399705,-0.7662518,,-0.06896814,0.26707786,-0.091629826,-0.8995567,-0.1156642,0.42121196,0.38118163,-0.6787634,0.62767893,0.21330328,0.72519106,0.65467525,,0.020548576,0.45370772,-0.3209067,0.83291036,0.14328016,-0.53453827,0.2922879,0.7062965,0.6447581,0.46992356,-0.6932648,0.54640263,,1.308261839825129,0.14273154898141738,0.17429137566000003,3.7576437872426762,-0.1754412656988255,-0.9934990807097185,-0.408850197534101,,-0.8336767365054101,-0.19225743490381916,0.18250596539000002,-3.987254275358231,-0.1729818087030476,1.3946603697570188,0.8778110114056167,,-0.039682242205656075,-0.08834420341282298,0.07698115776,-0.046119083333121515,,-3.3197924e-05,-2.3841858e-07,-2.503395e-06,1.0,1.9080937e-05,1.5936792e-05,-1.9080937e-05,1.0,1.4305115e-06,-1.5936792e-05,-1.4305115e-06,1.0,666,2.097,1,1,1.922,False,-0.261427056305211,1.0525083598070537
2.103772629008745,15:52:04.139469,15:51:48.324744,0,,0.10440384,-0.00093637407,0.030139267,0.894773,0.17927872,-0.40895033,0.41879988,-0.019274294,0.90787387,0.15488024,-0.9836093,-0.09232798,,0.03633234,-0.0107675195,0.026223779,-0.83776546,-0.2523452,0.48422164,0.48961398,0.04540369,0.8707564,-0.24171671,0.96657145,0.08551401,,0.10778708,1.3465663,0.4445392,0.9966531,-0.008000873,-0.08135526,-0.05819565,-0.7683578,-0.6373692,-0.05741044,0.6399705,-0.7662518,,-0.06891468,0.26714388,-0.09188127,-0.8994921,-0.12706502,0.41805324,0.38714716,-0.6753302,0.6277309,0.20256136,0.7264871,0.656647,,0.020527199,0.45363957,-0.3209082,0.8332662,0.14329539,-0.5339793,0.2915873,0.7066782,0.6446571,0.46972793,-0.6928725,0.54706794,,1.309265795098778,0.14170442550914553,0.17407748781000001,3.753659678316471,-0.18855836967630782,-0.9908074784886371,-0.4088501975341009,,-0.8336535683067874,-0.19254317602016546,0.18255522441000002,-3.9880930351321684,-0.1729818087030476,1.394578691016878,0.8776476673394825,,-0.039682242205656075,-0.08834420341282298,0.07698115776,-0.046119083333121515,,-3.3197924e-05,-2.3841858e-07,-2.503395e-06,1.0,1.9080937e-05,1.5936792e-05,-1.9080937e-05,1.0,1.4305115e-06,-1.5936792e-05,-1.4305115e-06,1.0,675,2.125,1,1,1.95,False,-0.2612483231496481,1.0533291232203044
2.139815312009887,15:52:04.179030,15:51:48.324744,0,,0.10421859,-0.0010937154,0.030467004,0.89381576,0.19040804,-0.4060026,0.4158005,-0.012837529,0.9093652,0.1679384,-0.981621,-0.09064612,,0.036378227,-0.010900602,0.026166558,-0.838422,-0.2524346,0.48303732,0.48811936,0.046488702,0.8715379,-0.24246219,0.9664965,0.084241,,0.10778708,1.3465663,0.4445392,0.9966531,-0.008000873,-0.08135526,-0.05819565,-0.7683578,-0.6373692,-0.05741044,0.6399705,-0.7662518,,-0.06874787,0.2672508,-0.092237934,-0.8992432,-0.13824984,0.41502857,0.3936427,-0.6695589,0.6298701,0.19080661,0.72977936,0.65651727,,0.020494575,0.45349833,-0.32095373,0.8340744,0.14333752,-0.5327047,0.2900617,0.70743686,0.64451325,0.4692379,-0.6920892,0.5484782,,1.311088360057095,0.1402139380644202,0.17379230401,3.7490464995598107,-0.20358838465050627,-0.9904766051425529,-0.4095035737986381,,-0.8335917864437936,-0.19330000384183949,0.18262392778000003,-3.9899802446235295,-0.17311844520281303,1.3946084301804338,0.8778110114056167,,-0.039682242205656075,-0.08834420341282298,0.07698115776,-0.046119083333121515,,-3.3197924e-05,-2.3841858e-07,-2.503395e-06,1.0,1.9080937e-05,1.5936792e-05,-1.9080937e-05,1.0,1.4305115e-06,-1.5936792e-05,-1.4305115e-06,1.0,689,2.17,1,1,1.995,False,-0.26148663402373185,1.0523152390039359
2.1792921790038235,15:52:04.223215,15:51:48.324744,0,,0.10397241,-0.0011778921,0.030725151,0.8921022,0.19768152,-0.40629497,0.41687113,-0.013268501,0.9088687,0.17427562,-0.9801764,-0.09424454,,0.03650853,-0.01100193,0.026124418,-0.83950573,-0.25286847,0.48092356,0.4855277,0.04820913,0.87289107,-0.2439116,0.9662988,0.08230275,,0.10778708,1.3465663,0.4445392,0.9966531,-0.008000873,-0.08135526,-0.05819565,-0.7683578,-0.6373692,-0.05741044,0.6399705,-0.7662518,,-0.06851615,0.2673678,-0.09249668,-0.89786184,-0.14559175,0.4155083,0.39871642,-0.6691457,0.62711185,0.18673328,0.7287298,0.6588502,,0.02037489,0.4533812,-0.32098508,0.8354385,0.14370286,-0.530464,0.2873057,0.7086193,0.6444487,0.46850616,-0.6908026,0.55072117,,1.312910925015412,0.13904008266753806,0.17357193471000001,3.7440139409161826,-0.21042020963877828,-0.985232424918294,-0.40917688566636934,,-0.8335300045807997,-0.19399504980051968,0.18268874228,-3.9931255937757975,-0.17284517220328216,1.3943855943730412,0.8778110114056167,,-0.039682242205656075,-0.08834420341282298,0.07698115776,-0.046119083333121515,,-3.3197924e-05,-2.3841858e-07,-2.503395e-06,1.0,1.9080937e-05,1.5936792e-05,-1.9080937e-05,1.0,1.4305115e-06,-1.5936792e-05,-1.4305115e-06,1.0,712,2.244,1,1,2.069,False,-0.2617249448978165,1.0522669588031563
2.2235578340041684,15:52:04.294831,15:51:48.502412,0,,0.10355673,-0.0013360232,0.031072319,0.8911673,0.20411448,-0.40516448,0.41618568,-0.012332022,0.90919596,0.18058352,-0.9788692,-0.09593943,,0.036493197,-0.011066124,0.026090682,-0.8402606,-0.25324243,0.47940588,0.48369282,0.04935366,0.8738452,-0.24495518,0.9661431,0.08102158,,0.10784018,1.3465619,0.44453186,0.9966502,-0.008038213,-0.08138623,-0.058244083,-0.76835746,-0.6373653,-0.05741044,0.6399705,-0.7662518,,-0.068166785,0.26749837,-0.09288091,-0.897245,-0.15208206,0.41451472,0.40247175,-0.6677712,0.6261774,0.18157066,0.72866493,0.66036314,,0.020350322,0.45331326,-0.3210102,0.8364191,0.14403825,-0.52882516,0.2853116,0.70939195,0.6444846,0.46797472,-0.6899392,0.5522532,,1.3155675451241453,0.13736424963383134,0.17329841752000003,3.7404492118769452,-0.21902830912400104,-0.9814802465910419,-0.410483638195444,,-0.8335454500465482,-0.19435801824560822,0.18272244582000002,-3.995432183154127,-0.1725718992037513,1.394244437305789,0.8776476673394825,,-0.039682242205656075,-0.08834420341282298,0.07698115776,-0.046119083333121515,,2.0397827e-05,-1.9669533e-06,1.5497208e-06,1.0,-1.815334e-05,-1.5158206e-05,1.8157065e-05,1.0,-1.3113022e-06,1.5165657e-05,1.3709068e-06,1.0,726,2.289,1,1,2.114,False,-0.26196325577190027,1.0525566400078332
2.2951745220052544,15:52:04.336072,15:51:48.502412,0,,0.10336016,-0.001445502,0.031150281,0.8891608,0.20527813,-0.408967,0.4199007,-0.010811895,0.9075056,0.18186931,-0.9786438,-0.095809996,,0.036516987,-0.011083171,0.026060283,-0.8401384,-0.25326166,0.47961012,0.48389423,0.049403757,0.8737309,-0.24497715,0.9661355,0.08104581,,0.10784018,1.3465619,0.44453186,0.9966502,-0.008038213,-0.08138623,-0.058244083,-0.76835746,-0.6373653,-0.05741044,0.6399705,-0.7662518,,-0.0679752,0.2674749,-0.09302036,-0.89528966,-0.1532479,0.41829595,0.40615916,-0.66652495,0.6251233,0.18300587,0.7295612,0.65897596,,0.020330878,0.45327774,-0.3209982,0.8362899,0.1440556,-0.5290248,0.28543168,0.70942587,0.64439404,0.46813244,-0.68990064,0.55216765,,1.3165174412676748,0.13632940342868527,0.17323360302000002,3.735836033120286,-0.2195748551230628,-0.9811979324565373,-0.41048363819544376,,-0.8335608955122967,-0.19446613650584738,0.18276003823,-3.9952224932106426,-0.1725718992037513,1.3942444373057887,0.8773209792072139,,-0.039682242205656075,-0.08834420341282298,0.07698115776,-0.046119083333121515,,2.0397827e-05,-1.9669533e-06,1.5497208e-06,1.0,-1.815334e-05,-1.5158206e-05,1.8157065e-05,1.0,-1.3113022e-06,1.5165657e-05,1.3709068e-06,1.0,735,2.318,1,1,2.143,False,-0.2617249448978165,1.0526532004093918
2.3364217890048167,15:52:04.368095,15:51:48.502412,0,,0.10331446,-0.0015259385,0.031194627,0.8857333,0.2189057,-0.40933692,0.4216872,-0.010808706,0.9066769,0.19405232,-0.975686,-0.10188341,,0.036544748,-0.011095807,0.026033461,-0.8402765,-0.25335217,0.4793202,0.48355854,0.049569607,0.8739073,-0.24516611,0.96610326,0.08085832,,0.10784018,1.3465619,0.44453186,0.9966502,-0.008038213,-0.08138623,-0.058244083,-0.76835746,-0.6373653,-0.05741044,0.6399705,-0.7662518,,-0.067932345,0.26744595,-0.09310896,-0.89250237,-0.1670127,0.41898242,0.4157147,-0.6649789,0.620471,0.17498793,0.727949,0.66292495,,0.020306854,0.45324752,-0.32098573,0.83646446,0.14414059,-0.5287255,0.28507364,0.7095365,0.64443076,0.46803868,-0.68976915,0.5524114,,1.3169190233771346,0.1353331708879103,0.17319341803000002,3.727029055493936,-0.2300958656050017,-0.9735988987535997,-0.40917688566636956,,-0.8336149546424162,-0.19455108656746384,0.18279633435,-3.9956418730976115,-0.1725718992037513,1.3942444373057887,0.8773209792072139,,-0.039682242205656075,-0.08834420341282298,0.07698115776,-0.046119083333121515,,2.0397827e-05,-1.9669533e-06,1.5497208e-06,1.0,-1.815334e-05,-1.5158206e-05,1.8157065e-05,1.0,-1.3113022e-06,1.5165657e-05,1.3709068e-06,1.0,749,2.363,1,1,2.188,False,-0.2617249448978165,1.0523152390039359
2.368441843005712,15:52:04.407293,15:51:48.502412,0,,0.10326636,-0.0016048551,0.031214535,0.8830641,0.22343221,-0.41264498,0.42519522,-0.008984178,0.905057,0.19851165,-0.9746779,-0.10293597,,0.036584064,-0.011109963,0.026005268,-0.8403516,-0.25354755,0.47908512,0.48324668,0.049901545,0.874061,-0.24552317,0.9660349,0.08059105,,0.10784018,1.3465619,0.44453186,0.9966502,-0.008038213,-0.08138623,-0.058244083,-0.76835746,-0.6373653,-0.05741044,0.6399705,-0.7662518,,-0.06788578,0.26740193,-0.093178496,-0.89005417,-0.17157646,0.42233288,0.4213831,-0.66308975,0.6186665,0.17389598,0.7286107,0.66248524,,0.0202716,0.45321387,-0.32097268,0.83659357,0.14432529,-0.5284708,0.28461394,0.7097568,0.64439136,0.4680877,-0.68950385,0.552701,,1.3170657553017449,0.134669015860727,0.17316101078,3.7209480471328846,-0.2326919591005451,-0.9721353885044921,-0.40983026193090666,,-0.8337153501697812,-0.19465148209482877,0.18283911192000002,-3.996061252984581,-0.17243526270398585,1.3941330194020924,0.8773209792072139,,-0.039682242205656075,-0.08834420341282298,0.07698115776,-0.046119083333121515,,2.0397827e-05,-1.9669533e-06,1.5497208e-06,1.0,-1.815334e-05,-1.5158206e-05,1.8157065e-05,1.0,-1.3113022e-06,1.5165657e-05,1.3709068e-06,1.0,763,2.408,1,1,2.233,False,-0.2618441003348577,1.0526049202086123
2.4076381949998904,15:52:04.463563,15:51:48.693089,0,,0.10323719,-0.0017310828,0.031381845,0.8756141,0.24822886,-0.41434568,0.4288717,-0.0049399436,0.90335184,0.22219113,-0.96868867,-0.110783815,,0.03662266,-0.011120766,0.025959551,-0.84035647,-0.25355905,0.47907043,0.48325688,0.049805194,0.87406075,-0.24548632,0.96603686,0.08067992,,0.10784018,1.3465619,0.44453186,0.9966502,-0.008038213,-0.08138623,-0.058244083,-0.76835746,-0.6373653,-0.05741044,0.6399705,-0.7662518,,-0.06786619,0.26742026,-0.09338839,-0.8838485,-0.19663341,0.4244374,0.44013262,-0.6568632,0.6122206,0.15841429,0.727919,0.66711235,,0.020238787,0.45317116,-0.32094452,0.8365939,0.14434133,-0.52846587,0.2846466,0.7096884,0.6444522,0.4680672,-0.68957084,0.5526348,,1.3177299103289282,0.13317852841600167,0.17301064114,3.7031244019367002,-0.25250425156653394,-0.9608805168769448,-0.40999360599704093,,-0.8337771320327749,-0.19473643215644523,0.18289744497000002,-3.996061252984581,-0.1725718992037513,1.3942444373057887,0.8773209792072139,,-0.039682242205656075,-0.08834420341282298,0.07698115776,-0.046119083333121515,,2.0397827e-05,-1.9669533e-06,1.5497208e-06,1.0,-1.815334e-05,-1.5158206e-05,1.8157065e-05,1.0,-1.3113022e-06,1.5165657e-05,1.3709068e-06,1.0,772,2.437,1,1,2.262,False,-0.26249945523859,1.0526049202086123
2.463912524006446,15:52:04.488528,15:51:48.693089,0,,0.103210114,-0.0018075407,0.031553388,0.8722725,0.26161984,-0.41315332,0.4284795,-0.0017059743,0.90354985,0.23568173,-0.9651693,-0.11358681,,0.036634095,-0.011122063,0.025933325,-0.84035873,-0.25354612,0.47907332,0.48325598,0.04981625,0.87406063,-0.2454804,0.96603966,0.08066407,,0.10784018,1.3465619,0.44453186,0.9966502,-0.008038213,-0.08138623,-0.058244083,-0.76835746,-0.6373653,-0.05741044,0.6399705,-0.7662518,,-0.06784863,0.26747844,-0.09356814,-0.88122773,-0.21017447,0.42339617,0.44893345,-0.6525285,0.6104632,0.14797431,0.7280338,0.6693806,,0.020230351,0.4531514,-0.3209255,0.83659554,0.14432766,-0.52846706,0.28465015,0.709697,0.6444412,0.46806216,-0.6895649,0.55264646,,1.3183863426232372,0.1323367505327112,0.17286286408,3.695156184084288,-0.2652114460447199,-0.9557460912021736,-0.4129337991874579,,-0.8337616865670265,-0.19474415488931945,0.18292596335000003,-3.996061252984581,-0.1725718992037513,1.3942444373057887,0.8773209792072139,,-0.039682242205656075,-0.08834420341282298,0.07698115776,-0.046119083333121515,,2.0397827e-05,-1.9669533e-06,1.5497208e-06,1.0,-1.815334e-05,-1.5158206e-05,1.8157065e-05,1.0,-1.3113022e-06,1.5165657e-05,1.3709068e-06,1.0,786,2.482,1,1,2.307,False,-0.26249945523859,1.0522669588031563
2.488801350002177,15:52:04.528894,15:51:48.693089,0,,0.10314475,-0.001911968,0.031916022,0.8658885,0.2818906,-0.41324914,0.4282078,0.009382188,0.90363145,0.25860235,-0.95940053,-0.112583846,,0.036643296,-0.011121646,0.02591616,-0.84035873,-0.25354612,0.47907332,0.48325598,0.04981625,0.87406063,-0.2454804,0.96603966,0.08066407,,0.10784018,1.3465619,0.44453186,0.9966502,-0.008038213,-0.08138623,-0.058244083,-0.76835746,-0.6373653,-0.05741044,0.6399705,-0.7662518,,-0.067803115,0.26764432,-0.09391034,-0.8760673,-0.23066275,0.42343923,0.4642023,-0.6410589,0.61119527,0.13046952,0.7320097,0.6686849,,0.020223059,0.45313925,-0.3209122,0.83659554,0.14432766,-0.52846706,0.28465015,0.709697,0.6444412,0.46806216,-0.6895649,0.55264646,,1.3197841572734719,0.13108566780708683,0.17256601367000002,3.680687577983856,-0.2865267400081286,-0.952331962789568,-0.41293379918745776,,-0.8337616865670265,-0.19474415488931945,0.1829454077,-3.996061252984581,-0.1725718992037513,1.3942444373057887,0.8773209792072139,,-0.039682242205656075,-0.08834420341282298,0.07698115776,-0.046119083333121515,,2.0397827e-05,-1.9669533e-06,1.5497208e-06,1.0,-1.815334e-05,-1.5158206e-05,1.8157065e-05,1.0,-1.3113022e-06,1.5165657e-05,1.3709068e-06,1.0,809,2.555,1,1,2.38,False,-0.26232072208302704,1.0522669588031563
2.5292374310083687,15:52:04.611486,15:51:48.693089,0,,0.10276176,-0.0023368448,0.03284028,0.8528936,0.30786538,-0.42165318,0.43661362,0.02221495,0.8993747,0.28625327,-0.95117044,-0.1154713,,0.03666883,-0.011127576,0.025903106,-0.8403201,-0.25363338,0.4790951,0.48327824,0.049847364,0.8740465,-0.24556911,0.9660151,0.08068767,,0.10784018,1.3465619,0.44453186,0.9966502,-0.008038213,-0.08138623,-0.058244083,-0.76835746,-0.6373653,-0.05741044,0.6399705,-0.7662518,,-0.067471854,0.26795554,-0.09489767,-0.8645095,-0.25696793,0.43196148,0.48929518,-0.6268283,0.6063633,0.114949755,0.7355636,0.6676322,,0.020199426,0.45312333,-0.32090542,0.8365656,0.14441538,-0.5284905,0.28460303,0.70971316,0.64444417,0.4681443,-0.68952984,0.5526206,,1.323367505327112,0.1279193473286548,0.17173120291000002,3.653008505443899,-0.30975494496825345,-0.9427022955372004,-0.41358717545199486,,-0.833846636628643,-0.19479821401943903,0.18296874092,-3.996061252984581,-0.1725718992037513,1.3942444373057887,0.8773209792072139,,-0.039682242205656075,-0.08834420341282298,0.07698115776,-0.046119083333121515,,2.0397827e-05,-1.9669533e-06,1.5497208e-06,1.0,-1.815334e-05,-1.5158206e-05,1.8157065e-05,1.0,-1.3113022e-06,1.5165657e-05,1.3709068e-06,1.0,823,2.601,1,1,2.426,False,-0.2620824112089424,1.0522669588031563
2.6118215239985147,15:52:04.652929,15:51:48.858070,0,,0.10258004,-0.0026108027,0.033309937,0.8481418,0.314977,-0.42596373,0.4407624,0.026538461,0.89723134,0.29391155,-0.9487281,-0.11632165,,0.036677323,-0.011139572,0.025897443,-0.83923167,-0.25336754,0.48113903,0.4856014,0.048978508,0.8728072,-0.24470657,0.9661294,0.08193123,,0.10784018,1.3465619,0.44453186,0.9966502,-0.008038213,-0.08138623,-0.058244083,-0.76835746,-0.6373653,-0.05741044,0.6399705,-0.7662518,,-0.0673167,0.26807004,-0.095437564,-0.86014766,-0.26417568,0.4362995,0.49763763,-0.62220263,0.6043349,0.111816145,0.7369363,0.6666499,,0.020192215,0.45310977,-0.32090893,0.8352743,0.14418286,-0.53059226,0.28676906,0.70912045,0.6441364,0.46912727,-0.69018805,0.55096287,,1.3249120519019568,0.1263130188908161,0.17126842738,3.6431530781001262,-0.31604022395746373,-0.9397823979509603,-0.41440389578266645,,-0.8338543593615172,-0.19489860954680396,0.18297781495,-3.9933352837192815,-0.17284517220328216,1.3944672731131815,0.8773209792072139,,-0.039682242205656075,-0.08834420341282298,0.07698115776,-0.046119083333121515,,2.0397827e-05,-1.9669533e-06,1.5497208e-06,1.0,-1.815334e-05,-1.5158206e-05,1.8157065e-05,1.0,-1.3113022e-06,1.5165657e-05,1.3709068e-06,1.0,832,2.629,1,1,2.454,False,-0.2612483231496481,1.0518324369961412
2.653251909010578,15:52:04.671013,15:51:48.858070,0,,0.10252699,-0.0026667714,0.033395976,0.8469159,0.31622306,-0.42747694,0.44221717,0.027531356,0.8964853,0.29525828,-0.9482852,-0.11652249,,0.03667999,-0.011144012,0.025895774,-0.838957,-0.25333363,0.48163563,0.4861447,0.04886061,0.8725113,-0.24456955,0.96614426,0.082164735,,0.10784018,1.3465619,0.44453186,0.9966502,-0.008038213,-0.08138623,-0.058244083,-0.76835746,-0.6373653,-0.05741044,0.6399705,-0.7662518,,-0.06726859,0.26808733,-0.09554117,-0.858987,-0.26543814,0.43781722,0.49965718,-0.6212068,0.60369265,0.111732,0.7373226,0.66623664,,0.02018997,0.45310512,-0.3209106,0.8349593,0.1441535,-0.53109574,0.2872302,0.70903987,0.64401966,0.46940574,-0.690277,0.5506142,,1.3252672976141713,0.1259423277128533,0.17118546482000002,3.640636798778312,-0.31686004295605635,-0.9391955692689222,-0.41440389578266645,,-0.8338543593615172,-0.19492950047830085,0.18298040753000003,-3.9927062138888285,-0.17284517220328216,1.3944672731131815,0.8773209792072139,,-0.039682242205656075,-0.08834420341282298,0.07698115776,-0.046119083333121515,,2.0397827e-05,-1.9669533e-06,1.5497208e-06,1.0,-1.815334e-05,-1.5158206e-05,1.8157065e-05,1.0,-1.3113022e-06,1.5165657e-05,1.3709068e-06,1.0,846,2.674,1,1,2.499,False,-0.26112916771260597,1.0525083598070537
2.6713510370027507,15:52:04.721850,15:51:48.858070,0,,0.1023217,-0.0029127002,0.033599943,0.8435865,0.31862852,-0.43224728,0.44714612,0.028934896,0.8939928,0.29735857,-0.9474379,-0.11806443,,0.036705784,-0.01116851,0.025900722,-0.8361395,-0.25407073,0.48612607,0.49051276,0.050312728,0.86998045,-0.24549504,0.9658761,0.08255637,,0.10784018,1.3465619,0.44453186,0.9966502,-0.008038213,-0.08138623,-0.058244083,-0.76835746,-0.6373653,-0.05741044,0.6399705,-0.7662518,,-0.06707569,0.26804644,-0.09586574,-0.8557472,-0.26787758,0.44264913,0.5048332,-0.61967194,0.6009577,0.113314144,0.7377319,0.6655161,,0.020165058,0.4530875,-0.32092956,0.8320423,0.14484121,-0.5354687,0.2895169,0.71001124,0.6419221,0.47316557,-0.6891336,0.5488254,,1.326255807422072,0.12428966287776926,0.17096120665000003,3.633926720586807,-0.31781649845441445,-0.9371904628409389,-0.4134238313858608,,-0.8338543593615172,-0.19505306420428845,0.18298429640000002,-3.987883345188684,-0.17065898820703512,1.39284794413432,0.8769942910749452,,-0.039682242205656075,-0.08834420341282298,0.07698115776,-0.046119083333121515,,2.0397827e-05,-1.9669533e-06,1.5497208e-06,1.0,-1.815334e-05,-1.5158206e-05,1.8157065e-05,1.0,-1.3113022e-06,1.5165657e-05,1.3709068e-06,1.0,860,2.719,1,1,2.544,False,-0.26136747858668974,1.0522186786023768
2.7221774570061825,15:52:04.766144,15:51:48.858070,0,,0.10221571,-0.003073588,0.03365913,0.83879876,0.3198005,-0.4406181,0.45495456,0.032817185,0.8899097,0.2990534,-0.94691634,-0.117967725,,0.03675384,-0.011195034,0.025912523,-0.83370495,-0.2582533,0.48809946,0.49139798,0.056276828,0.869115,-0.2519206,0.96443665,0.07998678,,0.10784018,1.3465619,0.44453186,0.9966502,-0.008038213,-0.08138623,-0.058244083,-0.76835746,-0.6373653,-0.05741044,0.6399705,-0.7662518,,-0.066973835,0.2679693,-0.09602164,-0.8510144,-0.26905483,0.4509812,0.51193017,-0.61646867,0.59824234,0.11705578,0.73998374,0.66236097,,0.0201174,0.45307058,-0.32095397,0.83027816,0.1488492,-0.5371053,0.2856094,0.71390265,0.6393514,0.47860786,-0.68424183,0.550225,,1.326433430278179,0.12325481667262317,0.17086657748,3.624700363073488,-0.3159035874576983,-0.9375251323905803,-0.4139138635842635,,-0.8338234684300203,-0.19502217327279153,0.18298559269000003,-3.9876736552452,-0.16369052671899764,1.3897793507303007,0.8769942910749454,,-0.039682242205656075,-0.08834420341282298,0.07698115776,-0.046119083333121515,,2.0397827e-05,-1.9669533e-06,1.5497208e-06,1.0,-1.815334e-05,-1.5158206e-05,1.8157065e-05,1.0,-1.3113022e-06,1.5165657e-05,1.3709068e-06,1.0,869,2.748,1,1,2.573,False,-0.2629164992682367,1.052025557799259
2.7664900070085423,15:52:04.797586,15:51:48.858070,0,,0.10217117,-0.0031391978,0.0336442,0.8373338,0.31845576,-0.4443626,0.45828295,0.034297854,0.88814425,0.2980753,-0.9473169,-0.11722413,,0.036767967,-0.011197075,0.02591288,-0.8319022,-0.26195803,0.4891999,0.4929812,0.05586061,0.8682449,-0.2547708,0.9634613,0.082669765,,0.10784018,1.3465619,0.44453186,0.9966502,-0.008038213,-0.08138623,-0.058244083,-0.76835746,-0.6373653,-0.05741044,0.6399705,-0.7662518,,-0.06692892,0.26791188,-0.096056215,-0.84948194,-0.26768288,0.45467168,0.51380426,-0.6155903,0.5975398,0.11994032,0.7412115,0.6604694,,0.020103449,0.45306775,-0.32095492,0.82871795,0.15265417,-0.53844523,0.28467283,0.713354,0.64038074,0.48185882,-0.68397576,0.54771274,,1.326394816613808,0.1228532345631635,0.17085879974,3.621974393808189,-0.31358076696168585,-0.9388474855724356,-0.41309714325359215,,-0.833746241101278,-0.19493722321117507,0.18298688898,-3.986205825640808,-0.1601379777250962,1.3917832096426275,0.8773209792072139,,-0.039682242205656075,-0.08834420341282298,0.07698115776,-0.046119083333121515,,2.0397827e-05,-1.9669533e-06,1.5497208e-06,1.0,-1.815334e-05,-1.5158206e-05,1.8157065e-05,1.0,-1.3113022e-06,1.5165657e-05,1.3709068e-06,1.0,883,2.793,1,1,2.618,False,-0.2611887454311268,1.0518807171969207
2.797919650998665,15:52:04.847380,15:51:49.045912,0,,0.102103874,-0.0032111406,0.03364715,0.8309329,0.32775798,-0.44958338,0.46466252,0.03562075,0.8847711,0.30600524,-0.9440899,-0.122698456,,0.036763407,-0.011187062,0.025909722,-0.8317037,-0.26270762,0.48913524,0.49302793,0.05568385,0.8682296,-0.2553276,0.9632673,0.08320966,,0.10784018,1.3465619,0.44453186,0.9966502,-0.008038213,-0.08138623,-0.058244083,-0.76835746,-0.6373653,-0.05741044,0.6399705,-0.7662518,,-0.066862255,0.26786235,-0.096109286,-0.8434758,-0.2771357,0.46015683,0.5240414,-0.61274606,0.5915428,0.11802165,0.7400933,0.6620671,,0.020107815,0.4530735,-0.32094604,0.82857907,0.15342835,-0.5384389,0.28431353,0.7131772,0.6407372,0.4823096,-0.6839869,0.5473019,,1.3265106576069214,0.12201917941274726,0.17085491087000002,3.609812377086087,-0.3174065889551182,-0.9319705622224699,-0.4134238313858606,,-0.8336999047040328,-0.1948522731495586,0.18298688898,-3.986205825640808,-0.159454795226269,1.3922879437459725,0.8776476673394823,,-0.039682242205656075,-0.08834420341282298,0.07698115776,-0.046119083333121515,,2.0397827e-05,-1.9669533e-06,1.5497208e-06,1.0,-1.815334e-05,-1.5158206e-05,1.8157065e-05,1.0,-1.3113022e-06,1.5165657e-05,1.3709068e-06,1.0,892,2.822,1,1,2.647,False,-0.2623802998015474,1.0518324369961412
2.847715142997913,15:52:04.877376,15:51:49.045912,0,,0.10198605,-0.0032491982,0.03365901,0.8262979,0.33602268,-0.45201823,0.4705199,0.029303014,0.8819026,0.30958477,-0.9413978,-0.13389239,,0.036756866,-0.011184424,0.025906324,-0.8317215,-0.26262847,0.4891476,0.49301827,0.055741847,0.8682314,-0.25528836,0.96328557,0.083118826,,0.10784018,1.3465619,0.44453186,0.9966502,-0.008038213,-0.08138623,-0.058244083,-0.76835746,-0.6373653,-0.05741044,0.6399705,-0.7662518,,-0.06674543,0.26784557,-0.09614854,-0.83900565,-0.28556487,0.4631654,0.53093565,-0.6159185,0.5820238,0.1190666,0.7342323,0.6683757,,0.020114545,0.45307392,-0.32094204,0.8285929,0.15334484,-0.5384414,0.2843346,0.71322334,0.6406765,0.48227337,-0.6839575,0.54737055,,1.3269508533807521,0.12142452898143197,0.17086009603000002,3.601005399459737,-0.31781649845441445,-0.9194661762304368,-0.41162704665838357,,-0.8336612910396616,-0.19482910495093594,0.18298688898,-3.986205825640808,-0.159454795226269,1.392206265005832,0.8776476673394823,,-0.039682242205656075,-0.08834420341282298,0.07698115776,-0.046119083333121515,,2.0397827e-05,-1.9669533e-06,1.5497208e-06,1.0,-1.815334e-05,-1.5158206e-05,1.8157065e-05,1.0,-1.3113022e-06,1.5165657e-05,1.3709068e-06,1.0,906,2.867,1,1,2.692,False,-0.26095043455704303,1.0515910359922438
2.877712479006732,15:52:04.914708,15:51:49.045912,0,,0.10179772,-0.0032834709,0.033690274,0.8155231,0.3522518,-0.4591741,0.48056835,0.029886305,0.8764478,0.3224533,-0.9354278,-0.14490816,,0.03675648,-0.011183932,0.025905907,-0.8316787,-0.2627174,0.48917255,0.49302942,0.055828393,0.8682196,-0.2554062,0.9632563,0.083096,,0.10784018,1.3465619,0.44453186,0.9966502,-0.008038213,-0.08138623,-0.058244083,-0.76835746,-0.6373653,-0.05741044,0.6399705,-0.7662518,,-0.06655921,0.2678468,-0.09620276,-0.8288736,-0.30208385,0.4708651,0.54733384,-0.6120149,0.5708445,0.115733564,0.7308783,0.6726237,,0.020114938,0.45307404,-0.32094145,0.8285627,0.15343194,-0.5384631,0.28425938,0.71327734,0.64064974,0.48236966,-0.68388164,0.5473805,,1.32776946306542,0.12032017818041786,0.17088342925000002,3.5808751648852226,-0.32410177744362473,-0.9051929337646585,-0.4139138635842634,,-0.8336535683067874,-0.1948213822180617,0.18298688898,-3.986205825640808,-0.15931815872650357,1.392176525842276,0.8774843232733481,,-0.039682242205656075,-0.08834420341282298,0.07698115776,-0.046119083333121515,,2.0397827e-05,-1.9669533e-06,1.5497208e-06,1.0,-1.815334e-05,-1.5158206e-05,1.8157065e-05,1.0,-1.3113022e-06,1.5165657e-05,1.3709068e-06,1.0,920,2.912,1,1,2.737,False,-0.26309523242380006,1.0522186786023768
2.915010943004745,15:52:04.963875,15:51:49.188033,0,,0.10150805,-0.003323853,0.033751428,0.805796,0.36534435,-0.46606472,0.48838696,0.03512001,0.8719201,0.3349192,-0.9302096,-0.15012991,,0.03675764,-0.011183679,0.025906503,-0.8316765,-0.26272446,0.48917258,0.49303055,0.055826575,0.868219,-0.25541133,0.9632545,0.08310142,,0.10784018,1.3465619,0.44453186,0.9966502,-0.008038213,-0.08138623,-0.058244083,-0.76835746,-0.6373653,-0.05741044,0.6399705,-0.7662518,,-0.0662734,0.26786652,-0.09628762,-0.81977844,-0.31540614,0.4779982,0.56176955,-0.6050491,0.564208,0.111257695,0.7310504,0.6731917,,0.020113708,0.4530745,-0.3209417,0.82856095,0.15343925,-0.5384637,0.28425658,0.71327555,0.64065295,0.4823743,-0.6838819,0.54737616,,1.3292290595786485,0.11889919533156056,0.17090805876,3.5628418297455533,-0.3317534214304894,-0.896503168953442,-0.41456723984880084,,-0.8336612910396616,-0.1948213822180617,0.18298688898,-3.986205825640808,-0.15931815872650357,1.392176525842276,0.8774843232733481,,-0.039682242205656075,-0.08834420341282298,0.07698115776,-0.046119083333121515,,2.0397827e-05,-1.9669533e-06,1.5497208e-06,1.0,-1.815334e-05,-1.5158206e-05,1.8157065e-05,1.0,-1.3113022e-06,1.5165657e-05,1.3709068e-06,1.0,934,2.957,1,1,2.782,False,-0.2622611443645053,1.0518324369961412
2.9642264300055103,15:52:05.010859,15:51:49.188033,0,,0.100966394,-0.0034380555,0.033823103,0.79468465,0.37289023,-0.4789877,0.5014698,0.04136333,0.86418575,0.3420589,-0.92695296,-0.15412241,,0.036754973,-0.011185572,0.025906563,-0.8316788,-0.26271158,0.48917553,0.4930296,0.05583763,0.8682189,-0.25540563,0.9632573,0.08308548,,0.10784018,1.3465619,0.44453186,0.9966502,-0.008038213,-0.08138623,-0.058244083,-0.76835746,-0.6373653,-0.05741044,0.6399705,-0.7662518,,-0.06573691,0.26784617,-0.09644041,-0.80899096,-0.32308045,0.49107298,0.5766221,-0.5984641,0.5561903,0.11419532,0.7331165,0.67044735,,0.020116458,0.4530734,-0.3209431,0.8285627,0.15342559,-0.5384649,0.2842599,0.71328413,0.64064187,0.48236933,-0.6838759,0.5473879,,1.331692611365526,0.11670593919528079,0.17094176230000002,3.5425019052275544,-0.33298314992837835,-0.8900279322307567,-0.4135871754519953,,-0.8336458455739132,-0.19482910495093594,0.18298559269000003,-3.986205825640808,-0.15931815872650357,1.392176525842276,0.8774843232733481,,-0.039682242205656075,-0.08834420341282298,0.07698115776,-0.046119083333121515,,2.0397827e-05,-1.9669533e-06,1.5497208e-06,1.0,-1.815334e-05,-1.5158206e-05,1.8157065e-05,1.0,-1.3113022e-06,1.5165657e-05,1.3709068e-06,1.0,943,2.986,1,1,2.811,False,-0.2617249448978165,1.0517358765945823
3.0111990709992824,15:52:05.038178,15:51:49.188033,0,,0.10064341,-0.0034988523,0.033875823,0.79258573,0.37611523,-0.47994292,0.5039189,0.03915319,0.86286306,0.34332722,-0.9257451,-0.15849936,,0.036752656,-0.011186108,0.025905311,-0.83168334,-0.26265746,0.48919696,0.49302727,0.055912167,0.8682154,-0.2553954,0.96326774,0.08299592,,0.10784018,1.3465619,0.44453186,0.9966502,-0.008038213,-0.08138623,-0.058244083,-0.76835746,-0.6373653,-0.05741044,0.6399705,-0.7662518,,-0.0654175,0.2678461,-0.09653407,-0.8069491,-0.32637662,0.49225146,0.5793576,-0.59940714,0.5523186,0.11479515,0.7308826,0.6727798,,0.020118915,0.45307246,-0.32094264,0.8285662,0.15336697,-0.5384762,0.28426552,0.71334004,0.64057714,0.48236004,-0.6838308,0.5474525,,1.33334527620061,0.1154780246682791,0.17095861407000001,3.5383081063578636,-0.33434951492603276,-0.8840947075254992,-0.4148939279810695,,-0.8336304001081647,-0.19482910495093594,0.18298559269000003,-3.986205825640808,-0.15931815872650357,1.3920948471021355,0.8776476673394823,,-0.039682242205656075,-0.08834420341282298,0.07698115776,-0.046119083333121515,,2.0397827e-05,-1.9669533e-06,1.5497208e-06,1.0,-1.815334e-05,-1.5158206e-05,1.8157065e-05,1.0,-1.3113022e-06,1.5165657e-05,1.3709068e-06,1.0,957,3.031,1,1,2.856,False,-0.26327396557936344,1.0522669588031563
3.038483456009999,15:52:05.081114,15:51:49.188033,0,,0.10026932,-0.0034559518,0.034048676,0.77491224,0.38576683,-0.5006946,0.5230813,0.05328691,0.85061526,0.35481954,-0.9210561,-0.16049477,,0.03675381,-0.011185825,0.025905907,-0.831681,-0.26266453,0.48919696,0.4930284,0.05591035,0.86821485,-0.25540054,0.9632659,0.083001435,,0.10784018,1.3465619,0.44453186,0.9966502,-0.008038213,-0.08138623,-0.058244083,-0.76835746,-0.6373653,-0.05741044,0.6399705,-0.7662518,,-0.06505285,0.26800495,-0.09665008,-0.7898067,-0.33618736,0.5130141,0.6018455,-0.586055,0.5425141,0.11826806,0.7372365,0.66520303,,0.020117685,0.45307294,-0.32094285,0.8285644,0.15337428,-0.5384768,0.2842627,0.71333826,0.6405804,0.48236468,-0.68383104,0.5474481,,1.3352836821520404,0.11474436504522777,0.17091842908000002,3.507483684665639,-0.33366633242720556,-0.8792610001947041,-0.4524630631919535,,-0.8336381228410389,-0.19482910495093594,0.18298559269000003,-3.986205825640808,-0.15931815872650357,1.3920948471021355,0.8776476673394823,,-0.039682242205656075,-0.08834420341282298,0.07698115776,-0.046119083333121515,,2.0397827e-05,-1.9669533e-06,1.5497208e-06,1.0,-1.815334e-05,-1.5158206e-05,1.8157065e-05,1.0,-1.3113022e-06,1.5165657e-05,1.3709068e-06,1.0,980,3.104,0,1,2.869,False,-0.2611887454311268,1.052025557799259
3.081465441006003,15:52:05.154170,15:51:49.327923,0,,0.09922103,-0.003933668,0.0342319,0.7749168,0.38679355,-0.49989462,0.52370465,0.04990089,0.8504371,0.35388872,-0.9208151,-0.16389656,,0.03673932,-0.011189058,0.025899649,-0.8317081,-0.2625396,0.48921812,0.49301463,0.056003243,0.8682167,-0.25533915,0.9632946,0.0828574,,0.10784018,1.3465619,0.44453186,0.9966502,-0.008038213,-0.08138623,-0.058244083,-0.76835746,-0.6373653,-0.05741044,0.6399705,-0.7662518,,-0.0640183,0.26780397,-0.097150065,-0.78975874,-0.33724347,0.5123943,0.6016896,-0.58844936,0.5400898,0.11937637,0.73484296,0.667649,,0.020132912,0.453068,-0.3209411,0.82858527,0.15324244,-0.5384823,0.2842965,0.713412,0.64048326,0.48230892,-0.68378365,0.5475564,,1.3403189039860348,0.10931528383464793,0.17086398490000002,3.506015855061247,-0.3394050654173541,-0.8729478734366432,-0.4309016464622285,,-0.8335454500465482,-0.19482910495093594,0.18298429640000002,-3.986205825640808,-0.15931815872650357,1.392013168361995,0.8771576351410798,,-0.039682242205656075,-0.08834420341282298,0.07698115776,-0.046119083333121515,,2.0397827e-05,-1.9669533e-06,1.5497208e-06,1.0,-1.815334e-05,-1.5158206e-05,1.8157065e-05,1.0,-1.3113022e-06,1.5165657e-05,1.3709068e-06,1.0,989,3.133,0,1,2.869,False,-0.2629164992682367,1.0519772775984795
3.1545172710029874,15:52:05.182480,15:51:49.327923,0,,0.09887839,-0.0041076094,0.034285575,0.76805055,0.39390913,-0.5049099,0.5288302,0.054523617,0.84697443,0.3611604,-0.9175307,-0.16643417,,0.036736622,-0.011193857,0.02589804,-0.8317084,-0.26252216,0.48922703,0.4930151,0.05603078,0.86821467,-0.25533748,0.9632977,0.08282599,,0.10784018,1.3465619,0.44453186,0.9966502,-0.008038213,-0.08138623,-0.058244083,-0.76835746,-0.6373653,-0.05741044,0.6399705,-0.7662518,,-0.06367991,0.26772088,-0.097320735,-0.78325975,-0.34449813,0.51751834,0.61056846,-0.5830399,0.53597635,0.11709099,0.73578906,0.6670114,,0.020136012,0.4530637,-0.3209433,0.8285853,0.15322341,-0.5384877,0.284298,0.71343243,0.64045984,0.482308,-0.6837666,0.5475786,,1.341770777766389,0.10719925502711042,0.17085620716000002,3.494063528282629,-0.3445972524084408,-0.8682239206553358,-0.4309016464622287,,-0.8335222818479255,-0.1948522731495586,0.18298429640000002,-3.986205825640808,-0.15931815872650357,1.392013168361995,0.8771576351410798,,-0.039682242205656075,-0.08834420341282298,0.07698115776,-0.046119083333121515,,2.0397827e-05,-1.9669533e-06,1.5497208e-06,1.0,-1.815334e-05,-1.5158206e-05,1.8157065e-05,1.0,-1.3113022e-06,1.5165657e-05,1.3709068e-06,1.0,1003,3.178,0,1,2.869,False,-0.26243987752006825,1.052122118200818
3.182796585999313,15:52:05.227754,15:51:49.327923,0,,0.09872995,-0.004121959,0.034305155,0.7598773,0.3999542,-0.51246774,0.53676474,0.058665514,0.8416899,0.3667015,-0.9146555,-0.17010278,,0.03673637,-0.0111925155,0.02589798,-0.8317105,-0.26256084,0.4892026,0.4930138,0.05595252,0.86822045,-0.25533292,0.96329176,0.0829097,,0.10784018,1.3465619,0.44453186,0.9966502,-0.008038213,-0.08138623,-0.058244083,-0.76835746,-0.6373653,-0.05741044,0.6399705,-0.7662518,,-0.0635328,0.26772788,-0.09735125,-0.775349,-0.35066473,0.5252315,0.62042814,-0.57822776,0.52983165,0.11791016,0.7366728,0.66589063,,0.020136207,0.45306465,-0.32094234,0.82858706,0.15326641,-0.5384728,0.28430033,0.7133751,0.64052266,0.48230365,-0.6838168,0.5475197,,1.3423268145333331,0.10664321826016625,0.17087435522000002,3.4804336819561357,-0.3448705254079717,-0.8632637179197904,-0.4309016464622286,,-0.8335222818479255,-0.1948445504166844,0.18298429640000002,-3.986205825640808,-0.15931815872650357,1.3920948471021355,0.8776476673394823,,-0.039682242205656075,-0.08834420341282298,0.07698115776,-0.046119083333121515,,2.0397827e-05,-1.9669533e-06,1.5497208e-06,1.0,-1.815334e-05,-1.5158206e-05,1.8157065e-05,1.0,-1.3113022e-06,1.5165657e-05,1.3709068e-06,1.0,1022,3.24,0,1,2.869,False,-0.2621419889274632,1.052025557799259
