AlexandreBanks6/ExpertPlaybackApp/resources/Motions/P_01/PC1/Data_PC1_4.csv
Task Time,PC1 Time,PC2 Time,Gaze Calib,s_T_psm1,Tx,Ty,Tz,R00,R01,R02,R10,R11,R12,R20,R21,R22,s_T_psm3,Tx,Ty,Tz,R00,R01,R02,R10,R11,R12,R20,R21,R22,cart_T_ecm,Tx,Ty,Tz,R00,R01,R02,R10,R11,R12,R20,R21,R22,ecm_T_psm1,Tx,Ty,Tz,R00,R01,R02,R10,R11,R12,R20,R21,R22,ecm_T_psm3,Tx,Ty,Tz,R00,R01,R02,R10,R11,R12,R20,R21,R22,psm1_joints,q1,q2,q3,q4,q5,q6,jaw,psm3_joints,q1,q2,q3,q4,q5,q6,jaw,ecm_joints,q1,q2,q3,q4,ecmi_T_ecm,Tx,Ty,Tz,R00,R01,R02,R10,R11,R12,R20,R21,R22,Sample #,Task Duration (s),Collisions (binary),Collisions (increments),Cumulative Collision Time (s),Clutch Press,MTMR Angle,MTML Angle
""
lci_T_si,,,,,-0.060357757,0.022834528,0.23020615,0.9952371,-0.021149157,0.09516208,0.048441693,-0.7398343,-0.6710429,0.084596165,0.6724566,-0.73528606
rci_T_si,,,,,-0.0698917,0.026742559,0.23927253,0.9902512,-0.040660527,0.13322671,0.061729427,-0.729299,-0.68140477,0.124868385,0.68298584,-0.71967924
ecm_T_lc,,,,,-4.4061628e-05,-0.00034663224,-0.01840835,-0.99912,0.030754527,0.028518902,-0.031987965,-0.99852574,-0.043852776,0.027128186,-0.04472645,0.9986309
ecm_T_rc,,,,,-0.0043358393,0.01870579,-0.007592615,-0.99555075,-0.052743673,-0.078081585,0.04863213,-0.9973746,0.053654674,-0.08070653,0.04961868,0.9955021
cart_T_ecmi,,,,,0.106666066,1.342168,0.4415365,0.99560696,0.021075713,-0.09122836,-0.043530237,-0.7584478,-0.65027845,-0.08289703,0.65139294,-0.7541985
ecmac_T_ecmrep_psm1,,,,,0.01038242,-0.2501324,-0.30762842,0.998145,0.0496832,0.035188068,-0.04731537,0.99675006,-0.06519635,-0.03831287,0.06341047,0.99725187
ecmac_T_ecmrep_psm3,,,,,-0.018947443,-0.4527795,-0.5580277,0.99342906,-0.031421527,0.110051684,0.0051236153,0.97282016,0.23150527,-0.11433475,-0.2294202,0.9665888
""
0,17:00:18.596948,17:00:04.890448,0,,0.12082319,0.0030897856,0.016083792,-0.97200406,-0.1837197,-0.14647564,-0.1765571,0.159762,0.97123826,-0.15503436,0.96990883,-0.18772647,,0.057757333,-0.02503597,0.03186041,-0.38429907,-0.52799773,0.7573193,-0.60418254,0.7640878,0.2261264,-0.69805264,-0.370659,-0.61264527,,0.1067023,1.3421685,0.44153452,0.99560404,0.021025145,-0.09127171,-0.043596618,-0.7584492,-0.65027237,-0.08289703,0.65139294,-0.7541985,,-0.09053422,0.25268945,-0.08376158,0.97573537,0.11269923,0.18772161,-0.20594627,0.7634942,0.612097,-0.0743415,-0.63590527,0.7681783,,-0.025085175,0.40096733,-0.37559503,0.4776879,0.4998892,-0.7224438,-0.8679726,0.1414413,-0.476044,-0.13578586,0.8544619,0.50145495,,1.1256037618839707,0.3445497271835265,0.20920435423000003,0.8221942684028201,0.043723679924940945,0.9329744501440727,-0.4086868534679666,,-0.9001385756209862,-0.31284790873483487,0.18688224043,0.8934888491875583,0.318909590452538,-0.18939727700586126,0.3497196455934919,,-0.04888449068679618,-0.07013605599139214,0.08219610256,-0.07424845330935166,,3.6217272e-05,-8.34465e-07,-2.1457672e-06,1.0,-5.0287694e-05,-4.3421984e-05,5.0280243e-05,1.0,-5.5134296e-06,4.3436885e-05,5.5134296e-06,1.0,35,0.105,0,0,0.0,False,-0.2591631030014119,0.5252885672953669
0.12064152900711633,17:00:18.625560,17:00:04.972393,0,,0.12078245,0.0030764937,0.016532645,-0.97147524,-0.1856786,-0.14750981,-0.17730069,0.15562952,0.9717736,-0.1574807,0.9702077,-0.18411133,,0.057800546,-0.025033511,0.03186387,-0.38498467,-0.5282267,0.75681126,-0.60410905,0.7641672,0.22605467,-0.6977384,-0.370169,-0.61329925,,0.1067023,1.3421685,0.44153452,0.99560404,0.021025145,-0.09127171,-0.043596618,-0.7584492,-0.65027237,-0.08289703,0.65139294,-0.7541985,,-0.09052865,0.2529758,-0.084109835,0.97537637,0.114512525,0.18848819,-0.20813037,0.7606379,0.6149079,-0.07295659,-0.6389968,0.76574177,,-0.025128592,0.40096718,-0.37559563,0.4783408,0.500074,-0.72188365,-0.8675988,0.14192033,-0.47658265,-0.13587663,0.85427433,0.5017499,,1.126306530575525,0.34520615947783556,0.20879602288000002,0.8200973689679748,0.04563659092165711,0.9357435727197726,-0.41032029412930937,,-0.9003934258058356,-0.3128401860019607,0.1868990922,0.8939082290745273,0.31808977145394535,-0.18864709084354211,0.34955630152735756,,-0.04888449068679618,-0.07013605599139214,0.08219610256,-0.07424845330935166,,3.6217272e-05,-8.34465e-07,-2.1457672e-06,1.0,-5.0287694e-05,-4.3421984e-05,5.0280243e-05,1.0,-5.5134296e-06,4.3436885e-05,5.5134296e-06,1.0,43,0.13,0,0,0.0,False,-0.25856732581620134,0.5254816880984845
0.14931937100482173,17:00:18.652562,17:00:04.972393,0,,0.12071699,0.0030568093,0.016968623,-0.9708193,-0.18883142,-0.14782582,-0.1775913,0.15185732,0.9723172,-0.16115561,0.97019696,-0.18096095,,0.057843715,-0.025040038,0.03187579,-0.38910732,-0.52417743,0.7575179,-0.5995126,0.7684417,0.22379014,-0.699414,-0.3670632,-0.6132573,,0.1067023,1.3421685,0.44153452,0.99560404,0.021025145,-0.09127171,-0.043596618,-0.7584492,-0.65027237,-0.08289703,0.65139294,-0.7541985,,-0.09049762,0.2532496,-0.084454514,0.9749982,0.11754969,0.18857516,-0.21078506,0.75788474,0.617398,-0.0703433,-0.6417108,0.763714,,-0.025171984,0.40096945,-0.37560833,0.48224708,0.4955108,-0.7224312,-0.86618346,0.14637694,-0.47780755,-0.13101153,0.85617924,0.49979308,,1.1271483084588156,0.3457081371146602,0.20839676556000003,0.817790779589645,0.04905250341579312,0.9379405282759363,-0.40983026193090666,,-0.9005710486619427,-0.31282474053621223,0.18690946252,0.9006183072660321,0.31808977145394535,-0.1885654121034016,0.35004633372576044,,-0.04888449068679618,-0.07013605599139214,0.08219610256,-0.07424845330935166,,3.6217272e-05,-8.34465e-07,-2.1457672e-06,1.0,-5.0287694e-05,-4.3421984e-05,5.0280243e-05,1.0,-5.5134296e-06,4.3436885e-05,5.5134296e-06,1.0,54,0.163,0,0,0.0,False,-0.2590439475643693,0.5253851276969255
0.17628883800352924,17:00:18.678818,17:00:04.972393,0,,0.12062067,0.002978772,0.017348126,-0.97053516,-0.18961321,-0.1486881,-0.17806743,0.14866188,0.97272384,-0.16233703,0.97053933,-0.1780456,,0.057859793,-0.025045402,0.03186637,-0.38994142,-0.5259515,0.7558575,-0.600399,0.76758075,0.22436738,-0.69818807,-0.3663261,-0.61509234,,0.1067023,1.3421685,0.44153452,0.99560404,0.021025145,-0.09127171,-0.043596618,-0.7584492,-0.65027237,-0.08289703,0.65139294,-0.7541985,,-0.09043312,0.25344324,-0.084797636,0.9747929,0.11821275,0.18922085,-0.21192881,0.7557275,0.6196468,-0.06974925,-0.6441286,0.7617305,,-0.025186876,0.40095702,-0.37560818,0.4830454,0.4972795,-0.7206804,-0.8655278,0.14672835,-0.47888666,-0.13239625,0.85509294,0.5012857,,1.1278587998832443,0.34587031450501887,0.20802084146000002,0.8165326399287379,0.05028223191368208,0.9403682742285722,-0.408850197534101,,-0.9006946123879304,-0.31282474053621223,0.18691983284000002,0.9001989273790632,0.3163134969569946,-0.18662690691450468,0.35069970999029754,,-0.04888449068679618,-0.07013605599139214,0.08219610256,-0.07424845330935166,,3.6217272e-05,-8.34465e-07,-2.1457672e-06,1.0,-5.0287694e-05,-4.3421984e-05,5.0280243e-05,1.0,-5.5134296e-06,4.3436885e-05,5.5134296e-06,1.0,62,0.187,0,0,0.0,False,-0.25922268071993226,0.5260127703070583
0.20251815899973735,17:00:18.706478,17:00:04.972393,0,,0.120559186,0.002877742,0.017606556,-0.9703192,-0.18993321,-0.14968587,-0.17886938,0.1471281,0.9728099,-0.16274592,0.97071046,-0.1767346,,0.057868853,-0.025046028,0.03186506,-0.39001244,-0.5258914,0.75586265,-0.60043555,0.76759046,0.22423625,-0.6981169,-0.366392,-0.61513376,,0.1067023,1.3421685,0.44153452,0.99560404,0.021025145,-0.09127171,-0.043596618,-0.7584492,-0.65027237,-0.08289703,0.65139294,-0.7541985,,-0.09039463,0.25353894,-0.08506248,0.9745867,0.11847543,0.19011644,-0.21280782,0.7546949,0.6206033,-0.06995366,-0.64529,0.7607281,,-0.025195748,0.40095466,-0.37560818,0.4831132,0.49722403,-0.7206732,-0.86547965,0.14667164,-0.478991,-0.13246351,0.8551349,0.50119627,,1.1281908773968359,0.34582397810777354,0.2077434354,0.8154841902113152,0.050555504913212965,0.9416156557437094,-0.40917688566636945,,-0.9007409487851757,-0.3128324632690864,0.18692501800000003,0.9001989273790632,0.3161768604572292,-0.1866788464910894,0.3510263981225661,,-0.04888449068679618,-0.07013605599139214,0.08219610256,-0.07424845330935166,,3.6217272e-05,-8.34465e-07,-2.1457672e-06,1.0,-5.0287694e-05,-4.3421984e-05,5.0280243e-05,1.0,-5.5134296e-06,4.3436885e-05,5.5134296e-06,1.0,70,0.211,0,0,0.0,False,-0.2590439475643693,0.5261576109093968
0.23024000399163924,17:00:18.737847,17:00:05.083157,0,,0.12049979,0.0026781708,0.018065408,-0.9693978,-0.19396853,-0.15047932,-0.17997782,0.14464775,0.97297746,-0.16696052,0.9702852,-0.17513135,,0.05788053,-0.02503968,0.031862557,-0.38998473,-0.52568394,0.75602126,-0.60040754,0.76766235,0.22406517,-0.69815654,-0.36653897,-0.6150012,,0.1067023,1.3421685,0.44153452,0.99560404,0.021025145,-0.09127171,-0.043596618,-0.7584492,-0.65027237,-0.08289703,0.65139294,-0.7541985,,-0.09037646,0.25369218,-0.08554215,0.9739627,0.12246037,0.19078813,-0.21644098,0.752668,0.6218072,-0.06745338,-0.6469114,0.759576,,-0.02520761,0.40095466,-0.37560168,0.48308668,0.49702385,-0.72082907,-0.8655012,0.14656408,-0.47898495,-0.13241929,0.8552697,0.50097793,,1.1286156277049182,0.3456849689160375,0.20724436375000002,0.8123388410590473,0.054244690406879854,0.9430180243114963,-0.40983026193090655,,-0.9007950079152952,-0.3128092950704638,0.18693409203000003,0.9001989273790632,0.3161768604572292,-0.1869238827115111,0.3515164303209689,,-0.04888449068679618,-0.07013605599139214,0.08219610256,-0.07424845330935166,,3.6217272e-05,-8.34465e-07,-2.1457672e-06,1.0,-5.0287694e-05,-4.3421984e-05,5.0280243e-05,1.0,-5.5134296e-06,4.3436885e-05,5.5134296e-06,1.0,81,0.245,0,0,0.0,False,-0.25880563669028556,0.5277991377358986
0.26160897099180147,17:00:18.759773,17:00:05.083157,0,,0.12049821,0.0024519712,0.018537924,-0.9682337,-0.20065665,-0.14919873,-0.17887226,0.13888142,0.97402084,-0.17472282,0.96976745,-0.17036176,,0.057898413,-0.02503372,0.031867087,-0.38985172,-0.5250426,0.75653535,-0.6003169,0.7678791,0.22356483,-0.69830877,-0.3670039,-0.614551,,0.1067023,1.3421685,0.44153452,0.99560404,0.021025145,-0.09127171,-0.043596618,-0.7584492,-0.65027237,-0.08289703,0.65139294,-0.7541985,,-0.090417705,0.25383264,-0.086045146,0.9734329,0.12900406,0.1891729,-0.22074734,0.74818546,0.6256909,-0.060819753,-0.6508275,0.75678563,,-0.025226165,0.40095982,-0.37559935,0.48295963,0.49640617,-0.72133964,-0.8655958,0.14621975,-0.47891927,-0.13226438,0.85568726,0.50030535,,1.1288704778897678,0.34547645512843345,0.20670899598000003,0.8094031818502639,0.06244288039280628,0.9473595800086871,-0.4096669178647724,,-0.9008954034426602,-0.3127938496047153,0.18694057348,0.9001989273790632,0.3163134969569946,-0.187688730536332,0.35282318285004316,,-0.04888449068679618,-0.07013605599139214,0.08219610256,-0.07424845330935166,,3.6217272e-05,-8.34465e-07,-2.1457672e-06,1.0,-5.0287694e-05,-4.3421984e-05,5.0280243e-05,1.0,-5.5134296e-06,4.3436885e-05,5.5134296e-06,1.0,89,0.269,0,0,0.0,False,-0.259282258438454,0.5289095823538257
0.2835045180108864,17:00:18.788986,17:00:05.083157,0,,0.12049103,0.00223279,0.018990144,-0.9669214,-0.20784627,-0.1478606,-0.17770086,0.13303658,0.9750507,-0.18298978,0.96907234,-0.16557047,,0.05792111,-0.025029816,0.03186816,-0.38984147,-0.5254056,0.7562886,-0.6005093,0.7676691,0.22376937,-0.698149,-0.36692384,-0.61478025,,0.1067023,1.3421685,0.44153452,0.99560404,0.021025145,-0.09127171,-0.043596618,-0.7584492,-0.65027237,-0.08289703,0.65139294,-0.7541985,,-0.09045161,0.2539652,-0.08652874,0.97279614,0.13605909,0.1874983,-0.22534037,0.7435421,0.62957674,-0.05375323,-0.65470076,0.7539745,,-0.025249094,0.40096048,-0.37559706,0.48295075,0.49677587,-0.7210911,-0.86556286,0.14621405,-0.47898057,-0.13251235,0.8554737,0.5006049,,1.1291639417389883,0.3452370504093325,0.2062267761,0.8066772125849652,0.07036779737920183,0.9516789352928489,-0.40934022973250384,,-0.901026689901522,-0.3127861268718411,0.18695094380000002,0.8999892374355786,0.31604022395746373,-0.18730253724865809,0.3531498709823117,,-0.04888449068679618,-0.07013605599139214,0.08219610256,-0.07424845330935166,,3.6217272e-05,-8.34465e-07,-2.1457672e-06,1.0,-5.0287694e-05,-4.3421984e-05,5.0280243e-05,1.0,-5.5134296e-06,4.3436885e-05,5.5134296e-06,1.0,101,0.306,0,0,0.0,False,-0.2589247921273281,0.5295855051647385
0.31274272000882775,17:00:18.821437,17:00:05.083157,0,,0.1203931,0.0020449609,0.019456714,-0.96470934,-0.21769345,-0.14814003,-0.17913128,0.13021988,0.9751691,-0.19299713,0.96729124,-0.16462013,,0.0579447,-0.025004879,0.031865954,-0.38995898,-0.5257968,0.755956,-0.6005749,0.767537,0.224046,-0.698027,-0.36663955,-0.61508846,,0.10676028,1.3421637,0.44154006,0.9956012,0.020975273,-0.09131447,-0.043662082,-0.75845057,-0.65026635,-0.08289703,0.65139294,-0.7541985,,-0.09044391,0.2541291,-0.08700053,0.9713104,0.1459401,0.18777025,-0.23311174,0.7405325,0.63029397,-0.047064815,-0.65598255,0.7533072,,-0.025327813,0.4009601,-0.37556985,0.48301432,0.49719644,-0.7207585,-0.8655069,0.14640479,-0.47902352,-0.13264629,0.85519665,0.50104254,,1.1296659193758127,0.3449667547587346,0.20572770445000002,0.8003865142804295,0.07924916986395546,0.9521145731257943,-0.4083601653356982,,-0.9011502536275096,-0.3127938496047153,0.18695483267000002,0.8999892374355786,0.3157669509579329,-0.186752986480703,0.35380324724684886,,-0.04888449068679618,-0.07013605599139214,0.08219610256,-0.07424845330935166,,9.3694776e-05,7.56979e-06,-8.583069e-06,1.0,-9.987876e-05,-8.626282e-05,9.987876e-05,1.0,-1.0997057e-05,8.626282e-05,1.0937452e-05,1.0,109,0.33,0,0,0.0,False,-0.25820985950507547,0.530695949782666
0.3451946790155489,17:00:18.843271,17:00:05.083157,0,,0.12028588,0.0018792301,0.019860417,-0.9632005,-0.22334117,-0.14954387,-0.18033895,0.12443942,0.97570115,-0.19930506,0.9667645,-0.16013741,,0.05796225,-0.025002107,0.0318743,-0.38982654,-0.5255768,0.7561773,-0.6004877,0.76762736,0.22397009,-0.69817597,-0.3667658,-0.6148441,,0.10676028,1.3421637,0.44154006,0.9956012,0.020975273,-0.09131447,-0.043662082,-0.75845057,-0.65026635,-0.08289703,0.65139294,-0.7541985,,-0.09037288,0.25427297,-0.08742028,0.9702597,0.15144683,0.1888382,-0.23821343,0.73600215,0.6336838,-0.043015912,-0.6598217,0.75018996,,-0.0253461,0.4009668,-0.37557223,0.48288783,0.4969809,-0.7209919,-0.86560047,0.14632317,-0.47887933,-0.13249607,0.8553359,0.5008446,,1.1304073017317384,0.3446501227108914,0.20529474359000002,0.7959830254672544,0.0851245393538694,0.9562265859421695,-0.4081968212695638,,-0.9012583718877487,-0.3127938496047153,0.18695742525000003,0.8999892374355786,0.3159035874576983,-0.18694608312453992,0.3549466557097888,,-0.04888449068679618,-0.07013605599139214,0.08219610256,-0.07424845330935166,,9.3694776e-05,7.56979e-06,-8.583069e-06,1.0,-9.987876e-05,-8.626282e-05,9.987876e-05,1.0,-1.0997057e-05,8.626282e-05,1.0937452e-05,1.0,124,0.375,0,0,0.0,False,-0.25952056931253775,0.5309856309873426
0.3670329070009757,17:00:18.890631,17:00:05.243760,0,,0.12004466,0.0016747266,0.020372644,-0.96096534,-0.23077136,-0.1526107,-0.18341735,0.11842254,0.97587615,-0.2071317,0.96577466,-0.15612757,,0.057968874,-0.02500172,0.031881332,-0.3898044,-0.52560645,0.75616807,-0.6004689,0.767625,0.22402862,-0.69820446,-0.3667282,-0.6148341,,0.10676028,1.3421637,0.44154006,0.9956012,0.020975273,-0.09131447,-0.043662082,-0.75845057,-0.65026635,-0.08289703,0.65139294,-0.7541985,,-0.090177774,0.254463,-0.08795714,0.96854985,0.15875913,0.19159003,-0.24574365,0.73104227,0.6365432,-0.039003365,-0.66360587,0.7470649,,-0.02535325,0.40097228,-0.37557575,0.48286667,0.49700776,-0.72098756,-0.8656169,0.14635673,-0.47883925,-0.13246544,0.85531455,0.5008891,,1.13183600731347,0.3440091358823308,0.20474641292,0.7888535673887807,0.0922296373416723,0.9597442313259796,-0.4081968212695636,,-0.9013124310178683,-0.3127938496047153,0.18695483267000002,0.8999892374355786,0.3159035874576983,-0.18686440438439939,0.3557633760404602,,-0.04888449068679618,-0.07013605599139214,0.08219610256,-0.07424845330935166,,9.3694776e-05,7.56979e-06,-8.583069e-06,1.0,-9.987876e-05,-8.626282e-05,9.987876e-05,1.0,-1.0997057e-05,8.626282e-05,1.0937452e-05,1.0,132,0.4,0,0,0.0,False,-0.25815028178655464,0.5332065202231977
0.41437318999669515,17:00:18.918667,17:00:05.243760,0,,0.119906574,0.0015970618,0.020582333,-0.95978487,-0.23478901,-0.15390629,-0.1851389,0.1172466,0.975693,-0.21103697,0.9649495,-0.15600017,,0.05797049,-0.02500084,0.031882882,-0.38971308,-0.52581656,0.7560691,-0.6004167,0.7675759,0.2243366,-0.6983004,-0.3665297,-0.6148435,,0.10676028,1.3421637,0.44154006,0.9956012,0.020975273,-0.09131447,-0.043662082,-0.75845057,-0.65026635,-0.08289703,0.65139294,-0.7541985,,-0.09005853,0.2545465,-0.088175945,0.9676264,0.16279383,0.19286624,-0.24964266,0.72973365,0.6365276,-0.037118215,-0.6640685,0.74674976,,-0.025355032,0.40097386,-0.37557587,0.48277947,0.49720505,-0.72090995,-0.86567986,0.14652008,-0.4786755,-0.13237211,0.8551719,0.5011573,,1.1326391715323894,0.34364616743724224,0.20452474733000003,0.7850791484060592,0.09578218633557375,0.9595427642545112,-0.41032029412930926,,-0.9013201537507425,-0.3127938496047153,0.18695483267000002,0.8999892374355786,0.31604022395746373,-0.18656742858739303,0.35788684890020583,,-0.04888449068679618,-0.07013605599139214,0.08219610256,-0.07424845330935166,,9.3694776e-05,7.56979e-06,-8.583069e-06,1.0,-9.987876e-05,-8.626282e-05,9.987876e-05,1.0,-1.0997057e-05,8.626282e-05,1.0937452e-05,1.0,140,0.424,0,0,0.0,False,-0.25815028178655464,0.5342686846403457
0.4424310229951516,17:00:18.939953,17:00:05.243760,0,,0.11968665,0.0014921278,0.020880997,-0.95649934,-0.2445726,-0.15903847,-0.19093342,0.11262953,0.97512007,-0.22057517,0.9630674,-0.15442723,,0.057973295,-0.024999842,0.03188604,-0.38944715,-0.5256499,0.75632197,-0.6002683,0.76766187,0.22443952,-0.6985763,-0.36658883,-0.6144948,,0.10676028,1.3421637,0.44154006,0.9956012,0.020975273,-0.09131447,-0.043662082,-0.75845057,-0.65026635,-0.08289703,0.65139294,-0.7541985,,-0.08986534,0.2546704,-0.088485606,0.9649254,0.1725598,0.19784352,-0.26037428,0.7253108,0.6372829,-0.033528626,-0.6664438,0.7448009,,-0.025358137,0.40097678,-0.37557676,0.48252562,0.4970377,-0.7211952,-0.86586213,0.14649825,-0.47835246,-0.13210537,0.85527295,0.50105524,,1.133967481586756,0.3429974578758074,0.20421363773,0.7745946512318329,0.10316055732290753,0.9607956053274145,-0.4088501975341011,,-0.9013278764836168,-0.31280157233758954,0.18695483267000002,0.8999892374355786,0.3164501334567601,-0.18673832481820113,0.3582135370324744,,-0.04888449068679618,-0.07013605599139214,0.08219610256,-0.07424845330935166,,9.3694776e-05,7.56979e-06,-8.583069e-06,1.0,-9.987876e-05,-8.626282e-05,9.987876e-05,1.0,-1.0997057e-05,8.626282e-05,1.0937452e-05,1.0,148,0.449,0,0,0.0,False,-0.2590439475643693,0.5341721242387871
0.46369396601221524,17:00:18.964951,17:00:05.243760,0,,0.11955017,0.0014331192,0.02104801,-0.95344985,-0.25304657,-0.16401455,-0.19643268,0.10850704,0.974495,-0.22879586,0.96134996,-0.15316278,,0.057970814,-0.02499871,0.03188479,-0.38945162,-0.52572405,0.75626814,-0.60027057,0.76763934,0.22451049,-0.6985718,-0.36652958,-0.6145352,,0.10676028,1.3421637,0.44154006,0.9956012,0.020975273,-0.09131447,-0.043662082,-0.75845057,-0.65026635,-0.08289703,0.65139294,-0.7541985,,-0.08974388,0.25473988,-0.08866006,0.9623663,0.1810218,0.20268758,-0.2700103,0.72132957,0.6377916,-0.030750362,-0.6685169,0.743061,,-0.02535565,0.40097657,-0.3755751,0.48252988,0.49710858,-0.72114354,-0.8658591,0.14654402,-0.4783439,-0.13210958,0.8552239,0.50113785,,1.1348169822029206,0.3425263711704797,0.20404123116000003,0.7651586037750293,0.10903592681282148,0.9619671834987295,-0.40803347720342953,,-0.9013124310178683,-0.3127938496047153,0.18695483267000002,0.8999892374355786,0.3164501334567601,-0.18665664607806057,0.35837688109860866,,-0.04888449068679618,-0.07013605599139214,0.08219610256,-0.07424845330935166,,9.3694776e-05,7.56979e-06,-8.583069e-06,1.0,-9.987876e-05,-8.626282e-05,9.987876e-05,1.0,-1.0997057e-05,8.626282e-05,1.0937452e-05,1.0,156,0.474,0,0,0.0,False,-0.2574949268828224,0.5343652450419047
0.4886385810095817,17:00:19.001719,17:00:05.360386,0,,0.11926614,0.0012893081,0.02134633,-0.94820917,-0.26740894,-0.17144011,-0.20566328,0.10551098,0.9729184,-0.24207821,0.95778906,-0.15504283,,0.057971712,-0.024997234,0.031885624,-0.38944662,-0.52578455,0.7562287,-0.6002648,0.7676236,0.2245796,-0.6985796,-0.36647576,-0.61455846,,0.10676028,1.3421637,0.44154006,0.9956012,0.020975273,-0.09131447,-0.043662082,-0.75845057,-0.65026635,-0.08289703,0.65139294,-0.7541985,,-0.089487895,0.2548362,-0.088999964,0.9579092,0.19552626,0.21018884,-0.28584874,0.71715915,0.63558894,-0.026464518,-0.6689187,0.7428643,,-0.02535671,0.40097794,-0.3755743,0.48252508,0.49716574,-0.72110736,-0.86586314,0.14658742,-0.47832328,-0.13210067,0.85518324,0.50120956,,1.1364001424421366,0.34145291130096245,0.20371586237000003,0.74943185801369,0.11873711829616776,0.9598557028862634,-0.40917688566636934,,-0.9013201537507425,-0.3127861268718411,0.18695483267000002,0.8999892374355786,0.3164501334567601,-0.18657496733792,0.35854022516474293,,-0.04888449068679618,-0.07013605599139214,0.08219610256,-0.07424845330935166,,9.3694776e-05,7.56979e-06,-8.583069e-06,1.0,-9.987876e-05,-8.626282e-05,9.987876e-05,1.0,-1.0997057e-05,8.626282e-05,1.0937452e-05,1.0,167,0.506,0,0,0.0,False,-0.25856732581620134,0.5334479212270953
0.5254720340017229,17:00:19.023053,17:00:05.360386,0,,0.11912501,0.0012052208,0.021487206,-0.9460863,-0.2723943,-0.17527658,-0.20989504,0.103408545,0.9722401,-0.2467075,0.9566128,-0.15500778,,0.05797758,-0.024998024,0.031888902,-0.38943264,-0.52569664,0.756297,-0.6002545,0.7676529,0.22450691,-0.69859624,-0.3665404,-0.61450094,,0.10676028,1.3421637,0.44154006,0.9956012,0.020975273,-0.09131447,-0.043662082,-0.75845057,-0.65026635,-0.08289703,0.65139294,-0.7541985,,-0.08936048,0.2548697,-0.08917165,0.956032,0.20052645,0.21399055,-0.29214153,0.714951,0.6352153,-0.025615294,-0.66980165,0.7420981,,-0.025362745,0.40097973,-0.37557682,0.48251173,0.49708113,-0.7211746,-0.8658732,0.14653926,-0.4783198,-0.13208334,0.85524064,0.50111616,,1.137095188400817,0.34091231999976673,0.20355382612000003,0.7429314697656698,0.12187975779077288,0.9599884895258843,-0.40721675687275816,,-0.9013587674151137,-0.3127938496047153,0.18695483267000002,0.8999892374355786,0.3164501334567601,-0.18665664607806054,0.3587035692308772,,-0.04888449068679618,-0.07013605599139214,0.08219610256,-0.07424845330935166,,9.3694776e-05,7.56979e-06,-8.583069e-06,1.0,-9.987876e-05,-8.626282e-05,9.987876e-05,1.0,-1.0997057e-05,8.626282e-05,1.0937452e-05,1.0,175,0.531,0,0,0.0,False,-0.2584481703791588,0.5335444816286543
0.546776019007666,17:00:19.048742,17:00:05.360386,0,,0.11903055,0.001119554,0.021647424,-0.94295913,-0.28168637,-0.17742828,-0.21347396,0.102662325,0.97153974,-0.25545424,0.95399857,-0.15693927,,0.05798106,-0.024996504,0.031891704,-0.389204,-0.5257761,0.75635946,-0.60033876,0.7675496,0.22463518,-0.6986512,-0.36664307,-0.61437726,,0.10676028,1.3421637,0.44154006,0.9956012,0.020975273,-0.09131447,-0.043662082,-0.75845057,-0.65026635,-0.08289703,0.65139294,-0.7541985,,-0.08928113,0.25491336,-0.089355305,0.95348996,0.20996796,0.21626441,-0.30068007,0.7129461,0.63348186,-0.021173978,-0.66904503,0.7429202,,-0.025366522,0.40098253,-0.37557706,0.4822944,0.49717525,-0.72125506,-0.8659871,0.14640628,-0.47815424,-0.13213018,0.85520875,0.5011583,,1.1377130070307548,0.34037945143144527,0.20337882697,0.7349632519132578,0.1289848557785758,0.9576252656195741,-0.4093402297325036,,-0.9013819356137364,-0.3127938496047153,0.18695483267000002,0.899779547492094,0.3165867699565255,-0.1866863852416164,0.35854022516474293,,-0.04888449068679618,-0.07013605599139214,0.08219610256,-0.07424845330935166,,9.3694776e-05,7.56979e-06,-8.583069e-06,1.0,-9.987876e-05,-8.626282e-05,9.987876e-05,1.0,-1.0997057e-05,8.626282e-05,1.0937452e-05,1.0,183,0.556,0,0,0.0,False,-0.25880563669028556,0.5324823172115059
0.5725009810121264,17:00:19.072246,17:00:05.360386,0,,0.11892511,0.0009814054,0.02190864,-0.93781376,-0.29721713,-0.17935236,-0.21662097,0.09733197,0.97139174,-0.27125752,0.949836,-0.15566283,,0.05798418,-0.024997428,0.031891823,-0.38919953,-0.52601075,0.7561985,-0.6003365,0.7674803,0.22487772,-0.6986556,-0.36645135,-0.61448646,,0.10676028,1.3421637,0.44154006,0.9956012,0.020975273,-0.09131447,-0.043662082,-0.75845057,-0.65026635,-0.08289703,0.65139294,-0.7541985,,-0.089200094,0.25498426,-0.08964998,0.9494936,0.22561769,0.21807927,-0.31359336,0.7066574,0.6342669,-0.011005498,-0.67062056,0.7417189,,-0.025369573,0.40098184,-0.375578,0.48229012,0.49739888,-0.7211037,-0.86599016,0.14655578,-0.47810295,-0.13212597,0.85505307,0.50142497,,1.1385779531126679,0.3395531190139032,0.20309882833,0.7236399949650936,0.14305841525441615,0.9578292813789431,-0.4081968212695638,,-0.9013973810794847,-0.31280157233758954,0.18695612896000002,0.899779547492094,0.3165867699565255,-0.18635967028105413,0.3582135370324744,,-0.04888449068679618,-0.07013605599139214,0.08219610256,-0.07424845330935166,,9.3694776e-05,7.56979e-06,-8.583069e-06,1.0,-9.987876e-05,-8.626282e-05,9.987876e-05,1.0,-1.0997057e-05,8.626282e-05,1.0937452e-05,1.0,191,0.58,0,0,0.0,False,-0.25880563669028556,0.5329651192193006
0.5960070939909201,17:00:19.105257,17:00:05.360386,0,,0.118823156,0.000819996,0.02222456,-0.9323471,-0.31265146,-0.18159822,-0.22026275,0.09284213,0.97101223,-0.28672835,0.9453198,-0.15542668,,0.057985462,-0.02499704,0.031889617,-0.38919953,-0.5260725,0.7561556,-0.6003365,0.76746196,0.22494036,-0.6986556,-0.3664012,-0.6145165,,0.10676028,1.3421637,0.44154006,0.9956012,0.020975273,-0.09131447,-0.043662082,-0.75845057,-0.65026635,-0.08289703,0.65139294,-0.7541985,,-0.08912741,0.25507352,-0.09000073,0.94513744,0.24122222,0.22028863,-0.32667005,0.700766,0.6342032,-0.0013868931,-0.67137086,0.7411203,,-0.025370704,0.40098006,-0.3755765,0.48229012,0.49745777,-0.7210631,-0.86599016,0.14659482,-0.478091,-0.13212597,0.8550121,0.50149477,,1.13940428553021,0.3387576775278581,0.20276049664,0.7118973581299601,0.15658542873119474,0.9569270726904271,-0.40656338060822117,,-0.9013973810794847,-0.31280157233758954,0.18695872154,0.899779547492094,0.3165867699565255,-0.1862779915409136,0.3580501929663401,,-0.04888449068679618,-0.07013605599139214,0.08219610256,-0.07424845330935166,,9.3694776e-05,7.56979e-06,-8.583069e-06,1.0,-9.987876e-05,-8.626282e-05,9.987876e-05,1.0,-1.0997057e-05,8.626282e-05,1.0937452e-05,1.0,203,0.617,0,0,0.0,False,-0.2587460589717643,0.5324823172115059
0.6290118930046447,17:00:19.139511,17:00:05.503367,0,,0.118728876,0.00067447126,0.022597313,-0.92634124,-0.327822,-0.18553859,-0.22557205,0.088291496,0.97021747,-0.3016771,0.9406048,-0.15573567,,0.057991654,-0.024994582,0.0318892,-0.389185,-0.5260575,0.75617343,-0.60032266,0.7674714,0.22494507,-0.69867563,-0.36640295,-0.61449265,,0.10676028,1.3421637,0.44154006,0.9956012,0.020975273,-0.09131447,-0.043662082,-0.75845057,-0.65026635,-0.08289703,0.65139294,-0.7541985,,-0.08906632,0.25521186,-0.09038299,0.9401567,0.25657755,0.22421719,-0.34067485,0.6946904,0.6335187,0.0067851353,-0.671992,0.74052733,,-0.025377007,0.40098035,-0.37557432,0.48227623,0.4974423,-0.72108305,-0.86600125,0.14659676,-0.4780703,-0.13210395,0.85502076,0.5014858,,1.1402383406806262,0.3381861952951655,0.20237809109000002,0.6986868916904352,0.16874607721031895,0.955505468236064,-0.40656338060822106,,-0.9014282720109816,-0.3127938496047153,0.18696261041,0.899779547492094,0.3165867699565255,-0.1862779915409136,0.3580501929663401,,-0.04888449068679618,-0.07013605599139214,0.08219610256,-0.07424845330935166,,9.3694776e-05,7.56979e-06,-8.583069e-06,1.0,-9.987876e-05,-8.626282e-05,9.987876e-05,1.0,-1.0997057e-05,8.626282e-05,1.0937452e-05,1.0,214,0.65,0,0,0.0,False,-0.2588652144088064,0.5336893222309924
0.6632732470170595,17:00:19.171935,17:00:05.503367,0,,0.11871755,0.0005518049,0.023072332,-0.91770536,-0.3504768,-0.18703711,-0.22811794,0.079454064,0.9703862,-0.32523692,0.9331951,-0.15286562,,0.058005102,-0.024992198,0.031891465,-0.3890224,-0.5261373,0.7562017,-0.60043776,0.7673619,0.22501133,-0.6986673,-0.3665177,-0.61443377,,0.10676028,1.3421637,0.44154006,0.9956012,0.020975273,-0.09131447,-0.043662082,-0.75845057,-0.65026635,-0.08289703,0.65139294,-0.7541985,,-0.08909516,0.2554322,-0.09082056,0.93329734,0.2794793,0.2254938,-0.3583395,0.68383783,0.6355774,0.023429513,-0.673986,0.7383725,,-0.025390722,0.40098217,-0.37557375,0.4821219,0.49753806,-0.7211202,-0.8660711,0.14645043,-0.47798857,-0.13220915,0.8549901,0.5015103,,1.1411110094954136,0.3377768904528316,0.20193087104000002,0.6831698358725804,0.18992473467396223,0.9556332648130585,-0.4090135416002354,,-0.9015054993397239,-0.3127938496047153,0.18696779557,0.8995698575486094,0.3165867699565255,-0.18627799154091362,0.35772350483407156,,-0.04888449068679618,-0.07013605599139214,0.08219610256,-0.07424845330935166,,9.3694776e-05,7.56979e-06,-8.583069e-06,1.0,-9.987876e-05,-8.626282e-05,9.987876e-05,1.0,-1.0997057e-05,8.626282e-05,1.0937452e-05,1.0,222,0.674,0,0,0.0,False,-0.25975888018662197,0.5341721242387871
0.6956674999964889,17:00:19.191104,17:00:05.503367,0,,0.118667245,0.0004760027,0.023400366,-0.91288006,-0.36207467,-0.18855196,-0.22934374,0.07277745,0.97062093,-0.33771485,0.9293037,-0.14947677,,0.058020294,-0.024991453,0.031894505,-0.38898945,-0.52602184,0.7562989,-0.6004113,0.767405,0.224935,-0.6987083,-0.36659315,-0.614342,,0.10676028,1.3421637,0.44154006,0.9956012,0.020975273,-0.09131447,-0.043662082,-0.75845057,-0.65026635,-0.08289703,0.65139294,-0.7541985,,-0.08907248,0.25559232,-0.091120094,0.92941725,0.29115063,0.2267485,-0.36761037,0.6765971,0.63802737,0.032344688,-0.67634875,0.735871,,-0.025406111,0.40098357,-0.37557504,0.4820904,0.497426,-0.7212185,-0.8660953,0.14639753,-0.47796097,-0.1321656,0.8550644,0.50139517,,1.141844669118465,0.33753748573373066,0.20162235402000003,0.6747822381331994,0.20140220065425923,0.9573824695616755,-0.40803347720342953,,-0.9015904494013404,-0.31280157233758954,0.18697298073000002,0.8995698575486094,0.3165867699565255,-0.18635967028105413,0.3588669132970115,,-0.04888449068679618,-0.07013605599139214,0.08219610256,-0.07424845330935166,,9.3694776e-05,7.56979e-06,-8.583069e-06,1.0,-9.987876e-05,-8.626282e-05,9.987876e-05,1.0,-1.0997057e-05,8.626282e-05,1.0937452e-05,1.0,230,0.699,0,0,0.0,False,-0.25880563669028556,0.5354756896598323
0.7148563349910546,17:00:19.212316,17:00:05.503367,0,,0.11856328,0.0003645867,0.02382049,-0.9058015,-0.37844914,-0.19052525,-0.23330711,0.07014203,0.9698701,-0.35368264,0.92296064,-0.15182975,,0.058042273,-0.024988085,0.031900525,-0.3888047,-0.5262549,0.7562318,-0.6005076,0.76725626,0.2251851,-0.69872844,-0.36657003,-0.614333,,0.10676028,1.3421637,0.44154006,0.9956012,0.020975273,-0.09131447,-0.043662082,-0.75845057,-0.65026635,-0.08289703,0.65139294,-0.7541985,,-0.08900443,0.25578776,-0.091516174,0.9234839,0.30788535,0.22887565,-0.3813038,0.6709285,0.6359736,0.04224775,-0.6745825,0.73698956,,-0.02542867,0.4009882,-0.37557578,0.4819149,0.49766642,-0.72117,-0.8661816,0.14636269,-0.47781524,-0.13224022,0.85493046,0.50160384,,1.1428795153236109,0.3370818444941514,0.20122050412000003,0.6615717716936743,0.21520248713056872,0.9527452392397225,-0.4078701331372955,,-0.9017217358602022,-0.31280157233758954,0.18697946218000003,0.8993601676051249,0.3165867699565255,-0.18611463406063247,0.3596836336276829,,-0.04888449068679618,-0.07013605599139214,0.08219610256,-0.07424845330935166,,9.3694776e-05,7.56979e-06,-8.583069e-06,1.0,-9.987876e-05,-8.626282e-05,9.987876e-05,1.0,-1.0997057e-05,8.626282e-05,1.0937452e-05,1.0,238,0.723,0,0,0.0,False,-0.2587460589717643,0.5356688104629503
0.7360410199908074,17:00:19.242346,17:00:05.503367,0,,0.11849508,0.00028516352,0.024145544,-0.9004463,-0.38958195,-0.19344829,-0.23642027,0.065047115,0.9694712,-0.3651052,0.9186919,-0.15067664,,0.05806626,-0.02498509,0.031909227,-0.38874453,-0.52629143,0.7562373,-0.6004566,0.76726276,0.22529905,-0.69880575,-0.366504,-0.61428446,,0.10676028,1.3421637,0.44154006,0.9956012,0.020975273,-0.09131447,-0.043662082,-0.75845057,-0.65026635,-0.08289703,0.65139294,-0.7541985,,-0.088963784,0.25594375,-0.09181723,0.9189412,0.3191668,0.23168859,-0.3913173,0.6646166,0.6365183,0.049171448,-0.67558664,0.7356391,,-0.025453398,0.40099466,-0.37557828,0.4818574,0.4976973,-0.7211871,-0.86622626,0.1464256,-0.477715,-0.13215719,0.85490173,0.5016747,,1.1436054522137882,0.33681927157642777,0.20091198710000002,0.6517163443499017,0.22490367861391497,0.9524306909103488,-0.40966691786477216,,-0.9018684677848124,-0.31280157233758954,0.18698464734000003,0.8993601676051249,0.3165867699565255,-0.18595127658035135,0.36001032175995146,,-0.04888449068679618,-0.07013605599139214,0.08219610256,-0.07424845330935166,,9.3694776e-05,7.56979e-06,-8.583069e-06,1.0,-9.987876e-05,-8.626282e-05,9.987876e-05,1.0,-1.0997057e-05,8.626282e-05,1.0937452e-05,1.0,261,0.793,0,0,0.0,False,-0.259282258438454,0.535958491667627
0.7661078209930565,17:00:19.308201,17:00:05.640360,0,,0.11838688,0.00018185377,0.02518475,-0.87604964,-0.43710968,-0.20364706,-0.24354047,0.036554813,0.9692017,-0.41620314,0.89866513,-0.13847789,,0.05809942,-0.024980873,0.031920493,-0.38866216,-0.5262342,0.75631946,-0.60038686,0.76730347,0.22534618,-0.6989115,-0.36650077,-0.614166,,0.10676028,1.3421637,0.44154006,0.9956012,0.020975273,-0.09131447,-0.043662082,-0.75845057,-0.65026635,-0.08289703,0.65139294,-0.7541985,,-0.088939086,0.2565525,-0.0926723,0.89837176,0.36727875,0.2409035,-0.4310011,0.6314096,0.64463943,0.084653616,-0.68295556,0.7255381,,-0.025487533,0.40100303,-0.37558132,0.48177862,0.49763727,-0.7212812,-0.8662874,0.14644392,-0.47759852,-0.13204359,0.8549335,0.50165045,,1.1460690040006656,0.3362400666108609,0.20003310248000003,0.6129237048052647,0.27067690603533756,0.9569252081240156,-0.4096669178647723,,-0.9020692588395423,-0.31280157233758954,0.18699242508000002,0.8993601676051249,0.3165867699565255,-0.18586959784021076,0.3605003539583543,,-0.04888449068679618,-0.07013605599139214,0.08219610256,-0.07424845330935166,,9.3694776e-05,7.56979e-06,-8.583069e-06,1.0,-9.987876e-05,-8.626282e-05,9.987876e-05,1.0,-1.0997057e-05,8.626282e-05,1.0937452e-05,1.0,269,0.818,0,0,0.0,False,-0.259282258438454,0.5354274094590532
0.831962463009404,17:00:19.335324,17:00:05.640360,0,,0.11833568,0.00017492473,0.025420979,-0.86777294,-0.45279896,-0.2048001,-0.24661551,0.034580827,0.9684963,-0.43145192,0.8909418,-0.14167568,,0.058102086,-0.024979115,0.03192091,-0.38865396,-0.52622837,0.7563278,-0.6003784,0.7673084,0.22535205,-0.6989233,-0.36649898,-0.6141537,,0.10676028,1.3421637,0.44154006,0.9956012,0.020975273,-0.09131447,-0.043662082,-0.75845057,-0.65026635,-0.08289703,0.65139294,-0.7541985,,-0.0889065,0.25670412,-0.09285783,0.8912139,0.38345578,0.24227966,-0.4435886,0.625311,0.64203995,0.0946938,-0.6796674,0.7273825,,-0.025490342,0.40100405,-0.37558007,0.48177078,0.49763095,-0.72129077,-0.8662938,0.14644745,-0.47758585,-0.13203031,0.8549366,0.5016487,,1.1468103863565913,0.3359543254945146,0.19985032559000002,0.5999229283092242,0.2840672830123507,0.9506619417497784,-0.40983026193090655,,-0.9020847043052908,-0.3127938496047153,0.18699372137000003,0.8993601676051249,0.3165867699565255,-0.1858695978402108,0.36082704209062283,,-0.04888449068679618,-0.07013605599139214,0.08219610256,-0.07424845330935166,,9.3694776e-05,7.56979e-06,-8.583069e-06,1.0,-9.987876e-05,-8.626282e-05,9.987876e-05,1.0,-1.0997057e-05,8.626282e-05,1.0937452e-05,1.0,277,0.842,0,0,0.0,False,-0.2590439475643693,0.5361033322699655
0.859085848001996,17:00:19.362899,17:00:05.640360,0,,0.1183199,0.00018021464,0.025539935,-0.8600867,-0.4654325,-0.20886219,-0.2516031,0.030853003,0.9673387,-0.44378677,0.88454556,-0.14364064,,0.05810363,-0.024977416,0.03192067,-0.3886489,-0.526227,0.7563312,-0.6003726,0.76731104,0.22535846,-0.6989311,-0.36649534,-0.61414695,,0.10676028,1.3421637,0.44154006,0.9956012,0.020975273,-0.09131447,-0.043662082,-0.75845057,-0.65026635,-0.08289703,0.65139294,-0.7541985,,-0.08889981,0.2567868,-0.09294472,0.8843657,0.3964356,0.24644719,-0.45568234,0.6186739,0.639997,0.10124715,-0.67829305,0.72778267,,-0.02549197,0.40100455,-0.37557852,0.48176596,0.4976292,-0.7212952,-0.86629784,0.14645177,-0.47757718,-0.1320214,0.8549369,0.5016506,,1.1471501866030571,0.33571492077541365,0.19976995561000002,0.5869221518131837,0.2936318379959315,0.9469466254980567,-0.40868685346796674,,-0.902092427038165,-0.3127861268718411,0.18699501766,0.8993601676051249,0.3165867699565255,-0.1858695978402108,0.36082704209062283,,-0.04888449068679618,-0.07013605599139214,0.08219610256,-0.07424845330935166,,9.3694776e-05,7.56979e-06,-8.583069e-06,1.0,-9.987876e-05,-8.626282e-05,9.987876e-05,1.0,-1.0997057e-05,8.626282e-05,1.0937452e-05,1.0,285,0.867,0,0,0.0,False,-0.259580147031059,0.5357170906637294
0.8866235289897304,17:00:19.385766,17:00:05.640360,0,,0.11830443,0.00013707578,0.025644273,-0.85186905,-0.4778553,-0.21441422,-0.25519997,0.021203429,0.96665585,-0.45737523,0.87818265,-0.14001125,,0.058104,-0.024978459,0.031917572,-0.38865396,-0.52622837,0.7563278,-0.6003784,0.7673084,0.22535205,-0.6989233,-0.36649898,-0.6141537,,0.10676028,1.3421637,0.44154006,0.9956012,0.020975273,-0.09131447,-0.043662082,-0.75845057,-0.65026635,-0.08289703,0.65139294,-0.7541985,,-0.08889366,0.2568234,-0.09305248,0.8771237,0.40903625,0.25168106,-0.4675692,0.6075945,0.6420343,0.109695286,-0.6808218,0.72418827,,-0.025492039,0.40100136,-0.3755778,0.48177078,0.49763095,-0.72129077,-0.8662938,0.14644745,-0.47758585,-0.13203031,0.8549366,0.5016487,,1.1473973140550322,0.33517432947421794,0.19968699305,0.5743407552041122,0.30524594047599396,0.9491561635239615,-0.4083601653356982,,-0.9020847043052908,-0.3127938496047153,0.18699761024000003,0.8993601676051249,0.3165867699565255,-0.1858695978402108,0.36082704209062283,,-0.04888449068679618,-0.07013605599139214,0.08219610256,-0.07424845330935166,,9.3694776e-05,7.56979e-06,-8.583069e-06,1.0,-9.987876e-05,-8.626282e-05,9.987876e-05,1.0,-1.0997057e-05,8.626282e-05,1.0937452e-05,1.0,293,0.891,0,0,0.0,False,-0.25820985950507547,0.5348480470496995
0.9095156379917171,17:00:19.414297,17:00:05.759860,0,,0.11832379,0.000112220645,0.025718167,-0.8442534,-0.4898298,-0.21749228,-0.25868347,0.017021596,0.9658122,-0.4693815,0.8716519,-0.14108157,,0.05810438,-0.024979547,0.031914532,-0.38865903,-0.5262297,0.75632423,-0.6003841,0.7673058,0.22534555,-0.69891554,-0.36650258,-0.6141603,,0.10676028,1.3421637,0.44154006,0.9956012,0.020975273,-0.09131447,-0.043662082,-0.75845057,-0.65026635,-0.08289703,0.65139294,-0.7541985,,-0.08891936,0.2568527,-0.09312271,0.8703628,0.42135692,0.2548076,-0.47831246,0.6005076,0.6407868,0.116986066,-0.6795947,0.7241998,,-0.02549211,0.4009982,-0.37557712,0.4817756,0.4976327,-0.7212863,-0.86628973,0.14644313,-0.4775945,-0.1320392,0.8549363,0.5016468,,1.1474436504522776,0.33480363829625515,0.19963643774000003,0.5628078083124634,0.31522040495887116,0.9463317746632592,-0.40983026193090655,,-0.9020769815724166,-0.31280157233758954,0.18700020282000002,0.8993601676051249,0.3165867699565255,-0.18586959784021076,0.3605003539583543,,-0.04888449068679618,-0.07013605599139214,0.08219610256,-0.07424845330935166,,9.3694776e-05,7.56979e-06,-8.583069e-06,1.0,-9.987876e-05,-8.626282e-05,9.987876e-05,1.0,-1.0997057e-05,8.626282e-05,1.0937452e-05,1.0,308,0.936,0,0,0.0,False,-0.25826943722359585,0.5375517382933492
0.9380319100164343,17:00:19.443661,17:00:05.759860,0,,0.11832547,7.273257e-05,0.025795862,-0.8365552,-0.4998835,-0.22425829,-0.26466683,0.010321498,0.9642847,-0.4797153,0.86603117,-0.14093721,,0.058122594,-0.024992317,0.031914234,-0.39313143,-0.52324057,0.7560865,-0.5957713,0.7712889,0.22398648,-0.70036006,-0.36239865,-0.6149497,,0.10676028,1.3421637,0.44154006,0.9956012,0.020975273,-0.09131447,-0.043662082,-0.75845057,-0.65026635,-0.08289703,0.65139294,-0.7541985,,-0.08892814,0.256874,-0.09320677,0.86332023,0.43162215,0.26149663,-0.48984045,0.5920662,0.63993275,0.12138581,-0.6805585,0.72256875,,-0.02550931,0.4009894,-0.37558815,0.48601136,0.49406862,-0.7208947,-0.86463505,0.15169829,-0.47895077,-0.12727605,0.8560864,0.5009161,,1.1474436504522776,0.33442522438541816,0.19956903066,0.5498070318164229,0.3224621394464394,0.9458991013567666,-0.4095035737986381,,-0.9021001497710393,-0.3127938496047153,0.18700668427000003,0.9062799357401142,0.3163134969569946,-0.18433990219056895,0.3627871708842342,,-0.04888449068679618,-0.07013605599139214,0.08219610256,-0.07424845330935166,,9.3694776e-05,7.56979e-06,-8.583069e-06,1.0,-9.987876e-05,-8.626282e-05,9.987876e-05,1.0,-1.0997057e-05,8.626282e-05,1.0937452e-05,1.0,316,0.961,0,0,0.0,False,-0.25773323775690704,0.5391932651198506
0.9674237930157688,17:00:19.475293,17:00:05.759860,0,,0.118333414,9.228289e-05,0.025928617,-0.82286257,-0.5154982,-0.23907875,-0.27865887,-0.0006031394,0.9603901,-0.49522352,0.8568905,-0.14315203,,0.058122627,-0.024985194,0.031915903,-0.39199463,-0.5242427,0.7559826,-0.59642744,0.77047694,0.22503234,-0.7004388,-0.3626773,-0.6146956,,0.10676028,1.3421637,0.44154006,0.9956012,0.020975273,-0.09131447,-0.043662082,-0.75845057,-0.65026635,-0.08289703,0.65139294,-0.7541985,,-0.08894576,0.25697577,-0.093292795,0.85047776,0.44758257,0.27632844,-0.510978,0.5782951,0.6359845,0.12485619,-0.68208843,0.720532,,-0.025509967,0.40099454,-0.375583,0.48493254,0.49514338,-0.7208838,-0.8651615,0.15113844,-0.47817656,-0.12781271,0.85556424,0.5016709,,1.1474745413837746,0.3342784924608079,0.19948088294000002,0.5244345486547954,0.3307969659321313,0.9435132611988752,-0.4081968212695639,,-0.9021001497710393,-0.3127861268718411,0.18700798056,0.9050217960792071,0.31686004295605635,-0.18396878640394906,0.3647472996778455,,-0.04888449068679618,-0.07013605599139214,0.08219610256,-0.07424845330935166,,9.3694776e-05,7.56979e-06,-8.583069e-06,1.0,-9.987876e-05,-8.626282e-05,9.987876e-05,1.0,-1.0997057e-05,8.626282e-05,1.0937452e-05,1.0,324,0.986,0,0,0.0,False,-0.2591631030014119,0.539144984919071
0.9990537220146507,17:00:19.504915,17:00:05.759860,0,,0.11834891,0.00016590953,0.026091069,-0.8090939,-0.5305276,-0.2527994,-0.29220855,-0.010043651,0.9563019,-0.5098835,0.8476082,-0.14689857,,0.05812463,-0.024983943,0.031916678,-0.39194795,-0.5240519,0.756139,-0.5961857,0.7706517,0.22507462,-0.70067066,-0.3625818,-0.61448777,,0.10676028,1.3421637,0.44154006,0.9956012,0.020975273,-0.09131447,-0.043662082,-0.75845057,-0.65026635,-0.08289703,0.65139294,-0.7541985,,-0.08897168,0.25713757,-0.09336495,0.8375064,0.46301228,0.290177,-0.5312271,0.56553084,0.63085073,0.1279876,-0.6824914,0.7196003,,-0.025512105,0.40099564,-0.37558237,0.48488685,0.49493414,-0.7210582,-0.86523527,0.15129149,-0.47799456,-0.12748586,0.8556583,0.50159377,,1.1476135505755105,0.33447928351553774,0.19938755006000003,0.49948144538013706,0.3383119734192305,0.9391822087786645,-0.408850197534101,,-0.9021001497710393,-0.3127861268718411,0.18700927685000002,0.9054411759661761,0.31713331595558725,-0.18402826473106076,0.3647472996778455,,-0.04888449068679618,-0.07013605599139214,0.08219610256,-0.07424845330935166,,9.3694776e-05,7.56979e-06,-8.583069e-06,1.0,-9.987876e-05,-8.626282e-05,9.987876e-05,1.0,-1.0997057e-05,8.626282e-05,1.0937452e-05,1.0,332,1.01,0,0,0.0,False,-0.2589843698458485,0.5383242215058206
1.028647839993937,17:00:19.527406,17:00:05.897321,0,,0.11844574,0.0003877133,0.026444867,-0.7868756,-0.5592263,-0.2609457,-0.30012244,-0.022686481,0.9536309,-0.5392154,0.8287046,-0.1499851,,0.058138262,-0.0249978,0.031920433,-0.39584213,-0.52074,0.7563985,-0.5918911,0.7744377,0.22340767,-0.70212096,-0.3592714,-0.6147765,,0.10676028,1.3421637,0.44154006,0.9956012,0.020975273,-0.09131447,-0.043662082,-0.75845057,-0.65026635,-0.08289703,0.65139294,-0.7541985,,-0.089089245,0.2575343,-0.093476824,0.8174052,0.4927179,0.29845893,-0.55713165,0.5444352,0.6270523,0.14646834,-0.67883676,0.71953297,,-0.02552498,0.40099016,-0.3755964,0.48857015,0.4911231,-0.7211777,-0.8638114,0.15573981,-0.47913992,-0.1230006,0.85705495,0.5003275,,1.1481850328082033,0.33514343854272105,0.19924755074000003,0.469076403574881,0.3618134513788863,0.9298197781597475,-0.4086868534679666,,-0.9021078725039134,-0.3127938496047153,0.18701057314000002,0.9115221843272274,0.31713331595558725,-0.18337483480993624,0.3637672352810398,,-0.04888449068679618,-0.07013605599139214,0.08219610256,-0.07424845330935166,,9.3694776e-05,7.56979e-06,-8.583069e-06,1.0,-9.987876e-05,-8.626282e-05,9.987876e-05,1.0,-1.0997057e-05,8.626282e-05,1.0937452e-05,1.0,344,1.047,0,0,0.0,False,-0.25815028178655464,0.5390484245175124
1.0511519470019266,17:00:19.566352,17:00:05.897321,0,,0.118556276,0.0006029308,0.026823461,-0.7653021,-0.586372,-0.26548165,-0.30027676,-0.039581865,0.9530306,-0.56933874,0.8090743,-0.14578193,,0.058135428,-0.02499716,0.031918883,-0.39519945,-0.52162296,0.7561261,-0.5926145,0.7737089,0.22401471,-0.7018728,-0.35956088,-0.6148907,,0.10676028,1.3421637,0.44154006,0.9956012,0.020975273,-0.09131447,-0.043662082,-0.75845057,-0.65026635,-0.08289703,0.65139294,-0.7541985,,-0.08922259,0.257942,-0.09361056,0.798226,0.5208123,0.30263814,-0.5776958,0.51961416,0.6294988,0.17059562,-0.67731506,0.7156406,,-0.025522089,0.4009895,-0.37559497,0.4879626,0.49207437,-0.72094053,-0.8640466,0.15520234,-0.47889015,-0.123757906,0.8566067,0.50090814,,1.148833742369638,0.3357303662411621,0.19909977368,0.443494230469769,0.3903704798298634,0.925809618960368,-0.407706789071161,,-0.9021001497710393,-0.31280157233758954,0.18701057314000002,0.9104737346098049,0.31713331595558725,-0.18304811984937397,0.36442061154557703,,-0.04888449068679618,-0.07013605599139214,0.08219610256,-0.07424845330935166,,9.3694776e-05,7.56979e-06,-8.583069e-06,1.0,-9.987876e-05,-8.626282e-05,9.987876e-05,1.0,-1.0997057e-05,8.626282e-05,1.0937452e-05,1.0,381,1.162,0,0,0.0,False,-0.25815028178655464,0.5394346661237481
1.0901035360002425,17:00:19.675335,17:00:05.897321,0,,0.11876014,0.0012543052,0.028183073,-0.6964659,-0.6598168,-0.28209388,-0.3087304,-0.07935223,0.9478338,-0.64778143,0.7472249,-0.14843947,,0.05813696,-0.025003582,0.031917453,-0.3952528,-0.521884,0.755918,-0.5924398,0.77372897,0.22440705,-0.7019902,-0.3591385,-0.6150036,,0.10676028,1.3421637,0.44154006,0.9956012,0.020975273,-0.09131447,-0.043662082,-0.75845057,-0.65026635,-0.08289703,0.65139294,-0.7541985,,-0.089512415,0.25932032,-0.094185576,0.73544097,0.5976654,0.31925327,-0.63768345,0.45118618,0.6243323,0.22909918,-0.6627421,0.7129421,,-0.025523052,0.40098473,-0.37559968,0.4880124,0.49230054,-0.7207524,-0.8640487,0.15559638,-0.47875842,-0.12354656,0.85640526,0.5013046,,1.150857098382685,0.3381475816307944,0.19844514723,0.3585698033585366,0.4614214597078924,0.8971132980085501,-0.4096669178647725,,-0.902092427038165,-0.3128401860019607,0.18701186943,0.9106834245532892,0.3172699524553527,-0.1825061078319459,0.3647472996778456,,-0.04888449068679618,-0.07013605599139214,0.08219610256,-0.07424845330935166,,9.3694776e-05,7.56979e-06,-8.583069e-06,1.0,-9.987876e-05,-8.626282e-05,9.987876e-05,1.0,-1.0997057e-05,8.626282e-05,1.0937452e-05,1.0,389,1.186,0,0,0.0,False,-0.259580147031059,0.5394829463245276
1.19906799698947,17:00:19.705284,17:00:06.072535,0,,0.11885029,0.0014551431,0.028535455,-0.6716903,-0.68128514,-0.29100257,-0.30999434,-0.098291636,0.9456439,-0.67285633,0.72538906,-0.14517319,,0.058138575,-0.025002703,0.031919003,-0.395161,-0.5217855,0.7560341,-0.59238774,0.7737709,0.2243998,-0.70208585,-0.3591913,-0.61486346,,0.10676028,1.3421637,0.44154006,0.9956012,0.020975273,-0.09131447,-0.043662082,-0.75845057,-0.65026635,-0.08289703,0.65139294,-0.7541985,,-0.089623824,0.25970054,-0.09431068,0.71264946,0.62021446,0.32781807,-0.6558585,0.42320752,0.625096,0.24895853,-0.6604766,0.7083716,,-0.02552484,0.40098634,-0.3755998,0.4879247,0.4922036,-0.720878,-0.86411154,0.15556371,-0.47865564,-0.12345356,0.8564669,0.50122213,,1.1511119485675343,0.3387422320621097,0.19832070339000002,0.3296325911576723,0.48533284716684444,0.8921539806066965,-0.4119537347906521,,-0.9021001497710393,-0.3128401860019607,0.18701186943,0.9106834245532892,0.3174065889551182,-0.18261752573564236,0.3647472996778456,,-0.04888449068679618,-0.07013605599139214,0.08219610256,-0.07424845330935166,,9.3694776e-05,7.56979e-06,-8.583069e-06,1.0,-9.987876e-05,-8.626282e-05,9.987876e-05,1.0,-1.0997057e-05,8.626282e-05,1.0937452e-05,1.0,397,1.211,0,0,0.0,False,-0.2587460589717643,0.5410279127494699
1.2290426100080367,17:00:19.732205,17:00:06.072535,0,,0.1189253,0.0016530007,0.028854758,-0.64345634,-0.70402193,-0.3005278,-0.31082568,-0.11847803,0.9430538,-0.69953644,0.70022583,-0.14259282,,0.058139443,-0.02500388,0.03191775,-0.39516282,-0.5223995,0.755609,-0.5923908,0.77358705,0.22502472,-0.70208216,-0.3586945,-0.6151576,,0.10676028,1.3421637,0.44154006,0.9956012,0.020975273,-0.09131447,-0.043662082,-0.75845057,-0.65026635,-0.08289703,0.65139294,-0.7541985,,-0.08971767,0.2600572,-0.09441411,0.68654746,0.6442494,0.33703905,-0.6748661,0.39213982,0.62512565,0.2705704,-0.6566347,0.7040047,,-0.025525527,0.4009846,-0.37560016,0.48792645,0.4927894,-0.7204765,-0.8641099,0.15594949,-0.47853303,-0.12345806,0.8560598,0.50191605,,1.1512664032250188,0.3391129232400725,0.19823903712000002,0.297130649917571,0.5115670551218091,0.8851372013617225,-0.4096669178647725,,-0.9021001497710393,-0.31284790873483487,0.18701316572,0.9106834245532892,0.3174065889551182,-0.1818007383342367,0.3665440844053226,,-0.04888449068679618,-0.07013605599139214,0.08219610256,-0.07424845330935166,,9.3694776e-05,7.56979e-06,-8.583069e-06,1.0,-9.987876e-05,-8.626282e-05,9.987876e-05,1.0,-1.0997057e-05,8.626282e-05,1.0937452e-05,1.0,405,1.235,0,0,0.0,False,-0.2590439475643693,0.5418486761627208
1.255965003016172,17:00:19.755074,17:00:06.072535,0,,0.11894846,0.0017635226,0.029006958,-0.6289437,-0.7150909,-0.3050819,-0.3116011,-0.1276555,0.94159913,-0.71227425,0.6872767,-0.14253503,,0.058139794,-0.025001809,0.031919718,-0.39490008,-0.5221839,0.75589526,-0.5922454,0.7736856,0.22506872,-0.70235264,-0.35879594,-0.6147896,,0.10676028,1.3421637,0.44154006,0.9956012,0.020975273,-0.09131447,-0.043662082,-0.75845057,-0.65026635,-0.08289703,0.65139294,-0.7541985,,-0.08974938,0.2602398,-0.09445373,0.67304546,0.6560225,0.34153238,-0.68425643,0.37704486,0.62420374,0.28071865,-0.6538132,0.7026559,,-0.025526164,0.40098727,-0.3755994,0.48767555,0.49257573,-0.7207924,-0.8642888,0.15589352,-0.47822803,-0.123196654,0.85619295,0.50175315,,1.151374521485258,0.33932143702767653,0.19820792616000002,0.27972638460835547,0.5244108860997605,0.8798096790431144,-0.4090135416002352,,-0.902092427038165,-0.31284790873483487,0.18701316572,0.9106834245532892,0.31781649845441445,-0.18205331330518543,0.3671974606698597,,-0.04888449068679618,-0.07013605599139214,0.08219610256,-0.07424845330935166,,9.3694776e-05,7.56979e-06,-8.583069e-06,1.0,-9.987876e-05,-8.626282e-05,9.987876e-05,1.0,-1.0997057e-05,8.626282e-05,1.0937452e-05,1.0,413,1.26,0,0,0.0,False,-0.2593418361569748,0.5416555553596027
1.2788278459920548,17:00:19.775810,17:00:06.072535,0,,0.11894132,0.0018842518,0.029132605,-0.6123148,-0.72637856,-0.31216118,-0.31581682,-0.13724342,0.9388419,-0.72479665,0.6734527,-0.14536649,,0.058143415,-0.024999693,0.031922042,-0.39476037,-0.52183217,0.75621116,-0.5919511,0.77391934,0.22503924,-0.7026793,-0.35880348,-0.6144119,,0.10676028,1.3421637,0.44154006,0.9956012,0.020975273,-0.09131447,-0.043662082,-0.75845057,-0.65026635,-0.08289703,0.65139294,-0.7541985,,-0.089748584,0.26041353,-0.09446904,0.6573211,0.6680697,0.3487288,-0.696158,0.3610721,0.6204764,0.28860527,-0.6506226,0.7024224,,-0.025530098,0.40099,-0.37559894,0.48754087,0.4922101,-0.72113323,-0.8644245,0.15597415,-0.47795638,-0.122776814,0.8563885,0.50152224,,1.1514671942797485,0.33949133715090946,0.19820014842000003,0.2587573902599031,0.5345219870824031,0.8727082565315469,-0.408850197534101,,-0.9021001497710393,-0.31284790873483487,0.18701446201000002,0.9108931144967738,0.3182264079537108,-0.18230588827613411,0.367360804735994,,-0.04888449068679618,-0.07013605599139214,0.08219610256,-0.07424845330935166,,9.3694776e-05,7.56979e-06,-8.583069e-06,1.0,-9.987876e-05,-8.626282e-05,9.987876e-05,1.0,-1.0997057e-05,8.626282e-05,1.0937452e-05,1.0,421,1.285,0,0,0.0,False,-0.25975888018662197,0.5414624345564851
1.2995730449911207,17:00:19.806415,17:00:06.072535,0,,0.118934005,0.0020795017,0.0293217,-0.58676046,-0.74392295,-0.3198293,-0.31885606,-0.1507976,0.9357302,-0.74434066,0.65102905,-0.14872238,,0.058149926,-0.024992943,0.03193009,-0.39374232,-0.5206389,0.7575632,-0.5916002,0.7742986,0.22465716,-0.70354545,-0.35971755,-0.6128843,,0.10676028,1.3421637,0.44154006,0.9956012,0.020975273,-0.09131447,-0.043662082,-0.75845057,-0.65026635,-0.08289703,0.65139294,-0.7541985,,-0.0897504,0.2606851,-0.094482936,0.6332765,0.68690485,0.35654256,-0.71205586,0.3366446,0.6161549,0.3032117,-0.6440747,0.7023037,,-0.025537655,0.40099967,-0.3755976,0.4865696,0.4910663,-0.72256756,-0.8650758,0.15527949,-0.47700325,-0.12204031,0.857171,0.5003639,,1.1516370944029815,0.3397307418700104,0.19820662987,0.22772327862419345,0.5529679145507375,0.8603622379571686,-0.4093402297325037,,-0.9021078725039134,-0.3128556314677091,0.18701575830000003,0.9106834245532892,0.31959277295136523,-0.18391013975394174,0.3663807403391883,,-0.04888449068679618,-0.07013605599139214,0.08219610256,-0.07424845330935166,,9.3694776e-05,7.56979e-06,-8.583069e-06,1.0,-9.987876e-05,-8.626282e-05,9.987876e-05,1.0,-1.0997057e-05,8.626282e-05,1.0937452e-05,1.0,429,1.309,0,0,0.0,False,-0.2587460589717643,0.5459524932289748
1.330148717010161,17:00:19.833553,17:00:06.188963,0,,0.11887656,0.0022874027,0.029481351,-0.56315774,-0.75710475,-0.33112767,-0.3198997,-0.16972357,0.9321256,-0.76191694,0.6308615,-0.14661661,,0.058149308,-0.024991125,0.03193009,-0.39361095,-0.52027404,0.75788194,-0.5917404,0.77431494,0.22423081,-0.703501,-0.36020976,-0.6126461,,0.10676028,1.3421637,0.44154006,0.9956012,0.020975273,-0.09131447,-0.043662082,-0.75845057,-0.65026635,-0.08289703,0.65139294,-0.7541985,,-0.08969962,0.26094827,-0.09447026,0.61108124,0.701067,0.3675388,-0.7250996,0.30952695,0.6151614,0.3175062,-0.6424159,0.69748956,,-0.025537165,0.40100068,-0.37559605,0.48644543,0.49073973,-0.722873,-0.8651252,0.15483505,-0.47705817,-0.122185335,0.8574384,0.4998701,,1.152061844711064,0.33989291926036913,0.19824422228000002,0.1996248261972672,0.5707306595202447,0.8555160018132203,-0.40999360599704104,,-0.9021078725039134,-0.31284790873483487,0.18701575830000003,0.9104737346098049,0.31959277295136523,-0.18456356967506626,0.3686675572650682,,-0.04888449068679618,-0.07013605599139214,0.08219610256,-0.07424845330935166,,9.3694776e-05,7.56979e-06,-8.583069e-06,1.0,-9.987876e-05,-8.626282e-05,9.987876e-05,1.0,-1.0997057e-05,8.626282e-05,1.0937452e-05,1.0,458,1.398,0,0,0.0,False,-0.259580147031059,0.5613055970768426
1.3573023159988225,17:00:19.918901,17:00:06.188963,0,,0.11843623,0.0030497313,0.029539824,-0.5144011,-0.78025293,-0.3558045,-0.32660505,-0.20538317,0.9225763,-0.79291904,0.5907818,-0.14918542,,0.058152027,-0.025000721,0.031930447,-0.3930624,-0.5190377,0.7590136,-0.5916723,0.77463174,0.22331478,-0.7038649,-0.36131075,-0.61157894,,0.10676028,1.3421637,0.44154006,0.9956012,0.020975273,-0.09131447,-0.043662082,-0.75845057,-0.65026635,-0.08289703,0.65139294,-0.7541985,,-0.08924387,0.2615737,-0.09404651,0.56469434,0.7262284,0.392062,-0.7519807,0.25701457,0.6070161,0.34006667,-0.6376016,0.6912444,,-0.02553923,0.4009957,-0.37560442,0.48592272,0.4895717,-0.72401565,-0.8654527,0.15394521,-0.476752,-0.12194554,0.85826594,0.4985066,,1.1546489602239292,0.34052618335605556,0.19868496088,0.13671784315190988,0.5996975974705181,0.8383480267006835,-0.4103202941293096,,-0.902092427038165,-0.31292513606357714,0.18701705459,0.9102640446663203,0.3202759554501924,-0.18626416155551617,0.3863087164075704,,-0.04888449068679618,-0.07013605599139214,0.08219610256,-0.07424845330935166,,9.3694776e-05,7.56979e-06,-8.583069e-06,1.0,-9.987876e-05,-8.626282e-05,9.987876e-05,1.0,-1.0997057e-05,8.626282e-05,1.0937452e-05,1.0,466,1.424,0,0,0.0,False,-0.25975888018662197,0.5618849594861963
1.442634917999385,17:00:19.948346,17:00:06.188963,0,,0.11827302,0.0033913702,0.029424176,-0.51031727,-0.7828646,-0.3559484,-0.32518023,-0.20751221,0.9226031,-0.796137,0.58656776,-0.14867517,,0.05823923,-0.025019094,0.031954885,-0.39271304,-0.51917505,0.7591005,-0.5917648,0.77449095,0.22355756,-0.7039821,-0.36141503,-0.6113823,,0.10669653,1.3421687,0.44153148,0.99560404,0.021024767,-0.09127204,-0.043597113,-0.7584492,-0.6502723,-0.08289703,0.65139294,-0.7541985,,-0.08900858,0.2617665,-0.093759194,0.5609353,0.7291113,0.3921075,-0.75311947,0.25275773,0.6073916,0.34374788,-0.6360112,0.69088864,,-0.025567336,0.4010093,-0.37564278,0.4856384,0.48968202,-0.7241318,-0.86561126,0.15381664,-0.47650558,-0.1219527,0.85822606,0.49857354,,1.1562707341275162,0.34100499279425744,0.19897014468000002,0.1308465247343432,0.6037966924634813,0.8344337384088067,-0.41032029412930937,,-0.9020847043052908,-0.3130023633923194,0.18701705459,0.9100543547228357,0.3205492284497233,-0.18616028240234675,0.386635404539839,,-0.04888449068679618,-0.07013605599139214,0.08219610256,-0.07424845330935166,,3.0718744e-05,-3.0994415e-06,5.9604645e-07,1.0,-5.0660223e-05,-4.375726e-05,5.0660223e-05,1.0,-5.5730343e-06,4.375726e-05,5.543232e-06,1.0,474,1.448,0,0,0.0,False,-0.259580147031059,0.5644920903282871
1.472105888009537,17:00:19.969190,17:00:06.188963,0,,0.118087485,0.0036541522,0.029374152,-0.50444543,-0.7847373,-0.36016965,-0.326783,-0.21259142,0.9208788,-0.799217,0.58223045,-0.14919811,,0.058239993,-0.02503243,0.03195274,-0.392605,-0.5193355,0.7590466,-0.59194183,0.7743365,0.22362413,-0.7038936,-0.36151546,-0.61142486,,0.10669653,1.3421687,0.44153148,0.99560404,0.021024767,-0.09127204,-0.043597113,-0.7584492,-0.6502723,-0.08289703,0.65139294,-0.7541985,,-0.08881244,0.26193696,-0.0935631,0.55527616,0.73117,0.3963065,-0.75652593,0.24613771,0.6058752,0.34545177,-0.6362442,0.68982345,,-0.025566993,0.40100035,-0.37565294,0.48553666,0.48986006,-0.7240796,-0.8656403,0.153667,-0.47650114,-0.12215175,0.85815126,0.49865356,,1.157460034990147,0.34134479304072335,0.19913995867000003,0.12203954710799317,0.6058462399599629,0.8320273611920954,-0.410156950063175,,-0.9020769815724166,-0.3130795907210616,0.18701705459,0.9098446647793511,0.3205492284497233,-0.18607860366220622,0.38712543673824185,,-0.04888449068679618,-0.07013605599139214,0.08219610256,-0.07424845330935166,,3.0718744e-05,-3.0994415e-06,5.9604645e-07,1.0,-5.0660223e-05,-4.375726e-05,5.0660223e-05,1.0,-5.5730343e-06,4.375726e-05,5.543232e-06,1.0,486,1.485,0,0,0.0,False,-0.260652545964438,0.5631885249072415
1.4928913960175123,17:00:20.007703,17:00:06.344800,0,,0.11762799,0.004177481,0.029246598,-0.49436104,-0.7862834,-0.37062857,-0.33188766,-0.22333974,0.9164987,-0.80340385,0.5760885,-0.15054739,,0.058255337,-0.025070086,0.031944692,-0.39213067,-0.5191588,0.75941265,-0.59174347,0.77441865,0.22386444,-0.7043246,-0.36159337,-0.61088216,,0.10669653,1.3421687,0.44153148,0.99560404,0.021024767,-0.09127204,-0.043597113,-0.7584492,-0.6502723,-0.08289703,0.65139294,-0.7541985,,-0.08832998,0.26226074,-0.09315855,0.5454059,0.7328835,0.40671137,-0.7634219,0.2340534,0.60200167,0.34600493,-0.6388277,0.6871534,,-0.025579011,0.40097228,-0.37568092,0.48508376,0.48968443,-0.72450185,-0.8659487,0.15362632,-0.47595358,-0.12176451,0.8582588,0.49856323,,1.1603946734823523,0.34188538434191906,0.19951199390000002,0.10442559185529314,0.6072126049576173,0.8287895349114764,-0.4101569500631752,,-0.9020769815724166,-0.3133267181730368,0.18702742491000002,0.9098446647793511,0.32136904744831596,-0.18609368116326025,0.3874521248705104,,-0.04888449068679618,-0.07013605599139214,0.08219610256,-0.07424845330935166,,3.0718744e-05,-3.0994415e-06,5.9604645e-07,1.0,-5.0660223e-05,-4.375726e-05,5.0660223e-05,1.0,-5.5730343e-06,4.375726e-05,5.543232e-06,1.0,494,1.51,0,0,0.0,False,-0.25975888018662197,0.5602434326596946
1.5314311739930417,17:00:20.024367,17:00:06.344800,0,,0.11726686,0.004527524,0.029102504,-0.4904264,-0.7859225,-0.37657356,-0.3350194,-0.22887978,0.9139891,-0.80451477,0.5744039,-0.15105069,,0.058253117,-0.025105417,0.031929135,-0.39186454,-0.51964664,0.7592162,-0.5920911,0.7740559,0.22419965,-0.7041806,-0.3616693,-0.6110033,,0.10669653,1.3421687,0.44153148,0.99560404,0.021024767,-0.09127204,-0.043597113,-0.7584492,-0.6502723,-0.08289703,0.65139294,-0.7541985,,-0.08794912,0.26244023,-0.09284801,0.54148245,0.7324986,0.4126047,-0.7666271,0.22876427,0.59995824,0.34507933,-0.64118075,0.68542504,,-0.025573142,0.4009408,-0.37570265,0.48483247,0.49020088,-0.72432077,-0.8660365,0.15342131,-0.47586003,-0.12214076,0.8580006,0.49891546,,1.1625493159542608,0.34203983899940354,0.19979977028,0.09582830417242763,0.6066660589585556,0.8276833104635914,-0.4093402297325037,,-0.9019997542436743,-0.31353523196064087,0.18703390636000003,0.9094252848923822,0.3215056839480814,-0.18571502662611328,0.3851653079446305,,-0.04888449068679618,-0.07013605599139214,0.08219610256,-0.07424845330935166,,3.0718744e-05,-3.0994415e-06,5.9604645e-07,1.0,-5.0660223e-05,-4.375726e-05,5.0660223e-05,1.0,-5.5730343e-06,4.375726e-05,5.543232e-06,1.0,506,1.547,0,0,0.0,False,-0.2593418361569748,0.5669543805680393
1.5480108220071997,17:00:20.061013,17:00:06.344800,0,,0.11701138,0.0047385693,0.028982282,-0.48579067,-0.78611606,-0.38213712,-0.33907735,-0.2334666,0.9113287,-0.8056264,0.57228917,-0.15313837,,0.058257185,-0.025140226,0.031920075,-0.39179233,-0.5199493,0.7590463,-0.5923231,0.7738364,0.2243447,-0.7040256,-0.36170417,-0.61116123,,0.10669653,1.3421687,0.44153148,0.99560404,0.021024767,-0.09127204,-0.043597113,-0.7584492,-0.6502723,-0.08289703,0.65139294,-0.7541985,,-0.0876793,0.26252767,-0.092638694,0.5368344,0.73272604,0.418236,-0.77055085,0.22392641,0.5967481,0.3435988,-0.64262706,0.6848141,,-0.025574062,0.40091446,-0.37572744,0.48476508,0.49051997,-0.7241498,-0.8660346,0.15330741,-0.4759001,-0.122420974,0.8578386,0.49912533,,1.1638390123442564,0.34198577986928397,0.19999421378,0.08744070643304665,0.6057096034601975,0.8256861586246873,-0.4103202941293096,,-0.9019765860450516,-0.3137360230153707,0.18703779523000003,0.9092155949488976,0.3215056839480814,-0.18538831166555106,0.3881055011350475,,-0.04888449068679618,-0.07013605599139214,0.08219610256,-0.07424845330935166,,3.0718744e-05,-3.0994415e-06,5.9604645e-07,1.0,-5.0660223e-05,-4.375726e-05,5.0660223e-05,1.0,-5.5730343e-06,4.375726e-05,5.543232e-06,1.0,535,1.636,0,0,0.0,False,-0.25963972474957986,0.5709616372327342
1.5845512380183209,17:00:20.152293,17:00:06.496967,0,,0.11603983,0.005454898,0.02809298,-0.45086905,-0.7957119,-0.40442505,-0.355617,-0.25544453,0.89904654,-0.81869024,0.54917276,-0.16779667,,0.05830048,-0.025233433,0.03190136,-0.39041921,-0.5210747,0.7589821,-0.5921494,0.7733821,0.22636025,-0.704934,-0.36105543,-0.61049736,,0.10669653,1.3421687,0.44153148,0.99560404,0.021024767,-0.09127204,-0.043597113,-0.7584492,-0.6502723,-0.08289703,0.65139294,-0.7541985,,-0.08662228,0.2625111,-0.091575526,0.50257534,0.7434575,0.44123572,-0.79263115,0.19246618,0.57852626,0.34518674,-0.64049023,0.6860163,,-0.025609178,0.40084535,-0.37579745,0.48345628,0.4916217,-0.7242777,-0.8668507,0.15373166,-0.47427472,-0.12181933,0.85713166,0.5004851,,1.1677235469799911,0.3397925237330042,0.20130735555,0.029356592087833408,0.612678064948235,0.804321527429182,-0.41228042292292066,,-0.9020151997094227,-0.31435384164530866,0.18706501732000003,0.9087962150619284,0.3234185949447975,-0.18368101271167844,0.4116270466583837,,-0.04888449068679618,-0.07013605599139214,0.08219610256,-0.07424845330935166,,3.0718744e-05,-3.0994415e-06,5.9604645e-07,1.0,-5.0660223e-05,-4.375726e-05,5.0660223e-05,1.0,-5.5730343e-06,4.375726e-05,5.543232e-06,1.0,543,1.661,0,0,0.0,False,-0.26005676877922745,0.597950269468452
1.6760392989963293,17:00:20.176996,17:00:06.496967,0,,0.11580294,0.0055853426,0.027599335,-0.4428937,-0.7972947,-0.41008085,-0.36007124,-0.26070613,0.8957572,-0.8210931,0.54438365,-0.17161787,,0.058303848,-0.025248751,0.031897783,-0.39035544,-0.5209453,0.75910366,-0.59213984,0.7734159,0.22627,-0.7049773,-0.36116982,-0.61037964,,0.10669653,1.3421687,0.44153148,0.99560404,0.021024767,-0.09127204,-0.043597113,-0.7584492,-0.6502723,-0.08289703,0.65139294,-0.7541985,,-0.08634442,0.26229176,-0.091137916,0.4946875,0.7452571,0.44707516,-0.79780173,0.18540314,0.5737056,0.344669,-0.6404823,0.68628395,,-0.025611173,0.40083387,-0.3758086,0.4833955,0.49149933,-0.72440124,-0.86688876,0.15363953,-0.47423494,-0.1217895,0.8572183,0.5003439,,1.1679783971648405,0.3390434186442044,0.20165346498000003,0.022436823952844107,0.6130879744475313,0.8018636264744381,-0.41162704665838357,,-0.9020074769765485,-0.3144465144397994,0.18706760990000001,0.9087962150619284,0.323555231444563,-0.1837924306153749,0.4189775296344263,,-0.04888449068679618,-0.07013605599139214,0.08219610256,-0.07424845330935166,,3.0718744e-05,-3.0994415e-06,5.9604645e-07,1.0,-5.0660223e-05,-4.375726e-05,5.0660223e-05,1.0,-5.5730343e-06,4.375726e-05,5.543232e-06,1.0,555,1.698,0,0,0.0,False,-0.2599376133421849,0.6033093717549716
1.7007459519954864,17:00:20.218803,17:00:06.496967,0,,0.11557582,0.005694717,0.026872694,-0.43407148,-0.7990563,-0.41604194,-0.36622107,-0.26542455,0.8918699,-0.8230821,0.5394986,-0.17741808,,0.05831716,-0.025271207,0.031892717,-0.3892939,-0.52002835,0.7602766,-0.59266603,0.7732563,0.22543629,-0.7051221,-0.36282915,-0.6092272,,0.10669653,1.3421687,0.44153148,0.99560404,0.021024767,-0.09127204,-0.043597113,-0.7584492,-0.6502723,-0.08289703,0.65139294,-0.7541985,,-0.08605889,0.26190305,-0.0905388,0.48587608,0.74725753,0.45335484,-0.80400175,0.17869127,0.56714255,0.342791,-0.64005905,0.68761814,,-0.02562246,0.4008165,-0.37582523,0.48238754,0.49072486,-0.72559726,-0.86739516,0.15206026,-0.4738178,-0.122179665,0.85794336,0.49900433,,1.1679552289662178,0.33743709020636575,0.20234698013000002,0.009226357513319072,0.6132246109472966,0.7969331629024486,-0.4108103263277123,,-0.9020306451751712,-0.3146164145630323,0.18707668393000002,0.907747765344506,0.3242384139433902,-0.185656379976106,0.43057495832996007,,-0.04888449068679618,-0.07013605599139214,0.08219610256,-0.07424845330935166,,3.0718744e-05,-3.0994415e-06,5.9604645e-07,1.0,-5.0660223e-05,-4.375726e-05,5.0660223e-05,1.0,-5.5730343e-06,4.375726e-05,5.543232e-06,1.0,563,1.723,0,0,0.0,False,-0.2599376133421849,0.6141724169303497
1.7425610859936569,17:00:20.241801,17:00:06.496967,0,,0.11544576,0.005774796,0.026447296,-0.4297201,-0.79923475,-0.42019555,-0.37121606,-0.26784083,0.88907814,-0.82312775,0.5380382,-0.18159229,,0.05832746,-0.025289685,0.031886935,-0.38900933,-0.518972,0.7611437,-0.5927538,0.7734801,0.2244356,-0.7052054,-0.3638633,-0.6085137,,0.10669653,1.3421687,0.44153148,0.99560404,0.021024767,-0.09127204,-0.043597113,-0.7584492,-0.6502723,-0.08289703,0.65139294,-0.7541985,,-0.0858942,0.2616875,-0.09017729,0.48140284,0.74748033,0.45773837,-0.8079215,0.17591721,0.56241965,0.3398736,-0.6405671,0.68859255,,-0.025630964,0.40080082,-0.37583804,0.48211697,0.4897372,-0.7264439,-0.86754054,0.15119639,-0.4738281,-0.122215554,0.8586601,0.49776122,,1.1679783971648405,0.33665709418606904,0.20275012632000003,0.0018872094913607192,0.6111750634508152,0.7945204944508668,-0.41162704665838357,,-0.9020460906409197,-0.3147399782890199,0.18708446167,0.9075380754010215,0.3245116869429211,-0.1871043968856073,0.43825212943827124,,-0.04888449068679618,-0.07013605599139214,0.08219610256,-0.07424845330935166,,3.0718744e-05,-3.0994415e-06,5.9604645e-07,1.0,-5.0660223e-05,-4.375726e-05,5.0660223e-05,1.0,-5.5730343e-06,4.375726e-05,5.543232e-06,1.0,575,1.76,0,0,0.0,False,-0.25963972474957986,0.6166347071701019
1.7655441529932432,17:00:20.273612,17:00:06.496967,0,,0.1151828,0.0059735775,0.025730908,-0.41493756,-0.80213106,-0.42943293,-0.38018692,-0.27594483,0.88278675,-0.82661045,0.5295662,-0.1904599,,0.058335554,-0.025311604,0.031882763,-0.38963336,-0.5191246,0.7607202,-0.59312373,0.77333903,0.22394377,-0.7045495,-0.36394525,-0.60922396,,0.10669653,1.3421687,0.44153148,0.99560404,0.021024767,-0.09127204,-0.043597113,-0.7584492,-0.6502723,-0.08289703,0.65139294,-0.7541985,,-0.08557124,0.2613739,-0.089529805,0.46668744,0.7507935,0.46745265,-0.8174048,0.16433172,0.55212724,0.33771625,-0.6397689,0.69039375,,-0.025637167,0.400785,-0.37585458,0.48271364,0.48990515,-0.7259342,-0.867117,0.1510686,-0.47464344,-0.1228644,0.8585867,0.49772796,,1.1681174063565767,0.3353751205289478,0.20347604872000002,-0.019710854687545288,0.6109017904512842,0.786412098763922,-0.41113701445998063,,-0.9021001497710393,-0.3148403738163848,0.18708575796000002,0.9075380754010215,0.323555231444563,-0.1868962227407163,0.44102897856255396,,-0.04888449068679618,-0.07013605599139214,0.08219610256,-0.07424845330935166,,3.0718744e-05,-3.0994415e-06,5.9604645e-07,1.0,-5.0660223e-05,-4.375726e-05,5.0660223e-05,1.0,-5.5730343e-06,4.375726e-05,5.543232e-06,1.0,583,1.784,0,0,0.0,False,-0.2604738128088746,0.6262424671252145
1.7973733140097465,17:00:20.303240,17:00:06.655076,0,,0.114991486,0.006213069,0.025154531,-0.4022723,-0.80591863,-0.43436402,-0.38729563,-0.28009918,0.87837726,-0.82956564,0.5215742,-0.19945273,,0.058340237,-0.025334463,0.03188604,-0.38956913,-0.51635146,0.76263803,-0.59312165,0.7741407,0.22116226,-0.7045868,-0.36617917,-0.60784066,,0.10669653,1.3421687,0.44153148,0.99560404,0.021024767,-0.09127204,-0.043597113,-0.7584492,-0.6502723,-0.08289703,0.65139294,-0.7541985,,-0.08532934,0.2611809,-0.08895497,0.45409372,0.7550688,0.47293764,-0.8250764,0.1560618,0.54304117,0.33622593,-0.63680124,0.6938561,,-0.025640475,0.4007753,-0.3758758,0.48265246,0.48726082,-0.7277524,-0.86715394,0.14931957,-0.4751292,-0.12284417,0.8603956,0.49459958,,1.168302751945558,0.3347341337003871,0.20409697163,-0.03795387977069891,0.6104918809519879,0.7762914737370195,-0.4108103263277123,,-0.9021155952367876,-0.31497166027524665,0.18708186909000002,0.9075380754010215,0.3236918679443284,-0.19043814773031625,0.4485428056047308,,-0.04888449068679618,-0.07013605599139214,0.08219610256,-0.07424845330935166,,3.0718744e-05,-3.0994415e-06,5.9604645e-07,1.0,-5.0660223e-05,-4.375726e-05,5.0660223e-05,1.0,-5.5730343e-06,4.375726e-05,5.543232e-06,1.0,608,1.861,1,1,0.006,False,-0.26011634649774784,0.6391815609341092
1.8269974940048996,17:00:20.377388,17:00:06.655076,0,,0.11457373,0.006738797,0.023926973,-0.36768502,-0.81593394,-0.44616064,-0.40108225,-0.29371464,0.8676778,-0.8390118,0.49797934,-0.21926221,,0.058359053,-0.025397614,0.031915605,-0.388468,-0.5136166,0.7650427,-0.5938834,0.77436435,0.21831682,-0.70455307,-0.3695371,-0.60584426,,0.10669653,1.3421687,0.44153148,0.99560404,0.021024767,-0.09127204,-0.043597113,-0.7584492,-0.6502723,-0.08289703,0.65139294,-0.7541985,,-0.08480348,0.26078194,-0.08772123,0.41996583,0.76649,0.48592362,-0.8426954,0.13059495,0.5223116,0.33688748,-0.62883866,0.700763,,-0.025657017,0.4007652,-0.37594536,0.481608,0.48478064,-0.7300969,-0.86763716,0.14632119,-0.47517982,-0.12352934,0.8623096,0.49108317,,1.1685344339317847,0.33331315085152985,0.20544770581000002,-0.08513411705471688,0.6136345204465931,0.751512244633769,-0.40983026193090644,,-0.9022546044285237,-0.31535007418608363,0.18705723958,0.9062799357401142,0.3242384139433902,-0.19464104139156785,0.4733711036571413,,-0.04888449068679618,-0.07013605599139214,0.08219610256,-0.07424845330935166,,3.0718744e-05,-3.0994415e-06,5.9604645e-07,1.0,-5.0660223e-05,-4.375726e-05,5.0660223e-05,1.0,-5.5730343e-06,4.375726e-05,5.543232e-06,1.0,616,1.887,0,1,0.026,False,-0.2599971910607066,0.6563210322108168
1.9011331759975292,17:00:20.407540,17:00:06.655076,0,,0.114404485,0.006908387,0.023363054,-0.35039788,-0.8225391,-0.44794038,-0.4083727,-0.2962333,0.8634105,-0.8428837,0.48546386,-0.23210311,,0.058363914,-0.025444672,0.03194344,-0.3886643,-0.5120239,0.76601,-0.5940472,0.7747598,0.21646011,-0.70430666,-0.37091577,-0.605288,,0.10669653,1.3421687,0.44153148,0.99560404,0.021024767,-0.09127204,-0.043597113,-0.7584492,-0.6502723,-0.08289703,0.65139294,-0.7541985,,-0.0845865,0.26054385,-0.087200046,0.4028315,0.7739684,0.48856902,-0.8512441,0.12066586,0.5107085,0.33631867,-0.62162095,0.7074441,,-0.025660682,0.40076357,-0.37600014,0.48179597,0.48327377,-0.73097134,-0.86749494,0.14520173,-0.4757825,-0.12379491,0.863344,0.48919517,,1.1683181974113066,0.33250226389973625,0.20602974002000002,-0.10840970078149909,0.6141810664456548,0.7345674675105897,-0.41113701445998085,,-0.9023472772230143,-0.3155894789051846,0.18702742491000002,0.9062799357401142,0.32396514094385925,-0.19654185282782963,0.4799048663025124,,-0.04888449068679618,-0.07013605599139214,0.08219610256,-0.07424845330935166,,3.0718744e-05,-3.0994415e-06,5.9604645e-07,1.0,-5.0660223e-05,-4.375726e-05,5.0660223e-05,1.0,-5.5730343e-06,4.375726e-05,5.543232e-06,1.0,629,1.927,0,1,0.026,False,-0.2602950796533112,0.6720120974641413
1.931295827991562,17:00:20.444025,17:00:06.655076,0,,0.11425616,0.006982714,0.02281034,-0.34149373,-0.8263559,-0.44779223,-0.41504008,-0.294881,0.8606898,-0.84328157,0.47977197,-0.24227095,,0.058388233,-0.025505528,0.03198719,-0.38787305,-0.5118709,0.7665131,-0.5949621,0.77420235,0.21594135,-0.7039705,-0.37228847,-0.6048361,,0.10669653,1.3421687,0.44153148,0.99560404,0.021024767,-0.09127204,-0.043597113,-0.7584492,-0.6502723,-0.08289703,0.65139294,-0.7541985,,-0.084393926,0.2602408,-0.08674828,0.3938011,0.7782497,0.48913002,-0.85678995,0.11805482,0.5019702,0.33291396,-0.6167581,0.7132866,,-0.025683941,0.40076613,-0.3760754,0.4810474,0.48326516,-0.73146987,-0.86777145,0.1437335,-0.47572404,-0.12476413,0.8635945,0.48850635,,1.1681019608908283,0.33149058589321284,0.20654177457000003,-0.12120078733405507,0.6117216094498769,0.7230143189137919,-0.4101569500631752,,-0.9025789592092411,-0.31593700188452467,0.18699242508000002,0.9050217960792071,0.32396514094385925,-0.19735864022923527,0.49640261698207466,,-0.04888449068679618,-0.07013605599139214,0.08219610256,-0.07424845330935166,,3.0718744e-05,-3.0994415e-06,5.9604645e-07,1.0,-5.0660223e-05,-4.375726e-05,5.0660223e-05,1.0,-5.5730343e-06,4.375726e-05,5.543232e-06,1.0,637,1.952,0,1,0.026,False,-0.2607121236829584,0.6816681376200324
1.967764717002865,17:00:20.473313,17:00:06.655076,0,,0.11411993,0.0070660114,0.022299424,-0.3287425,-0.8280642,-0.45413432,-0.4184902,-0.303349,0.85606384,-0.8466371,0.4714754,-0.24681318,,0.058441628,-0.025583267,0.032055914,-0.38732573,-0.5092285,0.76854724,-0.5949473,0.77486837,0.21358047,-0.70428437,-0.37451994,-0.60309064,,0.10669653,1.3421687,0.44153148,0.99560404,0.021024767,-0.09127204,-0.043597113,-0.7584492,-0.6502723,-0.08289703,0.65139294,-0.7541985,,-0.08421638,0.2599716,-0.08632104,0.38125524,0.78035516,0.49567157,-0.861973,0.1062753,0.49568957,0.33413628,-0.6162397,0.7131631,,-0.025736833,0.40077797,-0.3761787,0.48052585,0.4807602,-0.73346066,-0.86808455,0.1419287,-0.47569475,-0.12459597,0.8652895,0.4855409,,1.1677776061101108,0.33042484875656986,0.20706547573000003,-0.13818567275630153,0.6143177029454203,0.7177935866182183,-0.411627046658384,,-0.9029882640515751,-0.3163926431241039,0.18694964751,0.9048121061357226,0.3245116869429211,-0.20033635278837836,0.5048965084210573,,-0.04888449068679618,-0.07013605599139214,0.08219610256,-0.07424845330935166,,3.0718744e-05,-3.0994415e-06,5.9604645e-07,1.0,-5.0660223e-05,-4.375726e-05,5.0660223e-05,1.0,-5.5730343e-06,4.375726e-05,5.543232e-06,1.0,654,2.005,0,1,0.026,False,-0.26136747858668974,0.6814267366161357
1.9970732380170375,17:00:20.522940,17:00:06.868299,0,,0.11388238,0.007152006,0.021407843,-0.30960816,-0.83709824,-0.45100924,-0.425369,-0.30227602,0.8530477,-0.85041404,0.45595595,-0.2624886,,0.05854493,-0.025734067,0.032300353,-0.38276118,-0.50401443,0.77425,-0.59575236,0.7751978,0.21011296,-0.706097,-0.38083816,-0.5969835,,0.10669653,1.3421687,0.44153148,0.99560404,0.021024767,-0.09127204,-0.043597113,-0.7584492,-0.6502723,-0.08289703,0.65139294,-0.7541985,,-0.08390839,0.25945714,-0.08561449,0.36228418,0.7905869,0.49368268,-0.8702042,0.097147115,0.48301873,0.3339084,-0.60459477,0.7231669,,-0.025847634,0.40089488,-0.37643793,0.4761802,0.47603205,-0.739355,-0.8705028,0.136232,-0.47293302,-0.124407455,0.868812,0.47925824,,1.167206123877418,0.3285482246681333,0.20788602730000003,-0.1625097062005064,0.6159573409426056,0.6948933843767531,-0.41179039072451806,,-0.9040385557224696,-0.3173348165347593,0.18677983352000002,0.9016667569834548,0.32820087243658796,-0.20783696689591263,0.5070199812808027,,-0.04888449068679618,-0.07013605599139214,0.08219610256,-0.07424845330935166,,3.0718744e-05,-3.0994415e-06,5.9604645e-07,1.0,-5.0660223e-05,-4.375726e-05,5.0660223e-05,1.0,-5.5730343e-06,4.375726e-05,5.543232e-06,1.0,671,2.058,1,2,0.026,False,-0.2612483231496481,0.6784816443685884
2.0466992059955373,17:00:20.573296,17:00:06.868299,0,,0.113620564,0.0071141273,0.020625964,-0.2877412,-0.8405293,-0.45903745,-0.43455422,-0.3125407,0.844678,-0.8534446,0.44252545,-0.27532485,,0.058726896,-0.025950655,0.03260839,-0.37748867,-0.49632144,0.7817718,-0.59812003,0.7751836,0.20332879,-0.7069333,-0.39083907,-0.5894829,,0.10669653,1.3421687,0.44153148,0.99560404,0.021024767,-0.09127204,-0.043597113,-0.7584492,-0.6502723,-0.08289703,0.65139294,-0.7541985,,-0.08358815,0.2589223,-0.08507344,0.34046742,0.79475534,0.5024399,-0.8797623,0.08069046,0.46851617,0.33181363,-0.6015422,0.72666824,,-0.026036918,0.4010231,-0.3767882,0.4711654,0.46914276,-0.74693257,-0.87298816,0.12699087,-0.4709193,-0.12607478,0.87394416,0.46938977,,1.1665033551858637,0.32641675039484735,0.20856269068000002,-0.1912372284578862,0.6158207044428401,0.6819362038579595,-0.41048363819544376,,-0.9056989432904278,-0.3186708493220002,0.18658279744000003,0.896634198339826,0.3309336024318968,-0.21929502260572464,0.5029363796274459,,-0.04888449068679618,-0.07013605599139214,0.08219610256,-0.07424845330935166,,3.0718744e-05,-3.0994415e-06,5.9604645e-07,1.0,-5.0660223e-05,-4.375726e-05,5.0660223e-05,1.0,-5.5730343e-06,4.375726e-05,5.543232e-06,1.0,679,2.083,1,2,0.051,False,-0.2602950796533112,0.668197961602564
2.0970479949901346,17:00:20.603005,17:00:06.868299,0,,0.11349288,0.007083252,0.02022171,-0.27781805,-0.8430991,-0.46043566,-0.43800795,-0.31540692,0.84182394,-0.8549657,0.43554842,-0.28165844,,0.058865074,-0.026104152,0.03279251,-0.37613174,-0.4912247,0.78563535,-0.5989721,0.77582204,0.19832419,-0.70693517,-0.39597768,-0.5860413,,0.10669653,1.3421687,0.44153148,0.99560404,0.021024767,-0.09127204,-0.043597113,-0.7584492,-0.6502723,-0.08289703,0.65139294,-0.7541985,,-0.08343054,0.25863704,-0.08480056,0.33059832,0.7977747,0.50424236,-0.88365763,0.07402146,0.46224457,0.33144224,-0.5983949,0.72943103,,-0.026177626,0.40108407,-0.37701848,0.4698755,0.4644199,-0.7506871,-0.87357485,0.122465186,-0.47103003,-0.12682267,0.87710685,0.46324894,,1.166132664007901,0.3252660631965879,0.20891139269000003,-0.2040283150104422,0.6165038869416672,0.6738646702465457,-0.4134238313858608,,-0.9068650759544358,-0.3195666863354102,0.18647261279000002,0.8951663687354345,0.3312068754314276,-0.22548040644337847,0.49623927291594033,,-0.04888449068679618,-0.07013605599139214,0.08219610256,-0.07424845330935166,,3.0718744e-05,-3.0994415e-06,5.9604645e-07,1.0,-5.0660223e-05,-4.375726e-05,5.0660223e-05,1.0,-5.5730343e-06,4.375726e-05,5.543232e-06,1.0,692,2.123,1,2,0.091,False,-0.2598780356236645,0.6652045891542375
2.1267145379970316,17:00:20.637572,17:00:07.006914,0,,0.113330215,0.007006228,0.019769624,-0.26678297,-0.84474355,-0.46393448,-0.44479573,-0.3191253,0.83684874,-0.85497576,0.42961305,-0.2906012,,0.05909745,-0.026302502,0.033098936,-0.37034097,-0.4824919,0.7937562,-0.6007887,0.77613825,0.19147407,-0.7084493,-0.40596908,-0.5773116,,0.10669653,1.3421687,0.44153148,0.99560404,0.021024767,-0.09127204,-0.043597113,-0.7584492,-0.6502723,-0.08289703,0.65139294,-0.7541985,,-0.083235696,0.25828663,-0.084524855,0.31941086,0.7997675,0.50828016,-0.88910264,0.06736833,0.45272288,0.32783103,-0.5965178,0.73259354,,-0.026418196,0.4012153,-0.37735334,0.4643583,0.45647255,-0.7589494,-0.8763965,0.11329972,-0.46807307,-0.12767376,0.8824942,0.45266262,,1.1657233591655671,0.32389913947785015,0.20926527986000001,-0.2189163009978434,0.6139077934461239,0.6659351253794885,-0.412933799187458,,-0.9087571455086207,-0.3208718281911542,0.18630928025000001,0.8903435000352904,0.33475942442532913,-0.23760696957536903,0.4916656390641805,,-0.04888449068679618,-0.07013605599139214,0.08219610256,-0.07424845330935166,,3.0718744e-05,-3.0994415e-06,5.9604645e-07,1.0,-5.0660223e-05,-4.375726e-05,5.0660223e-05,1.0,-5.5730343e-06,4.375726e-05,5.543232e-06,1.0,705,2.165,1,2,0.133,False,-0.26041423509035333,0.6582039600412157
2.161274999001762,17:00:20.681879,17:00:07.006914,0,,0.11322817,0.007027149,0.01944317,-0.2659909,-0.8452622,-0.46344432,-0.4472171,-0.3176906,0.8361038,-0.85395885,0.4296563,-0.29351297,,0.059368894,-0.026482165,0.033412874,-0.36447018,-0.47258475,0.802387,-0.6027137,0.7765494,0.18359497,-0.70985746,-0.4166948,-0.56786245,,0.10669653,1.3421687,0.44153148,0.99560404,0.021024767,-0.09127204,-0.043597113,-0.7584492,-0.6502723,-0.08289703,0.65139294,-0.7541985,,-0.0831082,0.25809076,-0.08427425,0.31847507,0.8003213,0.5079956,-0.89028037,0.06849224,0.45023286,0.32553717,-0.59564644,0.7343234,,-0.02669951,0.40135872,-0.37767708,0.458761,0.44740635,-0.7677017,-0.8791935,0.103444204,-0.46510005,-0.12867443,0.88832814,0.44081295,,1.165785141028561,0.3231963707862957,0.20955694511000003,-0.2205938205457196,0.6121315189491732,0.6633812998606543,-0.4121170788567864,,-0.9108963425147809,-0.32209974271815583,0.18616279948000003,0.8853109413916618,0.3380387004196997,-0.25106259296263733,0.48529522048494367,,-0.04888449068679618,-0.07013605599139214,0.08219610256,-0.07424845330935166,,3.0718744e-05,-3.0994415e-06,5.9604645e-07,1.0,-5.0660223e-05,-4.375726e-05,5.0660223e-05,1.0,-5.5730343e-06,4.375726e-05,5.543232e-06,1.0,714,2.193,1,2,0.161,False,-0.2612483231496481,0.6535207805656085
2.205634760000976,17:00:20.716922,17:00:07.006914,0,,0.113097385,0.0071161985,0.01917763,-0.26506498,-0.84503806,-0.4643825,-0.4485097,-0.31828308,0.8351856,-0.85356873,0.4296586,-0.2946422,,0.059663057,-0.026655987,0.033716917,-0.35968375,-0.46444374,0.8092709,-0.6052028,0.7762558,0.17651145,-0.71018106,-0.42628473,-0.5602894,,0.10669653,1.3421687,0.44153148,0.99560404,0.021024767,-0.09127204,-0.043597113,-0.7584492,-0.6502723,-0.08289703,0.65139294,-0.7541985,,-0.08295486,0.25798708,-0.08402669,0.3174859,0.80008113,0.508992,-0.89102453,0.06804105,0.448827,0.32446566,-0.5960206,0.73449403,,-0.027003074,0.40149456,-0.37799108,0.45419914,0.44005975,-0.7746293,-0.88125986,0.094358146,-0.4631173,-0.1307067,0.89299715,0.4306644,,1.166202168603769,0.32276389774533915,0.20983175859000003,-0.22248103003708034,0.6113116999505807,0.6625795899603029,-0.41179039072451806,,-0.9131977169112998,-0.3232658753821637,0.18603317048,0.8802783827480332,0.3395417019171195,-0.26225299620044656,0.4808849306993181,,-0.04888449068679618,-0.07013605599139214,0.08219610256,-0.07424845330935166,,3.0718744e-05,-3.0994415e-06,5.9604645e-07,1.0,-5.0660223e-05,-4.375726e-05,5.0660223e-05,1.0,-5.5730343e-06,4.375726e-05,5.543232e-06,1.0,727,2.235,1,2,0.203,False,-0.26112916771260597,0.6424163343863332
2.2406079310167115,17:00:20.756946,17:00:07.006914,0,,0.11297421,0.0071788877,0.019094795,-0.2641008,-0.8445194,-0.46587318,-0.450152,-0.31925803,0.83392894,-0.8530029,0.4299551,-0.29584584,,0.059880413,-0.0267687,0.03390026,-0.35854757,-0.46252027,0.81087506,-0.60565686,0.7762517,0.17496574,-0.7103685,-0.42837855,-0.55845183,,0.10669653,1.3421687,0.44153148,0.99560404,0.021024767,-0.09127204,-0.043597113,-0.7584492,-0.6502723,-0.08289703,0.65139294,-0.7541985,,-0.082823955,0.25798348,-0.083932824,0.3164352,0.7995139,0.5105353,-0.8919175,0.067486614,0.44713387,0.32303545,-0.59684426,0.7344556,,-0.027225332,0.40156826,-0.37818787,0.4531151,0.4383063,-0.77625656,-0.88177204,0.092390984,-0.46253866,-0.13101451,0.8940646,0.42835,,1.166758205370713,0.32260944308785466,0.20992898034000002,-0.22457792947192562,0.6098086984531608,0.6621716120981522,-0.4117903907245182,,-0.9147963226162643,-0.32399181227234086,0.18597224485000002,0.8792299330306107,0.3395417019171195,-0.2637232135229767,0.48023155443478105,,-0.04888449068679618,-0.07013605599139214,0.08219610256,-0.07424845330935166,,3.0718744e-05,-3.0994415e-06,5.9604645e-07,1.0,-5.0660223e-05,-4.375726e-05,5.0660223e-05,1.0,-5.5730343e-06,4.375726e-05,5.543232e-06,1.0,736,2.263,1,2,0.231,False,-0.26160578946077395,0.6420783729808766
2.2806587830127683,17:00:20.784745,17:00:07.006914,0,,0.11288887,0.0072378814,0.019076884,-0.26507363,-0.8444178,-0.4655047,-0.45039776,-0.31843674,0.8341102,-0.8525713,0.43076298,-0.29591477,,0.060042072,-0.026850149,0.034009337,-0.35830915,-0.46180564,0.8113876,-0.6055504,0.7764389,0.17450298,-0.7105795,-0.42881015,-0.5578518,,0.10669653,1.3421687,0.44153148,0.99560404,0.021024767,-0.09127204,-0.043597113,-0.7584492,-0.6502723,-0.08289703,0.65139294,-0.7541985,,-0.08273587,0.25801864,-0.08388714,0.3173645,0.7993733,0.5101785,-0.89178985,0.0686331,0.44721404,0.32247585,-0.59690183,0.73465466,,-0.027388725,0.40160125,-0.3783178,0.45288658,0.43761525,-0.77677965,-0.8819187,0.09205184,-0.46232656,-0.13081715,0.894438,0.4276301,,1.1672833512061604,0.32260944308785466,0.20997046162000002,-0.22394885964147201,0.6091255159543335,0.6618302354750882,-0.41260711105518943,,-0.9159006734172784,-0.32451695810778813,0.18595020792000003,0.8792299330306107,0.3394050654173541,-0.26344843813899915,0.4800682103686468,,-0.04888449068679618,-0.07013605599139214,0.08219610256,-0.07424845330935166,,3.0718744e-05,-3.0994415e-06,5.9604645e-07,1.0,-5.0660223e-05,-4.375726e-05,5.0660223e-05,1.0,-5.5730343e-06,4.375726e-05,5.543232e-06,1.0,749,2.304,1,2,0.272,False,-0.26148663402373185,0.6378297153122845
2.3085024479951244,17:00:20.822302,17:00:07.166077,0,,0.1127564,0.007319361,0.019011348,-0.26225543,-0.84447,-0.46700358,-0.4511534,-0.32050222,0.83290994,-0.8530432,0.42912546,-0.2969322,,0.060189847,-0.026893511,0.034179807,-0.34918225,-0.4538961,0.8197864,-0.6066211,0.77628845,0.17142636,-0.7142007,-0.43744078,-0.5464092,,0.10669653,1.3421687,0.44153148,0.99560404,0.021024767,-0.09127204,-0.043597113,-0.7584492,-0.6502723,-0.08289703,0.65139294,-0.7541985,,-0.082596496,0.25804085,-0.08379458,0.31457108,0.7994939,0.5117172,-0.8927528,0.066003,0.44568604,0.3225484,-0.5970369,0.73451304,,-0.027545648,0.40170753,-0.37844762,0.4441593,0.4304158,-0.78578925,-0.8864685,0.08387515,-0.45512465,-0.12998466,0.89872533,0.41880402,,1.1678780016374757,0.3224936020947413,0.21006897966000002,-0.22814265851116253,0.6091255159543335,0.6602783394124174,-0.41309714325359215,,-0.9169123514238018,-0.3251116085391034,0.18589835632,0.8731489246695594,0.34705670940421873,-0.27556871003611916,0.4692875020037843,,-0.04888449068679618,-0.07013605599139214,0.08219610256,-0.07424845330935166,,3.0718744e-05,-3.0994415e-06,5.9604645e-07,1.0,-5.0660223e-05,-4.375726e-05,5.0660223e-05,1.0,-5.5730343e-06,4.375726e-05,5.543232e-06,1.0,758,2.332,1,2,0.3,False,-0.2611887454311268,0.6210764856418121
2.3460206229938194,17:00:20.856693,17:00:07.166077,0,,0.112629116,0.0074516684,0.018796101,-0.26053837,-0.8447382,-0.46747953,-0.4515583,-0.3213579,0.8323606,-0.85335505,0.42795616,-0.29772252,,0.060283143,-0.026988521,0.034317315,-0.34530243,-0.44441307,0.8265973,-0.6087525,0.77640784,0.16312915,-0.71427345,-0.44686428,-0.5386332,,0.10669653,1.3421687,0.44153148,0.99560404,0.021024767,-0.09127204,-0.043597113,-0.7584492,-0.6502723,-0.08289703,0.65139294,-0.7541985,,-0.08244932,0.2580027,-0.08355601,0.31287253,0.7998274,0.51223713,-0.89331377,0.064597905,0.44476697,0.32264736,-0.5967438,0.7347077,,-0.027642267,0.40176442,-0.37860277,0.44045508,0.42169276,-0.79257464,-0.88804305,0.07501012,-0.45360002,-0.13182873,0.90363085,0.40751994,,1.1684108702057971,0.3223005337728857,0.21032434879000003,-0.2308686277764613,0.609262152454099,0.6586150254460503,-0.4122804229229211,,-0.9177386838413438,-0.32575259536766404,0.18582057892,0.8689551257998689,0.34869634740140404,-0.28891249968113897,0.4544231919855649,,-0.04888449068679618,-0.07013605599139214,0.08219610256,-0.07424845330935166,,3.0718744e-05,-3.0994415e-06,5.9604645e-07,1.0,-5.0660223e-05,-4.375726e-05,5.0660223e-05,1.0,-5.5730343e-06,4.375726e-05,5.543232e-06,1.0,767,2.361,1,2,0.329,False,-0.2611887454311268,0.6200626014254436
2.3804516950040124,17:00:20.878572,17:00:07.166077,0,,0.112452224,0.007621348,0.018468484,-0.25936383,-0.8446653,-0.4682637,-0.4521773,-0.32222414,0.8316895,-0.8533851,0.4274484,-0.29836524,,0.060501337,-0.027260125,0.034472585,-0.34480956,-0.43650958,0.8310027,-0.6094131,0.77745134,0.15551513,-0.7139482,-0.45280087,-0.5340874,,0.10669653,1.3421687,0.44153148,0.99560404,0.021024767,-0.09127204,-0.043597113,-0.7584492,-0.6502723,-0.08289703,0.65139294,-0.7541985,,-0.082242966,0.25792027,-0.08321243,0.3116869,0.7997697,0.5130495,-0.8938344,0.063609704,0.44386238,0.32235274,-0.59692734,0.734688,,-0.027852092,0.4017309,-0.3789195,0.43998632,0.4142106,-0.7967695,-0.888165,0.0697374,-0.45420223,-0.13257074,0.9075055,0.39857084,,1.1691213616302258,0.3219298425949229,0.21069638402000002,-0.23317521715479106,0.6091255159543335,0.6574195835074979,-0.4116270466583837,,-0.9191828348888238,-0.32735892380550274,0.18575965329000002,0.8683260559694154,0.34855971090163856,-0.2968872770513582,0.4447858920836424,,-0.04888449068679618,-0.07013605599139214,0.08219610256,-0.07424845330935166,,3.0718744e-05,-3.0994415e-06,5.9604645e-07,1.0,-5.0660223e-05,-4.375726e-05,5.0660223e-05,1.0,-5.5730343e-06,4.375726e-05,5.543232e-06,1.0,780,2.402,1,2,0.371,False,-0.26148663402373185,0.6214627272480482
2.4023183390090708,17:00:20.923501,17:00:07.166077,0,,0.11210574,0.00788255,0.017922774,-0.25753814,-0.8444564,-0.46964613,-0.4547593,-0.32292122,0.8300096,-0.85256565,0.42733517,-0.30086,,0.060750615,-0.027492434,0.03465289,-0.33971167,-0.42889485,0.83704543,-0.6076907,0.77935416,0.15270542,-0.7178495,-0.45678893,-0.5253912,,0.10669653,1.3421687,0.44153148,0.99560404,0.021024767,-0.09127204,-0.043597113,-0.7584492,-0.6502723,-0.08289703,0.65139294,-0.7541985,,-0.08184818,0.2577684,-0.08265821,0.30973172,0.79955065,0.5145727,-0.8952937,0.06300426,0.44099846,0.32018033,-0.5972849,0.7353471,,-0.028097497,0.40173602,-0.37921682,0.43509224,0.40680712,-0.8032451,-0.8910762,0.06659181,-0.4489418,-0.12914318,0.9110837,0.39146972,,1.1704882853489635,0.3211652920403747,0.21129915887000003,-0.23736901602448157,0.6072126049576173,0.6547321396719384,-0.4119537347906522,,-0.9206269859363038,-0.32897297497621564,0.18572076459000003,0.8674872961954773,0.35511826289037973,-0.30378723249145706,0.44756274120792516,,-0.04888449068679618,-0.07013605599139214,0.08219610256,-0.07424845330935166,,3.0718744e-05,-3.0994415e-06,5.9604645e-07,1.0,-5.0660223e-05,-4.375726e-05,5.0660223e-05,1.0,-5.5730343e-06,4.375726e-05,5.543232e-06,1.0,789,2.43,1,2,0.398,False,-0.2604738128088746,0.6188073162051779
2.4472405790002085,17:00:20.956785,17:00:07.301670,0,,0.11181338,0.0081110895,0.017495379,-0.25543648,-0.84436506,-0.4709563,-0.4567635,-0.32393473,0.8285128,-0.85212636,0.4267481,-0.3029305,,0.061046973,-0.02778238,0.034839153,-0.33756623,-0.42614222,0.8393162,-0.6087022,0.7789586,0.150682,-0.7180047,-0.46002844,-0.5223439,,0.10669653,1.3421687,0.44153148,0.99560404,0.021024767,-0.09127204,-0.043597113,-0.7584492,-0.6502723,-0.08289703,0.65139294,-0.7541985,,-0.0815174,0.2576681,-0.08220998,0.307547,0.7994765,0.5159963,-0.8965762,0.06185251,0.43854913,0.31869406,-0.59750444,0.7358142,,-0.028386146,0.4017111,-0.379567,0.43304092,0.40434358,-0.8055941,-0.8919562,0.06336668,-0.44765922,-0.12996031,0.9124094,0.38809714,,1.1716775862115942,0.32060925527343054,0.21178397133000001,-0.24156281489417206,0.6058462399599629,0.6522524541427179,-0.4096669178647724,,-0.922526778223363,-0.3307800944687842,0.18567669073,0.8656000867041166,0.35607471838873783,-0.30579233891944047,0.4454392683481795,,-0.04888449068679618,-0.07013605599139214,0.08219610256,-0.07424845330935166,,3.0718744e-05,-3.0994415e-06,5.9604645e-07,1.0,-5.0660223e-05,-4.375726e-05,5.0660223e-05,1.0,-5.5730343e-06,4.375726e-05,5.543232e-06,1.0,802,2.472,1,2,0.44,False,-0.26106958999408425,0.6208833648386944
2.4805081239901483,17:00:20.989650,17:00:07.301670,0,,0.11140847,0.00839895,0.016881153,-0.2531784,-0.8437303,-0.47330725,-0.46114933,-0.32483113,0.8257276,-0.8504364,0.42732176,-0.30684555,,0.061368316,-0.028077275,0.03504038,-0.33553267,-0.42158562,0.84242696,-0.6093513,0.77911645,0.14720212,-0.71840715,-0.46394283,-0.5183128,,0.10669653,1.3421687,0.44153148,0.99560404,0.021024767,-0.09127204,-0.043597113,-0.7584492,-0.6502723,-0.08289703,0.65139294,-0.7541985,,-0.081058376,0.257493,-0.08159136,0.305043,0.7987745,0.51856345,-0.89883393,0.061536048,0.433948,0.31471628,-0.5984752,0.7367368,,-0.028700443,0.40169376,-0.3799298,0.43109438,0.4000984,-0.80875146,-0.8928437,0.059678316,-0.44639513,-0.13033704,0.91452706,0.38295233,,1.173253023717936,0.3197597546572658,0.21245285697000002,-0.24680506348128517,0.6020204179665306,0.6494096074159565,-0.4114637025922495,,-0.9246119160994036,-0.33264899582434654,0.18563391316000002,0.8641322570997247,0.3571678103868613,-0.3094607593137909,0.4473993971417909,,-0.04888449068679618,-0.07013605599139214,0.08219610256,-0.07424845330935166,,3.0718744e-05,-3.0994415e-06,5.9604645e-07,1.0,-5.0660223e-05,-4.375726e-05,5.0660223e-05,1.0,-5.5730343e-06,4.375726e-05,5.543232e-06,1.0,811,2.5,1,2,0.468,False,-0.26196325577190027,0.6211730460433711
2.5133723170147277,17:00:21.025028,17:00:07.301670,0,,0.1111445,0.008602619,0.016366452,-0.25149858,-0.8432204,-0.47510824,-0.46520576,-0.32514608,0.8233248,-0.8487238,0.42808813,-0.31049728,,0.061484985,-0.028202042,0.035134792,-0.33751205,-0.41633758,0.8442443,-0.6059834,0.78241134,0.1435847,-0.7203262,-0.46313646,-0.516367,,0.10669653,1.3421687,0.44153148,0.99560404,0.021024767,-0.09127204,-0.043597113,-0.7584492,-0.6502723,-0.08289703,0.65139294,-0.7541985,,-0.08074984,0.25731573,-0.08109189,0.30312285,0.7981983,0.52057284,-0.9008116,0.061787672,0.42979148,0.31089383,-0.59921765,0.73775554,,-0.028814938,0.40169623,-0.38008788,0.4329734,0.39458644,-0.8104539,-0.8924967,0.061555665,-0.44683394,-0.12642659,0.91679466,0.37881908,,1.1741643061970946,0.319111045095831,0.21299211361000003,-0.2505794824640066,0.5983312324728638,0.6473538089270452,-0.4108103263277124,,-0.9253069620580838,-0.3333363190501525,0.18560020962,0.8687454358563844,0.35826090238498487,-0.31133224742504906,0.448052773406328,,-0.04888449068679618,-0.07013605599139214,0.08219610256,-0.07424845330935166,,3.0718744e-05,-3.0994415e-06,5.9604645e-07,1.0,-5.0660223e-05,-4.375726e-05,5.0660223e-05,1.0,-5.5730343e-06,4.375726e-05,5.543232e-06,1.0,824,2.542,1,2,0.51,False,-0.26148663402373185,0.6238767372870209
2.54877294000471,17:00:21.058744,17:00:07.301670,0,,0.11092639,0.008833021,0.015776157,-0.24926946,-0.8440504,-0.47480902,-0.46947023,-0.3235046,0.8215488,-0.84703153,0.42769578,-0.31561685,,0.061480016,-0.028202876,0.03520447,-0.33560994,-0.41377506,0.84625995,-0.6055527,0.7829151,0.14265269,-0.721576,-0.4645794,-0.51331675,,0.10669653,1.3421687,0.44153148,0.99560404,0.021024767,-0.09127204,-0.043597113,-0.7584492,-0.6502723,-0.08289703,0.65139294,-0.7541985,,-0.08048043,0.25710753,-0.08051468,0.30065098,0.7991018,0.52062005,-0.9029756,0.06279015,0.4250793,0.30699182,-0.5979077,0.7404474,,-0.028815243,0.40175518,-0.38012537,0.43114653,0.39211226,-0.81262577,-0.89352024,0.06034023,-0.4449502,-0.1254364,0.9179363,0.3763757,,1.1748207384914036,0.3185550083288868,0.21360914765000003,-0.2547732813336971,0.5945054104794314,0.6426323511770509,-0.4127704551213235,,-0.9254228030511972,-0.33338265544739787,0.18554576544,0.8681163660259308,0.3604470863812319,-0.3144217937264408,0.4506662784644765,,-0.04888449068679618,-0.07013605599139214,0.08219610256,-0.07424845330935166,,3.0718744e-05,-3.0994415e-06,5.9604645e-07,1.0,-5.0660223e-05,-4.375726e-05,5.0660223e-05,1.0,-5.5730343e-06,4.375726e-05,5.543232e-06,1.0,833,2.57,1,2,0.538,False,-0.2608908568385213,0.6332430962382358
2.582489174004877,17:00:21.087529,17:00:07.301670,0,,0.11079916,0.009004205,0.015184835,-0.24667816,-0.84394133,-0.47635365,-0.47456318,-0.32337683,0.81866795,-0.84494954,0.42800748,-0.32073355,,0.06131791,-0.028217345,0.03522873,-0.33623266,-0.41313562,0.8463253,-0.60577774,0.78294474,0.14152959,-0.7210969,-0.46509823,-0.51352,,0.1066588,1.3421705,0.44153067,0.99560636,0.02106589,-0.091236785,-0.043543134,-0.75844806,-0.65027726,-0.08289703,0.65139294,-0.7541985,,-0.08027327,0.25685117,-0.07997323,0.29779118,0.7989912,0.5224303,-0.90550697,0.06312338,0.41960996,0.3022871,-0.59802043,0.7422897,,-0.028620273,0.4017879,-0.38014945,0.43178618,0.39147875,-0.8125916,-0.893152,0.059864175,-0.445753,-0.1258577,0.9182378,0.37549856,,1.175145093272121,0.31801441702769107,0.21419377444,-0.2591767701468721,0.5898597694874064,0.6398862606914845,-0.4129337991874579,,-0.9251988437978447,-0.33316641892691956,0.18548872868000002,0.8681163660259308,0.3597639038824047,-0.31549827901077,0.4598135461679961,,-0.04888449068679618,-0.07013605599139214,0.08219610256,-0.07424845330935166,,-6.8582594e-06,-5.841255e-06,3.4570694e-06,1.0,-9.771436e-06,-8.441508e-06,9.763986e-06,1.0,-1.0728836e-06,8.448958e-06,1.0430813e-06,1.0,842,2.598,1,2,0.566,False,-0.26136747858668974,0.6388918797294325
2.6112812170176767,17:00:21.124309,17:00:07.473704,0,,0.11059004,0.00925599,0.014294609,-0.2448435,-0.8429025,-0.4791317,-0.47865883,-0.32466802,0.8157674,-0.8431711,0.429076,-0.32396987,,0.061265193,-0.028213814,0.035252154,-0.3363127,-0.41325146,0.8462369,-0.6066494,0.78237104,0.14096767,-0.72032636,-0.46596,-0.51382005,,0.1066588,1.3421705,0.44153067,0.99560636,0.02106589,-0.091236785,-0.043543134,-0.75844806,-0.65027726,-0.08289703,0.65139294,-0.7541985,,-0.07998908,0.2564616,-0.079156466,0.2957107,0.79783714,0.5253676,-0.90747553,0.06282295,0.41538107,0.2984013,-0.59959084,0.7425951,,-0.028569875,0.40181494,-0.38015786,0.43186814,0.3916998,-0.81244147,-0.8929502,0.05884653,-0.44629252,-0.12700333,0.9182093,0.37518236,,1.1754308343884672,0.3170181844869161,0.21508951083000002,-0.2625318092426245,0.5865804934930359,0.6395381769949977,-0.4129337991874579,,-0.9250521118732344,-0.3330814688653031,0.18543687708,0.8672776062519927,0.3588074483840466,-0.31610689226728456,0.4642238359536216,,-0.04888449068679618,-0.07013605599139214,0.08219610256,-0.07424845330935166,,-6.8582594e-06,-5.841255e-06,3.4570694e-06,1.0,-9.771436e-06,-8.441508e-06,9.763986e-06,1.0,-1.0728836e-06,8.448958e-06,1.0430813e-06,1.0,855,2.639,1,2,0.608,False,-0.26112916771260597,0.6398092035442424
2.6480043370102067,17:00:21.159818,17:00:07.473704,0,,0.11041188,0.009391278,0.013613343,-0.24469537,-0.8413962,-0.4818471,-0.48420027,-0.32451344,0.8125522,-0.84004426,0.4321383,-0.32799733,,0.06122083,-0.02824895,0.035383105,-0.33622664,-0.41324878,0.8462724,-0.606822,0.7822505,0.14089355,-0.72022116,-0.46616462,-0.51378196,,0.1066588,1.3421705,0.44153067,0.99560636,0.02106589,-0.091236785,-0.043543134,-0.75844806,-0.65027726,-0.08289703,0.65139294,-0.7541985,,-0.079755135,0.25612077,-0.07857055,0.2951665,0.7961039,0.52829474,-0.90959567,0.06490807,0.41039327,0.29242507,-0.60166895,0.7432913,,-0.02853326,0.40191165,-0.38025606,0.43178666,0.3917212,-0.8124745,-0.8929606,0.0586101,-0.44630283,-0.12720707,0.91821533,0.37509865,,1.1756547936418198,0.3160991792748834,0.21573506325000003,-0.26399963884701616,0.5811150335024182,0.6399926348759669,-0.41048363819544365,,-0.9252297347293416,-0.333181864392668,0.18530076663000003,0.8670679163085081,0.3588074483840466,-0.3161885710074251,0.4647138681520245,,-0.04888449068679618,-0.07013605599139214,0.08219610256,-0.07424845330935166,,-6.8582594e-06,-5.841255e-06,3.4570694e-06,1.0,-9.771436e-06,-8.441508e-06,9.763986e-06,1.0,-1.0728836e-06,8.448958e-06,1.0430813e-06,1.0,864,2.668,1,2,0.636,False,-0.26160578946077395,0.645071745429203
