AlexandreBanks6/ExpertPlaybackApp/resources/Motions/P_01/PC1/Data_PC1_2.csv
Task Time,PC1 Time,PC2 Time,Gaze Calib,s_T_psm1,Tx,Ty,Tz,R00,R01,R02,R10,R11,R12,R20,R21,R22,s_T_psm3,Tx,Ty,Tz,R00,R01,R02,R10,R11,R12,R20,R21,R22,cart_T_ecm,Tx,Ty,Tz,R00,R01,R02,R10,R11,R12,R20,R21,R22,ecm_T_psm1,Tx,Ty,Tz,R00,R01,R02,R10,R11,R12,R20,R21,R22,ecm_T_psm3,Tx,Ty,Tz,R00,R01,R02,R10,R11,R12,R20,R21,R22,psm1_joints,q1,q2,q3,q4,q5,q6,jaw,psm3_joints,q1,q2,q3,q4,q5,q6,jaw,ecm_joints,q1,q2,q3,q4,ecmi_T_ecm,Tx,Ty,Tz,R00,R01,R02,R10,R11,R12,R20,R21,R22,Sample #,Task Duration (s),Collisions (binary),Collisions (increments),Cumulative Collision Time (s),Clutch Press,MTMR Angle,MTML Angle
""
lci_T_si,,,,,-0.060357757,0.022834528,0.23020615,0.9952371,-0.021149157,0.09516208,0.048441693,-0.7398343,-0.6710429,0.084596165,0.6724566,-0.73528606
rci_T_si,,,,,-0.0698917,0.026742559,0.23927253,0.9902512,-0.040660527,0.13322671,0.061729427,-0.729299,-0.68140477,0.124868385,0.68298584,-0.71967924
ecm_T_lc,,,,,-4.4061628e-05,-0.00034663224,-0.01840835,-0.99912,0.030754527,0.028518902,-0.031987965,-0.99852574,-0.043852776,0.027128186,-0.04472645,0.9986309
ecm_T_rc,,,,,-0.0043358393,0.01870579,-0.007592615,-0.99555075,-0.052743673,-0.078081585,0.04863213,-0.9973746,0.053654674,-0.08070653,0.04961868,0.9955021
cart_T_ecmi,,,,,0.106666066,1.342168,0.4415365,0.99560696,0.021075713,-0.09122836,-0.043530237,-0.7584478,-0.65027845,-0.08289703,0.65139294,-0.7541985
ecmac_T_ecmrep_psm1,,,,,0.01038242,-0.2501324,-0.30762842,0.998145,0.0496832,0.035188068,-0.04731537,0.99675006,-0.06519635,-0.03831287,0.06341047,0.99725187
ecmac_T_ecmrep_psm3,,,,,-0.018947443,-0.4527795,-0.5580277,0.99342906,-0.031421527,0.110051684,0.0051236153,0.97282016,0.23150527,-0.11433475,-0.2294202,0.9665888
""
0,16:57:44.713080,16:57:31.060769,0,,0.13399698,0.017828241,0.027465388,-0.44181925,-0.40687397,-0.7995306,-0.8571955,-0.071397066,0.51001805,-0.26459718,0.91068983,-0.317226,,0.06224132,-0.020664021,0.037768483,0.598328,0.07618462,0.797621,-0.7687404,0.3352685,0.5446404,-0.22592399,-0.9390372,0.25916672,,0.10664895,1.3421704,0.44153842,0.995607,0.021076847,-0.09122739,-0.04352875,-0.75844777,-0.65027857,-0.08289703,0.65139294,-0.7541985,,-0.10408551,0.27087218,-0.081594385,0.4367653,0.33319142,0.8355953,-0.8061398,0.5571909,0.19919054,-0.39921755,-0.76060617,0.5119605,,-0.03025183,0.40779978,-0.3750984,-0.52403605,-0.027755909,-0.8512437,-0.6552336,-0.6253762,0.42376107,-0.54410946,0.77982956,0.3095331,,1.1111159150119256,0.470190868314285,0.20736880759,-0.058084114345213246,-0.2746393645285353,1.0672012996409717,-0.4024797789548641,,-0.9627544937651985,-0.297132147335788,0.18527484083,-0.3524887949974854,0.3809425613460479,-1.2258433987806228,0.6532129204709828,,-0.048596511360217115,-0.07013605599139214,0.08219610256,-0.07424845330935166,,-1.7303973e-05,-8.940697e-07,-1.4305115e-06,1.0,1.1250377e-06,9.760261e-07,-1.128763e-06,1.0,8.940697e-08,-9.685755e-07,-1.4901161e-07,1.0,34,0.102,0,0,0.0,False,-0.2561246393568388,0.8274743439739973
0.12470478599425405,16:57:44.735239,16:57:31.060769,0,,0.13386677,0.017671302,0.027888581,-0.4417675,-0.40544313,-0.8002857,-0.85715413,-0.07256514,0.50992274,-0.2648175,0.9112356,-0.3154704,,0.062244795,-0.020663917,0.037769735,0.5983699,0.07622047,0.79758614,-0.7686794,0.33542764,0.5446285,-0.22602057,-0.9389775,0.25929895,,0.10664895,1.3421704,0.44153842,0.995607,0.021076847,-0.09122739,-0.04352875,-0.75844777,-0.65027857,-0.08289703,0.65139294,-0.7541985,,-0.103992805,0.27103618,-0.08202471,0.4367319,0.3316906,0.83620965,-0.8062551,0.5566277,0.20029564,-0.39902127,-0.7616738,0.51052433,,-0.030255388,0.40780053,-0.37509903,-0.5240746,-0.027807256,-0.8512183,-0.65528756,-0.62524587,0.4238701,-0.54400736,0.7799323,0.30945376,,1.1118032382377316,0.47037621390326645,0.20691640238000003,-0.058293804288697765,-0.2746393645285353,1.0685081594832204,-0.4034598433516696,,-0.9627776619638212,-0.2971398700686622,0.18527613712000002,-0.3524887949974854,0.3810791978458134,-1.225954816684319,0.6532129204709828,,-0.048596511360217115,-0.07013605599139214,0.08219610256,-0.07424845330935166,,-1.7303973e-05,-8.940697e-07,-1.4305115e-06,1.0,1.1250377e-06,9.760261e-07,-1.128763e-06,1.0,8.940697e-08,-9.685755e-07,-1.4901161e-07,1.0,42,0.126,0,0,0.0,False,-0.2556480176086704,0.8266535805607464
0.146859572007088,16:57:44.765232,16:57:31.060769,0,,0.13373895,0.017525941,0.028302401,-0.44045523,-0.40323898,-0.80212057,-0.8576832,-0.075015485,0.50867695,-0.26528978,0.91201484,-0.31281045,,0.06224475,-0.020661369,0.03777188,0.5983758,0.07596339,0.79760635,-0.76867247,0.33526438,0.5447389,-0.22602877,-0.9390566,0.25900507,,0.10664895,1.3421704,0.44153842,0.995607,0.021076847,-0.09122739,-0.04352875,-0.75844777,-0.65027857,-0.08289703,0.65139294,-0.7541985,,-0.103901446,0.27120265,-0.08244024,0.43544573,0.3293652,0.83779806,-0.8070031,0.5552297,0.20116147,-0.3989148,-0.76370054,0.50757116,,-0.030255686,0.40780368,-0.37509802,-0.52408034,-0.0275341,-0.85122365,-0.6552914,-0.6253723,0.4236776,-0.5439973,0.7798406,0.30970246,,1.1125214523950344,0.4705847276908705,0.20647825636000003,-0.05997132383657396,-0.2746393645285353,1.0715302728684213,-0.40198974675646115,,-0.9627853846966954,-0.2971244246029138,0.18527484083,-0.3524887949974854,0.3810791978458134,-1.225628101723757,0.6525595442064457,,-0.048596511360217115,-0.07013605599139214,0.08219610256,-0.07424845330935166,,-1.7303973e-05,-8.940697e-07,-1.4305115e-06,1.0,1.1250377e-06,9.760261e-07,-1.128763e-06,1.0,8.940697e-08,-9.685755e-07,-1.4901161e-07,1.0,57,0.172,0,0,0.0,False,-0.25636295023092304,0.8267018607615264
0.17685629401239567,16:57:44.803569,16:57:31.060769,0,,0.13362026,0.017413229,0.02867955,-0.43838447,-0.40647605,-0.80162096,-0.8569795,-0.07981834,0.5091319,-0.27093393,0.9101683,-0.31335062,,0.062247653,-0.020660982,0.037772298,0.5983747,0.075978056,0.7976057,-0.7686746,0.33526832,0.54473335,-0.22602415,-0.939054,0.25901854,,0.10664895,1.3421704,0.44153842,0.995607,0.021076847,-0.09122739,-0.04352875,-0.75844777,-0.65027857,-0.08289703,0.65139294,-0.7541985,,-0.10381543,0.27136934,-0.08280607,0.4338374,0.33259943,0.8373546,-0.8102462,0.5504963,0.2011339,-0.3940636,-0.7657228,0.50831336,,-0.03025863,0.40780392,-0.37509793,-0.5240795,-0.027549166,-0.85122365,-0.6552885,-0.6253695,0.42368615,-0.5440015,0.7798423,0.30969068,,1.1132396665523372,0.47060017315661895,0.20607640646000003,-0.06269729310187278,-0.2691739045379177,1.0708307787670304,-0.4029698111532669,,-0.9628008301624439,-0.2971244246029138,0.18527613712000002,-0.3524887949974854,0.3810791978458134,-1.225628101723757,0.6525595442064457,,-0.048596511360217115,-0.07013605599139214,0.08219610256,-0.07424845330935166,,-1.7303973e-05,-8.940697e-07,-1.4305115e-06,1.0,1.1250377e-06,9.760261e-07,-1.128763e-06,1.0,8.940697e-08,-9.685755e-07,-1.4901161e-07,1.0,65,0.196,0,0,0.0,False,-0.2559459062012759,0.8269915419662026
0.2152208720217459,16:57:44.826853,16:57:31.184398,0,,0.13348617,0.017331779,0.029071808,-0.43586478,-0.4107811,-0.8008,-0.85539174,-0.08760995,0.51051897,-0.27986953,0.90751505,-0.31319273,,0.06225257,-0.020661607,0.03777218,0.5983699,0.07593682,0.79761326,-0.7686819,0.3352235,0.5447507,-0.22601208,-0.9390734,0.258959,,0.10664895,1.3421704,0.44153842,0.995607,0.021076847,-0.09122739,-0.04352875,-0.75844777,-0.65027857,-0.08289703,0.65139294,-0.7541985,,-0.10371435,0.27156994,-0.08316389,0.43206054,0.33687672,0.83656305,-0.81500155,0.54301417,0.2022575,-0.38612977,-0.7691877,0.50917006,,-0.030263469,0.407803,-0.3750985,-0.52407515,-0.027503533,-0.8512278,-0.6552816,-0.6254052,0.42364416,-0.544014,0.7798153,0.30973676,,1.1141277808328731,0.47057700495799626,0.20566937140000002,-0.06605233219762517,-0.26029253205316405,1.0705313079387107,-0.4024797789548642,,-0.9628239983610665,-0.297132147335788,0.1852787297,-0.3524887949974854,0.3810791978458134,-1.2255464229836162,0.6523962001403113,,-0.048596511360217115,-0.07013605599139214,0.08219610256,-0.07424845330935166,,-1.7303973e-05,-8.940697e-07,-1.4305115e-06,1.0,1.1250377e-06,9.760261e-07,-1.128763e-06,1.0,8.940697e-08,-9.685755e-07,-1.4901161e-07,1.0,76,0.229,0,0,0.0,False,-0.25624379479388093,0.8292607114028376
0.23850655800197273,16:57:44.865874,16:57:31.184398,0,,0.1333067,0.017280504,0.029560298,-0.43005398,-0.41868386,-0.7998483,-0.85246,-0.1033977,0.5124656,-0.29726356,0.90222657,-0.31244472,,0.062261842,-0.020659298,0.037777066,0.59836894,0.07573299,0.79763335,-0.76868653,0.3350678,0.54484,-0.22599891,-0.9391453,0.25870913,,0.10664895,1.3421704,0.44153842,0.995607,0.021076847,-0.09122739,-0.04352875,-0.75844777,-0.65027857,-0.08289703,0.65139294,-0.7541985,,-0.10357464,0.2718579,-0.08357745,0.42769432,0.34471926,0.8356113,-0.8244049,0.5278868,0.20418648,-0.37072116,-0.7762114,0.50996244,,-0.03027323,0.40780744,-0.37509933,-0.52407485,-0.027284404,-0.85123503,-0.65527284,-0.625527,0.4234778,-0.5440249,0.77972525,0.30994427,,1.1154406454214914,0.4704148275676376,0.20517548491,-0.07339148021958353,-0.2429396965829531,1.071165086134707,-0.40198974675646126,,-0.9628857802240604,-0.2971244246029138,0.18528002599,-0.3524887949974854,0.3810791978458134,-1.225219708023054,0.6550097051984597,,-0.048596511360217115,-0.07013605599139214,0.08219610256,-0.07424845330935166,,-1.7303973e-05,-8.940697e-07,-1.4305115e-06,1.0,1.1250377e-06,9.760261e-07,-1.128763e-06,1.0,8.940697e-08,-9.685755e-07,-1.4901161e-07,1.0,88,0.266,0,0,0.0,False,-0.2570778828531757,0.8296952332098528
0.2774506999994628,16:57:44.895715,16:57:31.184398,0,,0.13321064,0.017298594,0.029797673,-0.426336,-0.4252689,-0.79836327,-0.84945655,-0.115127355,0.51494604,-0.310904,0.897715,-0.31216457,,0.062268574,-0.020656392,0.03778267,0.5984152,0.075664066,0.7976052,-0.7686218,0.3351586,0.5448754,-0.22609675,-0.9391185,0.25872105,,0.10664895,1.3421704,0.44153842,0.995607,0.021076847,-0.09122739,-0.04352875,-0.75844777,-0.65027857,-0.08289703,0.65139294,-0.7541985,,-0.10349672,0.27203044,-0.0837508,0.42512608,0.3513021,0.83417904,-0.8312237,0.516286,0.20619377,-0.35823867,-0.78104776,0.5114973,,-0.030280553,0.40781298,-0.37509993,-0.5241179,-0.027224263,-0.8512105,-0.65532625,-0.62544966,0.42350936,-0.5439191,0.7797894,0.3099686,,1.116220641441788,0.47022175924578197,0.20494733787000002,-0.07800465897624305,-0.22900277360687818,1.0708270898766479,-0.4042765636823412,,-0.9629398393541799,-0.2971167018700396,0.18528002599,-0.3524887949974854,0.3812158343455788,-1.2251677684464695,0.6546830170661914,,-0.048596511360217115,-0.07013605599139214,0.08219610256,-0.07424845330935166,,-1.7303973e-05,-8.940697e-07,-1.4305115e-06,1.0,1.1250377e-06,9.760261e-07,-1.128763e-06,1.0,8.940697e-08,-9.685755e-07,-1.4901161e-07,1.0,96,0.289,0,0,0.0,False,-0.25642252794944387,0.8308539580285594
0.3073109000106342,16:57:44.924529,16:57:31.184398,0,,0.13300544,0.017298758,0.030173928,-0.4228596,-0.4298507,-0.7977581,-0.84455717,-0.13218889,0.5188924,-0.3285011,0.89317113,-0.30713618,,0.06227099,-0.020657554,0.03778398,0.5984109,0.07568064,0.7976069,-0.7686279,0.33515623,0.5448681,-0.22608691,-0.939118,0.25873142,,0.10664895,1.3421704,0.44153842,0.995607,0.021076847,-0.09122739,-0.04352875,-0.75844777,-0.65027857,-0.08289703,0.65139294,-0.7541985,,-0.103321254,0.2722841,-0.084048375,0.42315716,0.35574174,0.83329815,-0.8392098,0.5005903,0.21245307,-0.34156257,-0.789213,0.5103703,,-0.030282976,0.40781322,-0.37510166,-0.52411395,-0.027240623,-0.8512124,-0.65532076,-0.62545216,0.42351416,-0.5439294,0.7797868,0.30995688,,1.1176184560920226,0.46984334533494493,0.20457659893000002,-0.08240814778941807,-0.21055684613854375,1.0741633894092577,-0.4010096823596554,,-0.9629552848199283,-0.2971244246029138,0.18528002599,-0.3524887949974854,0.3812158343455788,-1.2251677684464695,0.655663081462997,,-0.048596511360217115,-0.07013605599139214,0.08219610256,-0.07424845330935166,,-1.7303973e-05,-8.940697e-07,-1.4305115e-06,1.0,1.1250377e-06,9.760261e-07,-1.128763e-06,1.0,8.940697e-08,-9.685755e-07,-1.4901161e-07,1.0,104,0.314,0,0,0.0,False,-0.25672041654204936,0.8316264412410312
0.33617686401703395,16:57:44.946578,16:57:31.184398,0,,0.13273203,0.017230317,0.030476272,-0.4187486,-0.43436593,-0.7974809,-0.8434272,-0.13945079,0.5188296,-0.33657116,0.88987637,-0.3079613,,0.062274992,-0.020657048,0.037785053,0.59840935,0.07557236,0.79761827,-0.7686312,0.33507326,0.5449146,-0.22608009,-0.9391564,0.25859827,,0.10664895,1.3421704,0.44153842,0.995607,0.021076847,-0.09122739,-0.04352875,-0.75844777,-0.65027857,-0.08289703,0.65139294,-0.7541985,,-0.10307403,0.2724395,-0.08434091,0.4197147,0.36029285,0.8330838,-0.843788,0.49309146,0.21185493,-0.3344567,-0.7918648,0.51096857,,-0.030287074,0.40781403,-0.3751019,-0.5241127,-0.027124172,-0.85121685,-0.65531653,-0.62551713,0.4234248,-0.5439358,0.7797388,0.31006658,,1.1191398344682448,0.46931047676662346,0.20424734127000002,-0.08744070643304665,-0.20222201965285186,1.0728393728731933,-0.4018264026903269,,-0.962978453018551,-0.2971244246029138,0.18528132228000002,-0.3524887949974854,0.3812158343455788,-1.2250044109661884,0.6559897695952656,,-0.048596511360217115,-0.07013605599139214,0.08219610256,-0.07424845330935166,,-1.7303973e-05,-8.940697e-07,-1.4305115e-06,1.0,1.1250377e-06,9.760261e-07,-1.128763e-06,1.0,8.940697e-08,-9.685755e-07,-1.4901161e-07,1.0,115,0.348,0,0,0.0,False,-0.2566012611050077,0.8313367600363541
0.3582240020041354,16:57:44.975793,16:57:31.184398,0,,0.13252851,0.017191961,0.030665249,-0.41601464,-0.43949482,-0.79610044,-0.8423791,-0.143511,0.51942486,-0.3425337,0.8867068,-0.31051868,,0.062278464,-0.020655558,0.037789226,0.5984105,0.07559979,0.7976148,-0.76863146,0.33508757,0.5449053,-0.2260761,-0.939149,0.25862828,,0.10664895,1.3421704,0.44153842,0.995607,0.021076847,-0.09122739,-0.04352875,-0.75844777,-0.65027857,-0.08289703,0.65139294,-0.7541985,,-0.10288686,0.27254096,-0.08452331,0.41747963,0.36553553,0.8319222,-0.8470011,0.4881036,0.21058036,-0.3290896,-0.792552,0.5133823,,-0.030290952,0.40781796,-0.3751029,-0.5241141,-0.027153017,-0.85121506,-0.65531343,-0.6255062,0.4234457,-0.54393816,0.77974653,0.3100429,,1.1202596307350075,0.4688625582599184,0.20403993487000002,-0.09079574552879904,-0.1959367406636416,1.06942940284611,-0.40198974675646115,,-0.9630093439500479,-0.2971167018700396,0.18528002599,-0.3524887949974854,0.3812158343455788,-1.2250044109661882,0.6563164577275339,,-0.048596511360217115,-0.07013605599139214,0.08219610256,-0.07424845330935166,,-1.7303973e-05,-8.940697e-07,-1.4305115e-06,1.0,1.1250377e-06,9.760261e-07,-1.128763e-06,1.0,8.940697e-08,-9.685755e-07,-1.4901161e-07,1.0,123,0.372,0,0,0.0,False,-0.2566608388235285,0.8308539580285594
0.3874528529995587,16:57:45.007525,16:57:31.331313,0,,0.13205044,0.017048433,0.031090945,-0.41264305,-0.44396287,-0.7953757,-0.84038323,-0.15130067,0.5204462,-0.3513997,0.88317895,-0.31066585,,0.06228389,-0.020656854,0.037795544,0.5984041,0.07558055,0.7976214,-0.76864207,0.3350487,0.54491436,-0.22605702,-0.9391645,0.25858894,,0.10664895,1.3421704,0.44153842,0.995607,0.021076847,-0.09122739,-0.04352875,-0.75844777,-0.65027857,-0.08289703,0.65139294,-0.7541985,,-0.10244729,0.27272707,-0.084973335,0.4148598,0.37004283,0.8312398,-0.85142875,0.4800527,0.21123086,-0.32087445,-0.79537266,0.5142197,,-0.030296735,0.40782207,-0.37510747,-0.5241085,-0.027129985,-0.8512193,-0.6553022,-0.6255377,0.42341653,-0.54395705,0.7797221,0.3100713,,1.122723182521885,0.4677890983904012,0.20354993725,-0.09519923434197405,-0.1860989126805299,1.0672065043299475,-0.40411321961620694,,-0.9630556803472933,-0.2971244246029138,0.18527743341000003,-0.3524887949974854,0.3812158343455788,-1.2249227322260476,0.6564798017936683,,-0.048596511360217115,-0.07013605599139214,0.08219610256,-0.07424845330935166,,-1.7303973e-05,-8.940697e-07,-1.4305115e-06,1.0,1.1250377e-06,9.760261e-07,-1.128763e-06,1.0,8.940697e-08,-9.685755e-07,-1.4901161e-07,1.0,131,0.397,0,0,0.0,False,-0.25624379479388093,0.8354888573033876
0.4191695199988317,16:57:45.027176,16:57:31.331313,0,,0.13181272,0.017014846,0.031292588,-0.41104382,-0.44938836,-0.7931538,-0.83819234,-0.1557872,0.5226511,-0.35843647,0.879648,-0.31263855,,0.062289387,-0.020656392,0.03779924,0.59840155,0.07542177,0.7976384,-0.76864743,0.33492514,0.5449828,-0.22604558,-0.93922126,0.25839245,,0.10664895,1.3421704,0.44153842,0.995607,0.021076847,-0.09122739,-0.04352875,-0.75844777,-0.65027857,-0.08289703,0.65139294,-0.7541985,,-0.10222688,0.27284145,-0.08516475,0.41387054,0.37559703,0.8292394,-0.854454,0.47451502,0.21152745,-0.3140375,-0.7960919,0.5173182,,-0.030302512,0.40782484,-0.3751091,-0.5241064,-0.026959075,-0.851226,-0.6552951,-0.62563443,0.42328462,-0.54396766,0.7796504,0.31023288,,1.1240206016447547,0.46723306162345707,0.20333086424000002,-0.09729613377681931,-0.17831063219389978,1.0632243672833277,-0.40133637049192417,,-0.9630942940116644,-0.2971244246029138,0.18527743341000003,-0.3524887949974854,0.3812158343455788,-1.2246776960056258,0.659256650917951,,-0.048596511360217115,-0.07013605599139214,0.08219610256,-0.07424845330935166,,-1.7303973e-05,-8.940697e-07,-1.4305115e-06,1.0,1.1250377e-06,9.760261e-07,-1.128763e-06,1.0,8.940697e-08,-9.685755e-07,-1.4901161e-07,1.0,139,0.42,0,0,0.0,False,-0.25719703829021734,0.8396409545704211
0.4388189410092309,16:57:45.055534,16:57:31.331313,0,,0.13155614,0.01697576,0.03149247,-0.40926066,-0.4525743,-0.79226387,-0.8358886,-0.1621266,0.5244094,-0.36578125,0.8768646,-0.3119498,,0.062294003,-0.02065739,0.03780198,0.59839624,0.07525756,0.7976579,-0.7686558,0.33479318,0.54505193,-0.22603118,-0.93928146,0.25818622,,0.10664895,1.3421704,0.44153842,0.995607,0.021076847,-0.09122739,-0.04352875,-0.75844777,-0.65027857,-0.08289703,0.65139294,-0.7541985,,-0.10198769,0.2729511,-0.08535987,0.41272494,0.37880972,0.8283486,-0.85760236,0.4680073,0.21327756,-0.30688155,-0.79841864,0.5180264,,-0.030307246,0.4078262,-0.3751115,-0.5241017,-0.026781918,-0.8512345,-0.6552868,-0.62573785,0.42314467,-0.54398227,0.7795735,0.3104004,,1.1253952480963667,0.4665843520620222,0.20310919865000002,-0.09960272315514906,-0.17011244220797336,1.0621751261312413,-0.4041132196162067,,-0.9631251849431612,-0.297132147335788,0.18527743341000003,-0.3524887949974854,0.3812158343455788,-1.2244326597852044,0.6613801237776967,,-0.048596511360217115,-0.07013605599139214,0.08219610256,-0.07424845330935166,,-1.7303973e-05,-8.940697e-07,-1.4305115e-06,1.0,1.1250377e-06,9.760261e-07,-1.128763e-06,1.0,8.940697e-08,-9.685755e-07,-1.4901161e-07,1.0,147,0.445,0,0,0.0,False,-0.25719703829021734,0.8431654092273213
0.46719395101536065,16:57:45.078727,16:57:31.331313,0,,0.13119797,0.01697135,0.0317778,-0.40557218,-0.4599957,-0.78988296,-0.8292147,-0.17843756,0.52968216,-0.38459635,0.86980695,-0.30906588,,0.06229779,-0.020653695,0.037806332,0.5984902,0.07538138,0.7975757,-0.7685205,0.33517307,0.54500926,-0.22624236,-0.93913615,0.25853,,0.10664895,1.3421704,0.44153842,0.995607,0.021076847,-0.09122739,-0.04352875,-0.75844777,-0.65027857,-0.08289703,0.65139294,-0.7541985,,-0.10165288,0.27314606,-0.08560402,0.41068834,0.38629442,0.82590055,-0.8650596,0.45130834,0.21907237,-0.28810936,-0.80442363,0.51951474,,-0.030311605,0.40783143,-0.37511075,-0.52418846,-0.026942767,-0.85117596,-0.6554038,-0.6254282,0.4234211,-0.54375756,0.77981645,0.31018382,,1.1274108813765393,0.465441387596637,0.20280975566,-0.10400621196832407,-0.14920705774386098,1.0613822561536606,-0.4026431230209985,,-0.9631637986075324,-0.2971244246029138,0.18527743341000003,-0.3524887949974854,0.38148910734510977,-1.2247371743327378,0.668077230489202,,-0.048596511360217115,-0.07013605599139214,0.08219610256,-0.07424845330935166,,-1.7303973e-05,-8.940697e-07,-1.4305115e-06,1.0,1.1250377e-06,9.760261e-07,-1.128763e-06,1.0,8.940697e-08,-9.685755e-07,-1.4901161e-07,1.0,158,0.479,0,0,0.0,False,-0.25761408231986493,0.843551650833557
0.4903295200201683,16:57:45.115977,16:57:31.331313,0,,0.1308715,0.016921371,0.031983763,-0.40042403,-0.4635955,-0.79040474,-0.8245753,-0.19392508,0.5314778,-0.39967,0.8645649,-0.3046172,,0.06230329,-0.020653248,0.037809968,0.59848756,0.07528777,0.79758656,-0.76852596,0.335094,0.54505026,-0.22623092,-0.9391718,0.25841022,,0.10664895,1.3421704,0.44153842,0.995607,0.021076847,-0.09122739,-0.04352875,-0.75844777,-0.65027857,-0.08289703,0.65139294,-0.7541985,,-0.10134483,0.27325362,-0.08581624,0.40685117,0.38985333,0.8261274,-0.871632,0.43630928,0.2233649,-0.2733675,-0.81095535,0.5173216,,-0.030317383,0.4078342,-0.3751124,-0.5241864,-0.02684139,-0.8511805,-0.6553967,-0.62549037,0.42334032,-0.5437682,0.7797701,0.31028175,,1.1290867144102459,0.4641903048710126,0.20256475685000003,-0.10987753038589076,-0.1324007682727118,1.064258638247535,-0.4037865314839384,,-0.9632024122719035,-0.2971244246029138,0.18527743341000003,-0.3524887949974854,0.38148910734510977,-1.2245738168524565,0.6693839830182763,,-0.048596511360217115,-0.07013605599139214,0.08219610256,-0.07424845330935166,,-1.7303973e-05,-8.940697e-07,-1.4305115e-06,1.0,1.1250377e-06,9.760261e-07,-1.128763e-06,1.0,8.940697e-08,-9.685755e-07,-1.4901161e-07,1.0,166,0.503,0,0,0.0,False,-0.25779281547542787,0.8431654092273213
0.5275825400021859,16:57:45.133908,16:57:31.495476,0,,0.13052031,0.016769126,0.032179475,-0.39315405,-0.47187656,-0.78915286,-0.8223584,-0.20345142,0.5313513,-0.4112866,0.8578695,-0.30806398,,0.06230599,-0.02065511,0.037814975,0.59852576,0.07474654,0.79760873,-0.7684699,0.33484808,0.5452802,-0.22632003,-0.9393028,0.2578557,,0.10664895,1.3421704,0.44153842,0.995607,0.021076847,-0.09122739,-0.04352875,-0.75844777,-0.65027857,-0.08289703,0.65139294,-0.7541985,,-0.10101419,0.27327815,-0.086089894,0.40056464,0.39835677,0.8251423,-0.877818,0.4249819,0.22096603,-0.26264724,-0.81283593,0.5199174,,-0.030320317,0.40783715,-0.37511668,-0.5242215,-0.02627587,-0.8511765,-0.65544647,-0.625675,0.42299014,-0.5436743,0.77964115,0.31076986,,1.1306389837179651,0.4626457582961677,0.20227957305000002,-0.11805543818178721,-0.11942030079499495,1.0601265578674792,-0.40394987555007245,,-0.9632333032034004,-0.2971398700686622,0.18527484083,-0.3524887949974854,0.3816257438448752,-1.223950126094888,0.6679138864230679,,-0.048596511360217115,-0.07013605599139214,0.08219610256,-0.07424845330935166,,-1.7303973e-05,-8.940697e-07,-1.4305115e-06,1.0,1.1250377e-06,9.760261e-07,-1.128763e-06,1.0,8.940697e-08,-9.685755e-07,-1.4901161e-07,1.0,178,0.54,0,0,0.0,False,-0.25767366003838577,0.8464484628803248
0.5455627820047084,16:57:45.173296,16:57:31.495476,0,,0.13018048,0.016536146,0.03233409,-0.38795343,-0.4785047,-0.78773427,-0.82105285,-0.20889845,0.53125674,-0.4187653,0.8528744,-0.3118348,,0.062308185,-0.020654932,0.037816405,0.5985247,0.07541266,0.79754686,-0.7684722,0.33529735,0.54500103,-0.22631538,-0.9390892,0.2586363,,0.10664895,1.3421704,0.44153842,0.995607,0.021076847,-0.09122739,-0.04352875,-0.75844777,-0.65027857,-0.08289703,0.65139294,-0.7541985,,-0.100693956,0.27321455,-0.086385004,0.39599553,0.40519568,0.824017,-0.8819077,0.41779417,0.21837306,-0.25578567,-0.8131817,0.52278984,,-0.030322626,0.40783826,-0.37511733,-0.52422065,-0.02698616,-0.8511548,-0.6554436,-0.6253265,0.4235096,-0.5436786,0.77989644,0.31012115,,1.1318823437107153,0.4609081433994672,0.20199309296,-0.1239267565993539,-0.11040229181047588,1.0555500533882947,-0.4055833162114153,,-0.9632487486691489,-0.2971398700686622,0.18527484083,-0.3524887949974854,0.3816257438448752,-1.2247669134962935,0.6711807677457536,,-0.048596511360217115,-0.07013605599139214,0.08219610256,-0.07424845330935166,,-1.7303973e-05,-8.940697e-07,-1.4305115e-06,1.0,1.1250377e-06,9.760261e-07,-1.128763e-06,1.0,8.940697e-08,-9.685755e-07,-1.4901161e-07,1.0,186,0.564,0,0,0.0,False,-0.2580311263495121,0.8472209460927962
0.5849558119953144,16:57:45.196168,16:57:31.495476,0,,0.12998462,0.01635331,0.03242907,-0.3861086,-0.47901583,-0.7883297,-0.82019687,-0.21280938,0.53102666,-0.42213416,0.8516197,-0.3107198,,0.062311884,-0.020654798,0.03782046,0.5985226,0.07524657,0.79756415,-0.7684765,0.3351718,0.5450722,-0.22630623,-0.93914735,0.25843316,,0.10664895,1.3421704,0.44153842,0.995607,0.021076847,-0.09122739,-0.04352875,-0.75844777,-0.65027857,-0.08289703,0.65139294,-0.7541985,,-0.1005112,0.2731452,-0.08659141,0.394441,0.4056925,0.82451797,-0.8835334,0.41404018,0.21895075,-0.2525569,-0.81485236,0.5217573,,-0.030326616,0.40784132,-0.37511942,-0.524219,-0.026807731,-0.8511615,-0.65543795,-0.6254247,0.4233735,-0.54368705,0.7798239,0.31028867,,1.1324769941420305,0.45977290166695617,0.20179864946,-0.12602365603419913,-0.10589328731821636,1.0563655932740437,-0.4024797789548642,,-0.9632796396006458,-0.2971398700686622,0.18527354454000003,-0.3524887949974854,0.3816257438448752,-1.2245218772758717,0.6723241762086933,,-0.048596511360217115,-0.07013605599139214,0.08219610256,-0.07424845330935166,,-1.7303973e-05,-8.940697e-07,-1.4305115e-06,1.0,1.1250377e-06,9.760261e-07,-1.128763e-06,1.0,8.940697e-08,-9.685755e-07,-1.4901161e-07,1.0,194,0.588,0,0,0.0,False,-0.2570778828531757,0.8469795450888986
0.607757791003678,16:57:45.223517,16:57:31.495476,0,,0.1296516,0.01598607,0.032734513,-0.38085747,-0.48531717,-0.78702897,-0.81690043,-0.22213128,0.5322889,-0.4331527,0.8456506,-0.3118555,,0.062332664,-0.020660385,0.037834108,0.59863776,0.075047016,0.7974965,-0.7684395,0.3348621,0.5453146,-0.22612709,-0.93927383,0.2581302,,0.10664895,1.3421704,0.44153842,0.995607,0.021076847,-0.09122739,-0.04352875,-0.75844777,-0.65027857,-0.08289703,0.65139294,-0.7541985,,-0.100213185,0.27307948,-0.0870873,0.39015055,0.41217253,0.8233446,-0.8884534,0.4032852,0.21911544,-0.24172933,-0.8169913,0.52353805,,-0.030347934,0.40784782,-0.37513176,-0.5243497,-0.026577918,-0.8510881,-0.65527886,-0.6256738,0.42325157,-0.5437527,0.7796319,0.31065592,,1.133488672148554,0.4577263774552867,0.20131254071000002,-0.1316852845082813,-0.09250291034120318,1.0538595489462723,-0.40133637049192405,,-0.963426371525256,-0.29717848373303335,0.18527224825000002,-0.35269848494096995,0.3816257438448752,-1.2241134835751692,0.6718341440102905,,-0.048596511360217115,-0.07013605599139214,0.08219610256,-0.07424845330935166,,-1.7303973e-05,-8.940697e-07,-1.4305115e-06,1.0,1.1250377e-06,9.760261e-07,-1.128763e-06,1.0,8.940697e-08,-9.685755e-07,-1.4901161e-07,1.0,205,0.622,0,0,0.0,False,-0.25683957197909146,0.8441310132429103
0.6351702340180054,16:57:45.256985,16:57:31.495476,0,,0.12950733,0.015815213,0.032919973,-0.37732792,-0.48982096,-0.78593826,-0.8154516,-0.22650966,0.5326651,-0.43893313,0.84188414,-0.31395695,,0.062345996,-0.020663708,0.037842393,0.5986653,0.07450319,0.7975268,-0.76840025,0.3345747,0.5455463,-0.22618738,-0.9394195,0.2575466,,0.10664895,1.3421704,0.44153842,0.995607,0.021076847,-0.09122739,-0.04352875,-0.75844777,-0.65027857,-0.08289703,0.65139294,-0.7541985,,-0.1000885,0.2730771,-0.087349705,0.38711974,0.41682935,0.8224303,-0.89126873,0.39764664,0.21798435,-0.23617436,-0.81739247,0.52544385,,-0.030361595,0.40785176,-0.37513927,-0.5243753,-0.026005777,-0.85109,-0.655312,-0.6258924,0.42287686,-0.543688,0.7794757,0.31116065,,1.1339597588538817,0.45688459957199623,0.20105069013000001,-0.13545970349100273,-0.0858077218526966,1.0512588275700672,-0.40541997214528114,,-0.9635190443197468,-0.29720937466453023,0.18527224825000002,-0.35269848494096995,0.3817623803446406,-1.22340811407746,0.669710671150545,,-0.048596511360217115,-0.07013605599139214,0.08219610256,-0.07424845330935166,,-1.7303973e-05,-8.940697e-07,-1.4305115e-06,1.0,1.1250377e-06,9.760261e-07,-1.128763e-06,1.0,8.940697e-08,-9.685755e-07,-1.4901161e-07,1.0,217,0.659,0,0,0.0,False,-0.25767366003838577,0.842586046817968
0.6686390050163027,16:57:45.296985,16:57:31.632241,0,,0.12922393,0.015564024,0.033336222,-0.36891374,-0.4997931,-0.7836513,-0.8101989,-0.24026835,0.5346485,-0.4555002,0.83215266,-0.3162936,,0.06238421,-0.020673454,0.03786695,0.5990768,0.07466205,0.7972029,-0.76805866,0.3349326,0.5458076,-0.22625819,-0.9392793,0.25799522,,0.10664895,1.3421704,0.44153842,0.995607,0.021076847,-0.09122739,-0.04352875,-0.75844777,-0.65027857,-0.08289703,0.65139294,-0.7541985,,-0.099845216,0.27317014,-0.08784852,0.38016006,0.4271341,0.820387,-0.8984586,0.381187,0.21787293,-0.2196599,-0.81991035,0.52867436,,-0.030400792,0.4078635,-0.37516123,-0.5248031,-0.026199542,-0.85082036,-0.6552344,-0.6256023,0.4234261,-0.54336876,0.77970207,0.3111512,,1.1351258915178895,0.4554095575930193,0.20053476671,-0.14426668111735275,-0.06708852138483126,1.047102883422774,-0.40607334840981824,,-0.9637970627032189,-0.29730204745902095,0.18527224825000002,-0.353117864827939,0.3823089263437024,-1.2236904282119645,0.6692206389521419,,-0.048596511360217115,-0.07013605599139214,0.08219610256,-0.07424845330935166,,-1.7303973e-05,-8.940697e-07,-1.4305115e-06,1.0,1.1250377e-06,9.760261e-07,-1.128763e-06,1.0,8.940697e-08,-9.685755e-07,-1.4901161e-07,1.0,225,0.684,0,0,0.0,False,-0.25767366003838577,0.8358750989096233
0.7086402510176413,16:57:45.317982,16:57:31.632241,0,,0.12907507,0.015526906,0.03358093,-0.3613108,-0.5100345,-0.780589,-0.80501986,-0.25181308,0.537153,-0.47052908,0.82246894,-0.31960517,,0.06240774,-0.020681113,0.0378803,0.5990441,0.074431375,0.7972491,-0.7681086,0.33466077,0.54590416,-0.22617564,-0.9393945,0.25764793,,0.10664895,1.3421704,0.44153842,0.995607,0.021076847,-0.09122739,-0.04352875,-0.75844777,-0.65027857,-0.08289703,0.65139294,-0.7541985,,-0.09971678,0.27330756,-0.08806775,0.37388808,0.43776542,0.81766075,-0.90466833,0.36643347,0.21748967,-0.20440881,-0.8210286,0.5330376,,-0.030424677,0.4078684,-0.37517527,-0.5247733,-0.025942279,-0.85084665,-0.6551875,-0.62581885,0.42317858,-0.5434541,0.77953684,0.31141597,,1.13596766940118,0.4547376798329618,0.20028976790000003,-0.15202520902628017,-0.050555504913212965,1.0417891910895634,-0.40476659588074404,,-0.9639515173607033,-0.2973561065891405,0.18527224825000002,-0.353117864827939,0.3823089263437024,-1.223200355771121,0.6639936288358451,,-0.048596511360217115,-0.07013605599139214,0.08219610256,-0.07424845330935166,,-1.7303973e-05,-8.940697e-07,-1.4305115e-06,1.0,1.1250377e-06,9.760261e-07,-1.128763e-06,1.0,8.940697e-08,-9.685755e-07,-1.4901161e-07,1.0,233,0.707,0,0,0.0,False,-0.2586269035347226,0.8353922969018286
0.7295987020188477,16:57:45.339531,16:57:31.632241,0,,0.12878811,0.015463397,0.033977985,-0.34945214,-0.52304596,-0.77737117,-0.79596865,-0.27196756,0.5408027,-0.4942844,0.80774796,-0.32128865,,0.062444113,-0.0206967,0.037902296,0.59958434,0.07449508,0.79683685,-0.76770306,0.33485082,0.54635775,-0.22612056,-0.93932176,0.25796145,,0.10664895,1.3421704,0.44153842,0.995607,0.021076847,-0.09122739,-0.04352875,-0.75844777,-0.65027857,-0.08289703,0.65139294,-0.7541985,,-0.09946323,0.27352938,-0.08842904,0.36415678,0.45130545,0.81468594,-0.91382784,0.34196866,0.21903446,-0.17974563,-0.82424563,0.5369457,,-0.030461434,0.40787506,-0.3752008,-0.52534336,-0.0260245,-0.8504923,-0.6549831,-0.62566406,0.42372352,-0.54314965,0.7796584,0.31164286,,1.1375276614417733,0.45352521077170854,0.19989310316000003,-0.16397753580489804,-0.023911387458952077,1.0366434841172953,-0.4044399077484754,,-0.964214090278427,-0.2974796703151281,0.18527224825000002,-0.3537469346583926,0.3828554723427641,-1.223400991165485,0.6615434678438309,,-0.048596511360217115,-0.07013605599139214,0.08219610256,-0.07424845330935166,,-1.7303973e-05,-8.940697e-07,-1.4305115e-06,1.0,1.1250377e-06,9.760261e-07,-1.128763e-06,1.0,8.940697e-08,-9.685755e-07,-1.4901161e-07,1.0,241,0.732,0,0,0.0,False,-0.25779281547542787,0.8339921710792244
0.7511882460094057,16:57:45.369636,16:57:31.632241,0,,0.12853627,0.015400022,0.034217477,-0.3422345,-0.5318159,-0.77462715,-0.7904909,-0.28269872,0.54332834,-0.5079367,0.79828155,-0.3236464,,0.062482595,-0.02072087,0.03792137,0.59950423,0.07489068,0.79686004,-0.76781726,0.33487555,0.54618216,-0.22594503,-0.93928146,0.25826168,,0.10664895,1.3421704,0.44153842,0.995607,0.021076847,-0.09122739,-0.04352875,-0.75844777,-0.65027857,-0.08289703,0.65139294,-0.7541985,,-0.0992325,0.27364665,-0.08866947,0.35817087,0.46047625,0.81220394,-0.9188961,0.3279267,0.21930371,-0.16535921,-0.8248792,0.5405836,,-0.030499471,0.4078746,-0.3752322,-0.52526903,-0.026422778,-0.85052586,-0.65488654,-0.6256573,0.42388272,-0.5433379,0.7796504,0.31133452,,1.138786466900272,0.45251353276518513,0.19963903032000002,-0.1713166838268564,-0.008198189985926425,1.031426548025279,-0.406073348409818,,-0.9644534949975279,-0.2976341249726126,0.18527224825000002,-0.3537469346583926,0.3828554723427641,-1.2235643486457661,0.6608900915792939,,-0.048596511360217115,-0.07013605599139214,0.08219610256,-0.07424845330935166,,-1.7303973e-05,-8.940697e-07,-1.4305115e-06,1.0,1.1250377e-06,9.760261e-07,-1.128763e-06,1.0,8.940697e-08,-9.685755e-07,-1.4901161e-07,1.0,256,0.778,0,0,0.0,False,-0.25815028178655464,0.8327851660597378
0.7812753049947787,16:57:45.409047,16:57:31.632241,0,,0.1277022,0.015176818,0.03458023,-0.3219378,-0.55609274,-0.7662355,-0.78000224,-0.30292618,0.5475695,-0.5366122,0.7739488,-0.33623025,,0.062521145,-0.020767748,0.037938476,0.600069,0.07514173,0.7964113,-0.7674887,0.3348032,0.546688,-0.22556198,-0.9392873,0.25857547,,0.10664895,1.3421704,0.44153842,0.995607,0.021076847,-0.09122739,-0.04352875,-0.75844777,-0.65027857,-0.08289703,0.65139294,-0.7541985,,-0.09843552,0.273742,-0.08915196,0.34045014,0.48598358,0.80493087,-0.93046,0.29742253,0.21397212,-0.13541761,-0.8218028,0.5534458,,-0.030535825,0.40786052,-0.37528172,-0.5258829,-0.026666973,-0.85013884,-0.6544478,-0.6257257,0.42445904,-0.54327273,0.77958727,0.3116063,,1.1424933786798996,0.448860680115677,0.19916718076,-0.19249536811879336,0.025824298455668245,1.0116063277985046,-0.40721675687275816,,-0.964700622449503,-0.2979275888218331,0.18527095196,-0.3545856944323307,0.38326538184206044,-1.2238986023568554,0.6582765865211454,,-0.048596511360217115,-0.07013605599139214,0.08219610256,-0.07424845330935166,,-1.7303973e-05,-8.940697e-07,-1.4305115e-06,1.0,1.1250377e-06,9.760261e-07,-1.128763e-06,1.0,8.940697e-08,-9.685755e-07,-1.4901161e-07,1.0,264,0.802,0,0,0.0,False,-0.2585077480976805,0.830902238229339
0.8206931549939327,16:57:45.437968,16:57:31.632241,0,,0.12724237,0.015074983,0.03468828,-0.3131313,-0.56309086,-0.76477283,-0.7738583,-0.31552663,0.5491688,-0.55053806,0.76378775,-0.33695126,,0.06252577,-0.020798072,0.037956417,0.6000109,0.0753098,0.7964391,-0.7675507,0.33482656,0.54658675,-0.22550565,-0.93926543,0.2587037,,0.1067082,1.3421664,0.44153598,0.99560493,0.021040048,-0.091258936,-0.043577053,-0.7584488,-0.65027416,-0.08289703,0.65139294,-0.7541985,,-0.09804057,0.27375063,-0.08933215,0.33288246,0.4933742,0.8035989,-0.9352666,0.28144234,0.21463127,-0.12027321,-0.8230262,0.5551236,,-0.030595973,0.40785623,-0.3753167,-0.5258662,-0.026835695,-0.85014385,-0.6544097,-0.625708,0.42454377,-0.5433347,0.7795956,0.31147715,,1.1440533707204932,0.4468913832327497,0.19901032967,-0.2015120356886279,0.043040497426113745,1.0076958357101853,-0.4023164348887297,,-0.9647855725111195,-0.2981052116779403,0.18527095196,-0.3545856944323307,0.38340201834182586,-1.2240100202605517,0.6576232102566081,,-0.048596511360217115,-0.07013605599139214,0.08219610256,-0.07424845330935166,,4.2058527e-05,1.7881393e-06,-2.3841858e-06,1.0,-3.546849e-05,-3.0629337e-05,3.546104e-05,1.0,-3.9041042e-06,3.0629337e-05,3.874302e-06,1.0,272,0.827,0,0,0.0,False,-0.25773323775690704,0.8307573976270008
0.8496115320012905,16:57:45.460873,16:57:31.632241,0,,0.12668152,0.014909878,0.034808412,-0.29607248,-0.5747246,-0.7629107,-0.7625125,-0.33881775,0.55116,-0.57525283,0.74491227,-0.33792007,,0.06253289,-0.020852983,0.037959576,0.60034895,0.07556077,0.7961605,-0.76741517,0.33459625,0.546918,-0.22506675,-0.93932736,0.25886098,,0.1067082,1.3421664,0.44153598,0.99560493,0.021040048,-0.091258936,-0.043577053,-0.7584488,-0.65027416,-0.08289703,0.65139294,-0.7541985,,-0.097495526,0.273722,-0.08957368,0.31810746,0.50577295,0.8018737,-0.9434838,0.2518429,0.21543784,-0.09298356,-0.8250872,0.5573017,,-0.030599443,0.40782937,-0.37536514,-0.52624536,-0.027064467,-0.849902,-0.6540021,-0.6259067,0.42487887,-0.54345846,0.7794282,0.3116803,,1.1461925677266533,0.4437096172885692,0.19880681214,-0.21849692111087438,0.0736470733735724,1.001769371734938,-0.4044399077484754,,-0.9648241861754907,-0.29841412099290926,0.18526187793,-0.35521476426278425,0.38353865484159133,-1.22436647438467,0.6561531136613997,,-0.048596511360217115,-0.07013605599139214,0.08219610256,-0.07424845330935166,,4.2058527e-05,1.7881393e-06,-2.3841858e-06,1.0,-3.546849e-05,-3.0629337e-05,3.546104e-05,1.0,-3.9041042e-06,3.0629337e-05,3.874302e-06,1.0,280,0.851,0,0,0.0,False,-0.25785239319394915,0.8307573976270008
0.8725328739965335,16:57:45.487285,16:57:31.632241,0,,0.12631775,0.014747888,0.034847274,-0.28575173,-0.58088505,-0.76218015,-0.75595737,-0.3521695,0.5518198,-0.5889604,0.73385924,-0.33849126,,0.062535696,-0.020892084,0.037954867,0.60048735,0.07541559,0.7960698,-0.7673201,0.3344959,0.5471126,-0.22502127,-0.9393748,0.2587285,,0.1067082,1.3421664,0.44153598,0.99560493,0.021040048,-0.091258936,-0.043577053,-0.7584488,-0.65027416,-0.08289703,0.65139294,-0.7541985,,-0.09714053,0.27363643,-0.0897372,0.30906364,0.51239157,0.8012082,-0.9478694,0.23470677,0.21553725,-0.07760952,-0.82605547,0.5582196,,-0.030599136,0.40780455,-0.37539583,-0.5263932,-0.026909443,-0.8498153,-0.65392786,-0.62598467,0.4248783,-0.5434046,0.77937096,0.31191722,,1.1473895913221581,0.4414468565564214,0.19868236830000002,-0.22877172834161608,0.09127318184331422,0.9983414133369349,-0.4064000365420868,,-0.9648164634426164,-0.298645802979136,0.18526058164,-0.3554244542062688,0.3838119278411222,-1.224344273971641,0.656969833992071,,-0.048596511360217115,-0.07013605599139214,0.08219610256,-0.07424845330935166,,4.2058527e-05,1.7881393e-06,-2.3841858e-06,1.0,-3.546849e-05,-3.0629337e-05,3.546104e-05,1.0,-3.9041042e-06,3.0629337e-05,3.874302e-06,1.0,288,0.875,1,1,0.018,False,-0.25767366003838577,0.830998798630898
0.8989419550052844,16:57:45.514815,16:57:31.845553,0,,0.12567599,0.0144370645,0.034849748,-0.2606261,-0.6017977,-0.7549262,-0.7436338,-0.37354454,0.5545027,-0.615697,0.70590657,-0.35016167,,0.06254098,-0.020984381,0.03794557,0.6006355,0.07549809,0.79595023,-0.76718295,0.3347003,0.54718006,-0.22509378,-0.9392953,0.25895375,,0.1067082,1.3421664,0.44153598,0.99560493,0.021040048,-0.091258936,-0.043577053,-0.7584488,-0.65027416,-0.08289703,0.65139294,-0.7541985,,-0.096509844,0.27342317,-0.08999256,0.28643262,0.5347924,0.79495496,-0.95692,0.20085736,0.20966735,-0.047544032,-0.8207639,0.5692857,,-0.030597221,0.40774775,-0.37546933,-0.52654463,-0.027011862,-0.8497183,-0.65393215,-0.6258186,0.4251162,-0.5432527,0.7795007,0.31185752,,1.1492198790133492,0.4370603442838619,0.19851773947,-0.25372483161627446,0.1257055797842052,0.9794121205011797,-0.4044399077484754,,-0.9647932952439938,-0.299194117013206,0.18525539648000003,-0.3556341441497533,0.38449511033994943,-1.2248196847499826,0.6574598661904739,,-0.048596511360217115,-0.07013605599139214,0.08219610256,-0.07424845330935166,,4.2058527e-05,1.7881393e-06,-2.3841858e-06,1.0,-3.546849e-05,-3.0629337e-05,3.546104e-05,1.0,-3.9041042e-06,3.0629337e-05,3.874302e-06,1.0,300,0.913,1,1,0.056,False,-0.2589843698458485,0.8312884798355746
0.9264458870165981,16:57:45.549542,16:57:31.845553,0,,0.12542942,0.014320955,0.03487061,-0.24490364,-0.6181397,-0.7469441,-0.73422724,-0.38489375,0.55925596,-0.63319236,0.6853906,-0.35959312,,0.062542744,-0.021065548,0.037937224,0.60154957,0.07553618,0.795256,-0.76643777,0.33521068,0.5479113,-0.22519127,-0.9391103,0.2595397,,0.1067082,1.3421664,0.44153598,0.99560493,0.021040048,-0.091258936,-0.043577053,-0.7584488,-0.65027416,-0.08289703,0.65139294,-0.7541985,,-0.096268974,0.27335683,-0.09010343,0.2723777,0.552345,0.7878613,-0.9618103,0.17930959,0.20680663,-0.027042493,-0.81410265,0.580091,,-0.030592667,0.40769795,-0.37553382,-0.52749854,-0.027099581,-0.8491236,-0.6537164,-0.6253982,0.4260657,-0.54258657,0.77983505,0.31218117,,1.1497681930474193,0.43502926553794086,0.19845422126,-0.2688225075471602,0.14825060224550288,0.9631518136349246,-0.40640003654208656,,-0.9647855725111195,-0.29969609465003055,0.18525150761,-0.35668259386717593,0.38572483883783837,-1.2257407671431098,0.6572965221243395,,-0.048596511360217115,-0.07013605599139214,0.08219610256,-0.07424845330935166,,4.2058527e-05,1.7881393e-06,-2.3841858e-06,1.0,-3.546849e-05,-3.0629337e-05,3.546104e-05,1.0,-3.9041042e-06,3.0629337e-05,3.874302e-06,1.0,312,0.95,1,1,0.093,False,-0.25815028178655464,0.8314816006386923
0.9611748949973844,16:57:45.581840,16:57:31.845553,0,,0.12503098,0.014179364,0.034956023,-0.1972592,-0.64648944,-0.73698044,-0.7108706,-0.42334968,0.5616388,-0.6750939,0.63468623,-0.37606072,,0.06255237,-0.021161228,0.037924826,0.6015112,0.075702235,0.7952693,-0.76657414,0.33486632,0.54793113,-0.22482935,-0.93921965,0.25945726,,0.1067082,1.3421664,0.44153598,0.99560493,0.021040048,-0.091258936,-0.043577053,-0.7584488,-0.65027416,-0.08289703,0.65139294,-0.7541985,,-0.09588245,0.27331823,-0.09029108,0.22878407,0.5834355,0.77926946,-0.9731967,0.11786225,0.19747584,0.023367953,-0.8035618,0.59476244,,-0.030594587,0.40763623,-0.3756086,-0.5274784,-0.027232302,-0.8491319,-0.65347815,-0.6256883,0.42600515,-0.542893,0.77959764,0.31224138,,1.1502933388828664,0.43134552195693576,0.19837125870000002,-0.3147446051702711,0.2023586561526173,0.9355294292795353,-0.40770678907116076,,-0.9647624043124968,-0.30024440868410046,0.18524891503000002,-0.35689228381066046,0.3858614753376038,-1.2259338637869468,0.6574598661904739,,-0.048596511360217115,-0.07013605599139214,0.08219610256,-0.07424845330935166,,4.2058527e-05,1.7881393e-06,-2.3841858e-06,1.0,-3.546849e-05,-3.0629337e-05,3.546104e-05,1.0,-3.9041042e-06,3.0629337e-05,3.874302e-06,1.0,320,0.974,0,1,0.093,False,-0.2586269035347226,0.8315298808394718
0.9934858420165256,16:57:45.608864,16:57:31.845553,0,,0.1248561,0.014084652,0.034961388,-0.1801832,-0.6600621,-0.7292819,-0.69753176,-0.43700764,0.56786776,-0.6935297,0.6110175,-0.38167286,,0.062558696,-0.021230802,0.037918508,0.60142785,0.075814255,0.79532164,-0.76653093,0.33536333,0.54768753,-0.22519916,-0.93903327,0.25981086,,0.1067082,1.3421664,0.44153598,0.99560493,0.021040048,-0.091258936,-0.043577053,-0.7584488,-0.65027416,-0.08289703,0.65139294,-0.7541985,,-0.095711224,0.27325565,-0.09037077,0.21356307,0.5984067,0.7722048,-0.9757853,0.092420906,0.19824588,0.04726379,-0.7958441,0.60365415,,-0.030595535,0.40759376,-0.3756644,-0.52737033,-0.027392708,-0.8491938,-0.6537596,-0.6252814,0.4261708,-0.54265904,0.7799185,0.3118466,,1.1503396752801118,0.429461175135625,0.19835699951000002,-0.3306810408750949,0.2280463181085201,0.9203003751944476,-0.4044399077484755,,-0.9647546815796226,-0.30066915899218283,0.18524632245000003,-0.35668259386717593,0.386544657836431,-1.2264092745652884,0.6572965221243395,,-0.048596511360217115,-0.07013605599139214,0.08219610256,-0.07424845330935166,,4.2058527e-05,1.7881393e-06,-2.3841858e-06,1.0,-3.546849e-05,-3.0629337e-05,3.546104e-05,1.0,-3.9041042e-06,3.0629337e-05,3.874302e-06,1.0,333,1.014,0,1,0.093,False,-0.25820985950507547,0.830998798630898
1.0205238640191965,16:57:45.651510,16:57:31.845553,0,,0.124476716,0.013833195,0.034943596,-0.14749187,-0.6840412,-0.7143765,-0.6712589,-0.46123338,0.58023727,-0.72640043,0.56511194,-0.39114064,,0.062574424,-0.021398231,0.037892997,0.60173255,0.076012805,0.7950722,-0.76651025,0.33470982,0.54811615,-0.2244547,-0.93925047,0.25967044,,0.1067082,1.3421664,0.44153598,0.99560493,0.021040048,-0.091258936,-0.043577053,-0.7584488,-0.65027416,-0.08289703,0.65139294,-0.7541985,,-0.09533879,0.27306595,-0.09055185,0.18425654,0.62516975,0.7584275,-0.9785931,0.04471183,0.20088893,0.091679,-0.77920705,0.6200253,,-0.030597502,0.4074827,-0.37579325,-0.5277316,-0.027527904,-0.84896505,-0.6531505,-0.625828,0.42630243,-0.5430413,0.77947515,0.31228933,,1.1503473980129861,0.42550713590402206,0.19832848113,-0.36150546256731997,0.27614236602595515,0.8901476132489097,-0.40525662807914686,,-0.9647083451823772,-0.3016345006014609,0.18524502616000002,-0.35752135364111404,0.38695456733572736,-1.2268252070165182,0.6574598661904739,,-0.048596511360217115,-0.07013605599139214,0.08219610256,-0.07424845330935166,,4.2058527e-05,1.7881393e-06,-2.3841858e-06,1.0,-3.546849e-05,-3.0629337e-05,3.546104e-05,1.0,-3.9041042e-06,3.0629337e-05,3.874302e-06,1.0,341,1.039,0,1,0.093,False,-0.2585077480976805,0.831095359032457
1.063139528996544,16:57:45.677771,16:57:31.845553,0,,0.12408711,0.013576165,0.034916297,-0.115887985,-0.69502807,-0.70958143,-0.6469173,-0.48927847,0.58489716,-0.7537029,0.52682304,-0.39292425,,0.06257858,-0.021451846,0.037884355,0.601696,0.07609114,0.7950924,-0.76653546,0.3347637,0.54804796,-0.22446653,-0.9392249,0.25975257,,0.1067082,1.3421664,0.44153598,0.99560493,0.021040048,-0.091258936,-0.043577053,-0.7584488,-0.65027416,-0.08289703,0.65139294,-0.7541985,,-0.0949556,0.2728661,-0.09073023,0.15554973,0.6382894,0.75391704,-0.979161,-0.0012508909,0.20308158,0.1305679,-0.7697955,0.6247935,,-0.030597229,0.40744686,-0.37583423,-0.5276925,-0.027611528,-0.84898657,-0.65317005,-0.6257861,0.426334,-0.5430557,0.77950585,0.3121876,,1.1503705662116088,0.42180794685726847,0.19830903678000003,-0.3921201943160606,0.3183630444534763,0.8733620888770769,-0.4042765636823412,,-0.9646851769837547,-0.3019511326493041,0.18524502616000002,-0.35752135364111404,0.3872278403352582,-1.227048042823911,0.6574598661904739,,-0.048596511360217115,-0.07013605599139214,0.08219610256,-0.07424845330935166,,4.2058527e-05,1.7881393e-06,-2.3841858e-06,1.0,-3.546849e-05,-3.0629337e-05,3.546104e-05,1.0,-3.9041042e-06,3.0629337e-05,3.874302e-06,1.0,354,1.08,1,2,0.118,False,-0.2594014138754961,0.8312884798355746
1.089395326009253,16:57:45.712637,16:57:32.043760,0,,0.12347169,0.013164371,0.03488989,-0.08028938,-0.7083819,-0.70124793,-0.6083884,-0.52244824,0.5974206,-0.78956765,0.47459775,-0.38902432,,0.06258648,-0.021513775,0.037874162,0.60215676,0.075965576,0.79475546,-0.76633894,0.33416831,0.54868567,-0.22390088,-0.939447,0.25943714,,0.1067082,1.3421664,0.44153598,0.99560493,0.021040048,-0.091258936,-0.043577053,-0.7584488,-0.65027416,-0.08289703,0.65139294,-0.7541985,,-0.09435177,0.27255705,-0.09102838,0.12392051,0.65470016,0.74566174,-0.9747974,-0.060165066,0.21482593,0.18550935,-0.75349045,0.63074434,,-0.030599963,0.40740487,-0.3758815,-0.52820766,-0.027428024,-0.8486721,-0.65263575,-0.6262736,0.42643636,-0.5431972,0.77912074,0.31290197,,1.1505868027320871,0.41630936105082067,0.19827144437000002,-0.4269287249344916,0.37834646785050463,0.8490349299366571,-0.4037865314839384,,-0.9646851769837547,-0.3023063783615184,0.18524632245000003,-0.3583601134150521,0.3873644768350237,-1.2269961032473264,0.6571331780582054,,-0.048596511360217115,-0.07013605599139214,0.08219610256,-0.07424845330935166,,4.2058527e-05,1.7881393e-06,-2.3841858e-06,1.0,-3.546849e-05,-3.0629337e-05,3.546104e-05,1.0,-3.9041042e-06,3.0629337e-05,3.874302e-06,1.0,363,1.109,1,2,0.147,False,-0.2583885926606384,0.8323506442527226
1.1242549040180165,16:57:45.748896,16:57:32.043760,0,,0.12291123,0.012792245,0.034840897,-0.051663004,-0.7185315,-0.693573,-0.58418703,-0.54153496,0.60453737,-0.8099731,0.43640855,-0.3917795,,0.06259523,-0.02152127,0.037875473,0.60217756,0.07596904,0.7947393,-0.76630557,0.33425093,0.54868215,-0.22395954,-0.93941736,0.25949395,,0.1067082,1.3421664,0.44153598,0.99560493,0.021040048,-0.091258936,-0.043577053,-0.7584488,-0.65027416,-0.08289703,0.65139294,-0.7541985,,-0.09379985,0.27226135,-0.09127926,0.09764475,0.66722876,0.73842484,-0.97084725,-0.09934301,0.21814358,0.21890903,-0.7381983,0.6380769,,-0.030608252,0.40740117,-0.37588874,-0.52822626,-0.027439516,-0.8486602,-0.65266985,-0.6262055,0.42648417,-0.5431382,0.77917504,0.31286925,,1.1510347212387921,0.4120464125042487,0.19822477793,-0.4569143868527786,0.41537495928693896,0.8249665835454691,-0.40591000434368407,,-0.9647315133809999,-0.302360437491638,0.18524891503000002,-0.3583601134150521,0.3875011133347891,-1.2270258424108822,0.6576232102566081,,-0.048596511360217115,-0.07013605599139214,0.08219610256,-0.07424845330935166,,4.2058527e-05,1.7881393e-06,-2.3841858e-06,1.0,-3.546849e-05,-3.0629337e-05,3.546104e-05,1.0,-3.9041042e-06,3.0629337e-05,3.874302e-06,1.0,376,1.15,1,2,0.188,False,-0.25779281547542787,0.832157523449605
1.1605541419994552,16:57:45.786399,16:57:32.043760,0,,0.122077584,0.012333199,0.03484629,-0.007641867,-0.73048997,-0.68288064,-0.55144596,-0.5665971,0.6122704,-0.8341756,0.38125074,-0.39849594,,0.062596165,-0.02151376,0.03787887,0.6022816,0.07581086,0.7946757,-0.76615614,0.3344672,0.548759,-0.22419107,-0.9393532,0.2595264,,0.1067082,1.3421664,0.44153598,0.99560493,0.021040048,-0.091258936,-0.043577053,-0.7584488,-0.65027416,-0.08289703,0.65139294,-0.7541985,,-0.09298231,0.27194414,-0.09164902,0.056558803,0.6827027,0.728504,-0.963423,-0.15412328,0.2192307,0.26194882,-0.71425694,0.6490145,,-0.03060996,0.40740794,-0.37588418,-0.52832246,-0.027302215,-0.84860474,-0.6527977,-0.6260217,0.42655838,-0.54289097,0.7793276,0.31291848,,1.1520155083138186,0.40673317228678224,0.19813014876,-0.5053527637977037,0.46237791520625043,0.7868021821541813,-0.40591000434368396,,-0.9647546815796226,-0.3023295465601411,0.18524891503000002,-0.3583601134150521,0.38777438633432,-1.2270036419978534,0.658113242455011,,-0.048596511360217115,-0.07013605599139214,0.08219610256,-0.07424845330935166,,4.2058527e-05,1.7881393e-06,-2.3841858e-06,1.0,-3.546849e-05,-3.0629337e-05,3.546104e-05,1.0,-3.9041042e-06,3.0629337e-05,3.874302e-06,1.0,385,1.178,1,2,0.216,False,-0.25910352528289105,0.833123127465194
1.1980334040126763,16:57:45.819255,16:57:32.043760,0,,0.12143779,0.012018591,0.034858778,0.024163492,-0.7361504,-0.6763866,-0.5286201,-0.58366776,0.61635447,-0.8485145,0.34265837,-0.40324745,,0.06259523,-0.021513984,0.037877142,0.6023252,0.075946294,0.79462963,-0.76609075,0.33470815,0.5487033,-0.22429714,-0.9392563,0.25978494,,0.1067082,1.3421664,0.44153598,0.99560493,0.021040048,-0.091258936,-0.043577053,-0.7584488,-0.65027416,-0.08289703,0.65139294,-0.7541985,,-0.09235446,0.27173454,-0.091914244,0.026607867,0.6908449,0.72251326,-0.956614,-0.19218214,0.2189877,0.2901407,-0.6969931,0.6557584,,-0.030608892,0.40740648,-0.37588346,-0.5283624,-0.02746117,-0.8485747,-0.6528574,-0.62582713,0.42675233,-0.5427802,0.7794782,0.31273532,,1.152926790792977,0.4031266560345194,0.19806144539,-0.5420485039074955,0.4928478546539437,0.759015554984819,-0.40591000434368385,,-0.9647469588467484,-0.30233726929301535,0.18525021132000002,-0.3583601134150521,0.38791102283408546,-1.227278417381831,0.658113242455011,,-0.048596511360217115,-0.07013605599139214,0.08219610256,-0.07424845330935166,,4.2058527e-05,1.7881393e-06,-2.3841858e-06,1.0,-3.546849e-05,-3.0629337e-05,3.546104e-05,1.0,-3.9041042e-06,3.0629337e-05,3.874302e-06,1.0,407,1.248,1,2,0.286,False,-0.2590439475643693,0.8326886056581793
1.2309104620071594,16:57:45.884896,16:57:32.178128,0,,0.11997582,0.011395097,0.034921512,0.090471104,-0.7436299,-0.66244215,-0.476888,-0.6162982,0.6267011,-0.8742956,0.2592124,-0.4103854,,0.06258626,-0.021565914,0.037865758,0.6026259,0.076184966,0.79437876,-0.765874,0.3349107,0.54888225,-0.2242294,-0.9391649,0.260174,,0.1067082,1.3421664,0.44153598,0.99560493,0.021040048,-0.091258936,-0.043577053,-0.7584488,-0.65027416,-0.08289703,0.65139294,-0.7541985,,-0.090919755,0.2713499,-0.09248319,-0.03603496,0.70382684,0.70945704,-0.936594,-0.271394,0.2216685,0.34855863,-0.6564854,0.6689797,,-0.030595463,0.40737048,-0.37592128,-0.5286819,-0.027719716,-0.84836733,-0.652717,-0.6256678,0.42720056,-0.542638,0.779597,0.3126861,,1.1553362834497352,0.3958750098656226,0.19792533494000003,-0.6236178919229755,0.5548808255474537,0.6948731558433103,-0.40460325181460965,,-0.964662008785132,-0.30263845587511007,0.18524632245000003,-0.3587794933020212,0.3883209323333818,-1.2279393860534826,0.6587666187195481,,-0.048596511360217115,-0.07013605599139214,0.08219610256,-0.07424845330935166,,4.2058527e-05,1.7881393e-06,-2.3841858e-06,1.0,-3.546849e-05,-3.0629337e-05,3.546104e-05,1.0,-3.9041042e-06,3.0629337e-05,3.874302e-06,1.0,420,1.289,1,2,0.327,False,-0.2593418361569748,0.8336059294729887
1.2964455960027408,16:57:45.922009,16:57:32.178128,0,,0.11934969,0.011121109,0.034943208,0.119545564,-0.7417586,-0.65992653,-0.4488729,-0.63325995,0.630472,-0.885563,0.22085309,-0.40865886,,0.06258828,-0.021593556,0.037862837,0.60260576,0.07622854,0.79438996,-0.7658893,0.3349355,0.5488459,-0.22423172,-0.9391525,0.26021668,,0.1067082,1.3421664,0.44153598,0.99560493,0.021040048,-0.091258936,-0.043577053,-0.7584488,-0.65027416,-0.08289703,0.65139294,-0.7541985,,-0.09030509,0.27117655,-0.09272757,-0.06335587,0.70444787,0.70692235,-0.9237775,-0.30944183,0.22556777,0.3776521,-0.638748,0.67035806,,-0.030595312,0.40735325,-0.3759432,-0.52866054,-0.027765736,-0.84837914,-0.6527249,-0.62564874,0.4272164,-0.54264927,0.77961063,0.3126324,,1.156093111271409,0.3927781939830586,0.19790070543000002,-0.6617814616371589,0.5856240379946778,0.6685789464095071,-0.40705341280662377,,-0.9646542860522578,-0.3028006332654688,0.18524502616000002,-0.3587794933020212,0.3884575688331472,-1.2280508039571791,0.6590933068518169,,-0.048596511360217115,-0.07013605599139214,0.08219610256,-0.07424845330935166,,4.2058527e-05,1.7881393e-06,-2.3841858e-06,1.0,-3.546849e-05,-3.0629337e-05,3.546104e-05,1.0,-3.9041042e-06,3.0629337e-05,3.874302e-06,1.0,429,1.317,1,2,0.355,False,-0.25922268071993226,0.8334610888706502
1.333650688000489,16:57:45.954055,16:57:32.178128,0,,0.118533716,0.0107049495,0.034938112,0.15715952,-0.7358931,-0.65860635,-0.4106765,-0.6551956,0.6340848,-0.8981346,0.1708217,-0.40518433,,0.06259143,-0.021631345,0.03786713,0.60251844,0.07622968,0.794456,-0.7660003,0.33472374,0.54882014,-0.22408697,-0.9392278,0.26006922,,0.1067082,1.3421664,0.44153598,0.99560493,0.021040048,-0.091258936,-0.043577053,-0.7584488,-0.65027416,-0.08289703,0.65139294,-0.7541985,,-0.089503154,0.2708842,-0.093059905,-0.09880131,0.7018499,0.7054396,-0.9044078,-0.35902795,0.23053293,0.41507205,-0.6152281,0.670231,,-0.030596128,0.4073368,-0.37597764,-0.52857697,-0.027746292,-0.84843177,-0.65265197,-0.6258237,0.42707157,-0.54281837,0.77947086,0.31268734,,1.156780434497215,0.3886465318953484,0.19787866850000002,-0.7139942575648054,0.6252486229266555,0.6338173921333281,-0.40705341280662377,,-0.9646697315180062,-0.30300914705307286,0.18523595213000002,-0.3587794933020212,0.3884575688331472,-1.2279691252170384,0.659256650917951,,-0.048596511360217115,-0.07013605599139214,0.08219610256,-0.07424845330935166,,4.2058527e-05,1.7881393e-06,-2.3841858e-06,1.0,-3.546849e-05,-3.0629337e-05,3.546104e-05,1.0,-3.9041042e-06,3.0629337e-05,3.874302e-06,1.0,442,1.358,1,2,0.396,False,-0.2590439475643693,0.8342818522839011
1.3657132039952558,16:57:45.989633,16:57:32.317363,0,,0.11796327,0.010354191,0.034916863,0.18324068,-0.7307004,-0.6576472,-0.38572618,-0.6687684,0.63558173,-0.90423346,0.13720742,-0.40439594,,0.06259047,-0.021652892,0.037871003,0.60247064,0.07638797,0.7944771,-0.76606065,0.33471844,0.548739,-0.22400913,-0.93921685,0.26017588,,0.1067082,1.3421664,0.44153598,0.99560493,0.021040048,-0.091258936,-0.043577053,-0.7584488,-0.65027416,-0.08289703,0.65139294,-0.7541985,,-0.088942826,0.27062312,-0.0933183,-0.123624004,0.6988894,0.70446485,-0.89041096,-0.3915033,0.23214974,0.43804732,-0.59856397,0.670698,,-0.030593961,0.40732884,-0.37599793,-0.5285311,-0.02790421,-0.84845525,-0.65261304,-0.6258333,0.427117,-0.54290986,0.7794575,0.3125617,,1.1571202347436809,0.38571961613601735,0.19783848351000002,-0.7519481373355044,0.6494332833851385,0.6079705176685193,-0.40656338060822106,,-0.9646697315180062,-0.3031249880461862,0.18522817439000003,-0.3587794933020212,0.3884575688331472,-1.2281324826973194,0.659256650917951,,-0.048596511360217115,-0.07013605599139214,0.08219610256,-0.07424845330935166,,4.2058527e-05,1.7881393e-06,-2.3841858e-06,1.0,-3.546849e-05,-3.0629337e-05,3.546104e-05,1.0,-3.9041042e-06,3.0629337e-05,3.874302e-06,1.0,451,1.387,1,2,0.425,False,-0.25880563669028556,0.8347646542916958
1.4012900500092655,16:57:46.021859,16:57:32.317363,0,,0.11733334,0.0099900365,0.03500925,0.21310723,-0.7208404,-0.6595259,-0.35822058,-0.68567073,0.633667,-0.90899026,0.10121679,-0.40434125,,0.062586725,-0.02166307,0.037879407,0.602494,0.076030254,0.7944937,-0.7660217,0.33456692,0.5488858,-0.22407934,-0.93929994,0.25981545,,0.1067082,1.3421664,0.44153598,0.99560493,0.021040048,-0.091258936,-0.043577053,-0.7584488,-0.65027416,-0.08289703,0.65139294,-0.7541985,,-0.08833236,0.27042848,-0.093675256,-0.15225124,0.69136757,0.7062793,-0.8737205,-0.42818663,0.23080006,0.46198702,-0.58195114,0.669254,,-0.030590154,0.40733093,-0.37601092,-0.52855176,-0.027531471,-0.84845454,-0.65265435,-0.62594664,0.42688772,-0.5428401,0.7793798,0.31287664,,1.1576994397092477,0.38307071876015836,0.19769978048000003,-0.7970314751846771,0.6736179438436214,0.5813068558023049,-0.4057466602775497,,-0.9646774542508804,-0.3031790471763058,0.18521780407000002,-0.3587794933020212,0.38859420533291267,-1.2277538281601725,0.6608900915792938,,-0.048596511360217115,-0.07013605599139214,0.08219610256,-0.07424845330935166,,4.2058527e-05,1.7881393e-06,-2.3841858e-06,1.0,-3.546849e-05,-3.0629337e-05,3.546104e-05,1.0,-3.9041042e-06,3.0629337e-05,3.874302e-06,1.0,464,1.428,1,2,0.466,False,-0.2590439475643693,0.8346198136893572
1.4335104509955272,16:57:46.061554,16:57:32.317363,0,,0.11641374,0.009491339,0.034855023,0.23342292,-0.7203148,-0.6531924,-0.32800764,-0.6907053,0.64446664,-0.91538227,0.06381884,-0.3974952,,0.06257979,-0.021667063,0.03789127,0.60263056,0.0760157,0.7943915,-0.7659484,0.334469,0.5490479,-0.22396311,-0.939336,0.25978535,,0.1067082,1.3421664,0.44153598,0.99560493,0.021040048,-0.091258936,-0.043577053,-0.7584488,-0.65027416,-0.08289703,0.65139294,-0.7541985,,-0.08741795,0.269979,-0.09395803,-0.17115779,0.69358987,0.6997414,-0.8557829,-0.45658317,0.24324347,0.48820138,-0.55719376,0.67171013,,-0.03058388,0.40733957,-0.37602046,-0.5287015,-0.02750739,-0.84836197,-0.65253145,-0.62602705,0.42695773,-0.54284203,0.77931607,0.31303197,,1.1590663634279856,0.37837529717262985,0.19773737289,-0.834565975068407,0.7023116087943639,0.543043565320474,-0.4064000365420868,,-0.9646851769837547,-0.30318676990918003,0.18520354488000002,-0.3589891832455057,0.38859420533291267,-1.2277538281601725,0.6605634034470254,,-0.048596511360217115,-0.07013605599139214,0.08219610256,-0.07424845330935166,,4.2058527e-05,1.7881393e-06,-2.3841858e-06,1.0,-3.546849e-05,-3.0629337e-05,3.546104e-05,1.0,-3.9041042e-06,3.0629337e-05,3.874302e-06,1.0,473,1.457,1,2,0.495,False,-0.25922268071993226,0.8348129344924748
1.4731935370073188,16:57:46.090616,16:57:32.317363,0,,0.11573526,0.009277388,0.03477572,0.24753259,-0.7149938,-0.6538437,-0.30582678,-0.69800365,0.64750355,-0.91934633,0.039684772,-0.39144292,,0.06257223,-0.021675125,0.03790337,0.6026178,0.0760233,0.7944005,-0.76596445,0.3344437,0.5490408,-0.22394237,-0.9393444,0.2597729,,0.1067082,1.3421664,0.44153598,0.99560493,0.021040048,-0.091258936,-0.043577053,-0.7584488,-0.65027416,-0.08289703,0.65139294,-0.7541985,,-0.08674164,0.26978597,-0.094091214,-0.18429191,0.68994546,0.7000084,-0.84211093,-0.47810516,0.24952875,0.50683886,-0.54349864,0.6691215,,-0.030576719,0.40734637,-0.37603357,-0.52868927,-0.02751254,-0.8483695,-0.6525211,-0.6260482,0.42694256,-0.5428664,0.7792989,0.31303242,,1.1605568508727109,0.37570323159814817,0.19781126142000002,-0.8624547375518486,0.7218506282608219,0.5216383295024682,-0.40623669247595273,,-0.9646851769837547,-0.3032176608406769,0.18518798940000003,-0.3589891832455057,0.38859420533291267,-1.2277538281601725,0.6605634034470254,,-0.048596511360217115,-0.07013605599139214,0.08219610256,-0.07424845330935166,,4.2058527e-05,1.7881393e-06,-2.3841858e-06,1.0,-3.546849e-05,-3.0629337e-05,3.546104e-05,1.0,-3.9041042e-06,3.0629337e-05,3.874302e-06,1.0,486,1.498,1,2,0.536,False,-0.26041423509035333,0.8354405771026081
1.502239940018626,16:57:46.132504,16:57:32.455164,0,,0.1149098,0.009275019,0.034587964,0.25397578,-0.7126097,-0.65397525,-0.28586134,-0.70124406,0.6531004,-0.924002,0.021074682,-0.3818067,,0.062571324,-0.021703899,0.037905037,0.6029313,0.07604208,0.79416066,-0.76587355,0.33392763,0.54948163,-0.22340843,-0.9395264,0.25957412,,0.1067082,1.3421664,0.44153598,0.99560493,0.021040048,-0.091258936,-0.043577053,-0.7584488,-0.65027416,-0.08289703,0.65139294,-0.7541985,,-0.08590453,0.2696853,-0.09401526,-0.18979415,0.6889155,0.6995525,-0.8303334,-0.49285245,0.26008236,0.52395093,-0.5314997,0.6655701,,-0.03057393,0.40733278,-0.37605885,-0.5290482,-0.02748122,-0.8481467,-0.652054,-0.6264748,0.4270303,-0.5430778,0.77895707,0.31351614,,1.1633988165704254,0.3731006706195345,0.19808348232000003,-0.8817462123524249,0.73988664622986,0.5031739441680747,-0.40656338060822106,,-0.9646851769837547,-0.3033643927652872,0.18518021166,-0.3596182530759593,0.3884575688331472,-1.2277240889966168,0.6607267475131595,,-0.048596511360217115,-0.07013605599139214,0.08219610256,-0.07424845330935166,,4.2058527e-05,1.7881393e-06,-2.3841858e-06,1.0,-3.546849e-05,-3.0629337e-05,3.546104e-05,1.0,-3.9041042e-06,3.0629337e-05,3.874302e-06,1.0,495,1.526,1,2,0.564,False,-0.25880563669028556,0.8353922969018286
1.5441620550118387,16:57:46.155797,16:57:32.455164,0,,0.11434902,0.009434834,0.034520313,0.26061866,-0.70628405,-0.6582103,-0.27303395,-0.7078589,0.6514509,-0.92602944,0.009933591,-0.37732077,,0.06257245,-0.021729738,0.037907243,0.6029596,0.076044306,0.794139,-0.7658187,0.33407772,0.5494668,-0.22352034,-0.9394729,0.2596715,,0.1067082,1.3421664,0.44153598,0.99560493,0.021040048,-0.091258936,-0.043577053,-0.7584488,-0.65027416,-0.08289703,0.65139294,-0.7541985,,-0.08533596,0.2697778,-0.093902394,-0.19589843,0.68328583,0.70338064,-0.8222074,-0.5053463,0.26191628,0.5344145,-0.52701575,0.66079915,,-0.030573405,0.40732095,-0.37608194,-0.52907157,-0.027498024,-0.84813154,-0.6521227,-0.626351,0.42710707,-0.5429727,0.779056,0.31345245,,1.1658314774258063,0.372258892736244,0.19828570356000003,-0.8978923380007333,0.7494512012134408,0.49553804838960647,-0.4068900687404896,,-0.9646928997166289,-0.3035188474227717,0.1851750265,-0.3596182530759593,0.3887308418326781,-1.2278652460638688,0.6608900915792938,,-0.048596511360217115,-0.07013605599139214,0.08219610256,-0.07424845330935166,,4.2058527e-05,1.7881393e-06,-2.3841858e-06,1.0,-3.546849e-05,-3.0629337e-05,3.546104e-05,1.0,-3.9041042e-06,3.0629337e-05,3.874302e-06,1.0,508,1.567,1,2,0.605,False,-0.25880563669028556,0.8351508958979315
1.5674530460091773,16:57:46.196212,16:57:32.455164,0,,0.113736734,0.009754449,0.034511432,0.2632398,-0.703138,-0.66053146,-0.25939554,-0.71105313,0.6535422,-0.92920333,-0.0006993711,-0.36956835,,0.062575,-0.02176997,0.03790492,0.6029106,0.076104835,0.7941704,-0.7658702,0.33404553,0.5494145,-0.22347596,-0.9394794,0.25968605,,0.1067082,1.3421664,0.44153598,0.99560493,0.021040048,-0.091258936,-0.043577053,-0.7584488,-0.65027416,-0.08289703,0.65139294,-0.7541985,,-0.08471608,0.2700308,-0.0937324,-0.19788332,0.68088174,0.70515406,-0.814105,-0.51483625,0.26865736,0.54596275,-0.52090657,0.6561867,,-0.030572949,0.4072976,-0.3761149,-0.52902263,-0.027555473,-0.8481602,-0.65210724,-0.62637955,0.42708874,-0.54303885,0.77903104,0.31339985,,1.1690673025001064,0.3719113697569039,0.19852810979000002,-0.9096349748358667,0.7601088481951452,0.48692913064142596,-0.40705341280662377,,-0.9646851769837547,-0.30375052940899844,0.18517113763,-0.3596182530759593,0.3888674783324435,-1.2279766639675653,0.6608900915792938,,-0.048596511360217115,-0.07013605599139214,0.08219610256,-0.07424845330935166,,4.2058527e-05,1.7881393e-06,-2.3841858e-06,1.0,-3.546849e-05,-3.0629337e-05,3.546104e-05,1.0,-3.9041042e-06,3.0629337e-05,3.874302e-06,1.0,517,1.596,1,2,0.634,False,-0.2583290149421176,0.8356819781065052
1.6078557260043453,16:57:46.238975,16:57:32.585758,0,,0.11321342,0.009859651,0.03450109,0.26131845,-0.7030585,-0.6613784,-0.25611922,-0.71112996,0.65474963,-0.93065333,-0.001706332,-0.36589825,,0.06257897,-0.021801531,0.03790492,0.6028366,0.076155834,0.79422164,-0.7659639,0.33390194,0.54937124,-0.22335434,-0.9395263,0.259621,,0.1067082,1.3421664,0.44153598,0.99560493,0.021040048,-0.091258936,-0.043577053,-0.7584488,-0.65027416,-0.08289703,0.65139294,-0.7541985,,-0.084190786,0.2701188,-0.09369555,-0.19576468,0.68087816,0.7057486,-0.81253475,-0.5155586,0.27200475,0.5490569,-0.5201964,0.6541653,,-0.030574692,0.40728068,-0.37614176,-0.52895176,-0.027592564,-0.8482032,-0.6520461,-0.6264998,0.4270058,-0.5431813,0.77893305,0.31339654,,1.1717702590060848,0.3708688008188836,0.19861496122000002,-0.9115221843272274,0.7627049416906886,0.48432211803035063,-0.4060733484098181,,-0.9646928997166289,-0.30392815226510556,0.18516724876,-0.3596182530759593,0.3888674783324435,-1.2279766639675653,0.6608900915792938,,-0.048596511360217115,-0.07013605599139214,0.08219610256,-0.07424845330935166,,4.2058527e-05,1.7881393e-06,-2.3841858e-06,1.0,-3.546849e-05,-3.0629337e-05,3.546104e-05,1.0,-3.9041042e-06,3.0629337e-05,3.874302e-06,1.0,530,1.637,1,2,0.675,False,-0.2589843698458485,0.8358268187088438
1.650620897009503,16:57:46.266824,16:57:32.585758,0,,0.11292337,0.009745225,0.03442256,0.26011446,-0.7028858,-0.66203624,-0.2553358,-0.71130157,0.65486926,-0.93120575,-0.0012993813,-0.36449176,,0.06258097,-0.0218094,0.03790289,0.60281754,0.076167226,0.7942351,-0.76598805,0.33386388,0.54936063,-0.22332317,-0.9395389,0.2596022,,0.1067082,1.3421664,0.44153598,0.99560493,0.021040048,-0.091258936,-0.043577053,-0.7584488,-0.65027416,-0.08289703,0.65139294,-0.7541985,,-0.083898865,0.26998964,-0.093734145,-0.19450015,0.6806698,0.706299,-0.8122723,-0.5154253,0.27303925,0.549894,-0.520601,0.65313953,,-0.030575974,0.4072746,-0.3761474,-0.5289334,-0.027600273,-0.8482144,-0.6520305,-0.6265315,0.42698303,-0.5432179,0.77890724,0.31339723,,1.1727356006153629,0.3694400952371521,0.19863829444000003,-0.912151254157681,0.764071306688343,0.48328961773352697,-0.4062366924759523,,-0.9646928997166289,-0.30397448866235094,0.18516854505000002,-0.3596182530759593,0.3888674783324435,-1.2279766639675653,0.6608900915792938,,-0.048596511360217115,-0.07013605599139214,0.08219610256,-0.07424845330935166,,4.2058527e-05,1.7881393e-06,-2.3841858e-06,1.0,-3.546849e-05,-3.0629337e-05,3.546104e-05,1.0,-3.9041042e-06,3.0629337e-05,3.874302e-06,1.0,539,1.666,1,2,0.704,False,-0.2593418361569748,0.8355371375041671
1.678483497002162,16:57:46.295141,16:57:32.585758,0,,0.112787694,0.00960739,0.034346923,0.26133907,-0.7012229,-0.66331625,-0.2548845,-0.7129402,0.6532611,-0.9309865,-0.0016535819,-0.36505005,,0.06258041,-0.021807104,0.03790462,0.60296357,0.07621181,0.79411995,-0.7659025,0.33382985,0.5495007,-0.22322252,-0.9395474,0.25965804,,0.1067082,1.3421664,0.44153598,0.99560493,0.021040048,-0.091258936,-0.043577053,-0.7584488,-0.65027416,-0.08289703,0.65139294,-0.7541985,,-0.08376168,0.26984018,-0.093778506,-0.1957249,0.6789939,0.7075727,-0.81182486,-0.51694137,0.27149957,0.5501202,-0.52128583,0.6524024,,-0.030575706,0.40727732,-0.37614635,-0.5290923,-0.027641585,-0.84811395,-0.6519154,-0.6265611,0.4271154,-0.5432014,0.77888197,0.3134887,,1.1728668870742247,0.36842069449775444,0.19863959073,-0.9148772234229797,0.7646178526874048,0.4828439461187413,-0.40656338060822117,,-0.9646928997166289,-0.30395132046372825,0.18516724876,-0.35982794301944376,0.3888674783324435,-1.2280583427077059,0.6607267475131595,,-0.048596511360217115,-0.07013605599139214,0.08219610256,-0.07424845330935166,,4.2058527e-05,1.7881393e-06,-2.3841858e-06,1.0,-3.546849e-05,-3.0629337e-05,3.546104e-05,1.0,-3.9041042e-06,3.0629337e-05,3.874302e-06,1.0,552,1.707,1,2,0.745,False,-0.2589247921273281,0.8357785385080643
1.7067969420168083,16:57:46.339373,16:57:32.585758,0,,0.112620026,0.0091320425,0.0341859,0.26557618,-0.6979354,-0.6650981,-0.24936771,-0.71612376,0.65190685,-0.93128145,-0.0072769523,-0.36422804,,0.06257401,-0.021798432,0.03790772,0.60275024,0.07617213,0.7942857,-0.76596403,0.33416402,0.54921174,-0.2235871,-0.93943185,0.25976256,,0.1067082,1.3421664,0.44153598,0.99560493,0.021040048,-0.091258936,-0.043577053,-0.7584488,-0.65027416,-0.08289703,0.65139294,-0.7541985,,-0.08359546,0.26938143,-0.09398323,-0.19977027,0.67606246,0.70924705,-0.8079917,-0.52313346,0.27107358,0.5542935,-0.51891327,0.65075934,,-0.030570187,0.40728515,-0.3761405,-0.52884805,-0.02763433,-0.8482665,-0.6522341,-0.626284,0.4270352,-0.5430566,0.77910507,0.31318504,,1.1718706545334499,0.36584130171776347,0.19857996139000003,-0.9238938909928144,0.7709031316766151,0.47747368632828413,-0.4064000365420868,,-0.9646774542508804,-0.3039127067993571,0.18516335989000002,-0.35940856313247477,0.3890041148322089,-1.2280880818712618,0.6608900915792938,,-0.048596511360217115,-0.07013605599139214,0.08219610256,-0.07424845330935166,,4.2058527e-05,1.7881393e-06,-2.3841858e-06,1.0,-3.546849e-05,-3.0629337e-05,3.546104e-05,1.0,-3.9041042e-06,3.0629337e-05,3.874302e-06,1.0,561,1.735,1,2,0.773,False,-0.2587460589717643,0.8358268187088438
1.7510171650210395,16:57:46.373643,16:57:32.729061,0,,0.11265406,0.008817211,0.03418915,0.26725376,-0.69764954,-0.6647259,-0.24911153,-0.71638787,0.65171456,-0.9308699,-0.008582205,-0.36524993,,0.06257708,-0.021797404,0.03791046,0.60252273,0.07618494,0.794457,-0.7661732,0.3339547,0.54904723,-0.22348359,-0.9395052,0.25958622,,0.1067082,1.3421664,0.44153598,0.99560493,0.021040048,-0.091258936,-0.043577053,-0.7584488,-0.65027416,-0.08289703,0.65139294,-0.7541985,,-0.08363847,0.26914555,-0.094190106,-0.20146677,0.6758709,0.7089497,-0.8075782,-0.524199,0.2702458,0.554282,-0.5180868,0.65142727,,-0.030573526,0.4072877,-0.37614113,-0.52861506,-0.027626824,-0.848412,-0.65223324,-0.62645715,0.42678246,-0.5432844,0.7789661,0.31313556,,1.1708280855954294,0.36472922818387515,0.19842440659000002,-0.926200480371144,0.7719962236747385,0.4752754832564638,-0.4067267246743552,,-0.9646928997166289,-0.30389726133360867,0.1851620636,-0.35919887318899024,0.3887308418326781,-1.2278652460638688,0.6612167797115622,,-0.048596511360217115,-0.07013605599139214,0.08219610256,-0.07424845330935166,,4.2058527e-05,1.7881393e-06,-2.3841858e-06,1.0,-3.546849e-05,-3.0629337e-05,3.546104e-05,1.0,-3.9041042e-06,3.0629337e-05,3.874302e-06,1.0,574,1.776,1,2,0.814,False,-0.2583290149421176,0.8357785385080643
1.7852767870062962,16:57:46.407938,16:57:32.729061,0,,0.11262871,0.008394271,0.0343823,0.27381527,-0.6946075,-0.66524106,-0.24479455,-0.7192285,0.65022,-0.9301081,-0.015192777,-0.3669719,,0.06257231,-0.021773875,0.037916362,0.6022109,0.0760373,0.7947076,-0.766389,0.33385113,0.54880893,-0.22358409,-0.939554,0.25932294,,0.1067082,1.3421664,0.44153598,0.99560493,0.021040048,-0.091258936,-0.043577053,-0.7584488,-0.65027416,-0.08289703,0.65139294,-0.7541985,,-0.08363997,0.2689549,-0.09461495,-0.20794389,0.67326987,0.70955414,-0.8040225,-0.53077483,0.2680037,0.55705225,-0.5147677,0.6516955,,-0.030570874,0.4073055,-0.3761242,-0.5282821,-0.027469005,-0.84862447,-0.6523998,-0.62653774,0.42640942,-0.54340833,0.7789069,0.3130679,,1.1698241303217802,0.3636094319171126,0.19806533426000003,-0.9368946674888549,0.7752754996691091,0.4687625527811433,-0.4062366924759526,,-0.9646851769837547,-0.30375052940899844,0.18515817473,-0.3587794933020212,0.3884575688331472,-1.2274790527761952,0.6608900915792939,,-0.048596511360217115,-0.07013605599139214,0.08219610256,-0.07424845330935166,,4.2058527e-05,1.7881393e-06,-2.3841858e-06,1.0,-3.546849e-05,-3.0629337e-05,3.546104e-05,1.0,-3.9041042e-06,3.0629337e-05,3.874302e-06,1.0,583,1.805,1,2,0.843,False,-0.25856732581620134,0.8359716593111823
1.8195611470146105,16:57:46.436944,16:57:32.729061,0,,0.1125747,0.008209929,0.034497038,0.27712286,-0.6930268,-0.66551995,-0.24207786,-0.7206634,0.649648,-0.9298394,-0.018924534,-0.3674788,,0.06256672,-0.02174069,0.037922442,0.60192126,0.07581116,0.79494864,-0.7665766,0.33374712,0.5486102,-0.223721,-0.93960917,0.25900453,,0.1067082,1.3421664,0.44153598,0.99560493,0.021040048,-0.091258936,-0.043577053,-0.7584488,-0.65027416,-0.08289703,0.65139294,-0.7541985,,-0.08360016,0.26889318,-0.0948263,-0.21118487,0.67194235,0.7098552,-0.8018991,-0.53435594,0.2672481,0.5588907,-0.51279354,0.65167785,,-0.030568093,0.4073286,-0.37609917,-0.52797043,-0.02723259,-0.84882605,-0.6525845,-0.626616,0.42601153,-0.5434894,0.77885216,0.31306314,,1.1696001710684278,0.36309200881453957,0.19788644624,-0.9427659859064216,0.7771884106658253,0.4649973761455981,-0.4062366924759525,,-0.9646774542508804,-0.3035497383542686,0.18515558215000003,-0.3583601134150521,0.3881842958336163,-1.2270111807483803,0.6613801237776967,,-0.048596511360217115,-0.07013605599139214,0.08219610256,-0.07424845330935166,,4.2058527e-05,1.7881393e-06,-2.3841858e-06,1.0,-3.546849e-05,-3.0629337e-05,3.546104e-05,1.0,-3.9041042e-06,3.0629337e-05,3.874302e-06,1.0,596,1.846,1,2,0.884,False,-0.25910352528289105,0.8357302583072848
1.8485994840157218,16:57:46.478363,16:57:32.729061,0,,0.11186996,0.007607624,0.034613147,0.28799564,-0.6856266,-0.6685616,-0.23681548,-0.7274471,0.6440025,-0.92788845,-0.027144164,-0.37186867,,0.06256057,-0.021690369,0.037936747,0.6016708,0.07578422,0.79514074,-0.7667161,0.33386782,0.5483417,-0.22391626,-0.9395684,0.25898355,,0.1067082,1.3421664,0.44153598,0.99560493,0.021040048,-0.091258936,-0.043577053,-0.7584488,-0.65027416,-0.08289703,0.65139294,-0.7541985,,-0.082923666,0.26853704,-0.095363356,-0.22202402,0.6650117,0.7130672,-0.7969782,-0.5450878,0.26020196,0.56172156,-0.51052785,0.65102243,,-0.030566601,0.4073678,-0.37606394,-0.5276967,-0.027217345,-0.8489967,-0.6527973,-0.6265155,0.42583334,-0.54349965,0.7789336,0.31284276,,1.171191054040518,0.3595472744252705,0.19751181843,-0.964154360141843,0.7789646851627761,0.453992530801099,-0.40623669247595273,,-0.964700622449503,-0.3032485517721738,0.1851491007,-0.3579407335280831,0.38791102283408546,-1.2267883449409875,0.6613801237776967,,-0.048596511360217115,-0.07013605599139214,0.08219610256,-0.07424845330935166,,4.2058527e-05,1.7881393e-06,-2.3841858e-06,1.0,-3.546849e-05,-3.0629337e-05,3.546104e-05,1.0,-3.9041042e-06,3.0629337e-05,3.874302e-06,1.0,605,1.875,1,2,0.913,False,-0.2599971910607066,0.8383373891493755
1.8900230819999706,16:57:46.509304,16:57:32.729061,0,,0.11105335,0.007087797,0.034621194,0.29596835,-0.6782553,-0.6725863,-0.22677708,-0.7338953,0.6402889,-0.9278873,-0.036977977,-0.3710226,,0.062548354,-0.021651804,0.037946045,0.60153836,0.07537981,0.79527944,-0.76680285,0.33360845,0.54837835,-0.22397524,-0.9396932,0.25847977,,0.1067082,1.3421664,0.44153598,0.99560493,0.021040048,-0.091258936,-0.043577053,-0.7584488,-0.65027416,-0.08289703,0.65139294,-0.7541985,,-0.08212499,0.2681753,-0.09577376,-0.22968842,0.6582437,0.71690893,-0.78965753,-0.55662775,0.25808236,0.56893253,-0.50683403,0.6476381,,-0.03055786,0.40739712,-0.37603593,-0.5275544,-0.026787454,-0.8490988,-0.6528792,-0.6267159,0.42541268,-0.54353946,0.77878726,0.31313777,,1.173253023717936,0.3556704625224098,0.19731218977,-0.9847039746033265,0.7860697831505788,0.44239960925890515,-0.40541997214528136,,-0.9646774542508804,-0.30300914705307286,0.18514132296000002,-0.35773104358459856,0.38763774983455457,-1.226157115432892,0.6635035966374424,,-0.048596511360217115,-0.07013605599139214,0.08219610256,-0.07424845330935166,,4.2058527e-05,1.7881393e-06,-2.3841858e-06,1.0,-3.546849e-05,-3.0629337e-05,3.546104e-05,1.0,-3.9041042e-06,3.0629337e-05,3.874302e-06,1.0,618,1.916,1,2,0.954,False,-0.25922268071993226,0.8394478337673035
1.9208969630126376,16:57:46.555803,16:57:32.879316,0,,0.110234946,0.0064974874,0.03449814,0.3051599,-0.67108905,-0.67566043,-0.21037409,-0.73948014,0.6394621,-0.9287735,-0.052996755,-0.3668394,,0.062535316,-0.021622255,0.037958562,0.60119224,0.07564489,0.7955159,-0.7669418,0.33420822,0.54781854,-0.22442824,-0.9394587,0.25893867,,0.1067082,1.3421664,0.44153598,0.99560493,0.021040048,-0.091258936,-0.043577053,-0.7584488,-0.65027416,-0.08289703,0.65139294,-0.7541985,,-0.08131641,0.26767436,-0.096132375,-0.23832065,0.65218174,0.7196265,-0.77816504,-0.5715785,0.2603021,0.5810873,-0.4979528,0.64372396,,-0.030547913,0.40742454,-0.37601724,-0.52716595,-0.027110962,-0.84932977,-0.65329975,-0.6262299,0.4254827,-0.54341096,0.77916694,0.3124155,,1.1746740065667933,0.35128395024985026,0.19723441237000003,-1.0104958376519229,0.7991868871280612,0.4237806527104142,-0.4068900687404897,,-0.9646542860522578,-0.3028315241969657,0.18512965635,-0.357101973754145,0.38763774983455457,-1.2264838303934542,0.6644836610342478,,-0.048596511360217115,-0.07013605599139214,0.08219610256,-0.07424845330935166,,4.2058527e-05,1.7881393e-06,-2.3841858e-06,1.0,-3.546849e-05,-3.0629337e-05,3.546104e-05,1.0,-3.9041042e-06,3.0629337e-05,3.874302e-06,1.0,627,1.944,1,2,0.982,False,-0.259580147031059,0.8393029931649645
1.967459934996441,16:57:46.577859,16:57:32.879316,0,,0.1099498,0.006046608,0.03429973,0.31191343,-0.66810346,-0.6755352,-0.20347467,-0.7414829,0.6393757,-0.92806685,-0.06197542,-0.36722073,,0.06255929,-0.021626912,0.037944853,0.6012346,0.075622514,0.79548603,-0.76690733,0.33421502,0.54786265,-0.22443262,-0.93945813,0.25893712,,0.106697984,1.3421671,0.44153878,0.99560505,0.021042397,-0.091256924,-0.04357397,-0.7584487,-0.65027446,-0.08289703,0.65139294,-0.7541985,,-0.08101954,0.26721177,-0.09630043,-0.2449119,0.64984566,0.71952677,-0.77270806,-0.5790773,0.25998402,0.5856111,-0.492311,0.64396393,,-0.030560143,0.4074071,-0.3760127,-0.52720755,-0.027089348,-0.8493046,-0.65329075,-0.6262238,0.42550552,-0.54338145,0.7791726,0.3124527,,1.1745813337723026,0.34854238007950056,0.19725774559000003,-1.0258032035262932,0.8042424376193825,0.4110819225588876,-0.4031331552194012,,-0.9646156723878866,-0.3028315241969657,0.18512187861,-0.357101973754145,0.38763774983455457,-1.226483830393454,0.6648103491665164,,-0.048596511360217115,-0.07013605599139214,0.08219610256,-0.07424845330935166,,3.162399e-05,2.8014183e-06,-4.053116e-06,1.0,-3.3129007e-05,-2.861023e-05,3.3129007e-05,1.0,-3.606081e-06,2.861768e-05,3.6358833e-06,1.0,636,1.973,1,2,1.011,False,-0.25975888018662197,0.8400754763774363
1.9894967290165368,16:57:46.601296,16:57:32.879316,0,,0.10967751,0.005704209,0.03407544,0.32455888,-0.66522884,-0.67240757,-0.1919151,-0.742419,0.6418589,-0.9261912,-0.07927573,-0.3686262,,0.06254331,-0.021640949,0.037963808,0.6011706,0.07553562,0.7955426,-0.7669964,0.33396667,0.54788935,-0.22429949,-0.9395534,0.2587065,,0.106697984,1.3421671,0.44153878,0.99560505,0.021042397,-0.091256924,-0.04357397,-0.7584487,-0.65027446,-0.08289703,0.65139294,-0.7541985,,-0.08074047,0.26681462,-0.096378356,-0.25733536,0.6482902,0.7165879,-0.7631487,-0.5912432,0.26083618,0.5927753,-0.47974077,0.6468897,,-0.030544706,0.40741736,-0.3760343,-0.52714777,-0.026978264,-0.84934527,-0.6532185,-0.62642586,0.4253189,-0.54352623,0.779014,0.31259632,,1.174048465203981,0.346596251395196,0.19733552299,-1.050965996744436,0.8106643531083583,0.3879576369943726,-0.40525662807914675,,-0.9645925041892639,-0.30287786059421107,0.18509465652,-0.357101973754145,0.3875011133347891,-1.2262907337496172,0.6646470051003822,,-0.048596511360217115,-0.07013605599139214,0.08219610256,-0.07424845330935166,,3.162399e-05,2.8014183e-06,-4.053116e-06,1.0,-3.3129007e-05,-2.861023e-05,3.3129007e-05,1.0,-3.606081e-06,2.861768e-05,3.6358833e-06,1.0,650,2.018,1,2,1.056,False,-0.2599971910607066,0.8401720367789949
2.0128887740138453,16:57:46.656710,16:57:32.970014,0,,0.10942546,0.0055514425,0.033828527,0.3412217,-0.65598273,-0.6732417,-0.17721644,-0.74827814,0.6392763,-0.9231262,-0.098825365,-0.37157977,,0.062499978,-0.021661289,0.03796935,0.6013388,0.07574874,0.7953953,-0.7668628,0.33418792,0.54794145,-0.22430572,-0.93945754,0.25904912,,0.106697984,1.3421671,0.44153878,0.99560505,0.021042397,-0.091256924,-0.04357397,-0.7584487,-0.65027446,-0.08289703,0.65139294,-0.7541985,,-0.08047449,0.26654476,-0.09631307,-0.27376652,0.64042044,0.7175748,-0.75056374,-0.6087841,0.2569747,0.6014199,-0.46823454,0.6473411,,-0.030500598,0.40741578,-0.37605366,-0.5273239,-0.027213044,-0.84922844,-0.6531707,-0.6262504,0.42565072,-0.54341286,0.7791469,0.31246203,,1.1737627240876347,0.34567724618316326,0.19752478133,-1.0832582480410529,0.8168129955978031,0.3666897620400617,-0.4064000365420868,,-0.9643994358674083,-0.3029550879229533,0.18506354556000001,-0.3573116636976295,0.38763774983455457,-1.226892224094157,0.6653003813649193,,-0.048596511360217115,-0.07013605599139214,0.08219610256,-0.07424845330935166,,3.162399e-05,2.8014183e-06,-4.053116e-06,1.0,-3.3129007e-05,-2.861023e-05,3.3129007e-05,1.0,-3.606081e-06,2.861768e-05,3.6358833e-06,1.0,673,2.092,1,2,1.13,False,-0.26017592421626956,0.8402685971805539
2.0683471389929764,16:57:46.725474,16:57:33.076182,0,,0.10894295,0.005704984,0.033335716,0.35084796,-0.6492484,-0.6748201,-0.15706417,-0.7512195,0.641093,-0.92316663,-0.11893603,-0.36553755,,0.062434863,-0.021686234,0.03795296,0.6013264,0.07593191,0.7953872,-0.76685745,0.33437225,0.5478365,-0.22435719,-0.93937707,0.25929588,,0.106697984,1.3421671,0.44153878,0.99560505,0.021042397,-0.091256924,-0.04357397,-0.7584487,-0.65027446,-0.08289703,0.65139294,-0.7541985,,-0.07995126,0.26635066,-0.09587968,-0.2827922,0.6351791,0.7187323,-0.73570555,-0.62442243,0.26236233,0.6154396,-0.4545813,0.64388657,,-0.030432843,0.40739545,-0.3760649,-0.52730805,-0.027414257,-0.84923184,-0.6532101,-0.62610435,0.425805,-0.54338086,0.7792572,0.3122426,,1.17490568855302,0.34465784544376565,0.19813274134000003,-1.111356700467979,0.8297934630755199,0.34442500134880116,-0.40394987555007245,,-0.9640210219565714,-0.303047760717444,0.18503761976000002,-0.3573116636976295,0.38763774983455457,-1.2275456540152816,0.6659537576294564,,-0.048596511360217115,-0.07013605599139214,0.08219610256,-0.07424845330935166,,3.162399e-05,2.8014183e-06,-4.053116e-06,1.0,-3.3129007e-05,-2.861023e-05,3.3129007e-05,1.0,-3.606081e-06,2.861768e-05,3.6358833e-06,1.0,682,2.12,1,2,1.158,False,-0.260652545964438,0.840461717983672
2.137132369010942,16:57:46.755739,16:57:33.076182,0,,0.1086728,0.005549267,0.033090144,0.35874468,-0.64340407,-0.67626435,-0.15024337,-0.7548443,0.63846457,-0.921265,-0.12744144,-0.3674637,,0.062441207,-0.021693371,0.03796321,0.60130626,0.07606505,0.7953898,-0.76688635,0.3344013,0.5477783,-0.22431257,-0.9393561,0.25941086,,0.106697984,1.3421671,0.44153878,0.99560505,0.021042397,-0.091256924,-0.04357397,-0.7584487,-0.65027446,-0.08289703,0.65139294,-0.7541985,,-0.07966741,0.26608,-0.09581872,-0.29061788,0.6299095,0.7202467,-0.7295553,-0.63291794,0.25916007,0.61910444,-0.45014322,0.6434911,,-0.030439436,0.40739977,-0.37607652,-0.52728933,-0.027550329,-0.84923905,-0.65318555,-0.6260848,0.4258714,-0.54342854,0.77926815,0.31213236,,1.1751219250734983,0.34329864445790215,0.19829737017000001,-1.1283415858902255,0.8321162835715323,0.3341996654916247,-0.40672672467435533,,-0.9640828038195651,-0.3030863743818151,0.18503113831,-0.3573116636976295,0.38763774983455457,-1.2276273327554221,0.6661171016955908,,-0.048596511360217115,-0.07013605599139214,0.08219610256,-0.07424845330935166,,3.162399e-05,2.8014183e-06,-4.053116e-06,1.0,-3.3129007e-05,-2.861023e-05,3.3129007e-05,1.0,-3.606081e-06,2.861768e-05,3.6358833e-06,1.0,696,2.165,1,2,1.203,False,-0.25963972474957986,0.8408962397906872
2.16738486601389,16:57:46.796046,16:57:33.076182,0,,0.10825061,0.0051168352,0.032544643,0.3671467,-0.64433813,-0.67084396,-0.15162781,-0.7530229,0.6402856,-0.9177213,-0.13336003,-0.37416953,,0.062434953,-0.021690197,0.037961543,0.6014583,0.0759413,0.7952865,-0.7667916,0.334274,0.5479886,-0.22422874,-0.9394114,0.25928307,,0.106697984,1.3421671,0.44153878,0.99560505,0.021042397,-0.091256924,-0.04357397,-0.7584487,-0.65027446,-0.08289703,0.65139294,-0.7541985,,-0.07921667,0.26540834,-0.09572661,-0.2993039,0.6313485,0.71541333,-0.7285175,-0.6354106,0.2559603,0.6161814,-0.4445812,0.65012926,,-0.030433303,0.4074006,-0.3760728,-0.52745366,-0.027414113,-0.84914136,-0.6530804,-0.6261858,0.42588428,-0.54339546,0.7791918,0.31238034,,1.1752223206008632,0.3398002464658784,0.19855273930000003,-1.1423908121036888,0.8276072790792728,0.3177018074988878,-0.40607334840981824,,-0.9640519128880682,-0.30306320618319244,0.18502984202000003,-0.35752135364111404,0.38763774983455457,-1.2275456540152816,0.6659537576294564,,-0.048596511360217115,-0.07013605599139214,0.08219610256,-0.07424845330935166,,3.162399e-05,2.8014183e-06,-4.053116e-06,1.0,-3.3129007e-05,-2.861023e-05,3.3129007e-05,1.0,-3.606081e-06,2.861768e-05,3.6358833e-06,1.0,719,2.239,1,2,1.277,False,-0.25952056931253775,0.8431654092273213
2.207685647008475,16:57:46.874909,16:57:33.186109,0,,0.107678145,0.0041344017,0.031315595,0.38390636,-0.64133996,-0.66430336,-0.16141117,-0.7549664,0.6355881,-0.9091548,-0.13678023,-0.39335588,,0.062439546,-0.0216899,0.03796774,0.6013152,0.07587178,0.79540133,-0.7668754,0.3342881,0.54786277,-0.22432584,-0.93941206,0.25919673,,0.106697984,1.3421671,0.44153878,0.99560505,0.021042397,-0.091256924,-0.04357397,-0.7584487,-0.65027446,-0.08289703,0.65139294,-0.7541985,,-0.07857878,0.2638776,-0.09549537,-0.31694254,0.62856996,0.7102445,-0.73074865,-0.6392119,0.23961338,0.6046105,-0.4430665,0.6619201,,-0.030438364,0.4074055,-0.3760759,-0.5272981,-0.027345905,-0.8492402,-0.6531919,-0.6261719,0.4257336,-0.5434124,0.7792054,0.3123171,,1.1739171787451192,0.3326876094887177,0.19909069965,-1.1639888762825947,0.8132604466039015,0.2994245897554257,-0.40591000434368385,,-0.9640905265524393,-0.30306320618319244,0.18502724944,-0.3573116636976295,0.38763774983455457,-1.2273822965350005,0.6757544015975134,,-0.048596511360217115,-0.07013605599139214,0.08219610256,-0.07424845330935166,,3.162399e-05,2.8014183e-06,-4.053116e-06,1.0,-3.3129007e-05,-2.861023e-05,3.3129007e-05,1.0,-3.606081e-06,2.861768e-05,3.6358833e-06,1.0,733,2.284,1,2,1.322,False,-0.2602950796533112,0.8615601657242951
2.28655786102172,16:57:46.920621,16:57:33.186109,0,,0.10777308,0.0038956106,0.030715108,0.39329737,-0.63995314,-0.6601342,-0.16705081,-0.75578487,0.63315344,-0.9041079,-0.13874158,-0.40415293,,0.062429994,-0.021683194,0.03797406,0.6010556,0.075618625,0.7956217,-0.7670033,0.3343262,0.5476603,-0.2245839,-0.9394189,0.2589484,,0.106697984,1.3421671,0.44153878,0.99560505,0.021042397,-0.091256924,-0.04357397,-0.7584487,-0.65027446,-0.08289703,0.65139294,-0.7541985,,-0.07863373,0.26330018,-0.09519511,-0.32684955,0.6273163,0.70685476,-0.73195535,-0.64115906,0.23055689,0.5978384,-0.4420287,0.66873,,-0.030429818,0.4074154,-0.3760734,-0.5270112,-0.027096251,-0.84942627,-0.6534508,-0.6261319,0.42539507,-0.5433794,0.7792462,0.31227246,,1.1721718411155446,0.3311816765782439,0.19944588311000003,-1.1725861639654602,0.8047889836184442,0.29293718640155164,-0.4062366924759525,,-0.9640596356209424,-0.3030168697859471,0.18501817541,-0.35689228381066046,0.38763774983455457,-1.2270555815744382,0.6884952387559871,,-0.048596511360217115,-0.07013605599139214,0.08219610256,-0.07424845330935166,,3.162399e-05,2.8014183e-06,-4.053116e-06,1.0,-3.3129007e-05,-2.861023e-05,3.3129007e-05,1.0,-3.606081e-06,2.861768e-05,3.6358833e-06,1.0,742,2.313,1,2,1.351,False,-0.2586269035347226,0.8708782444747305
2.332279018999543,16:57:46.951952,16:57:33.289170,0,,0.10785369,0.0039286166,0.03038755,0.3978839,-0.6357013,-0.6614924,-0.16690394,-0.75914735,0.62915695,-0.90212613,-0.13992566,-0.40815362,,0.062398277,-0.02169571,0.038021386,0.6009093,0.07583382,0.7957117,-0.76708853,0.33453932,0.54741085,-0.22468454,-0.9393256,0.25919902,,0.106697984,1.3421671,0.44153878,0.99560505,0.021042397,-0.091256924,-0.04357397,-0.7584487,-0.65027446,-0.08289703,0.65139294,-0.7541985,,-0.078687854,0.26310724,-0.09492175,-0.3315695,0.623076,0.70840526,-0.73067814,-0.6445955,0.22495802,0.5968008,-0.443027,0.6689962,,-0.030400997,0.40745205,-0.37610847,-0.5268521,-0.027332313,-0.8495174,-0.6535657,-0.62596315,0.4254668,-0.5433956,0.7793735,0.3119265,,1.1713918450952479,0.3310967265166274,0.19973365949000002,-1.1782477924395425,0.8028760726217281,0.29327185595119304,-0.4054199721452809,,-0.9640519128880682,-0.30303231525169555,0.18495984236000002,-0.35668259386717593,0.38763774983455457,-1.2273006177948598,0.6951923454674925,,-0.048596511360217115,-0.07013605599139214,0.08219610256,-0.07424845330935166,,3.162399e-05,2.8014183e-06,-4.053116e-06,1.0,-3.3129007e-05,-2.861023e-05,3.3129007e-05,1.0,-3.606081e-06,2.861768e-05,3.6358833e-06,1.0,756,2.358,1,2,1.396,False,-0.2596993024681016,0.8716024474864228
2.363572722009849,16:57:46.989835,16:57:33.289170,0,,0.10783914,0.0040545166,0.030091286,0.40147012,-0.63135654,-0.66348374,-0.16691366,-0.7627336,0.62480193,-0.90053403,-0.14009473,-0.41159678,,0.06235804,-0.021724783,0.038083494,0.6007851,0.07562777,0.79582506,-0.7672641,0.3340205,0.5474816,-0.22441703,-0.93952686,0.25870103,,0.106697984,1.3421671,0.44153878,0.99560505,0.021042397,-0.091256924,-0.04357397,-0.7584487,-0.65027446,-0.08289703,0.65139294,-0.7541985,,-0.07864694,0.26300764,-0.09461802,-0.33526677,0.6186584,0.71053356,-0.7297453,-0.6475358,0.21947466,0.59587574,-0.44492602,0.6685603,,-0.030363671,0.40749335,-0.3761652,-0.5267366,-0.027075708,-0.8495972,-0.65341914,-0.62638456,0.42507154,-0.5436837,0.77904385,0.3122479,,1.1713686768966252,0.3311585083796212,0.20004088022000002,-1.182860971196202,0.8006898886254811,0.29505454241033574,-0.4054199721452809,,-0.964044190155194,-0.30310954258043776,0.18488076867000003,-0.35668259386717593,0.3873644768350237,-1.2268327457670454,0.696009065798164,,-0.048596511360217115,-0.07013605599139214,0.08219610256,-0.07424845330935166,,3.162399e-05,2.8014183e-06,-4.053116e-06,1.0,-3.3129007e-05,-2.861023e-05,3.3129007e-05,1.0,-3.606081e-06,2.861768e-05,3.6358833e-06,1.0,770,2.403,1,2,1.441,False,-0.25952056931253775,0.8800032024220483
2.401481959008379,16:57:47.030869,16:57:33.289170,0,,0.10777797,0.0043013096,0.029657409,0.4044741,-0.6284505,-0.66441756,-0.16634318,-0.76493263,0.62226045,-0.8992945,-0.14116687,-0.413934,,0.06230851,-0.02174791,0.038165092,0.6007248,0.07524859,0.7959065,-0.76735055,0.3335711,0.54763436,-0.22428268,-0.9397169,0.25812653,,0.106697984,1.3421671,0.44153878,0.99560505,0.021042397,-0.091256924,-0.04357397,-0.7584487,-0.65027446,-0.08289703,0.65139294,-0.7541985,,-0.07854556,0.26290998,-0.09413523,-0.3383403,0.61578333,0.7115734,-0.72859025,-0.6499828,0.21605237,0.5955519,-0.4453462,0.66856915,,-0.030318998,0.4075552,-0.37622705,-0.5266809,-0.026652623,-0.84964514,-0.65334487,-0.6267425,0.42465794,-0.543827,0.7787705,0.31267992,,1.1716621407458456,0.3312975175713572,0.20053217413000002,-1.187264460009377,0.7990502506282957,0.2948396611920222,-0.4055833162114154,,-0.9640596356209424,-0.3031404335119347,0.18478225063,-0.35668259386717593,0.3872278403352582,-1.2262312554225054,0.7108733758163833,,-0.048596511360217115,-0.07013605599139214,0.08219610256,-0.07424845330935166,,3.162399e-05,2.8014183e-06,-4.053116e-06,1.0,-3.3129007e-05,-2.861023e-05,3.3129007e-05,1.0,-3.606081e-06,2.861768e-05,3.6358833e-06,1.0,779,2.432,1,2,1.47,False,-0.2598780356236645,0.8910110881997646
2.442479273013305,16:57:47.061008,16:57:33.396766,0,,0.10773934,0.004466191,0.029322535,0.4070454,-0.62577385,-0.6653729,-0.1658144,-0.76697123,0.61988777,-0.8982314,-0.14199397,-0.41595447,,0.062258955,-0.021760844,0.038240075,0.6007312,0.074789725,0.7959449,-0.7673425,0.3332706,0.54782856,-0.22429308,-0.9398602,0.25759542,,0.106697984,1.3421671,0.44153878,0.99560505,0.021042397,-0.091256924,-0.04357397,-0.7584487,-0.65027446,-0.08289703,0.65139294,-0.7541985,,-0.07847659,0.26281506,-0.093778804,-0.3409702,0.61312246,0.712615,-0.72756964,-0.65214103,0.21296601,0.5952997,-0.445862,0.66844994,,-0.030274512,0.40761682,-0.37627676,-0.52668697,-0.026164265,-0.8496565,-0.65335006,-0.62697464,0.4243071,-0.5438148,0.7786002,0.31312495,,1.171777981738959,0.33133613123572836,0.20089902420000003,-1.1910388789920983,0.7978205221304068,0.2948622774436032,-0.40525662807914675,,-0.9640596356209424,-0.3031249880461862,0.18469151033000003,-0.35668259386717593,0.3872278403352582,-1.2256595042415215,0.7141402571390688,,-0.048596511360217115,-0.07013605599139214,0.08219610256,-0.07424845330935166,,3.162399e-05,2.8014183e-06,-4.053116e-06,1.0,-3.3129007e-05,-2.861023e-05,3.3129007e-05,1.0,-3.606081e-06,2.861768e-05,3.6358833e-06,1.0,793,2.477,1,2,1.515,False,-0.2598184579051428,0.8906731267943089
2.472667090012692,16:57:47.111144,16:57:33.396766,0,,0.10767214,0.004739523,0.028706461,0.41168785,-0.62163216,-0.6663982,-0.1671792,-0.7703472,0.6153182,-0.8958595,-0.14191103,-0.42106658,,0.062183823,-0.021804608,0.03836274,0.600599,0.07454415,0.7960678,-0.76752925,0.33270025,0.5479137,-0.22400817,-0.9400817,0.25703424,,0.106697984,1.3421671,0.44153878,0.99560505,0.021042397,-0.091256924,-0.04357397,-0.7584487,-0.65027446,-0.08289703,0.65139294,-0.7541985,,-0.0783544,0.26261774,-0.09314249,-0.34581834,0.60889375,0.7139034,-0.72717565,-0.6547513,0.20619494,0.59297997,-0.4478272,0.6691977,,-0.030206062,0.40770516,-0.3763773,-0.52656406,-0.025863184,-0.84974194,-0.65319383,-0.6274362,0.42386502,-0.5441214,0.7782383,0.3134917,,1.171986495526563,0.33126662663986034,0.20154716920000001,-1.1962811275792116,0.7935847906376781,0.295947548994116,-0.4064000365420867,,-0.9640750810866909,-0.3032176608406769,0.18454114069000002,-0.35668259386717593,0.38695456733572736,-1.2251099534735665,0.7154470096681431,,-0.048596511360217115,-0.07013605599139214,0.08219610256,-0.07424845330935166,,3.162399e-05,2.8014183e-06,-4.053116e-06,1.0,-3.3129007e-05,-2.861023e-05,3.3129007e-05,1.0,-3.606081e-06,2.861768e-05,3.6358833e-06,1.0,802,2.505,0,2,1.521,False,-0.25975888018662197,0.8935216586402968
2.5227993900189176,16:57:47.142309,16:57:33.396766,0,,0.1076116,0.0049655586,0.028338656,0.41365284,-0.6195948,-0.6670784,-0.16829473,-0.7721137,0.61279476,-0.89474475,-0.14121845,-0.42366165,,0.062152013,-0.021822773,0.038416564,0.6004495,0.0744576,0.79618865,-0.7677467,0.33215928,0.54793715,-0.22366342,-0.94027984,0.25660953,,0.106697984,1.3421671,0.44153878,0.99560505,0.021042397,-0.091256924,-0.04357397,-0.7584487,-0.65027446,-0.08289703,0.65139294,-0.7541985,,-0.078259334,0.26254785,-0.0927228,-0.347894,0.6067603,0.7147109,-0.72734094,-0.65568644,0.20260914,0.5915614,-0.449352,0.66943103,,-0.030177245,0.4077443,-0.3764206,-0.5264264,-0.025724139,-0.84983146,-0.6530014,-0.6278788,0.4235061,-0.54448545,0.7778859,0.31373405,,1.1723803549031486,0.3313824676329737,0.20196457458000003,-1.1981683370705722,0.7909886971421347,0.2974110592432236,-0.40607334840981824,,-0.9640828038195651,-0.3032408290392996,0.18447502990000003,-0.35668259386717593,0.386544657836431,-1.2246940210223367,0.7185505469246942,,-0.048596511360217115,-0.07013605599139214,0.08219610256,-0.07424845330935166,,3.162399e-05,2.8014183e-06,-4.053116e-06,1.0,-3.3129007e-05,-2.861023e-05,3.3129007e-05,1.0,-3.606081e-06,2.861768e-05,3.6358833e-06,1.0,816,2.55,0,2,1.521,False,-0.26017592421626956,0.8987359203244782
2.5537655070074834,16:57:47.184266,16:57:33.512326,0,,0.10742705,0.0054234713,0.027702838,0.41817376,-0.61305356,-0.67029536,-0.16616315,-0.77708757,0.60706246,-0.89304006,-0.14247915,-0.42682463,,0.06212116,-0.021835946,0.03847158,0.60039824,0.074274845,0.7962444,-0.76782215,0.331865,0.5480099,-0.2235423,-0.9403982,0.25628102,,0.106697984,1.3421671,0.44153878,0.99560505,0.021042397,-0.091256924,-0.04357397,-0.7584487,-0.65027446,-0.08289703,0.65139294,-0.7541985,,-0.07801348,0.26248,-0.0919593,-0.35247153,0.60019904,0.7180006,-0.72474986,-0.6604545,0.19630967,0.5920316,-0.45117727,0.6677856,,-0.030149827,0.40778705,-0.3764603,-0.5263793,-0.025512742,-0.849867,-0.6529334,-0.6281147,0.42326102,-0.5446125,0.7777024,0.31396848,,1.17346153750554,0.3317454360780623,0.20273716342000003,-1.2059268649794996,0.7889391496456531,0.2990006490585292,-0.4062366924759525,,-0.9641059720181878,-0.3032485517721738,0.18441021540000002,-0.35668259386717593,0.38640802133666563,-1.2243375668982184,0.7249209655039313,,-0.048596511360217115,-0.07013605599139214,0.08219610256,-0.07424845330935166,,3.162399e-05,2.8014183e-06,-4.053116e-06,1.0,-3.3129007e-05,-2.861023e-05,3.3129007e-05,1.0,-3.606081e-06,2.861768e-05,3.6358833e-06,1.0,825,2.579,0,2,1.521,False,-0.26011634649774784,0.9009568095603333
2.5959178210177924,16:57:47.216386,16:57:33.512326,0,,0.107275255,0.005733326,0.027315527,0.42011762,-0.6099448,-0.671914,-0.16469067,-0.77937716,0.60452324,-0.89240015,-0.14331284,-0.42788237,,0.062115923,-0.021840088,0.038489223,0.6003929,0.074176006,0.7962576,-0.7678305,0.33177713,0.5480513,-0.22352782,-0.94043696,0.25615126,,0.106697984,1.3421671,0.44153878,0.99560505,0.021042397,-0.091256924,-0.04357397,-0.7584487,-0.65027446,-0.08289703,0.65139294,-0.7541985,,-0.07782361,0.26246312,-0.09147688,-0.35441694,0.59710103,0.7196242,-0.72327846,-0.6628189,0.19375071,0.59266925,-0.45182016,0.6667846,,-0.03014567,0.40780035,-0.37647307,-0.5263745,-0.02540532,-0.8498732,-0.6529251,-0.62818354,0.42317173,-0.5446272,0.7776503,0.31407204,,1.1743728199846986,0.33195394986566634,0.20322716104000002,-1.2099109739057057,0.7881193306470605,0.29942412026028614,-0.40672672467435533,,-0.9641368629496847,-0.30325627450504805,0.18439206734000002,-0.35668259386717593,0.38640802133666563,-1.2241742094179373,0.7249209655039314,,-0.048596511360217115,-0.07013605599139214,0.08219610256,-0.07424845330935166,,3.162399e-05,2.8014183e-06,-4.053116e-06,1.0,-3.3129007e-05,-2.861023e-05,3.3129007e-05,1.0,-3.606081e-06,2.861768e-05,3.6358833e-06,1.0,848,2.653,0,2,1.521,False,-0.2599971910607066,0.9006188481548771
2.628028715000255,16:57:47.289495,16:57:33.512326,0,,0.10665876,0.006592676,0.026106149,0.4256765,-0.60569435,-0.6722603,-0.17142504,-0.7834574,0.59733415,-0.8884891,-0.13902879,-0.43733066,,0.06208984,-0.021845154,0.03851676,0.6001181,0.07424181,0.7964586,-0.7679763,0.33200413,0.54770947,-0.2237646,-0.9403517,0.25625765,,0.106697984,1.3421671,0.44153878,0.99560505,0.021042397,-0.091256924,-0.04357397,-0.7584487,-0.65027446,-0.08289703,0.65139294,-0.7541985,,-0.07709173,0.26233318,-0.09005258,-0.36044776,0.59241974,0.72049725,-0.7259421,-0.6632002,0.18213624,0.585735,-0.4573887,0.66911143,,-0.030121475,0.40782362,-0.37649143,-0.526073,-0.025493165,-0.85005724,-0.65317374,-0.627999,0.42306182,-0.5446203,0.77779645,0.31372187,,1.1780179499013326,0.33166820874932,0.20465178375,-1.2147338426058496,0.77554877266864,0.30297691070883087,-0.40770678907116087,,-0.9640905265524393,-0.3032485517721738,0.18435447493,-0.3562632139802069,0.38640802133666563,-1.2242558881580778,0.7250843095700655,,-0.048596511360217115,-0.07013605599139214,0.08219610256,-0.07424845330935166,,3.162399e-05,2.8014183e-06,-4.053116e-06,1.0,-3.3129007e-05,-2.861023e-05,3.3129007e-05,1.0,-3.606081e-06,2.861768e-05,3.6358833e-06,1.0,871,2.727,0,2,1.521,False,-0.26041423509035333,0.8952114656675776
2.7011490279983263,16:57:47.356236,16:57:33.684011,0,,0.1058671,0.007377133,0.02475439,0.4266057,-0.602838,-0.67423576,-0.17971283,-0.78711057,0.5900512,-0.8864033,-0.1305503,-0.44412363,,0.06205988,-0.021859773,0.038542747,0.59983367,0.07474813,0.79662544,-0.76825976,0.33198237,0.547325,-0.2235541,-0.9403193,0.25656018,,0.106697984,1.3421671,0.44153878,0.99560505,0.021042397,-0.091256924,-0.04357397,-0.7584487,-0.65027446,-0.08289703,0.65139294,-0.7541985,,-0.076176405,0.26205847,-0.08858423,-0.36176717,0.58881605,0.72278637,-0.7308375,-0.6604605,0.1722455,0.57879275,-0.46592662,0.66926175,,-0.030092627,0.40784094,-0.376517,-0.5257863,-0.025997706,-0.8502193,-0.6531157,-0.62803453,0.42309874,-0.5449667,0.7777511,0.31323245,,1.182056939194552,0.33016999857172047,0.20618788740000002,-1.2138950828319115,0.7646178526874048,0.31033844694187385,-0.4062366924759525,,-0.964013299223697,-0.3032717199707965,0.18431299365,-0.35605352403672236,0.38599811183736926,-1.224656743108254,0.705319677567818,,-0.048596511360217115,-0.07013605599139214,0.08219610256,-0.07424845330935166,,3.162399e-05,2.8014183e-06,-4.053116e-06,1.0,-3.3129007e-05,-2.861023e-05,3.3129007e-05,1.0,-3.606081e-06,2.861768e-05,3.6358833e-06,1.0,880,2.755,0,2,1.521,False,-0.2608312791200009,0.8546560970128327
