AlexandreBanks6/ExpertPlaybackApp/resources/Motions/P_01/PC1/Data_PC1_3.csv
Task Time,PC1 Time,PC2 Time,Gaze Calib,s_T_psm1,Tx,Ty,Tz,R00,R01,R02,R10,R11,R12,R20,R21,R22,s_T_psm3,Tx,Ty,Tz,R00,R01,R02,R10,R11,R12,R20,R21,R22,cart_T_ecm,Tx,Ty,Tz,R00,R01,R02,R10,R11,R12,R20,R21,R22,ecm_T_psm1,Tx,Ty,Tz,R00,R01,R02,R10,R11,R12,R20,R21,R22,ecm_T_psm3,Tx,Ty,Tz,R00,R01,R02,R10,R11,R12,R20,R21,R22,psm1_joints,q1,q2,q3,q4,q5,q6,jaw,psm3_joints,q1,q2,q3,q4,q5,q6,jaw,ecm_joints,q1,q2,q3,q4,ecmi_T_ecm,Tx,Ty,Tz,R00,R01,R02,R10,R11,R12,R20,R21,R22,Sample #,Task Duration (s),Collisions (binary),Collisions (increments),Cumulative Collision Time (s),Clutch Press,MTMR Angle,MTML Angle
""
lci_T_si,,,,,-0.060357757,0.022834528,0.23020615,0.9952371,-0.021149157,0.09516208,0.048441693,-0.7398343,-0.6710429,0.084596165,0.6724566,-0.73528606
rci_T_si,,,,,-0.0698917,0.026742559,0.23927253,0.9902512,-0.040660527,0.13322671,0.061729427,-0.729299,-0.68140477,0.124868385,0.68298584,-0.71967924
ecm_T_lc,,,,,-4.4061628e-05,-0.00034663224,-0.01840835,-0.99912,0.030754527,0.028518902,-0.031987965,-0.99852574,-0.043852776,0.027128186,-0.04472645,0.9986309
ecm_T_rc,,,,,-0.0043358393,0.01870579,-0.007592615,-0.99555075,-0.052743673,-0.078081585,0.04863213,-0.9973746,0.053654674,-0.08070653,0.04961868,0.9955021
cart_T_ecmi,,,,,0.106666066,1.342168,0.4415365,0.99560696,0.021075713,-0.09122836,-0.043530237,-0.7584478,-0.65027845,-0.08289703,0.65139294,-0.7541985
ecmac_T_ecmrep_psm1,,,,,0.01038242,-0.2501324,-0.30762842,0.998145,0.0496832,0.035188068,-0.04731537,0.99675006,-0.06519635,-0.03831287,0.06341047,0.99725187
ecmac_T_ecmrep_psm3,,,,,-0.018947443,-0.4527795,-0.5580277,0.99342906,-0.031421527,0.110051684,0.0051236153,0.97282016,0.23150527,-0.11433475,-0.2294202,0.9665888
""
0,16:58:50.554017,16:58:36.898356,0,,0.11786411,0.0027319938,0.017930001,-0.9696194,-0.08828088,-0.22813304,-0.23669545,0.103159994,0.96609175,-0.0617532,0.99073946,-0.1209217,,0.05688596,-0.020209007,0.025942862,0.23604202,-0.3768571,0.89569116,-0.9308132,0.17700854,0.31977308,-0.2790537,-0.909201,-0.3090021,,0.10668746,1.3421677,0.44153714,0.99560595,0.021058045,-0.09124351,-0.04355343,-0.7584483,-0.6502763,-0.08289703,0.65139294,-0.7541985,,-0.08772864,0.25371766,-0.085608535,0.96448123,0.014382092,0.26375955,-0.18992275,0.7317434,0.6545845,-0.18359002,-0.68142843,0.7084843,,-0.024093566,0.39858702,-0.3683515,-0.14831567,0.43166998,-0.8897547,-0.74835366,-0.63715935,-0.18437663,-0.6465054,0.6385053,0.41754252,,1.1358827193395635,0.34278122135532907,0.20735973356,0.805419072924058,-0.05861705839937395,1.0040112915113268,-0.3997029298305813,,-0.8945164260885508,-0.28883020949599664,0.19215295557,0.027050002709503643,0.18568900318123358,-0.6944171955778944,0.07775177547991696,,-0.048596511360217115,-0.07013605599139214,0.08219610256,-0.07424845330935166,,2.1260232e-05,1.013279e-06,-2.2649765e-06,1.0,-1.7572194e-05,-1.5184283e-05,1.7572194e-05,1.0,-1.937151e-06,1.5176833e-05,1.937151e-06,1.0,35,0.104,0,0,0.0,False,-0.25672041654204936,0.25347103690701545
0.13431155198486522,16:58:50.580191,16:58:36.898356,0,,0.1179707,0.0026842207,0.018161625,-0.9687911,-0.092794776,-0.22985396,-0.23878998,0.100583255,0.965848,-0.06650615,0.9905918,-0.1196028,,0.05688802,-0.02021008,0.025942326,0.236038,-0.37684906,0.8956956,-0.93081594,0.17700714,0.31976584,-0.27904797,-0.9092046,-0.30899668,,0.10668746,1.3421677,0.44153714,0.99560595,0.021058045,-0.09124351,-0.04355343,-0.7584483,-0.6502763,-0.08289703,0.65139294,-0.7541985,,-0.08785409,0.25383082,-0.08580538,0.96396405,0.018819952,0.26536602,-0.19464949,0.729841,0.6553195,-0.18134193,-0.68335783,0.7072038,,-0.0240955,0.39858577,-0.36835212,-0.14831191,0.43166232,-0.88975906,-0.74834985,-0.63716394,-0.1843763,-0.6465107,0.6385059,0.41753343,,1.1356510373533368,0.3432291398620341,0.20713029023,0.801434963997852,-0.0557476919042997,1.0055104163203086,-0.40084633829352123,,-0.894524148821425,-0.2888379322288709,0.19215425186,0.027050002709503643,0.18568900318123358,-0.6944171955778944,0.07775177547991696,,-0.048596511360217115,-0.07013605599139214,0.08219610256,-0.07424845330935166,,2.1260232e-05,1.013279e-06,-2.2649765e-06,1.0,-1.7572194e-05,-1.5184283e-05,1.7572194e-05,1.0,-1.937151e-06,1.5176833e-05,1.937151e-06,1.0,47,0.141,0,0,0.0,False,-0.25600548391979716,0.2553056845366344
0.16046684997854754,16:58:50.618880,16:58:36.898356,0,,0.1182022,0.0026775599,0.018403456,-0.9674957,-0.09892923,-0.23273373,-0.24230151,0.099157184,0.9651207,-0.07240139,0.99014187,-0.119904906,,0.056887463,-0.02020993,0.025940478,0.2360386,-0.3769289,0.89566195,-0.9308159,0.17697781,0.319782,-0.2790474,-0.9091773,-0.30907783,,0.10668746,1.3421677,0.44153714,0.99560595,0.021058045,-0.09124351,-0.04355343,-0.7584483,-0.6502763,-0.08289703,0.65139294,-0.7541985,,-0.08810367,0.25397792,-0.08597329,0.9630298,0.02492847,0.26823902,-0.20120803,0.72865415,0.65465903,-0.17913383,-0.684428,0.7067315,,-0.024094816,0.39858437,-0.36835104,-0.14831255,0.4317417,-0.88972044,-0.7483494,-0.637148,-0.18443297,-0.646511,0.638468,0.4175907,,1.1349482686617824,0.3441790360055637,0.20691121722000003,0.7957733355237698,-0.05315159840875633,1.005517123393731,-0.40084633829352134,,-0.8945164260885508,-0.2888379322288709,0.19215554815000002,0.027050002709503643,0.18568900318123358,-0.6943355168377539,0.07922187207512543,,-0.048596511360217115,-0.07013605599139214,0.08219610256,-0.07424845330935166,,2.1260232e-05,1.013279e-06,-2.2649765e-06,1.0,-1.7572194e-05,-1.5184283e-05,1.7572194e-05,1.0,-1.937151e-06,1.5176833e-05,1.937151e-06,1.0,59,0.177,0,0,0.0,False,-0.25558843989015,0.2702725467782665
0.1991446949832607,16:58:50.647787,16:58:36.898356,0,,0.11834457,0.0026696473,0.018506542,-0.96753126,-0.09929369,-0.23243044,-0.24196166,0.09805241,0.9653188,-0.07305965,0.9902154,-0.11889416,,0.05688983,-0.020209663,0.025941908,0.2360374,-0.37698868,0.89563704,-0.93081594,0.17695796,0.31979308,-0.2790485,-0.9091563,-0.30913833,,0.10668746,1.3421677,0.44153714,0.99560595,0.021058045,-0.09124351,-0.04355343,-0.7584483,-0.6502763,-0.08289703,0.65139294,-0.7541985,,-0.08825373,0.2540355,-0.08604485,0.9631256,0.025255078,0.2678643,-0.20138395,0.72788167,0.65546376,-0.17841972,-0.6852375,0.70612746,,-0.024097292,0.39858544,-0.3683516,-0.14831129,0.43180096,-0.8896919,-0.7483502,-0.63713473,-0.18447575,-0.6465104,0.6384413,0.4176326,,1.1343922318948383,0.344704181841011,0.20681658805000003,0.7959830254672544,-0.05315159840875633,1.0064972682754179,-0.40019296202898424,,-0.8945318715542991,-0.2888379322288709,0.19215554815000002,0.027050002709503643,0.18568900318123358,-0.6942538380976133,0.08689904318343655,,-0.048596511360217115,-0.07013605599139214,0.08219610256,-0.07424845330935166,,2.1260232e-05,1.013279e-06,-2.2649765e-06,1.0,-1.7572194e-05,-1.5184283e-05,1.7572194e-05,1.0,-1.937151e-06,1.5176833e-05,1.937151e-06,1.0,70,0.211,0,0,0.0,False,-0.2559459062012759,0.2714795517977535
0.22808500099927187,16:58:50.687861,16:58:37.023775,0,,0.118665606,0.002631858,0.018621534,-0.9668935,-0.10130597,-0.23420957,-0.24373884,0.09489459,0.9651873,-0.07555398,0.99031925,-0.11644521,,0.056892198,-0.020209424,0.02594328,0.2360362,-0.3770484,0.8956123,-0.9308158,0.17693818,0.31980413,-0.27904966,-0.90913546,-0.3091988,,0.10668746,1.3421677,0.44153714,0.99560595,0.021058045,-0.09124351,-0.04355343,-0.7584483,-0.6502763,-0.08289703,0.65139294,-0.7541985,,-0.088583626,0.2540731,-0.086131305,0.9626327,0.02716409,0.26944464,-0.20438099,0.72563255,0.657028,-0.17767023,-0.687546,0.70406944,,-0.024099767,0.39858648,-0.36835217,-0.14831,0.43186018,-0.8896634,-0.74835104,-0.6371214,-0.18451855,-0.64650977,0.63841456,0.41767448,,1.1329558035802325,0.3455922961215468,0.20669992195000003,0.7936764360889248,-0.053288234908521775,1.0095491208241745,-0.3998662738967157,,-0.8945473170200476,-0.2888379322288709,0.19215554815000002,0.027050002709503643,0.18568900318123358,-0.6941721593574728,0.09555627868855338,,-0.048596511360217115,-0.07013605599139214,0.08219610256,-0.07424845330935166,,2.1260232e-05,1.013279e-06,-2.2649765e-06,1.0,-1.7572194e-05,-1.5184283e-05,1.7572194e-05,1.0,-1.937151e-06,1.5176833e-05,1.937151e-06,1.0,78,0.235,0,0,0.0,False,-0.25672041654204936,0.27254171621490153
0.2681205209810287,16:58:50.715378,16:58:37.023775,0,,0.118891776,0.0025438517,0.018639892,-0.96646434,-0.10323164,-0.23513818,-0.24490578,0.09506491,0.9648751,-0.077252224,0.990104,-0.11715895,,0.05689282,-0.020209186,0.025942147,0.2360362,-0.37697524,0.895643,-0.9308158,0.17696437,0.3197897,-0.27904966,-0.9091607,-0.30912453,,0.10668746,1.3421677,0.44153714,0.99560595,0.021058045,-0.09124351,-0.04355343,-0.7584483,-0.6502763,-0.08289703,0.65139294,-0.7541985,,-0.08881291,0.2540122,-0.086185634,0.9623034,0.029104648,0.27041647,-0.20638894,0.7256766,0.6563513,-0.17713203,-0.68742007,0.70432794,,-0.024100322,0.39858562,-0.3683514,-0.14831,0.4317875,-0.8896986,-0.74835104,-0.6371364,-0.1844665,-0.64650977,0.6384487,0.41762233,,1.1317278890532307,0.34585486903927043,0.20664677406,0.792208606484533,-0.053288234908521775,1.009630799564315,-0.40002961796284986,,-0.8945473170200476,-0.2888379322288709,0.19215684444000003,0.027050002709503643,0.18568900318123358,-0.6942538380976133,0.0960463108869562,,-0.048596511360217115,-0.07013605599139214,0.08219610256,-0.07424845330935166,,2.1260232e-05,1.013279e-06,-2.2649765e-06,1.0,-1.7572194e-05,-1.5184283e-05,1.7572194e-05,1.0,-1.937151e-06,1.5176833e-05,1.937151e-06,1.0,89,0.268,0,0,0.0,False,-0.25725661600873906,0.27268655681723963
0.29555459797848016,16:58:50.748162,16:58:37.023775,0,,0.11910958,0.002409771,0.018628836,-0.96587723,-0.10727385,-0.23574045,-0.24605742,0.09592596,0.96449673,-0.08085163,0.98959124,-0.11904824,,0.05689282,-0.020209186,0.025942147,0.2360362,-0.3770484,0.8956123,-0.9308158,0.17693818,0.31980413,-0.27904966,-0.90913546,-0.3091988,,0.10668746,1.3421677,0.44153714,0.99560595,0.021058045,-0.09124351,-0.04355343,-0.7584483,-0.6502763,-0.08289703,0.65139294,-0.7541985,,-0.08903288,0.2538975,-0.086248845,0.9619639,0.033196907,0.27115196,-0.20964016,0.72610795,0.6548422,-0.17514685,-0.6867789,0.70544904,,-0.024100322,0.39858562,-0.3683514,-0.14831,0.43186018,-0.8896634,-0.74835104,-0.6371214,-0.18451855,-0.64650977,0.63841456,0.41767448,,1.130461360861858,0.34580080990915085,0.20659881133000002,0.7899020171062033,-0.051375323911805604,1.0088060575738302,-0.4011730264257899,,-0.8945473170200476,-0.2888379322288709,0.19215684444000003,0.027050002709503643,0.18568900318123358,-0.6941721593574727,0.09653634308535902,,-0.048596511360217115,-0.07013605599139214,0.08219610256,-0.07424845330935166,,2.1260232e-05,1.013279e-06,-2.2649765e-06,1.0,-1.7572194e-05,-1.5184283e-05,1.7572194e-05,1.0,-1.937151e-06,1.5176833e-05,1.937151e-06,1.0,101,0.305,0,0,0.0,False,-0.2566608388235285,0.27316935882503435
0.3284537759900559,16:58:50.777727,16:58:37.023775,0,,0.11930786,0.0022489429,0.01862146,-0.9648204,-0.112809196,-0.2374779,-0.24842308,0.095474124,0.963935,-0.08606771,0.98901916,-0.1201399,,0.056895435,-0.020210333,0.025943398,0.23603159,-0.37696052,0.89565045,-0.93081856,0.17696607,0.31978077,-0.27904442,-0.9091665,-0.30911225,,0.10668746,1.3421677,0.44153714,0.99560595,0.021058045,-0.09124351,-0.04355343,-0.7584483,-0.6502763,-0.08289703,0.65139294,-0.7541985,,-0.089234434,0.25376567,-0.0863339,0.9612471,0.03874507,0.27295208,-0.21488236,0.72555655,0.6537532,-0.17271248,-0.68707097,0.7057648,,-0.024102937,0.3985858,-0.36835307,-0.14830562,0.43177313,-0.8897064,-0.7483476,-0.6371419,-0.18446153,-0.6465147,0.63845295,0.4176081,,1.1292643372663531,0.34556912792292416,0.20653529312000002,0.7857082182365127,-0.04836932091696592,1.0090502621171473,-0.40068299422738685,,-0.894562762485796,-0.28884565496174514,0.19215684444000003,0.027050002709503643,0.18568900318123358,-0.6942538380976133,0.0970263752837619,,-0.048596511360217115,-0.07013605599139214,0.08219610256,-0.07424845330935166,,2.1260232e-05,1.013279e-06,-2.2649765e-06,1.0,-1.7572194e-05,-1.5184283e-05,1.7572194e-05,1.0,-1.937151e-06,1.5176833e-05,1.937151e-06,1.0,109,0.33,0,0,0.0,False,-0.2571374605716965,0.2730727984234753
0.35802434498327784,16:58:50.809839,16:58:37.153885,0,,0.11948332,0.0021043867,0.018641979,-0.9647228,-0.11403337,-0.23728952,-0.2482554,0.09402421,0.96412075,-0.08763096,0.98901767,-0.11901668,,0.056895692,-0.020211734,0.02594322,0.23602818,-0.3770323,0.8956211,-0.9308213,0.17693537,0.31978974,-0.2790381,-0.9091427,-0.30918798,,0.10668746,1.3421677,0.44153714,0.99560595,0.021058045,-0.09124351,-0.04355343,-0.7584483,-0.6502763,-0.08289703,0.65139294,-0.7541985,,-0.08941493,0.25366512,-0.086430915,0.9612752,0.039924603,0.27268285,-0.21578695,0.7245004,0.65462595,-0.17142315,-0.6881171,0.7050595,,-0.024103079,0.39858487,-0.36835417,-0.14830251,0.4318449,-0.88967204,-0.74834335,-0.6371306,-0.18451786,-0.6465204,0.6384157,0.41765633,,1.128159986465339,0.345461009662685,0.20645492314000002,0.7854985282930282,-0.047549501918373274,1.010995474379467,-0.4003563060951184,,-0.894562762485796,-0.28885337769461933,0.19215684444000003,0.027050002709503643,0.18568900318123358,-0.6941721593574728,0.09751640748216472,,-0.048596511360217115,-0.07013605599139214,0.08219610256,-0.07424845330935166,,2.1260232e-05,1.013279e-06,-2.2649765e-06,1.0,-1.7572194e-05,-1.5184283e-05,1.7572194e-05,1.0,-1.937151e-06,1.5176833e-05,1.937151e-06,1.0,121,0.366,0,0,0.0,False,-0.25683957197909146,0.27316935882503435
0.3901321419980377,16:58:50.838015,16:58:37.153885,0,,0.11961856,0.0020161867,0.018645853,-0.9643723,-0.114465825,-0.23850296,-0.2494902,0.093687475,0.9638347,-0.08798137,0.9889997,-0.11890775,,0.056895945,-0.02021315,0.02594304,0.23602477,-0.3769578,0.8956534,-0.93082416,0.17695695,0.31976968,-0.27903175,-0.9091693,-0.30911517,,0.10668746,1.3421677,0.44153714,0.99560595,0.021058045,-0.09124351,-0.04355343,-0.7584483,-0.6502763,-0.08289703,0.65139294,-0.7541985,,-0.089552484,0.25359723,-0.08648146,0.96091837,0.040347558,0.27387574,-0.21695739,0.724248,0.6545184,-0.17194574,-0.6883581,0.7046969,,-0.02410322,0.39858398,-0.36835527,-0.14829941,0.4317713,-0.8897083,-0.7483391,-0.6371494,-0.18447012,-0.64652604,0.6384467,0.4176002,,1.1273027631163002,0.3454919005941819,0.20641473815000003,0.7844500785756056,-0.04836932091696592,1.0118273392819268,-0.4003563060951185,,-0.894562762485796,-0.2888611004274936,0.19215684444000003,0.027050002709503643,0.18568900318123358,-0.6942538380976133,0.097679751548299,,-0.048596511360217115,-0.07013605599139214,0.08219610256,-0.07424845330935166,,2.1260232e-05,1.013279e-06,-2.2649765e-06,1.0,-1.7572194e-05,-1.5184283e-05,1.7572194e-05,1.0,-1.937151e-06,1.5176833e-05,1.937151e-06,1.0,140,0.424,0,0,0.0,False,-0.25636295023092304,0.27273483701801915
0.4183141789981164,16:58:50.891808,16:58:37.153885,0,,0.119934805,0.0019053817,0.018628687,-0.963093,-0.11744639,-0.24219482,-0.2532887,0.09094465,0.9631064,-0.09108703,0.9889062,-0.117336035,,0.056898095,-0.0202213,0.025940955,0.23600426,-0.37687647,0.895693,-0.93084073,0.1769557,0.31972203,-0.27899373,-0.90920323,-0.3090497,,0.10668746,1.3421677,0.44153714,0.99560595,0.021058045,-0.09124351,-0.04355343,-0.7584483,-0.6502763,-0.08289703,0.65139294,-0.7541985,,-0.08986943,0.2534931,-0.08651727,0.95977676,0.04324844,0.2774134,-0.22189718,0.7222104,0.6551135,-0.17201822,-0.69031996,0.7027575,,-0.024104625,0.3985777,-0.36836112,-0.14828074,0.4316931,-0.88974935,-0.74831355,-0.637187,-0.18444382,-0.64655983,0.638462,0.41752437,,1.1255574254867253,0.3458317008406478,0.20638621977000002,0.7800465897624306,-0.0486425939164968,1.0149089309942392,-0.4005196501612527,,-0.894562762485796,-0.2889074368247389,0.19215814073,0.027050002709503643,0.18568900318123358,-0.6943355168377539,0.09686303121762757,,-0.048596511360217115,-0.07013605599139214,0.08219610256,-0.07424845330935166,,2.1260232e-05,1.013279e-06,-2.2649765e-06,1.0,-1.7572194e-05,-1.5184283e-05,1.7572194e-05,1.0,-1.937151e-06,1.5176833e-05,1.937151e-06,1.0,148,0.448,0,0,0.0,False,-0.2570778828531757,0.27085190918762025
0.4720784239761997,16:58:50.926074,16:58:37.153885,0,,0.120123126,0.0018605888,0.01861316,-0.96274734,-0.11825161,-0.24317516,-0.25415993,0.08874354,0.9630822,-0.09230578,0.9890102,-0.11549249,,0.056899033,-0.020230941,0.025939047,0.23574542,-0.37681058,0.8957889,-0.9309205,0.17702019,0.319454,-0.2789464,-0.909218,-0.309049,,0.10668746,1.3421677,0.44153714,0.99560595,0.021058045,-0.09124351,-0.04355343,-0.7584483,-0.6502763,-0.08289703,0.65139294,-0.7541985,,-0.09005717,0.25344357,-0.08652067,0.959502,0.04398125,0.27824745,-0.22336474,0.7206457,0.6563367,-0.17165132,-0.69190705,0.7012849,,-0.024104737,0.39857092,-0.36836833,-0.14802133,0.43162417,-0.889826,-0.7482891,-0.63717234,-0.18459368,-0.6466476,0.6385233,0.41729477,,1.1245611929459505,0.3461019964912456,0.20638362719000003,0.778998140045008,-0.04877923041626224,1.0173890323620118,-0.40002961796284997,,-0.8945550397529218,-0.28895377322198423,0.19215814073,0.027259692652988166,0.18555236668146813,-0.6943874564143385,0.09522959055628483,,-0.048596511360217115,-0.07013605599139214,0.08219610256,-0.07424845330935166,,2.1260232e-05,1.013279e-06,-2.2649765e-06,1.0,-1.7572194e-05,-1.5184283e-05,1.7572194e-05,1.0,-1.937151e-06,1.5176833e-05,1.937151e-06,1.0,156,0.473,0,0,0.0,False,-0.25719703829021734,0.27041738738060506
0.5063663049950264,16:58:50.952340,16:58:37.307836,0,,0.12034276,0.0018176883,0.018599302,-0.96273756,-0.11946367,-0.24262083,-0.2538018,0.0893223,0.96312314,-0.09338674,0.98881245,-0.11631408,,0.056900706,-0.020243578,0.0259372,0.23607026,-0.37664664,0.8957723,-0.93091714,0.17671174,0.3196345,-0.27868283,-0.909346,-0.3089104,,0.10668746,1.3421677,0.44153714,0.99560595,0.021058045,-0.09124351,-0.04355343,-0.7584483,-0.6502763,-0.08289703,0.65139294,-0.7541985,,-0.090276204,0.25339562,-0.086521685,0.9595857,0.045220688,0.27775952,-0.22380622,0.7209875,0.6558108,-0.17060494,-0.691471,0.70197,,-0.024105374,0.39856255,-0.3683781,-0.14836472,0.43149245,-0.8898327,-0.7480976,-0.637459,-0.18438011,-0.64679044,0.63832617,0.41737488,,1.1234336739463135,0.3464495194705857,0.20638103461,0.7792078299884925,-0.0486425939164968,1.0170325782378937,-0.40019296202898413,,-0.8945550397529218,-0.28902327781785225,0.19215814073,0.026840312766019118,0.18555236668146813,-0.6945508138946197,0.09457621429174773,,-0.048596511360217115,-0.07013605599139214,0.08219610256,-0.07424845330935166,,2.1260232e-05,1.013279e-06,-2.2649765e-06,1.0,-1.7572194e-05,-1.5184283e-05,1.7572194e-05,1.0,-1.937151e-06,1.5176833e-05,1.937151e-06,1.0,168,0.509,0,0,0.0,False,-0.2568991496976123,0.2692103823611185
0.5326198929979,16:58:50.983868,16:58:37.307836,0,,0.12055095,0.001792118,0.018611789,-0.9623134,-0.12039556,-0.24383962,-0.25509322,0.08892572,0.9628186,-0.09423545,0.9887352,-0.116286576,,0.056902986,-0.020256214,0.02593571,0.23603947,-0.37663445,0.8957855,-0.93094206,0.17667067,0.31958467,-0.27862567,-0.90935904,-0.30892357,,0.10668746,1.3421677,0.44153714,0.99560595,0.021058045,-0.09124351,-0.04355343,-0.7584483,-0.6502763,-0.08289703,0.65139294,-0.7541985,,-0.09048537,0.2533784,-0.08653193,0.9591924,0.046144303,0.27896357,-0.22534913,0.7206659,0.65563595,-0.17078567,-0.6917452,0.7016558,,-0.024106646,0.39855444,-0.36838806,-0.14833672,0.4314842,-0.8898413,-0.7480593,-0.6374928,-0.18441872,-0.6468412,0.638298,0.41733932,,1.1223988277411676,0.3469206061759134,0.20636288655,0.7779496903275853,-0.049462412915089446,1.0176194069199316,-0.4003563060951184,,-0.8945550397529218,-0.2890927824137203,0.19215814073,0.026840312766019118,0.18555236668146813,-0.6945508138946197,0.09490290242401628,,-0.048596511360217115,-0.07013605599139214,0.08219610256,-0.07424845330935166,,2.1260232e-05,1.013279e-06,-2.2649765e-06,1.0,-1.7572194e-05,-1.5184283e-05,1.7572194e-05,1.0,-1.937151e-06,1.5176833e-05,1.937151e-06,1.0,183,0.555,0,0,0.0,False,-0.2570778828531757,0.26892070115644184
0.5641644379938953,16:58:51.027539,16:58:37.307836,0,,0.12081063,0.0017699897,0.018705294,-0.9621752,-0.12143807,-0.24386796,-0.25522044,0.08867732,0.9628078,-0.09529595,0.98862994,-0.116316676,,0.056902856,-0.020270504,0.02593249,0.23618427,-0.37641203,0.8958408,-0.9309555,0.1765373,0.31961912,-0.2784578,-0.909477,-0.30872753,,0.10668746,1.3421677,0.44153714,0.99560595,0.021058045,-0.09124351,-0.04355343,-0.7584483,-0.6502763,-0.08289703,0.65139294,-0.7541985,,-0.090752006,0.25341547,-0.086596675,0.95913297,0.04718445,0.27899382,-0.22614634,0.72044075,0.65560883,-0.17006397,-0.6919095,0.7016691,,-0.024105268,0.39854422,-0.36839846,-0.14849257,0.43128133,-0.8899137,-0.7479392,-0.6376851,-0.18424061,-0.6469442,0.638243,0.41726375,,1.1212326950771596,0.34767743399758744,0.20627473883000003,0.7777400003841008,-0.049872322414385765,1.0178719818908804,-0.4005196501612527,,-0.8945395942871734,-0.28917000974246254,0.19215814073,0.026630622822534592,0.18555236668146813,-0.6947958501150413,0.09310611769653926,,-0.048596511360217115,-0.07013605599139214,0.08219610256,-0.07424845330935166,,2.1260232e-05,1.013279e-06,-2.2649765e-06,1.0,-1.7572194e-05,-1.5184283e-05,1.7572194e-05,1.0,-1.937151e-06,1.5176833e-05,1.937151e-06,1.0,191,0.579,0,0,0.0,False,-0.2566608388235285,0.26708605352682246
0.6078360819956288,16:58:51.052381,16:58:37.307836,0,,0.120986685,0.0017227978,0.018787965,-0.9616452,-0.12195633,-0.24569319,-0.25702736,0.08784419,0.9624034,-0.095788464,0.98864055,-0.11582112,,0.056936644,-0.020297743,0.025930285,0.23616703,-0.37655127,0.8957869,-0.9309758,0.17644125,0.31961283,-0.2784044,-0.90943813,-0.30889052,,0.10669394,1.3421673,0.44153374,0.99560577,0.021055544,-0.09124565,-0.043556716,-0.75844836,-0.650276,-0.08289703,0.65139294,-0.7541985,,-0.09094148,0.253431,-0.08667835,0.9585912,0.047677122,0.28076643,-0.22784871,0.71983564,0.6556841,-0.17084454,-0.6925053,0.70089126,,-0.024143353,0.39852634,-0.36842337,-0.1484813,0.43142334,-0.88984674,-0.7479028,-0.63768935,-0.18437386,-0.6469889,0.6381428,0.41734764,,1.1205608173171022,0.34810218430566975,0.20618140595,0.7760624808362246,-0.05096541441250929,1.0187633251204518,-0.4005196501612527,,-0.8945473170200476,-0.2892086234068337,0.19215684444000003,0.026630622822534592,0.18555236668146813,-0.6947141713749008,0.09294277363040498,,-0.048596511360217115,-0.07013605599139214,0.08219610256,-0.07424845330935166,,2.8010458e-05,-7.1525574e-07,0.0,1.0,-2.0056963e-05,-1.731515e-05,2.0060688e-05,1.0,-2.2053719e-06,1.733005e-05,2.2053719e-06,1.0,203,0.616,0,0,0.0,False,-0.2570778828531757,0.2680516575424119
0.6326015459781047,16:58:51.089566,16:58:37.307836,0,,0.1210728,0.0016301274,0.018920973,-0.9616027,-0.12202139,-0.2458269,-0.25715855,0.08773807,0.962378,-0.09586233,0.9886419,-0.11574808,,0.056934796,-0.020298325,0.025930882,0.2362253,-0.3765506,0.89577174,-0.9309296,0.17652452,0.31970146,-0.27850947,-0.90942216,-0.3088426,,0.10669394,1.3421673,0.44153374,0.99560577,0.021055544,-0.09124565,-0.043556716,-0.75844836,-0.650276,-0.08289703,0.65139294,-0.7541985,,-0.09104017,0.25344613,-0.086832374,0.95855093,0.047738884,0.28089336,-0.2279973,0.71975857,0.655717,-0.1708722,-0.6925811,0.7008096,,-0.024141518,0.3985267,-0.36842415,-0.14853449,0.43141565,-0.88984156,-0.74797326,-0.6376323,-0.1842853,-0.6468953,0.638205,0.41739777,,1.1200665624131518,0.3482334707645316,0.20602325857000003,0.7760624808362246,-0.051375323911805604,1.0190975788315408,-0.40068299422738685,,-0.8945395942871734,-0.28921634613970787,0.19215554815000002,0.026630622822534592,0.18568900318123358,-0.6947439105384567,0.09277942956427071,,-0.048596511360217115,-0.07013605599139214,0.08219610256,-0.07424845330935166,,2.8010458e-05,-7.1525574e-07,0.0,1.0,-2.0056963e-05,-1.731515e-05,2.0060688e-05,1.0,-2.2053719e-06,1.733005e-05,2.2053719e-06,1.0,211,0.641,0,0,0.0,False,-0.2571374605716965,0.26785853673929383
0.6698217939992901,16:58:51.122464,16:58:37.307836,0,,0.12109361,0.0014451891,0.01911509,-0.9615815,-0.12234415,-0.2457496,-0.2571727,0.08829039,0.9623238,-0.09603731,0.9885529,-0.116362125,,0.056930475,-0.020294689,0.025930762,0.23588176,-0.3765802,0.89584994,-0.9309498,0.17684826,0.3194638,-0.27873325,-0.90934694,-0.30886197,,0.10669394,1.3421673,0.44153374,0.99560577,0.021055544,-0.09124565,-0.043556716,-0.75844836,-0.650276,-0.08289703,0.65139294,-0.7541985,,-0.09108108,0.2534339,-0.087097876,0.9585429,0.048082896,0.28086215,-0.22812364,0.7201255,0.6552701,-0.17074873,-0.6921758,0.70124,,-0.024137463,0.39852896,-0.36842093,-0.14817433,0.43141666,-0.88990116,-0.748138,-0.63739586,-0.18443434,-0.64678735,0.63844043,0.41720492,,1.11973448489956,0.34794772964818527,0.20576788944000002,0.7760624808362246,-0.05123868741204017,1.018904482187704,-0.4010096823596556,,-0.8945164260885508,-0.28919317794108523,0.19215425186,0.027050002709503643,0.18568900318123358,-0.6947439105384567,0.09277942956427071,,-0.048596511360217115,-0.07013605599139214,0.08219610256,-0.07424845330935166,,2.8010458e-05,-7.1525574e-07,0.0,1.0,-2.0056963e-05,-1.731515e-05,2.0060688e-05,1.0,-2.2053719e-06,1.733005e-05,2.2053719e-06,1.0,230,0.698,0,0,0.0,False,-0.256541683386486,0.2682447783455295
0.7027312979917042,16:58:51.164388,16:58:37.493024,0,,0.12104515,0.0011398196,0.0193706,-0.9616486,-0.12333948,-0.24498862,-0.25669202,0.08995941,0.96229756,-0.09665021,0.9882786,-0.118169725,,0.05693023,-0.020290859,0.025933266,0.23594908,-0.37620434,0.89599013,-0.9308952,0.177082,0.31949335,-0.27885845,-0.9094571,-0.30842447,,0.10669394,1.3421673,0.44153374,0.99560577,0.021055544,-0.09124565,-0.043556716,-0.75844836,-0.650276,-0.08289703,0.65139294,-0.7541985,,-0.091061056,0.25337347,-0.0874939,0.9586705,0.04914279,0.2802426,-0.2281628,0.7212313,0.6540391,-0.16997842,-0.6909489,0.7026357,,-0.02413768,0.3985331,-0.368419,-0.14823559,0.4310348,-0.890076,-0.74822205,-0.63740444,-0.18406335,-0.64667606,0.63868976,0.41699576,,1.1195336938448304,0.34710595176489484,0.20540233566000002,0.7762721707797092,-0.050008958914151205,1.0177383635741553,-0.40068299422738685,,-0.894524148821425,-0.2891777324753368,0.19215295557,0.027050002709503643,0.185825639680999,-0.6951820434027154,0.0931061176965392,,-0.048596511360217115,-0.07013605599139214,0.08219610256,-0.07424845330935166,,2.8010458e-05,-7.1525574e-07,0.0,1.0,-2.0056963e-05,-1.731515e-05,2.0060688e-05,1.0,-2.2053719e-06,1.733005e-05,2.2053719e-06,1.0,238,0.723,0,0,0.0,False,-0.25731619372725945,0.26457548308629075
0.7446717259881552,16:58:51.201806,16:58:37.493024,0,,0.1209542,0.0008829534,0.01955299,-0.9616916,-0.12257749,-0.2452019,-0.25686347,0.09046653,0.96220434,-0.095762,0.98832715,-0.11848673,,0.056931414,-0.02029074,0.025933981,0.23594849,-0.37641713,0.89590085,-0.9308952,0.17700684,0.31953502,-0.27885905,-0.9093837,-0.30864042,,0.10669394,1.3421673,0.44153374,0.99560577,0.021055544,-0.09124565,-0.043556716,-0.75844836,-0.650276,-0.08289703,0.65139294,-0.7541985,,-0.090991706,0.25330275,-0.08780647,0.95864004,0.048393834,0.280477,-0.22770654,0.7216223,0.6537668,-0.17076015,-0.6905934,0.7027956,,-0.024138916,0.39853364,-0.36841926,-0.14823495,0.43124616,-0.8899737,-0.7482225,-0.6373602,-0.1842149,-0.64667577,0.63859123,0.41714713,,1.1195182483790818,0.3462487284158559,0.20512363331000003,0.7764818607231937,-0.05028223191368208,1.0180428781216886,-0.40002961796284986,,-0.8945318715542991,-0.2891777324753368,0.19215295557,0.027050002709503643,0.185825639680999,-0.6949370071822937,0.09000258043998788,,-0.048596511360217115,-0.07013605599139214,0.08219610256,-0.07424845330935166,,2.8010458e-05,-7.1525574e-07,0.0,1.0,-2.0056963e-05,-1.731515e-05,2.0060688e-05,1.0,-2.2053719e-06,1.733005e-05,2.2053719e-06,1.0,250,0.76,0,0,0.0,False,-0.25683957197909146,0.2633201978660247
0.782039369980339,16:58:51.236040,16:58:37.493024,0,,0.12077285,0.00052563846,0.01973115,-0.961211,-0.12369491,-0.24652141,-0.25833908,0.090681165,0.96178895,-0.09661351,0.98816836,-0.11911908,,0.056932848,-0.020291992,0.025934458,0.23594446,-0.37611637,0.89602816,-0.93089795,0.17710984,0.31946996,-0.27885324,-0.9094881,-0.30833787,,0.10669394,1.3421673,0.44153374,0.99560577,0.021055544,-0.09124565,-0.043556716,-0.75844836,-0.650276,-0.08289703,0.65139294,-0.7541985,,-0.09083473,0.2531563,-0.08818886,0.9581855,0.049525756,0.28182927,-0.22939163,0.72171265,0.6530776,-0.17105557,-0.6904188,0.7028954,,-0.024140295,0.39853325,-0.36842063,-0.14823121,0.43094772,-0.89011884,-0.7482186,-0.63742495,-0.18400632,-0.6466811,0.638728,0.4169294,,1.1197499303653085,0.3446810136423883,0.20479696823000001,0.7745946512318329,-0.04877923041626224,1.0185325347239798,-0.3998662738967156,,-0.8945395942871734,-0.289185455208211,0.19215295557,0.027050002709503643,0.185825639680999,-0.6952637221428559,0.08869582791091357,,-0.048596511360217115,-0.07013605599139214,0.08219610256,-0.07424845330935166,,2.8010458e-05,-7.1525574e-07,0.0,1.0,-2.0056963e-05,-1.731515e-05,2.0060688e-05,1.0,-2.2053719e-06,1.733005e-05,2.2053719e-06,1.0,262,0.795,0,0,0.0,False,-0.2575545046013441,0.2642375216808346
0.8163164290017448,16:58:51.269092,16:58:37.493024,0,,0.12054624,0.00026343763,0.019850045,-0.9612047,-0.13065355,-0.24293013,-0.2547731,0.08298305,0.96343374,-0.10571696,0.98794913,-0.11305079,,0.05693314,-0.020293154,0.0259341,0.23588338,-0.3764151,0.8959189,-0.93094695,0.17691448,0.31943536,-0.27874127,-0.9094025,-0.3086913,,0.10669394,1.3421673,0.44153374,0.99560577,0.021055544,-0.09124565,-0.043556716,-0.75844836,-0.650276,-0.08289703,0.65139294,-0.7541985,,-0.090625405,0.25304383,-0.088467725,0.95898193,0.056262143,0.27782768,-0.23269315,0.71598035,0.6581991,-0.16188747,-0.69584966,0.69970405,,-0.024140479,0.39853233,-0.36842144,-0.14817554,0.43125203,-0.88998073,-0.7481435,-0.63742477,-0.18431205,-0.6467807,0.6385228,0.41708916,,1.1206766583102155,0.3429742896771847,0.20457141377000002,0.7735462015144103,-0.037301764435965244,1.0248557489204682,-0.4023164348887298,,-0.8945395942871734,-0.289185455208211,0.19215295557,0.027050002709503643,0.18568900318123358,-0.6949072680187378,0.09016592450612215,,-0.048596511360217115,-0.07013605599139214,0.08219610256,-0.07424845330935166,,2.8010458e-05,-7.1525574e-07,0.0,1.0,-2.0056963e-05,-1.731515e-05,2.0060688e-05,1.0,-2.2053719e-06,1.733005e-05,2.2053719e-06,1.0,273,0.829,0,0,0.0,False,-0.25779281547542787,0.2658307683065564
0.8492596949799918,16:58:51.302754,16:58:37.636294,0,,0.12033827,0.00020614266,0.019844636,-0.9594229,-0.14011253,-0.24469627,-0.25662804,0.07432315,0.9636484,-0.116832614,0.9873421,-0.10726422,,0.056932505,-0.020295836,0.025932908,0.23581944,-0.3765728,0.8958694,-0.9309987,0.17676365,0.31936795,-0.27862248,-0.9093665,-0.3089045,,0.10669394,1.3421673,0.44153374,0.99560577,0.021055544,-0.09124565,-0.043556716,-0.75844836,-0.650276,-0.08289703,0.65139294,-0.7541985,,-0.09041932,0.25300333,-0.08851727,0.9580123,0.06549344,0.27914712,-0.24145165,0.7093435,0.66221815,-0.15464024,-0.70181364,0.6953733,,-0.024139566,0.39852998,-0.36842307,-0.14811738,0.43141672,-0.8899106,-0.74806374,-0.6374575,-0.18452257,-0.6468863,0.63837886,0.41714573,,1.1218736819057202,0.3418699388761706,0.20454419168000001,0.7664167434359366,-0.026507480954495448,1.0310009439741739,-0.39823283323537273,,-0.8945318715542991,-0.28919317794108523,0.19215295557,0.027050002709503643,0.18555236668146813,-0.6947141713749008,0.09098264483679347,,-0.048596511360217115,-0.07013605599139214,0.08219610256,-0.07424845330935166,,2.8010458e-05,-7.1525574e-07,0.0,1.0,-2.0056963e-05,-1.731515e-05,2.0060688e-05,1.0,-2.2053719e-06,1.733005e-05,2.2053719e-06,1.0,285,0.866,0,0,0.0,False,-0.25677999426057063,0.2666032515190282
0.8830227619910147,16:58:51.336444,16:58:37.636294,0,,0.1200664,0.00024306774,0.019844726,-0.9571158,-0.14634588,-0.25002438,-0.2626035,0.07379079,0.9620782,-0.12234667,0.9864775,-0.10905728,,0.056932203,-0.020297147,0.025930941,0.23581663,-0.37628543,0.89599085,-0.9310015,0.17686024,0.31930634,-0.2786155,-0.9094666,-0.3086157,,0.10669394,1.3421673,0.44153374,0.99560577,0.021055544,-0.09124565,-0.043556716,-0.75844836,-0.650276,-0.08289703,0.65139294,-0.7541985,,-0.090147346,0.25303927,-0.08851387,0.95597136,0.07175756,0.28455165,-0.24964458,0.70855975,0.6600157,-0.15426072,-0.70199287,0.6952767,,-0.024139026,0.39852765,-0.36842313,-0.1481149,0.43113175,-0.8900491,-0.74805903,-0.6375207,-0.1843232,-0.64689225,0.63850826,0.41693833,,1.1233641693504457,0.3412135065818615,0.20455456200000002,0.7578194557530711,-0.022681658961063115,1.0295148174734854,-0.401826402690327,,-0.894524148821425,-0.2892009006739594,0.19215425186,0.027050002709503643,0.18555236668146813,-0.695040886335463,0.09163602110133057,,-0.048596511360217115,-0.07013605599139214,0.08219610256,-0.07424845330935166,,2.8010458e-05,-7.1525574e-07,0.0,1.0,-2.0056963e-05,-1.731515e-05,2.0060688e-05,1.0,-2.2053719e-06,1.733005e-05,2.2053719e-06,1.0,293,0.891,0,0,0.0,False,-0.257435349164302,0.26641013071591013
0.916739685984794,16:58:51.364390,16:58:37.636294,0,,0.11978457,0.0003797859,0.019881621,-0.95443666,-0.15002967,-0.25795698,-0.2708271,0.07249099,0.95989466,-0.12531312,0.9860203,-0.10982019,,0.056932155,-0.020298578,0.025930583,0.23599105,-0.37613505,0.8960081,-0.9309901,0.17674813,0.31940168,-0.27850595,-0.90955067,-0.30846703,,0.10669394,1.3421673,0.44153374,0.99560577,0.021055544,-0.09124565,-0.043556716,-0.75844836,-0.650276,-0.08289703,0.65139294,-0.7541985,,-0.08986549,0.25317487,-0.088473186,0.9532999,0.07542779,0.29245517,-0.2578659,0.7073903,0.65810645,-0.15724045,-0.702787,0.69380534,,-0.02413885,0.3985266,-0.36842415,-0.14829752,0.43099642,-0.8900842,-0.7479782,-0.6376658,-0.18414927,-0.6469439,0.63845474,0.41694018,,1.125063170582775,0.3411131110544966,0.20457659893000002,0.7481737183527829,-0.022408385961532235,1.0288835879653897,-0.4016630586241927,,-0.894524148821425,-0.2892086234068337,0.19215425186,0.026840312766019118,0.18555236668146813,-0.6952042438157442,0.09196270923359923,,-0.048596511360217115,-0.07013605599139214,0.08219610256,-0.07424845330935166,,2.8010458e-05,-7.1525574e-07,0.0,1.0,-2.0056963e-05,-1.731515e-05,2.0060688e-05,1.0,-2.2053719e-06,1.733005e-05,2.2053719e-06,1.0,305,0.927,0,0,0.0,False,-0.2570778828531757,0.26747229513305815
0.9446744729939383,16:58:51.404724,16:58:37.636294,0,,0.11949563,0.0006058663,0.019975692,-0.9529215,-0.15167427,-0.26255563,-0.27547142,0.071196586,0.9586692,-0.12671238,0.9858631,-0.10962674,,0.056932617,-0.020300351,0.025932252,0.2362225,-0.3762633,0.8958933,-0.9309324,0.1766212,0.31963992,-0.27850255,-0.9095223,-0.3085538,,0.10669394,1.3421673,0.44153374,0.99560577,0.021055544,-0.09124565,-0.043556716,-0.75844836,-0.650276,-0.08289703,0.65139294,-0.7541985,,-0.08957845,0.25341552,-0.08841714,0.9517678,0.07704272,0.29698902,-0.26232746,0.7063614,0.657448,-0.15912999,-0.70364624,0.69250244,,-0.024139313,0.39852703,-0.36842653,-0.14853203,0.4311307,-0.8899801,-0.7479686,-0.6376954,-0.18408588,-0.64690125,0.6383345,0.41719043,,1.1270710811300735,0.34145291130096245,0.20458696925000003,0.7425120898787008,-0.022135112962001352,1.0281706797171535,-0.4013363704919243,,-0.8945318715542991,-0.2892240688725821,0.19215295557,0.026630622822534592,0.18568900318123358,-0.6950706254990189,0.09212605329973356,,-0.048596511360217115,-0.07013605599139214,0.08219610256,-0.07424845330935166,,2.8010458e-05,-7.1525574e-07,0.0,1.0,-2.0056963e-05,-1.731515e-05,2.0060688e-05,1.0,-2.2053719e-06,1.733005e-05,2.2053719e-06,1.0,320,0.973,0,0,0.0,False,-0.2580311263495121,0.2682447783455295
0.9849404539854731,16:58:51.444383,16:58:37.771419,0,,0.119323514,0.00075253844,0.02005972,-0.95090514,-0.15358147,-0.26868588,-0.28194118,0.07186952,0.95673615,-0.1276266,0.98551893,-0.11164212,,0.056933004,-0.020306177,0.02593267,0.23620881,-0.37633103,0.89586836,-0.9309435,0.17657685,0.31963223,-0.27847716,-0.90950286,-0.30863392,,0.10669394,1.3421673,0.44153374,0.99560577,0.021055544,-0.09124565,-0.043556716,-0.75844836,-0.650276,-0.08289703,0.65139294,-0.7541985,,-0.0894093,0.25358632,-0.08839681,0.94964755,0.078988895,0.3032,-0.26785925,0.70669854,0.65485007,-0.16254511,-0.70309174,0.6922724,,-0.024139324,0.3985243,-0.36843172,-0.14851958,0.43119973,-0.8899487,-0.74795157,-0.6376954,-0.1841551,-0.6469238,0.6382879,0.41722676,,1.1282758274584523,0.34181587974605104,0.20457400635000003,0.7355923217437115,-0.023638114459421197,1.026047448312051,-0.40149971455805855,,-0.8945318715542991,-0.289254959804079,0.19215165928000003,0.026630622822534592,0.18568900318123358,-0.6949889467588783,0.09294277363040493,,-0.048596511360217115,-0.07013605599139214,0.08219610256,-0.07424845330935166,,2.8010458e-05,-7.1525574e-07,0.0,1.0,-2.0056963e-05,-1.731515e-05,2.0060688e-05,1.0,-2.2053719e-06,1.733005e-05,2.2053719e-06,1.0,328,0.997,0,0,0.0,False,-0.2570183051346544,0.2680999377431914
1.0246766499767546,16:58:51.469360,16:58:37.771419,0,,0.11931246,0.00077418983,0.020090178,-0.9506035,-0.15500423,-0.26893586,-0.28239614,0.072182,0.9565784,-0.12886137,0.98527336,-0.11238918,,0.056932077,-0.020307712,0.025931835,0.236206,-0.3763364,0.89586693,-0.9309463,0.17656916,0.3196284,-0.27847025,-0.9095022,-0.3086423,,0.10669394,1.3421673,0.44153374,0.99560577,0.021055544,-0.09124565,-0.043556716,-0.75844836,-0.650276,-0.08289703,0.65139294,-0.7541985,,-0.08940002,0.25362298,-0.08840625,0.9494296,0.08043457,0.30350244,-0.26902264,0.70681465,0.6542476,-0.16189583,-0.70281106,0.69270945,,-0.024138227,0.39852285,-0.36843255,-0.14851712,0.43120554,-0.88994634,-0.7479469,-0.63769823,-0.18416403,-0.64692974,0.6382811,0.41722795,,1.1284457275816853,0.3419008298076675,0.20455585829000003,0.7345438720262888,-0.022681658961063115,1.0251858442460355,-0.4016630586241928,,-0.894524148821425,-0.28926268253695325,0.19215165928000003,0.026630622822534592,0.18568900318123358,-0.6949889467588783,0.09326946176267353,,-0.048596511360217115,-0.07013605599139214,0.08219610256,-0.07424845330935166,,2.8010458e-05,-7.1525574e-07,0.0,1.0,-2.0056963e-05,-1.731515e-05,2.0060688e-05,1.0,-2.2053719e-06,1.733005e-05,2.2053719e-06,1.0,353,1.074,0,0,0.0,False,-0.25683957197909146,0.2667963723221458
1.0496092299872544,16:58:51.547155,16:58:37.771419,0,,0.11940585,0.0006830543,0.020214155,-0.94651765,-0.16277444,-0.27858362,-0.29280573,0.07065043,0.9535583,-0.13553284,0.9841306,-0.114533275,,0.056934442,-0.020307444,0.025933206,0.2362048,-0.37624982,0.8959036,-0.9309462,0.17660159,0.3196106,-0.27847138,-0.9095317,-0.30855423,,0.10669394,1.3421673,0.44153374,0.99560577,0.021055544,-0.09124565,-0.043556716,-0.75844836,-0.650276,-0.08289703,0.65139294,-0.7541985,,-0.089505225,0.2536331,-0.08855195,0.9455809,0.08822384,0.3131985,-0.28136775,0.7051416,0.65085137,-0.16342868,-0.7035566,0.6915918,,-0.024140703,0.39852393,-0.36843312,-0.14851584,0.43111938,-0.88998824,-0.7479477,-0.637715,-0.18410268,-0.6469291,0.63832253,0.41716555,,1.1279746408763576,0.34199350260215816,0.20440548865000002,0.7217527854737329,-0.02158856696293959,1.0249479309375886,-0.40133637049192417,,-0.8945395942871734,-0.28926268253695325,0.19215165928000003,0.026630622822534592,0.18568900318123358,-0.6950706254990189,0.0917993651674649,,-0.048596511360217115,-0.07013605599139214,0.08219610256,-0.07424845330935166,,2.8010458e-05,-7.1525574e-07,0.0,1.0,-2.0056963e-05,-1.731515e-05,2.0060688e-05,1.0,-2.2053719e-06,1.733005e-05,2.2053719e-06,1.0,365,1.111,0,0,0.0,False,-0.25737577144578117,0.2683413387470881
1.1273955869837664,16:58:51.592043,16:58:37.932138,0,,0.11944663,0.00070014596,0.020264968,-0.9427297,-0.16912201,-0.28750354,-0.30234542,0.06921327,0.9506823,-0.1408822,0.9831619,-0.11638278,,0.056932885,-0.020309187,0.025933444,0.23620199,-0.3764015,0.8958406,-0.930949,0.17654169,0.31963557,-0.27846447,-0.9094806,-0.30871114,,0.10669394,1.3421673,0.44153374,0.99560577,0.021055544,-0.09124565,-0.043556716,-0.75844836,-0.650276,-0.08289703,0.65139294,-0.7541985,,-0.08954931,0.25367817,-0.08857569,0.9419516,0.09458449,0.32215053,-0.29217973,0.70361173,0.6477357,-0.16540313,-0.70426154,0.6904038,,-0.024139052,0.3985234,-0.3684347,-0.14851336,0.43127057,-0.8899154,-0.74794304,-0.6376878,-0.18421577,-0.64693505,0.63824755,0.417271,,1.1279051362804897,0.3422560755198818,0.20436789624,0.710219838582084,-0.02117865746364327,1.0245319984863588,-0.40149971455805844,,-0.8945318715542991,-0.28927040526982745,0.19215036299000002,0.026630622822534592,0.18568900318123358,-0.6949072680187378,0.09310611769653926,,-0.048596511360217115,-0.07013605599139214,0.08219610256,-0.07424845330935166,,2.8010458e-05,-7.1525574e-07,0.0,1.0,-2.0056963e-05,-1.731515e-05,2.0060688e-05,1.0,-2.2053719e-06,1.733005e-05,2.2053719e-06,1.0,377,1.149,0,0,0.0,False,-0.25731619372725945,0.26785853673929383
1.1723400439950638,16:58:51.618215,16:58:37.932138,0,,0.119457245,0.00075030327,0.020308688,-0.9408352,-0.1714781,-0.29227448,-0.30727315,0.06806126,0.9491844,-0.14287175,0.9828341,-0.11672518,,0.056933858,-0.020315029,0.025932968,0.23624597,-0.3763156,0.8958651,-0.93091387,0.17663586,0.31968594,-0.2785447,-0.90949786,-0.30858788,,0.10669394,1.3421673,0.44153374,0.99560577,0.021055544,-0.09124565,-0.043556716,-0.75844836,-0.650276,-0.08289703,0.65139294,-0.7541985,,-0.089561865,0.25374436,-0.08857464,0.940079,0.09692565,0.3268898,-0.2972541,0.7025991,0.64652497,-0.16700765,-0.70495385,0.6893102,,-0.024139574,0.3985198,-0.3684394,-0.14855348,0.43117982,-0.8899527,-0.74799687,-0.6376617,-0.18408766,-0.64686364,0.638335,0.417248,,1.1280132545407289,0.34258815303347345,0.20435104447000002,0.7045582101080018,-0.021725203462705032,1.0247326338807228,-0.40133637049192417,,-0.8945318715542991,-0.2893090189341986,0.19215036299000002,0.026630622822534592,0.185825639680999,-0.6950186859224343,0.09343280582880775,,-0.048596511360217115,-0.07013605599139214,0.08219610256,-0.07424845330935166,,2.8010458e-05,-7.1525574e-07,0.0,1.0,-2.0056963e-05,-1.731515e-05,2.0060688e-05,1.0,-2.2053719e-06,1.733005e-05,2.2053719e-06,1.0,385,1.173,0,0,0.0,False,-0.25767366003838577,0.2691138219595599
1.1985107719956432,16:58:51.656018,16:58:37.932138,0,,0.119471654,0.00083464384,0.020356432,-0.93525565,-0.17862388,-0.30559838,-0.3212066,0.06549388,0.9447418,-0.1487386,0.9817352,-0.11862874,,0.056935847,-0.020326503,0.025931776,0.23627628,-0.37622425,0.8958955,-0.9308897,0.17671189,0.31971413,-0.27859962,-0.9095208,-0.30847046,,0.10669394,1.3421673,0.44153374,0.99560577,0.021055544,-0.09124565,-0.043556716,-0.75844836,-0.650276,-0.08289703,0.65139294,-0.7541985,,-0.08957755,0.2538388,-0.088553846,0.93458086,0.10406022,0.3401912,-0.31176743,0.7001565,0.64232546,-0.17134653,-0.7063656,0.6867955,,-0.02414066,0.3985126,-0.36844856,-0.14858113,0.4310854,-0.88999385,-0.74803364,-0.63765055,-0.18397671,-0.6468147,0.63840985,0.41720924,,1.1281831546639618,0.3430978534031723,0.20434585931000002,0.6884120844596935,-0.022818295460828555,1.0248071897088884,-0.4016630586241927,,-0.8945318715542991,-0.2893785235300666,0.19215036299000002,0.026630622822534592,0.18596227618076444,-0.6951301038261306,0.09375949396107636,,-0.048596511360217115,-0.07013605599139214,0.08219610256,-0.07424845330935166,,2.8010458e-05,-7.1525574e-07,0.0,1.0,-2.0056963e-05,-1.731515e-05,2.0060688e-05,1.0,-2.2053719e-06,1.733005e-05,2.2053719e-06,1.0,397,1.21,0,0,0.0,False,-0.25815028178655464,0.2704656675813846
1.2363028999825474,16:58:51.684823,16:58:37.932138,0,,0.11948268,0.00087086856,0.020375848,-0.9323393,-0.18284509,-0.3119472,-0.32794714,0.064232826,0.9425099,-0.15229605,0.9810412,-0.11985034,,0.056938596,-0.020342134,0.025930166,0.23629637,-0.376202,0.8958995,-0.930874,0.17674804,0.31974018,-0.27863535,-0.909523,-0.3084317,,0.10669394,1.3421673,0.44153374,0.99560577,0.021055544,-0.09124565,-0.043556716,-0.75844836,-0.650276,-0.08289703,0.65139294,-0.7541985,,-0.08958902,0.25387853,-0.08854373,0.9317602,0.108285405,0.34655038,-0.3192679,0.69887644,0.64003104,-0.17288987,-0.7069979,0.6857573,,-0.024142168,0.3985027,-0.368461,-0.14859948,0.4310609,-0.8900026,-0.74805766,-0.63763565,-0.18393071,-0.64678276,0.6384413,0.41721076,,1.1282526592598296,0.34330636719077634,0.20434456302,0.680234176663797,-0.022681658961063115,1.0246140930650516,-0.401826402690327,,-0.8945318715542991,-0.2894711963245573,0.19215036299000002,0.026630622822534592,0.1860989126805299,-0.6951598429896866,0.09424952615947918,,-0.048596511360217115,-0.07013605599139214,0.08219610256,-0.07424845330935166,,2.8010458e-05,-7.1525574e-07,0.0,1.0,-2.0056963e-05,-1.731515e-05,2.0060688e-05,1.0,-2.2053719e-06,1.733005e-05,2.2053719e-06,1.0,409,1.247,0,0,0.0,False,-0.2585077480976805,0.27138299139619404
1.2651187149749603,16:58:51.716935,16:58:37.932138,0,,0.11950061,0.00091546774,0.02038993,-0.92493933,-0.19054262,-0.32890835,-0.3454237,0.060188204,0.9365148,-0.15864955,0.97983205,-0.12148854,,0.056944296,-0.02037508,0.025926888,0.23639071,-0.37622204,0.8958662,-0.93079877,0.17687622,0.31988803,-0.27880636,-0.90948987,-0.30837512,,0.10669394,1.3421673,0.44153374,0.99560577,0.021055544,-0.09124565,-0.043556716,-0.75844836,-0.650276,-0.08289703,0.65139294,-0.7541985,,-0.089606725,0.25392082,-0.08852359,0.9243862,0.115936995,0.36341274,-0.3368228,0.6952657,0.63494563,-0.17905472,-0.7093407,0.6817443,,-0.024145281,0.39848208,-0.3684873,-0.14868557,0.43106934,-0.8899842,-0.7481723,-0.6375383,-0.1838019,-0.64663035,0.6385328,0.41730687,,1.1282449365269556,0.34364616743724224,0.20435234076000003,0.6603136320327672,-0.024867842957310163,1.026070064563632,-0.4021530908225954,,-0.8945318715542991,-0.2896719873792871,0.19215036299000002,0.026630622822534592,0.1865088221798262,-0.6951673817402135,0.09588296682082192,,-0.048596511360217115,-0.07013605599139214,0.08219610256,-0.07424845330935166,,2.8010458e-05,-7.1525574e-07,0.0,1.0,-2.0056963e-05,-1.731515e-05,2.0060688e-05,1.0,-2.2053719e-06,1.733005e-05,2.2053719e-06,1.0,434,1.324,0,0,0.0,False,-0.25791197091247,0.2713347111954145
1.2972186569822952,16:58:51.796960,16:58:38.126443,0,,0.119636014,0.0011616796,0.020454183,-0.9223825,-0.19614863,-0.33277065,-0.35017362,0.060939014,0.9347004,-0.16306147,0.9786787,-0.124895185,,0.056962904,-0.0204897,0.025913358,0.23710749,-0.37442493,0.8964295,-0.93048245,0.17771491,0.32034335,-0.27925345,-0.9100677,-0.3062583,,0.10669394,1.3421673,0.44153374,0.99560577,0.021055544,-0.09124565,-0.043556716,-0.75844836,-0.650276,-0.08289703,0.65139294,-0.7541985,,-0.08973973,0.2541444,-0.08839947,0.92204547,0.12163413,0.3674742,-0.34337586,0.6952395,0.6314547,-0.17867614,-0.7084117,0.68280864,,-0.024154734,0.39840862,-0.36857778,-0.14938661,0.42926714,-0.89073753,-0.74845695,-0.6377692,-0.18183126,-0.6461392,0.6395155,0.41656217,,1.1283144411228236,0.3450517048203511,0.20440548865000002,0.6536035538412625,-0.02404802395871752,1.0226244799766744,-0.40149971455805833,,-0.894524148821425,-0.29037475607084157,0.19215165928000003,0.026211242935565544,0.18801182367724606,-0.6972914448224203,0.09424952615947912,,-0.048596511360217115,-0.07013605599139214,0.08219610256,-0.07424845330935166,,2.8010458e-05,-7.1525574e-07,0.0,1.0,-2.0056963e-05,-1.731515e-05,2.0060688e-05,1.0,-2.2053719e-06,1.733005e-05,2.2053719e-06,1.0,446,1.361,0,0,0.0,False,-0.2580311263495121,0.2673274545307196
1.3772279319819063,16:58:51.836481,16:58:38.126443,0,,0.11967423,0.0013110638,0.02051571,-0.9217635,-0.19709507,-0.3339246,-0.35129163,0.059899896,0.9343481,-0.16415331,0.97855276,-0.12445146,,0.056973755,-0.020540185,0.02590859,0.23668611,-0.37414682,0.896657,-0.9305644,0.17803729,0.31992584,-0.2793376,-0.91011906,-0.30602875,,0.10669394,1.3421673,0.44153374,0.99560577,0.021055544,-0.09124565,-0.043556716,-0.75844836,-0.650276,-0.08289703,0.65139294,-0.7541985,,-0.089778386,0.25429618,-0.088344425,0.92148155,0.12255798,0.3685801,-0.3449539,0.6944026,0.63151556,-0.1785457,-0.70907307,0.682156,,-0.024161628,0.398377,-0.36861828,-0.14895536,0.42897183,-0.890952,-0.7485283,-0.6376717,-0.18187952,-0.64615613,0.63981086,0.41608217,,1.128569291307673,0.34585486903927043,0.20441715526,0.6519260342933862,-0.02404802395871752,1.0226244799766744,-0.40149971455805833,,-0.8945318715542991,-0.2906604971871879,0.19215165928000003,0.026630622822534592,0.18814846017701148,-0.6975662202063979,0.09163602110133073,,-0.048596511360217115,-0.07013605599139214,0.08219610256,-0.07424845330935166,,2.8010458e-05,-7.1525574e-07,0.0,1.0,-2.0056963e-05,-1.731515e-05,2.0060688e-05,1.0,-2.2053719e-06,1.733005e-05,2.2053719e-06,1.0,458,1.399,0,0,0.0,False,-0.25785239319394915,0.2658307683065564
1.4167773919762112,16:58:51.867003,16:58:38.126443,0,,0.11973832,0.0015249103,0.020610765,-0.9210073,-0.2007949,-0.33380672,-0.35157785,0.059467763,0.934268,-0.16774547,0.9778267,-0.12536538,,0.056985613,-0.020599864,0.025901377,0.23406227,-0.37462953,0.897144,-0.93125653,0.17864871,0.31756225,-0.2792418,-0.90980065,-0.3070613,,0.10669394,1.3421673,0.44153374,0.99560577,0.021055544,-0.09124565,-0.043556716,-0.75844836,-0.650276,-0.08289703,0.65139294,-0.7541985,,-0.0898436,0.25451776,-0.08827013,0.92099726,0.12628928,0.36853093,-0.34755388,0.69370997,0.6308508,-0.17598389,-0.70909625,0.6827973,,-0.02416869,0.39833838,-0.3686653,-0.1463044,0.4293849,-0.89119226,-0.74854386,-0.6370326,-0.18404216,-0.6467435,0.6401703,0.41461408,,1.1289708734171326,0.3469514971074103,0.20442752558000002,0.649829134858541,-0.02158856696293959,1.02078231519042,-0.4018264026903269,,-0.8945164260885508,-0.2909307928377857,0.19215036299000002,0.02893721220086436,0.1869187316791225,-0.6968084952935518,0.09098264483679358,,-0.048596511360217115,-0.07013605599139214,0.08219610256,-0.07424845330935166,,2.8010458e-05,-7.1525574e-07,0.0,1.0,-2.0056963e-05,-1.731515e-05,2.0060688e-05,1.0,-2.2053719e-06,1.733005e-05,2.2053719e-06,1.0,466,1.423,0,0,0.0,False,-0.25856732581620134,0.2658307683065564
1.4472934709920082,16:58:51.897789,16:58:38.126443,0,,0.1197905,0.0016712695,0.020691156,-0.9196522,-0.20550805,-0.33467332,-0.35306117,0.05938694,0.93371356,-0.17201044,0.97685194,-0.12717235,,0.056992445,-0.020646222,0.02589506,0.23412782,-0.3745892,0.8971437,-0.9313339,0.1783351,0.31751162,-0.27892873,-0.9098788,-0.30711445,,0.10669394,1.3421673,0.44153374,0.99560577,0.021055544,-0.09124565,-0.043556716,-0.75844836,-0.650276,-0.08289703,0.65139294,-0.7541985,,-0.08989772,0.25467926,-0.08823014,0.9199345,0.1310595,0.36951855,-0.3515153,0.6931485,0.6292711,-0.17365927,-0.70877963,0.68372065,,-0.02417176,0.398308,-0.36870143,-0.14638804,0.4293727,-0.8911844,-0.7483265,-0.63726735,-0.1841136,-0.64697605,0.63994485,0.41459927,,1.129256614533479,0.34771604766195857,0.20442104413,0.6462644058193041,-0.018855836967630782,1.0185539571164917,-0.4018264026903269,,-0.8945087033556766,-0.29118564302263517,0.19215036299000002,0.028727522257379835,0.1869187316791225,-0.6968084952935518,0.09098264483679358,,-0.048596511360217115,-0.07013605599139214,0.08219610256,-0.07424845330935166,,2.8010458e-05,-7.1525574e-07,0.0,1.0,-2.0056963e-05,-1.731515e-05,2.0060688e-05,1.0,-2.2053719e-06,1.733005e-05,2.2053719e-06,1.0,478,1.46,0,0,0.0,False,-0.25815028178655464,0.2651548454956445
1.4780772939848248,16:58:51.939017,16:58:38.126443,0,,0.11983615,0.0017978996,0.020812988,-0.91984415,-0.20569369,-0.33403128,-0.352302,0.058639824,0.9340476,-0.17254013,0.976858,-0.12640584,,0.056995973,-0.020665817,0.025892735,0.23407996,-0.37457013,0.8971642,-0.9313725,0.17827103,0.31743428,-0.27883977,-0.9098992,-0.3071347,,0.10669394,1.3421673,0.44153374,0.99560577,0.021055544,-0.09124565,-0.043556716,-0.75844836,-0.650276,-0.08289703,0.65139294,-0.7541985,,-0.08994908,0.25485334,-0.088234656,0.9201879,0.1312231,0.3688289,-0.35128635,0.69259554,0.6300074,-0.17277773,-0.7092897,0.68341494,,-0.024173722,0.3982954,-0.3687169,-0.14634448,0.42935976,-0.8911978,-0.74826676,-0.63732016,-0.1841734,-0.647055,0.6399009,0.41454396,,1.1294960192525798,0.348557825545249,0.20436919253000002,0.6466837857062732,-0.018582563968099902,1.01849447878938,-0.4021530908225954,,-0.8945087033556766,-0.29129376128287426,0.19215036299000002,0.028727522257379835,0.1869187316791225,-0.6968084952935518,0.09098264483679358,,-0.048596511360217115,-0.07013605599139214,0.08219610256,-0.07424845330935166,,2.8010458e-05,-7.1525574e-07,0.0,1.0,-2.0056963e-05,-1.731515e-05,2.0060688e-05,1.0,-2.2053719e-06,1.733005e-05,2.2053719e-06,1.0,511,1.561,0,0,0.0,False,-0.2574949268828224,0.26414096127927555
1.5192835299822036,16:58:52.028663,16:58:38.334800,0,,0.11990602,0.0017534047,0.021596,-0.91741735,-0.21080576,-0.33750024,-0.35588083,0.05520457,0.9328995,-0.17802899,0.975968,-0.12566745,,0.056994244,-0.020665683,0.025892794,0.23396508,-0.37429875,0.89730746,-0.9314648,0.17819843,0.3172042,-0.278628,-0.9100251,-0.3069539,,0.10669394,1.3421673,0.44153374,0.99560577,0.021055544,-0.09124565,-0.043556716,-0.75844836,-0.650276,-0.08289703,0.65139294,-0.7541985,,-0.09008041,0.25533262,-0.08884541,0.9180928,0.13629039,0.37219697,-0.35766202,0.68957645,0.6297319,-0.17083186,-0.711273,0.681841,,-0.024172014,0.3982957,-0.36871678,-0.14623988,0.4291045,-0.8913379,-0.7481245,-0.63749224,-0.18415593,-0.6472431,0.63990074,0.41425037,,1.1300211650880272,0.3500405902571001,0.20364975158,0.6403930874017374,-0.016123106972321975,1.0186942825066394,-0.40100968235965573,,-0.8945009806228023,-0.2912783158171258,0.1921490667,0.028727522257379835,0.18664545867959165,-0.6970757319270022,0.08902251604318212,,-0.048596511360217115,-0.07013605599139214,0.08219610256,-0.07424845330935166,,2.8010458e-05,-7.1525574e-07,0.0,1.0,-2.0056963e-05,-1.731515e-05,2.0060688e-05,1.0,-2.2053719e-06,1.733005e-05,2.2053719e-06,1.0,519,1.586,0,0,0.0,False,-0.25779281547542787,0.26220975324809714
1.6089157389942557,16:58:52.059370,16:58:38.334800,0,,0.119904086,0.0016815215,0.02201216,-0.91620076,-0.2129497,-0.33945334,-0.35767967,0.05266133,0.9323584,-0.18066937,0.97564304,-0.12441614,,0.056993064,-0.020665817,0.025892138,0.23396565,-0.37430546,0.89730453,-0.9314648,0.17819536,0.3172059,-0.2786274,-0.9100229,-0.30696082,,0.10669394,1.3421673,0.44153374,0.99560577,0.021055544,-0.09124565,-0.043556716,-0.75844836,-0.650276,-0.08289703,0.65139294,-0.7541985,,-0.09011263,0.2555522,-0.08920474,0.9170338,0.13838091,0.3740317,-0.3607886,0.6875119,0.6302055,-0.16994284,-0.7128661,0.6803979,,-0.024170777,0.39829516,-0.3687165,-0.14624052,0.42911124,-0.89133453,-0.74812406,-0.63749135,-0.18416056,-0.64724344,0.6398971,0.41425553,,1.1303764108002414,0.3505580133596732,0.20323753136000003,0.6372477382494696,-0.014756741974667567,1.019867108193611,-0.4014997145580582,,-0.8944932578899281,-0.2912783158171258,0.1921490667,0.028727522257379835,0.18664545867959165,-0.6970757319270023,0.08869582791091357,,-0.048596511360217115,-0.07013605599139214,0.08219610256,-0.07424845330935166,,2.8010458e-05,-7.1525574e-07,0.0,1.0,-2.0056963e-05,-1.731515e-05,2.0060688e-05,1.0,-2.2053719e-06,1.733005e-05,2.2053719e-06,1.0,527,1.611,0,0,0.0,False,-0.2570183051346544,0.26414096127927555
1.6396614649856929,16:58:52.089853,16:58:38.334800,0,,0.11985873,0.0016097575,0.022467121,-0.915852,-0.2118999,-0.3410477,-0.3584621,0.04884985,0.9322654,-0.18088676,0.9760698,-0.12069747,,0.056994587,-0.020664133,0.025894582,0.23391014,-0.3743742,0.8972903,-0.9315081,0.1780937,0.3171358,-0.27852926,-0.91001457,-0.30707473,,0.10669394,1.3421673,0.44153374,0.99560577,0.021055544,-0.09124565,-0.043556716,-0.75844836,-0.650276,-0.08289703,0.65139294,-0.7541985,,-0.09010456,0.2557987,-0.08959637,0.9166811,0.13719493,0.37533095,-0.361531,0.68489194,0.63262814,-0.17026775,-0.71561205,0.6774277,,-0.024172597,0.39829797,-0.36871642,-0.14618972,0.4291861,-0.8913068,-0.7480582,-0.6375306,-0.18429217,-0.647331,0.63980776,0.41425663,,1.1309170021014372,0.3510754364622462,0.20280586679,0.6361992885320469,-0.015030014974198449,1.023030378646064,-0.4026431230209985,,-0.8945087033556766,-0.2912628703513774,0.19214777041000003,0.028727522257379835,0.1865088221798262,-0.6969643140233059,0.0891858601093164,,-0.048596511360217115,-0.07013605599139214,0.08219610256,-0.07424845330935166,,2.8010458e-05,-7.1525574e-07,0.0,1.0,-2.0056963e-05,-1.731515e-05,2.0060688e-05,1.0,-2.2053719e-06,1.733005e-05,2.2053719e-06,1.0,539,1.648,0,0,0.0,False,-0.25785239319394915,0.26418924148005507
1.670110085979104,16:58:52.123028,16:58:38.334800,0,,0.11979754,0.0016021878,0.022893056,-0.9144305,-0.21405461,-0.3435075,-0.360769,0.0463427,0.9315032,-0.18347348,0.9757218,-0.11960155,,0.056994334,-0.020662732,0.025894761,0.23391356,-0.3745222,0.8972277,-0.93150544,0.17804646,0.3171704,-0.2785356,-0.9099629,-0.30722195,,0.10669394,1.3421673,0.44153374,0.99560577,0.021055544,-0.09124565,-0.043556716,-0.75844836,-0.650276,-0.08289703,0.65139294,-0.7541985,,-0.09007667,0.25607488,-0.089925244,0.9153995,0.139299,0.37767646,-0.3650109,0.6828398,0.6328482,-0.1697374,-0.71716493,0.6759169,,-0.024172457,0.3982989,-0.36871532,-0.14619283,0.42933264,-0.89123577,-0.7480625,-0.6374967,-0.18439205,-0.6473254,0.6397432,0.41436508,,1.1317124435874824,0.35170870055793263,0.20242086866000003,0.6324248695493255,-0.013800286476309485,1.0236611923156074,-0.4003563060951185,,-0.8945087033556766,-0.2912551476185032,0.19214777041000003,0.028727522257379835,0.1865088221798262,-0.6968009565430248,0.09000258043998788,,-0.048596511360217115,-0.07013605599139214,0.08219610256,-0.07424845330935166,,2.8010458e-05,-7.1525574e-07,0.0,1.0,-2.0056963e-05,-1.731515e-05,2.0060688e-05,1.0,-2.2053719e-06,1.733005e-05,2.2053719e-06,1.0,547,1.673,0,0,0.0,False,-0.2589247921273281,0.2646720434878498
1.7033240079763345,16:58:52.160433,16:58:38.505753,0,,0.11977902,0.0016503036,0.02331321,-0.9114489,-0.22048023,-0.34734613,-0.36465195,0.04200679,0.93019587,-0.19049889,0.9744866,-0.11868563,,0.0570254,-0.020656303,0.025893152,0.23375842,-0.37460542,0.8972333,-0.9315101,0.17818093,0.3170812,-0.2786502,-0.90990233,-0.30729747,,0.106660336,1.3421682,0.44153225,0.9956065,0.021067454,-0.091235444,-0.04354108,-0.75844806,-0.65027744,-0.08289703,0.65139294,-0.7541985,,-0.09005806,0.25638935,-0.090214044,0.9128677,0.14567612,0.38138044,-0.37263134,0.67895734,0.6325842,-0.16678862,-0.71958,0.6740817,,-0.02417126,0.3983003,-0.36871293,-0.14601399,0.42940244,-0.8912314,-0.74814695,-0.63736224,-0.18451434,-0.6472682,0.6398304,0.41431993,,1.1326855079296345,0.3524578056467324,0.20206438891000003,0.6248760315838826,-0.009291281984049951,1.0242316959809348,-0.40133637049192405,,-0.8944932578899281,-0.2912397021527547,0.19214777041000003,0.02893721220086436,0.1865088221798262,-0.6968009565430248,0.09000258043998788,,-0.048596511360217115,-0.07013605599139214,0.08219610256,-0.07424845330935166,,-5.3569674e-06,-3.0994415e-06,3.5762787e-06,1.0,-8.214265e-06,-7.0929527e-06,8.214265e-06,1.0,-9.23872e-07,7.0929527e-06,8.940697e-07,1.0,592,1.811,0,0,0.0,False,-0.2589843698458485,0.26607216931045397
1.7407297829922754,16:58:52.280247,16:58:38.505753,0,,0.11990471,0.0023150593,0.02397047,-0.9033554,-0.23893127,-0.3561752,-0.37284482,0.027032405,0.9274999,-0.2119804,0.9706602,-0.11350423,,0.057012703,-0.020650253,0.025888681,0.23371412,-0.3750063,0.89707744,-0.93155444,0.17794535,0.3170831,-0.27853894,-0.90978324,-0.30775046,,0.106660336,1.3421682,0.44153225,0.9956065,0.021067454,-0.091235444,-0.04354108,-0.75844806,-0.65027744,-0.08289703,0.65139294,-0.7541985,,-0.09021545,0.25731823,-0.09025987,0.9062307,0.163941,0.38970417,-0.39316526,0.66571784,0.6342246,-0.15545763,-0.7279719,0.6677498,,-0.02415872,0.398301,-0.36870518,-0.1459753,0.4298086,-0.891042,-0.7480717,-0.6373445,-0.18488035,-0.64736384,0.6395753,0.4145642,,1.1349405459289081,0.35624966748797665,0.20178179769000001,0.6053748668398219,0.004372367992494094,1.027383685135891,-0.40149971455805855,,-0.8945087033556766,-0.2912551476185032,0.19214777041000003,0.02893721220086436,0.18637218568006078,-0.696199466198485,0.09588296682082192,,-0.048596511360217115,-0.07013605599139214,0.08219610256,-0.07424845330935166,,-5.3569674e-06,-3.0994415e-06,3.5762787e-06,1.0,-8.214265e-06,-7.0929527e-06,8.214265e-06,1.0,-9.23872e-07,7.0929527e-06,8.940697e-07,1.0,600,1.836,0,0,0.0,False,-0.2575545046013441,0.270320826979046
1.8604524639958981,16:58:52.320104,16:58:38.656479,0,,0.12000586,0.0024770796,0.023969293,-0.90315884,-0.23841573,-0.35701817,-0.3731528,0.024761379,0.92743945,-0.21227583,0.9708475,-0.11132905,,0.05701223,-0.02065602,0.025887191,0.23387888,-0.37493217,0.89706534,-0.9315517,0.1777902,0.31717813,-0.27840978,-0.90984416,-0.30768734,,0.106660336,1.3421682,0.44153225,0.9956065,0.021067454,-0.091235444,-0.04354108,-0.75844806,-0.65027744,-0.08289703,0.65139294,-0.7541985,,-0.09031164,0.2574364,-0.0901447,0.90604895,0.16334915,0.39037466,-0.39359725,0.66411597,0.6356345,-0.1554237,-0.72956634,0.6660154,,-0.024157725,0.39829674,-0.36870927,-0.1461492,0.42975035,-0.8910415,-0.74797785,-0.6374849,-0.1847759,-0.64743304,0.6394745,0.41461167,,1.1348401504015433,0.35716867270000935,0.2018582788,0.6049554869528528,0.003689185493666892,1.0292476344966222,-0.4018264026903269,,-0.8945009806228023,-0.29128603855000007,0.19214777041000003,0.028727522257379835,0.18637218568006078,-0.6962811449386256,0.0957196227546876,,-0.048596511360217115,-0.07013605599139214,0.08219610256,-0.07424845330935166,,-5.3569674e-06,-3.0994415e-06,3.5762787e-06,1.0,-8.214265e-06,-7.0929527e-06,8.214265e-06,1.0,-9.23872e-07,7.0929527e-06,8.940697e-07,1.0,612,1.874,0,0,0.0,False,-0.25731619372725945,0.2719623538055478
1.9003886549908202,16:58:52.351124,16:58:38.656479,0,,0.12012491,0.0026506186,0.023973122,-0.90303594,-0.23868719,-0.35714772,-0.37307358,0.023646742,0.92750037,-0.21293706,0.9708086,-0.11040181,,0.05701252,-0.020664781,0.025885642,0.2339167,-0.3748499,0.8970899,-0.93152213,0.17787212,0.31721893,-0.27847674,-0.90986204,-0.30757374,,0.106660336,1.3421682,0.44153225,0.9956065,0.021067454,-0.091235444,-0.04354108,-0.75844806,-0.65027744,-0.08289703,0.65139294,-0.7541985,,-0.0904257,0.25756603,-0.09002432,0.9059797,0.16359147,0.3904339,-0.39397603,0.6632593,0.6362939,-0.15486668,-0.73029095,0.6653506,,-0.024157288,0.39829084,-0.3687159,-0.1461838,0.42966416,-0.89107746,-0.7480228,-0.6374654,-0.18466099,-0.64737326,0.6395518,0.4145857,,1.1347011412098071,0.3581726279736585,0.20193605620000002,0.6047457970093683,0.0034159124941360113,1.0297155065244366,-0.40133637049192405,,-0.8944932578899281,-0.29134009768011965,0.19214777041000003,0.028727522257379835,0.1865088221798262,-0.696392562842322,0.0957196227546876,,-0.048596511360217115,-0.07013605599139214,0.08219610256,-0.07424845330935166,,-5.3569674e-06,-3.0994415e-06,3.5762787e-06,1.0,-8.214265e-06,-7.0929527e-06,8.214265e-06,1.0,-9.23872e-07,7.0929527e-06,8.940697e-07,1.0,620,1.898,0,0,0.0,False,-0.25779281547542787,0.27109331019151783
1.9314130679995287,16:58:52.377302,16:58:38.656479,0,,0.12028368,0.0029256195,0.024069503,-0.90257704,-0.23897043,-0.35811684,-0.37364575,0.021571577,0.9273206,-0.21387705,0.9707873,-0.10876036,,0.05701422,-0.020681113,0.025890648,0.23405568,-0.3745263,0.8971888,-0.9315387,0.17777213,0.31722668,-0.2783049,-0.91001487,-0.30727714,,0.106660336,1.3421682,0.44153225,0.9956065,0.021067454,-0.091235444,-0.04354108,-0.75844806,-0.65027744,-0.08289703,0.65139294,-0.7541985,,-0.09058368,0.2578317,-0.08990357,0.905579,0.1638173,0.39126796,-0.39503852,0.6616915,0.63726676,-0.15450335,-0.7316613,0.66392803,,-0.024158208,0.39828628,-0.36873242,-0.14633396,0.42936096,-0.89119893,-0.74790037,-0.63767993,-0.18441632,-0.64748085,0.6395416,0.41443345,,1.1347165866755557,0.35988707467173636,0.20197883377000003,0.6036973472919456,0.0025960934955433683,1.0305473714268965,-0.40133637049192417,,-0.8945087033556766,-0.2914250477417361,0.19214128896000002,0.028517832313895316,0.1865088221798262,-0.6967192778028842,0.09637299901922469,,-0.048596511360217115,-0.07013605599139214,0.08219610256,-0.07424845330935166,,-5.3569674e-06,-3.0994415e-06,3.5762787e-06,1.0,-8.214265e-06,-7.0929527e-06,8.214265e-06,1.0,-9.23872e-07,7.0929527e-06,8.940697e-07,1.0,632,1.935,0,0,0.0,False,-0.25779281547542787,0.27080362898684074
1.9575712779769674,16:58:52.410092,16:58:38.656479,0,,0.12037806,0.0030952245,0.02416034,-0.90112805,-0.24085754,-0.3604938,-0.37605196,0.020423204,0.9263735,-0.21576159,0.9703456,-0.1089789,,0.05701623,-0.020691022,0.025891066,0.23420897,-0.37458122,0.8971259,-0.93154407,0.1775578,0.31733087,-0.27815786,-0.91003406,-0.3073533,,0.106660336,1.3421682,0.44153225,0.9956065,0.021067454,-0.091235444,-0.04354108,-0.75844806,-0.65027744,-0.08289703,0.65139294,-0.7541985,,-0.090680026,0.25801632,-0.089852884,0.90421295,0.1657,0.3936273,-0.39813235,0.66059273,0.6364808,-0.15456246,-0.73222995,0.66328704,,-0.024159549,0.39828128,-0.36874112,-0.14649723,0.42943206,-0.89113784,-0.7477945,-0.6378031,-0.18441959,-0.6475662,0.63937104,0.41456333,,1.1347860912714236,0.3609914254727505,0.20197753748000002,0.6003423081961932,0.0023228204960124878,1.0301984560533053,-0.40149971455805833,,-0.8945164260885508,-0.2914791068718557,0.19213999267,0.02830814237041079,0.1865088221798262,-0.6966375990627437,0.09653634308535902,,-0.048596511360217115,-0.07013605599139214,0.08219610256,-0.07424845330935166,,-5.3569674e-06,-3.0994415e-06,3.5762787e-06,1.0,-8.214265e-06,-7.0929527e-06,8.214265e-06,1.0,-9.23872e-07,7.0929527e-06,8.940697e-07,1.0,661,2.024,0,0,0.0,False,-0.25779281547542787,0.27109331019151783
1.9903856460005045,16:58:52.492073,16:58:38.789965,0,,0.12066838,0.0035622865,0.02472274,-0.90022326,-0.24428022,-0.36045134,-0.37622908,0.019638926,0.9263185,-0.21920241,0.96950585,-0.10958481,,0.05701426,-0.020715997,0.025899887,0.23403417,-0.3726479,0.89797634,-0.9315559,0.17840385,0.31682098,-0.27826512,-0.91066206,-0.3053898,,0.106660336,1.3421682,0.44153225,0.9956065,0.021067454,-0.091235444,-0.04354108,-0.75844806,-0.65027744,-0.08289703,0.65139294,-0.7541985,,-0.0909997,0.25872907,-0.08994501,0.9035719,0.16915399,0.39363018,-0.4005551,0.6595521,0.6360398,-0.15203094,-0.7323783,0.66370827,,-0.024156516,0.39827585,-0.36876693,-0.14631437,0.42749766,-0.8920975,-0.7478736,-0.6380864,-0.18311428,-0.64751613,0.6403839,0.41307542,,1.1352262870452545,0.36472922818387515,0.20169883513000003,0.598245408761348,0.002459456995777928,1.0271466035045484,-0.4018264026903269,,-0.8945164260885508,-0.2916103933307175,0.19212702977,0.028517832313895316,0.18664545867959165,-0.6987909854699541,0.0970263752837619,,-0.048596511360217115,-0.07013605599139214,0.08219610256,-0.07424845330935166,,-5.3569674e-06,-3.0994415e-06,3.5762787e-06,1.0,-8.214265e-06,-7.0929527e-06,8.214265e-06,1.0,-9.23872e-07,7.0929527e-06,8.940697e-07,1.0,665,2.037,0,0,0.0,False,-0.25826943722359585,0.27336247962815197
2.072368266992271,16:58:52.521979,16:58:38.789965,0,,0.1207111,0.0035830736,0.025028422,-0.9002335,-0.2452282,-0.35978132,-0.37565497,0.01966095,0.92655104,-0.22014278,0.96926606,-0.109820664,,0.057015162,-0.0207171,0.025899947,0.23361734,-0.37295136,0.89795876,-0.93163234,0.17852771,0.31652632,-0.27835947,-0.9105136,-0.3057464,,0.106660336,1.3421682,0.44153225,0.9956065,0.021067454,-0.091235444,-0.04354108,-0.75844806,-0.65027744,-0.08289703,0.65139294,-0.7541985,,-0.091065295,0.25894442,-0.09015716,0.90367085,0.17011788,0.39298716,-0.40074092,0.65943927,0.6360398,-0.15094942,-0.73225665,0.6640892,,-0.024157336,0.3982752,-0.3687679,-0.14588723,0.4277795,-0.89203227,-0.7479511,-0.637865,-0.18356854,-0.64752305,0.6404162,0.4130145,,1.135450246298607,0.3655401151356687,0.20143828084,0.598245408761348,0.00300600299483969,1.026129180708779,-0.40198974675646126,,-0.8945164260885508,-0.2916103933307175,0.19212702977,0.02893721220086436,0.1865088221798262,-0.698434531345836,0.09849647187897037,,-0.048596511360217115,-0.07013605599139214,0.08219610256,-0.07424845330935166,,-5.3569674e-06,-3.0994415e-06,3.5762787e-06,1.0,-8.214265e-06,-7.0929527e-06,8.214265e-06,1.0,-9.23872e-07,7.0929527e-06,8.940697e-07,1.0,677,2.074,0,0,0.0,False,-0.25779281547542787,0.27283139741957774
2.102265315974364,16:58:52.553315,16:58:38.789965,0,,0.12067765,0.003499657,0.02539508,-0.90008986,-0.24715975,-0.35881788,-0.37534392,0.021649301,0.92663276,-0.22125815,0.96873295,-0.1122562,,0.057015836,-0.020714164,0.02590096,0.23362358,-0.3728007,0.8980198,-0.9316268,0.17859173,0.3165065,-0.27837276,-0.91056275,-0.3055879,,0.106660336,1.3421682,0.44153225,0.9956065,0.021067454,-0.091235444,-0.04354108,-0.75844806,-0.65027744,-0.08289703,0.65139294,-0.7541985,,-0.09106259,0.25912374,-0.09048937,0.90362245,0.17213973,0.39221728,-0.40124443,0.6606431,0.6344711,-0.14989796,-0.73069733,0.66604203,,-0.024158292,0.39827752,-0.36876595,-0.14589281,0.4276289,-0.8921036,-0.74796003,-0.63788825,-0.18345118,-0.6475114,0.64049363,0.41291264,,1.1358672738738151,0.3658567471835119,0.20107402335000002,0.597826028874379,0.004099094992963213,1.0230325114954124,-0.4018264026903269,,-0.894524148821425,-0.29159494786496903,0.19212702977,0.02893721220086436,0.1865088221798262,-0.6985978888261171,0.09849647187897037,,-0.048596511360217115,-0.07013605599139214,0.08219610256,-0.07424845330935166,,-5.3569674e-06,-3.0994415e-06,3.5762787e-06,1.0,-8.214265e-06,-7.0929527e-06,8.214265e-06,1.0,-9.23872e-07,7.0929527e-06,8.940697e-07,1.0,689,2.111,0,0,0.0,False,-0.25785239319394915,0.27423152324218236
2.1335942199802957,16:58:52.591221,16:58:38.789965,0,,0.12059018,0.0034275502,0.025617197,-0.9000991,-0.24612418,-0.35950574,-0.37587377,0.02140811,0.9264236,-0.22031888,0.9690019,-0.11178112,,0.05701403,-0.020714521,0.025901377,0.23362415,-0.3728074,0.8980168,-0.9316268,0.1785886,0.3165082,-0.27837217,-0.9105606,-0.30559477,,0.106660336,1.3421682,0.44153225,0.9956065,0.021067454,-0.091235444,-0.04354108,-0.75844806,-0.65027744,-0.08289703,0.65139294,-0.7541985,,-0.09099458,0.25921813,-0.090709955,0.9035443,0.17108016,0.3928603,-0.40102544,0.6606076,0.63464653,-0.15095106,-0.73097825,0.66549575,,-0.024156502,0.39827788,-0.36876646,-0.14589345,0.42763564,-0.8921003,-0.7479596,-0.6378874,-0.18345581,-0.6475118,0.64049,0.4129178,,1.136346083312017,0.3658490244506377,0.20084198744,0.5976163389308944,0.0032792759943705706,1.0232926252168881,-0.40133637049192405,,-0.8945164260885508,-0.29159494786496903,0.19212573348000003,0.02893721220086436,0.1865088221798262,-0.6985978888261171,0.09849647187897037,,-0.048596511360217115,-0.07013605599139214,0.08219610256,-0.07424845330935166,,-5.3569674e-06,-3.0994415e-06,3.5762787e-06,1.0,-8.214265e-06,-7.0929527e-06,8.214265e-06,1.0,-9.23872e-07,7.0929527e-06,8.940697e-07,1.0,701,2.148,0,0,0.0,False,-0.25815028178655464,0.27712833528894976
2.1715158129809424,16:58:52.623442,16:58:38.789965,0,,0.1204956,0.0033914894,0.025783464,-0.9002057,-0.24499463,-0.3600102,-0.37616944,0.021012098,0.9263127,-0.21937704,0.9692968,-0.111074716,,0.057012722,-0.020716414,0.025903225,0.23379856,-0.37236398,0.8981554,-0.9316158,0.17857987,0.3165456,-0.27826273,-0.9107438,-0.30514845,,0.106660336,1.3421682,0.44153225,0.9956065,0.021067454,-0.091235444,-0.04354108,-0.75844806,-0.65027744,-0.08289703,0.65139294,-0.7541985,,-0.090914175,0.2593031,-0.09086551,0.9035695,0.16992056,0.3933054,-0.40062556,0.66046965,0.63504255,-0.15185949,-0.73137325,0.66485476,,-0.024155213,0.3982786,-0.36876902,-0.14607604,0.42720914,-0.8922747,-0.747879,-0.63809186,-0.18307307,-0.6475637,0.64057094,0.41271067,,1.1368866746132127,0.36584130171776347,0.20067606232000001,0.5976163389308944,0.0025960934955433683,1.0236863572550892,-0.4016630586241927,,-0.8945164260885508,-0.2916026705978433,0.19212314090000002,0.028727522257379835,0.1865088221798262,-0.6990879612669605,0.10176335320165592,,-0.048596511360217115,-0.07013605599139214,0.08219610256,-0.07424845330935166,,-5.3569674e-06,-3.0994415e-06,3.5762787e-06,1.0,-8.214265e-06,-7.0929527e-06,8.214265e-06,1.0,-9.23872e-07,7.0929527e-06,8.940697e-07,1.0,730,2.237,0,0,0.0,False,-0.2583290149421176,0.2792043839224667
2.203730071982136,16:58:52.708652,16:58:39.006811,0,,0.120433345,0.0033949912,0.025857046,-0.89992803,-0.24368799,-0.36158773,-0.3774361,0.020112604,0.92581725,-0.21833807,0.9696452,-0.110076606,,0.057017807,-0.020720407,0.02590394,0.23260546,-0.37048373,0.8992421,-0.9319254,0.17959976,0.31505388,-0.27822605,-0.91130984,-0.3034873,,0.106660336,1.3421682,0.44153225,0.9956065,0.021067454,-0.091235444,-0.04354108,-0.75844806,-0.65027744,-0.08289703,0.65139294,-0.7541985,,-0.09085772,0.25935596,-0.090923116,0.90317714,0.16856626,0.39478666,-0.40090424,0.6599827,0.6353729,-0.15344991,-0.7321259,0.66366017,,-0.02416004,0.39827657,-0.3687729,-0.14487043,0.4253106,-0.89337754,-0.7478892,-0.63822615,-0.1825626,-0.64782274,0.6416995,0.41054532,,1.1372419203254271,0.3659030835807573,0.20061124782000003,0.5967775791569563,0.001229728497888964,1.0247188575519128,-0.4018264026903269,,-0.8945318715542991,-0.29159494786496903,0.19212314090000002,0.02977597197480246,0.185825639680999,-0.7010629126928358,0.10454020232593875,,-0.048596511360217115,-0.07013605599139214,0.08219610256,-0.07424845330935166,,-5.3569674e-06,-3.0994415e-06,3.5762787e-06,1.0,-8.214265e-06,-7.0929527e-06,8.214265e-06,1.0,-9.23872e-07,7.0929527e-06,8.940697e-07,1.0,738,2.262,0,0,0.0,False,-0.2588652144088064,0.27925266412324623
2.288865875976626,16:58:52.729498,16:58:39.006811,0,,0.120467424,0.0033730567,0.025844857,-0.8998106,-0.24313343,-0.36225265,-0.37799242,0.019832164,0.92559624,-0.21785912,0.9697902,-0.10974786,,0.05701806,-0.020721823,0.025903761,0.23260203,-0.37048236,0.89924353,-0.93192804,0.1795952,0.3150484,-0.27821967,-0.91131127,-0.30348873,,0.106660336,1.3421682,0.44153225,0.9956065,0.021067454,-0.091235444,-0.04354108,-0.75844806,-0.65027744,-0.08289703,0.65139294,-0.7541985,,-0.09089135,0.25933045,-0.09092579,0.90300757,0.16799453,0.39541778,-0.40101162,0.65985036,0.6354425,-0.15416569,-0.7323765,0.6632176,,-0.02416018,0.39827567,-0.368774,-0.14486732,0.4253097,-0.8933785,-0.7478849,-0.6382299,-0.18256685,-0.64782834,0.64169633,0.4105414,,1.1369870701405778,0.3659108063136315,0.20061254411,0.5965678892134718,0.0004099094992963213,1.0253873649740912,-0.4018264026903269,,-0.8945318715542991,-0.2916026705978433,0.19212314090000002,0.02977597197480246,0.185825639680999,-0.7010629126928358,0.10454020232593875,,-0.048596511360217115,-0.07013605599139214,0.08219610256,-0.07424845330935166,,-5.3569674e-06,-3.0994415e-06,3.5762787e-06,1.0,-8.214265e-06,-7.0929527e-06,8.214265e-06,1.0,-9.23872e-07,7.0929527e-06,8.940697e-07,1.0,746,2.287,0,0,0.0,False,-0.25856732581620134,0.279687185930261
2.3097024169983342,16:58:52.758643,16:58:39.006811,0,,0.120561674,0.003336355,0.02582632,-0.900723,-0.24225245,-0.36057144,-0.3762673,0.020306885,0.9262886,-0.21707359,0.97000086,-0.10944256,,0.057019185,-0.02072312,0.025904179,0.23277587,-0.37047246,0.89920264,-0.9319172,0.17943478,0.315172,-0.27811074,-0.9113469,-0.30348158,,0.106660336,1.3421682,0.44153225,0.9956065,0.021067454,-0.091235444,-0.04354108,-0.75844806,-0.65027744,-0.08289703,0.65139294,-0.7541985,,-0.09098487,0.2592878,-0.09092883,0.9039045,0.16711356,0.39373806,-0.3991692,0.66032,0.63611436,-0.15368977,-0.7321548,0.6635728,,-0.024161238,0.3982752,-0.3687753,-0.14504927,0.4253138,-0.893347,-0.7478048,-0.63834524,-0.18249178,-0.6478801,0.6415789,0.41064325,,1.136415587907885,0.3659803109094995,0.20061384040000002,0.5988744785918015,0.00013663649976544044,1.0256918795216248,-0.40198974675646104,,-0.8945395942871734,-0.2916103933307175,0.19212314090000002,0.029566282031317934,0.185825639680999,-0.7010629126928358,0.10454020232593875,,-0.048596511360217115,-0.07013605599139214,0.08219610256,-0.07424845330935166,,-5.3569674e-06,-3.0994415e-06,3.5762787e-06,1.0,-8.214265e-06,-7.0929527e-06,8.214265e-06,1.0,-9.23872e-07,7.0929527e-06,8.940697e-07,1.0,754,2.312,0,0,0.0,False,-0.25868648125324345,0.27949406512714337
2.338943049981026,16:58:52.794456,16:58:39.129800,0,,0.12069513,0.003326714,0.025824368,-0.90033424,-0.24324143,-0.36087647,-0.37668607,0.020262271,0.9261194,-0.21795842,0.9697542,-0.10986853,,0.057017453,-0.020721853,0.025903463,0.23295777,-0.37047872,0.89915293,-0.93190086,0.17927727,0.31531003,-0.27801338,-0.9113754,-0.3034854,,0.106660336,1.3421682,0.44153225,0.9956065,0.021067454,-0.091235444,-0.04354108,-0.75844806,-0.65027744,-0.08289703,0.65139294,-0.7541985,,-0.091118,0.2592753,-0.09092349,0.90357363,0.16811699,0.3940702,-0.40007785,0.66015375,0.63571596,-0.15327227,-0.732075,0.6637574,,-0.024159545,0.3982754,-0.36877385,-0.14523877,0.42533323,-0.893307,-0.7477324,-0.63845134,-0.1824175,-0.64792126,0.6414605,0.41076332,,1.1357514328807017,0.3662814974915943,0.20061384040000002,0.598245408761348,0.00013663649976544044,1.0256918795216248,-0.40198974675646104,,-0.8945318715542991,-0.2916026705978433,0.19212314090000002,0.029356592087833408,0.185825639680999,-0.7010629126928358,0.10454020232593875,,-0.048596511360217115,-0.07013605599139214,0.08219610256,-0.07424845330935166,,-5.3569674e-06,-3.0994415e-06,3.5762787e-06,1.0,-8.214265e-06,-7.0929527e-06,8.214265e-06,1.0,-9.23872e-07,7.0929527e-06,8.940697e-07,1.0,766,2.349,0,0,0.0,False,-0.2583885926606384,0.27930094432402575
2.374753140989924,16:58:52.826041,16:58:39.129800,0,,0.12084539,0.003376469,0.025856867,-0.9002387,-0.24337772,-0.36102295,-0.37670732,0.019616514,0.9261247,-0.21831608,0.96973324,-0.10934177,,0.057017453,-0.020721853,0.025903463,0.23295777,-0.37033182,0.89921343,-0.93190086,0.1793288,0.31528074,-0.27801338,-0.911425,-0.3033365,,0.106660336,1.3421682,0.44153225,0.9956065,0.021067454,-0.091235444,-0.04354108,-0.75844806,-0.65027744,-0.08289703,0.65139294,-0.7541985,,-0.091268875,0.25932965,-0.09090363,0.90350544,0.16823636,0.39417568,-0.40033188,0.6596579,0.63607067,-0.15301089,-0.73249435,0.6633549,,-0.024159545,0.3982754,-0.36877385,-0.14523877,0.4251873,-0.89337647,-0.7477324,-0.6384811,-0.1823132,-0.64792126,0.6415276,0.41065854,,1.1351799506480091,0.3669533752516518,0.20061124782000003,0.598245408761348,-0.0004099094992963213,1.0263009086166917,-0.4019897467564615,,-0.8945318715542991,-0.2916026705978433,0.19212314090000002,0.029356592087833408,0.185825639680999,-0.7012262701731169,0.1048668904582073,,-0.048596511360217115,-0.07013605599139214,0.08219610256,-0.07424845330935166,,-5.3569674e-06,-3.0994415e-06,3.5762787e-06,1.0,-8.214265e-06,-7.0929527e-06,8.214265e-06,1.0,-9.23872e-07,7.0929527e-06,8.940697e-07,1.0,791,2.426,0,0,0.0,False,-0.2583290149421176,0.27978374633182
2.406338254979346,16:58:52.895315,16:58:39.249201,0,,0.1212126,0.003713578,0.02612628,-0.8995205,-0.24765313,-0.3599037,-0.3762225,0.020346612,0.926306,-0.22207971,0.9686351,-0.11147493,,0.057017453,-0.020721853,0.025903463,0.23295777,-0.37047872,0.89915293,-0.93190086,0.17927727,0.31531003,-0.27801338,-0.9113754,-0.3034854,,0.106660336,1.3421682,0.44153225,0.9956065,0.021067454,-0.091235444,-0.04354108,-0.75844806,-0.65027744,-0.08289703,0.65139294,-0.7541985,,-0.09164622,0.25974965,-0.090855755,0.9030939,0.17260253,0.39323,-0.40246302,0.65961283,0.63477117,-0.14981644,-0.73151845,0.66515845,,-0.024159545,0.3982754,-0.36877385,-0.14523877,0.42533323,-0.893307,-0.7477324,-0.63845134,-0.1824175,-0.64792126,0.6414605,0.41076332,,1.1346084684153166,0.36977989548361795,0.20053606300000001,0.5969872691004409,0.0008198189985926426,1.0226027490587852,-0.4028064670871325,,-0.8945318715542991,-0.2916026705978433,0.19212314090000002,0.029356592087833408,0.185825639680999,-0.7010629126928358,0.1048668904582073,,-0.048596511360217115,-0.07013605599139214,0.08219610256,-0.07424845330935166,,-5.3569674e-06,-3.0994415e-06,3.5762787e-06,1.0,-8.214265e-06,-7.0929527e-06,8.214265e-06,1.0,-9.23872e-07,7.0929527e-06,8.940697e-07,1.0,799,2.45,0,0,0.0,False,-0.2588652144088064,0.27915610372168675
2.4756066679838113,16:58:52.925885,16:58:39.249201,0,,0.12132993,0.00382258,0.026232436,-0.8969369,-0.25731254,-0.35957548,-0.37718883,0.020922422,0.92590004,-0.23072252,0.96610177,-0.11582154,,0.057018377,-0.020720333,0.025904298,0.23296057,-0.37032646,0.89921486,-0.931898,0.17933649,0.31528455,-0.27802032,-0.9114256,-0.3033282,,0.106660336,1.3421682,0.44153225,0.9956065,0.021067454,-0.091235444,-0.04354108,-0.75844806,-0.65027744,-0.08289703,0.65139294,-0.7541985,,-0.09176828,0.259898,-0.090854645,0.9011591,0.18244103,0.3932271,-0.40895048,0.6586682,0.6315977,-0.14377685,-0.7299804,0.6681742,,-0.024160642,0.39827687,-0.368773,-0.14524123,0.42518148,-0.8933788,-0.7477371,-0.63847816,-0.18230432,-0.64791524,0.6415344,0.41065732,,1.1346316366139393,0.3704517732436755,0.20049717430000003,0.5915353305698432,0.007241734487568344,1.0181012162463183,-0.40133637049192405,,-0.8945395942871734,-0.29159494786496903,0.19212314090000002,0.029356592087833408,0.185825639680999,-0.7012262701731169,0.10454020232593875,,-0.048596511360217115,-0.07013605599139214,0.08219610256,-0.07424845330935166,,-5.3569674e-06,-3.0994415e-06,3.5762787e-06,1.0,-8.214265e-06,-7.0929527e-06,8.214265e-06,1.0,-9.23872e-07,7.0929527e-06,8.940697e-07,1.0,807,2.475,0,0,0.0,False,-0.25773323775690704,0.27891470271779006
2.5061797270027455,16:58:52.956546,16:58:39.249201,0,,0.12151685,0.003963664,0.026439592,-0.8920002,-0.27287886,-0.36037862,-0.37914523,0.017537862,0.925171,-0.24613932,0.9618886,-0.119104534,,0.057018884,-0.02072312,0.025904,0.23295374,-0.37017685,0.89927834,-0.9319035,0.17937884,0.31524423,-0.27800763,-0.911478,-0.30318215,,0.106660336,1.3421682,0.44153225,0.9956065,0.021067454,-0.091235444,-0.04354108,-0.75844806,-0.65027744,-0.08289703,0.65139294,-0.7541985,,-0.091966614,0.26013488,-0.09090282,0.89737463,0.19818528,0.3942606,-0.42070755,0.6538136,0.6289141,-0.13313141,-0.73024,0.6700938,,-0.024160922,0.39827505,-0.36877522,-0.145235,0.4250337,-0.89345014,-0.7477286,-0.6385155,-0.18220852,-0.6479265,0.6415951,0.41054463,,1.134662527545436,0.37145572851732467,0.20038569336000003,0.5814702132825861,0.0192657464669271,1.0144223462315756,-0.4018264026903269,,-0.8945395942871734,-0.2916103933307175,0.19212314090000002,0.029356592087833408,0.185825639680999,-0.7013896276533981,0.1042135141936702,,-0.048596511360217115,-0.07013605599139214,0.08219610256,-0.07424845330935166,,-5.3569674e-06,-3.0994415e-06,3.5762787e-06,1.0,-8.214265e-06,-7.0929527e-06,8.214265e-06,1.0,-9.23872e-07,7.0929527e-06,8.940697e-07,1.0,819,2.513,0,0,0.0,False,-0.25791197091247,0.27915610372168675
2.5368102049978916,16:58:52.987879,16:58:39.249201,0,,0.121586815,0.0039580464,0.026643455,-0.88951206,-0.2797512,-0.36125824,-0.38076633,0.0168235,0.9245182,-0.25255746,0.9599252,-0.12148461,,0.057025075,-0.020723626,0.0259071,0.23288946,-0.37022287,0.899276,-0.9319521,0.17927715,0.31515837,-0.27789855,-0.91147935,-0.30327824,,0.106660336,1.3421682,0.44153225,0.9956065,0.021067454,-0.091235444,-0.04354108,-0.75844806,-0.65027744,-0.08289703,0.65139294,-0.7541985,,-0.092052236,0.2602626,-0.09105394,0.89534503,0.205166,0.39530268,-0.4262223,0.6521895,0.6268839,-0.12919699,-0.7297642,0.67138094,,-0.024167283,0.3982768,-0.36877742,-0.14517598,0.42508668,-0.8934345,-0.74765533,-0.63856524,-0.18233456,-0.6480242,0.6415105,0.41052267,,1.1346779730111844,0.3718650333596586,0.20020550905,0.5764376546389575,0.023911387458952077,1.0120226760882867,-0.40198974675646126,,-0.8945782079515445,-0.2916103933307175,0.19212314090000002,0.029356592087833408,0.18568900318123358,-0.7012782097497017,0.1042135141936702,,-0.048596511360217115,-0.07013605599139214,0.08219610256,-0.07424845330935166,,-5.3569674e-06,-3.0994415e-06,3.5762787e-06,1.0,-8.214265e-06,-7.0929527e-06,8.214265e-06,1.0,-9.23872e-07,7.0929527e-06,8.940697e-07,1.0,827,2.537,0,0,0.0,False,-0.25767366003838577,0.27925266412324623
2.5681463899964,16:58:53.012272,16:58:39.249201,0,,0.12164332,0.003936887,0.026805505,-0.8868444,-0.28751627,-0.3617201,-0.38216558,0.016383708,0.92394865,-0.25972393,0.95763564,-0.12440866,,0.057028618,-0.020723239,0.025909185,0.23288766,-0.3703496,0.8992243,-0.93195206,0.1792351,0.3151825,-0.27790034,-0.9114362,-0.30340645,,0.106660336,1.3421682,0.44153225,0.9956065,0.021067454,-0.091235444,-0.04354108,-0.75844806,-0.65027744,-0.08289703,0.65139294,-0.7541985,,-0.09212165,0.26035154,-0.09118499,0.89320046,0.21306928,0.3959728,-0.4320674,0.6505843,0.6245462,-0.124542065,-0.72893184,0.67316246,,-0.024170993,0.39827842,-0.36877826,-0.14517404,0.42521238,-0.89337504,-0.74765664,-0.63853794,-0.18242496,-0.6480232,0.6414544,0.410612,,1.134693418476933,0.37205037894863996,0.20005513941000003,0.5711954060518444,0.029513483949335135,1.0090881168395447,-0.4037865314839383,,-0.8946013761501672,-0.2916103933307175,0.19212314090000002,0.029356592087833408,0.18568900318123358,-0.7011148522694205,0.1042135141936702,,-0.048596511360217115,-0.07013605599139214,0.08219610256,-0.07424845330935166,,-5.3569674e-06,-3.0994415e-06,3.5762787e-06,1.0,-8.214265e-06,-7.0929527e-06,8.214265e-06,1.0,-9.23872e-07,7.0929527e-06,8.940697e-07,1.0,860,2.639,0,0,0.0,False,-0.2583885926606384,0.27978374633182
2.592556486983085,16:58:53.107499,16:58:39.399186,0,,0.12188479,0.0038824677,0.027568102,-0.8788155,-0.31251836,-0.3605767,-0.3800477,0.0015063584,0.9249657,-0.28852558,0.9499106,-0.1200957,,0.057037655,-0.020730108,0.025921643,0.23298447,-0.3699874,0.8993483,-0.9319979,0.17910051,0.31512368,-0.27766553,-0.91160965,-0.3030998,,0.106660336,1.3421682,0.44153225,0.9956065,0.021067454,-0.091235444,-0.04354108,-0.75844806,-0.65027744,-0.08289703,0.65139294,-0.7541985,,-0.09242271,0.26080483,-0.09177381,0.88748163,0.2381668,0.39452872,-0.44965047,0.63504934,0.6281137,-0.100949384,-0.7348394,0.6706864,,-0.024180446,0.39828438,-0.36879084,-0.14528501,0.42487478,-0.8935176,-0.7474921,-0.6387921,-0.18220933,-0.6481881,0.6414251,0.41039747,,1.1349791595932792,0.3730543342222892,0.19937199458000002,0.5573558697818658,0.05547441890476882,1.0115238710378471,-0.40133637049192417,,-0.8946786034789095,-0.29164128426221436,0.19211536316000002,0.029146902144348882,0.18555236668146813,-0.7014118280664269,0.10797042771475868,,-0.048596511360217115,-0.07013605599139214,0.08219610256,-0.07424845330935166,,-5.3569674e-06,-3.0994415e-06,3.5762787e-06,1.0,-8.214265e-06,-7.0929527e-06,8.214265e-06,1.0,-9.23872e-07,7.0929527e-06,8.940697e-07,1.0,872,2.675,0,0,0.0,False,-0.25815028178655464,0.2817149543629984
2.6877990609791595,16:58:53.152667,16:58:39.399186,0,,0.12195806,0.004019633,0.027994394,-0.87833416,-0.31069893,-0.3633115,-0.3817305,-0.0016472042,0.92427224,-0.28776884,0.95050704,-0.117156506,,0.057037875,-0.020748973,0.025938272,0.23282462,-0.370026,0.8993738,-0.93212247,0.17886132,0.31489068,-0.2773809,-0.911641,-0.30326623,,0.106660336,1.3421682,0.44153225,0.9956065,0.021067454,-0.091235444,-0.04354108,-0.75844806,-0.65027744,-0.08289703,0.65139294,-0.7541985,,-0.09252481,0.2611862,-0.09199749,0.8868964,0.23621917,0.39700794,-0.45043406,0.63301325,0.62960577,-0.10258632,-0.737221,0.6678183,,-0.024180613,0.39828855,-0.3688157,-0.14513898,0.4249323,-0.893514,-0.74730074,-0.63894016,-0.18247485,-0.6484414,0.64123946,0.41028735,,1.1354039099013615,0.37481511731761236,0.19906088498000002,0.5558880401774741,0.052741688909460016,1.0138339078519163,-0.40133637049192417,,-0.8947172171432806,-0.29171851159095663,0.19209721510000002,0.029146902144348882,0.18527909368193726,-0.7012706709991747,0.10748039551635569,,-0.048596511360217115,-0.07013605599139214,0.08219610256,-0.07424845330935166,,-5.3569674e-06,-3.0994415e-06,3.5762787e-06,1.0,-8.214265e-06,-7.0929527e-06,8.214265e-06,1.0,-9.23872e-07,7.0929527e-06,8.940697e-07,1.0,884,2.713,0,0,0.0,False,-0.25826943722359585,0.2804113889419533
2.7329442129994277,16:58:53.188116,16:58:39.399186,0,,0.1220727,0.0042092353,0.028202698,-0.878018,-0.30981898,-0.364824,-0.38256118,-0.0037876964,0.9239224,-0.28763053,0.95078814,-0.11519912,,0.05704064,-0.020773083,0.025951028,0.23288676,-0.3698292,0.8994386,-0.93219846,0.17860886,0.3148091,-0.27707335,-0.91177034,-0.3031586,,0.106660336,1.3421682,0.44153225,0.9956065,0.021067454,-0.091235444,-0.04354108,-0.75844806,-0.65027744,-0.08289703,0.65139294,-0.7541985,,-0.092649825,0.2614625,-0.09202015,0.8865474,0.23526055,0.39835444,-0.4509779,0.63156044,0.63067454,-0.10321206,-0.7387719,0.66600555,,-0.024182644,0.39828637,-0.3688429,-0.14521888,0.42476416,-0.8935809,-0.747087,-0.63920194,-0.18243329,-0.6486698,0.64109,0.41015998,,1.1355274736273493,0.3763828320910799,0.19896884839,0.555049280403536,0.05096541441250929,1.015200661859829,-0.40149971455805833,,-0.8947558308076516,-0.29183435258407,0.19208295591000002,0.02893721220086436,0.18514245718217182,-0.7014042893158999,0.10666367518568443,,-0.048596511360217115,-0.07013605599139214,0.08219610256,-0.07424845330935166,,-5.3569674e-06,-3.0994415e-06,3.5762787e-06,1.0,-8.214265e-06,-7.0929527e-06,8.214265e-06,1.0,-9.23872e-07,7.0929527e-06,8.940697e-07,1.0,892,2.738,0,0,0.0,False,-0.25856732581620134,0.27881814231623103
2.7684141490026377,16:58:53.219383,16:58:39.560808,0,,0.12227546,0.004486561,0.028382167,-0.877902,-0.3093527,-0.3654981,-0.382565,-0.0059241354,0.9239096,-0.2879792,0.950929,-0.11314675,,0.057048634,-0.020807907,0.025984526,0.2278781,-0.3680487,0.90144974,-0.9323276,0.18449354,0.31100976,-0.28077838,-0.9113189,-0.3011,,0.106660336,1.3421682,0.44153225,0.9956065,0.021067454,-0.091235444,-0.04354108,-0.75844806,-0.65027744,-0.08289703,0.65139294,-0.7541985,,-0.092857994,0.26178324,-0.09195676,0.8864586,0.23472515,0.39886746,-0.45121348,0.6300308,0.6320345,-0.102944404,-0.7402468,0.6644074,,-0.024190709,0.3982956,-0.36889032,-0.1399459,0.42254648,-0.89547175,-0.7497767,-0.635913,-0.18289202,-0.6467225,0.6458089,0.40580893,,1.1354193553671101,0.3784525245013721,0.19894681146,0.5548395904600515,0.049462412915089446,1.0163445800603492,-0.40133637049192394,,-0.8948098899377712,-0.2920505891045483,0.19205314124000003,0.03522791050540009,0.1860989126805299,-0.7034910744840239,0.10405017012753592,,-0.048596511360217115,-0.07013605599139214,0.08219610256,-0.07424845330935166,,-5.3569674e-06,-3.0994415e-06,3.5762787e-06,1.0,-8.214265e-06,-7.0929527e-06,8.214265e-06,1.0,-9.23872e-07,7.0929527e-06,8.940697e-07,1.0,921,2.827,0,0,0.0,False,-0.2583290149421176,0.27886642251701055
2.7996754219930153,16:58:53.295417,16:58:39.560808,0,,NaN,NaN,NaN,NaN,NaN,NaN,NaN,NaN,NaN,NaN,NaN,NaN,,NaN,NaN,NaN,NaN,NaN,NaN,NaN,NaN,NaN,NaN,NaN,NaN,,NaN,NaN,NaN,NaN,NaN,NaN,NaN,NaN,NaN,NaN,NaN,NaN,,-0.09330206,0.2622283,-0.09177764,0.88654,0.2352253,0.39839163,-0.45146796,0.628038,0.6338336,-0.101111375,-0.74177986,0.66297746,,-0.024282176,0.39828202,-0.36898696,-0.14103274,0.42251092,-0.895318,-0.748939,-0.6369769,-0.18262205,-0.6474567,0.64478284,0.4062695,,1.1345003501550774,0.38174240870579174,0.19898570016000003,0.5552589703470204,0.04809604791743504,1.017377080357173,-0.401826402690327,,-0.8950338491911237,-0.2926143486043667,0.19202203028,0.03376008090100842,0.1860989126805299,-0.7033277170037427,0.10241672946619307,,-0.048596511360217115,-0.07013605599139214,0.08219610256,-0.07424845330935166,,NaN,NaN,NaN,NaN,NaN,NaN,NaN,NaN,NaN,NaN,NaN,NaN,929,2.852,0,0,0.0,False,-0.25815028178655464,0.27654897287959646
2.8757167169824243,16:58:53.328597,16:58:39.560808,0,,0.122799784,0.005008742,0.02862385,-0.8774359,-0.31091785,-0.3652893,-0.38162833,-0.00891757,0.9242729,-0.2906304,0.950395,-0.110830456,,0.05709734,-0.020910293,0.026043594,0.22886883,-0.36763495,0.9013676,-0.93242395,0.18321046,0.3114793,-0.2796507,-0.9117447,-0.30086046,,0.10670722,1.3421674,0.4415334,0.99560446,0.021032223,-0.09126565,-0.043587327,-0.758449,-0.6502732,-0.08289703,0.65139294,-0.7541985,,-0.09342479,0.2623202,-0.0917479,0.8862061,0.23624195,0.398533,-0.45229694,0.6274616,0.6338134,-0.100330845,-0.7419445,0.6629118,,-0.024280304,0.39828384,-0.36900547,-0.14105624,0.42225447,-0.8954353,-0.7489725,-0.6370006,-0.18240193,-0.64741284,0.6449274,0.40610987,,1.134183718107234,0.3824915137945915,0.19898829274000002,0.5546299005165669,0.04823268441720047,1.0172656624534764,-0.401826402690327,,-0.8950492946568722,-0.2926915759331089,0.19200906738,0.03376008090100842,0.18623554918029533,-0.7036024923877202,0.10209004133392452,,-0.048596511360217115,-0.07013605599139214,0.08219610256,-0.07424845330935166,,4.1261315e-05,-7.1525574e-07,-1.0728836e-06,1.0,-4.3246895e-05,-3.735721e-05,4.3246895e-05,1.0,-4.7683716e-06,3.735721e-05,4.7385693e-06,1.0,941,2.89,0,0,0.0,False,-0.25767366003838577,0.27751457689518544
2.9088906809920445,16:58:53.368880,16:58:39.560808,0,,0.122862116,0.0050553977,0.028658435,-0.8773264,-0.31062558,-0.36580053,-0.3819454,-0.009524673,0.92413586,-0.29054433,0.9504847,-0.11028579,,0.057095155,-0.020912305,0.026044905,0.22886598,-0.36756667,0.90139616,-0.9324268,0.1832282,0.31146058,-0.27964374,-0.9117686,-0.30079436,,0.10670722,1.3421674,0.4415334,0.99560446,0.021032223,-0.09126565,-0.043587327,-0.758449,-0.6502732,-0.08289703,0.65139294,-0.7541985,,-0.093488276,0.2623762,-0.091738366,0.88608146,0.23592669,0.39899656,-0.45248228,0.62705487,0.6340836,-0.10059549,-0.7423886,0.6623743,,-0.024278097,0.39828417,-0.36900786,-0.14105377,0.42218715,-0.8954674,-0.74896777,-0.6370185,-0.18235876,-0.64741886,0.6449538,0.40605843,,1.1340215407168754,0.3829394323012965,0.19898181129000003,0.5544202105730824,0.047549501918373274,1.0178227519719585,-0.401826402690327,,-0.895041571923998,-0.29269929866598315,0.19200647480000002,0.03376008090100842,0.18623554918029533,-0.7036841711278609,0.10258007353232734,,-0.048596511360217115,-0.07013605599139214,0.08219610256,-0.07424845330935166,,4.1261315e-05,-7.1525574e-07,-1.0728836e-06,1.0,-4.3246895e-05,-3.735721e-05,4.3246895e-05,1.0,-4.7683716e-06,3.735721e-05,4.7385693e-06,1.0,953,2.926,0,0,0.0,False,-0.25779281547542787,0.27756285709596495
2.9491688669950236,16:58:53.404470,16:58:39.560808,0,,0.12288496,0.005087301,0.028727785,-0.87737423,-0.30993253,-0.36627352,-0.38218477,-0.010095745,0.9240308,-0.29008496,0.95070493,-0.10959387,,0.05709201,-0.02090533,0.026049972,0.2281714,-0.36660454,0.9019639,-0.93233573,0.18463707,0.31090063,-0.28051355,-0.91187185,-0.29966962,,0.10670722,1.3421674,0.4415334,0.99560446,0.021032223,-0.09126565,-0.043587327,-0.758449,-0.6502732,-0.08289703,0.65139294,-0.7541985,,-0.09351549,0.26244515,-0.09176761,0.8860869,0.23520295,0.3994116,-0.45235902,0.6267492,0.63447356,-0.10110085,-0.7428762,0.66175044,,-0.024275847,0.39829242,-0.36900455,-0.14030305,0.42113936,-0.8960785,-0.7495845,-0.63646406,-0.18175983,-0.646868,0.6461851,0.40497738,,1.1340524316483724,0.3833101234792593,0.19893644114000003,0.5544202105730824,0.04672968291978063,1.0184095806539963,-0.4016630586241926,,-0.8950338491911237,-0.29267613046736046,0.19200258593000002,0.03480853061843105,0.18664545867959165,-0.7048352122403558,0.1022533854000589,,-0.048596511360217115,-0.07013605599139214,0.08219610256,-0.07424845330935166,,4.1261315e-05,-7.1525574e-07,-1.0728836e-06,1.0,-4.3246895e-05,-3.735721e-05,4.3246895e-05,1.0,-4.7683716e-06,3.735721e-05,4.7385693e-06,1.0,982,3.015,0,0,0.0,False,-0.2580311263495121,0.27794909870220064
2.984752734977519,16:58:53.481394,16:58:39.775974,0,,0.12295036,0.0050921887,0.029053017,-0.8707949,-0.33167756,-0.36291343,-0.38124487,-0.010540932,0.92441404,-0.3104328,0.943334,-0.11727145,,0.05709446,-0.02090846,0.026053965,0.2283987,-0.3660571,0.90212864,-0.93228257,0.18474379,0.3109966,-0.28050518,-0.91207016,-0.29907343,,0.10670722,1.3421674,0.4415334,0.99560446,0.021032223,-0.09126565,-0.043587327,-0.758449,-0.6502732,-0.08289703,0.65139294,-0.7541985,,-0.09360566,0.26266074,-0.09200315,0.8811271,0.25743112,0.39666632,-0.46522674,0.62221426,0.62961376,-0.08472927,-0.73930955,0.6680137,,-0.024278363,0.3982939,-0.36900938,-0.14053349,0.42060247,-0.89629453,-0.74957263,-0.63663125,-0.18122238,-0.6468317,0.64637,0.40474012,,1.1346084684153166,0.38344913267099534,0.19866422024000002,0.5435163335118871,0.06544888338764597,1.0089445183975665,-0.40149971455805844,,-0.8950570173897464,-0.29269929866598315,0.19199999335,0.03459884067494652,0.1867820951793571,-0.7054367025848955,0.10323344979686455,,-0.048596511360217115,-0.07013605599139214,0.08219610256,-0.07424845330935166,,4.1261315e-05,-7.1525574e-07,-1.0728836e-06,1.0,-4.3246895e-05,-3.735721e-05,4.3246895e-05,1.0,-4.7683716e-06,3.735721e-05,4.7385693e-06,1.0,990,3.04,0,0,0.0,False,-0.2596993024681016,0.27794909870220064
3.0616929899842944,16:58:53.513642,16:58:39.775974,0,,0.12298231,0.0051013976,0.029201284,-0.8678282,-0.3386401,-0.3635892,-0.37888902,-0.022359997,0.925172,-0.32143015,0.94065034,-0.108902425,,0.057093326,-0.020905882,0.026055396,0.22840555,-0.36598617,0.9021557,-0.9322771,0.18477848,0.31099245,-0.28051788,-0.91209155,-0.29899612,,0.10670722,1.3421674,0.4415334,0.99560446,0.021032223,-0.09126565,-0.043587327,-0.758449,-0.6502732,-0.08289703,0.65139294,-0.7541985,,-0.09364868,0.26276422,-0.09210575,0.87908554,0.26424584,0.396715,-0.47077268,0.61175907,0.63570744,-0.07471093,-0.7456038,0.66218823,,-0.024277529,0.3982966,-0.36900792,-0.14053972,0.42053115,-0.896327,-0.74958116,-0.6366384,-0.18116195,-0.6468204,0.6464094,0.4046952,,1.1349328231960338,0.38344140993812115,0.19854625785000002,0.5393225346421967,0.07651643986864665,1.0165004524466905,-0.4026431230209986,,-0.8950570173897464,-0.2926838532002347,0.19199869706000003,0.03459884067494652,0.1867820951793571,-0.7055183813250361,0.10307010573073028,,-0.048596511360217115,-0.07013605599139214,0.08219610256,-0.07424845330935166,,4.1261315e-05,-7.1525574e-07,-1.0728836e-06,1.0,-4.3246895e-05,-3.735721e-05,4.3246895e-05,1.0,-4.7683716e-06,3.735721e-05,4.7385693e-06,1.0,1002,3.078,0,0,0.0,False,-0.2589843698458485,0.28002514733571715
3.093915637989994,16:58:53.553395,16:58:39.917952,0,,0.122917265,0.0050797313,0.02942878,-0.8652354,-0.34380648,-0.36491752,-0.3797361,-0.02585861,0.9247334,-0.32736555,0.93868446,-0.10818204,,0.057090968,-0.020906135,0.026054025,0.22840673,-0.3662207,0.9020602,-0.93227714,0.18469599,0.3110412,-0.28051662,-0.9120141,-0.2992334,,0.10670722,1.3421674,0.4415334,0.99560446,0.021032223,-0.09126565,-0.043587327,-0.758449,-0.6502732,-0.08289703,0.65139294,-0.7541985,,-0.093602024,0.26289943,-0.092295475,0.87693596,0.26944843,0.39797089,-0.4753903,0.6079863,0.6358905,-0.07062116,-0.74682677,0.6612582,,-0.02427506,0.39829552,-0.36900738,-0.14054099,0.4207643,-0.8962174,-0.74958026,-0.6365924,-0.18132721,-0.6468212,0.646303,0.40486395,,1.135589255490343,0.38347230086961803,0.19833755516,0.534709355885537,0.08170862685973339,1.0167589028139576,-0.40215309082259554,,-0.895041571923998,-0.2926838532002347,0.19199869706000003,0.03459884067494652,0.1867820951793571,-0.7052733451046144,0.10617364298728155,,-0.048596511360217115,-0.07013605599139214,0.08219610256,-0.07424845330935166,,4.1261315e-05,-7.1525574e-07,-1.0728836e-06,1.0,-4.3246895e-05,-3.735721e-05,4.3246895e-05,1.0,-4.7683716e-06,3.735721e-05,4.7385693e-06,1.0,1023,3.142,0,0,0.0,False,-0.25791197091247,0.28572221102769335
3.1336321699782275,16:58:53.613078,16:58:39.917952,0,,0.12277661,0.0051560253,0.029700845,-0.8576394,-0.35534352,-0.37173322,-0.387461,-0.028780013,0.9214368,-0.33812505,0.93429255,-0.11299896,,0.057090502,-0.020910546,0.026055574,0.22833848,-0.3654876,0.90237474,-0.9323313,0.18484885,0.31078783,-0.280392,-0.91227716,-0.29854748,,0.10670722,1.3421674,0.4415334,0.99560446,0.021032223,-0.09126565,-0.043587327,-0.758449,-0.6502732,-0.08289703,0.65139294,-0.7541985,,-0.09348071,0.26313993,-0.092459984,0.86997974,0.28120363,0.40504298,-0.48850667,0.6032424,0.63044417,-0.06705592,-0.7463398,0.6621785,,-0.024274401,0.39829454,-0.3690119,-0.14047879,0.42004448,-0.8965648,-0.74949646,-0.636809,-0.18091248,-0.6469318,0.64655775,0.40428,,1.1369098428118354,0.3837194283215932,0.19813533392000002,0.5200310598416203,0.08813054234870908,1.0123390487416313,-0.40068299422738696,,-0.895041571923998,-0.29269929866598315,0.19199610448,0.03459884067494652,0.18664545867959165,-0.7060603933424642,0.11254406156651842,,-0.048596511360217115,-0.07013605599139214,0.08219610256,-0.07424845330935166,,4.1261315e-05,-7.1525574e-07,-1.0728836e-06,1.0,-4.3246895e-05,-3.735721e-05,4.3246895e-05,1.0,-4.7683716e-06,3.735721e-05,4.7385693e-06,1.0,1031,3.167,0,0,0.0,False,-0.2590439475643693,0.288184501267446
