AlexandreBanks6/ExpertPlaybackApp/resources/Motions/P_01/PC1/Data_PC1_1.csv
Task Time,PC1 Time,PC2 Time,Gaze Calib,s_T_psm1,Tx,Ty,Tz,R00,R01,R02,R10,R11,R12,R20,R21,R22,s_T_psm3,Tx,Ty,Tz,R00,R01,R02,R10,R11,R12,R20,R21,R22,cart_T_ecm,Tx,Ty,Tz,R00,R01,R02,R10,R11,R12,R20,R21,R22,ecm_T_psm1,Tx,Ty,Tz,R00,R01,R02,R10,R11,R12,R20,R21,R22,ecm_T_psm3,Tx,Ty,Tz,R00,R01,R02,R10,R11,R12,R20,R21,R22,psm1_joints,q1,q2,q3,q4,q5,q6,jaw,psm3_joints,q1,q2,q3,q4,q5,q6,jaw,ecm_joints,q1,q2,q3,q4,ecmi_T_ecm,Tx,Ty,Tz,R00,R01,R02,R10,R11,R12,R20,R21,R22,Sample #,Task Duration (s),Collisions (binary),Collisions (increments),Cumulative Collision Time (s),Clutch Press,MTMR Angle,MTML Angle
""
lci_T_si,,,,,-0.060357757,0.022834528,0.23020615,0.9952371,-0.021149157,0.09516208,0.048441693,-0.7398343,-0.6710429,0.084596165,0.6724566,-0.73528606
rci_T_si,,,,,-0.0698917,0.026742559,0.23927253,0.9902512,-0.040660527,0.13322671,0.061729427,-0.729299,-0.68140477,0.124868385,0.68298584,-0.71967924
ecm_T_lc,,,,,-4.4061628e-05,-0.00034663224,-0.01840835,-0.99912,0.030754527,0.028518902,-0.031987965,-0.99852574,-0.043852776,0.027128186,-0.04472645,0.9986309
ecm_T_rc,,,,,-0.0043358393,0.01870579,-0.007592615,-0.99555075,-0.052743673,-0.078081585,0.04863213,-0.9973746,0.053654674,-0.08070653,0.04961868,0.9955021
cart_T_ecmi,,,,,0.106666066,1.342168,0.4415365,0.99560696,0.021075713,-0.09122836,-0.043530237,-0.7584478,-0.65027845,-0.08289703,0.65139294,-0.7541985
ecmac_T_ecmrep_psm1,,,,,0.01038242,-0.2501324,-0.30762842,0.998145,0.0496832,0.035188068,-0.04731537,0.99675006,-0.06519635,-0.03831287,0.06341047,0.99725187
ecmac_T_ecmrep_psm3,,,,,-0.018947443,-0.4527795,-0.5580277,0.99342906,-0.031421527,0.110051684,0.0051236153,0.97282016,0.23150527,-0.11433475,-0.2294202,0.9665888
""
0,16:56:35.952720,16:56:22.287027,0,,0.1276983,0.003847897,0.013097674,-0.97626525,0.1453642,-0.1605472,-0.18824631,-0.20297697,0.9609182,0.10709575,0.9683335,0.22552362,,0.050082058,-0.019901454,0.03922993,0.90278924,0.08229336,0.42213646,-0.42871177,0.25050774,0.86801606,-0.034316495,-0.9646106,0.2614358,,0.106723845,1.3421655,0.44153035,0.995604,0.021023529,-0.09127311,-0.04359874,-0.75844926,-0.65027213,-0.08289703,0.65139294,-0.7541985,,-0.09715594,0.25109237,-0.08050168,0.95941603,-0.22532777,0.16955322,-0.04225964,0.47958857,0.8764753,-0.27881002,-0.84806967,0.45060268,,-0.018393446,0.41067028,-0.3749946,-0.86531883,-0.025947876,-0.50054973,-0.34576237,-0.6920894,0.63360924,-0.36286598,0.72134525,0.58990616,,1.081275275185922,0.36601892457387064,0.21271600384000003,0.9404593965280917,-0.24444269808037297,1.3527937979779179,-0.4018264026903271,,-0.9162868100609897,-0.275323149698978,0.17808172762000002,-0.886988460939538,0.4059470408031236,-1.395868327094578,0.5179640337117996,,-0.048596511360217115,-0.07013605599139214,0.08219610256,-0.07424845330935166,,5.814433e-05,-8.940697e-07,9.536743e-07,1.0,-5.189702e-05,-4.4822693e-05,5.1893294e-05,1.0,-5.751848e-06,4.4822693e-05,5.6922436e-06,1.0,34,0.102,0,0,0.0,False,-0.2561842170753601,0.691565578779822
0.13319219902041368,16:56:35.980868,16:56:22.287027,0,,0.12769239,0.0038709491,0.013157085,-0.97608185,0.14506862,-0.16192324,-0.18977733,-0.20520377,0.9601437,0.10605947,0.96790826,0.22782642,,0.0500803,-0.019910678,0.0392282,0.9030908,0.082275674,0.42149463,-0.42810345,0.25012738,0.8684259,-0.033977017,-0.9647107,0.26111028,,0.106723845,1.3421655,0.44153035,0.995604,0.021023529,-0.09127311,-0.04359874,-0.75844926,-0.65027213,-0.08289703,0.65139294,-0.7541985,,-0.097153984,0.25114897,-0.0805315,0.95927036,-0.22506285,0.17072509,-0.044099096,0.4776414,0.8774474,-0.27902618,-0.8492381,0.44826218,,-0.018390924,0.41066414,-0.3750015,-0.86568713,-0.02589603,-0.49991524,-0.34518686,-0.6923719,0.6336144,-0.36253536,0.72107595,0.5904384,,1.0814297298434066,0.36621971562860045,0.21267192998,0.938572187036731,-0.24416942508084208,1.355184681855023,-0.401826402690327,,-0.9162790873281154,-0.2753617633633491,0.17808043133,-0.8878272207134762,0.4059470408031236,-1.395868327094578,0.5179640337117996,,-0.048596511360217115,-0.07013605599139214,0.08219610256,-0.07424845330935166,,5.814433e-05,-8.940697e-07,9.536743e-07,1.0,-5.189702e-05,-4.4822693e-05,5.1893294e-05,1.0,-5.751848e-06,4.4822693e-05,5.6922436e-06,1.0,42,0.127,0,0,0.0,False,-0.2570778828531757,0.6918552599844983
0.16133620199980214,16:56:36.010062,16:56:22.287027,0,,0.12769856,0.0039097816,0.01336132,-0.9760624,0.14395973,-0.16302648,-0.19058472,-0.20500845,0.96002555,0.10478325,0.9681153,0.22753754,,0.05008117,-0.019923106,0.039227664,0.9032499,0.082213916,0.4211654,-0.42777345,0.25005126,0.8686104,-0.033901066,-0.96473575,0.26102772,,0.106723845,1.3421655,0.44153035,0.995604,0.021023529,-0.09127311,-0.04359874,-0.75844926,-0.65027213,-0.08289703,0.65139294,-0.7541985,,-0.0971748,0.25131232,-0.08065855,0.95932686,-0.22396822,0.1718436,-0.045546662,0.47795755,0.87720126,-0.27859917,-0.8493497,0.44831648,,-0.018390883,0.41065714,-0.37501177,-0.86587435,-0.02582737,-0.49959442,-0.34496567,-0.6924267,0.633675,-0.36229864,0.7210258,0.5906449,,1.0817000254940043,0.36678347512841886,0.21250470857000003,0.9373140473758238,-0.24348624258201487,1.3544642348562597,-0.4018264026903269,,-0.9162868100609897,-0.27543126795921713,0.17807913504000003,-0.8882466006004451,0.406083677302889,-1.3959797449982743,0.5179640337117996,,-0.048596511360217115,-0.07013605599139214,0.08219610256,-0.07424845330935166,,5.814433e-05,-8.940697e-07,9.536743e-07,1.0,-5.189702e-05,-4.4822693e-05,5.1893294e-05,1.0,-5.751848e-06,4.4822693e-05,5.6922436e-06,1.0,57,0.172,0,0,0.0,False,-0.2566012611050077,0.6919518203860573
0.19045985900447704,16:56:36.052679,16:56:22.287027,0,,0.12780815,0.0040025264,0.013477385,-0.977778,0.13113356,-0.16356649,-0.1879168,-0.20234862,0.9611152,0.09293701,0.9704943,0.22249421,,0.050080623,-0.019929916,0.039227247,0.9032424,0.08221485,0.42118144,-0.42779037,0.25001597,0.8686122,-0.03388928,-0.9647449,0.26099578,,0.106723845,1.3421655,0.44153035,0.995604,0.021023529,-0.09127311,-0.04359874,-0.75844926,-0.65027213,-0.08289703,0.65139294,-0.7541985,,-0.0972904,0.2514552,-0.08067615,0.9620261,-0.21129441,0.17280172,-0.05127655,0.48190573,0.8747214,-0.26809788,-0.8503655,0.45277143,,-0.01838983,0.41065326,-0.37501732,-0.86586654,-0.025825134,-0.49960807,-0.34496382,-0.69245297,0.63364726,-0.3623191,0.7210007,0.5906631,,1.0819780438774764,0.367339511895363,0.21242304230000003,0.9347977680540096,-0.23159886710242156,1.349263207942402,-0.4016630586241926,,-0.9162790873281154,-0.27546988162358826,0.17807783875000002,-0.8882466006004451,0.406083677302889,-1.3959797449982743,0.5176373455795309,,-0.048596511360217115,-0.07013605599139214,0.08219610256,-0.07424845330935166,,5.814433e-05,-8.940697e-07,9.536743e-07,1.0,-5.189702e-05,-4.4822693e-05,5.1893294e-05,1.0,-5.751848e-06,4.4822693e-05,5.6922436e-06,1.0,65,0.197,0,0,0.0,False,-0.2566608388235285,0.6904551341618941
0.23315058500156738,16:56:36.073125,16:56:22.287027,0,,0.12786122,0.0040284544,0.013581425,-0.9782978,0.1260966,-0.16441697,-0.18809591,-0.20762783,0.95995355,0.08690937,0.9700465,0.22684011,,0.05007115,-0.019931287,0.039229155,0.90317076,0.082072556,0.42136282,-0.42793262,0.24987718,0.86858207,-0.034002215,-0.9647929,0.26080334,,0.106723845,1.3421655,0.44153035,0.995604,0.021023529,-0.09127311,-0.04359874,-0.75844926,-0.65027213,-0.08289703,0.65139294,-0.7541985,,-0.09735058,0.25154153,-0.08073301,0.96300447,-0.20638806,0.17328122,-0.05535935,0.47778684,0.8767298,-0.26373804,-0.8538874,0.44868535,,-0.018380454,0.4106551,-0.37501928,-0.8657767,-0.025670223,-0.49977168,-0.34512663,-0.692552,0.6334504,-0.36237866,0.7209111,0.59073585,,1.082101607603464,0.3676561439432062,0.21233359829,0.9320717987887107,-0.22627004361156938,1.3539025711137034,-0.40133637049192405,,-0.9162327509308701,-0.27546988162358826,0.1780713573,-0.8880369106569606,0.406083677302889,-1.3957347087778524,0.5164939371165909,,-0.048596511360217115,-0.07013605599139214,0.08219610256,-0.07424845330935166,,5.814433e-05,-8.940697e-07,9.536743e-07,1.0,-5.189702e-05,-4.4822693e-05,5.1893294e-05,1.0,-5.751848e-06,4.4822693e-05,5.6922436e-06,1.0,77,0.232,0,0,0.0,False,-0.2566608388235285,0.6905999747642326
0.25352691402076744,16:56:36.112663,16:56:22.460323,0,,0.12786365,0.003985986,0.013689995,-0.97825766,0.12561941,-0.16502017,-0.1886527,-0.20846456,0.9596628,0.08615144,0.9699291,0.2276305,,0.05006234,-0.019938037,0.039224625,0.9035007,0.08190648,0.42068723,-0.42725015,0.24958313,0.8690026,-0.03381948,-0.9648832,0.26049304,,0.106723845,1.3421655,0.44153035,0.995604,0.021023529,-0.09127311,-0.04359874,-0.75844926,-0.65027213,-0.08289703,0.65139294,-0.7541985,,-0.09736258,0.2515809,-0.080842115,0.96300733,-0.20592688,0.17381321,-0.056278072,0.47709382,0.8770486,-0.2635331,-0.8543861,0.44785565,,-0.018370872,0.4106486,-0.37502244,-0.86616653,-0.025477575,-0.49910557,-0.34464753,-0.6927657,0.6334775,-0.3619027,0.72071254,0.5912697,,1.082101607603464,0.36771792580620005,0.21221693219,0.9312330390147727,-0.22586013411227307,1.3547934985047225,-0.4024797789548641,,-0.9161864145336247,-0.27549304982221096,0.17807006101000003,-0.8888756704308987,0.40622031380265444,-1.3957644479414084,0.5163305930504567,,-0.048596511360217115,-0.07013605599139214,0.08219610256,-0.07424845330935166,,5.814433e-05,-8.940697e-07,9.536743e-07,1.0,-5.189702e-05,-4.4822693e-05,5.1893294e-05,1.0,-5.751848e-06,4.4822693e-05,5.6922436e-06,1.0,88,0.266,0,0,0.0,False,-0.25642252794944387,0.6899240519533199
0.2931317049951758,16:56:36.142235,16:56:22.460323,0,,0.12790415,0.003906563,0.013857707,-0.9781565,0.12525451,-0.16589433,-0.18940167,-0.20818672,0.95957565,0.0856542,0.9700359,0.22736266,,0.050058115,-0.019939229,0.039223492,0.9035805,0.08194877,0.4205076,-0.4270866,0.24963266,0.8690687,-0.03375326,-0.96486676,0.26056236,,0.106723845,1.3421655,0.44153035,0.995604,0.021023529,-0.09127311,-0.04359874,-0.75844926,-0.65027213,-0.08289703,0.65139294,-0.7541985,,-0.09741811,0.25163016,-0.08101695,0.96292394,-0.20556366,0.17470263,-0.057171885,0.4773841,0.87683284,-0.26364523,-0.8543114,0.4479321,,-0.018366499,0.41064742,-0.37502277,-0.86626244,-0.025524376,-0.4989368,-0.34451386,-0.6927301,0.6335891,-0.36180052,0.7207451,0.59129256,,1.0818699256172373,0.3678646577308103,0.21203415530000003,0.9303942792408346,-0.22599677061203852,1.3546598801879972,-0.40198974675646115,,-0.916163246335002,-0.27549304982221096,0.17806876472000002,-0.8890853603743832,0.40622031380265444,-1.3959278054216895,0.5163305930504566,,-0.048596511360217115,-0.07013605599139214,0.08219610256,-0.07424845330935166,,5.814433e-05,-8.940697e-07,9.536743e-07,1.0,-5.189702e-05,-4.4822693e-05,5.1893294e-05,1.0,-5.751848e-06,4.4822693e-05,5.6922436e-06,1.0,96,0.291,0,0,0.0,False,-0.2559459062012759,0.6898757717525408
0.3226892740058247,16:56:36.162327,16:56:22.460323,0,,0.12793532,0.0038714856,0.013963059,-0.9781376,0.12533432,-0.16594566,-0.18948448,-0.20834613,0.9595247,0.085687265,0.9699914,0.22754014,,0.050057262,-0.019940645,0.039222658,0.90357965,0.08194314,0.42051035,-0.42708808,0.24962395,0.8690705,-0.033755094,-0.9648695,0.26055202,,0.106723845,1.3421655,0.44153035,0.995604,0.021023529,-0.09127311,-0.04359874,-0.75844926,-0.65027213,-0.08289703,0.65139294,-0.7541985,,-0.097458296,0.2516721,-0.08111659,0.9629002,-0.20564425,0.17473866,-0.057213046,0.47723243,0.8769127,-0.26372302,-0.8543768,0.44776165,,-0.01836549,0.41064608,-0.3750235,-0.8662614,-0.02551795,-0.4989389,-0.3445161,-0.69273645,0.633581,-0.36180085,0.72073925,0.5912995,,1.081723193692627,0.368026835121169,0.21192656323000003,0.9303942792408346,-0.22627004361156938,1.3548010372552497,-0.401826402690327,,-0.916163246335002,-0.27550077255508515,0.17806876472000002,-0.8890853603743832,0.40622031380265444,-1.3959278054216895,0.5160039049181881,,-0.048596511360217115,-0.07013605599139214,0.08219610256,-0.07424845330935166,,5.814433e-05,-8.940697e-07,9.536743e-07,1.0,-5.189702e-05,-4.4822693e-05,5.1893294e-05,1.0,-5.751848e-06,4.4822693e-05,5.6922436e-06,1.0,107,0.324,0,0,0.0,False,-0.25582675076423333,0.6890550083392899
0.3428012270014733,16:56:36.201739,16:56:22.460323,0,,0.1279814,0.0037359148,0.014217705,-0.9785945,0.122310854,-0.16550776,-0.18821192,-0.20661193,0.9601499,0.08324091,0.97074795,0.22520962,,0.05005679,-0.019937292,0.039227784,0.90358293,0.081884086,0.42051488,-0.42708123,0.24950603,0.86910766,-0.0337549,-0.964905,0.26042056,,0.106723845,1.3421655,0.44153035,0.995604,0.021023529,-0.09127311,-0.04359874,-0.75844926,-0.65027213,-0.08289703,0.65139294,-0.7541985,,-0.097527675,0.2517361,-0.081393056,0.9635801,-0.20264074,0.1744997,-0.057850022,0.47912547,0.875838,-0.26108772,-0.85403484,0.449953,,-0.018365642,0.4106522,-0.37502337,-0.8662651,-0.025448252,-0.49893597,-0.34451267,-0.69282234,0.63348895,-0.3617952,0.72065914,0.59140056,,1.0814992344392746,0.36807317151841434,0.21163619427000002,0.9306039691843192,-0.223673950116026,1.3525207396047363,-0.40149971455805844,,-0.9161709690678762,-0.27547760435646246,0.17806487585000003,-0.8890853603743832,0.40622031380265444,-1.3957644479414086,0.5153505286536512,,-0.048596511360217115,-0.07013605599139214,0.08219610256,-0.07424845330935166,,5.814433e-05,-8.940697e-07,9.536743e-07,1.0,-5.189702e-05,-4.4822693e-05,5.1893294e-05,1.0,-5.751848e-06,4.4822693e-05,5.6922436e-06,1.0,118,0.356,0,0,0.0,False,-0.25600548391979716,0.689296409343187
0.38215443000080995,16:56:36.235329,16:56:22.460323,0,,0.12798536,0.003606692,0.014529884,-0.9786223,0.119317695,-0.16751549,-0.18944459,-0.20592636,0.96005476,0.08005571,0.9712661,0.22412822,,0.05005648,-0.019939393,0.03922701,0.90350336,0.08185027,0.4206923,-0.42724308,0.249506,0.8690282,-0.033835053,-0.96490777,0.2603995,,0.106723845,1.3421655,0.44153035,0.995604,0.021023529,-0.09127311,-0.04359874,-0.75844926,-0.65027213,-0.08289703,0.65139294,-0.7541985,,-0.09755936,0.251844,-0.08171171,0.9638192,-0.19967847,0.17658147,-0.060871594,0.48007122,0.87511504,-0.25951332,-0.8542015,0.4505471,,-0.018365134,0.41065055,-0.37502477,-0.8661686,-0.025414396,-0.49910524,-0.34465727,-0.6928213,0.6334114,-0.36188853,0.7206613,0.59134084,,1.0815378481036457,0.36818901251152775,0.21129527,0.9280876898625048,-0.22135112962001352,1.3516884588637246,-0.4028064670871325,,-0.916163246335002,-0.27549304982221096,0.17806487585000003,-0.8888756704308987,0.40622031380265444,-1.3956827692012679,0.5151871845875166,,-0.048596511360217115,-0.07013605599139214,0.08219610256,-0.07424845330935166,,5.814433e-05,-8.940697e-07,9.536743e-07,1.0,-5.189702e-05,-4.4822693e-05,5.1893294e-05,1.0,-5.751848e-06,4.4822693e-05,5.6922436e-06,1.0,129,0.389,0,0,0.0,False,-0.25672041654204936,0.6894895301463047
0.415796273999149,16:56:36.273413,16:56:22.590166,0,,0.12806918,0.0034041107,0.0149519,-0.9797079,0.10871228,-0.16838616,-0.18849199,-0.21412209,0.958448,0.06813991,0.97073853,0.23026851,,0.050056968,-0.019940495,0.03922707,0.90365654,0.0818485,0.4203636,-0.42693245,0.24933538,0.8692298,-0.033666372,-0.9649521,0.26025733,,0.106723845,1.3421655,0.44153035,0.995604,0.021023529,-0.09127311,-0.04359874,-0.75844926,-0.65027213,-0.08289703,0.65139294,-0.7541985,,-0.097681165,0.25196648,-0.08215478,0.9658478,-0.18929812,0.17693006,-0.06795728,0.47386986,0.8779688,-0.25003967,-0.8600079,0.44482198,,-0.018365543,0.41064993,-0.37502572,-0.8663555,-0.025397327,-0.49878162,-0.34436724,-0.6929481,0.6334304,-0.36171722,0.72054,0.5915934,,1.0814683435077777,0.36821990344302463,0.21081175383000003,0.9238938909928144,-0.2101469366392474,1.35880626004859,-0.401826402690327,,-0.9161709690678762,-0.27549304982221096,0.17806487585000003,-0.8892950503178678,0.40622031380265444,-1.3956827692012679,0.5151871845875166,,-0.048596511360217115,-0.07013605599139214,0.08219610256,-0.07424845330935166,,5.814433e-05,-8.940697e-07,9.536743e-07,1.0,-5.189702e-05,-4.4822693e-05,5.1893294e-05,1.0,-5.751848e-06,4.4822693e-05,5.6922436e-06,1.0,144,0.434,0,0,0.0,False,-0.2566012611050077,0.6900688925556584
0.4538551020086743,16:56:36.307731,16:56:22.590166,0,,0.12813534,0.0031971484,0.015253946,-0.98033136,0.10021455,-0.1700217,-0.18843193,-0.21911854,0.95732987,0.058683485,0.970538,0.23369235,,0.05005486,-0.019937381,0.03922659,0.9037395,0.08196909,0.4201617,-0.42676204,0.24955097,0.8692516,-0.033599958,-0.9648861,0.26051039,,0.106723845,1.3421655,0.44153035,0.995604,0.021023529,-0.09127311,-0.04359874,-0.75844926,-0.65027213,-0.08289703,0.65139294,-0.7541985,,-0.09777623,0.2520073,-0.08251218,0.9672009,-0.1809538,0.17826436,-0.07411152,0.47022927,0.879427,-0.24296078,-0.863794,0.4413954,,-0.018363632,0.41065142,-0.3750228,-0.866455,-0.02553738,-0.4986016,-0.34423012,-0.69279146,0.6336763,-0.36160937,0.72068566,0.5914819,,1.0812675524530477,0.3680113896554206,0.21043842231,0.9199097820666083,-0.20153883715402465,1.3633036344755345,-0.40264312302099836,,-0.916163246335002,-0.27546988162358826,0.17806487585000003,-0.8895047402613524,0.40622031380265444,-1.39600948416183,0.5158405608520539,,-0.048596511360217115,-0.07013605599139214,0.08219610256,-0.07424845330935166,,5.814433e-05,-8.940697e-07,9.536743e-07,1.0,-5.189702e-05,-4.4822693e-05,5.1893294e-05,1.0,-5.751848e-06,4.4822693e-05,5.6922436e-06,1.0,155,0.467,0,0,0.0,False,-0.25695872741613357,0.6890067281385104
0.4881622980174143,16:56:36.336926,16:56:22.590166,0,,0.12819101,0.0030766577,0.015436843,-0.9802376,0.09520184,-0.17340909,-0.1905039,-0.2180394,0.9571662,0.053314,0.97128546,0.2318666,,0.050057516,-0.019939706,0.039227545,0.9037342,0.08195261,0.42017612,-0.42677444,0.24947074,0.86926854,-0.033582777,-0.96490836,0.2604305,,0.106723845,1.3421655,0.44153035,0.995604,0.021023529,-0.09127311,-0.04359874,-0.75844926,-0.65027213,-0.08289703,0.65139294,-0.7541985,,-0.0978492,0.2520352,-0.08272424,0.96746385,-0.17598546,0.18177667,-0.079204805,0.4716823,0.87820405,-0.24029198,-0.86402833,0.4423967,,-0.018366186,0.41065073,-0.37502533,-0.86645025,-0.025513686,-0.49861106,-0.3442216,-0.69285065,0.6336162,-0.3616289,0.72062963,0.59153825,,1.0810435931996953,0.3679882214567979,0.21021805301000002,0.9157159831969178,-0.19771301516059234,1.362225901675549,-0.4018264026903269,,-0.9161786918007505,-0.2754853270893367,0.17806487585000003,-0.8895047402613524,0.40622031380265444,-1.3959278054216897,0.5156772167859197,,-0.048596511360217115,-0.07013605599139214,0.08219610256,-0.07424845330935166,,5.814433e-05,-8.940697e-07,9.536743e-07,1.0,-5.189702e-05,-4.4822693e-05,5.1893294e-05,1.0,-5.751848e-06,4.4822693e-05,5.6922436e-06,1.0,166,0.5,0,0,0.0,False,-0.25642252794944387,0.6887170469338337
0.5173898890207056,16:56:36.375853,16:56:22.590166,0,,0.12821944,0.0029666275,0.015566513,-0.9795823,0.09029143,-0.17962736,-0.19538902,-0.21715397,0.9563824,0.04734637,0.97195244,0.23036212,,0.050056063,-0.019942343,0.039226115,0.90388733,0.081937954,0.4198496,-0.42646283,0.2492894,0.86947346,-0.033421144,-0.9649564,0.26027298,,0.106723845,1.3421655,0.44153035,0.995604,0.021023529,-0.09127311,-0.04359874,-0.75844926,-0.65027213,-0.08289703,0.65139294,-0.7541985,,-0.09789064,0.25203678,-0.08289158,0.9671344,-0.17111829,0.18806809,-0.08682594,0.47293347,0.87680966,-0.23898187,-0.86432195,0.44253272,,-0.018364443,0.41064826,-0.37502676,-0.86663663,-0.02548274,-0.49828863,-0.34393698,-0.692985,0.63362384,-0.36145303,0.72050154,0.5918017,,1.0809200294737078,0.3678646577308103,0.21004953531,0.9085865251184441,-0.19443373916622175,1.361920555450911,-0.4010096823596556,,-0.9161709690678762,-0.27549304982221096,0.17806487585000003,-0.8899241201483213,0.40622031380265444,-1.3959278054216895,0.5146971523891137,,-0.048596511360217115,-0.07013605599139214,0.08219610256,-0.07424845330935166,,5.814433e-05,-8.940697e-07,9.536743e-07,1.0,-5.189702e-05,-4.4822693e-05,5.1893294e-05,1.0,-5.751848e-06,4.4822693e-05,5.6922436e-06,1.0,181,0.544,0,0,0.0,False,-0.25725661600873906,0.688330805327598
0.5563265570090152,16:56:36.417712,16:56:22.735295,0,,0.12834626,0.0027611107,0.015762866,-0.98061347,0.07242762,-0.18207523,-0.19372106,-0.21851662,0.95641136,0.029484168,0.97314173,0.22831109,,0.05004812,-0.019936994,0.039225936,0.9039004,0.08189335,0.41983017,-0.42643175,0.24931246,0.8694821,-0.033464074,-0.96495414,0.2602756,,0.106723845,1.3421655,0.44153035,0.995604,0.021023529,-0.09127311,-0.04359874,-0.75844926,-0.65027213,-0.08289703,0.65139294,-0.7541985,,-0.098037966,0.2520074,-0.08316419,0.969588,-0.1534449,0.19066685,-0.09728472,0.47322094,0.87555563,-0.2245771,-0.8674772,0.44390148,,-0.018356904,0.4106517,-0.375022,-0.86664855,-0.025440164,-0.49827012,-0.3439583,-0.69296646,0.6336325,-0.3614042,0.7205208,0.591808,,1.0806729020217325,0.3673626800939857,0.20976305522000002,0.9025055167573928,-0.1773541766955417,1.3613886308719105,-0.4042765636823411,,-0.9161323554035051,-0.2754544361578398,0.17806228327,-0.8899241201483213,0.40622031380265444,-1.3959278054216895,0.5146971523891137,,-0.048596511360217115,-0.07013605599139214,0.08219610256,-0.07424845330935166,,5.814433e-05,-8.940697e-07,9.536743e-07,1.0,-5.189702e-05,-4.4822693e-05,5.1893294e-05,1.0,-5.751848e-06,4.4822693e-05,5.6922436e-06,1.0,192,0.576,0,0,0.0,False,-0.25719703829021734,0.6882825251268185
0.5981612479954492,16:56:36.456017,16:56:22.735295,0,,0.12840793,0.0025722831,0.01602523,-0.9812064,0.06015932,-0.18334317,-0.19224983,-0.22329324,0.95560455,0.01654926,0.9728932,0.23066229,,0.05004985,-0.019938722,0.039228022,0.90412813,0.081901774,0.41933778,-0.425969,0.24905959,0.8697814,-0.033203438,-0.9650188,0.26006943,,0.106723845,1.3421655,0.44153035,0.995604,0.021023529,-0.09127311,-0.04359874,-0.75844926,-0.65027213,-0.08289703,0.65139294,-0.7541985,,-0.098124966,0.25203592,-0.08348026,0.9712188,-0.1413329,0.19172636,-0.10466475,0.46982643,0.876532,-0.21396092,-0.87137145,0.4415117,,-0.018358657,0.4106524,-0.37502462,-0.8669273,-0.025425926,-0.4977856,-0.3435183,-0.69315463,0.6336654,-0.36115393,0.7203403,0.59218043,,1.0806420110902357,0.36700743438177136,0.20942990869000003,0.8983117178877025,-0.16478361871712116,1.364778533335314,-0.402479778954864,,-0.9161555236021278,-0.2754544361578398,0.17806098698000003,-0.890553189978775,0.40622031380265444,-1.3959278054216897,0.5143704642568453,,-0.048596511360217115,-0.07013605599139214,0.08219610256,-0.07424845330935166,,5.814433e-05,-8.940697e-07,9.536743e-07,1.0,-5.189702e-05,-4.4822693e-05,5.1893294e-05,1.0,-5.751848e-06,4.4822693e-05,5.6922436e-06,1.0,203,0.61,0,0,0.0,False,-0.25677999426057063,0.6884756459299362
0.6364567720156629,16:56:36.488786,16:56:22.735295,0,,0.12901486,0.0022731572,0.016144007,-0.98198265,0.027264483,-0.18699373,-0.18808064,-0.23695335,0.95314157,-0.018321872,0.9711384,0.23781198,,0.050047804,-0.019933715,0.03922808,0.9041358,0.08185369,0.41933057,-0.4259512,0.24901313,0.8698033,-0.0332222,-0.96503484,0.2600074,,0.106723845,1.3421655,0.44153035,0.995604,0.021023529,-0.09127311,-0.04359874,-0.75844926,-0.65027213,-0.08289703,0.65139294,-0.7541985,,-0.09874742,0.25187078,-0.08371952,0.9748016,-0.108797,0.19474348,-0.124432184,0.45936725,0.8794876,-0.18514438,-0.88155824,0.43425408,,-0.018356979,0.4106553,-0.37502035,-0.8669348,-0.025373623,-0.4977753,-0.3435256,-0.6931877,0.63362527,-0.36112908,0.72031033,0.59223205,,1.0784487549539559,0.3667216932654251,0.20918750246,0.8878272207134762,-0.1328106777720081,1.3752988194533229,-0.40329649928553546,,-0.9161478008692536,-0.27542354522634294,0.17806098698000003,-0.890553189978775,0.40622031380265444,-1.395846126681549,0.5138804320584424,,-0.048596511360217115,-0.07013605599139214,0.08219610256,-0.07424845330935166,,5.814433e-05,-8.940697e-07,9.536743e-07,1.0,-5.189702e-05,-4.4822693e-05,5.1893294e-05,1.0,-5.751848e-06,4.4822693e-05,5.6922436e-06,1.0,214,0.643,0,0,0.0,False,-0.2570183051346544,0.6888618875361718
0.6692411670228466,16:56:36.518843,16:56:22.735295,0,,0.12939698,0.002036199,0.01623018,-0.98153067,0.010306165,-0.19102675,-0.18805665,-0.23520094,0.95358026,-0.03510189,0.9718921,0.23279506,,0.05004388,-0.019921854,0.039230824,0.90417206,0.08186674,0.41925,-0.4258623,0.2494404,0.86972445,-0.033376366,-0.9649234,0.26040095,,0.106723845,1.3421655,0.44153035,0.995604,0.021023529,-0.09127311,-0.04359874,-0.75844926,-0.65027213,-0.08289703,0.65139294,-0.7541985,,-0.099141546,0.25173768,-0.083910674,0.97564733,-0.09190502,0.1991625,-0.13546112,0.46168655,0.87663895,-0.17251816,-0.8822692,0.4379937,,-0.01835412,0.41066423,-0.37501168,-0.8669653,-0.025424996,-0.49771956,-0.3436129,-0.6928706,0.63392466,-0.36097276,0.72061354,0.5919584,,1.0767265855230037,0.36653634767644366,0.20901509589000003,0.8811171425219714,-0.11873711829616776,1.37231736434721,-0.40247977895486375,,-0.9161478008692536,-0.2753540406304749,0.17805969069000002,-0.890553189978775,0.40635695030241986,-1.396202580805667,0.5140437761245766,,-0.048596511360217115,-0.07013605599139214,0.08219610256,-0.07424845330935166,,5.814433e-05,-8.940697e-07,9.536743e-07,1.0,-5.189702e-05,-4.4822693e-05,5.1893294e-05,1.0,-5.751848e-06,4.4822693e-05,5.6922436e-06,1.0,229,0.687,1,1,0.014,False,-0.25785239319394915,0.6886687667330542
0.6992753630038351,16:56:36.558717,16:56:22.878299,0,,0.12972684,0.0018844306,0.016347274,-0.98059076,0.005807765,-0.19597983,-0.19189245,-0.23356706,0.9532176,-0.040238336,0.9723234,0.23014817,,0.050041884,-0.019924507,0.039233625,0.90424716,0.081898116,0.4190819,-0.42570955,0.24941847,0.8698056,-0.03329131,-0.96492636,0.2604007,,0.106723845,1.3421655,0.44153035,0.995604,0.021023529,-0.09127311,-0.04359874,-0.75844926,-0.65027213,-0.08289703,0.65139294,-0.7541985,,-0.0994836,0.25169063,-0.08407299,0.9749995,-0.08740928,0.20429303,-0.14175421,0.46333396,0.8747728,-0.17111915,-0.8818624,0.43935972,,-0.018352157,0.4106654,-0.37501538,-0.86705714,-0.025454443,-0.497558,-0.34346846,-0.69288784,0.6339841,-0.3608896,0.7205959,0.5920306,,1.0750044160920518,0.36696109798452603,0.20886342996,0.8758748939348582,-0.1172341167987479,1.37117344614669,-0.4023164348887296,,-0.9161478008692536,-0.2753617633633491,0.17805580182000003,-0.8907628799222593,0.40635695030241986,-1.3962842595458076,0.5142071201907108,,-0.048596511360217115,-0.07013605599139214,0.08219610256,-0.07424845330935166,,5.814433e-05,-8.940697e-07,9.536743e-07,1.0,-5.189702e-05,-4.4822693e-05,5.1893294e-05,1.0,-5.751848e-06,4.4822693e-05,5.6922436e-06,1.0,237,0.712,1,1,0.039,False,-0.257435349164302,0.6887653271346132
0.7391932739992626,16:56:36.589397,16:56:22.878299,0,,0.12980245,0.0013796091,0.016524136,-0.97842294,-0.005293723,-0.20654425,-0.19997367,-0.2271044,0.9531182,-0.051952645,0.97385603,0.22114554,,0.050046936,-0.01991798,0.039238095,0.90432686,0.08192912,0.41890386,-0.42554778,0.24937761,0.8698964,-0.03319539,-0.96493435,0.26038364,,0.106723845,1.3421655,0.44153035,0.995604,0.021023529,-0.09127311,-0.04359874,-0.75844926,-0.65027213,-0.08289703,0.65139294,-0.7541985,,-0.09958676,0.2514246,-0.08453171,0.9735167,-0.076282315,0.21551397,-0.15560514,0.46953723,0.8690925,-0.16748822,-0.87961113,0.44523242,,-0.01835798,0.41067207,-0.37501228,-0.867155,-0.02548181,-0.497386,-0.3433106,-0.69291914,0.6340354,-0.36080465,0.7205649,0.5921201,,1.0738846198252892,0.3654088286768069,0.20848232070000003,0.8635031872692712,-0.10985574581141411,1.3657286305280671,-0.40149971455805855,,-0.9161941372664989,-0.275323149698978,0.17805580182000003,-0.8909725698657439,0.40635695030241986,-1.3962842595458076,0.5142071201907108,,-0.048596511360217115,-0.07013605599139214,0.08219610256,-0.07424845330935166,,5.814433e-05,-8.940697e-07,9.536743e-07,1.0,-5.189702e-05,-4.4822693e-05,5.1893294e-05,1.0,-5.751848e-06,4.4822693e-05,5.6922436e-06,1.0,249,0.75,1,1,0.077,False,-0.25773323775690704,0.6886687667330542
0.7698310539999511,16:56:36.621967,16:56:22.878299,0,,0.12962803,0.0011700541,0.016673744,-0.9768311,-0.012640085,-0.213638,-0.20509452,-0.22986254,0.95136714,-0.06113275,0.9731411,0.22194445,,0.05004183,-0.019917175,0.039234817,0.9043905,0.08192581,0.41876692,-0.4254257,0.24906921,0.87004447,-0.033022806,-0.96501434,0.26010916,,0.106723845,1.3421655,0.44153035,0.995604,0.021023529,-0.09127311,-0.04359874,-0.75844926,-0.65027213,-0.08289703,0.65139294,-0.7541985,,-0.09943036,0.25137043,-0.084795,0.9724953,-0.06898296,0.22247297,-0.16554391,0.4672092,0.86851066,-0.16385384,-0.8814516,0.44293904,,-0.018352708,0.41067028,-0.37500978,-0.8672401,-0.025450835,-0.49723926,-0.3431072,-0.69314826,0.6338951,-0.36079368,0.7203456,0.5923936,,1.0746028339825922,0.36431220060866704,0.20823861818000003,0.8544865196994368,-0.10247737482408034,1.3682883314432193,-0.40394987555007256,,-0.9161555236021278,-0.27530770423322953,0.17805580182000003,-0.8911822598092285,0.40622031380265444,-1.3960911629019708,0.5140437761245766,,-0.048596511360217115,-0.07013605599139214,0.08219610256,-0.07424845330935166,,5.814433e-05,-8.940697e-07,9.536743e-07,1.0,-5.189702e-05,-4.4822693e-05,5.1893294e-05,1.0,-5.751848e-06,4.4822693e-05,5.6922436e-06,1.0,266,0.802,1,1,0.129,False,-0.25677999426057063,0.6910827767720273
0.8024308450112585,16:56:36.676557,16:56:23.026534,0,,0.12959404,0.0007030368,0.016813293,-0.9754356,-0.028174587,-0.21847531,-0.20594983,-0.23528704,0.9498551,-0.07816617,0.97151756,0.22370479,,0.050033495,-0.019923627,0.03923714,0.9045242,0.0820615,0.41845173,-0.42516235,0.24893206,0.87021244,-0.03275509,-0.9650381,0.26005456,,0.106723845,1.3421655,0.44153035,0.995604,0.021023529,-0.09127311,-0.04359874,-0.75844926,-0.65027213,-0.08289703,0.65139294,-0.7541985,,-0.09942037,0.2511116,-0.08520932,0.97239566,-0.05352781,0.22711562,-0.17742951,0.46251997,0.86867374,-0.1515437,-0.8849916,0.440255,,-0.018344145,0.41066968,-0.3750163,-0.8674118,-0.025574394,-0.49693334,-0.34275627,-0.6932541,0.6339691,-0.36071447,0.7202393,0.592571,,1.0743479837977428,0.3622656763969975,0.20789510133000003,0.8463086119035402,-0.08621763135199292,1.3729172449941285,-0.4021530908225954,,-0.9161169099377567,-0.275323149698978,0.17804802408,-0.8916016396961977,0.406083677302889,-1.3962247812186959,0.5171473133811281,,-0.048596511360217115,-0.07013605599139214,0.08219610256,-0.07424845330935166,,5.814433e-05,-8.940697e-07,9.536743e-07,1.0,-5.189702e-05,-4.4822693e-05,5.1893294e-05,1.0,-5.751848e-06,4.4822693e-05,5.6922436e-06,1.0,274,0.827,1,1,0.154,False,-0.25815028178655464,0.6919035401852778
0.8570171900209971,16:56:36.703728,16:56:23.026534,0,,0.12936214,0.00046537817,0.016833946,-0.97452366,-0.029526532,-0.22233239,-0.20954275,-0.23359627,0.94948655,-0.07997104,0.9718853,0.22145796,,0.050051153,-0.019916654,0.039251864,0.9046683,0.082182854,0.41811618,-0.4248744,0.24883148,0.8703818,-0.032509997,-0.9650537,0.26002735,,0.106723845,1.3421655,0.44153035,0.995604,0.021023529,-0.09127311,-0.04359874,-0.75844926,-0.65027213,-0.08289703,0.65139294,-0.7541985,,-0.09919751,0.25095317,-0.08539883,0.9715253,-0.052161388,0.23112279,-0.18134828,0.4640749,0.8670336,-0.15248397,-0.8842588,0.44140115,,-0.018363312,0.410684,-0.37501854,-0.86759394,-0.025686868,-0.4966094,-0.34241265,-0.69333243,0.63406914,-0.36060265,0.7201599,0.5927355,,1.0749271887633094,0.3608060798837691,0.20775769459,0.8419051230903654,-0.08471462985457308,1.3720183630140301,-0.4031331552194013,,-0.916263641862367,-0.2752845360346069,0.17804543150000002,-0.8920210195831666,0.406083677302889,-1.3962247812186959,0.5168206252488596,,-0.048596511360217115,-0.07013605599139214,0.08219610256,-0.07424845330935166,,5.814433e-05,-8.940697e-07,9.536743e-07,1.0,-5.189702e-05,-4.4822693e-05,5.1893294e-05,1.0,-5.751848e-06,4.4822693e-05,5.6922436e-06,1.0,287,0.867,1,1,0.194,False,-0.25737577144578117,0.6920001005868368
0.8842005210171919,16:56:36.737755,16:56:23.026534,0,,0.12927948,0.00039212406,0.016850576,-0.9734522,-0.030113671,-0.22690055,-0.21389432,-0.23322892,0.94860613,-0.08148577,0.97195554,0.22059608,,0.050039224,-0.019913837,0.039250374,0.904759,0.08211372,0.41793346,-0.42468327,0.24875551,0.8704968,-0.032483533,-0.9650792,0.2599361,,0.106723845,1.3421655,0.44153035,0.995604,0.021023529,-0.09127311,-0.04359874,-0.75844926,-0.65027213,-0.08289703,0.65139294,-0.7541985,,-0.09911847,0.2509114,-0.08546579,0.9704523,-0.05157135,0.23571734,-0.18565214,0.46441504,0.8659399,-0.15412837,-0.88411486,0.44111833,,-0.018351534,0.41068542,-0.3750151,-0.86769956,-0.02561084,-0.4964288,-0.3422992,-0.69338685,0.63407093,-0.3604563,0.72011024,0.5928849,,1.0751588707495363,0.3603736068428125,0.20770584299000003,0.8370822543902212,-0.08471462985457308,1.3721000417541704,-0.40329649928553546,,-0.9162018599993732,-0.27525364510310996,0.17804154263000002,-0.8922307095266512,0.406083677302889,-1.3962247812186959,0.5168206252488596,,-0.048596511360217115,-0.07013605599139214,0.08219610256,-0.07424845330935166,,5.814433e-05,-8.940697e-07,9.536743e-07,1.0,-5.189702e-05,-4.4822693e-05,5.1893294e-05,1.0,-5.751848e-06,4.4822693e-05,5.6922436e-06,1.0,291,0.88,1,1,0.207,False,-0.25791197091247,0.691372457976704
0.9182263950060587,16:56:36.765638,16:56:23.026534,0,,0.12923034,0.00031846762,0.016955003,-0.9727405,-0.03755094,-0.22883555,-0.21439725,-0.23042503,0.9491776,-0.08837195,0.97236526,0.21609291,,0.05002194,-0.019918934,0.039239347,0.9048469,0.081962064,0.41777295,-0.42449635,0.24855211,0.870646,-0.032478422,-0.9651445,0.2596942,,0.106723845,1.3421655,0.44153035,0.995604,0.021023529,-0.09127311,-0.04359874,-0.75844926,-0.65027213,-0.08289703,0.65139294,-0.7541985,,-0.09907962,0.2509261,-0.085596256,0.97026056,-0.044112183,0.23800948,-0.19057988,0.46701658,0.86346674,-0.14924377,-0.88314754,0.4447209,,-0.018333146,0.41067517,-0.37501326,-0.8678005,-0.025440792,-0.49626115,-0.3422057,-0.69353336,0.6339612,-0.36030212,0.7199752,0.59314257,,1.0755372846603732,0.3599951929319755,0.20757232512,0.8335175253509843,-0.07815607786583194,1.3679771634788507,-0.4028064670871325,,-0.9160782962733856,-0.2752690905688584,0.17804154263000002,-0.8924403994701358,0.406083677302889,-1.3961431024785553,0.5169839693149939,,-0.048596511360217115,-0.07013605599139214,0.08219610256,-0.07424845330935166,,5.814433e-05,-8.940697e-07,9.536743e-07,1.0,-5.189702e-05,-4.4822693e-05,5.1893294e-05,1.0,-5.751848e-06,4.4822693e-05,5.6922436e-06,1.0,308,0.933,1,1,0.26,False,-0.25767366003838577,0.6901654529572174
0.9461002809985075,16:56:36.808574,16:56:23.026534,0,,0.12921298,0.00022898614,0.017259583,-0.969791,-0.05344227,-0.23801088,-0.21959418,-0.23361844,0.94720685,-0.106224604,0.9708586,0.21482545,,0.04995152,-0.01994513,0.03925073,0.90484965,0.08203392,0.4177528,-0.42450583,0.24824512,0.870729,-0.032275736,-0.9652174,0.25944838,,0.106723845,1.3421655,0.44153035,0.995604,0.021023529,-0.09127311,-0.04359874,-0.75844926,-0.65027213,-0.08289703,0.65139294,-0.7541985,,-0.09908833,0.25105953,-0.085884705,0.96855354,-0.028247835,0.24719639,-0.20631889,0.46409443,0.8614226,-0.13905579,-0.8853352,0.44367224,,-0.018262139,0.4106782,-0.37504017,-0.867818,-0.025485214,-0.4962282,-0.3420397,-0.6937634,0.633799,-0.36041746,0.71975195,0.59334344,,1.0762014396875565,0.35980984734299415,0.20724954891000003,0.8207264387984283,-0.06353597239092981,1.3682255800642775,-0.4032964992855357,,-0.9162173054651216,-0.2752845360346069,0.17803895005,-0.8926500894136201,0.406083677302889,-1.3958980662581335,0.5158405608520539,,-0.048596511360217115,-0.07013605599139214,0.08219610256,-0.07424845330935166,,5.814433e-05,-8.940697e-07,9.536743e-07,1.0,-5.189702e-05,-4.4822693e-05,5.1893294e-05,1.0,-5.751848e-06,4.4822693e-05,5.6922436e-06,1.0,316,0.958,1,1,0.285,False,-0.2580907040680329,0.6890067281385104
0.9890209090081044,16:56:36.843032,16:56:23.165023,0,,0.12926403,0.00015619397,0.01757425,-0.96676725,-0.062313534,-0.24794753,-0.22730565,-0.23440185,0.94519204,-0.11701761,0.9701407,0.21244773,,0.050021123,-0.01993902,0.039246023,0.9051269,0.0819581,0.41716665,-0.42392474,0.24817038,0.87103343,-0.032140195,-0.9652431,0.2593698,,0.10665478,1.3421707,0.44153392,0.9956064,0.021066925,-0.0912359,-0.043541778,-0.75844806,-0.6502774,-0.08289703,0.65139294,-0.7541985,,-0.099103905,0.25120938,-0.08616724,0.96617144,-0.019360064,0.2571729,-0.21926874,0.46329987,0.85864687,-0.13577163,-0.8859901,0.44338205,,-0.01826589,0.4106745,-0.3750328,-0.8681166,-0.025399495,-0.49571002,-0.34168404,-0.69382113,0.63392764,-0.3600355,0.7196993,0.593639,,1.0762941124820473,0.36011103392508886,0.2069267727,0.8087741120198105,-0.057114056901954105,1.367399590558136,-0.40362318741780423,,-0.9162327509308701,-0.2752613678359842,0.17804802408,-0.8932791592440738,0.40622031380265444,-1.3960094841618302,0.5148604964552483,,-0.048596511360217115,-0.07013605599139214,0.08219610256,-0.07424845330935166,,-1.1142343e-05,-4.053116e-06,1.1920929e-06,1.0,-8.743256e-06,-7.547438e-06,8.739531e-06,1.0,-9.834766e-07,7.5548887e-06,9.536743e-07,1.0,329,0.998,1,1,0.325,False,-0.25826943722359585,0.6883790855283776
1.0235054040094838,16:56:36.874547,16:56:23.165023,0,,0.12913266,0.00012084842,0.017869338,-0.96553767,-0.062894,-0.25254935,-0.23162487,-0.2348609,0.94402885,-0.11868769,0.96999216,0.21219915,,0.05002645,-0.019936219,0.03924817,0.90520203,0.08198698,0.41699794,-0.42377192,0.2481075,0.87112564,-0.03203936,-0.9652568,0.25933126,,0.10665478,1.3421707,0.44153392,0.9956064,0.021066925,-0.0912359,-0.043541778,-0.75844806,-0.6502774,-0.08289703,0.65139294,-0.7541985,,-0.09899675,0.2513807,-0.08642168,0.9649541,-0.018782953,0.2617458,-0.22365516,0.46287394,0.85774475,-0.1372663,-0.8862251,0.44245118,,-0.01827155,0.41067728,-0.37503168,-0.8682097,-0.025422778,-0.49554574,-0.3415263,-0.69386864,0.63396066,-0.35996068,0.7196527,0.59374094,,1.0770818312352182,0.3602654885825734,0.20663770003,0.8037415533761818,-0.056977420402188665,1.3673698513945802,-0.4037865314839384,,-0.9162713645952412,-0.27524592237023576,0.17804932037,-0.8934888491875583,0.40622031380265444,-1.3960094841618302,0.5148604964552483,,-0.048596511360217115,-0.07013605599139214,0.08219610256,-0.07424845330935166,,-1.1142343e-05,-4.053116e-06,1.1920929e-06,1.0,-8.743256e-06,-7.547438e-06,8.739531e-06,1.0,-9.834766e-07,7.5548887e-06,9.536743e-07,1.0,338,1.027,1,1,0.354,False,-0.2589247921273281,0.688041124122921
1.0550079189997632,16:56:36.904252,16:56:23.165023,0,,0.1289261,0.0001552701,0.018130794,-0.9637729,-0.06379417,-0.25898242,-0.23765391,-0.2354165,0.94239044,-0.12108774,0.9697987,0.21172708,,0.050034538,-0.019935519,0.039254427,0.90519464,0.08204521,0.4170025,-0.42379084,0.2481238,0.8711118,-0.03199771,-0.96524763,0.2593704,,0.10665478,1.3421707,0.44153392,0.9956064,0.021066925,-0.0912359,-0.043541778,-0.75844806,-0.6502774,-0.08289703,0.65139294,-0.7541985,,-0.09881011,0.2515847,-0.08661081,0.9632117,-0.017886437,0.26814774,-0.2298247,0.46235523,0.85639256,-0.13929732,-0.88651437,0.44123524,,-0.018280119,0.4106821,-0.37503457,-0.86820424,-0.025482535,-0.4955523,-0.34150025,-0.69385827,0.63398606,-0.3599986,0.7196606,0.5937084,,1.0783792503580878,0.3604353887058063,0.20640436783000002,0.7966120952977082,-0.056567510902892346,1.3671172764236315,-0.4039498755500728,,-0.9163331464582349,-0.27524592237023576,0.17804802408,-0.8934888491875583,0.40622031380265444,-1.3960094841618302,0.5145338083229795,,-0.048596511360217115,-0.07013605599139214,0.08219610256,-0.07424845330935166,,-1.1142343e-05,-4.053116e-06,1.1920929e-06,1.0,-8.743256e-06,-7.547438e-06,8.739531e-06,1.0,-9.834766e-07,7.5548887e-06,9.536743e-07,1.0,351,1.068,1,1,0.395,False,-0.25820985950507547,0.6852891526784921
1.0846990150166675,16:56:36.941875,16:56:23.165023,0,,0.12858067,0.00024285913,0.01836966,-0.9617034,-0.06151422,-0.26709998,-0.24566013,-0.23875189,0.9394939,-0.12156283,0.9691304,0.21449688,,0.05003904,-0.019936562,0.03925371,0.9052665,0.08199636,0.41685605,-0.42364484,0.24789459,0.871248,-0.031897187,-0.9653107,0.25914812,,0.10665478,1.3421707,0.44153392,0.9956064,0.021066925,-0.0912359,-0.043541778,-0.75844806,-0.6502774,-0.08289703,0.65139294,-0.7541985,,-0.098481834,0.251818,-0.086758636,0.96096176,-0.020200485,0.2759429,-0.23622604,0.4593369,0.856275,-0.14404793,-0.88803244,0.4366333,,-0.018284472,0.41068047,-0.37503514,-0.8682936,-0.025413087,-0.49539924,-0.341346,-0.6940269,0.63388455,-0.35992935,0.7195004,0.59394443,,1.0803717154396377,0.3604971705688001,0.20620733175000003,0.788224497558327,-0.05820714890007763,1.3700878660707998,-0.40264312302099836,,-0.9163563146568576,-0.27525364510310996,0.17805061666000002,-0.8936985391310427,0.40622031380265444,-1.395846126681549,0.5106135507357569,,-0.048596511360217115,-0.07013605599139214,0.08219610256,-0.07424845330935166,,-1.1142343e-05,-4.053116e-06,1.1920929e-06,1.0,-8.743256e-06,-7.547438e-06,8.739531e-06,1.0,-9.834766e-07,7.5548887e-06,9.536743e-07,1.0,373,1.138,1,1,0.465,False,-0.2589843698458485,0.6857719546862868
1.1222989350208081,16:56:37.017153,16:56:23.309769,0,,0.12825513,0.0004210174,0.018459573,-0.959207,-0.06257534,-0.27569193,-0.25358525,-0.24062282,0.9369073,-0.124965064,0.96859956,0.21493891,,0.050032508,-0.019916594,0.03925842,0.9053906,0.08206078,0.4165736,-0.42337215,0.24842465,0.87122965,-0.031993374,-0.96516895,0.25966364,,0.10665478,1.3421707,0.44153392,0.9956064,0.021066925,-0.0912359,-0.043541778,-0.75844806,-0.6502774,-0.08289703,0.65139294,-0.7541985,,-0.09815935,0.25202096,-0.0867338,0.9585146,-0.019154347,0.2843993,-0.24450378,0.45761096,0.8548743,-0.1465188,-0.8889462,0.43394345,,-0.018279735,0.41069564,-0.3750206,-0.8684289,-0.02552509,-0.49515626,-0.3412968,-0.69363546,0.63433933,-0.3596495,0.71987385,0.5936614,,1.0824645760485527,0.3605666751646681,0.20618399853000002,0.778578760158039,-0.057114056901954105,1.370748418903899,-0.4031331552194011,,-0.9163563146568576,-0.27513008137712236,0.17804802408,-0.8939082290745273,0.40635695030241986,-1.3963659382859483,0.5114302710664281,,-0.048596511360217115,-0.07013605599139214,0.08219610256,-0.07424845330935166,,-1.1142343e-05,-4.053116e-06,1.1920929e-06,1.0,-8.743256e-06,-7.547438e-06,8.739531e-06,1.0,-9.834766e-07,7.5548887e-06,9.536743e-07,1.0,395,1.207,1,1,0.534,False,-0.2586269035347226,0.6860616358909635
1.1976061949972063,16:56:37.082329,16:56:23.309769,0,,0.12811899,0.0005783886,0.018561617,-0.95654064,-0.06414428,-0.28445622,-0.26176602,-0.24094218,0.93457234,-0.12848496,0.9684175,0.21368015,,0.05001315,-0.019919157,0.03925544,0.90538526,0.08195732,0.4166057,-0.42338693,0.24810433,0.8713137,-0.03195116,-0.96526015,0.2593297,,0.10665478,1.3421707,0.44153392,0.9956064,0.021066925,-0.0912359,-0.043541778,-0.75844806,-0.6502774,-0.08289703,0.65139294,-0.7541985,,-0.09802715,0.25221056,-0.0867172,0.9558999,-0.01758559,0.29316577,-0.2530564,0.45729756,0.8525499,-0.14905658,-0.88913983,0.43268055,,-0.018260071,0.41069373,-0.3750208,-0.86842567,-0.0253928,-0.4951687,-0.3412683,-0.69387007,0.634098,-0.35968426,0.71965235,0.59390885,,1.0835998177810637,0.36106865280149275,0.20615288757000003,0.7689330227577508,-0.056977420402188665,1.3700652498192187,-0.40329649928553546,,-0.9162404736637443,-0.27512235864424817,0.17804024634,-0.8939082290745273,0.40622031380265444,-1.3960911629019708,0.5117569591986967,,-0.048596511360217115,-0.07013605599139214,0.08219610256,-0.07424845330935166,,-1.1142343e-05,-4.053116e-06,1.1920929e-06,1.0,-8.743256e-06,-7.547438e-06,8.739531e-06,1.0,-9.834766e-07,7.5548887e-06,9.536743e-07,1.0,408,1.248,1,1,0.575,False,-0.26005676877922745,0.6860616358909635
1.2627713740221225,16:56:37.123085,16:56:23.309769,0,,0.1281572,0.00069862604,0.018753543,-0.9533256,-0.07643771,-0.29210848,-0.26689684,-0.23906589,0.9336025,-0.14119561,0.96799016,0.20750663,,0.049980775,-0.01991646,0.039262176,0.90472275,0.08189905,0.4180539,-0.42473528,0.24899891,0.87040186,-0.0328099,-0.9650347,0.26006043,,0.10665478,1.3421707,0.44153392,0.9956064,0.021066925,-0.0912359,-0.043541778,-0.75844806,-0.6502774,-0.08289703,0.65139294,-0.7541985,,-0.09807667,0.25242615,-0.08677906,0.9535334,-0.0052481582,0.30124167,-0.26537257,0.45879528,0.84798837,-0.14265864,-0.8885265,0.43608388,,-0.018228572,0.4107041,-0.37502143,-0.8676069,-0.025414687,-0.49660087,-0.34263432,-0.69320416,0.63408965,-0.36036098,0.72029305,0.59272075,,1.0842176364110017,0.36173280782867606,0.20603103631000003,0.7582388356400401,-0.04768613841813872,1.3645308008713761,-0.4057466602775497,,-0.9160705735405114,-0.2750991904456255,0.17801950570000002,-0.8920210195831666,0.40622031380265444,-1.3962545203822518,0.5120836473309655,,-0.048596511360217115,-0.07013605599139214,0.08219610256,-0.07424845330935166,,-1.1142343e-05,-4.053116e-06,1.1920929e-06,1.0,-8.743256e-06,-7.547438e-06,8.739531e-06,1.0,-9.834766e-07,7.5548887e-06,9.536743e-07,1.0,417,1.277,1,1,0.604,False,-0.2588652144088064,0.6865444378987577
1.303553795994958,16:56:37.154401,16:56:23.309769,0,,0.12821029,0.0008394867,0.018992946,-0.9485288,-0.092368215,-0.3029209,-0.27257782,-0.24884686,0.92939585,-0.16122751,0.9641284,0.21086085,,0.04992204,-0.019923538,0.039277375,0.90422076,0.08156362,0.41920397,-0.42574352,0.24932322,0.86981624,-0.0335719,-0.96497947,0.26016843,,0.10665478,1.3421707,0.44153392,0.9956064,0.021066925,-0.0912359,-0.043541778,-0.75844806,-0.6502774,-0.08289703,0.65139294,-0.7541985,,-0.09814412,0.25268802,-0.08686177,0.95014024,0.010652814,0.3116408,-0.28296408,0.44936714,0.8473491,-0.13101448,-0.89328367,0.42997617,,-0.018170819,0.41071925,-0.3750344,-0.8669789,-0.025108002,-0.49771193,-0.34375644,-0.6929531,0.63375664,-0.3608034,0.72054535,0.59214467,,1.0850748597600406,0.3623892401229851,0.20587548151,0.7435605395961233,-0.03183630444534762,1.3692489319129528,-0.4031331552194013,,-0.9157925551570393,-0.2750914677127513,0.17797672813,-0.890553189978775,0.40622031380265444,-1.39600948416183,0.5119203032648311,,-0.048596511360217115,-0.07013605599139214,0.08219610256,-0.07424845330935166,,-1.1142343e-05,-4.053116e-06,1.1920929e-06,1.0,-8.743256e-06,-7.547438e-06,8.739531e-06,1.0,-9.834766e-07,7.5548887e-06,9.536743e-07,1.0,430,1.318,0,1,0.61,False,-0.2596993024681016,0.6864961576979787
1.3348670850100461,16:56:37.191299,16:56:23.519374,0,,0.12816505,0.00096829236,0.01928112,-0.94655657,-0.10314673,-0.3056,-0.27146158,-0.25690487,0.92752814,-0.17418161,0.96091664,0.21517462,,0.049817286,-0.019947395,0.039254308,0.9049787,0.08123696,0.41762882,-0.42419958,0.24768665,0.8710372,-0.032680646,-0.96542835,0.25861192,,0.10665478,1.3421707,0.44153392,0.9956064,0.021066925,-0.0912359,-0.043541778,-0.75844806,-0.6502774,-0.08289703,0.65139294,-0.7541985,,-0.09811767,0.25297582,-0.0869965,0.94920605,0.021417266,0.3139255,-0.29070038,0.44151002,0.84885937,-0.12042101,-0.8970007,0.42530996,,-0.018063197,0.41069788,-0.37504038,-0.86790884,-0.024634244,-0.49611226,-0.34227,-0.6941582,0.6332422,-0.35997984,0.7194009,0.59403443,,1.0862796060884194,0.36295299962280353,0.20566807511000001,0.7383182910090103,-0.0192657464669271,1.3730472280770587,-0.40476659588074404,,-0.9151747365271014,-0.27508374497987703,0.17793913572000003,-0.8926500894136201,0.40567376780359266,-1.3955638125470444,0.5119203032648311,,-0.048596511360217115,-0.07013605599139214,0.08219610256,-0.07424845330935166,,-1.1142343e-05,-4.053116e-06,1.1920929e-06,1.0,-8.743256e-06,-7.547438e-06,8.739531e-06,1.0,-9.834766e-07,7.5548887e-06,9.536743e-07,1.0,439,1.346,0,1,0.61,False,-0.2590439475643693,0.6864478774971992
1.3717588760191575,16:56:37.227891,16:56:23.519374,0,,0.12784903,0.0011658967,0.019646317,-0.9452065,-0.107595086,-0.30823356,-0.27333176,-0.25550067,0.92736685,-0.178534,0.9608032,0.21209171,,0.049660984,-0.019966304,0.039235473,0.90507257,0.080472596,0.4175735,-0.42396134,0.2473396,0.8712518,-0.033170596,-0.96558124,0.25797763,,0.10665478,1.3421707,0.44153392,0.9956064,0.021066925,-0.0912359,-0.043541778,-0.75844806,-0.6502774,-0.08289703,0.65139294,-0.7541985,,-0.09782538,0.25337413,-0.08716443,0.9481442,0.02589867,0.31678367,-0.2950104,0.4426251,0.8467892,-0.11828569,-0.8963327,0.4273128,,-0.017904973,0.41068792,-0.37504345,-0.86798155,-0.023838012,-0.49602398,-0.34256855,-0.69439185,0.6328244,-0.35952032,0.7192021,0.5945532,,1.0887199896766744,0.36356309551986726,0.20540881711000003,0.7337051122523508,-0.015030014974198449,1.368368091960361,-0.40460325181460965,,-0.9142943449794397,-0.2750374085826317,0.17787561751000003,-0.8926500894136201,0.40553713130382724,-1.395452394643348,0.5119203032648311,,-0.048596511360217115,-0.07013605599139214,0.08219610256,-0.07424845330935166,,-1.1142343e-05,-4.053116e-06,1.1920929e-06,1.0,-8.743256e-06,-7.547438e-06,8.739531e-06,1.0,-9.834766e-07,7.5548887e-06,9.536743e-07,1.0,452,1.387,0,1,0.61,False,-0.25880563669028556,0.6859167952886249
1.4082936980121303,16:56:37.265530,16:56:23.519374,0,,0.1275627,0.0013899058,0.019965068,-0.94175094,-0.117728665,-0.3150319,-0.27793264,-0.25499192,0.9261386,-0.18936363,0.9597496,0.20741817,,0.049510825,-0.019981325,0.03918612,0.9049607,0.0799302,0.41791987,-0.42417336,0.24682236,0.87129533,-0.03350915,-0.9657587,0.2572689,,0.10665478,1.3421707,0.44153392,0.9956064,0.021066925,-0.0912359,-0.043541778,-0.75844806,-0.6502774,-0.08289703,0.65139294,-0.7541985,,-0.09755835,0.2537609,-0.08727792,0.94540757,0.03609361,0.32388544,-0.30569792,0.44261715,0.842994,-0.11293056,-0.895984,0.42948735,,-0.01775081,0.4106536,-0.37502718,-0.8678297,-0.023248777,-0.49631757,-0.34295458,-0.6947581,0.63221306,-0.35951883,0.71886766,0.5949584,,1.0912067096621747,0.36408824135531453,0.20520529958000003,0.723430305021609,-0.00601200598967938,1.3629748000797708,-0.404929939946878,,-0.9133290033701617,-0.2749910721853863,0.17784061768,-0.8922307095266512,0.4049905853047655,-1.3951700805088434,0.5115936151325624,,-0.048596511360217115,-0.07013605599139214,0.08219610256,-0.07424845330935166,,-1.1142343e-05,-4.053116e-06,1.1920929e-06,1.0,-8.743256e-06,-7.547438e-06,8.739531e-06,1.0,-9.834766e-07,7.5548887e-06,9.536743e-07,1.0,465,1.428,0,1,0.61,False,-0.2588652144088064,0.6855305536823892
1.4459838320035487,16:56:37.302628,16:56:23.519374,0,,0.12740244,0.0015489012,0.020130694,-0.9394838,-0.124074385,-0.31933618,-0.280002,-0.25901031,0.92439854,-0.19740553,0.9578723,0.20859492,,0.049430817,-0.019989237,0.03916341,0.90504295,0.079807,0.4177654,-0.4240056,0.24645871,0.87147987,-0.033411726,-0.9658617,0.25689438,,0.10665478,1.3421707,0.44153392,0.9956064,0.021066925,-0.0912359,-0.043541778,-0.75844806,-0.6502774,-0.08289703,0.65139294,-0.7541985,,-0.09740697,0.2539943,-0.087309755,0.9437111,0.042450313,0.32803565,-0.31261122,0.43854657,0.842586,-0.10809086,-0.8977053,0.42713168,,-0.017668944,0.41063836,-0.37502033,-0.86793065,-0.023092907,-0.49614832,-0.34279257,-0.69502354,0.63200915,-0.3594297,0.718616,0.5953161,,1.0927358107712712,0.36441259613603194,0.20511844815000002,0.7171396067170732,0.0010930919981235235,1.3637970470389424,-0.4050932840130126,,-0.9128193030004628,-0.27495245852101524,0.17781858075,-0.8924403994701358,0.4045806758054692,-1.3951625417583164,0.5109402388680253,,-0.048596511360217115,-0.07013605599139214,0.08219610256,-0.07424845330935166,,-1.1142343e-05,-4.053116e-06,1.1920929e-06,1.0,-8.743256e-06,-7.547438e-06,8.739531e-06,1.0,-9.834766e-07,7.5548887e-06,9.536743e-07,1.0,474,1.457,0,1,0.61,False,-0.2589843698458485,0.6863995972964196
1.4830985500011593,16:56:37.337316,16:56:23.519374,0,,0.12721288,0.001670301,0.020230144,-0.93940306,-0.12540036,-0.31905556,-0.27912036,-0.26055896,0.92422986,-0.19903156,0.9572794,0.20976803,,0.0493816,-0.019985214,0.039150953,0.9051108,0.07968818,0.4176411,-0.4238336,0.24708867,0.8713852,-0.033755302,-0.9657106,0.25741723,,0.10665478,1.3421707,0.44153392,0.9956064,0.021066925,-0.0912359,-0.043541778,-0.75844806,-0.6502774,-0.08289703,0.65139294,-0.7541985,,-0.097222336,0.2541567,-0.087318964,0.94378084,0.043774232,0.32766068,-0.31301907,0.4370304,0.8432221,-0.10628629,-0.8983809,0.4261631,,-0.017619321,0.41063496,-0.37500936,-0.867984,-0.023030378,-0.49605787,-0.34299952,-0.6945531,0.6324139,-0.35910326,0.71907276,0.5949615,,1.094102734490009,0.36453615986201954,0.20507307800000002,0.7167202268301042,0.003689185493666892,1.3638854328525056,-0.403623187417804,,-0.9125412846169907,-0.2748906766580214,0.17780691414000002,-0.8924403994701358,0.4047173123052346,-1.395845710842997,0.5117569591986969,,-0.048596511360217115,-0.07013605599139214,0.08219610256,-0.07424845330935166,,-1.1142343e-05,-4.053116e-06,1.1920929e-06,1.0,-8.743256e-06,-7.547438e-06,8.739531e-06,1.0,-9.834766e-07,7.5548887e-06,9.536743e-07,1.0,487,1.498,0,1,0.61,False,-0.2594014138754961,0.6862547566940815
1.5177797200158238,16:56:37.377329,16:56:23.712226,0,,0.12713096,0.0016920269,0.020238891,-0.93604916,-0.1264033,-0.328381,-0.28786755,-0.26157755,0.92125434,-0.20234665,0.95686966,0.20846194,,0.04938178,-0.019984812,0.0391531,0.9051493,0.07986544,0.41752362,-0.4237767,0.24677882,0.8715006,-0.0334332,-0.96577513,0.25721684,,0.10665478,1.3421707,0.44153392,0.9956064,0.021066925,-0.0912359,-0.043541778,-0.75844806,-0.6502774,-0.08289703,0.65139294,-0.7541985,,-0.09714076,0.25418127,-0.0873175,0.94044924,0.044776887,0.33697215,-0.32188395,0.436024,0.84040093,-0.10929742,-0.8988204,0.42447144,,-0.017619701,0.410637,-0.37501016,-0.8680509,-0.023180056,-0.49593383,-0.34270138,-0.69478834,0.6323171,-0.35922617,0.71884066,0.59516776,,1.0945352075309656,0.3644512098004031,0.20507048542000003,0.706655109542847,0.0032792759943705706,1.3643013653037355,-0.40411321961620694,,-0.9125412846169907,-0.274875231192273,0.17780432156,-0.8926500894136201,0.4044440393057037,-1.3957045537757446,0.5119203032648311,,-0.048596511360217115,-0.07013605599139214,0.08219610256,-0.07424845330935166,,-1.1142343e-05,-4.053116e-06,1.1920929e-06,1.0,-8.743256e-06,-7.547438e-06,8.739531e-06,1.0,-9.834766e-07,7.5548887e-06,9.536743e-07,1.0,500,1.539,0,1,0.61,False,-0.2588652144088064,0.6865444378987577
1.5577677870169282,16:56:37.417627,16:56:23.712226,0,,0.12713584,0.0016938299,0.020238623,-0.9359064,-0.12632573,-0.32881728,-0.2882769,-0.26175097,0.921077,-0.202424,0.9568324,0.20855758,,0.04940156,-0.019980952,0.03916824,0.905211,0.0799696,0.41737002,-0.42365906,0.2466757,0.87158704,-0.033254594,-0.9657929,0.25717348,,0.10665478,1.3421707,0.44153392,0.9956064,0.021066925,-0.0912359,-0.043541778,-0.75844806,-0.6502774,-0.08289703,0.65139294,-0.7541985,,-0.097145565,0.2541823,-0.08731574,0.94030154,0.0446976,0.33739462,-0.3222472,0.43586665,0.84034336,-0.10949773,-0.8989006,0.42424977,,-0.01764079,0.41064975,-0.37501526,-0.868134,-0.023275089,-0.4957838,-0.34249496,-0.69486797,0.63234144,-0.35922208,0.71876055,0.59526694,,1.0945120393323429,0.3644743779990257,0.20507178171,0.706235729655878,0.00314263949460513,1.3644944619475725,-0.4042765636823411,,-0.9126957392744752,-0.27485978572652453,0.17780172898000002,-0.8928597793571047,0.4044440393057037,-1.395622875035604,0.5117569591986969,,-0.048596511360217115,-0.07013605599139214,0.08219610256,-0.07424845330935166,,-1.1142343e-05,-4.053116e-06,1.1920929e-06,1.0,-8.743256e-06,-7.547438e-06,8.739531e-06,1.0,-9.834766e-07,7.5548887e-06,9.536743e-07,1.0,509,1.568,0,1,0.61,False,-0.2593418361569748,0.6880894043237009
1.5980169560061768,16:56:37.448160,16:56:23.712226,0,,0.12720042,0.0017130971,0.02024807,-0.93385947,-0.13433507,-0.3314521,-0.2897303,-0.25917315,0.92135,-0.20967309,0.9564432,0.20311028,,0.049402565,-0.019980282,0.039170444,0.9052874,0.080148876,0.4171699,-0.42350277,0.24695626,0.8715835,-0.03316629,-0.9657063,0.2575097,,0.10665478,1.3421707,0.44153392,0.9956064,0.021066925,-0.0912359,-0.043541778,-0.75844806,-0.6502774,-0.08289703,0.65139294,-0.7541985,,-0.0972101,0.25420108,-0.0873052,0.9387804,0.05278211,0.34044874,-0.32816893,0.43778998,0.8370455,-0.104864016,-0.8975266,0.4283101,,-0.017642006,0.4106519,-0.3750159,-0.86822766,-0.023479655,-0.49561015,-0.34234607,-0.6946658,0.6326441,-0.35913768,0.7189493,0.5950899,,1.094450257469349,0.3645207143962711,0.20507567058,0.701412860955734,0.00901800898451907,1.3595401346083453,-0.40394987555007256,,-0.9127111847402237,-0.2748520629936503,0.17780043269,-0.8930694693005892,0.4044440393057037,-1.3960312687363068,0.5132270557939053,,-0.048596511360217115,-0.07013605599139214,0.08219610256,-0.07424845330935166,,-1.1142343e-05,-4.053116e-06,1.1920929e-06,1.0,-8.743256e-06,-7.547438e-06,8.739531e-06,1.0,-9.834766e-07,7.5548887e-06,9.536743e-07,1.0,522,1.609,0,1,0.61,False,-0.25922268071993226,0.688330805327598
1.628599760006182,16:56:37.485664,16:56:23.712226,0,,0.12720728,0.0017894208,0.020278394,-0.9309919,-0.14135522,-0.33656007,-0.29299426,-0.26057422,0.91992146,-0.21773456,0.95504963,0.2011762,,0.04940089,-0.019983754,0.03916812,0.905266,0.08023972,0.4171987,-0.42355728,0.24685389,0.871586,-0.033051297,-0.96572495,0.25745472,,0.10665478,1.3421707,0.44153392,0.9956064,0.021066925,-0.0912359,-0.043541778,-0.75844806,-0.6502774,-0.08289703,0.65139294,-0.7541985,,-0.097217135,0.25427827,-0.087277226,0.9364536,0.059846904,0.34564877,-0.33601233,0.436028,0.8348505,-0.10074932,-0.89794093,0.42842928,,-0.017639924,0.4106483,-0.37501758,-0.8682114,-0.023561416,-0.49563476,-0.34227535,-0.6947445,0.63259596,-0.35924438,0.7188706,0.5951206,,1.094820948647312,0.36468289178662977,0.20508344832000003,0.6942834028772602,0.015030014974198449,1.358313290152028,-0.40476659588074404,,-0.912688016541601,-0.2748675084593987,0.17780043269,-0.8930694693005892,0.4043074028059383,-1.396001529572751,0.5133903998600396,,-0.048596511360217115,-0.07013605599139214,0.08219610256,-0.07424845330935166,,-1.1142343e-05,-4.053116e-06,1.1920929e-06,1.0,-8.743256e-06,-7.547438e-06,8.739531e-06,1.0,-9.834766e-07,7.5548887e-06,9.536743e-07,1.0,535,1.65,0,1,0.61,False,-0.259580147031059,0.68818596472526
1.6661350009962916,16:56:37.526587,16:56:23.712226,0,,0.12714276,0.0020791888,0.020402119,-0.92548215,-0.15730949,-0.34458128,-0.29605424,-0.2670745,0.9170732,-0.23629315,0.95074975,0.20060048,,0.049396098,-0.019988328,0.03916526,0.905323,0.08027789,0.4170676,-0.42344987,0.24659017,0.8717129,-0.032865494,-0.9657892,0.25723743,,0.10665478,1.3421707,0.44153392,0.9956064,0.021066925,-0.0912359,-0.043541778,-0.75844806,-0.6502774,-0.08289703,0.65139294,-0.7541985,,-0.09715428,0.2545797,-0.087184325,0.9323096,0.075897254,0.3536076,-0.35068312,0.4287823,0.83256656,-0.088431165,-0.9002141,0.42637378,,-0.01763462,0.41064397,-0.37501988,-0.86828977,-0.023576014,-0.49549672,-0.34206775,-0.6949411,0.6324923,-0.3592527,0.7186801,0.5953457,,1.096442722550899,0.36533160134806464,0.20510159638000003,0.6817020062681887,0.031016485446754984,1.3578559214011932,-0.4050932840130126,,-0.9126494028772298,-0.2748829539251472,0.17779913640000003,-0.8932791592440738,0.4041707663061728,-1.3958901116690545,0.5133903998600396,,-0.048596511360217115,-0.07013605599139214,0.08219610256,-0.07424845330935166,,-1.1142343e-05,-4.053116e-06,1.1920929e-06,1.0,-8.743256e-06,-7.547438e-06,8.739531e-06,1.0,-9.834766e-07,7.5548887e-06,9.536743e-07,1.0,544,1.678,0,1,0.61,False,-0.25975888018662197,0.6877031627174652
1.7070310169947334,16:56:37.548033,16:56:23.712226,0,,0.12700549,0.0023843944,0.020525113,-0.9220966,-0.16191438,-0.35145628,-0.30039877,-0.27300054,0.9139099,-0.24392289,0.9482903,0.20309392,,0.04939703,-0.019991025,0.03916669,0.9053188,0.08028845,0.41707483,-0.4234599,0.24657887,0.8717112,-0.032853514,-0.9657912,0.25723147,,0.10665478,1.3421707,0.44153392,0.9956064,0.021066925,-0.0912359,-0.043541778,-0.75844806,-0.6502774,-0.08289703,0.65139294,-0.7541985,,-0.09701842,0.25489444,-0.08708628,0.9294029,0.08051054,0.36017826,-0.35907152,0.42284098,0.8320295,-0.08531098,-0.9026204,0.42189866,,-0.017635461,0.41064364,-0.37502292,-0.8682858,-0.023585564,-0.49550334,-0.34206244,-0.6949498,0.6324856,-0.35926744,0.7186714,0.5953473,,1.0981108328517315,0.36623516109434895,0.20512233702000002,0.6731047185853232,0.03634530893760716,1.3601266011084183,-0.40591000434368385,,-0.9126648483429783,-0.27490612212376986,0.17779784011000002,-0.8932791592440738,0.4041707663061728,-1.3958901116690545,0.5133903998600396,,-0.048596511360217115,-0.07013605599139214,0.08219610256,-0.07424845330935166,,-1.1142343e-05,-4.053116e-06,1.1920929e-06,1.0,-8.743256e-06,-7.547438e-06,8.739531e-06,1.0,-9.834766e-07,7.5548887e-06,9.536743e-07,1.0,557,1.719,0,1,0.61,False,-0.25975888018662197,0.6865444378987577
1.7284730760147795,16:56:37.591157,16:56:23.712226,0,,0.12683025,0.0029291362,0.020722732,-0.9210232,-0.16769338,-0.35156095,-0.29893872,-0.27429545,0.9140009,-0.24970347,0.94691133,0.20250234,,0.04939978,-0.019997776,0.039167106,0.90548134,0.08003081,0.41677144,-0.42311782,0.2461062,0.8720108,-0.03278236,-0.9659331,0.2567071,,0.10665478,1.3421707,0.44153392,0.9956064,0.021066925,-0.0912359,-0.043541778,-0.75844806,-0.6502774,-0.08289703,0.65139294,-0.7541985,,-0.09684378,0.2554397,-0.08688959,0.92882025,0.086340226,0.36033082,-0.36180532,0.4211315,0.8317122,-0.07993644,-0.9028807,0.42239383,,-0.017637758,0.41064018,-0.37502894,-0.8684768,-0.023285385,-0.49518263,-0.34183928,-0.6952916,0.6322306,-0.35901803,0.71835047,0.59588474,,1.100713393830345,0.36817356704577925,0.20518585523000002,0.6703787493200244,0.04235731492728654,1.3563677157077438,-0.40525662807914675,,-0.9126802938087267,-0.27493701305526674,0.17779784011000002,-0.8936985391310427,0.4043074028059383,-1.3955114571319076,0.5120836473309653,,-0.048596511360217115,-0.07013605599139214,0.08219610256,-0.07424845330935166,,-1.1142343e-05,-4.053116e-06,1.1920929e-06,1.0,-8.743256e-06,-7.547438e-06,8.739531e-06,1.0,-9.834766e-07,7.5548887e-06,9.536743e-07,1.0,570,1.76,0,1,0.61,False,-0.2593418361569748,0.687172080508891
1.7716017060156446,16:56:37.632640,16:56:23.712226,0,,0.12669797,0.003582701,0.02090241,-0.92041326,-0.1711809,-0.3514774,-0.29753083,-0.27648517,0.9138006,-0.25360346,0.9456496,0.203549,,0.04939253,-0.020005226,0.039164424,0.9056134,0.07984932,0.41651925,-0.42281246,0.24657652,0.8720261,-0.033073172,-0.9658282,0.2570644,,0.10665478,1.3421707,0.44153392,0.9956064,0.021066925,-0.0912359,-0.043541778,-0.75844806,-0.6502774,-0.08289703,0.65139294,-0.7541985,,-0.096707515,0.2560538,-0.086604565,0.9285529,0.08985207,0.36016116,-0.36332798,0.4187573,0.832247,-0.076041,-0.90364206,0.42148408,,-0.017629817,0.4106347,-0.37503368,-0.8686074,-0.02314582,-0.4949601,-0.34193826,-0.6949376,0.63256615,-0.35860765,0.7186974,0.5957135,,1.1031615001514743,0.3705521687710404,0.20531289165000002,0.6689109197156327,0.045909863921187996,1.354124280132761,-0.4042765636823411,,-0.9126494028772298,-0.2749833494525121,0.17779654382,-0.8939082290745273,0.4047173123052346,-1.396009068323278,0.5120836473309652,,-0.048596511360217115,-0.07013605599139214,0.08219610256,-0.07424845330935166,,-1.1142343e-05,-4.053116e-06,1.1920929e-06,1.0,-8.743256e-06,-7.547438e-06,8.739531e-06,1.0,-9.834766e-07,7.5548887e-06,9.536743e-07,1.0,583,1.801,0,1,0.61,False,-0.2594014138754961,0.686206476493302
1.8130941510025878,16:56:37.670878,16:56:24.008324,0,,0.1266703,0.004088506,0.02102314,-0.91919374,-0.17414007,-0.35321087,-0.29816163,-0.27817756,0.91308105,-0.25725934,0.9446124,0.20377716,,0.04938125,-0.02001889,0.03916478,0.9055876,0.07977027,0.41659045,-0.42287585,0.24613711,0.87211955,-0.032969177,-0.9659468,0.25663167,,0.10665478,1.3421707,0.44153392,0.9956064,0.021066925,-0.0912359,-0.043541778,-0.75844806,-0.6502774,-0.08289703,0.65139294,-0.7541985,,-0.096675105,0.2565148,-0.08636454,0.9276021,0.09283394,0.361851,-0.3662431,0.4168893,0.83190703,-0.07362261,-0.90420413,0.4207072,,-0.017617675,0.41062903,-0.37504527,-0.8685852,-0.023027357,-0.4950045,-0.34188098,-0.69526047,0.63224226,-0.35871595,0.7183889,0.59602034,,1.1047214921920676,0.3725986929827099,0.20543474291000002,0.6657655705633648,0.04823268441720047,1.3523118545100625,-0.4044399077484755,,-0.9125798982813619,-0.2750451313155059,0.17778746979,-0.8939082290745273,0.4045806758054692,-1.3956526141991599,0.5114302710664281,,-0.048596511360217115,-0.07013605599139214,0.08219610256,-0.07424845330935166,,-1.1142343e-05,-4.053116e-06,1.1920929e-06,1.0,-8.743256e-06,-7.547438e-06,8.739531e-06,1.0,-9.834766e-07,7.5548887e-06,9.536743e-07,1.0,592,1.83,0,1,0.61,False,-0.2602355019347904,0.6858202348870663
1.8513491670018993,16:56:37.708436,16:56:24.008324,0,,0.12670225,0.004307866,0.021066919,-0.9180911,-0.1764726,-0.35491687,-0.29894644,-0.2796724,0.91236746,-0.2602683,0.94373775,0.20400888,,0.0493697,-0.020028844,0.039167523,0.9055659,0.07982966,0.41662627,-0.42293,0.24600452,0.87213063,-0.03287007,-0.96597564,0.25653574,,0.10665478,1.3421707,0.44153392,0.9956064,0.021066925,-0.0912359,-0.043541778,-0.75844806,-0.6502774,-0.08289703,0.65139294,-0.7541985,,-0.09670417,0.25670776,-0.08625065,0.9267135,0.095184274,0.36351335,-0.3688453,0.4152583,0.831573,-0.071799256,-0.9047102,0.41993374,,-0.017605698,0.4106273,-0.37505493,-0.8685674,-0.02307495,-0.4950336,-0.34182346,-0.6953605,0.6321634,-0.3588139,0.71829057,0.5960799,,1.105208024363144,0.3735408663933653,0.20549826112000003,0.6632492912415505,0.050145595413916645,1.351977184960421,-0.40656338060822095,,-0.9125181164183681,-0.27508374497987703,0.17777709947,-0.8939082290745273,0.4044440393057037,-1.395622875035604,0.5104502066696227,,-0.048596511360217115,-0.07013605599139214,0.08219610256,-0.07424845330935166,,-1.1142343e-05,-4.053116e-06,1.1920929e-06,1.0,-8.743256e-06,-7.547438e-06,8.739531e-06,1.0,-9.834766e-07,7.5548887e-06,9.536743e-07,1.0,605,1.871,0,1,0.61,False,-0.2590439475643693,0.6858685150878459
1.8888971630076412,16:56:37.747272,16:56:24.008324,0,,0.12683347,0.004382059,0.021092132,-0.9135643,-0.18871647,-0.36025837,-0.3010926,-0.28163275,0.91105783,-0.27339217,0.9407811,0.20046845,,0.049353033,-0.020034745,0.03917384,0.90561014,0.08007391,0.41648328,-0.42285678,0.24594593,0.87218267,-0.03259331,-0.9659704,0.256591,,0.10665478,1.3421707,0.44153392,0.9956064,0.021066925,-0.0912359,-0.043541778,-0.75844806,-0.6502774,-0.08289703,0.65139294,-0.7541985,,-0.09683484,0.2567763,-0.08621073,0.92315525,0.10756015,0.36907348,-0.3792253,0.41220316,0.8284182,-0.06302846,-0.9047206,0.42131704,,-0.017589187,0.41063124,-0.37506297,-0.86863756,-0.023314193,-0.4948992,-0.34155563,-0.69541156,0.6322519,-0.3588991,0.7182334,0.5960975,,1.1050999061029048,0.37380343931108895,0.20552159434000003,0.6544423136152004,0.060803242395621,1.3494124939826424,-0.406400036542087,,-0.9124408890896258,-0.27508374497987703,0.17776154399000002,-0.8941179190180119,0.4041707663061728,-1.3958084329289138,0.511266927000294,,-0.048596511360217115,-0.07013605599139214,0.08219610256,-0.07424845330935166,,-1.1142343e-05,-4.053116e-06,1.1920929e-06,1.0,-8.743256e-06,-7.547438e-06,8.739531e-06,1.0,-9.834766e-07,7.5548887e-06,9.536743e-07,1.0,614,1.899,0,1,0.61,False,-0.2594014138754961,0.6853374328792716
1.9277182340156287,16:56:37.773267,16:56:24.008324,0,,0.12692097,0.0043472946,0.02110888,-0.910504,-0.19712064,-0.363491,-0.30079997,-0.28742942,0.9093425,-0.28372818,0.9372982,0.20241174,,0.0493366,-0.020039141,0.039178133,0.905618,0.080315225,0.41641966,-0.42287862,0.24530354,0.87235296,-0.032085985,-0.96611357,0.256115,,0.10665478,1.3421707,0.44153392,0.9956064,0.021066925,-0.0912359,-0.043541778,-0.75844806,-0.6502774,-0.08289703,0.65139294,-0.7541985,,-0.09692429,0.25675854,-0.08623944,0.92091143,0.11604254,0.37209713,-0.3858925,0.40579942,0.8285009,-0.054855447,-0.9065655,0.41848525,,-0.017572857,0.4106342,-0.37506863,-0.8686825,-0.023498291,-0.4948116,-0.34113917,-0.69589436,0.6319455,-0.35918623,0.7177596,0.5964951,,1.1048913923153005,0.373564034591988,0.2055008537,0.6494097549715719,0.07036779737920183,1.3523131556823067,-0.4042765636823411,,-0.9123482162951351,-0.2750682995141286,0.17774728480000002,-0.8943276089614964,0.4036242203071111,-1.395444440054269,0.5111035829341596,,-0.048596511360217115,-0.07013605599139214,0.08219610256,-0.07424845330935166,,-1.1142343e-05,-4.053116e-06,1.1920929e-06,1.0,-8.743256e-06,-7.547438e-06,8.739531e-06,1.0,-9.834766e-07,7.5548887e-06,9.536743e-07,1.0,627,1.94,0,1,0.61,False,-0.26041423509035333,0.6862547566940815
1.9536672430112958,16:56:37.812143,16:56:24.163095,0,,0.12693262,0.0042862147,0.021176055,-0.9075127,-0.20178208,-0.36838102,-0.30404505,-0.2895117,0.90760106,-0.28978828,0.93566394,0.20138472,,0.049292903,-0.020048589,0.039168,0.90564597,0.080105074,0.41639945,-0.42280594,0.24529186,0.87239146,-0.032256395,-0.96613395,0.25601658,,0.10665478,1.3421707,0.44153392,0.9956064,0.021066925,-0.0912359,-0.043541778,-0.75844806,-0.6502774,-0.08289703,0.65139294,-0.7541985,,-0.0969428,0.25675637,-0.08632905,0.9183072,0.1207561,0.37700117,-0.39240938,0.40329605,0.8266603,-0.05221882,-0.9070668,0.4177355,,-0.017527962,0.41062513,-0.37507045,-0.8687024,-0.0232869,-0.4947867,-0.34124786,-0.6958963,0.63188463,-0.3590349,0.71776456,0.5965802,,1.1048605013838038,0.37333235260576125,0.20541659485000002,0.6431190566670362,0.07460352887193049,1.3525347439740427,-0.40574666027754946,,-0.9120856433774115,-0.27508374497987703,0.17773302561,-0.8943276089614964,0.4036242203071111,-1.3955261187944095,0.5112669270002937,,-0.048596511360217115,-0.07013605599139214,0.08219610256,-0.07424845330935166,,-1.1142343e-05,-4.053116e-06,1.1920929e-06,1.0,-8.743256e-06,-7.547438e-06,8.739531e-06,1.0,-9.834766e-07,7.5548887e-06,9.536743e-07,1.0,640,1.981,0,1,0.61,False,-0.2591631030014119,0.6853374328792716
1.9926130720123183,16:56:37.858760,16:56:24.163095,0,,0.126943,0.004328102,0.021366045,-0.9030669,-0.21324673,-0.37282148,-0.30624646,-0.28890562,0.9070539,-0.30113652,0.9333056,0.19559506,,0.04923826,-0.020056829,0.039153576,0.90568537,0.07986018,0.41636065,-0.42270422,0.24534637,0.87242544,-0.032480538,-0.96614045,0.25596398,,0.10665478,1.3421707,0.44153392,0.9956064,0.021066925,-0.0912359,-0.043541778,-0.75844806,-0.6502774,-0.08289703,0.65139294,-0.7541985,,-0.096966654,0.25691253,-0.08644311,0.9146909,0.13238105,0.38185832,-0.40166104,0.4025432,0.82257366,-0.044821303,-0.9057782,0.4213749,,-0.01747194,0.41061416,-0.37506875,-0.8687317,-0.023046637,-0.4947465,-0.34138793,-0.6958483,0.6318619,-0.3588308,0.7178189,0.5966376,,1.1053547562877541,0.37355631185911375,0.20527400295000003,0.6347314589276553,0.08403144735574587,1.347052234602785,-0.4023164348887298,,-0.9117535658638198,-0.27508374497987703,0.17771747013000003,-0.8943276089614964,0.4036242203071111,-1.3956894762746905,0.5115936151325625,,-0.048596511360217115,-0.07013605599139214,0.08219610256,-0.07424845330935166,,-1.1142343e-05,-4.053116e-06,1.1920929e-06,1.0,-8.743256e-06,-7.547438e-06,8.739531e-06,1.0,-9.834766e-07,7.5548887e-06,9.536743e-07,1.0,649,2.01,0,1,0.61,False,-0.2598780356236645,0.6859167952886249
2.039218455000082,16:56:37.887217,16:56:24.163095,0,,0.12688917,0.0044402927,0.021499649,-0.9027034,-0.21443763,-0.37301874,-0.30555564,-0.29087362,0.9066578,-0.30292284,0.93242115,0.19704989,,0.049199816,-0.020066857,0.039144754,0.90570784,0.07961273,0.41635916,-0.42264485,0.24519372,0.87249714,-0.032626763,-0.9661996,0.2557219,,0.10665478,1.3421707,0.44153392,0.9956064,0.021066925,-0.0912359,-0.043541778,-0.75844806,-0.6502774,-0.08289703,0.65139294,-0.7541985,,-0.09692017,0.25708643,-0.08647357,0.9144859,0.13358112,0.38193148,-0.4023264,0.4005155,0.823238,-0.043000422,-0.90650064,0.420009,,-0.017432328,0.41060537,-0.37507188,-0.86874706,-0.022785326,-0.4947316,-0.3414826,-0.69595325,0.6316951,-0.35870346,0.71772546,0.59682655,,1.106072970445057,0.3740660122288126,0.20520529958000003,0.6341023890972016,0.08594435835246203,1.3476977099348302,-0.40443990774847527,,-0.9115218838775931,-0.2751069131784997,0.17770450723000003,-0.8943276089614964,0.4036242203071111,-1.39560779753455,0.5114302710664284,,-0.048596511360217115,-0.07013605599139214,0.08219610256,-0.07424845330935166,,-1.1142343e-05,-4.053116e-06,1.1920929e-06,1.0,-8.743256e-06,-7.547438e-06,8.739531e-06,1.0,-9.834766e-07,7.5548887e-06,9.536743e-07,1.0,662,2.051,0,1,0.61,False,-0.25975888018662197,0.6849994714738155
2.0676689250103664,16:56:37.920148,16:56:24.163095,0,,0.12680279,0.0046245754,0.021596655,-0.903188,-0.21312116,-0.37260002,-0.30485055,-0.2926168,0.90633416,-0.302188,0.9321774,0.19931778,,0.04915218,-0.020088747,0.039130986,0.9057252,0.07938089,0.4163657,-0.42259482,0.24511173,0.8725444,-0.032792777,-0.96623945,0.2555499,,0.10665478,1.3421707,0.44153392,0.9956064,0.021066925,-0.0912359,-0.043541778,-0.75844806,-0.6502774,-0.08289703,0.65139294,-0.7541985,,-0.09683641,0.25729153,-0.086431704,0.91493183,0.1322391,0.38133004,-0.401298,0.3990037,0.82447314,-0.04312452,-0.90736365,0.4181285,,-0.017382367,0.4105871,-0.37508222,-0.86875516,-0.022545937,-0.49472833,-0.3415984,-0.6960064,0.6315739,-0.35857353,0.71768147,0.5969575,,1.1070228665885866,0.37478422638611547,0.20519881813000002,0.6347314589276553,0.08553444885316572,1.3487670723071845,-0.4042765636823411,,-0.9112206972954984,-0.2751918632401162,0.17768895175000002,-0.8943276089614964,0.4036242203071111,-1.3956894762746905,0.5102868626034883,,-0.048596511360217115,-0.07013605599139214,0.08219610256,-0.07424845330935166,,-1.1142343e-05,-4.053116e-06,1.1920929e-06,1.0,-8.743256e-06,-7.547438e-06,8.739531e-06,1.0,-9.834766e-07,7.5548887e-06,9.536743e-07,1.0,675,2.092,0,1,0.61,False,-0.25975888018662197,0.6837441862535494
2.10059984200052,16:56:37.968795,16:56:24.163095,0,,0.12691842,0.0047321916,0.021655798,-0.9030962,-0.2127536,-0.3730321,-0.30505842,-0.29355636,0.9059603,-0.3022522,0.93196607,0.20020732,,0.04912097,-0.020084277,0.039136946,0.9058061,0.07926889,0.4162111,-0.42242748,0.24481195,0.8727095,-0.03271474,-0.9663248,0.25523752,,0.10671867,1.3421667,0.4415389,0.9956051,0.021043306,-0.09125615,-0.04357278,-0.7584487,-0.6502745,-0.08289703,0.65139294,-0.7541985,,-0.09701228,0.25740242,-0.08638818,0.91482925,0.13185373,0.3817093,-0.401521,0.398141,0.82478154,-0.0432236,-0.9077986,0.4171731,,-0.017413426,0.41058943,-0.37507474,-0.8688686,-0.022408834,-0.4945354,-0.34143338,-0.696222,0.6314255,-0.35845593,0.71747667,0.5972743,,1.107694744348644,0.3754252132146761,0.20521437361000003,0.6343120790406862,0.08539781235340027,1.3488784902108808,-0.4042765636823411,,-0.9109504016449005,-0.2752922587674811,0.17766043337,-0.8945372989049808,0.4034875838073457,-1.3956597371111346,0.5091434541405483,,-0.048596511360217115,-0.07013605599139214,0.08219610256,-0.07424845330935166,,5.222857e-05,3.5762787e-06,-5.722046e-06,1.0,-3.2227486e-05,-2.783537e-05,3.2227486e-05,1.0,-3.5762787e-06,2.783537e-05,3.5464764e-06,1.0,684,2.121,0,1,0.61,False,-0.2596993024681016,0.684033867458226
2.149217439000495,16:56:38.002567,16:56:24.333515,0,,0.1268899,0.004826635,0.021697477,-0.9030488,-0.21294059,-0.37304026,-0.3049012,-0.29394174,0.9058883,-0.30255243,0.93180186,0.20051783,,0.049069777,-0.020112395,0.039150894,0.90581363,0.07937728,0.4161739,-0.42244494,0.24404657,0.8729155,-0.03227617,-0.96650946,0.2545933,,0.10671867,1.3421667,0.4415389,0.9956051,0.021043306,-0.09125615,-0.04357278,-0.7584487,-0.6502745,-0.08289703,0.65139294,-0.7541985,,-0.09698442,0.25750178,-0.086359486,0.9148096,0.13204196,0.38169146,-0.4016015,0.39774853,0.82493174,-0.042891603,-0.9079433,0.4168924,,-0.017361598,0.41059166,-0.37510502,-0.8689083,-0.022448976,-0.49446377,-0.34107268,-0.6967908,0.6309929,-0.35870296,0.716923,0.5977906,,1.1081117719238522,0.3757959043926389,0.20521955877000003,0.6341023890972016,0.08567108535293116,1.3486556544034882,-0.4042765636823411,,-0.9106955514600511,-0.27536948609622336,0.17761635951000002,-0.8947469888484654,0.4029410378082839,-1.3952957442364893,0.5093067982066827,,-0.048596511360217115,-0.07013605599139214,0.08219610256,-0.07424845330935166,,5.222857e-05,3.5762787e-06,-5.722046e-06,1.0,-3.2227486e-05,-2.783537e-05,3.2227486e-05,1.0,-3.5762787e-06,2.783537e-05,3.5464764e-06,1.0,697,2.162,0,1,0.61,False,-0.25963972474957986,0.6824889010332837
2.1829454690159764,16:56:38.032562,16:56:24.333515,0,,0.12686037,0.0048487335,0.021707222,-0.9027521,-0.21292663,-0.37376565,-0.30555514,-0.29417807,0.9055912,-0.30277812,0.9317304,0.20050895,,0.0490015,-0.02013214,0.039149463,0.9058673,0.07934341,0.41606364,-0.42230314,0.24484849,0.87275946,-0.032624856,-0.96630937,0.25530723,,0.10671867,1.3421667,0.4415389,0.9956051,0.021043306,-0.09125615,-0.04357278,-0.7584487,-0.6502745,-0.08289703,0.65139294,-0.7541985,,-0.09695513,0.2575257,-0.086354524,0.91451293,0.13202694,0.38240677,-0.402251,0.3975232,0.82472384,-0.043129787,-0.90804416,0.41664806,,-0.017292202,0.41058704,-0.3751197,-0.868945,-0.022486694,-0.49439752,-0.34129837,-0.6961974,0.63152564,-0.35839918,0.7174981,0.5972826,,1.1083125629785822,0.37582679532413577,0.20521955877000003,0.6332636293232635,0.08567108535293116,1.3486556544034882,-0.4042765636823411,,-0.9103325830149626,-0.2754158224934687,0.17758135968000002,-0.8947469888484654,0.4030776743080493,-1.396305628281732,0.5068566372146686,,-0.048596511360217115,-0.07013605599139214,0.08219610256,-0.07424845330935166,,5.222857e-05,3.5762787e-06,-5.722046e-06,1.0,-3.2227486e-05,-2.783537e-05,3.2227486e-05,1.0,-3.5762787e-06,2.783537e-05,3.5464764e-06,1.0,710,2.203,0,1,0.61,False,-0.2596993024681016,0.6809922148091205
2.2130057940084953,16:56:38.078866,16:56:24.333515,0,,0.12685081,0.004824713,0.02172932,-0.9026736,-0.21292168,-0.37395805,-0.30575562,-0.29415828,0.9055299,-0.30280983,0.9317378,0.20042688,,0.048936896,-0.020146504,0.039140046,0.90586954,0.07944679,0.41603893,-0.4223404,0.24380955,0.8730322,-0.03207463,-0.9665636,0.25441322,,0.10671867,1.3421667,0.4415389,0.9956051,0.021043306,-0.09125615,-0.04357278,-0.7584487,-0.6502745,-0.08289703,0.65139294,-0.7541985,,-0.09694798,0.25752243,-0.0863876,0.9144315,0.132022,0.38260314,-0.4024251,0.39754274,0.8246295,-0.043231867,-0.9080363,0.4166546,,-0.017226212,0.41057807,-0.37512565,-0.86898655,-0.022497388,-0.49432397,-0.34085318,-0.696968,0.63091576,-0.35872197,0.71674925,0.59798753,,1.1083202857114562,0.37575729072826775,0.20518844781,0.6330539393797789,0.08567108535293116,1.3486556544034882,-0.4042765636823411,,-0.9099310009055028,-0.27540809976059444,0.1775528413,-0.89495667879195,0.4022578553094566,-1.395718799599694,0.5063666050162657,,-0.048596511360217115,-0.07013605599139214,0.08219610256,-0.07424845330935166,,5.222857e-05,3.5762787e-06,-5.722046e-06,1.0,-3.2227486e-05,-2.783537e-05,3.2227486e-05,1.0,-3.5762787e-06,2.783537e-05,3.5464764e-06,1.0,719,2.231,0,1,0.61,False,-0.259282258438454,0.6811853356122382
2.2593348910158966,16:56:38.111358,16:56:24.333515,0,,0.12684993,0.0047697723,0.021789953,-0.9026633,-0.2129392,-0.3739729,-0.3057983,-0.29406124,0.905547,-0.30279738,0.9317645,0.2003218,,0.04889206,-0.020152062,0.03912884,0.9059033,0.07922446,0.41600776,-0.42225376,0.24381575,0.87307245,-0.032260537,-0.9665802,0.25432637,,0.10671867,1.3421667,0.4415389,0.9956051,0.021043306,-0.09125615,-0.04357278,-0.7584487,-0.6502745,-0.08289703,0.65139294,-0.7541985,,-0.09695334,0.25752097,-0.08646925,0.9144191,0.13204011,0.38262653,-0.40244937,0.3976339,0.8245737,-0.043268476,-0.9079938,0.41674352,,-0.017180376,0.41057026,-0.37512356,-0.86901206,-0.022275433,-0.4942892,-0.34096825,-0.6969562,0.6308666,-0.35855076,0.7167676,0.5980682,,1.1082507811155882,0.3756723406666513,0.20510937412000002,0.6330539393797789,0.08567108535293116,1.3486556544034882,-0.4042765636823411,,-0.9096529825220308,-0.27540037702772024,0.17753987840000002,-0.89495667879195,0.4022578553094566,-1.3958004783398348,0.5065299490823999,,-0.048596511360217115,-0.07013605599139214,0.08219610256,-0.07424845330935166,,5.222857e-05,3.5762787e-06,-5.722046e-06,1.0,-3.2227486e-05,-2.783537e-05,3.2227486e-05,1.0,-3.5762787e-06,2.783537e-05,3.5464764e-06,1.0,732,2.272,0,1,0.61,False,-0.2598780356236645,0.6811370554114586
2.2918261190061457,16:56:38.146333,16:56:24.333515,0,,0.12684205,0.004631415,0.022035673,-0.90202194,-0.21601237,-0.3737578,-0.3053375,-0.2927898,0.9061144,-0.30516437,0.9314574,0.1981461,,0.04886096,-0.020155847,0.03912419,0.9059261,0.07905548,0.4159904,-0.42219555,0.24377528,0.87311196,-0.032383874,-0.96660423,0.25421932,,0.10671867,1.3421667,0.4415389,0.9956051,0.021043306,-0.09125615,-0.04357278,-0.7584487,-0.6502745,-0.08289703,0.65139294,-0.7541985,,-0.09696832,0.2575786,-0.08674498,0.9139756,0.13516225,0.38259605,-0.4036779,0.39848065,0.8235638,-0.041142378,-0.9071628,0.4187636,,-0.017148826,0.41056752,-0.37512374,-0.8690294,-0.022102688,-0.49426654,-0.34104425,-0.6969806,0.6307986,-0.35843655,0.71674925,0.59815866,,1.1082662265813368,0.3755487769406637,0.20482937548000002,0.632215179605841,0.08813054234870908,1.3464050959165308,-0.40476659588074404,,-0.9094830823987978,-0.275392654294846,0.17752821179000003,-0.89495667879195,0.4022578553094566,-1.3958004783398348,0.5065299490823999,,-0.048596511360217115,-0.07013605599139214,0.08219610256,-0.07424845330935166,,5.222857e-05,3.5762787e-06,-5.722046e-06,1.0,-3.2227486e-05,-2.783537e-05,3.2227486e-05,1.0,-3.5762787e-06,2.783537e-05,3.5464764e-06,1.0,741,2.301,0,1,0.61,False,-0.2589843698458485,0.6810887752106791
2.3268047330202535,16:56:38.176547,16:56:24.333515,0,,0.12685438,0.0045126826,0.02228488,-0.9000876,-0.22204661,-0.3748833,-0.30546933,-0.29193956,0.90634423,-0.31069395,0.9303046,0.19494268,,0.048850093,-0.020159096,0.039129496,0.906007,0.07901539,0.4158217,-0.422026,0.24367914,0.87322074,-0.0323292,-0.96663177,0.25412163,,0.10671867,1.3421667,0.4415389,0.9956051,0.021043306,-0.09125615,-0.04357278,-0.7584487,-0.6502745,-0.08289703,0.65139294,-0.7541985,,-0.09700317,0.25765273,-0.08700889,0.912471,0.14128894,0.3839715,-0.40747067,0.3985423,0.821664,-0.036936864,-0.90620166,0.42122942,,-0.017138194,0.4105714,-0.37512907,-0.8691259,-0.022053987,-0.4940989,-0.3409173,-0.6970502,0.6307903,-0.35832322,0.71668303,0.5983059,,1.1083048402457079,0.375456104146173,0.20455845087000002,0.6290698304535731,0.09318609284003039,1.3433444571015907,-0.40427656368234133,,-0.9094444687344267,-0.275392654294846,0.17751784147000002,-0.8951663687354345,0.4022578553094566,-1.3958004783398348,0.5065299490823999,,-0.048596511360217115,-0.07013605599139214,0.08219610256,-0.07424845330935166,,5.222857e-05,3.5762787e-06,-5.722046e-06,1.0,-3.2227486e-05,-2.783537e-05,3.2227486e-05,1.0,-3.5762787e-06,2.783537e-05,3.5464764e-06,1.0,754,2.342,0,1,0.61,False,-0.2607121236829584,0.6812336158130177
2.357016577007016,16:56:38.229420,16:56:24.549430,0,,0.12694786,0.0043623447,0.022839025,-0.8922877,-0.24318469,-0.38037324,-0.3017237,-0.3055185,0.90311754,-0.3358354,0.9206083,0.19923577,,0.048844576,-0.020161986,0.0391348,0.9061606,0.079034686,0.4154833,-0.4217081,0.2435767,0.8734028,-0.032172963,-0.96665597,0.2540492,,0.10671867,1.3421667,0.4415389,0.9956051,0.021043306,-0.09125615,-0.04357278,-0.7584487,-0.6502745,-0.08289703,0.65139294,-0.7541985,,-0.09714335,0.25790113,-0.08751591,0.90674347,0.16272356,0.38902098,-0.42141458,0.38257313,0.8222211,-0.015034221,-0.9094827,0.41546977,,-0.017132912,0.41057494,-0.37513423,-0.8693128,-0.022064155,-0.49376956,-0.340634,-0.69712645,0.6308591,-0.3581392,0.7166086,0.59850514,,1.1087373132866645,0.3753248176873112,0.20401919423000003,0.6185853332793468,0.11846384529663687,1.3484609480620298,-0.40525662807914675,,-0.9094367460015524,-0.275392654294846,0.17751006373000003,-0.8955857486224035,0.4022578553094566,-1.395882157079975,0.5066932931485341,,-0.048596511360217115,-0.07013605599139214,0.08219610256,-0.07424845330935166,,5.222857e-05,3.5762787e-06,-5.722046e-06,1.0,-3.2227486e-05,-2.783537e-05,3.2227486e-05,1.0,-3.5762787e-06,2.783537e-05,3.5464764e-06,1.0,767,2.383,0,1,0.61,False,-0.2594609915940169,0.6811370554114586
2.409892563999165,16:56:38.262327,16:56:24.549430,0,,0.12692343,0.0043329746,0.02313292,-0.88811094,-0.25117746,-0.38492703,-0.30001986,-0.31765392,0.899491,-0.34820542,0.9143336,0.20675367,,0.048845243,-0.020160928,0.039138496,0.9061604,0.079013675,0.41548768,-0.42170903,0.24351618,0.8734193,-0.0321659,-0.966673,0.2539855,,0.10671867,1.3421667,0.4415389,0.9956051,0.021043306,-0.09125615,-0.04357278,-0.7584487,-0.6502745,-0.08289703,0.65139294,-0.7541985,,-0.0971425,0.258073,-0.087757364,0.9035836,0.1708336,0.3928773,-0.42839003,0.36954919,0.8245698,-0.004323257,-0.91337246,0.407102,,-0.017133923,0.41057852,-0.3751353,-0.8693131,-0.02203772,-0.4937702,-0.3406285,-0.69717044,0.6308134,-0.3581437,0.7165666,0.59855276,,1.1094014683138478,0.3753016494886885,0.20376382510000002,0.6129237048052647,0.13048785727599563,1.3562171016669655,-0.40394987555007256,,-0.9094521914673009,-0.2753849315619718,0.17750747115,-0.8955857486224035,0.4022578553094566,-1.3958004783398348,0.5065299490823999,,-0.048596511360217115,-0.07013605599139214,0.08219610256,-0.07424845330935166,,5.222857e-05,3.5762787e-06,-5.722046e-06,1.0,-3.2227486e-05,-2.783537e-05,3.2227486e-05,1.0,-3.5762787e-06,2.783537e-05,3.5464764e-06,1.0,776,2.411,0,1,0.61,False,-0.26041423509035333,0.6816681376200324
2.4427973669953644,16:56:38.285943,16:56:24.549430,0,,0.12676506,0.004388228,0.023304194,-0.88730055,-0.25087586,-0.38698703,-0.30040532,-0.32228526,0.8977131,-0.34993473,0.9127944,0.21059933,,0.048835747,-0.020162448,0.039141357,0.90614706,0.079179764,0.4154852,-0.42174456,0.24364185,0.8733671,-0.032076597,-0.9666277,0.25416902,,0.10671867,1.3421667,0.4415389,0.9956051,0.021043306,-0.09125615,-0.04357278,-0.7584487,-0.6502745,-0.08289703,0.65139294,-0.7541985,,-0.096996345,0.25823194,-0.08786149,0.90289867,0.17052203,0.39458364,-0.42984143,0.36504155,0.8258214,-0.0032186823,-0.9152414,0.40289298,,-0.017124595,0.41058114,-0.37513793,-0.8693042,-0.022215167,-0.49377808,-0.3405703,-0.6970831,0.63094133,-0.35822082,0.7166461,0.59841144,,1.110513541847736,0.37540976774892765,0.20363160352,0.611036495313904,0.1324007682727118,1.3597213329039306,-0.4042765636823411,,-0.9094058550700556,-0.27537720882909755,0.17749969341000002,-0.8955857486224035,0.40212121880969126,-1.3960157753967004,0.5068566372146684,,-0.048596511360217115,-0.07013605599139214,0.08219610256,-0.07424845330935166,,5.222857e-05,3.5762787e-06,-5.722046e-06,1.0,-3.2227486e-05,-2.783537e-05,3.2227486e-05,1.0,-3.5762787e-06,2.783537e-05,3.5464764e-06,1.0,789,2.452,0,1,0.61,False,-0.2602950796533112,0.6817646980215915
2.466382017999422,16:56:38.329675,16:56:24.549430,0,,0.12652344,0.00455977,0.023409232,-0.8856136,-0.253819,-0.38892728,-0.3014496,-0.3228925,0.89714473,-0.35329407,0.9117656,0.20944428,,0.04879858,-0.020174548,0.03913933,0.9061267,0.07916613,0.41553217,-0.4217968,0.24332759,0.8734295,-0.03196442,-0.966708,0.2538777,,0.10671867,1.3421667,0.4415389,0.9956051,0.021043306,-0.09125615,-0.04357278,-0.7584487,-0.6502745,-0.08289703,0.65139294,-0.7541985,,-0.09675884,0.25843734,-0.08784591,0.9014475,0.17351763,0.3965906,-0.43288666,0.3639955,0.8246917,-0.0012586329,-0.91509503,0.4032363,,-0.017086625,0.41057688,-0.37514642,-0.8692888,-0.022173481,-0.493807,-0.34050086,-0.6973145,0.6307231,-0.3583241,0.71642226,0.5986176,,1.1122743249430593,0.3755564996735379,0.20360956659,0.6072620763311826,0.1358166807668478,1.3575076364925038,-0.40509328401301237,,-0.9091896185495772,-0.27540037702772024,0.17748024906,-0.8955857486224035,0.40184794581016037,-1.3958746183294481,0.5073466694130712,,-0.048596511360217115,-0.07013605599139214,0.08219610256,-0.07424845330935166,,5.222857e-05,3.5762787e-06,-5.722046e-06,1.0,-3.2227486e-05,-2.783537e-05,3.2227486e-05,1.0,-3.5762787e-06,2.783537e-05,3.5464764e-06,1.0,802,2.493,0,1,0.61,False,-0.26041423509035333,0.6818129782223714
2.51014861400472,16:56:38.368822,16:56:24.549430,0,,0.12627836,0.0047582835,0.023448095,-0.88591456,-0.2535315,-0.38842893,-0.3006117,-0.3239255,0.8970535,-0.3532533,0.9114791,0.21075568,,0.048740156,-0.020192578,0.039135277,0.90652,0.07893045,0.4147183,-0.42097524,0.24264044,0.87401676,-0.031640902,-0.9669,0.25318617,,0.10671867,1.3421667,0.4415389,0.9956051,0.021043306,-0.09125615,-0.04357278,-0.7584487,-0.6502745,-0.08289703,0.65139294,-0.7541985,,-0.09651202,0.25861964,-0.08776325,0.9017678,0.17322426,0.3959901,-0.43222013,0.36302093,0.8254705,-0.000761191,-0.91553766,0.4022316,,-0.01702694,0.4105699,-0.37515843,-0.8697622,-0.02187633,-0.49298596,-0.33983624,-0.69781345,0.6305297,-0.3578059,0.7159454,0.5994974,,1.1140042171068856,0.37575729072826775,0.20365623303000002,0.6072620763311826,0.13690977276497132,1.357269723184057,-0.40541997214528114,,-0.9088729865017341,-0.27542354522634294,0.17745173068000003,-0.896634198339826,0.4017113093103949,-1.3957632004257516,0.5073466694130712,,-0.048596511360217115,-0.07013605599139214,0.08219610256,-0.07424845330935166,,5.222857e-05,3.5762787e-06,-5.722046e-06,1.0,-3.2227486e-05,-2.783537e-05,3.2227486e-05,1.0,-3.5762787e-06,2.783537e-05,3.5464764e-06,1.0,811,2.522,0,1,0.61,False,-0.26041423509035333,0.6814750168169148
2.5492654900008347,16:56:38.403450,16:56:24.721673,0,,0.12613794,0.004867241,0.023418754,-0.8853214,-0.2531999,-0.38999453,-0.301888,-0.32492197,0.89626414,-0.35365173,0.9112166,0.21122223,,0.04866564,-0.020214394,0.03913033,0.9073995,0.078847446,0.41280648,-0.41916427,0.24096632,0.8753493,-0.030453414,-0.9673253,0.2517028,,0.10671867,1.3421667,0.4415389,0.9956051,0.021043306,-0.09125615,-0.04357278,-0.7584487,-0.6502745,-0.08289703,0.65139294,-0.7541985,,-0.096366756,0.25868654,-0.087680355,0.9011716,0.17288613,0.39749223,-0.43346062,0.36208826,0.82522964,-0.0012565033,-0.9159708,0.401243,,-0.01695092,0.41056183,-0.37517288,-0.87085414,-0.021644121,-0.49106476,-0.33797163,-0.6990431,0.63016975,-0.3569149,0.7147519,0.6014495,,1.1149077768531699,0.3757495679953935,0.20372623269,0.6053748668398219,0.13718304576450221,1.357455281077367,-0.40591000434368385,,-0.9084714043922745,-0.2754158224934687,0.17741413827000002,-0.8991504776616405,0.40116476331133316,-1.3953992075511068,0.507183325346937,,-0.048596511360217115,-0.07013605599139214,0.08219610256,-0.07424845330935166,,5.222857e-05,3.5762787e-06,-5.722046e-06,1.0,-3.2227486e-05,-2.783537e-05,3.2227486e-05,1.0,-3.5762787e-06,2.783537e-05,3.5464764e-06,1.0,846,2.633,0,1,0.61,False,-0.2612483231496481,0.6821992198286067
2.5838988960022107,16:56:38.504528,16:56:24.721673,0,,0.12604849,0.0050364286,0.023320302,-0.8803662,-0.25935328,-0.39710346,-0.30731967,-0.32579455,0.89409876,-0.36126152,0.9091721,0.2071141,,0.0482942,-0.02029784,0.03906721,0.90899944,0.07812247,0.4094102,-0.41580415,0.23773655,0.87783146,-0.028753415,-0.9681829,0.24858609,,0.10671867,1.3421667,0.4415389,0.9956051,0.021043306,-0.09125615,-0.04357278,-0.7584487,-0.6502745,-0.08289703,0.65139294,-0.7541985,,-0.09626527,0.25875184,-0.08750218,0.89666843,0.17915209,0.4048336,-0.44270098,0.36027014,0.8211098,0.00125406,-0.9154835,0.40235367,,-0.016570825,0.41050246,-0.37520313,-0.87281036,-0.02063153,-0.48762324,-0.3349341,-0.70138925,0.6291838,-0.35499474,0.71247977,0.6052696,,1.1157263865378375,0.3757495679953935,0.2038934541,0.5953097495525647,0.14210195975605808,1.3542610239457014,-0.4055833162114153,,-0.9062935937217431,-0.27542354522634294,0.17726895379000002,-0.9035539664748155,0.39952512531414786,-1.3952056950687175,0.5068566372146683,,-0.048596511360217115,-0.07013605599139214,0.08219610256,-0.07424845330935166,,5.222857e-05,3.5762787e-06,-5.722046e-06,1.0,-3.2227486e-05,-2.783537e-05,3.2227486e-05,1.0,-3.5762787e-06,2.783537e-05,3.5464764e-06,1.0,855,2.661,0,1,0.61,False,-0.2602355019347904,0.6822957802301657
2.684989283006871,16:56:38.542453,16:56:24.883929,0,,0.12596151,0.00509727,0.02334787,-0.8784887,-0.25972575,-0.40099886,-0.30994612,-0.32891044,0.89204895,-0.36358076,0.907943,0.20844305,,0.048140444,-0.020330295,0.039025605,0.9095936,0.07806119,0.40810028,-0.4145531,0.23673543,0.8786932,-0.02801998,-0.9684331,0.24769357,,0.10671867,1.3421667,0.4415389,0.9956051,0.021043306,-0.09125615,-0.04357278,-0.7584487,-0.6502745,-0.08289703,0.65139294,-0.7541985,,-0.09617901,0.25881836,-0.08748946,0.8949027,0.17953086,0.4085558,-0.4462591,0.35712734,0.8205564,0.0014087376,-0.9166399,0.3997115,,-0.01641245,0.4104659,-0.3752057,-0.87354475,-0.020481417,-0.48631275,-0.33371803,-0.7021199,0.629015,-0.35433298,0.7117641,0.6064981,,1.116328759702027,0.375765013461142,0.20389475039000002,0.5911159506828741,0.14333168825394704,1.3561170187173532,-0.4044399077484755,,-0.9053359748453392,-0.27542354522634294,0.17722228735,-0.9052314860226917,0.39870530631555523,-1.3955173325282257,0.5071833253469371,,-0.048596511360217115,-0.07013605599139214,0.08219610256,-0.07424845330935166,,5.222857e-05,3.5762787e-06,-5.722046e-06,1.0,-3.2227486e-05,-2.783537e-05,3.2227486e-05,1.0,-3.5762787e-06,2.783537e-05,3.5464764e-06,1.0,868,2.702,0,1,0.61,False,-0.26005676877922745,0.682006099025489
2.722927688009804,16:56:38.576573,16:56:24.883929,0,,0.12584415,0.0051834136,0.023391768,-0.877624,-0.2630298,-0.4007385,-0.30908993,-0.32847074,0.892508,-0.36638707,0.90715075,0.20697388,,0.048057303,-0.020357296,0.039001286,0.91071093,0.078308485,0.40555316,-0.41221076,0.23465785,0.880351,-0.026227295,-0.9689187,0.24598515,,0.10671867,1.3421667,0.4415389,0.9956051,0.021043306,-0.09125615,-0.04357278,-0.7584487,-0.6502745,-0.08289703,0.65139294,-0.7541985,,-0.096063025,0.25891557,-0.08747471,0.89428157,0.18289728,0.40842262,-0.44748554,0.35703573,0.81992817,0.0041411775,-0.91600984,0.40113434,,-0.016326012,0.41043958,-0.37521413,-0.8749566,-0.020544896,-0.4837653,-0.33108723,-0.7036458,0.62870014,-0.353316,0.71025383,0.6088574,,1.1172323194483114,0.375765013461142,0.20389475039000002,0.589857811021967,0.14674760074808305,1.3537399648256456,-0.4049299399468782,,-0.9048185517427663,-0.27542354522634294,0.17719506526,-0.9085865251184441,0.39774885081719713,-1.3953091583833348,0.5073466694130715,,-0.048596511360217115,-0.07013605599139214,0.08219610256,-0.07424845330935166,,5.222857e-05,3.5762787e-06,-5.722046e-06,1.0,-3.2227486e-05,-2.783537e-05,3.2227486e-05,1.0,-3.5762787e-06,2.783537e-05,3.5464764e-06,1.0,877,2.731,0,1,0.61,False,-0.2594014138754961,0.6821509396278271
2.757009722001385,16:56:38.609679,16:56:24.883929,0,,0.1256245,0.0053578466,0.023479298,-0.8738449,-0.26858446,-0.40528673,-0.31163755,-0.3304243,0.89089954,-0.37319833,0.9048106,0.20503864,,0.047992725,-0.020366147,0.038995266,0.91045696,0.07820079,0.40614352,-0.41273445,0.2354038,0.8799063,-0.026798397,-0.9687464,0.24660128,,0.10671867,1.3421667,0.4415389,0.9956051,0.021043306,-0.09125615,-0.04357278,-0.7584487,-0.6502745,-0.08289703,0.65139294,-0.7541985,,-0.09584597,0.259111,-0.087442435,0.89096975,0.18855906,0.4130598,-0.45399463,0.3541916,0.8175801,0.007859816,-0.91596603,0.40117878,,-0.016260702,0.41043645,-0.37521723,-0.87462395,-0.02050314,-0.48436823,-0.33181894,-0.70309776,0.62892747,-0.35345322,0.71079755,0.6081428,,1.1189158752148922,0.37582679532413577,0.20389604668000003,0.5825186630000087,0.15262297023799698,1.3513993571709162,-0.4042765636823411,,-0.9044478605648034,-0.27542354522634294,0.17716784317,-0.907747765344506,0.39774885081719713,-1.3958809095643188,0.5078367016114742,,-0.048596511360217115,-0.07013605599139214,0.08219610256,-0.07424845330935166,,5.222857e-05,3.5762787e-06,-5.722046e-06,1.0,-3.2227486e-05,-2.783537e-05,3.2227486e-05,1.0,-3.5762787e-06,2.783537e-05,3.5464764e-06,1.0,890,2.772,0,1,0.61,False,-0.2607717014014801,0.6888136073353928
2.790130876004696,16:56:38.647429,16:56:24.883929,0,,0.12539816,0.005568996,0.023561671,-0.87088853,-0.27454916,-0.40764672,-0.3111825,-0.3339732,0.8897344,-0.38041893,0.90171206,0.20541859,,0.047986798,-0.020373642,0.03900361,0.9106396,0.079154916,0.40554893,-0.41239783,0.23528993,0.88009465,-0.02575776,-0.9686966,0.24690762,,0.10671867,1.3421667,0.4415389,0.9956051,0.021043306,-0.09125615,-0.04357278,-0.7584487,-0.6502745,-0.08289703,0.65139294,-0.7541985,,-0.09562084,0.25933084,-0.087382615,0.88859355,0.19464333,0.41534984,-0.4584879,0.34966,0.8170231,0.013796874,-0.9164343,0.39994723,,-0.016254919,0.41044018,-0.3752279,-0.8749083,-0.021447968,-0.48381338,-0.33078137,-0.70321244,0.62934566,-0.35372177,0.7106562,0.60815185,,1.1207770538375805,0.3759426363172491,0.20392197248000002,0.5776957942998646,0.16027461422486164,1.3506324301533343,-0.40541997214528114,,-0.9044169696333065,-0.27542354522634294,0.17715358398000003,-0.9085865251184441,0.3969290318186045,-1.3965192619843891,0.5140437761245767,,-0.048596511360217115,-0.07013605599139214,0.08219610256,-0.07424845330935166,,5.222857e-05,3.5762787e-06,-5.722046e-06,1.0,-3.2227486e-05,-2.783537e-05,3.2227486e-05,1.0,-3.5762787e-06,2.783537e-05,3.5464764e-06,1.0,903,2.813,0,1,0.61,False,-0.2604738128088746,0.6893929697447461
2.8278707140125334,16:56:38.684347,16:56:24.883929,0,,0.12519574,0.005723417,0.023567334,-0.8706658,-0.2739252,-0.40854132,-0.31130776,-0.33618584,0.888857,-0.38082606,0.9010795,0.20743045,,0.04799488,-0.020385087,0.03900683,0.9108438,0.07914553,0.40509194,-0.41196543,0.23485133,0.88041425,-0.02545555,-0.96880376,0.24651814,,0.10671867,1.3421667,0.4415389,0.9956051,0.021043306,-0.09125615,-0.04357278,-0.7584487,-0.6502745,-0.08289703,0.65139294,-0.7541985,,-0.09541522,0.25945684,-0.0873008,0.8883995,0.19400828,0.41606146,-0.45885655,0.34755975,0.817712,0.014036673,-0.91736746,0.39779386,,-0.016262399,0.41043606,-0.37523946,-0.87516475,-0.021399753,-0.4833516,-0.3303198,-0.7035322,0.6292307,-0.3535188,0.71034104,0.60863787,,1.1221439775563182,0.37600441818024294,0.20398160182000002,0.5766473445824419,0.1612310697232197,1.351812794590833,-0.4064000365420868,,-0.9044710287634261,-0.27547760435646246,0.17715228769000002,-0.9092155949488976,0.3969290318186045,-1.396355904504108,0.5133903998600395,,-0.048596511360217115,-0.07013605599139214,0.08219610256,-0.07424845330935166,,5.222857e-05,3.5762787e-06,-5.722046e-06,1.0,-3.2227486e-05,-2.783537e-05,3.2227486e-05,1.0,-3.5762787e-06,2.783537e-05,3.5464764e-06,1.0,912,2.842,0,1,0.61,False,-0.2604738128088746,0.6821992198286067
2.8647719300061,16:56:38.718362,16:56:24.883929,0,,0.12498896,0.0058954805,0.023538604,-0.869825,-0.27334374,-0.41071573,-0.3131698,-0.33735466,0.8877593,-0.3812203,0.9008191,0.20783645,,0.04799787,-0.020407423,0.039003134,0.9110413,0.07866868,0.40474036,-0.41154623,0.23340926,0.8809936,-0.025163561,-0.9691911,0.24502125,,0.10671867,1.3421667,0.4415389,0.9956051,0.021043306,-0.09125615,-0.04357278,-0.7584487,-0.6502745,-0.08289703,0.65139294,-0.7541985,,-0.095202096,0.25957364,-0.087181956,0.88753986,0.19341615,0.41816643,-0.4605426,0.34649137,0.8172174,0.0131719895,-0.91789645,0.39660126,,-0.016263533,0.41042092,-0.37525648,-0.8754128,-0.020794969,-0.48292848,-0.32987309,-0.7045679,0.6283055,-0.3533215,0.7093318,0.60992813,,1.1235031785421816,0.37607392277611096,0.20407882357,0.5739213753171432,0.16136770622298516,1.3517013766871364,-0.4064000365420868,,-0.9044710287634261,-0.27560116808245005,0.17715228769000002,-0.9098446647793511,0.3969290318186045,-1.3951307234019996,0.5080000456776085,,-0.048596511360217115,-0.07013605599139214,0.08219610256,-0.07424845330935166,,5.222857e-05,3.5762787e-06,-5.722046e-06,1.0,-3.2227486e-05,-2.783537e-05,3.2227486e-05,1.0,-3.5762787e-06,2.783537e-05,3.5464764e-06,1.0,925,2.882,0,1,0.61,False,-0.2602950796533112,0.679881770191193
2.8988341719959863,16:56:38.764838,16:56:25.094285,0,,0.124884814,0.0060354024,0.023469254,-0.8696733,-0.27342296,-0.4109845,-0.31322628,-0.33782503,0.8875605,-0.38152024,0.9006188,0.20815402,,0.04800092,-0.020470113,0.03899342,0.9115677,0.078708835,0.40354568,-0.41039184,0.23375651,0.8814399,-0.024954304,-0.9691042,0.24538639,,0.10671867,1.3421667,0.4415389,0.9956051,0.021043306,-0.09125615,-0.04357278,-0.7584487,-0.6502745,-0.08289703,0.65139294,-0.7541985,,-0.095089026,0.25963646,-0.08704594,0.8874101,0.19349739,0.4184042,-0.46078685,0.34600788,0.8172845,0.013371269,-0.91806173,0.39621195,,-0.016261432,0.4103795,-0.37530458,-0.8760331,-0.020865863,-0.48179927,-0.3291439,-0.70431626,0.6289697,-0.35246304,0.70957965,0.6101365,,1.124275451829604,0.3761820410363501,0.20420197112000002,0.5732923054866895,0.16191425222204694,1.3514190625526319,-0.4057466602775497,,-0.9044633060305519,-0.27596413652753865,0.1771509914,-0.9113124943837428,0.3974755778176663,-1.3963115036780502,0.5045698202887885,,-0.048596511360217115,-0.07013605599139214,0.08219610256,-0.07424845330935166,,5.222857e-05,3.5762787e-06,-5.722046e-06,1.0,-3.2227486e-05,-2.783537e-05,3.2227486e-05,1.0,-3.5762787e-06,2.783537e-05,3.5464764e-06,1.0,934,2.911,0,1,0.61,False,-0.2594014138754961,0.6776608809553375
