AlexandreBanks6/ExpertPlaybackApp/resources/Motions/P_01/PC1/Data_PC1_5.csv
Task Time,PC1 Time,PC2 Time,Gaze Calib,s_T_psm1,Tx,Ty,Tz,R00,R01,R02,R10,R11,R12,R20,R21,R22,s_T_psm3,Tx,Ty,Tz,R00,R01,R02,R10,R11,R12,R20,R21,R22,cart_T_ecm,Tx,Ty,Tz,R00,R01,R02,R10,R11,R12,R20,R21,R22,ecm_T_psm1,Tx,Ty,Tz,R00,R01,R02,R10,R11,R12,R20,R21,R22,ecm_T_psm3,Tx,Ty,Tz,R00,R01,R02,R10,R11,R12,R20,R21,R22,psm1_joints,q1,q2,q3,q4,q5,q6,jaw,psm3_joints,q1,q2,q3,q4,q5,q6,jaw,ecm_joints,q1,q2,q3,q4,ecmi_T_ecm,Tx,Ty,Tz,R00,R01,R02,R10,R11,R12,R20,R21,R22,Sample #,Task Duration (s),Collisions (binary),Collisions (increments),Cumulative Collision Time (s),Clutch Press,MTMR Angle,MTML Angle
""
lci_T_si,,,,,-0.060357757,0.022834528,0.23020615,0.9952371,-0.021149157,0.09516208,0.048441693,-0.7398343,-0.6710429,0.084596165,0.6724566,-0.73528606
rci_T_si,,,,,-0.0698917,0.026742559,0.23927253,0.9902512,-0.040660527,0.13322671,0.061729427,-0.729299,-0.68140477,0.124868385,0.68298584,-0.71967924
ecm_T_lc,,,,,-4.4061628e-05,-0.00034663224,-0.01840835,-0.99912,0.030754527,0.028518902,-0.031987965,-0.99852574,-0.043852776,0.027128186,-0.04472645,0.9986309
ecm_T_rc,,,,,-0.0043358393,0.01870579,-0.007592615,-0.99555075,-0.052743673,-0.078081585,0.04863213,-0.9973746,0.053654674,-0.08070653,0.04961868,0.9955021
cart_T_ecmi,,,,,0.106666066,1.342168,0.4415365,0.99560696,0.021075713,-0.09122836,-0.043530237,-0.7584478,-0.65027845,-0.08289703,0.65139294,-0.7541985
ecmac_T_ecmrep_psm1,,,,,0.01038242,-0.2501324,-0.30762842,0.998145,0.0496832,0.035188068,-0.04731537,0.99675006,-0.06519635,-0.03831287,0.06341047,0.99725187
ecmac_T_ecmrep_psm3,,,,,-0.018947443,-0.4527795,-0.5580277,0.99342906,-0.031421527,0.110051684,0.0051236153,0.97282016,0.23150527,-0.11433475,-0.2294202,0.9665888
""
0,17:01:51.528410,17:01:37.897941,0,,0.11966394,0.0032099485,0.010726944,-0.9162011,-0.06711368,-0.3950586,-0.40031868,0.109249294,0.90984046,-0.017902866,0.99174625,-0.12696117,,0.054763373,-0.009943798,0.023707688,0.20695074,-0.22832425,0.9513355,-0.84106344,0.45521623,0.29221615,-0.49978346,-0.860608,-0.09782787,,0.1067531,1.3421652,0.44153756,0.9956016,0.020982923,-0.091307916,-0.043652043,-0.7584504,-0.65026724,-0.08289703,0.65139294,-0.7541985,,-0.089004844,0.24928989,-0.07974977,0.90323263,-0.006609398,0.4291004,-0.28593048,0.7363542,0.61320984,-0.32002282,-0.67656404,0.66320926,,-0.022589805,0.40229645,-0.35841691,-0.10895466,0.26076367,-0.9592347,-0.8848285,-0.4651932,-0.025957465,-0.45299822,0.84593,0.2814161,,1.1187459750916593,0.3395299508152806,0.21418340412000003,0.6699593694330553,-0.17817399569413436,1.035750571432543,-0.4044399077484756,,-0.8804533295245879,-0.24189916181933432,0.19553886505,0.16313877603095994,0.3411813399143048,-0.894721636110928,0.8337081135493613,,-0.04888449068679618,-0.07013605599139214,0.08219610256,-0.07424845330935166,,8.669123e-05,4.6491623e-06,-6.914139e-06,1.0,-9.2271715e-05,-7.969141e-05,9.2271715e-05,1.0,-1.0162592e-05,7.969886e-05,1.013279e-05,1.0,35,0.104,0,0,0.0,False,-0.2570778828531757,1.0074629324798186
0.119236013997579,17:01:51.555858,17:01:37.897941,0,,0.119661525,0.0031464547,0.010945126,-0.9158627,-0.064279124,-0.3963127,-0.40117973,0.107610345,0.9096565,-0.015824586,0.99211305,-0.12434375,,0.05476215,-0.009943947,0.023706973,0.20694958,-0.22833137,0.95133406,-0.8410641,0.45521364,0.2922185,-0.49978292,-0.8606075,-0.097835094,,0.1067531,1.3421652,0.44153756,0.9956016,0.020982923,-0.091307916,-0.043652043,-0.7584504,-0.65026724,-0.08289703,0.65139294,-0.7541985,,-0.08902107,0.24938564,-0.07995521,0.9027107,-0.009508768,0.43014303,-0.2852222,0.73527735,0.61482966,-0.3221207,-0.6776996,0.6610306,,-0.022588523,0.4022959,-0.35841665,-0.10895351,0.2607709,-0.95923287,-0.88482827,-0.46519345,-0.025962176,-0.45299903,0.84592766,0.28142193,,1.118761420557408,0.3397770782672557,0.21396303482,0.6699593694330553,-0.18063345268991227,1.0382461661399218,-0.405419972145281,,-0.8804456067917137,-0.24189916181933432,0.19553886505,0.16313877603095994,0.3411813399143048,-0.894721636110928,0.8333814254170928,,-0.04888449068679618,-0.07013605599139214,0.08219610256,-0.07424845330935166,,8.669123e-05,4.6491623e-06,-6.914139e-06,1.0,-9.2271715e-05,-7.969141e-05,9.2271715e-05,1.0,-1.0162592e-05,7.969886e-05,1.013279e-05,1.0,43,0.129,0,0,0.0,False,-0.2566012611050077,1.0082354156922901
0.14667627698509023,17:01:51.583694,17:01:37.897941,0,,0.11967462,0.003106907,0.011097461,-0.91572046,-0.064469725,-0.39661014,-0.40149266,0.10722396,0.909564,-0.016113222,0.99214256,-0.1240713,,0.05476185,-0.0099425465,0.023707211,0.2069524,-0.22841151,0.95131415,-0.8410599,0.45519462,0.29225996,-0.49978864,-0.8605963,-0.097904176,,0.1067531,1.3421652,0.44153756,0.9956016,0.020982923,-0.091307916,-0.043652043,-0.7584504,-0.65026724,-0.08289703,0.65139294,-0.7541985,,-0.089047,0.24945565,-0.08009439,0.90258247,-0.00933194,0.43041584,-0.2856518,0.7350115,0.61494803,-0.32209927,-0.6779904,0.6607428,,-0.022588342,0.40229687,-0.35841557,-0.10895615,0.26085106,-0.95921075,-0.88483125,-0.46518582,-0.025996791,-0.45299253,0.84590715,0.28149402,,1.118769143290282,0.3399469783904887,0.21380877631000003,0.6695399895460863,-0.18063345268991227,1.0384912023603436,-0.4049299399468781,,-0.8804456067917137,-0.2418914390864601,0.19553886505,0.16313877603095994,0.3411813399143048,-0.8946399573707873,0.8328913932186898,,-0.04888449068679618,-0.07013605599139214,0.08219610256,-0.07424845330935166,,8.669123e-05,4.6491623e-06,-6.914139e-06,1.0,-9.2271715e-05,-7.969141e-05,9.2271715e-05,1.0,-1.0162592e-05,7.969886e-05,1.013279e-05,1.0,54,0.162,0,0,0.0,False,-0.2566608388235285,1.0076077730821573
0.17448580299969763,17:01:51.614126,17:01:37.897941,0,,0.11968271,0.0030559003,0.011312529,-0.9153646,-0.062129032,-0.39780337,-0.40236324,0.105478585,0.9093834,-0.014539361,0.9924789,-0.121549815,,0.05476308,-0.0099423975,0.023707926,0.20695354,-0.22832668,0.95133424,-0.8410593,0.4552211,0.2922204,-0.49978927,-0.86060476,-0.09782667,,0.1067531,1.3421652,0.44153756,0.9956016,0.020982923,-0.091307916,-0.043652043,-0.7584504,-0.65026724,-0.08289703,0.65139294,-0.7541985,,-0.08907309,0.2495584,-0.080288485,0.90208185,-0.011739757,0.43140528,-0.28528288,0.7338492,0.6165055,-0.32382405,-0.67921096,0.6586429,,-0.022589624,0.4022974,-0.35841584,-0.108957306,0.2607655,-0.9592339,-0.8848315,-0.4651877,-0.025954084,-0.45299172,0.8459325,0.2814191,,1.1187845887560306,0.340371728698571,0.2135119259,0.6693302996026017,-0.18295627318592475,1.0413654516048696,-0.4055833162114154,,-0.8804533295245879,-0.2418914390864601,0.19553886505,0.16313877603095994,0.3411813399143048,-0.8947216361109278,0.8330547372848242,,-0.04888449068679618,-0.07013605599139214,0.08219610256,-0.07424845330935166,,8.669123e-05,4.6491623e-06,-6.914139e-06,1.0,-9.2271715e-05,-7.969141e-05,9.2271715e-05,1.0,-1.0162592e-05,7.969886e-05,1.013279e-05,1.0,66,0.198,0,0,0.0,False,-0.25672041654204936,1.0085733770977463
0.204911565000657,17:01:51.645444,17:01:37.999030,0,,0.119704485,0.0029894263,0.0116350055,-0.91490394,-0.060427394,-0.39912322,-0.40344602,0.103823125,0.90909415,-0.013495982,0.9927585,-0.11936739,,0.054762777,-0.009944111,0.02370876,0.20695074,-0.22809117,0.9513914,-0.84106344,0.4552878,0.2921046,-0.49978346,-0.86063194,-0.097617,,0.1067531,1.3421652,0.44153756,0.9956016,0.020982923,-0.091307916,-0.043652043,-0.7584504,-0.65026724,-0.08289703,0.65139294,-0.7541985,,-0.08912156,0.24971975,-0.08057221,0.90151167,-0.013503763,0.43254405,-0.28542566,0.73273623,0.61776197,-0.32528278,-0.6803788,0.6567159,,-0.022589274,0.4022973,-0.35841775,-0.10895466,0.26052862,-0.95929855,-0.8848285,-0.46519956,-0.025843475,-0.45299822,0.84599894,0.2812088,,1.118807756954653,0.3407192516779111,0.21327988999000003,0.6687012297721482,-0.1844592746833446,1.0429177635060922,-0.40525662807914675,,-0.8804533295245879,-0.24189916181933432,0.19553756876000003,0.16313877603095994,0.3411813399143048,-0.8949666723313496,0.8341981457477642,,-0.04888449068679618,-0.07013605599139214,0.08219610256,-0.07424845330935166,,8.669123e-05,4.6491623e-06,-6.914139e-06,1.0,-9.2271715e-05,-7.969141e-05,9.2271715e-05,1.0,-1.0162592e-05,7.969886e-05,1.013279e-05,1.0,77,0.231,0,0,0.0,False,-0.2566012611050077,1.0082836958930697
0.23626614798558876,17:01:51.680108,17:01:37.999030,0,,0.11971783,0.0029577613,0.011889234,-0.9147139,-0.059500366,-0.39969757,-0.40389407,0.10288352,0.909002,-0.0129636675,0.9929123,-0.11814082,,0.05476042,-0.009944156,0.02370745,0.20729932,-0.22825828,0.95127547,-0.84108645,0.45501232,0.29246733,-0.49960017,-0.86073333,-0.09766121,,0.1067531,1.3421652,0.44153756,0.9956016,0.020982923,-0.091307916,-0.043652043,-0.7584504,-0.65026724,-0.08289703,0.65139294,-0.7541985,,-0.08915538,0.24986269,-0.08078256,0.9012686,-0.014465938,0.43301916,-0.28541857,0.73210245,0.6185162,-0.3259618,-0.68104094,0.6556921,,-0.022586828,0.4022964,-0.35841706,-0.10931371,0.26072183,-0.9592052,-0.88472116,-0.46541283,-0.025678685,-0.4531214,0.8458221,0.28154212,,1.1189081524820181,0.3411440019859935,0.21303878005000002,0.6684915398286637,-0.18541573018170268,1.0438610463122486,-0.40525662807914686,,-0.8804456067917137,-0.24189916181933432,0.19553756876000003,0.1627193961439909,0.3411813399143048,-0.8948849935912091,0.8337081135493614,,-0.04888449068679618,-0.07013605599139214,0.08219610256,-0.07424845330935166,,8.669123e-05,4.6491623e-06,-6.914139e-06,1.0,-9.2271715e-05,-7.969141e-05,9.2271715e-05,1.0,-1.0162592e-05,7.969886e-05,1.013279e-05,1.0,85,0.256,0,0,0.0,False,-0.2566012611050077,1.0078974542868337
0.2709297169931233,17:01:51.711429,17:01:37.999030,0,,0.119731344,0.0029574335,0.012117669,-0.914114,-0.05733527,-0.40138304,-0.4052906,0.10081935,0.90861166,-0.01162833,0.9932513,-0.11539781,,0.05476012,-0.00994277,0.023707688,0.20730211,-0.22833838,0.9512556,-0.84108233,0.45499334,0.29250875,-0.499606,-0.8607222,-0.09773031,,0.1067531,1.3421652,0.44153756,0.9956016,0.020982923,-0.091307916,-0.043652043,-0.7584504,-0.65026724,-0.08289703,0.65139294,-0.7541985,,-0.0891865,0.25001225,-0.08095295,0.9005284,-0.016707918,0.43447617,-0.28560972,0.7307071,0.620076,-0.327835,-0.6824866,0.6532505,,-0.022586646,0.40229738,-0.358416,-0.10931635,0.26080197,-0.9591831,-0.88472414,-0.4654052,-0.025713317,-0.4531149,0.8458016,0.2816142,,1.1190239934751314,0.3416845932871892,0.21283655881000002,0.6676527800547256,-0.18760191417794975,1.0463788414326562,-0.405419972145281,,-0.8804456067917137,-0.2418914390864601,0.19553756876000003,0.1627193961439909,0.3411813399143048,-0.8948033148510686,0.8332180813509585,,-0.04888449068679618,-0.07013605599139214,0.08219610256,-0.07424845330935166,,8.669123e-05,4.6491623e-06,-6.914139e-06,1.0,-9.2271715e-05,-7.969141e-05,9.2271715e-05,1.0,-1.0162592e-05,7.969886e-05,1.013279e-05,1.0,93,0.28,0,0,0.0,False,-0.25725661600873906,1.0079457344876133
0.30223981698509306,17:01:51.737140,17:01:37.999030,0,,0.119755685,0.002981007,0.012353763,-0.9139768,-0.056536976,-0.40180844,-0.4056049,0.0993464,0.90863365,-0.011453152,0.9934456,-0.11373195,,0.054761346,-0.009942636,0.023708403,0.20730329,-0.22825356,0.95127577,-0.84108174,0.45501983,0.29246923,-0.4996066,-0.8607306,-0.097652785,,0.1067531,1.3421652,0.44153756,0.9956016,0.020982923,-0.091307916,-0.043652043,-0.7584504,-0.65026724,-0.08289703,0.65139294,-0.7541985,,-0.08922832,0.2501845,-0.08111251,0.9003693,-0.017559908,0.43477216,-0.28573522,0.7297022,0.62120056,-0.32816243,-0.6835396,0.6519839,,-0.022587927,0.4022979,-0.3584163,-0.109317504,0.2607164,-0.9592063,-0.88472444,-0.46540707,-0.025670594,-0.45311412,0.8458269,0.2815393,,1.1191938935983643,0.3423024119171272,0.21263563386000003,0.667443090111241,-0.18828509667677693,1.0475893608722628,-0.40541997214528114,,-0.8804533295245879,-0.2418914390864601,0.19553756876000003,0.1627193961439909,0.3411813399143048,-0.8948849935912091,0.8333814254170927,,-0.04888449068679618,-0.07013605599139214,0.08219610256,-0.07424845330935166,,8.669123e-05,4.6491623e-06,-6.914139e-06,1.0,-9.2271715e-05,-7.969141e-05,9.2271715e-05,1.0,-1.0162592e-05,7.969886e-05,1.013279e-05,1.0,105,0.316,0,0,0.0,False,-0.25630337251240265,1.0085733770977463
0.3279688970069401,17:01:51.771494,17:01:37.999030,0,,0.11977486,0.0030184835,0.012585789,-0.9138572,-0.055221222,-0.4022631,-0.40589118,0.097810835,0.90867233,-0.010832354,0.9936719,-0.11179891,,0.05476287,-0.009943873,0.02370888,0.20730162,-0.22816634,0.95129704,-0.84108526,0.45504153,0.29242548,-0.49960133,-0.86074233,-0.0975765,,0.1067531,1.3421652,0.44153756,0.9956016,0.020982923,-0.091307916,-0.043652043,-0.7584504,-0.65026724,-0.08289703,0.65139294,-0.7541985,,-0.08926429,0.25036472,-0.08126029,0.90019417,-0.01893185,0.4350771,-0.2855461,0.7286559,0.6225143,-0.32880682,-0.6846183,0.6505258,,-0.022589391,0.4022975,-0.35841763,-0.10931601,0.26062903,-0.9592302,-0.8847217,-0.46541443,-0.025631249,-0.4531198,0.8458498,0.2814614,,1.1194024073859685,0.3429665669443105,0.21244507923000003,0.667443090111241,-0.18937818867490044,1.0489707765426777,-0.40541997214528114,,-0.8804610522574621,-0.24189916181933432,0.19553756876000003,0.1627193961439909,0.3411813399143048,-0.8949666723313496,0.8335447694832271,,-0.04888449068679618,-0.07013605599139214,0.08219610256,-0.07424845330935166,,8.669123e-05,4.6491623e-06,-6.914139e-06,1.0,-9.2271715e-05,-7.969141e-05,9.2271715e-05,1.0,-1.0162592e-05,7.969886e-05,1.013279e-05,1.0,116,0.35,0,0,0.0,False,-0.2561246393568388,1.0082354156922901
0.3622936589817982,17:01:51.807730,17:01:38.150030,0,,0.11978742,0.0030329823,0.012929887,-0.91383684,-0.05288329,-0.4026234,-0.40596527,0.09524256,0.9089121,-0.009719357,0.9940485,-0.10850498,,0.05476287,-0.009943873,0.02370888,0.20730162,-0.22816634,0.95129704,-0.84108526,0.45504153,0.29242548,-0.49960133,-0.86074233,-0.0975765,,0.1067531,1.3421652,0.44153756,0.9956016,0.020982923,-0.091307916,-0.043652043,-0.7584504,-0.65026724,-0.08289703,0.65139294,-0.7541985,,-0.08930296,0.25060153,-0.081507675,0.9000858,-0.021363147,0.43518862,-0.28487062,0.72690064,0.6248714,-0.3296881,-0.6864103,0.6481872,,-0.022589391,0.4022975,-0.35841763,-0.10931601,0.26062903,-0.9592302,-0.8847217,-0.46541443,-0.025631249,-0.4531198,0.8458498,0.2814614,,1.1196881485023147,0.3437542856974814,0.21214433995,0.6678624699982101,-0.1908811901723203,1.0515032333255874,-0.405419972145281,,-0.8804610522574621,-0.24189916181933432,0.19553756876000003,0.1627193961439909,0.3411813399143048,-0.8949666723313496,0.8338714576154955,,-0.04888449068679618,-0.07013605599139214,0.08219610256,-0.07424845330935166,,8.669123e-05,4.6491623e-06,-6.914139e-06,1.0,-9.2271715e-05,-7.969141e-05,9.2271715e-05,1.0,-1.0162592e-05,7.969886e-05,1.013279e-05,1.0,132,0.399,0,0,0.0,False,-0.25624379479388093,1.0086216572985258
0.39855293999426067,17:01:51.857878,17:01:38.150030,0,,0.11978049,0.0030094087,0.013346642,-0.91361326,-0.05044382,-0.40344307,-0.40649667,0.092705935,0.9089368,-0.008448675,0.994415,-0.105202645,,0.05476038,-0.009943798,0.023707092,0.20724513,-0.22803378,0.9513411,-0.8411558,0.45499054,0.29230174,-0.49950588,-0.8608044,-0.097517386,,0.1067531,1.3421652,0.44153756,0.9956016,0.020982923,-0.091307916,-0.043652043,-0.7584504,-0.65026724,-0.08289703,0.65139294,-0.7541985,,-0.089328885,0.250858,-0.08183605,0.89974993,-0.023893967,0.4357513,-0.2844418,0.7251595,0.62708575,-0.33097276,-0.6881662,0.64566576,,-0.022586782,0.40229627,-0.35841656,-0.109262146,0.26050547,-0.9592699,-0.88467234,-0.46550715,-0.025650706,-0.45322913,0.8458369,0.2813243,,1.1200433942145291,0.34450339078628117,0.21176193440000002,0.6678624699982101,-0.19265746466927103,1.0540951684356088,-0.40541997214528114,,-0.8804456067917137,-0.2418914390864601,0.19553756876000003,0.1627193961439909,0.34104470341453935,-0.895100290648075,0.8346881779461671,,-0.04888449068679618,-0.07013605599139214,0.08219610256,-0.07424845330935166,,8.669123e-05,4.6491623e-06,-6.914139e-06,1.0,-9.2271715e-05,-7.969141e-05,9.2271715e-05,1.0,-1.0162592e-05,7.969886e-05,1.013279e-05,1.0,144,0.436,0,0,0.0,False,-0.2559459062012759,1.0088147781016437
0.44866704498417675,17:01:51.887618,17:01:38.150030,0,,0.11975622,0.0029553175,0.013610244,-0.91345996,-0.048811402,-0.40399054,-0.40685913,0.09119648,0.9089273,-0.007523477,0.994636,-0.10316372,,0.05476038,-0.009943798,0.023707092,0.20724513,-0.22803378,0.9513411,-0.8411558,0.45499054,0.29230174,-0.49950588,-0.8608044,-0.097517386,,0.1067531,1.3421652,0.44153756,0.9956016,0.020982923,-0.091307916,-0.043652043,-0.7584504,-0.65026724,-0.08289703,0.65139294,-0.7541985,,-0.089326575,0.25099134,-0.082071036,0.89951557,-0.02558036,0.43613923,-0.28411087,0.72411996,0.62843555,-0.33189276,-0.68919945,0.6440895,,-0.022586782,0.40229627,-0.35841656,-0.109262146,0.26050547,-0.9592699,-0.88467234,-0.46550715,-0.025650706,-0.45322913,0.8458369,0.2813243,,1.1202673534678815,0.34478140916975325,0.21150267640000003,0.6678624699982101,-0.19375055666739455,1.0558032990665858,-0.4044399077484755,,-0.8804456067917137,-0.2418914390864601,0.19553756876000003,0.1627193961439909,0.34104470341453935,-0.895100290648075,0.8346881779461671,,-0.04888449068679618,-0.07013605599139214,0.08219610256,-0.07424845330935166,,8.669123e-05,4.6491623e-06,-6.914139e-06,1.0,-9.2271715e-05,-7.969141e-05,9.2271715e-05,1.0,-1.0162592e-05,7.969886e-05,1.013279e-05,1.0,159,0.481,0,0,0.0,False,-0.2566012611050077,1.0089113385032027
0.4784407480037771,17:01:51.935766,17:01:38.298408,0,,0.119712055,0.00284338,0.013981968,-0.9130605,-0.0463849,-0.40517774,-0.40777707,0.088733464,0.90875983,-0.006199926,0.99497485,-0.09993371,,0.054763127,-0.009944916,0.023708284,0.20724463,-0.22809483,0.9513266,-0.84115875,0.454967,0.29232997,-0.49950123,-0.8608006,-0.09757447,,0.1067531,1.3421652,0.44153756,0.9956016,0.020982923,-0.091307916,-0.043652043,-0.7584504,-0.65026724,-0.08289703,0.65139294,-0.7541985,,-0.08931441,0.2511528,-0.08242662,0.89898944,-0.028094055,0.4370683,-0.2839435,0.72241646,0.63046855,-0.33345777,-0.6908873,0.64146763,,-0.022589527,0.4022964,-0.3584182,-0.1092618,0.26056755,-0.9592531,-0.88466984,-0.4655101,-0.025682686,-0.45323405,0.84581614,0.28137872,,1.1205453718513536,0.3450208138888542,0.21112156714000002,0.667443090111241,-0.19539019466457985,1.0587738887137539,-0.4050932840130126,,-0.8804610522574621,-0.24189916181933432,0.19553756876000003,0.1627193961439909,0.34104470341453935,-0.8950186119079344,0.8343614898138985,,-0.04888449068679618,-0.07013605599139214,0.08219610256,-0.07424845330935166,,8.669123e-05,4.6491623e-06,-6.914139e-06,1.0,-9.2271715e-05,-7.969141e-05,9.2271715e-05,1.0,-1.0162592e-05,7.969886e-05,1.013279e-05,1.0,171,0.518,0,0,0.0,False,-0.25588632848275505,1.009394140510997
0.5265064080012962,17:01:51.973415,17:01:38.298408,0,,0.11968444,0.0027510226,0.0141863525,-0.9129074,-0.04479942,-0.40570065,-0.4081326,0.08734959,0.9087342,-0.0052729845,0.99517,-0.09802616,,0.05476283,-0.009943545,0.023708463,0.20724744,-0.22801954,0.951344,-0.84115463,0.4549958,0.29229707,-0.499507,-0.8608054,-0.09750298,,0.1067531,1.3421652,0.44153756,0.9956016,0.020982923,-0.091307916,-0.043652043,-0.7584504,-0.65026724,-0.08289703,0.65139294,-0.7541985,,-0.08930527,0.2512185,-0.08264266,0.8987554,-0.02972814,0.4374415,-0.28360623,0.7214558,0.6317191,-0.33437455,-0.69182205,0.63998115,,-0.022589345,0.40229735,-0.35841712,-0.10926445,0.260491,-0.9592735,-0.8846729,-0.46550667,-0.025641285,-0.45322755,0.8458416,0.28131264,,1.1206457673787187,0.34502853662172844,0.21088823494000003,0.667443090111241,-0.19634665016293792,1.0606156376614562,-0.40394987555007267,,-0.8804610522574621,-0.2418914390864601,0.19553756876000003,0.1627193961439909,0.34104470341453935,-0.895100290648075,0.8346881779461671,,-0.04888449068679618,-0.07013605599139214,0.08219610256,-0.07424845330935166,,8.669123e-05,4.6491623e-06,-6.914139e-06,1.0,-9.2271715e-05,-7.969141e-05,9.2271715e-05,1.0,-1.0162592e-05,7.969886e-05,1.013279e-05,1.0,179,0.542,0,0,0.0,False,-0.25636295023092304,1.0095389811133355
0.564238713006489,17:01:51.998308,17:01:38.298408,0,,0.11965436,0.0026453584,0.014417529,-0.9126241,-0.04237675,-0.40659726,-0.40878358,0.085787565,0.90859044,-0.0036221147,0.995412,-0.09561473,,0.05476283,-0.009943545,0.023708463,0.20724744,-0.22809722,0.9513254,-0.84115463,0.45497188,0.29233423,-0.499507,-0.86079735,-0.09757328,,0.1067531,1.3421652,0.44153756,0.9956016,0.020982923,-0.091307916,-0.043652043,-0.7584504,-0.65026724,-0.08289703,0.65139294,-0.7541985,,-0.089296095,0.25129184,-0.0828877,0.8983273,-0.03220521,0.43814483,-0.28301919,0.720367,0.6332231,-0.33601815,-0.69284505,0.6380106,,-0.022589345,0.40229735,-0.35841712,-0.10926445,0.26056936,-0.95925224,-0.8846729,-0.46550456,-0.025679307,-0.45322755,0.8458186,0.28138173,,1.1207152719745865,0.34505942755322533,0.21064712500000002,0.667443090111241,-0.19812292465988865,1.0629625365510558,-0.40476659588074393,,-0.8804610522574621,-0.2418914390864601,0.19553756876000003,0.1627193961439909,0.34104470341453935,-0.8950186119079344,0.8351782101445698,,-0.04888449068679618,-0.07013605599139214,0.08219610256,-0.07424845330935166,,8.669123e-05,4.6491623e-06,-6.914139e-06,1.0,-9.2271715e-05,-7.969141e-05,9.2271715e-05,1.0,-1.0162592e-05,7.969886e-05,1.013279e-05,1.0,191,0.579,0,0,0.0,False,-0.2557075953271921,1.0089596187039818
0.5891286499972921,17:01:52.031171,17:01:38.298408,0,,0.11962685,0.0025387406,0.014656052,-0.9119868,-0.04035945,-0.40822914,-0.41021413,0.08468214,0.9080492,-0.0020786822,0.9955903,-0.09378502,,0.05476309,-0.009944588,0.023707867,0.20719044,-0.22818112,0.95131767,-0.8412281,0.4548497,0.292313,-0.49940687,-0.8608397,-0.09771187,,0.1067531,1.3421652,0.44153756,0.9956016,0.020982923,-0.091307916,-0.043652043,-0.7584504,-0.65026724,-0.08289703,0.65139294,-0.7541985,,-0.0892901,0.25136924,-0.083138674,0.89753276,-0.03426054,0.4396147,-0.2831002,0.7195922,0.6340673,-0.33806682,-0.6935512,0.63615847,,-0.02258948,0.40229625,-0.3584177,-0.10921024,0.26066458,-0.95923257,-0.884621,-0.465596,-0.02580679,-0.45334175,0.84573895,0.28143722,,1.1207847765704546,0.3451212094162191,0.21038916329000001,0.6666043303373029,-0.20017247215637027,1.064878841326924,-0.4042765636823411,,-0.8804610522574621,-0.2418914390864601,0.19553756876000003,0.1627193961439909,0.34090806691477393,-0.8949071940042381,0.8348515220123014,,-0.04888449068679618,-0.07013605599139214,0.08219610256,-0.07424845330935166,,8.669123e-05,4.6491623e-06,-6.914139e-06,1.0,-9.2271715e-05,-7.969141e-05,9.2271715e-05,1.0,-1.0162592e-05,7.969886e-05,1.013279e-05,1.0,206,0.624,0,0,0.0,False,-0.25636295023092304,1.009490700912556
0.6219904129975475,17:01:52.077497,17:01:38.298408,0,,0.11960861,0.0024281293,0.015027225,-0.91099733,-0.04212964,-0.41025478,-0.41238475,0.081549495,0.90735257,-0.004770398,0.99577856,-0.091665,,0.05476309,-0.009944588,0.023707867,0.20719044,-0.22810341,0.95133626,-0.8412281,0.4548735,0.29227585,-0.49940687,-0.8608477,-0.09764156,,0.1067531,1.3421652,0.44153756,0.9956016,0.020982923,-0.091307916,-0.043652043,-0.7584504,-0.65026724,-0.08289703,0.65139294,-0.7541985,,-0.08930368,0.2515306,-0.083491,0.89669335,-0.03259892,0.44145027,-0.2865336,0.7174102,0.63499695,-0.33740112,-0.69588786,0.63395625,,-0.02258948,0.40229625,-0.3584177,-0.10921024,0.26058623,-0.95925385,-0.884621,-0.4655981,-0.02576876,-0.45334175,0.8457619,0.28136814,,1.1210627949539267,0.3453374459366974,0.21000416516000003,0.6632492912415505,-0.1986694706589504,1.0673287876925885,-0.4049299399468783,,-0.8804610522574621,-0.2418914390864601,0.19553756876000003,0.1627193961439909,0.34090806691477393,-0.8949888727443787,0.8346881779461671,,-0.04888449068679618,-0.07013605599139214,0.08219610256,-0.07424845330935166,,8.669123e-05,4.6491623e-06,-6.914139e-06,1.0,-9.2271715e-05,-7.969141e-05,9.2271715e-05,1.0,-1.0162592e-05,7.969886e-05,1.013279e-05,1.0,214,0.649,0,0,0.0,False,-0.25642252794944387,1.0094424207117765
0.6683198609971441,17:01:52.106528,17:01:38.298408,0,,0.11955888,0.0023661852,0.015466392,-0.9102431,-0.04038024,-0.4121007,-0.41403592,0.075191855,0.9071497,-0.0056442916,0.99635124,-0.085161775,,0.054762162,-0.009946108,0.023706973,0.2071865,-0.22810814,0.951336,-0.8412328,0.45486605,0.2922739,-0.4994005,-0.86085045,-0.09764996,,0.1067531,1.3421652,0.44153756,0.9956016,0.020982923,-0.091307916,-0.043652043,-0.7584504,-0.65026724,-0.08289703,0.65139294,-0.7541985,,-0.08928976,0.2517742,-0.083864674,0.8959627,-0.03456533,0.4427822,-0.2883737,0.71294856,0.6391752,-0.33777422,-0.7003639,0.6288076,,-0.022588382,0.40229475,-0.35841846,-0.10920645,0.26059166,-0.9592528,-0.88461775,-0.46560386,-0.025776852,-0.45334905,0.84575707,0.28137094,,1.1216188317208708,0.345839423573522,0.20958157462000002,0.6611523918067053,-0.1986694706589504,1.0735363719432711,-0.4050932840130126,,-0.8804533295245879,-0.24189916181933432,0.19553756876000003,0.1627193961439909,0.34090806691477393,-0.8949888727443787,0.8346881779461671,,-0.04888449068679618,-0.07013605599139214,0.08219610256,-0.07424845330935166,,8.669123e-05,4.6491623e-06,-6.914139e-06,1.0,-9.2271715e-05,-7.969141e-05,9.2271715e-05,1.0,-1.0162592e-05,7.969886e-05,1.013279e-05,1.0,226,0.686,0,0,0.0,False,-0.2555288621716292,1.009394140510997
0.6972734500013757,17:01:52.140224,17:01:38.498863,0,,0.119503655,0.0023694634,0.015827537,-0.90927565,-0.040479057,-0.4142212,-0.41613734,0.07194063,0.9064515,-0.006892979,0.9965873,-0.0822587,,0.05476309,-0.009944588,0.023707867,0.20719044,-0.22810341,0.95133626,-0.8412281,0.4548735,0.29227585,-0.49940687,-0.8608477,-0.09764156,,0.1067531,1.3421652,0.44153756,0.9956016,0.020982923,-0.091307916,-0.043652043,-0.7584504,-0.65026724,-0.08289703,0.65139294,-0.7541985,,-0.089262515,0.25201577,-0.0841374,0.8950359,-0.034576464,0.44465172,-0.29080552,0.710659,0.6406215,-0.33814618,-0.7026864,0.62601036,,-0.02258948,0.40229625,-0.3584177,-0.10921024,0.26058623,-0.95925385,-0.884621,-0.4655981,-0.02576876,-0.45334175,0.8457619,0.28136814,,1.1222829867480542,0.34642635127196303,0.20925750212000002,0.6584264225414065,-0.19853283415918496,1.0761203524642133,-0.40329649928553535,,-0.8804610522574621,-0.2418914390864601,0.19553756876000003,0.1627193961439909,0.34090806691477393,-0.8949888727443787,0.8350148660784356,,-0.04888449068679618,-0.07013605599139214,0.08219610256,-0.07424845330935166,,8.669123e-05,4.6491623e-06,-6.914139e-06,1.0,-9.2271715e-05,-7.969141e-05,9.2271715e-05,1.0,-1.0162592e-05,7.969886e-05,1.013279e-05,1.0,234,0.71,0,0,0.0,False,-0.25677999426057063,1.0092492999086586
0.7309498169925064,17:01:52.163428,17:01:38.498863,0,,0.11946612,0.002384767,0.016078591,-0.9084116,-0.04116806,-0.41604504,-0.41800517,0.07099795,0.90566605,-0.00774616,0.9966266,-0.08170384,,0.05476309,-0.009944588,0.023707867,0.20719044,-0.22810341,0.95133626,-0.8412281,0.4548735,0.29227585,-0.49940687,-0.8608477,-0.09764156,,0.1067531,1.3421652,0.44153756,0.9956016,0.020982923,-0.091307916,-0.043652043,-0.7584504,-0.65026724,-0.08289703,0.65139294,-0.7541985,,-0.08924406,0.25219348,-0.08431837,0.89418817,-0.033919323,0.44640452,-0.29279837,0.70999575,0.64044917,-0.3386689,-0.7033886,0.62493825,,-0.02258948,0.40229625,-0.3584177,-0.10921024,0.26058623,-0.95925385,-0.884621,-0.4655981,-0.02576876,-0.45334175,0.8457619,0.28136814,,1.1227695189191302,0.3468974379772907,0.20903842911,0.6561198331630768,-0.1986694706589504,1.0764768065883314,-0.4037865314839383,,-0.8804610522574621,-0.2418914390864601,0.19553756876000003,0.1627193961439909,0.34090806691477393,-0.8949888727443787,0.8350148660784356,,-0.04888449068679618,-0.07013605599139214,0.08219610256,-0.07424845330935166,,8.669123e-05,4.6491623e-06,-6.914139e-06,1.0,-9.2271715e-05,-7.969141e-05,9.2271715e-05,1.0,-1.0162592e-05,7.969886e-05,1.013279e-05,1.0,253,0.768,0,0,0.0,False,-0.2561842170753601,1.0091527395071
0.7542563719907776,17:01:52.212415,17:01:38.498863,0,,0.1194048,0.0024635494,0.016683042,-0.90767926,-0.043761466,-0.41737658,-0.41947865,0.06501365,0.90543413,-0.012487948,0.9969244,-0.07736859,,0.05476064,-0.009944841,0.023706496,0.20718814,-0.22811767,0.9513334,-0.8412293,0.45486826,0.29228055,-0.49940574,-0.8608467,-0.09765597,,0.1067531,1.3421652,0.44153756,0.9956016,0.020982923,-0.091307916,-0.043652043,-0.7584504,-0.65026724,-0.08289703,0.65139294,-0.7541985,,-0.0892274,0.25265205,-0.08472426,0.893783,-0.0315259,0.4473903,-0.29704732,0.7057634,0.64316475,-0.33602804,-0.7077458,0.6214347,,-0.022586918,0.40229517,-0.35841712,-0.10920794,0.2606007,-0.95925015,-0.8846205,-0.46559858,-0.025778184,-0.45334333,0.8457572,0.2813798,,1.1240051561790063,0.34812535250429244,0.20852380198000003,0.6525551041238398,-0.19525355816481438,1.0798172645064632,-0.4042765636823411,,-0.8804456067917137,-0.2418914390864601,0.19553756876000003,0.1627193961439909,0.34090806691477393,-0.8949888727443787,0.8350148660784356,,-0.04888449068679618,-0.07013605599139214,0.08219610256,-0.07424845330935166,,8.669123e-05,4.6491623e-06,-6.914139e-06,1.0,-9.2271715e-05,-7.969141e-05,9.2271715e-05,1.0,-1.0162592e-05,7.969886e-05,1.013279e-05,1.0,257,0.78,0,0,0.0,False,-0.2555288621716292,1.0088147781016437
0.8032437530055176,17:01:52.241888,17:01:38.498863,0,,0.11937361,0.0024813265,0.016965985,-0.90693945,-0.044445522,-0.41890967,-0.4210241,0.0622977,0.9049076,-0.01412195,0.99706763,-0.075212896,,0.05476064,-0.009944841,0.023706496,0.20718814,-0.22819537,0.95131475,-0.8412293,0.45484444,0.2923177,-0.49940574,-0.8608388,-0.097726285,,0.1067531,1.3421652,0.44153756,0.9956016,0.020982923,-0.091307916,-0.043652043,-0.7584504,-0.65026724,-0.08289703,0.65139294,-0.7541985,,-0.08921766,0.2528524,-0.08492701,0.8931284,-0.030931555,0.44873697,-0.2993072,0.7038332,0.6442313,-0.33576307,-0.7096915,0.6193554,,-0.022586918,0.40229517,-0.35841712,-0.10920794,0.26067904,-0.9592289,-0.8846205,-0.46559647,-0.025816211,-0.45334333,0.84573424,0.28144887,,1.1245303020144535,0.34865822107261396,0.20827621059,0.65024851474551,-0.1945703756659872,1.081710537192198,-0.40394987555007256,,-0.8804456067917137,-0.2418914390864601,0.19553756876000003,0.1627193961439909,0.34090806691477393,-0.8949071940042381,0.8345248338800327,,-0.04888449068679618,-0.07013605599139214,0.08219610256,-0.07424845330935166,,8.669123e-05,4.6491623e-06,-6.914139e-06,1.0,-9.2271715e-05,-7.969141e-05,9.2271715e-05,1.0,-1.0162592e-05,7.969886e-05,1.013279e-05,1.0,269,0.817,0,0,0.0,False,-0.25672041654204936,1.0092010197078791
0.8326712129928637,17:01:52.266044,17:01:38.498863,0,,0.11939418,0.002450496,0.017166317,-0.9061546,-0.04833135,-0.42017606,-0.42254597,0.060218602,0.90433884,-0.018405482,0.99701446,-0.07498962,,0.05476064,-0.009944841,0.023706496,0.20718814,-0.22819537,0.95131475,-0.8412293,0.45484444,0.2923177,-0.49940574,-0.8608388,-0.097726285,,0.1067531,1.3421652,0.44153756,0.9956016,0.020982923,-0.091307916,-0.043652043,-0.7584504,-0.65026724,-0.08289703,0.65139294,-0.7541985,,-0.0892545,0.25296032,-0.08509587,0.8926341,-0.027113209,0.44996586,-0.3032928,0.70234853,0.6439876,-0.33349344,-0.71131665,0.618717,,-0.022586918,0.40229517,-0.35841712,-0.10920794,0.26067904,-0.9592289,-0.8846205,-0.46559647,-0.025816211,-0.45334333,0.84573424,0.28144887,,1.1246924794048123,0.34888990305884066,0.20807787822,0.6468934756497576,-0.19142773617138206,1.082333396272662,-0.4044399077484755,,-0.8804456067917137,-0.2418914390864601,0.19553756876000003,0.1627193961439909,0.34090806691477393,-0.8949071940042379,0.8341981457477641,,-0.04888449068679618,-0.07013605599139214,0.08219610256,-0.07424845330935166,,8.669123e-05,4.6491623e-06,-6.914139e-06,1.0,-9.2271715e-05,-7.969141e-05,9.2271715e-05,1.0,-1.0162592e-05,7.969886e-05,1.013279e-05,1.0,277,0.841,0,0,0.0,False,-0.25642252794944387,1.0092492999086586
0.8568100459815469,17:01:52.298930,17:01:38.651695,0,,0.119405046,0.0024099648,0.017233148,-0.90603626,-0.048581347,-0.42040232,-0.42275456,0.05832866,0.90436524,-0.019413784,0.9971148,-0.073385835,,0.054763388,-0.009945974,0.023707688,0.20718765,-0.22817871,0.95131886,-0.8412322,0.45484477,0.29230875,-0.49940112,-0.86084294,-0.09771309,,0.1067531,1.3421652,0.44153756,0.9956016,0.020982923,-0.091307916,-0.043652043,-0.7584504,-0.65026724,-0.08289703,0.65139294,-0.7541985,,-0.08927162,0.25297344,-0.08517177,0.89258814,-0.026924923,0.4500683,-0.30411634,0.700999,0.6450687,-0.33286586,-0.7126538,0.6175151,,-0.022589663,0.4022953,-0.35841876,-0.1092076,0.26066276,-0.95923334,-0.88461804,-0.46560153,-0.02581017,-0.45334825,0.84573644,0.2814342,,1.124646143007567,0.348866734860218,0.20799880453000003,0.6462644058193041,-0.1906079171727894,1.0841152510547005,-0.4044399077484755,,-0.8804610522574621,-0.24189916181933432,0.19553756876000003,0.1627193961439909,0.34090806691477393,-0.8949071940042381,0.8345248338800327,,-0.04888449068679618,-0.07013605599139214,0.08219610256,-0.07424845330935166,,8.669123e-05,4.6491623e-06,-6.914139e-06,1.0,-9.2271715e-05,-7.969141e-05,9.2271715e-05,1.0,-1.0162592e-05,7.969886e-05,1.013279e-05,1.0,300,0.911,0,0,0.0,False,-0.25642252794944387,1.009056179105541
0.8897032589884475,17:01:52.355902,17:01:38.651695,0,,0.11949105,0.0021269172,0.017332554,-0.9058322,-0.04969108,-0.4207124,-0.42315575,0.058816433,0.90414596,-0.02018316,0.9970314,-0.07430488,,0.054761767,-0.009944946,0.023707092,0.20683838,-0.22819088,0.95139194,-0.8412069,0.4550695,0.29203168,-0.49958852,-0.86072093,-0.097829916,,0.1067531,1.3421652,0.44153756,0.9956016,0.020982923,-0.091307916,-0.043652043,-0.7584504,-0.65026724,-0.08289703,0.65139294,-0.7541985,,-0.08937296,0.25282314,-0.08542582,0.8924328,-0.025798798,0.4504421,-0.30493036,0.70134443,0.64430857,-0.33253744,-0.71235555,0.6180359,,-0.022588082,0.40229553,-0.35841754,-0.108847715,0.26064986,-0.95927775,-0.8847276,-0.46537924,-0.026061747,-0.45322096,0.84586275,0.2812596,,1.1236962468640372,0.3481639661686636,0.20778232410000003,0.6456353359888505,-0.19006137117372765,1.0844863668413205,-0.4044399077484755,,-0.8804456067917137,-0.2418914390864601,0.19553756876000003,0.16313877603095994,0.34090806691477393,-0.8948255152640976,0.834688177946167,,-0.04888449068679618,-0.07013605599139214,0.08219610256,-0.07424845330935166,,8.669123e-05,4.6491623e-06,-6.914139e-06,1.0,-9.2271715e-05,-7.969141e-05,9.2271715e-05,1.0,-1.0162592e-05,7.969886e-05,1.013279e-05,1.0,308,0.936,0,0,0.0,False,-0.25600548391979716,1.009056179105541
0.9467310890031513,17:01:52.385603,17:01:38.651695,0,,0.119524114,0.0020307153,0.017392695,-0.9058222,-0.049892567,-0.42070988,-0.42317426,0.05911225,0.904118,-0.020239666,0.9970038,-0.07465842,,0.054761767,-0.009944946,0.023707092,0.20683838,-0.22819088,0.95139194,-0.8412069,0.4550695,0.29203168,-0.49958852,-0.86072093,-0.097829916,,0.1067531,1.3421652,0.44153756,0.9956016,0.020982923,-0.091307916,-0.043652043,-0.7584504,-0.65026724,-0.08289703,0.65139294,-0.7541985,,-0.08941326,0.2527893,-0.08553161,0.8924268,-0.025587544,0.4504661,-0.30498174,0.70155495,0.64405495,-0.3325065,-0.7121558,0.6182827,,-0.022588082,0.40229553,-0.35841754,-0.108847715,0.26064986,-0.95927775,-0.8847276,-0.46537924,-0.026061747,-0.45322096,0.84586275,0.2812596,,1.1233873375490684,0.34800178877830484,0.20768899122,0.6456353359888505,-0.19006137117372765,1.0844863668413205,-0.4044399077484755,,-0.8804456067917137,-0.2418914390864601,0.19553756876000003,0.16313877603095994,0.34090806691477393,-0.8948255152640976,0.834688177946167,,-0.04888449068679618,-0.07013605599139214,0.08219610256,-0.07424845330935166,,8.669123e-05,4.6491623e-06,-6.914139e-06,1.0,-9.2271715e-05,-7.969141e-05,9.2271715e-05,1.0,-1.0162592e-05,7.969886e-05,1.013279e-05,1.0,316,0.96,0,0,0.0,False,-0.25642252794944387,1.0090078989047615
0.9763912390044425,17:01:52.413536,17:01:38.789120,0,,0.119533874,0.0019112825,0.017519116,-0.9057357,-0.050159767,-0.42086446,-0.42335254,0.05930856,0.9040217,-0.020384595,0.99697876,-0.07495326,,0.0547043,-0.009967782,0.023726463,0.20676114,-0.22806817,0.95143807,-0.8412331,0.45510295,0.2919042,-0.49957645,-0.8607358,-0.097760916,,0.10670487,1.3421671,0.4415361,0.99560535,0.02104776,-0.09125233,-0.04356693,-0.7584486,-0.65027505,-0.08289703,0.65139294,-0.7541985,,-0.08939965,0.25278053,-0.085711524,0.8923849,-0.025319383,0.45056427,-0.30515394,0.70169765,0.64381784,-0.33246097,-0.7120248,0.6184581,,-0.022488784,0.40231025,-0.35844865,-0.10868768,0.26050952,-0.959334,-0.8847271,-0.46537587,-0.026138866,-0.45326033,0.84590787,0.28106046,,1.123101596432722,0.34787050231944305,0.20752047352000003,0.6454256460453659,-0.19006137117372765,1.084568045581461,-0.4042765636823411,,-0.8804610522574621,-0.24189916181933432,0.19554016134000002,0.16313877603095994,0.34090806691477393,-0.8948255152640976,0.834688177946167,,-0.04888449068679618,-0.07013605599139214,0.08219610256,-0.07424845330935166,,3.870204e-05,1.1920929e-06,-2.7418137e-06,1.0,-2.7794391e-05,-2.400577e-05,2.7794391e-05,1.0,-3.0696392e-06,2.4013221e-05,3.0398369e-06,1.0,328,0.997,0,0,0.0,False,-0.2568991496976123,1.0092975801094384
1.004326027003117,17:01:52.446697,17:01:38.789120,0,,0.119540714,0.0018001944,0.017706126,-0.9057128,-0.050074037,-0.4209237,-0.4234059,0.05933976,0.9039947,-0.020289138,0.99698114,-0.07494652,,0.05470828,-0.009964891,0.023723364,0.20694113,-0.22809747,0.951392,-0.841239,0.45498866,0.2920654,-0.499492,-0.86078846,-0.09772865,,0.10670487,1.3421671,0.4415361,0.99560535,0.02104776,-0.09125233,-0.04356693,-0.7584486,-0.65027505,-0.08289703,0.65139294,-0.7541985,,-0.089424014,0.25281966,-0.0859242,0.8923533,-0.025404138,0.45062202,-0.305132,0.7017202,0.6438037,-0.33256584,-0.7119996,0.61843073,,-0.022492712,0.40230876,-0.35844463,-0.10887273,0.26055068,-0.9593019,-0.8846771,-0.4654774,-0.026022304,-0.4533135,0.8458393,0.281181,,1.1230012009053572,0.3478318886550719,0.20730399309000003,0.6454256460453659,-0.1901980076734931,1.0846794634851573,-0.4042765636823411,,-0.8804764977232106,-0.2418914390864601,0.19554534650000002,0.16292908608747542,0.34090806691477393,-0.8948255152640976,0.834688177946167,,-0.04888449068679618,-0.07013605599139214,0.08219610256,-0.07424845330935166,,3.870204e-05,1.1920929e-06,-2.7418137e-06,1.0,-2.7794391e-05,-2.400577e-05,2.7794391e-05,1.0,-3.0696392e-06,2.4013221e-05,3.0398369e-06,1.0,336,1.022,0,0,0.0,False,-0.25683957197909146,1.0091527395071
1.0375241829897277,17:01:52.475981,17:01:38.789120,0,,0.11952353,0.0016637594,0.017962873,-0.90509623,-0.0503717,-0.42221257,-0.42470938,0.0590837,0.9033998,-0.020559862,0.9969814,-0.07486984,,0.05472434,-0.009961121,0.023712873,0.20706706,-0.22809495,0.9513652,-0.8413194,0.45478415,0.29215226,-0.4993044,-0.8608972,-0.0977299,,0.10670487,1.3421671,0.4415361,0.99560535,0.02104776,-0.09125233,-0.04356693,-0.7584486,-0.65027505,-0.08289703,0.65139294,-0.7541985,,-0.08943054,0.2528863,-0.086207666,0.89172316,-0.02511468,0.45188394,-0.30630967,0.7015364,0.64344466,-0.33317295,-0.7121909,0.6178834,,-0.022508156,0.40230027,-0.3584362,-0.10900663,0.26057076,-0.9592812,-0.8845736,-0.46567684,-0.025975054,-0.45348337,0.84572333,0.28125587,,1.123032091836854,0.3477855522578266,0.20701362413000002,0.6439578164409743,-0.19047128067302396,1.0850656567728314,-0.4046032518146099,,-0.8805305568533301,-0.2418914390864601,0.19556219827000001,0.1627193961439909,0.34077143041500846,-0.8947957761005416,0.8348515220123014,,-0.04888449068679618,-0.07013605599139214,0.08219610256,-0.07424845330935166,,3.870204e-05,1.1920929e-06,-2.7418137e-06,1.0,-2.7794391e-05,-2.400577e-05,2.7794391e-05,1.0,-3.0696392e-06,2.4013221e-05,3.0398369e-06,1.0,344,1.046,0,0,0.0,False,-0.25624379479388093,1.0086699374993053
1.0667747019906528,17:01:52.496383,17:01:38.789120,0,,0.11951855,0.0015241951,0.018228188,-0.9045569,-0.054003127,-0.42291898,-0.42566785,0.05818075,0.90300715,-0.024159446,0.9968444,-0.07561523,,0.054731015,-0.009959213,0.023709416,0.20707051,-0.22807357,0.9513696,-0.84131753,0.45479208,0.29214525,-0.49930602,-0.86089873,-0.0977083,,0.10670487,1.3421671,0.4415361,0.99560535,0.02104776,-0.09125233,-0.04356693,-0.7584486,-0.65027505,-0.08289703,0.65139294,-0.7541985,,-0.089449964,0.25295582,-0.08649867,0.89143664,-0.021510249,0.4526345,-0.30941418,0.7008747,0.64268,-0.33106425,-0.71296006,0.6181298,,-0.022514664,0.40229768,-0.35843292,-0.10901007,0.26054907,-0.9592867,-0.88457435,-0.46567613,-0.025960922,-0.45348102,0.8457304,0.2812384,,1.1231093191655963,0.347661988531839,0.20670899598000003,0.6414415371191601,-0.1874652776781843,1.0848197888753053,-0.4037865314839383,,-0.8805537250519528,-0.2418914390864601,0.19556867972000003,0.1627193961439909,0.34077143041500846,-0.8947957761005416,0.8348515220123014,,-0.04888449068679618,-0.07013605599139214,0.08219610256,-0.07424845330935166,,3.870204e-05,1.1920929e-06,-2.7418137e-06,1.0,-2.7794391e-05,-2.400577e-05,2.7794391e-05,1.0,-3.0696392e-06,2.4013221e-05,3.0398369e-06,1.0,356,1.083,0,0,0.0,False,-0.25719703829021734,1.0092010197078791
1.0872062529961113,17:01:52.537670,17:01:38.789120,0,,0.11951419,0.0013490319,0.01852259,-0.90338457,-0.058873754,-0.42477083,-0.42779052,0.05474931,0.90221834,-0.029861018,0.996763,-0.07464543,,0.05473374,-0.009959914,0.023707688,0.20706885,-0.22806408,0.95137227,-0.841321,0.45478982,0.29213864,-0.4993008,-0.8609024,-0.09770231,,0.10670487,1.3421671,0.4415361,0.99560535,0.02104776,-0.09125233,-0.04356693,-0.7584486,-0.65027505,-0.08289703,0.65139294,-0.7541985,,-0.08947326,0.25301766,-0.08683483,0.89064896,-0.016745953,0.45438313,-0.31479612,0.69838285,0.64277893,-0.32809734,-0.7155284,0.61674243,,-0.022517191,0.40229556,-0.35843262,-0.10900857,0.26054004,-0.9592893,-0.8845716,-0.4656814,-0.02595959,-0.4534867,0.8457303,0.2812296,,1.1231865464943385,0.3474148610798638,0.20636029397000002,0.6368283583625004,-0.18295627318592475,1.0867788311230222,-0.4042765636823412,,-0.880561447784827,-0.24189916181933432,0.19557127230000002,0.1627193961439909,0.34077143041500846,-0.8947957761005415,0.8341981457477641,,-0.04888449068679618,-0.07013605599139214,0.08219610256,-0.07424845330935166,,3.870204e-05,1.1920929e-06,-2.7418137e-06,1.0,-2.7794391e-05,-2.400577e-05,2.7794391e-05,1.0,-3.0696392e-06,2.4013221e-05,3.0398369e-06,1.0,401,1.221,0,0,0.0,False,-0.2566012611050077,1.0089113385032027
1.1284740770061035,17:01:52.670443,17:01:38.934135,0,,0.119417265,0.0007265806,0.019736469,-0.9023217,-0.082008705,-0.42319027,-0.42716646,0.038407207,0.9033569,-0.05782953,0.99589133,-0.0696871,,0.054737087,-0.009957634,0.023707151,0.20707397,-0.22812992,0.95135534,-0.8413156,0.45477614,0.29217538,-0.4993077,-0.8608922,-0.09775701,,0.10670487,1.3421671,0.4415361,0.99560535,0.02104776,-0.09125233,-0.04356693,-0.7584486,-0.65027505,-0.08289703,0.65139294,-0.7541985,,-0.089487836,0.25335014,-0.088161334,0.89176655,0.0059201415,0.452457,-0.3327484,0.68619555,0.6468494,-0.30664456,-0.72739303,0.6138962,,-0.022520637,0.40229592,-0.35843045,-0.10901351,0.26060572,-0.95927095,-0.8845751,-0.4656733,-0.025984826,-0.45347863,0.8457145,0.28129002,,1.1242986200282268,0.3462101147514848,0.20495511561000002,0.6252954114708517,-0.15562897323283667,1.093409524393497,-0.40476659588074404,,-0.8805768932505755,-0.2418914390864601,0.19557386488000003,0.1627193961439909,0.34077143041500846,-0.894714097360401,0.8340348016816299,,-0.04888449068679618,-0.07013605599139214,0.08219610256,-0.07424845330935166,,3.870204e-05,1.1920929e-06,-2.7418137e-06,1.0,-2.7794391e-05,-2.400577e-05,2.7794391e-05,1.0,-3.0696392e-06,2.4013221e-05,3.0398369e-06,1.0,409,1.247,0,0,0.0,False,-0.2570778828531757,1.0081871354915106
1.2612375939788762,17:01:52.704534,17:01:39.066846,0,,0.11936026,0.00067304075,0.019863933,-0.9017785,-0.08265228,-0.42422175,-0.4280144,0.034535438,0.90311193,-0.059993535,0.9959799,-0.06651974,,0.05473891,-0.009957202,0.023706675,0.20707512,-0.2281228,0.95135677,-0.8413151,0.45477873,0.29217306,-0.4993083,-0.8608928,-0.09774983,,0.10670487,1.3421671,0.4415361,0.99560535,0.02104776,-0.09125233,-0.04356693,-0.7584486,-0.65027505,-0.08289703,0.65139294,-0.7541985,,-0.08944236,0.25339532,-0.08829642,0.89136845,0.0064462,0.45323363,-0.33482584,0.6833582,0.64877826,-0.30553877,-0.7300548,0.6112823,,-0.022522451,0.40229562,-0.35842988,-0.10901466,0.2605985,-0.95927274,-0.8845754,-0.46567306,-0.025980115,-0.45347786,0.8457169,0.2812842,,1.1246384202746926,0.34604793736112605,0.20481382,0.623408201979491,-0.1537160622361205,1.0967503981501807,-0.40411321961620683,,-0.8805846159834497,-0.2418914390864601,0.19557516117,0.1627193961439909,0.34077143041500846,-0.894714097360401,0.8343614898138983,,-0.04888449068679618,-0.07013605599139214,0.08219610256,-0.07424845330935166,,3.870204e-05,1.1920929e-06,-2.7418137e-06,1.0,-2.7794391e-05,-2.400577e-05,2.7794391e-05,1.0,-3.0696392e-06,2.4013221e-05,3.0398369e-06,1.0,421,1.284,0,0,0.0,False,-0.2568991496976123,1.0083802562946285
1.2953333769983146,17:01:52.740419,17:01:39.066846,0,,0.11932997,0.0006340742,0.019881517,-0.90154284,-0.08303705,-0.42464736,-0.4284693,0.034583777,0.9028944,-0.06028776,0.9959463,-0.06675765,,0.054740436,-0.009958439,0.023707151,0.20707346,-0.2285018,0.95126617,-0.8413186,0.4546571,0.29235214,-0.499303,-0.8608564,-0.0980954,,0.10670487,1.3421671,0.4415361,0.99560535,0.02104776,-0.09125233,-0.04356693,-0.7584486,-0.65027505,-0.08289703,0.65139294,-0.7541985,,-0.08941461,0.25337845,-0.088337556,0.89114356,0.0068336283,0.45367005,-0.33536878,0.6833839,0.6484707,-0.3055994,-0.73002726,0.6112849,,-0.022523914,0.4022952,-0.35843122,-0.10901316,0.2609812,-0.95916885,-0.8845727,-0.4656677,-0.026168963,-0.45348355,0.8456018,0.28162074,,1.124715647603435,0.34584714630639624,0.20478011646000002,0.6227791321490374,-0.15344278923658963,1.096690919823069,-0.4042765636823411,,-0.8805923387163239,-0.24189916181933432,0.19557516117,0.1627193961439909,0.34077143041500846,-0.8943057036596982,0.8335447694832271,,-0.04888449068679618,-0.07013605599139214,0.08219610256,-0.07424845330935166,,3.870204e-05,1.1920929e-06,-2.7418137e-06,1.0,-2.7794391e-05,-2.400577e-05,2.7794391e-05,1.0,-3.0696392e-06,2.4013221e-05,3.0398369e-06,1.0,433,1.321,0,0,0.0,False,-0.25695872741613357,1.0080905750899518
1.331231193995336,17:01:52.777061,17:01:39.066846,0,,0.119357914,0.0005721152,0.019854635,-0.901019,-0.0808125,-0.42618558,-0.42978233,0.03323701,0.9023206,-0.058753654,0.99617505,-0.064679,,0.05474014,-0.009957038,0.02370739,0.20707627,-0.2285042,0.951265,-0.84131444,0.45466202,0.29235643,-0.49930882,-0.8608532,-0.098094195,,0.10670487,1.3421671,0.4415361,0.99560535,0.02104776,-0.09125233,-0.04356693,-0.7584486,-0.65027505,-0.08289703,0.65139294,-0.7541985,,-0.08944213,0.2533133,-0.08835601,0.8904662,0.0045611756,0.4550265,-0.3353641,0.6824542,0.64945143,-0.30757248,-0.7309141,0.60923207,,-0.022523733,0.40229616,-0.35843015,-0.10901581,0.26098302,-0.9591681,-0.88457566,-0.46566218,-0.02616558,-0.45347705,0.8456043,0.28162375,,1.1243526791583465,0.34570041438178595,0.20478011646000002,0.6221500623185837,-0.15549233673307122,1.0993423332602021,-0.4042765636823411,,-0.8805923387163239,-0.2418914390864601,0.19557516117,0.1627193961439909,0.34077143041500846,-0.8943057036596982,0.8335447694832271,,-0.04888449068679618,-0.07013605599139214,0.08219610256,-0.07424845330935166,,3.870204e-05,1.1920929e-06,-2.7418137e-06,1.0,-2.7794391e-05,-2.400577e-05,2.7794391e-05,1.0,-3.0696392e-06,2.4013221e-05,3.0398369e-06,1.0,441,1.345,0,0,0.0,False,-0.2568991496976123,1.0080422948891723
1.3678840219799895,17:01:52.796841,17:01:39.066846,0,,0.11941442,0.00054231286,0.019836158,-0.9008976,-0.082705334,-0.4260788,-0.42982653,0.03368652,0.90228295,-0.060270444,0.9960046,-0.06589711,,0.05474014,-0.009957038,0.02370739,0.20707627,-0.2285042,0.951265,-0.84131444,0.45466202,0.29235643,-0.49930882,-0.8608532,-0.098094195,,0.10670487,1.3421671,0.4415361,0.99560535,0.02104776,-0.09125233,-0.04356693,-0.7584486,-0.65027505,-0.08289703,0.65139294,-0.7541985,,-0.08949785,0.25327703,-0.08835743,0.8904612,0.0064733736,0.4550131,-0.33639836,0.6827369,0.6486189,-0.3064555,-0.73063564,0.61012834,,-0.022523733,0.40229616,-0.35843015,-0.10901581,0.26098302,-0.9591681,-0.88457566,-0.46566218,-0.02616558,-0.45347705,0.8456043,0.28162375,,1.124036047110503,0.34564635525166637,0.20478270904,0.6215209924881302,-0.15426260823518226,1.0985029296072153,-0.4042765636823411,,-0.8805923387163239,-0.2418914390864601,0.19557516117,0.1627193961439909,0.34077143041500846,-0.8943057036596982,0.8335447694832271,,-0.04888449068679618,-0.07013605599139214,0.08219610256,-0.07424845330935166,,3.870204e-05,1.1920929e-06,-2.7418137e-06,1.0,-2.7794391e-05,-2.400577e-05,2.7794391e-05,1.0,-3.0696392e-06,2.4013221e-05,3.0398369e-06,1.0,474,1.447,0,0,0.0,False,-0.2566012611050077,1.0086216572985258
1.387664796988247,17:01:52.897545,17:01:39.208493,0,,0.11976531,0.00024059415,0.020141318,-0.89919794,-0.096358694,-0.42679977,-0.43154287,0.03433636,0.9014388,-0.072206706,0.9947543,-0.07245812,,0.05474376,-0.009958856,0.02370429,0.2070718,-0.22825916,0.95132476,-0.8413221,0.4547265,0.29223412,-0.4992978,-0.8608842,-0.097878456,,0.10670487,1.3421671,0.4415361,0.99560535,0.02104776,-0.09125233,-0.04356693,-0.7584486,-0.65027505,-0.08289703,0.65139294,-0.7541985,,-0.08987957,0.2532401,-0.08875769,0.8896406,0.020195348,0.4562145,-0.34558967,0.6828104,0.6436907,-0.29850844,-0.7303164,0.6144352,,-0.022526974,0.40229222,-0.35843012,-0.109011665,0.26073712,-0.9592354,-0.88456994,-0.46567938,-0.026053527,-0.45348927,0.84567064,0.2814047,,1.1222984322138025,0.3456386325187922,0.20436919253000002,0.61502060424011,-0.14510796275089774,1.0943867584053182,-0.4031331552194012,,-0.8806000614491981,-0.24190688455220855,0.19557905004,0.1627193961439909,0.34077143041500846,-0.8945507398801198,0.8340348016816298,,-0.04888449068679618,-0.07013605599139214,0.08219610256,-0.07424845330935166,,3.870204e-05,1.1920929e-06,-2.7418137e-06,1.0,-2.7794391e-05,-2.400577e-05,2.7794391e-05,1.0,-3.0696392e-06,2.4013221e-05,3.0398369e-06,1.0,482,1.472,0,0,0.0,False,-0.25731619372725945,1.007511212680598
1.4883394129865337,17:01:52.926606,17:01:39.208493,0,,0.119790465,0.00015455484,0.020297676,-0.89910775,-0.09733497,-0.42676818,-0.43156272,0.034064025,0.9014396,-0.0732041,0.99466866,-0.072633415,,0.054756798,-0.009954445,0.023701966,0.20690781,-0.22863686,0.95126975,-0.84130245,0.4547312,0.2922834,-0.4993989,-0.86078143,-0.09826535,,0.10670487,1.3421671,0.4415361,0.99560535,0.02104776,-0.09125233,-0.04356693,-0.7584486,-0.65027505,-0.08289703,0.65139294,-0.7541985,,-0.08991912,0.2532774,-0.08892953,0.8896272,0.021167314,0.45619658,-0.34626314,0.68257815,0.64357513,-0.29776707,-0.730506,0.61456954,,-0.022540074,0.40229124,-0.35842538,-0.10884223,0.26110467,-0.95915467,-0.88462836,-0.46555173,-0.026349049,-0.453416,0.84562755,0.28165227,,1.122167145754941,0.34564635525166637,0.20419030451000003,0.6146012243531409,-0.14428814375230511,1.0943716809042643,-0.40394987555007256,,-0.8806541205793177,-0.24189916181933432,0.19558812407,0.16292908608747542,0.34077143041500846,-0.8940606674392765,0.8327280491525557,,-0.04888449068679618,-0.07013605599139214,0.08219610256,-0.07424845330935166,,3.870204e-05,1.1920929e-06,-2.7418137e-06,1.0,-2.7794391e-05,-2.400577e-05,2.7794391e-05,1.0,-3.0696392e-06,2.4013221e-05,3.0398369e-06,1.0,494,1.509,0,0,0.0,False,-0.25677999426057063,1.0078491740860545
1.5173911259917077,17:01:52.957081,17:01:39.208493,0,,0.11978064,-2.4944544e-05,0.020645738,-0.8990026,-0.09720668,-0.42701888,-0.43179172,0.03388831,0.90133655,-0.07314493,0.9946872,-0.07243878,,0.05477825,-0.009949394,0.02369976,0.20744853,-0.2285049,0.9511837,-0.8413274,0.45444196,0.29266095,-0.4991323,-0.8609692,-0.097974144,,0.10670487,1.3421671,0.4415361,0.99560535,0.02104776,-0.09125233,-0.04356693,-0.7584486,-0.65027505,-0.08289703,0.65139294,-0.7541985,,-0.08994123,0.25337142,-0.08930919,0.88951147,0.021033097,0.4564285,-0.34639975,0.6824542,0.643633,-0.29795396,-0.7306256,0.6143367,,-0.0225616,0.40228987,-0.35842037,-0.10939858,0.26100793,-0.9591177,-0.8844712,-0.46587563,-0.025896033,-0.45358863,0.845479,0.28182012,,1.1221517002891923,0.3456154643201695,0.20379882493,0.6143915344096564,-0.14442478025207056,1.0946464562882419,-0.40411321961620694,,-0.8807622388395568,-0.24189916181933432,0.19560108697000003,0.16230001625702184,0.34077143041500846,-0.8942240249195575,0.8327280491525556,,-0.04888449068679618,-0.07013605599139214,0.08219610256,-0.07424845330935166,,3.870204e-05,1.1920929e-06,-2.7418137e-06,1.0,-2.7794391e-05,-2.400577e-05,2.7794391e-05,1.0,-3.0696392e-06,2.4013221e-05,3.0398369e-06,1.0,502,1.534,0,0,0.0,False,-0.256541683386486,1.0073180918774804
1.5479081189841963,17:01:52.986943,17:01:39.355810,0,,0.119775034,-0.000112220645,0.020829558,-0.89829904,-0.097805455,-0.42836064,-0.4331436,0.03338489,0.9007065,-0.0737932,0.9946456,-0.07235345,,0.054813553,-0.009941317,0.02369386,0.20747153,-0.22828476,0.9512316,-0.84131527,0.4545185,0.29257715,-0.4991433,-0.8609872,-0.09775983,,0.10670487,1.3421671,0.4415361,0.99560535,0.02104776,-0.09125233,-0.04356693,-0.7584486,-0.65027505,-0.08289703,0.65139294,-0.7541985,,-0.08995228,0.25342673,-0.08950476,0.88882244,0.021618955,0.4577415,-0.3478647,0.68206567,0.6432547,-0.29830328,-0.73097134,0.6137557,,-0.022596825,0.40228552,-0.35841104,-0.10942149,0.260785,-0.95917577,-0.8844764,-0.46587303,-0.025763763,-0.4535729,0.8455492,0.28163472,,1.122174868487815,0.34563090978591793,0.2035953074,0.6127140148617801,-0.14442478025207056,1.0950548499889445,-0.403623187417804,,-0.8809166934970414,-0.24189916181933432,0.19562442019,0.16230001625702184,0.34077143041500846,-0.8943057036596981,0.8332180813509584,,-0.04888449068679618,-0.07013605599139214,0.08219610256,-0.07424845330935166,,3.870204e-05,1.1920929e-06,-2.7418137e-06,1.0,-2.7794391e-05,-2.400577e-05,2.7794391e-05,1.0,-3.0696392e-06,2.4013221e-05,3.0398369e-06,1.0,510,1.558,0,0,0.0,False,-0.25672041654204936,1.007076690873583
1.5777707519882824,17:01:53.017778,17:01:39.355810,0,,0.119769044,-0.00026673079,0.021201417,-0.8975673,-0.10072966,-0.4292161,-0.4340219,0.030865341,0.90037346,-0.07744634,0.9944351,-0.07142264,,0.054856267,-0.009932421,0.02369368,0.20767742,-0.22836655,0.951167,-0.84131,0.45439327,0.292787,-0.4990667,-0.86103165,-0.09775987,,0.10670487,1.3421671,0.4415361,0.99560535,0.02104776,-0.09125233,-0.04356693,-0.7584486,-0.65027505,-0.08289703,0.65139294,-0.7541985,,-0.089979365,0.25355512,-0.08988553,0.88835055,0.024478918,0.45851287,-0.3509498,0.68011755,0.64364153,-0.296087,-0.7326943,0.61277366,,-0.022639915,0.40228567,-0.35840425,-0.1096325,0.26087853,-0.95912623,-0.8844298,-0.465968,-0.025647098,-0.45361292,0.84546804,0.28181398,,1.1223293231452995,0.34564635525166637,0.20318956863,0.6101977355399659,-0.14141877725723084,1.0962791994139485,-0.40345984335166973,,-0.8811252072846454,-0.24189916181933432,0.19564645712,0.16209032631353731,0.34077143041500846,-0.8940606674392765,0.8325647050864214,,-0.04888449068679618,-0.07013605599139214,0.08219610256,-0.07424845330935166,,3.870204e-05,1.1920929e-06,-2.7418137e-06,1.0,-2.7794391e-05,-2.400577e-05,2.7794391e-05,1.0,-3.0696392e-06,2.4013221e-05,3.0398369e-06,1.0,522,1.595,0,0,0.0,False,-0.2570778828531757,1.007511212680598
1.6086027569836006,17:01:53.046981,17:01:39.355810,0,,0.11976808,-0.0003386587,0.0213767,-0.8978146,-0.101632014,-0.4284855,-0.43313652,0.028122991,0.9008896,-0.0795089,0.9944246,-0.06926975,,0.054902695,-0.009925969,0.023694873,0.20805593,-0.22823,0.95111704,-0.8413221,0.45421314,0.29303133,-0.4988885,-0.86116284,-0.097513236,,0.10670487,1.3421671,0.4415361,0.99560535,0.02104776,-0.09125233,-0.04356693,-0.7584486,-0.65027505,-0.08289703,0.65139294,-0.7541985,,-0.089993946,0.25361624,-0.09006425,0.8887811,0.025302181,0.457633,-0.35163212,0.6780729,0.6454239,-0.29397792,-0.734559,0.61155546,,-0.022686638,0.40228534,-0.35840026,-0.110021666,0.2607653,-0.95911247,-0.8843241,-0.4661873,-0.025305342,-0.4537248,0.8453821,0.28189173,,1.122414273206916,0.34562318705304373,0.20299771771000003,0.6101977355399659,-0.13909595676121836,1.0983056745778563,-0.4037865314839383,,-0.8813568892708722,-0.24191460728508277,0.19566849405000003,0.1616709464265683,0.34077143041500846,-0.8940606674392764,0.8324013610202871,,-0.04888449068679618,-0.07013605599139214,0.08219610256,-0.07424845330935166,,3.870204e-05,1.1920929e-06,-2.7418137e-06,1.0,-2.7794391e-05,-2.400577e-05,2.7794391e-05,1.0,-3.0696392e-06,2.4013221e-05,3.0398369e-06,1.0,547,1.672,0,0,0.0,False,-0.25779281547542787,1.0071249710743626
1.6378069040074479,17:01:53.118309,17:01:39.470104,0,,0.11975659,-0.0005837232,0.021871716,-0.89714426,-0.10736719,-0.42849085,-0.43301547,0.02194181,0.9011195,-0.08734879,0.99397737,-0.06617674,,0.054992475,-0.009909637,0.023708582,0.20830078,-0.22791418,0.95113915,-0.8412961,0.45422506,0.29308748,-0.4988301,-0.86124015,-0.0971279,,0.10670487,1.3421671,0.4415361,0.99560535,0.02104776,-0.09125233,-0.04356693,-0.7584486,-0.65027505,-0.08289703,0.65139294,-0.7541985,,-0.09002757,0.2537576,-0.090597294,0.8887217,0.030879283,0.45740598,-0.35671595,0.6732963,0.64763093,-0.28797138,-0.7387277,0.6093882,,-0.02277813,0.4022964,-0.35839543,-0.11027148,0.26045623,-0.9591677,-0.884286,-0.46627852,-0.024952477,-0.45373833,0.84542704,0.28173503,,1.1226382324602686,0.3453451686695716,0.20243253527000002,0.6068426964442135,-0.13158094927411915,1.10189745995128,-0.405419972145281,,-0.8818279759761999,-0.24191460728508277,0.19570219759000002,0.16146125648308374,0.34077143041500846,-0.8939789886991358,0.8325647050864213,,-0.04888449068679618,-0.07013605599139214,0.08219610256,-0.07424845330935166,,3.870204e-05,1.1920929e-06,-2.7418137e-06,1.0,-2.7794391e-05,-2.400577e-05,2.7794391e-05,1.0,-3.0696392e-06,2.4013221e-05,3.0398369e-06,1.0,555,1.698,0,0,0.0,False,-0.25779281547542787,1.0072215314759216
1.7090721169952303,17:01:53.148614,17:01:39.470104,0,,0.11972786,-0.00068061054,0.021974355,-0.8967645,-0.10835229,-0.4290374,-0.43361565,0.021773964,0.90083486,-0.08826564,0.9938741,-0.066509426,,0.05500835,-0.009906881,0.02371192,0.20831342,-0.22768044,0.95119244,-0.8412894,0.4543019,0.29298756,-0.49883616,-0.8612615,-0.096907996,,0.10670487,1.3421671,0.4415361,0.99560535,0.02104776,-0.09125233,-0.04356693,-0.7584486,-0.65027505,-0.08289703,0.65139294,-0.7541985,,-0.09000958,0.253753,-0.090740144,0.8883972,0.031864315,0.45796838,-0.35778198,0.67313135,0.6472142,-0.28764984,-0.7388361,0.6094085,,-0.022794366,0.40229902,-0.35839516,-0.11028407,0.26022,-0.9592304,-0.88428885,-0.46627995,-0.024824485,-0.45372975,0.845499,0.28153288,,1.1226768461246397,0.3450671502860995,0.20230031369,0.6057942467267908,-0.1307611302755265,1.1018007037100856,-0.40476659588074393,,-0.8819129260378163,-0.24191460728508277,0.19570738275000002,0.16146125648308374,0.34077143041500846,-0.894142346179417,0.8328913932186899,,-0.04888449068679618,-0.07013605599139214,0.08219610256,-0.07424845330935166,,3.870204e-05,1.1920929e-06,-2.7418137e-06,1.0,-2.7794391e-05,-2.400577e-05,2.7794391e-05,1.0,-3.0696392e-06,2.4013221e-05,3.0398369e-06,1.0,567,1.734,0,0,0.0,False,-0.25767366003838577,1.007800893885275
1.739444103994174,17:01:53.181191,17:01:39.470104,0,,0.11970884,-0.00077039003,0.022037119,-0.89623934,-0.111152664,-0.42941827,-0.43421227,0.0220353,0.90054107,-0.090635166,0.99355906,-0.068012804,,0.055009536,-0.009905912,0.023706794,0.20831227,-0.22768757,0.95119095,-0.84129,0.45429927,0.2929899,-0.49883556,-0.861261,-0.0969152,,0.10670487,1.3421671,0.4415361,0.99560535,0.02104776,-0.09125233,-0.04356693,-0.7584486,-0.65027505,-0.08289703,0.65139294,-0.7541985,,-0.08999799,0.25372726,-0.090847686,0.88804,0.034686882,0.4584558,-0.3598048,0.6732043,0.6460158,-0.28622615,-0.7386425,0.6103129,,-0.022795219,0.40229508,-0.3583916,-0.11028293,0.26022723,-0.9592286,-0.88428855,-0.4662802,-0.024829198,-0.45373052,0.84549665,0.28153872,,1.1226845688575138,0.34471190457388523,0.20220179565000002,0.6041167271789146,-0.12857494627927946,1.1007531259122079,-0.40591000434368374,,-0.8819052033049422,-0.24191460728508277,0.19571256791000002,0.16146125648308374,0.34077143041500846,-0.894142346179417,0.8328913932186899,,-0.04888449068679618,-0.07013605599139214,0.08219610256,-0.07424845330935166,,3.870204e-05,1.1920929e-06,-2.7418137e-06,1.0,-2.7794391e-05,-2.400577e-05,2.7794391e-05,1.0,-3.0696392e-06,2.4013221e-05,3.0398369e-06,1.0,575,1.759,0,0,0.0,False,-0.25791197091247,1.0076560532829368
1.7720116270065773,17:01:53.213413,17:01:39.470104,0,,0.11971842,-0.0008663684,0.02211368,-0.8955525,-0.11648999,-0.4294364,-0.43438768,0.019794375,0.9005085,-0.0963998,0.99299467,-0.06832874,,0.05500891,-0.009905748,0.023704946,0.20831113,-0.2276947,0.95118946,-0.84129065,0.45429662,0.29299223,-0.49883503,-0.8612605,-0.096922405,,0.10670487,1.3421671,0.4415361,0.99560535,0.02104776,-0.09125233,-0.04356693,-0.7584486,-0.65027505,-0.08289703,0.65139294,-0.7541985,,-0.090016134,0.25370505,-0.09096743,0.8877957,0.039986946,0.45849735,-0.3637478,0.671305,0.64578414,-0.28196862,-0.74010175,0.61052686,,-0.022794472,0.40229368,-0.3583905,-0.11028178,0.26023448,-0.9592267,-0.8842883,-0.46628043,-0.024833908,-0.4537313,0.8454943,0.28154454,,1.122653677926017,0.34431032246442556,0.20208512955000002,0.6013907579136158,-0.12310948628866183,1.1010337766925038,-0.4029698111532669,,-0.8818974805720678,-0.24191460728508277,0.19571386420000003,0.16146125648308374,0.34077143041500846,-0.894142346179417,0.8328913932186899,,-0.04888449068679618,-0.07013605599139214,0.08219610256,-0.07424845330935166,,3.870204e-05,1.1920929e-06,-2.7418137e-06,1.0,-2.7794391e-05,-2.400577e-05,2.7794391e-05,1.0,-3.0696392e-06,2.4013221e-05,3.0398369e-06,1.0,583,1.784,0,0,0.0,False,-0.25719703829021734,1.0078974542868337
1.8042414719820954,17:01:53.243214,17:01:39.611197,0,,0.11977117,-0.00094769895,0.022230625,-0.8952139,-0.12519512,-0.42768928,-0.43301284,0.017559588,0.90121675,-0.105317876,0.99197686,-0.06993076,,0.05500891,-0.009905748,0.023704946,0.20831113,-0.2276947,0.95118946,-0.84129065,0.45429662,0.29299223,-0.49883503,-0.8612605,-0.096922405,,0.10670487,1.3421671,0.4415361,0.99560535,0.02104776,-0.09125233,-0.04356693,-0.7584486,-0.65027505,-0.08289703,0.65139294,-0.7541985,,-0.090080015,0.25371915,-0.09110452,0.88818526,0.048678618,0.45689967,-0.3685869,0.66921246,0.6452119,-0.27435493,-0.7414749,0.612327,,-0.022794472,0.40229368,-0.3583905,-0.11028178,0.26023448,-0.9592267,-0.8842883,-0.46628043,-0.024833908,-0.4537313,0.8454943,0.28154454,,1.1225918960630232,0.34402458134807923,0.20193605620000002,0.5988744785918015,-0.11422811380390821,1.0997541609824972,-0.40411321961620694,,-0.8818974805720678,-0.24191460728508277,0.19571386420000003,0.16146125648308374,0.34077143041500846,-0.893978988699136,0.83289139321869,,-0.04888449068679618,-0.07013605599139214,0.08219610256,-0.07424845330935166,,3.870204e-05,1.1920929e-06,-2.7418137e-06,1.0,-2.7794391e-05,-2.400577e-05,2.7794391e-05,1.0,-3.0696392e-06,2.4013221e-05,3.0398369e-06,1.0,595,1.82,0,0,0.0,False,-0.25731619372725945,1.0078491740860545
1.8340396829880774,17:01:53.277925,17:01:39.611197,0,,0.1197722,-0.0010528862,0.022425532,-0.89387196,-0.1254778,-0.43040457,-0.43539244,0.014063388,0.900131,-0.106893465,0.99199677,-0.067202985,,0.055010736,-0.009905301,0.023704529,0.20831227,-0.22792065,0.95113516,-0.84129,0.45422748,0.29310122,-0.49883556,-0.8612372,-0.09712622,,0.10670487,1.3421671,0.4415361,0.99560535,0.02104776,-0.09125233,-0.04356693,-0.7584486,-0.65027505,-0.08289703,0.65139294,-0.7541985,,-0.09009905,0.2537681,-0.0913197,0.8869028,0.048860826,0.45936474,-0.3714543,0.666602,0.6462689,-0.27463624,-0.7438107,0.60936075,,-0.022796286,0.40229338,-0.35838994,-0.11028293,0.26046228,-0.9591648,-0.88428855,-0.4662741,-0.024943452,-0.45373052,0.84542763,0.28174588,,1.1225687278644005,0.34399369041658234,0.20171439061000002,0.5957291294395337,-0.11381820430461188,1.1031771293178738,-0.40509328401301237,,-0.8819052033049422,-0.24191460728508277,0.19571516049,0.16146125648308374,0.34077143041500846,-0.8938973099589954,0.8330547372848243,,-0.04888449068679618,-0.07013605599139214,0.08219610256,-0.07424845330935166,,3.870204e-05,1.1920929e-06,-2.7418137e-06,1.0,-2.7794391e-05,-2.400577e-05,2.7794391e-05,1.0,-3.0696392e-06,2.4013221e-05,3.0398369e-06,1.0,616,1.885,1,1,0.019,False,-0.25731619372725945,1.0082836958930697
1.868752996000694,17:01:53.339607,17:01:39.611197,0,,0.11986778,-0.0010849535,0.022684425,-0.89182454,-0.13566066,-0.43156132,-0.4370547,0.0121643245,0.8993528,-0.116757095,0.9906807,-0.07013962,,0.055011336,-0.009905018,0.023703456,0.20831227,-0.22799832,0.9511165,-0.84129,0.45420352,0.29313833,-0.49883556,-0.8612293,-0.09719657,,0.10670487,1.3421671,0.4415361,0.99560535,0.02104776,-0.09125233,-0.04356693,-0.7584486,-0.65027505,-0.08289703,0.65139294,-0.7541985,,-0.09021519,0.25391135,-0.091527484,0.8855772,0.05905767,0.4607225,-0.37925237,0.66461,0.64378655,-0.26818028,-0.7448528,0.61096126,,-0.02279682,0.40229255,-0.35838914,-0.11028293,0.2605406,-0.9591435,-0.88428855,-0.46627206,-0.024981536,-0.45373052,0.8454046,0.28181493,,1.1225687278644005,0.34434121339592244,0.20146161406000002,0.5896481210784825,-0.10589328731821636,1.10088050665065,-0.40394987555007267,,-0.8819052033049422,-0.24191460728508277,0.19571645678000002,0.16146125648308374,0.34077143041500846,-0.8938156312188548,0.8338714576154954,,-0.04888449068679618,-0.07013605599139214,0.08219610256,-0.07424845330935166,,3.870204e-05,1.1920929e-06,-2.7418137e-06,1.0,-2.7794391e-05,-2.400577e-05,2.7794391e-05,1.0,-3.0696392e-06,2.4013221e-05,3.0398369e-06,1.0,624,1.911,1,1,0.045,False,-0.25761408231986493,1.0086216572985258
1.930435108981328,17:01:53.360617,17:01:39.611197,0,,0.11996817,-0.0010731071,0.022875443,-0.8908563,-0.14360186,-0.4309913,-0.43638307,0.006799847,0.89973533,-0.12627295,0.9896122,-0.06872317,,0.055010773,-0.009904973,0.023703158,0.20848702,-0.22803918,0.9510684,-0.8413011,0.4540788,0.29329973,-0.4987439,-0.86128426,-0.0971801,,0.10670487,1.3421671,0.4415361,0.99560535,0.02104776,-0.09125233,-0.04356693,-0.7584486,-0.65027505,-0.08289703,0.65139294,-0.7541985,,-0.09032965,0.25404286,-0.09165518,0.8853658,0.06690419,0.46005577,-0.38503265,0.66010535,0.64498895,-0.26053283,-0.74818766,0.610195,,-0.02279624,0.40229237,-0.35838893,-0.110462934,0.26059416,-0.95910823,-0.88423467,-0.4663798,-0.024877997,-0.45379177,0.8453287,0.28194407,,1.122584173330149,0.344704181841011,0.20128920749,0.5860833920392455,-0.0972851878329936,1.102355767692394,-0.403623187417804,,-0.8819052033049422,-0.24191460728508277,0.19571645678000002,0.1612515665395992,0.34077143041500846,-0.8938156312188548,0.8338714576154954,,-0.04888449068679618,-0.07013605599139214,0.08219610256,-0.07424845330935166,,3.870204e-05,1.1920929e-06,-2.7418137e-06,1.0,-2.7794391e-05,-2.400577e-05,2.7794391e-05,1.0,-3.0696392e-06,2.4013221e-05,3.0398369e-06,1.0,633,1.938,1,1,0.072,False,-0.2564821056679656,1.0091527395071
1.9513924589846283,17:01:53.391212,17:01:39.741837,0,,0.12008447,-0.0010566711,0.02306655,-0.8890778,-0.15512294,-0.43067092,-0.43630743,0.002553463,0.8997941,-0.13847895,0.9878919,-0.069951564,,0.055010147,-0.009904839,0.02370131,0.20848587,-0.2280463,0.9510669,-0.84130174,0.45407614,0.2933021,-0.49874336,-0.8612837,-0.097187296,,0.10670487,1.3421671,0.4415361,0.99560535,0.02104776,-0.09125233,-0.04356693,-0.7584486,-0.65027505,-0.08289703,0.65139294,-0.7541985,,-0.090459846,0.25417745,-0.091778696,0.88453776,0.07840015,0.45983297,-0.3930546,0.6561203,0.64421594,-0.25119913,-0.7505728,0.61117876,,-0.02279549,0.40229097,-0.35838783,-0.110461794,0.2606014,-0.9591064,-0.8842344,-0.46638003,-0.02488271,-0.45379254,0.8453263,0.2819499,,1.1225996187958973,0.3450439820874769,0.20111809721,0.580631453508648,-0.0864909043515238,1.1013949123538707,-0.40264312302099836,,-0.8818974805720678,-0.24191460728508277,0.19571775307000003,0.1612515665395992,0.34077143041500846,-0.8938156312188548,0.8341981457477641,,-0.04888449068679618,-0.07013605599139214,0.08219610256,-0.07424845330935166,,3.870204e-05,1.1920929e-06,-2.7418137e-06,1.0,-2.7794391e-05,-2.400577e-05,2.7794391e-05,1.0,-3.0696392e-06,2.4013221e-05,3.0398369e-06,1.0,641,1.964,0,1,0.075,False,-0.2561246393568388,1.0096838217156738
1.981983854988357,17:01:53.420496,17:01:39.741837,0,,0.120156236,-0.001052171,0.023192078,-0.88779956,-0.1607672,-0.43123752,-0.43654165,-0.00257805,0.8996804,-0.14575084,0.986989,-0.06789285,,0.055010147,-0.009904839,0.02370131,0.20848587,-0.2280463,0.9510669,-0.84130174,0.45407614,0.2933021,-0.49874336,-0.8612837,-0.097187296,,0.10670487,1.3421671,0.4415361,0.99560535,0.02104776,-0.09125233,-0.04356693,-0.7584486,-0.65027505,-0.08289703,0.65139294,-0.7541985,,-0.09054094,0.25426123,-0.09186432,0.8838187,0.083951235,0.4602355,-0.39805055,0.6518315,0.6455009,-0.24580541,-0.75370276,0.6095177,,-0.02279549,0.40229097,-0.35838783,-0.110461794,0.2606014,-0.9591064,-0.8842344,-0.46638003,-0.02488271,-0.45379254,0.8453263,0.2819499,,1.1225918960630232,0.34526021860795514,0.20100402369000003,0.577066724469411,-0.08020562536231354,1.1037024541366267,-0.4050932840130126,,-0.8818974805720678,-0.24191460728508277,0.19571775307000003,0.1612515665395992,0.34077143041500846,-0.8938156312188548,0.8345248338800328,,-0.04888449068679618,-0.07013605599139214,0.08219610256,-0.07424845330935166,,3.870204e-05,1.1920929e-06,-2.7418137e-06,1.0,-2.7794391e-05,-2.400577e-05,2.7794391e-05,1.0,-3.0696392e-06,2.4013221e-05,3.0398369e-06,1.0,658,2.016,0,1,0.075,False,-0.2564821056679656,1.0097803821172329
2.011283033993095,17:01:53.470828,17:01:39.741837,0,,0.120235026,-0.0010430366,0.023439392,-0.8851037,-0.16648073,-0.4345981,-0.43992454,-0.0053959787,0.8980186,-0.15184782,0.98603,-0.06846306,,0.055013202,-0.009904258,0.023701608,0.20848817,-0.22810973,0.9510513,-0.8413005,0.45405748,0.2933345,-0.4987445,-0.86127675,-0.09724325,,0.10670487,1.3421671,0.4415361,0.99560535,0.02104776,-0.09125233,-0.04356693,-0.7584486,-0.65027505,-0.08289703,0.65139294,-0.7541985,,-0.0906383,0.2544284,-0.092037626,0.8815079,0.08964055,0.46358216,-0.40468657,0.64924955,0.64397496,-0.24325426,-0.7552745,0.60859495,,-0.02279859,0.4022912,-0.35838756,-0.11046408,0.26066527,-0.9590888,-0.88423496,-0.46637753,-0.02491138,-0.453791,0.845308,0.2820073,,1.1226305097273943,0.34587031450501887,0.20078495068000002,0.5707760261648752,-0.07665307636841208,1.1038277020257203,-0.4042765636823412,,-0.8819129260378163,-0.24191460728508277,0.19571904936,0.1612515665395992,0.34077143041500846,-0.8937339524787143,0.8353415542107041,,-0.04888449068679618,-0.07013605599139214,0.08219610256,-0.07424845330935166,,3.870204e-05,1.1920929e-06,-2.7418137e-06,1.0,-2.7794391e-05,-2.400577e-05,2.7794391e-05,1.0,-3.0696392e-06,2.4013221e-05,3.0398369e-06,1.0,675,2.069,0,1,0.075,False,-0.2566608388235285,1.010214903924248
2.0616151379945222,17:01:53.513926,17:01:39.888590,0,,0.12028499,-0.0009815842,0.023558855,-0.8828647,-0.17238978,-0.4368428,-0.44243267,-0.0066274405,0.8967773,-0.15749037,0.9850066,-0.07041979,,0.055074595,-0.0098795965,0.023681223,0.20855723,-0.22804916,0.95105064,-0.8412796,0.4540755,0.29336658,-0.49875087,-0.8612833,-0.09715241,,0.10670487,1.3421671,0.4415361,0.99560535,0.02104776,-0.09125233,-0.04356693,-0.7584486,-0.65027505,-0.08289703,0.65139294,-0.7541985,,-0.09069559,0.2545517,-0.09208292,0.8796418,0.09557412,0.4659356,-0.41035163,0.6478254,0.64182067,-0.24050346,-0.75576967,0.6090733,,-0.022859829,0.4022807,-0.35835704,-0.110533744,0.26060426,-0.9590973,-0.8842364,-0.46637976,-0.024817707,-0.4537712,0.8453256,0.28198647,,1.122792687117753,0.3463491239432208,0.20070328441000002,0.5655337775777622,-0.0729638908747452,1.102289635948447,-0.40394987555007256,,-0.8818974805720678,-0.24191460728508277,0.19571904936,0.1612515665395992,0.34077143041500846,-0.8938973099589954,0.8363216186075098,,-0.04888449068679618,-0.07013605599139214,0.08219610256,-0.07424845330935166,,3.870204e-05,1.1920929e-06,-2.7418137e-06,1.0,-2.7794391e-05,-2.400577e-05,2.7794391e-05,1.0,-3.0696392e-06,2.4013221e-05,3.0398369e-06,1.0,683,2.095,0,1,0.075,False,-0.25695872741613357,1.0112770683413959
2.1047553009993862,17:01:53.546475,17:01:39.888590,0,,0.12029398,-0.00095047057,0.023609012,-0.88029915,-0.17634846,-0.4404255,-0.44625118,-0.0073287487,0.8948778,-0.16103806,0.9843006,-0.07224429,,0.055059083,-0.00988061,0.023679137,0.2085417,-0.22820155,0.9510175,-0.8412831,0.4540307,0.29342586,-0.4987514,-0.8612666,-0.09729779,,0.1067228,1.3421667,0.44153625,0.99560463,0.021035384,-0.09126294,-0.043583177,-0.7584489,-0.65027356,-0.08289703,0.65139294,-0.7541985,,-0.09072327,0.254608,-0.0920973,0.87724406,0.0995542,0.46960813,-0.41564658,0.6469489,0.63929266,-0.24016817,-0.7560067,0.6089114,,-0.022860896,0.402279,-0.35835537,-0.110533744,0.26076093,-0.95905477,-0.8842364,-0.4663757,-0.024893893,-0.4537712,0.8452795,0.28212455,,1.1230243691039798,0.34654219226507643,0.20066828458000002,0.55987214910368,-0.07146088937732537,1.1012273964880674,-0.4036231874178039,,-0.8818974805720678,-0.24191460728508277,0.19572164194000002,0.1612515665395992,0.34077143041500846,-0.8937339524787143,0.8368116508059127,,-0.04888449068679618,-0.07013605599139214,0.08219610256,-0.07424845330935166,,5.6568533e-05,2.026558e-06,-4.172325e-06,1.0,-4.0106475e-05,-3.46303e-05,4.010275e-05,1.0,-4.440546e-06,3.4641474e-05,4.3809414e-06,1.0,700,2.147,0,1,0.075,False,-0.25672041654204936,1.0124840733608826
2.1372966000053566,17:01:53.598171,17:01:39.888590,0,,0.12037655,-0.0008548647,0.023719043,-0.8727134,-0.20123555,-0.4448321,-0.45128244,-0.015215635,0.8922515,-0.18632106,0.9794248,-0.07753527,,0.05505453,-0.009880371,0.023681283,0.20854223,-0.22821818,0.9510133,-0.84128016,0.4540303,0.2934348,-0.49875605,-0.8612624,-0.09731095,,0.1067228,1.3421667,0.44153625,0.99560463,0.021035384,-0.09126294,-0.043583177,-0.7584489,-0.65027356,-0.08289703,0.65139294,-0.7541985,,-0.09081137,0.2547499,-0.092110574,0.8714948,0.12451247,0.47433472,-0.4362846,0.6385459,0.6339676,-0.22394761,-0.7594444,0.6108123,,-0.02285655,0.4022814,-0.35835624,-0.11053411,0.26077718,-0.9590503,-0.8842389,-0.46637067,-0.024899922,-0.45376626,0.84527725,0.28213918,,1.123580405870924,0.3465499149979506,0.20060217379000003,0.5424678837944645,-0.050555504913212965,1.0974940918654268,-0.4037865314839383,,-0.8818820351063195,-0.24190688455220855,0.19571775307000003,0.1612515665395992,0.34077143041500846,-0.8937339524787142,0.8389351236656581,,-0.04888449068679618,-0.07013605599139214,0.08219610256,-0.07424845330935166,,5.6568533e-05,2.026558e-06,-4.172325e-06,1.0,-4.0106475e-05,-3.46303e-05,4.010275e-05,1.0,-4.440546e-06,3.4641474e-05,4.3809414e-06,1.0,708,2.173,0,1,0.075,False,-0.2564821056679656,1.0154291656084296
2.188999331003288,17:01:53.629021,17:01:39.888590,0,,0.12044513,-0.00076949596,0.023827344,-0.86781746,-0.2165955,-0.44719034,-0.4517088,-0.031049967,0.891625,-0.20700714,0.9757676,-0.07089248,,0.055056054,-0.009881623,0.02368182,0.20854056,-0.228131,0.9510346,-0.8412837,0.4540521,0.29339114,-0.4987508,-0.861274,-0.097234644,,0.1067228,1.3421667,0.44153625,0.99560463,0.021035384,-0.09126294,-0.043583177,-0.7584489,-0.65027356,-0.08289703,0.65139294,-0.7541985,,-0.09088569,0.25488332,-0.09213033,0.8682006,0.13965887,0.47615454,-0.45035324,0.62467766,0.637934,-0.20834996,-0.7682924,0.6052413,,-0.022858012,0.402281,-0.35835758,-0.1105326,0.26068982,-0.9590742,-0.88423616,-0.46637797,-0.02486051,-0.45377198,0.8453002,0.28206134,,1.1240823835077485,0.34654219226507643,0.20053735929000002,0.5317736966767538,-0.03183630444534762,1.1045281351173903,-0.40525662807914686,,-0.8818897578391937,-0.24191460728508277,0.19571775307000003,0.1612515665395992,0.34077143041500846,-0.8938156312188548,0.8387717795995239,,-0.04888449068679618,-0.07013605599139214,0.08219610256,-0.07424845330935166,,5.6568533e-05,2.026558e-06,-4.172325e-06,1.0,-4.0106475e-05,-3.46303e-05,4.010275e-05,1.0,-4.440546e-06,3.4641474e-05,4.3809414e-06,1.0,721,2.213,0,1,0.075,False,-0.2566012611050077,1.019388142072345
2.2198466359986924,17:01:53.685679,17:01:40.021520,0,,0.12032355,-0.00064878166,0.024108589,-0.86332816,-0.22367214,-0.4523663,-0.45669758,-0.035062313,0.8889308,-0.21469004,0.9740336,-0.07188034,,0.055056054,-0.009881623,0.02368182,0.20854056,-0.228131,0.9510346,-0.8412837,0.4540521,0.29339114,-0.4987508,-0.861274,-0.097234644,,0.1067228,1.3421667,0.44153625,0.99560463,0.021035384,-0.09126294,-0.043583177,-0.7584489,-0.65027356,-0.08289703,0.65139294,-0.7541985,,-0.09078285,0.25516275,-0.09227105,0.8641797,0.14673296,0.4813137,-0.45929432,0.6207274,0.63541025,-0.205529,-0.77017325,0.60381365,,-0.022858012,0.402281,-0.35835758,-0.1105326,0.26068982,-0.9590742,-0.88423616,-0.46637797,-0.02486051,-0.45377198,0.8453002,0.28206134,,1.125410693562115,0.34709050629914634,0.20033513805000003,0.5223376492199502,-0.02691739045379177,1.1037025614498013,-0.4031331552194011,,-0.8818897578391937,-0.24191460728508277,0.19571775307000003,0.1612515665395992,0.34077143041500846,-0.8938156312188548,0.8479190473030436,,-0.04888449068679618,-0.07013605599139214,0.08219610256,-0.07424845330935166,,5.6568533e-05,2.026558e-06,-4.172325e-06,1.0,-4.0106475e-05,-3.46303e-05,4.010275e-05,1.0,-4.440546e-06,3.4641474e-05,4.3809414e-06,1.0,746,2.291,0,1,0.075,False,-0.25672041654204936,1.0265818919884844
2.276490415999433,17:01:53.740638,17:01:40.021520,0,,0.12028959,-0.00034798682,0.024273932,-0.8620257,-0.22691298,-0.45323527,-0.4577679,-0.035394847,0.88836694,-0.21762414,0.97327167,-0.07336229,,0.0550728,-0.009880863,0.023690581,0.20832363,-0.22815904,0.95107543,-0.84133816,0.45406476,0.293215,-0.4987495,-0.8612599,-0.09736653,,0.1067228,1.3421667,0.44153625,0.99560463,0.021035384,-0.09126294,-0.043583177,-0.7584489,-0.65027356,-0.08289703,0.65139294,-0.7541985,,-0.09075333,0.25549895,-0.092199765,0.8630781,0.15001234,0.48227838,-0.46206817,0.6200725,0.63403714,-0.20393416,-0.77006906,0.60448694,,-0.022875398,0.40228716,-0.35836193,-0.1103131,0.26071575,-0.95909244,-0.8842416,-0.46635652,-0.025068548,-0.45381477,0.845304,0.28198093,,1.126545935294626,0.3484805982165068,0.20031958257000002,0.5194019900111668,-0.025414388956371922,1.10092506844647,-0.4042765636823411,,-0.8819901533665586,-0.24191460728508277,0.19571775307000003,0.16146125648308374,0.34063479391524304,-0.8936225345750178,0.8520026489564005,,-0.04888449068679618,-0.07013605599139214,0.08219610256,-0.07424845330935166,,5.6568533e-05,2.026558e-06,-4.172325e-06,1.0,-4.0106475e-05,-3.46303e-05,4.010275e-05,1.0,-4.440546e-06,3.4641474e-05,4.3809414e-06,1.0,763,2.344,0,1,0.075,False,-0.2568991496976123,1.0268232929923817
2.3314657869923394,17:01:53.790909,17:01:40.166717,0,,0.12043244,-1.8402934e-05,0.024356857,-0.8614191,-0.22830917,-0.45368707,-0.45793748,-0.03719297,0.888206,-0.21965954,0.9728781,-0.072512686,,0.055134315,-0.009878926,0.023724616,0.2094203,-0.2282566,0.9508111,-0.841389,0.4533615,0.2941559,-0.49820423,-0.86160445,-0.09710952,,0.1067228,1.3421667,0.44153625,0.99560463,0.021035384,-0.09126294,-0.043583177,-0.7584489,-0.65027356,-0.08289703,0.65139294,-0.7541985,,-0.09089285,0.25579733,-0.092034236,0.862626,0.15138379,0.48265857,-0.46355224,0.61850154,0.6344881,-0.20247383,-0.77106345,0.6037098,,-0.022939302,0.4023106,-0.35837942,-0.11144186,0.26088828,-0.958915,-0.8839189,-0.46700686,-0.024330676,-0.4541675,0.84489167,0.28264818,,1.126785340013727,0.3503186086405722,0.20039476739000003,0.5181438503502597,-0.02514111595684104,1.1007839113792177,-0.40378653148393817,,-0.8823917354760182,-0.24194549821657965,0.19571775307000003,0.1602031168221766,0.34063479391524304,-0.8933774983545962,0.852819369287072,,-0.04888449068679618,-0.07013605599139214,0.08219610256,-0.07424845330935166,,5.6568533e-05,2.026558e-06,-4.172325e-06,1.0,-4.0106475e-05,-3.46303e-05,4.010275e-05,1.0,-4.440546e-06,3.4641474e-05,4.3809414e-06,1.0,771,2.369,0,1,0.075,False,-0.25695872741613357,1.0278854574095297
2.381718711985741,17:01:53.823686,17:01:40.166717,0,,0.12060987,0.00019264221,0.024306804,-0.8608148,-0.22872454,-0.454624,-0.45861587,-0.038605005,0.8877957,-0.22061141,0.9727255,-0.07166502,,0.05518081,-0.009878881,0.023746729,0.2094502,-0.22791295,0.950887,-0.8413838,0.45346087,0.29401767,-0.49820048,-0.8616432,-0.09678482,,0.1067228,1.3421667,0.44153625,0.99560463,0.021035384,-0.09126294,-0.043583177,-0.7584489,-0.65027356,-0.08289703,0.65139294,-0.7541985,,-0.091059916,0.25591803,-0.09184434,0.8620782,0.15176994,0.48351535,-0.4647068,0.6173506,0.63476443,-0.20216031,-0.7719094,0.60273296,,-0.02298724,0.40232468,-0.35839203,-0.11147224,0.26054245,-0.95900553,-0.883916,-0.46702236,-0.024136515,-0.4541656,0.8449898,0.28235766,,1.1263914806371416,0.3515388004346997,0.20053735929000002,0.517095400632837,-0.025824298455668245,1.1015860371181214,-0.40394987555007267,,-0.8826697538594903,-0.24197638914807656,0.19572034565000002,0.1602031168221766,0.34063479391524304,-0.8934591770947368,0.8529827133532062,,-0.04888449068679618,-0.07013605599139214,0.08219610256,-0.07424845330935166,,5.6568533e-05,2.026558e-06,-4.172325e-06,1.0,-4.0106475e-05,-3.46303e-05,4.010275e-05,1.0,-4.440546e-06,3.4641474e-05,4.3809414e-06,1.0,784,2.409,0,1,0.075,False,-0.2571374605716965,1.0285131000196626
2.4144824699906167,17:01:53.861157,17:01:40.166717,0,,0.12071499,0.00028160214,0.024256527,-0.86064935,-0.22914222,-0.45472687,-0.45866024,-0.039016217,0.8877548,-0.22116376,0.9726108,-0.071519285,,0.055231545,-0.009887673,0.023765683,0.20926367,-0.22971031,0.9504955,-0.8421282,0.45171517,0.29457316,-0.49701977,-0.8620827,-0.098918,,0.1067228,1.3421667,0.44153625,0.99560463,0.021035384,-0.09126294,-0.043583177,-0.7584489,-0.65027356,-0.08289703,0.65139294,-0.7541985,,-0.09115829,0.2559488,-0.09174012,0.86195475,0.15218353,0.48360544,-0.46510836,0.616978,0.6348325,-0.20176286,-0.77212584,0.60258895,,-0.023038529,0.4023309,-0.35841048,-0.11132448,0.2624859,-0.9584926,-0.8832899,-0.46812737,-0.02560796,-0.45541832,0.843776,0.28396517,,1.1260516803906757,0.3520639462701469,0.20062421072000003,0.5168857106893525,-0.025960934955433685,1.1017791337619585,-0.40411321961620705,,-0.8829709404415851,-0.24199955734669923,0.19572164194000002,0.15978373693520756,0.3392684289175886,-0.8911198169556641,0.8537994336838777,,-0.04888449068679618,-0.07013605599139214,0.08219610256,-0.07424845330935166,,5.6568533e-05,2.026558e-06,-4.172325e-06,1.0,-4.0106475e-05,-3.46303e-05,4.010275e-05,1.0,-4.440546e-06,3.4641474e-05,4.3809414e-06,1.0,805,2.475,0,1,0.075,False,-0.25725661600873906,1.028030298011868
2.4519854329992086,17:01:53.917528,17:01:40.166717,0,,0.12093666,0.00051388144,0.024166524,-0.85968626,-0.2298055,-0.45621166,-0.459908,-0.040481746,0.88704336,-0.22231565,0.97239435,-0.070887834,,0.055256717,-0.009879969,0.023782253,0.2099114,-0.23001179,0.9502797,-0.84155184,0.45227194,0.29536486,-0.49772227,-0.8617103,-0.09862985,,0.1067228,1.3421667,0.44153625,0.99560463,0.021035384,-0.09126294,-0.043583177,-0.7584489,-0.65027356,-0.08289703,0.65139294,-0.7541985,,-0.091365755,0.2560579,-0.09150295,0.86104876,0.15282017,0.48501655,-0.4668338,0.6157521,0.6347563,-0.20164639,-0.77297825,0.6015342,,-0.023065366,0.40234637,-0.35841316,-0.11195562,0.2627184,-0.95835537,-0.88364697,-0.46748972,-0.02492699,-0.45457006,0.8440571,0.28448844,,1.1254493072264862,0.353407701790262,0.20081346906000003,0.5152081911414763,-0.02691739045379177,1.102640737827974,-0.4042765636823412,,-0.8831331178319438,-0.24202272554532192,0.19572423452,0.15957404699172303,0.34036152091571215,-0.8908676578232675,0.8537994336838777,,-0.04888449068679618,-0.07013605599139214,0.08219610256,-0.07424845330935166,,5.6568533e-05,2.026558e-06,-4.172325e-06,1.0,-4.0106475e-05,-3.46303e-05,4.010275e-05,1.0,-4.440546e-06,3.4641474e-05,4.3809414e-06,1.0,809,2.488,0,1,0.075,False,-0.2570778828531757,1.0302994674485029
2.5083449379890226,17:01:53.952057,17:01:40.166717,0,,0.121027716,0.00069472194,0.024166614,-0.8595757,-0.23030178,-0.45616966,-0.459718,-0.041284382,0.88710487,-0.22313447,0.9722432,-0.07038692,,0.055256393,-0.009881206,0.023780167,0.20990744,-0.23009413,0.95026064,-0.84155655,0.45224038,0.2953998,-0.497716,-0.86170495,-0.09870866,,0.1067228,1.3421667,0.44153625,0.99560463,0.021035384,-0.09126294,-0.043583177,-0.7584489,-0.65027356,-0.08289703,0.65139294,-0.7541985,,-0.09145144,0.25619137,-0.09137713,0.86100715,0.15330395,0.48493773,-0.46723244,0.61506325,0.63513076,-0.20089932,-0.77343076,0.6012024,,-0.0230648,0.40234402,-0.35841313,-0.11195182,0.26280212,-0.95833284,-0.88364375,-0.4674934,-0.024973301,-0.45457733,0.844029,0.28456017,,1.1254647526922348,0.3543575979337916,0.20089643162,0.5149985011979918,-0.02691739045379177,1.102640737827974,-0.4042765636823412,,-0.8831253950990696,-0.24203044827819614,0.19572553081000002,0.15957404699172303,0.34036152091571215,-0.890785979083127,0.8542894658822804,,-0.04888449068679618,-0.07013605599139214,0.08219610256,-0.07424845330935166,,5.6568533e-05,2.026558e-06,-4.172325e-06,1.0,-4.0106475e-05,-3.46303e-05,4.010275e-05,1.0,-4.440546e-06,3.4641474e-05,4.3809414e-06,1.0,826,2.54,0,1,0.075,False,-0.2570778828531757,1.0306374288539588
2.542861035995884,17:01:53.995393,17:01:40.364172,0,,0.12115556,0.0010038018,0.024222523,-0.85959756,-0.23010647,-0.45622694,-0.4594375,-0.042700112,0.8871831,-0.22362746,0.9722283,-0.06901473,,0.055253617,-0.009882741,0.02377671,0.20990118,-0.23019072,0.9502386,-0.8415625,0.45220345,0.29543945,-0.49770868,-0.8616985,-0.09880186,,0.1067228,1.3421667,0.44153625,0.99560463,0.021035384,-0.09126294,-0.043583177,-0.7584489,-0.65027356,-0.08289703,0.65139294,-0.7541985,,-0.0915745,0.25645703,-0.09120596,0.86107486,0.15307075,0.4848911,-0.46734476,0.61398184,0.6360937,-0.200347,-0.7743356,0.60022116,,-0.02306167,0.40234056,-0.35841253,-0.11194575,0.26290026,-0.9583066,-0.88364,-0.46749753,-0.025029035,-0.45458612,0.84399617,0.28464353,,1.1256655437469645,0.35605659916612103,0.20098846821000002,0.5149985011979918,-0.02773720945238441,1.1029825302895904,-0.4046032518146099,,-0.8831022269004469,-0.24203817101107036,0.19572682710000003,0.15957404699172303,0.34036152091571215,-0.8907043003429864,0.8554328743452204,,-0.04888449068679618,-0.07013605599139214,0.08219610256,-0.07424845330935166,,5.6568533e-05,2.026558e-06,-4.172325e-06,1.0,-4.0106475e-05,-3.46303e-05,4.010275e-05,1.0,-4.440546e-06,3.4641474e-05,4.3809414e-06,1.0,834,2.566,0,1,0.075,False,-0.25677999426057063,1.0321823952789015
2.5862185309815686,17:01:54.023938,17:01:40.364172,0,,0.12129741,0.0013017505,0.024273664,-0.8594969,-0.23063312,-0.45615068,-0.45921457,-0.043492317,0.8872601,-0.22447057,0.9720683,-0.06852871,,0.055256963,-0.009889774,0.023778081,0.20988931,-0.2302421,0.95022887,-0.8415819,0.45216027,0.29545027,-0.49768078,-0.86170745,-0.098864004,,0.1067228,1.3421667,0.44153625,0.99560463,0.021035384,-0.09126294,-0.043583177,-0.7584489,-0.65027356,-0.08289703,0.65139294,-0.7541985,,-0.09171146,0.25671074,-0.09103751,0.8610459,0.15358576,0.48477972,-0.46773434,0.6132959,0.6364689,-0.19956085,-0.77477705,0.5999133,,-0.023064604,0.40233767,-0.3584193,-0.1119347,0.26295507,-0.9582929,-0.88362545,-0.46752253,-0.025074871,-0.45461705,0.84396523,0.2846858,,1.1257736620072036,0.3577247094669535,0.20108050480000003,0.5147888112545073,-0.028283755451446173,1.1025297357628299,-0.4044399077484755,,-0.8831176723661953,-0.24207678467544147,0.19572553081000002,0.15957404699172303,0.34036152091571215,-0.8906226216028458,0.8562495946758918,,-0.04888449068679618,-0.07013605599139214,0.08219610256,-0.07424845330935166,,5.6568533e-05,2.026558e-06,-4.172325e-06,1.0,-4.0106475e-05,-3.46303e-05,4.010275e-05,1.0,-4.440546e-06,3.4641474e-05,4.3809414e-06,1.0,847,2.606,0,1,0.075,False,-0.2575545046013441,1.0323755160820194
2.614688208006555,17:01:54.060084,17:01:40.364172,0,,0.12150105,0.0016632974,0.024340212,-0.85819507,-0.23343349,-0.45717612,-0.460202,-0.044680953,0.8866892,-0.22740997,0.9713458,-0.069081694,,0.05525908,-0.009893872,0.023778021,0.20988196,-0.2302278,0.95023394,-0.8415936,0.45214832,0.29543507,-0.49766403,-0.86171746,-0.0988605,,0.1067228,1.3421667,0.44153625,0.99560463,0.021035384,-0.09126294,-0.043583177,-0.7584489,-0.65027356,-0.08289703,0.65139294,-0.7541985,,-0.09190942,0.25702062,-0.090834044,0.85994774,0.15639912,0.48582837,-0.4704492,0.6120093,0.635706,-0.19790763,-0.77523154,0.59987384,,-0.023066428,0.40233532,-0.3584228,-0.111927845,0.26294246,-0.95829713,-0.8836167,-0.46753877,-0.025080405,-0.45463577,0.84396017,0.28467095,,1.125789107472952,0.3597944018772457,0.20118939316,0.5122725319326931,-0.02787384595214985,1.1012970159101942,-0.40460325181460965,,-0.8831253950990696,-0.24209995287406416,0.19572553081000002,0.15957404699172303,0.34036152091571215,-0.8906226216028459,0.8565762828081604,,-0.04888449068679618,-0.07013605599139214,0.08219610256,-0.07424845330935166,,5.6568533e-05,2.026558e-06,-4.172325e-06,1.0,-4.0106475e-05,-3.46303e-05,4.010275e-05,1.0,-4.440546e-06,3.4641474e-05,4.3809414e-06,1.0,855,2.631,0,1,0.075,False,-0.2568991496976123,1.0325203566843577
2.650816876994213,17:01:54.086017,17:01:40.364172,0,,0.12160179,0.0018534362,0.024340793,-0.85646,-0.23538297,-0.45942482,-0.46234685,-0.04605347,0.88550234,-0.22959025,0.970811,-0.06938571,,0.055262122,-0.009899519,0.02377963,0.20987292,-0.23028156,0.95022285,-0.8416089,0.45211,0.2954502,-0.49764204,-0.86172324,-0.09892141,,0.1067228,1.3421667,0.44153625,0.99560463,0.021035384,-0.09126294,-0.043583177,-0.7584489,-0.65027356,-0.08289703,0.65139294,-0.7541985,,-0.09200453,0.25716114,-0.090701714,0.8583267,0.15834482,0.48805964,-0.47354916,0.6106824,0.63467956,-0.19755122,-0.77588266,0.59914905,,-0.023069179,0.40233338,-0.35842848,-0.11191946,0.26299906,-0.9582826,-0.8836052,-0.46755826,-0.02512283,-0.4546602,0.84393173,0.28471622,,1.125789107472952,0.36085241628101444,0.20128272604000003,0.5089174928369407,-0.02773720945238441,1.101185598006498,-0.40460325181460965,,-0.883140840564818,-0.24213084380556105,0.19572423452,0.15957404699172303,0.34036152091571215,-0.8905409428627052,0.8567396268742947,,-0.04888449068679618,-0.07013605599139214,0.08219610256,-0.07424845330935166,,5.6568533e-05,2.026558e-06,-4.172325e-06,1.0,-4.0106475e-05,-3.46303e-05,4.010275e-05,1.0,-4.440546e-06,3.4641474e-05,4.3809414e-06,1.0,864,2.659,0,1,0.075,False,-0.2574949268828224,1.0335825211015057
2.6768336049863137,17:01:54.110955,17:01:40.364172,0,,0.12173035,0.002108097,0.024353534,-0.85450065,-0.23746842,-0.4619929,-0.46473014,-0.047849387,0.8841586,-0.23206577,0.9702161,-0.06947148,,0.05526143,-0.009907864,0.023776472,0.20979929,-0.23052265,0.9501807,-0.84170413,0.45190984,0.29548523,-0.49751204,-0.86176383,-0.09922153,,0.1067228,1.3421667,0.44153625,0.99560463,0.021035384,-0.09126294,-0.043583177,-0.7584489,-0.65027356,-0.08289703,0.65139294,-0.7541985,,-0.092126496,0.25735742,-0.090533935,0.85649824,0.16041878,0.49058798,-0.47702947,0.6090013,0.6336879,-0.19711326,-0.7767775,0.598133,,-0.023067659,0.40232635,-0.35843387,-0.11184945,0.26325595,-0.95822024,-0.8835378,-0.4676731,-0.025353773,-0.45480835,0.843788,0.28490555,,1.1258277211373233,0.3621575581367584,0.20138513295000002,0.5051430738542192,-0.02773720945238441,1.101185598006498,-0.40460325181460965,,-0.8831253950990696,-0.24216945746993218,0.19572423452,0.15957404699172303,0.3402248844159467,-0.8902661674787278,0.8583730675356375,,-0.04888449068679618,-0.07013605599139214,0.08219610256,-0.07424845330935166,,5.6568533e-05,2.026558e-06,-4.172325e-06,1.0,-4.0106475e-05,-3.46303e-05,4.010275e-05,1.0,-4.440546e-06,3.4641474e-05,4.3809414e-06,1.0,872,2.685,0,1,0.075,False,-0.25725661600873906,1.0343067241131978
2.701773267996032,17:01:54.136130,17:01:40.364172,0,,0.121811405,0.002270162,0.024352849,-0.8529676,-0.23888999,-0.46408805,-0.4667169,-0.04904619,0.8830458,-0.2337125,0.96980727,-0.06965932,,0.05526137,-0.009922497,0.02377373,0.20976871,-0.23059052,0.950171,-0.84174645,0.45183176,0.29548386,-0.49745327,-0.86178654,-0.09931862,,0.1067228,1.3421667,0.44153625,0.99560463,0.021035384,-0.09126294,-0.043583177,-0.7584489,-0.65027356,-0.08289703,0.65139294,-0.7541985,,-0.092202686,0.25747654,-0.090420656,0.85504186,0.16183355,0.49265942,-0.47965354,0.6078738,0.632789,-0.19706827,-0.77736694,0.5973816,,-0.02306637,0.40231642,-0.35844487,-0.11182054,0.26333067,-0.9582031,-0.88350725,-0.46772638,-0.025435565,-0.4548748,0.84373516,0.28495595,,1.1258431666030717,0.36300705875292305,0.20146161406000002,0.5022074146454358,-0.02787384595214985,1.1012153371700537,-0.40476659588074393,,-0.8831099496333211,-0.24224668479867442,0.19572293823000003,0.15957404699172303,0.3402248844159467,-0.8901844887385871,0.8588630997340403,,-0.04888449068679618,-0.07013605599139214,0.08219610256,-0.07424845330935166,,5.6568533e-05,2.026558e-06,-4.172325e-06,1.0,-4.0106475e-05,-3.46303e-05,4.010275e-05,1.0,-4.440546e-06,3.4641474e-05,4.3809414e-06,1.0,885,2.725,0,1,0.075,False,-0.25725661600873906,1.0345481251170952
2.7269419980002567,17:01:54.174664,17:01:40.364172,0,,0.12195755,0.0026353747,0.024301052,-0.8517721,-0.2406295,-0.46538344,-0.46782693,-0.05053571,0.88237417,-0.2358437,0.9693006,-0.06952816,,0.055269457,-0.009949259,0.02377212,0.20954254,-0.23033512,0.9502829,-0.8418127,0.45191824,0.29516286,-0.49743652,-0.8618095,-0.099202946,,0.1067228,1.3421667,0.44153625,0.99560463,0.021035384,-0.09126294,-0.043583177,-0.7584489,-0.65027356,-0.08289703,0.65139294,-0.7541985,,-0.0923341,0.2577131,-0.09013049,0.85398376,0.16356453,0.49392143,-0.48192614,0.606471,0.6324082,-0.19610947,-0.77809995,0.59674245,,-0.023072412,0.40230015,-0.35846686,-0.111592226,0.2630723,-0.95830065,-0.88350487,-0.46772635,-0.025517644,-0.45493546,0.84381574,0.28462029,,1.1259976212605562,0.36470605998525246,0.20167809449000001,0.4999008252671061,-0.02787384595214985,1.1008069434693508,-0.4049299399468782,,-0.8831331178319438,-0.2424011394561589,0.19572164194000002,0.15978373693520756,0.3402248844159467,-0.8904295249590088,0.8595164759985774,,-0.04888449068679618,-0.07013605599139214,0.08219610256,-0.07424845330935166,,5.6568533e-05,2.026558e-06,-4.172325e-06,1.0,-4.0106475e-05,-3.46303e-05,4.010275e-05,1.0,-4.440546e-06,3.4641474e-05,4.3809414e-06,1.0,893,2.75,0,1,0.075,False,-0.25767366003838577,1.0373483767623035
2.7654093129967805,17:01:54.208921,17:01:40.569235,0,,0.122125484,0.003043905,0.024287552,-0.85068643,-0.24241936,-0.46643922,-0.46865308,-0.05217442,0.8818402,-0.23811132,0.96876764,-0.06922656,,0.055275813,-0.009976275,0.023770988,0.20966567,-0.23016053,0.95029795,-0.8419006,0.45175397,0.29516384,-0.49723592,-0.8619423,-0.099055015,,0.1067228,1.3421667,0.44153625,0.99560463,0.021035384,-0.09126294,-0.043583177,-0.7584489,-0.65027356,-0.08289703,0.65139294,-0.7541985,,-0.09248897,0.25800678,-0.089838855,0.8530536,0.16534354,0.4949354,-0.48407143,0.6049402,0.63223594,-0.19487017,-0.7789152,0.5960845,,-0.023076758,0.40228438,-0.3584893,-0.11172382,0.2629203,-0.95832705,-0.883394,-0.4679425,-0.025393657,-0.45511848,0.84374326,0.28454253,,1.126198412315286,0.36670624779967664,0.20188161202000002,0.4978039258322608,-0.02787384595214985,1.1003168710285074,-0.4049299399468782,,-0.883140840564818,-0.24254014864789494,0.19571904936,0.15957404699172303,0.3402248844159467,-0.8905112036991494,0.8621299810567258,,-0.04888449068679618,-0.07013605599139214,0.08219610256,-0.07424845330935166,,5.6568533e-05,2.026558e-06,-4.172325e-06,1.0,-4.0106475e-05,-3.46303e-05,4.010275e-05,1.0,-4.440546e-06,3.4641474e-05,4.3809414e-06,1.0,906,2.79,0,1,0.075,False,-0.2564821056679656,1.0389416233880258
2.7996461449947674,17:01:54.246048,17:01:40.569235,0,,0.12235914,0.0035388172,0.024308741,-0.8492467,-0.2446175,-0.46791267,-0.46979284,-0.054400444,0.8810989,-0.24098684,0.96809244,-0.06872025,,0.055280864,-0.010022365,0.023774445,0.20957902,-0.23015675,0.95031804,-0.8420274,0.45158166,0.29506534,-0.4970575,-0.8620336,-0.099156305,,0.1067228,1.3421667,0.44153625,0.99560463,0.021035384,-0.09126294,-0.043583177,-0.7584489,-0.65027356,-0.08289703,0.65139294,-0.7541985,,-0.092709586,0.25838634,-0.08951137,0.85180885,0.16752398,0.496344,-0.48686314,0.6028858,0.6320546,-0.19335444,-0.78004134,0.5951047,,-0.023078818,0.40226257,-0.3585303,-0.11164233,0.26293555,-0.95833236,-0.88330096,-0.4681105,-0.025533011,-0.45531896,0.84364533,0.2845122,,1.126337421507022,0.3692856405796676,0.20209679616,0.495077956566962,-0.02801048245191529,1.0999382164913605,-0.4042765636823411,,-0.8831485632976922,-0.24277955336699591,0.19570738275000002,0.15957404699172303,0.3402248844159467,-0.890429524959009,0.8642534539164716,,-0.04888449068679618,-0.07013605599139214,0.08219610256,-0.07424845330935166,,5.6568533e-05,2.026558e-06,-4.172325e-06,1.0,-4.0106475e-05,-3.46303e-05,4.010275e-05,1.0,-4.440546e-06,3.4641474e-05,4.3809414e-06,1.0,927,2.856,0,1,0.075,False,-0.2571374605716965,1.039376145195041
2.836824670986971,17:01:54.304661,17:01:40.569235,0,,0.122725375,0.004158333,0.024401128,-0.8479648,-0.24657364,-0.4692089,-0.47048295,-0.057583928,0.8805282,-0.24413392,0.9674118,-0.06717965,,0.055283748,-0.010097794,0.023780584,0.2096109,-0.23008457,0.9503284,-0.84224457,0.4512103,0.29501396,-0.49667618,-0.8622472,-0.09920891,,0.1067228,1.3421667,0.44153625,0.99560463,0.021035384,-0.09126294,-0.043583177,-0.7584489,-0.65027356,-0.08289703,0.65139294,-0.7541985,,-0.093064345,0.25890258,-0.08914516,0.850755,0.16943678,0.4975009,-0.48949012,0.6000998,0.6326766,-0.19135152,-0.7817745,0.5934755,,-0.023076875,0.4022279,-0.3585976,-0.11168786,0.26290601,-0.95833516,-0.8830959,-0.46849334,-0.02560548,-0.45570546,0.843442,0.28449625,,1.1262215805139086,0.3728535431675593,0.20231198030000003,0.49277136718863224,-0.028693664950742496,1.100250269789421,-0.4047665958807438,,-0.883140840564818,-0.24316569001070715,0.19568534582000002,0.1593643570482385,0.3402248844159467,-0.890429524959009,0.8642534539164716,,-0.04888449068679618,-0.07013605599139214,0.08219610256,-0.07424845330935166,,5.6568533e-05,2.026558e-06,-4.172325e-06,1.0,-4.0106475e-05,-3.46303e-05,4.010275e-05,1.0,-4.440546e-06,3.4641474e-05,4.3809414e-06,1.0,935,2.881,0,1,0.075,False,-0.257435349164302,1.0400520680059533
2.8954535289958585,17:01:54.331498,17:01:40.569235,0,,0.12296899,0.0044685006,0.024505347,-0.8474465,-0.24649097,-0.4701879,-0.47117895,-0.058829725,0.88007355,-0.24459119,0.967358,-0.066286474,,0.05529242,-0.010154925,0.023780286,0.20955592,-0.23020856,0.9503105,-0.8423351,0.4510442,0.2950094,-0.49654573,-0.8623011,-0.099393815,,0.1067228,1.3421667,0.44153625,0.99560463,0.021035384,-0.09126294,-0.043583177,-0.7584489,-0.65027356,-0.08289703,0.65139294,-0.7541985,,-0.09330648,0.25919735,-0.089000665,0.8502541,0.16932362,0.49839488,-0.4903302,0.5991241,0.6329507,-0.19142686,-0.78254706,0.5924322,,-0.023081474,0.4021968,-0.3586461,-0.11163679,0.26304507,-0.9583029,-0.8830276,-0.46861342,-0.025762301,-0.45585024,0.84333193,0.28459057,,1.1259049484660655,0.3749772947079711,0.20237160964000003,0.4919326074146941,-0.03060657594745866,1.100666618079203,-0.40476659588074404,,-0.8831485632976922,-0.2434745993256761,0.19567627179000002,0.1593643570482385,0.34036152091571215,-0.890214227902143,0.86458014204874,,-0.04888449068679618,-0.07013605599139214,0.08219610256,-0.07424845330935166,,5.6568533e-05,2.026558e-06,-4.172325e-06,1.0,-4.0106475e-05,-3.46303e-05,4.010275e-05,1.0,-4.440546e-06,3.4641474e-05,4.3809414e-06,1.0,948,2.921,0,1,0.075,False,-0.25767366003838577,1.0387967827856874
