AlexandreBanks6/ExpertPlaybackApp/resources/Motions/P_08/PC1/Data_PC1_3.csv
Task Time,PC1 Time,PC2 Time,Gaze Calib,s_T_psm1,Tx,Ty,Tz,R00,R01,R02,R10,R11,R12,R20,R21,R22,s_T_psm3,Tx,Ty,Tz,R00,R01,R02,R10,R11,R12,R20,R21,R22,cart_T_ecm,Tx,Ty,Tz,R00,R01,R02,R10,R11,R12,R20,R21,R22,ecm_T_psm1,Tx,Ty,Tz,R00,R01,R02,R10,R11,R12,R20,R21,R22,ecm_T_psm3,Tx,Ty,Tz,R00,R01,R02,R10,R11,R12,R20,R21,R22,psm1_joints,q1,q2,q3,q4,q5,q6,jaw,psm3_joints,q1,q2,q3,q4,q5,q6,jaw,ecm_joints,q1,q2,q3,q4,ecmi_T_ecm,Tx,Ty,Tz,R00,R01,R02,R10,R11,R12,R20,R21,R22,Sample #,Task Duration (s),Collisions (binary),Collisions (increments),Cumulative Collision Time (s),Clutch Press,MTMR Angle,MTML Angle
""
lci_T_si,,,,,-0.043663606,0.048300866,0.22498904,0.99683076,-0.030446803,0.07349438,0.023533283,-0.7696475,-0.63803524,0.0759909,0.6377427,-0.7664918
rci_T_si,,,,,-0.051976997,0.051936712,0.23394425,0.99464995,-0.05454854,0.087726384,0.01607527,-0.7571399,-0.6530549,0.102044344,0.65097123,-0.75221235
ecm_T_lc,,,,,-4.4061628e-05,-0.00034663224,-0.01840835,-0.99912,0.030754527,0.028518902,-0.031987965,-0.99852574,-0.043852776,0.027128186,-0.04472645,0.9986309
ecm_T_rc,,,,,-0.0043358393,0.01870579,-0.007592615,-0.99555075,-0.052743673,-0.078081585,0.04863213,-0.9973746,0.053654674,-0.08070653,0.04961868,0.9955021
cart_T_ecmi,,,,,0.09653346,1.3397326,0.45026043,0.9953255,-0.011423613,-0.09589886,-0.06955304,-0.7737021,-0.62972015,-0.067003466,0.6334466,-0.77088
ecmac_T_ecmrep_psm1,,,,,0.006309411,-0.25313872,-0.31568977,0.99868697,0.047558498,0.019040095,-0.047043137,0.9985371,-0.026657216,-0.020280018,0.025726508,0.99946326
ecmac_T_ecmrep_psm3,,,,,-0.020520164,-0.44355312,-0.56256753,0.99888426,-0.027940953,0.03807337,0.020709034,0.9837047,0.17859514,-0.04244307,-0.17760742,0.9831857
""
0,11:38:31.615199,11:37:31.181124,0,,0.057381947,0.019037746,0.042450294,0.7310172,-0.63810825,-0.24172634,-0.5633456,-0.76427513,0.31388733,-0.3850396,-0.09328166,-0.9181739,,-0.024735011,-0.017425023,0.027613938,0.8765521,0.2578259,0.40642583,0.36673933,-0.90464365,-0.21707663,0.3117026,0.3393314,-0.8875222,,0.096535735,1.3397322,0.45027843,0.9953248,-0.01143187,-0.09590558,-0.06956366,-0.77370197,-0.62971914,-0.067003466,0.6334466,-0.77088,,-0.037527576,0.25466985,-0.11324303,-0.72870916,0.6053682,0.3201755,-0.68467027,-0.6341348,-0.35930443,-0.014477046,-0.48104307,0.87657744,,0.057889633,0.38635263,-0.38347104,-0.90898657,-0.27957603,-0.30916125,0.38967788,-0.306677,-0.86838955,0.14796825,-0.9098277,0.38770986,,1.2998363382593499,0.1793836392024869,0.15769238221,-1.4017772721940454,-0.22285413111743338,0.14268016314167456,-0.405419972145281,,-1.014303735700647,-0.1057087675823851,0.17414230231000002,4.537900066948591,-0.15357942573635508,0.45358225911983785,0.8765042588765424,,-0.03410591524553419,-0.09502008780170129,0.0886540616,-0.06966925354577931,,1.0896474e-06,1.1742115e-05,-1.3828278e-05,1.0,-8.221716e-06,-6.761402e-06,8.225441e-06,1.0,-6.854534e-07,6.7539513e-06,7.4505806e-07,1.0,36,0.107,0,0,0.0,False,-0.2587460589717643,1.0507702725789931
0.12971967598423362,11:38:31.637571,11:37:31.181124,0,,0.057035796,0.01938992,0.042884365,0.72698724,-0.6405349,-0.24739534,-0.5627427,-0.762238,0.31986547,-0.39345926,-0.09331831,-0.9145938,,-0.024734087,-0.017423503,0.027614295,0.87655056,0.25782356,0.40643066,0.36673594,-0.904647,-0.21706846,0.31171086,0.33932427,-0.88752204,,0.096535735,1.3397322,0.45027843,0.9953248,-0.01143187,-0.09590558,-0.06956366,-0.77370197,-0.62971914,-0.067003466,0.6334466,-0.77088,,-0.03719598,0.25522307,-0.11337049,-0.7240764,0.6078871,0.32586288,-0.6896725,-0.63259363,-0.35238782,-0.00807322,-0.47989437,0.8772891,,0.057888664,0.38635373,-0.38347,-0.90898585,-0.27957293,-0.30916613,0.38968247,-0.3066844,-0.86838484,0.14796045,-0.90982616,0.38771647,,1.303589586436223,0.1808277902499669,0.15763145658000002,-1.398422233098293,-0.21861839962470472,0.14143153411088072,-0.4055833162114154,,-1.0143114584335213,-0.10570104484951086,0.17414230231000002,4.537900066948591,-0.15357942573635508,0.45358225911983785,0.8765042588765424,,-0.03410591524553419,-0.09502008780170129,0.0886540616,-0.06966925354577931,,1.0896474e-06,1.1742115e-05,-1.3828278e-05,1.0,-8.221716e-06,-6.761402e-06,8.225441e-06,1.0,-6.854534e-07,6.7539513e-06,7.4505806e-07,1.0,44,0.132,0,0,0.0,False,-0.2589843698458485,1.050963393382111
0.1520952939754352,11:38:31.664352,11:37:31.265637,0,,0.056715198,0.01976823,0.043293104,0.723396,-0.64259887,-0.2525167,-0.5614068,-0.7603501,0.32663473,-0.40189633,-0.09452173,-0.9107937,,-0.024735011,-0.017425023,0.027613938,0.8765521,0.2578259,0.40642583,0.36673933,-0.90464365,-0.21707663,0.3117026,0.3393314,-0.8875222,,0.096535735,1.3397322,0.45027843,0.9953248,-0.01143187,-0.09590558,-0.06956366,-0.77370197,-0.62971914,-0.067003466,0.6334466,-0.77088,,-0.036886804,0.25577933,-0.113459654,-0.7198441,0.61011904,0.3310275,-0.69413483,-0.63193023,-0.3447332,-0.0011420068,-0.4779319,0.87839615,,0.057889633,0.38635263,-0.38347104,-0.90898657,-0.27957603,-0.30916125,0.38967788,-0.306677,-0.86838955,0.14796825,-0.9098277,0.38770986,,1.3072887754829765,0.1824727323521767,0.15759645675,-1.3959059537764786,-0.21383612213291428,0.13949219724487938,-0.4055833162114154,,-1.014303735700647,-0.1057087675823851,0.17414230231000002,4.537900066948591,-0.15357942573635508,0.45358225911983785,0.8765042588765424,,-0.03410591524553419,-0.09502008780170129,0.0886540616,-0.06966925354577931,,1.0896474e-06,1.1742115e-05,-1.3828278e-05,1.0,-8.221716e-06,-6.761402e-06,8.225441e-06,1.0,-6.854534e-07,6.7539513e-06,7.4505806e-07,1.0,52,0.155,0,0,0.0,False,-0.25856732581620134,1.0506254319766548
0.17888858099468052,11:38:31.688098,11:37:31.265637,0,,0.056302756,0.020336509,0.04385166,0.71739835,-0.64681756,-0.25877887,-0.56096345,-0.7565954,0.33598137,-0.41310963,-0.09586707,-0.9056214,,-0.024735339,-0.017423801,0.027614117,0.8765522,0.25782752,0.40642452,0.36673802,-0.9046459,-0.2170695,0.31170374,0.33932415,-0.88752455,,0.096535735,1.3397322,0.45027843,0.9953248,-0.01143187,-0.09590558,-0.06956366,-0.77370197,-0.62971914,-0.067003466,0.6334466,-0.77088,,-0.0364874,0.25657812,-0.11354597,-0.7130633,0.6145979,0.33735755,-0.7010637,-0.62992585,-0.33422014,0.0070992433,-0.47482926,0.8800493,,0.05788992,0.38635352,-0.38347018,-0.9089868,-0.27957687,-0.3091598,0.38967797,-0.30668417,-0.8683869,0.1479665,-0.909825,0.3877168,,1.3123703337142163,0.18509846152941306,0.15757441982,-1.39087339513285,-0.2080973891427658,0.13636454135230042,-0.4054199721452811,,-1.014303735700647,-0.10570104484951086,0.17414230231000002,4.537900066948591,-0.15357942573635508,0.45358225911983785,0.8765042588765424,,-0.03410591524553419,-0.09502008780170129,0.0886540616,-0.06966925354577931,,1.0896474e-06,1.1742115e-05,-1.3828278e-05,1.0,-8.221716e-06,-6.761402e-06,8.225441e-06,1.0,-6.854534e-07,6.7539513e-06,7.4505806e-07,1.0,59,0.177,0,0,0.0,False,-0.2584481703791588,1.0507702725789931
0.20260311593301594,11:38:31.709486,11:37:31.265637,0,,0.056056995,0.020730317,0.04420699,0.7140659,-0.64911085,-0.26223052,-0.5605076,-0.75451094,0.34138626,-0.41945344,-0.096790165,-0.9026022,,-0.024735339,-0.017423801,0.027614117,0.8765522,0.25782752,0.40642452,0.36673802,-0.9046459,-0.2170695,0.31170374,0.33932415,-0.88752455,,0.096535735,1.3397322,0.45027843,0.9953248,-0.01143187,-0.09590558,-0.06956366,-0.77370197,-0.62971914,-0.067003466,0.6334466,-0.77088,,-0.036248315,0.2571106,-0.11357843,-0.70927763,0.6170482,0.3408471,-0.7048288,-0.62892854,-0.32812384,0.011900249,-0.47296974,0.8809983,,0.05788992,0.38635352,-0.38347018,-0.9089868,-0.27957687,-0.3091598,0.38967797,-0.30668417,-0.8683869,0.1479665,-0.909825,0.3877168,,1.3156370497200132,0.18699053108359806,0.15757701240000002,-1.3883571158110357,-0.20522802264769155,0.13484155277608117,-0.40541997214528114,,-1.014303735700647,-0.10570104484951086,0.17414230231000002,4.537900066948591,-0.15357942573635508,0.45358225911983785,0.8765042588765424,,-0.03410591524553419,-0.09502008780170129,0.0886540616,-0.06966925354577931,,1.0896474e-06,1.1742115e-05,-1.3828278e-05,1.0,-8.221716e-06,-6.761402e-06,8.225441e-06,1.0,-6.854534e-07,6.7539513e-06,7.4505806e-07,1.0,67,0.201,0,0,0.0,False,-0.25826943722359585,1.0503840309727575
0.22399221698287874,11:38:31.733495,11:37:31.265637,0,,0.05580422,0.021146096,0.0445583,0.7091715,-0.65294737,-0.26596138,-0.5601638,-0.75089145,0.3498267,-0.42812663,-0.09910527,-0.89826834,,-0.02473516,-0.017425232,0.02761525,0.8765521,0.2578259,0.40642583,0.36673933,-0.90464365,-0.21707663,0.3117026,0.3393314,-0.8875222,,0.096535735,1.3397322,0.45027843,0.9953248,-0.01143187,-0.09590558,-0.06956366,-0.77370197,-0.62971914,-0.067003466,0.6334466,-0.77088,,-0.036000896,0.25765714,-0.11359416,-0.7037783,0.6212076,0.34466973,-0.7101851,-0.62766296,-0.3188673,0.018253641,-0.4691912,0.8829079,,0.05788965,0.38635352,-0.383472,-0.90898657,-0.27957603,-0.30916125,0.38967788,-0.306677,-0.86838955,0.14796825,-0.9098277,0.38770986,,1.3204483123006552,0.18998695143879715,0.15761330852000002,-1.382905177280438,-0.19702983266176513,0.128891587215561,-0.4055833162114154,,-1.014303735700647,-0.1057087675823851,0.17414100602000002,4.537900066948591,-0.15357942573635508,0.45358225911983785,0.8765042588765424,,-0.03410591524553419,-0.09502008780170129,0.0886540616,-0.06966925354577931,,1.0896474e-06,1.1742115e-05,-1.3828278e-05,1.0,-8.221716e-06,-6.761402e-06,8.225441e-06,1.0,-6.854534e-07,6.7539513e-06,7.4505806e-07,1.0,75,0.226,0,0,0.0,False,-0.2585077480976805,1.051108233984449
0.24800582393072546,11:38:31.760998,11:37:31.265637,0,,0.05543442,0.021819063,0.045056,0.7026951,-0.65720075,-0.2725926,-0.55811876,-0.7467786,0.3616977,-0.4412744,-0.1020242,-0.89155376,,-0.02473516,-0.017425232,0.02761525,0.8765521,0.2578259,0.40642583,0.36673933,-0.90464365,-0.21707663,0.3117026,0.3393314,-0.8875222,,0.096535735,1.3397322,0.45027843,0.9953248,-0.01143187,-0.09590558,-0.06956366,-0.77370197,-0.62971914,-0.067003466,0.6334466,-0.77088,,-0.03563467,0.25849515,-0.1135628,-0.6963079,0.62584835,0.3513818,-0.71715885,-0.626414,-0.30543196,0.028956398,-0.46467128,0.8850097,,0.05788965,0.38635352,-0.383472,-0.90898657,-0.27957603,-0.30916125,0.38967788,-0.306677,-0.86838955,0.14796825,-0.9098277,0.38770986,,1.3235451281832191,0.19207981204771202,0.15767293786000003,-1.3795501381846857,-0.1915643726711475,0.12672187579163985,-0.40492993994687826,,-1.014303735700647,-0.1057087675823851,0.17414100602000002,4.537900066948591,-0.15357942573635508,0.45358225911983785,0.8765042588765424,,-0.03410591524553419,-0.09502008780170129,0.0886540616,-0.06966925354577931,,1.0896474e-06,1.1742115e-05,-1.3828278e-05,1.0,-8.221716e-06,-6.761402e-06,8.225441e-06,1.0,-6.854534e-07,6.7539513e-06,7.4505806e-07,1.0,83,0.25,0,0,0.0,False,-0.2586269035347226,1.051108233984449
0.27551120601128787,11:38:31.777653,11:37:31.265637,0,,0.0551769,0.02230049,0.045335755,0.6977994,-0.6604058,-0.27738085,-0.55657375,-0.74366087,0.37039733,-0.45088995,-0.1040802,-0.8864907,,-0.02473393,-0.017424934,0.027615488,0.8765504,0.25782198,0.4064319,0.36673728,-0.9046447,-0.21707547,0.31170967,0.33933142,-0.88751966,,0.096535735,1.3397322,0.45027843,0.9953248,-0.01143187,-0.09590558,-0.06956366,-0.77370197,-0.62971914,-0.067003466,0.6334466,-0.77088,,-0.03537435,0.25904477,-0.11348223,-0.6906834,0.6293362,0.3562196,-0.7222202,-0.62536514,-0.29549354,0.03680254,-0.46136147,0.8864486,,0.057888396,0.38635376,-0.38347182,-0.9089856,-0.2795721,-0.3091676,0.38968235,-0.30667725,-0.8683874,0.14796221,-0.90982884,0.38770953,,1.3265569940041666,0.19416494992375263,0.15778830767000002,-1.3759854091454489,-0.18486918418264095,0.12354940323445096,-0.40558331621141536,,-1.0143114584335213,-0.1057087675823851,0.17414100602000002,4.537900066948591,-0.15357942573635508,0.45358225911983785,0.8765042588765424,,-0.03410591524553419,-0.09502008780170129,0.0886540616,-0.06966925354577931,,1.0896474e-06,1.1742115e-05,-1.3828278e-05,1.0,-8.221716e-06,-6.761402e-06,8.225441e-06,1.0,-6.854534e-07,6.7539513e-06,7.4505806e-07,1.0,90,0.271,0,0,0.0,False,-0.25791197091247,1.0505771517758753
0.29215923498850316,11:38:31.803765,11:37:31.413801,0,,0.054801334,0.023068182,0.045694903,0.6916842,-0.66407424,-0.28386304,-0.5537587,-0.7399858,0.38180146,-0.46359923,-0.10689446,-0.87957346,,-0.02473548,-0.017423995,0.027615368,0.8765522,0.25782752,0.40642452,0.36673802,-0.9046459,-0.2170695,0.31170374,0.33932415,-0.88752455,,0.096535735,1.3397322,0.45027843,0.9953248,-0.01143187,-0.09590558,-0.06956366,-0.77370197,-0.62971914,-0.067003466,0.6334466,-0.77088,,-0.03498812,0.25986415,-0.11328518,-0.68356633,0.6333657,0.36274645,-0.72832763,-0.62438476,-0.28228092,0.0477063,-0.457156,0.8881061,,0.05788994,0.38635442,-0.3834711,-0.9089868,-0.27957687,-0.3091598,0.38967797,-0.30668417,-0.8683869,0.1479665,-0.909825,0.3877168,,1.330974397208223,0.19741622046380114,0.15803719535000002,-1.3722109901627275,-0.17626108469741816,0.12012393986776111,-0.4062366924759525,,-1.014303735700647,-0.10570104484951086,0.17414100602000002,4.537900066948591,-0.15357942573635508,0.45358225911983785,0.8765042588765424,,-0.03410591524553419,-0.09502008780170129,0.0886540616,-0.06966925354577931,,1.0896474e-06,1.1742115e-05,-1.3828278e-05,1.0,-8.221716e-06,-6.761402e-06,8.225441e-06,1.0,-6.854534e-07,6.7539513e-06,7.4505806e-07,1.0,102,0.308,0,0,0.0,False,-0.2575545046013441,1.0504805913743163
0.31787651299964637,11:38:31.835308,11:37:31.413801,0,,0.05442497,0.023856066,0.046017274,0.6870782,-0.66671365,-0.28881878,-0.55031186,-0.73706245,0.39229557,-0.47442645,-0.11059737,-0.8733201,,-0.02473548,-0.017423995,0.027615368,0.8765522,0.25782752,0.40642452,0.36673802,-0.9046459,-0.2170695,0.31170374,0.33932415,-0.88752455,,0.096535735,1.3397322,0.45027843,0.9953248,-0.01143187,-0.09590558,-0.06956366,-0.77370197,-0.62971914,-0.067003466,0.6334466,-0.77088,,-0.03459755,0.26067483,-0.11304729,-0.6780539,0.6363956,0.36775473,-0.7327416,-0.62456316,-0.2702047,0.05772899,-0.45268255,0.889801,,0.05788994,0.38635442,-0.3834711,-0.9089868,-0.27957687,-0.3091598,0.38967797,-0.30668417,-0.8683869,0.1479665,-0.909825,0.3877168,,1.3353918004122796,0.20066749100384965,0.15833404576000001,-1.3703237806713666,-0.1692926232093807,0.1168103102433199,-0.40509328401301253,,-1.014303735700647,-0.10570104484951086,0.17414100602000002,4.537900066948591,-0.15357942573635508,0.45358225911983785,0.8765042588765424,,-0.03410591524553419,-0.09502008780170129,0.0886540616,-0.06966925354577931,,1.0896474e-06,1.1742115e-05,-1.3828278e-05,1.0,-8.221716e-06,-6.761402e-06,8.225441e-06,1.0,-6.854534e-07,6.7539513e-06,7.4505806e-07,1.0,110,0.332,0,0,0.0,False,-0.2575545046013441,1.05105995378367
0.349841512972489,11:38:31.866782,11:37:31.413801,0,,0.054053143,0.024618402,0.04629679,0.68225294,-0.67013836,-0.2923105,-0.5486928,-0.73354864,0.401052,-0.48318434,-0.11323029,-0.86816585,,-0.02473437,-0.017423429,0.027615607,0.8764656,0.2579999,0.40650192,0.36692414,-0.9045856,-0.21700612,0.31172824,0.33935386,-0.8875046,,0.096535735,1.3397322,0.45027843,0.9953248,-0.01143187,-0.09590558,-0.06956366,-0.77370197,-0.62971914,-0.067003466,0.6334466,-0.77088,,-0.034209736,0.26143813,-0.11279333,-0.6725559,0.6401617,0.37129706,-0.73718774,-0.62358874,-0.26017553,0.06498224,-0.44869825,0.89131767,,0.057888795,0.38635483,-0.38347074,-0.9089057,-0.27975217,-0.3092397,0.38981843,-0.30663967,-0.8683396,0.14809471,-0.90978616,0.3877591,,1.3397010853560969,0.20373341595491679,0.15865682197000003,-1.3673881214625834,-0.16478361871712116,0.11362359186218139,-0.40607334840981824,,-1.0143114584335213,-0.10570104484951086,0.17414100602000002,4.537690377005107,-0.15357942573635508,0.45358225911983785,0.8765042588765424,,-0.03410591524553419,-0.09502008780170129,0.0886540616,-0.06966925354577931,,1.0896474e-06,1.1742115e-05,-1.3828278e-05,1.0,-8.221716e-06,-6.761402e-06,8.225441e-06,1.0,-6.854534e-07,6.7539513e-06,7.4505806e-07,1.0,118,0.356,0,0,0.0,False,-0.25791197091247,1.0508668329805522
0.38131872192025185,11:38:31.888205,11:37:31.413801,0,,0.053793155,0.025099635,0.046457097,0.6794474,-0.6720952,-0.29434544,-0.54688376,-0.7313366,0.4075108,-0.4891517,-0.11590943,-0.8644628,,-0.024734162,-0.017424397,0.027615488,0.87638044,0.25817454,0.40657458,0.36711368,-0.904522,-0.2169508,0.3117444,0.3393906,-0.8874849,,0.096535735,1.3397322,0.45027843,0.9953248,-0.01143187,-0.09590558,-0.06956366,-0.77370197,-0.62971914,-0.067003466,0.6334466,-0.77088,,-0.03393862,0.2619097,-0.11262297,-0.66925615,0.64240557,0.37337816,-0.7396868,-0.62364393,-0.2528472,0.07042458,-0.44540244,0.8925565,,0.057888623,0.38635412,-0.38347143,-0.9088252,-0.27993053,-0.30931473,0.3899543,-0.30658776,-0.868297,0.14823073,-0.9097488,0.3877948,,1.3424426555264466,0.20551736724886266,0.15888237643000003,-1.366129981801676,-0.1612310697232197,0.11072672636607443,-0.40607334840981824,,-1.0143114584335213,-0.1057087675823851,0.17414100602000002,4.537480687061622,-0.15357942573635508,0.45358225911983785,0.8765042588765424,,-0.03410591524553419,-0.09502008780170129,0.0886540616,-0.06966925354577931,,1.0896474e-06,1.1742115e-05,-1.3828278e-05,1.0,-8.221716e-06,-6.761402e-06,8.225441e-06,1.0,-6.854534e-07,6.7539513e-06,7.4505806e-07,1.0,133,0.402,0,0,0.0,False,-0.2587460589717643,1.0507702725789931
0.4027426459360868,11:38:31.933232,11:37:31.413801,0,,0.053248465,0.025978908,0.046650395,0.67360723,-0.6761925,-0.29835695,-0.5447195,-0.72704864,0.41794848,-0.49953377,-0.119012356,-0.8580806,,-0.024735413,-0.017424695,0.027615309,0.8763821,0.25817847,0.40656847,0.36711574,-0.90452087,-0.21695197,0.31173733,0.33939058,-0.88748735,,0.096535735,1.3397322,0.45027843,0.9953248,-0.01143187,-0.09590558,-0.06956366,-0.77370197,-0.62971914,-0.067003466,0.6334466,-0.77088,,-0.033366896,0.26270688,-0.11224244,-0.66260713,0.6469122,0.37743393,-0.74477077,-0.62238383,-0.24073812,0.079172336,-0.44061658,0.8941973,,0.05788988,0.3863539,-0.3834716,-0.9088262,-0.27993447,-0.30930838,0.3899498,-0.3065875,-0.86829907,0.14823677,-0.90974766,0.38779512,,1.3474547091618183,0.2083052738164577,0.15939829985,-1.3625652527624392,-0.15549233673307122,0.10604717441082474,-0.40607334840981824,,-1.014303735700647,-0.1057087675823851,0.17414100602000002,4.537480687061622,-0.15357942573635508,0.45358225911983785,0.8765042588765424,,-0.03410591524553419,-0.09502008780170129,0.0886540616,-0.06966925354577931,,1.0896474e-06,1.1742115e-05,-1.3828278e-05,1.0,-8.221716e-06,-6.761402e-06,8.225441e-06,1.0,-6.854534e-07,6.7539513e-06,7.4505806e-07,1.0,141,0.427,0,0,0.0,False,-0.25779281547542787,1.0505771517758753
0.44774044898804277,11:38:31.962341,11:37:31.562472,0,,0.05266069,0.026804358,0.04677768,0.6665917,-0.6811337,-0.3028403,-0.54305756,-0.7220454,0.42864776,-0.51063097,-0.1212734,-0.85120445,,-0.024735719,-0.017423429,0.027615488,0.87638223,0.25818014,0.40656716,0.36711442,-0.9045231,-0.2169449,0.3117385,0.33938336,-0.88748974,,0.096535735,1.3397322,0.45027843,0.9953248,-0.01143187,-0.09590558,-0.06956366,-0.77370197,-0.62971914,-0.067003466,0.6334466,-0.77088,,-0.03275023,0.26342058,-0.111850776,-0.6547614,0.6522354,0.3819379,-0.7506915,-0.62002474,-0.22810428,0.08803327,-0.4360714,0.89559585,,0.057890162,0.3863548,-0.3834707,-0.9088264,-0.27993533,-0.3093069,0.3899499,-0.30659467,-0.8682965,0.14823501,-0.909745,0.38780206,,1.352235080810963,0.21049852995273746,0.15995181568000003,-1.3575326941188106,-0.14879714824456466,0.10075105460998124,-0.40607334840981824,,-1.014303735700647,-0.10570104484951086,0.17414100602000002,4.537480687061622,-0.15357942573635508,0.45358225911983785,0.8765042588765424,,-0.03410591524553419,-0.09502008780170129,0.0886540616,-0.06966925354577931,,1.0896474e-06,1.1742115e-05,-1.3828278e-05,1.0,-8.221716e-06,-6.761402e-06,8.225441e-06,1.0,-6.854534e-07,6.7539513e-06,7.4505806e-07,1.0,153,0.464,0,0,0.0,False,-0.2588652144088064,1.0507219923782136
0.4768571669701487,11:38:31.999863,11:37:31.562472,0,,0.0522143,0.027418971,0.046860054,0.661157,-0.68504584,-0.3059141,-0.5405474,-0.7177199,0.43896097,-0.52026916,-0.12486112,-0.8448254,,-0.024734482,-0.01742316,0.027615607,0.87638056,0.25817618,0.40657324,0.36711234,-0.9045242,-0.2169438,0.31174558,0.33938342,-0.8874872,,0.096535735,1.3397322,0.45027843,0.9953248,-0.01143187,-0.09590558,-0.06956366,-0.77370197,-0.62971914,-0.067003466,0.6334466,-0.77088,,-0.032281496,0.26394397,-0.11155056,-0.6485516,0.65659314,0.38505355,-0.7550315,-0.61905426,-0.21610008,0.09647921,-0.43087962,0.8972372,,0.057888906,0.38635504,-0.38347054,-0.90882546,-0.27993137,-0.30931324,0.3899544,-0.3065949,-0.86829436,0.14822897,-0.9097461,0.38780174,,1.3556562514742447,0.21202763106183392,0.1603769988,-1.3541776550230584,-0.14182868675652718,0.09482370530104205,-0.4062366924759525,,-1.0143114584335213,-0.10570104484951086,0.17414100602000002,4.537480687061622,-0.15357942573635508,0.45358225911983785,0.8765042588765424,,-0.03410591524553419,-0.09502008780170129,0.0886540616,-0.06966925354577931,,1.0896474e-06,1.1742115e-05,-1.3828278e-05,1.0,-8.221716e-06,-6.761402e-06,8.225441e-06,1.0,-6.854534e-07,6.7539513e-06,7.4505806e-07,1.0,161,0.487,0,0,0.0,False,-0.25737577144578117,1.0505771517758753
0.5144016409758478,11:38:32.018987,11:37:31.562472,0,,0.051907543,0.027864754,0.046918347,0.6567176,-0.688414,-0.3079091,-0.539258,-0.71409214,0.44640025,-0.5271838,-0.1271165,-0.8401898,,-0.024735413,-0.017424695,0.027615309,0.8763821,0.25817847,0.40656847,0.36711574,-0.90452087,-0.21695197,0.31173733,0.33939058,-0.88748735,,0.096535735,1.3397322,0.45027843,0.9953248,-0.01143187,-0.09590558,-0.06956366,-0.77370197,-0.62971914,-0.067003466,0.6334466,-0.77088,,-0.03195837,0.26432252,-0.1113303,-0.6435828,0.6602821,0.38707715,-0.7585278,-0.61774766,-0.20742066,0.10215989,-0.4271012,0.89841413,,0.05788988,0.3863539,-0.3834716,-0.9088262,-0.27993447,-0.30930838,0.3899498,-0.3065875,-0.86829907,0.14823677,-0.90974766,0.38779512,,1.35804257593238,0.2131937637258418,0.16068292324000003,-1.3510323058707905,-0.13690977276497132,0.09040426706726806,-0.4060733484098182,,-1.014303735700647,-0.1057087675823851,0.17414100602000002,4.537480687061622,-0.15357942573635508,0.45358225911983785,0.8765042588765424,,-0.03410591524553419,-0.09502008780170129,0.0886540616,-0.06966925354577931,,1.0896474e-06,1.1742115e-05,-1.3828278e-05,1.0,-8.221716e-06,-6.761402e-06,8.225441e-06,1.0,-6.854534e-07,6.7539513e-06,7.4505806e-07,1.0,176,0.533,0,0,0.0,False,-0.2585077480976805,1.0503840309727575
0.5335062999511138,11:38:32.064570,11:37:31.562472,0,,0.051336214,0.028839469,0.047090426,0.6484799,-0.6944908,-0.31169882,-0.5357246,-0.7072623,0.46128014,-0.5408077,-0.13214627,-0.83070123,,-0.024735719,-0.017423429,0.027615488,0.87638223,0.2581137,0.40660933,0.36711442,-0.9044877,-0.21709266,0.3117385,0.33952832,-0.88743424,,0.096535735,1.3397322,0.45027843,0.9953248,-0.01143187,-0.09590558,-0.06956366,-0.77370197,-0.62971914,-0.067003466,0.6334466,-0.77088,,-0.031354006,0.26517838,-0.11087386,-0.63425225,0.66701853,0.39090964,-0.7646689,-0.6158016,-0.18992089,0.11404202,-0.41937417,0.90062183,,0.057890162,0.3863548,-0.3834707,-0.9088264,-0.2798848,-0.30935264,0.3899499,-0.3064528,-0.8683466,0.14823501,-0.90980834,0.38765344,,1.3629696795061352,0.2161747386152925,0.16129217954000002,-1.3459997472271619,-0.12720858128162504,0.08224855968440048,-0.40623669247595245,,-1.014303735700647,-0.10570104484951086,0.17414100602000002,4.537480687061622,-0.15357942573635508,0.453745616600119,0.8761775707442738,,-0.03410591524553419,-0.09502008780170129,0.0886540616,-0.06966925354577931,,1.0896474e-06,1.1742115e-05,-1.3828278e-05,1.0,-8.221716e-06,-6.761402e-06,8.225441e-06,1.0,-6.854534e-07,6.7539513e-06,7.4505806e-07,1.0,184,0.558,0,0,0.0,False,-0.2575545046013441,1.0503840309727575
0.5790990929817781,11:38:32.093484,11:37:31.700270,0,,0.05094131,0.029664353,0.047262058,0.6418852,-0.69940555,-0.31434888,-0.53393173,-0.70190513,0.47142997,-0.5503639,-0.13476312,-0.82397735,,-0.024735719,-0.017423429,0.027615488,0.87638223,0.2581137,0.40660933,0.36711442,-0.9044877,-0.21709266,0.3117385,0.33952832,-0.88743424,,0.096535735,1.3397322,0.45027843,0.9953248,-0.01143187,-0.09590558,-0.06956366,-0.77370197,-0.62971914,-0.067003466,0.6334466,-0.77088,,-0.030932639,0.26591888,-0.11049975,-0.626927,0.6723573,0.39357102,-0.7694884,-0.61340684,-0.17781918,0.121861115,-0.41432798,0.9019325,,0.057890162,0.3863548,-0.3834707,-0.9088264,-0.2798848,-0.30935264,0.3899499,-0.3064528,-0.8683466,0.14823501,-0.90980834,0.38765344,,1.3669005505391156,0.2190784861760009,0.16176662168000003,-1.3415962584139869,-0.12119657529194568,0.07734617192175791,-0.40623669247595245,,-1.014303735700647,-0.10570104484951086,0.17414100602000002,4.537480687061622,-0.15357942573635508,0.453745616600119,0.8761775707442738,,-0.03410591524553419,-0.09502008780170129,0.0886540616,-0.06966925354577931,,1.0896474e-06,1.1742115e-05,-1.3828278e-05,1.0,-8.221716e-06,-6.761402e-06,8.225441e-06,1.0,-6.854534e-07,6.7539513e-06,7.4505806e-07,1.0,196,0.595,0,0,0.0,False,-0.25761408231986493,1.050963393382111
0.6080045650014654,11:38:32.131412,11:37:31.700270,0,,0.05044248,0.030820519,0.047542647,0.6326471,-0.7063729,-0.31748214,-0.53136915,-0.69415706,0.4855851,-0.5633868,-0.13850388,-0.8145012,,-0.024734482,-0.01742316,0.027615607,0.87638056,0.25810972,0.40661544,0.36711234,-0.9044888,-0.21709159,0.31174558,0.33952844,-0.8874318,,0.096535735,1.3397322,0.45027843,0.9953248,-0.01143187,-0.09590558,-0.06956366,-0.77370197,-0.62971914,-0.067003466,0.6334466,-0.77088,,-0.03039932,0.2669824,-0.11000097,-0.6166886,0.6799354,0.39671528,-0.7759636,-0.60991585,-0.16088241,0.13257329,-0.40705097,0.90373325,,0.057888906,0.38635504,-0.38347054,-0.90882546,-0.27988082,-0.30935898,0.3899544,-0.30645305,-0.8683445,0.14822897,-0.90980947,0.3876531,,1.372275572619576,0.2233954938526924,0.16239143346,-1.3355152500529355,-0.11299838530601926,0.07049774021969152,-0.40623669247595245,,-1.0143114584335213,-0.10570104484951086,0.17414100602000002,4.537480687061622,-0.15357942573635508,0.453745616600119,0.8761775707442738,,-0.03410591524553419,-0.09502008780170129,0.0886540616,-0.06966925354577931,,1.0896474e-06,1.1742115e-05,-1.3828278e-05,1.0,-8.221716e-06,-6.761402e-06,8.225441e-06,1.0,-6.854534e-07,6.7539513e-06,7.4505806e-07,1.0,204,0.618,0,0,0.0,False,-0.2587460589717643,1.0509151131813312
0.6459261589916423,11:38:32.152744,11:37:31.700270,0,,0.050200522,0.031412274,0.047696337,0.62813646,-0.7097126,-0.3189868,-0.5306363,-0.69054997,0.4914936,-0.5690957,-0.13945913,-0.8103589,,-0.024735413,-0.017424695,0.027615309,0.8763821,0.2581121,0.40661064,0.36711574,-0.90448546,-0.2170997,0.31173733,0.33953553,-0.8874319,,0.096535735,1.3397322,0.45027843,0.9953248,-0.01143187,-0.09590558,-0.06956366,-0.77370197,-0.62971914,-0.067003466,0.6334466,-0.77088,,-0.030140366,0.26753318,-0.10975214,-0.61175996,0.68350416,0.39821073,-0.77909386,-0.6077766,-0.15368909,0.13697603,-0.4042644,0.9043273,,0.05788988,0.3863539,-0.3834716,-0.9088262,-0.27988395,-0.3093541,0.3899498,-0.30644566,-0.86834913,0.14823677,-0.909811,0.38764653,,1.3750557564542967,0.22567370005058862,0.16270383935000002,-1.3323699009006678,-0.10999238231117957,0.06804654633837023,-0.40623669247595245,,-1.014303735700647,-0.1057087675823851,0.17414100602000002,4.537480687061622,-0.15357942573635508,0.453745616600119,0.8761775707442738,,-0.03410591524553419,-0.09502008780170129,0.0886540616,-0.06966925354577931,,1.0896474e-06,1.1742115e-05,-1.3828278e-05,1.0,-8.221716e-06,-6.761402e-06,8.225441e-06,1.0,-6.854534e-07,6.7539513e-06,7.4505806e-07,1.0,223,0.677,0,0,0.0,False,-0.2570778828531757,1.05105995378367
0.6672820179956034,11:38:32.202368,11:37:31.700270,0,,0.049565494,0.032821476,0.04809718,0.6165048,-0.7181634,-0.32274318,-0.5287935,-0.681371,0.50607413,-0.58335185,-0.14133269,-0.79982865,,-0.024735719,-0.017423429,0.027615488,0.87638223,0.2581137,0.40660933,0.36711442,-0.9044877,-0.21709266,0.3117385,0.33952832,-0.88743424,,0.096535735,1.3397322,0.45027843,0.9953248,-0.01143187,-0.09590558,-0.06956366,-0.77370197,-0.62971914,-0.067003466,0.6334466,-0.77088,,-0.02946751,0.26886812,-0.109190874,-0.5990853,0.69249904,0.40192276,-0.7868979,-0.60196954,-0.13573647,0.14794788,-0.3975899,0.9055571,,0.057890162,0.3863548,-0.3834707,-0.9088264,-0.2798848,-0.30935264,0.3899499,-0.3064528,-0.8683466,0.14823501,-0.90980834,0.38765344,,1.3820371069725956,0.23090971293931284,0.16345050239000003,-1.3241919931047712,-0.10234073832431491,0.061643786251089516,-0.40623669247595245,,-1.014303735700647,-0.10570104484951086,0.17414100602000002,4.537480687061622,-0.15357942573635508,0.453745616600119,0.8761775707442738,,-0.03410591524553419,-0.09502008780170129,0.0886540616,-0.06966925354577931,,1.0896474e-06,1.1742115e-05,-1.3828278e-05,1.0,-8.221716e-06,-6.761402e-06,8.225441e-06,1.0,-6.854534e-07,6.7539513e-06,7.4505806e-07,1.0,227,0.689,0,0,0.0,False,-0.25767366003838577,1.050432311173537
0.7169085380155593,11:38:32.222142,11:37:31.700270,0,,0.049301937,0.03333795,0.048242763,0.6121974,-0.72106737,-0.32446283,-0.52752376,-0.67813504,0.5117144,-0.5890103,-0.14210841,-0.7955327,,-0.024734482,-0.01742316,0.027615607,0.87638056,0.25810972,0.40661544,0.36711234,-0.9044888,-0.21709159,0.31174558,0.33952844,-0.8874318,,0.096535735,1.3397322,0.45027843,0.9953248,-0.01143187,-0.09590558,-0.06956366,-0.77370197,-0.62971914,-0.067003466,0.6334466,-0.77088,,-0.029190106,0.26935676,-0.10898676,-0.59433675,0.6956032,0.40360877,-0.7895903,-0.5999982,-0.12864411,0.15267928,-0.3951435,0.9058425,,0.057888906,0.38635504,-0.38347054,-0.90882546,-0.27988082,-0.30935898,0.3899544,-0.30645305,-0.8683445,0.14822897,-0.90980947,0.3876531,,1.3846937270813289,0.23268594150038446,0.16373827877000002,-1.3214660238394724,-0.09892482583017889,0.05918505361924123,-0.40623669247595245,,-1.0143114584335213,-0.10570104484951086,0.17414100602000002,4.537480687061622,-0.15357942573635508,0.453745616600119,0.8761775707442738,,-0.03410591524553419,-0.09502008780170129,0.0886540616,-0.06966925354577931,,1.0896474e-06,1.1742115e-05,-1.3828278e-05,1.0,-8.221716e-06,-6.761402e-06,8.225441e-06,1.0,-6.854534e-07,6.7539513e-06,7.4505806e-07,1.0,235,0.713,0,0,0.0,False,-0.25719703829021734,1.0506254319766548
0.7366738360142335,11:38:32.253065,11:37:31.854002,0,,0.048883934,0.034095645,0.04845448,0.6045599,-0.7253301,-0.3292469,-0.5248272,-0.6736419,0.520349,-0.5992195,-0.14178446,-0.78792983,,-0.024734482,-0.01742316,0.027615607,0.87638056,0.25810972,0.40661544,0.36711234,-0.9044888,-0.21709159,0.31174558,0.33952844,-0.8874318,,0.096535735,1.3397322,0.45027843,0.9953248,-0.01143187,-0.09590558,-0.06956366,-0.77370197,-0.62971914,-0.067003466,0.6334466,-0.77088,,-0.02875177,0.27007273,-0.10868858,-0.5858832,0.7000451,0.40826184,-0.794142,-0.5963445,-0.11709738,0.16149123,-0.39282325,0.9053234,,0.057888906,0.38635504,-0.38347054,-0.90882546,-0.27988082,-0.30935898,0.3899544,-0.30645305,-0.8683445,0.14822897,-0.90980947,0.3876531,,1.388585984449938,0.23512632508863943,0.16417383221,-1.3166431551393283,-0.0915464548428451,0.056598993905538075,-0.4062366924759525,,-1.0143114584335213,-0.10570104484951086,0.17414100602000002,4.537480687061622,-0.15357942573635508,0.453745616600119,0.8761775707442738,,-0.03410591524553419,-0.09502008780170129,0.0886540616,-0.06966925354577931,,1.0896474e-06,1.1742115e-05,-1.3828278e-05,1.0,-8.221716e-06,-6.761402e-06,8.225441e-06,1.0,-6.854534e-07,6.7539513e-06,7.4505806e-07,1.0,243,0.738,0,0,0.0,False,-0.25785239319394915,1.0508668329805522
0.7675862389151007,11:38:32.271156,11:37:31.854002,0,,0.04860468,0.034564286,0.048601285,0.59957993,-0.7276275,-0.33325964,-0.5217542,-0.6711395,0.526635,-0.606858,-0.14188018,-0.78204453,,-0.024734482,-0.01742316,0.027615607,0.87638056,0.25810972,0.40661544,0.36711234,-0.9044888,-0.21709159,0.31174558,0.33952844,-0.8874318,,0.096535735,1.3397322,0.45027843,0.9953248,-0.01143187,-0.09590558,-0.06956366,-0.77370197,-0.62971914,-0.067003466,0.6334466,-0.77088,,-0.028461128,0.27052608,-0.10851787,-0.58023906,0.7024619,0.4121528,-0.79675466,-0.59449047,-0.10845793,0.16883336,-0.39131618,0.9046364,,0.057888906,0.38635504,-0.38347054,-0.90882546,-0.27988082,-0.30935898,0.3899544,-0.30645305,-0.8683445,0.14822897,-0.90980947,0.3876531,,1.3910418135039413,0.23655503067037095,0.16443957166,-1.3141268758175142,-0.0851245393538694,0.05495621699799101,-0.40591000434368396,,-1.0143114584335213,-0.10570104484951086,0.17414100602000002,4.537480687061622,-0.15357942573635508,0.453745616600119,0.8761775707442738,,-0.03410591524553419,-0.09502008780170129,0.0886540616,-0.06966925354577931,,1.0896474e-06,1.1742115e-05,-1.3828278e-05,1.0,-8.221716e-06,-6.761402e-06,8.225441e-06,1.0,-6.854534e-07,6.7539513e-06,7.4505806e-07,1.0,251,0.762,0,0,0.0,False,-0.25767366003838577,1.0502874705711984
0.7856944459490478,11:38:32.301396,11:37:31.854002,0,,0.04821411,0.03522721,0.04875754,0.5925478,-0.7313758,-0.337604,-0.5191856,-0.6671925,0.5341353,-0.61590064,-0.14122158,-0.7750633,,-0.024735719,-0.017423429,0.027615488,0.87638223,0.2581137,0.40660933,0.36711442,-0.9044877,-0.21709266,0.3117385,0.33952832,-0.88743424,,0.096535735,1.3397322,0.45027843,0.9953248,-0.01143187,-0.09590558,-0.06956366,-0.77370197,-0.62971914,-0.067003466,0.6334466,-0.77088,,-0.028050842,0.2711338,-0.108237214,-0.5724764,0.70634145,0.41635627,-0.8006474,-0.59103674,-0.098180234,0.17673309,-0.38956043,0.903885,,0.057890162,0.3863548,-0.3834707,-0.9088264,-0.2798848,-0.30935264,0.3899499,-0.3064528,-0.8683466,0.14823501,-0.90980834,0.38765344,,1.3944089250371032,0.23850115935467553,0.16485568075,-1.309723387004339,-0.07829271436559737,0.05273415015893303,-0.4044399077484754,,-1.014303735700647,-0.10570104484951086,0.17414100602000002,4.537480687061622,-0.15357942573635508,0.453745616600119,0.8761775707442738,,-0.03410591524553419,-0.09502008780170129,0.0886540616,-0.06966925354577931,,1.0896474e-06,1.1742115e-05,-1.3828278e-05,1.0,-8.221716e-06,-6.761402e-06,8.225441e-06,1.0,-6.854534e-07,6.7539513e-06,7.4505806e-07,1.0,266,0.808,0,0,0.0,False,-0.25719703829021734,1.0504805913743163
0.8159349719062448,11:38:32.333653,11:37:31.854002,0,,0.047840457,0.03586465,0.04893668,0.5847865,-0.73533994,-0.34249076,-0.51477355,-0.6627058,0.54390204,-0.62692356,-0.14176136,-0.7660749,,-0.024734162,-0.017424397,0.027615488,0.87638044,0.2581081,0.40661675,0.36711368,-0.90448654,-0.2170986,0.3117444,0.3395356,-0.8874294,,0.096535735,1.3397322,0.45027843,0.9953248,-0.01143187,-0.09590558,-0.06956366,-0.77370197,-0.62971914,-0.067003466,0.6334466,-0.77088,,-0.02766023,0.271737,-0.10798896,-0.5637597,0.71054584,0.42106962,-0.8044295,-0.5879543,-0.084870614,0.18726522,-0.38656744,0.90304893,,0.057888623,0.38635412,-0.38347143,-0.9088252,-0.27988,-0.30936044,0.3899543,-0.3064459,-0.86834705,0.14823073,-0.90981215,0.38764617,,1.3975520773169126,0.2403777834431121,0.16523549372000002,-1.3055295881346487,-0.06845488638248566,0.049204391800521566,-0.4075434450050267,,-1.0143114584335213,-0.1057087675823851,0.17414100602000002,4.537480687061622,-0.15357942573635508,0.453745616600119,0.8761775707442738,,-0.03410591524553419,-0.09502008780170129,0.0886540616,-0.06966925354577931,,1.0896474e-06,1.1742115e-05,-1.3828278e-05,1.0,-8.221716e-06,-6.761402e-06,8.225441e-06,1.0,-6.854534e-07,6.7539513e-06,7.4505806e-07,1.0,270,0.82,0,0,0.0,False,-0.25767366003838577,1.0508668329805522
0.8481921519851312,11:38:32.353769,11:37:31.854002,0,,0.04760201,0.03630489,0.049048916,0.58003867,-0.7373601,-0.346201,-0.5130091,-0.66079295,0.5478818,-0.6327535,-0.14018849,-0.76155794,,-0.024735413,-0.017424695,0.027615309,0.8763821,0.2581121,0.40661064,0.36711574,-0.90448546,-0.2170997,0.31173733,0.33953553,-0.8874319,,0.096535735,1.3397322,0.45027843,0.9953248,-0.01143187,-0.09590558,-0.06956366,-0.77370197,-0.62971914,-0.067003466,0.6334466,-0.77088,,-0.027409203,0.27214593,-0.107807204,-0.55853647,0.7125413,0.42464325,-0.806855,-0.58546036,-0.07887402,0.1924108,-0.38667956,0.90191853,,0.05788988,0.3863539,-0.3834716,-0.9088262,-0.27988395,-0.3093541,0.3899498,-0.30644566,-0.86834913,0.14823677,-0.909811,0.38764653,,1.3997067197888213,0.24174470716184981,0.16550252946000002,-1.3025939289258652,-0.06394588189022614,0.04920314428486498,-0.40509328401301253,,-1.014303735700647,-0.1057087675823851,0.17414100602000002,4.537480687061622,-0.15357942573635508,0.453745616600119,0.8761775707442738,,-0.03410591524553419,-0.09502008780170129,0.0886540616,-0.06966925354577931,,1.0896474e-06,1.1742115e-05,-1.3828278e-05,1.0,-8.221716e-06,-6.761402e-06,8.225441e-06,1.0,-6.854534e-07,6.7539513e-06,7.4505806e-07,1.0,282,0.857,0,0,0.0,False,-0.2575545046013441,1.0506737121774343
0.8682931090006605,11:38:32.385014,11:37:31.984069,0,,0.04725639,0.03699471,0.049253806,0.5722732,-0.7420525,-0.34908652,-0.5092546,-0.6552286,0.5579743,-0.6427778,-0.14153984,-0.7528634,,-0.024734482,-0.01742316,0.027615607,0.87638056,0.25810972,0.40661544,0.36711234,-0.9044888,-0.21709159,0.31174558,0.33952844,-0.8874318,,0.096535735,1.3397322,0.45027843,0.9953248,-0.01143187,-0.09590558,-0.06956366,-0.77370197,-0.62971914,-0.067003466,0.6334466,-0.77088,,-0.027045801,0.27280536,-0.10754195,-0.5499172,0.71758014,0.42739886,-0.8104835,-0.5820847,-0.06552745,0.20176116,-0.3824344,0.9016853,,0.057888906,0.38635504,-0.38347054,-0.90882546,-0.27988082,-0.30935898,0.3899544,-0.30645305,-0.8683445,0.14822897,-0.90980947,0.3876531,,1.4029734357946182,0.24401519062687183,0.16589271275,-1.2981904401126902,-0.05547441890476882,0.044500560239482026,-0.4055833162114154,,-1.0143114584335213,-0.10570104484951086,0.17414100602000002,4.537480687061622,-0.15357942573635508,0.453745616600119,0.8761775707442738,,-0.03410591524553419,-0.09502008780170129,0.0886540616,-0.06966925354577931,,1.0896474e-06,1.1742115e-05,-1.3828278e-05,1.0,-8.221716e-06,-6.761402e-06,8.225441e-06,1.0,-6.854534e-07,6.7539513e-06,7.4505806e-07,1.0,290,0.88,0,0,0.0,False,-0.2583290149421176,1.05014262996886
0.899551109992899,11:38:32.416944,11:37:31.984069,0,,0.04692543,0.037728176,0.049532667,0.5646643,-0.7469733,-0.35097724,-0.5043092,-0.64891696,0.5697184,-0.65331966,-0.14469868,-0.74312574,,-0.024734482,-0.01742316,0.027615607,0.87638056,0.25810972,0.40661544,0.36711234,-0.9044888,-0.21709159,0.31174558,0.33952844,-0.8874318,,0.096535735,1.3397322,0.45027843,0.9953248,-0.01143187,-0.09590558,-0.06956366,-0.77370197,-0.62971914,-0.067003466,0.6334466,-0.77088,,-0.026700059,0.273546,-0.10730283,-0.54136026,0.723009,0.42917022,-0.8135489,-0.57932055,-0.050257705,0.21229035,-0.3763585,0.9018243,,0.057888906,0.38635504,-0.38347054,-0.90882546,-0.27988082,-0.30935898,0.3899544,-0.30645305,-0.8683445,0.14822897,-0.90980947,0.3876531,,1.4064950019852647,0.24667181073560507,0.16625567395000002,-1.2946257110734534,-0.046319773420484316,0.03826074179393024,-0.4064000365420868,,-1.0143114584335213,-0.10570104484951086,0.17414100602000002,4.537480687061622,-0.15357942573635508,0.453745616600119,0.8761775707442738,,-0.03410591524553419,-0.09502008780170129,0.0886540616,-0.06966925354577931,,1.0896474e-06,1.1742115e-05,-1.3828278e-05,1.0,-8.221716e-06,-6.761402e-06,8.225441e-06,1.0,-6.854534e-07,6.7539513e-06,7.4505806e-07,1.0,298,0.905,0,0,0.0,False,-0.25725661600873906,1.051397915189126
0.9314760679844767,11:38:32.445835,11:37:31.984069,0,,0.0466087,0.038461074,0.04983522,0.55641145,-0.7508664,-0.35581714,-0.49820358,-0.6441952,0.58034974,-0.66498095,-0.14564386,-0.73252195,,-0.024734482,-0.01742316,0.027615607,0.87638056,0.25810972,0.40661544,0.36711234,-0.9044888,-0.21709159,0.31174558,0.33952844,-0.8874318,,0.096535735,1.3397322,0.45027843,0.9953248,-0.01143187,-0.09590558,-0.06956366,-0.77370197,-0.62971914,-0.067003466,0.6334466,-0.77088,,-0.026370179,0.27430156,-0.107080765,-0.5320273,0.7271823,0.43376577,-0.81646025,-0.5763253,-0.035239186,0.22436488,-0.37290072,0.9003363,,0.057888906,0.38635504,-0.38347054,-0.90882546,-0.27988082,-0.30935898,0.3899544,-0.30645305,-0.8683445,0.14822897,-0.90980947,0.3876531,,1.4099316181142945,0.24938248997445786,0.16660048709000003,-1.2910609820342165,-0.03538885343924907,0.03498314256791529,-0.40721675687275816,,-1.0143114584335213,-0.10570104484951086,0.17414100602000002,4.537480687061622,-0.15357942573635508,0.453745616600119,0.8761775707442738,,-0.03410591524553419,-0.09502008780170129,0.0886540616,-0.06966925354577931,,1.0896474e-06,1.1742115e-05,-1.3828278e-05,1.0,-8.221716e-06,-6.761402e-06,8.225441e-06,1.0,-6.854534e-07,6.7539513e-06,7.4505806e-07,1.0,313,0.951,0,0,0.0,False,-0.2575545046013441,1.0503840309727575
0.9603733969852328,11:38:32.484284,11:37:31.984069,0,,0.046139404,0.03945165,0.0502844,0.5439543,-0.75502723,-0.3661251,-0.48948714,-0.63990605,0.59238726,-0.68155426,-0.14301813,-0.7176557,,-0.024648562,-0.01738166,0.027633011,0.8765287,0.25791422,0.40642032,0.3668238,-0.9046125,-0.21706384,0.31166902,0.33934736,-0.8875279,,0.09652245,1.3397325,0.45027137,0.9953265,-0.011412551,-0.09588985,-0.06953881,-0.77370226,-0.6297215,-0.067003466,0.6334466,-0.77088,,-0.025876917,0.2753536,-0.10682085,-0.51802397,0.7313689,0.4435659,-0.82057214,-0.57131,-0.016317006,0.24147987,-0.37243044,0.8960932,,0.057812512,0.38639244,-0.3834485,-0.9089708,-0.27964562,-0.30914477,0.3896872,-0.30665725,-0.8683923,0.14804064,-0.909813,0.3877168,,1.414596148770326,0.25305851082258873,0.16704381827,-1.2853993535601342,-0.019402382966692545,0.03493416751778339,-0.40672672467435533,,-1.0142882902348986,-0.10570104484951086,0.17414100602000002,4.537900066948591,-0.15357942573635508,0.45358225911983785,0.8765042588765424,,-0.03410591524553419,-0.09502008780170129,0.0886540616,-0.06966925354577931,,-1.1676922e-05,7.212162e-06,-7.390976e-06,1.0,1.1026859e-05,9.059906e-06,-1.1015683e-05,1.0,9.834766e-07,-9.056181e-06,-9.23872e-07,1.0,321,0.976,0,0,0.0,False,-0.2570778828531757,1.0507702725789931
0.9987590049859136,11:38:32.506600,11:37:31.984069,0,,0.045956895,0.039906822,0.05049424,0.5383921,-0.7567666,-0.37072644,-0.48864576,-0.6387767,0.59429777,-0.6865562,-0.13881141,-0.7137031,,-0.024654292,-0.017384194,0.027630568,0.87653685,0.25793242,0.40639117,0.36683545,-0.9046048,-0.21707633,0.3116323,0.33935416,-0.8875382,,0.09652245,1.3397325,0.45027137,0.9953265,-0.011412551,-0.09588985,-0.06953881,-0.77370226,-0.6297215,-0.067003466,0.6334466,-0.77088,,-0.025687734,0.27583703,-0.10669825,-0.51209176,0.7328627,0.44796678,-0.8231492,-0.56769305,-0.012248327,0.24533129,-0.37501577,0.8939663,,0.057818484,0.38638952,-0.38344938,-0.90897524,-0.27966455,-0.30911452,0.38966465,-0.30664885,-0.8684054,0.14807259,-0.90981,0.38771158,,1.416936136831216,0.2548733530480315,0.16724474322000002,-1.2814152446339282,-0.016123106972321975,0.037650934678346404,-0.40574666027754963,,-1.0142496765705276,-0.1057087675823851,0.17414230231000002,4.537900066948591,-0.15357942573635508,0.45358225911983785,0.8765042588765424,,-0.03410591524553419,-0.09502008780170129,0.0886540616,-0.06966925354577931,,-1.1676922e-05,7.212162e-06,-7.390976e-06,1.0,1.1026859e-05,9.059906e-06,-1.1015683e-05,1.0,9.834766e-07,-9.056181e-06,-9.23872e-07,1.0,329,1.0,0,0,0.0,False,-0.2580311263495121,1.0501909101696396
1.021134401904419,11:38:32.536502,11:37:31.984069,0,,0.04570062,0.04054212,0.05076091,0.53361815,-0.7595782,-0.37187696,-0.48678327,-0.635428,0.59939426,-0.691588,-0.13882431,-0.7088259,,-0.024655372,-0.017384298,0.027629137,0.8765386,0.25796956,0.40636396,0.36683753,-0.90462136,-0.21700358,0.3116252,0.33928156,-0.8875685,,0.09652245,1.3397325,0.45027137,0.9953265,-0.011412551,-0.09588985,-0.06953881,-0.77370226,-0.6297215,-0.067003466,0.6334466,-0.77088,,-0.025420317,0.27649468,-0.10650754,-0.5068935,0.73582685,0.4490187,-0.82497925,-0.5651392,-0.005193633,0.24993643,-0.37306368,0.8935073,,0.05781972,0.3863884,-0.3834486,-0.9089762,-0.27969372,-0.3090853,0.38966015,-0.30671954,-0.86838245,0.14807864,-0.9097772,0.38778624,,1.4202105755698873,0.2573600730335318,0.16754677879000002,-1.278898965312114,-0.013527013476778605,0.03602406694895775,-0.4064000365420868,,-1.0142419538376533,-0.1057087675823851,0.1741435986,4.537900066948591,-0.15357942573635508,0.45350058037969726,0.8763409148104081,,-0.03410591524553419,-0.09502008780170129,0.0886540616,-0.06966925354577931,,-1.1676922e-05,7.212162e-06,-7.390976e-06,1.0,1.1026859e-05,9.059906e-06,-1.1015683e-05,1.0,9.834766e-07,-9.056181e-06,-9.23872e-07,1.0,341,1.037,0,0,0.0,False,-0.25737577144578117,1.0505771517758753
1.0510200170101598,11:38:32.567010,11:37:31.984069,0,,0.04539086,0.041291334,0.051100984,0.5273554,-0.7640316,-0.371688,-0.4847226,-0.62982816,0.60692716,-0.6978112,-0.13990077,-0.70248663,,-0.024657845,-0.01738488,0.02762872,0.8765418,0.2579775,0.40635183,0.36684167,-0.90461916,-0.21700579,0.311611,0.33928144,-0.88757354,,0.09652245,1.3397325,0.45027137,0.9953265,-0.011412551,-0.09588985,-0.06953881,-0.77370226,-0.6297215,-0.067003466,0.6334466,-0.77088,,-0.025099229,0.27728704,-0.10630255,-0.500119,0.74060994,0.4487515,-0.82742345,-0.56155926,0.004648893,0.25544357,-0.36898252,0.8936445,,0.05782223,0.38638794,-0.38344896,-0.90897804,-0.27970162,-0.30907264,0.38965118,-0.30671903,-0.8683867,0.1480907,-0.90977496,0.38778692,,1.424187783000113,0.2603024342586113,0.16789159193000003,-1.2753342362728772,-0.010247737482408033,0.03187981993771352,-0.4064000365420868,,-1.0142265083719049,-0.1057087675823851,0.1741435986,4.537900066948591,-0.15357942573635508,0.45350058037969726,0.8763409148104081,,-0.03410591524553419,-0.09502008780170129,0.0886540616,-0.06966925354577931,,-1.1676922e-05,7.212162e-06,-7.390976e-06,1.0,1.1026859e-05,9.059906e-06,-1.1015683e-05,1.0,9.834766e-07,-9.056181e-06,-9.23872e-07,1.0,370,1.126,0,0,0.0,False,-0.25820985950507547,1.0505771517758753
1.081548074958846,11:38:32.660986,11:37:31.984069,0,,0.04483776,0.042781435,0.051734254,0.5140768,-0.77262384,-0.37252834,-0.4793825,-0.6189493,0.622169,-0.71127886,-0.14125916,-0.68856984,,-0.024658762,-0.017386444,0.027628362,0.87654334,0.25797984,0.406347,0.36684504,-0.9046158,-0.21701393,0.31160274,0.33928847,-0.88757366,,0.09652245,1.3397325,0.45027137,0.9953265,-0.011412551,-0.09588985,-0.06953881,-0.77370226,-0.6297215,-0.067003466,0.6334466,-0.77088,,-0.024520371,0.27883422,-0.10585701,-0.48568946,0.74979174,0.449353,-0.8320482,-0.55412674,0.02528662,0.26795822,-0.3616019,0.8929964,,0.0578232,0.3863868,-0.38345003,-0.90897876,-0.27970475,-0.30906776,0.3896466,-0.3067116,-0.86839134,0.1480985,-0.90977645,0.38778034,,1.4314703201005066,0.2661948794416446,0.16859677369,-1.2679950882509188,-0.0013663649976544045,0.024555977457305575,-0.40656338060822106,,-1.0142187856390306,-0.10571649031525931,0.1741435986,4.537900066948591,-0.15357942573635508,0.45350058037969726,0.8763409148104081,,-0.03410591524553419,-0.09502008780170129,0.0886540616,-0.06966925354577931,,-1.1676922e-05,7.212162e-06,-7.390976e-06,1.0,1.1026859e-05,9.059906e-06,-1.1015683e-05,1.0,9.834766e-07,-9.056181e-06,-9.23872e-07,1.0,378,1.151,0,0,0.0,False,-0.25767366003838577,1.0506254319766548
1.175521113909781,11:38:32.686597,11:37:32.279537,0,,0.044710714,0.043219887,0.051923588,0.5097132,-0.77530694,-0.37294978,-0.47761512,-0.61555207,0.6268808,-0.7155952,-0.14140299,-0.6840533,,-0.024658762,-0.017386444,0.027628362,0.87654334,0.25797984,0.406347,0.36684504,-0.9046158,-0.21701393,0.31160274,0.33928847,-0.88757366,,0.09652245,1.3397325,0.45027137,0.9953265,-0.011412551,-0.09588985,-0.06953881,-0.77370226,-0.6297215,-0.067003466,0.6334466,-0.77088,,-0.024385829,0.2792911,-0.1057252,-0.48095465,0.7526393,0.4496851,-0.83348703,-0.55162275,0.03180782,0.27199635,-0.35950857,0.8926206,,0.0578232,0.3863868,-0.38345003,-0.90897876,-0.27970475,-0.30906776,0.3896466,-0.3067116,-0.86839134,0.1480985,-0.90977645,0.38778034,,1.4334164487848113,0.2680406125985843,0.16879251348000002,-1.2654788089291045,0.0019129109967161663,0.022535377689715946,-0.40656338060822106,,-1.0142187856390306,-0.10571649031525931,0.1741435986,4.537900066948591,-0.15357942573635508,0.45350058037969726,0.8763409148104081,,-0.03410591524553419,-0.09502008780170129,0.0886540616,-0.06966925354577931,,-1.1676922e-05,7.212162e-06,-7.390976e-06,1.0,1.1026859e-05,9.059906e-06,-1.1015683e-05,1.0,9.834766e-07,-9.056181e-06,-9.23872e-07,1.0,386,1.175,0,0,0.0,False,-0.25826943722359585,1.051108233984449
1.2011313010007143,11:38:32.709152,11:37:32.279537,0,,0.044581614,0.043676548,0.0521162,0.50574976,-0.7764994,-0.37585345,-0.47401714,-0.61415046,0.63097316,-0.72078097,-0.1409536,-0.6786804,,-0.024657533,-0.017386131,0.027628541,0.87654173,0.25800905,0.40633202,0.36684301,-0.90463465,-0.21693894,0.31160986,0.33921614,-0.8875989,,0.09652245,1.3397325,0.45027137,0.9953265,-0.011412551,-0.09588985,-0.06953881,-0.77370226,-0.6297215,-0.067003466,0.6334466,-0.77088,,-0.024248583,0.27976394,-0.105584145,-0.47646937,0.7538638,0.45240062,-0.83411014,-0.55025685,0.03844111,0.2779159,-0.35903594,0.89098597,,0.057821944,0.38638705,-0.38344985,-0.9089778,-0.27972603,-0.30905125,0.3896511,-0.30678278,-0.86836416,0.14809246,-0.90974593,0.3878543,,1.4353239638047448,0.2699326821527693,0.16899991988000002,-1.2642206692681972,0.006831824988272023,0.022771627643954018,-0.40672672467435533,,-1.0142265083719049,-0.10571649031525931,0.1741435986,4.537900066948591,-0.15357942573635508,0.4534189016395568,0.8761775707442739,,-0.03410591524553419,-0.09502008780170129,0.0886540616,-0.06966925354577931,,-1.1676922e-05,7.212162e-06,-7.390976e-06,1.0,1.1026859e-05,9.059906e-06,-1.1015683e-05,1.0,9.834766e-07,-9.056181e-06,-9.23872e-07,1.0,394,1.2,0,0,0.0,False,-0.2583290149421176,1.0512047943860081
1.223641547956504,11:38:32.736936,11:37:32.279537,0,,0.04450725,0.043949954,0.05220966,0.5028157,-0.7772579,-0.37821484,-0.47266853,-0.61357164,0.632546,-0.7237133,-0.13928384,-0.67589885,,-0.02465909,-0.017385177,0.027628541,0.8765435,0.25801465,0.40632463,0.36684376,-0.9046357,-0.21693298,0.31160387,0.33920887,-0.88760376,,0.09652245,1.3397325,0.45027137,0.9953265,-0.011412551,-0.09588985,-0.06953881,-0.77370226,-0.6297215,-0.067003466,0.6334466,-0.77088,,-0.024167802,0.28003272,-0.105482936,-0.4732759,0.75453085,0.45463514,-0.8349759,-0.5487217,0.04146945,0.28075814,-0.3599829,0.88971186,,0.057823483,0.3863877,-0.38344914,-0.908979,-0.27973083,-0.30904344,0.38964668,-0.3067897,-0.86836374,0.14809676,-0.9097421,0.38786158,,1.4364205918728845,0.2710679238852803,0.16914380807,-1.2625431497203212,0.00956455498358083,0.024055455396069778,-0.4070534128066239,,-1.0142187856390306,-0.1057087675823851,0.1741435986,4.537900066948591,-0.15357942573635508,0.4534189016395568,0.8761775707442739,,-0.03410591524553419,-0.09502008780170129,0.0886540616,-0.06966925354577931,,-1.1676922e-05,7.212162e-06,-7.390976e-06,1.0,1.1026859e-05,9.059906e-06,-1.1015683e-05,1.0,9.834766e-07,-9.056181e-06,-9.23872e-07,1.0,402,1.225,0,0,0.0,False,-0.25815028178655464,1.0502874705711984
1.2514550869818777,11:38:32.758870,11:37:32.279537,0,,0.044433553,0.04420071,0.05228944,0.5010362,-0.778031,-0.37898615,-0.47126037,-0.6125797,0.63455486,-0.7258626,-0.13933384,-0.67357975,,-0.02465909,-0.017385177,0.027628541,0.8765435,0.25801465,0.40632463,0.36684376,-0.9046357,-0.21693298,0.31160387,0.33920887,-0.88760376,,0.09652245,1.3397325,0.45027137,0.9953265,-0.011412551,-0.09588985,-0.06953881,-0.77370226,-0.6297215,-0.067003466,0.6334466,-0.77088,,-0.024087833,0.28027543,-0.10538614,-0.4712846,0.75535256,0.4553387,-0.8352959,-0.54799587,0.044511884,0.28314587,-0.35936478,0.8892049,,0.057823483,0.3863877,-0.38344914,-0.908979,-0.27973083,-0.30904344,0.38964668,-0.3067897,-0.86836374,0.14809676,-0.9097421,0.38786158,,1.4373859334821626,0.27201009729593567,0.16927214078000002,-1.2619140798898676,0.011204192980766118,0.023698585433399463,-0.40672672467435533,,-1.0142187856390306,-0.1057087675823851,0.1741435986,4.537900066948591,-0.15357942573635508,0.4534189016395568,0.8761775707442739,,-0.03410591524553419,-0.09502008780170129,0.0886540616,-0.06966925354577931,,-1.1676922e-05,7.212162e-06,-7.390976e-06,1.0,1.1026859e-05,9.059906e-06,-1.1015683e-05,1.0,9.834766e-07,-9.056181e-06,-9.23872e-07,1.0,410,1.25,0,0,0.0,False,-0.25856732581620134,1.0508668329805522
1.2733995359158143,11:38:32.781363,11:37:32.279537,0,,0.044313714,0.044532172,0.052379236,0.49750105,-0.7804657,-0.37863693,-0.46982694,-0.6093528,0.63871115,-0.72921574,-0.1398657,-0.6698374,,-0.024657845,-0.01738488,0.02762872,0.8765418,0.25801072,0.4063307,0.36684167,-0.90463686,-0.21693188,0.311611,0.3392089,-0.8876012,,0.09652245,1.3397325,0.45027137,0.9953265,-0.011412551,-0.09588985,-0.06953881,-0.77370226,-0.6297215,-0.067003466,0.6334466,-0.77088,,-0.023958681,0.28058624,-0.10524822,-0.4674587,0.7579716,0.45493013,-0.83636653,-0.5458764,0.05010004,0.28631002,-0.35706863,0.8891167,,0.05782223,0.38638794,-0.38344896,-0.90897804,-0.2797269,-0.3090498,0.38965118,-0.30678996,-0.8683616,0.1480907,-0.90974325,0.38786125,,1.4387219662694035,0.27317622995994356,0.16946788057,-1.2598171804550222,0.014073559475840366,0.02111377323535292,-0.40721675687275816,,-1.0142265083719049,-0.1057087675823851,0.1741435986,4.537900066948591,-0.15357942573635508,0.4534189016395568,0.8761775707442739,,-0.03410591524553419,-0.09502008780170129,0.0886540616,-0.06966925354577931,,-1.1676922e-05,7.212162e-06,-7.390976e-06,1.0,1.1026859e-05,9.059906e-06,-1.1015683e-05,1.0,9.834766e-07,-9.056181e-06,-9.23872e-07,1.0,418,1.275,0,0,0.0,False,-0.2574949268828224,1.0502874705711984
1.2958908489672467,11:38:32.816765,11:37:32.403506,0,,0.044172652,0.04481461,0.05243428,0.49430513,-0.78269696,-0.3782168,-0.46809265,-0.6062807,0.64289427,-0.732497,-0.14074546,-0.6660623,,-0.02465909,-0.017385177,0.027628541,0.8765435,0.25801465,0.40632463,0.36684376,-0.9046357,-0.21693298,0.31160387,0.33920887,-0.88760376,,0.09652245,1.3397325,0.45027137,0.9953265,-0.011412551,-0.09588985,-0.06953881,-0.77370226,-0.6297215,-0.067003466,0.6334466,-0.77088,,-0.023808328,0.28083742,-0.105117805,-0.4639613,0.76040465,0.45444986,-0.8371655,-0.5441031,0.055729195,0.28964433,-0.35459355,0.8890273,,0.057823483,0.3863877,-0.38344914,-0.908979,-0.27973083,-0.30904344,0.38964668,-0.3067897,-0.86836374,0.14809676,-0.9097421,0.38786158,,1.4399344353306567,0.2739793941788629,0.16966880552000002,-1.2581396609071462,0.017352835470210937,0.01803134984593599,-0.4064000365420868,,-1.0142187856390306,-0.1057087675823851,0.1741435986,4.537900066948591,-0.15357942573635508,0.4534189016395568,0.8761775707442739,,-0.03410591524553419,-0.09502008780170129,0.0886540616,-0.06966925354577931,,-1.1676922e-05,7.212162e-06,-7.390976e-06,1.0,1.1026859e-05,9.059906e-06,-1.1015683e-05,1.0,9.834766e-07,-9.056181e-06,-9.23872e-07,1.0,451,1.376,0,0,0.0,False,-0.25761408231986493,1.0507702725789931
1.331303620012477,11:38:32.905711,11:37:32.403506,0,,0.043641772,0.045571096,0.05253233,0.48418313,-0.78726417,-0.38181403,-0.46460724,-0.60110295,0.65024257,-0.7414222,-0.13744298,-0.6568124,,-0.024657845,-0.01738488,0.02762872,0.8765418,0.25801072,0.4063307,0.36684167,-0.90463686,-0.21693188,0.311611,0.3392089,-0.8876012,,0.09652245,1.3397325,0.45027137,0.9953265,-0.011412551,-0.09588985,-0.06953881,-0.77370226,-0.6297215,-0.067003466,0.6334466,-0.77088,,-0.023249663,0.2814793,-0.10474419,-0.4530839,0.7649748,0.45774296,-0.840259,-0.53798383,0.06736581,0.29779145,-0.3541003,0.88652873,,0.05782223,0.38638794,-0.38344896,-0.90897804,-0.2797269,-0.3090498,0.38965118,-0.30678996,-0.8683616,0.1480907,-0.90974325,0.38786125,,1.4436027334459134,0.275392654294846,0.17027806182000002,-1.2518489626026104,0.025277752456606482,0.015653048438571668,-0.407706789071161,,-1.0142265083719049,-0.1057087675823851,0.1741435986,4.537900066948591,-0.15357942573635508,0.4534189016395568,0.8761775707442739,,-0.03410591524553419,-0.09502008780170129,0.0886540616,-0.06966925354577931,,-1.1676922e-05,7.212162e-06,-7.390976e-06,1.0,1.1026859e-05,9.059906e-06,-1.1015683e-05,1.0,9.834766e-07,-9.056181e-06,-9.23872e-07,1.0,459,1.401,0,0,0.0,False,-0.25773323775690704,1.0507219923782136
1.4202501779654995,11:38:32.938242,11:37:32.403506,0,,0.04343243,0.045787327,0.052575752,0.4812735,-0.7883146,-0.38332233,-0.46311402,-0.5999525,0.65236694,-0.7442455,-0.13644505,-0.65382063,,-0.024657845,-0.01738488,0.02762872,0.8765418,0.25801072,0.4063307,0.36684167,-0.90463686,-0.21693188,0.311611,0.3392089,-0.8876012,,0.09652245,1.3397325,0.45027137,0.9953265,-0.011412551,-0.09588985,-0.06953881,-0.77370226,-0.6297215,-0.067003466,0.6334466,-0.77088,,-0.023033662,0.28167334,-0.10465387,-0.44991535,0.7660073,0.45913944,-0.84094423,-0.53645146,0.07094146,0.30064768,-0.354193,0.88552713,,0.05782223,0.38638794,-0.38344896,-0.90897804,-0.2797269,-0.3090498,0.38965118,-0.30678996,-0.8683616,0.1480907,-0.90974325,0.38786125,,1.4449619344317768,0.27561661354819855,0.17046472758000003,-1.2503811329982188,0.02787384595214985,0.015006325590869812,-0.4057466602775497,,-1.0142265083719049,-0.1057087675823851,0.1741435986,4.537900066948591,-0.15357942573635508,0.4534189016395568,0.8761775707442739,,-0.03410591524553419,-0.09502008780170129,0.0886540616,-0.06966925354577931,,-1.1676922e-05,7.212162e-06,-7.390976e-06,1.0,1.1026859e-05,9.059906e-06,-1.1015683e-05,1.0,9.834766e-07,-9.056181e-06,-9.23872e-07,1.0,467,1.425,0,0,0.0,False,-0.2589843698458485,1.0502391903704191
1.452780717983842,11:38:32.967832,11:37:32.560619,0,,0.04322969,0.045951568,0.052605942,0.4776537,-0.78958577,-0.38522863,-0.46368474,-0.59900886,0.65282845,-0.7462195,-0.1332013,-0.65223765,,-0.02465909,-0.017385177,0.027628541,0.8765435,0.25801465,0.40632463,0.36684376,-0.9046357,-0.21693298,0.31160387,0.33920887,-0.88760376,,0.09652245,1.3397325,0.45027137,0.9953265,-0.011412551,-0.09588985,-0.06953881,-0.77370226,-0.6297215,-0.067003466,0.6334466,-0.77088,,-0.022825828,0.28181928,-0.10458684,-0.44619834,0.76709294,0.46095058,-0.8426323,-0.533608,0.07234149,0.30145958,-0.3561332,0.8844723,,0.057823483,0.3863877,-0.38344914,-0.908979,-0.27973083,-0.30904344,0.38964668,-0.3067897,-0.86836374,0.14809676,-0.9097421,0.38786158,,1.4462284626231496,0.275632059013947,0.17062417125,-1.247235783845951,0.028966937950273376,0.015748557164109653,-0.40672672467435533,,-1.0142187856390306,-0.1057087675823851,0.1741435986,4.537900066948591,-0.15357942573635508,0.4534189016395568,0.8761775707442739,,-0.03410591524553419,-0.09502008780170129,0.0886540616,-0.06966925354577931,,-1.1676922e-05,7.212162e-06,-7.390976e-06,1.0,1.1026859e-05,9.059906e-06,-1.1015683e-05,1.0,9.834766e-07,-9.056181e-06,-9.23872e-07,1.0,479,1.463,0,0,0.0,False,-0.2583290149421176,1.0507219923782136
1.4823573949979618,11:38:33.000193,11:37:32.560619,0,,0.043030336,0.046071075,0.05264975,0.476906,-0.78891706,-0.38751835,-0.4613505,-0.59994894,0.6536185,-0.7481421,-0.13293287,-0.65008646,,-0.024657845,-0.01738488,0.02762872,0.8765418,0.25801072,0.4063307,0.36684167,-0.90463686,-0.21693188,0.311611,0.3392089,-0.8876012,,0.09652245,1.3397325,0.45027137,0.9953265,-0.011412551,-0.09588985,-0.06953881,-0.77370226,-0.6297215,-0.067003466,0.6334466,-0.77088,,-0.022624481,0.28194022,-0.104558945,-0.4452062,0.7663624,0.4631199,-0.842112,-0.534151,0.07436476,0.30436632,-0.35689116,0.88317037,,0.05782223,0.38638794,-0.38344896,-0.90897804,-0.2797269,-0.3090498,0.38965118,-0.30678996,-0.8683616,0.1480907,-0.90974325,0.38786125,,1.447402318020032,0.2754853270893367,0.17074472622,-1.2480745436198888,0.031016485446754984,0.016282614592458527,-0.4068900687404896,,-1.0142265083719049,-0.1057087675823851,0.1741435986,4.537900066948591,-0.15357942573635508,0.4534189016395568,0.8761775707442739,,-0.03410591524553419,-0.09502008780170129,0.0886540616,-0.06966925354577931,,-1.1676922e-05,7.212162e-06,-7.390976e-06,1.0,1.1026859e-05,9.059906e-06,-1.1015683e-05,1.0,9.834766e-07,-9.056181e-06,-9.23872e-07,1.0,491,1.5,0,0,0.0,False,-0.2571374605716965,1.051108233984449
1.5147286319406703,11:38:33.038035,11:37:32.560619,0,,0.042784326,0.046205424,0.05264117,0.47552383,-0.78909785,-0.38884667,-0.45830858,-0.59951776,0.65614927,-0.7508864,-0.13380289,-0.64673525,,-0.02465909,-0.017385177,0.027628541,0.8765435,0.25801465,0.40632463,0.36684376,-0.9046357,-0.21693298,0.31160387,0.33920887,-0.88760376,,0.09652245,1.3397325,0.45027137,0.9953265,-0.011412551,-0.09588985,-0.06953881,-0.77370226,-0.6297215,-0.067003466,0.6334466,-0.77088,,-0.022372268,0.28203863,-0.1044858,-0.44349033,0.76662415,0.46433154,-0.84158623,-0.53439057,0.078481264,0.30830002,-0.35596937,0.88217735,,0.057823483,0.3863877,-0.38344914,-0.908979,-0.27973083,-0.30904344,0.38964668,-0.3067897,-0.86836374,0.14809676,-0.9097421,0.38786158,,1.4485221142867943,0.2750914677127513,0.17092750311000002,-1.2487036134503426,0.034432397940890994,0.014640669362015843,-0.4062366924759525,,-1.0142187856390306,-0.1057087675823851,0.1741435986,4.537900066948591,-0.15357942573635508,0.4534189016395568,0.8761775707442739,,-0.03410591524553419,-0.09502008780170129,0.0886540616,-0.06966925354577931,,-1.1676922e-05,7.212162e-06,-7.390976e-06,1.0,1.1026859e-05,9.059906e-06,-1.1015683e-05,1.0,9.834766e-07,-9.056181e-06,-9.23872e-07,1.0,499,1.525,0,0,0.0,False,-0.25880563669028556,1.0509151131813312
1.5525707139167935,11:38:33.061081,11:37:32.560619,0,,0.042668372,0.04626467,0.052608714,0.4741503,-0.789494,-0.38971874,-0.4582426,-0.5992487,0.65644103,-0.7517948,-0.13266608,-0.64591366,,-0.024657845,-0.01738488,0.02762872,0.8765418,0.25801072,0.4063307,0.36684167,-0.90463686,-0.21693188,0.311611,0.3392089,-0.8876012,,0.09652245,1.3397325,0.45027137,0.9953265,-0.011412551,-0.09588985,-0.06953881,-0.77370226,-0.6297215,-0.067003466,0.6334466,-0.77088,,-0.022251602,0.28206336,-0.10443253,-0.4420551,0.76695246,0.46515718,-0.8421167,-0.5334412,0.0792464,0.30891222,-0.35668534,0.8816739,,0.05782223,0.38638794,-0.38344896,-0.90897804,-0.2797269,-0.3090498,0.38965118,-0.30678996,-0.8683616,0.1480907,-0.90974325,0.38786125,,1.4489700327934993,0.27483661752790184,0.17102991002,-1.2476551637329198,0.03525221693948363,0.014707270601102385,-0.4070534128066239,,-1.0142265083719049,-0.1057087675823851,0.1741435986,4.537900066948591,-0.15357942573635508,0.4534189016395568,0.8761775707442739,,-0.03410591524553419,-0.09502008780170129,0.0886540616,-0.06966925354577931,,-1.1676922e-05,7.212162e-06,-7.390976e-06,1.0,1.1026859e-05,9.059906e-06,-1.1015683e-05,1.0,9.834766e-07,-9.056181e-06,-9.23872e-07,1.0,524,1.601,0,0,0.0,False,-0.25773323775690704,1.0507219923782136
1.575600866926834,11:38:33.131577,11:37:32.714494,0,,0.04227594,0.046476208,0.052543834,0.47148687,-0.789544,-0.3928365,-0.45623815,-0.59959644,0.65751886,-0.7546835,-0.13078457,-0.6429218,,-0.024657845,-0.01738488,0.02762872,0.8765418,0.25801072,0.4063307,0.36684167,-0.90463686,-0.21693188,0.311611,0.3392089,-0.8876012,,0.09652245,1.3397325,0.45027137,0.9953265,-0.011412551,-0.09588985,-0.06953881,-0.77370226,-0.6297215,-0.067003466,0.6334466,-0.77088,,-0.021845832,0.2821848,-0.104279034,-0.43910262,0.766854,0.46810672,-0.8424595,-0.5324761,0.08204379,0.31217125,-0.35833532,0.87985504,,0.05782223,0.38638794,-0.38344896,-0.90897804,-0.2797269,-0.3090498,0.38965118,-0.30678996,-0.8683616,0.1480907,-0.90974325,0.38786125,,1.4506767567587031,0.2741261261034732,0.17135398252,-1.246816403958982,0.03812158343455788,0.014981214307975527,-0.40607334840981824,,-1.0142265083719049,-0.1057087675823851,0.1741435986,4.537900066948591,-0.15357942573635508,0.4534189016395568,0.8761775707442739,,-0.03410591524553419,-0.09502008780170129,0.0886540616,-0.06966925354577931,,-1.1676922e-05,7.212162e-06,-7.390976e-06,1.0,1.1026859e-05,9.059906e-06,-1.1015683e-05,1.0,9.834766e-07,-9.056181e-06,-9.23872e-07,1.0,532,1.626,0,0,0.0,False,-0.2570183051346544,1.0506254319766548
1.6460543259745464,11:38:33.163309,11:37:32.714494,0,,0.04199429,0.046635382,0.052520767,0.4677424,-0.7901981,-0.39598477,-0.45714483,-0.5997215,0.65677464,-0.75646263,-0.12617901,-0.64175016,,-0.024657845,-0.01738488,0.02762872,0.8765418,0.25801072,0.4063307,0.36684167,-0.90463686,-0.21693188,0.311611,0.3392089,-0.8876012,,0.09652245,1.3397325,0.45027137,0.9953265,-0.011412551,-0.09588985,-0.06953881,-0.77370226,-0.6297215,-0.067003466,0.6334466,-0.77088,,-0.021555899,0.28229287,-0.104181826,-0.43529123,0.767178,0.47112578,-0.84427387,-0.529559,0.082273126,0.31260702,-0.36194643,0.87822074,,0.05782223,0.38638794,-0.38344896,-0.90897804,-0.2797269,-0.3090498,0.38965118,-0.30678996,-0.8683616,0.1480907,-0.90974325,0.38786125,,1.4520745714089376,0.2737168212611393,0.17157564811,-1.2434613648632293,0.03894140243315053,0.017089784050576096,-0.405419972145281,,-1.0142265083719049,-0.1057087675823851,0.1741435986,4.537900066948591,-0.15357942573635508,0.4534189016395568,0.8761775707442739,,-0.03410591524553419,-0.09502008780170129,0.0886540616,-0.06966925354577931,,-1.1676922e-05,7.212162e-06,-7.390976e-06,1.0,1.1026859e-05,9.059906e-06,-1.1015683e-05,1.0,9.834766e-07,-9.056181e-06,-9.23872e-07,1.0,544,1.663,0,0,0.0,False,-0.25826943722359585,1.0506254319766548
1.6778367329388857,11:38:33.199896,11:37:32.714494,0,,0.04173792,0.046774708,0.052558675,0.4629795,-0.79074025,-0.4004746,-0.45497686,-0.5997603,0.65824294,-0.76068795,-0.122546375,-0.63744515,,-0.02465909,-0.017385177,0.027628541,0.8765435,0.25801465,0.40632463,0.36684376,-0.9046357,-0.21693298,0.31160387,0.33920887,-0.88760376,,0.09652245,1.3397325,0.45027137,0.9953265,-0.011412551,-0.09588985,-0.06953881,-0.77370226,-0.6297215,-0.067003466,0.6334466,-0.77088,,-0.021296374,0.2824255,-0.104141384,-0.43014556,0.76746243,0.4753696,-0.8453463,-0.52721256,0.086235836,0.3168036,-0.36475793,0.8755496,,0.057823483,0.3863877,-0.38344914,-0.908979,-0.27973083,-0.30904344,0.38964668,-0.3067897,-0.86836374,0.14809676,-0.9097421,0.38786158,,1.4533488223331847,0.2733770210146734,0.17173638807000002,-1.2407353955979306,0.04386031642470638,0.018632893847063167,-0.40738010093889243,,-1.0142187856390306,-0.1057087675823851,0.1741435986,4.537900066948591,-0.15357942573635508,0.4534189016395568,0.8761775707442739,,-0.03410591524553419,-0.09502008780170129,0.0886540616,-0.06966925354577931,,-1.1676922e-05,7.212162e-06,-7.390976e-06,1.0,1.1026859e-05,9.059906e-06,-1.1015683e-05,1.0,9.834766e-07,-9.056181e-06,-9.23872e-07,1.0,552,1.688,0,0,0.0,False,-0.25731619372725945,1.0507219923782136
1.7144273499725387,11:38:33.220173,11:37:32.714494,0,,0.041557215,0.046848826,0.05257924,0.46191317,-0.7900858,-0.40298957,-0.45410615,-0.60097206,0.6577388,-0.7618556,-0.1208182,-0.6363797,,-0.02466032,-0.01738549,0.027628303,0.87654513,0.25801864,0.4063185,0.3668458,-0.90463465,-0.21693408,0.3115968,0.33920875,-0.8876063,,0.09652245,1.3397325,0.45027137,0.9953265,-0.011412551,-0.09588985,-0.06953881,-0.77370226,-0.6297215,-0.067003466,0.6334466,-0.77088,,-0.021114178,0.2824967,-0.10412389,-0.42895943,0.7666311,0.47777665,-0.84543914,-0.52700853,0.086571954,0.31816113,-0.3667952,0.87420523,,0.05782474,0.3863875,-0.38344932,-0.90897995,-0.2797348,-0.3090371,0.38964218,-0.30678946,-0.8683658,0.14810279,-0.909741,0.38786194,,1.4543141639424628,0.27306811169970446,0.17183749869,-1.240525705654446,0.04481677192306447,0.020221651985264544,-0.40591000434368396,,-1.0142110629061565,-0.1057087675823851,0.1741435986,4.537900066948591,-0.15357942573635508,0.4534189016395568,0.8761775707442739,,-0.03410591524553419,-0.09502008780170129,0.0886540616,-0.06966925354577931,,-1.1676922e-05,7.212162e-06,-7.390976e-06,1.0,1.1026859e-05,9.059906e-06,-1.1015683e-05,1.0,9.834766e-07,-9.056181e-06,-9.23872e-07,1.0,560,1.713,0,0,0.0,False,-0.25719703829021734,1.0504805913743163
1.7346928879851475,11:38:33.251345,11:37:32.714494,0,,0.04126254,0.04694826,0.05259897,0.46128762,-0.7897271,-0.4044068,-0.4514143,-0.6012917,0.6592978,-0.76383185,-0.121570975,-0.63386244,,-0.024657533,-0.017386131,0.027628541,0.87654173,0.25800905,0.40633202,0.36684301,-0.90463465,-0.21693894,0.31160986,0.33921614,-0.8875989,,0.09652245,1.3397325,0.45027137,0.9953265,-0.011412551,-0.09588985,-0.06953881,-0.77370226,-0.6297215,-0.067003466,0.6334466,-0.77088,,-0.020817138,0.28258756,-0.10409892,-0.42806798,0.7663108,0.47908822,-0.844684,-0.52774525,0.08940882,0.32135147,-0.3664051,0.8732013,,0.057821944,0.38638705,-0.38344985,-0.9089778,-0.27972603,-0.30905125,0.3896511,-0.30678278,-0.86836416,0.14809246,-0.90974593,0.3878543,,1.4557583149899427,0.27243484760401804,0.17199823865000002,-1.2417838453153531,0.047002955919311515,0.019010716707105732,-0.4064000365420868,,-1.0142265083719049,-0.10571649031525931,0.1741435986,4.537900066948591,-0.15357942573635508,0.4534189016395568,0.8761775707442739,,-0.03410591524553419,-0.09502008780170129,0.0886540616,-0.06966925354577931,,-1.1676922e-05,7.212162e-06,-7.390976e-06,1.0,1.1026859e-05,9.059906e-06,-1.1015683e-05,1.0,9.834766e-07,-9.056181e-06,-9.23872e-07,1.0,568,1.737,0,0,0.0,False,-0.2585077480976805,1.05105995378367
1.765871665906161,11:38:33.272816,11:37:32.870826,0,,0.041061584,0.046982028,0.052597985,0.46185198,-0.78890276,-0.40537032,-0.44923317,-0.6021391,0.66001374,-0.76477605,-0.12272295,-0.63250047,,-0.024657533,-0.017386131,0.027628541,0.87654173,0.25800905,0.40633202,0.36684301,-0.90463465,-0.21693894,0.31160986,0.33921614,-0.8875989,,0.09652245,1.3397325,0.45027137,0.9953265,-0.011412551,-0.09588985,-0.06953881,-0.77370226,-0.6297215,-0.067003466,0.6334466,-0.77088,,-0.02061521,0.28261432,-0.1040932,-0.42845896,0.76552904,0.4799877,-0.843653,-0.52914655,0.090848856,0.32353127,-0.36601806,0.8725585,,0.057821944,0.38638705,-0.38344985,-0.9089778,-0.27972603,-0.30905125,0.3896511,-0.30678278,-0.86836416,0.14809246,-0.90974593,0.3878543,,1.4566387065376043,0.2718324744398285,0.1720954604,-1.243671054806714,0.04823268441720047,0.018252991794259626,-0.4062366924759525,,-1.0142265083719049,-0.10571649031525931,0.1741435986,4.537900066948591,-0.15357942573635508,0.4534189016395568,0.8761775707442739,,-0.03410591524553419,-0.09502008780170129,0.0886540616,-0.06966925354577931,,-1.1676922e-05,7.212162e-06,-7.390976e-06,1.0,1.1026859e-05,9.059906e-06,-1.1015683e-05,1.0,9.834766e-07,-9.056181e-06,-9.23872e-07,1.0,576,1.762,0,0,0.0,False,-0.2583290149421176,1.0505771517758753
1.7873539850115776,11:38:33.300834,11:37:32.870826,0,,0.040765867,0.04703062,0.05257888,0.46113867,-0.78802115,-0.40788952,-0.44502655,-0.6030823,0.66199946,-0.7676605,-0.12375197,-0.6287948,,-0.024660006,-0.017386727,0.027628183,0.876545,0.25801697,0.40631986,0.36684713,-0.90463245,-0.21694106,0.31159562,0.33921596,-0.88760394,,0.09652245,1.3397325,0.45027137,0.9953265,-0.011412551,-0.09588985,-0.06953881,-0.77370226,-0.6297215,-0.067003466,0.6334466,-0.77088,,-0.02031688,0.28264132,-0.10407213,-0.42734343,0.76467687,0.48233482,-0.8423424,-0.53054065,0.094794475,0.32838535,-0.36578128,0.87084275,,0.057824455,0.3863866,-0.3834502,-0.9089797,-0.27973393,-0.30903858,0.3896421,-0.3067823,-0.8683684,0.14810455,-0.90974367,0.387855,,1.45772761187287,0.2708594100976762,0.17225101520000002,-1.2455582642980747,0.05246841590992913,0.01724939898388743,-0.40721675687275816,,-1.0142110629061565,-0.10571649031525931,0.1741435986,4.537900066948591,-0.15357942573635508,0.4534189016395568,0.8761775707442739,,-0.03410591524553419,-0.09502008780170129,0.0886540616,-0.06966925354577931,,-1.1676922e-05,7.212162e-06,-7.390976e-06,1.0,1.1026859e-05,9.059906e-06,-1.1015683e-05,1.0,9.834766e-07,-9.056181e-06,-9.23872e-07,1.0,605,1.851,0,0,0.0,False,-0.25820985950507547,1.0504805913743163
1.8153722030110657,11:38:33.380998,11:37:32.870826,0,,0.03999772,0.047048472,0.052400306,0.45968404,-0.7861719,-0.413067,-0.44016182,-0.6056633,0.66289496,-0.7713289,-0.12290591,-0.6244566,,-0.024657845,-0.01738488,0.02762872,0.8765418,0.25801072,0.4063307,0.36684167,-0.90463686,-0.21693188,0.311611,0.3392089,-0.8876012,,0.09652245,1.3397325,0.45027137,0.9953265,-0.011412551,-0.09588985,-0.06953881,-0.77370226,-0.6297215,-0.067003466,0.6334466,-0.77088,,-0.019538172,0.28254524,-0.103990704,-0.4254027,0.7626505,0.48723382,-0.8410381,-0.5319604,0.098351136,0.33419666,-0.36794338,0.86771554,,0.05782223,0.38638794,-0.38344896,-0.90897804,-0.2797269,-0.3090498,0.38965118,-0.30678996,-0.8683616,0.1480907,-0.90974325,0.38786125,,1.4601679954611249,0.2676930896192442,0.17266971687000002,-1.2476551637329198,0.05738732990148499,0.016423825316298185,-0.40672672467435533,,-1.0142265083719049,-0.1057087675823851,0.1741435986,4.537900066948591,-0.15357942573635508,0.4534189016395568,0.8761775707442739,,-0.03410591524553419,-0.09502008780170129,0.0886540616,-0.06966925354577931,,-1.1676922e-05,7.212162e-06,-7.390976e-06,1.0,1.1026859e-05,9.059906e-06,-1.1015683e-05,1.0,9.834766e-07,-9.056181e-06,-9.23872e-07,1.0,613,1.876,0,0,0.0,False,-0.2575545046013441,1.050963393382111
1.8955230279825628,11:38:33.410043,11:37:32.870826,0,,0.039745845,0.04709453,0.052340373,0.45696834,-0.787296,-0.41393837,-0.44061112,-0.60461885,0.66354954,-0.7726848,-0.120835334,-0.62318295,,-0.02466032,-0.01738549,0.027628303,0.87654513,0.25801864,0.4063185,0.3668458,-0.90463465,-0.21693408,0.3115968,0.33920875,-0.8876063,,0.09652245,1.3397325,0.45027137,0.9953265,-0.011412551,-0.09588985,-0.06953881,-0.77370226,-0.6297215,-0.067003466,0.6334466,-0.77088,,-0.019280793,0.2825433,-0.10393677,-0.42262375,0.76367635,0.48804468,-0.842239,-0.5298076,0.09968615,0.33469772,-0.36892053,0.8671073,,0.05782474,0.3863875,-0.38344932,-0.90897995,-0.2797348,-0.3090371,0.38964218,-0.30678946,-0.8683658,0.14810279,-0.909741,0.38786194,,1.4610792779402835,0.2668126980715826,0.17283823457000003,-1.24534857435459,0.05848042189960852,0.015695839567007916,-0.40721675687275816,,-1.0142110629061565,-0.1057087675823851,0.1741435986,4.537900066948591,-0.15357942573635508,0.4534189016395568,0.8761775707442739,,-0.03410591524553419,-0.09502008780170129,0.0886540616,-0.06966925354577931,,-1.1676922e-05,7.212162e-06,-7.390976e-06,1.0,1.1026859e-05,9.059906e-06,-1.1015683e-05,1.0,9.834766e-07,-9.056181e-06,-9.23872e-07,1.0,621,1.9,0,0,0.0,False,-0.25767366003838577,1.0513496349883464
1.9245799839263782,11:38:33.435466,11:37:33.020682,0,,0.03948912,0.047216646,0.05228953,0.45705467,-0.78663814,-0.4150921,-0.43856806,-0.6053306,0.66425383,-0.77379537,-0.121554226,-0.62166345,,-0.024658762,-0.017386444,0.027628362,0.87654334,0.25797984,0.406347,0.36684504,-0.9046158,-0.21701393,0.31160274,0.33928847,-0.88757366,,0.09652245,1.3397325,0.45027137,0.9953265,-0.011412551,-0.09588985,-0.06953881,-0.77370226,-0.6297215,-0.067003466,0.6334466,-0.77088,,-0.019015541,0.28260493,-0.10384059,-0.42253348,0.7630367,0.48912212,-0.8414168,-0.5308219,0.10122187,0.33687276,-0.36878595,0.8663219,,0.0578232,0.3863868,-0.38345003,-0.90897876,-0.27970475,-0.30906776,0.3896466,-0.3067116,-0.86839134,0.1480985,-0.90977645,0.38778034,,1.4621141241454296,0.26630299770188376,0.17304434468000002,-1.246816403958982,0.059710150397497476,0.015019793394302372,-0.40640003654208673,,-1.0142187856390306,-0.10571649031525931,0.1741435986,4.537900066948591,-0.15357942573635508,0.4535005803796973,0.8760142266781397,,-0.03410591524553419,-0.09502008780170129,0.0886540616,-0.06966925354577931,,-1.1676922e-05,7.212162e-06,-7.390976e-06,1.0,1.1026859e-05,9.059906e-06,-1.1015683e-05,1.0,9.834766e-07,-9.056181e-06,-9.23872e-07,1.0,629,1.926,0,0,0.0,False,-0.25779281547542787,1.051108233984449
1.9499940439127386,11:38:33.461227,11:37:33.020682,0,,0.03930571,0.04734353,0.052274212,0.45510098,-0.7872046,-0.41616336,-0.4382195,-0.6048579,0.664914,-0.7751432,-0.120232195,-0.62023985,,-0.024657533,-0.017386131,0.027628541,0.87654173,0.25797588,0.4063531,0.36684301,-0.9046169,-0.21701276,0.31160986,0.3392886,-0.8875712,,0.09652245,1.3397325,0.45027137,0.9953265,-0.011412551,-0.09588985,-0.06953881,-0.77370226,-0.6297215,-0.067003466,0.6334466,-0.77088,,-0.018825596,0.28269273,-0.10376194,-0.42047587,0.7635316,0.49012193,-0.8420148,-0.5295959,0.10266088,0.33795142,-0.3695235,0.86558723,,0.057821944,0.38638705,-0.38344985,-0.9089778,-0.2797008,-0.3090741,0.3896511,-0.30671188,-0.86838925,0.14809246,-0.9097776,0.38778,,1.4630099611588396,0.26613309757865083,0.17320638093000001,-1.2455582642980747,0.060803242395621,0.014945237566136638,-0.40738010093889243,,-1.0142265083719049,-0.10571649031525931,0.1741435986,4.537900066948591,-0.15357942573635508,0.4535005803796973,0.8760142266781397,,-0.03410591524553419,-0.09502008780170129,0.0886540616,-0.06966925354577931,,-1.1676922e-05,7.212162e-06,-7.390976e-06,1.0,1.1026859e-05,9.059906e-06,-1.1015683e-05,1.0,9.834766e-07,-9.056181e-06,-9.23872e-07,1.0,637,1.95,0,0,0.0,False,-0.25761408231986493,1.051108233984449
1.9757458709646016,11:38:33.485213,11:37:33.020682,0,,0.03914079,0.04749324,0.0522532,0.4532236,-0.78774536,-0.4171879,-0.43795076,-0.60441536,0.66549325,-0.776394,-0.11890957,-0.6189289,,-0.02466032,-0.01738549,0.027628303,0.87654513,0.25798544,0.4063396,0.3668458,-0.90461695,-0.21700796,0.3115968,0.3392813,-0.8875786,,0.09652245,1.3397325,0.45027137,0.9953265,-0.011412551,-0.09588985,-0.06953881,-0.77370226,-0.6297215,-0.067003466,0.6334466,-0.77088,,-0.018652568,0.2827939,-0.10366255,-0.41850486,0.76399934,0.49107915,-0.84261066,-0.5283925,0.10396458,0.3389114,-0.37027887,0.8648888,,0.05782474,0.3863875,-0.38344932,-0.90897995,-0.27970955,-0.30905995,0.38964218,-0.30671853,-0.86839086,0.14810279,-0.9097727,0.38778764,,1.4638440163092559,0.2661176521129024,0.17338008379000003,-1.2443001246371674,0.06175969789397908,0.015063778381807877,-0.4064000365420868,,-1.0142110629061565,-0.1057087675823851,0.1741435986,4.537900066948591,-0.15357942573635508,0.4535005803796973,0.8760142266781397,,-0.03410591524553419,-0.09502008780170129,0.0886540616,-0.06966925354577931,,-1.1676922e-05,7.212162e-06,-7.390976e-06,1.0,1.1026859e-05,9.059906e-06,-1.1015683e-05,1.0,9.834766e-07,-9.056181e-06,-9.23872e-07,1.0,645,1.975,0,0,0.0,False,-0.2575545046013441,1.0506737121774343
1.999741565901786,11:38:33.515093,11:37:33.020682,0,,0.03893897,0.047685795,0.052232847,0.45214766,-0.7873034,-0.4191847,-0.43672794,-0.6051932,0.66559,-0.777709,-0.11787531,-0.6174741,,-0.02465909,-0.017385177,0.027628541,0.8765435,0.25798148,0.4063457,0.36684376,-0.904618,-0.21700686,0.31160387,0.33928138,-0.88757604,,0.09652245,1.3397325,0.45027137,0.9953265,-0.011412551,-0.09588985,-0.06953881,-0.77370226,-0.6297215,-0.067003466,0.6334466,-0.77088,,-0.01844075,0.28292832,-0.103538916,-0.41728187,0.7634492,0.4929718,-0.8425329,-0.5283107,0.10500535,0.34060854,-0.37152812,0.86368555,,0.057823483,0.3863877,-0.38344914,-0.908979,-0.27970558,-0.3090663,0.38964668,-0.30671877,-0.8683888,0.14809676,-0.9097738,0.38778728,,1.4649020307130245,0.2661562657772735,0.17359526793000002,-1.2443001246371674,0.0628527898921026,0.01613272491560999,-0.40721675687275816,,-1.0142187856390306,-0.1057087675823851,0.1741435986,4.537900066948591,-0.15357942573635508,0.4535005803796973,0.8760142266781397,,-0.03410591524553419,-0.09502008780170129,0.0886540616,-0.06966925354577931,,-1.1676922e-05,7.212162e-06,-7.390976e-06,1.0,1.1026859e-05,9.059906e-06,-1.1015683e-05,1.0,9.834766e-07,-9.056181e-06,-9.23872e-07,1.0,670,2.052,0,0,0.0,False,-0.2566608388235285,1.050963393382111
2.0296237759757787,11:38:33.583919,11:37:33.159779,0,,0.038268108,0.048324212,0.05210544,0.4455557,-0.7880324,-0.42483538,-0.4351587,-0.6053449,0.66647923,-0.78237915,-0.11208284,-0.61263394,,-0.02470287,-0.017398901,0.02762115,0.8765512,0.2579134,0.40637237,0.3667906,-0.90463513,-0.21702555,0.31164494,0.3392876,-0.88755924,,0.09657065,1.3397307,0.45027447,0.99532187,-0.011464543,-0.09593217,-0.06960569,-0.7737015,-0.6297151,-0.067003466,0.6334466,-0.77088,,-0.017770158,0.28333247,-0.10307856,-0.41034067,0.76372033,0.4983491,-0.84430987,-0.52467966,0.10886717,0.34461772,-0.37608844,0.86011404,,0.057823773,0.38636997,-0.38345623,-0.9089637,-0.27969295,-0.30912277,0.3896937,-0.30670768,-0.8683716,0.14806707,-0.90978146,0.38778073,,1.4681533012530732,0.2660944839142797,0.1743380421,-1.2403160157109616,0.0665419753857695,0.018760274585505415,-0.40672672467435533,,-1.0142110629061565,-0.10571649031525931,0.1741435986,4.537900066948591,-0.15357942573635508,0.4535005803796973,0.8760142266781397,,-0.03410591524553419,-0.09502008780170129,0.0886540616,-0.06966925354577931,,3.620796e-05,1.0073185e-05,-1.3232231e-05,1.0,-4.0777028e-05,-3.350526e-05,4.078448e-05,1.0,-3.516674e-06,3.3508986e-05,3.5762787e-06,1.0,678,2.076,0,0,0.0,False,-0.2580311263495121,1.0508668329805522
2.098431058926508,11:38:33.606985,11:37:33.159779,0,,0.03810128,0.048476413,0.05205737,0.4430035,-0.788555,-0.42653137,-0.43574235,-0.6051742,0.66625285,-0.7835029,-0.10929468,-0.611701,,-0.02470287,-0.017398901,0.02762115,0.8765512,0.2579134,0.40637237,0.3667906,-0.90463513,-0.21702555,0.31164494,0.3392876,-0.88755924,,0.09657065,1.3397307,0.45027447,0.99532187,-0.011464543,-0.09593217,-0.06960569,-0.7737015,-0.6297151,-0.067003466,0.6334466,-0.77088,,-0.017593207,0.28341788,-0.10295733,-0.40774745,0.7640545,0.49996278,-0.8454625,-0.5227259,0.10931986,0.3448698,-0.3781249,0.85911953,,0.057823773,0.38636997,-0.38345623,-0.9089637,-0.27969295,-0.30912277,0.3896937,-0.30670768,-0.8683716,0.14806707,-0.90978146,0.38778073,,1.4688946836089987,0.2660249793184117,0.1745324856,-1.2380094263326318,0.0672251578845967,0.020000117350115684,-0.40476659588074404,,-1.0142110629061565,-0.10571649031525931,0.1741435986,4.537900066948591,-0.15357942573635508,0.4535005803796973,0.8760142266781397,,-0.03410591524553419,-0.09502008780170129,0.0886540616,-0.06966925354577931,,3.620796e-05,1.0073185e-05,-1.3232231e-05,1.0,-4.0777028e-05,-3.350526e-05,4.078448e-05,1.0,-3.516674e-06,3.3508986e-05,3.5762787e-06,1.0,686,2.101,0,0,0.0,False,-0.25767366003838577,1.0509151131813312
2.1215245079947636,11:38:33.635934,11:37:33.159779,0,,0.037842084,0.048719242,0.051982835,0.44051874,-0.7873449,-0.4313135,-0.4321851,-0.6070966,0.66682065,-0.78686684,-0.10733977,-0.60771614,,-0.02470287,-0.017398901,0.02762115,0.8765512,0.2579134,0.40637237,0.3667906,-0.90463513,-0.21702555,0.31164494,0.3392876,-0.88755924,,0.09657065,1.3397307,0.45027447,0.99532187,-0.011464543,-0.09593217,-0.06960569,-0.7737015,-0.6297151,-0.067003466,0.6334466,-0.77088,,-0.017317995,0.28355554,-0.10276493,-0.40486455,0.76261914,0.5044767,-0.84494096,-0.5229172,0.1123937,0.34951314,-0.38074884,0.8560788,,0.057823773,0.38636997,-0.38345623,-0.9089637,-0.27969295,-0.30912277,0.3896937,-0.30670768,-0.8683716,0.14806707,-0.90978146,0.38778073,,1.4698600252182767,0.2658936928595499,0.17484100262000002,-1.2380094263326318,0.07187079887662168,0.022582850355401196,-0.40738010093889243,,-1.0142110629061565,-0.10571649031525931,0.1741435986,4.537900066948591,-0.15357942573635508,0.4535005803796973,0.8760142266781397,,-0.03410591524553419,-0.09502008780170129,0.0886540616,-0.06966925354577931,,3.620796e-05,1.0073185e-05,-1.3232231e-05,1.0,-4.0777028e-05,-3.350526e-05,4.078448e-05,1.0,-3.516674e-06,3.3508986e-05,3.5762787e-06,1.0,694,2.127,0,0,0.0,False,-0.2570778828531757,1.0513013547875674
2.150473539950326,11:38:33.657788,11:37:33.159779,0,,0.037691623,0.048862338,0.051915303,0.44013834,-0.78641635,-0.43339056,-0.4306671,-0.60840166,0.6666134,-0.7879113,-0.10675517,-0.6064645,,-0.024701029,-0.017395847,0.027621865,0.8765481,0.2579087,0.4063819,0.3667838,-0.9046418,-0.21700925,0.31166148,0.3392734,-0.8875589,,0.09657065,1.3397307,0.45027447,0.99532187,-0.011464543,-0.09593217,-0.06960569,-0.7737015,-0.6297151,-0.067003466,0.6334466,-0.77088,,-0.017156435,0.28362122,-0.10263356,-0.4043391,0.76159006,0.5064488,-0.84446925,-0.5235326,0.11307226,0.35125718,-0.3819609,0.8548241,,0.057821836,0.38637224,-0.3834541,-0.90896225,-0.27968672,-0.30913255,0.3897029,-0.3067225,-0.86836225,0.14805149,-0.90977836,0.3877939,,1.4703928937865982,0.2658010200650592,0.17503674241000003,-1.2386384961630854,0.07323716387427609,0.02391903352265387,-0.40574666027754963,,-1.0142265083719049,-0.10570104484951086,0.1741435986,4.537900066948591,-0.15357942573635508,0.4535005803796973,0.8760142266781397,,-0.03410591524553419,-0.09502008780170129,0.0886540616,-0.06966925354577931,,3.620796e-05,1.0073185e-05,-1.3232231e-05,1.0,-4.0777028e-05,-3.350526e-05,4.078448e-05,1.0,-3.516674e-06,3.3508986e-05,3.5762787e-06,1.0,702,2.151,0,0,0.0,False,-0.2571374605716965,1.0507219923782136
2.172285115928389,11:38:33.686949,11:37:33.159779,0,,0.037479114,0.049054205,0.051800802,0.44102642,-0.7853735,-0.4343778,-0.42937955,-0.60964334,0.66630954,-0.7881174,-0.10734728,-0.6060921,,-0.024701029,-0.017395847,0.027621865,0.8765481,0.2579087,0.4063819,0.3667838,-0.9046418,-0.21700925,0.31166148,0.3392734,-0.8875589,,0.09657065,1.3397307,0.45027447,0.99532187,-0.011464543,-0.09593217,-0.06960569,-0.7737015,-0.6297151,-0.067003466,0.6334466,-0.77088,,-0.016927412,0.28369373,-0.102440216,-0.40514725,0.76053226,0.5073917,-0.8436363,-0.5248691,0.11309398,0.35232583,-0.38223433,0.85426193,,0.057821836,0.38637224,-0.3834541,-0.90896225,-0.27968672,-0.30913255,0.3897029,-0.3067225,-0.86836225,0.14805149,-0.90977836,0.3877939,,1.4711497216082723,0.265623397208952,0.17531803734,-1.2403160157109616,0.07323716387427609,0.024327427223356658,-0.40558331621141536,,-1.0142265083719049,-0.10570104484951086,0.1741435986,4.537900066948591,-0.15357942573635508,0.4535005803796973,0.8760142266781397,,-0.03410591524553419,-0.09502008780170129,0.0886540616,-0.06966925354577931,,3.620796e-05,1.0073185e-05,-1.3232231e-05,1.0,-4.0777028e-05,-3.350526e-05,4.078448e-05,1.0,-3.516674e-06,3.3508986e-05,3.5762787e-06,1.0,714,2.188,0,0,0.0,False,-0.2583290149421176,1.050963393382111
2.2014798229793087,11:38:33.718102,11:37:33.315307,0,,0.03729116,0.049212113,0.051680014,0.4408149,-0.7853258,-0.43467873,-0.428974,-0.6097055,0.6665138,-0.78845656,-0.107343435,-0.60565156,,-0.024702266,-0.017396115,0.027621627,0.8765497,0.25787947,0.40639687,0.36678585,-0.904623,-0.2170842,0.3116544,0.3393458,-0.88753366,,0.09657065,1.3397307,0.45027447,0.99532187,-0.011464543,-0.09593217,-0.06960569,-0.7737015,-0.6297151,-0.067003466,0.6334466,-0.77088,,-0.01672406,0.2837362,-0.1022622,-0.4048932,0.7604814,0.50767064,-0.8435485,-0.52491415,0.11353898,0.3528278,-0.38227364,0.8540371,,0.05782309,0.386372,-0.38345426,-0.9089632,-0.2796654,-0.30914903,0.3896984,-0.30665132,-0.86838937,0.14805752,-0.9098089,0.38771993,,1.4717134811080905,0.2653685470241026,0.17557211018000002,-1.240525705654446,0.07337380037404152,0.023970973099238554,-0.4060733484098182,,-1.0142187856390306,-0.10570104484951086,0.1741435986,4.537900066948591,-0.15357942573635508,0.4535822591198378,0.8761775707442738,,-0.03410591524553419,-0.09502008780170129,0.0886540616,-0.06966925354577931,,3.620796e-05,1.0073185e-05,-1.3232231e-05,1.0,-4.0777028e-05,-3.350526e-05,4.078448e-05,1.0,-3.516674e-06,3.3508986e-05,3.5762787e-06,1.0,739,2.265,0,0,0.0,False,-0.25767366003838577,1.0507702725789931
2.2326326710171998,11:38:33.795097,11:37:33.315307,0,,0.036802907,0.04946515,0.051315084,0.44842198,-0.77993906,-0.43659213,-0.42354947,-0.6155501,0.6646081,-0.7870983,-0.11310664,-0.60636896,,-0.024701029,-0.017395847,0.027621865,0.8765481,0.25784233,0.406424,0.3667838,-0.9046063,-0.21715707,0.31166148,0.33941835,-0.8875035,,0.09657065,1.3397307,0.45027447,0.99532187,-0.011464543,-0.09593217,-0.06960569,-0.7737015,-0.6297151,-0.067003466,0.6334466,-0.77088,,-0.016199833,0.28369412,-0.101863444,-0.41230518,0.755234,0.5095351,-0.8386208,-0.53315175,0.111644246,0.35597706,-0.3812752,0.8531762,,0.057821836,0.38637224,-0.3834541,-0.90896225,-0.2796362,-0.3091782,0.3897029,-0.30658063,-0.8684123,0.14805149,-0.90984166,0.38764527,,1.472763772778985,0.2639939005724906,0.17616321842000002,-1.2503811329982188,0.07255398137544887,0.02439444430099539,-0.40656338060822106,,-1.0142265083719049,-0.10570104484951086,0.1741435986,4.537900066948591,-0.15357942573635508,0.4536639378599784,0.8763409148104081,,-0.03410591524553419,-0.09502008780170129,0.0886540616,-0.06966925354577931,,3.620796e-05,1.0073185e-05,-1.3232231e-05,1.0,-4.0777028e-05,-3.350526e-05,4.078448e-05,1.0,-3.516674e-06,3.3508986e-05,3.5762787e-06,1.0,747,2.289,0,0,0.0,False,-0.2575545046013441,1.0507219923782136
2.309633918921463,11:38:33.823693,11:37:33.315307,0,,0.036683768,0.049486026,0.051227584,0.4499922,-0.7788078,-0.4369958,-0.42273214,-0.61680794,0.66396207,-0.7866415,-0.11404568,-0.6067858,,-0.024701029,-0.017395847,0.027621865,0.8765481,0.25784233,0.406424,0.3667838,-0.9046063,-0.21715707,0.31166148,0.33941835,-0.8875035,,0.09657065,1.3397307,0.45027447,0.99532187,-0.011464543,-0.09593217,-0.06960569,-0.7737015,-0.6297151,-0.067003466,0.6334466,-0.77088,,-0.016074002,0.2836539,-0.101793915,-0.41386208,0.7541116,0.5099352,-0.8377175,-0.5347277,0.110886335,0.35629714,-0.38128996,0.8530359,,0.057821836,0.38637224,-0.3834541,-0.90896225,-0.2796362,-0.3091782,0.3897029,-0.30658063,-0.8684123,0.14805149,-0.90984166,0.38764527,,1.4730417911624571,0.26323707275081665,0.17632655096000002,-1.2556233815853317,0.07200743537638712,0.024595079695359387,-0.4070534128066239,,-1.0142265083719049,-0.10570104484951086,0.1741435986,4.537900066948591,-0.15357942573635508,0.4536639378599784,0.8763409148104081,,-0.03410591524553419,-0.09502008780170129,0.0886540616,-0.06966925354577931,,3.620796e-05,1.0073185e-05,-1.3232231e-05,1.0,-4.0777028e-05,-3.350526e-05,4.078448e-05,1.0,-3.516674e-06,3.3508986e-05,3.5762787e-06,1.0,755,2.314,0,0,0.0,False,-0.2575545046013441,1.051108233984449
2.3382179859327152,11:38:33.854330,11:37:33.315307,0,,0.036490235,0.04947917,0.05108182,0.45706478,-0.77406037,-0.43808943,-0.41754806,-0.6216373,0.6627373,-0.7853315,-0.11999053,-0.6073358,,-0.024703503,-0.017396413,0.027621508,0.87655145,0.25785026,0.40641183,0.36678794,-0.9046042,-0.21715927,0.31164724,0.33941823,-0.8875085,,0.09657065,1.3397307,0.45027447,0.99532187,-0.011464543,-0.09593217,-0.06960569,-0.7737015,-0.6297151,-0.067003466,0.6334466,-0.77088,,-0.015871316,0.2835553,-0.10170477,-0.4207497,0.7495629,0.511004,-0.83299863,-0.542309,0.10960932,0.35928115,-0.37954757,0.85256124,,0.057824347,0.3863718,-0.38345444,-0.90896416,-0.27964413,-0.30916554,0.38969392,-0.30658016,-0.86841655,0.14806356,-0.90983945,0.38764596,,1.4731962458199417,0.2625111358606395,0.17644580964,-1.261285010059414,0.07200743537638712,0.024513400955218825,-0.4068900687404896,,-1.0142110629061565,-0.10570104484951086,0.1741435986,4.537900066948591,-0.15357942573635508,0.4536639378599784,0.8763409148104081,,-0.03410591524553419,-0.09502008780170129,0.0886540616,-0.06966925354577931,,3.620796e-05,1.0073185e-05,-1.3232231e-05,1.0,-4.0777028e-05,-3.350526e-05,4.078448e-05,1.0,-3.516674e-06,3.3508986e-05,3.5762787e-06,1.0,767,2.352,0,0,0.0,False,-0.25773323775690704,1.0512530745867876
2.3688231399282813,11:38:33.879836,11:37:33.470685,0,,0.036416672,0.049473986,0.05101423,0.46099335,-0.77136964,-0.43871862,-0.41577065,-0.6245093,0.6611527,-0.78397715,-0.12238073,-0.6086074,,-0.024701029,-0.017395847,0.027621865,0.8765481,0.25784233,0.406424,0.3667838,-0.9046063,-0.21715707,0.31166148,0.33941835,-0.8875035,,0.09657065,1.3397307,0.45027447,0.99532187,-0.011464543,-0.09593217,-0.06960569,-0.7737015,-0.6297151,-0.067003466,0.6334466,-0.77088,,-0.015793553,0.2835079,-0.10166339,-0.42467266,0.74691,0.51164305,-0.83080333,-0.54606897,0.10758458,0.3597484,-0.3793865,0.8524359,,0.057821836,0.38637224,-0.3834541,-0.90896225,-0.2796362,-0.3091782,0.3897029,-0.30658063,-0.8684123,0.14805149,-0.90984166,0.38764527,,1.4732889186144325,0.26212499921692833,0.17651451301,-1.265688498872589,0.07077770687849815,0.025434483348346096,-0.4070534128066239,,-1.0142265083719049,-0.10570104484951086,0.1741435986,4.537900066948591,-0.15357942573635508,0.4536639378599784,0.8763409148104081,,-0.03410591524553419,-0.09502008780170129,0.0886540616,-0.06966925354577931,,3.620796e-05,1.0073185e-05,-1.3232231e-05,1.0,-4.0777028e-05,-3.350526e-05,4.078448e-05,1.0,-3.516674e-06,3.3508986e-05,3.5762787e-06,1.0,775,2.376,0,0,0.0,False,-0.2583885926606384,1.0513013547875674
2.39436139294412,11:38:33.909608,11:37:33.470685,0,,0.036330014,0.049472883,0.050942466,0.46384922,-0.76967305,-0.43868822,-0.4150388,-0.6262724,0.65994376,-0.7826793,-0.124041885,-0.60994,,-0.024701029,-0.017395847,0.027621865,0.8765481,0.25784233,0.406424,0.3667838,-0.9046063,-0.21715707,0.31166148,0.33941835,-0.8875035,,0.09657065,1.3397307,0.45027447,0.99532187,-0.011464543,-0.09593217,-0.06960569,-0.7737015,-0.6297151,-0.067003466,0.6334466,-0.77088,,-0.015702244,0.283461,-0.10161727,-0.42757347,0.7452502,0.51164734,-0.8294275,-0.54850405,0.105798624,0.35948712,-0.3791377,0.8526568,,0.057821836,0.38637224,-0.3834541,-0.90896225,-0.2796362,-0.3091782,0.3897029,-0.30658063,-0.8684123,0.14805149,-0.90984166,0.38764527,,1.4734433732719168,0.26170024890884597,0.17659358670000003,-1.2686241580813724,0.06927470538107831,0.02567993540731995,-0.40738010093889243,,-1.0142265083719049,-0.10570104484951086,0.1741435986,4.537900066948591,-0.15357942573635508,0.4536639378599784,0.8763409148104081,,-0.03410591524553419,-0.09502008780170129,0.0886540616,-0.06966925354577931,,3.620796e-05,1.0073185e-05,-1.3232231e-05,1.0,-4.0777028e-05,-3.350526e-05,4.078448e-05,1.0,-3.516674e-06,3.3508986e-05,3.5762787e-06,1.0,800,2.453,0,0,0.0,False,-0.2584481703791588,1.0507219923782136
2.424143807962537,11:38:33.980826,11:37:33.470685,0,,0.036218703,0.04955533,0.05091928,0.46386898,-0.76989686,-0.43827438,-0.41496697,-0.62591934,0.6603238,-0.7827057,-0.12443444,-0.60982627,,-0.024703175,-0.017397664,0.027621329,0.8765513,0.25784862,0.40641317,0.36678928,-0.9046019,-0.21716624,0.31164607,0.33942538,-0.8875062,,0.09657065,1.3397307,0.45027447,0.99532187,-0.011464543,-0.09593217,-0.06960569,-0.7737015,-0.6297151,-0.067003466,0.6334466,-0.77088,,-0.015585729,0.28350934,-0.101555526,-0.42758787,0.74551773,0.5112455,-0.82939047,-0.5484908,0.10615708,0.35955542,-0.37863064,0.8528533,,0.05782406,0.38637087,-0.38345534,-0.9089639,-0.27964327,-0.309167,0.3896938,-0.30657297,-0.8684191,0.14806531,-0.9098421,0.38763905,,1.4739762418402385,0.2616152988472295,0.17670506764000002,-1.2688338480248569,0.06886479588178199,0.024870686756441357,-0.40738010093889243,,-1.0142110629061565,-0.1057087675823851,0.1741435986,4.537900066948591,-0.15357942573635508,0.4536639378599784,0.8763409148104081,,-0.03410591524553419,-0.09502008780170129,0.0886540616,-0.06966925354577931,,3.620796e-05,1.0073185e-05,-1.3232231e-05,1.0,-4.0777028e-05,-3.350526e-05,4.078448e-05,1.0,-3.516674e-06,3.3508986e-05,3.5762787e-06,1.0,808,2.478,0,0,0.0,False,-0.2588652144088064,1.0507219923782136
2.4953614429105073,11:38:34.016495,11:37:33.592437,0,,0.036152344,0.049615636,0.050921217,0.46330765,-0.77032715,-0.43811196,-0.415041,-0.6254169,0.66075325,-0.7829988,-0.12429771,-0.6094777,,-0.024702266,-0.017396115,0.027621627,0.8765497,0.2578463,0.40641794,0.36678585,-0.90460527,-0.21715808,0.3116544,0.33941835,-0.88750595,,0.09657065,1.3397307,0.45027447,0.99532187,-0.011464543,-0.09593217,-0.06960569,-0.7737015,-0.6297151,-0.067003466,0.6334466,-0.77088,,-0.015516827,0.28355688,-0.10152333,-0.42701167,0.74596125,0.5110801,-0.8296328,-0.548017,0.10670845,0.35968095,-0.37844303,0.85288364,,0.05782309,0.386372,-0.38345426,-0.9089632,-0.27964017,-0.3091719,0.3896984,-0.3065804,-0.8684144,0.14805752,-0.9098406,0.38764563,,1.4743623784839497,0.26163846704585214,0.17676858585000002,-1.268414468137888,0.06886479588178199,0.024380614315597987,-0.407706789071161,,-1.0142187856390306,-0.10570104484951086,0.1741435986,4.537900066948591,-0.15357942573635508,0.4536639378599784,0.8763409148104081,,-0.03410591524553419,-0.09502008780170129,0.0886540616,-0.06966925354577931,,3.620796e-05,1.0073185e-05,-1.3232231e-05,1.0,-4.0777028e-05,-3.350526e-05,4.078448e-05,1.0,-3.516674e-06,3.3508986e-05,3.5762787e-06,1.0,816,2.502,0,0,0.0,False,-0.25856732581620134,1.0514461953899055
2.5310186529532075,11:38:34.030844,11:37:33.592437,0,,0.03613668,0.049625173,0.050920263,0.46402594,-0.7699236,-0.43806112,-0.41428345,-0.6257322,0.6609301,-0.78297466,-0.12520736,-0.60932255,,-0.024701029,-0.017395847,0.027621865,0.8765481,0.25784233,0.406424,0.3667838,-0.9046063,-0.21715707,0.31166148,0.33941835,-0.8875035,,0.09657065,1.3397307,0.45027447,0.99532187,-0.011464543,-0.09593217,-0.06960569,-0.7737015,-0.6297151,-0.067003466,0.6334466,-0.77088,,-0.015500689,0.2835636,-0.10151773,-0.42769238,0.7456075,0.5110271,-0.8290496,-0.5488533,0.10694324,0.36021656,-0.377928,0.85288596,,0.057821836,0.38637224,-0.3834541,-0.90896225,-0.2796362,-0.3091782,0.3897029,-0.30658063,-0.8684123,0.14805149,-0.90984166,0.38764527,,1.4744318830798175,0.2616230215801037,0.17678154875000002,-1.2694629178553105,0.06900143238154742,0.024105838931620438,-0.40738010093889243,,-1.0142265083719049,-0.10570104484951086,0.1741435986,4.537900066948591,-0.15357942573635508,0.4536639378599784,0.8763409148104081,,-0.03410591524553419,-0.09502008780170129,0.0886540616,-0.06966925354577931,,3.620796e-05,1.0073185e-05,-1.3232231e-05,1.0,-4.0777028e-05,-3.350526e-05,4.078448e-05,1.0,-3.516674e-06,3.3508986e-05,3.5762787e-06,1.0,824,2.528,0,0,0.0,False,-0.2583885926606384,1.051108233984449
2.545365094905719,11:38:34.066139,11:37:33.592437,0,,0.03606472,0.049665675,0.050893143,0.47045717,-0.7662802,-0.4375897,-0.4079839,-0.62859565,0.66213036,-0.7824445,-0.13297448,-0.6083573,,-0.024701029,-0.017395847,0.027621865,0.8765481,0.25784233,0.406424,0.3667838,-0.9046063,-0.21715707,0.31166148,0.33941835,-0.8875035,,0.09657065,1.3397307,0.45027447,0.99532187,-0.011464543,-0.09593217,-0.06960569,-0.7737015,-0.6297151,-0.067003466,0.6334466,-0.77088,,-0.015425138,0.28357726,-0.101477,-0.43383256,0.7423813,0.51054806,-0.8239889,-0.55612475,0.10847833,0.3644607,-0.3736245,0.85297894,,0.057821836,0.38637224,-0.3834541,-0.90896225,-0.2796362,-0.3091782,0.3897029,-0.30658063,-0.8684123,0.14805149,-0.90984166,0.38764527,,1.4746249514016732,0.2614994578541161,0.17685414099000002,-1.278479585425145,0.07009452437967095,0.02207099334008119,-0.40738010093889243,,-1.0142265083719049,-0.10570104484951086,0.1741435986,4.537900066948591,-0.15357942573635508,0.4536639378599784,0.8763409148104081,,-0.03410591524553419,-0.09502008780170129,0.0886540616,-0.06966925354577931,,3.620796e-05,1.0073185e-05,-1.3232231e-05,1.0,-4.0777028e-05,-3.350526e-05,4.078448e-05,1.0,-3.516674e-06,3.3508986e-05,3.5762787e-06,1.0,832,2.553,0,0,0.0,False,-0.25791197091247,1.0510116735828905
2.5806681849062443,11:38:34.086235,11:37:33.592437,0,,0.036026847,0.04968144,0.050856426,0.4707722,-0.76626587,-0.4372759,-0.40734917,-0.6284278,0.6626803,-0.78258574,-0.1338476,-0.607984,,-0.024702266,-0.017396115,0.027621627,0.8765497,0.2578463,0.40641794,0.36678585,-0.90460527,-0.21715808,0.3116544,0.33941835,-0.88750595,,0.09657065,1.3397307,0.45027447,0.99532187,-0.011464543,-0.09593217,-0.06960569,-0.7737015,-0.6297151,-0.067003466,0.6334466,-0.77088,,-0.015384071,0.28356558,-0.101442225,-0.43410584,0.7424362,0.5102359,-0.82360303,-0.55656755,0.10913579,0.3650071,-0.37285534,0.8530819,,0.05782309,0.386372,-0.38345426,-0.9089632,-0.27964017,-0.3091719,0.3896984,-0.3065804,-0.8684144,0.14805752,-0.9098406,0.38764563,,1.4746403968674218,0.26135272592950587,0.17690340001000002,-1.2791086552555986,0.07050443387896727,0.02124666718814853,-0.4064000365420868,,-1.0142187856390306,-0.10570104484951086,0.1741435986,4.537900066948591,-0.15357942573635508,0.4536639378599784,0.8763409148104081,,-0.03410591524553419,-0.09502008780170129,0.0886540616,-0.06966925354577931,,3.620796e-05,1.0073185e-05,-1.3232231e-05,1.0,-4.0777028e-05,-3.350526e-05,4.078448e-05,1.0,-3.516674e-06,3.3508986e-05,3.5762787e-06,1.0,840,2.577,0,0,0.0,False,-0.25725661600873906,1.0506737121774343
