AlexandreBanks6/ExpertPlaybackApp/resources/Motions/P_08/PC1/Data_PC1_8.csv
Task Time,PC1 Time,PC2 Time,Gaze Calib,s_T_psm1,Tx,Ty,Tz,R00,R01,R02,R10,R11,R12,R20,R21,R22,s_T_psm3,Tx,Ty,Tz,R00,R01,R02,R10,R11,R12,R20,R21,R22,cart_T_ecm,Tx,Ty,Tz,R00,R01,R02,R10,R11,R12,R20,R21,R22,ecm_T_psm1,Tx,Ty,Tz,R00,R01,R02,R10,R11,R12,R20,R21,R22,ecm_T_psm3,Tx,Ty,Tz,R00,R01,R02,R10,R11,R12,R20,R21,R22,psm1_joints,q1,q2,q3,q4,q5,q6,jaw,psm3_joints,q1,q2,q3,q4,q5,q6,jaw,ecm_joints,q1,q2,q3,q4,ecmi_T_ecm,Tx,Ty,Tz,R00,R01,R02,R10,R11,R12,R20,R21,R22,Sample #,Task Duration (s),Collisions (binary),Collisions (increments),Cumulative Collision Time (s),Clutch Press,MTMR Angle,MTML Angle
""
lci_T_si,,,,,-0.06109692,0.03167272,0.2299341,0.9947057,-0.03862675,0.09522884,0.030706912,-0.772613,-0.63413423,0.098069586,0.63370115,-0.7673364
rci_T_si,,,,,-0.07092086,0.035947774,0.24085279,0.99028605,-0.05390731,0.12817007,0.04142117,-0.7655644,-0.64202446,0.13273226,0.64109683,-0.75589484
ecm_T_lc,,,,,-4.4061628e-05,-0.00034663224,-0.01840835,-0.99912,0.030754527,0.028518902,-0.031987965,-0.99852574,-0.043852776,0.027128186,-0.04472645,0.9986309
ecm_T_rc,,,,,-0.0043358393,0.01870579,-0.007592615,-0.99555075,-0.052743673,-0.078081585,0.04863213,-0.9973746,0.053654674,-0.08070653,0.04961868,0.9955021
cart_T_ecmi,,,,,0.09583431,1.3379636,0.44839177,0.99480253,-0.009780299,-0.10135232,-0.07187082,-0.7725409,-0.63088435,-0.07212858,0.6348896,-0.7692286
ecmac_T_ecmrep_psm1,,,,,0.006309411,-0.25313872,-0.31568977,0.99868697,0.047558498,0.019040095,-0.047043137,0.9985371,-0.026657216,-0.020280018,0.025726508,0.99946326
ecmac_T_ecmrep_psm3,,,,,-0.020520164,-0.44355312,-0.56256753,0.99888426,-0.027940953,0.03807337,0.020709034,0.9837047,0.17859514,-0.04244307,-0.17760742,0.9831857
""
0,12:08:44.126497,12:07:43.744390,0,,0.13312781,0.010302611,0.023735031,-0.60207355,-0.37093556,-0.70704603,-0.7346146,-0.08957949,0.67254496,-0.31280774,0.92432797,-0.21856117,,-0.030660167,-0.060279965,0.059891045,0.7469444,0.25150755,-0.61548173,0.33352202,-0.9425384,0.019605607,-0.57518417,-0.21992105,-0.7879071,,0.09568539,1.3379704,0.44839272,0.99481153,-0.0096834665,-0.10127324,-0.071746126,-0.7725422,-0.63089705,-0.07212858,0.6348896,-0.7692286,,-0.09438236,0.25035286,-0.0904983,0.58581686,0.27899683,0.76090693,-0.75165886,0.5380938,0.38139746,-0.3030306,-0.79537153,0.5249348,,0.07580607,0.40205958,-0.42911875,-0.6707644,-0.21683258,0.70926636,-0.3225657,-0.7758394,-0.5422403,0.66785216,-0.5925005,0.45046267,,0.9434167706481403,0.3860130799852379,0.17144861169000003,0.1386050526432706,-0.20727757014417317,1.0642199518480333,-0.40443990774847527,,-0.8869481478718108,-0.21147931702776399,0.13664841035000003,4.537900066948591,0.6491600103856076,-0.2881491408266178,0.8750341622813339,,-0.037993636154351564,-0.09291914771461311,0.09128296528,-0.07163176773016745,,-0.00014869496,-3.0994415e-06,1.001358e-05,1.0,9.641424e-05,7.95722e-05,-9.642169e-05,1.0,9.059906e-06,-7.95871e-05,-9.000301e-06,0.99999994,34,0.102,0,0,0.0,False,-0.25386068605304013,1.049514987358727
0.13651958294212818,12:08:44.152313,12:07:43.744390,0,,0.13313307,0.010226734,0.023977056,-0.6023463,-0.37514925,-0.7045863,-0.7321042,-0.09214339,0.6749319,-0.31812322,0.9223733,-0.21914609,,-0.030659243,-0.060279727,0.059891045,0.74694914,0.25150767,-0.6154759,0.33352196,-0.94253826,0.01960811,-0.5751781,-0.21992111,-0.78791165,,0.09568539,1.3379704,0.44839272,0.99481153,-0.0096834665,-0.10127324,-0.071746126,-0.7725422,-0.63089705,-0.07212858,0.6348896,-0.7692286,,-0.09441405,0.25045216,-0.09072958,0.58671683,0.28322062,0.75864977,-0.75319564,0.53494555,0.38279185,-0.29742175,-0.7960021,0.5271821,,0.07580514,0.4020596,-0.42911848,-0.6707698,-0.2168327,0.7092612,-0.32256144,-0.7758394,-0.5422429,0.66784877,-0.59250045,0.4504678,,0.9435017207097568,0.3861675346427224,0.17119583514000003,0.1388147425867551,-0.20153883715402465,1.0623991557977033,-0.4062366924759524,,-0.886955870604685,-0.21147931702776399,0.13664841035000003,4.537900066948591,0.6491600103856076,-0.2881491408266178,0.8750341622813339,,-0.037993636154351564,-0.09291914771461311,0.09128296528,-0.07163176773016745,,-0.00014869496,-3.0994415e-06,1.001358e-05,1.0,9.641424e-05,7.95722e-05,-9.642169e-05,1.0,9.059906e-06,-7.95871e-05,-9.000301e-06,0.99999994,46,0.138,0,0,0.0,False,-0.252847864838182,1.049418426957168
0.16231461300048977,12:08:44.181089,12:07:43.821106,0,,0.13316879,0.010188691,0.02421607,-0.60248286,-0.38244796,-0.7005339,-0.7276477,-0.09743589,0.6789956,-0.32793766,0.91882503,-0.21958393,,-0.030659735,-0.06027779,0.059891045,0.74694675,0.25150737,-0.61547905,0.33353102,-0.94253486,0.019619524,-0.575176,-0.21993619,-0.7879089,,0.09568539,1.3379704,0.44839272,0.99481153,-0.0096834665,-0.10127324,-0.071746126,-0.7725422,-0.63089705,-0.07212858,0.6348896,-0.7692286,,-0.094473615,0.2505778,-0.090930894,0.58800364,0.29050368,0.75489026,-0.7561753,0.5287394,0.3855303,-0.28714228,-0.79752254,0.5305724,,0.07580563,0.40206084,-0.429117,-0.6707677,-0.21683052,0.70926386,-0.32255402,-0.77584904,-0.54223347,0.6678545,-0.5924886,0.45047495,,0.9435635025727506,0.3862988211015842,0.17096120665000003,0.1388147425867551,-0.1908811901723203,1.0599978223002058,-0.40738010093889265,,-0.886955870604685,-0.21146387156201552,0.13664841035000003,4.537900066948591,0.6491600103856076,-0.2881491408266178,0.8750341622813339,,-0.037993636154351564,-0.09291914771461311,0.09128296528,-0.07163176773016745,,-0.00014869496,-3.0994415e-06,1.001358e-05,1.0,9.641424e-05,7.95722e-05,-9.642169e-05,1.0,9.059906e-06,-7.95871e-05,-9.000301e-06,0.99999994,54,0.163,0,0,0.0,False,-0.2538011083345184,1.0493218665556094
0.1910711609525606,12:08:44.202291,12:07:43.821106,0,,0.13317043,0.010135658,0.0243897,-0.6025382,-0.38415986,-0.69954896,-0.72522855,-0.10234398,0.6808592,-0.3331535,0.91757655,-0.21693748,,-0.030659497,-0.060278744,0.059891045,0.74694794,0.25150752,-0.61547744,0.3335265,-0.9425366,0.019613832,-0.5751771,-0.21992856,-0.7879103,,0.09568539,1.3379704,0.44839272,0.99481153,-0.0096834665,-0.10127324,-0.071746126,-0.7725422,-0.63089705,-0.07212858,0.6348896,-0.7692286,,-0.09449415,0.25065017,-0.09109614,0.58867323,0.29204327,0.7537735,-0.75772035,0.52422494,0.388649,-0.28164455,-0.79993683,0.52988434,,0.07580539,0.40206024,-0.42911774,-0.67076874,-0.21683161,0.7092625,-0.32255772,-0.7758442,-0.5422382,0.6678516,-0.59249455,0.45047137,,0.9436561753672413,0.3863219893002069,0.17077842976000002,0.1388147425867551,-0.18514245718217182,1.0617708908160604,-0.405419972145281,,-0.886955870604685,-0.21147159429488974,0.13664841035000003,4.537900066948591,0.6491600103856076,-0.2881491408266178,0.8750341622813339,,-0.037993636154351564,-0.09291914771461311,0.09128296528,-0.07163176773016745,,-0.00014869496,-3.0994415e-06,1.001358e-05,1.0,9.641424e-05,7.95722e-05,-9.642169e-05,1.0,9.059906e-06,-7.95871e-05,-9.000301e-06,0.99999994,61,0.184,0,0,0.0,False,-0.25302659799374494,1.0495632675595068
0.2123039539437741,12:08:44.228465,12:07:43.821106,0,,0.1331637,0.010068826,0.024561957,-0.60240334,-0.3862763,-0.6984989,-0.7237037,-0.10481575,0.6821045,-0.3366946,0.9164082,-0.21640816,,-0.030658558,-0.060278505,0.059891045,0.74695265,0.25145736,-0.61549217,0.3335265,-0.942535,0.019693315,-0.575171,-0.21999297,-0.78789675,,0.09568539,1.3379704,0.44839272,0.99481153,-0.0096834665,-0.10127324,-0.071746126,-0.7725422,-0.63089705,-0.07212858,0.6348896,-0.7692286,,-0.09450702,0.25071126,-0.09127015,0.58894974,0.2941151,0.7527513,-0.75886166,0.5216222,0.38992214,-0.27796978,-0.80087864,0.5304019,,0.07580446,0.4020603,-0.42911747,-0.6707742,-0.21677381,0.709275,-0.32255346,-0.7758885,-0.5421773,0.6678482,-0.5924577,0.45052487,,0.9437411254288578,0.38636060296457797,0.170591764,0.1386050526432706,-0.1813166351887395,1.0616733028977614,-0.4068900687404897,,-0.8869635933375591,-0.21147159429488974,0.13664841035000003,4.537900066948591,0.6491600103856076,-0.28823081956675833,0.8751975063474682,,-0.037993636154351564,-0.09291914771461311,0.09128296528,-0.07163176773016745,,-0.00014869496,-3.0994415e-06,1.001358e-05,1.0,9.641424e-05,7.95722e-05,-9.642169e-05,1.0,9.059906e-06,-7.95871e-05,-9.000301e-06,0.99999994,69,0.208,0,0,0.0,False,-0.25350321974191337,1.0498529487641832
0.23849075695034117,12:08:44.253406,12:07:43.821106,0,,0.13313547,0.009954177,0.024793252,-0.6016003,-0.38676375,-0.69892114,-0.72385955,-0.106045574,0.68174887,-0.33779335,0.9160611,-0.21616551,,-0.030659497,-0.060278744,0.059891045,0.74694794,0.2514572,-0.61549807,0.3335265,-0.942535,0.019690812,-0.5751771,-0.21999297,-0.78789234,,0.09568539,1.3379704,0.44839272,0.99481153,-0.0096834665,-0.10127324,-0.071746126,-0.7725422,-0.63089705,-0.07212858,0.6348896,-0.7692286,,-0.09450663,0.25077468,-0.09152196,0.5882433,0.29456216,0.75312877,-0.7597069,0.5204697,0.38981622,-0.27715558,-0.8014639,0.5299437,,0.07580539,0.40206024,-0.42911774,-0.67076874,-0.21677367,0.70928025,-0.32255772,-0.7758885,-0.5421748,0.6678516,-0.5924577,0.45051977,,0.9438646891548453,0.38648416669056557,0.17033250600000002,0.13755660292584798,-0.18049681619014685,1.062148297837551,-0.40607334840981835,,-0.886955870604685,-0.21147159429488974,0.13664841035000003,4.537900066948591,0.6491600103856076,-0.28823081956675833,0.8751975063474682,,-0.037993636154351564,-0.09291914771461311,0.09128296528,-0.07163176773016745,,-0.00014869496,-3.0994415e-06,1.001358e-05,1.0,9.641424e-05,7.95722e-05,-9.642169e-05,1.0,9.059906e-06,-7.95871e-05,-9.000301e-06,0.99999994,77,0.232,0,0,0.0,False,-0.2519541990603664,1.0496598279610654
0.26341721194330603,12:08:44.274093,12:07:43.938800,0,,0.13311344,0.009883486,0.024945408,-0.601622,-0.38753432,-0.69847554,-0.72319794,-0.1070264,0.6822976,-0.33916909,0.9156212,-0.21587457,,-0.030659243,-0.060279727,0.059891045,0.74694914,0.2514574,-0.6154965,0.33352196,-0.9425367,0.01968512,-0.5751781,-0.21998546,-0.7878937,,0.09568539,1.3379704,0.44839272,0.99481153,-0.0096834665,-0.10127324,-0.071746126,-0.7725422,-0.63089705,-0.07212858,0.6348896,-0.7692286,,-0.094502665,0.25082007,-0.09168493,0.58842826,0.29531327,0.75269,-0.76009643,0.5194512,0.39041492,-0.27569103,-0.8018482,0.53012633,,0.07580514,0.4020596,-0.42911848,-0.6707698,-0.21677476,0.7092789,-0.32256144,-0.7758837,-0.5421795,0.66784877,-0.5924637,0.4505162,,0.9439805301479587,0.3865227803549367,0.17016269201,0.13755660292584798,-0.178993814692727,1.0620662032588581,-0.4064000365420869,,-0.886955870604685,-0.21147931702776399,0.13664841035000003,4.537900066948591,0.6491600103856076,-0.28823081956675833,0.8751975063474682,,-0.037993636154351564,-0.09291914771461311,0.09128296528,-0.07163176773016745,,-0.00014869496,-3.0994415e-06,1.001358e-05,1.0,9.641424e-05,7.95722e-05,-9.642169e-05,1.0,9.059906e-06,-7.95871e-05,-9.000301e-06,0.99999994,88,0.266,0,0,0.0,False,-0.25278828711966117,1.049804668563404
0.28410969697870314,12:08:44.302810,12:07:43.938800,0,,0.13309574,0.009832941,0.025089577,-0.60165006,-0.3879526,-0.69821906,-0.72183746,-0.11020014,0.6832324,-0.34200567,0.91506743,-0.21373674,,-0.030658305,-0.06027946,0.059891045,0.7469539,0.2514575,-0.6154907,0.33352196,-0.94253665,0.019687623,-0.575172,-0.21998549,-0.7878981,,0.09568539,1.3379704,0.44839272,0.99481153,-0.0096834665,-0.10127324,-0.071746126,-0.7725422,-0.63089705,-0.07212858,0.6348896,-0.7692286,,-0.09450112,0.2508755,-0.09182838,0.588793,0.29560086,0.7522918,-0.7609027,0.5166851,0.39250934,-0.2726719,-0.8035276,0.52914405,,0.07580421,0.40205967,-0.42911822,-0.6707753,-0.21677488,0.7092737,-0.32255715,-0.7758837,-0.542182,0.66784537,-0.5924636,0.4505213,,0.9441349848054432,0.3865459485535594,0.17000843350000003,0.13755660292584798,-0.17585117519812185,1.063669207221009,-0.4055833162114154,,-0.8869635933375591,-0.21147931702776399,0.13664841035000003,4.537900066948591,0.6491600103856076,-0.28823081956675833,0.8751975063474682,,-0.037993636154351564,-0.09291914771461311,0.09128296528,-0.07163176773016745,,-0.00014869496,-3.0994415e-06,1.001358e-05,1.0,9.641424e-05,7.95722e-05,-9.642169e-05,1.0,9.059906e-06,-7.95871e-05,-9.000301e-06,0.99999994,92,0.278,0,0,0.0,False,-0.25451604095677105,1.0494667071579475
0.312836596975103,12:08:44.323539,12:07:43.938800,0,,0.13308601,0.009793408,0.025233194,-0.6021633,-0.38703477,-0.69828594,-0.7198818,-0.11496809,0.68450904,-0.34520945,0.9148695,-0.20938969,,-0.030658558,-0.060278505,0.059891045,0.74695265,0.25145736,-0.61549217,0.3335265,-0.942535,0.019693315,-0.575171,-0.21999297,-0.78789675,,0.09568539,1.3379704,0.44839272,0.99481153,-0.0096834665,-0.10127324,-0.071746126,-0.7725422,-0.63089705,-0.07212858,0.6348896,-0.7692286,,-0.09450685,0.25093883,-0.09196346,0.58970726,0.29443762,0.7520318,-0.76148653,0.5129153,0.39630312,-0.2690421,-0.8063649,0.5266802,,0.07580446,0.4020603,-0.42911747,-0.6707742,-0.21677381,0.709275,-0.32255346,-0.7758885,-0.5421773,0.6678482,-0.5924577,0.45052487,,0.9442739939971793,0.38660773041655316,0.16986065644,0.13818567275630153,-0.17216198970445498,1.0672769017725912,-0.4057466602775497,,-0.8869635933375591,-0.21147159429488974,0.13664841035000003,4.537900066948591,0.6491600103856076,-0.28823081956675833,0.8751975063474682,,-0.037993636154351564,-0.09291914771461311,0.09128296528,-0.07163176773016745,,-0.00014869496,-3.0994415e-06,1.001358e-05,1.0,9.641424e-05,7.95722e-05,-9.642169e-05,1.0,9.059906e-06,-7.95871e-05,-9.000301e-06,0.99999994,104,0.314,0,0,0.0,False,-0.25344364202339253,1.049514987358727
0.333567225956358,12:08:44.353232,12:07:43.938800,0,,0.13309458,0.009762354,0.025430307,-0.6031438,-0.39012182,-0.6957172,-0.71571887,-0.12031022,0.6879476,-0.3520853,0.9128692,-0.20665315,,-0.030660927,-0.06027709,0.059890985,0.74694085,0.2514568,-0.6155069,0.3335356,-0.9425316,0.019699723,-0.57518107,-0.22000802,-0.7878852,,0.09568539,1.3379704,0.44839272,0.99481153,-0.0096834665,-0.10127324,-0.071746126,-0.7725422,-0.63089705,-0.07212858,0.6348896,-0.7692286,,-0.09453518,0.25104302,-0.092131466,0.5915471,0.29738876,0.7494211,-0.76276773,0.50760585,0.40065157,-0.26126125,-0.8086385,0.5271113,,0.075806804,0.40206137,-0.42911652,-0.6707612,-0.21677138,0.70928806,-0.3225546,-0.77589816,-0.54216284,0.66786075,-0.5924459,0.4505218,,0.9444284486546637,0.3867004032110439,0.16966880552000002,0.1394438124172087,-0.16423707271805943,1.0680023924905682,-0.4064000365420868,,-0.8869481478718108,-0.2114561488291413,0.13664841035000003,4.537900066948591,0.6491600103856076,-0.28823081956675833,0.8751975063474682,,-0.037993636154351564,-0.09291914771461311,0.09128296528,-0.07163176773016745,,-0.00014869496,-3.0994415e-06,1.001358e-05,1.0,9.641424e-05,7.95722e-05,-9.642169e-05,1.0,9.059906e-06,-7.95871e-05,-9.000301e-06,0.99999994,112,0.339,0,0,0.0,False,-0.25266913168261906,1.049708108161845
0.36325660697184503,12:08:44.374757,12:07:43.938800,0,,0.1330947,0.009719066,0.025609553,-0.6054145,-0.39357185,-0.6917906,-0.71100575,-0.12318471,0.69231236,-0.35769275,0.911003,-0.20525399,,-0.030660674,-0.060278043,0.059891045,0.7469419,0.25145695,-0.61550534,0.33353105,-0.9425334,0.019694,-0.57518214,-0.2200005,-0.7878865,,0.09568539,1.3379704,0.44839272,0.99481153,-0.0096834665,-0.10127324,-0.071746126,-0.7725422,-0.63089705,-0.07212858,0.6348896,-0.7692286,,-0.094554186,0.25112647,-0.09229481,0.59458447,0.3008277,0.7456353,-0.76278555,0.504266,0.40481353,-0.2542194,-0.80945563,0.5292958,,0.07580656,0.40206078,-0.42911726,-0.67076224,-0.21677247,0.70928675,-0.3225583,-0.77589333,-0.54216754,0.6678579,-0.5924519,0.45051822,,0.9445520123806513,0.3867004032110439,0.16948602863,0.14237947162599204,-0.15713197473025653,1.0666193134659447,-0.4057466602775497,,-0.8869481478718108,-0.21146387156201552,0.13664841035000003,4.537900066948591,0.6491600103856076,-0.28823081956675833,0.8751975063474682,,-0.037993636154351564,-0.09291914771461311,0.09128296528,-0.07163176773016745,,-0.00014869496,-3.0994415e-06,1.001358e-05,1.0,9.641424e-05,7.95722e-05,-9.642169e-05,1.0,9.059906e-06,-7.95871e-05,-9.000301e-06,0.99999994,127,0.385,0,0,0.0,False,-0.2540989969271239,1.04927358635483
0.38478416693396866,12:08:44.423329,12:07:44.056776,0,,0.13314486,0.009688251,0.025841579,-0.6052176,-0.4035515,-0.6861908,-0.7048292,-0.12903512,0.69754255,-0.37003714,0.90581226,-0.20634052,,-0.03066042,-0.06027901,0.059891045,0.74694324,0.25155768,-0.61546266,0.33352655,-0.94253826,0.01953435,-0.57518315,-0.21986425,-0.7879238,,0.09568539,1.3379704,0.44839272,0.99481153,-0.0096834665,-0.10127324,-0.071746126,-0.7725422,-0.63089705,-0.07212858,0.6348896,-0.7692286,,-0.09462705,0.2512528,-0.09248463,0.59586865,0.31089523,0.7404625,-0.76610494,0.49661416,0.40799218,-0.24088134,-0.8103817,0.53409517,,0.07580631,0.40206018,-0.429118,-0.6707633,-0.21688943,0.70925,-0.322562,-0.77579993,-0.542299,0.667855,-0.5925314,0.45041785,,0.944575180579274,0.3867081259439181,0.16926306675000002,0.14237947162599204,-0.14333168825394704,1.0627171918052567,-0.4064000365420869,,-0.8869481478718108,-0.21147159429488974,0.13664841035000003,4.537900066948591,0.6491600103856076,-0.28806746208647727,0.8751975063474682,,-0.037993636154351564,-0.09291914771461311,0.09128296528,-0.07163176773016745,,-0.00014869496,-3.0994415e-06,1.001358e-05,1.0,9.641424e-05,7.95722e-05,-9.642169e-05,1.0,9.059906e-06,-7.95871e-05,-9.000301e-06,0.99999994,135,0.409,0,0,0.0,False,-0.2537415306159976,1.0495632675595068
0.4333542790263891,12:08:44.443161,12:07:44.056776,0,,0.13315353,0.009644754,0.02597569,-0.60529596,-0.40646195,-0.6844015,-0.7026581,-0.13115609,0.6993352,-0.37401658,0.90420496,-0.20621552,,-0.03066136,-0.06027925,0.059891045,0.74693847,0.25155756,-0.6154685,0.33352655,-0.9425383,0.019531786,-0.57518923,-0.21986422,-0.78791934,,0.09568539,1.3379704,0.44839272,0.99481153,-0.0096834665,-0.10127324,-0.071746126,-0.7725422,-0.63089705,-0.07212858,0.6348896,-0.7692286,,-0.09465042,0.25130665,-0.0926131,0.5964338,0.3138165,0.7387733,-0.7670358,0.49400643,0.40940666,-0.23648018,-0.8108495,0.5353506,,0.07580724,0.40206012,-0.42911828,-0.67075783,-0.21688929,0.7092552,-0.32256627,-0.77579993,-0.54229647,0.6678584,-0.59253144,0.45041272,,0.9445983487778967,0.38673129414254076,0.16912306743000002,0.14258916156947654,-0.1388226837616875,1.0618174781480538,-0.4070534128066239,,-0.8869404251389365,-0.21147159429488974,0.13664841035000003,4.537900066948591,0.6491600103856076,-0.28806746208647727,0.8751975063474682,,-0.037993636154351564,-0.09291914771461311,0.09128296528,-0.07163176773016745,,-0.00014869496,-3.0994415e-06,1.001358e-05,1.0,9.641424e-05,7.95722e-05,-9.642169e-05,1.0,9.059906e-06,-7.95871e-05,-9.000301e-06,0.99999994,139,0.421,0,0,0.0,False,-0.25344364202339253,1.049370146756389
0.45319011295214295,12:08:44.469707,12:07:44.056776,0,,0.13312922,0.009559445,0.026186809,-0.6047684,-0.40921232,-0.68322784,-0.7016383,-0.1320953,0.7001817,-0.3767743,0.90282655,-0.20723188,,-0.030662298,-0.060279503,0.059891045,0.74693376,0.25155744,-0.6154743,0.3335266,-0.9425383,0.019529313,-0.5751954,-0.21986422,-0.7879149,,0.09568539,1.3379704,0.44839272,0.99481153,-0.0096834665,-0.10127324,-0.071746126,-0.7725422,-0.63089705,-0.07212858,0.6348896,-0.7692286,,-0.094650425,0.25137922,-0.0928303,0.59621966,0.31662422,0.7377474,-0.76805913,0.49244338,0.4093711,-0.23368199,-0.8107087,0.53679055,,0.07580817,0.40206006,-0.42911854,-0.6707524,-0.21688917,0.7092604,-0.32257056,-0.77579993,-0.5422939,0.6678618,-0.59253144,0.45040762,,0.9448377534969976,0.38685485786852836,0.16881584670000002,0.14070195207811584,-0.1351334982680206,1.0595443034095156,-0.40656338060822106,,-0.8869327024060623,-0.21147159429488974,0.13664841035000003,4.537900066948591,0.6491600103856076,-0.28806746208647727,0.8751975063474682,,-0.037993636154351564,-0.09291914771461311,0.09128296528,-0.07163176773016745,,-0.00014869496,-3.0994415e-06,1.001358e-05,1.0,9.641424e-05,7.95722e-05,-9.642169e-05,1.0,9.059906e-06,-7.95871e-05,-9.000301e-06,0.99999994,151,0.458,0,0,0.0,False,-0.252847864838182,1.0493218665556094
0.47964666597545147,12:08:44.503569,12:07:44.056776,0,,0.13311121,0.009495027,0.026391894,-0.6033808,-0.41403678,-0.6815461,-0.70054036,-0.13314503,0.7010817,-0.38101822,0.9004697,-0.20971228,,-0.030661613,-0.060278296,0.059891045,0.7469373,0.25155738,-0.61547005,0.33353108,-0.9425366,0.019537508,-0.5751882,-0.21987176,-0.787918,,0.09568539,1.3379704,0.44839272,0.99481153,-0.0096834665,-0.10127324,-0.071746126,-0.7725422,-0.63089705,-0.07212858,0.6348896,-0.7692286,,-0.09465495,0.25146365,-0.09302876,0.595291,0.32157755,0.7363535,-0.7700023,0.49019572,0.40841725,-0.22961952,-0.810121,0.53942454,,0.07580748,0.40206072,-0.42911753,-0.6707568,-0.21688822,0.70925653,-0.32256258,-0.77580476,-0.54229176,0.6678613,-0.5925255,0.4504163,,0.9449999308873563,0.3869243624643964,0.16867714367000003,0.1402825721911468,-0.13158094927411915,1.0570558316141114,-0.4064000365420868,,-0.8869404251389365,-0.21146387156201552,0.13664841035000003,4.537900066948591,0.6491600103856076,-0.28806746208647727,0.8751975063474682,,-0.037993636154351564,-0.09291914771461311,0.09128296528,-0.07163176773016745,,-0.00014869496,-3.0994415e-06,1.001358e-05,1.0,9.641424e-05,7.95722e-05,-9.642169e-05,1.0,9.059906e-06,-7.95871e-05,-9.000301e-06,0.99999994,159,0.482,0,0,0.0,False,-0.2536819528974772,1.0499495091657423
0.5135755919618532,12:08:44.525103,12:07:44.056776,0,,0.13307074,0.009405382,0.026588231,-0.6023993,-0.41234538,-0.68343705,-0.7006072,-0.1371009,0.70025206,-0.38244563,0.9006522,-0.20630261,,-0.030666292,-0.060279563,0.059891045,0.7469136,0.25155675,-0.6154989,0.3335313,-0.9425367,0.019524932,-0.5752188,-0.21987173,-0.7878958,,0.09568539,1.3379704,0.44839272,0.99481153,-0.0096834665,-0.10127324,-0.071746126,-0.7725422,-0.63089705,-0.07212858,0.6348896,-0.7692286,,-0.09463776,0.2515236,-0.09323931,0.5944423,0.3196561,0.73787415,-0.7709961,0.48727754,0.41003126,-0.2284805,-0.81263804,0.536112,,0.07581212,0.40206045,-0.42911887,-0.6707295,-0.2168876,0.70928246,-0.32258397,-0.77580476,-0.54227906,0.6678783,-0.5925257,0.45039073,,0.9452238901407088,0.38697842159451595,0.16846455211000003,0.13902443253023963,-0.13048785727599563,1.0610652127929738,-0.407053412806624,,-0.8869018114745654,-0.21146387156201552,0.13664841035000003,4.537900066948591,0.6491600103856076,-0.28806746208647727,0.8751975063474682,,-0.037993636154351564,-0.09291914771461311,0.09128296528,-0.07163176773016745,,-0.00014869496,-3.0994415e-06,1.001358e-05,1.0,9.641424e-05,7.95722e-05,-9.642169e-05,1.0,9.059906e-06,-7.95871e-05,-9.000301e-06,0.99999994,170,0.516,0,0,0.0,False,-0.2532649088678296,1.0496598279610654
0.535117081948556,12:08:44.557045,12:07:44.202238,0,,0.13300405,0.009362824,0.026794016,-0.6021595,-0.41536346,-0.68181884,-0.69791937,-0.14085576,0.70218813,-0.38770133,0.8986838,-0.20507264,,-0.030609623,-0.0602694,0.05989057,0.7468986,0.25160736,-0.6154967,0.33357328,-0.9425226,0.019496053,-0.57521415,-0.2198748,-0.7878983,,0.09567519,1.3379706,0.44839105,0.9948141,-0.009655941,-0.10125076,-0.07171068,-0.77254254,-0.6309007,-0.07212858,0.6348896,-0.7692286,,-0.094587475,0.25162467,-0.09343297,0.59486353,0.3226305,0.73623836,-0.77235097,0.48320574,0.41229382,-0.22273603,-0.81389296,0.53662544,,0.07576466,0.40206477,-0.4291058,-0.67072165,-0.21690284,0.7092853,-0.32257316,-0.7758081,-0.54228073,0.6678915,-0.5925158,0.45038423,,0.9454632948598098,0.3870402034575098,0.16825196055000002,0.1388147425867551,-0.1246124877860817,1.0610116098621805,-0.4070534128066239,,-0.8868940887416912,-0.21147159429488974,0.13664841035000003,4.537900066948591,0.6491600103856076,-0.28806746208647727,0.8751975063474682,,-0.037993636154351564,-0.09291914771461311,0.09128296528,-0.07163176773016745,,-0.00015874207,-4.172325e-06,1.21593475e-05,1.0,0.00012382492,0.000102199614,-0.00012382865,0.99999994,1.1652708e-05,-0.000102207065,-1.1563301e-05,1.0,178,0.54,0,0,0.0,False,-0.25302659799374494,1.0494667071579475
0.5670404509874061,12:08:44.576961,12:07:44.202238,0,,0.13298562,0.009308286,0.02692303,-0.60129005,-0.41445333,-0.6831387,-0.6974513,-0.1449408,0.7018218,-0.38988698,0.8984544,-0.2019096,,-0.030610815,-0.0602687,0.05989051,0.74689263,0.25160712,-0.61550397,0.33357787,-0.94252086,0.019499213,-0.57521915,-0.21988225,-0.7878925,,0.09567519,1.3379706,0.44839105,0.9948141,-0.009655941,-0.10125076,-0.07171068,-0.77254254,-0.6309007,-0.07212858,0.6348896,-0.7692286,,-0.094584055,0.25166726,-0.093567625,0.5942259,0.3215164,0.73724,-0.7734283,0.47993496,0.4140906,-0.22069034,-0.81626564,0.53385967,,0.07576583,0.4020653,-0.4291053,-0.67071515,-0.21690163,0.7092918,-0.32257372,-0.7758129,-0.5422735,0.66789776,-0.5925099,0.45038268,,0.9455945813186717,0.387047926190384,0.16811066494000002,0.1377662928693325,-0.12242630378983464,1.0644563627720336,-0.405419972145281,,-0.8868863660088169,-0.21146387156201552,0.13664841035000003,4.537900066948591,0.6491600103856076,-0.28806746208647727,0.8751975063474682,,-0.037993636154351564,-0.09291914771461311,0.09128296528,-0.07163176773016745,,-0.00015874207,-4.172325e-06,1.21593475e-05,1.0,0.00012382492,0.000102199614,-0.00012382865,0.99999994,1.1652708e-05,-0.000102207065,-1.1563301e-05,1.0,186,0.564,0,0,0.0,False,-0.254218152364166,1.049514987358727
0.58691644994542,12:08:44.610347,12:07:44.202238,0,,0.13297693,0.00926315,0.027116805,-0.600756,-0.41698644,-0.68206626,-0.69413173,-0.1511628,0.7037976,-0.396577,0.8962543,-0.19863158,,-0.030610815,-0.0602687,0.05989051,0.74689263,0.25160712,-0.61550397,0.33357787,-0.94252086,0.019499213,-0.57521915,-0.21988225,-0.7878925,,0.09567519,1.3379706,0.44839105,0.9948141,-0.009655941,-0.10125076,-0.07171068,-0.77254254,-0.6309007,-0.07212858,0.6348896,-0.7692286,,-0.09459572,0.25175887,-0.09374406,0.5944953,0.32388577,0.7359846,-0.7752555,0.4738175,0.41770306,-0.21343431,-0.8188986,0.53277653,,0.07576583,0.4020653,-0.4291053,-0.67071515,-0.21690163,0.7092918,-0.32257372,-0.7758129,-0.5422735,0.66789776,-0.5925099,0.45038268,,0.9458185405720242,0.3870402034575098,0.16791622144,0.13734691298236346,-0.11491129630273542,1.0664962520827865,-0.40607334840981824,,-0.8868863660088169,-0.21146387156201552,0.13664841035000003,4.537900066948591,0.6491600103856076,-0.28806746208647727,0.8751975063474682,,-0.037993636154351564,-0.09291914771461311,0.09128296528,-0.07163176773016745,,-0.00015874207,-4.172325e-06,1.21593475e-05,1.0,0.00012382492,0.000102199614,-0.00012382865,0.99999994,1.1652708e-05,-0.000102207065,-1.1563301e-05,1.0,194,0.589,0,0,0.0,False,-0.25302659799374494,1.0495632675595068
0.6202967460267246,12:08:44.628555,12:07:44.202238,0,,0.13296968,0.00923986,0.027237937,-0.5994383,-0.41897875,-0.6820046,-0.69245255,-0.15592626,0.7044122,-0.40147603,0.8945074,-0.19665486,,-0.03061013,-0.060267493,0.05989051,0.74689615,0.2516071,-0.6154997,0.33358228,-0.9425191,0.019507498,-0.57521206,-0.21988982,-0.7878956,,0.09567519,1.3379706,0.44839105,0.9948141,-0.009655941,-0.10125076,-0.07171068,-0.77254254,-0.6309007,-0.07212858,0.6348896,-0.7692286,,-0.09460093,0.2518199,-0.09385137,0.5937291,0.3257582,0.7357767,-0.7771808,0.46909434,0.41945264,-0.20850857,-0.8208728,0.531688,,0.07576515,0.40206596,-0.4291043,-0.67071956,-0.21690068,0.70928794,-0.32256573,-0.77581775,-0.5422713,0.66789716,-0.59250396,0.45039138,,0.9459961634281313,0.3870247579917613,0.16779696276000003,0.13587908337797178,-0.10971910931164867,1.068143241032443,-0.40738010093889243,,-0.8868940887416912,-0.2114561488291413,0.13664841035000003,4.537900066948591,0.6491600103856076,-0.28806746208647727,0.8751975063474682,,-0.037993636154351564,-0.09291914771461311,0.09128296528,-0.07163176773016745,,-0.00015874207,-4.172325e-06,1.21593475e-05,1.0,0.00012382492,0.000102199614,-0.00012382865,0.99999994,1.1652708e-05,-0.000102207065,-1.1563301e-05,1.0,202,0.613,0,0,0.0,False,-0.25278828711966117,1.0496598279610654
0.6385339879198,12:08:44.655021,12:07:44.202238,0,,0.13296124,0.009225868,0.027336463,-0.59913105,-0.42155936,-0.6806831,-0.69040406,-0.15849742,0.7058476,-0.40544313,0.89284146,-0.19608557,,-0.030611053,-0.060267746,0.05989051,0.74689144,0.25160694,-0.61550546,0.3335824,-0.9425192,0.019504935,-0.5752182,-0.21988979,-0.78789115,,0.09567519,1.3379706,0.44839105,0.9948141,-0.009655941,-0.10125076,-0.07171068,-0.77254254,-0.6309007,-0.07212858,0.6348896,-0.7692286,,-0.094602354,0.25187337,-0.09393571,0.5939027,0.32833156,0.73449165,-0.77820325,0.46610075,0.42089167,-0.20415509,-0.82155246,0.5323272,,0.07576608,0.4020659,-0.42910457,-0.6707141,-0.21690054,0.7092931,-0.32257,-0.77581775,-0.5422688,0.6679006,-0.592504,0.45038626,,0.9461660635513642,0.38700931252601284,0.16770233359000003,0.13566939343448728,-0.10521010481938914,1.0677335998160837,-0.4060733484098181,,-0.8868863660088169,-0.2114561488291413,0.13664841035000003,4.537900066948591,0.6491600103856076,-0.28806746208647727,0.8751975063474682,,-0.037993636154351564,-0.09291914771461311,0.09128296528,-0.07163176773016745,,-0.00015874207,-4.172325e-06,1.21593475e-05,1.0,0.00012382492,0.000102199614,-0.00012382865,0.99999994,1.1652708e-05,-0.000102207065,-1.1563301e-05,1.0,213,0.647,0,0,0.0,False,-0.25302659799374494,1.049804668563404
0.6650414579780772,12:08:44.688349,12:07:44.325557,0,,0.13290174,0.009219833,0.027554333,-0.5967274,-0.42720473,-0.67927337,-0.68745303,-0.16448101,0.7073574,-0.4139139,0.889068,-0.19553292,,-0.030614555,-0.0602697,0.05989057,0.74687374,0.25165686,-0.61550653,0.33357805,-0.94252264,0.01941225,-0.57524365,-0.21981776,-0.7878926,,0.09567519,1.3379706,0.44839105,0.9948141,-0.009655941,-0.10125076,-0.07171068,-0.77254254,-0.6309007,-0.07212858,0.6348896,-0.7692286,,-0.094563514,0.2520112,-0.09411047,0.5924558,0.3339528,0.73312455,-0.781498,0.45919526,0.42237496,-0.19559403,-0.8231739,0.53303635,,0.07576954,0.4020651,-0.42910638,-0.67069334,-0.21695907,0.70929486,-0.32259083,-0.7757686,-0.5423267,0.6679114,-0.59254694,0.4503138,,0.9468611095100444,0.3870170352588871,0.16750400122,0.13294342416918845,-0.09619209583487008,1.0669959961235054,-0.4068900687404895,,-0.88685547507732,-0.21146387156201552,0.13664841035000003,4.537900066948591,0.6491600103856076,-0.28798578334633673,0.8750341622813339,,-0.037993636154351564,-0.09291914771461311,0.09128296528,-0.07163176773016745,,-0.00015874207,-4.172325e-06,1.21593475e-05,1.0,0.00012382492,0.000102199614,-0.00012382865,0.99999994,1.1652708e-05,-0.000102207065,-1.1563301e-05,1.0,221,0.671,0,0,0.0,False,-0.25397984149008224,1.0499012289649627
0.6983165310230106,12:08:44.713809,12:07:44.325557,0,,0.13286091,0.009229116,0.02764672,-0.59647214,-0.42843968,-0.6787196,-0.6855958,-0.16773227,0.7083956,-0.4173478,0.8878654,-0.19368888,,-0.030615479,-0.06026995,0.05989051,0.746869,0.25160646,-0.6155329,0.3335781,-0.94252104,0.019486636,-0.5752498,-0.2198821,-0.7878703,,0.09567519,1.3379706,0.44839105,0.9948141,-0.009655941,-0.10125076,-0.07171068,-0.77254254,-0.6309007,-0.07212858,0.6348896,-0.7692286,,-0.09453088,0.25207892,-0.09417857,0.5926215,0.33510754,0.7324634,-0.782319,0.4559628,0.42435226,-0.19177245,-0.8245004,0.5323744,,0.075770475,0.40206504,-0.42910665,-0.67068785,-0.21690102,0.7093178,-0.3225951,-0.77581286,-0.5422608,0.6679148,-0.59251016,0.45035708,,0.9472781370852525,0.3870170352588871,0.16742492753000002,0.13273373422570392,-0.0922296373416723,1.0678488139233373,-0.4055833162114154,,-0.8868477523444458,-0.21146387156201552,0.13664841035000003,4.537900066948591,0.6491600103856076,-0.28806746208647727,0.8748708182151996,,-0.037993636154351564,-0.09291914771461311,0.09128296528,-0.07163176773016745,,-0.00015874207,-4.172325e-06,1.21593475e-05,1.0,0.00012382492,0.000102199614,-0.00012382865,0.99999994,1.1652708e-05,-0.000102207065,-1.1563301e-05,1.0,229,0.695,0,0,0.0,False,-0.2532649088678296,1.049514987358727
0.7238253540126607,12:08:44.743885,12:07:44.325557,0,,0.1328016,0.0092608705,0.027807146,-0.5933725,-0.43548167,-0.6769524,-0.683265,-0.1720795,0.7096039,-0.42550898,0.88359725,-0.19544213,,-0.030621156,-0.06026739,0.05989051,0.74684054,0.25160524,-0.6155679,0.33359635,-0.9425144,0.019496918,-0.57527614,-0.21991217,-0.7878425,,0.09567519,1.3379706,0.44839105,0.9948141,-0.009655941,-0.10125076,-0.07171068,-0.77254254,-0.6309007,-0.07212858,0.6348896,-0.7692286,,-0.09448483,0.2522082,-0.09428546,0.5904194,0.34225485,0.7309354,-0.78589606,0.45000398,0.42410347,-0.18377239,-0.82483816,0.5346678,,0.07577609,0.40206715,-0.429105,-0.6706564,-0.21689607,0.70934904,-0.32260165,-0.7758322,-0.54222924,0.66794324,-0.59248674,0.45034578,,0.9480117967083039,0.38703248072463553,0.16729659482,0.12916900518646698,-0.08375817435621499,1.0649431621610468,-0.40672672467435533,,-0.8868091386800747,-0.21143298063051863,0.13664841035000003,4.537900066948591,0.6491600103856076,-0.28806746208647727,0.8748708182151996,,-0.037993636154351564,-0.09291914771461311,0.09128296528,-0.07163176773016745,,-0.00015874207,-4.172325e-06,1.21593475e-05,1.0,0.00012382492,0.000102199614,-0.00012382865,0.99999994,1.1652708e-05,-0.000102207065,-1.1563301e-05,1.0,237,0.72,0,0,0.0,False,-0.2533840643048717,1.0496598279610654
0.7538571410113946,12:08:44.765954,12:07:44.325557,0,,0.1327546,0.009300016,0.027900338,-0.59235287,-0.43792912,-0.67626625,-0.68084717,-0.17670053,0.7107912,-0.43077272,0.881473,-0.1934938,,-0.030625388,-0.060266495,0.05989051,0.7468192,0.2516044,-0.61559415,0.33360553,-0.9425111,0.019498229,-0.57529855,-0.21992716,-0.787822,,0.09567519,1.3379706,0.44839105,0.9948141,-0.009655941,-0.10125076,-0.07171068,-0.77254254,-0.6309007,-0.07212858,0.6348896,-0.7692286,,-0.09444442,0.25229925,-0.09433552,0.5900245,0.34462237,0.73014146,-0.7874913,0.4451518,0.42625967,-0.17812517,-0.82648367,0.5340376,,0.075780295,0.40206814,-0.4291046,-0.6706325,-0.2168934,0.70937246,-0.32261136,-0.77584183,-0.5422097,0.66796255,-0.59247506,0.45033246,,0.9485755562081223,0.3870402034575098,0.16723178032000002,0.12812055546904438,-0.07788280486630106,1.065706346631659,-0.40607334840981824,,-0.8867782477485777,-0.2114175351647702,0.13664841035000003,4.537900066948591,0.6491600103856076,-0.28806746208647727,0.8748708182151996,,-0.037993636154351564,-0.09291914771461311,0.09128296528,-0.07163176773016745,,-0.00015874207,-4.172325e-06,1.21593475e-05,1.0,0.00012382492,0.000102199614,-0.00012382865,0.99999994,1.1652708e-05,-0.000102207065,-1.1563301e-05,1.0,245,0.744,0,0,0.0,False,-0.2531457534307875,1.0496598279610654
0.7759280919563025,12:08:44.787505,12:07:44.325557,0,,0.1327014,0.009334452,0.02801022,-0.59114444,-0.4397558,-0.6761382,-0.67837214,-0.1823869,0.7117207,-0.43630195,0.879403,-0.19050111,,-0.03063567,-0.060269266,0.05989057,0.7467672,0.25160307,-0.61565775,0.333606,-0.94251156,0.019470602,-0.57536566,-0.21992701,-0.787773,,0.09567519,1.3379706,0.44839105,0.9948141,-0.009655941,-0.10125076,-0.07171068,-0.77254254,-0.6309007,-0.07212858,0.6348896,-0.7692286,,-0.09439966,0.25239766,-0.09440186,0.58946943,0.34630767,0.7297923,-0.7892186,0.43951425,0.42890707,-0.1722203,-0.8287932,0.5323926,,0.0757905,0.40206754,-0.42910758,-0.6705725,-0.21689205,0.7094296,-0.3226584,-0.77584183,-0.54218173,0.66800004,-0.5924756,0.45027617,,0.949185652105186,0.387047926190384,0.16715011405000002,0.12686241580813723,-0.07173416237685623,1.0676352338772677,-0.4055833162114154,,-0.8866932976869613,-0.2114175351647702,0.13664841035000003,4.537900066948591,0.6491600103856076,-0.28806746208647727,0.8748708182151996,,-0.037993636154351564,-0.09291914771461311,0.09128296528,-0.07163176773016745,,-0.00015874207,-4.172325e-06,1.21593475e-05,1.0,0.00012382492,0.000102199614,-0.00012382865,0.99999994,1.1652708e-05,-0.000102207065,-1.1563301e-05,1.0,256,0.778,0,0,0.0,False,-0.2529074425567037,1.0499977893665218
0.797502022003755,12:08:44.825246,12:07:44.464296,0,,0.13260294,0.009403102,0.02822557,-0.58795255,-0.4487772,-0.6729863,-0.67351675,-0.18916222,0.7145578,-0.4479807,0.87339365,-0.19104064,,-0.030645013,-0.060271785,0.059890628,0.74671996,0.2516018,-0.6157156,0.33360636,-0.9425119,0.01944545,-0.57542676,-0.21992683,-0.7877285,,0.09567519,1.3379706,0.44839105,0.9948141,-0.009655941,-0.10125076,-0.07171068,-0.77254254,-0.6309007,-0.07212858,0.6348896,-0.7692286,,-0.09431766,0.2525913,-0.09453054,0.5876404,0.35544568,0.72686803,-0.79316074,0.43061182,0.43066168,-0.15992112,-0.8295974,0.53497046,,0.07579978,0.40206698,-0.42911026,-0.670518,-0.21689083,0.70948154,-0.32270116,-0.7758418,-0.54215634,0.66803414,-0.59247607,0.45022497,,0.9503595075020682,0.3870402034575098,0.16699196667000002,0.12350737671238485,-0.05889033139890483,1.0643496800621735,-0.4049299399468783,,-0.8866160703582191,-0.2114175351647702,0.13664841035000003,4.537900066948591,0.6491600103856076,-0.28806746208647727,0.8748708182151996,,-0.037993636154351564,-0.09291914771461311,0.09128296528,-0.07163176773016745,,-0.00015874207,-4.172325e-06,1.21593475e-05,1.0,0.00012382492,0.000102199614,-0.00012382865,0.99999994,1.1652708e-05,-0.000102207065,-1.1563301e-05,1.0,264,0.802,0,0,0.0,False,-0.2538011083345184,1.049804668563404
0.8352722199633718,12:08:44.845671,12:07:44.464296,0,,0.1325324,0.009411998,0.028322488,-0.58754164,-0.45082462,-0.671976,-0.67187554,-0.19101983,0.7156079,-0.4509743,0.8719337,-0.19066596,,-0.030645013,-0.060271785,0.059890628,0.74671996,0.2516018,-0.6157156,0.33360636,-0.9425119,0.01944545,-0.57542676,-0.21992683,-0.7877285,,0.09567519,1.3379706,0.44839105,0.9948141,-0.009655941,-0.10125076,-0.07171068,-0.77254254,-0.6309007,-0.07212858,0.6348896,-0.7692286,,-0.0942559,0.25266215,-0.09460547,0.5875988,0.3575103,0.7258885,-0.79386276,0.42828566,0.43168655,-0.15655524,-0.82991433,0.53547424,,0.07579978,0.40206698,-0.42911026,-0.670518,-0.21689083,0.70948154,-0.32270116,-0.7758418,-0.54215634,0.66803414,-0.59247607,0.45022497,,0.9509541579333834,0.3869861443273902,0.16690770782000003,0.12308799682541581,-0.05533778240500338,1.0634947830695807,-0.4070534128066241,,-0.8866160703582191,-0.2114175351647702,0.13664841035000003,4.537900066948591,0.6491600103856076,-0.28806746208647727,0.8748708182151996,,-0.037993636154351564,-0.09291914771461311,0.09128296528,-0.07163176773016745,,-0.00015874207,-4.172325e-06,1.21593475e-05,1.0,0.00012382492,0.000102199614,-0.00012382865,0.99999994,1.1652708e-05,-0.000102207065,-1.1563301e-05,1.0,272,0.826,0,0,0.0,False,-0.25344364202339253,1.0499495091657423
0.8556920819683,12:08:44.876250,12:07:44.464296,0,,0.13240159,0.009434648,0.028437108,-0.58621585,-0.45374405,-0.67116845,-0.67074096,-0.19281009,0.716192,-0.45437586,0.8700232,-0.19131646,,-0.030645952,-0.060272023,0.05989057,0.7467152,0.25160167,-0.6157214,0.33360648,-0.9425119,0.019442946,-0.57543284,-0.21992683,-0.787724,,0.09567519,1.3379706,0.44839105,0.9948141,-0.009655941,-0.10125076,-0.07171068,-0.77254254,-0.6309007,-0.07212858,0.6348896,-0.7692286,,-0.094135076,0.25275597,-0.09469127,0.58665645,0.360487,0.7251781,-0.79523015,0.42573288,0.43169495,-0.15311173,-0.82994014,0.5364291,,0.07580071,0.40206692,-0.42911053,-0.6705125,-0.2168907,0.7094867,-0.32270542,-0.7758418,-0.5421538,0.66803753,-0.59247607,0.45021984,,0.9519735586727811,0.38685485786852836,0.16681048607,0.1214104772775396,-0.05151196041157105,1.0616002628681893,-0.4062366924759525,,-0.8866083476253448,-0.2114175351647702,0.13664841035000003,4.537900066948591,0.6491600103856076,-0.28806746208647727,0.8748708182151996,,-0.037993636154351564,-0.09291914771461311,0.09128296528,-0.07163176773016745,,-0.00015874207,-4.172325e-06,1.21593475e-05,1.0,0.00012382492,0.000102199614,-0.00012382865,0.99999994,1.1652708e-05,-0.000102207065,-1.1563301e-05,1.0,280,0.851,0,0,0.0,False,-0.2537415306159976,1.0496598279610654
0.886274382006377,12:08:44.904062,12:07:44.464296,0,,0.13227832,0.009472437,0.028590307,-0.58337814,-0.4605688,-0.6689889,-0.6678215,-0.1967844,0.7178373,-0.46226,0.8655356,-0.19277802,,-0.030643836,-0.060272485,0.059890628,0.7467259,0.25160208,-0.61570823,0.33360186,-0.9425135,0.01944226,-0.5754217,-0.21991935,-0.78773427,,0.09567519,1.3379706,0.44839105,0.9948141,-0.009655941,-0.10125076,-0.07171068,-0.77254254,-0.6309007,-0.07212858,0.6348896,-0.7692286,,-0.09402445,0.25288624,-0.09479563,0.58472246,0.36745945,0.723238,-0.7981754,0.41991168,0.43196094,-0.14496797,-0.829848,0.53882885,,0.07579861,0.40206644,-0.42911074,-0.6705245,-0.21689203,0.709475,-0.3227006,-0.77583694,-0.54216355,0.6680279,-0.5924819,0.4502265,,0.9530856322066694,0.38666178954667274,0.16668863481,0.11826512812527173,-0.04276722442658286,1.0581450603379436,-0.4057466602775497,,-0.8866237930910933,-0.2114252578976444,0.13664841035000003,4.537900066948591,0.6491600103856076,-0.28806746208647727,0.8748708182151996,,-0.037993636154351564,-0.09291914771461311,0.09128296528,-0.07163176773016745,,-0.00015874207,-4.172325e-06,1.21593475e-05,1.0,0.00012382492,0.000102199614,-0.00012382865,0.99999994,1.1652708e-05,-0.000102207065,-1.1563301e-05,1.0,299,0.909,0,0,0.0,False,-0.25344364202339253,1.05014262996886
0.9140862579224631,12:08:44.946564,12:07:44.464296,0,,0.13210668,0.009543873,0.028801858,-0.57839143,-0.4691604,-0.6673468,-0.6633497,-0.20564273,0.7194987,-0.47479522,0.85883605,-0.19227546,,-0.030645013,-0.060271785,0.059890628,0.74671996,0.2515515,-0.6157361,0.33360636,-0.9425103,0.019522429,-0.57542676,-0.21999118,-0.7877104,,0.09567519,1.3379706,0.44839105,0.9948141,-0.009655941,-0.10125076,-0.07171068,-0.77254254,-0.6309007,-0.07212858,0.6348896,-0.7692286,,-0.093869165,0.25308076,-0.09492741,0.58116585,0.376116,0.721653,-0.8029952,0.40896988,0.43352318,-0.13207932,-0.83143276,0.53969866,,0.07579978,0.40206698,-0.42911026,-0.670518,-0.21683288,0.70949924,-0.32270116,-0.77588606,-0.5420929,0.66803414,-0.5924393,0.45027333,,0.9547151288431308,0.38637604843032647,0.16652919114,0.11260349965118958,-0.028693664950742496,1.0560620713733768,-0.4064000365420869,,-0.8866160703582191,-0.2114175351647702,0.13664841035000003,4.537900066948591,0.6491600103856076,-0.2881491408266178,0.8750341622813339,,-0.037993636154351564,-0.09291914771461311,0.09128296528,-0.07163176773016745,,-0.00015874207,-4.172325e-06,1.21593475e-05,1.0,0.00012382492,0.000102199614,-0.00012382865,0.99999994,1.1652708e-05,-0.000102207065,-1.1563301e-05,1.0,303,0.922,0,0,0.0,False,-0.254218152364166,1.0498529487641832
0.9565711099421605,12:08:44.968944,12:07:44.633416,0,,0.13198824,0.009598814,0.028982759,-0.57302123,-0.47908652,-0.66492295,-0.6588906,-0.21315813,0.72140616,-0.48734957,0.85149246,-0.19352154,,-0.030645952,-0.060272023,0.05989057,0.7467152,0.2515514,-0.6157419,0.33360648,-0.9425103,0.019519925,-0.57543284,-0.21999118,-0.787706,,0.09567519,1.3379706,0.44839105,0.9948141,-0.009655941,-0.10125076,-0.07171068,-0.77254254,-0.6309007,-0.07212858,0.6348896,-0.7692286,,-0.0937649,0.25324196,-0.095041044,0.5772291,0.38623407,0.71946496,-0.8078436,0.3986537,0.4341243,-0.119143754,-0.83180434,0.54213125,,0.07580071,0.40206692,-0.42911053,-0.6705125,-0.21683274,0.7095044,-0.32270542,-0.77588606,-0.5420904,0.66803753,-0.5924393,0.45026824,,0.9559044297057614,0.3860748618482317,0.16639826585,0.10715156112059195,-0.015166651473963889,1.0526278217405034,-0.4057466602775496,,-0.8866083476253448,-0.2114175351647702,0.13664841035000003,4.537900066948591,0.6491600103856076,-0.2881491408266178,0.8750341622813339,,-0.037993636154351564,-0.09291914771461311,0.09128296528,-0.07163176773016745,,-0.00015874207,-4.172325e-06,1.21593475e-05,1.0,0.00012382492,0.000102199614,-0.00012382865,0.99999994,1.1652708e-05,-0.000102207065,-1.1563301e-05,1.0,315,0.957,0,0,0.0,False,-0.2529074425567037,1.050046069567301
0.9789692679187283,12:08:45.003819,12:07:44.633416,0,,0.13186222,0.009635292,0.029137075,-0.5706659,-0.4825048,-0.6644767,-0.65375155,-0.22272903,0.7231879,-0.49693984,0.8471013,-0.1883344,,-0.030645013,-0.060271785,0.059890628,0.74671996,0.2515515,-0.6157361,0.33360636,-0.9425103,0.019522429,-0.57542676,-0.21999118,-0.7877104,,0.09567519,1.3379706,0.44839105,0.9948141,-0.009655941,-0.10125076,-0.07171068,-0.77254254,-0.6309007,-0.07212858,0.6348896,-0.7692286,,-0.093651704,0.25337198,-0.09514738,0.57605624,0.38949555,0.7186462,-0.8102003,0.38858184,0.43883905,-0.10832701,-0.8350433,0.5394144,,0.07579978,0.40206698,-0.42911026,-0.670518,-0.21683288,0.70949924,-0.32270116,-0.77588606,-0.5420929,0.66803414,-0.5924393,0.45027333,,0.9570396714382724,0.38571189340314316,0.16627771088,0.10505466168574669,-0.003689185493666892,1.0554388501109477,-0.40591000434368396,,-0.8866160703582191,-0.2114175351647702,0.13664841035000003,4.537900066948591,0.6491600103856076,-0.2881491408266178,0.8750341622813339,,-0.037993636154351564,-0.09291914771461311,0.09128296528,-0.07163176773016745,,-0.00015874207,-4.172325e-06,1.21593475e-05,1.0,0.00012382492,0.000102199614,-0.00012382865,0.99999994,1.1652708e-05,-0.000102207065,-1.1563301e-05,1.0,323,0.982,0,0,0.0,False,-0.25302659799374494,1.050432311173537
1.0138444839976728,12:08:45.025603,12:07:44.633416,0,,0.13175778,0.009628765,0.029239774,-0.5679172,-0.48433542,-0.66549903,-0.6527872,-0.22743756,0.72259325,-0.501337,0.8448024,-0.18700236,,-0.030645698,-0.06027299,0.059890628,0.74671644,0.25155154,-0.61574036,0.33360195,-0.94251204,0.019514203,-0.5754339,-0.21998367,-0.78770745,,0.09567519,1.3379706,0.44839105,0.9948141,-0.009655941,-0.10125076,-0.07171068,-0.77254254,-0.6309007,-0.07212858,0.6348896,-0.7692286,,-0.09355765,0.25343543,-0.09524025,0.5737809,0.3912609,0.71950704,-0.8123673,0.3835394,0.4392686,-0.1040907,-0.8365479,0.5379151,,0.07580046,0.40206632,-0.42911127,-0.6705136,-0.21683383,0.7095031,-0.3227091,-0.77588123,-0.5420951,0.66803473,-0.59244525,0.45026466,,0.9578042219928206,0.3854338750196711,0.16617919284000002,0.10190931253347883,0.0010930919981235235,1.0565216266301474,-0.40705341280662377,,-0.8866083476253448,-0.2114252578976444,0.13664841035000003,4.537900066948591,0.6491600103856076,-0.2881491408266178,0.8750341622813339,,-0.037993636154351564,-0.09291914771461311,0.09128296528,-0.07163176773016745,,-0.00015874207,-4.172325e-06,1.21593475e-05,1.0,0.00012382492,0.000102199614,-0.00012382865,0.99999994,1.1652708e-05,-0.000102207065,-1.1563301e-05,1.0,331,1.007,0,0,0.0,False,-0.2536223751789555,1.0501909101696396
1.0356303079752252,12:08:45.049108,12:07:44.633416,0,,0.13158283,0.009627201,0.029353797,-0.5659025,-0.487238,-0.6650966,-0.65192765,-0.22939709,0.7227498,-0.50472224,0.8426007,-0.18782762,,-0.03064476,-0.06027274,0.059890628,0.7467212,0.25160196,-0.615714,0.3336019,-0.9425136,0.019439757,-0.5754278,-0.2199193,-0.78772986,,0.09567519,1.3379706,0.44839105,0.9948141,-0.009655941,-0.10125076,-0.07171068,-0.77254254,-0.6309007,-0.07212858,0.6348896,-0.7692286,,-0.09339425,0.2535112,-0.09534597,0.57213664,0.39423794,0.7191913,-0.8139449,0.3806686,0.43884525,-0.1007641,-0.83646154,0.5386824,,0.07579953,0.40206638,-0.429111,-0.67051905,-0.21689191,0.70948017,-0.32270485,-0.77583694,-0.54216105,0.6680313,-0.592482,0.4502214,,0.9590089683211996,0.38504773837595985,0.16606771190000003,0.09939303321166454,0.005055550491321297,1.0545156885250595,-0.4062366924759526,,-0.8866160703582191,-0.2114252578976444,0.13664841035000003,4.537900066948591,0.6491600103856076,-0.28806746208647727,0.8751975063474682,,-0.037993636154351564,-0.09291914771461311,0.09128296528,-0.07163176773016745,,-0.00015874207,-4.172325e-06,1.21593475e-05,1.0,0.00012382492,0.000102199614,-0.00012382865,0.99999994,1.1652708e-05,-0.000102207065,-1.1563301e-05,1.0,339,1.031,0,0,0.0,False,-0.2537415306159976,1.0500943497680806
1.0591230880236253,12:08:45.075319,12:07:44.633416,0,,0.13148382,0.009649314,0.029430002,-0.5633942,-0.4923234,-0.66347903,-0.6501655,-0.23130828,0.72372746,-0.509776,0.83911496,-0.189774,,-0.030645013,-0.060271785,0.059890628,0.74671996,0.2516018,-0.6157156,0.33360636,-0.9425119,0.01944545,-0.57542676,-0.21992683,-0.7877285,,0.09567519,1.3379706,0.44839105,0.9948141,-0.009655941,-0.10125076,-0.07171068,-0.77254254,-0.6309007,-0.07212858,0.6348896,-0.7692286,,-0.093301564,0.25357914,-0.095399745,0.57020557,0.39950565,0.7178167,-0.8159273,0.37703755,0.4382981,-0.0955413,-0.83560634,0.5409565,,0.07579978,0.40206698,-0.42911026,-0.670518,-0.21689083,0.70948154,-0.32270116,-0.7758418,-0.54215634,0.66803414,-0.59247607,0.45022497,,0.9597966870743705,0.38476971999248777,0.16600808256000002,0.09666706394636573,0.010794283481469795,1.0511429964120587,-0.40591000434368396,,-0.8866160703582191,-0.2114175351647702,0.13664841035000003,4.537900066948591,0.6491600103856076,-0.28806746208647727,0.8751975063474682,,-0.037993636154351564,-0.09291914771461311,0.09128296528,-0.07163176773016745,,-0.00015874207,-4.172325e-06,1.21593475e-05,1.0,0.00012382492,0.000102199614,-0.00012382865,0.99999994,1.1652708e-05,-0.000102207065,-1.1563301e-05,1.0,347,1.056,0,0,0.0,False,-0.2539202637715605,1.0499977893665218
1.085335421958007,12:08:45.104969,12:07:44.633416,0,,0.13128261,0.009642072,0.029493824,-0.5594847,-0.4907649,-0.667927,-0.65261346,-0.23594317,0.7200185,-0.51095253,0.83873737,-0.18827325,,-0.030645013,-0.060271785,0.059890628,0.74671996,0.2516018,-0.6157156,0.33360636,-0.9425119,0.01944545,-0.57542676,-0.21992683,-0.7877285,,0.09567519,1.3379706,0.44839105,0.9948141,-0.009655941,-0.10125076,-0.07171068,-0.77254254,-0.6309007,-0.07212858,0.6348896,-0.7692286,,-0.09310778,0.25361842,-0.095474005,0.5662886,0.39772952,0.7218923,-0.8186181,0.3732416,0.43652615,-0.0958209,-0.8381539,0.53695107,,0.07579978,0.40206698,-0.42911026,-0.670518,-0.21689083,0.70948154,-0.32270116,-0.7758418,-0.54215634,0.66803414,-0.59247607,0.45022497,,0.9610477697999948,0.38430635602003427,0.16593289774000003,0.09142481535925262,0.011340829480531557,1.054291189363458,-0.4075434450050267,,-0.8866160703582191,-0.2114175351647702,0.13664841035000003,4.537900066948591,0.6491600103856076,-0.28806746208647727,0.8751975063474682,,-0.037993636154351564,-0.09291914771461311,0.09128296528,-0.07163176773016745,,-0.00015874207,-4.172325e-06,1.21593475e-05,1.0,0.00012382492,0.000102199614,-0.00012382865,0.99999994,1.1652708e-05,-0.000102207065,-1.1563301e-05,1.0,355,1.08,0,0,0.0,False,-0.25350321974191337,1.0502874705711984
1.1149965709773824,12:08:45.128235,12:07:44.771484,0,,0.13116392,0.009664066,0.029536799,-0.55545634,-0.4942507,-0.6687184,-0.653049,-0.2385594,0.7187605,-0.51477677,0.83594584,-0.19026062,,-0.030645013,-0.060271785,0.059890628,0.74671996,0.25165206,-0.61569506,0.33360636,-0.94251347,0.01936847,-0.57542676,-0.21986255,-0.7877464,,0.09567519,1.3379706,0.44839105,0.9948141,-0.009655941,-0.10125076,-0.07171068,-0.77254254,-0.6309007,-0.07212858,0.6348896,-0.7692286,,-0.092992485,0.25366503,-0.095504835,0.5626097,0.40130353,0.7227903,-0.8214992,0.36949822,0.4342926,-0.09278657,-0.8381089,0.53755385,,0.07579978,0.40206698,-0.42911026,-0.670518,-0.21694876,0.7094638,-0.32270116,-0.77579755,-0.5422197,0.66803414,-0.59251285,0.45017657,,0.9618895476832854,0.3839742785064426,0.16589919420000002,0.08660194665910856,0.015030014974198449,1.052508087065763,-0.4057466602775498,,-0.8866160703582191,-0.2114175351647702,0.13664841035000003,4.537900066948591,0.6491600103856076,-0.2879857833463367,0.8753608504136026,,-0.037993636154351564,-0.09291914771461311,0.09128296528,-0.07163176773016745,,-0.00015874207,-4.172325e-06,1.21593475e-05,1.0,0.00012382492,0.000102199614,-0.00012382865,0.99999994,1.1652708e-05,-0.000102207065,-1.1563301e-05,1.0,380,1.158,0,0,0.0,False,-0.2545756186752919,1.0495632675595068
1.1382287809392437,12:08:45.200589,12:07:44.771484,0,,0.1306955,0.009732969,0.02965103,-0.54045933,-0.5072779,-0.67124707,-0.6478486,-0.25813583,0.7166995,-0.53683865,0.8222133,-0.18912745,,-0.03064476,-0.06027274,0.059890628,0.7467212,0.2516522,-0.61569345,0.3336019,-0.94251513,0.019362777,-0.5754278,-0.21985501,-0.78774774,,0.09567519,1.3379706,0.44839105,0.9948141,-0.009655941,-0.10125076,-0.07171068,-0.77254254,-0.6309007,-0.07212858,0.6348896,-0.7692286,,-0.09253337,0.2537994,-0.09559631,0.5500153,0.4144105,0.72508425,-0.8321167,0.3459144,0.43350318,-0.0711688,-0.84178805,0.5350961,,0.07579953,0.40206638,-0.429111,-0.67051905,-0.21694985,0.70946246,-0.32270485,-0.77579266,-0.5422244,0.6680313,-0.59251875,0.450173,,0.965109927291837,0.38181191330165976,0.16580715761,0.07003644112383114,0.039897857931508615,1.0519962837070302,-0.40607334840981824,,-0.8866160703582191,-0.2114252578976444,0.13664841035000003,4.537900066948591,0.6491600103856076,-0.2879857833463367,0.8753608504136026,,-0.037993636154351564,-0.09291914771461311,0.09128296528,-0.07163176773016745,,-0.00015874207,-4.172325e-06,1.21593475e-05,1.0,0.00012382492,0.000102199614,-0.00012382865,0.99999994,1.1652708e-05,-0.000102207065,-1.1563301e-05,1.0,388,1.183,0,0,0.0,False,-0.2537415306159976,1.0502391903704191
1.2105803330196068,12:08:45.226271,12:07:44.771484,0,,0.13057567,0.009731285,0.029661968,-0.5350388,-0.5083048,-0.6748034,-0.6475428,-0.26626915,0.7139952,-0.5426064,0.81897914,-0.1866848,,-0.030645698,-0.06027299,0.059890628,0.74671644,0.2516521,-0.61569923,0.33360195,-0.94251525,0.019360244,-0.5754339,-0.21985498,-0.78774333,,0.09567519,1.3379706,0.44839105,0.9948141,-0.009655941,-0.10125076,-0.07171068,-0.77254254,-0.6309007,-0.07212858,0.6348896,-0.7692286,,-0.09241533,0.25380725,-0.09561841,0.54517215,0.41526943,0.7282435,-0.8357189,0.33764684,0.4330918,-0.06603934,-0.8447165,0.5311242,,0.07580046,0.40206632,-0.42911127,-0.6705136,-0.21694973,0.70946765,-0.3227091,-0.77579266,-0.54222184,0.66803473,-0.5925188,0.45016786,,0.9658358641820141,0.38112459007585375,0.16578900955,0.06395543276277993,0.04604650042095343,1.0556404244955908,-0.4073801009388923,,-0.8866083476253448,-0.2114252578976444,0.13664841035000003,4.537900066948591,0.6491600103856076,-0.2879857833463367,0.8753608504136026,,-0.037993636154351564,-0.09291914771461311,0.09128296528,-0.07163176773016745,,-0.00015874207,-4.172325e-06,1.21593475e-05,1.0,0.00012382492,0.000102199614,-0.00012382865,0.99999994,1.1652708e-05,-0.000102207065,-1.1563301e-05,1.0,396,1.207,0,0,0.0,False,-0.2552905512975445,1.049708108161845
1.236299104988575,12:08:45.250720,12:07:44.904658,0,,0.13046306,0.009729587,0.029680818,-0.5282678,-0.5143881,-0.6755279,-0.64749813,-0.27060527,0.71240366,-0.5492532,0.8137429,-0.19011334,,-0.030646876,-0.060272276,0.059890628,0.74671054,0.25165182,-0.6157066,0.33360648,-0.9425135,0.019363463,-0.575439,-0.21986243,-0.7877375,,0.09567519,1.3379706,0.44839105,0.9948141,-0.009655941,-0.10125076,-0.07171068,-0.77254254,-0.6309007,-0.07212858,0.6348896,-0.7692286,,-0.092305206,0.25382006,-0.0956457,0.5390523,0.42155296,0.7291884,-0.84011304,0.3310521,0.42966798,-0.06027155,-0.8442142,0.53260654,,0.07580163,0.40206686,-0.4291108,-0.6705071,-0.21694852,0.7094742,-0.3227097,-0.7757975,-0.5422146,0.668041,-0.5925129,0.4501663,,0.9665231874078201,0.380444989582922,0.16576567633000003,0.05640659479733705,0.05287832540922545,1.052683248995268,-0.40705341280662377,,-0.8866006248924706,-0.2114175351647702,0.13664841035000003,4.537900066948591,0.6491600103856076,-0.2879857833463367,0.8753608504136026,,-0.037993636154351564,-0.09291914771461311,0.09128296528,-0.07163176773016745,,-0.00015874207,-4.172325e-06,1.21593475e-05,1.0,0.00012382492,0.000102199614,-0.00012382865,0.99999994,1.1652708e-05,-0.000102207065,-1.1563301e-05,1.0,404,1.232,1,1,0.009,False,-0.2545756186752919,1.0499012289649627
1.2607368329772726,12:08:45.276093,12:07:44.904658,0,,0.13027087,0.009670503,0.029678464,-0.51741225,-0.5158835,-0.68275076,-0.65349716,-0.27689627,0.7044643,-0.5524726,0.81067413,-0.19385897,,-0.030646876,-0.060272276,0.059890628,0.74671054,0.25165182,-0.6157066,0.33360648,-0.9425135,0.019363463,-0.575439,-0.21986243,-0.7877375,,0.09567519,1.3379706,0.44839105,0.9948141,-0.009655941,-0.10125076,-0.07171068,-0.77254254,-0.6309007,-0.07212858,0.6348896,-0.7692286,,-0.092117235,0.25377682,-0.09570258,0.5282167,0.42296642,0.73626524,-0.8469467,0.32430083,0.42131966,-0.060567357,-0.84612554,0.5295311,,0.07580163,0.40206686,-0.4291108,-0.6705071,-0.21694852,0.7094742,-0.3227097,-0.7757975,-0.5422146,0.668041,-0.5925129,0.4501663,,0.9674344698869786,0.37951826163801505,0.16571900989000002,0.043196128357812016,0.05410805390711442,1.0540491713260765,-0.40656338060822095,,-0.8866006248924706,-0.2114175351647702,0.13664841035000003,4.537900066948591,0.6491600103856076,-0.2879857833463367,0.8753608504136026,,-0.037993636154351564,-0.09291914771461311,0.09128296528,-0.07163176773016745,,-0.00015874207,-4.172325e-06,1.21593475e-05,1.0,0.00012382492,0.000102199614,-0.00012382865,0.99999994,1.1652708e-05,-0.000102207065,-1.1563301e-05,1.0,417,1.273,1,1,0.05,False,-0.2539202637715605,1.0496115477602863
1.286114802933298,12:08:45.310590,12:07:44.904658,0,,0.13010806,0.009646989,0.029722095,-0.51123726,-0.5214004,-0.68321145,-0.65321594,-0.28087828,0.7031475,-0.5585205,0.8057598,-0.19699165,,-0.03064476,-0.06027274,0.059890628,0.7467212,0.2516522,-0.61569345,0.3336019,-0.94251513,0.019362777,-0.5754278,-0.21985501,-0.78774774,,0.09567519,1.3379706,0.44839105,0.9948141,-0.009655941,-0.10125076,-0.07171068,-0.77254254,-0.6309007,-0.07212858,0.6348896,-0.7692286,,-0.09196068,0.25379,-0.09576804,0.5226479,0.42867732,0.73693615,-0.8507622,0.3181748,0.41829237,-0.055162083,-0.84557706,0.53099585,,0.07579953,0.40206638,-0.429111,-0.67051905,-0.21694985,0.70946246,-0.32270485,-0.77579266,-0.5422244,0.6680313,-0.59251875,0.450173,,0.968376643297634,0.3786842064875988,0.16565938055,0.03627636022282271,0.060666605895855555,1.0509064379324435,-0.4062366924759524,,-0.8866160703582191,-0.2114252578976444,0.13664841035000003,4.537900066948591,0.6491600103856076,-0.2879857833463367,0.8753608504136026,,-0.037993636154351564,-0.09291914771461311,0.09128296528,-0.07163176773016745,,-0.00015874207,-4.172325e-06,1.21593475e-05,1.0,0.00012382492,0.000102199614,-0.00012382865,0.99999994,1.1652708e-05,-0.000102207065,-1.1563301e-05,1.0,434,1.326,1,1,0.103,False,-0.2550522404234603,1.0498529487641832
1.320616498007439,12:08:45.368661,12:07:44.904658,0,,0.12981617,0.009687461,0.029908031,-0.50192845,-0.53344345,-0.6808125,-0.64168,-0.2981161,0.7066637,-0.57992625,0.7915584,-0.19266708,,-0.030645698,-0.06027299,0.059890628,0.74671644,0.2516521,-0.61569923,0.33360195,-0.94251525,0.019360244,-0.5754339,-0.21985498,-0.78774333,,0.09567519,1.3379706,0.44839105,0.9948141,-0.009655941,-0.10125076,-0.07171068,-0.77254254,-0.6309007,-0.07212858,0.6348896,-0.7692286,,-0.09168528,0.25394636,-0.095913306,0.51600564,0.44098064,0.73435295,-0.8560404,0.29604855,0.42373353,-0.03054584,-0.8472847,0.53025997,,0.07580046,0.40206632,-0.42911127,-0.6705136,-0.21694973,0.70946765,-0.3227091,-0.77579266,-0.54222184,0.66803473,-0.5925188,0.45016786,,0.9705003948380457,0.3770547098511375,0.16552067752000002,0.027888762483441742,0.08731072335011646,1.0495996317467817,-0.40868685346796674,,-0.8866083476253448,-0.2114252578976444,0.13664841035000003,4.537900066948591,0.6491600103856076,-0.2879857833463367,0.8753608504136026,,-0.037993636154351564,-0.09291914771461311,0.09128296528,-0.07163176773016745,,-0.00015874207,-4.172325e-06,1.21593475e-05,1.0,0.00012382492,0.000102199614,-0.00012382865,0.99999994,1.1652708e-05,-0.000102207065,-1.1563301e-05,1.0,443,1.355,1,1,0.132,False,-0.2545756186752919,1.0500943497680806
1.3786874660290778,12:08:45.401187,12:07:44.904658,0,,0.12964514,0.009683989,0.029995501,-0.49709678,-0.53967816,-0.6794424,-0.63612646,-0.30588,0.7083648,-0.5901168,0.7843371,-0.19125159,,-0.03064476,-0.06027274,0.059890628,0.7467212,0.2516522,-0.61569345,0.3336019,-0.94251513,0.019362777,-0.5754278,-0.21985501,-0.78774774,,0.09567519,1.3379706,0.44839105,0.9948141,-0.009655941,-0.10125076,-0.07171068,-0.77254254,-0.6309007,-0.07212858,0.6348896,-0.7692286,,-0.09152344,0.25400335,-0.09599977,0.5124492,0.4474035,0.73295695,-0.85851294,0.285561,0.42592308,-0.018744448,-0.847517,0.5304372,,0.07579953,0.40206638,-0.429111,-0.67051905,-0.21694985,0.70946246,-0.32270485,-0.77579266,-0.5422244,0.6680313,-0.59251875,0.450173,,0.9716201911048082,0.3760584773103625,0.16544290012,0.02348527367026673,0.10029119082783329,1.048081271051224,-0.40787013313729514,,-0.8866160703582191,-0.2114252578976444,0.13664841035000003,4.537900066948591,0.6491600103856076,-0.2879857833463367,0.8753608504136026,,-0.037993636154351564,-0.09291914771461311,0.09128296528,-0.07163176773016745,,-0.00015874207,-4.172325e-06,1.21593475e-05,1.0,0.00012382492,0.000102199614,-0.00012382865,0.99999994,1.1652708e-05,-0.000102207065,-1.1563301e-05,1.0,456,1.396,1,1,0.173,False,-0.25427773008268684,1.0502874705711984
1.411167369922623,12:08:45.433214,12:07:44.904658,0,,0.12940733,0.009599991,0.030066013,-0.49132344,-0.548218,-0.67679995,-0.6326125,-0.30949384,0.7099402,-0.5986674,0.7769622,-0.19474806,,-0.030646876,-0.060272276,0.059890628,0.74671054,0.25165182,-0.6157066,0.33360648,-0.9425135,0.019363463,-0.575439,-0.21986243,-0.7877375,,0.09567519,1.3379706,0.44839105,0.9948141,-0.009655941,-0.10125076,-0.07171068,-0.77254254,-0.6309007,-0.07212858,0.6348896,-0.7692286,,-0.091298215,0.25398922,-0.096132636,0.50769126,0.4563661,0.73073906,-0.8614878,0.27816832,0.42480722,-0.009400854,-0.8451937,0.53437746,,0.07580163,0.40206686,-0.4291108,-0.6705071,-0.21694852,0.7094742,-0.3227097,-0.7757975,-0.5422146,0.668041,-0.5925129,0.4501663,,0.9728481056318099,0.3745525443998887,0.1653288266,0.017613955252700046,0.11135874730883397,1.0417518192764526,-0.40672672467435544,,-0.8866006248924706,-0.2114175351647702,0.13664841035000003,4.537900066948591,0.6491600103856076,-0.2879857833463367,0.8753608504136026,,-0.037993636154351564,-0.09291914771461311,0.09128296528,-0.07163176773016745,,-0.00015874207,-4.172325e-06,1.21593475e-05,1.0,0.00012382492,0.000102199614,-0.00012382865,0.99999994,1.1652708e-05,-0.000102207065,-1.1563301e-05,1.0,465,1.424,1,1,0.201,False,-0.25540970673458663,1.0499495091657423
1.443236861960031,12:08:45.462645,12:07:44.904658,0,,0.12929642,0.009549566,0.030100882,-0.4866963,-0.5533137,-0.67599595,-0.6313315,-0.31205344,0.70996,-0.6037773,0.77231234,-0.19744912,,-0.030646637,-0.06027323,0.059890628,0.74671173,0.25165197,-0.615705,0.33360195,-0.94251525,0.01935774,-0.57544005,-0.21985495,-0.7877388,,0.09567519,1.3379706,0.44839105,0.9948141,-0.009655941,-0.10125076,-0.07171068,-0.77254254,-0.6309007,-0.07212858,0.6348896,-0.7692286,,-0.09119398,0.25397536,-0.09620338,0.50363165,0.46171412,0.7301885,-0.8639082,0.2732887,0.42305547,-0.0042215735,-0.84387994,0.5365154,,0.075801395,0.40206626,-0.42911154,-0.67050815,-0.21694961,0.70947284,-0.3227134,-0.77579266,-0.5422193,0.66803813,-0.59251887,0.45016274,,0.9733732514672572,0.37374938018096937,0.16526919726000003,0.012791086552555985,0.1175073897982788,1.0382082309326437,-0.40672672467435533,,-0.8866006248924706,-0.2114252578976444,0.13664841035000003,4.537900066948591,0.6491600103856076,-0.2879857833463367,0.8753608504136026,,-0.037993636154351564,-0.09291914771461311,0.09128296528,-0.07163176773016745,,-0.00015874207,-4.172325e-06,1.21593475e-05,1.0,0.00012382492,0.000102199614,-0.00012382865,0.99999994,1.1652708e-05,-0.000102207065,-1.1563301e-05,1.0,474,1.453,1,1,0.23,False,-0.2548735072678969,1.049418426957168
1.472602227004245,12:08:45.494507,12:07:44.904658,0,,0.12913975,0.00949689,0.030193835,-0.4719798,-0.57019645,-0.6723919,-0.62548447,-0.32090792,0.71118724,-0.6212922,0.7562367,-0.20518698,,-0.03064476,-0.06027274,0.059890628,0.7467212,0.2516522,-0.61569345,0.3336019,-0.94251513,0.019362777,-0.5754278,-0.21985501,-0.78774774,,0.09567519,1.3379706,0.44839105,0.9948141,-0.009655941,-0.10125076,-0.07171068,-0.77254254,-0.6309007,-0.07212858,0.6348896,-0.7692286,,-0.09104971,0.25399828,-0.09632431,0.49093577,0.47947338,0.7273839,-0.87107754,0.25640216,0.4189055,0.01435122,-0.8392635,0.5435355,,0.07579953,0.40206638,-0.429111,-0.67051905,-0.21694985,0.70946246,-0.32270485,-0.77579266,-0.5422244,0.6680313,-0.59251875,0.450173,,0.9741686929533023,0.3721584972088791,0.16517327180000002,-0.0016775195478761949,0.1381395012628603,1.0273466755047451,-0.4075434450050268,,-0.8866160703582191,-0.2114252578976444,0.13664841035000003,4.537900066948591,0.6491600103856076,-0.2879857833463367,0.8753608504136026,,-0.037993636154351564,-0.09291914771461311,0.09128296528,-0.07163176773016745,,-0.00015874207,-4.172325e-06,1.21593475e-05,1.0,0.00012382492,0.000102199614,-0.00012382865,0.99999994,1.1652708e-05,-0.000102207065,-1.1563301e-05,1.0,487,1.494,1,1,0.271,False,-0.2549926627049395,1.049514987358727
1.5044746219646186,12:08:45.533187,12:07:44.904658,0,,0.12904496,0.00945244,0.030248761,-0.46225703,-0.5782338,-0.67228264,-0.6215298,-0.32947052,0.71073896,-0.6324705,0.7463878,-0.20708957,,-0.030646637,-0.06027323,0.059890628,0.74671173,0.25165197,-0.615705,0.33360195,-0.94251525,0.01935774,-0.57544005,-0.21985495,-0.7877388,,0.09567519,1.3379706,0.44839105,0.9948141,-0.009655941,-0.10125076,-0.07171068,-0.77254254,-0.6309007,-0.07212858,0.6348896,-0.7692286,,-0.09096301,0.2540017,-0.096404605,0.48251703,0.48788425,0.72742444,-0.8754891,0.24363163,0.4173277,0.026384015,-0.8382199,0.54469377,,0.075801395,0.40206626,-0.42911154,-0.67050815,-0.21694961,0.70947284,-0.3227134,-0.77579266,-0.5422193,0.66803813,-0.59251887,0.45016274,,0.9745857205285104,0.37108503733936193,0.16511234617,-0.01111356700467979,0.15152987823987346,1.0242688799959898,-0.4075434450050266,,-0.8866006248924706,-0.2114252578976444,0.13664841035000003,4.537900066948591,0.6491600103856076,-0.2879857833463367,0.8753608504136026,,-0.037993636154351564,-0.09291914771461311,0.09128296528,-0.07163176773016745,,-0.00015874207,-4.172325e-06,1.21593475e-05,1.0,0.00012382492,0.000102199614,-0.00012382865,0.99999994,1.1652708e-05,-0.000102207065,-1.1563301e-05,1.0,505,1.551,1,1,0.328,False,-0.25540970673458663,1.0500943497680806
1.543214007979259,12:08:45.592837,12:07:45.207701,0,,0.12891228,0.009387054,0.030445322,-0.44404516,-0.5978401,-0.6673911,-0.61178607,-0.34189975,0.71331793,-0.6546307,0.7250459,-0.21393138,,-0.030646876,-0.060272276,0.059890628,0.74671054,0.25165182,-0.6157066,0.33360648,-0.9425135,0.019363463,-0.575439,-0.21986243,-0.7877375,,0.09567519,1.3379706,0.44839105,0.9948141,-0.009655941,-0.10125076,-0.07171068,-0.77254254,-0.6309007,-0.07212858,0.6348896,-0.7692286,,-0.09085282,0.25408182,-0.09660944,0.46699157,0.50863254,0.72333384,-0.8827691,0.22065368,0.41476578,0.051357094,-0.8322289,0.5520485,,0.07580163,0.40206686,-0.4291108,-0.6705071,-0.21694852,0.7094742,-0.3227097,-0.7757975,-0.5422146,0.668041,-0.5925129,0.4501663,,0.975257598288568,0.3694864316343974,0.16494123589,-0.028098452426926265,0.17858390519343065,1.0120912626211063,-0.4083601653356981,,-0.8866006248924706,-0.2114175351647702,0.13664841035000003,4.537900066948591,0.6491600103856076,-0.2879857833463367,0.8753608504136026,,-0.037993636154351564,-0.09291914771461311,0.09128296528,-0.07163176773016745,,-0.00015874207,-4.172325e-06,1.21593475e-05,1.0,0.00012382492,0.000102199614,-0.00012382865,0.99999994,1.1652708e-05,-0.000102207065,-1.1563301e-05,1.0,518,1.592,1,1,0.369,False,-0.2555288621716292,1.0502874705711984
1.6028629129286855,12:08:45.633683,12:07:45.207701,0,,0.12884265,0.009419449,0.030580029,-0.42802775,-0.6124294,-0.6646219,-0.6009703,-0.3563751,0.71542406,-0.67500126,0.70563936,-0.2155135,,-0.030646637,-0.06027323,0.059890628,0.74671173,0.2516017,-0.61572564,0.33360195,-0.9425137,0.01943472,-0.57544005,-0.2199193,-0.78772086,,0.09567519,1.3379706,0.44839105,0.9948141,-0.009655941,-0.10125076,-0.07171068,-0.77254254,-0.6309007,-0.07212858,0.6348896,-0.7692286,,-0.09079411,0.25419503,-0.09669761,0.45354417,0.5241001,0.72084445,-0.8880353,0.19729201,0.41529408,0.07543884,-0.82848954,0.55490005,,0.075801395,0.40206626,-0.42911154,-0.67050815,-0.21689166,0.7094906,-0.3227134,-0.77583694,-0.5421559,0.66803813,-0.5924821,0.45021114,,0.9757441304596441,0.36841297176488025,0.16488419913000002,-0.04235736858387392,0.20413493064956803,1.0053865366741928,-0.4095035737986381,,-0.8866006248924706,-0.2114252578976444,0.13664841035000003,4.537900066948591,0.6491600103856076,-0.2880674620864772,0.8755241944797368,,-0.037993636154351564,-0.09291914771461311,0.09128296528,-0.07163176773016745,,-0.00015874207,-4.172325e-06,1.21593475e-05,1.0,0.00012382492,0.000102199614,-0.00012382865,0.99999994,1.1652708e-05,-0.000102207065,-1.1563301e-05,1.0,527,1.621,1,1,0.398,False,-0.2544564632382502,1.0499012289649627
1.6437114919535816,12:08:45.664085,12:07:45.207701,0,,0.12878452,0.009475656,0.030719787,-0.41084784,-0.62553805,-0.6632541,-0.58987975,-0.37231213,0.7165372,-0.6951587,0.68562794,-0.21602863,,-0.030646637,-0.06027323,0.059890628,0.74671173,0.2516017,-0.61572564,0.33360195,-0.9425137,0.01943472,-0.57544005,-0.2199193,-0.78772086,,0.09567519,1.3379706,0.44839105,0.9948141,-0.009655941,-0.10125076,-0.07171068,-0.77254254,-0.6309007,-0.07212858,0.6348896,-0.7692286,,-0.09074596,0.2543295,-0.09677296,0.43893698,0.5380688,0.71959454,-0.89297366,0.17240132,0.41578332,0.09966096,-0.8250817,0.55615455,,0.075801395,0.40206626,-0.42911154,-0.67050815,-0.21689166,0.7094906,-0.3227134,-0.77583694,-0.5421559,0.66803813,-0.5924821,0.45021114,,0.976184326233475,0.367509412018596,0.16484271785000001,-0.0576647344582442,0.22968595610570539,1.0000703493096688,-0.40787013313729525,,-0.8866160703582191,-0.2114252578976444,0.13664841035000003,4.537900066948591,0.6491600103856076,-0.2880674620864772,0.8755241944797368,,-0.037993636154351564,-0.09291914771461311,0.09128296528,-0.07163176773016745,,-0.00015874207,-4.172325e-06,1.21593475e-05,1.0,0.00012382492,0.000102199614,-0.00012382865,0.99999994,1.1652708e-05,-0.000102207065,-1.1563301e-05,1.0,536,1.65,1,1,0.427,False,-0.25481392954937654,1.049804668563404
1.6740927859209478,12:08:45.695492,12:07:45.342739,0,,0.1285813,0.009506486,0.030830592,-0.38930985,-0.6419272,-0.6605808,-0.5771471,-0.38892406,0.7180803,-0.7178711,0.660808,-0.21907443,,-0.030625246,-0.06028047,0.05990833,0.74668306,0.25179565,-0.6156808,0.33373845,-0.9424679,0.019307882,-0.57539785,-0.21989337,-0.7877589,,0.095651306,1.3379714,0.44839343,0.99481505,-0.009645135,-0.10124194,-0.071696766,-0.77254266,-0.63090205,-0.07212858,0.6348896,-0.7692286,,-0.09053022,0.25442642,-0.096858956,0.4203323,0.5557074,0.71729356,-0.89839023,0.14393765,0.41494206,0.12734084,-0.8188231,0.55974376,,0.07580146,0.40207386,-0.42912564,-0.6704883,-0.21707402,0.7094535,-0.3226017,-0.7758101,-0.5422608,0.668112,-0.5924505,0.45014313,,0.976670858404551,0.3658876381150088,0.16479345883000002,-0.07716589920230496,0.2594727130545714,0.9905650982692906,-0.4064000365420868,,-0.8866160703582191,-0.2114175351647702,0.13664841035000003,4.537690377005107,0.6491600103856076,-0.2880674620864772,0.8755241944797368,,-0.037993636154351564,-0.09291914771461311,0.09128296528,-0.07163176773016745,,-0.00018274039,-3.2186508e-06,1.2278557e-05,0.99999994,0.00013458356,0.00011107698,-0.00013459101,1.0,1.2636185e-05,-0.00011108443,-1.2606382e-05,0.99999994,545,1.678,1,1,0.455,False,-0.25481392954937654,1.0497563883626244
1.7054810979170725,12:08:45.722845,12:07:45.342739,0,,0.1284998,0.009466864,0.030873924,-0.37641343,-0.64942896,-0.66072285,-0.5735389,-0.39673412,0.71669745,-0.72757536,0.6487248,-0.2231367,,-0.030626275,-0.060282957,0.059905827,0.7466053,0.25199315,-0.6156943,0.33388585,-0.9424187,0.01916182,-0.57541335,-0.21987814,-0.7877519,,0.095651306,1.3379714,0.44839343,0.99481505,-0.009645135,-0.10124194,-0.071696766,-0.77254266,-0.63090205,-0.07212858,0.6348896,-0.7692286,,-0.090455405,0.25442576,-0.096925974,0.4086037,0.5638331,0.7177292,-0.90216166,0.13028017,0.41125587,0.13837379,-0.8155485,0.5619016,,0.075802825,0.40207043,-0.4291261,-0.67041,-0.21727216,0.7094669,-0.32251546,-0.7757882,-0.5423435,0.6682322,-0.5924065,0.4500225,,0.9768330357949098,0.36493001923860496,0.16475716271000002,-0.08974729581137643,0.271769998033461,0.9850298176443437,-0.40721675687275827,,-0.8866006248924706,-0.2114252578976444,0.13665100293000002,4.537480687061622,0.6491600103856076,-0.2880674620864772,0.8755241944797368,,-0.037993636154351564,-0.09291914771461311,0.09128296528,-0.07163176773016745,,-0.00018274039,-3.2186508e-06,1.2278557e-05,0.99999994,0.00013458356,0.00011107698,-0.00013459101,1.0,1.2636185e-05,-0.00011108443,-1.2606382e-05,0.99999994,558,1.719,1,1,0.496,False,-0.2549926627049395,1.049418426957168
1.732861176948063,12:08:45.761155,12:07:45.342739,0,,0.12835442,0.009367384,0.03100492,-0.35587028,-0.66598815,-0.65560347,-0.5603154,-0.4093969,0.7200284,-0.74793243,0.6235813,-0.22747108,,-0.030626275,-0.060282957,0.059905827,0.7466053,0.25199315,-0.6156943,0.33388585,-0.9424187,0.01916182,-0.57541335,-0.21987814,-0.7877519,,0.095651306,1.3379714,0.44839343,0.99481505,-0.009645135,-0.10124194,-0.071696766,-0.77254266,-0.63090205,-0.07212858,0.6348896,-0.7692286,,-0.09032847,0.2544376,-0.09710471,0.39079112,0.5818874,0.7132246,-0.905664,0.10460599,0.41088957,0.16448389,-0.80651385,0.5678736,,0.075802825,0.40207043,-0.4291261,-0.67041,-0.21727216,0.7094669,-0.32251546,-0.7757882,-0.5423435,0.6682322,-0.5924065,0.4500225,,0.9771033314455077,0.36289894049268395,0.16465216322,-0.10799032089453005,0.3004636629842035,0.9720052578659466,-0.406400036542087,,-0.8866006248924706,-0.2114252578976444,0.13665100293000002,4.537480687061622,0.6491600103856076,-0.2880674620864772,0.8755241944797368,,-0.037993636154351564,-0.09291914771461311,0.09128296528,-0.07163176773016745,,-0.00018274039,-3.2186508e-06,1.2278557e-05,0.99999994,0.00013458356,0.00011107698,-0.00013459101,1.0,1.2636185e-05,-0.00011108443,-1.2606382e-05,0.99999994,567,1.748,1,1,0.525,False,-0.2555288621716292,1.0499012289649627
1.7711713799508289,12:08:45.785101,12:07:45.342739,0,,0.12826125,0.009295039,0.031065658,-0.34529647,-0.67192626,-0.6551985,-0.55429816,-0.417346,0.72012216,-0.7573135,0.6118309,-0.22833937,,-0.030626275,-0.060282957,0.059905827,0.7466053,0.25199315,-0.6156943,0.33388585,-0.9424187,0.01916182,-0.57541335,-0.21987814,-0.7877519,,0.095651306,1.3379714,0.44839343,0.99481505,-0.009645135,-0.10124194,-0.071696766,-0.77254266,-0.63090205,-0.07212858,0.6348896,-0.7692286,,-0.09024549,0.25442356,-0.09720725,0.38147774,0.58842033,0.7129069,-0.9073548,0.09103263,0.4103905,0.17658433,-0.8034143,0.56863296,,0.075802825,0.40207043,-0.4291261,-0.67041,-0.21727216,0.7094669,-0.32251546,-0.7757882,-0.5423435,0.6682322,-0.5924065,0.4500225,,0.9772577861029921,0.3617559760272987,0.16458994130000001,-0.11763605829481816,0.31399067646098217,0.9679992570520891,-0.4086868534679666,,-0.8866006248924706,-0.2114252578976444,0.13665100293000002,4.537480687061622,0.6491600103856076,-0.2880674620864772,0.8755241944797368,,-0.037993636154351564,-0.09291914771461311,0.09128296528,-0.07163176773016745,,-0.00018274039,-3.2186508e-06,1.2278557e-05,0.99999994,0.00013458356,0.00011107698,-0.00013459101,1.0,1.2636185e-05,-0.00011108443,-1.2606382e-05,0.99999994,576,1.777,1,1,0.554,False,-0.25558843989015,1.0499012289649627
1.795127764926292,12:08:45.822183,12:07:45.457464,0,,0.12804176,0.009157024,0.03120403,-0.32340792,-0.6863039,-0.65145534,-0.5415238,-0.43033808,0.72219193,-0.7759892,0.5863411,-0.23247501,,-0.030626275,-0.060282957,0.059905827,0.7466053,0.25199315,-0.6156943,0.33388585,-0.9424187,0.01916182,-0.57541335,-0.21987814,-0.7877519,,0.095651306,1.3379714,0.44839343,0.99481505,-0.009645135,-0.10124194,-0.071696766,-0.77254266,-0.63090205,-0.07212858,0.6348896,-0.7692286,,-0.09004773,0.2544121,-0.09742435,0.36214814,0.6043189,0.7096812,-0.9101298,0.064846665,0.40921718,0.20127723,-0.7940992,0.5734927,,0.075802825,0.40207043,-0.4291261,-0.67041,-0.21727216,0.7094669,-0.32251546,-0.7757882,-0.5423435,0.6682322,-0.5924065,0.4500225,,0.9777443182740683,0.35943915616503136,0.16445901601000001,-0.1377662928693325,0.3415912494136011,0.9549675743617173,-0.4083601653356981,,-0.8866006248924706,-0.2114252578976444,0.13665100293000002,4.537480687061622,0.6491600103856076,-0.2880674620864772,0.8755241944797368,,-0.037993636154351564,-0.09291914771461311,0.09128296528,-0.07163176773016745,,-0.00018274039,-3.2186508e-06,1.2278557e-05,0.99999994,0.00013458356,0.00011107698,-0.00013459101,1.0,1.2636185e-05,-0.00011108443,-1.2606382e-05,0.99999994,589,1.818,1,1,0.595,False,-0.25558843989015,1.0498529487641832
1.8322065559914336,12:08:45.855414,12:07:45.457464,0,,0.127828,0.009028994,0.031273767,-0.31116012,-0.6953674,-0.6477987,-0.5340014,-0.43592754,0.7244375,-0.78614366,0.5713415,-0.23568383,,-0.030625336,-0.06028272,0.059905827,0.74661,0.25199327,-0.61568856,0.33388573,-0.9424187,0.019164324,-0.57540727,-0.21987814,-0.7877563,,0.095651306,1.3379714,0.44839343,0.99481505,-0.009645135,-0.10124194,-0.071696766,-0.77254266,-0.63090205,-0.07212858,0.6348896,-0.7692286,,-0.08984883,0.25436357,-0.09758257,0.3513262,0.61438984,0.70646656,-0.9112059,0.051010918,0.40878072,0.21511321,-0.7873519,0.5777571,,0.075801894,0.4020705,-0.42912585,-0.6704154,-0.21727228,0.7094617,-0.3225112,-0.7757882,-0.54234606,0.66822875,-0.5924065,0.4500276,,0.978354414171132,0.35758570027521747,0.16436179426000003,-0.14929923976098133,0.35757771988615766,0.9449537930144368,-0.4068900687404897,,-0.8866083476253448,-0.2114252578976444,0.13665100293000002,4.537480687061622,0.6491600103856076,-0.2880674620864772,0.8755241944797368,,-0.037993636154351564,-0.09291914771461311,0.09128296528,-0.07163176773016745,,-0.00018274039,-3.2186508e-06,1.2278557e-05,0.99999994,0.00013458356,0.00011107698,-0.00013459101,1.0,1.2636185e-05,-0.00011108443,-1.2606382e-05,0.99999994,598,1.846,1,1,0.623,False,-0.25582675076423333,1.0492253061540504
1.865439785993658,12:08:45.884965,12:07:45.457464,0,,0.12744178,0.0089023635,0.031389445,-0.29284418,-0.70649064,-0.6442926,-0.521873,-0.44651604,0.72682333,-0.80118084,0.54908484,-0.23793872,,-0.030626245,-0.060282957,0.059904516,0.7466053,0.2519429,-0.6157149,0.33388585,-0.94241714,0.0192388,-0.57541335,-0.21994245,-0.7877339,,0.095651306,1.3379714,0.44839343,0.99481505,-0.009645135,-0.10124194,-0.071696766,-0.77254266,-0.63090205,-0.07212858,0.6348896,-0.7692286,,-0.08948259,0.25434884,-0.0977929,0.33517855,0.6268921,0.7033219,-0.9120505,0.02869717,0.40907264,0.23626104,-0.77857745,0.5813759,,0.07580294,0.40206942,-0.42912534,-0.67041,-0.21721421,0.70948464,-0.32251546,-0.7758325,-0.54228014,0.6682322,-0.5923698,0.4500709,,0.9798294561501089,0.3549368028993585,0.16424383187000002,-0.1669131950136814,0.3817623803446406,0.9323388744523992,-0.40738010093889243,,-0.8866006248924706,-0.2114252578976444,0.13665229922000002,4.537480687061622,0.6491600103856076,-0.2881491408266178,0.8753608504136025,,-0.037993636154351564,-0.09291914771461311,0.09128296528,-0.07163176773016745,,-0.00018274039,-3.2186508e-06,1.2278557e-05,0.99999994,0.00013458356,0.00011107698,-0.00013459101,1.0,1.2636185e-05,-0.00011108443,-1.2606382e-05,0.99999994,620,1.916,0,1,0.658,False,-0.2555288621716292,1.05014262996886
1.8949501980096102,12:08:45.957319,12:07:45.606105,0,,0.12677933,0.008854441,0.031706125,-0.25535223,-0.7261181,-0.6383944,-0.49874792,-0.4667256,0.73035455,-0.8282788,0.5048955,-0.24297042,,-0.030627154,-0.06027999,0.059903204,0.74667245,0.25174496,-0.6157145,0.33374304,-0.9424647,0.019385517,-0.5754091,-0.21996516,-0.78773063,,0.095651306,1.3379714,0.44839343,0.99481505,-0.009645135,-0.10124194,-0.071696766,-0.77254266,-0.63090205,-0.07212858,0.6348896,-0.7692286,,-0.08885571,0.25452906,-0.09813344,0.30169144,0.6493175,0.6981182,-0.9126825,-0.015028251,0.40839303,0.27566823,-0.76036894,0.5880868,,0.07580401,0.40207028,-0.42912224,-0.6704763,-0.21701473,0.70948297,-0.32260656,-0.77585924,-0.5421877,0.66812164,-0.5924079,0.45018485,,0.98275637190944,0.35150790950320276,0.16405846240000002,-0.2040283150104422,0.4253494237698161,0.9065980119901083,-0.40738010093889265,,-0.8866006248924706,-0.21140981243189597,0.13665359551,4.537690377005107,0.6491600103856076,-0.2881491408266178,0.8750341622813339,,-0.037993636154351564,-0.09291914771461311,0.09128296528,-0.07163176773016745,,-0.00018274039,-3.2186508e-06,1.2278557e-05,0.99999994,0.00013458356,0.00011107698,-0.00013459101,1.0,1.2636185e-05,-0.00011108443,-1.2606382e-05,0.99999994,629,1.945,0,1,0.658,False,-0.25636295023092304,1.049418426957168
1.967342444928363,12:08:45.986646,12:07:45.606105,0,,0.12662359,0.008856915,0.03180103,-0.24509172,-0.7313977,-0.636386,-0.49159062,-0.47201136,0.7318087,-0.8356247,0.49220163,-0.24386209,,NaN,NaN,NaN,NaN,NaN,NaN,NaN,NaN,NaN,NaN,NaN,NaN,,0.095651306,1.3379714,0.44839343,0.99481505,-0.009645135,-0.10124194,-0.071696766,-0.77254266,-0.63090205,-0.07212858,0.6348896,-0.7692286,,-0.08870943,0.25459516,-0.098220065,0.29256725,0.6554322,0.6962851,-0.9121798,-0.027199704,0.4088864,0.28693607,-0.7547641,0.5899143,,NaN,NaN,NaN,NaN,NaN,NaN,NaN,NaN,NaN,NaN,NaN,NaN,,0.9834359724023717,0.35074335894865455,0.16401568483,-0.2140934322976994,0.43764670874870576,0.8991841203419283,-0.40803347720342953,,NaN,NaN,NaN,NaN,NaN,NaN,NaN,,-0.037993636154351564,-0.09291914771461311,0.09128296528,-0.07163176773016745,,-0.00018274039,-3.2186508e-06,1.2278557e-05,0.99999994,0.00013458356,0.00011107698,-0.00013459101,1.0,1.2636185e-05,-0.00011108443,-1.2606382e-05,0.99999994,651,2.014,0,1,0.658,False,-0.25493308498641865,1.0499495091657423
1.9966733659384772,12:08:46.047883,12:07:45.606105,0,,0.12619945,0.008820288,0.032213762,-0.20470552,-0.74565315,-0.634111,-0.46408504,-0.49645072,0.73359513,-0.86181235,0.44445238,-0.2444202,,NaN,NaN,NaN,NaN,NaN,NaN,NaN,NaN,NaN,NaN,NaN,NaN,,0.095651306,1.3379714,0.44839343,0.99481505,-0.009645135,-0.10124194,-0.071696766,-0.77254266,-0.63090205,-0.07212858,0.6348896,-0.7692286,,-0.08832766,0.25484234,-0.09860051,0.25636616,0.67260474,0.6941752,-0.90893817,-0.07654265,0.40984458,0.32879743,-0.73603266,0.5917332,,NaN,NaN,NaN,NaN,NaN,NaN,NaN,NaN,NaN,NaN,NaN,NaN,,0.9848337870526064,0.34846515275075834,0.16380179698000003,-0.25372483161627446,0.4831466631705974,0.8773558828173051,-0.408850197534101,,NaN,NaN,NaN,NaN,NaN,NaN,NaN,,-0.037993636154351564,-0.09291914771461311,0.09128296528,-0.07163176773016745,,-0.00018274039,-3.2186508e-06,1.2278557e-05,0.99999994,0.00013458356,0.00011107698,-0.00013459101,1.0,1.2636185e-05,-0.00011108443,-1.2606382e-05,0.99999994,673,2.084,0,1,0.658,False,-0.25535012901606535,1.0497563883626244
2.0578675469150767,12:08:46.124378,12:07:45.757863,0,,0.125892,0.008694753,0.032508954,-0.17247957,-0.7595962,-0.6271077,-0.44422698,-0.5082444,0.73780084,-0.8791548,0.40583366,-0.24977124,,NaN,NaN,NaN,NaN,NaN,NaN,NaN,NaN,NaN,NaN,NaN,NaN,,0.095651306,1.3379714,0.44839343,0.99481505,-0.009645135,-0.10124194,-0.071696766,-0.77254266,-0.63090205,-0.07212858,0.6348896,-0.7692286,,-0.08805613,0.25494364,-0.0989373,0.22703615,0.6893425,0.68794006,-0.9056338,-0.11034701,0.40945205,0.35816482,-0.7159822,0.59923905,,NaN,NaN,NaN,NaN,NaN,NaN,NaN,NaN,NaN,NaN,NaN,NaN,,0.9853280419565568,0.3464804104020826,0.16360346461000003,-0.2864364627998603,0.5156661501147722,0.8512468154382595,-0.4083601653356981,,NaN,NaN,NaN,NaN,NaN,NaN,NaN,,-0.037993636154351564,-0.09291914771461311,0.09128296528,-0.07163176773016745,,-0.00018274039,-3.2186508e-06,1.2278557e-05,0.99999994,0.00013458356,0.00011107698,-0.00013459101,1.0,1.2636185e-05,-0.00011108443,-1.2606382e-05,0.99999994,695,2.153,0,1,0.658,False,-0.25576717304571295,1.0498529487641832
2.1343244439922273,12:08:46.192449,12:07:45.877647,0,,0.12542146,0.008624613,0.03270869,-0.14863698,-0.7671133,-0.6240544,-0.4284405,-0.5188058,0.7397832,-0.89126074,0.37732923,-0.25154862,,NaN,NaN,NaN,NaN,NaN,NaN,NaN,NaN,NaN,NaN,NaN,NaN,,0.095651306,1.3379714,0.44839343,0.99481505,-0.009645135,-0.10124194,-0.071696766,-0.77254266,-0.63090205,-0.07212858,0.6348896,-0.7692286,,-0.08761058,0.25502783,-0.09918352,0.20533134,0.69883376,0.6851791,-0.9018862,-0.13675626,0.40975475,0.38005298,-0.7020891,0.60218817,,NaN,NaN,NaN,NaN,NaN,NaN,NaN,NaN,NaN,NaN,NaN,NaN,,0.9870656568532573,0.344325767930174,0.16347902077,-0.3124380157919413,0.5402607200725515,0.8324984526151528,-0.4090135416002352,,NaN,NaN,NaN,NaN,NaN,NaN,NaN,,-0.037993636154351564,-0.09291914771461311,0.09128296528,-0.07163176773016745,,-0.00018274039,-3.2186508e-06,1.2278557e-05,0.99999994,0.00013458356,0.00011107698,-0.00013459101,1.0,1.2636185e-05,-0.00011108443,-1.2606382e-05,0.99999994,713,2.211,1,2,0.697,False,-0.25576717304571295,1.0495632675595068
2.202472490957007,12:08:46.253861,12:07:45.877647,0,,0.12502834,0.008598357,0.032816812,-0.1377908,-0.7689456,-0.62428844,-0.42180842,-0.524729,0.7394167,-0.89615357,0.36521485,-0.25204477,,NaN,NaN,NaN,NaN,NaN,NaN,NaN,NaN,NaN,NaN,NaN,NaN,,0.095651306,1.3379714,0.44839343,0.99481505,-0.009645135,-0.10124194,-0.071696766,-0.77254266,-0.63090205,-0.07212858,0.6348896,-0.7692286,,-0.08723114,0.25508463,-0.09932392,0.1953704,0.70143205,0.68543667,-0.9002004,-0.14909402,0.4091579,0.38919097,-0.6969677,0.6023009,,NaN,NaN,NaN,NaN,NaN,NaN,NaN,NaN,NaN,NaN,NaN,NaN,,0.9889268354759454,0.3429202305470651,0.16339994708000002,-0.3256484822314663,0.5506450940547251,0.824357406894787,-0.40934022973250395,,NaN,NaN,NaN,NaN,NaN,NaN,NaN,,-0.037993636154351564,-0.09291914771461311,0.09128296528,-0.07163176773016745,,-0.00018274039,-3.2186508e-06,1.2278557e-05,0.99999994,0.00013458356,0.00011107698,-0.00013459101,1.0,1.2636185e-05,-0.00011108443,-1.2606382e-05,0.99999994,735,2.28,1,2,0.766,False,-0.2555288621716292,1.05014262996886
2.263887636945583,12:08:46.318830,12:07:45.997952,0,,0.1244636,0.008719973,0.033061907,-0.12407195,-0.768657,-0.6275128,-0.41535172,-0.5340997,0.73635626,-0.9011598,0.3519996,-0.25299615,,NaN,NaN,NaN,NaN,NaN,NaN,NaN,NaN,NaN,NaN,NaN,NaN,,0.095651306,1.3379714,0.44839343,0.99481505,-0.009645135,-0.10124194,-0.071696766,-0.77254266,-0.63090205,-0.07212858,0.6348896,-0.7692286,,-0.0866853,0.25534567,-0.09949035,0.18255398,0.70182854,0.688557,-0.8987697,-0.16480368,0.40626687,0.39860642,-0.6930198,0.6006967,,NaN,NaN,NaN,NaN,NaN,NaN,NaN,NaN,NaN,NaN,NaN,NaN,,0.9923402834063526,0.3421788481911396,0.16327939211,-0.3436818173711354,0.5600730125385404,0.8164245353193123,-0.4095035737986379,,NaN,NaN,NaN,NaN,NaN,NaN,NaN,,-0.037993636154351564,-0.09291914771461311,0.09128296528,-0.07163176773016745,,-0.00018274039,-3.2186508e-06,1.2278557e-05,0.99999994,0.00013458356,0.00011107698,-0.00013459101,1.0,1.2636185e-05,-0.00011108443,-1.2606382e-05,0.99999994,757,2.35,1,2,0.836,False,-0.2561842170753601,1.049418426957168
2.3288138599600643,12:08:46.387798,12:07:45.997952,0,,0.124100655,0.0088659,0.03330134,-0.11824819,-0.7703057,-0.6266148,-0.4093996,-0.53709227,0.73751193,-0.9046597,0.34374526,-0.2518526,,NaN,NaN,NaN,NaN,NaN,NaN,NaN,NaN,NaN,NaN,NaN,NaN,,0.095651306,1.3379714,0.44839343,0.99481505,-0.009645135,-0.10124194,-0.071696766,-0.77254266,-0.63090205,-0.07212858,0.6348896,-0.7692286,,-0.08633818,0.25561816,-0.09961534,0.17742027,0.70405567,0.68762463,-0.8966127,-0.17241007,0.40787303,0.40571874,-0.6888979,0.60067624,,NaN,NaN,NaN,NaN,NaN,NaN,NaN,NaN,NaN,NaN,NaN,NaN,,0.994966012583589,0.34220973912263647,0.1631769852,-0.3518597251670319,0.5667682010270471,0.8096581981959385,-0.4095035737986381,,NaN,NaN,NaN,NaN,NaN,NaN,NaN,,-0.037993636154351564,-0.09291914771461311,0.09128296528,-0.07163176773016745,,-0.00018274039,-3.2186508e-06,1.2278557e-05,0.99999994,0.00013458356,0.00011107698,-0.00013459101,1.0,1.2636185e-05,-0.00011108443,-1.2606382e-05,0.99999994,775,2.407,1,2,0.893,False,-0.25588632848275505,1.0494667071579475
2.3978032879531384,12:08:46.445240,12:07:46.102396,0,,0.12380457,0.008879565,0.033525154,-0.11172602,-0.7715099,-0.62633014,-0.40578598,-0.5399145,0.73744845,-0.90711355,0.33654815,-0.2527453,,NaN,NaN,NaN,NaN,NaN,NaN,NaN,NaN,NaN,NaN,NaN,NaN,,0.095651306,1.3379714,0.44839343,0.99481505,-0.009645135,-0.10124194,-0.071696766,-0.77254266,-0.63090205,-0.07212858,0.6348896,-0.7692286,,-0.086063564,0.2557788,-0.09980698,0.17136456,0.7057536,0.68741983,-0.8955667,-0.17920808,0.40724045,0.41060263,-0.6854169,0.6013395,,NaN,NaN,NaN,NaN,NaN,NaN,NaN,NaN,NaN,NaN,NaN,NaN,,0.9967808548090317,0.34189310707479326,0.1630084675,-0.3606667027933819,0.5715504785188374,0.8033082093623469,-0.4101569500631752,,NaN,NaN,NaN,NaN,NaN,NaN,NaN,,-0.037993636154351564,-0.09291914771461311,0.09128296528,-0.07163176773016745,,-0.00018274039,-3.2186508e-06,1.2278557e-05,0.99999994,0.00013458356,0.00011107698,-0.00013459101,1.0,1.2636185e-05,-0.00011108443,-1.2606382e-05,0.99999994,788,2.448,1,2,0.934,False,-0.25493308498641865,1.0499977893665218
2.4552574849221855,12:08:46.490858,12:07:46.102396,0,,0.12362191,0.00873971,0.03380023,-0.100393884,-0.7715619,-0.6281822,-0.40306368,-0.545704,0.7346747,-0.90964866,0.32695422,-0.25620317,,NaN,NaN,NaN,NaN,NaN,NaN,NaN,NaN,NaN,NaN,NaN,NaN,,0.095651306,1.3379714,0.44839343,0.99481505,-0.009645135,-0.10124194,-0.071696766,-0.77254266,-0.63090205,-0.07212858,0.6348896,-0.7692286,,-0.08591506,0.25585407,-0.10012459,0.16048402,0.7063586,0.6894218,-0.89533186,-0.18983789,0.40291744,0.41548258,-0.6819231,0.6019594,,NaN,NaN,NaN,NaN,NaN,NaN,NaN,NaN,NaN,NaN,NaN,NaN,,0.997375505240347,0.341437465835214,0.16271809854000002,-0.374296549119876,0.5766060290101588,0.7972254571622059,-0.40950357379863833,,NaN,NaN,NaN,NaN,NaN,NaN,NaN,,-0.037993636154351564,-0.09291914771461311,0.09128296528,-0.07163176773016745,,-0.00018274039,-3.2186508e-06,1.2278557e-05,0.99999994,0.00013458356,0.00011107698,-0.00013459101,1.0,1.2636185e-05,-0.00011108443,-1.2606382e-05,0.99999994,806,2.506,1,2,0.992,False,-0.25558843989015,1.050335750771978
2.500861919950694,12:08:46.548483,12:07:46.102396,0,,0.12359071,0.008537859,0.03419712,-0.09729445,-0.77583903,-0.62338376,-0.39644253,-0.54430765,0.7392987,-0.9128894,0.3190654,-0.2546174,,NaN,NaN,NaN,NaN,NaN,NaN,NaN,NaN,NaN,NaN,NaN,NaN,,0.095651306,1.3379714,0.44839343,0.99481505,-0.009645135,-0.10124194,-0.071696766,-0.77254266,-0.63090205,-0.07212858,0.6348896,-0.7692286,,-0.0859318,0.2559587,-0.10055818,0.15807277,0.71141267,0.68476635,-0.8924522,-0.19382529,0.40738297,0.42254245,-0.6755174,0.6042633,,NaN,NaN,NaN,NaN,NaN,NaN,NaN,NaN,NaN,NaN,NaN,NaN,,0.9973677825074727,0.3413139021092264,0.16231235977000003,-0.3770225183851748,0.5843943094967888,0.7899761705099636,-0.4093402297325037,,NaN,NaN,NaN,NaN,NaN,NaN,NaN,,-0.037993636154351564,-0.09291914771461311,0.09128296528,-0.07163176773016745,,-0.00018274039,-3.2186508e-06,1.2278557e-05,0.99999994,0.00013458356,0.00011107698,-0.00013459101,1.0,1.2636185e-05,-0.00011108443,-1.2606382e-05,0.99999994,829,2.579,0,2,1.007,False,-0.2552905512975445,1.0497563883626244
2.5584814929170534,12:08:46.619276,12:07:46.305210,0,,0.123521015,0.0081467405,0.034923926,-0.09726277,-0.77936345,-0.6189769,-0.3856511,-0.5438248,0.74533737,-0.9175037,0.31120265,-0.2476684,,NaN,NaN,NaN,NaN,NaN,NaN,NaN,NaN,NaN,NaN,NaN,NaN,,0.095651306,1.3379714,0.44839343,0.99481505,-0.009645135,-0.10124194,-0.071696766,-0.77254266,-0.63090205,-0.07212858,0.6348896,-0.7692286,,-0.08595117,0.25613424,-0.10136744,0.1590724,0.71566457,0.6800884,-0.88724136,-0.19850308,0.41641238,0.43301123,-0.66964227,0.6033908,,NaN,NaN,NaN,NaN,NaN,NaN,NaN,NaN,NaN,NaN,NaN,NaN,,0.9976149099594479,0.34098182459563475,0.16154625238,-0.37576437872426766,0.5962816849763821,0.7859186459580738,-0.40917688566636934,,NaN,NaN,NaN,NaN,NaN,NaN,NaN,,-0.037993636154351564,-0.09291914771461311,0.09128296528,-0.07163176773016745,,-0.00018274039,-3.2186508e-06,1.2278557e-05,0.99999994,0.00013458356,0.00011107698,-0.00013459101,1.0,1.2636185e-05,-0.00011108443,-1.2606382e-05,0.99999994,852,2.653,0,2,1.007,False,-0.25642252794944387,1.0500943497680806
2.629295330028981,12:08:46.689783,12:07:46.305210,0,,0.12326929,0.0077516884,0.035861,-0.09648278,-0.78185517,-0.6159491,-0.366143,-0.5475647,0.75240433,-0.9255432,0.2981195,-0.23344013,,NaN,NaN,NaN,NaN,NaN,NaN,NaN,NaN,NaN,NaN,NaN,NaN,,0.095651306,1.3379714,0.44839343,0.99481505,-0.009645135,-0.10124194,-0.071696766,-0.77254266,-0.63090205,-0.07212858,0.6348896,-0.7692286,,-0.08580907,0.25644633,-0.10235737,0.16013324,0.71913046,0.67617214,-0.87763757,-0.20979832,0.43097207,0.4517849,-0.66244704,0.5975402,,NaN,NaN,NaN,NaN,NaN,NaN,NaN,NaN,NaN,NaN,NaN,NaN,,0.9991131201370475,0.34028677863695456,0.16064403454,-0.3753449988372986,0.6174603424400255,0.7832693653702889,-0.4093402297325035,,NaN,NaN,NaN,NaN,NaN,NaN,NaN,,-0.037993636154351564,-0.09291914771461311,0.09128296528,-0.07163176773016745,,-0.00018274039,-3.2186508e-06,1.2278557e-05,0.99999994,0.00013458356,0.00011107698,-0.00013459101,1.0,1.2636185e-05,-0.00011108443,-1.2606382e-05,0.99999994,875,2.727,0,2,1.007,False,-0.2557075953271921,1.0502874705711984
2.6997887829784304,12:08:46.759840,12:07:46.305210,0,,0.12290284,0.0075039044,0.036757722,-0.07046355,-0.7933424,-0.6046837,-0.3321454,-0.552939,0.7641583,-0.94059247,0.25468817,-0.22454292,,NaN,NaN,NaN,NaN,NaN,NaN,NaN,NaN,NaN,NaN,NaN,NaN,,0.095651306,1.3379714,0.44839343,0.99481505,-0.009645135,-0.10124194,-0.071696766,-0.77254266,-0.63090205,-0.07212858,0.6348896,-0.7692286,,-0.085540906,0.25684613,-0.103233755,0.1375605,0.73422945,0.66481894,-0.86198777,-0.24188602,0.4454977,0.48790795,-0.6343487,0.59962285,,NaN,NaN,NaN,NaN,NaN,NaN,NaN,NaN,NaN,NaN,NaN,NaN,,1.0003101437325523,0.3393523279591734,0.15995700084,-0.4040725210946784,0.6576314733710649,0.7523911127067742,-0.4095035737986379,,NaN,NaN,NaN,NaN,NaN,NaN,NaN,,-0.037993636154351564,-0.09291914771461311,0.09128296528,-0.07163176773016745,,-0.00018274039,-3.2186508e-06,1.2278557e-05,0.99999994,0.00013458356,0.00011107698,-0.00013459101,1.0,1.2636185e-05,-0.00011108443,-1.2606382e-05,0.99999994,898,2.801,0,2,1.007,False,-0.25540970673458663,1.0504805913743163
2.7698604179313406,12:08:46.839018,12:07:46.458803,0,,0.12224752,0.007311523,0.037411034,-0.021550823,-0.79865986,-0.60139656,-0.29726836,-0.56921136,0.7665702,-0.9545506,0.19529626,-0.22514924,,NaN,NaN,NaN,NaN,NaN,NaN,NaN,NaN,NaN,NaN,NaN,NaN,,0.09569062,1.3379707,0.44838622,0.9948114,-0.009684803,-0.101274334,-0.07174785,-0.7725422,-0.63089687,-0.07212858,0.6348896,-0.7692286,,-0.08499304,0.25714225,-0.10392138,0.092160486,0.74401224,0.6617796,-0.84534603,-0.29275718,0.44685942,0.5262096,-0.6006155,0.60196716,,NaN,NaN,NaN,NaN,NaN,NaN,NaN,NaN,NaN,NaN,NaN,NaN,,1.0015303355266798,0.3375297630008564,0.15952792885000003,-0.46467291476170597,0.7002620612978823,0.7090524590387316,-0.41064698226157814,,NaN,NaN,NaN,NaN,NaN,NaN,NaN,,-0.037993636154351564,-0.09291914771461311,0.09128296528,-0.07163176773016745,,-0.00014305487,-7.6293945e-06,1.4305115e-05,1.0,9.5088035e-05,7.847324e-05,-9.509176e-05,1.0,8.910894e-06,-7.8484416e-05,-8.881092e-06,0.99999994,921,2.874,0,2,1.007,False,-0.2555288621716292,1.050432311173537
2.8490372960222885,12:08:46.908448,12:07:46.573899,0,,0.121717036,0.007230051,0.037641197,0.028609427,-0.79995507,-0.59937733,-0.26201782,-0.5846579,0.76780325,-0.9646388,0.13508105,-0.22632912,,NaN,NaN,NaN,NaN,NaN,NaN,NaN,NaN,NaN,NaN,NaN,NaN,,0.09569062,1.3379707,0.44838622,0.9948114,-0.009684803,-0.101274334,-0.07174785,-0.7725422,-0.63089687,-0.07212858,0.6348896,-0.7692286,,-0.084491335,0.25723857,-0.1042043,0.045204647,0.7499485,0.65994984,-0.82592523,-0.34357056,0.44699746,0.5619644,-0.5652756,0.60387045,,NaN,NaN,NaN,NaN,NaN,NaN,NaN,NaN,NaN,NaN,NaN,NaN,,1.0015535037253025,0.3357535344397848,0.15950459563000002,-0.5300961771288776,0.7405698287286873,0.6627071853250945,-0.410156950063175,,NaN,NaN,NaN,NaN,NaN,NaN,NaN,,-0.037993636154351564,-0.09291914771461311,0.09128296528,-0.07163176773016745,,-0.00014305487,-7.6293945e-06,1.4305115e-05,1.0,9.5088035e-05,7.847324e-05,-9.509176e-05,1.0,8.910894e-06,-7.8484416e-05,-8.881092e-06,0.99999994,944,2.948,0,2,1.007,False,-0.2551118181419816,1.0499495091657423
2.918467284995131,12:08:46.983327,12:07:46.573899,0,,0.121076405,0.007223554,0.037771344,0.090949476,-0.79728633,-0.5967097,-0.21272242,-0.6009173,0.7704853,-0.9728706,0.05685827,-0.22425365,,NaN,NaN,NaN,NaN,NaN,NaN,NaN,NaN,NaN,NaN,NaN,NaN,,0.09569062,1.3379707,0.44838622,0.9948114,-0.009684803,-0.101274334,-0.07174785,-0.7725422,-0.63089687,-0.07212858,0.6348896,-0.7692286,,-0.08386672,0.2573288,-0.104374915,-0.0132382205,0.7535487,0.65725875,-0.7948221,-0.40675777,0.4503398,0.6066981,-0.5164421,0.6043219,,NaN,NaN,NaN,NaN,NaN,NaN,NaN,NaN,NaN,NaN,NaN,NaN,,1.0011133079514716,0.3341626514676945,0.15967959478000002,-0.6179562634488932,0.7912619701416657,0.5977659871530998,-0.4083601653356981,,NaN,NaN,NaN,NaN,NaN,NaN,NaN,,-0.037993636154351564,-0.09291914771461311,0.09128296528,-0.07163176773016745,,-0.00014305487,-7.6293945e-06,1.4305115e-05,1.0,9.5088035e-05,7.847324e-05,-9.509176e-05,1.0,8.910894e-06,-7.8484416e-05,-8.881092e-06,0.99999994,976,3.05,0,2,1.007,False,-0.25582675076423333,1.050046069567301
2.993346967967227,12:08:47.090891,12:07:46.710805,0,,0.12048116,0.007325098,0.037665755,0.16867396,-0.79513603,-0.5825011,-0.16635531,-0.6054559,0.7782988,-0.9715322,-0.03437668,-0.23439966,,NaN,NaN,NaN,NaN,NaN,NaN,NaN,NaN,NaN,NaN,NaN,NaN,,0.09569062,1.3379707,0.44838622,0.9948114,-0.009684803,-0.101274334,-0.07174785,-0.7725422,-0.63089687,-0.07212858,0.6348896,-0.7692286,,-0.08325953,0.25734743,-0.104292765,-0.0880186,0.75951827,0.6445035,-0.7599905,-0.4694696,0.44945827,0.6439466,-0.45025584,0.6185487,,NaN,NaN,NaN,NaN,NaN,NaN,NaN,NaN,NaN,NaN,NaN,NaN,,0.9995224249793814,0.334317106125179,0.16005551888000003,-0.736221391574165,0.8302033725748161,0.4962582405195794,-0.4064000365420868,,NaN,NaN,NaN,NaN,NaN,NaN,NaN,,-0.037993636154351564,-0.09291914771461311,0.09128296528,-0.07163176773016745,,-0.00014305487,-7.6293945e-06,1.4305115e-05,1.0,9.5088035e-05,7.847324e-05,-9.509176e-05,1.0,8.910894e-06,-7.8484416e-05,-8.881092e-06,0.99999994,990,3.095,0,2,1.007,False,-0.2556480176086704,1.0506254319766548
3.100917086005211,12:08:47.135427,12:07:46.710805,0,,0.12024738,0.0073023513,0.037552416,0.20571488,-0.7899493,-0.5776343,-0.15184134,-0.6088756,0.77859795,-0.9667603,-0.07246056,-0.24520162,,NaN,NaN,NaN,NaN,NaN,NaN,NaN,NaN,NaN,NaN,NaN,NaN,,0.09569062,1.3379707,0.44838622,0.9948114,-0.009684803,-0.101274334,-0.07174785,-0.7725422,-0.63089687,-0.07212858,0.6348896,-0.7692286,,-0.083018,0.25726047,-0.10424675,-0.12446315,0.75765985,0.6406719,-0.7464741,-0.49687868,0.4425924,0.6536707,-0.4231585,0.6274165,,NaN,NaN,NaN,NaN,NaN,NaN,NaN,NaN,NaN,NaN,NaN,NaN,,0.9984953015071095,0.33462601544014803,0.16017996272,-0.7926279863715021,0.8381282895612117,0.4514069942391227,-0.4068900687404897,,NaN,NaN,NaN,NaN,NaN,NaN,NaN,,-0.037993636154351564,-0.09291914771461311,0.09128296528,-0.07163176773016745,,-0.00014305487,-7.6293945e-06,1.4305115e-05,1.0,9.5088035e-05,7.847324e-05,-9.509176e-05,1.0,8.910894e-06,-7.8484416e-05,-8.881092e-06,0.99999994,1018,3.186,0,2,1.007,False,-0.25588632848275505,1.0499977893665218
3.145428529009223,12:08:47.224666,12:07:46.865374,0,,0.119802505,0.0072195455,0.037385494,0.2624862,-0.7824833,-0.5646422,-0.124458045,-0.60772675,0.7843331,-0.9568757,-0.13560244,-0.2569061,,NaN,NaN,NaN,NaN,NaN,NaN,NaN,NaN,NaN,NaN,NaN,NaN,,0.09569062,1.3379707,0.44838622,0.9948114,-0.009684803,-0.101274334,-0.07174785,-0.7725422,-0.63089687,-0.07212858,0.6348896,-0.7692286,,-0.08256508,0.25709656,-0.10422158,-0.18026623,0.7560901,0.6291517,-0.7201815,-0.5371178,0.439139,0.6699572,-0.37394148,0.64134634,,NaN,NaN,NaN,NaN,NaN,NaN,NaN,NaN,NaN,NaN,NaN,NaN,,0.9972828324458562,0.335004429350985,0.16034588784,-0.8853109413916618,0.851245393538694,0.36997708652253947,-0.40541997214528125,,NaN,NaN,NaN,NaN,NaN,NaN,NaN,,-0.037993636154351564,-0.09291914771461311,0.09128296528,-0.07163176773016745,,-0.00014305487,-7.6293945e-06,1.4305115e-05,1.0,9.5088035e-05,7.847324e-05,-9.509176e-05,1.0,8.910894e-06,-7.8484416e-05,-8.881092e-06,0.99999994,1037,3.247,0,2,1.007,False,-0.2559459062012759,1.0507219923782136
