AlexandreBanks6/ExpertPlaybackApp/resources/Motions/P_08/PC1/Data_PC1_4.csv
Task Time,PC1 Time,PC2 Time,Gaze Calib,s_T_psm1,Tx,Ty,Tz,R00,R01,R02,R10,R11,R12,R20,R21,R22,s_T_psm3,Tx,Ty,Tz,R00,R01,R02,R10,R11,R12,R20,R21,R22,cart_T_ecm,Tx,Ty,Tz,R00,R01,R02,R10,R11,R12,R20,R21,R22,ecm_T_psm1,Tx,Ty,Tz,R00,R01,R02,R10,R11,R12,R20,R21,R22,ecm_T_psm3,Tx,Ty,Tz,R00,R01,R02,R10,R11,R12,R20,R21,R22,psm1_joints,q1,q2,q3,q4,q5,q6,jaw,psm3_joints,q1,q2,q3,q4,q5,q6,jaw,ecm_joints,q1,q2,q3,q4,ecmi_T_ecm,Tx,Ty,Tz,R00,R01,R02,R10,R11,R12,R20,R21,R22,Sample #,Task Duration (s),Collisions (binary),Collisions (increments),Cumulative Collision Time (s),Clutch Press,MTMR Angle,MTML Angle
""
lci_T_si,,,,,-0.04389513,0.04956866,0.22526956,0.9963894,-0.034623533,0.077520534,0.021735294,-0.77861404,-0.6271266,0.08207192,0.62654716,-0.7750502
rci_T_si,,,,,-0.052055437,0.051523127,0.23220907,0.9938266,-0.05988071,0.09339668,0.01678995,-0.7509601,-0.6601341,0.10966648,0.6576269,-0.7453188
ecm_T_lc,,,,,-4.4061628e-05,-0.00034663224,-0.01840835,-0.99912,0.030754527,0.028518902,-0.031987965,-0.99852574,-0.043852776,0.027128186,-0.04472645,0.9986309
ecm_T_rc,,,,,-0.0043358393,0.01870579,-0.007592615,-0.99555075,-0.052743673,-0.078081585,0.04863213,-0.9973746,0.053654674,-0.08070653,0.04961868,0.9955021
cart_T_ecmi,,,,,0.09631832,1.3397226,0.4502967,0.99511164,-0.010630815,-0.0981826,-0.070399664,-0.773592,-0.62976134,-0.0692584,0.6335949,-0.7705588
ecmac_T_ecmrep_psm1,,,,,0.006309411,-0.25313872,-0.31568977,0.99868697,0.047558498,0.019040095,-0.047043137,0.9985371,-0.026657216,-0.020280018,0.025726508,0.99946326
ecmac_T_ecmrep_psm3,,,,,-0.020520164,-0.44355312,-0.56256753,0.99888426,-0.027940953,0.03807337,0.020709034,0.9837047,0.17859514,-0.04244307,-0.17760742,0.9831857
""
0,11:44:20.860789,11:43:20.441088,0,,0.09656452,0.014733225,0.013360456,0.8812399,-0.47072634,-0.042816125,-0.4552868,-0.86968166,0.19070306,-0.12700528,-0.14856139,-0.9807136,,-0.01324974,-0.01178268,0.03998691,0.72696835,0.16272068,0.6671126,0.26827413,-0.9616076,-0.057791382,0.6320966,0.22098148,-0.7427119,,0.09625841,1.3397242,0.45030028,0.9951156,-0.010587711,-0.09814752,-0.07034422,-0.7735926,-0.6297668,-0.0692584,0.6335949,-0.7705588,,-0.07442205,0.23095389,-0.09024117,-0.8920835,0.43413287,0.12536216,-0.4370928,-0.7586671,-0.48308808,-0.11461628,-0.4857498,0.86655074,,0.04527758,0.3967329,-0.3863266,-0.7931127,-0.1761892,-0.5830348,0.59345573,-0.43893543,-0.6746451,-0.13704945,-0.88107497,0.45268574,,0.9965800637543019,0.21524801067038554,0.1745454485,-1.609580006187209,-0.11614102480062438,0.23127207165697822,0.7948322258094028,,-1.081306166117419,-0.09282724914817861,0.16650456163000002,4.538109756892076,-0.45773227421422547,0.38239799627875465,0.8755241944797367,,-0.035048393041611135,-0.0946797485975624,0.08866120536,-0.06999633924317733,,-5.9979036e-05,1.5497208e-06,2.1457672e-06,1.0,4.2937696e-05,3.530085e-05,-4.293397e-05,1.0,3.8444996e-06,-3.5304576e-05,-3.8444996e-06,1.0,33,0.098,0,0,0.0,False,0.9708188958653192,1.0499977893665218
0.12930831592530012,11:44:20.884032,11:43:20.441088,0,,0.09653829,0.014836609,0.013114721,0.8811329,-0.47093397,-0.042732924,-0.45513982,-0.8691401,0.19350228,-0.12826762,-0.15105158,-0.98016876,,-0.013252303,-0.011783395,0.039987624,0.7269767,0.16272686,0.66710186,0.26827884,-0.9616062,-0.057792246,0.63208497,0.22098282,-0.74272144,,0.09625841,1.3397242,0.45030028,0.9951156,-0.010587711,-0.09814752,-0.07034422,-0.7735926,-0.6297668,-0.0692584,0.6335949,-0.7705588,,-0.07437229,0.23087557,-0.08998987,-0.89187574,0.43455273,0.12538588,-0.43778974,-0.7598491,-0.48059288,-0.1135686,-0.4835218,0.8679337,,0.045280058,0.39673322,-0.38632774,-0.79311985,-0.17619552,-0.5830232,0.5934488,-0.43893406,-0.6746521,-0.13703805,-0.88107437,0.45269033,,0.9965568955556792,0.21513216967727217,0.17481118795000003,-1.6091606263002398,-0.11491129630273542,0.22855405698075865,0.7963023224046114,,-1.0812907206516704,-0.09282724914817861,0.16650326534,4.538109756892076,-0.45773227421422547,0.38239799627875465,0.8755241944797367,,-0.035048393041611135,-0.0946797485975624,0.08866120536,-0.06999633924317733,,-5.9979036e-05,1.5497208e-06,2.1457672e-06,1.0,4.2937696e-05,3.530085e-05,-4.293397e-05,1.0,3.8444996e-06,-3.5304576e-05,-3.8444996e-06,1.0,48,0.145,0,0,0.0,False,0.968912408872646,1.050046069567301
0.15252241597045213,11:44:20.923108,11:43:20.524070,0,,0.09654161,0.014921248,0.012918562,0.8807918,-0.4715536,-0.042932436,-0.45556942,-0.8686578,0.19465342,-0.12908307,-0.15189025,-0.9799322,,-0.013252065,-0.011783171,0.039986372,0.7269767,0.16272686,0.66710186,0.26827884,-0.9616062,-0.057792246,0.63208497,0.22098282,-0.74272144,,0.09625841,1.3397242,0.45030028,0.9951156,-0.010587711,-0.09814752,-0.07034422,-0.7735926,-0.6297668,-0.0692584,0.6335949,-0.7705588,,-0.07435661,0.2308145,-0.089785725,-0.8914981,0.4352573,0.12562746,-0.4386401,-0.76001316,-0.47955692,-0.11325211,-0.4826293,0.8684716,,0.045279957,0.39673236,-0.3863268,-0.79311985,-0.17619552,-0.5830232,0.5934488,-0.43893406,-0.6746521,-0.13703805,-0.88107437,0.45269033,,0.9964333318296916,0.21512444694439795,0.17502377951,-1.608321866526302,-0.11422811380390821,0.2275068950214332,0.7969556986691484,,-1.0812907206516704,-0.09282724914817861,0.16650456163000002,4.538109756892076,-0.45773227421422547,0.38239799627875465,0.8755241944797367,,-0.035048393041611135,-0.0946797485975624,0.08866120536,-0.06999633924317733,,-5.9979036e-05,1.5497208e-06,2.1457672e-06,1.0,4.2937696e-05,3.530085e-05,-4.293397e-05,1.0,3.8444996e-06,-3.5304576e-05,-3.8444996e-06,1.0,56,0.168,0,0,0.0,False,0.9648611240132157,1.0503840309727575
0.19164318894036114,11:44:20.952761,11:43:20.524070,0,,0.09655976,0.014986813,0.012735173,0.88039297,-0.47220832,-0.043905355,-0.45598164,-0.8682978,0.19529349,-0.13034207,-0.15191483,-0.97976166,,-0.013251707,-0.011785734,0.039987326,0.72697556,0.16272303,0.6671041,0.2682858,-0.96160346,-0.05780536,0.6320833,0.22099751,-0.7427184,,0.09625841,1.3397242,0.45030028,0.9951156,-0.010587711,-0.09814752,-0.07034422,-0.7735926,-0.6297668,-0.0692584,0.6335949,-0.7705588,,-0.074357636,0.23074691,-0.08960218,-0.89102924,0.43593,0.12661731,-0.43976146,-0.7597481,-0.47894955,-0.1125912,-0.48243946,0.868663,,0.045279525,0.3967315,-0.38632938,-0.7931186,-0.17619331,-0.5830256,0.593452,-0.43892056,-0.67465806,-0.13703167,-0.8810815,0.4526783,,0.9961707589119679,0.21510127874577528,0.17521563043000002,-1.6072734168088794,-0.11299838530601926,0.22723924254943045,0.7941788495448656,,-1.0812907206516704,-0.09284269461392705,0.16650326534,4.538109756892076,-0.45773227421422547,0.38239799627875465,0.8755241944797367,,-0.035048393041611135,-0.0946797485975624,0.08866120536,-0.06999633924317733,,-5.9979036e-05,1.5497208e-06,2.1457672e-06,1.0,4.2937696e-05,3.530085e-05,-4.293397e-05,1.0,3.8444996e-06,-3.5304576e-05,-3.8444996e-06,1.0,64,0.193,0,0,0.0,False,0.9580692641018178,1.0501909101696396
0.22129003889858723,11:44:20.981343,11:43:20.524070,0,,0.096546486,0.015023753,0.012558848,0.8798299,-0.473039,-0.046192057,-0.45653182,-0.86814034,0.19470733,-0.13220528,-0.15022102,-0.97977316,,-0.013248518,-0.011783782,0.03998834,0.72696346,0.16271564,0.66711897,0.26827526,-0.96160686,-0.05779752,0.63210166,0.22098818,-0.7427056,,0.09625841,1.3397242,0.45030028,0.9951156,-0.010587711,-0.09814752,-0.07034422,-0.7735926,-0.6297668,-0.0692584,0.6335949,-0.7705588,,-0.0743294,0.23066212,-0.0894452,-0.89035916,0.43663996,0.12886465,-0.44137532,-0.75853384,-0.4793895,-0.111572415,-0.48370647,0.8680896,,0.04527622,0.3967332,-0.38632828,-0.79310846,-0.17618492,-0.58304185,0.5934608,-0.43892935,-0.6746446,-0.13705197,-0.88107884,0.45267743,,0.9959854133229865,0.21486959675954853,0.17538933329,-1.6058055872044876,-0.11135874730883397,0.2284342686494308,0.7910753122883143,,-1.0813138888502931,-0.09283497188105283,0.16650326534,4.538109756892076,-0.45773227421422547,0.38239799627875465,0.8755241944797367,,-0.035048393041611135,-0.0946797485975624,0.08866120536,-0.06999633924317733,,-5.9979036e-05,1.5497208e-06,2.1457672e-06,1.0,4.2937696e-05,3.530085e-05,-4.293397e-05,1.0,3.8444996e-06,-3.5304576e-05,-3.8444996e-06,1.0,75,0.226,0,0,0.0,False,0.9544350232720347,1.0502874705711984
0.24987163697369397,11:44:21.004874,11:43:20.524070,0,,0.096506715,0.015058361,0.012369871,0.87883013,-0.4744716,-0.05034229,-0.45752278,-0.8679422,0.19325912,-0.1353901,-0.14680904,-0.9798554,,-0.01324968,-0.011784021,0.03998804,0.7269677,0.16271877,0.6671137,0.26827762,-0.96160614,-0.05779794,0.63209575,0.22098881,-0.74271035,,0.09625841,1.3397242,0.45030028,0.9951156,-0.010587711,-0.09814752,-0.07034422,-0.7735926,-0.6297668,-0.0692584,0.6335949,-0.7705588,,-0.07427397,0.23056762,-0.08928243,-0.8891795,0.43782407,0.13292779,-0.4441723,-0.75618094,-0.48052198,-0.10986664,-0.48631316,0.86684996,,0.045277413,0.39673293,-0.38632837,-0.79311204,-0.1761881,-0.58303607,0.59345734,-0.43892866,-0.6746481,-0.13704628,-0.88107854,0.45267972,,0.995861849596999,0.21452979651308265,0.17557340647000003,-1.603289307882673,-0.1087626538132906,0.2310546954073514,0.7861749903042861,,-1.081306166117419,-0.09283497188105283,0.16650326534,4.538109756892076,-0.45773227421422547,0.38239799627875465,0.8755241944797367,,-0.035048393041611135,-0.0946797485975624,0.08866120536,-0.06999633924317733,,-5.9979036e-05,1.5497208e-06,2.1457672e-06,1.0,4.2937696e-05,3.530085e-05,-4.293397e-05,1.0,3.8444996e-06,-3.5304576e-05,-3.8444996e-06,1.0,83,0.25,0,0,0.0,False,0.9597374402204069,1.050335750771978
0.27337575191631913,11:44:21.025535,11:43:20.524070,0,,0.0964632,0.015076444,0.012250781,0.87871945,-0.47447604,-0.05219859,-0.45734525,-0.86818224,0.19260025,-0.13670203,-0.14536867,-0.9798881,,-0.01324974,-0.01178268,0.03998691,0.72696835,0.16272068,0.6671126,0.26827413,-0.9616076,-0.057791382,0.6320966,0.22098148,-0.7427119,,0.09625841,1.3397242,0.45030028,0.9951156,-0.010587711,-0.09814752,-0.07034422,-0.7735926,-0.6297668,-0.0692584,0.6335949,-0.7705588,,-0.07422086,0.23050536,-0.08918392,-0.88896275,0.4377091,0.13474423,-0.44487762,-0.7554402,-0.4810344,-0.108761914,-0.48756635,0.86628515,,0.04527758,0.3967329,-0.3863266,-0.7931127,-0.1761892,-0.5830348,0.59345573,-0.43893543,-0.6746451,-0.13704945,-0.88107497,0.45268574,,0.9958927405284959,0.21423633266386213,0.17568877628000001,-1.602869927995704,-0.10753292531540162,0.2321755815177382,0.7855216140397489,,-1.081306166117419,-0.09282724914817861,0.16650456163000002,4.538109756892076,-0.45773227421422547,0.38239799627875465,0.8755241944797367,,-0.035048393041611135,-0.0946797485975624,0.08866120536,-0.06999633924317733,,-5.9979036e-05,1.5497208e-06,2.1457672e-06,1.0,4.2937696e-05,3.530085e-05,-4.293397e-05,1.0,3.8444996e-06,-3.5304576e-05,-3.8444996e-06,1.0,91,0.275,0,0,0.0,False,0.960452372842659,1.0500943497680806
0.2940707819070667,11:44:21.060843,11:43:20.656916,0,,0.09637849,0.015122116,0.012066752,0.8774472,-0.47657403,-0.054440133,-0.45891288,-0.86707485,0.19385576,-0.1395902,-0.14511469,-0.9795184,,-0.013249159,-0.011785034,0.03998667,0.7269671,0.16271682,0.66711485,0.26828107,-0.96160483,-0.057804495,0.632095,0.22099623,-0.74270886,,0.09625841,1.3397242,0.45030028,0.9951156,-0.010587711,-0.09814752,-0.07034422,-0.7735926,-0.6297668,-0.0692584,0.6335949,-0.7705588,,-0.07412045,0.23042285,-0.08902192,-0.8875639,0.43983772,0.13701501,-0.4479243,-0.7544127,-0.479818,-0.10767619,-0.48724148,0.8666035,,0.045277048,0.39673117,-0.38632825,-0.7931114,-0.17618698,-0.58303726,0.5934589,-0.43892193,-0.6746511,-0.13704309,-0.8810821,0.4526737,,0.9960935315832257,0.21381158235577977,0.17588192349,-1.599934268786921,-0.1057566508184509,0.2313805786908093,0.7868283665688232,,-1.081306166117419,-0.09284269461392705,0.16650456163000002,4.538109756892076,-0.45773227421422547,0.38239799627875465,0.8755241944797367,,-0.035048393041611135,-0.0946797485975624,0.08866120536,-0.06999633924317733,,-5.9979036e-05,1.5497208e-06,2.1457672e-06,1.0,4.2937696e-05,3.530085e-05,-4.293397e-05,1.0,3.8444996e-06,-3.5304576e-05,-3.8444996e-06,1.0,99,0.299,0,0,0.0,False,0.9547329118646402,1.049804668563404
0.32937567599583417,11:44:21.083378,11:43:20.656916,0,,0.09631574,0.015152223,0.011937588,0.8766891,-0.47786334,-0.055345036,-0.4599665,-0.86637855,0.19447082,-0.1408802,-0.14503339,-0.9793458,,-0.013248861,-0.011786211,0.03998649,0.72696656,0.16271491,0.6671159,0.26828456,-0.9616034,-0.05781108,0.6320942,0.22100356,-0.7427074,,0.09625841,1.3397242,0.45030028,0.9951156,-0.010587711,-0.09814752,-0.07034422,-0.7735926,-0.6297668,-0.0692584,0.6335949,-0.7705588,,-0.074046806,0.23036349,-0.08890979,-0.8867685,0.44115224,0.13793567,-0.44955462,-0.75381714,-0.47922894,-0.10743465,-0.48697478,0.8667834,,0.045276783,0.3967303,-0.38632908,-0.7931108,-0.17618588,-0.58303845,0.5934605,-0.43891516,-0.67465407,-0.1370399,-0.8810857,0.4526677,,0.9962711544393329,0.21351811850655925,0.17600636733000002,-1.5982567492390447,-0.10521010481938914,0.23077154959574245,0.7868283665688232,,-1.081306166117419,-0.09285041734680129,0.16650456163000002,4.538109756892076,-0.45773227421422547,0.38239799627875465,0.8761775707442738,,-0.035048393041611135,-0.0946797485975624,0.08866120536,-0.06999633924317733,,-5.9979036e-05,1.5497208e-06,2.1457672e-06,1.0,4.2937696e-05,3.530085e-05,-4.293397e-05,1.0,3.8444996e-06,-3.5304576e-05,-3.8444996e-06,1.0,106,0.32,0,0,0.0,False,0.9522902254052781,1.0499977893665218
0.35191482095979154,11:44:21.105834,11:43:20.656916,0,,0.09617826,0.015186965,0.0117715895,0.87341964,-0.4835458,-0.057633907,-0.4650296,-0.86333215,0.1959722,-0.14451869,-0.14436433,-0.9789144,,-0.013250321,-0.011785258,0.039986372,0.7269714,0.16271994,0.66710943,0.26828346,-0.9616041,-0.057804912,0.63208914,0.22099686,-0.7427136,,0.09625841,1.3397242,0.45030028,0.9951156,-0.010587711,-0.09814752,-0.07034422,-0.7735926,-0.6297668,-0.0692584,0.6335949,-0.7705588,,-0.07389577,0.23028456,-0.08877332,-0.88350874,0.44692156,0.14026192,-0.45574814,-0.75101006,-0.477784,-0.10819385,-0.48605046,0.8672076,,0.04527824,0.3967309,-0.38632834,-0.793115,-0.17619014,-0.5830314,0.59345543,-0.43892124,-0.67465454,-0.13703738,-0.8810818,0.452676,,0.9967963002747802,0.2129620817396151,0.17617488503,-1.5913369811040554,-0.10452692232056193,0.22923431519557358,0.7845415496429432,,-1.0812984433845447,-0.09284269461392705,0.16650456163000002,4.538109756892076,-0.45773227421422547,0.3823979962787547,0.8758508826120053,,-0.035048393041611135,-0.0946797485975624,0.08866120536,-0.06999633924317733,,-5.9979036e-05,1.5497208e-06,2.1457672e-06,1.0,4.2937696e-05,3.530085e-05,-4.293397e-05,1.0,3.8444996e-06,-3.5304576e-05,-3.8444996e-06,1.0,117,0.352,0,0,0.0,False,0.9511582487533783,1.0502874705711984
0.3743489369517192,11:44:21.135059,11:43:20.656916,0,,0.09598149,0.015232682,0.011603504,0.87170386,-0.48644552,-0.0591899,-0.46749654,-0.86173415,0.19713202,-0.14689988,-0.14416948,-0.9785886,,-0.013250612,-0.01178411,0.03998649,0.726972,0.16272186,0.66710836,0.26827994,-0.9616055,-0.057798356,0.6320899,0.2209895,-0.7427151,,0.09625841,1.3397242,0.45030028,0.9951156,-0.010587711,-0.09814752,-0.07034422,-0.7735926,-0.6297668,-0.0692584,0.6335949,-0.7705588,,-0.073684946,0.23021315,-0.08863361,-0.88175297,0.4498787,0.1418482,-0.45915556,-0.7496385,-0.47667417,-0.10811067,-0.48543924,0.86756027,,0.045278504,0.39673176,-0.38632753,-0.7931156,-0.17619126,-0.5830302,0.5934538,-0.43892798,-0.67465156,-0.13704057,-0.88107824,0.45268202,,0.9976766918224418,0.21225931304806064,0.17635247676000002,-1.5877722520648183,-0.10425364932103107,0.22786797702621286,0.7816013564525263,,-1.0812984433845447,-0.09283497188105283,0.16650456163000002,4.538109756892076,-0.45773227421422547,0.38239799627875465,0.8755241944797367,,-0.035048393041611135,-0.0946797485975624,0.08866120536,-0.06999633924317733,,-5.9979036e-05,1.5497208e-06,2.1457672e-06,1.0,4.2937696e-05,3.530085e-05,-4.293397e-05,1.0,3.8444996e-06,-3.5304576e-05,-3.8444996e-06,1.0,128,0.385,0,0,0.0,False,0.9432939899086019,1.050046069567301
0.40357588697224855,11:44:21.164079,11:43:20.656916,0,,0.09581153,0.0152466,0.011498332,0.87161815,-0.4864859,-0.060110517,-0.46728945,-0.8616749,0.19788098,-0.14806196,-0.14438745,-0.97838134,,-0.013249442,-0.011783872,0.03998679,0.7269677,0.16271877,0.6671137,0.26827762,-0.96160614,-0.05779794,0.63209575,0.22098881,-0.74271035,,0.09625841,1.3397242,0.45030028,0.9951156,-0.010587711,-0.09814752,-0.07034422,-0.7735926,-0.6297668,-0.0692584,0.6335949,-0.7705588,,-0.07350716,0.23015757,-0.08855986,-0.8815707,0.4499382,0.14278898,-0.4597422,-0.7497327,-0.4759601,-0.107099086,-0.4852386,0.867798,,0.045277312,0.39673203,-0.38632745,-0.79311204,-0.1761881,-0.58303607,0.59345734,-0.43892866,-0.6746481,-0.13704628,-0.88107854,0.45267972,,0.9984180741783673,0.21160288075375155,0.17645877254000003,-1.5875625621213338,-0.10384373982173474,0.22696197213413966,0.7807846361218549,,-1.081306166117419,-0.09283497188105283,0.16650456163000002,4.538109756892076,-0.45773227421422547,0.38239799627875465,0.8755241944797367,,-0.035048393041611135,-0.0946797485975624,0.08866120536,-0.06999633924317733,,-5.9979036e-05,1.5497208e-06,2.1457672e-06,1.0,4.2937696e-05,3.530085e-05,-4.293397e-05,1.0,3.8444996e-06,-3.5304576e-05,-3.8444996e-06,1.0,139,0.418,0,0,0.0,False,0.9359659305305148,1.0499977893665218
0.43261220993008465,11:44:21.193928,11:43:20.656916,0,,0.09552044,0.015219241,0.01138705,0.8751801,-0.47991726,-0.06115023,-0.4608858,-0.8654831,0.19627321,-0.14711931,-0.14359099,-0.9786407,,-0.013250612,-0.01178411,0.03998649,0.726972,0.16272186,0.66710836,0.26827994,-0.9616055,-0.057798356,0.6320899,0.2209895,-0.7427151,,0.09625841,1.3397242,0.45030028,0.9951156,-0.010587711,-0.09814752,-0.07034422,-0.7735926,-0.6297668,-0.0692584,0.6335949,-0.7705588,,-0.073210455,0.23006728,-0.08851879,-0.8848516,0.4431377,0.1437592,-0.4542538,-0.75218946,-0.47735158,-0.10339832,-0.48768845,0.86687297,,0.045278504,0.39673176,-0.38632753,-0.7931156,-0.17619126,-0.5830302,0.5934538,-0.43892798,-0.67465156,-0.13704057,-0.88107824,0.45268202,,0.9996614341711174,0.21034407529525298,0.17655729058000003,-1.5949017101432923,-0.10329719382267298,0.22839491154258693,0.7731074650135437,,-1.0812984433845447,-0.09283497188105283,0.16650456163000002,4.538109756892076,-0.45773227421422547,0.38239799627875465,0.8755241944797367,,-0.035048393041611135,-0.0946797485975624,0.08866120536,-0.06999633924317733,,-5.9979036e-05,1.5497208e-06,2.1457672e-06,1.0,4.2937696e-05,3.530085e-05,-4.293397e-05,1.0,3.8444996e-06,-3.5304576e-05,-3.8444996e-06,1.0,143,0.43,0,0,0.0,False,0.928995337463554,1.0505288715750958
0.46245580294635147,11:44:21.218240,11:43:20.656916,0,,0.09502643,0.015192702,0.011281326,0.8808104,-0.46911016,-0.06409929,-0.45029023,-0.871818,0.19280028,-0.14632742,-0.14095712,-0.9791422,,-0.01330436,-0.011800237,0.04001701,0.72698927,0.16262354,0.6671134,0.2682513,-0.9616065,-0.05791509,0.6320821,0.22105765,-0.74270153,,0.096306816,1.3397235,0.45029336,0.9951147,-0.010597058,-0.098155126,-0.070356235,-0.7735924,-0.6297656,-0.0692584,0.6335949,-0.7705588,,-0.07275929,0.22998755,-0.088500395,-0.8899659,0.43183666,0.14655305,-0.44565538,-0.75543946,-0.48031506,-0.096705705,-0.49277616,0.86476564,,0.04528085,0.39675385,-0.38636383,-0.7931273,-0.17611164,-0.5830384,0.5934357,-0.43886578,-0.674708,-0.13705166,-0.88112515,0.45258737,,1.0011519216158427,0.2087223013916658,0.17663377169000002,-1.6066443469784255,-0.10111100982642593,0.23249309437356466,0.7639601973100241,,-1.0812984433845447,-0.09283497188105283,0.16650326534,4.538109756892076,-0.45773227421422547,0.38239799627875465,0.8755241944797367,,-0.035048393041611135,-0.0946797485975624,0.08866120536,-0.06999633924317733,,-1.1272728e-05,-2.682209e-06,3.0994415e-06,1.0,3.362447e-05,2.7649105e-05,-3.362447e-05,1.0,3.0398369e-06,-2.764538e-05,-3.0398369e-06,1.0,154,0.463,0,0,0.0,False,0.9260760292560231,1.0506254319766548
0.4867127019679174,11:44:21.247537,11:43:20.852008,0,,0.09477116,0.015120059,0.011215448,0.88242215,-0.46558964,-0.06750856,-0.4469574,-0.8744521,0.18857977,-0.14683375,-0.13623336,-0.97973484,,-0.013304822,-0.011799909,0.040012956,0.7269935,0.16262665,0.66710806,0.26825368,-0.96160585,-0.05791554,0.6320763,0.22105831,-0.74270624,,0.096306816,1.3397235,0.45029336,0.9951147,-0.010597058,-0.098155126,-0.070356235,-0.7735924,-0.6297656,-0.0692584,0.6335949,-0.7705588,,-0.07250401,0.22989143,-0.08851972,-0.89135844,0.42784214,0.14977053,-0.4434371,-0.75445235,-0.48390618,-0.09404073,-0.49774766,0.86220855,,0.045281745,0.39675093,-0.3863611,-0.7931309,-0.17611481,-0.58303255,0.59343225,-0.4388651,-0.6747115,-0.13704595,-0.88112485,0.45258966,,1.0026424090605681,0.20686112276897772,0.17668173442000001,-1.6158707044917449,-0.09947137182924065,0.24022241968481,0.7598765956566671,,-1.0812907206516704,-0.09283497188105283,0.16650715421,4.538109756892076,-0.45773227421422547,0.3823979962787547,0.8758508826120053,,-0.035048393041611135,-0.0946797485975624,0.08866120536,-0.06999633924317733,,-1.1272728e-05,-2.682209e-06,3.0994415e-06,1.0,3.362447e-05,2.7649105e-05,-3.362447e-05,1.0,3.0398369e-06,-2.764538e-05,-3.0398369e-06,1.0,165,0.496,0,0,0.0,False,0.9235141873596189,1.050046069567301
0.5160544529790059,11:44:21.275474,11:43:20.852008,0,,0.09436274,0.015032083,0.011159524,0.88972753,-0.4504635,-0.07394253,-0.43225083,-0.8834371,0.18082553,-0.14677885,-0.1289236,-0.9807317,,-0.013303436,-0.011799462,0.040011942,0.72698927,0.16262354,0.6671134,0.2682513,-0.9616065,-0.05791509,0.6320821,0.22105765,-0.74270153,,0.096306816,1.3397235,0.45029336,0.9951147,-0.010597058,-0.098155126,-0.070356235,-0.7735924,-0.6297656,-0.0692584,0.6335949,-0.7705588,,-0.072097756,0.22979109,-0.088570334,-0.89786536,0.41176477,0.15584458,-0.4321805,-0.7567595,-0.49044377,-0.08401059,-0.50770545,0.85742486,,0.04528046,0.39675033,-0.38636005,-0.7931273,-0.17611164,-0.5830384,0.5934357,-0.43886578,-0.674708,-0.13705166,-0.88112515,0.45258737,,1.0037004234643367,0.20567954463922136,0.17669728990000003,-1.625516441892033,-0.0959188228353392,0.24663693056472719,0.7588965312598615,,-1.0812984433845447,-0.09283497188105283,0.16650845050000002,4.538109756892076,-0.45773227421422547,0.38239799627875465,0.8761775707442738,,-0.035048393041611135,-0.0946797485975624,0.08866120536,-0.06999633924317733,,-1.1272728e-05,-2.682209e-06,3.0994415e-06,1.0,3.362447e-05,2.7649105e-05,-3.362447e-05,1.0,3.0398369e-06,-2.764538e-05,-3.0398369e-06,1.0,172,0.516,0,0,0.0,False,0.9221438998336349,1.0503840309727575
0.5440052188932896,11:44:21.297168,11:43:20.852008,0,,0.09401807,0.014986694,0.011135027,0.8920269,-0.4448342,-0.080067,-0.42625752,-0.88686216,0.17826909,-0.15030853,-0.12489152,-0.98071885,,-0.013302304,-0.011799596,0.04001218,0.7269093,0.16280721,0.6671558,0.26842427,-0.9615644,-0.057813346,0.6321007,0.22110575,-0.7426714,,0.096306816,1.3397235,0.45029336,0.9951147,-0.010597058,-0.098155126,-0.070356235,-0.7735924,-0.6297656,-0.0692584,0.6335949,-0.7705588,,-0.071755074,0.22974311,-0.0886119,-0.8995787,0.40567994,0.1618085,-0.42986855,-0.75683826,-0.49235034,-0.07727379,-0.5124643,0.8552246,,0.045279324,0.3967503,-0.38636023,-0.7930514,-0.17629981,-0.58308476,0.5935647,-0.43881866,-0.6746252,-0.13693218,-0.88111097,0.45265108,,1.0050982381145714,0.20438984824922588,0.17671154909000003,-1.630339310592177,-0.09168309134261053,0.250860777123351,0.7566097143339815,,-1.081306166117419,-0.09284269461392705,0.16650845050000002,4.537900066948591,-0.45773227421422547,0.38239799627875465,0.8761775707442738,,-0.035048393041611135,-0.0946797485975624,0.08866120536,-0.06999633924317733,,-1.1272728e-05,-2.682209e-06,3.0994415e-06,1.0,3.362447e-05,2.7649105e-05,-3.362447e-05,1.0,3.0398369e-06,-2.764538e-05,-3.0398369e-06,1.0,183,0.549,0,0,0.0,False,0.9236333427966605,1.0499012289649627
0.5656574949389324,11:44:21.326950,11:43:20.852008,0,,0.0935327,0.014929816,0.011111364,0.8954125,-0.43756884,-0.082279935,-0.41932294,-0.89089805,0.17455286,-0.14968188,-0.12179485,-0.98120403,,-0.013304971,-0.011799358,0.040011644,0.7268424,0.16300209,0.667181,0.26860088,-0.9615215,-0.057706207,0.6321026,0.22114861,-0.742657,,0.096306816,1.3397235,0.45029336,0.9951147,-0.010597058,-0.098155126,-0.070356235,-0.7735924,-0.6297656,-0.0692584,0.6335949,-0.7705588,,-0.07127294,0.22968788,-0.08867419,-0.90263265,0.39800307,0.16385311,-0.4241746,-0.75799793,-0.4954947,-0.07300809,-0.516752,0.8530165,,0.045282025,0.3967503,-0.38635987,-0.79298687,-0.17649856,-0.5831124,0.5936817,-0.4387762,-0.6745499,-0.13679877,-0.8810923,0.45272774,,1.0074305034425872,0.20260589695528,0.17673099344,-1.6380978385011042,-0.09181972784237599,0.25423934463266984,0.7553029618049072,,-1.0812907206516704,-0.09284269461392705,0.16650845050000002,4.537690377005107,-0.45773227421422547,0.3823979962787547,0.8758508826120053,,-0.035048393041611135,-0.0946797485975624,0.08866120536,-0.06999633924317733,,-1.1272728e-05,-2.682209e-06,3.0994415e-06,1.0,3.362447e-05,2.7649105e-05,-3.362447e-05,1.0,3.0398369e-06,-2.764538e-05,-3.0398369e-06,1.0,194,0.582,0,0,0.0,False,0.9295315369302433,1.0502874705711984
0.5954863949446008,11:44:21.358308,11:43:20.852008,0,,0.09283568,0.014957234,0.011155888,0.90236443,-0.4230676,-0.08217221,-0.40514368,-0.8977359,0.17299896,-0.14695914,-0.12281644,-0.9814883,,-0.013305269,-0.011798166,0.040011764,0.72684306,0.16300403,0.6671799,0.26859736,-0.9615228,-0.05769965,0.6321034,0.22114125,-0.7426585,,0.096306816,1.3397235,0.45029336,0.9951147,-0.010597058,-0.098155126,-0.070356235,-0.7735924,-0.6297656,-0.0692584,0.6335949,-0.7705588,,-0.07058067,0.22974262,-0.08875374,-0.90901303,0.38327846,0.16368529,-0.41160697,-0.76400304,-0.49686927,-0.06538323,-0.5190346,0.85224885,,0.04528229,0.39675117,-0.38635904,-0.7929875,-0.17649968,-0.5831112,0.5936801,-0.43878296,-0.67454684,-0.13680196,-0.88108873,0.45273373,,1.0111991970852088,0.20068293646959812,0.17673747489000002,-1.6544536540928971,-0.09236627384143774,0.2554201249087206,0.7574264346646529,,-1.0812907206516704,-0.09283497188105283,0.16650845050000002,4.537690377005107,-0.45773227421422547,0.3823979962787547,0.8758508826120053,,-0.035048393041611135,-0.0946797485975624,0.08866120536,-0.06999633924317733,,-1.1272728e-05,-2.682209e-06,3.0994415e-06,1.0,3.362447e-05,2.7649105e-05,-3.362447e-05,1.0,3.0398369e-06,-2.764538e-05,-3.0398369e-06,1.0,205,0.615,0,0,0.0,False,0.9287570265894698,1.0502874705711984
0.6268415739759803,11:44:21.394926,11:43:20.852008,0,,0.09229109,0.015060745,0.0112353265,0.90622145,-0.4144883,-0.08344081,-0.39641747,-0.9015819,0.1732139,-0.14702383,-0.123892576,-0.98134327,,-0.013304099,-0.011797883,0.04001206,0.7268387,0.1630554,0.66717196,0.26859504,-0.9615283,-0.057620704,0.63210917,0.22107998,-0.7426717,,0.096306816,1.3397235,0.45029336,0.9951147,-0.010597058,-0.098155126,-0.070356235,-0.7735924,-0.6297656,-0.0692584,0.6335949,-0.7705588,,-0.07003878,0.22987698,-0.088797435,-0.912391,0.37461242,0.1649492,-0.4049867,-0.76770574,-0.4966021,-0.059400856,-0.5198975,0.8521609,,0.0452811,0.39675143,-0.38635895,-0.7929839,-0.17654414,-0.58310264,0.59368354,-0.43883872,-0.6745075,-0.13680767,-0.8810521,0.4528034,,1.0143809630293894,0.1996712584630747,0.17673877118,-1.6638897015497007,-0.09195636434214143,0.2558209798588964,0.7588965312598615,,-1.0812984433845447,-0.09283497188105283,0.16650845050000002,4.537690377005107,-0.45773227421422547,0.3823163175386141,0.875687538545871,,-0.035048393041611135,-0.0946797485975624,0.08866120536,-0.06999633924317733,,-1.1272728e-05,-2.682209e-06,3.0994415e-06,1.0,3.362447e-05,2.7649105e-05,-3.362447e-05,1.0,3.0398369e-06,-2.764538e-05,-3.0398369e-06,1.0,216,0.647,0,0,0.0,False,0.927327161344965,1.0504805913743163
0.6634611279005185,11:44:21.427093,11:43:21.027499,0,,0.09153659,0.015241548,0.011369586,0.9037171,-0.4183992,-0.0907611,-0.3987425,-0.8997414,0.17739683,-0.15588416,-0.12412602,-0.9799453,,-0.013304971,-0.011799358,0.040011644,0.7268424,0.16300209,0.667181,0.26860088,-0.9615215,-0.057706207,0.6321026,0.22114861,-0.742657,,0.096306816,1.3397235,0.45029336,0.9951147,-0.010597058,-0.098155126,-0.070356235,-0.7735924,-0.6297656,-0.0692584,0.6335949,-0.7705588,,-0.06928786,0.23010735,-0.088852525,-0.90936226,0.3786212,0.17235523,-0.41243908,-0.7664158,-0.49244377,-0.054353874,-0.5188958,0.85310775,,0.045282025,0.3967503,-0.38635987,-0.79298687,-0.17649856,-0.5831124,0.5936817,-0.4387762,-0.6745499,-0.13679877,-0.8810923,0.45272774,,1.0188138116991943,0.19859007586068328,0.17673617860000002,-1.6584377630191032,-0.08922363434683261,0.25367430052510853,0.7584064990614585,,-1.0812907206516704,-0.09284269461392705,0.16650845050000002,4.537690377005107,-0.45773227421422547,0.38239799627875465,0.8755241944797367,,-0.035048393041611135,-0.0946797485975624,0.08866120536,-0.06999633924317733,,-1.1272728e-05,-2.682209e-06,3.0994415e-06,1.0,3.362447e-05,2.7649105e-05,-3.362447e-05,1.0,3.0398369e-06,-2.764538e-05,-3.0398369e-06,1.0,227,0.68,0,0,0.0,False,0.9238120759522235,1.0499495091657423
0.6956082839751616,11:44:21.457678,11:43:21.027499,0,,0.09115346,0.015323691,0.01143381,0.9005556,-0.42373624,-0.0971969,-0.4030847,-0.89759696,0.17844385,-0.16285673,-0.12151989,-0.97913766,,-0.013303809,-0.011799075,0.040011883,0.72683823,0.16299897,0.6671863,0.26859847,-0.9615222,-0.05770579,0.6321084,0.22114798,-0.74265224,,0.096306816,1.3397235,0.45029336,0.9951147,-0.010597058,-0.098155126,-0.070356235,-0.7735924,-0.6297656,-0.0692584,0.6335949,-0.7705588,,-0.068906754,0.23021439,-0.08888367,-0.9059249,0.38385552,0.17875952,-0.42022118,-0.7630592,-0.4910751,-0.0520978,-0.5199957,0.8525786,,0.045280837,0.39675057,-0.38635978,-0.7929833,-0.1764954,-0.58311826,0.59368515,-0.43877688,-0.67454636,-0.13680448,-0.8810926,0.45272544,,1.0209761769039771,0.19801087089511643,0.17673488231,-1.6513083049406292,-0.08676417735105468,0.2542824979430709,0.7577531227969214,,-1.0812984433845447,-0.09284269461392705,0.16650845050000002,4.537690377005107,-0.45773227421422547,0.38239799627875465,0.8755241944797367,,-0.035048393041611135,-0.0946797485975624,0.08866120536,-0.06999633924317733,,-1.1272728e-05,-2.682209e-06,3.0994415e-06,1.0,3.362447e-05,2.7649105e-05,-3.362447e-05,1.0,3.0398369e-06,-2.764538e-05,-3.0398369e-06,1.0,238,0.713,0,0,0.0,False,0.9211310786187776,1.0505771517758753
0.7262109409784898,11:44:21.494504,11:43:21.027499,0,,0.09039782,0.015455797,0.011546209,0.89839816,-0.4253611,-0.10930988,-0.40355432,-0.8977388,0.17665997,-0.17327596,-0.11459836,-0.9781833,,-0.013301767,-0.011797406,0.040012658,0.72683036,0.16299471,0.6671959,0.2685903,-0.96152496,-0.0576984,0.63212097,0.22113922,-0.7426442,,0.096306816,1.3397235,0.45029336,0.9951147,-0.010597058,-0.098155126,-0.070356235,-0.7735924,-0.6297656,-0.0692584,0.6335949,-0.7705588,,-0.06815565,0.23039341,-0.08895334,-0.9030286,0.38495305,0.19065797,-0.42725444,-0.7587125,-0.49174085,-0.044642568,-0.52551556,0.84961194,,0.04527872,0.396752,-0.38635877,-0.79297674,-0.17649019,-0.5831287,0.5936905,-0.43878502,-0.6745364,-0.13681908,-0.8810896,0.45272684,,1.0251155617245613,0.19665166990925292,0.17673488231,-1.6469048161274542,-0.08157199035996796,0.25944167271877155,0.7559563380694443,,-1.0813138888502931,-0.09283497188105283,0.16650845050000002,4.537690377005107,-0.45773227421422547,0.38239799627875465,0.8755241944797367,,-0.035048393041611135,-0.0946797485975624,0.08866120536,-0.06999633924317733,,-1.1272728e-05,-2.682209e-06,3.0994415e-06,1.0,3.362447e-05,2.7649105e-05,-3.362447e-05,1.0,3.0398369e-06,-2.764538e-05,-3.0398369e-06,1.0,249,0.746,0,0,0.0,False,0.9122539985591436,1.0503840309727575
0.7630402880022302,11:44:21.525989,11:43:21.027499,0,,0.08986126,0.015510485,0.011607766,0.9012886,-0.41859752,-0.11160168,-0.39662886,-0.9009329,0.17608362,-0.17425373,-0.11443758,-0.97802854,,-0.01330293,-0.011797644,0.04001236,0.7268346,0.16299781,0.6671906,0.26859266,-0.96152425,-0.057698786,0.63211507,0.22113991,-0.74264896,,0.096306816,1.3397235,0.45029336,0.9951147,-0.010597058,-0.098155126,-0.070356235,-0.7735924,-0.6297656,-0.0692584,0.6335949,-0.7705588,,-0.067623004,0.2304788,-0.08901391,-0.9054709,0.3780378,0.19289853,-0.42259383,-0.7611078,-0.49206647,-0.039203163,-0.5270696,0.8489174,,0.045279913,0.39675173,-0.38635886,-0.7929803,-0.17649335,-0.58312285,0.593687,-0.43878433,-0.67453986,-0.13681337,-0.8810893,0.45272914,,1.0280810911482636,0.19540830991650276,0.17673877118,-1.6540342742059282,-0.08088880786114075,0.2604364792629602,0.7507293279531474,,-1.081306166117419,-0.09283497188105283,0.16650845050000002,4.537690377005107,-0.45773227421422547,0.38239799627875465,0.8755241944797367,,-0.035048393041611135,-0.0946797485975624,0.08866120536,-0.06999633924317733,,-1.1272728e-05,-2.682209e-06,3.0994415e-06,1.0,3.362447e-05,2.7649105e-05,-3.362447e-05,1.0,3.0398369e-06,-2.764538e-05,-3.0398369e-06,1.0,260,0.778,0,0,0.0,False,0.8977766129585323,1.0502391903704191
0.7945238149259239,11:44:21.557761,11:43:21.027499,0,,0.08935475,0.015527144,0.011631489,0.8994607,-0.42176312,-0.11439569,-0.39924666,-0.8995344,0.17731246,-0.17768672,-0.11381334,-0.9774835,,-0.013303809,-0.011799075,0.040011883,0.72683823,0.16299897,0.6671863,0.26859847,-0.9615222,-0.05770579,0.6321084,0.22114798,-0.74265224,,0.096306816,1.3397235,0.45029336,0.9951147,-0.010597058,-0.098155126,-0.070356235,-0.7735924,-0.6297656,-0.0692584,0.6335949,-0.7705588,,-0.06711947,0.23051052,-0.08906721,-0.90353346,0.38121745,0.19570512,-0.42679134,-0.7596116,-0.49075383,-0.03842405,-0.5269378,0.84903485,,0.045280837,0.39675057,-0.38635978,-0.7929833,-0.1764954,-0.58311826,0.59368515,-0.43877688,-0.67454636,-0.13680448,-0.8810926,0.45272544,,1.030807215852865,0.19404138619776504,0.17676080811000003,-1.6502598552232068,-0.08157199035996796,0.2589516002779282,0.734721609471988,,-1.0812984433845447,-0.09284269461392705,0.16650845050000002,4.537690377005107,-0.45773227421422547,0.38239799627875465,0.8755241944797367,,-0.035048393041611135,-0.0946797485975624,0.08866120536,-0.06999633924317733,,-1.1272728e-05,-2.682209e-06,3.0994415e-06,1.0,3.362447e-05,2.7649105e-05,-3.362447e-05,1.0,3.0398369e-06,-2.764538e-05,-3.0398369e-06,1.0,271,0.811,0,0,0.0,False,0.888184600276646,1.0502391903704191
0.8262969589559361,11:44:21.587590,11:43:21.172175,0,,0.08835584,0.01576095,0.010533437,0.89766914,-0.41556218,-0.14662321,-0.39312404,-0.90552264,0.15963113,-0.19910724,-0.085654676,-0.9762273,,-0.013304099,-0.011797883,0.04001206,0.7268387,0.16300091,0.66718525,0.26859504,-0.96152353,-0.057699233,0.63210917,0.22114062,-0.7426537,,0.096306816,1.3397235,0.45029336,0.9951147,-0.010597058,-0.098155126,-0.070356235,-0.7735924,-0.6297656,-0.0692584,0.6335949,-0.7705588,,-0.066031,0.22999221,-0.088170126,-0.89983964,0.37263998,0.22677767,-0.43583593,-0.74617064,-0.5032658,-0.018322114,-0.55169636,0.83384377,,0.0452811,0.39675143,-0.38635895,-0.7929839,-0.1764965,-0.58311707,0.59368354,-0.43878365,-0.6745434,-0.13680767,-0.88108903,0.45273143,,1.0336569042834538,0.19008734696616209,0.17791191363000003,-1.647114506070939,-0.06257951689257173,0.28430388173440674,0.7190405791230972,,-1.0812984433845447,-0.09283497188105283,0.16650845050000002,4.537690377005107,-0.45773227421422547,0.38239799627875465,0.8755241944797367,,-0.035048393041611135,-0.0946797485975624,0.08866120536,-0.06999633924317733,,-1.1272728e-05,-2.682209e-06,3.0994415e-06,1.0,3.362447e-05,2.7649105e-05,-3.362447e-05,1.0,3.0398369e-06,-2.764538e-05,-3.0398369e-06,1.0,275,0.823,0,0,0.0,False,0.8772223000687762,1.0496598279610654
0.8561009499244392,11:44:21.607805,11:43:21.172175,0,,0.087420605,0.015867606,0.010099128,0.89499074,-0.41476846,-0.16419162,-0.38950086,-0.90601844,0.16558838,-0.21744142,-0.08424711,-0.9724308,,-0.013304099,-0.011797883,0.04001206,0.7268387,0.16300091,0.66718525,0.26859504,-0.96152353,-0.057699233,0.63210917,0.22114062,-0.7426537,,0.096306816,1.3397235,0.45029336,0.9951147,-0.010597058,-0.098155126,-0.070356235,-0.7735924,-0.6297656,-0.0692584,0.6335949,-0.7705588,,-0.06506184,0.22980204,-0.087855145,-0.89562273,0.37171915,0.24430478,-0.44480878,-0.745653,-0.49613187,-0.002255124,-0.5530159,0.8331677,,0.0452811,0.39675143,-0.38635895,-0.7929839,-0.1764965,-0.58311707,0.59368354,-0.43878365,-0.6745434,-0.13680767,-0.88108903,0.45273143,,1.037170747741226,0.18704459021371764,0.17841617044000002,-1.6429207072012484,-0.0479594114176696,0.28283704477688165,0.7040129250387436,,-1.0812984433845447,-0.09283497188105283,0.16650845050000002,4.537690377005107,-0.45773227421422547,0.38239799627875465,0.8755241944797367,,-0.035048393041611135,-0.0946797485975624,0.08866120536,-0.06999633924317733,,-1.1272728e-05,-2.682209e-06,3.0994415e-06,1.0,3.362447e-05,2.7649105e-05,-3.362447e-05,1.0,3.0398369e-06,-2.764538e-05,-3.0398369e-06,1.0,282,0.845,0,0,0.0,False,0.875613701668708,1.0496115477602863
0.8763290829956532,11:44:21.627193,11:43:21.172175,0,,0.08703489,0.015635952,0.010050207,0.89466155,-0.4169978,-0.16029245,-0.39421502,-0.90570164,0.15588096,-0.2101791,-0.07627085,-0.9746833,,-0.01330293,-0.011797644,0.04001236,0.7268346,0.16299781,0.6671906,0.26859266,-0.96152425,-0.057698786,0.63211507,0.22113991,-0.74264896,,0.096306816,1.3397235,0.45029336,0.9951147,-0.010597058,-0.098155126,-0.070356235,-0.7735924,-0.6297656,-0.0692584,0.6335949,-0.7705588,,-0.06468625,0.22959585,-0.08800096,-0.8960809,0.37336454,0.24007894,-0.44375828,-0.74027294,-0.50504905,-0.010843466,-0.5591019,0.82902807,,0.045279913,0.39675173,-0.38635886,-0.7929803,-0.17649335,-0.58312285,0.593687,-0.43878433,-0.67453986,-0.13681337,-0.8810893,0.45272914,,1.0390242036310398,0.1847046021528276,0.17839802238000002,-1.6416625675403413,-0.05848042189960852,0.2879040375354619,0.7035228928403408,,-1.081306166117419,-0.09283497188105283,0.16650845050000002,4.537690377005107,-0.45773227421422547,0.38239799627875465,0.8755241944797367,,-0.035048393041611135,-0.0946797485975624,0.08866120536,-0.06999633924317733,,-1.1272728e-05,-2.682209e-06,3.0994415e-06,1.0,3.362447e-05,2.7649105e-05,-3.362447e-05,1.0,3.0398369e-06,-2.764538e-05,-3.0398369e-06,1.0,290,0.868,0,0,0.0,False,0.8745413027353295,1.0499012289649627
0.89573038299568,11:44:21.650659,11:43:21.172175,0,,0.08646071,0.015430495,0.010202482,0.89303285,-0.42275476,-0.15417793,-0.39930913,-0.9024551,0.16163775,-0.20747177,-0.08278304,-0.9747319,,-0.013302177,-0.011798434,0.040009677,0.72683406,0.16299587,0.66719174,0.2685961,-0.9615229,-0.057705343,0.6321143,0.22114727,-0.7426474,,0.096306816,1.3397235,0.45029336,0.9951147,-0.010597058,-0.098155126,-0.070356235,-0.7735924,-0.6297656,-0.0692584,0.6335949,-0.7705588,,-0.06413653,0.22954033,-0.088300645,-0.8949272,0.379751,0.23429567,-0.4459137,-0.7419223,-0.50071174,-0.016316596,-0.55257624,0.8333026,,0.04527945,0.39674908,-0.38635778,-0.7929797,-0.17649224,-0.5831241,0.5936886,-0.43877757,-0.67454284,-0.13681018,-0.8810929,0.45272315,,1.0421055740478553,0.18227966403032111,0.17822172694000002,-1.6380978385011042,-0.06640533888600406,0.27786717044146075,0.6951923454674925,,-1.081306166117419,-0.09284269461392705,0.16651104308,4.537690377005107,-0.45773227421422547,0.38239799627875465,0.8755241944797367,,-0.035048393041611135,-0.0946797485975624,0.08866120536,-0.06999633924317733,,-1.1272728e-05,-2.682209e-06,3.0994415e-06,1.0,3.362447e-05,2.7649105e-05,-3.362447e-05,1.0,3.0398369e-06,-2.764538e-05,-3.0398369e-06,1.0,301,0.901,0,0,0.0,False,0.8794862533725749,1.0499012289649627
0.9191814649384469,11:44:21.678834,11:43:21.276443,0,,0.08614929,0.015153348,0.010017514,0.8917537,-0.42521858,-0.154805,-0.4034536,-0.9020197,0.15357587,-0.20494041,-0.07449505,-0.9759354,,-0.013303921,-0.011796303,0.040009677,0.72683936,0.16300283,0.66718405,0.26859158,-0.96152496,-0.057692677,0.63211,0.22113323,-0.7426553,,0.096306816,1.3397235,0.45029336,0.9951147,-0.010597058,-0.098155126,-0.070356235,-0.7735924,-0.6297656,-0.0692584,0.6335949,-0.7705588,,-0.06382724,0.2292114,-0.08836502,-0.89405864,0.38161305,0.23458599,-0.4474566,-0.73624945,-0.5076606,-0.021016113,-0.55884546,0.8290055,,0.045281168,0.39675057,-0.38635623,-0.79298455,-0.17649762,-0.5831158,0.593682,-0.43879038,-0.6745404,-0.13681085,-0.88108546,0.45273745,,1.0429164609996489,0.17976977584619813,0.17830598579,-1.6349524893488363,-0.07105097987802904,0.28263552404882586,0.7009093877821923,,-1.0812984433845447,-0.09282724914817861,0.16651104308,4.537690377005107,-0.45773227421422547,0.38239799627875465,0.8755241944797367,,-0.035048393041611135,-0.0946797485975624,0.08866120536,-0.06999633924317733,,-1.1272728e-05,-2.682209e-06,3.0994415e-06,1.0,3.362447e-05,2.7649105e-05,-3.362447e-05,1.0,3.0398369e-06,-2.764538e-05,-3.0398369e-06,1.0,308,0.922,0,0,0.0,False,0.8853248697876364,1.0498529487641832
0.9473699938971549,11:44:21.706293,11:43:21.276443,0,,0.085701846,0.015093759,0.009482235,0.88981897,-0.4234851,-0.16994905,-0.40245128,-0.9038644,0.1451278,-0.21507028,-0.060741097,-0.9747078,,-0.013304219,-0.011795126,0.040009856,0.72683996,0.16300476,0.66718304,0.26858807,-0.9615263,-0.05768612,0.6321108,0.22112584,-0.74265677,,0.096306816,1.3397235,0.45029336,0.9951147,-0.010597058,-0.098155126,-0.070356235,-0.7735924,-0.6297656,-0.0692584,0.6335949,-0.7705588,,-0.06334508,0.22882536,-0.08803519,-0.8913283,0.3787701,0.24913274,-0.4531772,-0.72884655,-0.5132379,-0.012819658,-0.5703647,0.8212915,,0.045281436,0.39675143,-0.3863554,-0.7929852,-0.17649873,-0.5831146,0.5936804,-0.43879715,-0.6745374,-0.13681403,-0.8810819,0.45274347,,1.0436346751569519,0.1772058285319556,0.17879857599,-1.6313877603095994,-0.0621696073932754,0.29385275558032553,0.7041762691048778,,-1.0812984433845447,-0.09281952641530439,0.16651104308,4.537690377005107,-0.45773227421422547,0.38239799627875465,0.8755241944797367,,-0.035048393041611135,-0.0946797485975624,0.08866120536,-0.06999633924317733,,-1.1272728e-05,-2.682209e-06,3.0994415e-06,1.0,3.362447e-05,2.7649105e-05,-3.362447e-05,1.0,3.0398369e-06,-2.764538e-05,-3.0398369e-06,1.0,319,0.955,0,0,0.0,False,0.8872313567803092,1.049804668563404
0.974820852978155,11:44:21.731048,11:43:21.276443,0,,0.08561376,0.015204832,0.009395048,0.88746256,-0.42085093,-0.18786882,-0.3998731,-0.9057913,0.14015475,-0.2291542,-0.049258232,-0.97214305,,-0.013300128,-0.011801742,0.04000956,0.726828,0.16298702,0.6672004,0.26860425,-0.9615195,-0.057724595,0.6321178,0.2211687,-0.7426382,,0.096306816,1.3397235,0.45029336,0.9951147,-0.010597058,-0.098155126,-0.070356235,-0.7735924,-0.6297656,-0.0692584,0.6335949,-0.7705588,,-0.063245066,0.22885521,-0.08790556,-0.88780206,0.3751943,0.2665271,-0.46022502,-0.72297144,-0.515272,-0.00063565857,-0.580122,0.81452936,,0.045277465,0.39674675,-0.38636017,-0.7929742,-0.17648575,-0.5831335,0.5936969,-0.438758,-0.6745483,-0.13680634,-0.881104,0.45270282,,1.0434493295679703,0.17735256045656586,0.17892561241000002,-1.6276133413268778,-0.0479594114176696,0.305707092016239,0.7056463657000863,,-1.0813138888502931,-0.09286586281254973,0.16651104308,4.537690377005107,-0.45773227421422547,0.3823979962787547,0.8758508826120053,,-0.035048393041611135,-0.0946797485975624,0.08866120536,-0.06999633924317733,,-1.1272728e-05,-2.682209e-06,3.0994415e-06,1.0,3.362447e-05,2.7649105e-05,-3.362447e-05,1.0,3.0398369e-06,-2.764538e-05,-3.0398369e-06,1.0,330,0.987,0,0,0.0,False,0.8943211052843125,1.0499495091657423
0.9995261299191043,11:44:21.760847,11:43:21.276443,0,,0.085661136,0.015352115,0.009342521,0.8860847,-0.42162102,-0.1925869,-0.40024918,-0.9055146,0.14086786,-0.23378308,-0.047737956,-0.9711161,,-0.013299532,-0.011809103,0.040008426,0.7268286,0.16297859,0.66720176,0.26862746,-0.96151054,-0.05776435,0.63210714,0.22121346,-0.7426338,,0.096306816,1.3397235,0.45029336,0.9951147,-0.010597058,-0.098155126,-0.070356235,-0.7735924,-0.6297656,-0.0692584,0.6335949,-0.7705588,,-0.06328061,0.22893405,-0.08776694,-0.88610643,0.37586305,0.27118695,-0.4634749,-0.72177756,-0.5140313,0.002531297,-0.5811748,0.8137748,,0.045277067,0.39674124,-0.3863652,-0.7929739,-0.17648226,-0.58313495,0.593703,-0.4387168,-0.6745697,-0.13678151,-0.88112515,0.45266902,,1.0432562612461147,0.1780939428124914,0.17902931561000002,-1.6250970620050638,-0.043587043425175505,0.3076141946873712,0.7123434724115918,,-1.081306166117419,-0.09291219920979507,0.16651104308,4.537690377005107,-0.45773227421422547,0.3823979962787547,0.8758508826120053,,-0.035048393041611135,-0.0946797485975624,0.08866120536,-0.06999633924317733,,-1.1272728e-05,-2.682209e-06,3.0994415e-06,1.0,3.362447e-05,2.7649105e-05,-3.362447e-05,1.0,3.0398369e-06,-2.764538e-05,-3.0398369e-06,1.0,338,1.012,0,0,0.0,False,0.8994447890771213,1.049708108161845
1.0293825569096953,11:44:21.789817,11:43:21.276443,0,,0.08556248,0.015399307,0.009199217,0.88602614,-0.42202172,-0.19197762,-0.40002754,-0.9051808,0.14361602,-0.2343835,-0.05045101,-0.9708342,,-0.013308793,-0.011807524,0.040008128,0.72685987,0.16295157,0.66717434,0.26863354,-0.9615052,-0.05782622,0.6320687,0.22125688,-0.74265367,,0.096306816,1.3397235,0.45029336,0.9951147,-0.010597058,-0.098155126,-0.070356235,-0.7735924,-0.6297656,-0.0692584,0.6335949,-0.7705588,,-0.06316927,0.22887895,-0.087636314,-0.885992,0.37648076,0.2707036,-0.46369,-0.72326046,-0.51174784,0.0031260073,-0.5789271,0.8153733,,0.045286287,0.39674282,-0.3863643,-0.7930009,-0.1764601,-0.58310497,0.59367394,-0.43867716,-0.6746211,-0.13675115,-0.88114935,0.45263115,,1.0436115069583292,0.17775414256602554,0.17918746299000002,-1.6250970620050638,-0.043313770425644625,0.30453260297505874,0.7174071384617545,,-1.0812521069872993,-0.09288903101117241,0.16650974679000002,4.537690377005107,-0.45773227421422547,0.38247967501889524,0.8756875385458711,,-0.035048393041611135,-0.0946797485975624,0.08866120536,-0.06999633924317733,,-1.1272728e-05,-2.682209e-06,3.0994415e-06,1.0,3.362447e-05,2.7649105e-05,-3.362447e-05,1.0,3.0398369e-06,-2.764538e-05,-3.0398369e-06,1.0,346,1.036,0,0,0.0,False,0.8962275922769853,1.049708108161845
1.0583131510065868,11:44:21.819782,11:43:21.276443,0,,0.08547726,0.015487619,0.008646205,0.88583446,-0.42264327,-0.1914945,-0.39996585,-0.9047288,0.14660487,-0.23521212,-0.05327621,-0.9704828,,-0.013325445,-0.011803485,0.040004015,0.7269181,0.16300337,0.6670982,0.26864332,-0.96150446,-0.057792395,0.63199747,0.22122172,-0.74272466,,0.096306816,1.3397235,0.45029336,0.9951147,-0.010597058,-0.098155126,-0.070356235,-0.7735924,-0.6297656,-0.0692584,0.6335949,-0.7705588,,-0.06303876,0.22859225,-0.08716551,-0.88573635,0.37733293,0.2703534,-0.46417326,-0.7247231,-0.50923437,0.0037804716,-0.5765382,0.8170614,,0.045303244,0.3967436,-0.38635957,-0.79305124,-0.17650786,-0.583022,0.5936193,-0.43870878,-0.6746486,-0.1366961,-0.881124,0.45269704,,1.0432562612461147,0.17688147375123817,0.17973060850000003,-1.6246776821180946,-0.0422206784275211,0.30070082510042706,0.7190405791230973,,-1.0811517114599345,-0.09284269461392705,0.16651104308,4.537690377005107,-0.45773227421422547,0.38247967501889524,0.8756875385458711,,-0.035048393041611135,-0.0946797485975624,0.08866120536,-0.06999633924317733,,-1.1272728e-05,-2.682209e-06,3.0994415e-06,1.0,3.362447e-05,2.7649105e-05,-3.362447e-05,1.0,3.0398369e-06,-2.764538e-05,-3.0398369e-06,1.0,354,1.061,0,0,0.0,False,0.8957509705288174,1.0499977893665218
1.088289052946493,11:44:21.840456,11:43:21.455817,0,,0.08546379,0.01551272,0.008527204,0.88451695,-0.4243384,-0.19382149,-0.40074456,-0.9038335,0.14996204,-0.23881699,-0.05497092,-0.96950746,,-0.0133129135,-0.0118144825,0.04000473,0.72687787,0.16306645,0.66712666,0.26866272,-0.96150434,-0.05770406,0.6320355,0.22117579,-0.74270606,,0.096306816,1.3397235,0.45029336,0.9951147,-0.010597058,-0.098155126,-0.070356235,-0.7735924,-0.6297656,-0.0692584,0.6335949,-0.7705588,,-0.06301521,0.22853519,-0.08705987,-0.884198,0.3791937,0.27277476,-0.4670749,-0.7251122,-0.50601715,0.0059138103,-0.5748256,0.8182546,,0.04529081,0.39673623,-0.38636795,-0.79301554,-0.17656562,-0.5830531,0.5936646,-0.4387502,-0.6745818,-0.13670671,-0.88109183,0.4527565,,1.0430091337941396,0.17675018729237635,0.17984857089000003,-1.6221614027962803,-0.03894140243315053,0.29835351037227525,0.7196939553876345,,-1.0812134933229283,-0.09292764467554353,0.16651104308,4.537690377005107,-0.45773227421422547,0.38231631753861406,0.8753608504136026,,-0.035048393041611135,-0.0946797485975624,0.08866120536,-0.06999633924317733,,-1.1272728e-05,-2.682209e-06,3.0994415e-06,1.0,3.362447e-05,2.7649105e-05,-3.362447e-05,1.0,3.0398369e-06,-2.764538e-05,-3.0398369e-06,1.0,391,1.176,0,0,0.0,False,0.9003980325734577,1.0501909101696396
1.108957536984235,11:44:21.951113,11:43:21.455817,0,,0.084525794,0.014850676,0.0076451898,0.8818172,-0.4203839,-0.21371907,-0.4000971,-0.9067949,0.13283527,-0.2496411,-0.031627893,-0.9678218,,-0.013330363,-0.0118232295,0.039999604,0.7269428,0.16305387,0.667059,0.26871437,-0.9614832,-0.05781561,0.6319389,0.22127688,-0.74275815,,0.096306816,1.3397235,0.45029336,0.9951147,-0.010597058,-0.098155126,-0.070356235,-0.7735924,-0.6297656,-0.0692584,0.6335949,-0.7705588,,-0.062050465,0.22746828,-0.08689536,-0.88067293,0.3733694,0.29156563,-0.4735076,-0.7124257,-0.51791906,0.014343701,-0.5941759,0.80420727,,0.045308787,0.39672837,-0.38637266,-0.7930702,-0.17656417,-0.5829792,0.5936155,-0.43865716,-0.67468554,-0.1366027,-0.88113844,0.45269716,,1.0440825936636569,0.16936725466461772,0.18045264203000003,-1.6177579139831053,-0.030060029948396898,0.31471650253263034,0.7162637299988145,,-1.0810899295969407,-0.09295853560704043,0.16651104308,4.537690377005107,-0.45773227421422547,0.3823979962787547,0.8751975063474682,,-0.035048393041611135,-0.0946797485975624,0.08866120536,-0.06999633924317733,,-1.1272728e-05,-2.682209e-06,3.0994415e-06,1.0,3.362447e-05,2.7649105e-05,-3.362447e-05,1.0,3.0398369e-06,-2.764538e-05,-3.0398369e-06,1.0,403,1.213,0,0,0.0,False,0.8807373854615168,1.0506737121774343
1.2196375979110599,11:44:21.989185,11:43:21.595116,0,,0.08428745,0.014667645,0.0075996965,0.88167316,-0.4201042,-0.21486044,-0.4002405,-0.9069955,0.13102117,-0.24991994,-0.029521823,-0.96781635,,-0.013318501,-0.011847265,0.03999394,0.7269887,0.16281247,0.66706795,0.2686062,-0.96149874,-0.058059543,0.6319321,0.22138715,-0.74273103,,0.096306816,1.3397235,0.45029336,0.9951147,-0.010597058,-0.098155126,-0.070356235,-0.7735924,-0.6297656,-0.0692584,0.6335949,-0.7705588,,-0.06181934,0.22730052,-0.08699935,-0.8805163,0.37292418,0.29260662,-0.47379553,-0.71122944,-0.519298,0.014451658,-0.5958861,0.80293894,,0.045297846,0.39670798,-0.38638732,-0.79311407,-0.17633584,-0.5829886,0.59353894,-0.43855917,-0.67481655,-0.13668066,-0.881233,0.45248964,,1.0447853623552112,0.1677145898295337,0.18044097542,-1.617548224039621,-0.03060657594745866,0.315162174147416,0.7069531182291606,,-1.0811208205284375,-0.09312071299739914,0.16651493195000003,4.537900066948591,-0.45773227421422547,0.38239799627875465,0.8755241944797367,,-0.035048393041611135,-0.0946797485975624,0.08866120536,-0.06999633924317733,,-1.1272728e-05,-2.682209e-06,3.0994415e-06,1.0,3.362447e-05,2.7649105e-05,-3.362447e-05,1.0,3.0398369e-06,-2.764538e-05,-3.0398369e-06,1.0,407,1.225,0,0,0.0,False,0.8746604581723716,1.050046069567301
1.2577191349118948,11:44:22.011293,11:43:21.595116,0,,0.08420679,0.014583617,0.0075600445,0.8813247,-0.42072037,-0.21508403,-0.40118656,-0.9067552,0.12978512,-0.24963179,-0.028093845,-0.96793324,,-0.013315104,-0.011838339,0.039993465,0.72705126,0.1626248,0.6670454,0.2684005,-0.9615525,-0.058119893,0.63194746,0.2212914,-0.74274653,,0.096306816,1.3397235,0.45029336,0.9951147,-0.010597058,-0.098155126,-0.070356235,-0.7735924,-0.6297656,-0.0692584,0.6335949,-0.7705588,,-0.06174049,0.22721122,-0.08703015,-0.8802404,0.37344453,0.29277304,-0.4743333,-0.71012396,-0.52031904,0.013594868,-0.5968778,0.80221695,,0.045294423,0.39671287,-0.38637984,-0.79317594,-0.17613849,-0.58296406,0.5934177,-0.43865022,-0.674864,-0.1368478,-0.88122714,0.4524505,,1.0449398170126958,0.16705043480235038,0.18045004945,-1.6167094642656827,-0.0314263949460513,0.31574900282945395,0.7009093877821923,,-1.0811517114599345,-0.09306665386727957,0.16651752453000002,4.538109756892076,-0.45773227421422547,0.3823979962787547,0.8758508826120053,,-0.035048393041611135,-0.0946797485975624,0.08866120536,-0.06999633924317733,,-1.1272728e-05,-2.682209e-06,3.0994415e-06,1.0,3.362447e-05,2.7649105e-05,-3.362447e-05,1.0,3.0398369e-06,-2.764538e-05,-3.0398369e-06,1.0,419,1.262,0,0,0.0,False,0.8616129378162651,1.0499495091657423
1.2798104409594089,11:44:22.042661,11:43:21.595116,0,,0.08427315,0.01468569,0.0076762885,0.8810917,-0.42143586,-0.21463758,-0.40224516,-0.9064574,0.12858316,-0.24874935,-0.026956499,-0.9681927,,-0.013323389,-0.011828132,0.039997518,0.7270741,0.16265643,0.66701293,0.26837516,-0.96156347,-0.058056027,0.631932,0.22122067,-0.7427807,,0.096306816,1.3397235,0.45029336,0.9951147,-0.010597058,-0.098155126,-0.070356235,-0.7735924,-0.6297656,-0.0692584,0.6335949,-0.7705588,,-0.061809838,0.22736363,-0.08704754,-0.88012934,0.37408838,0.29228455,-0.47457662,-0.7091602,-0.5214104,0.012223,-0.59762,0.8016863,,0.045302127,0.3967231,-0.3863748,-0.79319674,-0.17616223,-0.58292866,0.5933879,-0.43871498,-0.6748481,-0.13685681,-0.8811901,0.45251983,,1.0451328853345514,0.16792310361713775,0.18038134608,-1.616080394435229,-0.0327927599437057,0.31751661178754265,0.6899653353511955,,-1.0811208205284375,-0.09298942653853733,0.16651363566000002,4.538109756892076,-0.45773227421422547,0.3823979962787547,0.8758508826120053,,-0.035048393041611135,-0.0946797485975624,0.08866120536,-0.06999633924317733,,-1.1272728e-05,-2.682209e-06,3.0994415e-06,1.0,3.362447e-05,2.7649105e-05,-3.362447e-05,1.0,3.0398369e-06,-2.764538e-05,-3.0398369e-06,1.0,427,1.286,0,0,0.0,False,0.84862499517868,1.0502874705711984
1.3111933029722422,11:44:22.061410,11:43:21.595116,0,,0.08431932,0.0147030875,0.007745281,0.88109803,-0.42146054,-0.21456307,-0.40227863,-0.9064458,0.12855998,-0.24867275,-0.026959628,-0.96821237,,-0.013326235,-0.011832632,0.039997518,0.72708493,0.16265996,0.6670003,0.26839265,-0.96155727,-0.058077008,0.6319121,0.22124478,-0.74279046,,0.096306816,1.3397235,0.45029336,0.9951147,-0.010597058,-0.098155126,-0.070356235,-0.7735924,-0.6297656,-0.0692584,0.6335949,-0.7705588,,-0.06186001,0.22742091,-0.08708487,-0.88014305,0.3741138,0.2922106,-0.47455317,-0.7091532,-0.52144134,0.012143689,-0.59761244,0.80169314,,0.045305,0.39672056,-0.3863785,-0.7932055,-0.1761684,-0.5829148,0.5933823,-0.4386927,-0.6748676,-0.13683014,-0.8812,0.45250866,,1.0450633807386833,0.16826290386360362,0.18032171674000003,-1.616080394435229,-0.0327927599437057,0.3178433267481049,0.6857183896317043,,-1.0810976523298148,-0.09301259473715999,0.16651233937,4.538109756892076,-0.45773227421422547,0.38239799627875465,0.8755241944797367,,-0.035048393041611135,-0.0946797485975624,0.08866120536,-0.06999633924317733,,-1.1272728e-05,-2.682209e-06,3.0994415e-06,1.0,3.362447e-05,2.7649105e-05,-3.362447e-05,1.0,3.0398369e-06,-2.764538e-05,-3.0398369e-06,1.0,435,1.311,0,0,0.0,False,0.8464206195934021,1.0502874705711984
1.3299465989694,11:44:22.091459,11:43:21.595116,0,,0.08438435,0.014694795,0.007926986,0.8811669,-0.4212524,-0.21468925,-0.4027376,-0.90661263,0.1259203,-0.2476841,-0.024493158,-0.96853125,,-0.013320841,-0.011850961,0.039991498,0.7270754,0.16262925,0.6670181,0.26844832,-0.96153545,-0.058181882,0.6318995,0.22136247,-0.7427662,,0.096306816,1.3397235,0.45029336,0.9951147,-0.010597058,-0.098155126,-0.070356235,-0.7735924,-0.6297656,-0.0692584,0.6335949,-0.7705588,,-0.06193868,0.22753075,-0.08722295,-0.880309,0.37371492,0.29222125,-0.47427085,-0.70769906,-0.52366894,0.011101807,-0.5995825,0.800236,,0.045300465,0.396704,-0.38638884,-0.7931952,-0.17615068,-0.5829342,0.5934078,-0.43858466,-0.6749153,-0.13677922,-0.8812573,0.45241243,,1.045086548937306,0.16874171330180554,0.18014801388,-1.616080394435229,-0.03388585194182923,0.32077663848119037,0.6760810897297818,,-1.0810976523298148,-0.09313615846314759,0.16651622824,4.538109756892076,-0.45773227421422547,0.3823979962787547,0.8751975063474682,,-0.035048393041611135,-0.0946797485975624,0.08866120536,-0.06999633924317733,,-1.1272728e-05,-2.682209e-06,3.0994415e-06,1.0,3.362447e-05,2.7649105e-05,-3.362447e-05,1.0,3.0398369e-06,-2.764538e-05,-3.0398369e-06,1.0,443,1.335,0,0,0.0,False,0.8456461092526282,1.049418426957168
1.359994742902927,11:44:22.121274,11:43:21.723816,0,,0.08436918,0.01470913,0.008023515,0.8812424,-0.42124322,-0.21439679,-0.40342328,-0.9066783,0.12322217,-0.24629539,-0.02209583,-0.9689429,,-0.013312176,-0.011845224,0.03999293,0.7270435,0.16271916,0.667031,0.26841903,-0.9615545,-0.058001727,0.63194853,0.22121352,-0.7427688,,0.096306816,1.3397235,0.45029336,0.9951147,-0.010597058,-0.098155126,-0.070356235,-0.7735924,-0.6297656,-0.0692584,0.6335949,-0.7705588,,-0.061929982,0.22760381,-0.087288804,-0.88052326,0.37352458,0.29181883,-0.47390556,-0.70621055,-0.52600396,0.009610137,-0.60145324,0.7988502,,0.045291644,0.39670792,-0.38638473,-0.79316854,-0.17622392,-0.5829484,0.59343076,-0.43872064,-0.6748068,-0.1368344,-0.881175,0.4525561,,1.045464962848143,0.16893478162366116,0.18006894019000003,-1.616080394435229,-0.0357987629385454,0.323316634014627,0.6724875202748276,,-1.0811594341928086,-0.09311299026452491,0.16651752453000002,4.538109756892076,-0.45773227421422547,0.3822346387984735,0.8755241944797367,,-0.035048393041611135,-0.0946797485975624,0.08866120536,-0.06999633924317733,,-1.1272728e-05,-2.682209e-06,3.0994415e-06,1.0,3.362447e-05,2.7649105e-05,-3.362447e-05,1.0,3.0398369e-06,-2.764538e-05,-3.0398369e-06,1.0,468,1.413,0,0,0.0,False,0.8487441506157221,1.0499495091657423
1.3898088799323887,11:44:22.190243,11:43:21.723816,0,,0.084395856,0.014573216,0.008652836,0.8829859,-0.41876885,-0.21205837,-0.40235692,-0.907905,0.117547125,-0.24175385,-0.018469125,-0.9701618,,-0.013320789,-0.011847384,0.039993465,0.727073,0.16274086,0.66699356,0.26843557,-0.9615497,-0.058004737,0.6319077,0.22121838,-0.74280214,,0.096306816,1.3397235,0.45029336,0.9951147,-0.010597058,-0.098155126,-0.070356235,-0.7735924,-0.6297656,-0.0692584,0.6335949,-0.7705588,,-0.06201034,0.22790343,-0.08785361,-0.88254017,0.37072712,0.2892824,-0.4701852,-0.70484084,-0.53115463,0.006984627,-0.6047816,0.79636073,,0.045300167,0.39670774,-0.38638723,-0.7931936,-0.17624606,-0.5829076,0.5934065,-0.43871585,-0.6748312,-0.13679446,-0.88117296,0.45257214,,1.0463221861971819,0.16951398658922798,0.17944283212,-1.6194354335309815,-0.040444403930570375,0.3282483451022732,0.6731408965393647,,-1.0811053750626891,-0.09311299026452491,0.16651493195000003,4.538109756892076,-0.45773227421422547,0.3822346387984735,0.8755241944797367,,-0.035048393041611135,-0.0946797485975624,0.08866120536,-0.06999633924317733,,-1.1272728e-05,-2.682209e-06,3.0994415e-06,1.0,3.362447e-05,2.7649105e-05,-3.362447e-05,1.0,3.0398369e-06,-2.764538e-05,-3.0398369e-06,1.0,472,1.426,0,0,0.0,False,0.8629832253422487,1.049804668563404
1.4587782779708505,11:44:22.205872,11:43:21.723816,0,,0.08438215,0.014531717,0.0087185055,0.88522184,-0.41429877,-0.2115156,-0.3984733,-0.90997696,0.11472005,-0.2400027,-0.017269224,-0.9706186,,-0.013315253,-0.011849903,0.03999418,0.7270543,0.1627227,0.6670183,0.26843655,-0.9615483,-0.058022708,0.6319286,0.22123766,-0.74277854,,0.096306816,1.3397235,0.45029336,0.9951147,-0.010597058,-0.098155126,-0.070356235,-0.7735924,-0.6297656,-0.0692584,0.6335949,-0.7705588,,-0.06200374,0.22791386,-0.087931514,-0.8846928,0.36607778,0.28862733,-0.46609998,-0.705692,-0.53361934,0.008335824,-0.60661834,0.7949495,,0.045294616,0.39670622,-0.38638934,-0.7931773,-0.17623009,-0.58293456,0.59342515,-0.43869832,-0.6748262,-0.13680774,-0.8811848,0.45254493,,1.0464148589916726,0.1693904228632404,0.17936764730000002,-1.6242583022311257,-0.040717676930101254,0.33067650689346123,0.6768978100604532,,-1.081136265994186,-0.09313615846314759,0.16651493195000003,4.538109756892076,-0.45773227421422547,0.3822346387984735,0.8755241944797367,,-0.035048393041611135,-0.0946797485975624,0.08866120536,-0.06999633924317733,,-1.1272728e-05,-2.682209e-06,3.0994415e-06,1.0,3.362447e-05,2.7649105e-05,-3.362447e-05,1.0,3.0398369e-06,-2.764538e-05,-3.0398369e-06,1.0,480,1.45,0,0,0.0,False,0.8827034501727109,1.0499012289649627
1.474373062956147,11:44:22.225905,11:43:21.723816,0,,0.0843828,0.014512554,0.008856788,0.88710636,-0.40995485,-0.21208379,-0.39411336,-0.9119327,0.1142509,-0.24024378,-0.017767519,-0.97055,,-0.013315849,-0.011847548,0.03999448,0.72705555,0.16272654,0.66701597,0.26842958,-0.9615511,-0.058009595,0.63193023,0.22122297,-0.7427816,,0.096306816,1.3397235,0.45029336,0.9951147,-0.010597058,-0.098155126,-0.070356235,-0.7735924,-0.6297656,-0.0692584,0.6335949,-0.7705588,,-0.06201565,0.22798796,-0.088049255,-0.8863226,0.36168602,0.2891634,-0.46292597,-0.70754325,-0.5339308,0.011480313,-0.60709614,0.7945455,,0.045295145,0.39670798,-0.3863877,-0.7931786,-0.1762323,-0.5829321,0.59342194,-0.43871182,-0.67482024,-0.1368141,-0.88117766,0.45255697,,1.0465075317861634,0.1695526002535991,0.17923412943000003,-1.6286617910443004,-0.03894140243315053,0.33167843634962463,0.6834315727058243,,-1.081136265994186,-0.09312071299739914,0.16651493195000003,4.538109756892076,-0.45773227421422547,0.3822346387984735,0.8755241944797367,,-0.035048393041611135,-0.0946797485975624,0.08866120536,-0.06999633924317733,,-1.1272728e-05,-2.682209e-06,3.0994415e-06,1.0,3.362447e-05,2.7649105e-05,-3.362447e-05,1.0,3.0398369e-06,-2.764538e-05,-3.0398369e-06,1.0,488,1.475,0,0,0.0,False,0.90629622670704,1.049708108161845
1.494440609938465,11:44:22.262278,11:43:21.845416,0,,0.08439035,0.01447995,0.009117007,0.8891574,-0.40465763,-0.21366164,-0.38871542,-0.914286,0.11393529,-0.2414526,-0.0182527,-0.97024095,,-0.0133196935,-0.011840768,0.039993465,0.72706753,0.16274427,0.6669987,0.2684134,-0.9615579,-0.05797109,0.6319233,0.2211802,-0.7428001,,0.096306816,1.3397235,0.45029336,0.9951147,-0.010597058,-0.098155126,-0.070356235,-0.7735924,-0.6297656,-0.0692584,0.6335949,-0.7705588,,-0.06204417,0.22812995,-0.08826801,-0.88799214,0.35632312,0.29069528,-0.45957866,-0.709698,-0.5339627,0.016042575,-0.6077521,0.79396474,,0.045299016,0.39671177,-0.38638198,-0.79318964,-0.17624527,-0.5829132,0.5934054,-0.43875098,-0.6748093,-0.13682179,-0.8811556,0.45259762,,1.0466774319093963,0.1699001232329392,0.17898394546000002,-1.6336943496879293,-0.03593539943831084,0.33314782199505033,0.7043396131710122,,-1.0811208205284375,-0.09307437660015379,0.16651622824,4.538109756892076,-0.45773227421422547,0.3822346387984735,0.8755241944797367,,-0.035048393041611135,-0.0946797485975624,0.08866120536,-0.06999633924317733,,-1.1272728e-05,-2.682209e-06,3.0994415e-06,1.0,3.362447e-05,2.7649105e-05,-3.362447e-05,1.0,3.0398369e-06,-2.764538e-05,-3.0398369e-06,1.0,496,1.499,0,0,0.0,False,0.9349531093156571,1.050046069567301
1.5308131409110501,11:44:22.282015,11:43:21.845416,0,,0.0843617,0.0144482255,0.009205326,0.89069766,-0.4009979,-0.21414617,-0.3847279,-0.91586363,0.11479607,-0.24216165,-0.019860417,-0.97003263,,-0.013320558,-0.011842169,0.039993048,0.7270711,0.16274543,0.66699445,0.26841924,-0.96155584,-0.057978094,0.6319167,0.22118825,-0.7428034,,0.096306816,1.3397235,0.45029336,0.9951147,-0.010597058,-0.098155126,-0.070356235,-0.7735924,-0.6297656,-0.0692584,0.6335949,-0.7705588,,-0.06202385,0.22816254,-0.0883583,-0.889264,0.35271487,0.29120755,-0.45698807,-0.71196663,-0.5331655,0.019274658,-0.60720325,0.7943127,,0.04529994,0.39671063,-0.38638288,-0.79319257,-0.17624733,-0.58290863,0.5934036,-0.43874353,-0.6748158,-0.13681291,-0.8811589,0.4525939,,1.0467855501696355,0.1698306186370712,0.17889320516,-1.6374687686706508,-0.03388585194182923,0.3326200558015719,0.7252476536361998,,-1.0811130977955634,-0.09308209933302801,0.16651622824,4.538109756892076,-0.45773227421422547,0.3822346387984735,0.8755241944797367,,-0.035048393041611135,-0.0946797485975624,0.08866120536,-0.06999633924317733,,-1.1272728e-05,-2.682209e-06,3.0994415e-06,1.0,3.362447e-05,2.7649105e-05,-3.362447e-05,1.0,3.0398369e-06,-2.764538e-05,-3.0398369e-06,1.0,504,1.524,0,0,0.0,False,0.9500858498199993,1.0495632675595068
1.5505490358918905,11:44:22.307586,11:43:21.845416,0,,0.084290326,0.014384106,0.009268835,0.8935709,-0.39433172,-0.21455434,-0.37786555,-0.91871655,0.11479318,-0.24238117,-0.021502942,-0.9699428,,-0.013319626,-0.011847116,0.039993763,0.7270688,0.16273776,0.6669989,0.26843318,-0.9615504,-0.05800432,0.63191354,0.22121769,-0.7427974,,0.096306816,1.3397235,0.45029336,0.9951147,-0.010597058,-0.098155126,-0.070356235,-0.7735924,-0.6297656,-0.0692584,0.6335949,-0.7705588,,-0.061960842,0.22815469,-0.08845426,-0.8917487,0.34604824,0.29160723,-0.451889,-0.71525747,-0.53310704,0.024093501,-0.60717165,0.79420537,,0.04529898,0.396708,-0.38638714,-0.79319,-0.1762429,-0.58291346,0.59340996,-0.43871653,-0.6748277,-0.13680017,-0.88117325,0.45256984,,1.0469554502928684,0.16943675926048574,0.17881542776,-1.6443885368056401,-0.03128975844628586,0.3326267628749945,0.7520360804822216,,-1.0811130977955634,-0.09311299026452491,0.16651493195000003,4.538109756892076,-0.45773227421422547,0.3822346387984735,0.8755241944797367,,-0.035048393041611135,-0.0946797485975624,0.08866120536,-0.06999633924317733,,-1.1272728e-05,-2.682209e-06,3.0994415e-06,1.0,3.362447e-05,2.7649105e-05,-3.362447e-05,1.0,3.0398369e-06,-2.764538e-05,-3.0398369e-06,1.0,512,1.548,0,0,0.0,False,0.9719508725172186,1.0497563883626244
1.576115901931189,11:44:22.332735,11:43:21.845416,0,,0.08433929,0.014346443,0.009355292,0.8957113,-0.3889639,-0.21542633,-0.37180823,-0.92092526,0.1168558,-0.24384417,-0.024571627,-0.9695031,,-0.013339989,-0.011873022,0.039987445,0.72705746,0.16270806,0.6670185,0.26840135,-0.96155924,-0.05800411,0.63193995,0.22120097,-0.74277985,,0.09627742,1.3397238,0.45029023,0.9951148,-0.010595714,-0.09815403,-0.070354514,-0.7735925,-0.6297658,-0.0692584,0.6335949,-0.7705588,,-0.06198914,0.22818293,-0.0885452,-0.8934531,0.34081575,0.29255113,-0.44820118,-0.71895987,-0.53123665,0.029278709,-0.6057568,0.79511094,,0.045349114,0.39669105,-0.38640988,-0.79318196,-0.17620994,-0.5829343,0.5934108,-0.4387325,-0.67481655,-0.13684285,-0.8811719,0.4525596,,1.0470017866901136,0.16939814559611463,0.17871820601000002,-1.6498404753362377,-0.02773720945238441,0.33120011470141764,0.768043798963381,,-1.0811285432613118,-0.09311299026452491,0.16651493195000003,4.538109756892076,-0.45773227421422547,0.3822346387984735,0.8755241944797367,,-0.035048393041611135,-0.0946797485975624,0.08866120536,-0.06999633924317733,,-4.0337443e-05,-4.708767e-06,8.34465e-06,1.0,3.4965575e-05,2.8748065e-05,-3.4958124e-05,1.0,3.1590462e-06,-2.874434e-05,-3.1590462e-06,1.0,541,1.639,0,0,0.0,False,0.9823173955398787,1.050046069567301
1.601212905952707,11:44:22.414387,11:43:21.972653,0,,0.084162846,0.014085613,0.0097053945,0.91121095,-0.35121733,-0.21526973,-0.33346814,-0.9357089,0.11509898,-0.24185453,-0.03309369,-0.969748,,-0.013333954,-0.0118665695,0.03998846,0.7270346,0.16269715,0.667046,0.2683733,-0.96156883,-0.057975292,0.6319781,0.22116742,-0.7427574,,0.09627742,1.3397238,0.45029023,0.9951148,-0.010595714,-0.09815403,-0.070354514,-0.7735925,-0.6297658,-0.0692584,0.6335949,-0.7705588,,-0.061853085,0.22820902,-0.08899524,-0.90702283,0.30308077,0.29232112,-0.41764364,-0.73604333,-0.53274196,0.053697176,-0.6052952,0.79418784,,0.045342937,0.3966953,-0.3864051,-0.79316306,-0.17619538,-0.5829644,0.5934252,-0.43876362,-0.67478365,-0.1368898,-0.8811593,0.4525699,,1.0471794095462208,0.16832468572659742,0.17830857837000003,-1.6892621847113283,-0.01530328797372933,0.3325777878248626,0.8103499120921593,,-1.0811748796585572,-0.09308209933302801,0.16651622824,4.538109756892076,-0.45773227421422547,0.3822346387984735,0.8755241944797367,,-0.035048393041611135,-0.0946797485975624,0.08866120536,-0.06999633924317733,,-4.0337443e-05,-4.708767e-06,8.34465e-06,1.0,3.4965575e-05,2.8748065e-05,-3.4958124e-05,1.0,3.1590462e-06,-2.874434e-05,-3.1590462e-06,1.0,545,1.651,0,0,0.0,False,0.9881560119549397,1.0496115477602863
1.6828787759877741,11:44:22.435428,11:43:21.972653,0,,0.08407465,0.013992496,0.009798393,0.9117125,-0.3493692,-0.2161519,-0.3313699,-0.9363706,0.11577487,-0.2428464,-0.033926994,-0.9694713,,-0.013334297,-0.01186578,0.039988518,0.7269594,0.16288581,0.6670819,0.26854518,-0.96152735,-0.057867408,0.6319916,0.22120884,-0.7427335,,0.09627742,1.3397238,0.45029023,0.9951148,-0.010595714,-0.09815403,-0.070354514,-0.7735925,-0.6297658,-0.0692584,0.6335949,-0.7705588,,-0.061777037,0.22819798,-0.089133784,-0.90733856,0.3012673,0.2932146,-0.41667545,-0.7370993,-0.53203964,0.055842116,-0.6049154,0.7943293,,0.04534326,0.39669585,-0.38640454,-0.7930914,-0.17638783,-0.5830037,0.59354913,-0.43872255,-0.6747014,-0.13676777,-0.88114125,0.45264193,,1.0474805961283156,0.16780726262402437,0.17819450485000002,-1.6909397042592043,-0.013936922976074925,0.3317903237484606,0.8123100408857706,,-1.0811748796585572,-0.09308209933302801,0.16651622824,4.537900066948591,-0.45773227421422547,0.3822346387984735,0.8755241944797367,,-0.035048393041611135,-0.0946797485975624,0.08866120536,-0.06999633924317733,,-4.0337443e-05,-4.708767e-06,8.34465e-06,1.0,3.4965575e-05,2.8748065e-05,-3.4958124e-05,1.0,3.1590462e-06,-2.874434e-05,-3.1590462e-06,1.0,553,1.675,0,0,0.0,False,0.9667676110058889,1.0503840309727575
1.7039590479107574,11:44:22.457754,11:43:21.972653,0,,0.083912164,0.013879448,0.009971023,0.9108911,-0.34966007,-0.21912414,-0.33073732,-0.9361868,0.11902577,-0.24675967,-0.035946786,-0.9684098,,-0.013333812,-0.011867166,0.039987087,0.726883,0.16307068,0.66712004,0.26872402,-0.96148306,-0.057772547,0.63200355,0.22126505,-0.74270666,,0.09627742,1.3397238,0.45029023,0.9951148,-0.010595714,-0.09815403,-0.070354514,-0.7735925,-0.6297658,-0.0692584,0.6335949,-0.7705588,,-0.061633952,0.22822332,-0.08935258,-0.9061972,0.3017164,0.2962666,-0.41869667,-0.7382528,-0.5288439,0.059158787,-0.6032827,0.7953303,,0.045342952,0.3966938,-0.3864047,-0.7930184,-0.17657806,-0.5830454,0.5936762,-0.43866795,-0.67462504,-0.13663937,-0.8811303,0.452702,,1.0481524738883732,0.16713538486396684,0.17800783909,-1.6898912545417817,-0.010794283481469795,0.3291460332233024,0.8101865680260252,,-1.0811748796585572,-0.09309754479877647,0.16651752453000002,4.537690377005107,-0.45773227421422547,0.3822346387984735,0.8755241944797367,,-0.035048393041611135,-0.0946797485975624,0.08866120536,-0.06999633924317733,,-4.0337443e-05,-4.708767e-06,8.34465e-06,1.0,3.4965575e-05,2.8748065e-05,-3.4958124e-05,1.0,3.1590462e-06,-2.874434e-05,-3.1590462e-06,1.0,561,1.7,0,0,0.0,False,0.9239908091077869,1.0498529487641832
1.726288017933257,11:44:22.484081,11:43:21.972653,0,,0.08379899,0.013818197,0.010013089,0.9105926,-0.3494009,-0.2207719,-0.3307117,-0.9363454,0.117842495,-0.24789299,-0.034294516,-0.96818024,,-0.013333753,-0.011868551,0.03998816,0.72688246,0.16306877,0.6671212,0.2687275,-0.9614817,-0.057779104,0.6320028,0.22127238,-0.7427051,,0.09627742,1.3397238,0.45029023,0.9951148,-0.010595714,-0.09815403,-0.070354514,-0.7735925,-0.6297658,-0.0692584,0.6335949,-0.7705588,,-0.06152758,0.2282042,-0.0894341,-0.9058146,0.30132747,0.29782835,-0.41940242,-0.73731565,-0.52959156,0.060013026,-0.60462165,0.79424876,,0.045342788,0.3966938,-0.38640648,-0.7930178,-0.17657696,-0.5830466,0.5936778,-0.43866122,-0.674628,-0.13663618,-0.88113385,0.45269597,,1.0486158378608266,0.16659479356277113,0.17795598749000002,-1.6894718746548125,-0.010247737482408033,0.3303339364113279,0.8000592359256997,,-1.0811748796585572,-0.09310526753165069,0.16651622824,4.537690377005107,-0.45773227421422547,0.3822346387984735,0.8755241944797367,,-0.035048393041611135,-0.0946797485975624,0.08866120536,-0.06999633924317733,,-4.0337443e-05,-4.708767e-06,8.34465e-06,1.0,3.4965575e-05,2.8748065e-05,-3.4958124e-05,1.0,3.1590462e-06,-2.874434e-05,-3.1590462e-06,1.0,569,1.725,0,0,0.0,False,0.8815118958022903,1.0505771517758753
1.7525612149620429,11:44:22.506446,11:43:21.972653,0,,0.083696306,0.013788655,0.0100197345,0.910335,-0.34879822,-0.22277814,-0.32974425,-0.93655205,0.11890727,-0.25011796,-0.03478551,-0.96759033,,-0.013332881,-0.011867136,0.039988577,0.72687876,0.16306758,0.66712534,0.2687217,-0.9614837,-0.0577721,0.6320094,0.22126436,-0.7427018,,0.09627742,1.3397238,0.45029023,0.9951148,-0.010595714,-0.09815403,-0.070354514,-0.7735925,-0.6297658,-0.0692584,0.6335949,-0.7705588,,-0.061427362,0.22818656,-0.089467384,-0.9053423,0.30075282,0.29983848,-0.42008722,-0.7377937,-0.5283817,0.062306665,-0.6043246,0.79429823,,0.04534186,0.39669493,-0.38640556,-0.7930148,-0.1765749,-0.58305126,0.5936797,-0.43866864,-0.6746215,-0.13664508,-0.8811306,0.4526997,,1.0489633608401667,0.166177765987563,0.17794820975000003,-1.6894718746548125,-0.008198189985926425,0.32964281273756835,0.7853582699736146,,-1.0811826023914313,-0.09309754479877647,0.16651622824,4.537690377005107,-0.45773227421422547,0.3822346387984735,0.8755241944797367,,-0.035048393041611135,-0.0946797485975624,0.08866120536,-0.06999633924317733,,-4.0337443e-05,-4.708767e-06,8.34465e-06,1.0,3.4965575e-05,2.8748065e-05,-3.4958124e-05,1.0,3.1590462e-06,-2.874434e-05,-3.1590462e-06,1.0,577,1.749,0,0,0.0,False,0.8271174387925866,1.0502391903704191
1.7749587699072435,11:44:22.527986,11:43:22.140559,0,,0.083615325,0.013783433,0.010052577,0.9098003,-0.34949368,-0.22386979,-0.33033597,-0.9363024,0.11923,-0.2512799,-0.03452307,-0.9672986,,-0.01333259,-0.011863321,0.039989352,0.72687644,0.16301575,0.6671408,0.26870883,-0.96148384,-0.057830572,0.6320176,0.22130227,-0.74268353,,0.09627742,1.3397238,0.45029023,0.9951148,-0.010595714,-0.09815403,-0.070354514,-0.7735925,-0.6297658,-0.0692584,0.6335949,-0.7705588,,-0.061349433,0.22820427,-0.089503124,-0.9047547,0.30143905,0.3009209,-0.42128292,-0.7374287,-0.52793896,0.0627663,-0.6044281,0.79418325,,0.045341466,0.39669782,-0.386403,-0.7930132,-0.17652743,-0.5830679,0.59367836,-0.43863449,-0.67464495,-0.13666034,-0.8811571,0.45264345,,1.0493958338811233,0.16597697493283317,0.17792487653000003,-1.68842342493739,-0.007788280486630106,0.3295535952469008,0.7515460482838189,,-1.0811903251243056,-0.09307437660015379,0.16651622824,4.537690377005107,-0.45773227421422547,0.3823163175386141,0.875687538545871,,-0.035048393041611135,-0.0946797485975624,0.08866120536,-0.06999633924317733,,-4.0337443e-05,-4.708767e-06,8.34465e-06,1.0,3.4965575e-05,2.8748065e-05,-3.4958124e-05,1.0,3.1590462e-06,-2.874434e-05,-3.1590462e-06,1.0,585,1.774,0,0,0.0,False,0.7103451104913616,1.0499977893665218
1.796523515949957,11:44:22.557260,11:43:22.140559,0,,0.083592206,0.013795458,0.010095313,0.90954596,-0.3501728,-0.22384208,-0.3304163,-0.9359678,0.12161091,-0.2520938,-0.036649466,-0.9670086,,-0.013334617,-0.01186502,0.039988577,0.7268842,0.16296555,0.6671444,0.26871705,-0.9614763,-0.057916522,0.63200516,0.22137165,-0.7426735,,0.09627742,1.3397238,0.45029023,0.9951148,-0.010595714,-0.09815403,-0.070354514,-0.7735925,-0.6297658,-0.0692584,0.6335949,-0.7705588,,-0.061328944,0.22824109,-0.08953013,-0.9044453,0.30229056,0.30099687,-0.4218651,-0.7385323,-0.5259276,0.06331298,-0.6026528,0.79548794,,0.04534358,0.3966964,-0.386404,-0.7930197,-0.17648503,-0.5830718,0.59367305,-0.43857124,-0.6746907,-0.13664575,-0.8811971,0.45257005,,1.049588902202979,0.1660464795287012,0.17789376557000003,-1.6880040450504212,-0.007241734487568344,0.3273926700891633,0.7232875248425885,,-1.0811748796585572,-0.09308209933302801,0.16651622824,4.537690377005107,-0.45773227421422547,0.3823979962787547,0.8758508826120053,,-0.035048393041611135,-0.0946797485975624,0.08866120536,-0.06999633924317733,,-4.0337443e-05,-4.708767e-06,8.34465e-06,1.0,3.4965575e-05,2.8748065e-05,-3.4958124e-05,1.0,3.1590462e-06,-2.874434e-05,-3.1590462e-06,1.0,593,1.798,0,0,0.0,False,0.658512495378063,1.0499977893665218
1.8257958739995956,11:44:22.585641,11:43:22.140559,0,,0.083586626,0.013797052,0.010134071,0.90953004,-0.34990257,-0.22432894,-0.3303929,-0.9361117,0.12056258,-0.25218204,-0.035538465,-0.96702707,,-0.013332583,-0.011868328,0.03998846,0.7268781,0.16295668,0.6671531,0.26872513,-0.9614729,-0.057935745,0.6320086,0.22139299,-0.7426642,,0.09627742,1.3397238,0.45029023,0.9951148,-0.010595714,-0.09815403,-0.070354514,-0.7735925,-0.6297658,-0.0692584,0.6335949,-0.7705588,,-0.06132618,0.22826722,-0.08955919,-0.9044216,0.30193156,0.30142802,-0.4219037,-0.7379314,-0.5267396,0.06339387,-0.60356826,0.7947871,,0.045341596,0.39669406,-0.3864064,-0.79301417,-0.17647853,-0.5830813,0.5936813,-0.4385517,-0.6746962,-0.13664189,-0.8812081,0.45254973,,1.0496892977303438,0.166108261391695,0.17786006203000002,-1.6880040450504212,-0.007241734487568344,0.32861785119127174,0.6692206389521421,,-1.0811826023914313,-0.09310526753165069,0.16651622824,4.537690377005107,-0.45773227421422547,0.3823979962787547,0.8758508826120053,,-0.035048393041611135,-0.0946797485975624,0.08866120536,-0.06999633924317733,,-4.0337443e-05,-4.708767e-06,8.34465e-06,1.0,3.4965575e-05,2.8748065e-05,-3.4958124e-05,1.0,3.1590462e-06,-2.874434e-05,-3.1590462e-06,1.0,618,1.876,0,0,0.0,False,0.6199061337764333,1.0506254319766548
1.8541615129215643,11:44:22.655929,11:43:22.140559,0,,0.08358956,0.013813525,0.010162786,0.90936536,-0.34865513,-0.22692378,-0.32915828,-0.9366183,0.12000349,-0.25438076,-0.034433007,-0.966491,,-0.013335213,-0.0118626505,0.039988875,0.72688544,0.1629694,0.6671422,0.2687101,-0.96147907,-0.05790338,0.6320067,0.22135687,-0.74267656,,0.09627742,1.3397238,0.45029023,0.9951148,-0.010595714,-0.09815403,-0.070354514,-0.7735925,-0.6297658,-0.0692584,0.6335949,-0.7705588,,-0.061330363,0.22829828,-0.08957029,-0.9040298,0.3005807,0.30394304,-0.42236754,-0.7376193,-0.5268049,0.06584685,-0.604623,0.79378533,,0.04534411,0.39669815,-0.38640237,-0.793021,-0.17648724,-0.58306944,0.59366983,-0.43858477,-0.67468476,-0.13665211,-0.8811899,0.4525821,,1.04962751586735,0.16626271604917947,0.17784061768,-1.6882137349939055,-0.0046456409920249755,0.330176454327365,0.5114302710664282,,-1.0811748796585572,-0.09306665386727957,0.16651622824,4.537690377005107,-0.45773227421422547,0.3823979962787547,0.8758508826120053,,-0.035048393041611135,-0.0946797485975624,0.08866120536,-0.06999633924317733,,-4.0337443e-05,-4.708767e-06,8.34465e-06,1.0,3.4965575e-05,2.8748065e-05,-3.4958124e-05,1.0,3.1590462e-06,-2.874434e-05,-3.1590462e-06,1.0,626,1.901,0,0,0.0,False,0.4585100943029543,1.0504805913743163
1.9244373069377616,11:44:22.678052,11:43:22.140559,0,,0.08359343,0.0138098225,0.010170683,0.9092113,-0.3491631,-0.22675988,-0.32957298,-0.9364166,0.120438516,-0.25439435,-0.034770012,-0.96647537,,-0.0133323,-0.011864498,0.039989233,0.7268758,0.16295934,0.6671551,0.26871234,-0.96147776,-0.057915688,0.6320168,0.22137028,-0.742664,,0.09627742,1.3397238,0.45029023,0.9951148,-0.010595714,-0.09815403,-0.070354514,-0.7735925,-0.6297658,-0.0692584,0.6335949,-0.7705588,,-0.061334997,0.22830047,-0.08957834,-0.90389717,0.30112213,0.30380148,-0.42269304,-0.7376773,-0.5264626,0.065577894,-0.6042828,0.7940666,,0.0453412,0.39669695,-0.38640383,-0.79301256,-0.1764787,-0.5830835,0.59367996,-0.43857262,-0.67468375,-0.13665715,-0.8811977,0.45256546,,1.0496197931344757,0.1662704387820537,0.17783154365,-1.6877943551069365,-0.004782277491790415,0.3297161210500775,0.46667399694563577,,-1.0811903251243056,-0.09308209933302801,0.16651622824,4.537690377005107,-0.45773227421422547,0.3823979962787547,0.8758508826120053,,-0.035048393041611135,-0.0946797485975624,0.08866120536,-0.06999633924317733,,-4.0337443e-05,-4.708767e-06,8.34465e-06,1.0,3.4965575e-05,2.8748065e-05,-3.4958124e-05,1.0,3.1590462e-06,-2.874434e-05,-3.1590462e-06,1.0,630,1.913,0,0,0.0,False,0.3904723397519345,1.0502874705711984
1.9465891319559887,11:44:22.706370,11:43:22.292007,0,,0.08359105,0.013804771,0.010171488,0.90923613,-0.34929407,-0.22645836,-0.3296812,-0.93636,0.12058261,-0.2541653,-0.034978807,-0.96652806,,-0.013328224,-0.011866137,0.03998977,0.72686195,0.1629462,0.6671733,0.26871222,-0.96147704,-0.05792749,0.63203275,0.22138289,-0.74264663,,0.09627742,1.3397238,0.45029023,0.9951148,-0.010595714,-0.09815403,-0.070354514,-0.7735925,-0.6297658,-0.0692584,0.6335949,-0.7705588,,-0.061332952,0.22829714,-0.089582406,-0.90394455,0.30127102,0.3035127,-0.42262915,-0.7377669,-0.5263882,0.0653361,-0.6040991,0.79422635,,0.045337103,0.39669603,-0.3864052,-0.7930005,-0.17646699,-0.58310336,0.59369355,-0.43856117,-0.6746792,-0.13666789,-0.8812057,0.45254657,,1.0496352386002243,0.1662395478505568,0.17782895107000002,-1.6877943551069365,-0.005055550491321297,0.329448884416627,0.3990495535660442,,-1.0812134933229283,-0.09309754479877647,0.16651622824,4.537690377005107,-0.45773227421422547,0.3823979962787547,0.8758508826120053,,-0.035048393041611135,-0.0946797485975624,0.08866120536,-0.06999633924317733,,-4.0337443e-05,-4.708767e-06,8.34465e-06,1.0,3.4965575e-05,2.8748065e-05,-3.4958124e-05,1.0,3.1590462e-06,-2.874434e-05,-3.1590462e-06,1.0,642,1.95,0,0,0.0,False,0.2964586999257439,1.0498529487641832
1.9748856299556792,11:44:22.729271,11:43:22.292007,0,,0.08358246,0.013825275,0.010187745,0.9092166,-0.34912068,-0.22680406,-0.3296534,-0.9364496,0.119960666,-0.2542713,-0.034303337,-0.9665244,,-0.013328522,-0.011864945,0.03998989,0.72686255,0.16294812,0.66717225,0.26870874,-0.96147835,-0.057920963,0.6320335,0.22137552,-0.74264824,,0.09627742,1.3397238,0.45029023,0.9951148,-0.010595714,-0.09815403,-0.070354514,-0.7735925,-0.6297658,-0.0692584,0.6335949,-0.7705588,,-0.06132453,0.22832336,-0.08958249,-0.90391576,0.30104354,0.30382404,-0.42267576,-0.7374033,-0.5268601,0.065432996,-0.6046562,0.7937943,,0.045337368,0.3966969,-0.3864044,-0.7930012,-0.1764681,-0.58310217,0.59369195,-0.43856794,-0.67467624,-0.13667108,-0.8812021,0.4525526,,1.0497588023262119,0.1663399433779217,0.17782376591000001,-1.6877943551069365,-0.005055550491321297,0.3302656718180326,0.32636144413629,,-1.0812134933229283,-0.09308982206590224,0.16651622824,4.537690377005107,-0.45773227421422547,0.3823979962787547,0.8758508826120053,,-0.035048393041611135,-0.0946797485975624,0.08866120536,-0.06999633924317733,,-4.0337443e-05,-4.708767e-06,8.34465e-06,1.0,3.4965575e-05,2.8748065e-05,-3.4958124e-05,1.0,3.1590462e-06,-2.874434e-05,-3.1590462e-06,1.0,650,1.974,0,0,0.0,False,0.20453028024778996,1.0501909101696396
1.9977864159736782,11:44:22.758587,11:43:22.292007,0,,0.08357169,0.013843112,0.01020591,0.90919554,-0.3491829,-0.22679244,-0.32962272,-0.936414,0.120322526,-0.25438616,-0.03464061,-0.96648216,,-0.013329983,-0.011864036,0.03998971,0.7268674,0.16295311,0.6671658,0.26870763,-0.96147907,-0.057914793,0.63202846,0.22136891,-0.74265444,,0.09627742,1.3397238,0.45029023,0.9951148,-0.010595714,-0.09815403,-0.070354514,-0.7735925,-0.6297658,-0.0692584,0.6335949,-0.7705588,,-0.061314218,0.22834878,-0.089585915,-0.9038847,0.30113244,0.30382833,-0.42272583,-0.73759204,-0.52655566,0.06553838,-0.6043817,0.79399467,,0.045338824,0.3966975,-0.38640365,-0.7930054,-0.17647237,-0.58309513,0.5936869,-0.438574,-0.6746767,-0.13666856,-0.8811982,0.45256087,,1.0498900887850737,0.16642489343953817,0.17781598817000002,-1.6877943551069365,-0.005055550491321297,0.3300206355976109,0.27637815989920045,,-1.081205770590054,-0.09308209933302801,0.16651622824,4.537690377005107,-0.45773227421422547,0.3823979962787547,0.8758508826120053,,-0.035048393041611135,-0.0946797485975624,0.08866120536,-0.06999633924317733,,-4.0337443e-05,-4.708767e-06,8.34465e-06,1.0,3.4965575e-05,2.8748065e-05,-3.4958124e-05,1.0,3.1590462e-06,-2.874434e-05,-3.1590462e-06,1.0,658,1.999,0,0,0.0,False,0.1049759125991434,1.0499977893665218
2.0270715079968795,11:44:22.779674,11:43:22.292007,0,,0.08355883,0.013847716,0.010219634,0.9091915,-0.34918702,-0.22680247,-0.3296512,-0.93641603,0.120229036,-0.25436383,-0.034545362,-0.96649146,,-0.013331138,-0.011864275,0.03998947,0.72687155,0.16295624,0.6671604,0.26871,-0.96147835,-0.05791524,0.6320226,0.22136956,-0.7426592,,0.09627742,1.3397238,0.45029023,0.9951148,-0.010595714,-0.09815403,-0.070354514,-0.7735925,-0.6297658,-0.0692584,0.6335949,-0.7705588,,-0.061302185,0.2283612,-0.089594595,-0.9038838,0.30112934,0.30383408,-0.42273328,-0.7375324,-0.5266332,0.06550275,-0.604456,0.79394096,,0.045340013,0.39669722,-0.38640374,-0.793009,-0.17647554,-0.5830893,0.5936834,-0.4385733,-0.67468023,-0.13666286,-0.8811979,0.45256317,,1.0499982070453129,0.1664326161724124,0.17780691414000002,-1.6877943551069365,-0.005192186991086737,0.33013205350130737,0.1907858692448382,,-1.0811980478571799,-0.09308982206590224,0.16651622824,4.537690377005107,-0.45773227421422547,0.3823979962787547,0.8758508826120053,,-0.035048393041611135,-0.0946797485975624,0.08866120536,-0.06999633924317733,,-4.0337443e-05,-4.708767e-06,8.34465e-06,1.0,3.4965575e-05,2.8748065e-05,-3.4958124e-05,1.0,3.1590462e-06,-2.874434e-05,-3.1590462e-06,1.0,687,2.089,0,0,0.0,False,-0.02972930897691306,1.0500943497680806
2.048209909000434,11:44:22.868107,11:43:22.462494,0,,0.083580896,0.013846822,0.010262653,0.9092118,-0.34920543,-0.22669263,-0.32972386,-0.9364146,0.12004015,-0.2541969,-0.034395725,-0.9665407,,-0.013327651,-0.0118635,0.039990366,0.7268589,0.16294694,0.6671764,0.26870292,-0.9614805,-0.05791396,0.63204014,0.22136751,-0.7426449,,0.09627742,1.3397238,0.45029023,0.9951148,-0.010595714,-0.09815403,-0.070354514,-0.7735925,-0.6297658,-0.0692584,0.6335949,-0.7705588,,-0.061327398,0.22838797,-0.089625984,-0.90392023,0.30113664,0.30371845,-0.422682,-0.73743516,-0.52681047,0.065330714,-0.604571,0.79386765,,0.045336444,0.39669806,-0.38640347,-0.79299825,-0.17646605,-0.58310676,0.59369385,-0.43857536,-0.67466974,-0.13667996,-0.8811988,0.45255628,,1.0499673161138159,0.16657162536414846,0.17776543286000002,-1.6877943551069365,-0.005328823490852177,0.33040682888528483,-0.06337749766010037,,-1.0812212160558026,-0.09308209933302801,0.16651622824,4.537690377005107,-0.45773227421422547,0.3823979962787547,0.8758508826120053,,-0.035048393041611135,-0.0946797485975624,0.08866120536,-0.06999633924317733,,-4.0337443e-05,-4.708767e-06,8.34465e-06,1.0,3.4965575e-05,2.8748065e-05,-3.4958124e-05,1.0,3.1590462e-06,-2.874434e-05,-3.1590462e-06,1.0,695,2.114,0,0,0.0,False,-0.2541585746456452,1.0499977893665218
2.136640677927062,11:44:22.891459,11:43:22.462494,0,,0.083581425,0.013844408,0.010271519,0.9099461,-0.34755668,-0.22627999,-0.3280136,-0.9370016,0.12014538,-0.25378197,-0.035102725,-0.96662426,,-0.013327651,-0.0118635,0.039990366,0.7268589,0.16294694,0.6671764,0.26870292,-0.9614805,-0.05791396,0.63204014,0.22136751,-0.7426449,,0.09627742,1.3397238,0.45029023,0.9951148,-0.010595714,-0.09815403,-0.070354514,-0.7735925,-0.6297658,-0.0692584,0.6335949,-0.7705588,,-0.0613287,0.22839181,-0.08963425,-0.9045924,0.29951632,0.30331922,-0.4211098,-0.73835117,-0.5267865,0.06617494,-0.60425776,0.79403615,,0.045336444,0.39669806,-0.38640347,-0.79299825,-0.17646605,-0.58310676,0.59369385,-0.43857536,-0.67466974,-0.13667996,-0.8811988,0.45255628,,1.0499595933809416,0.16657934809702268,0.17775635883000002,-1.6896815645982974,-0.005055550491321297,0.33018399307789204,-0.14472284259497142,,-1.0812212160558026,-0.09308209933302801,0.16651622824,4.537690377005107,-0.45773227421422547,0.3823979962787547,0.8758508826120053,,-0.035048393041611135,-0.0946797485975624,0.08866120536,-0.06999633924317733,,-4.0337443e-05,-4.708767e-06,8.34465e-06,1.0,3.4965575e-05,2.8748065e-05,-3.4958124e-05,1.0,3.1590462e-06,-2.874434e-05,-3.1590462e-06,1.0,703,2.138,0,0,0.0,False,-0.25642252794944387,1.050432311173537
2.1599959949962795,11:44:22.922196,11:43:22.462494,0,,0.08355729,0.01386001,0.010310233,0.9115297,-0.34263605,-0.2274077,-0.32254252,-0.93872285,0.12151408,-0.2551079,-0.03741488,-0.96618843,,-0.013328813,-0.011863753,0.039990008,0.7268632,0.16295004,0.6671711,0.26870528,-0.9614798,-0.057914376,0.6320343,0.2213682,-0.7426497,,0.09627742,1.3397238,0.45029023,0.9951148,-0.010595714,-0.09815403,-0.070354514,-0.7735925,-0.6297658,-0.0692584,0.6335949,-0.7705588,,-0.061306722,0.2284288,-0.089656,-0.9057839,0.2946971,0.30448186,-0.41777813,-0.74119145,-0.52544904,0.070831046,-0.6031491,0.7944772,,0.045337632,0.39669776,-0.38640356,-0.79300183,-0.1764692,-0.583101,0.5936904,-0.43857467,-0.67467326,-0.13667427,-0.8811985,0.45255858,,1.0500136525110613,0.16667202089151337,0.17773043303000002,-1.6945044332984414,-0.0017762744969507258,0.3293885744124109,-0.21675757576018856,,-1.0812134933229283,-0.09308209933302801,0.16651622824,4.537690377005107,-0.45773227421422547,0.3823979962787547,0.8758508826120053,,-0.035048393041611135,-0.0946797485975624,0.08866120536,-0.06999633924317733,,-4.0337443e-05,-4.708767e-06,8.34465e-06,1.0,3.4965575e-05,2.8748065e-05,-3.4958124e-05,1.0,3.1590462e-06,-2.874434e-05,-3.1590462e-06,1.0,711,2.163,0,0,0.0,False,-0.25683957197909146,1.050335750771978
2.190550324972719,11:44:22.940883,11:43:22.462494,0,,0.083546236,0.013874143,0.010336801,0.9124076,-0.3392548,-0.22895119,-0.318911,-0.9399204,0.12184101,-0.25653103,-0.03815344,-0.96578264,,-0.013328813,-0.011863753,0.039990008,0.7268632,0.16295004,0.6671711,0.26870528,-0.9614798,-0.057914376,0.6320343,0.2213682,-0.7426497,,0.09627742,1.3397238,0.45029023,0.9951148,-0.010595714,-0.09815403,-0.070354514,-0.7735925,-0.6297658,-0.0692584,0.6335949,-0.7705588,,-0.06129694,0.22845678,-0.089668214,-0.90636194,0.29132167,0.30600604,-0.41591406,-0.74260867,-0.5249265,0.074320294,-0.60304564,0.794237,,0.045337632,0.39669776,-0.38640356,-0.79300183,-0.1764692,-0.583101,0.5936904,-0.43857467,-0.67467326,-0.13667427,-0.8811985,0.45255858,,1.050005929778187,0.1667724164188783,0.17771358126000003,-1.6974400925072246,0.0009564554983580831,0.32969225728283985,-0.26004375328577256,,-1.0812134933229283,-0.09308209933302801,0.16651622824,4.537690377005107,-0.45773227421422547,0.3823979962787547,0.8758508826120053,,-0.035048393041611135,-0.0946797485975624,0.08866120536,-0.06999633924317733,,-4.0337443e-05,-4.708767e-06,8.34465e-06,1.0,3.4965575e-05,2.8748065e-05,-3.4958124e-05,1.0,3.1590462e-06,-2.874434e-05,-3.1590462e-06,1.0,719,2.187,0,0,0.0,False,-0.25672041654204936,1.05014262996886
2.209405632922426,11:44:22.962023,11:43:22.462494,0,,0.08353695,0.013884723,0.010360107,0.9139184,-0.33453244,-0.22987251,-0.31379673,-0.94153726,0.122633725,-0.25745848,-0.039943814,-0.9654635,,-0.013328813,-0.011863753,0.039990008,0.7268632,0.16295004,0.6671711,0.26870528,-0.9614798,-0.057914376,0.6320343,0.2213682,-0.7426497,,0.09627742,1.3397238,0.45029023,0.9951148,-0.010595714,-0.09815403,-0.070354514,-0.7735925,-0.6297658,-0.0692584,0.6335949,-0.7705588,,-0.061288867,0.22847992,-0.08968009,-0.9075291,0.28666666,0.3069415,-0.41259962,-0.7450325,-0.52410704,0.07843739,-0.60228634,0.79441726,,0.045337632,0.39669776,-0.38640356,-0.79300183,-0.1764692,-0.583101,0.5936904,-0.43857467,-0.67467326,-0.13667427,-0.8811985,0.45255858,,1.0499673161138159,0.16685736648049476,0.17769802578000002,-1.7020532712638843,0.0038258219934323326,0.3293127710685885,-0.29646948003371687,,-1.0812134933229283,-0.09308209933302801,0.16651622824,4.537690377005107,-0.45773227421422547,0.3823979962787547,0.8758508826120053,,-0.035048393041611135,-0.0946797485975624,0.08866120536,-0.06999633924317733,,-4.0337443e-05,-4.708767e-06,8.34465e-06,1.0,3.4965575e-05,2.8748065e-05,-3.4958124e-05,1.0,3.1590462e-06,-2.874434e-05,-3.1590462e-06,1.0,727,2.212,0,0,0.0,False,-0.257435349164302,1.0501909101696396
2.230558172916062,11:44:22.991902,11:43:22.589161,0,,0.083536424,0.013896041,0.010388628,0.91638947,-0.32726604,-0.23049387,-0.30608094,-0.9439746,0.12339383,-0.25796297,-0.04252684,-0.9652184,,-0.013328813,-0.011863753,0.039990008,0.7268632,0.16295004,0.6671711,0.26870528,-0.9614798,-0.057914376,0.6320343,0.2213682,-0.7426497,,0.09627742,1.3397238,0.45029023,0.9951148,-0.010595714,-0.09815403,-0.070354514,-0.7735925,-0.6297658,-0.0692584,0.6335949,-0.7705588,,-0.06128986,0.22850691,-0.089694664,-0.9095474,0.27949384,0.30758205,-0.4070262,-0.748613,-0.5233624,0.08398337,-0.60121685,0.79466033,,0.045337632,0.39669776,-0.38640356,-0.79300183,-0.1764692,-0.583101,0.5936904,-0.43857467,-0.67467326,-0.13667427,-0.8811985,0.45255858,,1.0498591978535767,0.16698865293935658,0.17767728514000003,-1.7093924192858423,0.007378370987333784,0.3288662677766985,-0.34530935580786637,,-1.0812134933229283,-0.09308209933302801,0.16651622824,4.537690377005107,-0.45773227421422547,0.3823979962787547,0.8758508826120053,,-0.035048393041611135,-0.0946797485975624,0.08866120536,-0.06999633924317733,,-4.0337443e-05,-4.708767e-06,8.34465e-06,1.0,3.4965575e-05,2.8748065e-05,-3.4958124e-05,1.0,3.1590462e-06,-2.874434e-05,-3.1590462e-06,1.0,756,2.302,0,0,0.0,False,-0.2583885926606384,1.0506737121774343
2.260437748976983,11:44:23.082321,11:43:22.589161,0,,0.083535224,0.013914198,0.010519877,0.9282598,-0.29168755,-0.23076433,-0.26910305,-0.9550097,0.12465918,-0.2567437,-0.053616583,-0.9649912,,-0.013328522,-0.011864945,0.03998989,0.72686255,0.16294812,0.66717225,0.26870874,-0.96147835,-0.057920963,0.6320335,0.22137552,-0.74264824,,0.09627742,1.3397238,0.45029023,0.9951148,-0.010595714,-0.09815403,-0.070354514,-0.7735925,-0.6297658,-0.0692584,0.6335949,-0.7705588,,-0.061297443,0.2286051,-0.0897833,-0.9195172,0.2443052,0.307901,-0.37798083,-0.7644549,-0.5222444,0.10778942,-0.5965934,0.7952722,,0.045337368,0.3966969,-0.3864044,-0.7930012,-0.1764681,-0.58310217,0.59369195,-0.43856794,-0.67467624,-0.13667108,-0.8812021,0.4525526,,1.049419002079746,0.16745201691181005,0.17756839678000003,-1.7458784694521496,0.021042020963877826,0.32760760496406427,-0.4168540567746806,,-1.0812134933229283,-0.09308982206590224,0.16651622824,4.537690377005107,-0.45773227421422547,0.3823979962787547,0.8758508826120053,,-0.035048393041611135,-0.0946797485975624,0.08866120536,-0.06999633924317733,,-4.0337443e-05,-4.708767e-06,8.34465e-06,1.0,3.4965575e-05,2.8748065e-05,-3.4958124e-05,1.0,3.1590462e-06,-2.874434e-05,-3.1590462e-06,1.0,764,2.327,0,0,0.0,False,-0.25785239319394915,1.050335750771978
2.350850590970367,11:44:23.102597,11:43:22.589161,0,,0.083571605,0.013900518,0.010573432,0.93084145,-0.28296244,-0.23122847,-0.25978625,-0.9574318,0.12583828,-0.25699297,-0.057065368,-0.964727,,-0.013328224,-0.011866137,0.03998977,0.72686195,0.1629462,0.6671733,0.26871222,-0.96147704,-0.05792749,0.63203275,0.22138289,-0.74264663,,0.09627742,1.3397238,0.45029023,0.9951148,-0.010595714,-0.09815403,-0.070354514,-0.7735925,-0.6297658,-0.0692584,0.6335949,-0.7705588,,-0.06133836,0.22862874,-0.089829646,-0.92158043,0.23574468,0.30840552,-0.37101695,-0.7685903,-0.5211674,0.11417505,-0.5947213,0.795783,,0.045337103,0.39669603,-0.3864052,-0.7930005,-0.17646699,-0.58310336,0.59369355,-0.43856117,-0.6746792,-0.13666789,-0.8812057,0.45254657,,1.0490714791004059,0.16764508523366567,0.17751136002,-1.7546854470785,0.025277752456606482,0.3265223334135515,-0.41946756183282913,,-1.0812134933229283,-0.09309754479877647,0.16651622824,4.537690377005107,-0.45773227421422547,0.3823979962787547,0.8758508826120053,,-0.035048393041611135,-0.0946797485975624,0.08866120536,-0.06999633924317733,,-4.0337443e-05,-4.708767e-06,8.34465e-06,1.0,3.4965575e-05,2.8748065e-05,-3.4958124e-05,1.0,3.1590462e-06,-2.874434e-05,-3.1590462e-06,1.0,776,2.364,0,0,0.0,False,-0.2588652144088064,1.0503840309727575
2.3711288089398295,11:44:23.142041,11:43:22.731742,0,,0.08364147,0.013880692,0.01063557,0.93464243,-0.27222332,-0.22877541,-0.24895987,-0.96033365,0.12561119,-0.25389498,-0.060445458,-0.9653412,,-0.013327353,-0.011864707,0.039990187,0.7268584,0.162945,0.6671776,0.26870638,-0.96147907,-0.057920486,0.6320393,0.22137484,-0.7426435,,0.09627742,1.3397238,0.45029023,0.9951148,-0.010595714,-0.09815403,-0.070354514,-0.7735925,-0.6297658,-0.0692584,0.6335949,-0.7705588,,-0.061413586,0.22865291,-0.089883395,-0.92502683,0.2251482,0.30599624,-0.36075574,-0.77306414,-0.5217539,0.11908276,-0.5930263,0.79632854,,0.04533618,0.39669716,-0.3864043,-0.7929976,-0.17646493,-0.583108,0.5936954,-0.43856862,-0.6746727,-0.13667679,-0.8812024,0.4525503,,1.0486853424566946,0.16790765815138928,0.17744006407000001,-1.766428083913633,0.02705402695355721,0.3259723668070442,-0.4193042177666948,,-1.0812212160558026,-0.09308982206590224,0.16651622824,4.537690377005107,-0.45773227421422547,0.3823979962787547,0.8758508826120053,,-0.035048393041611135,-0.0946797485975624,0.08866120536,-0.06999633924317733,,-4.0337443e-05,-4.708767e-06,8.34465e-06,1.0,3.4965575e-05,2.8748065e-05,-3.4958124e-05,1.0,3.1590462e-06,-2.874434e-05,-3.1590462e-06,1.0,784,2.388,0,0,0.0,False,-0.2584481703791588,1.0502874705711984
2.410463703912683,11:44:23.161683,11:43:22.731742,0,,0.08368823,0.013875194,0.010656625,0.9354205,-0.26963615,-0.22865881,-0.24609438,-0.96096474,0.1264289,-0.2538228,-0.061992407,-0.96526206,,-0.013328522,-0.011864945,0.03998989,0.72686255,0.16294812,0.66717225,0.26870874,-0.96147835,-0.057920963,0.6320335,0.22137552,-0.74264824,,0.09627742,1.3397238,0.45029023,0.9951148,-0.010595714,-0.09815403,-0.070354514,-0.7735925,-0.6297658,-0.0692584,0.6335949,-0.7705588,,-0.061462004,0.22866186,-0.08989878,-0.9256566,0.22265328,0.3059172,-0.35851824,-0.77456015,-0.52107704,0.120931745,-0.5920153,0.796802,,0.045337368,0.3966969,-0.3864044,-0.7930012,-0.1764681,-0.58310217,0.59369195,-0.43856794,-0.67467624,-0.13667108,-0.8812021,0.4525526,,1.0483996013403483,0.16807755827462223,0.17741413827000002,-1.7691540531789318,0.028420391951211613,0.32518490273064227,-0.41963090589896335,,-1.0812134933229283,-0.09308982206590224,0.16651622824,4.537690377005107,-0.45773227421422547,0.3823979962787547,0.8758508826120053,,-0.035048393041611135,-0.0946797485975624,0.08866120536,-0.06999633924317733,,-4.0337443e-05,-4.708767e-06,8.34465e-06,1.0,3.4965575e-05,2.8748065e-05,-3.4958124e-05,1.0,3.1590462e-06,-2.874434e-05,-3.1590462e-06,1.0,788,2.4,0,0,0.0,False,-0.2588652144088064,1.0507219923782136
2.430218099965714,11:44:23.184371,11:43:22.731742,0,,0.08373955,0.013880156,0.010672554,0.9353597,-0.26858252,-0.230143,-0.24414141,-0.9610747,0.12934509,-0.25592434,-0.06479651,-0.9645228,,-0.013326481,-0.011863276,0.039990604,0.72685474,0.16294383,0.6671818,0.26870057,-0.96148115,-0.05791354,0.632046,0.22136682,-0.74264014,,0.09627742,1.3397238,0.45029023,0.9951148,-0.010595714,-0.09815403,-0.070354514,-0.7735925,-0.6297658,-0.0692584,0.6335949,-0.7705588,,-0.06151403,0.22867553,-0.0899031,-0.9253377,0.22180614,0.30749354,-0.35836968,-0.7764525,-0.5183557,0.12377963,-0.5898504,0.79796934,,0.04533525,0.39669833,-0.38640338,-0.7929947,-0.17646287,-0.5831126,0.5936973,-0.43857604,-0.6746663,-0.13668567,-0.8811991,0.452554,,1.048013464696637,0.1683169629937232,0.17739728650000003,-1.7699928129528701,0.03156303144581674,0.32286732716604627,-0.4197942499650976,,-1.0812289387886767,-0.09308209933302801,0.16651622824,4.537690377005107,-0.45773227421422547,0.3823979962787547,0.8758508826120053,,-0.035048393041611135,-0.0946797485975624,0.08866120536,-0.06999633924317733,,-4.0337443e-05,-4.708767e-06,8.34465e-06,1.0,3.4965575e-05,2.8748065e-05,-3.4958124e-05,1.0,3.1590462e-06,-2.874434e-05,-3.1590462e-06,1.0,796,2.425,0,0,0.0,False,-0.2591631030014119,1.0503840309727575
