AlexandreBanks6/ExpertPlaybackApp/resources/Motions/P_08/PC1/Data_PC1_2.csv
Task Time,PC1 Time,PC2 Time,Gaze Calib,s_T_psm1,Tx,Ty,Tz,R00,R01,R02,R10,R11,R12,R20,R21,R22,s_T_psm3,Tx,Ty,Tz,R00,R01,R02,R10,R11,R12,R20,R21,R22,cart_T_ecm,Tx,Ty,Tz,R00,R01,R02,R10,R11,R12,R20,R21,R22,ecm_T_psm1,Tx,Ty,Tz,R00,R01,R02,R10,R11,R12,R20,R21,R22,ecm_T_psm3,Tx,Ty,Tz,R00,R01,R02,R10,R11,R12,R20,R21,R22,psm1_joints,q1,q2,q3,q4,q5,q6,jaw,psm3_joints,q1,q2,q3,q4,q5,q6,jaw,ecm_joints,q1,q2,q3,q4,ecmi_T_ecm,Tx,Ty,Tz,R00,R01,R02,R10,R11,R12,R20,R21,R22,Sample #,Task Duration (s),Collisions (binary),Collisions (increments),Cumulative Collision Time (s),Clutch Press,MTMR Angle,MTML Angle
""
lci_T_si,,,,,-0.043663606,0.048300866,0.22498904,0.99683076,-0.030446803,0.07349438,0.023533283,-0.7696475,-0.63803524,0.0759909,0.6377427,-0.7664918
rci_T_si,,,,,-0.051976997,0.051936712,0.23394425,0.99464995,-0.05454854,0.087726384,0.01607527,-0.7571399,-0.6530549,0.102044344,0.65097123,-0.75221235
ecm_T_lc,,,,,-4.4061628e-05,-0.00034663224,-0.01840835,-0.99912,0.030754527,0.028518902,-0.031987965,-0.99852574,-0.043852776,0.027128186,-0.04472645,0.9986309
ecm_T_rc,,,,,-0.0043358393,0.01870579,-0.007592615,-0.99555075,-0.052743673,-0.078081585,0.04863213,-0.9973746,0.053654674,-0.08070653,0.04961868,0.9955021
cart_T_ecmi,,,,,0.09653346,1.3397326,0.45026043,0.9953255,-0.011423613,-0.09589886,-0.06955304,-0.7737021,-0.62972015,-0.067003466,0.6334466,-0.77088
ecmac_T_ecmrep_psm1,,,,,0.006309411,-0.25313872,-0.31568977,0.99868697,0.047558498,0.019040095,-0.047043137,0.9985371,-0.026657216,-0.020280018,0.025726508,0.99946326
ecmac_T_ecmrep_psm3,,,,,-0.020520164,-0.44355312,-0.56256753,0.99888426,-0.027940953,0.03807337,0.020709034,0.9837047,0.17859514,-0.04244307,-0.17760742,0.9831857
""
0,11:34:43.547024,11:33:43.129126,0,,0.080546014,0.018241055,0.019497707,-0.745995,0.42651778,-0.5114431,0.5404898,0.8364346,-0.090818405,0.3890531,-0.34417978,-0.8545046,,-0.02399011,-0.017276984,0.02807957,0.86858433,0.24337529,0.43165898,0.35927582,-0.9092276,-0.21029982,0.34129453,0.3377478,-0.8771798,,0.096527696,1.339734,0.45026845,0.9953258,-0.011420812,-0.09589658,-0.069549434,-0.77370214,-0.6297205,-0.067003466,0.6334466,-0.77088,,-0.059037153,0.2388839,-0.094496734,0.74224,-0.36050314,0.56490463,0.67011774,0.40517884,-0.6219102,-0.004686806,0.8401593,0.5423195,,0.057105187,0.38675082,-0.38360322,-0.90404075,-0.26496756,-0.3354139,0.40916598,-0.30941123,-0.85839844,0.12366691,-0.91326714,0.38813606,,1.097539350619039,0.20255956055803467,0.17134361220000002,-4.537690377005107,0.01817265446880358,-0.699204744829395,-0.36033700989221995,,-1.0194393530620065,-0.10701390943812904,0.17378322998,4.537900066948591,-0.17954036069178875,0.4544136545271579,0.8760142266781397,,-0.032757648398368575,-0.09502008780170129,0.0886540616,-0.06966925354577931,,-6.362796e-06,4.23193e-06,-6.556511e-06,1.0,2.7939677e-06,2.2985041e-06,-2.7902424e-06,1.0,2.682209e-07,-2.2985041e-06,-2.3841858e-07,1.0,33,0.099,0,0,0.0,False,-0.2571374605716965,1.0503840309727575
0.12072662403807044,11:34:43.563298,11:33:43.129126,0,,0.08019375,0.018268503,0.019941017,-0.74418104,0.42367828,-0.51642156,0.53492886,0.8410179,-0.08086985,0.40005717,-0.3364306,-0.8525075,,-0.02398888,-0.017276715,0.028079808,0.8685824,0.2433713,0.43166503,0.35927367,-0.9092287,-0.21029878,0.34130156,0.3377478,-0.8771771,,0.096527696,1.339734,0.45026845,0.9953258,-0.011420812,-0.09589658,-0.069549434,-0.77370214,-0.6297205,-0.067003466,0.6334466,-0.77088,,-0.058715813,0.2391972,-0.09484306,0.7393951,-0.35799372,0.57020646,0.6730707,0.4137344,-0.613025,-0.016454952,0.83705693,0.54686826,,0.057103936,0.38675106,-0.38360307,-0.90403956,-0.2649636,-0.33542022,0.4091704,-0.30941153,-0.85839623,0.12366087,-0.9132682,0.38813555,,1.099778943152564,0.20243599683204708,0.17102731744000002,-4.537690377005107,0.008334826485691867,-0.6933879817470479,-0.3639305793471742,,-1.0194470757948806,-0.10701390943812904,0.17378322998,4.537900066948591,-0.17954036069178875,0.4544136545271579,0.8760142266781397,,-0.032757648398368575,-0.09502008780170129,0.0886540616,-0.06966925354577931,,-6.362796e-06,4.23193e-06,-6.556511e-06,1.0,2.7939677e-06,2.2985041e-06,-2.7902424e-06,1.0,2.682209e-07,-2.2985041e-06,-2.3841858e-07,1.0,41,0.123,0,0,0.0,False,-0.25731619372725945,1.050432311173537
0.1369999450398609,11:34:43.591181,11:33:43.129126,0,,0.07987949,0.018290512,0.020334587,-0.74280053,0.42103994,-0.5205505,0.53122514,0.843861,-0.0754877,0.40748903,-0.33260176,-0.8504875,,-0.02398888,-0.017276715,0.028079808,0.8685824,0.2433713,0.43166503,0.35927367,-0.9092287,-0.21029878,0.34130156,0.3377478,-0.8771771,,0.096527696,1.339734,0.45026845,0.9953258,-0.011420812,-0.09589658,-0.069549434,-0.77370214,-0.6297205,-0.067003466,0.6334466,-0.77088,,-0.05842912,0.23947358,-0.095152184,0.73732126,-0.35549504,0.5744394,0.67510307,0.41841108,-0.607592,-0.024355896,0.8357963,0.54849917,,0.057103936,0.38675106,-0.38360307,-0.90403956,-0.2649636,-0.33542022,0.4091704,-0.30941153,-0.85839623,0.12366087,-0.9132682,0.38813555,,1.1019953674874665,0.20233560130468214,0.17073824477000002,-4.537690377005107,0.0020495474964816063,-0.6907947991213699,-0.36703411660372554,,-1.0194470757948806,-0.10701390943812904,0.17378322998,4.537900066948591,-0.17954036069178875,0.4544136545271579,0.8760142266781397,,-0.032757648398368575,-0.09502008780170129,0.0886540616,-0.06966925354577931,,-6.362796e-06,4.23193e-06,-6.556511e-06,1.0,2.7939677e-06,2.2985041e-06,-2.7902424e-06,1.0,2.682209e-07,-2.2985041e-06,-2.3841858e-07,1.0,49,0.148,0,0,0.0,False,-0.2580311263495121,1.0512047943860081
0.16130089503712952,11:34:43.611459,11:33:43.213099,0,,0.07954463,0.018323384,0.020746633,-0.74109095,0.41931114,-0.5243685,0.5266004,0.847505,-0.066538155,0.4165048,-0.3254435,-0.84888774,,-0.02398888,-0.017276715,0.028079808,0.8685824,0.2433713,0.43166503,0.35927367,-0.9092287,-0.21029878,0.34130156,0.3377478,-0.8771771,,0.096527696,1.339734,0.45026845,0.9953258,-0.011420812,-0.09589658,-0.069549434,-0.77370214,-0.6297205,-0.067003466,0.6334466,-0.77088,,-0.058122672,0.23977044,-0.09546991,0.73476446,-0.3540965,0.57856447,0.6774685,0.42585933,-0.5997335,-0.034023553,0.83262205,0.5527955,,0.057103936,0.38675106,-0.38360307,-0.90403956,-0.2649636,-0.33542022,0.4091704,-0.30941153,-0.85839623,0.12366087,-0.9132682,0.38813555,,1.1042967418839853,0.20224292851019146,0.17044269065,-4.537690377005107,-0.00601200598967938,-0.6848745727244056,-0.36638074033918844,,-1.0194470757948806,-0.10701390943812904,0.17378322998,4.537900066948591,-0.17954036069178875,0.4544136545271579,0.8760142266781397,,-0.032757648398368575,-0.09502008780170129,0.0886540616,-0.06966925354577931,,-6.362796e-06,4.23193e-06,-6.556511e-06,1.0,2.7939677e-06,2.2985041e-06,-2.7902424e-06,1.0,2.682209e-07,-2.2985041e-06,-2.3841858e-07,1.0,56,0.168,0,0,0.0,False,-0.2570778828531757,1.0502874705711984
0.18515102204401046,11:34:43.632824,11:33:43.213099,0,,0.07922932,0.018341132,0.021159455,-0.73947895,0.4161232,-0.529162,0.52248394,0.85043705,-0.061378747,0.4244779,-0.3218669,-0.84629804,,-0.02398888,-0.017276715,0.028079808,0.8685824,0.2433713,0.43166503,0.35927367,-0.9092287,-0.21029878,0.34130156,0.3377478,-0.8771771,,0.096527696,1.339734,0.45026845,0.9953258,-0.011420812,-0.09589658,-0.069549434,-0.77370214,-0.6297205,-0.067003466,0.6334466,-0.77088,,-0.057836477,0.24005616,-0.095796436,0.73240227,-0.35102823,0.583409,0.6795393,0.43044373,-0.59409136,-0.042581923,0.83156323,0.55379546,,0.057103936,0.38675106,-0.38360307,-0.90403956,-0.2649636,-0.33542022,0.4091704,-0.30941153,-0.85839623,0.12366087,-0.9132682,0.38813555,,1.1065286116846362,0.20215025571570078,0.17013806250000002,-4.537690377005107,-0.012980467477716843,-0.6828678029422134,-0.3632772030826371,,-1.0194470757948806,-0.10701390943812904,0.17378322998,4.537900066948591,-0.17954036069178875,0.4544136545271579,0.8760142266781397,,-0.032757648398368575,-0.09502008780170129,0.0886540616,-0.06966925354577931,,-6.362796e-06,4.23193e-06,-6.556511e-06,1.0,2.7939677e-06,2.2985041e-06,-2.7902424e-06,1.0,2.682209e-07,-2.2985041e-06,-2.3841858e-07,1.0,64,0.193,0,0,0.0,False,-0.25672041654204936,1.050335750771978
0.20652521098963916,11:34:43.661756,11:33:43.213099,0,,0.07873717,0.018375844,0.021798909,-0.73617464,0.4120709,-0.53688407,0.5150422,0.85573864,-0.0494259,0.43906558,-0.31290385,-0.842207,,-0.0242059,-0.01733078,0.028061152,0.86867565,0.24320371,0.4315721,0.35909408,-0.90927976,-0.21038443,0.3412536,0.3377308,-0.8772024,,0.09652471,1.3397338,0.45026916,0.9953283,-0.011392984,-0.09587392,-0.069513634,-0.77370256,-0.6297239,-0.067003466,0.6334466,-0.77088,,-0.057390563,0.24050231,-0.09629848,0.72771347,-0.34739164,0.5913985,0.6834132,0.44033504,-0.5822813,-0.058133833,0.82790345,0.55784976,,0.057323456,0.38672498,-0.38364378,-0.904139,-0.2647651,-0.33530906,0.40898943,-0.30944607,-0.85847,0.12353283,-0.91331404,0.38806838,,1.1099343368821692,0.20204986018833584,0.16966362036000002,-4.537270997118139,-0.026370844454730008,-0.6765228578278355,-0.36425726747944276,,-1.0194470757948806,-0.10701390943812904,0.17378322998,4.537900066948591,-0.17954036069178875,0.4544136545271579,0.8760142266781397,,-0.032757648398368575,-0.09502008780170129,0.0886540616,-0.06966925354577931,,-9.384006e-06,4.827976e-06,-6.67572e-06,1.0,3.0521303e-05,2.5078654e-05,-3.0517578e-05,1.0,2.6524067e-06,-2.508238e-05,-2.6226044e-06,0.99999994,72,0.218,0,0,0.0,False,-0.2579715486309908,1.0507702725789931
0.23545650904998183,11:34:43.690481,11:33:43.213099,0,,0.07832676,0.018389344,0.022396237,-0.73372334,0.4074844,-0.5436972,0.5093056,0.85950375,-0.043139875,0.44973105,-0.3085606,-0.838172,,-0.024183497,-0.017326042,0.028063595,0.868473,0.24348512,0.43182117,0.35943282,-0.9091794,-0.21023986,0.34141266,0.33779836,-0.8771145,,0.09652471,1.3397338,0.45026916,0.9953283,-0.011392984,-0.09587392,-0.069513634,-0.77370256,-0.6297239,-0.067003466,0.6334466,-0.77088,,-0.05702272,0.24090612,-0.09677496,0.72424877,-0.3429433,0.59820867,0.6860063,0.44606367,-0.5748239,-0.069707125,0.82669044,0.5583223,,0.05730087,0.38672772,-0.38364026,-0.9039585,-0.26505333,-0.33556783,0.4093394,-0.30935717,-0.85833526,0.1236943,-0.9132606,0.38814282,,1.1129616481688651,0.2020035237910905,0.16921640031000001,-4.537270997118139,-0.0357987629385454,-0.6746342130227624,-0.37160775045548533,,-1.0195860849866167,-0.10702163217100326,0.17378452627000002,4.537480687061622,-0.17954036069178875,0.4544136545271579,0.8760142266781397,,-0.032757648398368575,-0.09502008780170129,0.0886540616,-0.06966925354577931,,-9.384006e-06,4.827976e-06,-6.67572e-06,1.0,3.0521303e-05,2.5078654e-05,-3.0517578e-05,1.0,2.6524067e-06,-2.508238e-05,-2.6226044e-06,0.99999994,83,0.25,0,0,0.0,False,-0.257435349164302,1.0505771517758753
0.26417960599064827,11:34:43.714414,11:33:43.213099,0,,0.07804033,0.018406928,0.022833899,-0.7312178,0.4034009,-0.5500802,0.5031017,0.8634968,-0.035524905,0.46066177,-0.30272257,-0.83435595,,-0.024155125,-0.01731944,0.028068304,0.8684294,0.24339403,0.43196008,0.35938427,-0.909204,-0.21021631,0.3415745,0.33779776,-0.8770517,,0.09652471,1.3397338,0.45026916,0.9953283,-0.011392984,-0.09587392,-0.069513634,-0.77370256,-0.6297239,-0.067003466,0.6334466,-0.77088,,-0.05676705,0.24120769,-0.09711789,0.720689,-0.33908957,0.6046698,0.688418,0.45293596,-0.56650656,-0.08178025,0.8245406,0.55986136,,0.057272065,0.38673294,-0.38363642,-0.9039314,-0.26496235,-0.33571276,0.4094413,-0.3093644,-0.85828406,0.12355537,-0.91328454,0.3881307,,1.1149077768531699,0.20201124652396474,0.16889362410000003,-4.537270997118139,-0.04672968291978063,-0.6715199712770286,-0.38451193168009346,,-1.0197637078427237,-0.10702163217100326,0.17378452627000002,4.537480687061622,-0.17954036069178875,0.45441365452715793,0.8763409148104082,,-0.032757648398368575,-0.09502008780170129,0.0886540616,-0.06966925354577931,,-9.384006e-06,4.827976e-06,-6.67572e-06,1.0,3.0521303e-05,2.5078654e-05,-3.0517578e-05,1.0,2.6524067e-06,-2.508238e-05,-2.6226044e-06,0.99999994,91,0.275,0,0,0.0,False,-0.25779281547542787,1.0509151131813312
0.28810741496272385,11:34:43.732437,11:33:43.213099,0,,0.077780046,0.018409796,0.023260415,-0.7288591,0.39820325,-0.5569547,0.49749726,0.8669027,-0.031244695,0.47038385,-0.2998563,-0.829955,,-0.024142787,-0.017316505,0.02807039,0.8684105,0.24335441,0.43202043,0.3593632,-0.9092147,-0.21020609,0.3416448,0.33779743,-0.8770244,,0.09652471,1.3397338,0.45026916,0.9953283,-0.011392984,-0.09587392,-0.069513634,-0.77370256,-0.6297239,-0.067003466,0.6334466,-0.77088,,-0.056537364,0.2414906,-0.097459756,0.7173889,-0.3339465,0.6114187,0.69049627,0.45743403,-0.5603294,-0.092563674,0.82415646,0.55874693,,0.057259545,0.3867352,-0.38363472,-0.9039196,-0.26492277,-0.33577576,0.40948558,-0.30936754,-0.85826176,0.12349496,-0.9132949,0.38812542,,1.1167303418114867,0.20201896925683896,0.16857084789000001,-4.537270997118139,-0.056430874403126906,-0.6716138166483577,-0.38712543673824185,,-1.0198409351714661,-0.10702163217100326,0.17378452627000002,4.537480687061622,-0.17954036069178875,0.45441365452715793,0.8763409148104082,,-0.032757648398368575,-0.09502008780170129,0.0886540616,-0.06966925354577931,,-9.384006e-06,4.827976e-06,-6.67572e-06,1.0,3.0521303e-05,2.5078654e-05,-3.0517578e-05,1.0,2.6524067e-06,-2.508238e-05,-2.6226044e-06,0.99999994,95,0.287,0,0,0.0,False,-0.2583885926606384,1.0507219923782136
0.30613889906089753,11:34:43.760634,11:33:43.213099,0,,0.077364855,0.01842644,0.023915395,-0.7252251,0.39199752,-0.5660269,0.48934424,0.8717813,-0.023229718,0.48434576,-0.29382864,-0.82405937,,-0.024114102,-0.017311111,0.02807504,0.8683668,0.24326164,0.43216056,0.35931614,-0.9092371,-0.21018961,0.3418054,0.33780396,-0.8769593,,0.09652471,1.3397338,0.45026916,0.9953283,-0.011392984,-0.09587392,-0.069513634,-0.77370256,-0.6297239,-0.067003466,0.6334466,-0.77088,,-0.05616863,0.24193445,-0.09797811,0.7123988,-0.3279487,0.6204334,0.69339955,0.46512017,-0.5503274,-0.10809691,0.82226086,0.5587505,,0.05723046,0.38673955,-0.38363174,-0.9038921,-0.2648309,-0.33592212,0.40958747,-0.30936763,-0.8582131,0.123357914,-0.91332155,0.38810638,,1.119726762166686,0.20204986018833584,0.16808603543000003,-4.537270997118139,-0.07009452437967095,-0.669538366434318,-0.3835318672832876,,-1.0200185580275731,-0.10702935490387748,0.17378452627000002,4.537480687061622,-0.17954036069178875,0.45441365452715793,0.8763409148104082,,-0.032757648398368575,-0.09502008780170129,0.0886540616,-0.06966925354577931,,-9.384006e-06,4.827976e-06,-6.67572e-06,1.0,3.0521303e-05,2.5078654e-05,-3.0517578e-05,1.0,2.6524067e-06,-2.508238e-05,-2.6226044e-06,0.99999994,103,0.312,0,0,0.0,False,-0.25773323775690704,1.0503840309727575
0.3343345579924062,11:34:43.781825,11:33:43.213099,0,,0.077063635,0.018464796,0.02433449,-0.7219694,0.38661835,-0.57383484,0.48202217,0.87600833,-0.01624927,0.49640185,-0.28833237,-0.81880987,,-0.024101458,-0.017309487,0.028076947,0.86834764,0.24322039,0.4322222,0.35929656,-0.90924555,-0.21018645,0.34187457,0.33781084,-0.8769297,,0.09652471,1.3397338,0.45026916,0.9953283,-0.011392984,-0.09587392,-0.069513634,-0.77370256,-0.6297239,-0.067003466,0.6334466,-0.77088,,-0.055895932,0.24223976,-0.098294735,0.70795906,-0.32276878,0.62818336,0.6956918,0.47195846,-0.5415423,-0.1216835,0.8204118,0.5586748,,0.057217658,0.38674092,-0.38363096,-0.90388,-0.26479045,-0.33598655,0.4096318,-0.30936363,-0.8581934,0.1232994,-0.9133346,0.3880942,,1.1216960590496132,0.20204986018833584,0.16779955534000002,-4.537270997118139,-0.08266508235809147,-0.6677008295287252,-0.38434858761395907,,-1.0200957853563155,-0.1070370776367517,0.17378452627000002,4.537480687061622,-0.17954036069178875,0.45441365452715793,0.8763409148104082,,-0.032757648398368575,-0.09502008780170129,0.0886540616,-0.06966925354577931,,-9.384006e-06,4.827976e-06,-6.67572e-06,1.0,3.0521303e-05,2.5078654e-05,-3.0517578e-05,1.0,2.6524067e-06,-2.508238e-05,-2.6226044e-06,0.99999994,111,0.336,0,0,0.0,False,-0.2580907040680329,1.0508185527797727
0.3554854020476341,11:34:43.801164,11:33:43.213099,0,,0.076725304,0.01852753,0.02476494,-0.71817625,0.37930965,-0.5833927,0.47379085,0.8805721,-0.010723203,0.509652,-0.28410715,-0.8121194,,-0.024094373,-0.017306522,0.028078377,0.8683364,0.24316299,0.432277,0.3592824,-0.909237,-0.21024755,0.34191793,0.33787513,-0.87688804,,0.09652471,1.3397338,0.45026916,0.9953283,-0.011392984,-0.09587392,-0.069513634,-0.77370256,-0.6297239,-0.067003466,0.6334466,-0.77088,,-0.055585872,0.2425713,-0.098607205,0.70285624,-0.3155613,0.6375062,0.6980698,0.47823972,-0.5329027,-0.1367173,0.8195778,0.5564176,,0.057210427,0.3867432,-0.38362908,-0.90387315,-0.26474014,-0.33604455,0.40965834,-0.3093026,-0.85820276,0.12326126,-0.9133699,0.38802332,,1.1238815924530188,0.20205758292121007,0.16752474186000002,-4.537270997118139,-0.09660200533416641,-0.6680979419319311,-0.39561932817722445,,-1.020142121753561,-0.10702935490387748,0.17378452627000002,4.537480687061622,-0.17954036069178875,0.4544953332672985,0.8761775707442738,,-0.032757648398368575,-0.09502008780170129,0.0886540616,-0.06966925354577931,,-9.384006e-06,4.827976e-06,-6.67572e-06,1.0,3.0521303e-05,2.5078654e-05,-3.0517578e-05,1.0,2.6524067e-06,-2.508238e-05,-2.6226044e-06,0.99999994,122,0.369,0,0,0.0,False,-0.2571374605716965,1.0503840309727575
0.37483999703545123,11:34:43.832445,11:33:43.213099,0,,0.07617795,0.018657416,0.025388598,-0.7124466,0.3719798,-0.59502184,0.4621334,0.8868098,0.0010587871,0.52806515,-0.27422503,-0.8037088,,-0.02408851,-0.01730384,0.02807951,0.86832714,0.24314483,0.43230593,0.35927033,-0.9092446,-0.21023542,0.34195426,0.33786783,-0.87687665,,0.09652471,1.3397338,0.45026916,0.9953283,-0.011392984,-0.09587392,-0.069513634,-0.77370256,-0.6297239,-0.067003466,0.6334466,-0.77088,,-0.055077787,0.24308169,-0.099039376,0.6952978,-0.3086471,0.64907473,0.7012045,0.48948148,-0.5183823,-0.15771288,0.81556416,0.5567601,,0.057204448,0.3867452,-0.38362736,-0.90386754,-0.26472124,-0.33607465,0.40968046,-0.30931133,-0.85818905,0.12322917,-0.9133724,0.38802758,,1.1275344451025269,0.20208075111983276,0.16715918808000002,-4.537270997118139,-0.11559447880156261,-0.6638825194575262,-0.39169907059000164,,-1.020180735417932,-0.10702163217100326,0.17378452627000002,4.537480687061622,-0.17954036069178875,0.4544953332672985,0.8761775707442738,,-0.032757648398368575,-0.09502008780170129,0.0886540616,-0.06966925354577931,,-9.384006e-06,4.827976e-06,-6.67572e-06,1.0,3.0521303e-05,2.5078654e-05,-3.0517578e-05,1.0,2.6524067e-06,-2.508238e-05,-2.6226044e-06,0.99999994,130,0.394,0,0,0.0,False,-0.25820985950507547,1.0507702725789931
0.4061474440386519,11:34:43.861156,11:33:43.213099,0,,0.07552278,0.018871881,0.025982141,-0.7057631,0.3624699,-0.6086986,0.4493206,0.8933031,0.010976762,0.54773116,-0.26575366,-0.7933256,,-0.02409222,-0.017304718,0.028078914,0.8683328,0.2431567,0.43228775,0.35927665,-0.90924144,-0.21023849,0.34193313,0.33786792,-0.8768849,,0.09652471,1.3397338,0.45026916,0.9953283,-0.011392984,-0.09587392,-0.069513634,-0.77370256,-0.6297239,-0.067003466,0.6334466,-0.77088,,-0.054456092,0.24363749,-0.09940288,0.6866457,-0.29944983,0.6624556,0.70427305,0.50001574,-0.503968,-0.18032509,0.8125971,0.55422807,,0.057208207,0.38674453,-0.38362786,-0.90387106,-0.2647331,-0.33605573,0.40966716,-0.30931038,-0.8581957,0.12324729,-0.9133693,0.3880292,,1.1318514527792183,0.20208075111983276,0.16688696718,-4.537270997118139,-0.1358166807668478,-0.6622582004160382,-0.3965993925740301,,-1.0201575672193093,-0.10702163217100326,0.17378452627000002,4.537480687061622,-0.17954036069178875,0.4544953332672985,0.8761775707442738,,-0.032757648398368575,-0.09502008780170129,0.0886540616,-0.06966925354577931,,-9.384006e-06,4.827976e-06,-6.67572e-06,1.0,3.0521303e-05,2.5078654e-05,-3.0517578e-05,1.0,2.6524067e-06,-2.508238e-05,-2.6226044e-06,0.99999994,138,0.418,0,0,0.0,False,-0.25731619372725945,1.0504805913743163
0.4348439610330388,11:34:43.885919,11:33:43.213099,0,,0.07502203,0.019058011,0.02637519,-0.7009012,0.35645252,-0.6178019,0.4405154,0.8975626,0.01809752,0.56096685,-0.25946644,-0.78612554,,-0.024095595,-0.017306805,0.028078139,0.8683383,0.24316694,0.43227097,0.35928446,-0.90923595,-0.21024856,0.3419109,0.3378752,-0.8768908,,0.09652471,1.3397338,0.45026916,0.9953283,-0.011392984,-0.09587392,-0.069513634,-0.77370256,-0.6297239,-0.067003466,0.6334466,-0.77088,,-0.053975627,0.24403957,-0.099620506,0.6804514,-0.2936877,0.6713669,0.7061971,0.50740063,-0.4937918,-0.19563137,0.8101186,0.55266285,,0.05721168,0.38674295,-0.38362923,-0.90387434,-0.2647441,-0.33603826,0.4096539,-0.30930227,-0.85820496,0.1232673,-0.9133689,0.38802385,,1.1351876733808834,0.2020730283869585,0.16674437528000002,-4.537270997118139,-0.14920705774386098,-0.6605689434896724,-0.398396177301507,,-1.0201343990206866,-0.10702935490387748,0.17378452627000002,4.537480687061622,-0.17954036069178875,0.4544953332672985,0.8761775707442738,,-0.032757648398368575,-0.09502008780170129,0.0886540616,-0.06966925354577931,,-9.384006e-06,4.827976e-06,-6.67572e-06,1.0,3.0521303e-05,2.5078654e-05,-3.0517578e-05,1.0,2.6524067e-06,-2.508238e-05,-2.6226044e-06,0.99999994,146,0.443,0,0,0.0,False,-0.2570778828531757,1.0504805913743163
0.45961656200233847,11:34:43.913909,11:33:43.514668,0,,0.074312545,0.019334495,0.026879624,-0.69533026,0.35204583,-0.6265617,0.4313342,0.9017577,0.027994514,0.57486236,-0.25079194,-0.7788688,,-0.024094045,-0.017307743,0.028078198,0.8683362,0.243126,0.43229815,0.3592839,-0.9092176,-0.2103289,0.3419168,0.33795395,-0.8768582,,0.09652471,1.3397338,0.45026916,0.9953283,-0.011392984,-0.09587392,-0.069513634,-0.77370256,-0.6297239,-0.067003466,0.6334466,-0.77088,,-0.053290594,0.24458468,-0.09988099,0.6734863,-0.2897004,0.6800661,0.7082606,0.5162803,-0.4814785,-0.21162023,0.8059332,0.5528911,,0.057210144,0.3867423,-0.38362995,-0.9038729,-0.26471183,-0.33606762,0.40965837,-0.30922532,-0.8582306,0.12326315,-0.9134043,0.3879418,,1.1401842815505066,0.2020653056540843,0.16659141306000003,-4.537270997118139,-0.16191425222204694,-0.6559245902557445,-0.39284247905294156,,-1.020142121753561,-0.1070370776367517,0.17378452627000002,4.537480687061622,-0.17954036069178875,0.45457701200743905,0.8763409148104082,,-0.032757648398368575,-0.09502008780170129,0.0886540616,-0.06966925354577931,,-9.384006e-06,4.827976e-06,-6.67572e-06,1.0,3.0521303e-05,2.5078654e-05,-3.0517578e-05,1.0,2.6524067e-06,-2.508238e-05,-2.6226044e-06,0.99999994,154,0.467,0,0,0.0,False,-0.25767366003838577,1.0505288715750958
0.48759184405207634,11:34:43.932349,11:33:43.514668,0,,0.0738131,0.01954855,0.027200297,-0.6907911,0.34932745,-0.6330703,0.4237867,0.9050078,0.03695643,0.5858435,-0.24275747,-0.7732116,,-0.024092808,-0.01730749,0.028078377,0.8683344,0.24308673,0.43232405,0.35928178,-0.90920156,-0.21040213,0.34192383,0.33802557,-0.8768278,,0.09652471,1.3397338,0.45026916,0.9953283,-0.011392984,-0.09587392,-0.069513634,-0.77370256,-0.6297239,-0.067003466,0.6334466,-0.77088,,-0.052805025,0.24496067,-0.10002576,0.66783184,-0.28739622,0.6865887,0.7096689,0.524011,-0.47093794,-0.22443426,0.801758,0.5539074,,0.057208892,0.3867425,-0.38362977,-0.9038717,-0.26468042,-0.33609554,0.4096628,-0.30915555,-0.8582536,0.12325711,-0.913437,0.38786668,,1.1435668385494169,0.20205758292121007,0.16652919114,-4.537270997118139,-0.1727085357035167,-0.6510431553904742,-0.3944759197142844,,-1.020149844486435,-0.1070370776367517,0.17378452627000002,4.537480687061622,-0.17954036069178875,0.45465869074757964,0.876177570744274,,-0.032757648398368575,-0.09502008780170129,0.0886540616,-0.06966925354577931,,-9.384006e-06,4.827976e-06,-6.67572e-06,1.0,3.0521303e-05,2.5078654e-05,-3.0517578e-05,1.0,2.6524067e-06,-2.508238e-05,-2.6226044e-06,0.99999994,165,0.5,0,0,0.0,False,-0.2583885926606384,1.050432311173537
0.5060240289894864,11:34:43.964182,11:33:43.514668,0,,0.07307884,0.019878782,0.027652636,-0.6828973,0.3392763,-0.6469488,0.41063976,0.9107281,0.044151425,0.6041741,-0.2355119,-0.76125413,,-0.024091907,-0.017305955,0.028078735,0.8683327,0.2430844,0.43232882,0.35927814,-0.90920484,-0.21039402,0.34193197,0.33801836,-0.87682736,,0.09652471,1.3397338,0.45026916,0.9953283,-0.011392984,-0.09587392,-0.069513634,-0.77370256,-0.6297239,-0.067003466,0.6334466,-0.77088,,-0.052089073,0.24551271,-0.10021406,0.65805095,-0.27761135,0.6999292,0.7116017,0.53316456,-0.4575572,-0.24615437,0.79916674,0.5483982,,0.057207923,0.38674363,-0.38362873,-0.9038708,-0.26467732,-0.3361004,0.4096672,-0.30916303,-0.85824883,0.12324918,-0.91343534,0.38787305,,1.148347210198562,0.20204213745546162,0.16647345067000002,-4.537270997118139,-0.19197428217044385,-0.65150562151711,-0.3951292959788214,,-1.0201575672193093,-0.10702935490387748,0.17378452627000002,4.537480687061622,-0.17954036069178875,0.45465869074757964,0.876177570744274,,-0.032757648398368575,-0.09502008780170129,0.0886540616,-0.06966925354577931,,-9.384006e-06,4.827976e-06,-6.67572e-06,1.0,3.0521303e-05,2.5078654e-05,-3.0517578e-05,1.0,2.6524067e-06,-2.508238e-05,-2.6226044e-06,0.99999994,173,0.525,0,0,0.0,False,-0.2570778828531757,1.0506737121774343
0.5378811460686848,11:34:43.987162,11:33:43.514668,0,,0.07256998,0.020115748,0.027956262,-0.6759353,0.33082268,-0.6585345,0.3985883,0.9157164,0.050900668,0.61986995,-0.22807842,-0.7508272,,-0.024091296,-0.017303154,0.028079212,0.8683311,0.24304849,0.43235213,0.35927302,-0.90919316,-0.21045327,0.3419413,0.33807558,-0.87680167,,0.09652471,1.3397338,0.45026916,0.9953283,-0.011392984,-0.09587392,-0.069513634,-0.77370256,-0.6297239,-0.067003466,0.6334466,-0.77088,,-0.051591814,0.245895,-0.10033182,0.6494355,-0.2694667,0.7110704,0.7126532,0.5418717,-0.44553384,-0.26525244,0.79609215,0.5439471,,0.057207238,0.38674566,-0.3836268,-0.90387017,-0.26464766,-0.33612546,0.40967155,-0.30910757,-0.8582667,0.12323935,-0.9134627,0.38781175,,1.1528032270669895,0.20198035559246783,0.16645919148000002,-4.5358031675137465,-0.21643221562845769,-0.6498578545469367,-0.39480260784655286,,-1.0201652899521836,-0.10701390943812904,0.17378452627000002,4.537480687061622,-0.17954036069178875,0.45474036948772023,0.8760142266781397,,-0.032757648398368575,-0.09502008780170129,0.0886540616,-0.06966925354577931,,-9.384006e-06,4.827976e-06,-6.67572e-06,1.0,3.0521303e-05,2.5078654e-05,-3.0517578e-05,1.0,2.6524067e-06,-2.508238e-05,-2.6226044e-06,0.99999994,181,0.549,0,0,0.0,False,-0.2561246393568388,1.0507219923782136
0.5608629509806633,11:34:44.014182,11:33:43.514668,0,,0.07194786,0.020422794,0.028303906,-0.663546,0.33319312,-0.6698425,0.39470327,0.9165137,0.064899266,0.63554394,-0.22132528,-0.73966146,,-0.02409222,-0.017304718,0.028078914,0.8683328,0.24305078,0.43234736,0.35927665,-0.9091899,-0.21046129,0.34193313,0.3380828,-0.87680197,,0.09652471,1.3397338,0.45026916,0.9953283,-0.011392984,-0.09587392,-0.069513634,-0.77370256,-0.6297239,-0.067003466,0.6334466,-0.77088,,-0.050981395,0.24636014,-0.10044677,0.6358082,-0.2722619,0.7222336,0.71982807,0.546862,-0.42753887,-0.27855957,0.79171675,0.54368114,,0.057208207,0.38674453,-0.38362786,-0.90387106,-0.26465076,-0.3361206,0.40966716,-0.3091001,-0.8582715,0.12324729,-0.91346437,0.38780534,,1.1555988563674586,0.20194946466097094,0.16646437664000002,-4.528464019491787,-0.22381058661579145,-0.6459649349909845,-0.39153572652386737,,-1.0201575672193093,-0.10702163217100326,0.17378452627000002,4.537480687061622,-0.17954036069178875,0.45474036948772023,0.8760142266781397,,-0.032757648398368575,-0.09502008780170129,0.0886540616,-0.06966925354577931,,-9.384006e-06,4.827976e-06,-6.67572e-06,1.0,3.0521303e-05,2.5078654e-05,-3.0517578e-05,1.0,2.6524067e-06,-2.508238e-05,-2.6226044e-06,0.99999994,189,0.574,0,0,0.0,False,-0.25719703829021734,1.050963393382111
0.5878813200397417,11:34:44.043977,11:33:43.649649,0,,0.07134448,0.020737596,0.028636023,-0.651429,0.3392172,-0.67865455,0.38757193,0.9177529,0.08670375,0.6522486,-0.20654607,-0.72932196,,-0.02409222,-0.017304718,0.028078914,0.8683328,0.2430861,0.4323275,0.35927665,-0.90920705,-0.21038705,0.34193313,0.33801115,-0.8768297,,0.09652471,1.3397338,0.45026916,0.9953283,-0.011392984,-0.09587392,-0.069513634,-0.77370256,-0.6297239,-0.067003466,0.6334466,-0.77088,,-0.050388206,0.24682085,-0.10054332,0.6222235,-0.27923688,0.73134446,0.72521883,0.5573924,-0.40419215,-0.29478052,0.78188264,0.54933053,,0.057208207,0.38674453,-0.38362786,-0.90387106,-0.2646782,-0.33609897,0.40966716,-0.3091702,-0.85824627,0.12324729,-0.91343266,0.38787997,,1.1595220046675647,0.2019417419280967,0.16649289502,-4.521544251356799,-0.24048023958717518,-0.63220859325974,-0.39610936037562716,,-1.0201575672193093,-0.10702163217100326,0.17378452627000002,4.537480687061622,-0.17954036069178875,0.4546586907475796,0.8758508826120053,,-0.032757648398368575,-0.09502008780170129,0.0886540616,-0.06966925354577931,,-9.384006e-06,4.827976e-06,-6.67572e-06,1.0,3.0521303e-05,2.5078654e-05,-3.0517578e-05,1.0,2.6524067e-06,-2.508238e-05,-2.6226044e-06,0.99999994,197,0.598,0,0,0.0,False,-0.2575545046013441,1.0507219923782136
0.6176739430520684,11:34:44.064758,11:33:43.649649,0,,0.070935965,0.020965926,0.028833881,-0.6426908,0.34297895,-0.68506485,0.38297427,0.91828096,0.10045326,0.6635354,-0.19780168,-0.7215228,,-0.024093136,-0.017306253,0.028078496,0.8683346,0.2430884,0.43232274,0.35928026,-0.90920377,-0.2103951,0.3419249,0.33801836,-0.87683004,,0.09652471,1.3397338,0.45026916,0.9953283,-0.011392984,-0.09587392,-0.069513634,-0.77370256,-0.6297239,-0.067003466,0.6334466,-0.77088,,-0.049983956,0.24712665,-0.10057846,0.6125063,-0.28357053,0.7378508,0.72902334,0.5634657,-0.38862753,-0.3055503,0.7759473,0.5518558,,0.057209175,0.3867434,-0.3836289,-0.903872,-0.26468128,-0.3360941,0.40966275,-0.3091627,-0.85825104,0.123255216,-0.9134343,0.3878736,,1.1621477338448012,0.20193401919522247,0.16654604291000003,-4.516302002769685,-0.25182106906770674,-0.6242677670951859,-0.3964360485078956,,-1.020149844486435,-0.10702935490387748,0.17378452627000002,4.537480687061622,-0.17954036069178875,0.4546586907475796,0.8758508826120053,,-0.032757648398368575,-0.09502008780170129,0.0886540616,-0.06966925354577931,,-9.384006e-06,4.827976e-06,-6.67572e-06,1.0,3.0521303e-05,2.5078654e-05,-3.0517578e-05,1.0,2.6524067e-06,-2.508238e-05,-2.6226044e-06,0.99999994,212,0.644,0,0,0.0,False,-0.2566012611050077,1.050963393382111
0.638456886052154,11:34:44.107801,11:33:43.649649,0,,0.0698265,0.021651134,0.029227033,-0.62407744,0.34762117,-0.69977623,0.36516365,0.9215213,0.13211365,0.69078434,-0.17308351,-0.70203924,,-0.02409222,-0.017304718,0.028078914,0.8683328,0.2430861,0.4323275,0.35927665,-0.90920705,-0.21038705,0.34193313,0.33801115,-0.8768297,,0.09652471,1.3397338,0.45026916,0.9953283,-0.011392984,-0.09587392,-0.069513634,-0.77370256,-0.6297239,-0.067003466,0.6334466,-0.77088,,-0.04887288,0.24791239,-0.10052273,0.5911962,-0.2897664,0.7526769,0.7331469,0.58201164,-0.35179266,-0.336129,0.7598012,0.5565244,,0.057208207,0.38674453,-0.38362786,-0.90387106,-0.2646782,-0.33609897,0.40966716,-0.3091702,-0.85824627,0.12324729,-0.91343266,0.38787997,,1.1690827479658548,0.20201124652396474,0.16685585622000002,-4.510220994408634,-0.28188109901610364,-0.6045748739502664,-0.3969260807062984,,-1.0201575672193093,-0.10702163217100326,0.17378452627000002,4.537480687061622,-0.17954036069178875,0.4546586907475796,0.8758508826120053,,-0.032757648398368575,-0.09502008780170129,0.0886540616,-0.06966925354577931,,-9.384006e-06,4.827976e-06,-6.67572e-06,1.0,3.0521303e-05,2.5078654e-05,-3.0517578e-05,1.0,2.6524067e-06,-2.508238e-05,-2.6226044e-06,0.99999994,220,0.668,0,0,0.0,False,-0.2568991496976123,1.0508668329805522
0.6815003730589524,11:34:44.132660,11:33:43.649649,0,,0.06932187,0.0219898,0.029382452,-0.6151376,0.34815794,-0.7073837,0.35719576,0.92292094,0.14362454,0.70286334,-0.1643255,-0.69208395,,-0.024092525,-0.017303482,0.028079033,0.86833304,0.24308775,0.43232623,0.3592751,-0.90920925,-0.21038002,0.34193426,0.33800396,-0.876832,,0.09652471,1.3397338,0.45026916,0.9953283,-0.011392984,-0.09587392,-0.069513634,-0.77370256,-0.6297239,-0.067003466,0.6334466,-0.77088,,-0.048364576,0.24827497,-0.100462124,0.58105993,-0.2908455,0.76011723,0.7349136,0.5887833,-0.3365058,-0.34967318,0.75415057,0.55586475,,0.05720849,0.38674542,-0.38362697,-0.90387136,-0.26467907,-0.33609754,0.40966713,-0.30917737,-0.8582437,0.123245396,-0.91343,0.38788688,,1.1722490684442868,0.20211164205132964,0.16703604053,-4.507075645256367,-0.2954081124928823,-0.5988536195934573,-0.3970894247724329,,-1.0201575672193093,-0.10701390943812904,0.17378452627000002,4.537480687061622,-0.17954036069178875,0.4546586907475796,0.8758508826120053,,-0.032757648398368575,-0.09502008780170129,0.0886540616,-0.06966925354577931,,-9.384006e-06,4.827976e-06,-6.67572e-06,1.0,3.0521303e-05,2.5078654e-05,-3.0517578e-05,1.0,2.6524067e-06,-2.508238e-05,-2.6226044e-06,0.99999994,228,0.693,0,0,0.0,False,-0.2575545046013441,1.0509151131813312
0.7063514890614897,11:34:44.160671,11:33:43.649649,0,,0.06853519,0.022549994,0.02961038,-0.5997857,0.34952927,-0.7197822,0.34586447,0.92442083,0.16069803,0.72155046,-0.15256253,-0.6753441,,-0.02409099,-0.017304406,0.028079093,0.8683309,0.24304682,0.4323534,0.3592745,-0.9091909,-0.21046025,0.34194016,0.33808273,-0.87679935,,0.09652471,1.3397338,0.45026916,0.9953283,-0.011392984,-0.09587392,-0.069513634,-0.77370256,-0.6297239,-0.067003466,0.6334466,-0.77088,,-0.047569603,0.24885523,-0.10033586,0.56391066,-0.29296127,0.77212596,0.73838705,0.5975847,-0.31253338,-0.3698505,0.7463687,0.5533032,,0.057206955,0.38674477,-0.38362768,-0.90386987,-0.2646468,-0.3361269,0.40967157,-0.30910042,-0.8582693,0.123241246,-0.9134654,0.38780484,,1.17724567661391,0.20235104677043061,0.16735233529000001,-4.500365567064861,-0.3161768604572292,-0.5916378683083281,-0.39692608070629853,,-1.0201652899521836,-0.10702163217100326,0.17378452627000002,4.537480687061622,-0.17954036069178875,0.45474036948772023,0.8760142266781397,,-0.032757648398368575,-0.09502008780170129,0.0886540616,-0.06966925354577931,,-9.384006e-06,4.827976e-06,-6.67572e-06,1.0,3.0521303e-05,2.5078654e-05,-3.0517578e-05,1.0,2.6524067e-06,-2.508238e-05,-2.6226044e-06,0.99999994,236,0.717,0,0,0.0,False,-0.2570778828531757,1.0506737121774343
0.7343347700079903,11:34:44.179844,11:33:43.649649,0,,0.06797783,0.022949047,0.029755548,-0.5919831,0.34972626,-0.72611815,0.3370384,0.9258081,0.17112693,0.73209375,-0.14342535,-0.66593385,,-0.02409099,-0.017304406,0.028079093,0.8683309,0.24304682,0.4323534,0.3592745,-0.9091909,-0.21046025,0.34194016,0.33808273,-0.87679935,,0.09652471,1.3397338,0.45026916,0.9953283,-0.011392984,-0.09587392,-0.069513634,-0.77370256,-0.6297239,-0.067003466,0.6334466,-0.77088,,-0.047005128,0.24925734,-0.10023266,0.5549733,-0.29372892,0.77828526,0.7385115,0.60459757,-0.29843348,-0.38289085,0.74039525,0.5524577,,0.057206955,0.38674477,-0.38362768,-0.90386987,-0.2646468,-0.3361269,0.40967157,-0.30910042,-0.8582693,0.123241246,-0.9134654,0.38780484,,1.1808676383319214,0.20257500602378312,0.16758955636000003,-4.499107427403954,-0.3283375089363534,-0.5857239331462343,-0.3990495535660442,,-1.0201652899521836,-0.10702163217100326,0.17378452627000002,4.537480687061622,-0.17954036069178875,0.45474036948772023,0.8760142266781397,,-0.032757648398368575,-0.09502008780170129,0.0886540616,-0.06966925354577931,,-9.384006e-06,4.827976e-06,-6.67572e-06,1.0,3.0521303e-05,2.5078654e-05,-3.0517578e-05,1.0,2.6524067e-06,-2.508238e-05,-2.6226044e-06,0.99999994,244,0.742,0,0,0.0,False,-0.25672041654204936,1.0507219923782136
0.7535266500199214,11:34:44.214291,11:33:43.802028,0,,0.067212515,0.023551345,0.029915377,-0.5811175,0.35333768,-0.73311317,0.33118182,0.9255394,0.18356292,0.74338484,-0.13612193,-0.65486616,,-0.024093136,-0.017306253,0.028078496,0.8683346,0.24305308,0.43234262,0.35928026,-0.90918654,-0.21046937,0.3419249,0.33808994,-0.8768025,,0.09652471,1.3397338,0.45026916,0.9953283,-0.011392984,-0.09587392,-0.069513634,-0.77370256,-0.6297239,-0.067003466,0.6334466,-0.77088,,-0.046224657,0.24982487,-0.10002581,0.5430753,-0.29785055,0.7850823,0.74134594,0.6091281,-0.2817253,-0.39430368,0.73501563,0.55161273,,0.057209175,0.3867434,-0.3836289,-0.903872,-0.26465383,-0.33611572,0.40966275,-0.3090926,-0.8582763,0.123255216,-0.913466,0.38779896,,1.1862117694808847,0.20305381546198503,0.16796418417000003,-4.493655488873357,-0.3385852464187614,-0.5797362738330788,-0.39627270444176155,,-1.020149844486435,-0.10702935490387748,0.17378452627000002,4.537480687061622,-0.17954036069178875,0.45474036948772023,0.8760142266781397,,-0.032757648398368575,-0.09502008780170129,0.0886540616,-0.06966925354577931,,-9.384006e-06,4.827976e-06,-6.67572e-06,1.0,3.0521303e-05,2.5078654e-05,-3.0517578e-05,1.0,2.6524067e-06,-2.508238e-05,-2.6226044e-06,0.99999994,259,0.787,0,0,0.0,False,-0.2570778828531757,1.0506737121774343
0.7879921500571072,11:34:44.247087,11:33:43.802028,0,,0.06643291,0.024218746,0.030099869,-0.5691364,0.3587735,-0.73984146,0.32396853,0.924844,0.19926862,0.7557303,-0.12627414,-0.6425937,,-0.024094678,-0.0173053,0.028078496,0.8683366,0.2430587,0.43233532,0.35928085,-0.90918773,-0.21046335,0.34191906,0.33808285,-0.8768076,,0.09652471,1.3397338,0.45026916,0.9953283,-0.011392984,-0.09587392,-0.069513634,-0.77370256,-0.6297239,-0.067003466,0.6334466,-0.77088,,-0.04542853,0.25045794,-0.099796385,0.5299266,-0.3039883,0.79168737,0.7438305,0.6149796,-0.2617561,-0.4073008,0.72759277,0.5520098,,0.05721071,0.38674408,-0.3836282,-0.90387344,-0.26465866,-0.336108,0.4096583,-0.30909947,-0.85827595,0.123259366,-0.9134623,0.38780642,,1.1917412462188295,0.20381064328365903,0.16836733036,-4.487993860399275,-0.3506092583981202,-0.5710750006697616,-0.3979061451031042,,-1.020142121753561,-0.10702163217100326,0.17378452627000002,4.537480687061622,-0.17954036069178875,0.45474036948772023,0.8760142266781397,,-0.032757648398368575,-0.09502008780170129,0.0886540616,-0.06966925354577931,,-9.384006e-06,4.827976e-06,-6.67572e-06,1.0,3.0521303e-05,2.5078654e-05,-3.0517578e-05,1.0,2.6524067e-06,-2.508238e-05,-2.6226044e-06,0.99999994,263,0.799,0,0,0.0,False,-0.256541683386486,1.0507219923782136
0.8207891050260514,11:34:44.268508,11:33:43.802028,0,,0.06592184,0.024694286,0.030209988,-0.5605033,0.36286658,-0.7444219,0.3202381,0.92393786,0.20925185,0.76373017,-0.12110579,-0.63407385,,-0.024093315,-0.0173053,0.028078675,0.86841893,0.24287759,0.43227175,0.35909116,-0.9092475,-0.21052888,0.3419093,0.3380523,-0.8768231,,0.09652471,1.3397338,0.45026916,0.9953283,-0.011392984,-0.09587392,-0.069513634,-0.77370256,-0.6297239,-0.067003466,0.6334466,-0.77088,,-0.044904035,0.2508947,-0.09961306,0.5205856,-0.30847147,0.79613817,0.74614775,0.61762947,-0.24859087,-0.4150352,0.7234495,0.5516943,,0.057209328,0.38674408,-0.38362825,-0.90395176,-0.26447457,-0.33604228,0.40952766,-0.30914354,-0.85832244,0.12311915,-0.91350067,0.38776052,,1.1954481579984573,0.20443618464647123,0.16866288448000002,-4.482961301755646,-0.357987629385454,-0.5663652937124039,-0.39692608070629853,,-1.020149844486435,-0.10702163217100326,0.17378452627000002,4.537690377005107,-0.17954036069178875,0.45474036948772023,0.8760142266781397,,-0.032757648398368575,-0.09502008780170129,0.0886540616,-0.06966925354577931,,-9.384006e-06,4.827976e-06,-6.67572e-06,1.0,3.0521303e-05,2.5078654e-05,-3.0517578e-05,1.0,2.6524067e-06,-2.508238e-05,-2.6226044e-06,0.99999994,271,0.824,0,0,0.0,False,-0.2566012611050077,1.0506737121774343
0.8422101900214329,11:34:44.295755,11:33:43.802028,0,,0.065156326,0.025422186,0.030371144,-0.5482609,0.36743757,-0.7512653,0.3101731,0.92358345,0.22535777,0.7766612,-0.10946724,-0.62033397,,-0.024091616,-0.017306581,0.028078675,0.868501,0.24269482,0.43220946,0.35890293,-0.90930504,-0.21060154,0.34189838,0.3380289,-0.8768364,,0.09652471,1.3397338,0.45026916,0.9953283,-0.011392984,-0.09587392,-0.069513634,-0.77370256,-0.6297239,-0.067003466,0.6334466,-0.77088,,-0.04411738,0.25155824,-0.099325456,0.50699794,-0.3138562,0.8027748,0.74685186,0.62491584,-0.22735968,-0.43030846,0.71482474,0.55123514,,0.05720766,0.3867432,-0.38362917,-0.9040297,-0.26428962,-0.335978,0.40939704,-0.30918047,-0.85837144,0.12298082,-0.91354173,0.3877077,,1.2008154573460432,0.20544786265299464,0.16913343775,-4.4787675028859555,-0.37247109836059067,-0.5572503943452217,-0.3964360485078958,,-1.0201575672193093,-0.10702935490387748,0.17378452627000002,4.537900066948591,-0.17954036069178875,0.45474036948772023,0.8760142266781397,,-0.032757648398368575,-0.09502008780170129,0.0886540616,-0.06966925354577931,,-9.384006e-06,4.827976e-06,-6.67572e-06,1.0,3.0521303e-05,2.5078654e-05,-3.0517578e-05,1.0,2.6524067e-06,-2.508238e-05,-2.6226044e-06,0.99999994,279,0.848,0,0,0.0,False,-0.2571374605716965,1.0507702725789931
0.8694559430005029,11:34:44.314253,11:33:43.802028,0,,0.06465195,0.025910012,0.030473962,-0.5400077,0.36950967,-0.7562105,0.30220887,0.9236841,0.2355364,0.7855326,-0.1013419,-0.61046565,,-0.024091616,-0.017306581,0.028078675,0.868501,0.24269482,0.43220946,0.35890293,-0.90930504,-0.21060154,0.34189838,0.3380289,-0.8768364,,0.09652471,1.3397338,0.45026916,0.9953283,-0.011392984,-0.09587392,-0.069513634,-0.77370256,-0.6297239,-0.067003466,0.6334466,-0.77088,,-0.04359846,0.25199947,-0.09912805,0.4977701,-0.31648362,0.80750424,0.7465339,0.6302767,-0.21316299,-0.44148847,0.70893544,0.54999864,,0.05720766,0.3867432,-0.38362917,-0.9040297,-0.26428962,-0.335978,0.40939704,-0.30918047,-0.85837144,0.12298082,-0.91354173,0.3877077,,1.20428296440657,0.20613518587880061,0.16945880654,-4.47667060345111,-0.38326538184206044,-0.5516338508186864,-0.3979061451031043,,-1.0201575672193093,-0.10702935490387748,0.17378452627000002,4.537900066948591,-0.17954036069178875,0.45474036948772023,0.8760142266781397,,-0.032757648398368575,-0.09502008780170129,0.0886540616,-0.06966925354577931,,-9.384006e-06,4.827976e-06,-6.67572e-06,1.0,3.0521303e-05,2.5078654e-05,-3.0517578e-05,1.0,2.6524067e-06,-2.508238e-05,-2.6226044e-06,0.99999994,287,0.873,0,0,0.0,False,-0.25767366003838577,1.0507702725789931
0.887953149038367,11:34:44.345455,11:33:43.944853,0,,0.06388888,0.026643768,0.030629024,-0.5283725,0.37389338,-0.7622508,0.29089892,0.9231902,0.25119254,0.7976217,-0.0890145,-0.5965535,,-0.024091616,-0.017306581,0.028078675,0.868501,0.24269482,0.43220946,0.35890293,-0.90930504,-0.21060154,0.34189838,0.3380289,-0.8768364,,0.09652471,1.3397338,0.45026916,0.9953283,-0.011392984,-0.09587392,-0.069513634,-0.77370256,-0.6297239,-0.067003466,0.6334466,-0.77088,,-0.042813536,0.25266346,-0.09883183,0.48478612,-0.3217366,0.8133068,0.7457508,0.6379087,-0.19216742,-0.4569882,0.69968426,0.5491846,,0.05720766,0.3867432,-0.38362917,-0.9040297,-0.26428962,-0.335978,0.40939704,-0.30918047,-0.85837144,0.12298082,-0.91354173,0.3877077,,1.2095884818911622,0.2071700320839467,0.16995010045000003,-4.473944634185812,-0.3978854873169626,-0.5419991398471051,-0.39757945697083574,,-1.0201575672193093,-0.10702935490387748,0.17378452627000002,4.537900066948591,-0.17954036069178875,0.45474036948772023,0.8760142266781397,,-0.032757648398368575,-0.09502008780170129,0.0886540616,-0.06966925354577931,,-9.384006e-06,4.827976e-06,-6.67572e-06,1.0,3.0521303e-05,2.5078654e-05,-3.0517578e-05,1.0,2.6524067e-06,-2.508238e-05,-2.6226044e-06,0.99999994,306,0.93,0,0,0.0,False,-0.25695872741613357,1.050963393382111
0.9191528700757772,11:34:44.396370,11:33:43.944853,0,,0.06260784,0.02783212,0.030894652,-0.5094135,0.38448235,-0.7698515,0.2759733,0.9203725,0.2770437,0.81506854,-0.07132846,-0.57495695,,-0.024094403,-0.017305896,0.028078437,0.86850506,0.2427044,0.43219605,0.35890564,-0.9093051,-0.2105965,0.34188548,0.33802176,-0.87684417,,0.09652471,1.3397338,0.45026916,0.9953283,-0.011392984,-0.09587392,-0.069513634,-0.77370256,-0.6297239,-0.067003466,0.6334466,-0.77088,,-0.041498292,0.2537487,-0.09836686,0.46395576,-0.33365908,0.8206197,0.74565923,0.6472216,-0.15841874,-0.47826496,0.6854019,0.54907817,,0.05721045,0.38674363,-0.38362864,-0.9040324,-0.2642984,-0.33596396,0.40938812,-0.309187,-0.85837334,0.12299101,-0.91353697,0.3877157,,1.2186163566211308,0.20869913319304315,0.17074731880000002,-4.467653935881276,-0.4176977797829515,-0.5254351501104211,-0.3983961773015071,,-1.020142121753561,-0.10702163217100326,0.17378452627000002,4.537900066948591,-0.17954036069178875,0.45474036948772023,0.8760142266781397,,-0.032757648398368575,-0.09502008780170129,0.0886540616,-0.06966925354577931,,-9.384006e-06,4.827976e-06,-6.67572e-06,1.0,3.0521303e-05,2.5078654e-05,-3.0517578e-05,1.0,2.6524067e-06,-2.508238e-05,-2.6226044e-06,0.99999994,314,0.955,0,0,0.0,False,-0.25826943722359585,1.0513013547875674
0.9700653729960322,11:34:44.416535,11:33:43.944853,0,,0.06210023,0.028281972,0.031010821,-0.5022285,0.3882395,-0.7726814,0.2697001,0.9193021,0.2866102,0.82160115,-0.0644483,-0.566408,,-0.024093173,-0.017305613,0.028078616,0.8685031,0.24270046,0.43220213,0.35890353,-0.90930617,-0.21059552,0.34189248,0.3380217,-0.8768414,,0.09652471,1.3397338,0.45026916,0.9953283,-0.011392984,-0.09587392,-0.069513634,-0.77370256,-0.6297239,-0.067003466,0.6334466,-0.77088,,-0.04097891,0.2541699,-0.09820453,0.4560374,-0.33793503,0.8233042,0.7451055,0.65086734,-0.14556602,-0.48666996,0.67983204,0.5486171,,0.057209194,0.38674387,-0.38362846,-0.9040312,-0.26429445,-0.33597028,0.40939257,-0.3091873,-0.8583711,0.12298497,-0.913538,0.38771516,,1.2221610910103997,0.20923200176136464,0.17104805808,-4.465766726389915,-0.4254860602695815,-0.5190843295997252,-0.3983961773015071,,-1.020149844486435,-0.10702163217100326,0.17378452627000002,4.537900066948591,-0.17954036069178875,0.45474036948772023,0.8760142266781397,,-0.032757648398368575,-0.09502008780170129,0.0886540616,-0.06966925354577931,,-9.384006e-06,4.827976e-06,-6.67572e-06,1.0,3.0521303e-05,2.5078654e-05,-3.0517578e-05,1.0,2.6524067e-06,-2.508238e-05,-2.6226044e-06,0.99999994,322,0.979,0,0,0.0,False,-0.25737577144578117,1.0511565141852286
0.9902095830766484,11:34:44.445790,11:33:43.944853,0,,0.061308496,0.029004008,0.03120406,-0.4898749,0.3945394,-0.7774068,0.26123947,0.917189,0.30086243,0.831731,-0.055704296,-0.5523771,,-0.024091616,-0.017306581,0.028078675,0.868501,0.24269482,0.43220946,0.35890293,-0.90930504,-0.21060154,0.34189838,0.3380289,-0.8768364,,0.09652471,1.3397338,0.45026916,0.9953283,-0.011392984,-0.09587392,-0.069513634,-0.77370256,-0.6297239,-0.067003466,0.6334466,-0.77088,,-0.040168665,0.25485018,-0.09794715,0.44261205,-0.3449251,0.8277205,0.74519587,0.6549165,-0.12556839,-0.49877617,0.672392,0.5469107,,0.05720766,0.3867432,-0.38362917,-0.9040297,-0.26428962,-0.335978,0.40939704,-0.30918047,-0.85837144,0.12298082,-0.91354173,0.3877077,,1.2277909632757094,0.21013556150764892,0.17152250022,-4.460943857689771,-0.437100162749644,-0.5107573101474971,-0.40591000434368374,,-1.0201575672193093,-0.10702935490387748,0.17378452627000002,4.537900066948591,-0.17954036069178875,0.4547403694877201,0.8763409148104082,,-0.032757648398368575,-0.09502008780170129,0.0886540616,-0.06966925354577931,,-9.384006e-06,4.827976e-06,-6.67572e-06,1.0,3.0521303e-05,2.5078654e-05,-3.0517578e-05,1.0,2.6524067e-06,-2.508238e-05,-2.6226044e-06,0.99999994,330,1.004,0,0,0.0,False,-0.25719703829021734,1.0512530745867876
1.0194888450205326,11:34:44.466904,11:33:43.944853,0,,0.060734496,0.029508814,0.031514987,-0.47091514,0.39174578,-0.79042655,0.24144062,0.9190165,0.31163275,0.84849596,-0.044088334,-0.52736217,,-0.024091616,-0.017306581,0.028078675,0.868501,0.24273011,0.4321896,0.35890293,-0.9093222,-0.21052721,0.34189838,0.33795726,-0.87686396,,0.09652471,1.3397338,0.45026916,0.9953283,-0.011392984,-0.09587392,-0.069513634,-0.77370256,-0.6297239,-0.067003466,0.6334466,-0.77088,,-0.039594077,0.25544074,-0.097901575,0.42159334,-0.3428649,0.83946574,0.74096733,0.6639078,-0.100964434,-0.52271074,0.6645826,0.5339508,,0.05720766,0.3867432,-0.38362917,-0.9040297,-0.26431704,-0.3359564,0.40939704,-0.30925056,-0.85834616,0.12298082,-0.91351,0.38778234,,1.2313434203978528,0.21079199380195798,0.17179990628000003,-4.456750058820081,-0.4653839182010902,-0.5091753127393057,-0.4129337991874579,,-1.0201575672193093,-0.10702935490387748,0.17378452627000002,4.537900066948591,-0.17954036069178875,0.4546586907475796,0.8765042588765424,,-0.032757648398368575,-0.09502008780170129,0.0886540616,-0.06966925354577931,,-9.384006e-06,4.827976e-06,-6.67572e-06,1.0,3.0521303e-05,2.5078654e-05,-3.0517578e-05,1.0,2.6524067e-06,-2.508238e-05,-2.6226044e-06,0.99999994,338,1.029,0,0,0.0,False,-0.2566012611050077,1.0505288715750958
1.0406049189623445,11:34:44.497503,11:33:44.093472,0,,0.06007018,0.030220494,0.03168632,-0.46184963,0.39360005,-0.79484206,0.23869604,0.9182388,0.3160089,0.854236,-0.0437769,-0.51803905,,-0.024090387,-0.017306298,0.028078914,0.8684991,0.24269088,0.43221548,0.35890082,-0.90930605,-0.21060047,0.34190542,0.33802885,-0.8768337,,0.09652471,1.3397338,0.45026916,0.9953283,-0.011392984,-0.09587392,-0.069513634,-0.77370256,-0.6297239,-0.067003466,0.6334466,-0.77088,,-0.038909763,0.25609773,-0.09762366,0.412027,-0.34477174,0.8434253,0.7425525,0.66350514,-0.09152423,-0.52806205,0.663998,0.5293932,,0.057206407,0.38674343,-0.38362902,-0.9040286,-0.26428565,-0.3359843,0.40940145,-0.30918077,-0.85836923,0.122974776,-0.91354275,0.38770717,,1.2366026014851996,0.21206624472620503,0.17223805230000003,-4.451088430345999,-0.46934637669428797,-0.5102731667595594,-0.4140772076503979,,-1.0201652899521836,-0.10702935490387748,0.17378452627000002,4.537900066948591,-0.17954036069178875,0.4547403694877201,0.8766676029426768,,-0.032757648398368575,-0.09502008780170129,0.0886540616,-0.06966925354577931,,-9.384006e-06,4.827976e-06,-6.67572e-06,1.0,3.0521303e-05,2.5078654e-05,-3.0517578e-05,1.0,2.6524067e-06,-2.508238e-05,-2.6226044e-06,0.99999994,346,1.053,0,0,0.0,False,-0.25642252794944387,1.051494475590685
1.0711821930017322,11:34:44.520367,11:33:44.093472,0,,0.05950339,0.030912682,0.03186308,-0.45850268,0.3987575,-0.7942089,0.23347548,0.9163384,0.3252893,0.85747576,-0.036282122,-0.5132436,,-0.024091937,-0.017305344,0.028078854,0.8685012,0.2426965,0.43220818,0.35890144,-0.90930724,-0.21059445,0.34189954,0.3380217,-0.8768387,,0.09652471,1.3397338,0.45026916,0.9953283,-0.011392984,-0.09587392,-0.069513634,-0.77370256,-0.6297239,-0.067003466,0.6334466,-0.77088,,-0.038323943,0.2567426,-0.0973543,0.40821362,-0.350526,0.84290755,0.74068177,0.66691047,-0.08136944,-0.5336218,0.65754235,0.5318701,,0.057207942,0.38674408,-0.3836283,-0.90403,-0.26429048,-0.33597657,0.409397,-0.30918762,-0.8583689,0.122978926,-0.91353905,0.38771462,,1.2413752504014703,0.21375752322566022,0.17263342075000002,-4.452136880063422,-0.47139592419076953,-0.502067598992868,-0.4068900687404895,,-1.0201575672193093,-0.10702163217100326,0.17378452627000002,4.537900066948591,-0.17954036069178875,0.4547403694877201,0.8766676029426768,,-0.032757648398368575,-0.09502008780170129,0.0886540616,-0.06966925354577931,,-9.384006e-06,4.827976e-06,-6.67572e-06,1.0,3.0521303e-05,2.5078654e-05,-3.0517578e-05,1.0,2.6524067e-06,-2.508238e-05,-2.6226044e-06,0.99999994,354,1.078,0,0,0.0,False,-0.2575545046013441,1.050963393382111
1.0940078570274636,11:34:44.545214,11:33:44.093472,0,,0.05917682,0.031401798,0.0320165,-0.45406258,0.4019675,-0.79514104,0.22719306,0.91517895,0.33291242,0.8615164,-0.029487342,-0.5068728,,-0.024091937,-0.017305344,0.028078854,0.8685012,0.2426965,0.43220818,0.35890144,-0.90930724,-0.21059445,0.34189954,0.3380217,-0.8768387,,0.09652471,1.3397338,0.45026916,0.9953283,-0.011392984,-0.09587392,-0.069513634,-0.77370256,-0.6297239,-0.067003466,0.6334466,-0.77088,,-0.03798565,0.25721624,-0.09717923,0.40320387,-0.3542551,0.8437594,0.7385195,0.67043793,-0.071427755,-0.5403847,0.6519327,0.5319475,,0.057207942,0.38674408,-0.3836283,-0.90403,-0.26429048,-0.33597657,0.409397,-0.30918762,-0.8583689,0.122978926,-0.91353905,0.38771462,,1.2442558297635562,0.21518622880739174,0.17289008617,-4.452346570006906,-0.4769980206811526,-0.4964376413194875,-0.40934022973250384,,-1.0201575672193093,-0.10702163217100326,0.17378452627000002,4.537900066948591,-0.17954036069178875,0.4547403694877201,0.8766676029426768,,-0.032757648398368575,-0.09502008780170129,0.0886540616,-0.06966925354577931,,-9.384006e-06,4.827976e-06,-6.67572e-06,1.0,3.0521303e-05,2.5078654e-05,-3.0517578e-05,1.0,2.6524067e-06,-2.508238e-05,-2.6226044e-06,0.99999994,387,1.179,0,0,0.0,False,-0.2566012611050077,1.0510116735828905
1.118911586003378,11:34:44.639263,11:33:44.238704,0,,0.058289114,0.033754542,0.03254901,-0.4401451,0.4150869,-0.79622555,0.21311015,0.9096917,0.3564338,0.8722708,-0.012801021,-0.48885554,,-0.024090387,-0.017306298,0.028078914,0.8684991,0.24269088,0.43221548,0.35890082,-0.90930605,-0.21060047,0.34190542,0.33802885,-0.8768337,,0.09652471,1.3397338,0.45026916,0.9953283,-0.011392984,-0.09587392,-0.069513634,-0.77370256,-0.6297239,-0.067003466,0.6334466,-0.77088,,-0.037024725,0.25935423,-0.096124396,0.38790515,-0.36875793,0.8447172,0.7347439,0.6770531,-0.04183915,-0.5564899,0.63688046,0.53357506,,0.057206407,0.38674343,-0.38362902,-0.9040286,-0.26428565,-0.3359843,0.40940145,-0.30918077,-0.85836923,0.122974776,-0.91354275,0.38770717,,1.2548977556642376,0.2238743032908943,0.17406452491000002,-4.447733391250246,-0.48697248516402974,-0.48405683986233944,-0.40934022973250395,,-1.0201652899521836,-0.10702935490387748,0.17378452627000002,4.537900066948591,-0.17954036069178875,0.4547403694877201,0.8766676029426768,,-0.032757648398368575,-0.09502008780170129,0.0886540616,-0.06966925354577931,,-9.384006e-06,4.827976e-06,-6.67572e-06,1.0,3.0521303e-05,2.5078654e-05,-3.0517578e-05,1.0,2.6524067e-06,-2.508238e-05,-2.6226044e-06,0.99999994,391,1.192,0,0,0.0,False,-0.2574949268828224,1.0509151131813312
1.2129635830642655,11:34:44.660626,11:33:44.238704,0,,0.058163717,0.034305304,0.032685533,-0.43745354,0.41741115,-0.79649377,0.20885918,0.90868056,0.36149338,0.8746498,-0.008218318,-0.48468566,,-0.024090387,-0.017306298,0.028078914,0.8684991,0.24269088,0.43221548,0.35890082,-0.90930605,-0.21060047,0.34190542,0.33802885,-0.8768337,,0.09652471,1.3397338,0.45026916,0.9953283,-0.011392984,-0.09587392,-0.069513634,-0.77370256,-0.6297239,-0.067003466,0.6334466,-0.77088,,-0.03688272,0.2598617,-0.09587946,0.3848518,-0.3714428,0.8449375,0.73305184,0.6792571,-0.035282105,-0.5608245,0.63296133,0.53370017,,0.057206407,0.38674343,-0.38362902,-0.9040286,-0.26428565,-0.3359843,0.40940145,-0.30918077,-0.85836923,0.122974776,-0.91354275,0.38770717,,1.2569674480745296,0.2261988458860359,0.17431600517,-4.4475237013067614,-0.48997848815886946,-0.4814422885007371,-0.4096669178647724,,-1.0201652899521836,-0.10702935490387748,0.17378452627000002,4.537900066948591,-0.17954036069178875,0.4547403694877201,0.8766676029426768,,-0.032757648398368575,-0.09502008780170129,0.0886540616,-0.06966925354577931,,-9.384006e-06,4.827976e-06,-6.67572e-06,1.0,3.0521303e-05,2.5078654e-05,-3.0517578e-05,1.0,2.6524067e-06,-2.508238e-05,-2.6226044e-06,0.99999994,399,1.217,0,0,0.0,False,-0.25719703829021734,1.0506737121774343
1.2343098990386352,11:34:44.681642,11:33:44.238704,0,,0.05807019,0.034801126,0.03280951,-0.43633714,0.4184038,-0.7965853,0.20656964,0.90824276,0.36390105,0.8757505,-0.00576663,-0.48272955,,-0.024090387,-0.017306298,0.028078914,0.8684991,0.24269088,0.43221548,0.35890082,-0.90930605,-0.21060047,0.34190542,0.33802885,-0.8768337,,0.09652471,1.3397338,0.45026916,0.9953283,-0.011392984,-0.09587392,-0.069513634,-0.77370256,-0.6297239,-0.067003466,0.6334466,-0.77088,,-0.036774248,0.26031908,-0.095658116,0.38355196,-0.37262428,0.8450083,0.7320256,0.68051666,-0.032180563,-0.5630509,0.63091063,0.53378403,,0.057206407,0.38674343,-0.38362902,-0.9040286,-0.26428565,-0.3359843,0.40940145,-0.30918077,-0.85836923,0.122974776,-0.91354275,0.38770717,,1.2588440721629661,0.2283843792894414,0.17452859673,-4.4475237013067614,-0.4903883976581658,-0.4809446773093667,-0.4093402297325036,,-1.0201652899521836,-0.10702935490387748,0.17378452627000002,4.537900066948591,-0.17954036069178875,0.4547403694877201,0.8766676029426768,,-0.032757648398368575,-0.09502008780170129,0.0886540616,-0.06966925354577931,,-9.384006e-06,4.827976e-06,-6.67572e-06,1.0,3.0521303e-05,2.5078654e-05,-3.0517578e-05,1.0,2.6524067e-06,-2.508238e-05,-2.6226044e-06,0.99999994,407,1.242,0,0,0.0,False,-0.2580907040680329,1.0514461953899055
1.255323496996425,11:34:44.704801,11:33:44.238704,0,,0.05794899,0.03552465,0.032994315,-0.4334713,0.4211992,-0.7966768,0.20424768,0.906963,0.36837605,0.8777161,-0.0030387938,-0.4791714,,-0.024094403,-0.017305896,0.028078437,0.86850506,0.24263377,0.43223575,0.35890564,-0.90927064,-0.21074507,0.34188548,0.33816496,-0.876789,,0.09652471,1.3397338,0.45026916,0.9953283,-0.011392984,-0.09587392,-0.069513634,-0.77370256,-0.6297239,-0.067003466,0.6334466,-0.77088,,-0.036631454,0.26098892,-0.0953368,0.380447,-0.375662,0.84506696,0.7315236,0.68130225,-0.026467223,-0.5658033,0.6282557,0.53400505,,0.05721045,0.38674363,-0.38362864,-0.9040324,-0.2642435,-0.33600715,0.40938812,-0.30904678,-0.8584238,0.12299101,-0.91360027,0.38756645,,1.261523860470322,0.23157386796649615,0.17483452117,-4.4456364918154,-0.491071580156993,-0.4802242303106035,-0.4090135416002353,,-1.020142121753561,-0.10702163217100326,0.17378452627000002,4.537900066948591,-0.17954036069178875,0.4549037269680013,0.8763409148104082,,-0.032757648398368575,-0.09502008780170129,0.0886540616,-0.06966925354577931,,-9.384006e-06,4.827976e-06,-6.67572e-06,1.0,3.0521303e-05,2.5078654e-05,-3.0517578e-05,1.0,2.6524067e-06,-2.508238e-05,-2.6226044e-06,0.99999994,415,1.266,0,0,0.0,False,-0.25677999426057063,1.0505771517758753
1.2784929820336401,11:34:44.731082,11:33:44.238704,0,,0.05786805,0.035964683,0.033104658,-0.4326612,0.42194045,-0.7967249,0.20248157,0.9066228,0.37018415,0.87852466,-0.0011575818,-0.47769564,,-0.024091937,-0.017305344,0.028078854,0.8685012,0.24262586,0.4322478,0.35890144,-0.9092728,-0.21074304,0.34189954,0.33816496,-0.8767835,,0.09652471,1.3397338,0.45026916,0.9953283,-0.011392984,-0.09587392,-0.069513634,-0.77370256,-0.6297239,-0.067003466,0.6334466,-0.77088,,-0.036537264,0.26139504,-0.09514044,0.37949806,-0.3765484,0.8450991,0.730706,0.68226564,-0.02413381,-0.5674945,0.6266777,0.53406465,,0.057207942,0.38674408,-0.3836283,-0.90403,-0.2642356,-0.33601972,0.409397,-0.3090474,-0.85841936,0.122978926,-0.91360235,0.38756537,,1.2631919707711545,0.2335122739179265,0.17502377951,-4.4456364918154,-0.491071580156993,-0.48006087283032234,-0.40934022973250395,,-1.0201575672193093,-0.10702163217100326,0.17378452627000002,4.537900066948591,-0.17954036069178875,0.4549037269680013,0.8763409148104082,,-0.032757648398368575,-0.09502008780170129,0.0886540616,-0.06966925354577931,,-9.384006e-06,4.827976e-06,-6.67572e-06,1.0,3.0521303e-05,2.5078654e-05,-3.0517578e-05,1.0,2.6524067e-06,-2.508238e-05,-2.6226044e-06,0.99999994,423,1.291,0,0,0.0,False,-0.25773323775690704,1.0506737121774343
1.3047837970079854,11:34:44.759682,11:33:44.238704,0,,0.057755515,0.036526307,0.03327377,-0.4322098,0.42205176,-0.7969109,0.20050433,0.9065714,0.3713842,0.87920004,0.00073191524,-0.47645223,,-0.024093173,-0.017305613,0.028078616,0.8685031,0.24262983,0.43224177,0.35890353,-0.9092718,-0.21074405,0.34189248,0.33816496,-0.87678623,,0.09652471,1.3397338,0.45026916,0.9953283,-0.011392984,-0.09587392,-0.069513634,-0.77370256,-0.6297239,-0.067003466,0.6334466,-0.77088,,-0.03640982,0.2619319,-0.09491192,0.3789056,-0.37679383,0.84525555,0.72964483,0.6834589,-0.02241144,-0.56925297,0.62522817,0.5338921,,0.057209194,0.38674387,-0.38362846,-0.9040312,-0.26423955,-0.33601344,0.40939257,-0.30904707,-0.85842156,0.12298497,-0.91360134,0.3875659,,1.2654856224347992,0.23602988483492368,0.17524414881000003,-4.44605587170237,-0.4902517611584003,-0.48072938025250095,-0.4090135416002352,,-1.020149844486435,-0.10702163217100326,0.17378452627000002,4.537900066948591,-0.17954036069178875,0.4549037269680013,0.8763409148104082,,-0.032757648398368575,-0.09502008780170129,0.0886540616,-0.06966925354577931,,-9.384006e-06,4.827976e-06,-6.67572e-06,1.0,3.0521303e-05,2.5078654e-05,-3.0517578e-05,1.0,2.6524067e-06,-2.508238e-05,-2.6226044e-06,0.99999994,431,1.315,0,0,0.0,False,-0.25731619372725945,1.0514461953899055
1.33338215702679,11:34:44.781408,11:33:44.238704,0,,0.057676353,0.03682346,0.03340143,-0.43155676,0.4224062,-0.797077,0.19960162,0.9064053,0.37227494,0.8797262,0.0015600026,-0.47547832,,-0.023890838,-0.017253086,0.028088093,0.86841583,0.24280205,0.43232036,0.3590708,-0.9092324,-0.21062925,0.34193844,0.3381475,-0.876775,,0.096501715,1.3397348,0.450281,0.9953285,-0.011390998,-0.09587231,-0.06951108,-0.77370256,-0.6297242,-0.067003466,0.6334466,-0.77088,,-0.03630214,0.2622341,-0.09481396,0.37817404,-0.3772152,0.8453952,0.72929925,0.6838695,-0.021097919,-0.57018155,0.6245248,0.5337245,,0.057029884,0.38675827,-0.38357416,-0.9039525,-0.26440743,-0.33609322,0.40953672,-0.3090528,-0.85835075,0.12308378,-0.9135508,0.3876536,,1.2667289824275494,0.23732730395779342,0.17534266685000002,-4.445846181758886,-0.48997848815886946,-0.4810338948000343,-0.40917688566636956,,-1.0201575672193093,-0.10702935490387748,0.17378452627000002,4.537900066948591,-0.17954036069178875,0.4549037269680013,0.8763409148104082,,-0.032757648398368575,-0.09502008780170129,0.0886540616,-0.06966925354577931,,-3.312342e-05,1.1742115e-05,-1.41859055e-05,1.0,3.2499433e-05,2.670288e-05,-3.2495707e-05,1.0,2.8312206e-06,-2.6706606e-05,-2.8312206e-06,1.0,439,1.34,0,0,0.0,False,-0.25737577144578117,1.050963393382111
1.3550832370528951,11:34:44.802650,11:33:44.238704,0,,0.05762749,0.03702692,0.03350228,-0.4320786,0.42162424,-0.7972083,0.19823608,0.9067665,0.37212497,0.87977874,0.0027518272,-0.47537553,,-0.023892067,-0.017253399,0.028087854,0.8684178,0.24280602,0.43231434,0.35907295,-0.9092313,-0.21063027,0.3419314,0.3381475,-0.8767778,,0.096501715,1.3397348,0.450281,0.9953285,-0.011390998,-0.09587231,-0.06951108,-0.77370256,-0.6297242,-0.067003466,0.6334466,-0.77088,,-0.036250673,0.26245448,-0.0947617,0.37862435,-0.37650192,0.8455116,0.72830385,0.68492806,-0.021143245,-0.5711542,0.62379473,0.5335382,,0.057031136,0.38675803,-0.38357434,-0.9039537,-0.2644114,-0.33608693,0.4095323,-0.30905247,-0.858353,0.12308982,-0.9135498,0.38765413,,1.2677174922354502,0.23832353649856836,0.17539451845,-4.4471043214197925,-0.4895685786595731,-0.4813681485111236,-0.40917688566636956,,-1.020149844486435,-0.10702935490387748,0.17378452627000002,4.537900066948591,-0.17954036069178875,0.4549037269680013,0.8763409148104082,,-0.032757648398368575,-0.09502008780170129,0.0886540616,-0.06966925354577931,,-3.312342e-05,1.1742115e-05,-1.41859055e-05,1.0,3.2499433e-05,2.670288e-05,-3.2495707e-05,1.0,2.8312206e-06,-2.6706606e-05,-2.8312206e-06,1.0,464,1.417,0,0,0.0,False,-0.25815028178655464,1.05105995378367
1.3763515229802579,11:34:44.880085,11:33:44.424518,0,,0.057547014,0.03721746,0.03366323,-0.43359962,0.42533326,-0.7944073,0.19073239,0.9049372,0.38040736,0.8806888,0.01342532,-0.47350526,,-0.023942955,-0.017265245,0.028080821,0.8684589,0.2429428,0.43215486,0.3591329,-0.9092188,-0.21058193,0.34176397,0.3380828,-0.876868,,0.096501715,1.3397348,0.450281,0.9953285,-0.011390998,-0.09587231,-0.06951108,-0.77370256,-0.6297242,-0.067003466,0.6334466,-0.77088,,-0.036172535,0.2627046,-0.094765894,0.37971392,-0.3810316,0.84299004,0.7232269,0.6904751,-0.013673337,-0.5768537,0.61486506,0.5377553,,0.05708263,0.3867499,-0.38358217,-0.903978,-0.26454088,-0.3359196,0.4094331,-0.30910826,-0.85838026,0.12324114,-0.9134934,0.38773882,,1.268775506639219,0.23935838270371446,0.17541914796000002,-4.453395019724328,-0.4935310371527709,-0.4704592277307145,-0.40852350940183235,,-1.0198254897057177,-0.10702935490387748,0.17378322998,4.537900066948591,-0.1796769971915542,0.4548517873914165,0.8763409148104082,,-0.032757648398368575,-0.09502008780170129,0.0886540616,-0.06966925354577931,,-3.312342e-05,1.1742115e-05,-1.41859055e-05,1.0,3.2499433e-05,2.670288e-05,-3.2495707e-05,1.0,2.8312206e-06,-2.6706606e-05,-2.8312206e-06,1.0,472,1.442,0,0,0.0,False,-0.25820985950507547,1.0513013547875674
1.4537842239951715,11:34:44.909944,11:33:44.424518,0,,0.057581965,0.037206344,0.033682406,-0.42967632,0.43009645,-0.7939744,0.19187981,0.9026873,0.38514644,0.88236076,0.013140798,-0.4703902,,-0.023949452,-0.017265439,0.028079927,0.86846846,0.24296425,0.43212336,0.35914195,-0.9092157,-0.21057993,0.3417299,0.33807576,-0.876884,,0.096501715,1.3397348,0.450281,0.9953285,-0.011390998,-0.09587231,-0.06951108,-0.77370256,-0.6297242,-0.067003466,0.6334466,-0.77088,,-0.036209237,0.2627084,-0.09478465,0.37574342,-0.38586634,0.8425699,0.72515196,0.6885418,-0.008053883,-0.57703686,0.61401737,0.5385268,,0.057089172,0.38674966,-0.38358212,-0.9039841,-0.26456153,-0.33588666,0.40941092,-0.30911383,-0.8583888,0.12326946,-0.9134855,0.3877484,,1.268574715584489,0.23932749177221754,0.17539711103000002,-4.448781840967668,-0.49558058464925253,-0.4681345292541436,-0.4101569500631751,,-1.0197868760413464,-0.10702163217100326,0.17378322998,4.537900066948591,-0.1796769971915542,0.4548517873914165,0.8763409148104082,,-0.032757648398368575,-0.09502008780170129,0.0886540616,-0.06966925354577931,,-3.312342e-05,1.1742115e-05,-1.41859055e-05,1.0,3.2499433e-05,2.670288e-05,-3.2495707e-05,1.0,2.8312206e-06,-2.6706606e-05,-2.8312206e-06,1.0,480,1.467,0,0,0.0,False,-0.25683957197909146,1.0511565141852286
1.4836052570026368,11:34:44.932608,11:33:44.424518,0,,0.057592817,0.037212513,0.03373283,-0.4265227,0.43149906,-0.7949132,0.19035408,0.9020054,0.3874941,0.88421935,0.013960153,-0.46686336,,-0.023950681,-0.017265722,0.028079748,0.86847043,0.24300352,0.43209752,0.35914403,-0.9092318,-0.21050674,0.34172288,0.33800417,-0.8769143,,0.096501715,1.3397348,0.450281,0.9953285,-0.011390998,-0.09587231,-0.06951108,-0.77370256,-0.6297242,-0.067003466,0.6334466,-0.77088,,-0.03622327,0.2627459,-0.09481775,0.37239763,-0.38735408,0.8433723,0.7251806,0.68854725,-0.003964973,-0.5791658,0.61307377,0.5373151,,0.057090424,0.38674942,-0.3835823,-0.9039853,-0.26459295,-0.33585876,0.40940648,-0.3091836,-0.8583658,0.1232755,-0.9134528,0.38782352,,1.268536101920118,0.2394047191009598,0.17537377781000002,-4.446684941532824,-0.499133133643154,-0.4674429897418319,-0.4106469822615779,,-1.0197791533084724,-0.10702163217100326,0.17378322998,4.537900066948591,-0.1796769971915542,0.4547701086512761,0.876177570744274,,-0.032757648398368575,-0.09502008780170129,0.0886540616,-0.06966925354577931,,-3.312342e-05,1.1742115e-05,-1.41859055e-05,1.0,3.2499433e-05,2.670288e-05,-3.2495707e-05,1.0,2.8312206e-06,-2.6706606e-05,-2.8312206e-06,1.0,488,1.491,0,0,0.0,False,-0.2593418361569748,1.0506737121774343
1.5063091659685597,11:34:44.954494,11:33:44.424518,0,,0.05760189,0.037265487,0.033859402,-0.4237691,0.43152338,-0.7963713,0.1870516,0.9019604,0.38920322,0.8862458,0.015969872,-0.46294004,,-0.023949124,-0.017266676,0.028079808,0.86846834,0.2429979,0.43210483,0.35914344,-0.9092307,-0.21051279,0.3417288,0.33801132,-0.87690926,,0.096501715,1.3397348,0.450281,0.9953285,-0.011390998,-0.09587231,-0.06951108,-0.77370256,-0.6297242,-0.067003466,0.6334466,-0.77088,,-0.0362386,0.26286855,-0.094878,0.3693529,-0.38752088,0.84463364,0.72397643,0.6898247,-9.628926e-05,-0.5826118,0.6115304,0.5353447,,0.05708889,0.38674876,-0.383583,-0.9039839,-0.26458812,-0.33586648,0.40941095,-0.30917677,-0.85836613,0.12327135,-0.91345656,0.38781607,,1.2687909521049674,0.2398758058062875,0.17532322250000001,-4.44605587170237,-0.503505501635648,-0.46714476642916897,-0.40934022973250384,,-1.0197868760413464,-0.10702935490387748,0.17378322998,4.537900066948591,-0.1796769971915542,0.4547701086512761,0.876177570744274,,-0.032757648398368575,-0.09502008780170129,0.0886540616,-0.06966925354577931,,-3.312342e-05,1.1742115e-05,-1.41859055e-05,1.0,3.2499433e-05,2.670288e-05,-3.2495707e-05,1.0,2.8312206e-06,-2.6706606e-05,-2.8312206e-06,1.0,496,1.516,0,0,0.0,False,-0.25737577144578117,1.0505288715750958
1.5281856959918514,11:34:44.983627,11:33:44.584800,0,,0.057589203,0.037340395,0.03397271,-0.42347836,0.43124932,-0.7966745,0.18587348,0.9020752,0.38950157,0.88663256,0.016864985,-0.46216714,,-0.023947582,-0.01726763,0.028079867,0.86846626,0.24299228,0.4321121,0.35914287,-0.9092295,-0.21051872,0.34173465,0.33801848,-0.8769042,,0.096501715,1.3397348,0.450281,0.9953285,-0.011390998,-0.09587231,-0.06951108,-0.77370256,-0.6297242,-0.067003466,0.6334466,-0.77088,,-0.03623025,0.26299936,-0.09491577,0.36897933,-0.3873048,0.844896,0.7233337,0.69049835,0.0006369303,-0.583646,0.6109067,0.5349302,,0.057087354,0.38674808,-0.38358372,-0.9039824,-0.26458326,-0.3358742,0.40941542,-0.30916992,-0.85836643,0.1232672,-0.91346025,0.38780865,,1.2693315434061632,0.24041639710748322,0.17528563009,-4.446475251589339,-0.5040520476347098,-0.4671891672552266,-0.40999360599704116,,-1.0197945987742207,-0.1070370776367517,0.17378322998,4.537900066948591,-0.1796769971915542,0.4547701086512761,0.876177570744274,,-0.032757648398368575,-0.09502008780170129,0.0886540616,-0.06966925354577931,,-3.312342e-05,1.1742115e-05,-1.41859055e-05,1.0,3.2499433e-05,2.670288e-05,-3.2495707e-05,1.0,2.8312206e-06,-2.6706606e-05,-2.8312206e-06,1.0,504,1.541,0,0,0.0,False,-0.2588652144088064,1.050963393382111
1.5573290850734338,11:34:45.009955,11:33:44.584800,0,,0.05751656,0.037482567,0.034199774,-0.42556018,0.42899626,-0.7967814,0.17935279,0.90300745,0.39039737,0.88697875,0.023232728,-0.46122566,,-0.023946658,-0.01726611,0.028080225,0.8684646,0.24298999,0.4321169,0.3591392,-0.90923285,-0.21051067,0.34174284,0.33801132,-0.8769038,,0.096501715,1.3397348,0.450281,0.9953285,-0.011390998,-0.09587231,-0.06951108,-0.77370256,-0.6297242,-0.067003466,0.6334466,-0.77088,,-0.03616687,0.26325592,-0.09500066,0.37071452,-0.38545975,0.8449802,0.71863854,0.6953811,0.0019310241,-0.5883276,0.60651946,0.5347941,,0.057086386,0.3867492,-0.38358265,-0.9039815,-0.2645802,-0.3358791,0.4094198,-0.3091774,-0.85836166,0.12325927,-0.91345865,0.38781503,,1.2705208442687936,0.24142807511400663,0.17522470446000002,-4.452765949893875,-0.5066481411302531,-0.4640920822033079,-0.4099936059970408,,-1.019802321507095,-0.10702935490387748,0.17378322998,4.537900066948591,-0.1796769971915542,0.4547701086512761,0.876177570744274,,-0.032757648398368575,-0.09502008780170129,0.0886540616,-0.06966925354577931,,-3.312342e-05,1.1742115e-05,-1.41859055e-05,1.0,3.2499433e-05,2.670288e-05,-3.2495707e-05,1.0,2.8312206e-06,-2.6706606e-05,-2.8312206e-06,1.0,512,1.565,0,0,0.0,False,-0.25826943722359585,1.0513013547875674
1.5836556410649791,11:34:45.032476,11:33:44.584800,0,,0.0574598,0.03761033,0.03436786,-0.42507476,0.42949247,-0.7967733,0.17833874,0.9027432,0.3914716,0.8874159,0.024309248,-0.4603285,,-0.023946658,-0.01726611,0.028080225,0.8684646,0.24298999,0.4321169,0.3591392,-0.90923285,-0.21051067,0.34174284,0.33801132,-0.8769038,,0.096501715,1.3397348,0.450281,0.9953285,-0.011390998,-0.09587231,-0.06951108,-0.77370256,-0.6297242,-0.067003466,0.6334466,-0.77088,,-0.036115892,0.26346293,-0.09504909,0.37015134,-0.38604215,0.8449612,0.7181513,0.6958791,0.0033303308,-0.5892765,0.60557723,0.5348172,,0.057086386,0.3867492,-0.38358265,-0.9039815,-0.2645802,-0.3358791,0.4094198,-0.3091774,-0.85836166,0.12325927,-0.91345865,0.38781503,,1.2716251950698079,0.24220034840142907,0.17518451947000002,-4.4529756398373594,-0.5067847776300186,-0.4634089131186275,-0.40983026193090666,,-1.019802321507095,-0.10702935490387748,0.17378322998,4.537900066948591,-0.1796769971915542,0.4547701086512761,0.876177570744274,,-0.032757648398368575,-0.09502008780170129,0.0886540616,-0.06966925354577931,,-3.312342e-05,1.1742115e-05,-1.41859055e-05,1.0,3.2499433e-05,2.670288e-05,-3.2495707e-05,1.0,2.8312206e-06,-2.6706606e-05,-2.8312206e-06,1.0,541,1.655,0,0,0.0,False,-0.2580311263495121,1.051108233984449
1.606150135048665,11:34:45.114328,11:33:44.584800,0,,0.057034124,0.038174294,0.035257608,-0.4219848,0.4292496,-0.7985447,0.16462392,0.9024466,0.39810684,0.8915312,0.03653553,-0.4514835,,-0.023950353,-0.017266959,0.02807957,0.86847025,0.24303718,0.43207896,0.35914558,-0.90924674,-0.21043947,0.34172177,0.33793974,-0.87693954,,0.096501715,1.3397348,0.450281,0.9953285,-0.011390998,-0.09587231,-0.06951108,-0.77370256,-0.6297242,-0.067003466,0.6334466,-0.77088,,-0.035726678,0.26447475,-0.09538914,0.36612266,-0.38666868,0.8464287,0.7104193,0.70363647,0.014146022,-0.60104793,0.5961401,0.5323142,,0.05709014,0.38674852,-0.38358316,-0.9039851,-0.2646195,-0.3358386,0.40940654,-0.30924654,-0.85834306,0.123277396,-0.91342384,0.3878912,,1.2772241764036205,0.24528171881824465,0.17498359452,-4.459685718028864,-0.5141631486173524,-0.4568205951380369,-0.41032029412930937,,-1.0197791533084724,-0.10702935490387748,0.17378322998,4.537900066948591,-0.1796769971915542,0.45468842991113545,0.8766676029426768,,-0.032757648398368575,-0.09502008780170129,0.0886540616,-0.06966925354577931,,-3.312342e-05,1.1742115e-05,-1.41859055e-05,1.0,3.2499433e-05,2.670288e-05,-3.2495707e-05,1.0,2.8312206e-06,-2.6706606e-05,-2.8312206e-06,1.0,545,1.668,0,0,0.0,False,-0.2589843698458485,1.0513013547875674
1.688029284006916,11:34:45.144362,11:33:44.584800,0,,0.056880582,0.038334064,0.035527617,-0.422644,0.427235,-0.7992761,0.16099072,0.90328133,0.39769945,0.89188236,0.03940928,-0.4505473,,-0.023948811,-0.017267898,0.028079629,0.86846817,0.24303153,0.43208626,0.35914496,-0.9092456,-0.2104455,0.34172764,0.3379469,-0.8769345,,0.096501715,1.3397348,0.450281,0.9953285,-0.011390998,-0.09587231,-0.06951108,-0.77370256,-0.6297242,-0.067003466,0.6334466,-0.77088,,-0.03558484,0.2647734,-0.09550181,0.3665795,-0.38482186,0.84707236,0.707902,0.7061627,0.014455053,-0.60373354,0.59434533,0.53128093,,0.057088606,0.38674787,-0.38358387,-0.9039836,-0.26461467,-0.3358463,0.40941098,-0.30923972,-0.8583434,0.12327324,-0.91342753,0.38788378,,1.2791085232249313,0.2461466649001578,0.17491618744,-4.463040757124617,-0.5147096946164142,-0.45637492352325115,-0.41032029412930937,,-1.0197868760413464,-0.1070370776367517,0.17378322998,4.537900066948591,-0.1796769971915542,0.45468842991113545,0.8766676029426768,,-0.032757648398368575,-0.09502008780170129,0.0886540616,-0.06966925354577931,,-3.312342e-05,1.1742115e-05,-1.41859055e-05,1.0,3.2499433e-05,2.670288e-05,-3.2495707e-05,1.0,2.8312206e-06,-2.6706606e-05,-2.8312206e-06,1.0,557,1.704,0,0,0.0,False,-0.2594014138754961,1.0506737121774343
1.718061669031158,11:34:45.166696,11:33:44.780523,0,,0.05676669,0.038452588,0.035737723,-0.420876,0.42800826,-0.79979515,0.15845466,0.90282077,0.39975855,0.89317167,0.041517615,-0.44779542,,-0.023945741,-0.01726456,0.028080523,0.86846286,0.24302298,0.4321018,0.35913563,-0.9092533,-0.21042839,0.34175104,0.33793247,-0.876931,,0.096501715,1.3397348,0.450281,0.9953285,-0.011390998,-0.09587231,-0.06951108,-0.77370256,-0.6297242,-0.067003466,0.6334466,-0.77088,,-0.035480317,0.26500136,-0.09559278,0.36460534,-0.38576183,0.84749675,0.70680624,0.7071828,0.017815778,-0.6062078,0.5925203,0.5305015,,0.057085417,0.38675034,-0.3835816,-0.9039806,-0.26460454,-0.33586234,0.40942422,-0.309255,-0.8583316,0.12325134,-0.9134253,0.387896,,1.2804831696765433,0.24673359259859887,0.17486563213,-4.463250447068101,-0.5166226056131303,-0.45489675161164167,-0.4101569500631752,,-1.0198100442399691,-0.10702163217100326,0.17378322998,4.537900066948591,-0.1796769971915542,0.45468842991113545,0.8766676029426768,,-0.032757648398368575,-0.09502008780170129,0.0886540616,-0.06966925354577931,,-3.312342e-05,1.1742115e-05,-1.41859055e-05,1.0,3.2499433e-05,2.670288e-05,-3.2495707e-05,1.0,2.8312206e-06,-2.6706606e-05,-2.8312206e-06,1.0,565,1.729,0,0,0.0,False,-0.2584481703791588,1.0507702725789931
1.7403972160536796,11:34:45.196100,11:33:44.780523,0,,0.05668988,0.038500167,0.03585729,-0.42137945,0.42709568,-0.8000179,0.15444866,0.90307045,0.40076107,0.8936359,0.045310825,-0.4464997,,-0.023947291,-0.017263606,0.028080463,0.86846495,0.2430286,0.43209448,0.3591362,-0.90925443,-0.21042243,0.34174514,0.33792526,-0.87693596,,0.096501715,1.3397348,0.450281,0.9953285,-0.011390998,-0.09587231,-0.06951108,-0.77370256,-0.6297242,-0.067003466,0.6334466,-0.77088,,-0.035409838,0.26511616,-0.09565851,0.36488107,-0.38510552,0.8476766,0.704079,0.70985603,0.01942297,-0.6092082,0.58974415,0.53015774,,0.057086952,0.386751,-0.3835809,-0.90398204,-0.26460937,-0.33585462,0.40941975,-0.30926183,-0.85833126,0.12325549,-0.9134216,0.38790345,,1.2812091065667204,0.24701161098207094,0.17483322488000003,-4.4666054861638536,-0.5188087896093774,-0.45254231397151506,-0.4109736703938466,,-1.019802321507095,-0.10701390943812904,0.17378322998,4.537900066948591,-0.1796769971915542,0.45468842991113545,0.8766676029426768,,-0.032757648398368575,-0.09502008780170129,0.0886540616,-0.06966925354577931,,-3.312342e-05,1.1742115e-05,-1.41859055e-05,1.0,3.2499433e-05,2.670288e-05,-3.2495707e-05,1.0,2.8312206e-06,-2.6706606e-05,-2.8312206e-06,1.0,573,1.754,0,0,0.0,False,-0.2584481703791588,1.0508668329805522
1.7698015520581976,11:34:45.217264,11:33:44.780523,0,,0.05659512,0.038526572,0.036011696,-0.42525527,0.42213652,-0.800599,0.14795703,0.9050926,0.39864296,0.892898,0.05107078,-0.44735345,,-0.023946978,-0.017264873,0.028080344,0.8684648,0.24302696,0.43209577,0.35913768,-0.9092522,-0.2104294,0.34174398,0.3379325,-0.8769337,,0.096501715,1.3397348,0.450281,0.9953285,-0.011390998,-0.09587231,-0.06951108,-0.77370256,-0.6297242,-0.067003466,0.6334466,-0.77088,,-0.035324935,0.26523778,-0.09576581,0.36848092,-0.38046905,0.8482129,0.6987145,0.7151922,0.017266354,-0.6132046,0.5862963,0.52937394,,0.05708667,0.3867501,-0.3835818,-0.9039818,-0.2646085,-0.33585605,0.40941978,-0.30925468,-0.8583338,0.12325738,-0.91342425,0.38789654,,1.2820817753815077,0.24735141122853682,0.17476452151000002,-4.474993083903234,-0.5204484276065626,-0.45079690542645523,-0.4108103263277123,,-1.019802321507095,-0.10702163217100326,0.17378322998,4.537900066948591,-0.1796769971915542,0.45468842991113545,0.8766676029426768,,-0.032757648398368575,-0.09502008780170129,0.0886540616,-0.06966925354577931,,-3.312342e-05,1.1742115e-05,-1.41859055e-05,1.0,3.2499433e-05,2.670288e-05,-3.2495707e-05,1.0,2.8312206e-06,-2.6706606e-05,-2.8312206e-06,1.0,581,1.778,0,0,0.0,False,-0.26017592421626956,1.0505771517758753
1.7909633569652215,11:34:45.244930,11:33:44.780523,0,,0.056549292,0.038547836,0.03609857,-0.42580354,0.42212155,-0.8003154,0.14489126,0.9049028,0.40019697,0.8931395,0.054446727,-0.44647253,,-0.023950353,-0.017266959,0.02807957,0.86847025,0.24303718,0.43207896,0.35914558,-0.90924674,-0.21043947,0.34172177,0.33793974,-0.87693954,,0.096501715,1.3397348,0.450281,0.9953285,-0.011390998,-0.09587231,-0.06951108,-0.77370256,-0.6297242,-0.067003466,0.6334466,-0.77088,,-0.035284314,0.265311,-0.095821366,0.36886233,-0.38069916,0.84794384,0.6965544,0.71725196,0.01901605,-0.61542875,0.5836247,0.5297449,,0.05709014,0.38674852,-0.38358316,-0.9039851,-0.2646195,-0.3358386,0.40940654,-0.30924654,-0.85834306,0.123277396,-0.91342384,0.3878912,,1.2825296938882127,0.24753675681751822,0.17473081797,-4.477719053168533,-0.522088065603748,-0.44798967325956807,-0.41113701445998097,,-1.0197791533084724,-0.10702935490387748,0.17378322998,4.537900066948591,-0.1796769971915542,0.45468842991113545,0.8766676029426768,,-0.032757648398368575,-0.09502008780170129,0.0886540616,-0.06966925354577931,,-3.312342e-05,1.1742115e-05,-1.41859055e-05,1.0,3.2499433e-05,2.670288e-05,-3.2495707e-05,1.0,2.8312206e-06,-2.6706606e-05,-2.8312206e-06,1.0,589,1.803,0,0,0.0,False,-0.25880563669028556,1.050335750771978
1.8186244959942997,11:34:45.275918,11:33:44.780523,0,,0.056443535,0.038629733,0.036340564,-0.4254387,0.42200345,-0.8005717,0.13824046,0.9045446,0.4033469,0.8943666,0.060928106,-0.44316617,,-0.02395004,-0.01726821,0.02807945,0.8684701,0.24303548,0.43208024,0.35914707,-0.90924454,-0.2104465,0.3417206,0.33794695,-0.87693727,,0.096501715,1.3397348,0.450281,0.9953285,-0.011390998,-0.09587231,-0.06951108,-0.77370256,-0.6297242,-0.067003466,0.6334466,-0.77088,,-0.03519189,0.26553196,-0.09595954,0.36809182,-0.38105157,0.84812033,0.6923136,0.72121197,0.023562673,-0.62065315,0.578492,0.5292794,,0.05708986,0.38674763,-0.38358405,-0.9039848,-0.2646186,-0.33584002,0.40940657,-0.3092394,-0.8583456,0.12327928,-0.9134265,0.3878843,,1.2837498856823402,0.24814685271458195,0.17464396654000003,-4.482122541981708,-0.5264604335962421,-0.4432807979793147,-0.4108103263277124,,-1.0197791533084724,-0.1070370776367517,0.17378322998,4.537900066948591,-0.1796769971915542,0.45468842991113545,0.8766676029426768,,-0.032757648398368575,-0.09502008780170129,0.0886540616,-0.06966925354577931,,-3.312342e-05,1.1742115e-05,-1.41859055e-05,1.0,3.2499433e-05,2.670288e-05,-3.2495707e-05,1.0,2.8312206e-06,-2.6706606e-05,-2.8312206e-06,1.0,618,1.893,0,0,0.0,False,-0.2598184579051428,1.0511565141852286
1.8496081359917298,11:34:45.349962,11:33:44.913326,0,,0.056179132,0.038955234,0.036785096,-0.42087144,0.41843426,-0.80484784,0.13517982,0.90627956,0.40047953,0.8969915,0.059751302,-0.43799105,,-0.023946658,-0.01726611,0.028080225,0.8684646,0.24298999,0.4321169,0.3591392,-0.90923285,-0.21051067,0.34174284,0.33801132,-0.8769038,,0.096501715,1.3397348,0.450281,0.9953285,-0.011390998,-0.09587231,-0.06951108,-0.77370256,-0.6297242,-0.067003466,0.6334466,-0.77088,,-0.03494378,0.26607108,-0.09610536,0.3632099,-0.3773293,0.85188097,0.69166684,0.72179055,0.02480682,-0.6242399,0.58020777,0.52314764,,0.057086386,0.3867492,-0.38358265,-0.9039815,-0.2645802,-0.3358791,0.4094198,-0.3091774,-0.85836166,0.12325927,-0.91345865,0.38781503,,1.28703976988676,0.24959872649493614,0.17458433720000002,-4.480235332490348,-0.5287832540922546,-0.44930953141011004,-0.4109736703938466,,-1.019802321507095,-0.10702935490387748,0.17378322998,4.537900066948591,-0.1796769971915542,0.454770108651276,0.8765042588765424,,-0.032757648398368575,-0.09502008780170129,0.0886540616,-0.06966925354577931,,-3.312342e-05,1.1742115e-05,-1.41859055e-05,1.0,3.2499433e-05,2.670288e-05,-3.2495707e-05,1.0,2.8312206e-06,-2.6706606e-05,-2.8312206e-06,1.0,622,1.905,0,0,0.0,False,-0.2594014138754961,1.050335750771978
1.9236365960678086,11:34:45.376288,11:33:44.913326,0,,0.055970017,0.039139576,0.03706056,-0.41432172,0.41707337,-0.8089421,0.12843189,0.9067185,0.40170488,0.90102327,0.06254116,-0.42923874,,-0.023948207,-0.017265141,0.028080165,0.8684666,0.2429956,0.43210956,0.35913983,-0.9092339,-0.21050468,0.34173697,0.33800408,-0.8769088,,0.096501715,1.3397348,0.450281,0.9953285,-0.011390998,-0.09587231,-0.06951108,-0.77370256,-0.6297242,-0.067003466,0.6334466,-0.77088,,-0.034745764,0.2663924,-0.09621081,0.35607627,-0.37614703,0.85540813,0.68912697,0.7239563,0.031484663,-0.631121,0.5782739,0.51699674,,0.05708792,0.3867499,-0.38358194,-0.90398294,-0.26458502,-0.33587134,0.40941536,-0.30918425,-0.8583613,0.12326342,-0.9134549,0.38782245,,1.2889472849066934,0.25019337692625143,0.17458044833000003,-4.47897719282944,-0.536981444078181,-0.45038393750167816,-0.41048363819544376,,-1.0197945987742207,-0.10702163217100326,0.17378322998,4.537900066948591,-0.1796769971915542,0.454770108651276,0.8765042588765424,,-0.032757648398368575,-0.09502008780170129,0.0886540616,-0.06966925354577931,,-3.312342e-05,1.1742115e-05,-1.41859055e-05,1.0,3.2499433e-05,2.670288e-05,-3.2495707e-05,1.0,2.8312206e-06,-2.6706606e-05,-2.8312206e-06,1.0,638,1.954,0,0,0.0,False,-0.2602950796533112,1.050963393382111
1.9499889849685133,11:34:45.416501,11:33:44.913326,0,,0.05575113,0.039311968,0.037290975,-0.4103521,0.41455472,-0.81225336,0.12666366,0.9079764,0.39941865,0.90308785,0.06101939,-0.42509902,,-0.023950353,-0.017266959,0.02807957,0.86847025,0.24296658,0.43211865,0.35914558,-0.9092124,-0.21058798,0.34172177,0.338083,-0.8768844,,0.096501715,1.3397348,0.450281,0.9953285,-0.011390998,-0.09587231,-0.06951108,-0.77370256,-0.6297242,-0.067003466,0.6334466,-0.77088,,-0.034535438,0.26667538,-0.09629091,0.35189137,-0.37347043,0.8583078,0.689099,0.72393876,0.032484528,-0.6334943,0.580028,0.5121059,,0.05709014,0.38674852,-0.38358316,-0.9039851,-0.26456463,-0.3358818,0.40940654,-0.30910632,-0.8583936,0.123277396,-0.9134872,0.38774198,,1.2910247000498598,0.25064129543295643,0.17458044833000003,-4.476880293394594,-0.539167628074428,-0.45489051403335873,-0.4106469822615779,,-1.0197791533084724,-0.10702935490387748,0.17378322998,4.537900066948591,-0.1796769971915542,0.4548517873914165,0.8763409148104082,,-0.032757648398368575,-0.09502008780170129,0.0886540616,-0.06966925354577931,,-3.312342e-05,1.1742115e-05,-1.41859055e-05,1.0,3.2499433e-05,2.670288e-05,-3.2495707e-05,1.0,2.8312206e-06,-2.6706606e-05,-2.8312206e-06,1.0,646,1.979,0,0,0.0,False,-0.25910352528289105,1.051108233984449
1.9901709670666605,11:34:45.445239,11:33:44.913326,0,,0.055490866,0.039445706,0.03749363,-0.41030526,0.41193128,-0.8136106,0.12312168,0.9090214,0.39814728,0.90359885,0.06318891,-0.4236939,,-0.023948811,-0.017267898,0.028079629,0.86846817,0.24296099,0.43212596,0.35914496,-0.9092113,-0.210594,0.34172764,0.33809015,-0.87687933,,0.096501715,1.3397348,0.450281,0.9953285,-0.011390998,-0.09587231,-0.06951108,-0.77370256,-0.6297242,-0.067003466,0.6334466,-0.77088,,-0.034283817,0.26691133,-0.09637871,0.35163793,-0.37095758,0.8595006,0.68674874,0.7261702,0.03245075,-0.63618153,0.57885003,0.51010364,,0.057088606,0.38674787,-0.38358387,-0.9039836,-0.2645598,-0.33588952,0.40941098,-0.3090995,-0.8583939,0.12327324,-0.9134909,0.38773456,,1.29316389705602,0.2508729774191832,0.17458433720000002,-4.480025642546862,-0.5399874470730207,-0.45495711527244526,-0.4114637025922494,,-1.0197868760413464,-0.1070370776367517,0.17378322998,4.537900066948591,-0.1796769971915542,0.4548517873914165,0.8763409148104082,,-0.032757648398368575,-0.09502008780170129,0.0886540616,-0.06966925354577931,,-3.312342e-05,1.1742115e-05,-1.41859055e-05,1.0,3.2499433e-05,2.670288e-05,-3.2495707e-05,1.0,2.8312206e-06,-2.6706606e-05,-2.8312206e-06,1.0,654,2.003,0,0,0.0,False,-0.260652545964438,1.051108233984449
2.0189403160475194,11:34:45.474599,11:33:44.913326,0,,0.055229787,0.039548777,0.037662923,-0.4110159,0.409327,-0.8145657,0.12012702,0.9100553,0.39669737,0.9036789,0.06519765,-0.42321843,,-0.023947887,-0.017266393,0.028080046,0.8684665,0.24295864,0.4321307,0.35914132,-0.9092145,-0.21058601,0.3417358,0.33808297,-0.87687886,,0.096501715,1.3397348,0.450281,0.9953285,-0.011390998,-0.09587231,-0.06951108,-0.77370256,-0.6297242,-0.067003466,0.6334466,-0.77088,,-0.03403053,0.26710227,-0.09646139,0.35219577,-0.36845312,0.860349,0.6845388,0.7282881,0.03167128,-0.63825136,0.57778776,0.50872046,,0.057087637,0.386749,-0.38358283,-0.9039827,-0.2645567,-0.3358944,0.4094154,-0.30910698,-0.85838914,0.12326531,-0.9134893,0.38774094,,1.2951718076033183,0.2509115910835543,0.17459211494000001,-4.4835903715861,-0.5399874470730207,-0.4547120790520236,-0.4116270466583838,,-1.0197945987742207,-0.10702935490387748,0.17378322998,4.537900066948591,-0.1796769971915542,0.4548517873914165,0.8763409148104082,,-0.032757648398368575,-0.09502008780170129,0.0886540616,-0.06966925354577931,,-3.312342e-05,1.1742115e-05,-1.41859055e-05,1.0,3.2499433e-05,2.670288e-05,-3.2495707e-05,1.0,2.8312206e-06,-2.6706606e-05,-2.8312206e-06,1.0,683,2.092,0,0,0.0,False,-0.25963972474957986,1.0511565141852286
2.048266423982568,11:34:45.556986,11:33:45.147466,0,,0.05464687,0.039748363,0.037997216,-0.408419,0.40764645,-0.81671184,0.11890274,0.9108738,0.39518505,0.9050172,0.064291865,-0.42048848,,-0.023948811,-0.017267898,0.028079629,0.86846817,0.24296099,0.43212596,0.35914496,-0.9092113,-0.210594,0.34172764,0.33809015,-0.87687933,,0.096501715,1.3397348,0.450281,0.9953285,-0.011390998,-0.09587231,-0.06951108,-0.77370256,-0.6297242,-0.067003466,0.6334466,-0.77088,,-0.033463437,0.26747695,-0.09663289,0.34945568,-0.36667582,0.8622236,0.68446124,0.72833216,0.032326777,-0.63983864,0.5788619,0.50549525,,0.057088606,0.38674787,-0.38358387,-0.9039836,-0.2645598,-0.33588952,0.40941098,-0.3090995,-0.8583939,0.12327324,-0.9134909,0.38773456,,1.2995583198758778,0.2505640681042142,0.17462063332000002,-4.4838000615295845,-0.5387577185751317,-0.4561232338859942,-0.41064698226157803,,-1.0197868760413464,-0.1070370776367517,0.17378322998,4.537900066948591,-0.1796769971915542,0.4548517873914165,0.8763409148104082,,-0.032757648398368575,-0.09502008780170129,0.0886540616,-0.06966925354577931,,-3.312342e-05,1.1742115e-05,-1.41859055e-05,1.0,3.2499433e-05,2.670288e-05,-3.2495707e-05,1.0,2.8312206e-06,-2.6706606e-05,-2.8312206e-06,1.0,691,2.118,0,0,0.0,False,-0.260652545964438,1.0511565141852286
2.1306679269764572,11:34:45.579562,11:33:45.147466,0,,0.054509744,0.03976705,0.03806466,-0.4101943,0.40472677,-0.81727403,0.11450732,0.9118999,0.39411512,0.9047811,0.06808001,-0.42040032,,-0.023950353,-0.017266959,0.02807957,0.86847025,0.24296658,0.43211865,0.35914558,-0.9092124,-0.21058798,0.34172177,0.338083,-0.8768844,,0.096501715,1.3397348,0.450281,0.9953285,-0.011390998,-0.09587231,-0.06951108,-0.77370256,-0.6297242,-0.067003466,0.6334466,-0.77088,,-0.03333062,0.2675363,-0.09668318,0.35102877,-0.3639818,0.8627259,0.6809934,0.7316084,0.031578824,-0.64267164,0.57642555,0.5046848,,0.05709014,0.38674852,-0.38358316,-0.9039851,-0.26456463,-0.3358818,0.40940654,-0.30910632,-0.8583936,0.123277396,-0.9134872,0.38774198,,1.3003769295605456,0.25045594984397507,0.17462711477,-4.489042310116697,-0.5402607200725515,-0.45448924324463075,-0.41130035852611513,,-1.0197791533084724,-0.10702935490387748,0.17378322998,4.537900066948591,-0.1796769971915542,0.4548517873914165,0.8763409148104082,,-0.032757648398368575,-0.09502008780170129,0.0886540616,-0.06966925354577931,,-3.312342e-05,1.1742115e-05,-1.41859055e-05,1.0,3.2499433e-05,2.670288e-05,-3.2495707e-05,1.0,2.8312206e-06,-2.6706606e-05,-2.8312206e-06,1.0,699,2.143,0,0,0.0,False,-0.26059296824591627,1.0507702725789931
2.1532591030700132,11:34:45.610140,11:33:45.147466,0,,0.05445558,0.039775066,0.038089097,-0.4095628,0.40495107,-0.81747967,0.114510745,0.9118148,0.39431083,0.9050667,0.06788495,-0.4198167,,-0.023949452,-0.017265439,0.028079927,0.86846846,0.24296425,0.43212336,0.35914195,-0.9092157,-0.21057993,0.3417299,0.33807576,-0.876884,,0.096501715,1.3397348,0.450281,0.9953285,-0.011390998,-0.09587231,-0.06951108,-0.77370256,-0.6297242,-0.067003466,0.6334466,-0.77088,,-0.03327797,0.26755884,-0.09670097,0.35037977,-0.36419576,0.8628995,0.68117666,0.7314146,0.032109886,-0.64283156,0.5765363,0.50435454,,0.057089172,0.38674966,-0.38358212,-0.9039841,-0.26456153,-0.33588666,0.40941092,-0.30911383,-0.8583888,0.12326946,-0.9134855,0.3877484,,1.3007321752727599,0.2503478315837359,0.17462970735000002,-4.488622930229728,-0.5403973565723169,-0.45445950408107494,-0.4114637025922495,,-1.0197868760413464,-0.10702163217100326,0.17378322998,4.537900066948591,-0.1796769971915542,0.4548517873914165,0.8763409148104082,,-0.032757648398368575,-0.09502008780170129,0.0886540616,-0.06966925354577931,,-3.312342e-05,1.1742115e-05,-1.41859055e-05,1.0,3.2499433e-05,2.670288e-05,-3.2495707e-05,1.0,2.8312206e-06,-2.6706606e-05,-2.8312206e-06,1.0,707,2.167,0,0,0.0,False,-0.25975888018662197,1.0506737121774343
2.1838403020519763,11:34:45.635918,11:33:45.147466,0,,0.054441586,0.039770328,0.038089797,-0.40930766,0.405151,-0.81750834,0.11484915,0.911753,0.39435557,0.90513927,0.067522764,-0.41971874,,-0.023948811,-0.017267898,0.028079629,0.86846817,0.24296099,0.43212596,0.35914496,-0.9092113,-0.210594,0.34172764,0.33809015,-0.87687933,,0.096501715,1.3397348,0.450281,0.9953285,-0.011390998,-0.09587231,-0.06951108,-0.77370256,-0.6297242,-0.067003466,0.6334466,-0.77088,,-0.0332643,0.26755583,-0.096705765,0.35013682,-0.36437264,0.8629234,0.681478,0.7311295,0.032207977,-0.64264446,0.57678616,0.5043073,,0.057088606,0.38674787,-0.38358387,-0.9039836,-0.2645598,-0.33588952,0.40941098,-0.3090995,-0.8583939,0.12327324,-0.9134909,0.38773456,,1.300801679868628,0.2502706042549937,0.17462970735000002,-4.488203550342759,-0.5402607200725515,-0.4545709219847714,-0.4114637025922495,,-1.0197868760413464,-0.1070370776367517,0.17378322998,4.537900066948591,-0.1796769971915542,0.4548517873914165,0.8763409148104082,,-0.032757648398368575,-0.09502008780170129,0.0886540616,-0.06966925354577931,,-3.312342e-05,1.1742115e-05,-1.41859055e-05,1.0,3.2499433e-05,2.670288e-05,-3.2495707e-05,1.0,2.8312206e-06,-2.6706606e-05,-2.8312206e-06,1.0,715,2.192,0,0,0.0,False,-0.2599376133421849,1.0507702725789931
2.2096190709853545,11:34:45.653110,11:33:45.147466,0,,0.05443227,0.039756484,0.03808312,-0.40948978,0.40481725,-0.8175825,0.11488542,0.91190994,0.39398164,0.9050523,0.06740326,-0.4199254,,-0.023947582,-0.01726763,0.028079867,0.86846626,0.242957,0.432132,0.35914287,-0.9092123,-0.21059299,0.34173465,0.33809015,-0.8768766,,0.096501715,1.3397348,0.450281,0.9953285,-0.011390998,-0.09587231,-0.06951108,-0.77370256,-0.6297242,-0.067003466,0.6334466,-0.77088,,-0.033255223,0.26754108,-0.09671052,0.3503261,-0.3640242,0.86299366,0.6814504,0.7311735,0.031790502,-0.6425706,0.5769503,0.5042136,,0.057087354,0.38674808,-0.38358372,-0.9039824,-0.26455584,-0.33589584,0.40941542,-0.3090998,-0.8583917,0.1232672,-0.91349196,0.38773403,,1.300801679868628,0.25017020872762874,0.17462841106000002,-4.488413240286244,-0.5401240835727862,-0.45476401862860827,-0.4116270466583837,,-1.0197945987742207,-0.1070370776367517,0.17378322998,4.537900066948591,-0.1796769971915542,0.4548517873914165,0.8763409148104082,,-0.032757648398368575,-0.09502008780170129,0.0886540616,-0.06966925354577931,,-3.312342e-05,1.1742115e-05,-1.41859055e-05,1.0,3.2499433e-05,2.670288e-05,-3.2495707e-05,1.0,2.8312206e-06,-2.6706606e-05,-2.8312206e-06,1.0,723,2.216,0,0,0.0,False,-0.25975888018662197,1.050963393382111
2.2267622629879043,11:34:45.678625,11:33:45.147466,0,,0.054411925,0.0397354,0.03807795,-0.4119667,0.4017931,-0.8178299,0.111848146,0.9130425,0.3922288,0.9043084,0.07011253,-0.4210829,,-0.023946658,-0.01726611,0.028080225,0.8684646,0.24295467,0.43213674,0.3591392,-0.90921557,-0.21058497,0.34174284,0.3380829,-0.8768762,,0.096501715,1.3397348,0.450281,0.9953285,-0.011390998,-0.09587231,-0.06951108,-0.77370256,-0.6297242,-0.067003466,0.6334466,-0.77088,,-0.03323561,0.26752192,-0.09672208,0.35269937,-0.36114553,0.86323637,0.6786863,0.7338271,0.02970932,-0.6441957,0.57538825,0.5039249,,0.057086386,0.3867492,-0.38358265,-0.9039815,-0.26455274,-0.3359007,0.4094198,-0.30910727,-0.85838693,0.12325927,-0.9134903,0.3877404,,1.3007785116700052,0.2501161495975092,0.17462841106000002,-4.493026419042903,-0.5408072660716132,-0.45412525036998574,-0.4114637025922495,,-1.019802321507095,-0.10702935490387748,0.17378322998,4.537900066948591,-0.1796769971915542,0.4548517873914165,0.8763409148104082,,-0.032757648398368575,-0.09502008780170129,0.0886540616,-0.06966925354577931,,-3.312342e-05,1.1742115e-05,-1.41859055e-05,1.0,3.2499433e-05,2.670288e-05,-3.2495707e-05,1.0,2.8312206e-06,-2.6706606e-05,-2.8312206e-06,1.0,727,2.229,0,0,0.0,False,-0.2599376133421849,1.0506254319766548
2.252288675052114,11:34:45.700017,11:33:45.147466,0,,0.054395273,0.039722554,0.038083896,-0.41287827,0.4004253,-0.81804097,0.10932621,0.91346496,0.39195594,0.90420103,0.072396785,-0.42092687,,-0.023947887,-0.017266393,0.028080046,0.8684665,0.24295864,0.4321307,0.35914132,-0.9092145,-0.21058601,0.3417358,0.33808297,-0.87687886,,0.096501715,1.3397348,0.450281,0.9953285,-0.011390998,-0.09587231,-0.06951108,-0.77370256,-0.6297242,-0.067003466,0.6334466,-0.77088,,-0.033220053,0.26751623,-0.09673632,0.35349336,-0.35992187,0.86342263,0.67671394,0.7356505,0.029606367,-0.6458333,0.5738245,0.50361174,,0.057087637,0.386749,-0.38358283,-0.9039827,-0.2645567,-0.3358944,0.4094154,-0.30910698,-0.85838914,0.12326531,-0.9134893,0.38774094,,1.3007707889371312,0.2500775359331381,0.17462711477,-4.495752388308202,-0.5421736310692676,-0.4530110713330215,-0.4114637025922495,,-1.0197945987742207,-0.10702935490387748,0.17378322998,4.537900066948591,-0.1796769971915542,0.4548517873914165,0.8763409148104082,,-0.032757648398368575,-0.09502008780170129,0.0886540616,-0.06966925354577931,,-3.312342e-05,1.1742115e-05,-1.41859055e-05,1.0,3.2499433e-05,2.670288e-05,-3.2495707e-05,1.0,2.8312206e-06,-2.6706606e-05,-2.8312206e-06,1.0,756,2.319,0,0,0.0,False,-0.25975888018662197,1.0507702725789931
2.2737183780409396,11:34:45.779880,11:33:45.306153,0,,0.054395325,0.03972446,0.038099274,-0.4120589,0.4014206,-0.81796634,0.10999128,0.91307205,0.39268485,0.9044941,0.07184023,-0.42039222,,-0.023949452,-0.017265439,0.028079927,0.86846846,0.24296425,0.43212336,0.35914195,-0.9092157,-0.21057993,0.3417299,0.33807576,-0.876884,,0.096501715,1.3397348,0.450281,0.9953285,-0.011390998,-0.09587231,-0.06951108,-0.77370256,-0.6297242,-0.067003466,0.6334466,-0.77088,,-0.03322109,0.2675277,-0.09674669,0.35268858,-0.36089364,0.8633461,0.67740166,0.7349805,0.030506851,-0.64555234,0.57407266,0.50368917,,0.057089172,0.38674966,-0.38358212,-0.9039841,-0.26456153,-0.33588666,0.40941092,-0.30911383,-0.8583888,0.12326946,-0.9134855,0.3877484,,1.300832570800125,0.2500852586660123,0.17461674445000003,-4.494494248647295,-0.5421736310692676,-0.4529293925928809,-0.4116270466583838,,-1.0197868760413464,-0.10702163217100326,0.17378322998,4.537900066948591,-0.1796769971915542,0.4548517873914165,0.8763409148104082,,-0.032757648398368575,-0.09502008780170129,0.0886540616,-0.06966925354577931,,-3.312342e-05,1.1742115e-05,-1.41859055e-05,1.0,3.2499433e-05,2.670288e-05,-3.2495707e-05,1.0,2.8312206e-06,-2.6706606e-05,-2.8312206e-06,1.0,760,2.331,0,0,0.0,False,-0.259580147031059,1.0512530745867876
2.353582196054049,11:34:45.801104,11:33:45.306153,0,,0.054397635,0.03971853,0.038104057,-0.4120629,0.40141776,-0.81796575,0.109999,0.9130739,0.3926785,0.90449136,0.071832925,-0.42039943,,-0.023948207,-0.017265141,0.028080165,0.8684666,0.24296032,0.4321294,0.35913983,-0.90921676,-0.21057898,0.34173697,0.33807576,-0.8768813,,0.096501715,1.3397348,0.450281,0.9953285,-0.011390998,-0.09587231,-0.06951108,-0.77370256,-0.6297242,-0.067003466,0.6334466,-0.77088,,-0.03322401,0.2675263,-0.09675395,0.35269314,-0.36089024,0.8633457,0.6774057,0.7349772,0.030497352,-0.6455456,0.5740791,0.50369054,,0.05708792,0.3867499,-0.38358194,-0.90398294,-0.2645576,-0.33589298,0.40941536,-0.30911413,-0.8583866,0.12326342,-0.9134866,0.38774785,,1.3008248480672506,0.2500775359331381,0.17460896671,-4.494494248647295,-0.5421736310692676,-0.4529293925928809,-0.4116270466583838,,-1.0197945987742207,-0.10702163217100326,0.17378322998,4.537900066948591,-0.1796769971915542,0.4548517873914165,0.8763409148104082,,-0.032757648398368575,-0.09502008780170129,0.0886540616,-0.06966925354577931,,-3.312342e-05,1.1742115e-05,-1.41859055e-05,1.0,3.2499433e-05,2.670288e-05,-3.2495707e-05,1.0,2.8312206e-06,-2.6706606e-05,-2.8312206e-06,1.0,772,2.368,0,0,0.0,False,-0.26005676877922745,1.0513013547875674
2.3747917129658163,11:34:45.830723,11:33:45.306153,0,,0.05440185,0.039704673,0.038113847,-0.41193804,0.4015601,-0.81795883,0.110138446,0.9130213,0.39276147,0.90453124,0.071704775,-0.42033544,,-0.023947887,-0.017266393,0.028080046,0.8684665,0.24295864,0.4321307,0.35914132,-0.9092145,-0.21058601,0.3417358,0.33808297,-0.87687886,,0.096501715,1.3397348,0.450281,0.9953285,-0.011390998,-0.09587231,-0.06951108,-0.77370256,-0.6297242,-0.067003466,0.6334466,-0.77088,,-0.033229563,0.26752216,-0.096769996,0.35257268,-0.36102566,0.8633383,0.6775363,0.73485243,0.0306019,-0.6454743,0.5741536,0.50369686,,0.057087637,0.386749,-0.38358283,-0.9039827,-0.2645567,-0.3358944,0.4094154,-0.30910698,-0.85838914,0.12326531,-0.9134893,0.38774094,,1.3008094026015022,0.2500466450016412,0.17459211494000001,-4.494284558703811,-0.5421736310692676,-0.4529293925928809,-0.4116270466583838,,-1.0197945987742207,-0.10702935490387748,0.17378322998,4.537900066948591,-0.1796769971915542,0.4548517873914165,0.8763409148104082,,-0.032757648398368575,-0.09502008780170129,0.0886540616,-0.06966925354577931,,-3.312342e-05,1.1742115e-05,-1.41859055e-05,1.0,3.2499433e-05,2.670288e-05,-3.2495707e-05,1.0,2.8312206e-06,-2.6706606e-05,-2.8312206e-06,1.0,780,2.393,0,0,0.0,False,-0.25952056931253775,1.0508668329805522
