AlexandreBanks6/ExpertPlaybackApp/resources/Motions/P_08/PC1/Data_PC1_6.csv
Task Time,PC1 Time,PC2 Time,Gaze Calib,s_T_psm1,Tx,Ty,Tz,R00,R01,R02,R10,R11,R12,R20,R21,R22,s_T_psm3,Tx,Ty,Tz,R00,R01,R02,R10,R11,R12,R20,R21,R22,cart_T_ecm,Tx,Ty,Tz,R00,R01,R02,R10,R11,R12,R20,R21,R22,ecm_T_psm1,Tx,Ty,Tz,R00,R01,R02,R10,R11,R12,R20,R21,R22,ecm_T_psm3,Tx,Ty,Tz,R00,R01,R02,R10,R11,R12,R20,R21,R22,psm1_joints,q1,q2,q3,q4,q5,q6,jaw,psm3_joints,q1,q2,q3,q4,q5,q6,jaw,ecm_joints,q1,q2,q3,q4,ecmi_T_ecm,Tx,Ty,Tz,R00,R01,R02,R10,R11,R12,R20,R21,R22,Sample #,Task Duration (s),Collisions (binary),Collisions (increments),Cumulative Collision Time (s),Clutch Press,MTMR Angle,MTML Angle
""
lci_T_si,,,,,-0.06109692,0.03167272,0.2299341,0.9947057,-0.03862675,0.09522884,0.030706912,-0.772613,-0.63413423,0.098069586,0.63370115,-0.7673364
rci_T_si,,,,,-0.07092086,0.035947774,0.24085279,0.99028605,-0.05390731,0.12817007,0.04142117,-0.7655644,-0.64202446,0.13273226,0.64109683,-0.75589484
ecm_T_lc,,,,,-4.4061628e-05,-0.00034663224,-0.01840835,-0.99912,0.030754527,0.028518902,-0.031987965,-0.99852574,-0.043852776,0.027128186,-0.04472645,0.9986309
ecm_T_rc,,,,,-0.0043358393,0.01870579,-0.007592615,-0.99555075,-0.052743673,-0.078081585,0.04863213,-0.9973746,0.053654674,-0.08070653,0.04961868,0.9955021
cart_T_ecmi,,,,,0.09583431,1.3379636,0.44839177,0.99480253,-0.009780299,-0.10135232,-0.07187082,-0.7725409,-0.63088435,-0.07212858,0.6348896,-0.7692286
ecmac_T_ecmrep_psm1,,,,,0.006309411,-0.25313872,-0.31568977,0.99868697,0.047558498,0.019040095,-0.047043137,0.9985371,-0.026657216,-0.020280018,0.025726508,0.99946326
ecmac_T_ecmrep_psm3,,,,,-0.020520164,-0.44355312,-0.56256753,0.99888426,-0.027940953,0.03807337,0.020709034,0.9837047,0.17859514,-0.04244307,-0.17760742,0.9831857
""
0,12:06:59.051419,12:05:58.707672,0,,0.12832789,0.005729839,0.013950825,-0.99457645,0.07240028,-0.07467072,-0.08507385,-0.15328935,0.98451245,0.059832707,0.98552525,0.15861744,,-0.030183211,-0.059568208,0.060139,0.74604374,0.26297835,-0.61176854,0.33464444,-0.94233966,0.0030150115,-0.57570094,-0.20697439,-0.79103094,,0.09578337,1.3379649,0.44838786,0.9948043,-0.0097611025,-0.10133664,-0.0718461,-0.7725412,-0.63088685,-0.07212858,0.6348896,-0.7692286,,-0.08905645,0.24061023,-0.08657183,0.97850204,-0.1709799,0.115323834,-0.009315465,0.52196836,0.852914,-0.20602654,-0.83565235,0.5091544,,0.07520349,0.4026322,-0.4286778,-0.6697944,-0.22993407,0.70604944,-0.32213363,-0.76673555,-0.5552896,0.66903317,-0.59937215,0.43948567,,0.9348368144248769,0.3180839216235591,0.17690340001000002,1.0228675443175097,-0.1746214467002329,1.214588902749187,-0.4068900687404897,,-0.8923000017536483,-0.20713141841957558,0.13639693009,4.538109756892076,0.656128471873645,-0.26802097203071773,0.8750341622813339,,-0.03807872095538629,-0.09291914771461311,0.09128653716,-0.07097759633537142,,-5.049631e-05,-2.861023e-06,7.2717667e-06,1.0,1.9114465e-05,1.577288e-05,-1.9121915e-05,1.0,1.8179417e-06,-1.5784055e-05,-1.7285347e-06,0.99999994,35,0.105,0,0,0.0,False,-0.25540970673458663,1.0498529487641832
0.1277512809028849,12:06:59.077063,12:05:58.707672,0,,0.12836051,0.0057338774,0.014050245,-0.99473244,0.07085421,-0.07407425,-0.08441658,-0.15632081,0.98409224,0.058147684,0.9851615,0.16147882,,-0.030179307,-0.05956718,0.060135126,0.74606264,0.26297846,-0.6117455,0.33464432,-0.9423396,0.003025055,-0.5756765,-0.20697418,-0.79104877,,0.09578337,1.3379649,0.44838786,0.9948043,-0.0097611025,-0.10133664,-0.0718461,-0.7725412,-0.63088685,-0.07212858,0.6348896,-0.7692286,,-0.08909777,0.24067728,-0.08664083,0.9788487,-0.16958074,0.11444481,-0.0099068545,0.51945245,0.85444194,-0.20434554,-0.83750314,0.50678533,,0.0752001,0.4026294,-0.4286743,-0.6698162,-0.22993422,0.7060287,-0.32211652,-0.7667354,-0.55529976,0.6690196,-0.59937227,0.43950617,,0.9348599826234996,0.318423721870025,0.17681914116000003,1.0226578543740255,-0.1729818087030476,1.2172541461717175,-0.4057466602775497,,-0.8923308926851452,-0.20713141841957558,0.13640081896,4.538109756892076,0.656128471873645,-0.26802097203071773,0.8750341622813339,,-0.03807872095538629,-0.09291914771461311,0.09128653716,-0.07097759633537142,,-5.049631e-05,-2.861023e-06,7.2717667e-06,1.0,1.9114465e-05,1.577288e-05,-1.9121915e-05,1.0,1.8179417e-06,-1.5784055e-05,-1.7285347e-06,0.99999994,47,0.142,0,0,0.0,False,-0.25642252794944387,1.0496115477602863
0.15339025296270847,12:06:59.116868,12:05:58.707672,0,,0.12838617,0.0057111233,0.01423645,-0.99477625,0.07050772,-0.07381523,-0.08422586,-0.15839663,0.9837766,0.057671726,0.9848547,0.16350791,,-0.030174255,-0.05956584,0.060126066,0.7460863,0.26292866,-0.611738,0.3346441,-0.9423393,0.0031146407,-0.575646,-0.20703846,-0.7910542,,0.09578337,1.3379649,0.44838786,0.9948043,-0.0097611025,-0.10133664,-0.0718461,-0.7725412,-0.63088685,-0.07212858,0.6348896,-0.7692286,,-0.089141645,0.24078043,-0.08679343,0.9789467,-0.16932544,0.113983445,-0.010070058,0.51768047,0.85551476,-0.20386742,-0.8386512,0.50507647,,0.075196214,0.4026226,-0.42866737,-0.6698435,-0.22987676,0.7060215,-0.32209513,-0.7667805,-0.55524987,0.6690026,-0.59933656,0.43958074,,0.9348754280892481,0.3189025313082269,0.17664803088000003,1.0226578543740255,-0.1727085357035167,1.2189099213875576,-0.40721675687275805,,-0.8923695063495163,-0.20713141841957558,0.13640989299,4.538109756892076,0.656128471873645,-0.26810265077085826,0.8751975063474682,,-0.03807872095538629,-0.09291914771461311,0.09128653716,-0.07097759633537142,,-5.049631e-05,-2.861023e-06,7.2717667e-06,1.0,1.9114465e-05,1.577288e-05,-1.9121915e-05,1.0,1.8179417e-06,-1.5784055e-05,-1.7285347e-06,0.99999994,59,0.177,0,0,0.0,False,-0.2551713958605024,1.049804668563404
0.19320606999099255,12:06:59.153726,12:05:58.798714,0,,0.12845941,0.0056890845,0.0143350065,-0.995294,0.06306309,-0.07357206,-0.08277227,-0.15851766,0.9838806,0.050384037,0.98534,0.16299161,,-0.030176997,-0.059566583,0.060124815,0.7460721,0.2630285,-0.6117124,0.3346442,-0.94233984,0.002953142,-0.5756643,-0.20690942,-0.79107463,,0.09578337,1.3379649,0.44838786,0.9948043,-0.0097611025,-0.10133664,-0.0718461,-0.7725412,-0.63088685,-0.07212858,0.6348896,-0.7692286,,-0.089224726,0.24082641,-0.08687431,0.98021156,-0.16197541,0.1137949,-0.013686765,0.5180273,0.8552546,-0.19747907,-0.8398879,0.50555944,,0.075199105,0.40262142,-0.42866737,-0.6698271,-0.22999197,0.7059995,-0.32210794,-0.7666899,-0.55536747,0.6690128,-0.59940827,0.43946746,,0.9348677053563738,0.319111045095831,0.17654692026000002,1.0203512649956954,-0.16574007421547926,1.2186184051483173,-0.4068900687404897,,-0.8923463381508936,-0.20713141841957558,0.13641118928,4.538109756892076,0.656128471873645,-0.2679392932905771,0.8748708182151996,,-0.03807872095538629,-0.09291914771461311,0.09128653716,-0.07097759633537142,,-5.049631e-05,-2.861023e-06,7.2717667e-06,1.0,1.9114465e-05,1.577288e-05,-1.9121915e-05,1.0,1.8179417e-06,-1.5784055e-05,-1.7285347e-06,0.99999994,70,0.211,0,0,0.0,False,-0.254694774112334,1.0496598279610654
0.23005048593040556,12:06:59.184382,12:05:58.798714,0,,0.12847175,0.0056690723,0.014435247,-0.9954655,0.061590604,-0.072489694,-0.08165087,-0.16232401,0.9833535,0.048798464,0.9848133,0.16661698,,-0.030177802,-0.059566792,0.060122192,0.74606735,0.26292852,-0.61176115,0.33464423,-0.94233936,0.0031045675,-0.5756704,-0.20703867,-0.79103637,,0.09578337,1.3379649,0.44838786,0.9948043,-0.0097611025,-0.10133664,-0.0718461,-0.7725412,-0.63088685,-0.07212858,0.6348896,-0.7692286,,-0.089247316,0.24087608,-0.08696164,0.9805909,-0.16067827,0.112356715,-0.013860357,0.5148152,0.8571891,-0.1955746,-0.84210914,0.502596,,0.075200245,0.40261933,-0.42866603,-0.6698217,-0.2298766,0.7060423,-0.32211223,-0.7667807,-0.5552397,0.6690162,-0.59933645,0.43956026,,0.934944932685116,0.3192809452190639,0.17644840222000002,1.02056095493918,-0.16382716321876312,1.2221226363852822,-0.405256628079147,,-0.8923386154180194,-0.20713141841957558,0.13641378186000003,4.538109756892076,0.656128471873645,-0.26810265077085826,0.8751975063474682,,-0.03807872095538629,-0.09291914771461311,0.09128653716,-0.07097759633537142,,-5.049631e-05,-2.861023e-06,7.2717667e-06,1.0,1.9114465e-05,1.577288e-05,-1.9121915e-05,1.0,1.8179417e-06,-1.5784055e-05,-1.7285347e-06,0.99999994,78,0.236,0,0,0.0,False,-0.2555288621716292,1.0494667071579475
0.26070997794158757,12:06:59.206786,12:05:58.798714,0,,0.128474,0.0056478977,0.014521927,-0.9954013,0.060943007,-0.07390556,-0.08300753,-0.16368753,0.9830138,0.047810353,0.98462784,0.16799363,,-0.030176565,-0.059567522,0.06012088,0.7460733,0.26292866,-0.6117538,0.33463973,-0.94234097,0.0031013787,-0.57566535,-0.20703107,-0.79104203,,0.09578337,1.3379649,0.44838786,0.9948043,-0.0097611025,-0.10133664,-0.0718461,-0.7725412,-0.63088685,-0.07212858,0.6348896,-0.7692286,,-0.089258686,0.2409162,-0.08704054,0.98054093,-0.16009448,0.11361897,-0.015534569,0.51366866,0.857848,-0.19569924,-0.84292006,0.50118613,,0.07519918,0.40261775,-0.4286657,-0.6698282,-0.22987765,0.70603573,-0.3221117,-0.7667757,-0.55524683,0.6690099,-0.59934235,0.43956172,,0.9349835463494872,0.3194431226094226,0.17636284708000002,1.0188834353913039,-0.16369052671899764,1.2235631145442565,-0.4070534128066241,,-0.8923463381508936,-0.2071391411524498,0.13641507815,4.538109756892076,0.656128471873645,-0.26810265077085826,0.8751975063474682,,-0.03807872095538629,-0.09291914771461311,0.09128653716,-0.07097759633537142,,-5.049631e-05,-2.861023e-06,7.2717667e-06,1.0,1.9114465e-05,1.577288e-05,-1.9121915e-05,1.0,1.8179417e-06,-1.5784055e-05,-1.7285347e-06,0.99999994,86,0.259,0,0,0.0,False,-0.25558843989015,1.049804668563404
0.2831237609498203,12:06:59.235705,12:05:58.798714,0,,0.12850285,0.005641073,0.014639914,-0.9955566,0.058745436,-0.07359348,-0.082331814,-0.1637409,0.9830617,0.04570009,0.98475254,0.16785005,,-0.030175582,-0.059567254,0.06011957,0.74607813,0.2629287,-0.6117481,0.33463964,-0.94234097,0.0031039417,-0.5756593,-0.20703098,-0.79104644,,0.09578337,1.3379649,0.44838786,0.9948043,-0.0097611025,-0.10133664,-0.0718461,-0.7725412,-0.63088685,-0.07212858,0.6348896,-0.7692286,,-0.08929857,0.24098712,-0.08713099,0.9809269,-0.15792415,0.11332456,-0.016387977,0.51374555,0.85778606,-0.19368513,-0.8432826,0.50135875,,0.07519836,0.4026168,-0.42866465,-0.66983366,-0.2298777,0.70603055,-0.3221074,-0.76677567,-0.55524933,0.6690065,-0.5993424,0.43956685,,0.9350376054796067,0.31976747739014005,0.1762565513,1.0184640555043347,-0.16164097922251605,1.223198705831059,-0.4067267246743552,,-0.8923540608837679,-0.2071391411524498,0.13641637444000002,4.538109756892076,0.656128471873645,-0.26810265077085826,0.8751975063474682,,-0.03807872095538629,-0.09291914771461311,0.09128653716,-0.07097759633537142,,-5.049631e-05,-2.861023e-06,7.2717667e-06,1.0,1.9114465e-05,1.577288e-05,-1.9121915e-05,1.0,1.8179417e-06,-1.5784055e-05,-1.7285347e-06,0.99999994,97,0.293,0,0,0.0,False,-0.2551713958605024,1.049370146756389
0.31202877790201455,12:06:59.258180,12:05:58.798714,0,,0.12855633,0.005642578,0.014704704,-0.995819,0.0528621,-0.07449931,-0.08217461,-0.16218421,0.9833329,0.039898388,0.9853434,0.16585016,,-0.030180246,-0.05956852,0.06011957,0.7460544,0.26292852,-0.6117769,0.33463985,-0.94234097,0.0030913055,-0.57568973,-0.20703131,-0.7910241,,0.09578337,1.3379649,0.44838786,0.9948043,-0.0097611025,-0.10133664,-0.0718461,-0.7725412,-0.63088685,-0.07212858,0.6348896,-0.7692286,,-0.08935759,0.24102943,-0.08717324,0.98172843,-0.15204121,0.11442378,-0.020030193,0.5154108,0.8567091,-0.18923035,-0.8433476,0.502948,,0.075203,0.4026165,-0.42866597,-0.66980636,-0.22987749,0.7060565,-0.3221288,-0.7667759,-0.55523664,0.6690235,-0.59934217,0.43954122,,0.9350762191439779,0.31998371391061836,0.17619821825,1.015738086239036,-0.15658542873119474,1.2213632481182273,-0.4060733484098181,,-0.8923154472193967,-0.2071391411524498,0.13641637444000002,4.538109756892076,0.656128471873645,-0.26810265077085826,0.8751975063474682,,-0.03807872095538629,-0.09291914771461311,0.09128653716,-0.07097759633537142,,-5.049631e-05,-2.861023e-06,7.2717667e-06,1.0,1.9114465e-05,1.577288e-05,-1.9121915e-05,1.0,1.8179417e-06,-1.5784055e-05,-1.7285347e-06,0.99999994,105,0.318,0,0,0.0,False,-0.25582675076423333,1.0496115477602863
0.3345168939558789,12:06:59.288919,12:05:58.941159,0,,0.12866363,0.0056536347,0.014854729,-0.9965649,0.040715754,-0.07211436,-0.07781355,-0.16235065,0.9836602,0.028342597,0.98589253,0.16496131,,-0.030180827,-0.059569683,0.060117006,0.7460509,0.26297855,-0.61175966,0.33463532,-0.9423429,0.0030061007,-0.57569695,-0.20695925,-0.79103786,,0.09578337,1.3379649,0.44838786,0.9948043,-0.0097611025,-0.10133664,-0.0718461,-0.7725412,-0.63088685,-0.07212858,0.6348896,-0.7692286,,-0.0894774,0.24113345,-0.08726798,0.98377573,-0.14002523,0.112152666,-0.024202636,0.51584274,0.85634136,-0.17776252,-0.8451622,0.5040846,,0.075203896,0.40261382,-0.42866537,-0.66980195,-0.22993614,0.7060416,-0.32213682,-0.7667257,-0.55530137,0.66902405,-0.59938395,0.4394835,,0.9352770101987077,0.3204239096844491,0.17606599667000003,1.0138508767476753,-0.14442478025207056,1.220350037364567,-0.4062366924759523,,-0.8923077244865225,-0.20714686388532402,0.13641896702,4.538109756892076,0.656128471873645,-0.2680209720307177,0.8753608504136025,,-0.03807872095538629,-0.09291914771461311,0.09128653716,-0.07097759633537142,,-5.049631e-05,-2.861023e-06,7.2717667e-06,1.0,1.9114465e-05,1.577288e-05,-1.9121915e-05,1.0,1.8179417e-06,-1.5784055e-05,-1.7285347e-06,0.99999994,116,0.35,0,0,0.0,False,-0.25535012901606535,1.049418426957168
0.36522209795657545,12:06:59.318586,12:05:58.941159,0,,0.12871157,0.0056466535,0.0150927305,-0.9968071,0.032559626,-0.072906494,-0.07739577,-0.16950679,0.9824853,0.019631155,0.98499084,0.17148566,,-0.030178905,-0.05956919,0.060115695,0.74606043,0.26292866,-0.6117696,0.33463526,-0.94234264,0.0030881464,-0.57568467,-0.20702368,-0.7910298,,0.09578337,1.3379649,0.44838786,0.9948043,-0.0097611025,-0.10133664,-0.0718461,-0.7725412,-0.63088685,-0.07212858,0.6348896,-0.7692286,,-0.08954728,0.24128184,-0.08744711,0.98483866,-0.13223821,0.11227574,-0.029535847,0.5099509,0.85969627,-0.17093982,-0.8499783,0.4983136,,0.07520215,0.40261292,-0.42866406,-0.6698129,-0.22987856,0.70605,-0.32212827,-0.76677096,-0.5552438,0.66901726,-0.5993481,0.43954268,,0.9356477013766705,0.32099539191714177,0.17585081253,1.0098667678214692,-0.13663649976544046,1.2268227790559392,-0.4096669178647723,,-0.892323169952271,-0.20714686388532402,0.13642026331,4.538109756892076,0.656128471873645,-0.26810265077085826,0.8751975063474682,,-0.03807872095538629,-0.09291914771461311,0.09128653716,-0.07097759633537142,,-5.049631e-05,-2.861023e-06,7.2717667e-06,1.0,1.9114465e-05,1.577288e-05,-1.9121915e-05,1.0,1.8179417e-06,-1.5784055e-05,-1.7285347e-06,0.99999994,127,0.383,0,0,0.0,False,-0.25677999426057063,1.0492253061540504
0.3949157149763778,12:06:59.350402,12:05:58.941159,0,,0.12877302,0.005637899,0.015329212,-0.99721843,0.024650395,-0.07033964,-0.07355732,-0.17321253,0.98213375,0.012026235,0.98457575,0.1745441,,-0.030183718,-0.059572693,0.060114443,0.7459642,0.2631763,-0.61178046,0.33478197,-0.94229126,0.0028550923,-0.5757241,-0.20694304,-0.7910223,,0.09578337,1.3379649,0.44838786,0.9948043,-0.0097611025,-0.10133664,-0.0718461,-0.7725412,-0.63088685,-0.07212858,0.6348896,-0.7692286,,-0.08963054,0.24142766,-0.087624796,0.9861616,-0.124546304,0.10942361,-0.03154661,0.50699484,0.86137164,-0.16275786,-0.85290354,0.49604982,,0.07520711,0.40261027,-0.42866638,-0.6697133,-0.23013464,0.706061,-0.32205927,-0.7667015,-0.5553797,0.6691502,-0.59933865,0.43935323,,0.9359566106916395,0.3215514286840859,0.17563692468000003,1.0094473879345003,-0.12816503677998314,1.2293896028830664,-0.4064000365420867,,-0.8922768335550256,-0.20715458661819824,0.13642155960000002,4.537900066948591,0.656128471873645,-0.26802097203071773,0.8750341622813339,,-0.03807872095538629,-0.09291914771461311,0.09128653716,-0.07097759633537142,,-5.049631e-05,-2.861023e-06,7.2717667e-06,1.0,1.9114465e-05,1.577288e-05,-1.9121915e-05,1.0,1.8179417e-06,-1.5784055e-05,-1.7285347e-06,0.99999994,134,0.404,0,0,0.0,False,-0.25636295023092304,1.0490321853509326
0.4267360999947414,12:06:59.373019,12:05:58.941159,0,,0.1288391,0.005644582,0.015469074,-0.99749094,0.017406926,-0.068620056,-0.07060706,-0.17432609,0.9821533,0.005133964,0.9845339,0.17511779,,-0.030186906,-0.059574734,0.060113132,0.7458762,0.2633739,-0.61180276,0.33493322,-0.94223785,0.0027097166,-0.5757501,-0.20693433,-0.7910056,,0.09578337,1.3379649,0.44838786,0.9948043,-0.0097611025,-0.10133664,-0.0718461,-0.7725412,-0.63088685,-0.07212858,0.6348896,-0.7692286,,-0.08970868,0.24152245,-0.08771908,0.987231,-0.11740403,0.10766252,-0.03377252,0.5062413,0.8617303,-0.15567383,-0.8543629,0.49581212,,0.075210445,0.40260834,-0.42866746,-0.6696235,-0.23033208,0.70608175,-0.32197797,-0.76668227,-0.5554534,0.6692791,-0.59928745,0.4392266,,0.9361265108148724,0.3219530107935456,0.17551636971,1.0086086281605622,-0.12078666579264935,1.229662299074283,-0.40656338060822117,,-0.8922459426235287,-0.20715458661819824,0.13642285589,4.537690377005107,0.656128471873645,-0.26802097203071773,0.8750341622813339,,-0.03807872095538629,-0.09291914771461311,0.09128653716,-0.07097759633537142,,-5.049631e-05,-2.861023e-06,7.2717667e-06,1.0,1.9114465e-05,1.577288e-05,-1.9121915e-05,1.0,1.8179417e-06,-1.5784055e-05,-1.7285347e-06,0.99999994,145,0.437,0,0,0.0,False,-0.25600548391979716,1.049418426957168
0.44934647192712873,12:06:59.407240,12:05:59.062341,0,,0.1288538,0.005665824,0.015631616,-0.9974971,0.013817854,-0.06934353,-0.0706975,-0.17894843,0.98131514,0.0011507198,0.9837613,0.17947754,,-0.030187547,-0.059575778,0.060111105,0.745939,0.2634691,-0.6116851,0.3349625,-0.9422277,0.0026381314,-0.57565165,-0.20685959,-0.79109687,,0.09578337,1.3379649,0.44838786,0.9948043,-0.0097611025,-0.10133664,-0.0718461,-0.7725412,-0.63088685,-0.07212858,0.6348896,-0.7692286,,-0.089737,0.24164386,-0.08782648,0.98759717,-0.11402618,0.1079348,-0.036426894,0.5022842,0.863935,-0.15272516,-0.85715145,0.49190086,,0.07521133,0.4026062,-0.4286671,-0.66969836,-0.23043592,0.7059769,-0.32188934,-0.7666272,-0.5555808,0.66924685,-0.59931797,0.4392341,,0.9364585883284641,0.3224549884303702,0.17538414813000003,1.006511728725717,-0.11737075329851333,1.2337378656536795,-0.40656338060822095,,-0.8922304971577802,-0.20716230935107247,0.13642415218,4.537690377005107,0.6559918353738795,-0.2679095541270212,0.8750341622813339,,-0.03807872095538629,-0.09291914771461311,0.09128653716,-0.07097759633537142,,-5.049631e-05,-2.861023e-06,7.2717667e-06,1.0,1.9114465e-05,1.577288e-05,-1.9121915e-05,1.0,1.8179417e-06,-1.5784055e-05,-1.7285347e-06,0.99999994,156,0.469,0,0,0.0,False,-0.25624379479388093,1.0496598279610654
0.4835752599174157,12:06:59.438365,12:05:59.062341,0,,0.1288761,0.005703777,0.015813857,-0.9976805,0.00836312,-0.067554,-0.06795431,-0.18013602,0.9812916,-0.003962286,0.983606,0.18028662,,-0.03018725,-0.05957673,0.060109913,0.7459402,0.26331925,-0.61174804,0.33495796,-0.9422287,0.0028633475,-0.5756527,-0.20704588,-0.79104733,,0.09578337,1.3379649,0.44838786,0.9948043,-0.0097611025,-0.10133664,-0.0718461,-0.7725412,-0.63088685,-0.07212858,0.6348896,-0.7692286,,-0.08977373,0.24179065,-0.08793719,0.9884032,-0.10865603,0.10608018,-0.03765676,0.50137097,0.86441255,-0.14710917,-0.85838276,0.49146506,,0.0752112,0.40260458,-0.42866707,-0.66969943,-0.23026393,0.706032,-0.32189307,-0.7667584,-0.5553975,0.669244,-0.5992162,0.4393773,,0.9369296750337918,0.3230264706630628,0.17524155623,1.0063020387822323,-0.1114953838085994,1.2338476202031674,-0.40656338060822095,,-0.8922304971577802,-0.2071700320839467,0.13642544847000002,4.537690377005107,0.6559918353738795,-0.2681545903474429,0.8751975063474682,,-0.03807872095538629,-0.09291914771461311,0.09128653716,-0.07097759633537142,,-5.049631e-05,-2.861023e-06,7.2717667e-06,1.0,1.9114465e-05,1.577288e-05,-1.9121915e-05,1.0,1.8179417e-06,-1.5784055e-05,-1.7285347e-06,0.99999994,167,0.502,0,0,0.0,False,-0.2559459062012759,1.0490321853509326
0.5147029788931832,12:06:59.470528,12:05:59.062341,0,,0.12892404,0.00575047,0.015934587,-0.99777883,0.0011232123,-0.06660301,-0.065655544,-0.18545425,0.98045707,-0.011250578,0.98265207,0.18511617,,-0.030193716,-0.059578475,0.060108542,0.7459072,0.2630692,-0.611896,0.33495817,-0.94222736,0.0032304823,-0.57569546,-0.20736942,-0.79093146,,0.09578337,1.3379649,0.44838786,0.9948043,-0.0097611025,-0.10133664,-0.0718461,-0.7725412,-0.63088685,-0.07212858,0.6348896,-0.7692286,,-0.08982982,0.24190374,-0.08799303,0.98929894,-0.10167127,0.104644865,-0.040638093,0.49682778,0.86689717,-0.14012901,-0.86187303,0.4873795,,0.0752178,0.40260315,-0.4286681,-0.6696612,-0.22997528,0.7061623,-0.32192302,-0.7669855,-0.5550665,0.6692678,-0.59903646,0.4395861,,0.9373003662117545,0.3234975573683905,0.17515729738000002,1.0046245192343564,-0.10398037632150017,1.238337871718137,-0.4068900687404896,,-0.8921764380276607,-0.2071700320839467,0.13642674476000002,4.537690377005107,0.6559918353738795,-0.2685629840481457,0.8748708182151996,,-0.03807872095538629,-0.09291914771461311,0.09128653716,-0.07097759633537142,,-5.049631e-05,-2.861023e-06,7.2717667e-06,1.0,1.9114465e-05,1.577288e-05,-1.9121915e-05,1.0,1.8179417e-06,-1.5784055e-05,-1.7285347e-06,0.99999994,178,0.535,0,0,0.0,False,-0.2566012611050077,1.0497563883626244
0.5468390019377694,12:06:59.502147,12:05:59.062341,0,,0.12895282,0.005789891,0.016046926,-0.9975375,-0.012385629,-0.069032714,-0.06552467,-0.18639448,0.98028755,-0.025008842,0.9823967,0.18512404,,-0.030204266,-0.059583377,0.06010467,0.7458529,0.26301897,-0.61198384,0.33494955,-0.94223034,0.003265798,-0.5757708,-0.20741966,-0.79086345,,0.09578337,1.3379649,0.44838786,0.9948043,-0.0097611025,-0.10133664,-0.0718461,-0.7725412,-0.63088685,-0.07212858,0.6348896,-0.7692286,,-0.0898665,0.24200618,-0.088049315,0.9903275,-0.088270694,0.107050136,-0.04947365,0.49617165,0.8668137,-0.1296295,-0.86372566,0.48700535,,0.075228766,0.40259817,-0.4286704,-0.6695979,-0.22991912,0.70624065,-0.32198182,-0.76702154,-0.5549826,0.6693029,-0.59901184,0.43956622,,0.9379954121704347,0.3237369620874914,0.17507174224000002,0.9977047510993668,-0.0915464548428451,1.2384903637394735,-0.4068900687404896,,-0.89208376523317,-0.20718547754969516,0.13643063363000002,4.537690377005107,0.6559918353738795,-0.2686446627882863,0.8748708182151996,,-0.03807872095538629,-0.09291914771461311,0.09128653716,-0.07097759633537142,,-5.049631e-05,-2.861023e-06,7.2717667e-06,1.0,1.9114465e-05,1.577288e-05,-1.9121915e-05,1.0,1.8179417e-06,-1.5784055e-05,-1.7285347e-06,0.99999994,189,0.568,0,0,0.0,False,-0.2568991496976123,1.0488873447485942
0.5784851859789342,12:06:59.540397,12:05:59.062341,0,,0.12889287,0.0058024377,0.016080633,-0.99736345,-0.012707256,-0.07144679,-0.06782818,-0.18674836,0.98006344,-0.025796525,0.98232543,0.18539417,,-0.030206278,-0.059587013,0.060103476,0.74584246,0.26286912,-0.61206096,0.33493596,-0.94223446,0.0034720302,-0.5757923,-0.207591,-0.79080284,,0.09578337,1.3379649,0.44838786,0.9948043,-0.0097611025,-0.10133664,-0.0718461,-0.7725412,-0.63088685,-0.07212858,0.6348896,-0.7692286,,-0.089809276,0.2420386,-0.08807303,0.9900965,-0.08796439,0.10941275,-0.05173965,0.49586162,0.86685884,-0.13050629,-0.86393493,0.4863996,,0.075230934,0.40259516,-0.42867264,-0.66958475,-0.229749,0.7063085,-0.32200587,-0.76714295,-0.5548008,0.6693045,-0.59892166,0.43968666,,0.9383969942798944,0.3237292393546172,0.17504452015000002,0.9951884717775527,-0.09168309134261053,1.2388468178635919,-0.40672672467435533,,-0.8920605970345473,-0.20720864574831782,0.13643192992,4.537690377005107,0.6559918353738795,-0.2688896990087079,0.8750341622813338,,-0.03807872095538629,-0.09291914771461311,0.09128653716,-0.07097759633537142,,-5.049631e-05,-2.861023e-06,7.2717667e-06,1.0,1.9114465e-05,1.577288e-05,-1.9121915e-05,1.0,1.8179417e-06,-1.5784055e-05,-1.7285347e-06,0.99999994,200,0.6,0,0,0.0,False,-0.2555288621716292,1.049370146756389
0.6167179449694231,12:06:59.570077,12:05:59.208511,0,,0.12883332,0.0058298633,0.016119972,-0.99701595,-0.017182633,-0.07525903,-0.070822805,-0.18427917,0.980319,-0.030713163,0.9827236,0.1825124,,-0.030209646,-0.059588935,0.060100853,0.7458247,0.26281905,-0.61210406,0.33493155,-0.9422357,0.0035332143,-0.57581776,-0.20764825,-0.79076934,,0.09578337,1.3379649,0.44838786,0.9948043,-0.0097611025,-0.10133664,-0.0718461,-0.7725412,-0.63088685,-0.07212858,0.6348896,-0.7692286,,-0.08975213,0.24208596,-0.08809133,0.99003255,-0.08341202,0.11348142,-0.057214405,0.49807227,0.86524594,-0.12869386,-0.8631144,0.48833537,,0.075234614,0.4025923,-0.42867285,-0.66956395,-0.22969215,0.7063467,-0.32202673,-0.7671835,-0.5547326,0.6693152,-0.59889144,0.43971142,,0.9390148129098324,0.3237137938888688,0.17501729806000002,0.9899462231904395,-0.08840381534823998,1.2361727881748776,-0.40672672467435533,,-0.8920297061030504,-0.20721636848119204,0.13643452250000002,4.537690377005107,0.6559918353738795,-0.2689713777488485,0.8745441300829311,,-0.03807872095538629,-0.09291914771461311,0.09128653716,-0.07097759633537142,,-5.049631e-05,-2.861023e-06,7.2717667e-06,1.0,1.9114465e-05,1.577288e-05,-1.9121915e-05,1.0,1.8179417e-06,-1.5784055e-05,-1.7285347e-06,0.99999994,211,0.633,0,0,0.0,False,-0.2555288621716292,1.049514987358727
0.646410136949271,12:06:59.602118,12:05:59.208511,0,,0.12878546,0.005848132,0.016181499,-0.99677414,-0.021761663,-0.07725012,-0.07195291,-0.18406945,0.9802761,-0.035551853,0.9826721,0.18191004,,-0.030214876,-0.059591364,0.06009823,0.7457976,0.26271892,-0.61218005,0.3349272,-0.9422368,0.0036663413,-0.5758554,-0.20777029,-0.79070973,,0.09578337,1.3379649,0.44838786,0.9948043,-0.0097611025,-0.10133664,-0.0718461,-0.7725412,-0.63088685,-0.07212858,0.6348896,-0.7692286,,-0.08970916,0.24214059,-0.08813106,0.99017185,-0.07884305,0.11551374,-0.061218858,0.4982745,0.86485535,-0.12574539,-0.86342704,0.48855072,,0.07524015,0.40258932,-0.42867357,-0.6695323,-0.22957751,0.706414,-0.3220561,-0.7672695,-0.5545966,0.66933274,-0.5988253,0.43977484,,0.9396017406082734,0.323721516621743,0.17496674275000001,0.9863814941512026,-0.08430472035527677,1.2356073282287643,-0.40607334840981824,,-0.891983369705805,-0.20722409121406626,0.13643711508,4.537690377005107,0.6559918353738795,-0.26913473522912956,0.8748708182151996,,-0.03807872095538629,-0.09291914771461311,0.09128653716,-0.07097759633537142,,-5.049631e-05,-2.861023e-06,7.2717667e-06,1.0,1.9114465e-05,1.577288e-05,-1.9121915e-05,1.0,1.8179417e-06,-1.5784055e-05,-1.7285347e-06,0.99999994,219,0.657,0,0,0.0,False,-0.25636295023092304,1.0492253061540504
0.6784575768979266,12:06:59.630962,12:05:59.208511,0,,0.1287832,0.0058110505,0.01635328,-0.9964275,-0.03217698,-0.07808229,-0.07087998,-0.18404308,0.98035926,-0.045915537,0.9823912,0.18110493,,-0.030221537,-0.05959643,0.060097694,0.7456971,0.2626236,-0.61234343,0.33488005,-0.9422535,0.003692478,-0.576013,-0.2078152,-0.79058313,,0.09578337,1.3379649,0.44838786,0.9948043,-0.0097611025,-0.10133664,-0.0718461,-0.7725412,-0.63088685,-0.07212858,0.6348896,-0.7692286,,-0.08972474,0.24222395,-0.088285014,0.9908378,-0.068461046,0.11641957,-0.06713618,0.49828547,0.8644098,-0.11718858,-0.8643059,0.48912388,,0.075246856,0.40258646,-0.4286777,-0.66941255,-0.22947721,0.70655996,-0.3221982,-0.76730514,-0.5544647,0.6693841,-0.598818,0.43970656,,0.9402041137724629,0.3237601302861141,0.17478655844000002,0.9817683153945431,-0.07405698287286873,1.2348471082846046,-0.40705341280662366,,-0.8919293105756855,-0.20724725941268896,0.13643841137,4.537690377005107,0.656128471873645,-0.26924615313282607,0.8748708182151996,,-0.03807872095538629,-0.09291914771461311,0.09128653716,-0.07097759633537142,,-5.049631e-05,-2.861023e-06,7.2717667e-06,1.0,1.9114465e-05,1.577288e-05,-1.9121915e-05,1.0,1.8179417e-06,-1.5784055e-05,-1.7285347e-06,0.99999994,226,0.678,0,0,0.0,False,-0.2561246393568388,1.0493218665556094
0.70730129792355,12:06:59.654332,12:05:59.208511,0,,0.12888443,0.005798124,0.016741693,-0.9957581,-0.049905337,-0.07729935,-0.0666751,-0.18755847,0.97998786,-0.063404806,0.9809847,0.18343556,,-0.030227229,-0.05960105,0.06009513,0.7456676,0.2626236,-0.61237925,0.33486664,-0.94225836,0.0036577582,-0.5760589,-0.20779297,-0.7905556,,0.09578337,1.3379649,0.44838786,0.9948043,-0.0097611025,-0.10133664,-0.0718461,-0.7725412,-0.63088685,-0.07212858,0.6348896,-0.7692286,,-0.089861736,0.24246456,-0.08857589,0.9920131,-0.050905466,0.11540655,-0.0753026,0.49499387,0.8656273,-0.10119069,-0.867404,0.48720708,,0.07525284,0.4025822,-0.4286802,-0.66937757,-0.22947997,0.70659226,-0.32223937,-0.7672908,-0.5544607,0.6693993,-0.5988354,0.43965974,,0.9408759915325204,0.3245710172379077,0.17444952304000003,0.9767357567509145,-0.056977420402188665,1.2364388309492589,-0.40656338060822095,,-0.8918752514455659,-0.20727042761131162,0.13644100395,4.537690377005107,0.656128471873645,-0.26924615313282607,0.8748708182151996,,-0.03807872095538629,-0.09291914771461311,0.09128653716,-0.07097759633537142,,-5.049631e-05,-2.861023e-06,7.2717667e-06,1.0,1.9114465e-05,1.577288e-05,-1.9121915e-05,1.0,1.8179417e-06,-1.5784055e-05,-1.7285347e-06,0.99999994,237,0.711,0,0,0.0,False,-0.2551713958605024,1.0496598279610654
0.7306291679851711,12:06:59.685168,12:05:59.208511,0,,0.12911251,0.0058654994,0.016935661,-0.99474293,-0.06780732,-0.07673592,-0.0621056,-0.19632629,0.9785698,-0.081419505,0.978191,0.1910832,,-0.030229658,-0.059606966,0.060094595,0.7455885,0.26242852,-0.61255926,0.33481023,-0.94227767,0.0038365424,-0.57619417,-0.2079517,-0.7904153,,0.09578337,1.3379649,0.44838786,0.9948043,-0.0097611025,-0.10133664,-0.0718461,-0.7725412,-0.63088685,-0.07212858,0.6348896,-0.7692286,,-0.09010246,0.24263792,-0.08865452,0.9929134,-0.033346903,0.11406525,-0.08353856,0.48681036,0.86950386,-0.08452341,-0.8728709,0.4805748,,0.07525535,0.4025784,-0.42868474,-0.6692818,-0.22926643,0.7067523,-0.3223718,-0.767407,-0.5542228,0.6694313,-0.59876823,0.43970248,,0.9408682687996462,0.3255518043129342,0.17432637549000002,0.9717031981072858,-0.03962458493197773,1.2436069083565,-0.4049299399468784,,-0.8918520832469433,-0.20730904127568273,0.13644230024,4.537690377005107,0.6562651083734105,-0.26952092851680354,0.8748708182151996,,-0.03807872095538629,-0.09291914771461311,0.09128653716,-0.07097759633537142,,-5.049631e-05,-2.861023e-06,7.2717667e-06,1.0,1.9114465e-05,1.577288e-05,-1.9121915e-05,1.0,1.8179417e-06,-1.5784055e-05,-1.7285347e-06,0.99999994,252,0.755,0,0,0.0,False,-0.25624379479388093,1.04927358635483
0.7614862319314852,12:06:59.723011,12:05:59.357549,0,,0.12918301,0.005915515,0.017187715,-0.99408644,-0.07406151,-0.07941624,-0.06347029,-0.19712824,0.97832096,-0.08811115,0.977576,0.19126195,,-0.03023322,-0.059608143,0.060091436,0.7455032,0.26233304,-0.6127039,0.33477658,-0.9422895,0.0038898885,-0.5763241,-0.20801899,-0.7903028,,0.09578337,1.3379649,0.44838786,0.9948043,-0.0097611025,-0.10133664,-0.0718461,-0.7725412,-0.63088685,-0.07212858,0.6348896,-0.7692286,,-0.09019282,0.2428384,-0.088805,0.99279696,-0.027118009,0.116699524,-0.08893114,0.4859053,0.8694753,-0.08028336,-0.87359065,0.47999367,,0.07525928,0.40257558,-0.428684,-0.6691807,-0.2291632,0.7068815,-0.32248554,-0.7674571,-0.5540872,0.66947764,-0.5987435,0.43966565,,0.9411849008474894,0.3266020959838287,0.17413322828000002,0.9668803294071417,-0.03470567094042187,1.243108049649473,-0.4062366924759524,,-0.8918289150483206,-0.20730904127568273,0.13644618911,4.537690377005107,0.6564017448731759,-0.26963234642050005,0.8748708182151996,,-0.03807872095538629,-0.09291914771461311,0.09128653716,-0.07097759633537142,,-5.049631e-05,-2.861023e-06,7.2717667e-06,1.0,1.9114465e-05,1.577288e-05,-1.9121915e-05,1.0,1.8179417e-06,-1.5784055e-05,-1.7285347e-06,0.99999994,259,0.776,0,0,0.0,False,-0.2568991496976123,1.0492253061540504
0.7993402238935232,12:06:59.748958,12:05:59.357549,0,,0.12926167,0.006048888,0.017372519,-0.9932085,-0.08436295,-0.08012284,-0.06215133,-0.1974577,0.9783392,-0.098356485,0.97667444,0.19087356,,-0.030237705,-0.05961361,0.06008953,0.7454133,0.2621877,-0.6128755,0.3347247,-0.9423074,0.0039923787,-0.57647043,-0.20812061,-0.79016924,,0.09578337,1.3379649,0.44838786,0.9948043,-0.0097611025,-0.10133664,-0.0718461,-0.7725412,-0.63088685,-0.07212858,0.6348896,-0.7692286,,-0.09028042,0.24305849,-0.088849895,0.9929378,-0.016812438,0.11743867,-0.094593376,0.48524082,0.8692488,-0.07160023,-0.8742189,0.4802236,,0.075264,0.40257123,-0.4286875,-0.66907287,-0.22900619,0.7070344,-0.32262278,-0.76753294,-0.5539022,0.66951925,-0.59870636,0.43965286,,0.9417563830801821,0.3275983285246037,0.17405026572,0.9628962204809359,-0.025414388956371922,1.2418208951889398,-0.40738010093889265,,-0.8917903013839494,-0.20733993220717964,0.13644878169000002,4.537690377005107,0.6565383813729414,-0.26982544306433714,0.8747074741490652,,-0.03807872095538629,-0.09291914771461311,0.09128653716,-0.07097759633537142,,-5.049631e-05,-2.861023e-06,7.2717667e-06,1.0,1.9114465e-05,1.577288e-05,-1.9121915e-05,1.0,1.8179417e-06,-1.5784055e-05,-1.7285347e-06,0.99999994,270,0.809,0,0,0.0,False,-0.2550522404234603,1.0491287457524916
0.8252905479166657,12:06:59.784268,12:05:59.357549,0,,0.12933908,0.006065786,0.017585754,-0.99128497,-0.100837536,-0.08476919,-0.062525675,-0.20623797,0.97650206,-0.11595073,0.973292,0.1981358,,-0.030245662,-0.05962139,0.06008917,0.74517274,0.26190147,-0.6132903,0.33460078,-0.94235086,0.0041290224,-0.5768533,-0.20828435,-0.7898467,,0.09578337,1.3379649,0.44838786,0.9948043,-0.0097611025,-0.10133664,-0.0718461,-0.7725412,-0.63088685,-0.07212858,0.6348896,-0.7692286,,-0.09037598,0.24320848,-0.08899175,0.99261713,-0.000619691,0.121288486,-0.10633124,0.47664186,0.87264323,-0.058351938,-0.87909734,0.47305697,,0.07527199,0.40256697,-0.428694,-0.6687856,-0.22870146,0.70740473,-0.3229741,-0.76765853,-0.55352336,0.6696369,-0.59866184,0.43953434,,0.9423510335114973,0.32803080156556025,0.17387915544000002,0.9534601730241322,-0.010111100982642594,1.2491900238290974,-0.4055833162114155,,-0.8917362422538299,-0.20737854587155075,0.13645137427,4.537690377005107,0.6569482908722377,-0.27015969677542623,0.8747074741490652,,-0.03807872095538629,-0.09291914771461311,0.09128653716,-0.07097759633537142,,-5.049631e-05,-2.861023e-06,7.2717667e-06,1.0,1.9114465e-05,1.577288e-05,-1.9121915e-05,1.0,1.8179417e-06,-1.5784055e-05,-1.7285347e-06,0.99999994,281,0.842,0,0,0.0,False,-0.2566608388235285,1.0493218665556094
0.8606040299637243,12:06:59.819144,12:05:59.357549,0,,0.12937915,0.006080024,0.017825663,-0.98862314,-0.12262078,-0.08711079,-0.059764516,-0.21123129,0.9756073,-0.13803026,0.969714,0.20149994,,-0.030250847,-0.05962382,0.060085297,0.7451455,0.2618512,-0.61334467,0.33459637,-0.9423522,0.00418517,-0.5768909,-0.20834166,-0.78980416,,0.09578337,1.3379649,0.44838786,0.9948043,-0.0097611025,-0.10133664,-0.0718461,-0.7725412,-0.63088685,-0.07212858,0.6348896,-0.7692286,,-0.090436995,0.24337436,-0.08915944,0.9921507,0.021082744,0.12325753,-0.11860846,0.47088414,0.87418544,-0.03960979,-0.8819431,0.46968862,,0.075277634,0.40256298,-0.42869395,-0.66875386,-0.2286444,0.70745313,-0.32300347,-0.7676991,-0.55345,0.66965437,-0.5986316,0.43954882,,0.9434476615796372,0.32821614715454167,0.17368341565,0.9442338155108131,0.011204192980766118,1.2521468371474556,-0.40607334840981846,,-0.8916899058565846,-0.207386268604425,0.13645526314,4.537690377005107,0.6569482908722377,-0.2702413755155669,0.8748708182151996,,-0.03807872095538629,-0.09291914771461311,0.09128653716,-0.07097759633537142,,-5.049631e-05,-2.861023e-06,7.2717667e-06,1.0,1.9114465e-05,1.577288e-05,-1.9121915e-05,1.0,1.8179417e-06,-1.5784055e-05,-1.7285347e-06,0.99999994,296,0.887,0,0,0.0,False,-0.2559459062012759,1.0497563883626244
0.8954778999323025,12:06:59.854771,12:05:59.357549,0,,0.12930302,0.0060623884,0.017965853,-0.9874091,-0.12835275,-0.09245959,-0.063702345,-0.21236864,0.9751111,-0.14479372,0.9687233,0.20151839,,-0.030258939,-0.059631135,0.060085356,0.7451043,0.26180112,-0.61341614,0.33457392,-0.94236004,0.0042084754,-0.57695717,-0.20836893,-0.78974855,,0.09578337,1.3379649,0.44838786,0.9948043,-0.0097611025,-0.10133664,-0.0718461,-0.7725412,-0.63088685,-0.07212858,0.6348896,-0.7692286,,-0.09037517,0.24345322,-0.08928481,0.99134123,0.026807938,0.1285455,-0.12601376,0.4694715,0.87390906,-0.03692074,-0.8825406,0.46878463,,0.075285695,0.40255937,-0.42870033,-0.66870457,-0.22859126,0.7075169,-0.32306492,-0.7677202,-0.55338484,0.669674,-0.5986249,0.4395282,,0.9441890439355628,0.3281698107572963,0.17354860149,0.9371043574323394,0.01571319747302565,1.2524723045923611,-0.4062366924759526,,-0.8916126785278423,-0.2074248822687961,0.13645526314,4.537690377005107,0.6569482908722377,-0.2703230542557074,0.8750341622813339,,-0.03807872095538629,-0.09291914771461311,0.09128653716,-0.07097759633537142,,-5.049631e-05,-2.861023e-06,7.2717667e-06,1.0,1.9114465e-05,1.577288e-05,-1.9121915e-05,1.0,1.8179417e-06,-1.5784055e-05,-1.7285347e-06,0.99999994,303,0.908,0,0,0.0,False,-0.25600548391979716,1.049418426957168
0.9311109689297155,12:06:59.875032,12:05:59.357549,0,,0.12920818,0.006086096,0.018044472,-0.9863099,-0.1339232,-0.09621488,-0.06651211,-0.21081516,0.9752605,-0.1508936,0.96830845,0.19902164,,-0.030260518,-0.05963255,0.060084045,0.74509615,0.26175103,-0.61344755,0.33456945,-0.94236135,0.004274726,-0.5769704,-0.208426,-0.7897238,,0.09578337,1.3379649,0.44838786,0.9948043,-0.0097611025,-0.10133664,-0.0718461,-0.7725412,-0.63088685,-0.07212858,0.6348896,-0.7692286,,-0.09028673,0.24352387,-0.08933894,0.9906488,0.032471817,0.13251628,-0.13212852,0.4704762,0.8724644,-0.034015253,-0.881815,0.47036713,,0.07528742,0.40255764,-0.4287008,-0.66869473,-0.22853442,0.7075446,-0.3230772,-0.7677606,-0.5533216,0.6696779,-0.5985948,0.43956318,,0.9450848809489728,0.3280694152299314,0.17348637957000002,0.9312330390147727,0.020358838465050627,1.249990955708932,-0.40721675687275805,,-0.8915972330620938,-0.20743260500167032,0.13645655943,4.537690377005107,0.6569482908722377,-0.27040473299584794,0.8748708182151997,,-0.03807872095538629,-0.09291914771461311,0.09128653716,-0.07097759633537142,,-5.049631e-05,-2.861023e-06,7.2717667e-06,1.0,1.9114465e-05,1.577288e-05,-1.9121915e-05,1.0,1.8179417e-06,-1.5784055e-05,-1.7285347e-06,0.99999994,314,0.94,0,0,0.0,False,-0.25624379479388093,1.0496115477602863
0.9513718669768423,12:06:59.913004,12:05:59.357549,0,,0.12901673,0.0062085614,0.018169224,-0.983416,-0.14806964,-0.104729354,-0.07217636,-0.21023816,0.9749823,-0.16638339,0.966372,0.19606456,,-0.030258343,-0.059633043,0.060082793,0.74510676,0.2617512,-0.6134345,0.3345648,-0.942363,0.0042741,-0.57695925,-0.2084184,-0.789734,,0.09578337,1.3379649,0.44838786,0.9948043,-0.0097611025,-0.10133664,-0.0718461,-0.7725412,-0.63088685,-0.07212858,0.6348896,-0.7692286,,-0.090100914,0.24370117,-0.08937428,0.9888716,0.046746086,0.14123659,-0.14653932,0.46989334,0.8704749,-0.02567484,-0.88148457,0.4715143,,0.07528543,0.40255612,-0.42870024,-0.6687067,-0.22853553,0.70753294,-0.3230724,-0.7677556,-0.5533313,0.66966826,-0.59860075,0.43956983,,0.9471931870236361,0.32799218790118917,0.17342934281000003,0.9176031926882785,0.03265612344394027,1.2469060372882015,-0.4070534128066239,,-0.8916126785278423,-0.20744032773454454,0.13645785572000002,4.537690377005107,0.6569482908722377,-0.27040473299584794,0.8748708182151997,,-0.03807872095538629,-0.09291914771461311,0.09128653716,-0.07097759633537142,,-5.049631e-05,-2.861023e-06,7.2717667e-06,1.0,1.9114465e-05,1.577288e-05,-1.9121915e-05,1.0,1.8179417e-06,-1.5784055e-05,-1.7285347e-06,0.99999994,325,0.973,0,0,0.0,False,-0.2559459062012759,1.0490321853509326
0.9893172999145463,12:06:59.953007,12:05:59.574956,0,,0.12887329,0.006345466,0.01837425,-0.97978294,-0.16581884,-0.11193492,-0.07508404,-0.21382698,0.97398174,-0.18543926,0.962695,0.19705373,,-0.03026241,-0.059636187,0.06008023,0.7450856,0.26175117,-0.61346024,0.33455586,-0.9423663,0.004250139,-0.5769918,-0.20840356,-0.7897141,,0.09578337,1.3379649,0.44838786,0.9948043,-0.0097611025,-0.10133664,-0.0718461,-0.7725412,-0.63088685,-0.07212858,0.6348896,-0.7692286,,-0.08996937,0.24394076,-0.08945579,0.9868421,0.06452638,0.14825305,-0.16118096,0.4650724,0.87047595,-0.012779742,-0.8829179,0.46935347,,0.0752898,0.4025526,-0.42870146,-0.66868156,-0.22853735,0.7075561,-0.32310125,-0.76774603,-0.5533278,0.66967946,-0.59861237,0.4395369,,0.9493632749612932,0.3281852562230448,0.17331786187,0.9043927262487536,0.049325776415324,1.2472801176012744,-0.4075434450050266,,-0.8915740648634712,-0.20745577320029301,0.1364604483,4.537690377005107,0.6569482908722377,-0.27040473299584794,0.8748708182151997,,-0.03807872095538629,-0.09291914771461311,0.09128653716,-0.07097759633537142,,-5.049631e-05,-2.861023e-06,7.2717667e-06,1.0,1.9114465e-05,1.577288e-05,-1.9121915e-05,1.0,1.8179417e-06,-1.5784055e-05,-1.7285347e-06,0.99999994,337,1.009,0,0,0.0,False,-0.25624379479388093,1.0492253061540504
1.029275645967573,12:06:59.974792,12:05:59.574956,0,,0.12881711,0.0063984394,0.018471047,-0.97767955,-0.17633839,-0.11422573,-0.07548636,-0.21254984,0.9742302,-0.19607285,0.96110713,0.19449458,,-0.030263588,-0.059635457,0.06008023,0.7450796,0.26165083,-0.6135103,0.33456045,-0.942364,0.004407227,-0.5769969,-0.20854017,-0.7896743,,0.09578337,1.3379649,0.44838786,0.9948043,-0.0097611025,-0.10133664,-0.0718461,-0.7725412,-0.63088685,-0.07212858,0.6348896,-0.7692286,,-0.0899194,0.24404481,-0.08950059,0.98570293,0.075202465,0.15077916,-0.16842462,0.46518785,0.8690417,-0.004786549,-0.88201183,0.47120294,,0.07529097,0.40255314,-0.42870095,-0.668675,-0.22842067,0.7076,-0.3231018,-0.76784134,-0.55319524,0.6696857,-0.59853464,0.4396332,,0.9503749529678166,0.3281852562230448,0.17326212140000002,0.8981020279442179,0.05916360439843572,1.2442404316837063,-0.40607334840981824,,-0.8915663421305969,-0.2074480504674188,0.1364604483,4.537690377005107,0.6569482908722377,-0.27056809047612906,0.8748708182151997,,-0.03807872095538629,-0.09291914771461311,0.09128653716,-0.07097759633537142,,-5.049631e-05,-2.861023e-06,7.2717667e-06,1.0,1.9114465e-05,1.577288e-05,-1.9121915e-05,1.0,1.8179417e-06,-1.5784055e-05,-1.7285347e-06,0.99999994,345,1.033,0,0,0.0,False,-0.2555288621716292,1.0492253061540504
1.051131818909198,12:07:00.005598,12:05:59.574956,0,,0.12868199,0.0064712316,0.018614516,-0.97512704,-0.18476082,-0.12243636,-0.08063758,-0.21881655,0.9724283,-0.20645778,0.958114,0.1984753,,-0.03026241,-0.059636038,0.060079515,0.74515206,0.2617465,-0.6133815,0.33458972,-0.94235384,0.0043405592,-0.57688636,-0.2084657,-0.7897748,,0.09578337,1.3379649,0.44838786,0.9948043,-0.0097611025,-0.10133664,-0.0718461,-0.7725412,-0.63088685,-0.07212858,0.6348896,-0.7692286,,-0.089794114,0.24419554,-0.08957622,0.98382616,0.08349623,0.15847534,-0.17912582,0.4586192,0.8703921,-5.382813e-06,-0.88470155,0.4661579,,0.07528989,0.40255213,-0.4287009,-0.6687609,-0.22852495,0.70748514,-0.32300463,-0.76778656,-0.5533279,0.6696468,-0.59856504,0.439651,,0.9518191040152966,0.32823931535316436,0.17317008481,0.8876175307699916,0.06667861188553494,1.2484039682381138,-0.4057466602775497,,-0.8915663421305969,-0.20745577320029301,0.1364604483,4.537690377005107,0.6568116543724722,-0.27045667257243267,0.8748708182151997,,-0.03807872095538629,-0.09291914771461311,0.09128653716,-0.07097759633537142,,-5.049631e-05,-2.861023e-06,7.2717667e-06,1.0,1.9114465e-05,1.577288e-05,-1.9121915e-05,1.0,1.8179417e-06,-1.5784055e-05,-1.7285347e-06,0.99999994,353,1.058,0,0,0.0,False,-0.2556480176086704,1.0492253061540504
1.081923215999268,12:07:00.036347,12:05:59.680314,0,,0.12863067,0.0065000206,0.018814221,-0.97248864,-0.19659378,-0.12496604,-0.08012248,-0.22143859,0.9718772,-0.21873733,0.95515203,0.1995951,,-0.030262426,-0.05963586,0.0600788,0.74521846,0.26184198,-0.6132599,0.33462363,-0.9423421,0.00427711,-0.57678086,-0.20839879,-0.7898695,,0.09578337,1.3379649,0.44838786,0.9948043,-0.0097611025,-0.10133664,-0.0718461,-0.7725412,-0.63088685,-0.07212858,0.6348896,-0.7692286,,-0.08975975,0.24434793,-0.08971385,0.9823579,0.09538373,0.16085653,-0.18674915,0.45489922,0.8707419,0.0098811025,-0.88542,0.4646867,,0.07528999,0.40255168,-0.42870033,-0.6688402,-0.22862814,0.7073768,-0.322908,-0.76773673,-0.55345345,0.6696142,-0.59858954,0.43966737,,0.9529389002820592,0.3283628790791519,0.17301712259000002,0.8811171425219714,0.07842935086536282,1.248868513557511,-0.4075434450050266,,-0.8915586193977227,-0.20745577320029301,0.1364604483,4.537690377005107,0.6566750178727068,-0.27034525466873616,0.8748708182151997,,-0.03807872095538629,-0.09291914771461311,0.09128653716,-0.07097759633537142,,-5.049631e-05,-2.861023e-06,7.2717667e-06,1.0,1.9114465e-05,1.577288e-05,-1.9121915e-05,1.0,1.8179417e-06,-1.5784055e-05,-1.7285347e-06,0.99999994,365,1.096,0,0,0.0,False,-0.2568991496976123,1.0495632675595068
1.1126639939611778,12:07:00.065995,12:05:59.680314,0,,0.12852797,0.0065800473,0.018981814,-0.9687764,-0.20815612,-0.13469686,-0.08687909,-0.22382483,0.9707494,-0.23221596,0.95214134,0.1987519,,-0.030262172,-0.05963358,0.06007749,0.7452911,0.26159403,-0.61327755,0.3344771,-0.94239306,0.0044977963,-0.576772,-0.20847955,-0.7898546,,0.09578337,1.3379649,0.44838786,0.9948043,-0.0097611025,-0.10133664,-0.0718461,-0.7725412,-0.63088685,-0.07212858,0.6348896,-0.7692286,,-0.08966851,0.2445193,-0.089799576,0.979521,0.107020006,0.17054434,-0.20069873,0.45132247,0.8694987,0.016083267,-0.8859203,0.4635586,,0.07528989,0.402552,-0.4286977,-0.6689126,-0.22837177,0.7073912,-0.32299834,-0.76780593,-0.5533047,0.6694983,-0.59859866,0.43983138,,0.9543135467336711,0.32852505646951063,0.17291341939000002,0.8674872961954773,0.08772063284941276,1.248234789018102,-0.407706789071161,,-0.8915663421305969,-0.2074480504674188,0.13646174459000002,4.537900066948591,0.6566750178727068,-0.2704269334088768,0.875034162281334,,-0.03807872095538629,-0.09291914771461311,0.09128653716,-0.07097759633537142,,-5.049631e-05,-2.861023e-06,7.2717667e-06,1.0,1.9114465e-05,1.577288e-05,-1.9121915e-05,1.0,1.8179417e-06,-1.5784055e-05,-1.7285347e-06,0.99999994,373,1.121,0,0,0.0,False,-0.25588632848275505,1.0496115477602863
1.1422940609045327,12:07:00.095604,12:05:59.680314,0,,0.1283764,0.006677203,0.019167945,-0.9657715,-0.21396598,-0.14664185,-0.09624349,-0.229395,0.96856344,-0.24087854,0.94952416,0.20095044,,-0.030263335,-0.059633728,0.06007749,0.7453567,0.2612961,-0.6133249,0.3343215,-0.9424468,0.004779011,-0.57677746,-0.20860994,-0.78981614,,0.09578337,1.3379649,0.44838786,0.9948043,-0.0097611025,-0.10133664,-0.0718461,-0.7725412,-0.63088685,-0.07212858,0.6348896,-0.7692286,,-0.08952937,0.24471653,-0.0898934,0.97679853,0.11272126,0.18209484,-0.21349345,0.44548413,0.86946213,0.016886506,-0.8881654,0.4592135,,0.07529105,0.40255204,-0.42869788,-0.6689761,-0.22805957,0.70743185,-0.32310468,-0.7679106,-0.55309737,0.6693835,-0.59858346,0.44002673,,0.9557808659797737,0.32886485671597654,0.172795457,0.8540671398124677,0.09140981834307967,1.2510256961682786,-0.4057466602775497,,-0.8915586193977227,-0.20745577320029301,0.13646174459000002,4.538109756892076,0.6566750178727068,-0.27059029088915787,0.8753608504136026,,-0.03807872095538629,-0.09291914771461311,0.09128653716,-0.07097759633537142,,-5.049631e-05,-2.861023e-06,7.2717667e-06,1.0,1.9114465e-05,1.577288e-05,-1.9121915e-05,1.0,1.8179417e-06,-1.5784055e-05,-1.7285347e-06,0.99999994,385,1.157,0,0,0.0,False,-0.25642252794944387,1.049418426957168
1.171940571977757,12:07:00.127084,12:05:59.775156,0,,0.12830353,0.006788835,0.019320697,-0.96434754,-0.21895108,-0.14864112,-0.09725793,-0.22914544,0.96852124,-0.2461192,0.9484474,0.1996812,,-0.030264258,-0.059633967,0.06007749,0.7453519,0.26114577,-0.6133947,0.33432153,-0.94244564,0.005007416,-0.57678354,-0.2088035,-0.7897606,,0.09578337,1.3379649,0.44838786,0.9948043,-0.0097611025,-0.10133664,-0.0718461,-0.7725412,-0.63088685,-0.07212858,0.6348896,-0.7692286,,-0.08946464,0.2449018,-0.08994429,0.9758059,0.11779018,0.18419644,-0.21769054,0.4450579,0.86863935,0.020339107,-0.88772124,0.4599319,,0.07529198,0.40255198,-0.42869815,-0.66897064,-0.22788617,0.7074929,-0.32310897,-0.76804614,-0.55290663,0.6693869,-0.5984756,0.44016826,,0.9569083849794106,0.3294208934829207,0.17271897589000001,0.8494539610558082,0.09605545933510463,1.2487077047651303,-0.407706789071161,,-0.8915508966648485,-0.20745577320029301,0.13646174459000002,4.538109756892076,0.6566750178727068,-0.2708353271095796,0.8748708182151996,,-0.03807872095538629,-0.09291914771461311,0.09128653716,-0.07097759633537142,,-5.049631e-05,-2.861023e-06,7.2717667e-06,1.0,1.9114465e-05,1.577288e-05,-1.9121915e-05,1.0,1.8179417e-06,-1.5784055e-05,-1.7285347e-06,0.99999994,414,1.246,0,0,0.0,False,-0.2561842170753601,1.049418426957168
1.2034037449629977,12:07:00.212875,12:05:59.775156,0,,0.12808037,0.0071181133,0.019545779,-0.9589033,-0.22777513,-0.16918272,-0.11354758,-0.23838165,0.96451086,-0.26002166,0.94408274,0.20272174,,-0.030275285,-0.05963668,0.06005466,0.7453064,0.26105082,-0.6134904,0.3343023,-0.94245195,0.005101651,-0.5768536,-0.20889375,-0.7896856,,0.095771074,1.337966,0.4483834,0.99480575,-0.009745243,-0.10132369,-0.071825676,-0.7725414,-0.63088894,-0.07212858,0.6348896,-0.7692286,,-0.08923552,0.24530433,-0.08992983,0.97075087,0.12644587,0.20409368,-0.23917851,0.4353507,0.8679075,0.020891007,-0.89133674,0.45286018,,0.075316995,0.40253896,-0.42868966,-0.6689202,-0.22776072,0.7075809,-0.32318246,-0.7681137,-0.55276984,0.6694018,-0.59843665,0.4401985,,0.9599588644647292,0.3305561352154317,0.17268786493000002,0.8268074471594796,0.10124764632619138,1.2522333047380196,-0.40787013313729537,,-0.8915431739319742,-0.20746349593316724,0.13646304088000002,4.538109756892076,0.6568116543724722,-0.27094674501327604,0.8745441300829312,,-0.03807872095538629,-0.09291914771461311,0.09128653716,-0.07097759633537142,,-6.247312e-05,-6.4373016e-06,1.13248825e-05,1.0,3.490597e-05,2.8811395e-05,-3.4909695e-05,1.0,3.3080578e-06,-2.8811395e-05,-3.2186508e-06,0.99999994,422,1.271,0,0,0.0,False,-0.2575545046013441,1.0492253061540504
1.2892119179014117,12:07:00.236653,12:05:59.775156,0,,0.12798059,0.0071645826,0.019561008,-0.95841736,-0.2276156,-0.17212512,-0.11587995,-0.2407783,0.9636377,-0.26078302,0.94351286,0.20439002,,-0.030275539,-0.05963571,0.06005466,0.7453052,0.26105073,-0.61349195,0.33430687,-0.9424504,0.005107343,-0.5768525,-0.20890123,-0.78968436,,0.095771074,1.337966,0.4483834,0.99480575,-0.009745243,-0.10132369,-0.071825676,-0.7725414,-0.63088894,-0.07212858,0.6348896,-0.7692286,,-0.0891351,0.24535121,-0.089921884,0.97020584,0.12620418,0.20681673,-0.24145456,0.4331555,0.8683755,0.020008815,-0.8924398,0.45072258,,0.07531724,0.40253955,-0.4286889,-0.66891915,-0.22775969,0.7075823,-0.3231787,-0.76811856,-0.55276525,0.6694047,-0.5984308,0.44020215,,0.9606539104234094,0.3305020760853121,0.17269175380000001,0.8240814778941807,0.10124764632619138,1.2540302370211123,-0.40770678907116076,,-0.8915431739319742,-0.20745577320029301,0.13646304088000002,4.538109756892076,0.6568116543724722,-0.27094674501327604,0.8745441300829312,,-0.03807872095538629,-0.09291914771461311,0.09128653716,-0.07097759633537142,,-6.247312e-05,-6.4373016e-06,1.13248825e-05,1.0,3.490597e-05,2.8811395e-05,-3.4909695e-05,1.0,3.3080578e-06,-2.8811395e-05,-3.2186508e-06,0.99999994,430,1.296,0,0,0.0,False,-0.2566012611050077,1.0494667071579475
1.3129920449573547,12:07:00.268367,12:05:59.905500,0,,0.1278241,0.007218465,0.019576386,-0.95633173,-0.23179224,-0.17805022,-0.1208808,-0.24097303,0.96297455,-0.26611537,0.94244576,0.20243096,,-0.030275539,-0.05963571,0.06005466,0.7453052,0.26105073,-0.61349195,0.33430687,-0.9424504,0.005107343,-0.5768525,-0.20890123,-0.78968436,,0.095771074,1.337966,0.4483834,0.99480575,-0.009745243,-0.10132369,-0.071825676,-0.7725414,-0.63088894,-0.07212858,0.6348896,-0.7692286,,-0.08897788,0.24540478,-0.0899153,0.9683386,0.13044336,0.21284951,-0.24875379,0.43238422,0.866698,0.021022236,-0.8922042,0.4511426,,0.07531724,0.40253955,-0.4286889,-0.66891915,-0.22775969,0.7075823,-0.3231787,-0.76811856,-0.55276525,0.6694047,-0.5984308,0.44020215,,0.9617968748887946,0.33017772130459466,0.17269823525000003,0.8163229499852533,0.1043902858207965,1.2524477701177812,-0.4077067890711612,,-0.8915431739319742,-0.20745577320029301,0.13646304088000002,4.538109756892076,0.6568116543724722,-0.27094674501327604,0.8745441300829312,,-0.03807872095538629,-0.09291914771461311,0.09128653716,-0.07097759633537142,,-6.247312e-05,-6.4373016e-06,1.13248825e-05,1.0,3.490597e-05,2.8811395e-05,-3.4909695e-05,1.0,3.3080578e-06,-2.8811395e-05,-3.2186508e-06,0.99999994,438,1.32,0,0,0.0,False,-0.25725661600873906,1.049370146756389
1.3446970789227635,12:07:00.298998,12:05:59.905500,0,,0.12774721,0.0072496086,0.01959066,-0.9544543,-0.23558474,-0.1830754,-0.12463362,-0.2426871,0.9620652,-0.27107793,0.94106454,0.20227206,,-0.030277401,-0.059636217,0.06005466,0.7452957,0.26105064,-0.6135035,0.33430696,-0.9424504,0.0051023066,-0.5768647,-0.20890132,-0.7896755,,0.095771074,1.337966,0.4483834,0.99480575,-0.009745243,-0.10132369,-0.071825676,-0.7725414,-0.63088894,-0.07212858,0.6348896,-0.7692286,,-0.088901,0.24543902,-0.089914106,0.9667151,0.1342436,0.2178087,-0.25486043,0.43024722,0.865987,0.022541625,-0.8926735,0.45013985,,0.0753191,0.40253943,-0.42868945,-0.66890824,-0.22775958,0.7075926,-0.32318726,-0.7681186,-0.5527601,0.6694115,-0.59843075,0.4401919,,0.9624610299159779,0.3299846529827391,0.17269953154,0.8094031818502639,0.10753292531540162,1.2528255929778238,-0.40803347720342953,,-0.8915277284662259,-0.20745577320029301,0.13646304088000002,4.538109756892076,0.6568116543724722,-0.27094674501327604,0.8745441300829312,,-0.03807872095538629,-0.09291914771461311,0.09128653716,-0.07097759633537142,,-6.247312e-05,-6.4373016e-06,1.13248825e-05,1.0,3.490597e-05,2.8811395e-05,-3.4909695e-05,1.0,3.3080578e-06,-2.8811395e-05,-3.2186508e-06,0.99999994,454,1.37,0,0,0.0,False,-0.25785239319394915,1.0494667071579475
1.375325217959471,12:07:00.337949,12:05:59.905500,0,,0.12764561,0.0073267072,0.019644365,-0.9504791,-0.24561338,-0.19042918,-0.12979142,-0.24304163,0.9612934,-0.28238875,0.9384053,0.19912753,,-0.030276462,-0.059635963,0.06005466,0.7453005,0.26100057,-0.613519,0.3343069,-0.9424499,0.005181849,-0.5768586,-0.20896578,-0.78966284,,0.095771074,1.337966,0.4483834,0.99480575,-0.009745243,-0.10132369,-0.071825676,-0.7725414,-0.63088894,-0.07212858,0.6348896,-0.7692286,,-0.08880055,0.2455342,-0.0899156,0.9635085,0.14443767,0.22536437,-0.26619136,0.42841837,0.8634812,0.028168986,-0.8919616,0.4512328,,0.075318165,0.4025395,-0.42868918,-0.6689137,-0.22770184,0.707606,-0.323183,-0.76816374,-0.5526999,0.6694081,-0.5983948,0.4402459,,0.9635962716484889,0.32982247559238037,0.17269434638000003,0.7984993047890688,0.11559447880156261,1.2499274799660602,-0.40787013313729537,,-0.8915354511991,-0.20745577320029301,0.13646304088000002,4.538109756892076,0.6568116543724722,-0.27102842375341657,0.8747074741490655,,-0.03807872095538629,-0.09291914771461311,0.09128653716,-0.07097759633537142,,-6.247312e-05,-6.4373016e-06,1.13248825e-05,1.0,3.490597e-05,2.8811395e-05,-3.4909695e-05,1.0,3.3080578e-06,-2.8811395e-05,-3.2186508e-06,0.99999994,462,1.395,0,0,0.0,False,-0.257435349164302,1.04927358635483
1.4142853679368272,12:07:00.359101,12:05:59.905500,0,,0.12756926,0.0073689967,0.019673511,-0.94826347,-0.2496641,-0.19612274,-0.13415913,-0.2447677,0.96025527,-0.2877458,0.9368864,0.1986095,,-0.030276462,-0.059635963,0.06005466,0.7453005,0.26100057,-0.613519,0.3343069,-0.9424499,0.005181849,-0.5768586,-0.20896578,-0.78966284,,0.095771074,1.337966,0.4483834,0.99480575,-0.009745243,-0.10132369,-0.071825676,-0.7725414,-0.63088894,-0.07212858,0.6348896,-0.7692286,,-0.08872494,0.24558654,-0.08991836,0.96155006,0.1485066,0.23101369,-0.27302733,0.42618722,0.8624503,0.029624479,-0.8923622,0.4503467,,0.075318165,0.4025395,-0.42868918,-0.6689137,-0.22770184,0.707606,-0.323183,-0.76816374,-0.5526999,0.6694081,-0.5983948,0.4402459,,0.9642449812099239,0.32972980279788966,0.17268916122000003,0.7915795366540794,0.1186004817964023,1.2499266482889557,-0.4075434450050266,,-0.8915354511991,-0.20745577320029301,0.13646304088000002,4.538109756892076,0.6568116543724722,-0.27102842375341657,0.8747074741490655,,-0.03807872095538629,-0.09291914771461311,0.09128653716,-0.07097759633537142,,-6.247312e-05,-6.4373016e-06,1.13248825e-05,1.0,3.490597e-05,2.8811395e-05,-3.4909695e-05,1.0,3.3080578e-06,-2.8811395e-05,-3.2186508e-06,0.99999994,471,1.423,1,1,0.025,False,-0.25791197091247,1.0497563883626244
1.4354364729952067,12:07:00.397000,12:05:59.905500,0,,0.127453,0.0074254423,0.019727647,-0.946343,-0.2557414,-0.19756275,-0.13413163,-0.2453546,0.96010935,-0.2940126,0.935092,0.19788668,,-0.030273914,-0.059633907,0.06005323,0.7454463,0.26119176,-0.6132604,0.33437902,-0.94242495,0.005068034,-0.5766282,-0.20883948,-0.78986454,,0.095771074,1.337966,0.4483834,0.99480575,-0.009745243,-0.10132369,-0.071825676,-0.7725414,-0.63088894,-0.07212858,0.6348896,-0.7692286,,-0.08861112,0.24566655,-0.08993509,0.9602168,0.15467988,0.23250335,-0.27710643,0.42467722,0.861894,0.03457878,-0.8920333,0.450645,,0.07531582,0.40253937,-0.4286865,-0.6690877,-0.22790745,0.7073753,-0.32297325,-0.768069,-0.55295414,0.6693354,-0.5984381,0.44029757,,0.9653647774766864,0.32952901174315985,0.17267101316000003,0.7875954277278735,0.125022397285378,1.2486105863419708,-0.4085235094018327,,-0.8915431739319742,-0.2074480504674188,0.13646304088000002,4.538109756892076,0.6565383813729414,-0.2708055879460238,0.8747074741490655,,-0.03807872095538629,-0.09291914771461311,0.09128653716,-0.07097759633537142,,-6.247312e-05,-6.4373016e-06,1.13248825e-05,1.0,3.490597e-05,2.8811395e-05,-3.4909695e-05,1.0,3.3080578e-06,-2.8811395e-05,-3.2186508e-06,0.99999994,479,1.447,1,1,0.049,False,-0.25761408231986493,1.049514987358727
1.4733140809694305,12:07:00.425794,12:06:00.085702,0,,0.12731606,0.0074925497,0.019811943,-0.94346076,-0.2645476,-0.19974014,-0.13426484,-0.24594727,0.959939,-0.30307513,0.9324828,0.1965223,,-0.0302746,-0.059635144,0.06005317,0.74544287,0.2611918,-0.6132646,0.3343745,-0.9424267,0.0050598085,-0.57663536,-0.208832,-0.7898612,,0.095771074,1.337966,0.4483834,0.99480575,-0.009745243,-0.10132369,-0.071825676,-0.7725414,-0.63088894,-0.07212858,0.6348896,-0.7692286,,-0.088478915,0.24577457,-0.08996989,0.9581745,0.16364057,0.23478353,-0.28313857,0.4226793,0.86091506,0.041642506,-0.8913832,0.4513335,,0.0753165,0.4025387,-0.4286875,-0.66908336,-0.22790842,0.70737916,-0.32298124,-0.7680642,-0.55295616,0.66933596,-0.598444,0.44028878,,0.9667625921269211,0.32928960702405885,0.17263471704000002,0.7817241093103068,0.13404040626989708,1.246484444067003,-0.40852350940183246,,-0.8915354511991,-0.20745577320029301,0.13646304088000002,4.538109756892076,0.6565383813729414,-0.2708055879460238,0.8748708182151997,,-0.03807872095538629,-0.09291914771461311,0.09128653716,-0.07097759633537142,,-6.247312e-05,-6.4373016e-06,1.13248825e-05,1.0,3.490597e-05,2.8811395e-05,-3.4909695e-05,1.0,3.3080578e-06,-2.8811395e-05,-3.2186508e-06,0.99999994,492,1.488,1,1,0.09,False,-0.25677999426057063,1.0496115477602863
1.5020942559931427,12:07:00.459094,12:06:00.085702,0,,0.12713492,0.0075322837,0.01994823,-0.9403251,-0.27315387,-0.20291735,-0.13541704,-0.24667892,0.95958936,-0.312171,0.9298043,0.19496873,,-0.030274361,-0.059636097,0.06005323,0.7454442,0.2610917,-0.6133057,0.33436996,-0.94242746,0.0052080452,-0.57663643,-0.2089535,-0.78982836,,0.095771074,1.337966,0.4483834,0.99480575,-0.009745243,-0.10132369,-0.071825676,-0.7725414,-0.63088894,-0.07212858,0.6348896,-0.7692286,,-0.08830908,0.24589628,-0.09006639,0.9558258,0.17240106,0.23806491,-0.28997153,0.4205275,0.85969365,0.048099242,-0.8907494,0.4519424,,0.07531626,0.4025381,-0.42868826,-0.6690844,-0.22779389,0.707415,-0.322985,-0.7681496,-0.55283535,0.66933304,-0.59837794,0.4403829,,0.968376643297634,0.328949806777593,0.17253749529,0.7748043411753175,0.14278514225488526,1.2442544226388659,-0.4081968212695639,,-0.8915354511991,-0.20746349593316724,0.13646304088000002,4.538109756892076,0.6565383813729414,-0.27096894542630495,0.875034162281334,,-0.03807872095538629,-0.09291914771461311,0.09128653716,-0.07097759633537142,,-6.247312e-05,-6.4373016e-06,1.13248825e-05,1.0,3.490597e-05,2.8811395e-05,-3.4909695e-05,1.0,3.3080578e-06,-2.8811395e-05,-3.2186508e-06,0.99999994,505,1.529,1,1,0.131,False,-0.2570778828531757,1.049708108161845
1.5354335069423541,12:07:00.499952,12:06:00.085702,0,,0.12703785,0.0075577945,0.020032063,-0.93826276,-0.28199965,-0.20034742,-0.13239777,-0.24231964,0.9611202,-0.3195837,0.9283086,0.19002345,,-0.0302746,-0.059635144,0.06005317,0.74544287,0.2610916,-0.61330724,0.3343745,-0.94242585,0.005213827,-0.57663536,-0.20896104,-0.7898271,,0.095771074,1.337966,0.4483834,0.99480575,-0.009745243,-0.10132369,-0.071825676,-0.7725414,-0.63088894,-0.07212858,0.6348896,-0.7692286,,-0.088218816,0.24597171,-0.09012349,0.9546254,0.18157873,0.23604973,-0.2925217,0.42301902,0.8576048,0.055869263,-0.88774097,0.4569404,,0.0753165,0.4025387,-0.4286875,-0.66908336,-0.22779286,0.70741636,-0.32298124,-0.7681545,-0.5528307,0.66933596,-0.59837204,0.44038656,,0.9694501031671512,0.3286563429283725,0.17248434740000002,0.7727074417404722,0.15180315123940433,1.2377993071364481,-0.4070534128066239,,-0.8915354511991,-0.20745577320029301,0.13646304088000002,4.538109756892076,0.6565383813729414,-0.27096894542630495,0.875034162281334,,-0.03807872095538629,-0.09291914771461311,0.09128653716,-0.07097759633537142,,-6.247312e-05,-6.4373016e-06,1.13248825e-05,1.0,3.490597e-05,2.8811395e-05,-3.4909695e-05,1.0,3.3080578e-06,-2.8811395e-05,-3.2186508e-06,0.99999994,514,1.558,1,1,0.16,False,-0.2570778828531757,1.049804668563404
1.576238150941208,12:07:00.534561,12:06:00.085702,0,,0.12693295,0.007526934,0.020179555,-0.93663454,-0.2871597,-0.200636,-0.12974638,-0.24763566,0.96012634,-0.32539424,0.9253192,0.1946862,,-0.03027387,-0.059637126,0.06005323,0.74537504,0.26128948,-0.61330545,0.33452094,-0.9423746,0.0050726235,-0.5766381,-0.20894465,-0.78982943,,0.095771074,1.337966,0.4483834,0.99480575,-0.009745243,-0.10132369,-0.071825676,-0.7725414,-0.63088894,-0.07212858,0.6348896,-0.7692286,,-0.08812979,0.24604575,-0.090266004,0.9536891,0.18668257,0.23585306,-0.29430428,0.4171216,0.85988057,0.062145308,-0.8894713,0.45274583,,0.07531578,0.4025374,-0.42868906,-0.6690165,-0.2279915,0.7074156,-0.32288665,-0.76813054,-0.55291927,0.6694484,-0.59832716,0.44027656,,0.9704308902421777,0.32833971088052927,0.17234564437000002,0.7712396121360806,0.15918152222673815,1.2418292253741308,-0.4068900687404895,,-0.8915354511991,-0.20746349593316724,0.13646304088000002,4.537900066948591,0.6565383813729414,-0.27096894542630495,0.875034162281334,,-0.03807872095538629,-0.09291914771461311,0.09128653716,-0.07097759633537142,,-6.247312e-05,-6.4373016e-06,1.13248825e-05,1.0,3.490597e-05,2.8811395e-05,-3.4909695e-05,1.0,3.3080578e-06,-2.8811395e-05,-3.2186508e-06,0.99999994,527,1.599,1,1,0.201,False,-0.2568991496976123,1.05014262996886
1.6108866519061849,12:07:00.570397,12:06:00.085702,0,,0.12694514,0.0075062513,0.02028431,-0.93441266,-0.29442453,-0.20046706,-0.12734947,-0.24945787,0.9599755,-0.33264843,0.92254245,0.19560188,,-0.030274332,-0.059638437,0.06005323,0.7453012,0.26148722,-0.61331093,0.33467206,-0.94232166,0.004934609,-0.57664585,-0.20893592,-0.7898261,,0.095771074,1.337966,0.4483834,0.99480575,-0.009745243,-0.10132369,-0.071825676,-0.7725414,-0.63088894,-0.07212858,0.6348896,-0.7692286,,-0.08815267,0.2460978,-0.09035718,0.95228046,0.19405678,0.23559265,-0.29722747,0.41405424,0.86035746,0.069410056,-0.88932616,0.45197475,,0.075316235,0.40253666,-0.42869014,-0.66894305,-0.22818905,0.7074213,-0.32279256,-0.76811147,-0.5530007,0.6695671,-0.5982763,0.4401651,,0.9707475222900208,0.328262483551787,0.17225749665,0.7689330227577508,0.16710643921313365,1.242146322391405,-0.4090135416002352,,-0.8915277284662259,-0.20746349593316724,0.13646304088000002,4.537690377005107,0.6565383813729414,-0.27096894542630495,0.875034162281334,,-0.03807872095538629,-0.09291914771461311,0.09128653716,-0.07097759633537142,,-6.247312e-05,-6.4373016e-06,1.13248825e-05,1.0,3.490597e-05,2.8811395e-05,-3.4909695e-05,1.0,3.3080578e-06,-2.8811395e-05,-3.2186508e-06,0.99999994,536,1.627,1,1,0.229,False,-0.25672041654204936,1.0497563883626244
1.6467054759850726,12:07:00.598294,12:06:00.085702,0,,0.12697384,0.0074642524,0.020381108,-0.9333878,-0.29786885,-0.200153,-0.12505755,-0.25279668,0.9594032,-0.33637434,0.9205257,0.19870669,,-0.030273631,-0.059637215,0.06005323,0.7453047,0.26148716,-0.61330664,0.3346766,-0.94232,0.0049428344,-0.5766387,-0.2089434,-0.78982925,,0.095771074,1.337966,0.4483834,0.99480575,-0.009745243,-0.10132369,-0.071825676,-0.7725414,-0.63088894,-0.07212858,0.6348896,-0.7692286,,-0.08819244,0.24612822,-0.0904544,0.9517326,0.19747734,0.23496349,-0.29792023,0.41026333,0.86193246,0.07381521,-0.89032954,0.44929346,,0.07531555,0.40253732,-0.42868912,-0.66894746,-0.22818808,0.7074175,-0.32278454,-0.7681163,-0.5529986,0.6695666,-0.5982705,0.44017386,,0.9707784132215178,0.328262483551787,0.17216157119000003,0.7687233328142663,0.1716154437053932,1.245003830780668,-0.407706789071161,,-0.8915354511991,-0.20745577320029301,0.13646304088000002,4.537690377005107,0.6565383813729414,-0.27096894542630495,0.875034162281334,,-0.03807872095538629,-0.09291914771461311,0.09128653716,-0.07097759633537142,,-6.247312e-05,-6.4373016e-06,1.13248825e-05,1.0,3.490597e-05,2.8811395e-05,-3.4909695e-05,1.0,3.3080578e-06,-2.8811395e-05,-3.2186508e-06,0.99999994,549,1.668,1,1,0.27,False,-0.25737577144578117,1.0500943497680806
1.6745908668963239,12:07:00.638753,12:06:00.274081,0,,0.12699357,0.0074035674,0.020514026,-0.9331518,-0.2982927,-0.20062152,-0.12383683,-0.25718397,0.95839494,-0.33747885,0.9191722,0.2030521,,-0.030273393,-0.059638184,0.06005323,0.74530596,0.26143715,-0.6133265,0.33467203,-0.94232124,0.005014062,-0.5766398,-0.20900035,-0.7898135,,0.095771074,1.337966,0.4483834,0.99480575,-0.009745243,-0.10132369,-0.071825676,-0.7725414,-0.63088894,-0.07212858,0.6348896,-0.7692286,,-0.08822767,0.24616805,-0.09059193,0.95166814,0.19777499,0.234974,-0.2977128,0.4060553,0.8639943,0.075464025,-0.89219064,0.44531006,,0.075315304,0.40253672,-0.42868987,-0.66894853,-0.22813132,0.7074348,-0.3227883,-0.7681566,-0.5529405,0.6695637,-0.5982404,0.4402191,,0.9707397995571466,0.3283783245449004,0.17202027558000002,0.7691427127012354,0.17311844520281303,1.2494140669097062,-0.4081968212695639,,-0.8915354511991,-0.20746349593316724,0.13646304088000002,4.537690377005107,0.6565383813729414,-0.2710506241664455,0.8751975063474683,,-0.03807872095538629,-0.09291914771461311,0.09128653716,-0.07097759633537142,,-6.247312e-05,-6.4373016e-06,1.13248825e-05,1.0,3.490597e-05,2.8811395e-05,-3.4909695e-05,1.0,3.3080578e-06,-2.8811395e-05,-3.2186508e-06,0.99999994,558,1.697,1,1,0.299,False,-0.25719703829021734,1.0499977893665218
1.7150900749256834,12:07:00.670928,12:06:00.274081,0,,0.12704551,0.007385157,0.020611107,-0.9312889,-0.30615917,-0.19740129,-0.11950533,-0.25513235,0.95949256,-0.34412095,0.91715527,0.20101431,,-0.030274585,-0.059637513,0.06005323,0.7452999,0.26143703,-0.6133337,0.33467662,-0.94231963,0.005017251,-0.5766448,-0.20900801,-0.7898078,,0.095771074,1.337966,0.4483834,0.99480575,-0.009745243,-0.10132369,-0.071825676,-0.7725414,-0.63088894,-0.07212858,0.6348896,-0.7692286,,-0.08828925,0.2462162,-0.09067162,0.95066965,0.20589653,0.23202129,-0.29876143,0.4064372,0.8634526,0.083479814,-0.8901772,0.44790143,,0.075316474,0.40253726,-0.4286894,-0.668942,-0.22813025,0.7074413,-0.32278883,-0.76816154,-0.55293334,0.66956997,-0.5982345,0.4402176,,0.97085564055026,0.3284092154763973,0.17194379447000002,0.7689330227577508,0.1813166351887395,1.2461594997738246,-0.40787013313729514,,-0.8915277284662259,-0.20745577320029301,0.13646304088000002,4.537690377005107,0.6565383813729414,-0.27105062416644554,0.8755241944797367,,-0.03807872095538629,-0.09291914771461311,0.09128653716,-0.07097759633537142,,-6.247312e-05,-6.4373016e-06,1.13248825e-05,1.0,3.490597e-05,2.8811395e-05,-3.4909695e-05,1.0,3.3080578e-06,-2.8811395e-05,-3.2186508e-06,0.99999994,571,1.738,1,1,0.34,False,-0.2571374605716965,1.049804668563404
1.7472008609911427,12:07:00.707199,12:06:00.274081,0,,0.12703955,0.0073568225,0.0207389,-0.92995095,-0.31017926,-0.1974333,-0.11701511,-0.2593769,0.9586611,-0.3485664,0.9146104,0.20491216,,-0.030274332,-0.059638437,0.06005323,0.7453012,0.26143712,-0.6133323,0.33467206,-0.94232124,0.0050115883,-0.57664585,-0.20900041,-0.789809,,0.095771074,1.337966,0.4483834,0.99480575,-0.009745243,-0.10132369,-0.071825676,-0.7725414,-0.63088894,-0.07212858,0.6348896,-0.7692286,,-0.08829665,0.24627769,-0.090787075,0.9498876,0.20988676,0.23164885,-0.2997757,0.40162423,0.8653511,0.08858995,-0.89142895,0.4444168,,0.075316235,0.40253666,-0.42869014,-0.66894305,-0.22813128,0.70743996,-0.32279256,-0.7681566,-0.5529379,0.6695671,-0.5982404,0.44021395,,0.9711954407967259,0.3284169382092715,0.17182842466,0.7683039529272973,0.1867820951793571,1.249625621419602,-0.4083601653356981,,-0.8915277284662259,-0.20746349593316724,0.13646304088000002,4.537690377005107,0.6565383813729414,-0.27105062416644554,0.8755241944797367,,-0.03807872095538629,-0.09291914771461311,0.09128653716,-0.07097759633537142,,-6.247312e-05,-6.4373016e-06,1.13248825e-05,1.0,3.490597e-05,2.8811395e-05,-3.4909695e-05,1.0,3.3080578e-06,-2.8811395e-05,-3.2186508e-06,0.99999994,580,1.767,1,1,0.369,False,-0.2580907040680329,1.05014262996886
1.7835219169501215,12:07:00.743844,12:06:00.274081,0,,0.12705225,0.007379696,0.020872876,-0.92698824,-0.31919527,-0.19699526,-0.11217467,-0.2652443,0.95763373,-0.35792404,0.9098129,0.21007279,,-0.030275509,-0.05963775,0.06005323,0.7452952,0.26153716,-0.6132968,0.33467665,-0.9423204,0.0048608184,-0.5766509,-0.208879,-0.7898375,,0.095771074,1.337966,0.4483834,0.99480575,-0.009745243,-0.10132369,-0.071825676,-0.7725414,-0.63088894,-0.07212858,0.6348896,-0.7692286,,-0.088320255,0.24638185,-0.0908721,0.9480732,0.21895872,0.23068227,-0.30221835,0.394198,0.8679125,0.09910251,-0.89256096,0.4399019,,0.075317405,0.4025372,-0.42868966,-0.66893655,-0.22824575,0.7074092,-0.3227931,-0.76807123,-0.55305624,0.66957337,-0.59830636,0.44011474,,0.9718055366937897,0.32849416553801375,0.17174546210000002,0.766626433379421,0.1979862881601232,1.2537213092192667,-0.4096669178647723,,-0.8915200057333517,-0.20745577320029301,0.13646304088000002,4.537690377005107,0.6565383813729414,-0.2708872666861645,0.8751975063474682,,-0.03807872095538629,-0.09291914771461311,0.09128653716,-0.07097759633537142,,-6.247312e-05,-6.4373016e-06,1.13248825e-05,1.0,3.490597e-05,2.8811395e-05,-3.4909695e-05,1.0,3.3080578e-06,-2.8811395e-05,-3.2186508e-06,0.99999994,593,1.808,1,1,0.41,False,-0.25725661600873906,1.049708108161845
1.8201199159957469,12:07:00.779682,12:06:00.274081,0,,0.12706666,0.0074267983,0.021021858,-0.92183495,-0.33304048,-0.1982525,-0.10953678,-0.26679516,0.95750827,-0.37178183,0.90438044,0.20946097,,-0.03027527,-0.05963869,0.06005323,0.7452965,0.26153725,-0.61329526,0.3346721,-0.9423221,0.0048550665,-0.57665193,-0.20887142,-0.7898387,,0.095771074,1.337966,0.4483834,0.99480575,-0.009745243,-0.10132369,-0.071825676,-0.7725414,-0.63088894,-0.07212858,0.6348896,-0.7692286,,-0.08834558,0.24651413,-0.09095259,0.94436926,0.23313384,0.2319812,-0.30929375,0.38972268,0.8674408,0.11182147,-0.8909348,0.44014898,,0.07531716,0.4025366,-0.4286904,-0.6689376,-0.22824678,0.7074079,-0.32279685,-0.7680663,-0.5530609,0.6695705,-0.59831226,0.4401111,,0.9725700872483378,0.32857139286675596,0.17166898099000003,0.7601260451314008,0.212196484135729,1.2517719385714252,-0.40868685346796685,,-0.8915200057333517,-0.20746349593316724,0.13646304088000002,4.537690377005107,0.6565383813729414,-0.2708872666861645,0.8751975063474682,,-0.03807872095538629,-0.09291914771461311,0.09128653716,-0.07097759633537142,,-6.247312e-05,-6.4373016e-06,1.13248825e-05,1.0,3.490597e-05,2.8811395e-05,-3.4909695e-05,1.0,3.3080578e-06,-2.8811395e-05,-3.2186508e-06,0.99999994,602,1.836,1,1,0.438,False,-0.25677999426057063,1.0499495091657423
1.8560205469839275,12:07:00.812628,12:06:00.461478,0,,0.12701617,0.007472612,0.021136299,-0.918779,-0.34016705,-0.20032808,-0.1086513,-0.26996055,0.95672166,-0.37952587,0.9007815,0.21107453,,-0.03027527,-0.05963869,0.06005323,0.7452965,0.26153725,-0.61329526,0.3346721,-0.9423221,0.0048550665,-0.57665193,-0.20887142,-0.7898387,,0.095771074,1.337966,0.4483834,0.99480575,-0.009745243,-0.10132369,-0.071825676,-0.7725414,-0.63088894,-0.07212858,0.6348896,-0.7692286,,-0.0883033,0.24662411,-0.09101477,0.9420909,0.24037011,0.23385237,-0.3136982,0.3850979,0.8679246,0.11856708,-0.8910229,0.4382009,,0.07531716,0.4025366,-0.4286904,-0.6689376,-0.22824678,0.7074079,-0.32279685,-0.7680663,-0.5530609,0.6695705,-0.59831226,0.4401111,,0.9734118651316284,0.3286100065311271,0.17160675907,0.7557225563182257,0.22012140112212455,1.2526607867696833,-0.40607334840981824,,-0.8915200057333517,-0.20746349593316724,0.13646304088000002,4.537690377005107,0.6565383813729414,-0.2708872666861645,0.8751975063474682,,-0.03807872095538629,-0.09291914771461311,0.09128653716,-0.07097759633537142,,-6.247312e-05,-6.4373016e-06,1.13248825e-05,1.0,3.490597e-05,2.8811395e-05,-3.4909695e-05,1.0,3.3080578e-06,-2.8811395e-05,-3.2186508e-06,0.99999994,615,1.877,1,1,0.479,False,-0.25731619372725945,1.0496598279610654
1.888967316946946,12:07:00.853755,12:06:00.461478,0,,0.12694353,0.007570192,0.021315664,-0.91337466,-0.3532359,-0.20241289,-0.106421135,-0.27273995,0.95618385,-0.39296454,0.89489496,0.21152207,,-0.030276448,-0.05963799,0.06005323,0.7452905,0.2614369,-0.6133453,0.33467668,-0.94231963,0.0050121546,-0.576657,-0.2090081,-0.78979886,,0.095771074,1.337966,0.4483834,0.99480575,-0.009745243,-0.10132369,-0.071825676,-0.7725414,-0.63088894,-0.07212858,0.6348896,-0.7692286,,-0.088241994,0.24681596,-0.0910948,0.93807584,0.2537456,0.23585366,-0.3208158,0.3793805,0.8678408,0.1307325,-0.88976604,0.43729326,,0.07531834,0.40253714,-0.42868993,-0.66893107,-0.22813013,0.70745164,-0.3227974,-0.7681616,-0.55292827,0.66957676,-0.5982344,0.44020733,,0.9748251252476114,0.3287335702571147,0.17152768538000002,0.748593098239752,0.23419496059796494,1.2513945852065222,-0.4081968212695637,,-0.8915045602676032,-0.20745577320029301,0.13646304088000002,4.537690377005107,0.6565383813729414,-0.2710506241664455,0.8751975063474683,,-0.03807872095538629,-0.09291914771461311,0.09128653716,-0.07097759633537142,,-6.247312e-05,-6.4373016e-06,1.13248825e-05,1.0,3.490597e-05,2.8811395e-05,-3.4909695e-05,1.0,3.3080578e-06,-2.8811395e-05,-3.2186508e-06,0.99999994,624,1.906,1,1,0.508,False,-0.2570778828531757,1.0498529487641832
1.930072154966183,12:07:00.880050,12:06:00.461478,0,,0.1269085,0.0076274723,0.021490678,-0.90865517,-0.3641588,-0.2042887,-0.10226853,-0.28025913,0.95446116,-0.40482917,0.8881683,0.217417,,-0.030277118,-0.05963921,0.06005323,0.745287,0.26148707,-0.6133282,0.33467215,-0.94232166,0.004927039,-0.5766642,-0.20893607,-0.7898127,,0.095771074,1.337966,0.4483834,0.99480575,-0.009745243,-0.10132369,-0.071825676,-0.7725414,-0.63088894,-0.07212858,0.6348896,-0.7692286,,-0.08821998,0.24697371,-0.091193624,0.934706,0.26479688,0.2370809,-0.3254382,0.36947757,0.87038857,0.14288011,-0.8907126,0.4315279,,0.075319014,0.40253648,-0.42869094,-0.66892666,-0.2281889,0.70743686,-0.3228054,-0.7681116,-0.55299306,0.6695773,-0.59827626,0.44014972,,0.9759294760486256,0.3288262430516054,0.17143305621000002,0.7439799194830924,0.24799524707427442,1.2560687312605934,-0.40656338060822117,,-0.8915045602676032,-0.20746349593316724,0.13646304088000002,4.537690377005107,0.6565383813729414,-0.27096894542630495,0.875034162281334,,-0.03807872095538629,-0.09291914771461311,0.09128653716,-0.07097759633537142,,-6.247312e-05,-6.4373016e-06,1.13248825e-05,1.0,3.490597e-05,2.8811395e-05,-3.4909695e-05,1.0,3.3080578e-06,-2.8811395e-05,-3.2186508e-06,0.99999994,637,1.947,1,1,0.549,False,-0.2575545046013441,1.049708108161845
1.956386208999902,12:07:00.920007,12:06:00.461478,0,,0.12683272,0.007736966,0.021701083,-0.90223026,-0.37868026,-0.20635323,-0.10019641,-0.28133488,0.9543644,-0.41945332,0.8817322,0.2158865,,-0.030277118,-0.05963921,0.06005323,0.745287,0.26143697,-0.6133496,0.33467215,-0.9423213,0.0050040185,-0.5766642,-0.20900056,-0.78979564,,0.095771074,1.337966,0.4483834,0.99480575,-0.009745243,-0.10132369,-0.071825676,-0.7725414,-0.63088894,-0.07212858,0.6348896,-0.7692286,,-0.08815775,0.24719483,-0.09128972,0.92977595,0.27976316,0.23926824,-0.3334625,0.3647233,0.8693559,0.15594706,-0.8880932,0.43240145,,0.075319014,0.40253648,-0.42869094,-0.66892666,-0.22813112,0.7074555,-0.3228054,-0.7681567,-0.5529303,0.6695773,-0.5982403,0.44019857,,0.9774276862262251,0.32901158864058677,0.17134101962,0.735802011687196,0.26288862554870746,1.252337089992161,-0.4075434450050268,,-0.8915045602676032,-0.20746349593316724,0.13646304088000002,4.537690377005107,0.6565383813729414,-0.27105062416644554,0.8748708182151996,,-0.03807872095538629,-0.09291914771461311,0.09128653716,-0.07097759633537142,,-6.247312e-05,-6.4373016e-06,1.13248825e-05,1.0,3.490597e-05,2.8811395e-05,-3.4909695e-05,1.0,3.3080578e-06,-2.8811395e-05,-3.2186508e-06,0.99999994,646,1.976,1,1,0.578,False,-0.2575545046013441,1.049514987358727
1.9963270139414817,12:07:00.950340,12:06:00.461478,0,,0.12675004,0.0078099817,0.021840349,-0.89902127,-0.3840344,-0.21042347,-0.10165395,-0.2843743,0.95330894,-0.42594242,0.87843525,0.21662006,,-0.030277118,-0.05963921,0.06005323,0.745287,0.2613869,-0.6133709,0.33467215,-0.9423208,0.005080968,-0.5766642,-0.20906511,-0.7897786,,0.095771074,1.337966,0.4483834,0.99480575,-0.009745243,-0.10132369,-0.071825676,-0.7725414,-0.63088894,-0.07212858,0.6348896,-0.7692286,,-0.08808419,0.24734214,-0.09135646,0.92709816,0.28521675,0.243188,-0.33883673,0.36036083,0.8690971,0.16024561,-0.88813937,0.43073177,,0.075319014,0.40253648,-0.42869094,-0.66892666,-0.22807333,0.7074741,-0.3228054,-0.7682019,-0.5528676,0.6695773,-0.5982043,0.44024745,,0.9784393642327485,0.32921237969531664,0.17126842738,0.7297210033261448,0.2684907220390905,1.2525063228687605,-0.4081968212695639,,-0.8915045602676032,-0.20746349593316724,0.13646304088000002,4.537690377005107,0.6565383813729414,-0.2711323029065861,0.8750341622813339,,-0.03807872095538629,-0.09291914771461311,0.09128653716,-0.07097759633537142,,-6.247312e-05,-6.4373016e-06,1.13248825e-05,1.0,3.490597e-05,2.8811395e-05,-3.4909695e-05,1.0,3.3080578e-06,-2.8811395e-05,-3.2186508e-06,0.99999994,659,2.017,1,1,0.619,False,-0.25719703829021734,1.0495632675595068
2.026673224987462,12:07:00.990480,12:06:00.637577,0,,0.1267231,0.007905737,0.022006676,-0.8929676,-0.39647466,-0.21311161,-0.09951863,-0.28783843,0.95249414,-0.43898147,0.8717548,0.21757388,,-0.030278057,-0.059639465,0.06005323,0.74528223,0.2613367,-0.613398,0.33467218,-0.94232047,0.0051554143,-0.5766703,-0.2091296,-0.789757,,0.095771074,1.337966,0.4483834,0.99480575,-0.009745243,-0.10132369,-0.071825676,-0.7725414,-0.63088894,-0.07212858,0.6348896,-0.7692286,,-0.08806724,0.24752338,-0.09142298,0.92239547,0.29800138,0.24572703,-0.34577784,0.35359696,0.86914146,0.17211702,-0.8866591,0.4291985,,0.075319946,0.40253642,-0.4286912,-0.66892123,-0.22801548,0.70749795,-0.32280967,-0.76824707,-0.55280226,0.6695807,-0.5981684,0.44029117,,0.9795205468351399,0.3294286162157949,0.17120750175000002,0.7223818553041864,0.28201773551586906,1.2518491504006664,-0.4083601653356983,,-0.891496837534729,-0.20746349593316724,0.13646304088000002,4.537690377005107,0.6565383813729414,-0.2712139816467266,0.8751975063474682,,-0.03807872095538629,-0.09291914771461311,0.09128653716,-0.07097759633537142,,-6.247312e-05,-6.4373016e-06,1.13248825e-05,1.0,3.490597e-05,2.8811395e-05,-3.4909695e-05,1.0,3.3080578e-06,-2.8811395e-05,-3.2186508e-06,0.99999994,668,2.045,1,1,0.647,False,-0.25695872741613357,1.0499495091657423
2.0667893879581243,12:07:01.020828,12:06:00.637577,0,,0.12672698,0.007979691,0.022123888,-0.88697964,-0.40751037,-0.2172606,-0.09800123,-0.29364455,0.9508779,-0.45128995,0.86470103,0.22052032,,-0.03027831,-0.059638496,0.06005323,0.74528104,0.26133662,-0.6133995,0.33467674,-0.9423188,0.0051611066,-0.5766692,-0.20913717,-0.7897558,,0.095771074,1.337966,0.4483834,0.99480575,-0.009745243,-0.10132369,-0.071825676,-0.7725414,-0.63088894,-0.07212858,0.6348896,-0.7692286,,-0.08807767,0.24765562,-0.09146323,0.91765636,0.3092916,0.24949053,-0.35271353,0.3447863,0.869894,0.18303,-0.8862625,0.42548665,,0.07532019,0.40253702,-0.42869046,-0.66892016,-0.22801445,0.70749927,-0.32280594,-0.76825196,-0.5527977,0.66958356,-0.5981625,0.4402948,,0.980246483725317,0.32953673447603404,0.17117768708000003,0.7150427072822281,0.2944516569945242,1.2539619321853763,-0.4054199721452809,,-0.891496837534729,-0.20745577320029301,0.13646304088000002,4.537690377005107,0.6565383813729414,-0.2712139816467266,0.8751975063474682,,-0.03807872095538629,-0.09291914771461311,0.09128653716,-0.07097759633537142,,-6.247312e-05,-6.4373016e-06,1.13248825e-05,1.0,3.490597e-05,2.8811395e-05,-3.4909695e-05,1.0,3.3080578e-06,-2.8811395e-05,-3.2186508e-06,0.99999994,681,2.086,1,1,0.688,False,-0.25677999426057063,1.0499012289649627
2.0971496149431914,12:07:01.055674,12:06:00.637577,0,,0.12668069,0.008039691,0.022197798,-0.8835973,-0.41358107,-0.21955922,-0.098213755,-0.2947701,0.95050764,-0.45783147,0.8614296,0.21983877,,-0.030278996,-0.059639703,0.06005323,0.74527746,0.26133668,-0.61340386,0.3346722,-0.94232047,0.005152911,-0.57667637,-0.20912969,-0.78975254,,0.095771074,1.337966,0.4483834,0.99480575,-0.009745243,-0.10132369,-0.071825676,-0.7725414,-0.63088894,-0.07212858,0.6348896,-0.7692286,,-0.08803503,0.24775001,-0.091485165,0.9148813,0.3155633,0.25181735,-0.3571778,0.34190777,0.86920834,0.18819195,-0.88516605,0.42551723,,0.07532088,0.40253636,-0.42869148,-0.66891575,-0.22801544,0.70750314,-0.32281393,-0.7682471,-0.5527997,0.6695841,-0.5981683,0.44028604,,0.9809492524168715,0.3295753481404052,0.17115953902000003,0.7100101486385995,0.3007369359837344,1.2525122519216663,-0.40721675687275805,,-0.8914891148018548,-0.20746349593316724,0.13646304088000002,4.537690377005107,0.6565383813729414,-0.2712139816467266,0.8751975063474682,,-0.03807872095538629,-0.09291914771461311,0.09128653716,-0.07097759633537142,,-6.247312e-05,-6.4373016e-06,1.13248825e-05,1.0,3.490597e-05,2.8811395e-05,-3.4909695e-05,1.0,3.3080578e-06,-2.8811395e-05,-3.2186508e-06,0.99999994,690,2.115,1,1,0.717,False,-0.25725661600873906,1.0493218665556094
2.1320131849497557,12:07:01.092618,12:06:00.637577,0,,0.12662612,0.008123063,0.022301674,-0.8775045,-0.42448753,-0.22315018,-0.10005,-0.29303277,0.9508532,-0.46901566,0.856704,0.21466762,,-0.03027992,-0.05963997,0.06005323,0.7452729,0.26133662,-0.6134096,0.33467224,-0.94232047,0.0051503778,-0.57668245,-0.20912969,-0.7897481,,0.095771074,1.337966,0.4483834,0.99480575,-0.009745243,-0.10132369,-0.071825676,-0.7725414,-0.63088894,-0.07212858,0.6348896,-0.7692286,,-0.0879856,0.24788176,-0.09151548,0.9097454,0.32693768,0.25588095,-0.36593583,0.340343,0.8661741,0.19609767,-0.88163394,0.4292637,,0.0753218,0.4025363,-0.42869174,-0.6689103,-0.22801538,0.7075083,-0.32281822,-0.7682471,-0.5527972,0.6695875,-0.5981683,0.4402809,,0.9818682576289042,0.3295830708732794,0.17113750209,0.7001547212948268,0.31057476396684613,1.245960380178054,-0.4078701331372949,,-0.8914813920689805,-0.20746349593316724,0.13646304088000002,4.537690377005107,0.6565383813729414,-0.2712139816467266,0.8751975063474682,,-0.03807872095538629,-0.09291914771461311,0.09128653716,-0.07097759633537142,,-6.247312e-05,-6.4373016e-06,1.13248825e-05,1.0,3.490597e-05,2.8811395e-05,-3.4909695e-05,1.0,3.3080578e-06,-2.8811395e-05,-3.2186508e-06,0.99999994,703,2.156,1,1,0.758,False,-0.25683957197909146,1.0493218665556094
2.16895417496562,12:07:01.126482,12:06:00.637577,0,,0.12660313,0.008189008,0.022423312,-0.87043005,-0.4368047,-0.22705275,-0.10014512,-0.29446128,0.9504018,-0.48199823,0.8499964,0.21256417,,-0.03027992,-0.05963997,0.06005323,0.7452729,0.26138672,-0.61338824,0.33467224,-0.9423208,0.005073428,-0.57668245,-0.20906526,-0.7897651,,0.095771074,1.337966,0.4483834,0.99480575,-0.009745243,-0.10132369,-0.071825676,-0.7725414,-0.63088894,-0.07212858,0.6348896,-0.7692286,,-0.087970175,0.24801125,-0.0915671,0.9038968,0.33971745,0.2599282,-0.37455347,0.3351075,0.8645303,0.20659214,-0.8788032,0.43014494,,0.0753218,0.4025363,-0.42869174,-0.6689103,-0.22807316,0.70748967,-0.32281822,-0.768202,-0.5528599,0.6695875,-0.59820426,0.44023204,,0.9829571629641698,0.32953673447603404,0.17108694678000003,0.6871539447987863,0.32847414543611886,1.2414111198311117,-0.4070534128066239,,-0.8914813920689805,-0.20746349593316724,0.13646304088000002,4.537690377005107,0.6565383813729414,-0.271132302906586,0.8753608504136026,,-0.03807872095538629,-0.09291914771461311,0.09128653716,-0.07097759633537142,,-6.247312e-05,-6.4373016e-06,1.13248825e-05,1.0,3.490597e-05,2.8811395e-05,-3.4909695e-05,1.0,3.3080578e-06,-2.8811395e-05,-3.2186508e-06,0.99999994,712,2.184,1,1,0.786,False,-0.2570778828531757,1.0497563883626244
2.202796643949114,12:07:01.157175,12:06:00.810057,0,,0.12656423,0.008289263,0.02264537,-0.85845447,-0.4566604,-0.23348886,-0.0984948,-0.2999856,0.9488454,-0.5033434,0.8375378,0.2125453,,-0.030281112,-0.059639256,0.06005323,0.74526685,0.2613866,-0.61339563,0.33467683,-0.94231915,0.005076587,-0.5766875,-0.20907277,-0.7897594,,0.095771074,1.337966,0.4483834,0.99480575,-0.009745243,-0.10132369,-0.071825676,-0.7725414,-0.63088894,-0.07212858,0.6348896,-0.7692286,,-0.0879462,0.24823229,-0.09167407,0.89404064,0.36028773,0.2662407,-0.38735387,0.3231495,0.8634416,0.22505186,-0.87508124,0.42846763,,0.07532297,0.40253684,-0.42869127,-0.66890377,-0.22807209,0.7074962,-0.32281876,-0.7682069,-0.55285275,0.66959375,-0.59819835,0.44023055,,0.9840383455665612,0.32948267534591447,0.17102472486,0.675830687850622,0.3445972524084408,1.2402705819955968,-0.40656338060822117,,-0.8914736693361063,-0.20745577320029301,0.13646304088000002,4.537690377005107,0.6565383813729414,-0.271132302906586,0.8753608504136026,,-0.03807872095538629,-0.09291914771461311,0.09128653716,-0.07097759633537142,,-6.247312e-05,-6.4373016e-06,1.13248825e-05,1.0,3.490597e-05,2.8811395e-05,-3.4909695e-05,1.0,3.3080578e-06,-2.8811395e-05,-3.2186508e-06,0.99999994,725,2.225,1,1,0.827,False,-0.257435349164302,1.049804668563404
2.2334870839258656,12:07:01.202568,12:06:00.810057,0,,0.12644595,0.008404575,0.022876501,-0.8478309,-0.47439238,-0.23692703,-0.095792875,-0.30243388,0.9483446,-0.5215422,0.8267317,0.21096945,,-0.03028205,-0.059639495,0.06005323,0.745262,0.26138654,-0.61340135,0.33467686,-0.94231915,0.005074024,-0.5766936,-0.20907289,-0.78975505,,0.095771074,1.337966,0.4483834,0.99480575,-0.009745243,-0.10132369,-0.071825676,-0.7725414,-0.63088894,-0.07212858,0.6348896,-0.7692286,,-0.087843254,0.24847199,-0.0917866,0.8852997,0.3787689,0.26977503,-0.39728957,0.3145681,0.86209506,0.24167217,-0.8703913,0.42896795,,0.0753239,0.40253678,-0.42869154,-0.6688983,-0.22807203,0.7075014,-0.32282302,-0.76820695,-0.55285025,0.66959715,-0.5981983,0.44022542,,0.985853187792004,0.3293668343528011,0.17094176230000002,0.6636686711285196,0.3642729083746642,1.2354980700027096,-0.40787013313729514,,-0.8914659466032321,-0.20745577320029301,0.13646304088000002,4.537690377005107,0.6565383813729414,-0.271132302906586,0.8753608504136026,,-0.03807872095538629,-0.09291914771461311,0.09128653716,-0.07097759633537142,,-6.247312e-05,-6.4373016e-06,1.13248825e-05,1.0,3.490597e-05,2.8811395e-05,-3.4909695e-05,1.0,3.3080578e-06,-2.8811395e-05,-3.2186508e-06,0.99999994,734,2.254,1,1,0.856,False,-0.25815028178655464,1.0497563883626244
2.278903824975714,12:07:01.224299,12:06:00.810057,0,,0.12635039,0.008470461,0.022986487,-0.8424459,-0.48172677,-0.24129657,-0.096824765,-0.3052008,0.9473529,-0.5300091,0.8214569,0.2104721,,-0.030282974,-0.059639793,0.06005323,0.7452574,0.26138648,-0.613407,0.3346769,-0.9423192,0.0050715506,-0.57669973,-0.20907295,-0.78975046,,0.095771074,1.337966,0.4483834,0.99480575,-0.009745243,-0.10132369,-0.071825676,-0.7725414,-0.63088894,-0.07212858,0.6348896,-0.7692286,,-0.087754615,0.24859507,-0.09183719,0.8806639,0.38638785,0.27410877,-0.40366018,0.3091619,0.8610908,0.24797104,-0.8689783,0.4282371,,0.075324826,0.40253672,-0.4286918,-0.66889286,-0.22807197,0.70750654,-0.3228273,-0.768207,-0.5528477,0.66960055,-0.5981983,0.4402203,,0.9868803112642759,0.3292664388254362,0.1709028736,0.6557004532761077,0.3723344618608252,1.234070174313476,-0.4070534128066239,,-0.8914582238703578,-0.20745577320029301,0.13646304088000002,4.537690377005107,0.6565383813729414,-0.271132302906586,0.8753608504136026,,-0.03807872095538629,-0.09291914771461311,0.09128653716,-0.07097759633537142,,-6.247312e-05,-6.4373016e-06,1.13248825e-05,1.0,3.490597e-05,2.8811395e-05,-3.4909695e-05,1.0,3.3080578e-06,-2.8811395e-05,-3.2186508e-06,0.99999994,743,2.283,1,1,0.885,False,-0.25820985950507547,1.0496115477602863
2.3006354479584843,12:07:01.252307,12:06:00.810057,0,,0.12621576,0.008562416,0.023153782,-0.8343486,-0.49444586,-0.24369141,-0.09483346,-0.30673867,0.94705755,-0.5430183,0.8132862,0.209037,,-0.030282974,-0.059639793,0.06005323,0.7452574,0.26138648,-0.613407,0.3346769,-0.9423192,0.0050715506,-0.57669973,-0.20907295,-0.78975046,,0.095771074,1.337966,0.4483834,0.99480575,-0.009745243,-0.10132369,-0.071825676,-0.7725414,-0.63088894,-0.07212858,0.6348896,-0.7692286,,-0.08763091,0.24877585,-0.09191836,0.8739186,0.39969516,0.27660456,-0.41072544,0.30290014,0.8599745,0.25994408,-0.86515623,0.42887503,,0.075324826,0.40253672,-0.4286918,-0.66889286,-0.22807197,0.70750654,-0.3228273,-0.768207,-0.5528477,0.66960055,-0.5981983,0.4402203,,0.9884711942363661,0.3290502023049579,0.17084842942,0.6464740957627886,0.3868179308359619,1.2299376780948688,-0.4070534128066239,,-0.8914582238703578,-0.20745577320029301,0.13646304088000002,4.537690377005107,0.6565383813729414,-0.271132302906586,0.8753608504136026,,-0.03807872095538629,-0.09291914771461311,0.09128653716,-0.07097759633537142,,-6.247312e-05,-6.4373016e-06,1.13248825e-05,1.0,3.490597e-05,2.8811395e-05,-3.4909695e-05,1.0,3.3080578e-06,-2.8811395e-05,-3.2186508e-06,0.99999994,756,2.324,1,1,0.926,False,-0.25773323775690704,1.0496115477602863
2.328630812931806,12:07:01.303007,12:06:00.944520,0,,0.12587267,0.008712009,0.023413837,-0.82075965,-0.51130646,-0.2547924,-0.096360505,-0.31570655,0.9439512,-0.563088,0.7993089,0.20984936,,-0.030240878,-0.059624393,0.060064375,0.7452188,0.2614322,-0.61343443,0.3347044,-0.9423097,0.005017489,-0.5767336,-0.20905837,-0.78972965,,0.09574352,1.3379664,0.44839647,0.99480814,-0.009719626,-0.101302765,-0.07179269,-0.7725417,-0.6308923,-0.07212858,0.6348896,-0.7692286,,-0.087281235,0.24905393,-0.09204818,0.8621671,0.41724327,0.28736022,-0.42511976,0.2873004,0.8583307,0.27557403,-0.8621871,0.42507932,,0.07530871,0.40254533,-0.42867336,-0.6688564,-0.22808701,0.70753616,-0.3228517,-0.7681989,-0.5528447,0.6696252,-0.59820294,0.4401765,,0.9912977144683323,0.32837060181202615,0.17075250396000002,0.6273923109056968,0.40717676930101254,1.2285286561102462,-0.40738010093889243,,-0.8914427784046094,-0.20746349593316724,0.13646304088000002,4.537690377005107,0.6565383813729414,-0.271132302906586,0.8753608504136026,,-0.03807872095538629,-0.09291914771461311,0.09128653716,-0.07097759633537142,,-9.0863556e-05,1.7881393e-06,3.8146973e-06,1.0,6.0413033e-05,4.9859285e-05,-6.0413033e-05,0.99999994,5.6624413e-06,-4.9866736e-05,-5.632639e-06,0.9999999,765,2.352,1,1,0.954,False,-0.25695872741613357,1.0499012289649627
2.379344847984612,12:07:01.325269,12:06:00.944520,0,,0.1257643,0.008748159,0.023497537,-0.815045,-0.5194447,-0.25666863,-0.09526992,-0.31681266,0.94369125,-0.5715112,0.79360354,0.20872909,,-0.03024672,-0.05962581,0.060064375,0.7452608,0.26118413,-0.6134891,0.33454898,-0.9423638,0.005209148,-0.5767695,-0.20912448,-0.78968585,,0.09574352,1.3379664,0.44839647,0.99480814,-0.009719626,-0.101302765,-0.07179269,-0.7725417,-0.6308923,-0.07212858,0.6348896,-0.7692286,,-0.087179124,0.24913755,-0.092099525,0.85731936,0.42579475,0.28931358,-0.4298536,0.2828913,0.85743713,0.28324792,-0.85945994,0.42555758,,0.075314514,0.40254506,-0.42867488,-0.6688927,-0.22783232,0.70758396,-0.32297942,-0.76825845,-0.5526873,0.66952735,-0.5982235,0.44029728,,0.9923171152077299,0.3279690197025665,0.17072787445,0.6208919226576766,0.4167413242845934,1.2257118060000711,-0.40721675687275827,,-0.891396442007364,-0.20747121866604146,0.13646304088000002,4.537900066948591,0.6565383813729414,-0.2712139816467266,0.8751975063474682,,-0.03807872095538629,-0.09291914771461311,0.09128653716,-0.07097759633537142,,-9.0863556e-05,1.7881393e-06,3.8146973e-06,1.0,6.0413033e-05,4.9859285e-05,-6.0413033e-05,0.99999994,5.6624413e-06,-4.9866736e-05,-5.632639e-06,0.9999999,778,2.393,1,1,0.995,False,-0.2585077480976805,1.049418426957168
2.4015767339151353,12:07:01.367243,12:06:00.944520,0,,0.12554526,0.008798286,0.023641273,-0.8032419,-0.5342336,-0.26343268,-0.09473534,-0.3220508,0.94197047,-0.588071,0.7815864,0.20807388,,-0.030249253,-0.059628535,0.06006515,0.74525285,0.26089087,-0.61362356,0.33435053,-0.94243324,0.0053835213,-0.57689476,-0.20917752,-0.78958035,,0.09574352,1.3379664,0.44839647,0.99480814,-0.009719626,-0.101302765,-0.07179269,-0.7725417,-0.6308923,-0.07212858,0.6348896,-0.7692286,,-0.0869717,0.24927261,-0.09219893,0.84713304,0.44130364,0.29600123,-0.44039348,0.2713535,0.8558159,0.2973537,-0.8553469,0.42421976,,0.07531695,0.40254423,-0.42867768,-0.66886806,-0.22753437,0.7077031,-0.3231984,-0.76831263,-0.552484,0.6694463,-0.5982674,0.44036102,,0.9941860165632923,0.32701140082616265,0.17068509688000003,0.6064233165572444,0.43477734225363146,1.2227663812923844,-0.4080334772034293,,-0.8913809965416156,-0.20749438686466412,0.13646304088000002,4.538109756892076,0.6566750178727068,-0.2713253995504229,0.8751975063474682,,-0.03807872095538629,-0.09291914771461311,0.09128653716,-0.07097759633537142,,-9.0863556e-05,1.7881393e-06,3.8146973e-06,1.0,6.0413033e-05,4.9859285e-05,-6.0413033e-05,0.99999994,5.6624413e-06,-4.9866736e-05,-5.632639e-06,0.9999999,792,2.438,1,1,1.04,False,-0.25826943722359585,1.0496115477602863
2.4435259529855102,12:07:01.405980,12:06:00.944520,0,,0.12537709,0.008818835,0.02377522,-0.7907917,-0.5512947,-0.26593733,-0.092341706,-0.32205132,0.94220793,-0.60507965,0.7696471,0.20376796,,-0.030250162,-0.059628937,0.060065866,0.7451816,0.2607952,-0.61375064,0.33431673,-0.9424449,0.005444497,-0.5770064,-0.20924434,-0.78948104,,0.09574352,1.3379664,0.44839647,0.99480814,-0.009719626,-0.101302765,-0.07179269,-0.7725417,-0.6308923,-0.07212858,0.6348896,-0.7692286,,-0.08681562,0.24937801,-0.09230468,0.8364494,0.45935994,0.29889944,-0.4498218,0.26388735,0.8532431,0.31306994,-0.84814614,0.4273585,,0.07531778,0.40254465,-0.4286785,-0.6687832,-0.22743101,0.7078165,-0.32329926,-0.76836234,-0.5523558,0.66948235,-0.5982428,0.44033954,,0.9957073949395144,0.325992000086765,0.17064620818,0.5930031601742349,0.4543163617200895,1.2145931013771496,-0.40738010093889265,,-0.8913809965416156,-0.20749438686466412,0.13646304088000002,4.538109756892076,0.6568116543724722,-0.2714368174541194,0.8751975063474682,,-0.03807872095538629,-0.09291914771461311,0.09128653716,-0.07097759633537142,,-9.0863556e-05,1.7881393e-06,3.8146973e-06,1.0,6.0413033e-05,4.9859285e-05,-6.0413033e-05,0.99999994,5.6624413e-06,-4.9866736e-05,-5.632639e-06,0.9999999,806,2.483,1,1,1.085,False,-0.2575545046013441,1.0496115477602863
2.482317156973295,12:07:01.457737,12:06:01.096908,0,,0.12521236,0.008815944,0.02399595,-0.7716372,-0.5748637,-0.27222714,-0.08690818,-0.32868588,0.9404321,-0.63009745,0.749331,0.20366588,,-0.030253217,-0.05962876,0.060065925,0.7451662,0.26079497,-0.6137695,0.33432138,-0.94244325,0.005442649,-0.5770236,-0.209252,-0.7894664,,0.09574352,1.3379664,0.44839647,0.99480814,-0.009719626,-0.101302765,-0.07179269,-0.7725417,-0.6308923,-0.07212858,0.6348896,-0.7692286,,-0.086672254,0.24952185,-0.09249075,0.8200063,0.48427978,0.30506182,-0.4622491,0.24604683,0.85193115,0.33751357,-0.8396035,0.42561784,,0.0753208,0.40254506,-0.42867857,-0.6687657,-0.22742982,0.70783335,-0.32330835,-0.7683673,-0.55234355,0.6694954,-0.59823686,0.4403278,,0.9974218416375923,0.3246250763680273,0.17056583820000001,0.5743407552041122,0.4841031186689555,1.2099068960050645,-0.4077067890711612,,-0.8913578283429929,-0.2074866641317899,0.13646304088000002,4.538109756892076,0.6568116543724722,-0.2714368174541194,0.8751975063474682,,-0.03807872095538629,-0.09291914771461311,0.09128653716,-0.07097759633537142,,-9.0863556e-05,1.7881393e-06,3.8146973e-06,1.0,6.0413033e-05,4.9859285e-05,-6.0413033e-05,0.99999994,5.6624413e-06,-4.9866736e-05,-5.632639e-06,0.9999999,815,2.512,1,1,1.114,False,-0.25820985950507547,1.0501909101696396
2.534051817958243,12:07:01.487279,12:06:01.096908,0,,0.12503137,0.00881739,0.024118349,-0.7592363,-0.5863088,-0.28249285,-0.08938326,-0.33600825,0.9376081,-0.6446477,0.7371161,0.20270342,,-0.030255765,-0.059630472,0.060065925,0.7451532,0.26069465,-0.6138278,0.334317,-0.942444,0.0055833757,-0.57704294,-0.20937362,-0.78942,,0.09574352,1.3379664,0.44839647,0.99480814,-0.009719626,-0.101302765,-0.07179269,-0.7725417,-0.6308923,-0.07212858,0.6348896,-0.7692286,,-0.08650345,0.2496054,-0.09260149,0.8088715,0.49636474,0.3151967,-0.47378337,0.23273985,0.84933,0.34821865,-0.8363338,0.42342597,,0.07532334,0.4025443,-0.42868012,-0.6687504,-0.22731505,0.70788467,-0.3233249,-0.76845276,-0.552215,0.66950274,-0.59817076,0.44040647,,0.9986497561645941,0.3235979528957554,0.17051269031000002,0.5575655597253503,0.4985865876440922,1.207979725770252,-0.4068900687404893,,-0.8913346601443702,-0.20749438686466412,0.13646304088000002,4.538109756892076,0.6568116543724722,-0.2716001749344006,0.8748708182151996,,-0.03807872095538629,-0.09291914771461311,0.09128653716,-0.07097759633537142,,-9.0863556e-05,1.7881393e-06,3.8146973e-06,1.0,6.0413033e-05,4.9859285e-05,-6.0413033e-05,0.99999994,5.6624413e-06,-4.9866736e-05,-5.632639e-06,0.9999999,829,2.557,1,1,1.159,False,-0.25779281547542787,1.049418426957168
2.563610466895625,12:07:01.536411,12:06:01.096908,0,,0.12473655,0.008779287,0.024341807,-0.7406523,-0.6084351,-0.28502765,-0.08341169,-0.3376722,0.93756056,-0.6666907,0.718181,0.19934705,,-0.030257627,-0.059630934,0.060065866,0.7451437,0.26064438,-0.6138607,0.334317,-0.9424436,0.0056552887,-0.57705516,-0.20943815,-0.789394,,0.09574352,1.3379664,0.44839647,0.99480814,-0.009719626,-0.101302765,-0.07179269,-0.7725417,-0.6308923,-0.07212858,0.6348896,-0.7692286,,-0.086232975,0.24972641,-0.09282623,0.7927533,0.5200043,0.31802174,-0.48386094,0.21955177,0.84715736,0.37070322,-0.8254651,0.42566013,,0.0753252,0.40254417,-0.42868063,-0.6687395,-0.22725712,0.70791364,-0.32333344,-0.7684979,-0.55214715,0.6695095,-0.59813476,0.44044507,,1.0008893486981192,0.32174449700594154,0.17040898711000002,0.5399516044726502,0.5270069795953038,1.1980367577041675,-0.40787013313729514,,-0.8913192146786217,-0.20749438686466412,0.13646304088000002,4.538109756892076,0.6568116543724722,-0.2716818536745411,0.8750341622813339,,-0.03807872095538629,-0.09291914771461311,0.09128653716,-0.07097759633537142,,-9.0863556e-05,1.7881393e-06,3.8146973e-06,1.0,6.0413033e-05,4.9859285e-05,-6.0413033e-05,0.99999994,5.6624413e-06,-4.9866736e-05,-5.632639e-06,0.9999999,852,2.631,0,1,1.227,False,-0.2570183051346544,1.0497563883626244
