AlexandreBanks6/ExpertPlaybackApp/resources/Motions/P_08/PC1/Data_PC1_7.csv
Task Time,PC1 Time,PC2 Time,Gaze Calib,s_T_psm1,Tx,Ty,Tz,R00,R01,R02,R10,R11,R12,R20,R21,R22,s_T_psm3,Tx,Ty,Tz,R00,R01,R02,R10,R11,R12,R20,R21,R22,cart_T_ecm,Tx,Ty,Tz,R00,R01,R02,R10,R11,R12,R20,R21,R22,ecm_T_psm1,Tx,Ty,Tz,R00,R01,R02,R10,R11,R12,R20,R21,R22,ecm_T_psm3,Tx,Ty,Tz,R00,R01,R02,R10,R11,R12,R20,R21,R22,psm1_joints,q1,q2,q3,q4,q5,q6,jaw,psm3_joints,q1,q2,q3,q4,q5,q6,jaw,ecm_joints,q1,q2,q3,q4,ecmi_T_ecm,Tx,Ty,Tz,R00,R01,R02,R10,R11,R12,R20,R21,R22,Sample #,Task Duration (s),Collisions (binary),Collisions (increments),Cumulative Collision Time (s),Clutch Press,MTMR Angle,MTML Angle
""
lci_T_si,,,,,-0.06109692,0.03167272,0.2299341,0.9947057,-0.03862675,0.09522884,0.030706912,-0.772613,-0.63413423,0.098069586,0.63370115,-0.7673364
rci_T_si,,,,,-0.07092086,0.035947774,0.24085279,0.99028605,-0.05390731,0.12817007,0.04142117,-0.7655644,-0.64202446,0.13273226,0.64109683,-0.75589484
ecm_T_lc,,,,,-4.4061628e-05,-0.00034663224,-0.01840835,-0.99912,0.030754527,0.028518902,-0.031987965,-0.99852574,-0.043852776,0.027128186,-0.04472645,0.9986309
ecm_T_rc,,,,,-0.0043358393,0.01870579,-0.007592615,-0.99555075,-0.052743673,-0.078081585,0.04863213,-0.9973746,0.053654674,-0.08070653,0.04961868,0.9955021
cart_T_ecmi,,,,,0.09583431,1.3379636,0.44839177,0.99480253,-0.009780299,-0.10135232,-0.07187082,-0.7725409,-0.63088435,-0.07212858,0.6348896,-0.7692286
ecmac_T_ecmrep_psm1,,,,,0.006309411,-0.25313872,-0.31568977,0.99868697,0.047558498,0.019040095,-0.047043137,0.9985371,-0.026657216,-0.020280018,0.025726508,0.99946326
ecmac_T_ecmrep_psm3,,,,,-0.020520164,-0.44355312,-0.56256753,0.99888426,-0.027940953,0.03807337,0.020709034,0.9837047,0.17859514,-0.04244307,-0.17760742,0.9831857
""
0,12:07:48.905170,12:06:48.528503,0,,0.1348605,0.007942729,0.026591688,-0.5734626,-0.70885426,-0.41068998,-0.63082075,0.062230825,0.77342904,-0.5226908,0.70260435,-0.48284698,,-0.030697472,-0.059932273,0.059915483,0.7455895,0.25452077,-0.6158857,0.3347174,-0.9421854,0.01584056,-0.5762469,-0.21795812,-0.7876761,,0.09582997,1.3379637,0.44838947,0.99480164,-0.0097900145,-0.101360254,-0.07188333,-0.7725408,-0.6308831,-0.07212858,0.6348896,-0.7692286,,-0.09662615,0.25039122,-0.09398398,0.5823735,0.6438451,0.49629086,-0.80950963,0.5151859,0.28156286,-0.07439918,-0.565727,0.8212294,,0.0756987,0.40228167,-0.42886436,-0.669269,-0.22020406,0.70964015,-0.32244912,-0.77437615,-0.544397,0.6694069,-0.5931709,0.44726136,,0.9312766345698594,0.3765836231458098,0.16782159227000001,0.1239267565993539,0.03634530893760716,0.6866853886494827,-0.41064698226157814,,-0.8885081399124041,-0.2088072514532823,0.1365771144,4.537690377005107,0.6528491958792744,-0.2833162651729272,0.8753608504136025,,-0.03807872095538629,-0.09291914771461311,0.09128653716,-0.07097759633537142,,-4.157424e-06,-1.3709068e-06,2.1457672e-06,1.0,-9.674579e-06,-7.990748e-06,9.670854e-06,0.99999994,-8.6426735e-07,7.979572e-06,9.23872e-07,1.0,36,0.107,0,0,0.0,False,-0.25779281547542787,1.0496598279610654
0.12543972698040307,12:07:48.933324,12:06:48.528503,0,,0.13482288,0.008083314,0.026418924,-0.5717975,-0.70848644,-0.4136358,-0.63306975,0.060367435,0.77173734,-0.5217952,0.70313764,-0.48303926,,-0.030699424,-0.059926357,0.059915423,0.74572325,0.25412488,-0.6158872,0.33443266,-0.9422815,0.01613453,-0.5762391,-0.21800464,-0.78766894,,0.09582997,1.3379637,0.44838947,0.99480164,-0.0097900145,-0.101360254,-0.07188333,-0.7725408,-0.6308831,-0.07212858,0.6348896,-0.7692286,,-0.09656495,0.2503866,-0.09376659,0.58050877,0.6433252,0.4991415,-0.81066626,0.5141089,0.28020042,-0.076353125,-0.56729597,0.81996673,,0.075700626,0.40228546,-0.42885977,-0.6694012,-0.21980491,0.7096392,-0.32263124,-0.77443105,-0.54421103,0.6691869,-0.5932473,0.44748914,,0.9317013848779417,0.37663768227592936,0.16803677641,0.1214104772775396,0.03456903444065643,0.6880521426573956,-0.4108103263277123,,-0.8885081399124041,-0.2087763605217854,0.1365771144,4.538109756892076,0.6528491958792744,-0.2833162651729272,0.8753608504136025,,-0.03807872095538629,-0.09291914771461311,0.09128653716,-0.07097759633537142,,-4.157424e-06,-1.3709068e-06,2.1457672e-06,1.0,-9.674579e-06,-7.990748e-06,9.670854e-06,0.99999994,-8.6426735e-07,7.979572e-06,9.23872e-07,1.0,48,0.144,0,0,0.0,False,-0.2584481703791588,1.049514987358727
0.15359127195551991,12:07:48.973553,12:06:48.605272,0,,0.1347267,0.008281462,0.02616319,-0.57000554,-0.7066688,-0.41918126,-0.6366956,0.05742511,0.76897395,-0.51933825,0.7052102,-0.48266554,,-0.030705221,-0.059931006,0.059915423,0.7456938,0.25412446,-0.61592305,0.3344193,-0.9422868,0.01609981,-0.57628495,-0.217982,-0.7876417,,0.09582997,1.3379637,0.44838947,0.99480164,-0.0097900145,-0.101360254,-0.07188333,-0.7725408,-0.6308831,-0.07212858,0.6348896,-0.7692286,,-0.09643468,0.2503729,-0.09345553,0.578297,0.64116174,0.50446427,-0.81185853,0.5131865,0.2784336,-0.08036331,-0.57057095,0.8173069,,0.07570639,0.40228322,-0.42886388,-0.6693662,-0.21980734,0.7096715,-0.32267234,-0.77441657,-0.5442073,0.6692021,-0.5932653,0.4474425,,0.9325277172954838,0.3766145140773067,0.16834529343000001,0.11826512812527173,0.03087984894698954,0.6912237835374802,-0.4114637025922495,,-0.8884540807822845,-0.20879952872040808,0.1365771144,4.538109756892076,0.6528491958792744,-0.2833162651729272,0.8753608504136025,,-0.03807872095538629,-0.09291914771461311,0.09128653716,-0.07097759633537142,,-4.157424e-06,-1.3709068e-06,2.1457672e-06,1.0,-9.674579e-06,-7.990748e-06,9.670854e-06,0.99999994,-8.6426735e-07,7.979572e-06,9.23872e-07,1.0,59,0.177,0,0,0.0,False,-0.2586269035347226,1.0496115477602863
0.19379747798666358,12:07:49.005763,12:06:48.605272,0,,0.13467887,0.008479483,0.025964394,-0.5665863,-0.7075319,-0.42234877,-0.6395802,0.054446906,0.76679385,-0.5195354,0.70458066,-0.48337227,,-0.030717365,-0.05993427,0.059915423,0.74563235,0.254123,-0.61599815,0.33441973,-0.9422872,0.016067058,-0.5763643,-0.21798193,-0.7875836,,0.09582997,1.3379637,0.44838947,0.99480164,-0.0097900145,-0.101360254,-0.07188333,-0.7725408,-0.6308831,-0.07212858,0.6348896,-0.7692286,,-0.096357726,0.2503952,-0.093182415,0.5747527,0.6419092,0.5075548,-0.81423694,0.5105273,0.27636948,-0.0817165,-0.572114,0.81609315,,0.075718455,0.40228248,-0.42886737,-0.66929525,-0.21980588,0.70973885,-0.32272792,-0.7744166,-0.5441742,0.66924626,-0.5932658,0.44737586,,0.9331532586582959,0.37676896873479115,0.16861232917000002,0.1136519493686122,0.029786756948866018,0.6921151267670514,-0.4114637025922495,,-0.8883536852549195,-0.20879952872040808,0.1365771144,4.538109756892076,0.6528491958792744,-0.2833162651729272,0.8753608504136025,,-0.03807872095538629,-0.09291914771461311,0.09128653716,-0.07097759633537142,,-4.157424e-06,-1.3709068e-06,2.1457672e-06,1.0,-9.674579e-06,-7.990748e-06,9.670854e-06,0.99999994,-8.6426735e-07,7.979572e-06,9.23872e-07,1.0,67,0.201,0,0,0.0,False,-0.25826943722359585,1.0496115477602863
0.22601953602861613,12:07:49.027953,12:06:48.605272,0,,0.1346189,0.008631147,0.025842786,-0.56488764,-0.7073581,-0.4249076,-0.6414048,0.052440017,0.76540834,-0.51913553,0.7049073,-0.48332554,,-0.030726857,-0.059935834,0.05991286,0.7455838,0.25407138,-0.61607826,0.33442464,-0.94228446,0.016124576,-0.57642424,-0.21805379,-0.7875198,,0.09582997,1.3379637,0.44838947,0.99480164,-0.0097900145,-0.101360254,-0.07188333,-0.7725408,-0.6308831,-0.07212858,0.6348896,-0.7692286,,-0.09627837,0.2504326,-0.09299884,0.5729241,0.641593,0.51001614,-0.81539315,0.5092103,0.27538863,-0.08301805,-0.5736404,0.8148894,,0.07572821,0.40228048,-0.42886773,-0.6692396,-0.21974571,0.70981,-0.32276696,-0.774466,-0.5440808,0.66928315,-0.59322363,0.4473766,,0.9338019682197308,0.3769388688580241,0.16878862461000002,0.1111356700467979,0.028557028450977053,0.6931995666404598,-0.4116270466583838,,-0.8882764579261774,-0.20879180598753386,0.13657970698000002,4.538109756892076,0.6528491958792744,-0.2833979439130677,0.8751975063474682,,-0.03807872095538629,-0.09291914771461311,0.09128653716,-0.07097759633537142,,-4.157424e-06,-1.3709068e-06,2.1457672e-06,1.0,-9.674579e-06,-7.990748e-06,9.670854e-06,0.99999994,-8.6426735e-07,7.979572e-06,9.23872e-07,1.0,75,0.226,0,0,0.0,False,-0.2580907040680329,1.049370146756389
0.24821054900530726,12:07:49.048374,12:06:48.605272,0,,0.13456678,0.008754037,0.025710106,-0.5610307,-0.7087626,-0.42766815,-0.6443625,0.049592167,0.7631104,-0.5196551,0.7037016,-0.4845227,,-0.030725978,-0.059935596,0.05991423,0.7455884,0.25407153,-0.6160724,0.33442461,-0.94228446,0.01612711,-0.57641816,-0.21805382,-0.78752434,,0.09582997,1.3379637,0.44838947,0.99480164,-0.0097900145,-0.101360254,-0.07188333,-0.7725408,-0.6308831,-0.07212858,0.6348896,-0.7692286,,-0.09620746,0.2504408,-0.09282471,0.56896996,0.64293885,0.5127405,-0.81804377,0.50628513,0.27290982,-0.08412858,-0.57472163,0.8140131,,0.075727165,0.40228155,-0.42886826,-0.669245,-0.21974583,0.70980483,-0.32276267,-0.774466,-0.54408336,0.66927975,-0.5932236,0.44738176,,0.9343039458565554,0.3769388688580241,0.16895973489000002,0.10610311140316933,0.02787384595214985,0.6935932986786608,-0.4109736703938466,,-0.8882841806590516,-0.20879180598753386,0.13657841069,4.538109756892076,0.6528491958792744,-0.2833979439130677,0.8751975063474682,,-0.03807872095538629,-0.09291914771461311,0.09128653716,-0.07097759633537142,,-4.157424e-06,-1.3709068e-06,2.1457672e-06,1.0,-9.674579e-06,-7.990748e-06,9.670854e-06,0.99999994,-8.6426735e-07,7.979572e-06,9.23872e-07,1.0,82,0.247,0,0,0.0,False,-0.25773323775690704,1.0494667071579475
0.26864183600991964,12:07:49.077689,12:06:48.605272,0,,0.13450602,0.0089364275,0.025481462,-0.5593646,-0.7097071,-0.4282839,-0.6455377,0.04884842,0.7621646,-0.51999253,0.7028012,-0.48546678,,-0.030726276,-0.059934627,0.059915483,0.7455873,0.25407138,-0.6160739,0.3344291,-0.9422828,0.016132742,-0.5764171,-0.2180613,-0.78752303,,0.09582997,1.3379637,0.44838947,0.99480164,-0.0097900145,-0.101360254,-0.07188333,-0.7725408,-0.6308831,-0.07212858,0.6348896,-0.7692286,,-0.09611576,0.2504321,-0.09254055,0.567278,0.6439183,0.5133857,-0.8191842,0.50515074,0.27158794,-0.08445672,-0.57462335,0.8140486,,0.0757273,0.4022832,-0.4288683,-0.669244,-0.21974476,0.70980614,-0.32275894,-0.7744708,-0.5440787,0.66928256,-0.5932177,0.44738534,,0.9349294872193676,0.3768307505977849,0.16924232611,0.10379652202483955,0.02787384595214985,0.6926948325371146,-0.4114637025922494,,-0.8882841806590516,-0.2087840832546596,0.1365771144,4.538109756892076,0.6528491958792744,-0.2833979439130677,0.8751975063474682,,-0.03807872095538629,-0.09291914771461311,0.09128653716,-0.07097759633537142,,-4.157424e-06,-1.3709068e-06,2.1457672e-06,1.0,-9.674579e-06,-7.990748e-06,9.670854e-06,0.99999994,-8.6426735e-07,7.979572e-06,9.23872e-07,1.0,98,0.296,0,0,0.0,False,-0.2580311263495121,1.0493218665556094
0.29796024202369153,12:07:49.115351,12:06:48.747037,0,,0.13443765,0.009137474,0.025243804,-0.5564994,-0.71117485,-0.42957962,-0.6473731,0.04706803,0.76071846,-0.5207843,0.7014376,-0.48658884,,-0.0307279,-0.059936073,0.059915543,0.745579,0.2540713,-0.6160839,0.33442467,-0.94228446,0.016122013,-0.5764304,-0.21805385,-0.7875154,,0.09582997,1.3379637,0.44838947,0.99480164,-0.0097900145,-0.101360254,-0.07188333,-0.7725408,-0.6308831,-0.07212858,0.6348896,-0.7692286,,-0.096014656,0.25043187,-0.09223831,0.5643983,0.6454019,0.514695,-0.82114154,0.50293595,0.2697813,-0.084741235,-0.5749015,0.81382257,,0.07572891,0.40228248,-0.4288696,-0.6692341,-0.2197456,0.70981514,-0.32277122,-0.774466,-0.5440783,0.66928655,-0.59322363,0.44737148,,0.9356399786437962,0.37674580053616846,0.16954176910000002,0.10002210304211812,0.02801048245191529,0.6920116634524343,-0.4109736703938467,,-0.8882687351933031,-0.20879180598753386,0.1365771144,4.538109756892076,0.6528491958792744,-0.2833979439130677,0.8751975063474682,,-0.03807872095538629,-0.09291914771461311,0.09128653716,-0.07097759633537142,,-4.157424e-06,-1.3709068e-06,2.1457672e-06,1.0,-9.674579e-06,-7.990748e-06,9.670854e-06,0.99999994,-8.6426735e-07,7.979572e-06,9.23872e-07,1.0,102,0.308,0,0,0.0,False,-0.25773323775690704,1.0494667071579475
0.33560375100933015,12:07:49.136608,12:06:48.747037,0,,0.1344111,0.009221964,0.025099069,-0.55465275,-0.71128255,-0.4317841,-0.6493156,0.045484632,0.7591577,-0.52033603,0.7014329,-0.48707503,,-0.03073164,-0.059937116,0.059915543,0.74556005,0.25407085,-0.61610705,0.3344248,-0.9422847,0.01611194,-0.57645476,-0.21805382,-0.7874975,,0.09582997,1.3379637,0.44838947,0.99480164,-0.0097900145,-0.101360254,-0.07188333,-0.7725408,-0.6308831,-0.07212858,0.6348896,-0.7692286,,-0.09597021,0.2504026,-0.09207717,0.5624114,0.64541984,0.51684296,-0.82235837,0.50173056,0.26831535,-0.086139865,-0.57593375,0.8129454,,0.075732626,0.40228224,-0.42887068,-0.6692123,-0.21974516,0.7098359,-0.32278833,-0.77446604,-0.5440681,0.66930014,-0.5932238,0.44735098,,0.9358639378971487,0.37663768227592936,0.16970510164000002,0.09750582372030382,0.02691739045379177,0.6929030066820057,-0.4109736703938467,,-0.8882378442618062,-0.20879180598753386,0.1365771144,4.538109756892076,0.6528491958792744,-0.2833979439130677,0.8751975063474682,,-0.03807872095538629,-0.09291914771461311,0.09128653716,-0.07097759633537142,,-4.157424e-06,-1.3709068e-06,2.1457672e-06,1.0,-9.674579e-06,-7.990748e-06,9.670854e-06,0.99999994,-8.6426735e-07,7.979572e-06,9.23872e-07,1.0,121,0.365,0,0,0.0,False,-0.25767366003838577,1.0492253061540504
0.356821101042442,12:07:49.185652,12:06:48.747037,0,,0.13432491,0.009422533,0.024745062,-0.5520873,-0.7106961,-0.43601686,-0.652664,0.042931437,0.75643015,-0.51887304,0.70218784,-0.48754767,,-0.030745916,-0.059939947,0.059915543,0.74548787,0.254069,-0.6161952,0.33442986,-0.9422834,0.016079843,-0.57654524,-0.21806127,-0.7874292,,0.09582997,1.3379637,0.44838947,0.99480164,-0.0097900145,-0.101360254,-0.07188333,-0.7725408,-0.6308831,-0.07212858,0.6348896,-0.7692286,,-0.095840745,0.25032675,-0.09168929,0.55953753,0.6446232,0.5209402,-0.82399774,0.50026923,0.26600456,-0.08913765,-0.57809305,0.8110875,,0.07574679,0.40228197,-0.42887396,-0.6691293,-0.2197424,0.709915,-0.32284874,-0.7744709,-0.54402524,0.6693539,-0.5932184,0.44727764,,0.9365203701914578,0.3762669910979666,0.1700991738,0.09373140473758239,0.024594569957779283,0.6947971110448448,-0.4109736703938467,,-0.8881220032686928,-0.2087840832546596,0.1365771144,4.538109756892076,0.6528491958792744,-0.2833979439130677,0.8751975063474682,,-0.03807872095538629,-0.09291914771461311,0.09128653716,-0.07097759633537142,,-4.157424e-06,-1.3709068e-06,2.1457672e-06,1.0,-9.674579e-06,-7.990748e-06,9.670854e-06,0.99999994,-8.6426735e-07,7.979572e-06,9.23872e-07,1.0,125,0.378,0,0,0.0,False,-0.2580311263495121,1.049804668563404
0.40590744698420167,12:07:49.208932,12:06:48.747037,0,,0.13430047,0.009534679,0.024635613,-0.5521117,-0.7100344,-0.4370627,-0.65311,0.042446643,0.7560724,-0.51828545,0.7028864,-0.4871658,,-0.030749641,-0.05994093,0.059915543,0.74546885,0.25406855,-0.6162183,0.33442998,-0.9422835,0.0160698,-0.5765697,-0.21806127,-0.7874114,,0.09582997,1.3379637,0.44838947,0.99480164,-0.0097900145,-0.101360254,-0.07188333,-0.7725408,-0.6308831,-0.07212858,0.6348896,-0.7692286,,-0.09580007,0.2503414,-0.09153669,0.5594827,0.64387393,0.5219248,-0.8239551,0.500343,0.26599774,-0.08987243,-0.57886374,0.81045645,,0.0757505,0.40228176,-0.42887503,-0.66910744,-0.21974196,0.7099357,-0.32286584,-0.774471,-0.54401505,0.6693675,-0.5932185,0.44725713,,0.9368601704379237,0.3763828320910799,0.17024824715,0.09352171479409786,0.023774750959186637,0.6954656184670234,-0.4109736703938467,,-0.888091112337196,-0.2087840832546596,0.1365771144,4.538109756892076,0.6528491958792744,-0.2833979439130677,0.8751975063474682,,-0.03807872095538629,-0.09291914771461311,0.09128653716,-0.07097759633537142,,-4.157424e-06,-1.3709068e-06,2.1457672e-06,1.0,-9.674579e-06,-7.990748e-06,9.670854e-06,0.99999994,-8.6426735e-07,7.979572e-06,9.23872e-07,1.0,137,0.414,0,0,0.0,False,-0.25737577144578117,1.049370146756389
0.4291501010302454,12:07:49.238422,12:06:48.883096,0,,0.13425061,0.009672515,0.024556354,-0.5493643,-0.7100714,-0.44045132,-0.655782,0.03972122,0.7539047,-0.5178308,0.7030083,-0.4874735,,-0.030750565,-0.05994117,0.059915543,0.74546427,0.25406843,-0.61622405,0.33443,-0.9422835,0.016067296,-0.57657576,-0.21806133,-0.7874069,,0.09582997,1.3379637,0.44838947,0.99480164,-0.0097900145,-0.101360254,-0.07188333,-0.7725408,-0.6308831,-0.07212858,0.6348896,-0.7692286,,-0.095735446,0.2503956,-0.09139299,0.55655855,0.6437455,0.5251993,-0.82573754,0.49835008,0.26420578,-0.09165183,-0.58072275,0.80892587,,0.075751424,0.4022817,-0.4288753,-0.669102,-0.21974184,0.70994085,-0.3228701,-0.774471,-0.5440125,0.6693709,-0.5932185,0.447252,,0.9374470981363647,0.3766840186731747,0.17038306131000003,0.08974729581137643,0.021998476462235912,0.6969140512150769,-0.4109736703938467,,-0.8880833896043218,-0.2087840832546596,0.1365771144,4.538109756892076,0.6528491958792744,-0.2833979439130677,0.8751975063474682,,-0.03807872095538629,-0.09291914771461311,0.09128653716,-0.07097759633537142,,-4.157424e-06,-1.3709068e-06,2.1457672e-06,1.0,-9.674579e-06,-7.990748e-06,9.670854e-06,0.99999994,-8.6426735e-07,7.979572e-06,9.23872e-07,1.0,145,0.439,0,0,0.0,False,-0.25815028178655464,1.0499012289649627
0.4586650519631803,12:07:49.261465,12:06:48.883096,0,,0.13420811,0.009750567,0.024523288,-0.5493724,-0.7086707,-0.44269174,-0.65694064,0.03892669,0.7529367,-0.5163516,0.7044647,-0.4869398,,-0.030750819,-0.059940215,0.059915543,0.74546295,0.25406832,-0.6162256,0.33443454,-0.94228184,0.016072959,-0.5765747,-0.21806884,-0.78740555,,0.09582997,1.3379637,0.44838947,0.99480164,-0.0097900145,-0.101360254,-0.07188333,-0.7725408,-0.6308831,-0.07212858,0.6348896,-0.7692286,,-0.095685735,0.2504342,-0.09132204,0.55636543,0.6421744,0.527323,-0.8256583,0.49866802,0.26385325,-0.09351929,-0.5821874,0.8076583,,0.07575167,0.4022823,-0.42887455,-0.66910094,-0.21974076,0.7099422,-0.32286638,-0.7744758,-0.54400784,0.66937375,-0.5932126,0.44725558,,0.9378718484444472,0.3769079779265272,0.17044787581,0.08932791592440738,0.019948928965754308,0.6984219622902421,-0.4109736703938466,,-0.8880833896043218,-0.2087763605217854,0.1365771144,4.538109756892076,0.6528491958792744,-0.2833979439130677,0.8751975063474682,,-0.03807872095538629,-0.09291914771461311,0.09128653716,-0.07097759633537142,,-4.157424e-06,-1.3709068e-06,2.1457672e-06,1.0,-9.674579e-06,-7.990748e-06,9.670854e-06,0.99999994,-8.6426735e-07,7.979572e-06,9.23872e-07,1.0,153,0.464,0,0,0.0,False,-0.25785239319394915,1.0495632675595068
0.4816387790488079,12:07:49.289974,12:06:48.883096,0,,0.13416293,0.009831034,0.024518162,-0.54800755,-0.70930856,-0.44336113,-0.65800864,0.03830555,0.75203544,-0.51644194,0.7038564,-0.48772287,,-0.030757375,-0.059942003,0.059915543,0.74542975,0.2540675,-0.61626595,0.33443478,-0.9422821,0.016055346,-0.5766174,-0.2180689,-0.7873744,,0.09582997,1.3379637,0.44838947,0.99480164,-0.0097900145,-0.101360254,-0.07188333,-0.7725408,-0.6308831,-0.07212858,0.6348896,-0.7692286,,-0.0956358,0.2504928,-0.091270946,0.55495644,0.6428293,0.52800936,-0.82655185,0.49781138,0.26267067,-0.093996674,-0.58219784,0.8075954,,0.07575817,0.4022819,-0.42887646,-0.6690627,-0.21973997,0.70997846,-0.3228963,-0.7744759,-0.54399,0.66939753,-0.59321284,0.4472197,,0.9383583806155232,0.37713965991275394,0.17049065338000002,0.08744070643304665,0.019402382966692545,0.6978058102832003,-0.4108103263277123,,-0.8880293304742022,-0.2087763605217854,0.1365771144,4.538109756892076,0.6528491958792744,-0.2833979439130677,0.8751975063474682,,-0.03807872095538629,-0.09291914771461311,0.09128653716,-0.07097759633537142,,-4.157424e-06,-1.3709068e-06,2.1457672e-06,1.0,-9.674579e-06,-7.990748e-06,9.670854e-06,0.99999994,-8.6426735e-07,7.979572e-06,9.23872e-07,1.0,164,0.496,0,0,0.0,False,-0.25767366003838577,1.0495632675595068
0.5102224720176309,12:07:49.320459,12:06:48.883096,0,,0.13408723,0.009854518,0.024515346,-0.546131,-0.7081459,-0.44751567,-0.6613548,0.036597908,0.74917984,-0.51415044,0.7051168,-0.48832297,,-0.030763648,-0.059944745,0.059915543,0.7453979,0.25406685,-0.6163049,0.33443046,-0.942284,0.01603204,-0.5766611,-0.21806127,-0.78734434,,0.09582997,1.3379637,0.44838947,0.99480164,-0.0097900145,-0.101360254,-0.07188333,-0.7725408,-0.6308831,-0.07212858,0.6348896,-0.7692286,,-0.095558956,0.2505101,-0.09126168,0.5526916,0.6414613,0.53203326,-0.8276402,0.49731165,0.26017845,-0.09769191,-0.5841305,0.80575913,,0.07576442,0.4022809,-0.42887908,-0.66902554,-0.21974026,0.7100134,-0.32292995,-0.77447104,-0.54397684,0.66941845,-0.593219,0.4471802,,0.9388371900537252,0.37720916450862196,0.17049713483,0.08450504722426332,0.01584983397279109,0.6997225308976206,-0.4108103263277124,,-0.8879752713440826,-0.2087840832546596,0.1365771144,4.538109756892076,0.6528491958792744,-0.2833979439130677,0.8751975063474682,,-0.03807872095538629,-0.09291914771461311,0.09128653716,-0.07097759633537142,,-4.157424e-06,-1.3709068e-06,2.1457672e-06,1.0,-9.674579e-06,-7.990748e-06,9.670854e-06,0.99999994,-8.6426735e-07,7.979572e-06,9.23872e-07,1.0,172,0.521,0,0,0.0,False,-0.257435349164302,1.0499977893665218
0.5407087609637529,12:07:49.346712,12:06:48.883096,0,,0.13401863,0.009863578,0.02451539,-0.5454421,-0.7079446,-0.44867298,-0.66301394,0.036959857,0.74769413,-0.51274294,0.7053002,-0.4895365,,-0.030765079,-0.05994309,0.059915543,0.7453908,0.25406647,-0.6163138,0.33443958,-0.94228065,0.016040891,-0.57666516,-0.21807638,-0.7873372,,0.09582997,1.3379637,0.44838947,0.99480164,-0.0097900145,-0.101360254,-0.07188333,-0.7725408,-0.6308831,-0.07212858,0.6348896,-0.7692286,,-0.09549024,0.25051814,-0.09126313,0.55178386,0.64126474,0.5332111,-0.8279997,0.4977026,0.25828,-0.09975471,-0.5840134,0.8055913,,0.07576583,0.40228203,-0.42887786,-0.669018,-0.219738,0.71002126,-0.3229268,-0.77448076,-0.5439649,0.6694276,-0.5932072,0.44718224,,0.939246494896059,0.3771551053785024,0.17049454225000002,0.08324690756335616,0.013936922976074925,0.6992404130458565,-0.40999360599704093,,-0.8879675486112083,-0.20876863778891117,0.1365771144,4.538109756892076,0.6528491958792744,-0.2833979439130677,0.8751975063474682,,-0.03807872095538629,-0.09291914771461311,0.09128653716,-0.07097759633537142,,-4.157424e-06,-1.3709068e-06,2.1457672e-06,1.0,-9.674579e-06,-7.990748e-06,9.670854e-06,0.99999994,-8.6426735e-07,7.979572e-06,9.23872e-07,1.0,180,0.546,0,0,0.0,False,-0.25725661600873906,1.0497563883626244
0.5669846850214526,12:07:49.372617,12:06:48.883096,0,,0.13395241,0.009874813,0.024517283,-0.5455316,-0.70708674,-0.44991514,-0.66370016,0.0366835,0.7470987,-0.51175904,0.7061745,-0.4893055,,-0.030767463,-0.05994166,0.059915543,0.74537885,0.2540156,-0.61634916,0.3344487,-0.942276,0.016124249,-0.5766753,-0.21815571,-0.7873078,,0.09582997,1.3379637,0.44838947,0.99480164,-0.0097900145,-0.101360254,-0.07188333,-0.7725408,-0.6308831,-0.07212858,0.6348896,-0.7692286,,-0.09542394,0.25052902,-0.091264345,0.55174387,0.6403162,0.53439116,-0.8278814,0.49804574,0.25799778,-0.100951076,-0.58476114,0.8048995,,0.07576818,0.40228313,-0.4288769,-0.6690049,-0.21967764,0.71005225,-0.3229279,-0.7745349,-0.5438872,0.6694401,-0.5931589,0.4472276,,0.939655799738393,0.3770778780497601,0.17049194967,0.08303721761987165,0.012843830977951401,0.6998867200550061,-0.41048363819544376,,-0.8879521031454599,-0.20875319232316272,0.1365771144,4.538109756892076,0.6528491958792744,-0.28347962265320825,0.875034162281334,,-0.03807872095538629,-0.09291914771461311,0.09128653716,-0.07097759633537142,,-4.157424e-06,-1.3709068e-06,2.1457672e-06,1.0,-9.674579e-06,-7.990748e-06,9.670854e-06,0.99999994,-8.6426735e-07,7.979572e-06,9.23872e-07,1.0,188,0.57,0,0,0.0,False,-0.25737577144578117,1.0497563883626244
0.5928342490224168,12:07:49.398752,12:06:49.053019,0,,0.1339106,0.009911038,0.024534315,-0.54326427,-0.70994097,-0.4481604,-0.6634557,0.035915285,0.7473531,-0.51448065,0.7033447,-0.4905259,,-0.030769326,-0.059942167,0.059915543,0.74536926,0.2540154,-0.6163607,0.33444875,-0.942276,0.016119182,-0.5766875,-0.21815568,-0.7872989,,0.09582997,1.3379637,0.44838947,0.99480164,-0.0097900145,-0.101360254,-0.07188333,-0.7725408,-0.6308831,-0.07212858,0.6348896,-0.7692286,,-0.09538191,0.25056833,-0.09125821,0.549753,0.6433698,0.5327729,-0.8294999,0.49567193,0.25736988,-0.09849657,-0.5834249,0.8061723,,0.075770035,0.402283,-0.42887744,-0.66899395,-0.21967742,0.7100626,-0.32293645,-0.7745349,-0.54388213,0.6694469,-0.59315896,0.44721735,,0.94003421364923,0.37701609618676635,0.17049324596,0.08052093829805736,0.015576560973260212,0.6974133257606561,-0.41032029412930937,,-0.8879366576797114,-0.20875319232316272,0.1365771144,4.538109756892076,0.6528491958792744,-0.28347962265320825,0.875034162281334,,-0.03807872095538629,-0.09291914771461311,0.09128653716,-0.07097759633537142,,-4.157424e-06,-1.3709068e-06,2.1457672e-06,1.0,-9.674579e-06,-7.990748e-06,9.670854e-06,0.99999994,-8.6426735e-07,7.979572e-06,9.23872e-07,1.0,196,0.595,0,0,0.0,False,-0.25737577144578117,1.050046069567301
0.6190212309593335,12:07:49.421918,12:06:49.053019,0,,0.13386574,0.009948887,0.024547309,-0.54246837,-0.71153474,-0.44659415,-0.6627135,0.035753876,0.74801904,-0.516274,0.70174056,-0.49093902,,-0.030770235,-0.05994476,0.05991566,0.74522114,0.25441054,-0.6163769,0.33475167,-0.9421731,0.015842915,-0.5767033,-0.21813956,-0.78729177,,0.09582997,1.3379637,0.44838947,0.99480164,-0.0097900145,-0.101360254,-0.07188333,-0.7725408,-0.6308831,-0.07212858,0.6348896,-0.7692286,,-0.09533635,0.2506063,-0.09124833,0.5491681,0.6450922,0.5312913,-0.83011276,0.49453437,0.2575822,-0.09657756,-0.58248764,0.80708176,,0.07577094,0.40228155,-0.4288796,-0.66884655,-0.22007203,0.71007925,-0.32274795,-0.7744996,-0.54404426,0.669685,-0.59305876,0.4469936,,0.9404280730258154,0.3769774825223952,0.17049843112000002,0.07968217852411925,0.017626108469741816,0.6956603784650692,-0.4101569500631752,,-0.887921212213963,-0.20875319232316272,0.1365771144,4.537690377005107,0.6528491958792744,-0.28347962265320825,0.875034162281334,,-0.03807872095538629,-0.09291914771461311,0.09128653716,-0.07097759633537142,,-4.157424e-06,-1.3709068e-06,2.1457672e-06,1.0,-9.674579e-06,-7.990748e-06,9.670854e-06,0.99999994,-8.6426735e-07,7.979572e-06,9.23872e-07,1.0,207,0.627,0,0,0.0,False,-0.25719703829021734,1.0497563883626244
0.6421587660443038,12:07:49.451190,12:06:49.053019,0,,0.1337727,0.010006659,0.024538964,-0.543574,-0.71067667,-0.44661623,-0.66210043,0.036002338,0.7485498,-0.5158975,0.7025969,-0.49010924,,-0.030773975,-0.059945773,0.059915602,0.7452021,0.2544101,-0.6164,0.33475178,-0.94217324,0.015832871,-0.5767277,-0.21813953,-0.78727394,,0.09582997,1.3379637,0.44838947,0.99480164,-0.0097900145,-0.101360254,-0.07188333,-0.7725408,-0.6308831,-0.07212858,0.6348896,-0.7692286,,-0.09523982,0.25064635,-0.09121456,0.5502674,0.64417464,0.5312672,-0.8293838,0.49526498,0.25852484,-0.09658292,-0.5828822,0.8067962,,0.075774655,0.4022813,-0.42888066,-0.66882473,-0.22007157,0.7101,-0.32276505,-0.7744996,-0.54403406,0.6696986,-0.5930589,0.4469731,,0.9411231189844956,0.3769311461251499,0.17052694950000002,0.08073062824154187,0.017626108469741816,0.6956603784650692,-0.4101569500631752,,-0.8878903212824661,-0.20875319232316272,0.1365771144,4.537690377005107,0.6528491958792744,-0.28347962265320825,0.875034162281334,,-0.03807872095538629,-0.09291914771461311,0.09128653716,-0.07097759633537142,,-4.157424e-06,-1.3709068e-06,2.1457672e-06,1.0,-9.674579e-06,-7.990748e-06,9.670854e-06,0.99999994,-8.6426735e-07,7.979572e-06,9.23872e-07,1.0,215,0.652,0,0,0.0,False,-0.2566012611050077,1.0494667071579475
0.6714587479364127,12:07:49.479321,12:06:49.053019,0,,0.13370039,0.010102652,0.024497733,-0.5446814,-0.710742,-0.44516048,-0.66060656,0.036611527,0.74983907,-0.5166441,0.7024992,-0.48946244,,-0.030784942,-0.05994978,0.05991566,0.7451466,0.2544089,-0.61646765,0.3347477,-0.9421753,0.01579693,-0.57680196,-0.21813211,-0.78722167,,0.09582997,1.3379637,0.44838947,0.99480164,-0.0097900145,-0.101360254,-0.07188333,-0.7725408,-0.6308831,-0.07212858,0.6348896,-0.7692286,,-0.09515871,0.2506938,-0.09112901,0.55152136,0.64428306,0.5298335,-0.82871395,0.4956659,0.25990102,-0.09517056,-0.58242136,0.8072967,,0.07578555,0.40228003,-0.42888466,-0.66876024,-0.22007129,0.7101608,-0.32282007,-0.7744949,-0.5440082,0.6697365,-0.5930652,0.44690794,,0.9417795512788047,0.3769311461251499,0.17060602319,0.08198876790244902,0.01899247346739622,0.694546199428105,-0.4101569500631752,,-0.8877976484879754,-0.20876091505603694,0.1365771144,4.537690377005107,0.6528491958792744,-0.28347962265320825,0.875034162281334,,-0.03807872095538629,-0.09291914771461311,0.09128653716,-0.07097759633537142,,-4.157424e-06,-1.3709068e-06,2.1457672e-06,1.0,-9.674579e-06,-7.990748e-06,9.670854e-06,0.99999994,-8.6426735e-07,7.979572e-06,9.23872e-07,1.0,223,0.677,0,0,0.0,False,-0.2570183051346544,1.049418426957168
0.6995797950075939,12:07:49.503152,12:06:49.053019,0,,0.13364226,0.010190763,0.024473608,-0.54199034,-0.71333855,-0.4442911,-0.66082203,0.03513798,0.7497196,-0.51919234,0.699938,-0.49043426,,-0.030793838,-0.059950154,0.05991566,0.74510145,0.25440755,-0.6165228,0.33475703,-0.94217217,0.015785664,-0.5768547,-0.21814716,-0.78717875,,0.09582997,1.3379637,0.44838947,0.99480164,-0.0097900145,-0.101360254,-0.07188333,-0.7725408,-0.6308831,-0.07212858,0.6348896,-0.7692286,,-0.09509373,0.2507461,-0.09105998,0.54906726,0.6470159,0.52905154,-0.8305767,0.49292585,0.25916487,-0.09309938,-0.58171684,0.8080458,,0.075794384,0.40228072,-0.42888558,-0.6687089,-0.22006811,0.7102101,-0.3228511,-0.7745046,-0.5439759,0.66977274,-0.59305364,0.44686893,,0.9423510335114973,0.3769388688580241,0.17066824511,0.07884341875018115,0.02131529396340871,0.6926520950652658,-0.4101569500631752,,-0.8877281438921074,-0.2087454695902885,0.1365771144,4.537690377005107,0.6528491958792744,-0.28347962265320825,0.875034162281334,,-0.03807872095538629,-0.09291914771461311,0.09128653716,-0.07097759633537142,,-4.157424e-06,-1.3709068e-06,2.1457672e-06,1.0,-9.674579e-06,-7.990748e-06,9.670854e-06,0.99999994,-8.6426735e-07,7.979572e-06,9.23872e-07,1.0,231,0.701,0,0,0.0,False,-0.25695872741613357,1.049418426957168
0.7234168639406562,12:07:49.529905,12:06:49.053019,0,,0.13352694,0.010274909,0.024434105,-0.5419508,-0.7134828,-0.44410753,-0.6605766,0.034961164,0.7499442,-0.5195457,0.69979984,-0.49025723,,-0.030765623,-0.0599425,0.059934914,0.74509776,0.25442728,-0.61651903,0.33474866,-0.9421759,0.015741944,-0.57686436,-0.21810827,-0.7871825,,0.095789075,1.3379649,0.44838825,0.99480355,-0.009769354,-0.10134338,-0.07185672,-0.7725411,-0.6308858,-0.07212858,0.6348896,-0.7692286,,-0.09493364,0.25078595,-0.09099342,0.549093,0.6471617,0.52884644,-0.8306086,0.4927185,0.2594568,-0.092661895,-0.5817303,0.8080864,,0.07580363,0.40230134,-0.4288915,-0.66870874,-0.22006653,0.71021074,-0.3228784,-0.7744818,-0.5439922,0.66975975,-0.59308404,0.446848,,0.9427448928880828,0.37694659159089833,0.17072009671000002,0.07863372880669664,0.021725203462705032,0.6923178413541766,-0.4101569500631752,,-0.8876972529606105,-0.2087454695902885,0.1365771144,4.537690377005107,0.6528491958792744,-0.28347962265320825,0.875034162281334,,-0.03807872095538629,-0.09291914771461311,0.09128653716,-0.07097759633537142,,-4.4845045e-05,-2.7418137e-06,6.4373016e-06,1.0,1.0896474e-05,8.9891255e-06,-1.0900199e-05,1.0,1.0430813e-06,-9.000301e-06,-9.834766e-07,1.0,239,0.726,1,1,0.006,False,-0.2566608388235285,1.049418426957168
0.7501762959873304,12:07:49.560547,12:06:49.212726,0,,0.13348947,0.0103437975,0.024398282,-0.5421544,-0.7137619,-0.44341004,-0.6599393,0.035038233,0.7505016,-0.52014303,0.6995113,-0.49003565,,-0.030767635,-0.059942037,0.05993229,0.745087,0.2544269,-0.61653215,0.33475327,-0.94217426,0.0157426,-0.57687545,-0.21811575,-0.7871722,,0.095789075,1.3379649,0.44838825,0.99480355,-0.009769354,-0.10134338,-0.07185672,-0.7725411,-0.6308858,-0.07212858,0.6348896,-0.7692286,,-0.094889216,0.25081572,-0.09092578,0.5493861,0.64747006,0.5281642,-0.8305083,0.49259442,0.26001292,-0.09182016,-0.58149225,0.8083538,,0.075805955,0.4022998,-0.4288897,-0.66869676,-0.22006522,0.7102225,-0.32288322,-0.7744866,-0.54398245,0.6697694,-0.5930782,0.44684133,,0.9431233067989198,0.3769774825223952,0.17078361492000002,0.07884341875018115,0.022545022461297675,0.691649333931998,-0.4101569500631752,,-0.887681807494862,-0.20873774685741428,0.13657970698000002,4.537690377005107,0.6528491958792744,-0.28347962265320825,0.875034162281334,,-0.03807872095538629,-0.09291914771461311,0.09128653716,-0.07097759633537142,,-4.4845045e-05,-2.7418137e-06,6.4373016e-06,1.0,1.0896474e-05,8.9891255e-06,-1.0900199e-05,1.0,1.0430813e-06,-9.000301e-06,-9.834766e-07,1.0,251,0.763,1,1,0.043,False,-0.25683957197909146,1.0499012289649627
0.7808176659746096,12:07:49.581070,12:06:49.212726,0,,0.13349141,0.010384016,0.024401858,-0.538265,-0.71708,-0.44279438,-0.6608853,0.033111513,0.74975616,-0.5229735,0.6962037,-0.49173042,,-0.030767381,-0.05994299,0.05993229,0.74508834,0.25442702,-0.6165306,0.33474874,-0.942176,0.015736938,-0.5768765,-0.21810818,-0.7871735,,0.095789075,1.3379649,0.44838825,0.99480355,-0.009769354,-0.10134338,-0.07185672,-0.7725411,-0.6308858,-0.07212858,0.6348896,-0.7692286,,-0.0948892,0.2508486,-0.09090226,0.54572535,0.6509632,0.5276654,-0.83312976,0.48903728,0.25833565,-0.089881025,-0.58059406,0.80921686,,0.07580571,0.4022992,-0.42889044,-0.66869783,-0.2200663,0.7102211,-0.32288694,-0.7744818,-0.5439871,0.66976655,-0.59308416,0.44683775,,0.9432391477920332,0.37704698711826323,0.17080305927000003,0.07443992993700614,0.024731206457544723,0.6897849687327147,-0.4103202941293095,,-0.887681807494862,-0.2087454695902885,0.13657970698000002,4.537690377005107,0.6528491958792744,-0.28347962265320825,0.875034162281334,,-0.03807872095538629,-0.09291914771461311,0.09128653716,-0.07097759633537142,,-4.4845045e-05,-2.7418137e-06,6.4373016e-06,1.0,1.0896474e-05,8.9891255e-06,-1.0900199e-05,1.0,1.0430813e-06,-9.000301e-06,-9.834766e-07,1.0,255,0.775,1,1,0.055,False,-0.25642252794944387,1.0494667071579475
0.8013414869783446,12:07:49.603805,12:06:49.212726,0,,0.13349949,0.010412835,0.024418473,-0.5392979,-0.71669006,-0.4421685,-0.66005915,0.03368193,0.7504582,-0.52295274,0.6965778,-0.49122244,,-0.03076832,-0.059943244,0.05993229,0.7450836,0.2544269,-0.6165364,0.33474874,-0.942176,0.015734404,-0.5768826,-0.21810818,-0.7871691,,0.095789075,1.3379649,0.44838825,0.99480355,-0.009769354,-0.10134338,-0.07185672,-0.7725411,-0.6308858,-0.07212858,0.6348896,-0.7692286,,-0.09489712,0.25088117,-0.09089532,0.54679704,0.65057343,0.52703625,-0.8324709,0.4897074,0.25918892,-0.08947213,-0.58046603,0.809354,,0.07580663,0.40229914,-0.4288907,-0.66869235,-0.22006619,0.7102263,-0.3228912,-0.7744818,-0.5439846,0.66976994,-0.59308416,0.44683263,,0.943300929655027,0.3772477781729931,0.17080435556,0.0756980695979133,0.024867842957310163,0.6896735508290183,-0.4103202941293095,,-0.8876740847619878,-0.2087454695902885,0.13657970698000002,4.537690377005107,0.6528491958792744,-0.28347962265320825,0.875034162281334,,-0.03807872095538629,-0.09291914771461311,0.09128653716,-0.07097759633537142,,-4.4845045e-05,-2.7418137e-06,6.4373016e-06,1.0,1.0896474e-05,8.9891255e-06,-1.0900199e-05,1.0,1.0430813e-06,-9.000301e-06,-9.834766e-07,1.0,267,0.812,1,1,0.092,False,-0.25731619372725945,1.049418426957168
0.8240523389540613,12:07:49.634134,12:06:49.212726,0,,0.13351147,0.010431491,0.024438292,-0.5375305,-0.7175878,-0.44286415,-0.661013,0.032486856,0.749671,-0.52356744,0.69570976,-0.4917975,,-0.0307692,-0.059943527,0.05993104,0.74507886,0.2544268,-0.61654216,0.3347488,-0.9421761,0.0157319,-0.5768888,-0.21810827,-0.7871647,,0.095789075,1.3379649,0.44838825,0.99480355,-0.009769354,-0.10134338,-0.07185672,-0.7725411,-0.6308858,-0.07212858,0.6348896,-0.7692286,,-0.09490979,0.25090802,-0.09089693,0.5450423,0.651478,0.52773607,-0.8336246,0.48825005,0.25822848,-0.089436956,-0.5806792,0.809205,,0.075807676,0.40229806,-0.4288902,-0.66868687,-0.22006607,0.7102315,-0.3228955,-0.77448183,-0.543982,0.66977334,-0.5930842,0.4468275,,0.9433086523879012,0.377417678296226,0.17080046669,0.07360117016306805,0.024867842957310163,0.6896735508290183,-0.4103202941293095,,-0.8876663620291136,-0.2087454695902885,0.13658100327,4.537690377005107,0.6528491958792744,-0.28347962265320825,0.875034162281334,,-0.03807872095538629,-0.09291914771461311,0.09128653716,-0.07097759633537142,,-4.4845045e-05,-2.7418137e-06,6.4373016e-06,1.0,1.0896474e-05,8.9891255e-06,-1.0900199e-05,1.0,1.0430813e-06,-9.000301e-06,-9.834766e-07,1.0,280,0.853,1,1,0.133,False,-0.25815028178655464,1.0496115477602863
0.8543829789850861,12:07:49.674706,12:06:49.212726,0,,0.13356209,0.010498725,0.024562553,-0.52800035,-0.7251169,-0.44206458,-0.66348493,0.02729541,0.7476915,-0.5300973,0.6880845,-0.49551612,,-0.030770093,-0.059943736,0.05992973,0.7450741,0.2544267,-0.61654794,0.3347488,-0.9421761,0.015729368,-0.5768948,-0.21810827,-0.78716016,,0.095789075,1.3379649,0.44838825,0.99480355,-0.009769354,-0.10134338,-0.07185672,-0.7725411,-0.6308858,-0.07212858,0.6348896,-0.7692286,,-0.094967715,0.25103894,-0.09094188,0.5360265,0.6593689,0.5271701,-0.8399018,0.4794773,0.25429597,-0.08509124,-0.5790805,0.81081766,,0.07580872,0.402297,-0.42888966,-0.66868144,-0.22006597,0.71023667,-0.32289976,-0.77448183,-0.54397947,0.66977674,-0.5930842,0.44682238,,0.943370434250895,0.37799688326179287,0.17073954106000003,0.06290698304535731,0.0293768474495697,0.686078438747177,-0.4101569500631752,,-0.8876586392962393,-0.2087454695902885,0.13658229956,4.537690377005107,0.6528491958792744,-0.28347962265320825,0.875034162281334,,-0.03807872095538629,-0.09291914771461311,0.09128653716,-0.07097759633537142,,-4.4845045e-05,-2.7418137e-06,6.4373016e-06,1.0,1.0896474e-05,8.9891255e-06,-1.0900199e-05,1.0,1.0430813e-06,-9.000301e-06,-9.834766e-07,1.0,288,0.877,1,1,0.157,False,-0.25731619372725945,1.0491287457524916
0.89491936203558,12:07:49.704224,12:06:49.348431,0,,0.13356163,0.010508813,0.024622187,-0.5277431,-0.72576225,-0.44131207,-0.66300654,0.027203172,0.7481192,-0.5309515,0.6874074,-0.49554142,,-0.03077127,-0.05994305,0.05992973,0.7450681,0.25442645,-0.6165552,0.3347534,-0.94217443,0.015732557,-0.5768999,-0.2181158,-0.78715444,,0.095789075,1.3379649,0.44838825,0.99480355,-0.009769354,-0.10134338,-0.07185672,-0.7725411,-0.6308858,-0.07212858,0.6348896,-0.7692286,,-0.09497215,0.25108534,-0.09098043,0.53587604,0.6600673,0.5264485,-0.8400967,0.47897834,0.25459227,-0.08410939,-0.57869756,0.8111934,,0.07580989,0.40229756,-0.4288892,-0.6686749,-0.22006477,0.71024317,-0.32290033,-0.77448666,-0.54397225,0.669783,-0.5930783,0.44682083,,0.9434785525111341,0.37818222885077424,0.1706954672,0.06269729310187278,0.030196666448162338,0.6854099313249984,-0.4101569500631752,,-0.8876509165633651,-0.20873774685741428,0.13658229956,4.537690377005107,0.6528491958792744,-0.28347962265320825,0.875034162281334,,-0.03807872095538629,-0.09291914771461311,0.09128653716,-0.07097759633537142,,-4.4845045e-05,-2.7418137e-06,6.4373016e-06,1.0,1.0896474e-05,8.9891255e-06,-1.0900199e-05,1.0,1.0430813e-06,-9.000301e-06,-9.834766e-07,1.0,301,0.918,1,1,0.198,False,-0.25719703829021734,1.0498529487641832
0.9244727740297094,12:07:49.741555,12:06:49.348431,0,,0.13353601,0.010555334,0.024851575,-0.52590895,-0.7283299,-0.43926683,-0.6607846,0.02469784,0.7501691,-0.53552157,0.68478125,-0.49425796,,-0.03077133,-0.05994305,0.05993104,0.7450681,0.25442645,-0.6165552,0.3347534,-0.94217443,0.015732557,-0.5768999,-0.2181158,-0.78715444,,0.095789075,1.3379649,0.44838825,0.99480355,-0.009769354,-0.10134338,-0.07185672,-0.7725411,-0.6308858,-0.07212858,0.6348896,-0.7692286,,-0.09496508,0.25127006,-0.0911263,0.53459704,0.6627192,0.52441335,-0.84140414,0.475411,0.25695032,-0.079025954,-0.5786084,0.81176794,,0.07580978,0.40229857,-0.42889,-0.6686749,-0.22006477,0.71024317,-0.32290033,-0.77448666,-0.54397225,0.669783,-0.5930783,0.44682083,,0.944057757476701,0.37877687928208953,0.17052824579,0.061019773553996584,0.03484230744018732,0.684235442283818,-0.41048363819544376,,-0.8876509165633651,-0.20873774685741428,0.13658100327,4.537690377005107,0.6528491958792744,-0.28347962265320825,0.875034162281334,,-0.03807872095538629,-0.09291914771461311,0.09128653716,-0.07097759633537142,,-4.4845045e-05,-2.7418137e-06,6.4373016e-06,1.0,1.0896474e-05,8.9891255e-06,-1.0900199e-05,1.0,1.0430813e-06,-9.000301e-06,-9.834766e-07,1.0,309,0.943,1,1,0.223,False,-0.25725661600873906,1.0496598279610654
0.9617842070292681,12:07:49.765403,12:06:49.348431,0,,0.13350885,0.010574065,0.024952844,-0.52528787,-0.72866297,-0.4394574,-0.6600512,0.02297616,0.7508692,-0.53703344,0.68448675,-0.49302396,,-0.030772954,-0.059944496,0.0599311,0.7450599,0.25442636,-0.6165653,0.33474892,-0.9421762,0.015721798,-0.5769131,-0.21810827,-0.7871467,,0.095789075,1.3379649,0.44838825,0.99480355,-0.009769354,-0.10134338,-0.07185672,-0.7725411,-0.6308858,-0.07212858,0.6348896,-0.7692286,,-0.0949463,0.2513505,-0.091193534,0.53415966,0.6629801,0.5245292,-0.8418381,0.47391608,0.25828695,-0.077343725,-0.5795352,0.81126875,,0.075811386,0.40229785,-0.42889127,-0.66866505,-0.22006562,0.7102522,-0.32291257,-0.77448183,-0.54397184,0.66978693,-0.59308434,0.44680697,,0.9443975577231668,0.3790162840011905,0.17045176468,0.060390703723543014,0.03634530893760716,0.6848884563663904,-0.4109736703938466,,-0.8876354710976166,-0.2087454695902885,0.13658100327,4.537690377005107,0.6528491958792744,-0.28347962265320825,0.875034162281334,,-0.03807872095538629,-0.09291914771461311,0.09128653716,-0.07097759633537142,,-4.4845045e-05,-2.7418137e-06,6.4373016e-06,1.0,1.0896474e-05,8.9891255e-06,-1.0900199e-05,1.0,1.0430813e-06,-9.000301e-06,-9.834766e-07,1.0,322,0.984,1,1,0.264,False,-0.25773323775690704,1.0491770259532711
0.9856678650248796,12:07:49.805326,12:06:49.348431,0,,0.13345605,0.010657586,0.025138125,-0.52333635,-0.7330152,-0.43452,-0.65599215,0.021106154,0.75447255,-0.5438688,0.67988455,-0.49189785,,-0.030772895,-0.059944496,0.059929788,0.7450599,0.25442636,-0.6165653,0.33474892,-0.9421762,0.015721798,-0.5769131,-0.21810827,-0.7871467,,0.095789075,1.3379649,0.44838825,0.99480355,-0.009769354,-0.10134338,-0.07185672,-0.7725411,-0.6308858,-0.07212858,0.6348896,-0.7692286,,-0.09490608,0.25153518,-0.09128503,0.53307545,0.66762316,0.519721,-0.84322083,0.4695788,0.2616762,-0.06934885,-0.5777327,0.8132747,,0.0758115,0.40229684,-0.42889047,-0.66866505,-0.22006562,0.7102522,-0.32291257,-0.77448183,-0.54397184,0.66978693,-0.59308434,0.44680697,,0.9452007219420862,0.379379252446279,0.17034028374000001,0.05892287411915135,0.044133589424237264,0.6813147130204734,-0.4106469822615779,,-0.8876354710976166,-0.2087454695902885,0.13658229956,4.537690377005107,0.6528491958792744,-0.28347962265320825,0.875034162281334,,-0.03807872095538629,-0.09291914771461311,0.09128653716,-0.07097759633537142,,-4.4845045e-05,-2.7418137e-06,6.4373016e-06,1.0,1.0896474e-05,8.9891255e-06,-1.0900199e-05,1.0,1.0430813e-06,-9.000301e-06,-9.834766e-07,1.0,335,1.025,1,1,0.305,False,-0.25731619372725945,1.0496115477602863
1.0255742489825934,12:07:49.852313,12:06:49.348431,0,,0.133384,0.010703526,0.025362402,-0.51863205,-0.7356168,-0.43576196,-0.65209246,0.010685593,0.75806415,-0.5529883,0.67731345,-0.48523206,,-0.030772269,-0.05994329,0.05993104,0.7450634,0.25442633,-0.616561,0.33475345,-0.94217443,0.015729994,-0.57690597,-0.2181158,-0.7871499,,0.095789075,1.3379649,0.44838825,0.99480355,-0.009769354,-0.10134338,-0.07185672,-0.7725411,-0.6308858,-0.07212858,0.6348896,-0.7692286,,-0.0948524,0.25171688,-0.09143234,0.5294549,0.6698564,0.5205477,-0.8462532,0.46002835,0.26875526,-0.059439264,-0.582809,0.81043243,,0.0758107,0.4022985,-0.42889026,-0.66866946,-0.22006465,0.71024835,-0.3229046,-0.77448666,-0.5439697,0.6697864,-0.5930784,0.44681567,,0.9460502225582509,0.37951826163801505,0.17017565491000003,0.05451938530597633,0.054244690406879854,0.6858116716088659,-0.4119537347906522,,-0.887643193830491,-0.20873774685741428,0.13658100327,4.537690377005107,0.6528491958792744,-0.28347962265320825,0.875034162281334,,-0.03807872095538629,-0.09291914771461311,0.09128653716,-0.07097759633537142,,-4.4845045e-05,-2.7418137e-06,6.4373016e-06,1.0,1.0896474e-05,8.9891255e-06,-1.0900199e-05,1.0,1.0430813e-06,-9.000301e-06,-9.834766e-07,1.0,348,1.066,1,1,0.346,False,-0.2570778828531757,1.0491287457524916
1.0725753490114585,12:07:49.892266,12:06:49.520710,0,,0.1333321,0.010707907,0.025456473,-0.51399356,-0.7392696,-0.43507582,-0.6520397,0.007157117,0.75815105,-0.5573641,0.6733714,-0.48571184,,-0.030774131,-0.059943795,0.05993104,0.7450539,0.25442612,-0.61657256,0.3347535,-0.9421745,0.015725017,-0.5769182,-0.21811578,-0.7871409,,0.095789075,1.3379649,0.44838825,0.99480355,-0.009769354,-0.10134338,-0.07185672,-0.7725411,-0.6308858,-0.07212858,0.6348896,-0.7692286,,-0.09480919,0.25178215,-0.091506064,0.5252474,0.6736499,0.5199144,-0.84913075,0.45484674,0.26849848,-0.055607375,-0.5825034,0.81092393,,0.07581256,0.4022984,-0.4288908,-0.6686585,-0.22006443,0.7102587,-0.32291314,-0.77448666,-0.54396456,0.6697932,-0.59307843,0.44680542,,0.9464749728663332,0.37944875704214703,0.17009658122000001,0.04948682666234775,0.05848042189960852,0.6843180063576504,-0.4103202941293095,,-0.8876277483647425,-0.20873774685741428,0.13658100327,4.537690377005107,0.6528491958792744,-0.28347962265320825,0.875034162281334,,-0.03807872095538629,-0.09291914771461311,0.09128653716,-0.07097759633537142,,-4.4845045e-05,-2.7418137e-06,6.4373016e-06,1.0,1.0896474e-05,8.9891255e-06,-1.0900199e-05,1.0,1.0430813e-06,-9.000301e-06,-9.834766e-07,1.0,357,1.094,1,1,0.374,False,-0.25588632848275505,1.0499012289649627
1.1125327059999108,12:07:49.917279,12:06:49.520710,0,,0.1333186,0.010708086,0.02550669,-0.51117045,-0.74219483,-0.43341842,-0.6517041,0.0059358776,0.75845015,-0.56034493,0.6701578,-0.48672563,,-0.030772015,-0.059944257,0.05993104,0.74506456,0.25442645,-0.6165595,0.33474886,-0.9421761,0.015724301,-0.57690704,-0.21810824,-0.7871512,,0.095789075,1.3379649,0.44838825,0.99480355,-0.009769354,-0.10134338,-0.07185672,-0.7725411,-0.6308858,-0.07212858,0.6348896,-0.7692286,,-0.09480035,0.2518151,-0.0915453,0.5227329,0.6767837,0.51837647,-0.85085744,0.45188057,0.26804027,-0.052838977,-0.58117795,0.8120593,,0.07581046,0.4022979,-0.428891,-0.6686705,-0.22006573,0.71024704,-0.3229083,-0.77448183,-0.5439744,0.66978353,-0.5930843,0.4468121,,0.9466139820580692,0.3794024206449017,0.17005509994,0.046551167453564406,0.0614864248944482,0.6821118486967508,-0.4101569500631752,,-0.887643193830491,-0.2087454695902885,0.13658100327,4.537690377005107,0.6528491958792744,-0.28347962265320825,0.875034162281334,,-0.03807872095538629,-0.09291914771461311,0.09128653716,-0.07097759633537142,,-4.4845045e-05,-2.7418137e-06,6.4373016e-06,1.0,1.0896474e-05,8.9891255e-06,-1.0900199e-05,1.0,1.0430813e-06,-9.000301e-06,-9.834766e-07,1.0,370,1.135,1,1,0.415,False,-0.2574949268828224,1.04927358635483
1.1375259680207819,12:07:49.957081,12:06:49.520710,0,,0.13331866,0.010710262,0.025568232,-0.50893503,-0.7443447,-0.43236083,-0.65053463,0.0036485195,0.75946784,-0.5637284,0.66778547,-0.48607883,,-0.030773878,-0.05994475,0.05993104,0.7450551,0.2544766,-0.6165502,0.33474895,-0.94217753,0.015642345,-0.57691926,-0.21804404,-0.78716004,,0.095789075,1.3379649,0.44838825,0.99480355,-0.009769354,-0.10134338,-0.07185672,-0.7725411,-0.6308858,-0.07212858,0.6348896,-0.7692286,,-0.09480594,0.2518567,-0.09159036,0.5208868,0.67900926,0.51732326,-0.8522015,0.44863683,0.26921654,-0.049289707,-0.581095,0.81234175,,0.07581232,0.4022978,-0.42889154,-0.66865957,-0.22012351,0.7102394,-0.32291687,-0.7744374,-0.5440325,0.6697903,-0.5931208,0.44675338,,0.9466989321196857,0.3794024206449017,0.17000713721000002,0.04445426801871916,0.06517561038811509,0.6815539275011644,-0.41113701445998097,,-0.8876277483647425,-0.2087454695902885,0.13658100327,4.537690377005107,0.6528491958792744,-0.2833979439130677,0.8751975063474682,,-0.03807872095538629,-0.09291914771461311,0.09128653716,-0.07097759633537142,,-4.4845045e-05,-2.7418137e-06,6.4373016e-06,1.0,1.0896474e-05,8.9891255e-06,-1.0900199e-05,1.0,1.0430813e-06,-9.000301e-06,-9.834766e-07,1.0,379,1.163,1,1,0.443,False,-0.25779281547542787,1.0495632675595068
1.1773180169984698,12:07:49.985411,12:06:49.520710,0,,0.13332923,0.010731362,0.025622979,-0.5052171,-0.74854124,-0.42946655,-0.6490888,0.0016443431,0.76071084,-0.56871724,0.66308594,-0.48670056,,-0.030773878,-0.05994475,0.05993104,0.7450551,0.2544766,-0.6165502,0.33474895,-0.94217753,0.015642345,-0.57691926,-0.21804404,-0.78716004,,0.095789075,1.3379649,0.44838825,0.99480355,-0.009769354,-0.10134338,-0.07185672,-0.7725411,-0.6308858,-0.07212858,0.6348896,-0.7692286,,-0.09482026,0.25190812,-0.091616936,0.5177294,0.683499,0.51457304,-0.85440236,0.44413182,0.26971012,-0.044191673,-0.57928926,0.81392324,,0.07581232,0.4022978,-0.42889154,-0.66865957,-0.22012351,0.7102394,-0.32291687,-0.7744374,-0.5440325,0.6697903,-0.5931208,0.44675338,,0.9467684367155538,0.3794024206449017,0.16997732254,0.04088953897948225,0.07050443387896727,0.6786788465795339,-0.4101569500631751,,-0.8876277483647425,-0.2087454695902885,0.13658100327,4.537690377005107,0.6528491958792744,-0.2833979439130677,0.8751975063474682,,-0.03807872095538629,-0.09291914771461311,0.09128653716,-0.07097759633537142,,-4.4845045e-05,-2.7418137e-06,6.4373016e-06,1.0,1.0896474e-05,8.9891255e-06,-1.0900199e-05,1.0,1.0430813e-06,-9.000301e-06,-9.834766e-07,1.0,392,1.205,1,1,0.485,False,-0.2568991496976123,1.0499495091657423
1.2056651699822396,12:07:50.032287,12:06:49.677162,0,,0.13335036,0.0107994005,0.025863662,-0.5002007,-0.75567156,-0.42279986,-0.63814175,-0.00834173,0.7698738,-0.5852985,0.6548975,-0.47805297,,-0.030773193,-0.059943542,0.05993104,0.74505866,0.2544766,-0.61654603,0.33475345,-0.94217575,0.01565054,-0.5769121,-0.2180515,-0.78716326,,0.095789075,1.3379649,0.44838825,0.99480355,-0.009769354,-0.10134338,-0.07185672,-0.7725411,-0.6308858,-0.07212858,0.6348896,-0.7692286,,-0.09485948,0.25211576,-0.0917524,0.5148808,0.690774,0.5076702,-0.85692424,0.43134063,0.28218105,-0.024055459,-0.58032453,0.81403,,0.07581163,0.40229845,-0.42889053,-0.668664,-0.22012256,0.71023554,-0.32290888,-0.77444226,-0.5440304,0.6697898,-0.5931149,0.4467621,,0.9471854642907619,0.3793946979120275,0.16983084177000002,0.038163569714183436,0.0908632723440179,0.6787400419174419,-0.4114637025922495,,-0.8876354710976166,-0.20873774685741428,0.13658100327,4.537690377005107,0.6528491958792744,-0.2833979439130677,0.8751975063474682,,-0.03807872095538629,-0.09291914771461311,0.09128653716,-0.07097759633537142,,-4.4845045e-05,-2.7418137e-06,6.4373016e-06,1.0,1.0896474e-05,8.9891255e-06,-1.0900199e-05,1.0,1.0430813e-06,-9.000301e-06,-9.834766e-07,1.0,401,1.233,1,1,0.513,False,-0.2591631030014119,1.0499012289649627
1.2525521490024403,12:07:50.054803,12:06:49.677162,0,,0.13333227,0.010826893,0.02599065,-0.49895665,-0.7558705,-0.42391255,-0.6331829,-0.016018897,0.77383643,-0.5917107,0.654525,-0.4706115,,-0.030774817,-0.059945002,0.05993104,0.7450504,0.25447652,-0.61655605,0.33474898,-0.94217753,0.015639812,-0.57692534,-0.21804398,-0.7871556,,0.095789075,1.3379649,0.44838825,0.99480355,-0.009769354,-0.10134338,-0.07185672,-0.7725411,-0.6308858,-0.07212858,0.6348896,-0.7692286,,-0.09485158,0.25221938,-0.091832444,0.514512,0.69057214,0.5083183,-0.8573362,0.42526373,0.29004368,-0.015873237,-0.5850307,0.8108558,,0.07581324,0.40229774,-0.4288918,-0.6686541,-0.22012341,0.7102446,-0.32292113,-0.7744374,-0.54403,0.6697937,-0.5931209,0.44674826,,0.9475561554687246,0.37941014337777595,0.16974269405,0.03795387977069891,0.0993347353294752,0.6842473003896292,-0.4109736703938466,,-0.8876200256318683,-0.2087454695902885,0.13658100327,4.537690377005107,0.6528491958792744,-0.2833979439130677,0.8751975063474682,,-0.03807872095538629,-0.09291914771461311,0.09128653716,-0.07097759633537142,,-4.4845045e-05,-2.7418137e-06,6.4373016e-06,1.0,1.0896474e-05,8.9891255e-06,-1.0900199e-05,1.0,1.0430813e-06,-9.000301e-06,-9.834766e-07,1.0,414,1.275,1,1,0.555,False,-0.2583290149421176,1.049708108161845
1.2750166669720784,12:07:50.097439,12:06:49.677162,0,,0.13317822,0.010873266,0.026370764,-0.49566582,-0.75856555,-0.42295817,-0.62608516,-0.025441438,0.7793395,-0.60194075,0.65109974,-0.46231616,,-0.030773193,-0.059943542,0.05993104,0.74505866,0.2544766,-0.61654603,0.33475345,-0.94217575,0.01565054,-0.5769121,-0.2180515,-0.78716326,,0.095789075,1.3379649,0.44838825,0.99480355,-0.009769354,-0.10134338,-0.07185672,-0.7725411,-0.6308858,-0.07212858,0.6348896,-0.7692286,,-0.09473065,0.25250396,-0.09210586,0.51257914,0.693033,0.50692004,-0.858634,0.41591936,0.29959768,-0.0032067935,-0.5888263,0.8082532,,0.07581163,0.40229845,-0.42889053,-0.668664,-0.22012256,0.71023554,-0.32290888,-0.77444226,-0.5440304,0.6697898,-0.5931149,0.4467621,,0.9490698111120727,0.3796727162954996,0.16945102880000001,0.035647290392369135,0.11163202030836485,0.6870432512590195,-0.41113701445998085,,-0.8876354710976166,-0.20873774685741428,0.13658100327,4.537690377005107,0.6528491958792744,-0.2833979439130677,0.8751975063474682,,-0.03807872095538629,-0.09291914771461311,0.09128653716,-0.07097759633537142,,-4.4845045e-05,-2.7418137e-06,6.4373016e-06,1.0,1.0896474e-05,8.9891255e-06,-1.0900199e-05,1.0,1.0430813e-06,-9.000301e-06,-9.834766e-07,1.0,423,1.302,1,1,0.582,False,-0.25815028178655464,1.0492253061540504
1.317652442958206,12:07:50.126118,12:06:49.677162,0,,0.13302968,0.0109325275,0.026574016,-0.49566895,-0.75792474,-0.4241017,-0.62450886,-0.028318763,0.78050417,-0.60357344,0.65172684,-0.45929393,,-0.030772954,-0.059944496,0.0599311,0.7450599,0.25447673,-0.6165445,0.33474892,-0.94217753,0.015644878,-0.5769131,-0.21804404,-0.7871645,,0.095789075,1.3379649,0.44838825,0.99480355,-0.009769354,-0.10134338,-0.07185672,-0.7725411,-0.6308858,-0.07212858,0.6348896,-0.7692286,,-0.09459828,0.25268343,-0.09223681,0.512821,0.6921758,0.5078457,-0.858495,0.41412762,0.30246425,-0.00095448573,-0.591093,0.80660284,,0.075811386,0.40229785,-0.42889127,-0.66866505,-0.22012363,0.7102342,-0.32291257,-0.7744374,-0.5440351,0.66978693,-0.5931208,0.44675854,,0.9503672302349424,0.38003568474058813,0.16930195545,0.03543760044888462,0.11354493130508102,0.6886688714727516,-0.4114637025922495,,-0.8876354710976166,-0.2087454695902885,0.13658100327,4.537690377005107,0.6528491958792744,-0.2833979439130677,0.8751975063474682,,-0.03807872095538629,-0.09291914771461311,0.09128653716,-0.07097759633537142,,-4.4845045e-05,-2.7418137e-06,6.4373016e-06,1.0,1.0896474e-05,8.9891255e-06,-1.0900199e-05,1.0,1.0430813e-06,-9.000301e-06,-9.834766e-07,1.0,436,1.344,1,1,0.624,False,-0.25922268071993226,1.049804668563404
1.3463732049567625,12:07:50.168875,12:06:49.677162,0,,0.13281806,0.01107014,0.026868135,-0.49546623,-0.75849175,-0.4233241,-0.6207288,-0.03174001,0.78338253,-0.6076255,0.65090907,-0.45509166,,-0.030773193,-0.059943542,0.05993104,0.74505866,0.2544766,-0.61654603,0.33475345,-0.94217575,0.01565054,-0.5769121,-0.2180515,-0.78716326,,0.095789075,1.3379649,0.44838825,0.99480355,-0.009769354,-0.10134338,-0.07185672,-0.7725411,-0.6308858,-0.07212858,0.6348896,-0.7692286,,-0.09440705,0.25298253,-0.09239239,0.5132045,0.6926212,0.50685006,-0.85825413,0.41100436,0.30736822,0.0045721326,-0.59274894,0.8053743,,0.07581163,0.40229845,-0.42889053,-0.668664,-0.22012256,0.71023554,-0.32290888,-0.77444226,-0.5440304,0.6697898,-0.5931149,0.4467621,,0.9523905862479892,0.38067667156914875,0.16911788227000002,0.03522791050540009,0.11846384529663687,0.6889051214269897,-0.4121170788567865,,-0.8876354710976166,-0.20873774685741428,0.13658100327,4.537690377005107,0.6528491958792744,-0.2833979439130677,0.8751975063474682,,-0.03807872095538629,-0.09291914771461311,0.09128653716,-0.07097759633537142,,-4.4845045e-05,-2.7418137e-06,6.4373016e-06,1.0,1.0896474e-05,8.9891255e-06,-1.0900199e-05,1.0,1.0430813e-06,-9.000301e-06,-9.834766e-07,1.0,445,1.372,1,1,0.652,False,-0.25826943722359585,1.0499012289649627
1.3891447209753096,12:07:50.198923,12:06:49.849066,0,,0.13267577,0.011182345,0.027043507,-0.49341965,-0.7613825,-0.4205159,-0.6180381,-0.0332807,0.7854434,-0.6120178,0.647448,-0.45414197,,-0.030773878,-0.05994475,0.05993104,0.7450551,0.2544766,-0.6165502,0.33474895,-0.94217753,0.015642345,-0.57691926,-0.21804404,-0.78716004,,0.095789075,1.3379649,0.44838825,0.99480355,-0.009769354,-0.10134338,-0.07185672,-0.7725411,-0.6308858,-0.07212858,0.6348896,-0.7692286,,-0.09427534,0.25318408,-0.09246739,0.51172453,0.69572526,0.5040876,-0.8590931,0.40763405,0.30950522,0.009847326,-0.59143966,0.80628914,,0.07581232,0.4022978,-0.42889154,-0.66865957,-0.22012351,0.7102394,-0.32291687,-0.7744374,-0.5440325,0.6697903,-0.5931208,0.44675338,,0.9537729554324754,0.38102419454848885,0.16902584568,0.03313101107055485,0.12351939578795816,0.6858444826120493,-0.4116270466583837,,-0.8876277483647425,-0.2087454695902885,0.13658100327,4.537690377005107,0.6528491958792744,-0.2833979439130677,0.8751975063474682,,-0.03807872095538629,-0.09291914771461311,0.09128653716,-0.07097759633537142,,-4.4845045e-05,-2.7418137e-06,6.4373016e-06,1.0,1.0896474e-05,8.9891255e-06,-1.0900199e-05,1.0,1.0430813e-06,-9.000301e-06,-9.834766e-07,1.0,458,1.414,1,1,0.694,False,-0.25773323775690704,1.0496115477602863
1.4191381400451064,12:07:50.238364,12:06:49.849066,0,,0.13254836,0.011245422,0.027163967,-0.49140087,-0.7629333,-0.42006883,-0.6168417,-0.035619885,0.7862809,-0.6148426,0.645495,-0.45310545,,-0.030774847,-0.059942663,0.05993098,0.74519384,0.2540812,-0.6165456,0.33444607,-0.94228053,0.015913546,-0.5769156,-0.21805999,-0.78715825,,0.095789075,1.3379649,0.44838825,0.99480355,-0.009769354,-0.10134338,-0.07185672,-0.7725411,-0.6308858,-0.07212858,0.6348896,-0.7692286,,-0.09415614,0.25331235,-0.09253111,0.51004404,0.6973139,0.5035955,-0.8600505,0.40461314,0.3108075,0.012969038,-0.5916431,0.8060957,,0.07581326,0.40229917,-0.42888993,-0.66879606,-0.2197287,0.71023315,-0.3231139,-0.77447265,-0.5438653,0.66955894,-0.5932212,0.4469669,,0.9548464153019927,0.381132312808728,0.16895195715000003,0.03082442169222508,0.12666203528256328,0.684915445629843,-0.4116270466583838,,-0.8876277483647425,-0.2087454695902885,0.13658100327,4.538109756892076,0.6528491958792744,-0.2833979439130677,0.8751975063474682,,-0.03807872095538629,-0.09291914771461311,0.09128653716,-0.07097759633537142,,-4.4845045e-05,-2.7418137e-06,6.4373016e-06,1.0,1.0896474e-05,8.9891255e-06,-1.0900199e-05,1.0,1.0430813e-06,-9.000301e-06,-9.834766e-07,1.0,467,1.442,1,1,0.722,False,-0.2589843698458485,1.0498529487641832
1.45863000897225,12:07:50.275895,12:06:49.849066,0,,0.1324145,0.011230744,0.027332634,-0.48843342,-0.7636591,-0.4222054,-0.6145234,-0.042479962,0.78775406,-0.6195108,0.6442204,-0.4485377,,-0.030776039,-0.059941947,0.05993098,0.74518794,0.2540306,-0.6165737,0.33445066,-0.94227755,0.015993714,-0.5769207,-0.21813175,-0.78713465,,0.095789075,1.3379649,0.44838825,0.99480355,-0.009769354,-0.10134338,-0.07185672,-0.7725411,-0.6308858,-0.07212858,0.6348896,-0.7692286,,-0.09403935,0.2534129,-0.0926822,0.5076528,0.69776464,0.50538415,-0.86136717,0.39858082,0.3149285,0.018309554,-0.5951956,0.8033722,,0.07581444,0.4022997,-0.42888945,-0.66878957,-0.21966949,0.7102576,-0.32311445,-0.77452195,-0.5437948,0.6695652,-0.5931788,0.4470138,,0.955788588712648,0.38089290808962706,0.16879769864000002,0.027888762483441742,0.1324007682727118,0.6882404102083683,-0.4116270466583837,,-0.8876200256318683,-0.20873774685741428,0.13658100327,4.538109756892076,0.6528491958792744,-0.28347962265320825,0.875034162281334,,-0.03807872095538629,-0.09291914771461311,0.09128653716,-0.07097759633537142,,-4.4845045e-05,-2.7418137e-06,6.4373016e-06,1.0,1.0896474e-05,8.9891255e-06,-1.0900199e-05,1.0,1.0430813e-06,-9.000301e-06,-9.834766e-07,1.0,480,1.484,1,1,0.764,False,-0.25785239319394915,1.0495632675595068
1.4961621300317347,12:07:50.307016,12:06:49.958320,0,,0.13235055,0.011155255,0.027466863,-0.48849183,-0.7625399,-0.42415607,-0.6125079,-0.04654628,0.7890929,-0.62145764,0.64526427,-0.44432423,,-0.0307751,-0.05994171,0.05993098,0.7451927,0.2540307,-0.6165679,0.33445063,-0.94227755,0.015996218,-0.5769146,-0.21813178,-0.7871392,,0.095789075,1.3379649,0.44838825,0.99480355,-0.009769354,-0.10134338,-0.07185672,-0.7725411,-0.6308858,-0.07212858,0.6348896,-0.7692286,,-0.093992345,0.2534437,-0.0928392,0.50800323,0.6963265,0.5070129,-0.8610972,0.39614746,0.3187142,0.021077286,-0.59849524,0.800849,,0.07581351,0.40229976,-0.4288892,-0.66879505,-0.21966961,0.7102524,-0.32311016,-0.77452195,-0.5437974,0.6695618,-0.59317875,0.44701892,,0.9561206662262397,0.3806380579047776,0.16864214384,0.02830814237041079,0.1354067712675515,0.6921601580580109,-0.41032029412930937,,-0.8876277483647425,-0.20873774685741428,0.13658100327,4.538109756892076,0.6528491958792744,-0.28347962265320825,0.875034162281334,,-0.03807872095538629,-0.09291914771461311,0.09128653716,-0.07097759633537142,,-4.4845045e-05,-2.7418137e-06,6.4373016e-06,1.0,1.0896474e-05,8.9891255e-06,-1.0900199e-05,1.0,1.0430813e-06,-9.000301e-06,-9.834766e-07,1.0,489,1.511,1,1,0.791,False,-0.25779281547542787,1.0499977893665218
1.5272773189935833,12:07:50.337063,12:06:49.958320,0,,0.13228863,0.011058606,0.027645484,-0.48919997,-0.7603391,-0.42727956,-0.61149573,-0.050314516,0.78964645,-0.62189734,0.64757454,-0.44033018,,-0.0307751,-0.05994171,0.05993098,0.7451927,0.2540307,-0.6165679,0.33445063,-0.94227755,0.015996218,-0.5769146,-0.21813178,-0.7871392,,0.095789075,1.3379649,0.44838825,0.99480355,-0.009769354,-0.10134338,-0.07185672,-0.7725411,-0.6308858,-0.07212858,0.6348896,-0.7692286,,-0.09395262,0.25348717,-0.093043186,0.50880474,0.69371367,0.5097834,-0.86060107,0.39474487,0.32177982,0.021988688,-0.6024432,0.7978588,,0.07581351,0.40229976,-0.4288892,-0.66879505,-0.21966961,0.7102524,-0.32311016,-0.77452195,-0.5437974,0.6695618,-0.59317875,0.44701892,,0.9564372982740829,0.38055310784316115,0.16843603373000002,0.029146902144348882,0.13636322676590956,0.6969343870616942,-0.4103202941293095,,-0.8876277483647425,-0.20873774685741428,0.13658100327,4.538109756892076,0.6528491958792744,-0.28347962265320825,0.875034162281334,,-0.03807872095538629,-0.09291914771461311,0.09128653716,-0.07097759633537142,,-4.4845045e-05,-2.7418137e-06,6.4373016e-06,1.0,1.0896474e-05,8.9891255e-06,-1.0900199e-05,1.0,1.0430813e-06,-9.000301e-06,-9.834766e-07,1.0,502,1.553,1,1,0.833,False,-0.25815028178655464,1.050335750771978
1.5573180919745937,12:07:50.377405,12:06:49.958320,0,,0.13220762,0.010948904,0.027955055,-0.48901471,-0.759907,-0.42825904,-0.6088752,-0.054191828,0.79141283,-0.6246082,0.64776874,-0.43618792,,-0.030774847,-0.059942663,0.05993098,0.74519384,0.25398052,-0.6165871,0.33444607,-0.9422779,0.016067505,-0.5769156,-0.21818861,-0.7871226,,0.095789075,1.3379649,0.44838825,0.99480355,-0.009769354,-0.10134338,-0.07185672,-0.7725411,-0.6308858,-0.07212858,0.6348896,-0.7692286,,-0.093906656,0.25360605,-0.09335654,0.50901717,0.6930472,0.5104773,-0.8603711,0.39191514,0.32582834,0.025750637,-0.6050521,0.79576933,,0.07581326,0.40229917,-0.42888993,-0.66879606,-0.21961267,0.71026903,-0.3231139,-0.7745615,-0.5437388,0.66955894,-0.5931482,0.4470638,,0.9570010577739012,0.3806226124390292,0.16811585010000002,0.029356592087833408,0.14005241225957646,0.6998069729520112,-0.41064698226157803,,-0.8876277483647425,-0.2087454695902885,0.13658100327,4.538109756892076,0.6528491958792744,-0.2835613013933488,0.8751975063474683,,-0.03807872095538629,-0.09291914771461311,0.09128653716,-0.07097759633537142,,-4.4845045e-05,-2.7418137e-06,6.4373016e-06,1.0,1.0896474e-05,8.9891255e-06,-1.0900199e-05,1.0,1.0430813e-06,-9.000301e-06,-9.834766e-07,1.0,511,1.581,1,1,0.861,False,-0.257435349164302,1.0497563883626244
1.5976726060034707,12:07:50.406690,12:06:49.958320,0,,0.13210751,0.010880522,0.028219208,-0.4868236,-0.7605201,-0.42966488,-0.6076386,-0.05851966,0.7920549,-0.6275174,0.64667183,-0.43363255,,-0.030774847,-0.059942663,0.05993098,0.74519384,0.25393015,-0.61660784,0.33444607,-0.94227654,0.016144425,-0.5769156,-0.21825287,-0.78710485,,0.095789075,1.3379649,0.44838825,0.99480355,-0.009769354,-0.10134338,-0.07185672,-0.7725411,-0.6308858,-0.07212858,0.6348896,-0.7692286,,-0.093835205,0.25372717,-0.093610875,0.5071753,0.6935127,0.511677,-0.86135554,0.38792202,0.32799876,0.028980523,-0.6070887,0.79410547,,0.07581326,0.40229917,-0.42888993,-0.66879606,-0.21955465,0.710287,-0.3231139,-0.77460593,-0.54367554,0.66955894,-0.59311163,0.44711223,,0.9577192719312041,0.3806921170348972,0.16785399952000002,0.027050002709503643,0.14333168825394704,0.7015435952308875,-0.41130035852611513,,-0.8876277483647425,-0.2087454695902885,0.13658100327,4.538109756892076,0.6528491958792744,-0.2836429801334893,0.8753608504136026,,-0.03807872095538629,-0.09291914771461311,0.09128653716,-0.07097759633537142,,-4.4845045e-05,-2.7418137e-06,6.4373016e-06,1.0,1.0896474e-05,8.9891255e-06,-1.0900199e-05,1.0,1.0430813e-06,-9.000301e-06,-9.834766e-07,1.0,524,1.623,1,1,0.903,False,-0.25826943722359585,1.0499977893665218
1.6269511269638315,12:07:50.446557,12:06:50.083815,0,,0.13190936,0.010763533,0.028630495,-0.4844461,-0.75987816,-0.43347102,-0.60604733,-0.065820396,0.7927007,-0.63088703,0.6467246,-0.42863566,,-0.030776039,-0.059941947,0.05993098,0.74518794,0.25392988,-0.6166152,0.33445066,-0.9422749,0.016147614,-0.5769207,-0.21826035,-0.787099,,0.095789075,1.3379649,0.44838825,0.99480355,-0.009769354,-0.10134338,-0.07185672,-0.7725411,-0.6308858,-0.07212858,0.6348896,-0.7692286,,-0.09368251,0.2539085,-0.09401823,0.50521046,0.6924571,0.51503944,-0.86237234,0.38239348,0.33179685,0.03280735,-0.61178297,0.790345,,0.07581444,0.4022997,-0.42888945,-0.66878957,-0.21955347,0.7102935,-0.32311445,-0.77461076,-0.5436683,0.6695652,-0.5931058,0.44711068,,0.9590630274513192,0.3806921170348972,0.16743529785000003,0.024324033444204828,0.1472941467471448,0.7060719563370448,-0.41113701445998085,,-0.8876200256318683,-0.20873774685741428,0.13658100327,4.538109756892076,0.6528491958792744,-0.2836429801334893,0.8753608504136026,,-0.03807872095538629,-0.09291914771461311,0.09128653716,-0.07097759633537142,,-4.4845045e-05,-2.7418137e-06,6.4373016e-06,1.0,1.0896474e-05,8.9891255e-06,-1.0900199e-05,1.0,1.0430813e-06,-9.000301e-06,-9.834766e-07,1.0,533,1.65,1,1,0.93,False,-0.2574949268828224,1.0495632675595068
1.666824416955933,12:07:50.469921,12:06:50.083815,0,,0.13180012,0.010712601,0.028843567,-0.48364776,-0.7591537,-0.43562633,-0.60458803,-0.07012802,0.7934452,-0.6328965,0.6471224,-0.42505807,,-0.030776039,-0.059941947,0.05993098,0.74518794,0.25392988,-0.6166152,0.33445066,-0.9422749,0.016147614,-0.5769207,-0.21826035,-0.787099,,0.095789075,1.3379649,0.44838825,0.99480355,-0.009769354,-0.10134338,-0.07185672,-0.7725411,-0.6308858,-0.07212858,0.6348896,-0.7692286,,-0.09359632,0.2540099,-0.0942237,0.50468343,0.691457,0.51689637,-0.8625803,0.3793638,0.33472133,0.035353635,-0.61479294,0.7878958,,0.07581444,0.4022997,-0.42888945,-0.66878957,-0.21955347,0.7102935,-0.32311445,-0.77461076,-0.5436683,0.6695652,-0.5931058,0.44711068,,0.9598353007387417,0.380684394302023,0.16722400258,0.02348527367026673,0.14989024024268818,0.7091824555358088,-0.41179039072451806,,-0.8876200256318683,-0.20873774685741428,0.13658100327,4.538109756892076,0.6528491958792744,-0.2836429801334893,0.8753608504136026,,-0.03807872095538629,-0.09291914771461311,0.09128653716,-0.07097759633537142,,-4.4845045e-05,-2.7418137e-06,6.4373016e-06,1.0,1.0896474e-05,8.9891255e-06,-1.0900199e-05,1.0,1.0430813e-06,-9.000301e-06,-9.834766e-07,1.0,546,1.692,1,1,0.972,False,-0.25761408231986493,1.0502874705711984
1.69018363696523,12:07:50.519203,12:06:50.083815,0,,0.13152145,0.010559253,0.02937691,-0.48229113,-0.7573076,-0.44031835,-0.60271573,-0.07789713,0.7941447,-0.63571125,0.6483958,-0.4188721,,-0.030774847,-0.059942663,0.05993098,0.74519384,0.25393015,-0.61660784,0.33444607,-0.94227654,0.016144425,-0.5769156,-0.21825287,-0.78710485,,0.095789075,1.3379649,0.44838825,0.99480355,-0.009769354,-0.10134338,-0.07185672,-0.7725411,-0.6308858,-0.07212858,0.6348896,-0.7692286,,-0.09337683,0.25424412,-0.094755284,0.5036985,0.6890658,0.52103364,-0.8630062,0.37425143,0.3393468,0.03883467,-0.6205838,0.7831779,,0.07581326,0.40229917,-0.42888993,-0.66879606,-0.21955465,0.710287,-0.3231139,-0.77460593,-0.54367554,0.66955894,-0.59311163,0.44711223,,0.9617273702929267,0.38069983976777144,0.16667696820000003,0.021598064178906008,0.15344278923658963,0.7147801790143202,-0.40983026193090655,,-0.8876277483647425,-0.2087454695902885,0.13658100327,4.538109756892076,0.6528491958792744,-0.2836429801334893,0.8753608504136026,,-0.03807872095538629,-0.09291914771461311,0.09128653716,-0.07097759633537142,,-4.4845045e-05,-2.7418137e-06,6.4373016e-06,1.0,1.0896474e-05,8.9891255e-06,-1.0900199e-05,1.0,1.0430813e-06,-9.000301e-06,-9.834766e-07,1.0,555,1.72,1,1,1.0,False,-0.25815028178655464,1.0500943497680806
1.7394718220457435,12:07:50.547691,12:06:50.083815,0,,0.13139436,0.010484733,0.029650748,-0.4824504,-0.75572693,-0.44285244,-0.6015593,-0.08162829,0.7946466,-0.636685,0.6497795,-0.41523302,,-0.030774847,-0.059942663,0.05993098,0.74519384,0.25393015,-0.61660784,0.33444607,-0.94227654,0.016144425,-0.5769156,-0.21825287,-0.78710485,,0.095789075,1.3379649,0.44838825,0.99480355,-0.009769354,-0.10134338,-0.07185672,-0.7725411,-0.6308858,-0.07212858,0.6348896,-0.7692286,,-0.09327979,0.25436732,-0.09502378,0.50401145,0.6871566,0.5232478,-0.8627562,0.37228593,0.34213293,0.040301125,-0.6238742,0.78048503,,0.07581326,0.40229917,-0.42888993,-0.66879606,-0.21955465,0.710287,-0.3231139,-0.77460593,-0.54367554,0.66955894,-0.59311163,0.44711223,,0.962630930039211,0.38080023529513635,0.16639956214,0.021598064178906008,0.15480915423424405,0.7182400094252275,-0.4108103263277123,,-0.8876277483647425,-0.2087454695902885,0.13658100327,4.538109756892076,0.6528491958792744,-0.2836429801334893,0.8753608504136026,,-0.03807872095538629,-0.09291914771461311,0.09128653716,-0.07097759633537142,,-4.4845045e-05,-2.7418137e-06,6.4373016e-06,1.0,1.0896474e-05,8.9891255e-06,-1.0900199e-05,1.0,1.0430813e-06,-9.000301e-06,-9.834766e-07,1.0,564,1.75,1,1,1.03,False,-0.25826943722359585,1.049708108161845
1.7679365259828046,12:07:50.571123,12:06:50.083815,0,,0.13129002,0.01043012,0.029897824,-0.48101234,-0.75589335,-0.44413096,-0.60072494,-0.08480519,0.7949451,-0.6385582,0.64917886,-0.41329154,,-0.030775785,-0.059942916,0.05993098,0.7451892,0.25393,-0.6166136,0.3344461,-0.9422766,0.016141951,-0.57692176,-0.21825284,-0.7871003,,0.095789075,1.3379649,0.44838825,0.99480355,-0.009769354,-0.10134338,-0.07185672,-0.7725411,-0.6308858,-0.07212858,0.6348896,-0.7692286,,-0.0932018,0.2544879,-0.09525678,0.50280064,0.68719757,0.52435774,-0.8633615,0.3694828,0.34364143,0.0424084,-0.6254934,0.77907604,,0.075814195,0.4022991,-0.4288902,-0.66879064,-0.21955454,0.71029216,-0.32311818,-0.77460593,-0.543673,0.66956234,-0.5931117,0.4471071,,0.9634109260595076,0.3809315217539982,0.16615845220000003,0.019920544631029814,0.15685870173072564,0.7195091755148414,-0.41113701445998085,,-0.8876200256318683,-0.2087454695902885,0.13658100327,4.538109756892076,0.6528491958792744,-0.2836429801334893,0.8753608504136026,,-0.03807872095538629,-0.09291914771461311,0.09128653716,-0.07097759633537142,,-4.4845045e-05,-2.7418137e-06,6.4373016e-06,1.0,1.0896474e-05,8.9891255e-06,-1.0900199e-05,1.0,1.0430813e-06,-9.000301e-06,-9.834766e-07,1.0,578,1.794,1,1,1.074,False,-0.25815028178655464,1.0498529487641832
1.7913635859731585,12:07:50.620613,12:06:50.083815,0,,0.13118127,0.01037889,0.030087337,-0.4823694,-0.75449383,-0.44503784,-0.5997728,-0.08580667,0.7955563,-0.6384295,0.6506735,-0.41113436,,-0.0307751,-0.05994171,0.05993098,0.7451927,0.25392997,-0.6166094,0.33445063,-0.94227487,0.016150117,-0.5769146,-0.2182604,-0.7871035,,0.095789075,1.3379649,0.44838825,0.99480355,-0.009769354,-0.10134338,-0.07185672,-0.7725411,-0.6308858,-0.07212858,0.6348896,-0.7692286,,-0.093113944,0.2545738,-0.09544461,0.5041918,0.6856126,0.5250961,-0.8625313,0.3696682,0.34552163,0.042782657,-0.62712103,0.777746,,0.07581351,0.40229976,-0.4288892,-0.66879505,-0.21955357,0.7102883,-0.32311016,-0.77461076,-0.54367083,0.6695618,-0.59310573,0.4471158,,0.9641754766140558,0.3809778581512435,0.16596400870000003,0.02117868429193696,0.15713197473025653,0.721083271990541,-0.4101569500631752,,-0.8876277483647425,-0.20873774685741428,0.13658100327,4.538109756892076,0.6528491958792744,-0.2836429801334893,0.8753608504136026,,-0.03807872095538629,-0.09291914771461311,0.09128653716,-0.07097759633537142,,-4.4845045e-05,-2.7418137e-06,6.4373016e-06,1.0,1.0896474e-05,8.9891255e-06,-1.0900199e-05,1.0,1.0430813e-06,-9.000301e-06,-9.834766e-07,1.0,587,1.824,1,1,1.104,False,-0.25773323775690704,1.0498529487641832
1.8408794560236856,12:07:50.651161,12:06:50.083815,0,,0.13114609,0.010419391,0.030164495,-0.48021814,-0.7588631,-0.43990594,-0.5959839,-0.08568573,0.7984117,-0.64357877,0.6455885,-0.4111224,,-0.030774847,-0.059942663,0.05993098,0.74519384,0.25393015,-0.61660784,0.33444607,-0.94227654,0.016144425,-0.5769156,-0.21825287,-0.78710485,,0.095789075,1.3379649,0.44838825,0.99480355,-0.009769354,-0.10134338,-0.07185672,-0.7725411,-0.6308858,-0.07212858,0.6348896,-0.7692286,,-0.09308374,0.25465524,-0.09548043,0.5027392,0.69042945,0.5201543,-0.8630283,0.36653185,0.34761557,0.049350925,-0.62366784,0.7801301,,0.07581326,0.40229917,-0.42888993,-0.66879606,-0.21955465,0.710287,-0.3231139,-0.77460593,-0.54367554,0.66955894,-0.59311163,0.44711223,,0.9646079496550124,0.38092379902112394,0.16592900887,0.019710854687545288,0.16382716321876312,0.7163589033706814,-0.4099936059970408,,-0.8876277483647425,-0.2087454695902885,0.13658100327,4.538109756892076,0.6528491958792744,-0.2836429801334893,0.8753608504136026,,-0.03807872095538629,-0.09291914771461311,0.09128653716,-0.07097759633537142,,-4.4845045e-05,-2.7418137e-06,6.4373016e-06,1.0,1.0896474e-05,8.9891255e-06,-1.0900199e-05,1.0,1.0430813e-06,-9.000301e-06,-9.834766e-07,1.0,601,1.868,1,1,1.148,False,-0.25767366003838577,1.0501909101696396
1.8713862319709733,12:07:50.691609,12:06:50.318551,0,,0.13088885,0.0104833245,0.030168056,-0.4761498,-0.75896317,-0.44413525,-0.59773016,-0.091106266,0.7965038,-0.6449805,0.64472806,-0.41027498,,-0.030791655,-0.05995111,0.05992806,0.7451932,0.25391155,-0.61661637,0.33444226,-0.94227743,0.016167164,-0.5769187,-0.21827027,-0.7870976,,0.09574023,1.3379694,0.44838923,0.99480796,-0.00972157,-0.10130436,-0.071795195,-0.7725417,-0.63089204,-0.07212858,0.6348896,-0.7692286,,-0.0927841,0.25470886,-0.09547295,0.49876353,0.69030887,0.5241265,-0.8653104,0.36188835,0.34680656,0.049728367,-0.62650657,0.77782816,,0.07587704,0.40230122,-0.42889255,-0.66880584,-0.2194739,0.7103027,-0.32315344,-0.7746261,-0.5436233,0.6695301,-0.5931152,0.4471507,,0.9650249772302205,0.3807384534321426,0.16590826823000002,0.014678296043916704,0.1645103457175903,0.7192323209381029,-0.4103202941293096,,-0.8876277483647425,-0.20873774685741428,0.13658100327,4.538109756892076,0.6528491958792744,-0.2836429801334893,0.8753608504136026,,-0.03807872095538629,-0.09291914771461311,0.09128653716,-0.07097759633537142,,-9.382889e-05,-5.1259995e-06,7.748604e-06,1.0,5.847588e-05,4.825741e-05,-5.8479607e-05,0.99999994,5.4836273e-06,-4.826486e-05,-5.453825e-06,0.99999994,615,1.913,1,1,1.193,False,-0.2583290149421176,1.0502391903704191
1.9118537809699774,12:07:50.732475,12:06:50.318551,0,,0.130846,0.0105226785,0.03021118,-0.46994644,-0.76532346,-0.43980694,-0.59485805,-0.093526155,0.7983712,-0.6521457,0.63681436,-0.41130653,,-0.030793041,-0.05995269,0.05992806,0.7451143,0.25410905,-0.6166303,0.33459374,-0.94222605,0.016026527,-0.5769327,-0.21826228,-0.7870896,,0.09574023,1.3379694,0.44838923,0.99480796,-0.00972157,-0.10130436,-0.071795195,-0.7725417,-0.63089204,-0.07212858,0.6348896,-0.7692286,,-0.09274321,0.2547675,-0.09548461,0.49341518,0.69722104,0.52002335,-0.8678808,0.355017,0.34748492,0.057656668,-0.62277263,0.7802755,,0.07587843,0.40230042,-0.4288939,-0.6687267,-0.2196711,0.71031624,-0.32306346,-0.7746085,-0.5437018,0.6696526,-0.59306514,0.44703367,,0.9654033911410576,0.380444989582922,0.16590308307,0.008806977626350023,0.1729818087030476,0.7137946282314549,-0.4103202941293095,,-0.8876123028989941,-0.20873774685741428,0.13658100327,4.537900066948591,0.6528491958792744,-0.2836429801334893,0.8753608504136026,,-0.03807872095538629,-0.09291914771461311,0.09128653716,-0.07097759633537142,,-9.382889e-05,-5.1259995e-06,7.748604e-06,1.0,5.847588e-05,4.825741e-05,-5.8479607e-05,0.99999994,5.4836273e-06,-4.826486e-05,-5.453825e-06,0.99999994,624,1.942,1,1,1.222,False,-0.2575545046013441,1.0496115477602863
1.9527464270358905,12:07:50.762690,12:06:50.318551,0,,0.13075766,0.010537878,0.03022319,-0.4650709,-0.7662784,-0.44331294,-0.5961516,-0.09911308,0.79673064,-0.6544556,0.63481784,-0.41072345,,-0.030792296,-0.059954688,0.05992806,0.74504614,0.25430688,-0.6166311,0.33474067,-0.94217634,0.015885204,-0.5769355,-0.21824679,-0.78709185,,0.09574023,1.3379694,0.44838923,0.99480796,-0.00972157,-0.10130436,-0.071795195,-0.7725417,-0.63089204,-0.07212858,0.6348896,-0.7692286,,-0.092655644,0.25478834,-0.095493235,0.4887067,0.698038,0.52336293,-0.8704453,0.34948814,0.34667426,0.05908268,-0.6249808,0.7784011,,0.075877704,0.40229914,-0.42889544,-0.6686595,-0.21986958,0.7103181,-0.32296866,-0.7745861,-0.5437901,0.6697654,-0.5930209,0.44692335,,0.9659285369765048,0.38017469393232417,0.16589660162000003,0.003145349152267865,0.17489471969976378,0.715583605925468,-0.41048363819544376,,-0.8876123028989941,-0.2087454695902885,0.13658100327,4.537690377005107,0.6528491958792744,-0.2836429801334893,0.8753608504136026,,-0.03807872095538629,-0.09291914771461311,0.09128653716,-0.07097759633537142,,-9.382889e-05,-5.1259995e-06,7.748604e-06,1.0,5.847588e-05,4.825741e-05,-5.8479607e-05,0.99999994,5.4836273e-06,-4.826486e-05,-5.453825e-06,0.99999994,638,1.986,1,1,1.266,False,-0.25856732581620134,1.0498529487641832
1.9829479639884084,12:07:50.812503,12:06:50.442383,0,,0.13043717,0.010581568,0.030292094,-0.4478426,-0.7724947,-0.45020986,-0.6029145,-0.110914886,0.79005814,-0.66025066,0.62525964,-0.4160758,,-0.030792043,-0.059955657,0.05992806,0.74504745,0.25430703,-0.6166296,0.33473614,-0.942178,0.015879512,-0.5769366,-0.21823925,-0.78709316,,0.09574023,1.3379694,0.44838923,0.99480796,-0.00972157,-0.10130436,-0.071795195,-0.7725417,-0.63089204,-0.07212858,0.6348896,-0.7692286,,-0.09234087,0.2548716,-0.09555108,0.47172797,0.7044281,0.5303337,-0.8796374,0.33441204,0.33824047,0.060916122,-0.6260588,0.7773928,,0.07587746,0.4022985,-0.4288962,-0.6686606,-0.21987066,0.7103168,-0.3229724,-0.7745812,-0.5437948,0.66976255,-0.5930268,0.44691977,,0.967828329263564,0.3794333115763986,0.16584086115000002,-0.017404265309215523,0.17817399569413436,0.7129912549768944,-0.41032029412930937,,-0.8876123028989941,-0.20875319232316272,0.13658100327,4.537690377005107,0.6528491958792744,-0.2836429801334893,0.8753608504136026,,-0.03807872095538629,-0.09291914771461311,0.09128653716,-0.07097759633537142,,-9.382889e-05,-5.1259995e-06,7.748604e-06,1.0,5.847588e-05,4.825741e-05,-5.8479607e-05,0.99999994,5.4836273e-06,-4.826486e-05,-5.453825e-06,0.99999994,647,2.016,1,1,1.296,False,-0.25731619372725945,1.0497563883626244
2.032767485943623,12:07:50.833491,12:06:50.442383,0,,0.13026342,0.0106000155,0.030351117,-0.44568285,-0.7747006,-0.44855964,-0.6016304,-0.11182776,0.790908,-0.6628782,0.62236106,-0.41624364,,-0.030792043,-0.059955657,0.05992806,0.74504745,0.25430703,-0.6166296,0.33473614,-0.942178,0.015879512,-0.5769366,-0.21823925,-0.78709316,,0.09574023,1.3379694,0.44838923,0.99480796,-0.00972157,-0.10130436,-0.071795195,-0.7725417,-0.63089204,-0.07212858,0.6348896,-0.7692286,,-0.092172496,0.25492686,-0.09560221,0.4698941,0.7068353,0.5287564,-0.8804025,0.331873,0.33875027,0.063960694,-0.6246952,0.7782448,,0.07587746,0.4022985,-0.4288962,-0.6686606,-0.21987066,0.7103168,-0.3229724,-0.7745812,-0.5437948,0.66976255,-0.5930268,0.44691977,,0.968963570996075,0.37897767033681934,0.16579289842000003,-0.019920544631029814,0.1817265446880358,0.7100943894807875,-0.41032029412930937,,-0.8876123028989941,-0.20875319232316272,0.13658100327,4.537690377005107,0.6528491958792744,-0.2836429801334893,0.8753608504136026,,-0.03807872095538629,-0.09291914771461311,0.09128653716,-0.07097759633537142,,-9.382889e-05,-5.1259995e-06,7.748604e-06,1.0,5.847588e-05,4.825741e-05,-5.8479607e-05,0.99999994,5.4836273e-06,-4.826486e-05,-5.453825e-06,0.99999994,661,2.06,1,1,1.34,False,-0.2586269035347226,1.0495632675595068
2.0537407780066133,12:07:50.881890,12:06:50.442383,0,,0.12959647,0.010626599,0.03050536,-0.4336447,-0.78189623,-0.44787323,-0.6009156,-0.1194374,0.7903385,-0.6714555,0.6118601,-0.41806024,,-0.030792296,-0.059954688,0.05992806,0.74504614,0.25430688,-0.6166311,0.33474067,-0.94217634,0.015885204,-0.5769355,-0.21824679,-0.78709185,,0.09574023,1.3379694,0.44838923,0.99480796,-0.00972157,-0.10130436,-0.071795195,-0.7725417,-0.63089204,-0.07212858,0.6348896,-0.7692286,,-0.09152207,0.25505832,-0.095772415,0.45875254,0.7145222,0.52820843,-0.8856275,0.31938934,0.33712658,0.07218028,-0.62245363,0.7793212,,0.075877704,0.40229914,-0.42889544,-0.6686595,-0.21986958,0.7103181,-0.32296866,-0.7745861,-0.5437901,0.6697654,-0.5930209,0.44692335,,0.9730257284879171,0.37696975978952096,0.16564123249,-0.034389150731461995,0.19224755516997472,0.7023319982975686,-0.4109736703938466,,-0.8876123028989941,-0.2087454695902885,0.13658100327,4.537690377005107,0.6528491958792744,-0.2836429801334893,0.8753608504136026,,-0.03807872095538629,-0.09291914771461311,0.09128653716,-0.07097759633537142,,-9.382889e-05,-5.1259995e-06,7.748604e-06,1.0,5.847588e-05,4.825741e-05,-5.8479607e-05,0.99999994,5.4836273e-06,-4.826486e-05,-5.453825e-06,0.99999994,675,2.105,1,1,1.385,False,-0.2590439475643693,1.0506254319766548
2.1021495249588042,12:07:50.930317,12:06:50.571825,0,,0.1286805,0.010629252,0.030715227,-0.42891723,-0.7864044,-0.4445202,-0.5955661,-0.12381685,0.7937068,-0.6792134,0.6051755,-0.41524854,,-0.030791372,-0.059954435,0.05992806,0.74505097,0.25430697,-0.6166254,0.33474064,-0.9421762,0.015887707,-0.57692945,-0.21824673,-0.7870963,,0.09574023,1.3379694,0.44838923,0.99480796,-0.00972157,-0.10130436,-0.071795195,-0.7725417,-0.63089204,-0.07212858,0.6348896,-0.7692286,,-0.09063051,0.25521186,-0.0960266,0.45506564,0.71936965,0.5248072,-0.8866741,0.31179473,0.3414573,0.082001895,-0.6207184,0.7797335,,0.07587678,0.4022992,-0.42889518,-0.668665,-0.21986969,0.71031296,-0.32296437,-0.774586,-0.54379267,0.669762,-0.5930209,0.44692847,,0.9786478780203526,0.3741432395575548,0.16541827061000003,-0.041099228922966774,0.20481811314839524,0.6948586283222771,-0.4119537347906522,,-0.8876200256318683,-0.2087454695902885,0.13658100327,4.537690377005107,0.6528491958792744,-0.2836429801334893,0.8753608504136026,,-0.03807872095538629,-0.09291914771461311,0.09128653716,-0.07097759633537142,,-9.382889e-05,-5.1259995e-06,7.748604e-06,1.0,5.847588e-05,4.825741e-05,-5.8479607e-05,0.99999994,5.4836273e-06,-4.826486e-05,-5.453825e-06,0.99999994,684,2.134,1,1,1.415,False,-0.25880563669028556,1.049514987358727
2.1505874750437215,12:07:50.961136,12:06:50.571825,0,,0.12824702,0.010607094,0.03090927,-0.42264575,-0.790138,-0.44390586,-0.5936502,-0.1287333,0.79435945,-0.6847991,0.59925735,-0.41465703,,-0.030792043,-0.059955657,0.05992806,0.74504745,0.25430703,-0.6166296,0.33473614,-0.942178,0.015879512,-0.5769366,-0.21823925,-0.78709316,,0.09574023,1.3379694,0.44838923,0.99480796,-0.00972157,-0.10130436,-0.071795195,-0.7725417,-0.63089204,-0.07212858,0.6348896,-0.7692286,,-0.09021859,0.25532818,-0.09623356,0.4494508,0.7233466,0.5241791,-0.88894755,0.30427638,0.34232748,0.08812609,-0.6198271,0.7797744,,0.07587746,0.4022985,-0.4288962,-0.6686606,-0.21987066,0.7103168,-0.3229724,-0.7745812,-0.5437948,0.66976255,-0.5930268,0.44691977,,0.9813199435948342,0.37292304776342733,0.16522641969000001,-0.048648066888409655,0.212196484135729,0.6908023512860437,-0.41195373479065245,,-0.8876123028989941,-0.20875319232316272,0.13658100327,4.537690377005107,0.6528491958792744,-0.2836429801334893,0.8753608504136026,,-0.03807872095538629,-0.09291914771461311,0.09128653716,-0.07097759633537142,,-9.382889e-05,-5.1259995e-06,7.748604e-06,1.0,5.847588e-05,4.825741e-05,-5.8479607e-05,0.99999994,5.4836273e-06,-4.826486e-05,-5.453825e-06,0.99999994,698,2.179,1,1,1.459,False,-0.2590439475643693,1.0503840309727575
2.1813793659675866,12:07:51.002825,12:06:50.655933,0,,0.12784109,0.010529712,0.031099945,-0.4178522,-0.791858,-0.44537666,-0.59262025,-0.13400829,0.7942562,-0.68862224,0.59582084,-0.4132754,,-0.030792043,-0.059955657,0.05992806,0.74504745,0.25430703,-0.6166296,0.33473614,-0.942178,0.015879512,-0.5769366,-0.21823925,-0.78709316,,0.09574023,1.3379694,0.44838923,0.99480796,-0.00972157,-0.10130436,-0.071795195,-0.7725417,-0.63089204,-0.07212858,0.6348896,-0.7692286,,-0.08983686,0.25539988,-0.09647076,0.44509372,0.7250738,0.5255089,-0.890726,0.29806274,0.34317032,0.09218919,-0.6208274,0.7785079,,0.07587746,0.4022985,-0.4288962,-0.6686606,-0.21987066,0.7103168,-0.3229724,-0.7745812,-0.5437948,0.66976255,-0.5930268,0.44691977,,0.9836830998543469,0.3716410741063061,0.16500605039000002,-0.05472907524946085,0.2175253076265812,0.6894791664270842,-0.41179039072451806,,-0.8876123028989941,-0.20875319232316272,0.13658100327,4.537690377005107,0.6528491958792744,-0.2836429801334893,0.8753608504136026,,-0.03807872095538629,-0.09291914771461311,0.09128653716,-0.07097759633537142,,-9.382889e-05,-5.1259995e-06,7.748604e-06,1.0,5.847588e-05,4.825741e-05,-5.8479607e-05,0.99999994,5.4836273e-06,-4.826486e-05,-5.453825e-06,0.99999994,707,2.209,1,1,1.489,False,-0.2586269035347226,1.0495632675595068
2.2230921300360933,12:07:51.031687,12:06:50.655933,0,,0.12767848,0.010419354,0.031217799,-0.41038325,-0.7947853,-0.44710386,-0.59449613,-0.138607,0.79206216,-0.691491,0.5908504,-0.41561472,,-0.030792043,-0.059955657,0.05992806,0.74504745,0.25430703,-0.6166296,0.33473614,-0.942178,0.015879512,-0.5769366,-0.21823925,-0.78709316,,0.09574023,1.3379694,0.44838923,0.99480796,-0.00972157,-0.10130436,-0.071795195,-0.7725417,-0.63089204,-0.07212858,0.6348896,-0.7692286,,-0.08969223,0.25539517,-0.096648455,0.43782523,0.7281801,0.52731663,-0.8941393,0.29138777,0.34001198,0.09393634,-0.6203603,0.7786713,,0.07587746,0.4022985,-0.4288962,-0.6686606,-0.21987066,0.7103168,-0.3229724,-0.7745812,-0.5437948,0.66976255,-0.5930268,0.44691977,,0.9843704230801529,0.37088424628463207,0.16484012527000003,-0.06332636293232637,0.22012140112212455,0.6872805475167115,-0.4116270466583837,,-0.8876123028989941,-0.20875319232316272,0.13658100327,4.537690377005107,0.6528491958792744,-0.2836429801334893,0.8753608504136026,,-0.03807872095538629,-0.09291914771461311,0.09128653716,-0.07097759633537142,,-9.382889e-05,-5.1259995e-06,7.748604e-06,1.0,5.847588e-05,4.825741e-05,-5.8479607e-05,0.99999994,5.4836273e-06,-4.826486e-05,-5.453825e-06,0.99999994,721,2.253,1,1,1.533,False,-0.2587460589717643,1.0499495091657423
2.251958062988706,12:07:51.079802,12:06:50.655933,0,,0.12756287,0.010359839,0.031377345,-0.39809957,-0.8052631,-0.43939495,-0.5888904,-0.14292327,0.7954753,-0.70336664,0.5754338,-0.41731396,,-0.030792043,-0.059955657,0.05992806,0.74504745,0.25430703,-0.6166296,0.33473614,-0.942178,0.015879512,-0.5769366,-0.21823925,-0.78709316,,0.09574023,1.3379694,0.44838923,0.99480796,-0.00972157,-0.10130436,-0.071795195,-0.7725417,-0.63089204,-0.07212858,0.6348896,-0.7692286,,-0.08959527,0.2554554,-0.096819706,0.42701805,0.73976654,0.520001,-0.89778996,0.27827242,0.34137607,0.10783666,-0.6126254,0.78298235,,0.07587746,0.4022985,-0.4288962,-0.6686606,-0.21987066,0.7103168,-0.3229724,-0.7745812,-0.5437948,0.66976255,-0.5930268,0.44691977,,0.9848955689156002,0.3699420728739767,0.16469623708000003,-0.07506899976745972,0.235151416096323,0.6764947954326354,-0.41195373479065245,,-0.8876123028989941,-0.20875319232316272,0.13658100327,4.537690377005107,0.6528491958792744,-0.2836429801334893,0.8753608504136026,,-0.03807872095538629,-0.09291914771461311,0.09128653716,-0.07097759633537142,,-9.382889e-05,-5.1259995e-06,7.748604e-06,1.0,5.847588e-05,4.825741e-05,-5.8479607e-05,0.99999994,5.4836273e-06,-4.826486e-05,-5.453825e-06,0.99999994,744,2.326,1,1,1.606,False,-0.2593418361569748,1.0496115477602863
2.300073846941814,12:07:51.150398,12:06:50.782672,0,,0.12753984,0.010223493,0.031661972,-0.37937903,-0.81898475,-0.43050593,-0.58166504,-0.15073442,0.79934025,-0.71953946,0.5536631,-0.41918933,,-0.030794173,-0.059955195,0.05992806,0.7450367,0.25430664,-0.61664265,0.33474073,-0.94217634,0.015880138,-0.5769478,-0.21824682,-0.7870829,,0.09574023,1.3379694,0.44838923,0.99480796,-0.00972157,-0.10130436,-0.071795195,-0.7725417,-0.63089204,-0.07212858,0.6348896,-0.7692286,,-0.08960617,0.25553685,-0.09712531,0.41029668,0.7549632,0.5115537,-0.9031058,0.25842863,0.34294972,0.1267143,-0.60269827,0.78784406,,0.07587956,0.40229902,-0.42889598,-0.6686486,-0.21986935,0.71032846,-0.32297722,-0.7745861,-0.54378504,0.6697722,-0.593021,0.4469131,,0.9846947778608703,0.36907712679206356,0.16442531247000003,-0.09268295502015976,0.2552369815618427,0.6634651919350244,-0.4121170788567864,,-0.8875968574332456,-0.2087454695902885,0.13658100327,4.537690377005107,0.6528491958792744,-0.2836429801334893,0.8753608504136026,,-0.03807872095538629,-0.09291914771461311,0.09128653716,-0.07097759633537142,,-9.382889e-05,-5.1259995e-06,7.748604e-06,1.0,5.847588e-05,4.825741e-05,-5.8479607e-05,0.99999994,5.4836273e-06,-4.826486e-05,-5.453825e-06,0.99999994,758,2.371,0,1,1.639,False,-0.2589843698458485,1.0498529487641832
2.3706688049715012,12:07:51.194348,12:06:50.782672,0,,0.12743753,0.010132298,0.03184253,-0.36622235,-0.82798487,-0.42464358,-0.5779375,-0.15526828,0.80117404,-0.7292936,0.5388252,-0.42166072,,-0.030792981,-0.059955925,0.05992806,0.7450427,0.2543069,-0.6166354,0.33473617,-0.942178,0.015877008,-0.5769427,-0.21823922,-0.78708863,,0.09574023,1.3379694,0.44838923,0.99480796,-0.00972157,-0.10130436,-0.071795195,-0.7725417,-0.63089204,-0.07212858,0.6348896,-0.7692286,,-0.089526154,0.25558642,-0.097331524,0.39832103,0.7650152,0.5060555,-0.9068222,0.24549887,0.3426423,0.13789053,-0.59538394,0.7915201,,0.07587839,0.40229845,-0.42889646,-0.6686551,-0.21987054,0.71032196,-0.32297665,-0.7745812,-0.54379225,0.66976595,-0.5930269,0.44691464,,0.985026855374462,0.3682739625731442,0.16424512816,-0.10568373151620027,0.26739763004096695,0.6533039622856212,-0.4122804229229209,,-0.8876045801661198,-0.20875319232316272,0.13658100327,4.537690377005107,0.6528491958792744,-0.2836429801334893,0.8753608504136026,,-0.03807872095538629,-0.09291914771461311,0.09128653716,-0.07097759633537142,,-9.382889e-05,-5.1259995e-06,7.748604e-06,1.0,5.847588e-05,4.825741e-05,-5.8479607e-05,0.99999994,5.4836273e-06,-4.826486e-05,-5.453825e-06,0.99999994,767,2.401,0,1,1.639,False,-0.2586269035347226,1.049708108161845
2.4146125479601324,12:07:51.225583,12:06:50.782672,0,,0.12729165,0.010041028,0.031981826,-0.36041242,-0.8320161,-0.42172503,-0.5762731,-0.15690789,0.8020531,-0.73349303,0.5320986,-0.4229169,,-0.030793905,-0.05995615,0.05992806,0.745038,0.2543068,-0.61664116,0.3347362,-0.94217813,0.015874535,-0.5769488,-0.21823925,-0.7870842,,0.09574023,1.3379694,0.44838923,0.99480796,-0.00972157,-0.10130436,-0.071795195,-0.7725417,-0.63089204,-0.07212858,0.6348896,-0.7692286,,-0.08939904,0.25560987,-0.09751125,0.39302376,0.76954705,0.50331867,-0.9083793,0.23995264,0.3424467,0.14275621,-0.59179395,0.7933477,,0.07587931,0.40229842,-0.42889673,-0.6686496,-0.21987043,0.71032715,-0.32298094,-0.77458125,-0.5437897,0.66976935,-0.59302694,0.44690952,,0.9856987331345195,0.3675557484158413,0.16408179562000003,-0.11176473987725148,0.27299972653135,0.6478373620925219,-0.41244376698905494,,-0.8875968574332456,-0.20875319232316272,0.13658100327,4.537690377005107,0.6528491958792744,-0.2836429801334893,0.8753608504136026,,-0.03807872095538629,-0.09291914771461311,0.09128653716,-0.07097759633537142,,-9.382889e-05,-5.1259995e-06,7.748604e-06,1.0,5.847588e-05,4.825741e-05,-5.8479607e-05,0.99999994,5.4836273e-06,-4.826486e-05,-5.453825e-06,0.99999994,790,2.474,0,1,1.639,False,-0.2589843698458485,1.0496115477602863
2.4457973550306633,12:07:51.295571,12:06:50.920672,0,,0.12700453,0.009858832,0.032345816,-0.35451484,-0.8393594,-0.41206175,-0.5699475,-0.1553801,0.80685616,-0.74126846,0.52089596,-0.42330623,,-0.030796036,-0.059955716,0.05992806,0.74502724,0.2543568,-0.6166335,0.33474082,-0.9421778,0.015798181,-0.57695997,-0.21818244,-0.78709173,,0.09574023,1.3379694,0.44838923,0.99480796,-0.00972157,-0.10130436,-0.071795195,-0.7725417,-0.63089204,-0.07212858,0.6348896,-0.7692286,,-0.08915725,0.2557124,-0.097934514,0.3882303,0.77796084,0.49401838,-0.9087145,0.23396485,0.3456855,0.15334687,-0.58312726,0.7977765,,0.075881414,0.4022989,-0.42889655,-0.66863763,-0.21992715,0.7103209,-0.32298574,-0.7745417,-0.5438432,0.669779,-0.5930576,0.44685438,,0.9872510024422386,0.36636644755321074,0.16368772346000002,-0.11742636835133363,0.2847504655111779,0.6358867389105533,-0.4122804229229209,,-0.8875814119674971,-0.2087454695902885,0.13658100327,4.537690377005107,0.6528491958792744,-0.2835613013933488,0.8751975063474683,,-0.03807872095538629,-0.09291914771461311,0.09128653716,-0.07097759633537142,,-9.382889e-05,-5.1259995e-06,7.748604e-06,1.0,5.847588e-05,4.825741e-05,-5.8479607e-05,0.99999994,5.4836273e-06,-4.826486e-05,-5.453825e-06,0.99999994,799,2.503,0,1,1.639,False,-0.2585077480976805,1.05014262996886
2.515842637978494,12:07:51.327808,12:06:50.920672,0,,0.12693161,0.009847626,0.03255412,-0.35681838,-0.84108603,-0.40651542,-0.5630447,-0.15360647,0.81202567,-0.7454268,0.51863194,-0.41875938,,-0.030794173,-0.059955195,0.05992806,0.7450367,0.25435704,-0.61662185,0.33474073,-0.94217765,0.015803248,-0.5769478,-0.21818247,-0.7871007,,0.09574023,1.3379694,0.44838923,0.99480796,-0.00972157,-0.10130436,-0.071795195,-0.7725417,-0.63089204,-0.07212858,0.6348896,-0.7692286,,-0.08910447,0.2558403,-0.09810682,0.39129132,0.7799851,0.48837933,-0.90612596,0.23387277,0.3524759,0.16070734,-0.58045393,0.79827714,,0.07587956,0.40229902,-0.42889598,-0.6686486,-0.21992737,0.7103105,-0.32297722,-0.7745417,-0.5438483,0.6697722,-0.5930575,0.44686463,,0.9879923847981642,0.36634327935458805,0.16352309463,-0.11386163931209672,0.2921288364985117,0.6332190004567095,-0.4127704551213236,,-0.8875968574332456,-0.2087454695902885,0.13658100327,4.537690377005107,0.6528491958792744,-0.2835613013933488,0.8751975063474683,,-0.03807872095538629,-0.09291914771461311,0.09128653716,-0.07097759633537142,,-9.382889e-05,-5.1259995e-06,7.748604e-06,1.0,5.847588e-05,4.825741e-05,-5.8479607e-05,0.99999994,5.4836273e-06,-4.826486e-05,-5.453825e-06,0.99999994,813,2.547,0,1,1.639,False,-0.2589247921273281,1.0497563883626244
2.5480625949567184,12:07:51.366630,12:06:50.920672,0,,0.12689686,0.009868771,0.032700032,-0.35699913,-0.8426271,-0.40315157,-0.55730945,-0.15422541,0.81585574,-0.7496382,0.51593995,-0.41454566,,-0.030795783,-0.059956685,0.05992806,0.74502844,0.25435692,-0.61663187,0.3347363,-0.94217944,0.015792489,-0.57696104,-0.218175,-0.78709304,,0.09574023,1.3379694,0.44838923,0.99480796,-0.00972157,-0.10130436,-0.071795195,-0.7725417,-0.63089204,-0.07212858,0.6348896,-0.7692286,,-0.0890821,0.25595167,-0.09820701,0.39218083,0.781729,0.48486495,-0.90449524,0.23168023,0.35806787,0.1675784,-0.5789854,0.7979307,,0.075881176,0.4022983,-0.4288973,-0.6686387,-0.21992822,0.7103195,-0.32298946,-0.77453685,-0.54384786,0.66977614,-0.5930635,0.4468508,,0.9884711942363661,0.3664205066833303,0.16342976175,-0.11260349965118958,0.2989606614867837,0.6319770784993383,-0.4122804229229209,,-0.8875814119674971,-0.20875319232316272,0.13658100327,4.537690377005107,0.6528491958792744,-0.2835613013933488,0.8751975063474683,,-0.03807872095538629,-0.09291914771461311,0.09128653716,-0.07097759633537142,,-9.382889e-05,-5.1259995e-06,7.748604e-06,1.0,5.847588e-05,4.825741e-05,-5.8479607e-05,0.99999994,5.4836273e-06,-4.826486e-05,-5.453825e-06,0.99999994,822,2.577,0,1,1.639,False,-0.2588652144088064,1.0496115477602863
2.586899357032962,12:07:51.401326,12:06:51.067478,0,,0.12685892,0.009918958,0.03289047,-0.35153076,-0.848722,-0.39509124,-0.54871666,-0.15514103,0.8214872,-0.75850904,0.505571,-0.41117096,,-0.030793905,-0.05995615,0.05992806,0.745038,0.25435716,-0.6166204,0.3347362,-0.9421793,0.015797526,-0.5769488,-0.21817496,-0.787102,,0.09574023,1.3379694,0.44838923,0.99480796,-0.00972157,-0.10130436,-0.071795195,-0.7725417,-0.63089204,-0.07212858,0.6348896,-0.7692286,,-0.08905902,0.2561141,-0.0983224,0.38804245,0.7886873,0.47686,-0.9038101,0.22435467,0.3644068,0.18041722,-0.57239616,0.79988265,,0.07587931,0.40229842,-0.42889673,-0.6686496,-0.21992844,0.7103092,-0.32298094,-0.7745368,-0.543853,0.66976935,-0.5930634,0.44686106,,0.9889886173389392,0.36643595214907876,0.16333254000000003,-0.11658760857739553,0.31194112896450055,0.6244144910333791,-0.41244376698905516,,-0.8875968574332456,-0.20875319232316272,0.13658100327,4.537690377005107,0.6528491958792744,-0.2835613013933488,0.8751975063474683,,-0.03807872095538629,-0.09291914771461311,0.09128653716,-0.07097759633537142,,-9.382889e-05,-5.1259995e-06,7.748604e-06,1.0,5.847588e-05,4.825741e-05,-5.8479607e-05,0.99999994,5.4836273e-06,-4.826486e-05,-5.453825e-06,0.99999994,836,2.621,0,1,1.639,False,-0.2594014138754961,1.0499977893665218
2.621564727043733,12:07:51.445284,12:06:51.067478,0,,0.12687239,0.009942144,0.0330815,-0.34062606,-0.85696334,-0.38676554,-0.54043853,-0.15815178,0.82638615,-0.7693503,0.49051157,-0.40926534,,-0.030795783,-0.059956685,0.05992806,0.74502844,0.25435692,-0.61663187,0.3347363,-0.94217944,0.015792489,-0.57696104,-0.218175,-0.78709304,,0.09574023,1.3379694,0.44838923,0.99480796,-0.00972157,-0.10130436,-0.071795195,-0.7725417,-0.63089204,-0.07212858,0.6348896,-0.7692286,,-0.0890886,0.2562555,-0.09845021,0.37866223,0.7980913,0.46868458,-0.904734,0.21242672,0.3692306,0.19511858,-0.56384856,0.8024983,,0.075881176,0.4022983,-0.4288973,-0.6686387,-0.21992822,0.7103195,-0.32298946,-0.77453685,-0.54384786,0.66977614,-0.5930635,0.4468508,,0.9889886173389392,0.3663973384847076,0.16323013309,-0.12602365603419913,0.326971143938699,0.6145272050908489,-0.4129337991874582,,-0.8875814119674971,-0.20875319232316272,0.13658100327,4.537690377005107,0.6528491958792744,-0.2835613013933488,0.8751975063474683,,-0.03807872095538629,-0.09291914771461311,0.09128653716,-0.07097759633537142,,-9.382889e-05,-5.1259995e-06,7.748604e-06,1.0,5.847588e-05,4.825741e-05,-5.8479607e-05,0.99999994,5.4836273e-06,-4.826486e-05,-5.453825e-06,0.99999994,845,2.65,0,1,1.639,False,-0.2580907040680329,1.049514987358727
2.6655287710018456,12:07:51.475401,12:06:51.067478,0,,0.12688111,0.009874001,0.03323564,-0.33533898,-0.86001915,-0.384597,-0.5378177,-0.1604192,0.827658,-0.77349836,0.484389,-0.40873864,,-0.030796275,-0.05995564,0.05992806,0.7450978,0.25415924,-0.61662954,0.3345848,-0.94223094,0.01592809,-0.5769592,-0.21818292,-0.7870922,,0.09574023,1.3379694,0.44838923,0.99480796,-0.00972157,-0.10130436,-0.071795195,-0.7725417,-0.63089204,-0.07212858,0.6348896,-0.7692286,,-0.08911525,0.25630358,-0.09860977,0.3739341,0.8015625,0.46655214,-0.90552175,0.2067789,0.37050357,0.20050861,-0.56101704,0.80315393,,0.075881645,0.402299,-0.4288965,-0.66870695,-0.21973081,0.71031636,-0.323088,-0.77455443,-0.5437643,0.66966045,-0.59311366,0.44695756,,0.9888341626814546,0.3663201111559654,0.16308105974,-0.1308465247343432,0.3325732404290821,0.6112659308815447,-0.4116270466583838,,-0.8875814119674971,-0.20875319232316272,0.13658100327,4.537900066948591,0.6528491958792744,-0.2835613013933488,0.8751975063474683,,-0.03807872095538629,-0.09291914771461311,0.09128653716,-0.07097759633537142,,-9.382889e-05,-5.1259995e-06,7.748604e-06,1.0,5.847588e-05,4.825741e-05,-5.8479607e-05,0.99999994,5.4836273e-06,-4.826486e-05,-5.453825e-06,0.99999994,868,2.724,0,1,1.639,False,-0.2585077480976805,1.0493218665556094
