AlexandreBanks6/ExpertPlaybackApp/resources/Motions/P_08/PC1/Data_PC1_5.csv
Task Time,PC1 Time,PC2 Time,Gaze Calib,s_T_psm1,Tx,Ty,Tz,R00,R01,R02,R10,R11,R12,R20,R21,R22,s_T_psm3,Tx,Ty,Tz,R00,R01,R02,R10,R11,R12,R20,R21,R22,cart_T_ecm,Tx,Ty,Tz,R00,R01,R02,R10,R11,R12,R20,R21,R22,ecm_T_psm1,Tx,Ty,Tz,R00,R01,R02,R10,R11,R12,R20,R21,R22,ecm_T_psm3,Tx,Ty,Tz,R00,R01,R02,R10,R11,R12,R20,R21,R22,psm1_joints,q1,q2,q3,q4,q5,q6,jaw,psm3_joints,q1,q2,q3,q4,q5,q6,jaw,ecm_joints,q1,q2,q3,q4,ecmi_T_ecm,Tx,Ty,Tz,R00,R01,R02,R10,R11,R12,R20,R21,R22,Sample #,Task Duration (s),Collisions (binary),Collisions (increments),Cumulative Collision Time (s),Clutch Press,MTMR Angle,MTML Angle
""
lci_T_si,,,,,-0.04389513,0.04956866,0.22526956,0.9963894,-0.034623533,0.077520534,0.021735294,-0.77861404,-0.6271266,0.08207192,0.62654716,-0.7750502
rci_T_si,,,,,-0.052055437,0.051523127,0.23220907,0.9938266,-0.05988071,0.09339668,0.01678995,-0.7509601,-0.6601341,0.10966648,0.6576269,-0.7453188
ecm_T_lc,,,,,-4.4061628e-05,-0.00034663224,-0.01840835,-0.99912,0.030754527,0.028518902,-0.031987965,-0.99852574,-0.043852776,0.027128186,-0.04472645,0.9986309
ecm_T_rc,,,,,-0.0043358393,0.01870579,-0.007592615,-0.99555075,-0.052743673,-0.078081585,0.04863213,-0.9973746,0.053654674,-0.08070653,0.04961868,0.9955021
cart_T_ecmi,,,,,0.09631832,1.3397226,0.4502967,0.99511164,-0.010630815,-0.0981826,-0.070399664,-0.773592,-0.62976134,-0.0692584,0.6335949,-0.7705588
ecmac_T_ecmrep_psm1,,,,,0.006309411,-0.25313872,-0.31568977,0.99868697,0.047558498,0.019040095,-0.047043137,0.9985371,-0.026657216,-0.020280018,0.025726508,0.99946326
ecmac_T_ecmrep_psm3,,,,,-0.020520164,-0.44355312,-0.56256753,0.99888426,-0.027940953,0.03807337,0.020709034,0.9837047,0.17859514,-0.04244307,-0.17760742,0.9831857
""
0,11:47:56.995469,11:46:56.554202,0,,0.080606386,0.005105637,0.019760564,0.70705295,-0.37902424,-0.59700656,0.04929048,-0.8157624,0.5762829,-0.70544076,-0.43688917,-0.558105,,-0.02168122,-0.012302622,0.041045845,0.8309843,0.4680974,0.30058298,0.32620013,-0.847703,0.4183217,0.45062032,-0.24956855,-0.8571212,,0.096330784,1.3397245,0.4502906,0.9951109,-0.010638563,-0.098188914,-0.070409626,-0.7735919,-0.6297604,-0.0692584,0.6335949,-0.7705588,,-0.059575308,0.22780894,-0.1027294,-0.64923435,0.3669627,0.666208,-0.420277,-0.90312886,0.08789499,0.63392586,-0.22292747,0.7405682,,0.05348285,0.3979976,-0.3878899,-0.8775978,-0.4304912,-0.21094874,0.47865775,-0.7624153,-0.43544194,0.026623378,-0.48311514,0.87515193,,1.027509608915571,0.1398664150850801,0.16768418553000003,-1.8096242122714452,0.6364528159074216,-0.15208369470652533,-0.4155473042456064,,-1.03971924958972,-0.08063305393977811,0.16336105838,4.538109756892076,-0.2791483690207948,-0.18215546203341182,0.875687538545871,,-0.03504184805691615,-0.0946797485975624,0.08866477723999999,-0.07032342494057536,,1.2693927e-05,-5.6624413e-06,2.2649765e-06,1.0,-7.7188015e-06,-6.3478947e-06,7.715076e-06,1.0,-6.854534e-07,6.340444e-06,6.854534e-07,1.0,36,0.108,0,0,0.0,False,-0.2585077480976805,1.0509151131813312
0.12355312600266188,11:47:57.022268,11:46:56.554202,0,,0.08037199,0.005150549,0.020219207,0.6965964,-0.38394612,-0.60608494,0.057073116,-0.81242985,0.58025885,-0.71518964,-0.4387973,-0.54402274,,-0.021621205,-0.012283921,0.041068435,0.8309878,0.468117,0.30054277,0.32623786,-0.8476939,0.41831076,0.4505866,-0.24956265,-0.85714066,,0.096330784,1.3397245,0.4502906,0.9951109,-0.010638563,-0.098188914,-0.070409626,-0.7735919,-0.6297604,-0.0692584,0.6335949,-0.7705588,,-0.059373528,0.22813952,-0.10307189,-0.6376892,0.37218085,0.6744138,-0.42049238,-0.9017628,0.100050434,0.6453981,-0.21978478,0.73154354,,0.053420577,0.3980214,-0.38788563,-0.87759805,-0.43051142,-0.21090658,0.47865453,-0.7624068,-0.4354603,0.026674017,-0.48311052,0.875153,,1.028745246175447,0.14029116539316244,0.16737307593,-1.8100435921584141,0.6516194673813854,-0.1575083891048803,-0.414730583914935,,-1.0397038041239715,-0.08063305393977811,0.16336105838,4.538109756892076,-0.2791483690207948,-0.18215546203341182,0.875687538545871,,-0.03504184805691615,-0.0946797485975624,0.08866477723999999,-0.07032342494057536,,1.2693927e-05,-5.6624413e-06,2.2649765e-06,1.0,-7.7188015e-06,-6.3478947e-06,7.715076e-06,1.0,-6.854534e-07,6.340444e-06,6.854534e-07,1.0,48,0.144,0,0,0.0,False,-0.25820985950507547,1.0507219923782136
0.1503532810602337,11:47:57.064350,11:46:56.554202,0,,0.080103666,0.005184889,0.020655721,0.68731487,-0.38906544,-0.61337286,0.0655503,-0.8077784,0.58583015,-0.7233957,-0.4428565,-0.5296949,,-0.021627374,-0.012287617,0.041065574,0.83100384,0.46811253,0.30050534,0.32625535,-0.8476975,0.41828996,0.4505443,-0.24955904,-0.85716397,,0.096330784,1.3397245,0.4502906,0.9951109,-0.010638563,-0.098188914,-0.070409626,-0.7735919,-0.6297604,-0.0692584,0.6335949,-0.7705588,,-0.059136868,0.22844808,-0.10340736,-0.6273921,0.37782446,0.6809022,-0.41919342,-0.9007652,0.11357354,0.65624386,-0.21417458,0.7235145,,0.05342705,0.3980174,-0.38788712,-0.87760967,-0.43050733,-0.21086667,0.478631,-0.7624058,-0.43548796,0.026714787,-0.48311576,0.87514883,,1.0305060292707702,0.14063096563962832,0.16709696616000003,-1.812350181536744,0.6648732078586332,-0.16619227851977855,-0.41571064831174065,,-1.039657467726726,-0.08064849940552656,0.16336235467000002,4.538109756892076,-0.2791483690207948,-0.18215546203341182,0.875687538545871,,-0.03504184805691615,-0.0946797485975624,0.08866477723999999,-0.07032342494057536,,1.2693927e-05,-5.6624413e-06,2.2649765e-06,1.0,-7.7188015e-06,-6.3478947e-06,7.715076e-06,1.0,-6.854534e-07,6.340444e-06,6.854534e-07,1.0,56,0.169,0,0,0.0,False,-0.25820985950507547,1.0507219923782136
0.19244214706122875,11:47:57.085831,11:46:56.685494,0,,0.07998176,0.005208403,0.02079852,0.68485475,-0.3907968,-0.61502177,0.06722835,-0.80653566,0.58735025,-0.72557163,-0.44359642,-0.52608734,,-0.021630712,-0.012288526,0.04106456,0.8310614,0.46812442,0.3003277,0.3262949,-0.84765846,0.41833812,0.45040953,-0.2496692,-0.85720277,,0.096330784,1.3397245,0.4502906,0.9951109,-0.010638563,-0.098188914,-0.070409626,-0.7735919,-0.6297604,-0.0692584,0.6335949,-0.7705588,,-0.059024822,0.22855866,-0.10351231,-0.6246926,0.37966883,0.6823567,-0.41928586,-0.90027475,0.11706704,0.65875524,-0.21297161,0.7215848,,0.053430494,0.39801636,-0.38788742,-0.87765276,-0.4305077,-0.21068636,0.47854534,-0.7624685,-0.43547228,0.02683244,-0.48301643,0.8752001,,1.031363252619809,0.14065413383825098,0.16700881844,-1.812350181536744,0.6677425743537074,-0.16812366079670055,-0.4148939279810693,,-1.0396420222609777,-0.08064849940552656,0.16336235467000002,4.538109756892076,-0.2790117325210294,-0.18226687993710822,0.875687538545871,,-0.03504184805691615,-0.0946797485975624,0.08866477723999999,-0.07032342494057536,,1.2693927e-05,-5.6624413e-06,2.2649765e-06,1.0,-7.7188015e-06,-6.3478947e-06,7.715076e-06,1.0,-6.854534e-07,6.340444e-06,6.854534e-07,1.0,63,0.19,0,0,0.0,False,-0.25737577144578117,1.0502874705711984
0.21391999104525894,11:47:57.105925,11:46:56.685494,0,,0.07986005,0.0052181035,0.020908535,0.68407375,-0.3891872,-0.6169088,0.07006636,-0.8067887,0.58667076,-0.7260398,-0.4445505,-0.5246342,,-0.021631867,-0.012288779,0.041064322,0.8310642,0.46812385,0.30032077,0.32629707,-0.8476582,0.41833693,0.45040277,-0.24967098,-0.85720575,,0.096330784,1.3397245,0.4502906,0.9951109,-0.010638563,-0.098188914,-0.070409626,-0.7735919,-0.6297604,-0.0692584,0.6335949,-0.7705588,,-0.05891125,0.2286376,-0.10360108,-0.6237309,0.3781233,0.68409246,-0.41740483,-0.901093,0.117492855,0.66085774,-0.21225958,0.7198701,,0.053431667,0.39801612,-0.38788754,-0.87765485,-0.43050697,-0.21067916,0.4785412,-0.7624697,-0.43547475,0.02683845,-0.48301518,0.87520057,,1.032220475968848,0.1406232429067541,0.1669362262,-1.815076150802043,0.6689723028515964,-0.16896306444968723,-0.41456723984880073,,-1.0396342995281036,-0.08064849940552656,0.16336235467000002,4.538109756892076,-0.2790117325210294,-0.18226687993710822,0.875687538545871,,-0.03504184805691615,-0.0946797485975624,0.08866477723999999,-0.07032342494057536,,1.2693927e-05,-5.6624413e-06,2.2649765e-06,1.0,-7.7188015e-06,-6.3478947e-06,7.715076e-06,1.0,-6.854534e-07,6.340444e-06,6.854534e-07,1.0,71,0.214,0,0,0.0,False,-0.25791197091247,1.0506254319766548
0.23401749902404845,11:47:57.136933,11:46:56.685494,0,,0.07966077,0.005246952,0.021076754,0.6817068,-0.38920197,-0.61951405,0.07375631,-0.80589104,0.58745164,-0.72789824,-0.4461627,-0.5206754,,-0.021631867,-0.012288779,0.041064322,0.8310642,0.46812385,0.30032077,0.32629707,-0.8476582,0.41833693,0.45040277,-0.24967098,-0.85720575,,0.096330784,1.3397245,0.4502906,0.9951109,-0.010638563,-0.098188914,-0.070409626,-0.7735919,-0.6297604,-0.0692584,0.6335949,-0.7705588,,-0.05872376,0.22876918,-0.103729054,-0.621042,0.37830475,0.6864345,-0.4157516,-0.9014398,0.12065208,0.66442263,-0.21045622,0.7171128,,0.053431667,0.39801612,-0.38788754,-0.87765485,-0.43050697,-0.21067916,0.4785412,-0.7624697,-0.43547475,0.02683845,-0.48301518,0.87520057,,1.0335796769547114,0.1405614610437603,0.16683900445000002,-1.8175924301238569,0.6719783058464361,-0.17157761581128975,-0.41456723984880073,,-1.0396342995281036,-0.08064849940552656,0.16336235467000002,4.538109756892076,-0.2790117325210294,-0.18226687993710822,0.875687538545871,,-0.03504184805691615,-0.0946797485975624,0.08866477723999999,-0.07032342494057536,,1.2693927e-05,-5.6624413e-06,2.2649765e-06,1.0,-7.7188015e-06,-6.3478947e-06,7.715076e-06,1.0,-6.854534e-07,6.340444e-06,6.854534e-07,1.0,83,0.251,0,0,0.0,False,-0.25815028178655464,1.0505288715750958
0.2650032740784809,11:47:57.167245,11:46:56.685494,0,,0.079430595,0.005313307,0.021251887,0.6779059,-0.39266732,-0.621495,0.076277286,-0.8032675,0.5907139,-0.73118085,-0.44785422,-0.5145883,,-0.02163332,-0.0122879,0.041064262,0.8310673,0.46812403,0.30031183,0.32629696,-0.84765553,0.41834244,0.45039707,-0.24967986,-0.8572061,,0.096330784,1.3397245,0.4502906,0.9951109,-0.010638563,-0.098188914,-0.070409626,-0.7735919,-0.6297604,-0.0692584,0.6335949,-0.7705588,,-0.05850403,0.22893418,-0.10384109,-0.6168809,0.3820191,0.68812746,-0.41589838,-0.9004889,0.12707563,0.66819644,-0.20780055,0.71437556,,0.05343311,0.39801675,-0.38788688,-0.87765735,-0.43050623,-0.21067029,0.4785364,-0.76247495,-0.43547085,0.026842093,-0.48300758,0.8752046,,1.0351551144610533,0.14053057011226341,0.16676122705000002,-1.8175924301238569,0.6760774008393994,-0.175736940323588,-0.41456723984880073,,-1.0396265767952293,-0.08064077667265233,0.16336235467000002,4.538109756892076,-0.2790117325210294,-0.18226687993710822,0.875687538545871,,-0.03504184805691615,-0.0946797485975624,0.08866477723999999,-0.07032342494057536,,1.2693927e-05,-5.6624413e-06,2.2649765e-06,1.0,-7.7188015e-06,-6.3478947e-06,7.715076e-06,1.0,-6.854534e-07,6.340444e-06,6.854534e-07,1.0,90,0.272,0,0,0.0,False,-0.25737577144578117,1.0505771517758753
0.2953373930649832,11:47:57.186484,11:46:56.685494,0,,0.07925776,0.0053691044,0.021349117,0.6766428,-0.3914947,-0.6236077,0.07962611,-0.8030616,0.590552,-0.7319933,-0.44924805,-0.5122127,,-0.021632157,-0.012287617,0.0410645,0.8310645,0.46812457,0.30031875,0.32629478,-0.8476558,0.41834366,0.45040375,-0.24967808,-0.8572031,,0.096330784,1.3397245,0.4502906,0.9951109,-0.010638563,-0.098188914,-0.070409626,-0.7735919,-0.6297604,-0.0692584,0.6335949,-0.7705588,,-0.05833619,0.22904065,-0.10389524,-0.6153867,0.38096547,0.6900467,-0.4138433,-0.90123445,0.12849206,0.6708449,-0.2064989,0.71226776,,0.053431932,0.398017,-0.38788673,-0.87765527,-0.43050694,-0.21067749,0.47854054,-0.76247376,-0.43546838,0.026836086,-0.48300883,0.87520415,,1.036383028988055,0.1405614610437603,0.1667288198,-1.8205280893326405,0.6777170388365846,-0.17731899138836665,-0.41489392798106933,,-1.0396342995281036,-0.08064077667265233,0.16336235467000002,4.538109756892076,-0.2790117325210294,-0.18226687993710822,0.875687538545871,,-0.03504184805691615,-0.0946797485975624,0.08866477723999999,-0.07032342494057536,,1.2693927e-05,-5.6624413e-06,2.2649765e-06,1.0,-7.7188015e-06,-6.3478947e-06,7.715076e-06,1.0,-6.854534e-07,6.340444e-06,6.854534e-07,1.0,98,0.296,0,0,0.0,False,-0.25725661600873906,1.0502874705711984
0.3145707290386781,11:47:57.217129,11:46:56.824578,0,,0.078966394,0.005480647,0.021519244,0.6740691,-0.39138788,-0.6264555,0.08495477,-0.8013826,0.5920881,-0.73376673,-0.45232853,-0.5069371,,-0.021633022,-0.012289062,0.041064084,0.831067,0.46812338,0.30031386,0.32629925,-0.84765804,0.41833568,0.4503961,-0.24967277,-0.85720867,,0.096330784,1.3397245,0.4502906,0.9951109,-0.010638563,-0.098188914,-0.070409626,-0.7735919,-0.6297604,-0.0692584,0.6335949,-0.7705588,,-0.058052782,0.22923753,-0.10398009,-0.6124121,0.38117576,0.69257236,-0.4108776,-0.9019257,0.13307753,0.67537475,-0.20306416,0.7089668,,0.05343284,0.3980159,-0.3878877,-0.87765694,-0.4305063,-0.21067195,0.47853705,-0.7624709,-0.43547723,0.026844457,-0.48301393,0.87520105,,1.0384913350627183,0.14069274750262212,0.16667826449,-1.824721888202331,0.6808596783311898,-0.18176021419661736,-0.41391386358426363,,-1.0396265767952293,-0.08064849940552656,0.16336235467000002,4.538109756892076,-0.2790117325210294,-0.18226687993710822,0.875687538545871,,-0.03504184805691615,-0.0946797485975624,0.08866477723999999,-0.07032342494057536,,1.2693927e-05,-5.6624413e-06,2.2649765e-06,1.0,-7.7188015e-06,-6.3478947e-06,7.715076e-06,1.0,-6.854534e-07,6.340444e-06,6.854534e-07,1.0,106,0.32,0,0,0.0,False,-0.25820985950507547,1.0499012289649627
0.3452119870344177,11:47:57.240308,11:46:56.824578,0,,0.07858827,0.005638644,0.021793425,0.66494846,-0.3987305,-0.63155174,0.09135777,-0.7958056,0.598621,-0.7412809,-0.45574915,-0.4927427,,-0.021632455,-0.012286454,0.04106462,0.8310649,0.46812525,0.30031675,0.32629257,-0.84765327,0.41835043,0.45040476,-0.24968514,-0.8572005,,0.096330784,1.3397245,0.4502906,0.9951109,-0.010638563,-0.098188914,-0.070409626,-0.7735919,-0.6297604,-0.0692584,0.6335949,-0.7705588,,-0.057688236,0.22953744,-0.10412247,-0.6024355,0.38903475,0.69693863,-0.4107258,-0.8997921,0.14723618,0.6843799,-0.19755036,0.70185333,,0.0534322,0.39801785,-0.38788593,-0.8776557,-0.43050689,-0.21067584,0.47853988,-0.7624778,-0.43546197,0.026833724,-0.48300248,0.8752077,,1.0410166687125897,0.1409321522217231,0.16660956112000003,-1.8251412680893002,0.6919272348121904,-0.1907850643960275,-0.41391386358426363,,-1.0396342995281036,-0.08063305393977811,0.16336235467000002,4.538109756892076,-0.2790117325210294,-0.18226687993710822,0.875687538545871,,-0.03504184805691615,-0.0946797485975624,0.08866477723999999,-0.07032342494057536,,1.2693927e-05,-5.6624413e-06,2.2649765e-06,1.0,-7.7188015e-06,-6.3478947e-06,7.715076e-06,1.0,-6.854534e-07,6.340444e-06,6.854534e-07,1.0,118,0.357,0,0,0.0,False,-0.2586269035347226,1.0503840309727575
0.3683994290186092,11:47:57.270999,11:46:56.824578,0,,0.07825576,0.0058361664,0.022015512,0.65989447,-0.40352052,-0.63380635,0.09245598,-0.79352707,0.60147023,-0.74564815,-0.45550603,-0.48633644,,-0.021632582,-0.012286663,0.04106456,0.8309008,0.46851322,0.30016568,0.32666144,-0.8474438,0.41848686,0.45044014,-0.24966848,-0.8571868,,0.096330784,1.3397245,0.4502906,0.9951109,-0.010638563,-0.098188914,-0.070409626,-0.7735919,-0.6297604,-0.0692584,0.6335949,-0.7705588,,-0.057363186,0.2298339,-0.10419569,-0.597021,0.3939067,0.6988587,-0.41265056,-0.8978541,0.15354992,0.68795747,-0.19671188,0.69858354,,0.053432338,0.3980177,-0.38788608,-0.8774999,-0.4308964,-0.21052842,0.478811,-0.7623698,-0.435353,0.02709153,-0.48282555,0.87529737,,1.0436346751569519,0.14123333880381783,0.16656030210000003,-1.8219959189370323,0.6961629663049191,-0.19227872964724305,-0.41473058391493506,,-1.0396342995281036,-0.08064077667265233,0.16336235467000002,4.537690377005107,-0.2790117325210294,-0.1823485586772488,0.8758508826120054,,-0.03504184805691615,-0.0946797485975624,0.08866477723999999,-0.07032342494057536,,1.2693927e-05,-5.6624413e-06,2.2649765e-06,1.0,-7.7188015e-06,-6.3478947e-06,7.715076e-06,1.0,-6.854534e-07,6.340444e-06,6.854534e-07,1.0,126,0.382,0,0,0.0,False,-0.25820985950507547,1.0503840309727575
0.3990888730622828,11:47:57.301751,11:46:56.824578,0,,0.07789828,0.0060761496,0.02230461,0.6480268,-0.41137215,-0.64096344,0.09489623,-0.7914119,0.6038723,-0.75568235,-0.4521504,-0.4738186,,-0.021632291,-0.012287825,0.04106444,0.8309005,0.46851254,0.3001677,0.32666367,-0.8474462,0.41848013,0.45043913,-0.24966139,-0.8571894,,0.096330784,1.3397245,0.4502906,0.9951109,-0.010638563,-0.098188914,-0.070409626,-0.7735919,-0.6297604,-0.0692584,0.6335949,-0.7705588,,-0.05701601,0.2302061,-0.104295135,-0.5843302,0.40158826,0.7051844,-0.4171347,-0.8940206,0.1634803,0.6961011,-0.19863041,0.68991965,,0.053432073,0.39801684,-0.38788688,-0.87749946,-0.43089646,-0.21053009,0.47881165,-0.76236576,-0.43535942,0.027093895,-0.4828319,0.8752938,,1.0461213951424522,0.14173531644064244,0.1665214134,-1.815495530689012,0.7087335242833396,-0.1915025468683379,-0.41571064831174076,,-1.0396342995281036,-0.08064849940552656,0.16336235467000002,4.537690377005107,-0.2790117325210294,-0.1823485586772488,0.8758508826120054,,-0.03504184805691615,-0.0946797485975624,0.08866477723999999,-0.07032342494057536,,1.2693927e-05,-5.6624413e-06,2.2649765e-06,1.0,-7.7188015e-06,-6.3478947e-06,7.715076e-06,1.0,-6.854534e-07,6.340444e-06,6.854534e-07,1.0,137,0.415,0,0,0.0,False,-0.2583290149421176,1.0499012289649627
0.42982622201088816,11:47:57.332149,11:46:56.824578,0,,0.07757357,0.006328836,0.022667289,0.6297453,-0.41971478,-0.6536516,0.09847623,-0.7915411,0.60312927,-0.77053446,-0.44418687,-0.45713753,,-0.021632291,-0.012287825,0.04106444,0.8309005,0.46848804,0.30020598,0.32666367,-0.8474805,0.41841096,0.45043913,-0.24959144,-0.8572098,,0.096330784,1.3397245,0.4502906,0.9951109,-0.010638563,-0.098188914,-0.070409626,-0.7735919,-0.6297604,-0.0692584,0.6335949,-0.7705588,,-0.056706242,0.23063505,-0.10443964,-0.564835,0.40929914,0.7165442,-0.42379102,-0.88894606,0.17371272,0.7080696,-0.20554596,0.6755652,,0.053432073,0.39801684,-0.38788688,-0.87749946,-0.43087927,-0.21056528,0.47881165,-0.76233023,-0.43542168,0.027093895,-0.4829034,0.8752544,,1.048291483080109,0.1424844215294422,0.16646567293,-1.8050110335147855,0.7295022722476866,-0.18507794854999315,-0.4134238313858608,,-1.0396342995281036,-0.08064849940552656,0.16336235467000002,4.537690377005107,-0.2790117325210294,-0.18226687993710824,0.8760142266781397,,-0.03504184805691615,-0.0946797485975624,0.08866477723999999,-0.07032342494057536,,1.2693927e-05,-5.6624413e-06,2.2649765e-06,1.0,-7.7188015e-06,-6.3478947e-06,7.715076e-06,1.0,-6.854534e-07,6.340444e-06,6.854534e-07,1.0,145,0.439,0,0,0.0,False,-0.25773323775690704,1.0507219923782136
0.46019515208899975,11:47:57.360691,11:46:56.971515,0,,0.077389404,0.006493531,0.02291441,0.6177666,-0.4223719,-0.6632996,0.101914644,-0.7933862,0.6001262,-0.77972937,-0.43833774,-0.44708174,,-0.021632582,-0.012286663,0.04106456,0.8309008,0.4684887,0.30020395,0.32666144,-0.84747803,0.4184177,0.45044014,-0.2495985,-0.8572072,,0.096330784,1.3397245,0.4502906,0.9951109,-0.010638563,-0.098188914,-0.070409626,-0.7735919,-0.6297604,-0.0692584,0.6335949,-0.7705588,,-0.056532502,0.23092131,-0.10453949,-0.55204344,0.41141462,0.72524893,-0.42697018,-0.8865861,0.17793673,0.7162014,-0.21143088,0.6650958,,0.053432338,0.3980177,-0.38788608,-0.8774999,-0.4308792,-0.21056361,0.478811,-0.7623343,-0.4354153,0.02709153,-0.48289704,0.87525797,,1.0495811794701047,0.1431176856251286,0.16642030278000003,-1.7993494050407037,0.7434391952237615,-0.17847325189610438,-0.4157106483117406,,-1.0396342995281036,-0.08064077667265233,0.16336235467000002,4.537690377005107,-0.2790117325210294,-0.18226687993710824,0.8760142266781397,,-0.03504184805691615,-0.0946797485975624,0.08866477723999999,-0.07032342494057536,,1.2693927e-05,-5.6624413e-06,2.2649765e-06,1.0,-7.7188015e-06,-6.3478947e-06,7.715076e-06,1.0,-6.854534e-07,6.340444e-06,6.854534e-07,1.0,153,0.464,0,0,0.0,False,-0.2583885926606384,1.0500943497680806
0.4887745709856972,11:47:57.386488,11:46:56.971515,0,,0.07718686,0.006763011,0.023226187,0.60320365,-0.42865464,-0.6726072,0.10302293,-0.7943634,0.5986426,-0.79090554,-0.43039727,-0.43500176,,-0.021632291,-0.012287825,0.04106444,0.8309005,0.46848804,0.30020598,0.32666367,-0.8474805,0.41841096,0.45043913,-0.24959144,-0.8572098,,0.096330784,1.3397245,0.4502906,0.9951109,-0.010638563,-0.098188914,-0.070409626,-0.7735919,-0.6297604,-0.0692584,0.6335949,-0.7705588,,-0.05633975,0.23132958,-0.10462333,-0.53665394,0.4170313,0.7335444,-0.43318886,-0.88219154,0.18462269,0.7241201,-0.21868478,0.65408486,,0.053432073,0.39801684,-0.38788688,-0.87749946,-0.43087927,-0.21056528,0.47881165,-0.76233023,-0.43542168,0.027093895,-0.4829034,0.8752544,,1.0512801807024341,0.14414480909740046,0.16637363634000002,-1.7882358380360237,0.7588791196972562,-0.16982700257725386,-0.41309714325359226,,-1.0396342995281036,-0.08064849940552656,0.16336235467000002,4.537690377005107,-0.2790117325210294,-0.18226687993710824,0.8760142266781397,,-0.03504184805691615,-0.0946797485975624,0.08866477723999999,-0.07032342494057536,,1.2693927e-05,-5.6624413e-06,2.2649765e-06,1.0,-7.7188015e-06,-6.3478947e-06,7.715076e-06,1.0,-6.854534e-07,6.340444e-06,6.854534e-07,1.0,161,0.488,0,0,0.0,False,-0.25791197091247,1.050046069567301
0.5145444140071049,11:47:57.409390,11:46:56.971515,0,,0.07709133,0.0069474876,0.023404062,0.59660435,-0.43170452,-0.6765312,0.10249758,-0.7951005,0.5977535,-0.7959632,-0.425965,-0.43011186,,-0.021632291,-0.012287825,0.04106444,0.8309005,0.46848804,0.30020598,0.32666367,-0.8474805,0.41841096,0.45043913,-0.24959144,-0.8572098,,0.096330784,1.3397245,0.4502906,0.9951109,-0.010638563,-0.098188914,-0.070409626,-0.7735919,-0.6297604,-0.0692584,0.6335949,-0.7705588,,-0.056248102,0.23158589,-0.10464969,-0.52973455,0.4197012,0.7370429,-0.43679035,-0.87988883,0.18710911,0.7270457,-0.22281508,0.6494289,,0.053432073,0.39801684,-0.38788688,-0.87749946,-0.43087927,-0.21056528,0.47881165,-0.76233023,-0.43542168,0.027093895,-0.4829034,0.8752544,,1.0523304723733287,0.1449093596519487,0.16634252538000002,-1.7815257598445187,0.7651643986864665,-0.16408895370859455,-0.4148939279810693,,-1.0396342995281036,-0.08064849940552656,0.16336235467000002,4.537690377005107,-0.2790117325210294,-0.18226687993710824,0.8760142266781397,,-0.03504184805691615,-0.0946797485975624,0.08866477723999999,-0.07032342494057536,,1.2693927e-05,-5.6624413e-06,2.2649765e-06,1.0,-7.7188015e-06,-6.3478947e-06,7.715076e-06,1.0,-6.854534e-07,6.340444e-06,6.854534e-07,1.0,169,0.513,0,0,0.0,False,-0.2568991496976123,1.0502391903704191
0.5374166200635955,11:47:57.434335,11:46:56.971515,0,,0.076906964,0.007293761,0.023732126,0.58256614,-0.44442463,-0.6805171,0.10012543,-0.7916494,0.60271543,-0.8065926,-0.4192585,-0.41669005,,-0.021634601,-0.012288362,0.041063964,0.8309061,0.468487,0.30019215,0.32666802,-0.84748006,0.4184085,0.45042568,-0.24959499,-0.8572159,,0.096330784,1.3397245,0.4502906,0.9951109,-0.010638563,-0.098188914,-0.070409626,-0.7735919,-0.6297604,-0.0692584,0.6335949,-0.7705588,,-0.056070615,0.23206334,-0.10469518,-0.51509106,0.43205285,0.740278,-0.44533017,-0.8728443,0.1995592,0.7323676,-0.22687697,0.64200044,,0.05343442,0.39801636,-0.38788715,-0.87750363,-0.43087786,-0.21055086,0.47880337,-0.7623326,-0.43542662,0.027105907,-0.48290092,0.8752554,,1.0542611555918848,0.14619133330906997,0.16629845152000003,-1.7657990140831794,0.7780082296644178,-0.1596150272103352,-0.41309714325359215,,-1.039618854062355,-0.08064849940552656,0.16336235467000002,4.537690377005107,-0.2790117325210294,-0.18226687993710824,0.8760142266781397,,-0.03504184805691615,-0.0946797485975624,0.08866477723999999,-0.07032342494057536,,1.2693927e-05,-5.6624413e-06,2.2649765e-06,1.0,-7.7188015e-06,-6.3478947e-06,7.715076e-06,1.0,-6.854534e-07,6.340444e-06,6.854534e-07,1.0,180,0.546,0,0,0.0,False,-0.2574949268828224,1.0506737121774343
0.5624236590228975,11:47:57.462999,11:46:56.971515,0,,0.07669605,0.007620245,0.024016753,0.57519937,-0.4488011,-0.683903,0.1004971,-0.79094934,0.60357213,-0.8118165,-0.41590446,-0.40985045,,-0.021634892,-0.0122871995,0.041064143,0.8309064,0.46848768,0.30019012,0.32666576,-0.84747756,0.41841528,0.4504267,-0.24960205,-0.85721326,,0.096330784,1.3397245,0.4502906,0.9951109,-0.010638563,-0.098188914,-0.070409626,-0.7735919,-0.6297604,-0.0692584,0.6335949,-0.7705588,,-0.05586452,0.23249792,-0.10472257,-0.50734794,0.43619937,0.74318784,-0.44834498,-0.8701222,0.20463179,0.7359245,-0.22938503,0.6370225,,0.05343469,0.39801723,-0.38788635,-0.87750405,-0.4308778,-0.2105492,0.4788027,-0.7623367,-0.43542024,0.027103543,-0.48289457,0.875259,,1.0565548072555293,0.14748875243193968,0.16625048879,-1.7588792459481901,0.7841568721538626,-0.1553174565006501,-0.4126071110551894,,-1.039618854062355,-0.08064077667265233,0.16336235467000002,4.537690377005107,-0.2790117325210294,-0.18226687993710824,0.8760142266781397,,-0.03504184805691615,-0.0946797485975624,0.08866477723999999,-0.07032342494057536,,1.2693927e-05,-5.6624413e-06,2.2649765e-06,1.0,-7.7188015e-06,-6.3478947e-06,7.715076e-06,1.0,-6.854534e-07,6.340444e-06,6.854534e-07,1.0,188,0.57,0,0,0.0,False,-0.25695872741613357,1.0504805913743163
0.5910518270684406,11:47:57.486700,11:46:56.971515,0,,0.07651988,0.007840849,0.024192482,0.57289684,-0.45049286,-0.68472296,0.10269752,-0.78936964,0.60526735,-0.8131683,-0.41707492,-0.40596294,,-0.021632291,-0.012287825,0.04106444,0.8309005,0.46848804,0.30020598,0.32666367,-0.8474805,0.41841096,0.45043913,-0.24959144,-0.8572098,,0.096330784,1.3397245,0.4502906,0.9951109,-0.010638563,-0.098188914,-0.070409626,-0.7735919,-0.6297604,-0.0692584,0.6335949,-0.7705588,,-0.055690512,0.23278114,-0.10473147,-0.504839,0.43805394,0.74380535,-0.4475089,-0.8696501,0.20843323,0.7381554,-0.22763428,0.63506633,,0.053432073,0.39801684,-0.38788688,-0.87749946,-0.43087927,-0.21056528,0.47881165,-0.76233023,-0.43542168,0.027093895,-0.4829034,0.8752544,,1.058392817679595,0.14839231217822396,0.16622456299000002,-1.7588792459481901,0.7859331466508135,-0.15684756798884417,-0.41293379918745793,,-1.0396342995281036,-0.08064849940552656,0.16336235467000002,4.537690377005107,-0.2790117325210294,-0.18226687993710824,0.8760142266781397,,-0.03504184805691615,-0.0946797485975624,0.08866477723999999,-0.07032342494057536,,1.2693927e-05,-5.6624413e-06,2.2649765e-06,1.0,-7.7188015e-06,-6.3478947e-06,7.715076e-06,1.0,-6.854534e-07,6.340444e-06,6.854534e-07,1.0,196,0.595,0,0,0.0,False,-0.25731619372725945,1.0505288715750958
0.6147869030246511,11:47:57.519655,11:46:56.971515,0,,0.076197535,0.008285217,0.024519712,0.56651866,-0.46147016,-0.68271655,0.100895345,-0.7834129,0.61325705,-0.81784886,-0.4163044,-0.39725798,,-0.021632291,-0.012287825,0.04106444,0.8309005,0.46848804,0.30020598,0.32666367,-0.8474805,0.41841096,0.45043913,-0.24959144,-0.8572098,,0.096330784,1.3397245,0.4502906,0.9951109,-0.010638563,-0.098188914,-0.070409626,-0.7735919,-0.6297604,-0.0692584,0.6335949,-0.7705588,,-0.055370398,0.23333427,-0.10472605,-0.49823505,0.4492418,0.74158186,-0.45184878,-0.86450815,0.22013256,0.7399963,-0.2254051,0.6337176,,0.053432073,0.39801684,-0.38788688,-0.87749946,-0.43087927,-0.21056528,0.47881165,-0.76233023,-0.43542168,0.027093895,-0.4829034,0.8752544,,1.0618217110757504,0.1498905223558235,0.16618956316000003,-1.7496528884348712,0.7889391496456531,-0.15929876187016548,-0.41293379918745793,,-1.0396342995281036,-0.08064849940552656,0.16336235467000002,4.537690377005107,-0.2790117325210294,-0.18226687993710824,0.8760142266781397,,-0.03504184805691615,-0.0946797485975624,0.08866477723999999,-0.07032342494057536,,1.2693927e-05,-5.6624413e-06,2.2649765e-06,1.0,-7.7188015e-06,-6.3478947e-06,7.715076e-06,1.0,-6.854534e-07,6.340444e-06,6.854534e-07,1.0,208,0.632,0,0,0.0,False,-0.25683957197909146,1.0505771517758753
0.6476873910287395,11:47:57.551764,11:46:57.149485,0,,0.07567574,0.008927651,0.024973065,0.5584283,-0.47034568,-0.6833248,0.103425026,-0.77782464,0.6199129,-0.8230803,-0.41684964,-0.38571388,,-0.021633446,-0.0122881085,0.041064203,0.8309033,0.46848753,0.30019906,0.32666585,-0.8474803,0.41840973,0.45043242,-0.24959314,-0.8572128,,0.096330784,1.3397245,0.4502906,0.9951109,-0.010638563,-0.098188914,-0.070409626,-0.7735919,-0.6297604,-0.0692584,0.6335949,-0.7705588,,-0.054850604,0.2341217,-0.10470821,-0.48965728,0.4584148,0.74168164,-0.45320863,-0.8605088,0.23265111,0.7448743,-0.2222172,0.62911195,,0.053433247,0.3980166,-0.38788703,-0.87750155,-0.43087855,-0.21055807,0.4788075,-0.7623314,-0.43542415,0.027099902,-0.48290217,0.87525487,,1.0670886148959717,0.15213783762222285,0.16617400768,-1.7437815700173045,0.793858063637209,-0.16208462530112816,-0.41309714325359215,,-1.0396265767952293,-0.08064849940552656,0.16336235467000002,4.537690377005107,-0.2790117325210294,-0.18226687993710824,0.8760142266781397,,-0.03504184805691615,-0.0946797485975624,0.08866477723999999,-0.07032342494057536,,1.2693927e-05,-5.6624413e-06,2.2649765e-06,1.0,-7.7188015e-06,-6.3478947e-06,7.715076e-06,1.0,-6.854534e-07,6.340444e-06,6.854534e-07,1.0,227,0.689,0,0,0.0,False,-0.25761408231986493,1.0507219923782136
0.6798486020416021,11:47:57.603078,11:46:57.149485,0,,0.07499899,0.009801619,0.025557995,0.5493604,-0.47713754,-0.6859613,0.11071253,-0.7721332,0.6257419,-0.8282186,-0.4197022,-0.37135443,,-0.021633446,-0.0122881085,0.041064203,0.8309033,0.46848753,0.30019906,0.32666585,-0.8474803,0.41840973,0.45043242,-0.24959314,-0.8572128,,0.096330784,1.3397245,0.4502906,0.9951109,-0.010638563,-0.098188914,-0.070409626,-0.7735919,-0.6297604,-0.0692584,0.6335949,-0.7705588,,-0.054174073,0.23517221,-0.10465665,-0.4798629,0.4656892,0.74354905,-0.45085377,-0.8579269,0.24635807,0.752637,-0.2170138,0.62164503,,0.053433247,0.3980166,-0.38788703,-0.87750155,-0.43087855,-0.21055807,0.4788075,-0.7623314,-0.43542415,0.027099902,-0.48290217,0.87525487,,1.0740776881471448,0.15548950368963627,0.16618308171,-1.7421040504694283,0.8002799791261846,-0.1662594431530326,-0.41293379918745793,,-1.0396265767952293,-0.08064849940552656,0.16336235467000002,4.537690377005107,-0.2790117325210294,-0.18226687993710824,0.8760142266781397,,-0.03504184805691615,-0.0946797485975624,0.08866477723999999,-0.07032342494057536,,1.2693927e-05,-5.6624413e-06,2.2649765e-06,1.0,-7.7188015e-06,-6.3478947e-06,7.715076e-06,1.0,-6.854534e-07,6.340444e-06,6.854534e-07,1.0,235,0.714,0,0,0.0,False,-0.25767366003838577,1.0500943497680806
0.7311271299840882,11:47:57.631431,11:46:57.149485,0,,0.07477787,0.010179378,0.025776431,0.546389,-0.48174855,-0.6851112,0.11077115,-0.76925945,0.629261,-0.83017397,-0.41971177,-0.36695117,,-0.021632291,-0.012287825,0.04106444,0.8309005,0.46848804,0.30020598,0.32666367,-0.8474805,0.41841096,0.45043913,-0.24959144,-0.8572098,,0.096330784,1.3397245,0.4502906,0.9951109,-0.010638563,-0.098188914,-0.070409626,-0.7735919,-0.6297604,-0.0692584,0.6335949,-0.7705588,,-0.053950213,0.23560369,-0.104601644,-0.4767557,0.47043294,0.742561,-0.45204243,-0.8556961,0.25187668,0.7538976,-0.21558543,0.62061363,,0.053432073,0.39801684,-0.38788688,-0.87749946,-0.43087927,-0.21056528,0.47881165,-0.76233023,-0.43542168,0.027093895,-0.4829034,0.8752544,,1.0768810401804882,0.1570726639288523,0.16619734090000002,-1.7379102515997378,0.8012364346245429,-0.16679433225848583,-0.4132604873197265,,-1.0396342995281036,-0.08064849940552656,0.16336235467000002,4.537690377005107,-0.2790117325210294,-0.18226687993710824,0.8760142266781397,,-0.03504184805691615,-0.0946797485975624,0.08866477723999999,-0.07032342494057536,,1.2693927e-05,-5.6624413e-06,2.2649765e-06,1.0,-7.7188015e-06,-6.3478947e-06,7.715076e-06,1.0,-6.854534e-07,6.340444e-06,6.854534e-07,1.0,243,0.738,0,0,0.0,False,-0.25767366003838577,1.0506737121774343
0.7594842599937692,11:47:57.652169,11:46:57.149485,0,,0.07453413,0.010596797,0.02601713,0.54315764,-0.48453218,-0.68571746,0.11381611,-0.7666622,0.631882,-0.8318808,-0.42125714,-0.3612709,,-0.021633446,-0.0122881085,0.041064203,0.8309033,0.46848753,0.30019906,0.32666585,-0.8474803,0.41840973,0.45043242,-0.24959314,-0.8572128,,0.096330784,1.3397245,0.4502906,0.9951109,-0.010638563,-0.098188914,-0.070409626,-0.7735919,-0.6297604,-0.0692584,0.6335949,-0.7705588,,-0.053703386,0.23608004,-0.10454031,-0.4732511,0.47345614,0.74288136,-0.45078006,-0.8546765,0.2575373,0.75685585,-0.21299629,0.61790115,,0.053433247,0.3980166,-0.38788703,-0.87750155,-0.43087855,-0.21055807,0.4788075,-0.7623314,-0.43542415,0.027099902,-0.48290217,0.87525487,,1.0795608284878442,0.1587407742296848,0.16622067412000002,-1.7374908717127688,0.8032859821210243,-0.1685472795540727,-0.4137505195181293,,-1.0396265767952293,-0.08064849940552656,0.16336235467000002,4.537690377005107,-0.2790117325210294,-0.18226687993710824,0.8760142266781397,,-0.03504184805691615,-0.0946797485975624,0.08866477723999999,-0.07032342494057536,,1.2693927e-05,-5.6624413e-06,2.2649765e-06,1.0,-7.7188015e-06,-6.3478947e-06,7.715076e-06,1.0,-6.854534e-07,6.340444e-06,6.854534e-07,1.0,251,0.763,0,0,0.0,False,-0.2580311263495121,1.0499977893665218
0.7802581500727683,11:47:57.681816,11:46:57.284223,0,,0.074251026,0.011220723,0.02631396,0.53779495,-0.49323878,-0.68373394,0.114076376,-0.76096773,0.6386818,-0.8353222,-0.42147762,-0.3529778,,-0.021634601,-0.012288362,0.041063964,0.8309061,0.468487,0.30019215,0.32666802,-0.84748006,0.4184085,0.45042568,-0.24959499,-0.8572159,,0.096330784,1.3397245,0.4502906,0.9951109,-0.010638563,-0.098188914,-0.070409626,-0.7735919,-0.6297604,-0.0692584,0.6335949,-0.7705588,,-0.05341066,0.236751,-0.10439323,-0.46764177,0.4824424,0.7406487,-0.45275062,-0.8503885,0.26806012,0.7591627,-0.20997305,0.6161033,,0.05343442,0.39801636,-0.38788715,-0.87750363,-0.43087786,-0.21055086,0.47880337,-0.7623326,-0.43542662,0.027105907,-0.48290092,0.8752554,,1.0832600175345977,0.1612969988110531,0.16629715523000002,-1.7305711035777795,0.8057454391168024,-0.17063448056074898,-0.4137505195181293,,-1.039618854062355,-0.08064849940552656,0.16336235467000002,4.537690377005107,-0.2790117325210294,-0.18226687993710824,0.8760142266781397,,-0.03504184805691615,-0.0946797485975624,0.08866477723999999,-0.07032342494057536,,1.2693927e-05,-5.6624413e-06,2.2649765e-06,1.0,-7.7188015e-06,-6.3478947e-06,7.715076e-06,1.0,-6.854534e-07,6.340444e-06,6.854534e-07,1.0,259,0.787,0,0,0.0,False,-0.2580311263495121,1.0498529487641832
0.8098952249856666,11:47:57.706216,11:46:57.284223,0,,0.07396913,0.011850566,0.026545852,0.53435653,-0.49595854,-0.684462,0.118341744,-0.7578931,0.64155525,-0.8369339,-0.42381957,-0.34629273,,-0.021634892,-0.0122871995,0.041064143,0.8309064,0.46848768,0.30019012,0.32666576,-0.84747756,0.41841528,0.4504267,-0.24960205,-0.85721326,,0.096330784,1.3397245,0.4502906,0.9951109,-0.010638563,-0.098188914,-0.070409626,-0.7735919,-0.6297604,-0.0692584,0.6335949,-0.7705588,,-0.053114012,0.23738484,-0.1041927,-0.4638739,0.48548615,0.74102914,-0.45048997,-0.84951484,0.27456024,0.76281047,-0.20646486,0.61277443,,0.05343469,0.39801723,-0.38788635,-0.87750405,-0.4308778,-0.2105492,0.4788027,-0.7623367,-0.43542024,0.027103543,-0.48289457,0.875259,,1.086881979252609,0.1640308462485286,0.16643585826,-1.7303614136342949,0.8080682596128148,-0.17244690618344752,-0.413587175451995,,-1.039618854062355,-0.08064077667265233,0.16336235467000002,4.537690377005107,-0.2790117325210294,-0.18226687993710824,0.8760142266781397,,-0.03504184805691615,-0.0946797485975624,0.08866477723999999,-0.07032342494057536,,1.2693927e-05,-5.6624413e-06,2.2649765e-06,1.0,-7.7188015e-06,-6.3478947e-06,7.715076e-06,1.0,-6.854534e-07,6.340444e-06,6.854534e-07,1.0,270,0.82,0,0,0.0,False,-0.25737577144578117,1.050046069567301
0.8342844310682267,11:47:57.737200,11:46:57.284223,0,,0.073727295,0.01252719,0.026771128,0.5311341,-0.5023452,-0.6823092,0.1180653,-0.7535497,0.64670175,-0.83902156,-0.42404228,-0.34092653,,-0.021634601,-0.012288362,0.041063964,0.8309061,0.468487,0.30019215,0.32666802,-0.84748006,0.4184085,0.45042568,-0.24959499,-0.8572159,,0.096330784,1.3397245,0.4502906,0.9951109,-0.010638563,-0.098188914,-0.070409626,-0.7735919,-0.6297604,-0.0692584,0.6335949,-0.7705588,,-0.05285431,0.23804998,-0.10395357,-0.46052456,0.49209124,0.73875797,-0.45201856,-0.8462811,0.28193521,0.7639348,-0.2040942,0.6121676,,0.05343442,0.39801636,-0.38788715,-0.87750363,-0.43087786,-0.21055086,0.47880337,-0.7623326,-0.43542662,0.027105907,-0.48290092,0.8752554,,1.0904421591076265,0.16685736648049476,0.16658363532,-1.7242804052732437,0.8082048961125803,-0.17255832408714392,-0.413587175451995,,-1.039618854062355,-0.08064849940552656,0.16336235467000002,4.537690377005107,-0.2790117325210294,-0.18226687993710824,0.8760142266781397,,-0.03504184805691615,-0.0946797485975624,0.08866477723999999,-0.07032342494057536,,1.2693927e-05,-5.6624413e-06,2.2649765e-06,1.0,-7.7188015e-06,-6.3478947e-06,7.715076e-06,1.0,-6.854534e-07,6.340444e-06,6.854534e-07,1.0,278,0.845,0,0,0.0,False,-0.25767366003838577,1.050335750771978
0.865261557046324,11:47:57.762633,11:46:57.284223,0,,0.073464796,0.013261929,0.026989222,0.5291985,-0.5047311,-0.6820523,0.12092465,-0.75076634,0.64940506,-0.83983696,-0.426141,-0.33627015,,-0.021633446,-0.0122881085,0.041064203,0.8309033,0.46848753,0.30019906,0.32666585,-0.8474803,0.41840973,0.45043242,-0.24959314,-0.8572128,,0.096330784,1.3397245,0.4502906,0.9951109,-0.010638563,-0.098188914,-0.070409626,-0.7735919,-0.6297604,-0.0692584,0.6335949,-0.7705588,,-0.052570436,0.23875523,-0.10367362,-0.45838624,0.49476922,0.738299,-0.45033568,-0.84547704,0.28699526,0.76621133,-0.20092772,0.6103673,,0.053433247,0.3980166,-0.38788703,-0.87750155,-0.43087855,-0.21055807,0.4788075,-0.7623314,-0.43542415,0.027099902,-0.48290217,0.87525487,,1.0942880800789903,0.1700854688219206,0.16677030108000002,-1.7230222656123366,0.8082048961125803,-0.172721681567425,-0.413587175451995,,-1.0396265767952293,-0.08064849940552656,0.16336235467000002,4.537690377005107,-0.2790117325210294,-0.18226687993710824,0.8760142266781397,,-0.03504184805691615,-0.0946797485975624,0.08866477723999999,-0.07032342494057536,,1.2693927e-05,-5.6624413e-06,2.2649765e-06,1.0,-7.7188015e-06,-6.3478947e-06,7.715076e-06,1.0,-6.854534e-07,6.340444e-06,6.854534e-07,1.0,290,0.881,0,0,0.0,False,-0.2580311263495121,1.0497563883626244
0.8906575940782204,11:47:57.801416,11:46:57.284223,0,,0.07322571,0.01412873,0.027225554,0.5261513,-0.51121503,-0.67957646,0.12078002,-0.7461094,0.6547768,-0.8417702,-0.4265908,-0.330822,,-0.021634601,-0.012288362,0.041063964,0.8309061,0.4684625,0.30023038,0.32666802,-0.84751415,0.4183393,0.45042568,-0.24952489,-0.8572362,,0.096330784,1.3397245,0.4502906,0.9951109,-0.010638563,-0.098188914,-0.070409626,-0.7735919,-0.6297604,-0.0692584,0.6335949,-0.7705588,,-0.052304298,0.23957326,-0.10332101,-0.45521587,0.5015044,0.7357118,-0.45166534,-0.842148,0.2945932,0.767318,-0.19819205,0.60987127,,0.05343442,0.39801636,-0.38788715,-0.87750363,-0.43086067,-0.21058606,0.47880337,-0.76229703,-0.4354889,0.027105907,-0.4829724,0.87521595,,1.0983734057694552,0.17385416246454216,0.16699844812,-1.7163121874208318,0.8077949866132839,-0.1719790341556329,-0.41407720765039796,,-1.039618854062355,-0.08064849940552656,0.16336235467000002,4.537690377005107,-0.2790117325210294,-0.18218520119696766,0.8758508826120053,,-0.03504184805691615,-0.0946797485975624,0.08866477723999999,-0.07032342494057536,,1.2693927e-05,-5.6624413e-06,2.2649765e-06,1.0,-7.7188015e-06,-6.3478947e-06,7.715076e-06,1.0,-6.854534e-07,6.340444e-06,6.854534e-07,1.0,298,0.906,0,0,0.0,False,-0.25826943722359585,1.05014262996886
0.929505679057911,11:47:57.823540,11:46:57.441557,0,,0.073090896,0.014769241,0.027370721,0.52310574,-0.51779616,-0.6769398,0.11902693,-0.74211085,0.6596241,-0.84391534,-0.42562708,-0.32657084,,-0.021634892,-0.0122871995,0.041064143,0.8309064,0.46846315,0.3002284,0.32666576,-0.84751165,0.41834605,0.4504267,-0.24953204,-0.85723364,,0.096330784,1.3397245,0.4502906,0.9951109,-0.010638563,-0.098188914,-0.070409626,-0.7735919,-0.6297604,-0.0692584,0.6335949,-0.7705588,,-0.052147128,0.24015851,-0.103034146,-0.452116,0.5081971,0.7330258,-0.45436424,-0.83841544,0.30101937,0.7675573,-0.19696504,0.60996765,,0.05343469,0.39801723,-0.38788635,-0.87750405,-0.4308606,-0.2105844,0.4788027,-0.7623011,-0.4354825,0.027103543,-0.48296604,0.8752195,,1.1010686395425595,0.17659573263489187,0.16719029904000002,-1.7085536595119044,0.8077949866132839,-0.1706721743133839,-0.41407720765039796,,-1.039618854062355,-0.08064077667265233,0.16336235467000002,4.537690377005107,-0.2790117325210294,-0.18218520119696766,0.8758508826120053,,-0.03504184805691615,-0.0946797485975624,0.08866477723999999,-0.07032342494057536,,1.2693927e-05,-5.6624413e-06,2.2649765e-06,1.0,-7.7188015e-06,-6.3478947e-06,7.715076e-06,1.0,-6.854534e-07,6.340444e-06,6.854534e-07,1.0,306,0.931,0,0,0.0,False,-0.25761408231986493,1.0507702725789931
0.9516055170679465,11:47:57.853378,11:46:57.441557,0,,0.07290396,0.015764713,0.027635574,0.5135125,-0.52759355,-0.67671996,0.119288,-0.73709226,0.66518056,-0.84975016,-0.42230293,-0.31557065,,-0.021634601,-0.012288362,0.041063964,0.8309061,0.4684379,0.30026865,0.32666802,-0.8475483,0.41827008,0.45042568,-0.24945489,-0.8572566,,0.096330784,1.3397245,0.4502906,0.9951109,-0.010638563,-0.098188914,-0.070409626,-0.7735919,-0.6297604,-0.0692584,0.6335949,-0.7705588,,-0.051928278,0.24109311,-0.10261618,-0.44211617,0.5179713,0.7322834,-0.45783982,-0.83236206,0.3123398,0.771308,-0.19717804,0.6051486,,0.05343442,0.39801636,-0.38788715,-0.87750363,-0.43084344,-0.21062125,0.47880337,-0.76226145,-0.43555117,0.027105907,-0.48304388,0.8751765,,1.1049608969111686,0.18099769037319982,0.16749622348,-1.6957625729593484,0.8142169021022596,-0.16643408193081052,-0.4144038957826665,,-1.039618854062355,-0.08064849940552656,0.16336235467000002,4.537690377005107,-0.2790117325210294,-0.18210352245682707,0.8756875385458711,,-0.03504184805691615,-0.0946797485975624,0.08866477723999999,-0.07032342494057536,,1.2693927e-05,-5.6624413e-06,2.2649765e-06,1.0,-7.7188015e-06,-6.3478947e-06,7.715076e-06,1.0,-6.854534e-07,6.340444e-06,6.854534e-07,1.0,321,0.976,0,0,0.0,False,-0.2580311263495121,1.0502391903704191
0.9814220110420138,11:47:57.887327,11:46:57.441557,0,,0.07269566,0.01713752,0.028004438,0.49436706,-0.5374756,-0.68316996,0.12365645,-0.7344501,0.667302,-0.86041296,-0.41437042,-0.29662573,,-0.021633446,-0.0122881085,0.041064203,0.8309033,0.46848753,0.30019906,0.32666585,-0.8474803,0.41840973,0.45043242,-0.24959314,-0.8572128,,0.096330784,1.3397245,0.4502906,0.9951109,-0.010638563,-0.098188914,-0.070409626,-0.7735919,-0.6297604,-0.0692584,0.6335949,-0.7705588,,-0.05167602,0.24238396,-0.10203813,-0.42202982,0.5273632,0.73741364,-0.46119574,-0.8251713,0.32617602,0.78050584,-0.20243602,0.5914646,,0.053433247,0.3980166,-0.38788703,-0.87750155,-0.43087855,-0.21055807,0.4788075,-0.7623314,-0.43542415,0.027099902,-0.48290217,0.87525487,,1.109756714026062,0.18719904487120212,0.16796807304000003,-1.6773098579327104,0.8310231915734089,-0.1537562510200688,-0.4145672398488007,,-1.0396265767952293,-0.08064849940552656,0.16336235467000002,4.537690377005107,-0.2790117325210294,-0.18226687993710824,0.8760142266781397,,-0.03504184805691615,-0.0946797485975624,0.08866477723999999,-0.07032342494057536,,1.2693927e-05,-5.6624413e-06,2.2649765e-06,1.0,-7.7188015e-06,-6.3478947e-06,7.715076e-06,1.0,-6.854534e-07,6.340444e-06,6.854534e-07,1.0,329,1.0,0,0,0.0,False,-0.2575545046013441,1.0501909101696396
1.0153939860174432,11:47:57.913390,11:46:57.441557,0,,0.072616436,0.018101946,0.028181046,0.4853501,-0.54307824,-0.68520164,0.124581486,-0.7327435,0.66900396,-0.86539865,-0.4100644,-0.28797978,,-0.021636046,-0.012287483,0.041063905,0.83090913,0.46848714,0.3001832,0.3266679,-0.8474773,0.4184141,0.45042,-0.24960378,-0.85721624,,0.096330784,1.3397245,0.4502906,0.9951109,-0.010638563,-0.098188914,-0.070409626,-0.7735919,-0.6297604,-0.0692584,0.6335949,-0.7705588,,-0.051559515,0.2432373,-0.10156295,-0.4126319,0.5327131,0.7388854,-0.46362132,-0.82105744,0.3330464,0.7840856,-0.20513748,0.5857717,,0.053435862,0.398017,-0.3878865,-0.87750614,-0.4308771,-0.210542,0.47879857,-0.7623378,-0.43542272,0.02710955,-0.48289332,0.87525946,,1.1127917480456322,0.19159327987663585,0.16833233053000002,-1.6653575311540925,0.83758174356215,-0.14505556709332032,-0.41456723984880073,,-1.039611131329481,-0.08064077667265233,0.16336235467000002,4.537690377005107,-0.2790117325210294,-0.18226687993710824,0.8760142266781397,,-0.03504184805691615,-0.0946797485975624,0.08866477723999999,-0.07032342494057536,,1.2693927e-05,-5.6624413e-06,2.2649765e-06,1.0,-7.7188015e-06,-6.3478947e-06,7.715076e-06,1.0,-6.854534e-07,6.340444e-06,6.854534e-07,1.0,358,1.09,0,0,0.0,False,-0.25815028178655464,1.0499012289649627
1.041467614006251,11:47:58.004623,11:46:57.603841,0,,0.07235488,0.020464502,0.028354332,0.47747982,-0.55631363,-0.68009424,0.121684134,-0.72470117,0.6782337,-0.87017584,-0.40659943,-0.27833584,,-0.021634601,-0.012288362,0.041063964,0.8309061,0.468487,0.30019215,0.32666802,-0.84748006,0.4184085,0.45042568,-0.24959499,-0.8572159,,0.096330784,1.3397245,0.4502906,0.9951109,-0.010638563,-0.098188914,-0.070409626,-0.7735919,-0.6297604,-0.0692584,0.6335949,-0.7705588,,-0.051187698,0.24516177,-0.100207135,-0.4045923,0.5460596,0.7335693,-0.46885198,-0.8125702,0.34627655,0.78516424,-0.20383461,0.5847808,,0.05343442,0.39801636,-0.38788715,-0.87750363,-0.43087786,-0.21055086,0.47880337,-0.7623326,-0.43542662,0.027105907,-0.48290092,0.8752554,,1.1206689355773414,0.20174095087336685,0.16937065882000002,-1.6435497770317018,0.8366252880637919,-0.1339841205097346,-0.4132604873197265,,-1.039618854062355,-0.08064849940552656,0.16336235467000002,4.537690377005107,-0.2790117325210294,-0.18226687993710824,0.8760142266781397,,-0.03504184805691615,-0.0946797485975624,0.08866477723999999,-0.07032342494057536,,1.2693927e-05,-5.6624413e-06,2.2649765e-06,1.0,-7.7188015e-06,-6.3478947e-06,7.715076e-06,1.0,-6.854534e-07,6.340444e-06,6.854534e-07,1.0,366,1.115,0,0,0.0,False,-0.2559459062012759,1.0503840309727575
1.132715072017163,11:47:58.034215,11:46:57.603841,0,,0.07210687,0.02133096,0.028405383,0.4771082,-0.55651534,-0.68018997,0.12409723,-0.7235435,0.67903197,-0.8700389,-0.40838128,-0.27614668,,-0.021633446,-0.0122881085,0.041064203,0.8309033,0.46848753,0.30019906,0.32666585,-0.8474803,0.41840973,0.45043242,-0.24959314,-0.8572128,,0.096330784,1.3397245,0.4502906,0.9951109,-0.010638563,-0.098188914,-0.070409626,-0.7735919,-0.6297604,-0.0692584,0.6335949,-0.7705588,,-0.05089895,0.24586065,-0.099714145,-0.40410554,0.5464535,0.73354435,-0.4669113,-0.8128251,0.34829473,0.78657013,-0.20175232,0.5836124,,0.053433247,0.3980166,-0.38788703,-0.87750155,-0.43087855,-0.21055807,0.4788075,-0.7623314,-0.43542415,0.027099902,-0.48290217,0.87525487,,1.1256732664798388,0.20622013594041708,0.16992287836000003,-1.640823807766403,0.834165831068014,-0.1313251683220745,-0.4119537347906523,,-1.0396265767952293,-0.08064849940552656,0.16336235467000002,4.537690377005107,-0.2790117325210294,-0.18226687993710824,0.8760142266781397,,-0.03504184805691615,-0.0946797485975624,0.08866477723999999,-0.07032342494057536,,1.2693927e-05,-5.6624413e-06,2.2649765e-06,1.0,-7.7188015e-06,-6.3478947e-06,7.715076e-06,1.0,-6.854534e-07,6.340444e-06,6.854534e-07,1.0,378,1.152,0,0,0.0,False,-0.2571374605716965,1.0501909101696396
1.1622960200766101,11:47:58.067778,11:46:57.603841,0,,0.071688,0.022500247,0.028493807,0.47494537,-0.56124806,-0.67781085,0.12403983,-0.7198413,0.6829659,-0.87122965,-0.40844688,-0.27226833,,-0.021634601,-0.012288362,0.041063964,0.8309061,0.468487,0.30019215,0.32666802,-0.84748006,0.4184085,0.45042568,-0.24959499,-0.8572159,,0.096330784,1.3397245,0.4502906,0.9951109,-0.010638563,-0.098188914,-0.070409626,-0.7735919,-0.6297604,-0.0692584,0.6335949,-0.7705588,,-0.050426897,0.24681698,-0.09907137,-0.40186638,0.5513661,0.7310943,-0.46770385,-0.80999416,0.3537832,0.78724617,-0.19976205,0.58338547,,0.05343442,0.39801636,-0.38788715,-0.87750363,-0.43087786,-0.21055086,0.47880337,-0.7623326,-0.43542662,0.027105907,-0.48290092,0.8752554,,1.1299362150264107,0.2093787336859749,0.17035195035,-1.6368396988401972,0.831706374072236,-0.12923796731539836,-0.41244376698905516,,-1.039618854062355,-0.08064849940552656,0.16336235467000002,4.537690377005107,-0.2790117325210294,-0.18226687993710824,0.8760142266781397,,-0.03504184805691615,-0.0946797485975624,0.08866477723999999,-0.07032342494057536,,1.2693927e-05,-5.6624413e-06,2.2649765e-06,1.0,-7.7188015e-06,-6.3478947e-06,7.715076e-06,1.0,-6.854534e-07,6.340444e-06,6.854534e-07,1.0,386,1.176,0,0,0.0,False,-0.25695872741613357,1.0501909101696396
1.1958450080128387,11:47:58.094570,11:46:57.603841,0,,0.07145692,0.02312684,0.028530449,0.47286445,-0.5653796,-0.6758292,0.12232509,-0.71744937,0.68578625,-0.87260294,-0.4069547,-0.27009636,,-0.021634892,-0.0122871995,0.041064143,0.8309064,0.46848768,0.30019012,0.32666576,-0.84747756,0.41841528,0.4504267,-0.24960205,-0.85721326,,0.096330784,1.3397245,0.4502906,0.9951109,-0.010638563,-0.098188914,-0.070409626,-0.7735919,-0.6297604,-0.0692584,0.6335949,-0.7705588,,-0.050166547,0.24732257,-0.09871933,-0.39978242,0.5554957,0.7291081,-0.4698849,-0.80717206,0.3573254,0.7870084,-0.19974445,0.5837122,,0.05343469,0.39801723,-0.38788635,-0.87750405,-0.4308778,-0.2105492,0.4788027,-0.7623367,-0.43542024,0.027103543,-0.48289457,0.875259,,1.1328940217172387,0.21144070336339285,0.17066694882000003,-1.6307586904791458,0.8299300995752852,-0.12680938968565797,-0.4121170788567866,,-1.039618854062355,-0.08064077667265233,0.16336235467000002,4.537690377005107,-0.2790117325210294,-0.18226687993710824,0.8760142266781397,,-0.03504184805691615,-0.0946797485975624,0.08866477723999999,-0.07032342494057536,,1.2693927e-05,-5.6624413e-06,2.2649765e-06,1.0,-7.7188015e-06,-6.3478947e-06,7.715076e-06,1.0,-6.854534e-07,6.340444e-06,6.854534e-07,1.0,394,1.201,0,0,0.0,False,-0.2570183051346544,1.0502391903704191
1.2226422670064494,11:47:58.121169,11:46:57.603841,0,,0.07110137,0.02402126,0.028585672,0.47021973,-0.56750077,-0.67589664,0.12245798,-0.7164831,0.686772,-0.8740123,-0.40570253,-0.2674096,,-0.021729395,-0.012350012,0.04106784,0.8309361,0.46839616,0.3002504,0.32657674,-0.8475327,0.4183729,0.4504363,-0.24958643,-0.85721266,,0.09631366,1.3397232,0.45029297,0.995112,-0.010626885,-0.09817941,-0.070394605,-0.77359205,-0.6297618,-0.0692584,0.6335949,-0.7705588,,-0.04975438,0.24804302,-0.09822228,-0.3970392,0.5575773,0.7290181,-0.4706739,-0.8056052,0.3598144,0.7879251,-0.20026936,0.5822939,,0.053545035,0.3979879,-0.3879433,-0.87753963,-0.4307745,-0.21061212,0.47874206,-0.76235497,-0.4354549,0.027021678,-0.48295784,0.87522656,,1.1374040977157858,0.2144525691843404,0.17114398354000002,-1.625516441892033,0.8281538250783346,-0.12168541363127933,-0.41244376698905516,,-1.0396265767952293,-0.08064849940552656,0.16336235467000002,4.537690377005107,-0.2790117325210294,-0.18226687993710824,0.8760142266781397,,-0.03504184805691615,-0.0946797485975624,0.08866477723999999,-0.07032342494057536,,-4.4219196e-06,-2.8014183e-06,2.9802322e-06,1.0,3.9190054e-06,3.2149255e-06,-3.91528e-06,1.0,3.5762787e-07,-3.222376e-06,-3.5762787e-07,1.0,402,1.226,0,0,0.0,False,-0.25695872741613357,1.0507219923782136
1.2492314539849758,11:47:58.147553,11:46:57.748686,0,,0.07078745,0.024920292,0.028633296,0.46543962,-0.57056093,-0.6766286,0.12130779,-0.7161453,0.6873282,-0.8767271,-0.40199003,-0.26410902,,-0.021728411,-0.012348745,0.0410679,0.83098286,0.4684108,0.3000984,0.32660538,-0.8474922,0.41843268,0.45032933,-0.24969661,-0.8572368,,0.09631366,1.3397232,0.45029297,0.995112,-0.010626885,-0.09817941,-0.070394605,-0.77359205,-0.6297618,-0.0692584,0.6335949,-0.7705588,,-0.049398042,0.24876516,-0.09771177,-0.39213803,0.5603673,0.7295315,-0.47326353,-0.8029403,0.3623652,0.78882784,-0.2031635,0.58006483,,0.053544044,0.39798862,-0.38794228,-0.8775749,-0.43077758,-0.21045896,0.4786723,-0.762417,-0.43542296,0.027112946,-0.48285714,0.8752793,,1.1417906099883453,0.21737176221079726,0.17165212922,-1.6169191542091674,0.8277439155790383,-0.11408175204768001,-0.4127704551213236,,-1.0396420222609777,-0.08064077667265233,0.16336235467000002,4.537690377005107,-0.2788750960212639,-0.1823782978408047,0.8760142266781397,,-0.03504184805691615,-0.0946797485975624,0.08866477723999999,-0.07032342494057536,,-4.4219196e-06,-2.8014183e-06,2.9802322e-06,1.0,3.9190054e-06,3.2149255e-06,-3.91528e-06,1.0,3.5762787e-07,-3.222376e-06,-3.5762787e-07,1.0,414,1.262,0,0,0.0,False,-0.256541683386486,1.0502391903704191
1.2756356210447848,11:47:58.180081,11:46:57.748686,0,,0.07042283,0.025828905,0.028654397,0.46141493,-0.5747354,-0.67585176,0.12129149,-0.71377486,0.6897924,-0.87885416,-0.40025553,-0.25963596,,-0.021719024,-0.012345422,0.04106754,0.83099353,0.4681956,0.30040425,0.32636946,-0.8476529,0.41829112,0.45048055,-0.24955446,-0.8571987,,0.09631366,1.3397232,0.45029297,0.995112,-0.010626885,-0.09817941,-0.070394605,-0.77359205,-0.6297618,-0.0692584,0.6335949,-0.7705588,,-0.048988745,0.249478,-0.09717951,-0.38797316,0.5645205,0.72855574,-0.47461203,-0.7999788,0.3671204,0.7900761,-0.20334846,0.5782985,,0.05353471,0.3979896,-0.38793892,-0.87759954,-0.43057734,-0.21076576,0.47864282,-0.76238656,-0.43550864,0.026835162,-0.4830837,0.87516284,,1.1460303903362945,0.22023689610713457,0.17216805264,-1.6104187659611469,0.827334006079742,-0.11056202747110888,-0.4126071110551893,,-1.0396960813910974,-0.08063305393977811,0.16336494725,4.537900066948591,-0.2790117325210294,-0.18218520119696766,0.8758508826120053,,-0.03504184805691615,-0.0946797485975624,0.08866477723999999,-0.07032342494057536,,-4.4219196e-06,-2.8014183e-06,2.9802322e-06,1.0,3.9190054e-06,3.2149255e-06,-3.91528e-06,1.0,3.5762787e-07,-3.222376e-06,-3.5762787e-07,1.0,439,1.34,0,0,0.0,False,-0.25719703829021734,1.0499495091657423
1.3081609380897135,11:47:58.249589,11:46:57.748686,0,,0.06954533,0.0279449,0.02852863,0.4526347,-0.5808908,-0.6765263,0.12028316,-0.71198636,0.6918143,-0.8835462,-0.3945138,-0.2523985,,-0.021709576,-0.012343798,0.04106933,0.831053,0.46801764,0.30051693,0.3261688,-0.84774363,0.41826376,0.4505161,-0.24958009,-0.8571726,,0.09631366,1.3397232,0.45029297,0.995112,-0.010626885,-0.09817941,-0.070394605,-0.77359205,-0.6297618,-0.0692584,0.6335949,-0.7705588,,-0.04799434,0.25102597,-0.09580902,-0.37893438,0.57031864,0.7287972,-0.47833297,-0.7948763,0.3733219,0.79221606,-0.20714323,0.57400817,,0.053525105,0.39799112,-0.38793817,-0.8776606,-0.4303968,-0.21088034,0.4785407,-0.7624468,-0.43551537,0.02665937,-0.4831495,0.8751319,,1.1555834109017102,0.22635330054352037,0.17353045343,-1.5953210900302612,0.8254210950830257,-0.09748547445953967,-0.41179039072451795,,-1.0397578632540911,-0.08063305393977811,0.16336494725,4.538109756892076,-0.2790117325210294,-0.18218520119696766,0.8758508826120053,,-0.03504184805691615,-0.0946797485975624,0.08866477723999999,-0.07032342494057536,,-4.4219196e-06,-2.8014183e-06,2.9802322e-06,1.0,3.9190054e-06,3.2149255e-06,-3.91528e-06,1.0,3.5762787e-07,-3.222376e-06,-3.5762787e-07,1.0,447,1.365,0,0,0.0,False,-0.2566012611050077,1.0504805913743163
1.377664076979272,11:47:58.289253,11:46:57.896151,0,,0.068949126,0.029133119,0.028442234,0.44649142,-0.58537537,-0.67674303,0.12015462,-0.71024305,0.6936263,-0.8866839,-0.39101192,-0.24678196,,-0.021709003,-0.012341205,0.041069806,0.83105093,0.46801952,0.30051982,0.32616216,-0.84773886,0.41827852,0.4505248,-0.24959254,-0.85716444,,0.09631366,1.3397232,0.45029297,0.995112,-0.010626885,-0.09817941,-0.070394605,-0.77359205,-0.6297618,-0.0692584,0.6335949,-0.7705588,,-0.047331758,0.25188586,-0.0950368,-0.37259066,0.5746167,0.7286919,-0.48040083,-0.79125863,0.37831843,0.79397184,-0.20910627,0.5708619,,0.05352446,0.3979931,-0.3879364,-0.8776594,-0.4303974,-0.21088423,0.47854352,-0.76245373,-0.43550012,0.026648637,-0.48313802,0.8751386,,1.1613600150916301,0.22935744363159372,0.17434322726,-1.5867238023473957,0.8251478220834948,-0.0914634481021668,-0.41130035852611513,,-1.0397655859869652,-0.08061760847402966,0.16336494725,4.538109756892076,-0.2790117325210294,-0.18218520119696766,0.8758508826120053,,-0.03504184805691615,-0.0946797485975624,0.08866477723999999,-0.07032342494057536,,-4.4219196e-06,-2.8014183e-06,2.9802322e-06,1.0,3.9190054e-06,3.2149255e-06,-3.91528e-06,1.0,3.5762787e-07,-3.222376e-06,-3.5762787e-07,1.0,459,1.402,0,0,0.0,False,-0.2575545046013441,1.05014262996886
1.4173388769850135,11:47:58.321233,11:46:57.896151,0,,0.06840527,0.030026264,0.02839607,0.4418477,-0.5885381,-0.67704767,0.12039611,-0.7089842,0.6948712,-0.8889743,-0.3885411,-0.24240544,,-0.02170749,-0.01234052,0.04106754,0.8310482,0.46802002,0.3005267,0.32615998,-0.8477392,0.4182797,0.4505315,-0.24959081,-0.8571614,,0.09631366,1.3397232,0.45029297,0.995112,-0.010626885,-0.09817941,-0.070394605,-0.77359205,-0.6297618,-0.0692584,0.6335949,-0.7705588,,-0.046739787,0.25254497,-0.09447931,-0.36778367,0.5776493,0.7287362,-0.48165208,-0.78868407,0.38208476,0.7954536,-0.21047278,0.56829107,,0.0535232,0.39799157,-0.3879344,-0.8776573,-0.43039808,-0.21089143,0.47854766,-0.7624526,-0.43549764,0.02664263,-0.48313928,0.87513804,,1.1662253368023916,0.23134990871314365,0.17496026130000003,-1.5810621738733137,0.8246012760844331,-0.08750559066133695,-0.41146370259224946,,-1.0397733087198395,-0.08061760847402966,0.16336753983000002,4.538109756892076,-0.2790117325210294,-0.18218520119696766,0.8758508826120053,,-0.03504184805691615,-0.0946797485975624,0.08866477723999999,-0.07032342494057536,,-4.4219196e-06,-2.8014183e-06,2.9802322e-06,1.0,3.9190054e-06,3.2149255e-06,-3.91528e-06,1.0,3.5762787e-07,-3.222376e-06,-3.5762787e-07,1.0,467,1.426,0,0,0.0,False,-0.2561246393568388,1.0502874705711984
1.4492987340781838,11:47:58.341804,11:46:57.896151,0,,0.068006516,0.0306241,0.028366804,0.43830967,-0.58966595,-0.67836475,0.1206156,-0.70931137,0.69449914,-0.89069444,-0.38622695,-0.23977524,,-0.02170749,-0.01234052,0.04106754,0.8310482,0.46802002,0.3005267,0.32615998,-0.8477392,0.4182797,0.4505315,-0.24959081,-0.8571614,,0.09631366,1.3397232,0.45029297,0.995112,-0.010626885,-0.09817941,-0.070394605,-0.77359205,-0.6297618,-0.0692584,0.6335949,-0.7705588,,-0.046309095,0.25298744,-0.09411056,-0.3641212,0.5785837,0.7298333,-0.4825621,-0.78744096,0.38349777,0.7965862,-0.21255021,0.56592655,,0.0535232,0.39799157,-0.3879344,-0.8776573,-0.43039808,-0.21089143,0.47854766,-0.7624526,-0.43549764,0.02664263,-0.48313928,0.87513804,,1.169638784732799,0.23255465504152267,0.17538285184000002,-1.577078064947108,0.8244646395846676,-0.08314687827033138,-0.4124437669890551,,-1.0397733087198395,-0.08061760847402966,0.16336753983000002,4.538109756892076,-0.2790117325210294,-0.18218520119696766,0.8758508826120053,,-0.03504184805691615,-0.0946797485975624,0.08866477723999999,-0.07032342494057536,,-4.4219196e-06,-2.8014183e-06,2.9802322e-06,1.0,3.9190054e-06,3.2149255e-06,-3.91528e-06,1.0,3.5762787e-07,-3.222376e-06,-3.5762787e-07,1.0,475,1.451,0,0,0.0,False,-0.2561246393568388,1.050046069567301
1.4698941190727055,11:47:58.370653,11:46:57.896151,0,,0.06732367,0.031531908,0.028345928,0.43176162,-0.5911049,-0.68130535,0.12277335,-0.7097944,0.693627,-0.8935931,-0.38312757,-0.2338901,,-0.02170951,-0.012342233,0.041066945,0.8310534,0.4680183,0.3005149,0.3261666,-0.8477411,0.41827053,0.4505171,-0.24958718,-0.85717,,0.09631366,1.3397232,0.45029297,0.995112,-0.010626885,-0.09817941,-0.070394605,-0.77359205,-0.6297618,-0.0692584,0.6335949,-0.7705588,,-0.045579817,0.25367504,-0.09357559,-0.3572719,0.57976156,0.73227954,-0.4827207,-0.78581095,0.3866289,0.7995858,-0.21535484,0.56061107,,0.053525288,0.39799023,-0.38793546,-0.877661,-0.43039674,-0.21087867,0.47854003,-0.7624509,-0.43550897,0.026657006,-0.48314312,0.8751355,,1.175183706936492,0.23421504260948092,0.176036182,-1.5722551962469637,0.8259676410820875,-0.07742978229904426,-0.412443766989055,,-1.0397578632540911,-0.08062533120690388,0.16336753983000002,4.538109756892076,-0.2790117325210294,-0.18218520119696766,0.8758508826120053,,-0.03504184805691615,-0.0946797485975624,0.08866477723999999,-0.07032342494057536,,-4.4219196e-06,-2.8014183e-06,2.9802322e-06,1.0,3.9190054e-06,3.2149255e-06,-3.91528e-06,1.0,3.5762787e-07,-3.222376e-06,-3.5762787e-07,1.0,483,1.475,0,0,0.0,False,-0.25624379479388093,1.050335750771978
1.4986722350586206,11:47:58.391452,11:46:57.896151,0,,0.066847414,0.032129265,0.02831474,0.42772412,-0.59263945,-0.6825179,0.124019444,-0.709456,0.69375145,-0.89536107,-0.3813796,-0.22995272,,-0.02170951,-0.012342233,0.041066945,0.8310534,0.4680183,0.3005149,0.3261666,-0.8477411,0.41827053,0.4505171,-0.24958718,-0.85717,,0.09631366,1.3397232,0.45029297,0.995112,-0.010626885,-0.09817941,-0.070394605,-0.77359205,-0.6297618,-0.0692584,0.6335949,-0.7705588,,-0.045071833,0.2541165,-0.09321269,-0.35305458,0.58117795,0.7332017,-0.4828707,-0.7844181,0.38926098,0.80136657,-0.2166112,0.5575762,,0.053525288,0.39799023,-0.38793546,-0.877661,-0.43039674,-0.21087867,0.47854003,-0.7624509,-0.43550897,0.026657006,-0.48314312,0.8751355,,1.1789215096476167,0.235180384218759,0.17648599463,-1.5693195370381803,0.8265141870811493,-0.07485334052862905,-0.41081032632771225,,-1.0397578632540911,-0.08062533120690388,0.16336753983000002,4.538109756892076,-0.2790117325210294,-0.18218520119696766,0.8758508826120053,,-0.03504184805691615,-0.0946797485975624,0.08866477723999999,-0.07032342494057536,,-4.4219196e-06,-2.8014183e-06,2.9802322e-06,1.0,3.9190054e-06,3.2149255e-06,-3.91528e-06,1.0,3.5762787e-07,-3.222376e-06,-3.5762787e-07,1.0,516,1.578,0,0,0.0,False,-0.2570778828531757,1.0500943497680806
1.519541478017345,11:47:58.489897,11:46:58.027103,0,,0.06429019,0.035037078,0.028143138,0.4063419,-0.5955729,-0.6929497,0.13001144,-0.7129796,0.689026,-0.9044243,-0.37007147,-0.2122823,,-0.021706037,-0.012341443,0.0410676,0.8310451,0.46801984,0.30053565,0.3261601,-0.84774184,0.41827416,0.4505372,-0.24958196,-0.857161,,0.09631366,1.3397232,0.45029297,0.995112,-0.010626885,-0.09817941,-0.070394605,-0.77359205,-0.6297618,-0.0692584,0.6335949,-0.7705588,,-0.042359646,0.25625443,-0.091452725,-0.33077398,0.58307564,0.74203193,-0.48393852,-0.77983826,0.39705893,0.8101803,-0.22776106,0.5401229,,0.053521764,0.3979909,-0.38793504,-0.8776548,-0.43039882,-0.21090029,0.47855246,-0.76244736,-0.43550155,0.026638987,-0.48314685,0.875134,,1.1979966598469514,0.23891818692988365,0.17877913164,-1.5544315510507791,0.829520190075989,-0.055251274571998577,-0.41244376698905505,,-1.0397810314527138,-0.08062533120690388,0.16336753983000002,4.538109756892076,-0.2790117325210294,-0.18218520119696766,0.8758508826120053,,-0.03504184805691615,-0.0946797485975624,0.08866477723999999,-0.07032342494057536,,-4.4219196e-06,-2.8014183e-06,2.9802322e-06,1.0,3.9190054e-06,3.2149255e-06,-3.91528e-06,1.0,3.5762787e-07,-3.222376e-06,-3.5762787e-07,1.0,524,1.602,0,0,0.0,False,-0.2564821056679656,1.0499977893665218
1.6179845330771059,11:47:58.517769,11:46:58.027103,0,,0.06348917,0.03590391,0.028137088,0.40016222,-0.59611917,-0.6960691,0.13133588,-0.7143895,0.68731236,-0.9069846,-0.3664552,-0.20757994,,-0.021706335,-0.012340251,0.04106778,0.83104545,0.46802056,0.30053365,0.32615787,-0.8477394,0.4182809,0.4505382,-0.24958903,-0.85715836,,0.09631366,1.3397232,0.45029297,0.995112,-0.010626885,-0.09817941,-0.070394605,-0.77359205,-0.6297618,-0.0692584,0.6335949,-0.7705588,,-0.041515935,0.25692102,-0.090965986,-0.32436046,0.58327746,0.7446997,-0.48452148,-0.77859354,0.3987869,0.8124218,-0.23147231,0.5351554,,0.053522028,0.39799178,-0.38793424,-0.8776552,-0.4303988,-0.21089864,0.4785518,-0.7624514,-0.43549514,0.026636623,-0.4831405,0.87513757,,1.2039354414272299,0.23996075586790397,0.17944153583000003,-1.5498183722941195,0.8296568265757545,-0.04882839326444996,-0.4130971432535923,,-1.0397810314527138,-0.08061760847402966,0.16336753983000002,4.538109756892076,-0.2790117325210294,-0.18218520119696766,0.8758508826120053,,-0.03504184805691615,-0.0946797485975624,0.08866477723999999,-0.07032342494057536,,-4.4219196e-06,-2.8014183e-06,2.9802322e-06,1.0,3.9190054e-06,3.2149255e-06,-3.91528e-06,1.0,3.5762787e-07,-3.222376e-06,-3.5762787e-07,1.0,532,1.627,0,0,0.0,False,-0.25630337251240265,1.0501909101696396
1.6458369550528005,11:47:58.549096,11:46:58.148472,0,,0.062670775,0.036784075,0.028178662,0.39358518,-0.59593624,-0.6999649,0.13229689,-0.71677583,0.6846384,-0.9097188,-0.36206654,-0.20327193,,-0.02170749,-0.01234052,0.04106754,0.8310482,0.46802002,0.3005267,0.32615998,-0.8477392,0.4182797,0.4505315,-0.24959081,-0.8571614,,0.09631366,1.3397232,0.45029297,0.995112,-0.010626885,-0.09817941,-0.070394605,-0.77359205,-0.6297618,-0.0692584,0.6335949,-0.7705588,,-0.04065776,0.2576285,-0.090508655,-0.3175574,0.5826446,0.7481194,-0.48549178,-0.77760696,0.3995311,0.81452745,-0.23633178,0.529804,,0.0535232,0.39799157,-0.3879344,-0.8776573,-0.43039808,-0.21089143,0.47854766,-0.7624526,-0.43549764,0.02664263,-0.48313928,0.87513804,,1.2100827367951126,0.24105738393604384,0.18008190309000002,-1.544366433763522,0.8296568265757545,-0.04041548302997208,-0.41195373479065217,,-1.0397733087198395,-0.08061760847402966,0.16336753983000002,4.538109756892076,-0.2790117325210294,-0.18218520119696766,0.8758508826120053,,-0.03504184805691615,-0.0946797485975624,0.08866477723999999,-0.07032342494057536,,-4.4219196e-06,-2.8014183e-06,2.9802322e-06,1.0,3.9190054e-06,3.2149255e-06,-3.91528e-06,1.0,3.5762787e-07,-3.222376e-06,-3.5762787e-07,1.0,544,1.664,0,0,0.0,False,-0.25683957197909146,1.0499495091657423
1.6771415630355477,11:47:58.578960,11:46:58.148472,0,,0.06180497,0.037697814,0.028270915,0.38625914,-0.595774,-0.7041714,0.13465941,-0.71881855,0.6820312,-0.912508,-0.35826394,-0.19742376,,-0.021706335,-0.012340251,0.04106778,0.83104545,0.46802056,0.30053365,0.32615787,-0.8477394,0.4182809,0.4505382,-0.24958903,-0.85715836,,0.09631366,1.3397232,0.45029297,0.995112,-0.010626885,-0.09817941,-0.070394605,-0.77359205,-0.6297618,-0.0692584,0.6335949,-0.7705588,,-0.039754353,0.25839463,-0.090072796,-0.30993074,0.5820937,0.7517379,-0.48541737,-0.776733,0.4013176,0.8175041,-0.24052596,0.5232918,,0.053522028,0.39799178,-0.38793424,-0.8776552,-0.4303988,-0.21089864,0.4785518,-0.7624514,-0.43549514,0.026636623,-0.4831405,0.87513757,,1.2165930006080838,0.24226985299729709,0.18072486293,-1.5397532550068622,0.8307499185738779,-0.032893916025065556,-0.4121170788567866,,-1.0397810314527138,-0.08061760847402966,0.16336753983000002,4.538109756892076,-0.2790117325210294,-0.18218520119696766,0.8758508826120053,,-0.03504184805691615,-0.0946797485975624,0.08866477723999999,-0.07032342494057536,,-4.4219196e-06,-2.8014183e-06,2.9802322e-06,1.0,3.9190054e-06,3.2149255e-06,-3.91528e-06,1.0,3.5762787e-07,-3.222376e-06,-3.5762787e-07,1.0,556,1.701,0,0,0.0,False,-0.25677999426057063,1.050335750771978
1.7069968790747225,11:47:58.618226,11:46:58.148472,0,,0.06094068,0.03859628,0.028397873,0.37831086,-0.5958334,-0.7084233,0.13776442,-0.7205385,0.6795918,-0.91536987,-0.35469237,-0.19050299,,-0.021705471,-0.012338836,0.041068137,0.8310429,0.46802172,0.30053854,0.3261534,-0.84773713,0.41828883,0.4505459,-0.24959433,-0.8571528,,0.09631366,1.3397232,0.45029297,0.995112,-0.010626885,-0.09817941,-0.070394605,-0.77359205,-0.6297618,-0.0692584,0.6335949,-0.7705588,,-0.038855836,0.2591713,-0.08967304,-0.30163997,0.58179766,0.755331,-0.48481584,-0.77575827,0.40392163,0.8209549,-0.2443575,0.5160644,,0.05352112,0.39799288,-0.3879333,-0.87765354,-0.43039942,-0.21090418,0.4785553,-0.7624543,-0.4354863,0.026628254,-0.4831354,0.8751406,,1.2230800962224324,0.24348232205855033,0.18134448955000002,-1.5353497661936872,0.8327994660703596,-0.02598891686575286,-0.4119537347906523,,-1.039788754185588,-0.08060988574115543,0.16336753983000002,4.538109756892076,-0.2790117325210294,-0.18218520119696766,0.8758508826120053,,-0.03504184805691615,-0.0946797485975624,0.08866477723999999,-0.07032342494057536,,-4.4219196e-06,-2.8014183e-06,2.9802322e-06,1.0,3.9190054e-06,3.2149255e-06,-3.91528e-06,1.0,3.5762787e-07,-3.222376e-06,-3.5762787e-07,1.0,564,1.725,0,0,0.0,False,-0.256541683386486,1.0502391903704191
1.746261370019056,11:47:58.642871,11:46:58.148472,0,,0.060097698,0.039472662,0.028527915,0.3714419,-0.59652644,-0.71146834,0.13930833,-0.7218092,0.67792654,-0.9179456,-0.35092366,-0.18500915,,-0.021705471,-0.012338836,0.041068137,0.8310429,0.46802172,0.30053854,0.3261534,-0.84773713,0.41828883,0.4505459,-0.24959433,-0.8571528,,0.09631366,1.3397232,0.45029297,0.995112,-0.010626885,-0.09817941,-0.070394605,-0.77359205,-0.6297618,-0.0692584,0.6335949,-0.7705588,,-0.037979923,0.25993288,-0.089287855,-0.29452732,0.58214164,0.7578685,-0.4852354,-0.77430797,0.40619427,0.8232863,-0.24810933,0.5105306,,0.05352112,0.39799288,-0.3879333,-0.87765354,-0.43039942,-0.21090418,0.4785553,-0.7624543,-0.4354863,0.026628254,-0.4831354,0.8751406,,1.2294513508436677,0.24463300925680978,0.18193948666,-1.5303172075500586,0.8330727390698903,-0.01943241724147901,-0.41146370259224935,,-1.039788754185588,-0.08060988574115543,0.16336753983000002,4.538109756892076,-0.2790117325210294,-0.18218520119696766,0.8758508826120053,,-0.03504184805691615,-0.0946797485975624,0.08866477723999999,-0.07032342494057536,,-4.4219196e-06,-2.8014183e-06,2.9802322e-06,1.0,3.9190054e-06,3.2149255e-06,-3.91528e-06,1.0,3.5762787e-07,-3.222376e-06,-3.5762787e-07,1.0,593,1.815,0,0,0.0,False,-0.2564821056679656,1.05014262996886
1.7709502769866958,11:47:58.729168,11:46:58.306478,0,,0.05762745,0.041756026,0.028880656,0.3527483,-0.59816563,-0.71955997,0.14403874,-0.7251148,0.67339516,-0.92456555,-0.34118348,-0.16962412,,-0.021707192,-0.012341727,0.04106742,0.8310479,0.46801934,0.30052876,0.32616225,-0.8477416,0.41827297,0.4505305,-0.24958372,-0.85716397,,0.09631366,1.3397232,0.45029297,0.995112,-0.010626885,-0.09817941,-0.070394605,-0.77359205,-0.6297618,-0.0692584,0.6335949,-0.7705588,,-0.03542605,0.26192805,-0.08831972,-0.2751717,0.5828782,0.76454794,-0.48572153,-0.77057713,0.41265664,0.8296717,-0.25780597,0.4951575,,0.053522937,0.39799067,-0.3879352,-0.8776569,-0.43039814,-0.2108931,0.47854832,-0.76244855,-0.43550402,0.026644994,-0.48314562,0.87513447,,1.2472213591872583,0.2467490380643473,0.18357799722,-1.5185745707149254,0.8336192850689521,-0.0038690557887144372,-0.411790390724518,,-1.0397733087198395,-0.08062533120690388,0.16336753983000002,4.538109756892076,-0.2790117325210294,-0.18218520119696766,0.8758508826120053,,-0.03504184805691615,-0.0946797485975624,0.08866477723999999,-0.07032342494057536,,-4.4219196e-06,-2.8014183e-06,2.9802322e-06,1.0,3.9190054e-06,3.2149255e-06,-3.91528e-06,1.0,3.5762787e-07,-3.222376e-06,-3.5762787e-07,1.0,601,1.84,0,0,0.0,False,-0.25683957197909146,1.0506254319766548
1.8572370340116322,11:47:58.750402,11:46:58.306478,0,,0.05707362,0.042182095,0.028950006,0.3483141,-0.5987023,-0.72127175,0.14548078,-0.72560626,0.6725553,-0.9260199,-0.33919156,-0.1656393,,-0.021707192,-0.012341727,0.04106742,0.8310479,0.46801934,0.30052876,0.32616225,-0.8477416,0.41827297,0.4505305,-0.24958372,-0.85716397,,0.09631366,1.3397232,0.45029297,0.995112,-0.010626885,-0.09817941,-0.070394605,-0.77359205,-0.6297618,-0.0692584,0.6335949,-0.7705588,,-0.034857262,0.2623033,-0.08815018,-0.27057225,0.58323914,0.765913,-0.48551705,-0.76967114,0.41458353,0.8313025,-0.25968903,0.4914242,,0.053522937,0.39799067,-0.3879352,-0.8776569,-0.43039814,-0.2108931,0.47854832,-0.76244855,-0.43550402,0.026644994,-0.48314562,0.87513447,,1.250928270966886,0.246841710858838,0.18391503262000003,-1.5164776712800803,0.8344391040675448,-0.0014337710855516217,-0.41342383138586075,,-1.0397733087198395,-0.08062533120690388,0.16336753983000002,4.538109756892076,-0.2790117325210294,-0.18218520119696766,0.8758508826120053,,-0.03504184805691615,-0.0946797485975624,0.08866477723999999,-0.07032342494057536,,-4.4219196e-06,-2.8014183e-06,2.9802322e-06,1.0,3.9190054e-06,3.2149255e-06,-3.91528e-06,1.0,3.5762787e-07,-3.222376e-06,-3.5762787e-07,1.0,609,1.865,0,0,0.0,False,-0.25719703829021734,1.05014262996886
1.8784801230067387,11:47:58.784958,11:46:58.306478,0,,0.056265973,0.042766012,0.029032141,0.34291676,-0.5980637,-0.7243811,0.14747396,-0.72730064,0.6702872,-0.92771745,-0.33668,-0.16120486,,-0.021706477,-0.01234046,0.04106766,0.83088136,0.46838403,0.30042088,0.32652673,-0.84756416,0.41834825,0.45057356,-0.24950227,-0.85716504,,0.09631366,1.3397232,0.45029297,0.995112,-0.010626885,-0.09817941,-0.070394605,-0.77359205,-0.6297618,-0.0692584,0.6335949,-0.7705588,,-0.03402836,0.2628096,-0.08791237,-0.2649666,0.5823279,0.76856154,-0.48503917,-0.76936245,0.41571432,0.8333845,-0.26263204,0.4863072,,0.053522166,0.39799163,-0.3879344,-0.87749946,-0.43077114,-0.21078646,0.47882292,-0.7623078,-0.43544844,0.026894452,-0.48303518,0.8751878,,1.2563187385130947,0.24681854266021533,0.18440891911,-1.514380771845235,0.8348490135668412,0.00280598465123047,-0.4126071110551893,,-1.0397810314527138,-0.08062533120690388,0.16336753983000002,4.537690377005107,-0.2790117325210294,-0.18218520119696766,0.8758508826120053,,-0.03504184805691615,-0.0946797485975624,0.08866477723999999,-0.07032342494057536,,-4.4219196e-06,-2.8014183e-06,2.9802322e-06,1.0,3.9190054e-06,3.2149255e-06,-3.91528e-06,1.0,3.5762787e-07,-3.222376e-06,-3.5762787e-07,1.0,621,1.901,0,0,0.0,False,-0.25773323775690704,1.0502391903704191
1.9130410400684923,11:47:58.814774,11:46:58.306478,0,,0.055483844,0.04329405,0.02910927,0.33781782,-0.5978627,-0.7269383,0.15022573,-0.72819245,0.66870606,-0.92914546,-0.3351056,-0.15618211,,-0.021705322,-0.012340192,0.0410679,0.83087856,0.46838453,0.3004278,0.3265246,-0.8475644,0.41834944,0.45058024,-0.24950057,-0.85716206,,0.09631366,1.3397232,0.45029297,0.995112,-0.010626885,-0.09817941,-0.070394605,-0.77359205,-0.6297618,-0.0692584,0.6335949,-0.7705588,,-0.033227436,0.2632697,-0.087704204,-0.2596383,0.5819642,0.7706527,-0.48380888,-0.7690369,0.41774544,0.8357732,-0.2643859,0.48123088,,0.053520992,0.39799187,-0.38793424,-0.8774974,-0.43077183,-0.21079366,0.47882706,-0.7623067,-0.43544596,0.026888447,-0.4830364,0.87518734,,1.261176337490982,0.24667181073560507,0.18485484287,-1.513961391958266,0.8358054690651993,0.0048031364901346685,-0.41375051951812936,,-1.039788754185588,-0.08062533120690388,0.16336753983000002,4.537690377005107,-0.2790117325210294,-0.18218520119696766,0.8758508826120053,,-0.03504184805691615,-0.0946797485975624,0.08866477723999999,-0.07032342494057536,,-4.4219196e-06,-2.8014183e-06,2.9802322e-06,1.0,3.9190054e-06,3.2149255e-06,-3.91528e-06,1.0,3.5762787e-07,-3.222376e-06,-3.5762787e-07,1.0,629,1.926,0,0,0.0,False,-0.2566012611050077,1.0498529487641832
1.9428620730759576,11:47:58.843096,11:46:58.450334,0,,0.054671116,0.043762527,0.029183984,0.33486855,-0.5936884,-0.73170835,0.15964401,-0.7295685,0.6650138,-0.9286425,-0.339505,-0.14953084,,-0.021705322,-0.012340192,0.0410679,0.83087856,0.46838453,0.3004278,0.3265246,-0.8475644,0.41834944,0.45058024,-0.24950057,-0.85716206,,0.09631366,1.3397232,0.45029297,0.995112,-0.010626885,-0.09817941,-0.070394605,-0.77359205,-0.6297618,-0.0692584,0.6335949,-0.7705588,,-0.03239899,0.2636828,-0.08753505,-0.25624356,0.57806104,0.77471584,-0.47624356,-0.7729469,0.4192197,0.8411488,-0.26153105,0.4733605,,0.053520992,0.39799187,-0.38793424,-0.8774974,-0.43077183,-0.21079366,0.47882706,-0.7623067,-0.43544596,0.026888447,-0.4830364,0.87518734,,1.2660184910031207,0.24654824700961747,0.18530854437000002,-1.5233974394150696,0.8394946545588661,0.0017131743501908603,-0.41293379918745793,,-1.039788754185588,-0.08062533120690388,0.16336753983000002,4.537690377005107,-0.2790117325210294,-0.18218520119696766,0.8758508826120053,,-0.03504184805691615,-0.0946797485975624,0.08866477723999999,-0.07032342494057536,,-4.4219196e-06,-2.8014183e-06,2.9802322e-06,1.0,3.9190054e-06,3.2149255e-06,-3.91528e-06,1.0,3.5762787e-07,-3.222376e-06,-3.5762787e-07,1.0,662,2.028,0,0,0.0,False,-0.2568991496976123,1.05014262996886
1.9711851450847462,11:47:58.940547,11:46:58.450334,0,,0.052442033,0.045002334,0.029460073,0.33419478,-0.5821233,-0.7412466,0.18482968,-0.73071605,0.6571847,-0.9242034,-0.356632,-0.13660794,,-0.021706477,-0.01234046,0.04106766,0.83088136,0.46838403,0.30042088,0.32652673,-0.84756416,0.41834825,0.45057356,-0.24950227,-0.85716504,,0.09631366,1.3397232,0.45029297,0.995112,-0.010626885,-0.09817941,-0.070394605,-0.77359205,-0.6297618,-0.0692584,0.6335949,-0.7705588,,-0.030134443,0.26482692,-0.08715433,-0.25457808,0.5677532,0.782845,-0.4540795,-0.784907,0.42158374,0.85381603,-0.24814788,0.4576252,,0.053522166,0.39799163,-0.3879344,-0.87749946,-0.43077114,-0.21078646,0.47882292,-0.7623078,-0.43544844,0.026894452,-0.48303518,0.8751878,,1.2795487189987622,0.24644012874937832,0.18644798328,-1.556738140429109,0.8427739305532367,-0.014192811241294512,-0.41228042292292083,,-1.0397810314527138,-0.08062533120690388,0.16336753983000002,4.537690377005107,-0.2790117325210294,-0.18218520119696766,0.8758508826120053,,-0.03504184805691615,-0.0946797485975624,0.08866477723999999,-0.07032342494057536,,-4.4219196e-06,-2.8014183e-06,2.9802322e-06,1.0,3.9190054e-06,3.2149255e-06,-3.91528e-06,1.0,3.5762787e-07,-3.222376e-06,-3.5762787e-07,1.0,670,2.053,0,0,0.0,False,-0.25636295023092304,1.0508185527797727
2.068614811054431,11:47:58.971362,11:46:58.450334,0,,0.05157033,0.045501985,0.029624581,0.33288983,-0.5786165,-0.744572,0.19178912,-0.7315566,0.6542489,-0.9232558,-0.3605935,-0.13255548,,-0.021705322,-0.012340192,0.0410679,0.83087856,0.46838453,0.3004278,0.3265246,-0.8475644,0.41834944,0.45058024,-0.24950057,-0.85716206,,0.09631366,1.3397232,0.45029297,0.995112,-0.010626885,-0.09817941,-0.070394605,-0.77359205,-0.6297618,-0.0692584,0.6335949,-0.7705588,,-0.029252283,0.265322,-0.08703912,-0.25298303,0.56451046,0.78570193,-0.44812596,-0.7881204,0.42195895,0.85742795,-0.24534498,0.45235288,,0.053520992,0.39799187,-0.38793424,-0.8774974,-0.43077183,-0.21079366,0.47882706,-0.7623067,-0.43544596,0.026888447,-0.4830364,0.87518734,,1.28504730480521,0.246393792352133,0.18685890721,-1.5653354281119745,0.8427739305532367,-0.01705156714621417,-0.4117903907245179,,-1.039788754185588,-0.08062533120690388,0.16336753983000002,4.537690377005107,-0.2790117325210294,-0.18218520119696766,0.8758508826120053,,-0.03504184805691615,-0.0946797485975624,0.08866477723999999,-0.07032342494057536,,-4.4219196e-06,-2.8014183e-06,2.9802322e-06,1.0,3.9190054e-06,3.2149255e-06,-3.91528e-06,1.0,3.5762787e-07,-3.222376e-06,-3.5762787e-07,1.0,678,2.077,0,0,0.0,False,-0.2571374605716965,1.0503840309727575
2.099424973013811,11:47:59.001320,11:46:58.590134,0,,0.051175214,0.045757376,0.029724523,0.33118874,-0.5789794,-0.74504834,0.19305557,-0.7313268,0.6541333,-0.92360365,-0.3604772,-0.13043214,,-0.021705322,-0.012340192,0.0410679,0.83087856,0.46838453,0.3004278,0.3265246,-0.8475644,0.41834944,0.45058024,-0.24950057,-0.85716206,,0.09631366,1.3397232,0.45029297,0.995112,-0.010626885,-0.09817941,-0.070394605,-0.77359205,-0.6297618,-0.0692584,0.6335949,-0.7705588,,-0.028852794,0.2655849,-0.086987756,-0.25119662,0.56487525,0.7860129,-0.44736582,-0.7878669,0.423237,0.8583496,-0.24531958,0.45061538,,0.053520992,0.39799187,-0.38793424,-0.8774974,-0.43077183,-0.21079366,0.47882706,-0.7623067,-0.43544596,0.026888447,-0.4830364,0.87518734,,1.288870057577951,0.24640923781788143,0.18712075779,-1.5655451180554587,0.8416808385551131,-0.016731975097626584,-0.41260711105518943,,-1.039788754185588,-0.08062533120690388,0.16336753983000002,4.537690377005107,-0.2790117325210294,-0.18218520119696766,0.8758508826120053,,-0.03504184805691615,-0.0946797485975624,0.08866477723999999,-0.07032342494057536,,-4.4219196e-06,-2.8014183e-06,2.9802322e-06,1.0,3.9190054e-06,3.2149255e-06,-3.91528e-06,1.0,3.5762787e-07,-3.222376e-06,-3.5762787e-07,1.0,690,2.114,0,0,0.0,False,-0.25761408231986493,1.050335750771978
2.129399891011417,11:47:59.034736,11:46:58.590134,0,,0.050590094,0.04613463,0.02986823,0.3292029,-0.57819325,-0.7465375,0.19482717,-0.7320034,0.65285003,-0.9239415,-0.36036578,-0.12832996,,-0.021706775,-0.012339298,0.04106784,0.83088166,0.4683847,0.30041885,0.3265245,-0.8475617,0.41835502,0.45057455,-0.24950933,-0.8571625,,0.09631366,1.3397232,0.45029297,0.995112,-0.010626885,-0.09817941,-0.070394605,-0.77359205,-0.6297618,-0.0692584,0.6335949,-0.7705588,,-0.028260922,0.26597065,-0.086909026,-0.24910085,0.5640486,0.7872725,-0.44620994,-0.7883198,0.42361367,0.8595612,-0.2457663,0.4480552,,0.053522434,0.3979925,-0.38793358,-0.8774999,-0.43077108,-0.2107848,0.4788223,-0.7623119,-0.43544206,0.026892088,-0.48302883,0.8751914,,1.2915730140839297,0.2464324060165041,0.18731390500000003,-1.5668032577163657,0.8412709290558168,-0.0163160426463968,-0.41260711105518943,,-1.0397810314527138,-0.08061760847402966,0.16336753983000002,4.537690377005107,-0.2790117325210294,-0.18218520119696766,0.8758508826120053,,-0.03504184805691615,-0.0946797485975624,0.08866477723999999,-0.07032342494057536,,-4.4219196e-06,-2.8014183e-06,2.9802322e-06,1.0,3.9190054e-06,3.2149255e-06,-3.91528e-06,1.0,3.5762787e-07,-3.222376e-06,-3.5762787e-07,1.0,702,2.151,0,0,0.0,False,-0.2564821056679656,1.049514987358727
2.162791707087308,11:47:59.065649,11:46:58.590134,0,,0.04994162,0.04656733,0.029994845,0.32689786,-0.5772544,-0.7482748,0.19822246,-0.7322821,0.65151405,-0.92403775,-0.36130333,-0.12495677,,-0.021706477,-0.01234046,0.04106766,0.83088136,0.46835947,0.30045915,0.32652673,-0.8475983,0.418279,0.45057356,-0.24943233,-0.8571855,,0.09631366,1.3397232,0.45029297,0.995112,-0.010626885,-0.09817941,-0.070394605,-0.77359205,-0.6297618,-0.0692584,0.6335949,-0.7705588,,-0.027601784,0.26638845,-0.086787514,-0.24661979,0.5631685,0.78868234,-0.4436517,-0.7891423,0.4247677,0.86159843,-0.24514416,0.4444688,,0.053522166,0.39799163,-0.3879344,-0.87749946,-0.43075392,-0.21082164,0.47882292,-0.7622723,-0.43551072,0.026894452,-0.48310664,0.87514836,,1.2957664580346335,0.24650963334524634,0.18765871814,-1.569529226981665,0.8411342925560513,-0.01677637592368425,-0.4129337991874579,,-1.0397810314527138,-0.08062533120690388,0.16336753983000002,4.537690377005107,-0.2790117325210294,-0.18210352245682707,0.8756875385458711,,-0.03504184805691615,-0.0946797485975624,0.08866477723999999,-0.07032342494057536,,-4.4219196e-06,-2.8014183e-06,2.9802322e-06,1.0,3.9190054e-06,3.2149255e-06,-3.91528e-06,1.0,3.5762787e-07,-3.222376e-06,-3.5762787e-07,1.0,731,2.241,0,0,0.0,False,-0.2561842170753601,1.0502874705711984
2.1936417350079864,11:47:59.153506,11:46:58.754416,0,,0.04884833,0.04736615,0.030178428,0.3247218,-0.5743168,-0.75147593,0.20270047,-0.7338126,0.64840686,-0.92383355,-0.36287624,-0.12187071,,-0.021704167,-0.012339953,0.041068196,0.83087575,0.46833596,0.30051118,0.3265224,-0.84763294,0.4182122,0.45058697,-0.24935868,-0.8571998,,0.09631366,1.3397232,0.45029297,0.995112,-0.010626885,-0.09817941,-0.070394605,-0.77359205,-0.6297618,-0.0692584,0.6335949,-0.7705588,,-0.02648464,0.26712674,-0.08651547,-0.24423252,0.56027925,0.79147816,-0.44007143,-0.791347,0.4243902,0.8641109,-0.24465704,0.43983555,,0.05351982,0.3979921,-0.38793412,-0.8774953,-0.4307381,-0.21087123,0.4788312,-0.76223433,-0.435568,0.02688244,-0.4831806,0.8751079,,1.3029254314090397,0.24685715632458646,0.18829519653000001,-1.5741424057383242,0.8386748355602734,-0.015669319798694986,-0.41277045512132365,,-1.0397964769184622,-0.08062533120690388,0.16336753983000002,4.537690377005107,-0.2790117325210294,-0.18202184371668648,0.8755241944797367,,-0.03504184805691615,-0.0946797485975624,0.08866477723999999,-0.07032342494057536,,-4.4219196e-06,-2.8014183e-06,2.9802322e-06,1.0,3.9190054e-06,3.2149255e-06,-3.91528e-06,1.0,3.5762787e-07,-3.222376e-06,-3.5762787e-07,1.0,739,2.266,0,0,0.0,False,-0.2559459062012759,1.0499495091657423
2.281590729020536,11:47:59.182359,11:46:58.754416,0,,0.04842592,0.047680818,0.030235916,0.32261968,-0.57366854,-0.7528752,0.20398909,-0.73457557,0.6471375,-0.9242862,-0.3623575,-0.11996651,,-0.021705605,-0.012339044,0.041068077,0.8308789,0.46833614,0.3005023,0.32652232,-0.84763026,0.41821778,0.45058125,-0.24936762,-0.8572002,,0.09631366,1.3397232,0.45029297,0.995112,-0.010626885,-0.09817941,-0.070394605,-0.77359205,-0.6297618,-0.0692584,0.6335949,-0.7705588,,-0.026051704,0.267408,-0.08639626,-0.24203783,0.55955505,0.79266375,-0.43935874,-0.79160374,0.42464975,0.8650905,-0.24548243,0.43744346,,0.053521257,0.39799273,-0.38793343,-0.8774978,-0.43073735,-0.21086237,0.4788264,-0.7622396,-0.4355641,0.026886081,-0.483173,0.875112,,1.305620665182144,0.24691893818758026,0.18856223227000002,-1.5741424057383242,0.8385381990605081,-0.01408768457246845,-0.4127704551213236,,-1.039788754185588,-0.08061760847402966,0.16336753983000002,4.537690377005107,-0.2790117325210294,-0.18202184371668648,0.8755241944797367,,-0.03504184805691615,-0.0946797485975624,0.08866477723999999,-0.07032342494057536,,-4.4219196e-06,-2.8014183e-06,2.9802322e-06,1.0,3.9190054e-06,3.2149255e-06,-3.91528e-06,1.0,3.5762787e-07,-3.222376e-06,-3.5762787e-07,1.0,747,2.29,0,0,0.0,False,-0.256065061638318,1.0500943497680806
2.3104429109953344,11:47:59.209666,11:46:58.754416,0,,0.048034124,0.04794974,0.03031291,0.3207382,-0.5715901,-0.7552561,0.20507604,-0.736561,0.64453197,-0.9247004,-0.36161083,-0.11902386,,-0.021705322,-0.012340192,0.0410679,0.83087856,0.46833545,0.30050433,0.3265246,-0.84763265,0.41821098,0.45058024,-0.24936047,-0.85720277,,0.09631366,1.3397232,0.45029297,0.995112,-0.010626885,-0.09817941,-0.070394605,-0.77359205,-0.6297618,-0.0692584,0.6335949,-0.7705588,,-0.025653103,0.2676665,-0.08631842,-0.24007627,0.5573256,0.794828,-0.43877748,-0.7926618,0.42327482,0.8659317,-0.24713439,0.43484122,,0.053520992,0.39799187,-0.38793424,-0.8774974,-0.4307374,-0.21086404,0.47882706,-0.7622355,-0.4355705,0.026888447,-0.48317936,0.8751084,,1.3081459988320154,0.24692666092045448,0.18877871270000002,-1.5741424057383242,0.8382649260609771,-0.010679377899593556,-0.4119537347906524,,-1.039788754185588,-0.08062533120690388,0.16336753983000002,4.537690377005107,-0.2790117325210294,-0.18202184371668648,0.8755241944797367,,-0.03504184805691615,-0.0946797485975624,0.08866477723999999,-0.07032342494057536,,-4.4219196e-06,-2.8014183e-06,2.9802322e-06,1.0,3.9190054e-06,3.2149255e-06,-3.91528e-06,1.0,3.5762787e-07,-3.222376e-06,-3.5762787e-07,1.0,755,2.315,0,0,0.0,False,-0.25624379479388093,1.05014262996886
2.337732215062715,11:47:59.236156,11:46:58.754416,0,,0.0476538,0.048215427,0.030386984,0.31849232,-0.57083666,-0.7567749,0.20578599,-0.73767203,0.64303327,-0.9253188,-0.3605348,-0.11747283,,-0.021707632,-0.012340713,0.04106748,0.83088416,0.46833444,0.30049047,0.32652888,-0.8476323,0.4182085,0.4505668,-0.24936402,-0.8572088,,0.09631366,1.3397232,0.45029297,0.995112,-0.010626885,-0.09817941,-0.070394605,-0.77359205,-0.6297618,-0.0692584,0.6335949,-0.7705588,,-0.025265886,0.26792052,-0.086239405,-0.23775657,0.556437,0.79614675,-0.43861368,-0.7928283,0.42313272,0.8666544,-0.24859828,0.43256104,,0.053523343,0.3979914,-0.3879345,-0.87750155,-0.430736,-0.21084961,0.47881877,-0.7622379,-0.43557546,0.02690046,-0.4831769,0.8751094,,1.3105941051531447,0.24691893818758026,0.18899389684,-1.5733036459643863,0.8381282895612117,-0.008199276531820898,-0.4124437669890551,,-1.0397733087198395,-0.08062533120690388,0.16336753983000002,4.537690377005107,-0.2790117325210294,-0.18202184371668648,0.8755241944797367,,-0.03504184805691615,-0.0946797485975624,0.08866477723999999,-0.07032342494057536,,-4.4219196e-06,-2.8014183e-06,2.9802322e-06,1.0,3.9190054e-06,3.2149255e-06,-3.91528e-06,1.0,3.5762787e-07,-3.222376e-06,-3.5762787e-07,1.0,767,2.352,0,0,0.0,False,-0.2557075953271921,1.049804668563404
2.3642096330877393,11:47:59.263710,11:46:58.754416,0,,0.04738819,0.048402324,0.030420125,0.31701553,-0.5708364,-0.7573949,0.2062175,-0.7379923,0.64252746,-0.9257297,-0.3598791,-0.11623868,,-0.021667182,-0.012298182,0.041070998,0.83086807,0.46837163,0.30047712,0.32656074,-0.84761053,0.41822767,0.45057353,-0.24936798,-0.85720426,,0.09633905,1.3397229,0.4502942,0.9951102,-0.010646204,-0.098195136,-0.07041946,-0.77359176,-0.6297594,-0.0692584,0.6335949,-0.7705588,,-0.025015414,0.26808667,-0.08616602,-0.23622747,0.5563522,0.7966611,-0.43852982,-0.79266405,0.42352718,0.86711484,-0.24931088,0.43122604,,0.053458665,0.3980144,-0.3878992,-0.8774769,-0.43079507,-0.21083154,0.4788621,-0.7622234,-0.43555316,0.026933426,-0.48314705,0.8751249,,1.3120768698649958,0.24691893818758026,0.18913648874000002,-1.5726745761339325,0.8381282895612117,-0.0071374529099935136,-0.4122804229229208,,-1.0397733087198395,-0.08061760847402966,0.16336753983000002,4.537690377005107,-0.2790117325210294,-0.18202184371668648,0.8755241944797367,,-0.03504184805691615,-0.0946797485975624,0.08866477723999999,-0.07032342494057536,,2.0781532e-05,-2.0861626e-06,-2.3841858e-07,1.0,-1.532957e-05,-1.2610108e-05,1.532957e-05,1.0,-1.4007092e-06,1.2610108e-05,1.3709068e-06,1.0,796,2.442,0,0,0.0,False,-0.25624379479388093,1.0499012289649627
2.3917831160360947,11:47:59.354589,11:46:58.887792,0,,0.046470165,0.049246415,0.030632079,0.31771374,-0.56382054,-0.76234144,0.21904561,-0.73860717,0.63755643,-0.92253834,-0.36954784,-0.11116339,,-0.021671802,-0.0123004615,0.041071534,0.8308297,0.46837994,0.30057013,0.32653856,-0.8476162,0.41823348,0.45066032,-0.24933311,-0.8571688,,0.09633905,1.3397229,0.4502942,0.9951102,-0.010646204,-0.098195136,-0.07041946,-0.77359176,-0.6297594,-0.0692584,0.6335949,-0.7705588,,-0.024072524,0.2688766,-0.085870825,-0.23648492,0.55004984,0.80094945,-0.42665112,-0.7993941,0.42301056,0.87295115,-0.24169037,0.42372403,,0.053463224,0.39801383,-0.3879016,-0.87744784,-0.43080705,-0.21092789,0.47891945,-0.7622005,-0.43553028,0.026860176,-0.48317257,0.875113,,1.3184017880889856,0.2484789302281736,0.18976648568,-1.5890303917257256,0.8392213815593352,-0.012439448107155193,-0.4122804229229208,,-1.0397346950554684,-0.08062533120690388,0.16336624354,4.537690377005107,-0.2791483690207948,-0.18199210455313067,0.8756875385458711,,-0.03504184805691615,-0.0946797485975624,0.08866477723999999,-0.07032342494057536,,2.0781532e-05,-2.0861626e-06,-2.3841858e-07,1.0,-1.532957e-05,-1.2610108e-05,1.532957e-05,1.0,-1.4007092e-06,1.2610108e-05,1.3709068e-06,1.0,804,2.467,0,0,0.0,False,-0.25672041654204936,1.0502391903704191
2.482679540058598,11:47:59.384655,11:46:58.887792,0,,0.04623181,0.04964593,0.030733347,0.32212788,-0.5594961,-0.7636739,0.22491765,-0.7383454,0.63581276,-0.91959,-0.37657654,-0.11200124,,-0.021672659,-0.012301892,0.041071117,0.83083206,0.46837878,0.30056524,0.32654297,-0.8476184,0.4182256,0.4506526,-0.24932775,-0.85717434,,0.09633905,1.3397229,0.4502942,0.9951102,-0.010646204,-0.098195136,-0.07041946,-0.77359176,-0.6297594,-0.0692584,0.6335949,-0.7705588,,-0.023821658,0.26924965,-0.08571405,-0.2407906,0.5462782,0.80224687,-0.4202886,-0.80373746,0.42114553,0.8748585,-0.23576733,0.42312694,,0.053464133,0.39801273,-0.38790253,-0.87744945,-0.43080643,-0.21092235,0.47891596,-0.7621976,-0.43553913,0.026868548,-0.48317766,0.87511,,1.320618212423888,0.24994624947427627,0.18998815127000002,-1.5997245788434364,0.8370351975630882,-0.016619309678273575,-0.4121170788567866,,-1.0397269723225941,-0.08063305393977811,0.16336624354,4.537690377005107,-0.2791483690207948,-0.18199210455313067,0.8756875385458711,,-0.03504184805691615,-0.0946797485975624,0.08866477723999999,-0.07032342494057536,,2.0781532e-05,-2.0861626e-06,-2.3841858e-07,1.0,-1.532957e-05,-1.2610108e-05,1.532957e-05,1.0,-1.4007092e-06,1.2610108e-05,1.3709068e-06,1.0,812,2.491,0,0,0.0,False,-0.2564821056679656,1.0497563883626244
2.512741802027449,11:47:59.408294,11:46:58.887792,0,,0.046047196,0.05017069,0.030859232,0.32745987,-0.5566539,-0.7634831,0.22840917,-0.73743343,0.63562644,-0.916842,-0.38252854,-0.114335105,,-0.021671206,-0.012302771,0.041071236,0.830829,0.4683786,0.30057418,0.32654303,-0.8476211,0.41822004,0.4506583,-0.24931896,-0.8571739,,0.09633905,1.3397229,0.4502942,0.9951102,-0.010646204,-0.098195136,-0.07041946,-0.77359176,-0.6297594,-0.0692584,0.6335949,-0.7705588,,-0.02361955,0.26973414,-0.08549105,-0.24612068,0.543937,0.8022201,-0.41588658,-0.8068802,0.41950297,0.8754787,-0.23038423,0.424806,,0.05346269,0.3980121,-0.38790318,-0.877447,-0.43080717,-0.21093121,0.47892073,-0.76219237,-0.43554303,0.026864909,-0.48318526,0.87510586,,1.322989091416275,0.2520313873503169,0.19023574266,-1.607692796695848,0.8325261930708286,-0.019721854287958362,-0.4116270466583836,,-1.0397346950554684,-0.08064077667265233,0.16336624354,4.537690377005107,-0.2791483690207948,-0.18199210455313067,0.8756875385458711,,-0.03504184805691615,-0.0946797485975624,0.08866477723999999,-0.07032342494057536,,2.0781532e-05,-2.0861626e-06,-2.3841858e-07,1.0,-1.532957e-05,-1.2610108e-05,1.532957e-05,1.0,-1.4007092e-06,1.2610108e-05,1.3709068e-06,1.0,820,2.516,0,0,0.0,False,-0.2557075953271921,1.0503840309727575
2.536387506988831,11:47:59.439216,11:46:59.039317,0,,0.045914248,0.050783962,0.031035468,0.3324626,-0.55602556,-0.76177704,0.22955623,-0.73572284,0.6371937,-0.9147528,-0.38671362,-0.1169613,,-0.021671206,-0.012302771,0.041071236,0.830829,0.4683786,0.30057418,0.32654303,-0.8476211,0.41822004,0.4506583,-0.24931896,-0.8571739,,0.09633905,1.3397229,0.4502942,0.9951102,-0.010646204,-0.098195136,-0.07041946,-0.77359176,-0.6297594,-0.0692584,0.6335949,-0.7705588,,-0.023467975,0.27031845,-0.08524518,-0.2511973,0.5437115,0.8007982,-0.41370246,-0.80826,0.41900605,0.8750715,-0.22603898,0.42796752,,0.05346269,0.3980121,-0.38790318,-0.877447,-0.43080717,-0.21093121,0.47892073,-0.76219237,-0.43554303,0.026864909,-0.48318526,0.87510586,,1.3254912568675237,0.25458761193168516,0.19047685260000002,-1.6118865955655386,0.8267874600806802,-0.021658280284094278,-0.4130971432535922,,-1.0397346950554684,-0.08064077667265233,0.16336624354,4.537690377005107,-0.2791483690207948,-0.18199210455313067,0.8756875385458711,,-0.03504184805691615,-0.0946797485975624,0.08866477723999999,-0.07032342494057536,,2.0781532e-05,-2.0861626e-06,-2.3841858e-07,1.0,-1.532957e-05,-1.2610108e-05,1.532957e-05,1.0,-1.4007092e-06,1.2610108e-05,1.3709068e-06,1.0,832,2.553,0,0,0.0,False,-0.25546928445310746,1.049804668563404
2.5672747740754858,11:47:59.464372,11:46:59.039317,0,,0.045816578,0.051218748,0.03118366,0.33379456,-0.5560126,-0.7612038,0.23319653,-0.7337117,0.6381899,-0.9133459,-0.39053422,-0.1152489,,-0.021672659,-0.012301892,0.041071117,0.83083206,0.46837878,0.30056524,0.32654297,-0.8476184,0.4182256,0.4506526,-0.24932775,-0.85717434,,0.09633905,1.3397229,0.4502942,0.9951102,-0.010646204,-0.098195136,-0.07041946,-0.77359176,-0.6297594,-0.0692584,0.6335949,-0.7705588,,-0.023358831,0.27074763,-0.085088894,-0.25243664,0.5440875,0.8001528,-0.4100181,-0.8091711,0.420865,0.8764479,-0.22183537,0.42735016,,0.053464133,0.39801273,-0.38790253,-0.87744945,-0.43080643,-0.21092235,0.47891596,-0.7621976,-0.43553913,0.026868548,-0.48317766,0.87511,,1.3272288717642242,0.2564796814858702,0.19065574062,-1.616080394435229,0.8262409140816184,-0.02480647323549323,-0.41146370259224935,,-1.0397269723225941,-0.08063305393977811,0.16336624354,4.537690377005107,-0.2791483690207948,-0.18199210455313067,0.8756875385458711,,-0.03504184805691615,-0.0946797485975624,0.08866477723999999,-0.07032342494057536,,2.0781532e-05,-2.0861626e-06,-2.3841858e-07,1.0,-1.532957e-05,-1.2610108e-05,1.532957e-05,1.0,-1.4007092e-06,1.2610108e-05,1.3709068e-06,1.0,861,2.643,0,0,0.0,False,-0.2555288621716292,1.0496115477602863
2.592447372036986,11:47:59.557036,11:46:59.039317,0,,0.045576315,0.052970707,0.031569615,0.33769917,-0.55874825,-0.7574692,0.23708037,-0.7283064,0.6429328,-0.9109074,-0.39669874,-0.113480374,,-0.021673523,-0.012303278,0.04107076,0.83083457,0.46837756,0.30056036,0.3265474,-0.8476206,0.41821763,0.45064485,-0.24932247,-0.85718,,0.09633905,1.3397229,0.4502942,0.9951102,-0.010646204,-0.098195136,-0.07041946,-0.77359176,-0.6297594,-0.0692584,0.6335949,-0.7705588,,-0.023056064,0.27234036,-0.08428415,-0.2563017,0.5475532,0.7965519,-0.4055035,-0.80896455,0.42560926,0.87742597,-0.21392022,0.42937374,,0.053465042,0.39801165,-0.38790345,-0.8774511,-0.43080577,-0.2109168,0.47891244,-0.76219475,-0.435548,0.02687692,-0.48318276,0.8751069,,1.33299775322127,0.26358459573015675,0.19146851445000002,-1.618386983813559,0.8200922715921736,-0.026653681740961555,-0.4130971432535922,,-1.03971924958972,-0.08064077667265233,0.16336624354,4.537690377005107,-0.2791483690207948,-0.18199210455313067,0.8756875385458711,,-0.03504184805691615,-0.0946797485975624,0.08866477723999999,-0.07032342494057536,,2.0781532e-05,-2.0861626e-06,-2.3841858e-07,1.0,-1.532957e-05,-1.2610108e-05,1.532957e-05,1.0,-1.4007092e-06,1.2610108e-05,1.3709068e-06,1.0,869,2.667,0,0,0.0,False,-0.25630337251240265,1.0502874705711984
2.6851268300088122,11:47:59.579934,11:46:59.039317,0,,0.045558386,0.053454757,0.031570017,0.33905756,-0.5603637,-0.755667,0.2361753,-0.726822,0.6449424,-0.91063786,-0.39714232,-0.11409059,,-0.021671206,-0.012302771,0.041071236,0.830829,0.4683786,0.30057418,0.32654303,-0.8476211,0.41822004,0.4506583,-0.24931896,-0.8571739,,0.09633905,1.3397229,0.4502942,0.9951102,-0.010646204,-0.098195136,-0.07041946,-0.77359176,-0.6297594,-0.0692584,0.6335949,-0.7705588,,-0.023012785,0.27271187,-0.08397636,-0.25772202,0.54927284,0.794908,-0.4060343,-0.80809945,0.42674512,0.87676424,-0.21277831,0.43128863,,0.05346269,0.3980121,-0.38790318,-0.877447,-0.43080717,-0.21093121,0.47892073,-0.76219237,-0.43554303,0.026864909,-0.48318526,0.87510586,,1.3340712130907872,0.2653994379555995,0.19175240196,-1.6169191542091674,0.8174961780966302,-0.02633367385382193,-0.41146370259224946,,-1.0397346950554684,-0.08064077667265233,0.16336624354,4.537690377005107,-0.2791483690207948,-0.18199210455313067,0.8756875385458711,,-0.03504184805691615,-0.0946797485975624,0.08866477723999999,-0.07032342494057536,,2.0781532e-05,-2.0861626e-06,-2.3841858e-07,1.0,-1.532957e-05,-1.2610108e-05,1.532957e-05,1.0,-1.4007092e-06,1.2610108e-05,1.3709068e-06,1.0,877,2.692,0,0,0.0,False,-0.25642252794944387,1.0499495091657423
2.7080183370271698,11:47:59.608259,11:46:59.039317,0,,0.045561474,0.05371131,0.031572253,0.33887196,-0.561543,-0.75487435,0.2366069,-0.725695,0.6460525,-0.9105948,-0.3975374,-0.113052875,,-0.02167236,-0.012303054,0.041070998,0.83083177,0.4683781,0.30056727,0.32654524,-0.84762084,0.41821882,0.4506516,-0.24932069,-0.8571769,,0.09633905,1.3397229,0.4502942,0.9951102,-0.010646204,-0.098195136,-0.07041946,-0.77359176,-0.6297594,-0.0692584,0.6335949,-0.7705588,,-0.023002539,0.27290997,-0.08381363,-0.2575177,0.5505358,0.7941001,-0.40567443,-0.8074804,0.42825654,0.8769908,-0.21186246,0.43127882,,0.05346387,0.39801186,-0.38790333,-0.87744904,-0.43080646,-0.210924,0.4789166,-0.76219356,-0.4355455,0.026870914,-0.483184,0.8751064,,1.334542299796115,0.2664111159621229,0.19190666047000002,-1.6162900843787136,0.8174961780966302,-0.026742067554524768,-0.4122804229229209,,-1.0397269723225941,-0.08064077667265233,0.16336624354,4.537690377005107,-0.2791483690207948,-0.18199210455313067,0.8756875385458711,,-0.03504184805691615,-0.0946797485975624,0.08866477723999999,-0.07032342494057536,,2.0781532e-05,-2.0861626e-06,-2.3841858e-07,1.0,-1.532957e-05,-1.2610108e-05,1.532957e-05,1.0,-1.4007092e-06,1.2610108e-05,1.3709068e-06,1.0,885,2.716,0,0,0.0,False,-0.25576717304571295,1.0503840309727575
