AlexandreBanks6/ExpertPlaybackApp/resources/Motions/P_08/PC1/Data_PC1_9.csv
Task Time,PC1 Time,PC2 Time,Gaze Calib,s_T_psm1,Tx,Ty,Tz,R00,R01,R02,R10,R11,R12,R20,R21,R22,s_T_psm3,Tx,Ty,Tz,R00,R01,R02,R10,R11,R12,R20,R21,R22,cart_T_ecm,Tx,Ty,Tz,R00,R01,R02,R10,R11,R12,R20,R21,R22,ecm_T_psm1,Tx,Ty,Tz,R00,R01,R02,R10,R11,R12,R20,R21,R22,ecm_T_psm3,Tx,Ty,Tz,R00,R01,R02,R10,R11,R12,R20,R21,R22,psm1_joints,q1,q2,q3,q4,q5,q6,jaw,psm3_joints,q1,q2,q3,q4,q5,q6,jaw,ecm_joints,q1,q2,q3,q4,ecmi_T_ecm,Tx,Ty,Tz,R00,R01,R02,R10,R11,R12,R20,R21,R22,Sample #,Task Duration (s),Collisions (binary),Collisions (increments),Cumulative Collision Time (s),Clutch Press,MTMR Angle,MTML Angle
""
lci_T_si,,,,,-0.06109692,0.03167272,0.2299341,0.9947057,-0.03862675,0.09522884,0.030706912,-0.772613,-0.63413423,0.098069586,0.63370115,-0.7673364
rci_T_si,,,,,-0.07092086,0.035947774,0.24085279,0.99028605,-0.05390731,0.12817007,0.04142117,-0.7655644,-0.64202446,0.13273226,0.64109683,-0.75589484
ecm_T_lc,,,,,-4.4061628e-05,-0.00034663224,-0.01840835,-0.99912,0.030754527,0.028518902,-0.031987965,-0.99852574,-0.043852776,0.027128186,-0.04472645,0.9986309
ecm_T_rc,,,,,-0.0043358393,0.01870579,-0.007592615,-0.99555075,-0.052743673,-0.078081585,0.04863213,-0.9973746,0.053654674,-0.08070653,0.04961868,0.9955021
cart_T_ecmi,,,,,0.09583431,1.3379636,0.44839177,0.99480253,-0.009780299,-0.10135232,-0.07187082,-0.7725409,-0.63088435,-0.07212858,0.6348896,-0.7692286
ecmac_T_ecmrep_psm1,,,,,0.006309411,-0.25313872,-0.31568977,0.99868697,0.047558498,0.019040095,-0.047043137,0.9985371,-0.026657216,-0.020280018,0.025726508,0.99946326
ecmac_T_ecmrep_psm3,,,,,-0.020520164,-0.44355312,-0.56256753,0.99888426,-0.027940953,0.03807337,0.020709034,0.9837047,0.17859514,-0.04244307,-0.17760742,0.9831857
""
0,12:11:50.968207,12:10:50.632840,0,,0.13341144,0.0057486743,0.018855557,-0.9702469,-0.21295208,0.11520509,0.09497397,0.10294002,0.99014294,-0.22271225,0.97162455,-0.07965234,,0.029239558,-0.060897727,0.060682714,-0.23833956,-0.4217911,0.8748064,-0.8096889,0.5836976,0.060833514,-0.5362815,-0.69382215,-0.48063782,,0.0958225,1.337965,0.44839248,0.9948022,-0.0097837215,-0.10135511,-0.07187523,-0.7725409,-0.6308839,-0.07212858,0.6348896,-0.7692286,,-0.09459374,0.2437235,-0.08971362,0.990388,0.12846829,-0.051259518,-0.056230593,0.71254504,0.6993695,0.12637152,-0.6897648,0.7129199,,0.016151385,0.3961634,-0.425736,0.30795765,0.5023033,-0.8079935,-0.8921397,-0.14258352,-0.42866856,-0.33052817,0.85285485,0.404215,,0.9294386241457939,0.337274912816007,0.17297953018,1.0383846001353645,0.14852387524503374,0.9441428675952026,-0.40705341280662366,,-1.267470364783475,-0.33766104945971825,0.14813613233,0.663458981185035,0.44106262124284173,-0.49989938995339367,0.8766676029426768,,-0.03805254101660637,-0.09251335866352443,0.09127582152,-0.07163176773016745,,-1.1906028e-05,-5.364418e-07,-3.5762787e-07,1.0,-3.4086406e-06,-2.8163195e-06,3.4049153e-06,0.99999994,-3.2782555e-07,2.8088689e-06,3.874302e-07,0.9999999,37,0.112,1,1,0.088,False,-0.25624379479388093,1.05105995378367
0.13818921498022974,12:11:51.005861,12:10:50.632840,0,,0.1332243,0.0058446378,0.01949741,-0.9615892,-0.2476711,0.118343666,0.09623061,0.099603385,0.99036294,-0.2570717,0.9637104,-0.07194391,,0.029242396,-0.060901497,0.060685575,-0.23833898,-0.42190546,0.8747514,-0.8096967,0.58367956,0.06090337,-0.53627014,-0.6937678,-0.48072904,,0.0958225,1.337965,0.44839248,0.9948022,-0.0097837215,-0.10135511,-0.07187523,-0.7725409,-0.6308839,-0.07212858,0.6348896,-0.7692286,,-0.0944611,0.24421623,-0.09015616,0.9850012,0.1635222,-0.05507401,-0.07772296,0.7054468,0.70448846,0.15405129,-0.6896415,0.7075753,,0.016148234,0.39616302,-0.4257405,0.30795568,0.50241005,-0.80792785,-0.89213556,-0.14254028,-0.42869157,-0.33054122,0.8527992,0.40432176,,0.933052863130931,0.3379545133089388,0.17250768062000002,1.0199318851087265,0.182409727186863,0.9457522164488112,-0.4080334772034294,,-1.2674935329820975,-0.33769194039121514,0.14813483604000002,0.663458981185035,0.44106262124284173,-0.4997360324731125,0.8763409148104081,,-0.03805254101660637,-0.09251335866352443,0.09127582152,-0.07163176773016745,,-1.1906028e-05,-5.364418e-07,-3.5762787e-07,1.0,-3.4086406e-06,-2.8163195e-06,3.4049153e-06,0.99999994,-3.2782555e-07,2.8088689e-06,3.874302e-07,0.9999999,49,0.15,1,1,0.126,False,-0.25600548391979716,1.0511565141852286
0.1758361660176888,12:11:51.034159,12:10:50.632840,0,,0.13316289,0.0059123933,0.019971356,-0.9530416,-0.27782485,0.12051947,0.0981534,0.09310603,0.99080634,-0.2864917,0.9561089,-0.06146437,,0.029253416,-0.060901973,0.06068927,-0.23831357,-0.42176294,0.8748271,-0.80968696,0.58369976,0.060838968,-0.536296,-0.6938375,-0.48059955,,0.0958225,1.337965,0.44839248,0.9948022,-0.0097837215,-0.10135511,-0.07187523,-0.7725409,-0.6308839,-0.07212858,0.6348896,-0.7692286,,-0.09443967,0.24457644,-0.09047674,0.97930884,0.19383007,-0.0581727,-0.09550046,0.696072,0.7115922,0.17842035,-0.691313,0.70018035,,0.016136833,0.39616454,-0.42574236,0.30793366,0.50227726,-0.8080188,-0.8921525,-0.14259706,-0.42863736,-0.33051592,0.8528679,0.4041975,,0.9354546330548149,0.3385028273430087,0.17217971925000003,1.0048342091778406,0.2115133016369018,0.9508527982310919,-0.4108103263277122,,-1.2675784830437142,-0.3377073858569636,0.14813613233,0.663458981185035,0.44106262124284173,-0.499817711213253,0.8761775707442738,,-0.03805254101660637,-0.09251335866352443,0.09127582152,-0.07163176773016745,,-1.1906028e-05,-5.364418e-07,-3.5762787e-07,1.0,-3.4086406e-06,-2.8163195e-06,3.4049153e-06,0.99999994,-3.2782555e-07,2.8088689e-06,3.874302e-07,0.9999999,66,0.202,1,1,0.178,False,-0.25719703829021734,1.0514461953899055
0.20407700794748962,12:11:51.084680,12:10:50.632840,0,,0.13305666,0.0059738457,0.020732954,-0.9387236,-0.32205498,0.12279439,0.10043713,0.085208654,0.99128795,-0.32971233,0.94287837,-0.04764113,,0.02925048,-0.060898665,0.06068784,-0.23816359,-0.42197224,0.874767,-0.8097724,0.58356106,0.06103143,-0.5362336,-0.6938268,-0.48068452,,0.0958225,1.337965,0.44839248,0.9948022,-0.0097837215,-0.10135511,-0.07187523,-0.7725409,-0.6308839,-0.07212858,0.6348896,-0.7692286,,-0.0944004,0.24511933,-0.09102341,0.9691651,0.23856929,-0.061674282,-0.12205794,0.68221235,0.720894,0.21405813,-0.6911375,0.6902957,,0.01613991,0.39616573,-0.42573908,0.30777752,0.5024843,-0.80794954,-0.8921713,-0.1426523,-0.42857978,-0.33061048,0.85273665,0.40439695,,0.9389916447112097,0.3392133187674374,0.17163527745,0.9815586254510585,0.2544171625632501,0.9558901591392912,-0.4101569500631752,,-1.2675630375779656,-0.3376842176583409,0.14813613233,0.6632492912415505,0.44106262124284173,-0.4997360324731125,0.8763409148104081,,-0.03805254101660637,-0.09251335866352443,0.09127582152,-0.07163176773016745,,-1.1906028e-05,-5.364418e-07,-3.5762787e-07,1.0,-3.4086406e-06,-2.8163195e-06,3.4049153e-06,0.99999994,-3.2782555e-07,2.8088689e-06,3.874302e-07,0.9999999,74,0.226,1,1,0.202,False,-0.2580907040680329,1.0515427557914643
0.2546404550084844,12:11:51.119671,12:10:50.778337,0,,0.13285358,0.006053053,0.021116033,-0.9320889,-0.34074074,0.1229064,0.10039778,0.08299437,0.99147975,-0.34803808,0.9364866,-0.043148458,,0.029251553,-0.060899604,0.060688317,-0.23816279,-0.422035,0.8747369,-0.809774,0.58355457,0.061072648,-0.53623164,-0.6937941,-0.48073405,,0.0958225,1.337965,0.44839248,0.9948022,-0.0097837215,-0.10135511,-0.07187523,-0.7725409,-0.6308839,-0.07212858,0.6348896,-0.7692286,,-0.09422913,0.24543162,-0.09128304,0.9642466,0.2576071,-0.062186625,-0.1340941,0.67668957,0.7239544,0.22857685,-0.68973166,0.6870392,,0.016138785,0.39616546,-0.42574003,0.30777648,0.50254256,-0.8079137,-0.8921708,-0.14262421,-0.42859024,-0.3306129,0.852707,0.40445745,,0.9416019284226975,0.3394141098221672,0.17137083429000002,0.9700256785594097,0.2731363630311155,0.9558181519990261,-0.41375051951812947,,-1.26757076031084,-0.33769194039121514,0.14813613233,0.6632492912415505,0.44106262124284173,-0.49965435373297196,0.8765042588765424,,-0.03805254101660637,-0.09251335866352443,0.09127582152,-0.07163176773016745,,-1.1906028e-05,-5.364418e-07,-3.5762787e-07,1.0,-3.4086406e-06,-2.8163195e-06,3.4049153e-06,0.99999994,-3.2782555e-07,2.8088689e-06,3.874302e-07,0.9999999,95,0.292,1,1,0.268,False,-0.2580907040680329,1.0511565141852286
0.28965022205375135,12:11:51.172119,12:10:50.778337,0,,0.13227148,0.006299019,0.021432832,-0.930867,-0.34701598,0.11430818,0.09458572,0.07331073,0.9928137,-0.3529022,0.9349893,-0.035419732,,0.029253028,-0.060900304,0.060690463,-0.23815934,-0.42202047,0.8747449,-0.8097741,0.5835551,0.061065733,-0.5362329,-0.6938025,-0.4807204,,0.0958225,1.337965,0.44839248,0.9948022,-0.0097837215,-0.10135511,-0.07187523,-0.7725409,-0.6308839,-0.07212858,0.6348896,-0.7692286,,-0.09366555,0.24583398,-0.09142508,0.96314913,0.26343566,-0.054271463,-0.1416919,0.66845757,0.73012865,0.22862011,-0.695533,0.68115103,,0.016137062,0.39616653,-0.4257418,0.30777323,0.50252914,-0.8079233,-0.8921723,-0.14263201,-0.42858458,-0.33061197,0.85271364,0.40444425,,0.946119727154119,0.3394836144180352,0.17118157595000003,0.9599605612721526,0.2779186405229059,0.9613932592259566,-0.4108103263277124,,-1.2675862057765883,-0.33769966312408933,0.14813483604000002,0.6632492912415505,0.44106262124284173,-0.49965435373297196,0.8765042588765424,,-0.03805254101660637,-0.09251335866352443,0.09127582152,-0.07163176773016745,,-1.1906028e-05,-5.364418e-07,-3.5762787e-07,1.0,-3.4086406e-06,-2.8163195e-06,3.4049153e-06,0.99999994,-3.2782555e-07,2.8088689e-06,3.874302e-07,0.9999999,103,0.318,1,1,0.294,False,-0.2588652144088064,1.0513496349883464
0.3420672779902816,12:11:51.201210,12:10:50.778337,0,,0.13211434,0.006397292,0.021454528,-0.9307624,-0.34974506,0.10658121,0.08705465,0.07113281,0.9936607,-0.35510927,0.9341403,-0.03576073,,0.02925419,-0.06089804,0.06068951,-0.23815301,-0.42201978,0.8747469,-0.80976665,0.5835642,0.061077386,-0.53624696,-0.69379526,-0.48071516,,0.0958225,1.337965,0.44839248,0.9948022,-0.0097837215,-0.10135511,-0.07187523,-0.7725409,-0.6308839,-0.07212858,0.6348896,-0.7692286,,-0.09350576,0.24592541,-0.09139461,0.9628217,0.26610357,-0.04651029,-0.1488536,0.6662955,0.73067975,0.22542608,-0.69659114,0.6811343,,0.016136013,0.39616707,-0.42573935,0.30776867,0.50252753,-0.80792606,-0.89217937,-0.14262083,-0.42857355,-0.33059707,0.8527165,0.40445045,,0.9471854642907619,0.33946044621941257,0.17119583514000003,0.9515729635327714,0.2766889120250169,0.9610891605169753,-0.4114637025922492,,-1.2675939285094626,-0.3376842176583409,0.14813613233,0.6632492912415505,0.44106262124284173,-0.49965435373297196,0.8765042588765424,,-0.03805254101660637,-0.09251335866352443,0.09127582152,-0.07163176773016745,,-1.1906028e-05,-5.364418e-07,-3.5762787e-07,1.0,-3.4086406e-06,-2.8163195e-06,3.4049153e-06,0.99999994,-3.2782555e-07,2.8088689e-06,3.874302e-07,0.9999999,116,0.357,1,1,0.333,False,-0.2583885926606384,1.0512047943860081
0.3711879289476201,12:11:51.241786,12:10:50.892345,0,,0.1321148,0.0064186454,0.021435916,-0.92903847,-0.3564064,0.0993073,0.07813157,0.07336575,0.9942398,-0.36163914,0.9314459,-0.040312976,,0.029251024,-0.060899545,0.06068951,-0.23816279,-0.422035,0.8747369,-0.809774,0.58355457,0.061072648,-0.53623164,-0.6937941,-0.48073405,,0.0958225,1.337965,0.44839248,0.9948022,-0.0097837215,-0.10135511,-0.07187523,-0.7725409,-0.6308839,-0.07212858,0.6348896,-0.7692286,,-0.093503304,0.24592957,-0.091366686,0.9612019,0.2730994,-0.038828664,-0.15990692,0.66635525,0.72828597,0.22476813,-0.6938209,0.6841724,,0.016139163,0.39616647,-0.42574075,0.30777648,0.50254256,-0.8079137,-0.8921708,-0.14262421,-0.42859024,-0.3306129,0.852707,0.40445745,,0.9471700188250134,0.33932143702767653,0.17122564981000002,0.9400400166411228,0.2779186405229059,0.9564108560773823,-0.41064698226157814,,-1.26757076031084,-0.33769194039121514,0.14813483604000002,0.6632492912415505,0.44106262124284173,-0.49965435373297196,0.8765042588765424,,-0.03805254101660637,-0.09251335866352443,0.09127582152,-0.07163176773016745,,-1.1906028e-05,-5.364418e-07,-3.5762787e-07,1.0,-3.4086406e-06,-2.8163195e-06,3.4049153e-06,0.99999994,-3.2782555e-07,2.8088689e-06,3.874302e-07,0.9999999,133,0.411,1,1,0.387,False,-0.2589843698458485,1.0505288715750958
0.41175243095494807,12:11:51.291691,12:10:50.892345,0,,0.13215928,0.0063528046,0.02135843,-0.9278771,-0.3622833,0.08828753,0.06669298,0.07171252,0.9951931,-0.36687315,0.92930496,-0.042378604,,0.029252633,-0.0609005,0.060688853,-0.23816201,-0.42188352,0.8748102,-0.8097756,0.583563,0.060970873,-0.53622955,-0.6938791,-0.48061353,,0.0958225,1.337965,0.44839248,0.9948022,-0.0097837215,-0.10135511,-0.07187523,-0.7725409,-0.6308839,-0.07212858,0.6348896,-0.7692286,,-0.093544155,0.24582845,-0.09134604,0.9598805,0.2790449,-0.027629746,-0.1720227,0.6638058,0.72785306,0.22144447,-0.693899,0.6851763,,0.016137658,0.3961652,-0.425741,0.30777544,0.50240284,-0.80800104,-0.89217025,-0.14270113,-0.42856574,-0.33061534,0.85277647,0.404309,,0.9464363592019621,0.33882718212372614,0.17125805706000002,0.9274586200320513,0.2762790025257206,0.9557875811583659,-0.41130035852611524,,-1.2675784830437142,-0.33769966312408933,0.14813613233,0.6632492912415505,0.44106262124284173,-0.49981771121325314,0.8763409148104082,,-0.03805254101660637,-0.09251335866352443,0.09127582152,-0.07163176773016745,,-1.1906028e-05,-5.364418e-07,-3.5762787e-07,1.0,-3.4086406e-06,-2.8163195e-06,3.4049153e-06,0.99999994,-3.2782555e-07,2.8088689e-06,3.874302e-07,0.9999999,141,0.435,1,1,0.411,False,-0.25952056931253775,1.0508668329805522
0.46167228394187987,12:11:51.314096,12:10:50.892345,0,,0.13217893,0.006330125,0.021327153,-0.92767924,-0.3635882,0.084939145,0.06294918,0.07193181,0.9954211,-0.36803317,0.92877823,-0.043841988,,0.02925063,-0.060899768,0.06068796,-0.23816547,-0.4218267,0.8748367,-0.8097754,0.5835675,0.060930043,-0.5362283,-0.6939099,-0.48057055,,0.0958225,1.337965,0.44839248,0.9948022,-0.0097837215,-0.10135511,-0.07187523,-0.7725409,-0.6308839,-0.07212858,0.6348896,-0.7692286,,-0.093562104,0.24579059,-0.091335006,0.95957845,0.2804029,-0.024153799,-0.17562611,0.6636523,0.7271321,0.21991968,-0.69349825,0.6860725,,0.016139759,0.3961651,-0.42573997,0.30777872,0.50235033,-0.80803245,-0.8921688,-0.14272834,-0.42855975,-0.33061627,0.85280293,0.40425253,,0.9461351726198673,0.33868045019911586,0.17127231625000003,0.9236842010493298,0.27518591052759706,0.9548819921048448,-0.4113003585261149,,-1.2675630375779656,-0.33769194039121514,0.14813613233,0.6632492912415505,0.44106262124284173,-0.49989938995339367,0.8763409148104082,,-0.03805254101660637,-0.09251335866352443,0.09127582152,-0.07163176773016745,,-1.1906028e-05,-5.364418e-07,-3.5762787e-07,1.0,-3.4086406e-06,-2.8163195e-06,3.4049153e-06,0.99999994,-3.2782555e-07,2.8088689e-06,3.874302e-07,0.9999999,154,0.476,1,1,0.452,False,-0.2583290149421176,1.051397915189126
0.4840606820071116,12:11:51.352398,12:10:50.892345,0,,0.1321457,0.0063405633,0.021306723,-0.9275064,-0.36613417,0.07534966,0.05319436,0.07024333,0.9961105,-0.37000287,0.9279069,-0.04567477,,0.029252484,-0.06089941,0.060688794,-0.23816016,-0.42195764,0.874775,-0.8097725,0.5835616,0.061024517,-0.536235,-0.69383526,-0.48067087,,0.0958225,1.337965,0.44839248,0.9948022,-0.0097837215,-0.10135511,-0.07187523,-0.7725409,-0.6308839,-0.07212858,0.6348896,-0.7692286,,-0.09352661,0.2457858,-0.09131636,0.95903563,0.28291848,-0.014413109,-0.18432601,0.6618449,0.7266259,0.21511516,-0.6942035,0.6868821,,0.01613781,0.3961658,-0.4257401,0.30777428,0.5024709,-0.80795914,-0.8921728,-0.1426601,-0.42857412,-0.33060956,0.85274327,0.40438375,,0.9460811134897478,0.3385646092060025,0.17128398286000002,0.9140384636490416,0.271769998033461,0.9542369326113518,-0.4116270466583839,,-1.2675784830437142,-0.33769194039121514,0.14813613233,0.6632492912415505,0.44106262124284173,-0.4997360324731125,0.8763409148104081,,-0.03805254101660637,-0.09251335866352443,0.09127582152,-0.07163176773016745,,-1.1906028e-05,-5.364418e-07,-3.5762787e-07,1.0,-3.4086406e-06,-2.8163195e-06,3.4049153e-06,0.99999994,-3.2782555e-07,2.8088689e-06,3.874302e-07,0.9999999,162,0.501,1,1,0.477,False,-0.2589843698458485,1.05105995378367
0.5222957270452753,12:11:51.378350,12:10:50.892345,0,,0.13209514,0.00637725,0.021305129,-0.92744404,-0.36733598,0.070083804,0.04838734,0.067956686,0.99651414,-0.37081814,0.9276022,-0.045251578,,0.029253416,-0.060899306,0.06068921,-0.2381575,-0.42202306,0.8747441,-0.80977106,0.5835587,0.061071813,-0.5362383,-0.69379795,-0.480721,,0.0958225,1.337965,0.44839248,0.9948022,-0.0097837215,-0.10135511,-0.07187523,-0.7725409,-0.6308839,-0.07212858,0.6348896,-0.7692286,,-0.09347411,0.2458135,-0.09129681,0.95877665,0.28401196,-0.009193865,-0.18851191,0.6599281,0.7272951,0.2126278,-0.6955804,0.68626326,,0.016136834,0.39616612,-0.42574018,0.30777207,0.5025312,-0.8079225,-0.89217484,-0.14262597,-0.4285813,-0.3306062,0.85271347,0.40444937,,0.9463514091403457,0.3385723319388767,0.17129564947,0.9092155949488976,0.2701303600362758,0.955165553755006,-0.41179039072451795,,-1.2675862057765883,-0.33769194039121514,0.14813613233,0.6632492912415505,0.44106262124284173,-0.49965435373297196,0.8765042588765424,,-0.03805254101660637,-0.09251335866352443,0.09127582152,-0.07163176773016745,,-1.1906028e-05,-5.364418e-07,-3.5762787e-07,1.0,-3.4086406e-06,-2.8163195e-06,3.4049153e-06,0.99999994,-3.2782555e-07,2.8088689e-06,3.874302e-07,0.9999999,175,0.542,1,1,0.518,False,-0.2586269035347226,1.0509151131813312
0.5482579639647156,12:11:51.423752,12:10:51.055546,0,,0.13183525,0.006538093,0.021307632,-0.9274942,-0.36941954,0.05730284,0.03602293,0.064252436,0.9972833,-0.37209776,0.9270385,-0.046286106,,0.029251702,-0.060900647,0.060688436,-0.23816463,-0.42203242,0.8747377,-0.809777,0.58355105,0.061066568,-0.53622633,-0.69379866,-0.4807334,,0.0958225,1.337965,0.44839248,0.9948022,-0.0097837215,-0.10135511,-0.07187523,-0.7725409,-0.6308839,-0.07212858,0.6348896,-0.7692286,,-0.09320686,0.24594177,-0.0912223,0.95824486,0.2859257,0.003651079,-0.19874468,0.65677977,0.72742075,0.20559031,-0.6977728,0.686182,,0.016138634,0.39616486,-0.42574093,0.30777764,0.5025405,-0.80791456,-0.8921683,-0.14263025,-0.42859352,-0.33061868,0.8527072,0.40445232,,0.947980905776807,0.3385337182745056,0.17134231591000001,0.8968438882833106,0.2658946285435471,0.9549439654632699,-0.412280422922921,,-1.26757076031084,-0.33769966312408933,0.14813613233,0.6632492912415505,0.44106262124284173,-0.49965435373297196,0.8765042588765424,,-0.03805254101660637,-0.09251335866352443,0.09127582152,-0.07163176773016745,,-1.1906028e-05,-5.364418e-07,-3.5762787e-07,1.0,-3.4086406e-06,-2.8163195e-06,3.4049153e-06,0.99999994,-3.2782555e-07,2.8088689e-06,3.874302e-07,0.9999999,183,0.567,1,1,0.543,False,-0.2586269035347226,1.0510116735828905
0.5937279510544613,12:11:51.452638,12:10:51.055546,0,,0.13168572,0.0066188276,0.021300986,-0.92789084,-0.36909348,0.052806873,0.031587176,0.06330395,0.9974943,-0.37151146,0.9272336,-0.047080547,,0.029249847,-0.06090099,0.0606876,-0.23816994,-0.42190146,0.87479943,-0.8097798,0.58355695,0.060972095,-0.53621954,-0.69387335,-0.48063308,,0.0958225,1.337965,0.44839248,0.9948022,-0.0097837215,-0.10135511,-0.07187523,-0.7725409,-0.6308839,-0.07212858,0.6348896,-0.7692286,,-0.093053035,0.24600133,-0.091180965,0.9583346,0.28552997,0.008205645,-0.20173083,0.6561797,0.7271401,0.20223594,-0.69849896,0.68644,,0.016140582,0.39616418,-0.4257408,0.30778208,0.50241995,-0.80798787,-0.89216423,-0.1426985,-0.42857915,-0.33062539,0.8527669,0.4043211,,0.9489153564545881,0.3384642136786376,0.17137083429000002,0.8928597793571047,0.2637084445473001,0.9544396471984767,-0.41162704665838346,,-1.2675553148450915,-0.33769966312408933,0.14813613233,0.6632492912415505,0.44106262124284173,-0.49981771121325314,0.8765042588765425,,-0.03805254101660637,-0.09251335866352443,0.09127582152,-0.07163176773016745,,-1.1906028e-05,-5.364418e-07,-3.5762787e-07,1.0,-3.4086406e-06,-2.8163195e-06,3.4049153e-06,0.99999994,-3.2782555e-07,2.8088689e-06,3.874302e-07,0.9999999,196,0.607,1,1,0.583,False,-0.2589247921273281,1.0507702725789931
0.6225633879657835,12:11:51.485580,12:10:51.055546,0,,0.13143706,0.0067657605,0.021291912,-0.9280366,-0.36983532,0.044383485,0.02351939,0.06073618,0.9978767,-0.3717457,0.9271097,-0.047667086,,0.029251553,-0.060899604,0.060688317,-0.23816279,-0.42189214,0.87480587,-0.809774,0.5835646,0.06097731,-0.53623164,-0.6938726,-0.48062074,,0.0958225,1.337965,0.44839248,0.9948022,-0.0097837215,-0.10135511,-0.07187523,-0.7725409,-0.6308839,-0.07212858,0.6348896,-0.7692286,,-0.09279668,0.24611132,-0.09110553,0.95804495,0.2861337,0.016655428,-0.2080159,0.6541589,0.72719014,0.19717832,-0.7001454,0.686234,,0.016138785,0.39616546,-0.42574003,0.30777648,0.5024106,-0.8079958,-0.8921708,-0.14269422,-0.42856693,-0.3306129,0.8527731,0.40431815,,0.9505294076253011,0.3383715408841469,0.17142527847000003,0.8848915615046928,0.2608390780522258,0.9542473822317442,-0.41179039072451806,,-1.26757076031084,-0.33769194039121514,0.14813613233,0.6632492912415505,0.44106262124284173,-0.49981771121325314,0.8765042588765425,,-0.03805254101660637,-0.09251335866352443,0.09127582152,-0.07163176773016745,,-1.1906028e-05,-5.364418e-07,-3.5762787e-07,1.0,-3.4086406e-06,-2.8163195e-06,3.4049153e-06,0.99999994,-3.2782555e-07,2.8088689e-06,3.874302e-07,0.9999999,213,0.661,1,1,0.637,False,-0.259580147031059,1.0510116735828905
0.6555634289979935,12:11:51.544731,12:10:51.189993,0,,0.13125202,0.006866038,0.021313727,-0.928418,-0.3696525,0.0373744,0.016581953,0.059267998,0.99810433,-0.3711669,0.9272776,-0.048895866,,0.029253416,-0.060899306,0.06068921,-0.2381575,-0.42195165,0.87477857,-0.80977106,0.5835636,0.0610241,-0.5362383,-0.6938372,-0.48066434,,0.0958225,1.337965,0.44839248,0.9948022,-0.0097837215,-0.10135511,-0.07187523,-0.7725409,-0.6308839,-0.07212858,0.6348896,-0.7692286,,-0.09260906,0.24620481,-0.09107682,0.95797896,0.28585362,0.023749255,-0.21290965,0.6531483,0.726682,0.19221291,-0.7012025,0.6865633,,0.016136834,0.39616612,-0.42574018,0.30777207,0.5024652,-0.80796355,-0.89217484,-0.14266099,-0.42856964,-0.3306062,0.8527465,0.40437973,,0.9516800948235605,0.33838698634989534,0.17143435250000003,0.878600863200157,0.2574231655580898,0.9535206439981105,-0.4119537347906522,,-1.2675862057765883,-0.33769194039121514,0.14813613233,0.6632492912415505,0.44106262124284173,-0.4997360324731125,0.8763409148104081,,-0.03805254101660637,-0.09251335866352443,0.09127582152,-0.07163176773016745,,-1.1906028e-05,-5.364418e-07,-3.5762787e-07,1.0,-3.4086406e-06,-2.8163195e-06,3.4049153e-06,0.99999994,-3.2782555e-07,2.8088689e-06,3.874302e-07,0.9999999,221,0.685,1,1,0.661,False,-0.2588652144088064,1.0506254319766548
0.7147156109567732,12:11:51.564718,12:10:51.189993,0,,0.1311817,0.0068824217,0.021312073,-0.92851216,-0.36976692,0.03372486,0.013081014,0.05819592,0.9982194,-0.3710712,0.9273,-0.049198627,,0.029251412,-0.060898516,0.060688257,-0.23816097,-0.42196622,0.87477064,-0.809771,0.58356315,0.061031014,-0.536237,-0.6938287,-0.48067802,,0.0958225,1.337965,0.44839248,0.9948022,-0.0097837215,-0.10135511,-0.07187523,-0.7725409,-0.6308839,-0.07212858,0.6348896,-0.7692286,,-0.092538066,0.24621737,-0.091072455,0.9578659,0.2859047,0.02741183,-0.21550837,0.65234935,0.7266336,0.18986589,-0.70192504,0.6864781,,0.016138935,0.39616606,-0.42573914,0.30777532,0.5024786,-0.80795395,-0.89217335,-0.14265318,-0.4285753,-0.33060715,0.8527399,0.4043929,,0.9520198950700264,0.338271145356782,0.17143435250000003,0.8754555140478892,0.25578352756090456,0.9537141564804998,-0.41130035852611524,,-1.26757076031084,-0.3376842176583409,0.14813613233,0.6632492912415505,0.44106262124284173,-0.4997360324731125,0.8763409148104081,,-0.03805254101660637,-0.09251335866352443,0.09127582152,-0.07163176773016745,,-1.1906028e-05,-5.364418e-07,-3.5762787e-07,1.0,-3.4086406e-06,-2.8163195e-06,3.4049153e-06,0.99999994,-3.2782555e-07,2.8088689e-06,3.874302e-07,0.9999999,234,0.726,0,1,0.687,False,-0.2596993024681016,1.0503840309727575
0.7346667980309576,12:11:51.610788,12:10:51.189993,0,,0.13112175,0.0068725944,0.021295264,-0.92810035,-0.37126747,0.028109662,0.007189624,0.05761224,0.99831307,-0.37226063,0.9267367,-0.05080065,,0.02925206,-0.0609016,0.060688674,-0.23846668,-0.42173097,0.8748008,-0.8095952,0.5838344,0.06076771,-0.5363666,-0.6937435,-0.48065647,,0.0958225,1.337965,0.44839248,0.9948022,-0.0097837215,-0.10135511,-0.07187523,-0.7725409,-0.6308839,-0.07212858,0.6348896,-0.7692286,,-0.092477486,0.24619998,-0.09107251,0.9572324,0.28741512,0.033146515,-0.22076763,0.6515648,0.7257582,0.18699679,-0.702037,0.6871509,,0.016138257,0.3961644,-0.42574176,0.30809394,0.5022331,-0.8079852,-0.8921358,-0.14244415,-0.42872295,-0.3304116,0.85291946,0.40417397,,0.9521743497275109,0.3380008497061841,0.17143435250000003,0.8695841956303225,0.2540072530639538,0.952957263244758,-0.41179039072451795,,-1.2675630375779656,-0.33769966312408933,0.14813613233,0.6636686711285196,0.44106262124284173,-0.4997360324731125,0.8760142266781397,,-0.03805254101660637,-0.09251335866352443,0.09127582152,-0.07163176773016745,,-1.1906028e-05,-5.364418e-07,-3.5762787e-07,1.0,-3.4086406e-06,-2.8163195e-06,3.4049153e-06,0.99999994,-3.2782555e-07,2.8088689e-06,3.874302e-07,0.9999999,242,0.751,0,1,0.687,False,-0.2586269035347226,1.0512530745867876
0.7807507310062647,12:11:51.629647,12:10:51.189993,0,,0.13111131,0.006875232,0.021299064,-0.92668295,-0.37511018,0.023472998,0.002175957,0.057098478,0.9983661,-0.3758375,0.9252198,-0.05209592,,0.029253133,-0.060902525,0.06068915,-0.23846585,-0.42172238,0.87480515,-0.8095968,0.5838329,0.060761213,-0.5363645,-0.69375,-0.48064935,,0.0958225,1.337965,0.44839248,0.9948022,-0.0097837215,-0.10135511,-0.07187523,-0.7725409,-0.6308839,-0.07212858,0.6348896,-0.7692286,,-0.09246729,0.24620461,-0.091074765,0.9558677,0.29134548,0.037877936,-0.22692591,0.65025324,0.7250347,0.18660533,-0.7016328,0.6876699,,0.016137132,0.39616412,-0.42574272,0.30809286,0.5022254,-0.8079904,-0.89213526,-0.14245106,-0.42872176,-0.33041403,0.85292286,0.40416482,,0.952212963391882,0.3379004541788192,0.17143305621000002,0.8630838073823023,0.254690435562781,0.9519101012854326,-0.41244376698905516,,-1.26757076031084,-0.3377073858569636,0.14813613233,0.6636686711285196,0.44106262124284173,-0.4997360324731125,0.8760142266781397,,-0.03805254101660637,-0.09251335866352443,0.09127582152,-0.07163176773016745,,-1.1906028e-05,-5.364418e-07,-3.5762787e-07,1.0,-3.4086406e-06,-2.8163195e-06,3.4049153e-06,0.99999994,-3.2782555e-07,2.8088689e-06,3.874302e-07,0.9999999,255,0.792,0,1,0.687,False,-0.25963972474957986,1.0508185527797727
0.7995434800395742,12:11:51.675381,12:10:51.307751,0,,0.13113242,0.0068680122,0.021322593,-0.92227167,-0.38608283,0.018837452,-0.0044681653,0.059378117,0.99822545,-0.38651624,0.9205508,-0.05648777,,0.029253267,-0.060898203,0.06068915,-0.23815566,-0.42195427,0.8747778,-0.8097681,0.58356714,0.06103015,-0.5362436,-0.69383264,-0.480665,,0.0958225,1.337965,0.44839248,0.9948022,-0.0097837215,-0.10135511,-0.07187523,-0.7725409,-0.6308839,-0.07212858,0.6348896,-0.7692286,,-0.092490844,0.24621405,-0.091094956,0.9520854,0.30281118,0.042881165,-0.23898394,0.6491383,0.72215384,0.19084045,-0.69780004,0.6904021,,0.016136987,0.39616674,-0.4257393,0.30777088,0.5024672,-0.8079627,-0.89217734,-0.14265496,-0.42856637,-0.33060044,0.8527463,0.40438482,,0.9522592997891274,0.3376456039939698,0.17142527847000003,0.8509217906601998,0.2611123510517567,0.9466734598117008,-0.41244376698905516,,-1.2675862057765883,-0.3376842176583409,0.14813613233,0.6632492912415505,0.44106262124284173,-0.4997360324731126,0.8766676029426768,,-0.03805254101660637,-0.09251335866352443,0.09127582152,-0.07163176773016745,,-1.1906028e-05,-5.364418e-07,-3.5762787e-07,1.0,-3.4086406e-06,-2.8163195e-06,3.4049153e-06,0.99999994,-3.2782555e-07,2.8088689e-06,3.874302e-07,0.9999999,263,0.816,0,1,0.687,False,-0.2586269035347226,1.0510116735828905
0.8453631190350279,12:11:51.697573,12:10:51.307751,0,,0.13125566,0.0068326965,0.02136369,-0.9166128,-0.39956024,0.013128489,-0.012440428,0.061331958,0.99803996,-0.39958227,0.91465276,-0.06118828,,0.029265128,-0.060905017,0.06069863,-0.23815133,-0.4219528,0.8747796,-0.8097757,0.5835572,0.061026126,-0.5362343,-0.69384193,-0.48066217,,0.095805995,1.3379645,0.44838881,0.9948015,-0.009790742,-0.10136084,-0.07188427,-0.7725408,-0.630883,-0.07212858,0.6348896,-0.7692286,,-0.092601836,0.24621412,-0.09114024,0.94720584,0.31686187,0.048986327,-0.25362894,0.6470166,0.71905625,0.19614655,-0.69351864,0.69322324,,0.016140504,0.39617008,-0.42575476,0.30775732,0.5024709,-0.8079656,-0.8921774,-0.14267151,-0.42856082,-0.33061302,0.85274136,0.40438497,,0.9526531591657128,0.33739075380912037,0.1714084267,0.8360338046727986,0.26972045053697946,0.9403892405400911,-0.41179039072451795,,-1.2675784830437142,-0.3376842176583409,0.14813613233,0.6632492912415505,0.44106262124284173,-0.4997360324731126,0.8766676029426768,,-0.03805254101660637,-0.09251335866352443,0.09127582152,-0.07163176773016745,,-2.8017908e-05,-2.2649765e-06,4.529953e-06,0.99999994,-1.0397285e-05,-8.579344e-06,1.0397285e-05,1.0,-9.536743e-07,8.579344e-06,1.013279e-06,0.99999994,276,0.857,0,1,0.687,False,-0.2589843698458485,1.0505771517758753
0.8675118739483878,12:11:51.735198,12:10:51.307751,0,,0.13112631,0.006899193,0.021510825,-0.9069657,-0.4211624,0.0059392974,-0.023446232,0.06455991,0.99763834,-0.42055118,0.9046844,-0.06842822,,0.029263817,-0.060906164,0.060699403,-0.23815583,-0.42202762,0.8747423,-0.8097801,0.58354664,0.061068177,-0.5362256,-0.69380534,-0.4807247,,0.095805995,1.3379645,0.44838881,0.9948015,-0.009790742,-0.10136084,-0.07188427,-0.7725408,-0.630883,-0.07212858,0.6348896,-0.7692286,,-0.09248298,0.24636234,-0.09122208,0.93891466,0.33943462,0.05677465,-0.2757707,0.6433592,0.7141705,0.20588769,-0.68620193,0.6976655,,0.016141705,0.39617014,-0.42575628,0.30776072,0.5025406,-0.807921,-0.8921728,-0.14264165,-0.42858022,-0.33062214,0.8527053,0.40445355,,0.9540973102131928,0.3369582807681638,0.17134231591000001,0.8127582209460165,0.2840672830123507,0.9301605779744972,-0.41195373479065245,,-1.26757076031084,-0.33769194039121514,0.14813483604000002,0.6632492912415505,0.44106262124284173,-0.49965435373297196,0.8761775707442739,,-0.03805254101660637,-0.09251335866352443,0.09127582152,-0.07163176773016745,,-2.8017908e-05,-2.2649765e-06,4.529953e-06,0.99999994,-1.0397285e-05,-8.579344e-06,1.0397285e-05,1.0,-9.536743e-07,8.579344e-06,1.013279e-06,0.99999994,284,0.882,0,1,0.687,False,-0.26005676877922745,1.0508668329805522
0.9051798259606585,12:11:51.768837,12:10:51.307751,0,,0.13091388,0.0069587305,0.021702304,-0.9004494,-0.43493512,0.004697211,-0.027175978,0.067034215,0.9973805,-0.4341107,0.897963,-0.0721806,,0.029263817,-0.060906164,0.060699403,-0.23815583,-0.42195618,0.8747768,-0.8097801,0.58355165,0.061020553,-0.5362256,-0.69384456,-0.480668,,0.095805995,1.3379645,0.44838881,0.9948015,-0.009790742,-0.10136084,-0.07188427,-0.7725408,-0.630883,-0.07212858,0.6348896,-0.7692286,,-0.09228596,0.24653545,-0.09135078,0.93346834,0.3538833,0.05833889,-0.28751737,0.6411063,0.7115592,0.21440747,-0.6809914,0.7002,,0.016141705,0.39617014,-0.42575628,0.30776072,0.5024746,-0.807962,-0.8921728,-0.14267665,-0.42856857,-0.33062214,0.8527383,0.4043839,,0.9561206662262397,0.3365644213915784,0.17121787207000003,0.7993380645630069,0.29663784099077123,0.9226872079992054,-0.41195373479065245,,-1.26757076031084,-0.33769194039121514,0.14813483604000002,0.6632492912415505,0.44106262124284173,-0.4997360324731125,0.8760142266781397,,-0.03805254101660637,-0.09251335866352443,0.09127582152,-0.07163176773016745,,-2.8017908e-05,-2.2649765e-06,4.529953e-06,0.99999994,-1.0397285e-05,-8.579344e-06,1.0397285e-05,1.0,-9.536743e-07,8.579344e-06,1.013279e-06,0.99999994,297,0.923,0,1,0.687,False,-0.2589247921273281,1.0512530745867876
0.938793753972277,12:11:51.807311,12:10:51.463135,0,,0.13061452,0.0070527494,0.021932468,-0.8934135,-0.4492339,0.0010456517,-0.03241405,0.06678456,0.9972408,-0.44806415,0.8909143,-0.07422772,,0.029264592,-0.060904957,0.0606997,-0.23815133,-0.42202428,0.8747452,-0.8097757,0.5835522,0.06107384,-0.5362343,-0.6938027,-0.4807188,,0.095805995,1.3379645,0.44838881,0.9948015,-0.009790742,-0.10136084,-0.07188427,-0.7725408,-0.630883,-0.07212858,0.6348896,-0.7692286,,-0.09200412,0.24676134,-0.09149561,0.92745626,0.36873084,0.06214896,-0.30067545,0.6365783,0.7101847,0.22230433,-0.6773519,0.7012669,,0.016140884,0.3961711,-0.42575547,0.30775732,0.5025369,-0.80792457,-0.8921774,-0.1426365,-0.42857248,-0.33061302,0.85270834,0.40445462,,0.9586228316774884,0.3361628392821187,0.17108046533000001,0.7850791484060592,0.3083885799705991,0.9171075265482009,-0.41195373479065234,,-1.2675784830437142,-0.3376842176583409,0.14813483604000002,0.6632492912415505,0.44106262124284173,-0.49965435373297196,0.8761775707442739,,-0.03805254101660637,-0.09251335866352443,0.09127582152,-0.07163176773016745,,-2.8017908e-05,-2.2649765e-06,4.529953e-06,0.99999994,-1.0397285e-05,-8.579344e-06,1.0397285e-05,1.0,-9.536743e-07,8.579344e-06,1.013279e-06,0.99999994,305,0.947,0,1,0.687,False,-0.25963972474957986,1.0505771517758753
0.9772914920467883,12:11:51.828460,12:10:51.463135,0,,0.13030685,0.0071808547,0.0221854,-0.8844744,-0.46658617,-0.0014793724,-0.037017137,0.06700951,0.9970654,-0.4651178,0.88193357,-0.076539725,,0.029265903,-0.060903795,0.060698867,-0.23814681,-0.42194945,0.8747825,-0.8097713,0.58356273,0.06103179,-0.53624296,-0.6938393,-0.4806563,,0.095805995,1.3379645,0.44838881,0.9948015,-0.009790742,-0.10136084,-0.07188427,-0.7725408,-0.630883,-0.07212858,0.6348896,-0.7692286,,-0.09171419,0.24702805,-0.091636464,0.9198721,0.38681817,0.06486131,-0.3153947,0.6312076,0.7085924,0.23315546,-0.6722713,0.70263064,,0.01613968,0.396171,-0.42575392,0.30775392,0.5024672,-0.80796915,-0.89218193,-0.14266635,-0.42855307,-0.3306039,0.8527444,0.40438604,,0.9614570746423288,0.33578442537128167,0.17094824375,0.7683039529272973,0.32396514094385925,0.9097150036359452,-0.4119537347906522,,-1.2675862057765883,-0.3376764949254667,0.14813613233,0.6632492912415505,0.44106262124284173,-0.4997360324731126,0.8766676029426768,,-0.03805254101660637,-0.09251335866352443,0.09127582152,-0.07163176773016745,,-2.8017908e-05,-2.2649765e-06,4.529953e-06,0.99999994,-1.0397285e-05,-8.579344e-06,1.0397285e-05,1.0,-9.536743e-07,8.579344e-06,1.013279e-06,0.99999994,318,0.988,0,1,0.687,False,-0.26053339052739544,1.05105995378367
0.9984442370478064,12:11:51.867701,12:10:51.463135,0,,0.12998429,0.007322699,0.022470862,-0.8735798,-0.48664713,-0.005721353,-0.0420952,0.06384286,0.99707174,-0.48485678,0.8712625,-0.07625729,,0.029266581,-0.060904883,0.060697794,-0.23814866,-0.42194682,0.8747832,-0.8097743,0.5835593,0.06102574,-0.5362376,-0.69384384,-0.48065564,,0.095805995,1.3379645,0.44838881,0.9948015,-0.009790742,-0.10136084,-0.07188427,-0.7725408,-0.630883,-0.07212858,0.6348896,-0.7692286,,-0.09141163,0.24732658,-0.09179459,0.9105632,0.40756154,0.06905309,-0.33225083,0.62220544,0.708851,0.24593522,-0.66839653,0.70197004,,0.016139152,0.3961694,-0.4257541,0.3077551,0.5024652,-0.80797,-0.89217937,-0.14267239,-0.42855635,-0.33060965,0.8527446,0.40438095,,0.964492108661899,0.3353751205289478,0.17080435556,0.7488027881832365,0.34200115891289745,0.9042375379839012,-0.4134238313858609,,-1.2675862057765883,-0.3376842176583409,0.14813742862,0.6632492912415505,0.44106262124284173,-0.4997360324731126,0.8766676029426768,,-0.03805254101660637,-0.09251335866352443,0.09127582152,-0.07163176773016745,,-2.8017908e-05,-2.2649765e-06,4.529953e-06,0.99999994,-1.0397285e-05,-8.579344e-06,1.0397285e-05,1.0,-9.536743e-07,8.579344e-06,1.013279e-06,0.99999994,331,1.029,0,1,0.687,False,-0.2586269035347226,1.0507702725789931
1.0376780499937013,12:11:51.912015,12:10:51.463135,0,,0.12949082,0.0075372458,0.022944197,-0.8531123,-0.52160984,-0.011056744,-0.04704462,0.055802464,0.99733293,-0.5196017,0.8513571,-0.07214457,,0.029263802,-0.060905375,0.060696483,-0.23815663,-0.42196476,0.87477237,-0.8097786,0.58355314,0.06102699,-0.5362276,-0.693838,-0.4806752,,0.095805995,1.3379645,0.44838881,0.9948015,-0.009790742,-0.10136084,-0.07188427,-0.7725408,-0.630883,-0.07212858,0.6348896,-0.7692286,,-0.09095231,0.2478052,-0.09206574,0.8931198,0.44369096,0.073995225,-0.35890898,0.6037499,0.7118079,0.27114812,-0.6622873,0.69846565,,0.016142074,0.39616838,-0.4257539,0.30776176,0.5024823,-0.8079568,-0.89217335,-0.14266974,-0.42856976,-0.33061972,0.8527349,0.40439305,,0.9693188167082893,0.3345410653785315,0.1705788011,0.7171396067170732,0.3758870108547267,0.8972706191227509,-0.41260711105518943,,-1.2675630375779656,-0.3376842176583409,0.14813742862,0.6632492912415505,0.44106262124284173,-0.4997360324731125,0.8763409148104081,,-0.03805254101660637,-0.09251335866352443,0.09127582152,-0.07163176773016745,,-2.8017908e-05,-2.2649765e-06,4.529953e-06,0.99999994,-1.0397285e-05,-8.579344e-06,1.0397285e-05,1.0,-9.536743e-07,8.579344e-06,1.013279e-06,0.99999994,340,1.058,0,1,0.687,False,-0.2593418361569748,1.0512047943860081
1.0819834159919992,12:11:51.939353,12:10:51.603349,0,,0.12920724,0.0076101124,0.023191705,-0.84409034,-0.53609514,-0.010639273,-0.047331125,0.05472976,0.9973788,-0.5341076,0.84238136,-0.071570724,,0.029264726,-0.060905226,0.06069696,-0.23815395,-0.42203027,0.87474155,-0.80977714,0.5835502,0.061074257,-0.536231,-0.69380075,-0.48072535,,0.095805995,1.3379645,0.44838881,0.9948015,-0.009790742,-0.10136084,-0.07188427,-0.7725408,-0.630883,-0.07212858,0.6348896,-0.7692286,,-0.09068893,0.24802598,-0.092235684,0.88546383,0.4588541,0.073530175,-0.36869308,0.59734803,0.7122084,0.28287664,-0.6577448,0.6981064,,0.0161411,0.3961687,-0.42575398,0.30775952,0.5025426,-0.80792016,-0.8921754,-0.14263561,-0.42857695,-0.33061635,0.8527051,0.40445867,,0.9718364276252865,0.3339695831458389,0.17043620920000002,0.7047679000514864,0.39160020832775233,0.8918903255504536,-0.41113701445998085,,-1.26757076031084,-0.3376842176583409,0.14813742862,0.6632492912415505,0.44106262124284173,-0.49965435373297196,0.8761775707442739,,-0.03805254101660637,-0.09251335866352443,0.09127582152,-0.07163176773016745,,-2.8017908e-05,-2.2649765e-06,4.529953e-06,0.99999994,-1.0397285e-05,-8.579344e-06,1.0397285e-05,1.0,-9.536743e-07,8.579344e-06,1.013279e-06,0.99999994,353,1.099,0,1,0.687,False,-0.26017592421626956,1.0507702725789931
1.10931533400435,12:11:51.979906,12:10:51.603349,0,,0.12888661,0.0076552033,0.023353174,-0.838917,-0.54415643,-0.0105761215,-0.047513455,0.053865075,0.9974172,-0.54218125,0.83725274,-0.071043044,,0.029267512,-0.06090478,0.06069821,-0.238146,-0.42208377,0.8747179,-0.80977285,0.5835512,0.06112066,-0.53624094,-0.6937673,-0.48076248,,0.095805995,1.3379645,0.44838881,0.9948015,-0.009790742,-0.10136084,-0.07188427,-0.7725408,-0.630883,-0.07212858,0.6348896,-0.7692286,,-0.09038241,0.24817042,-0.09236256,0.8810503,0.46728972,0.07342119,-0.3741586,0.5934951,0.71257913,0.28940576,-0.65528923,0.6977395,,0.016138176,0.39616972,-0.4257542,0.30775288,0.5025915,-0.80789226,-0.8921814,-0.14260326,-0.4285752,-0.3306063,0.8526817,0.40451622,,0.9742227520834219,0.3332050325912907,0.17033120971000001,0.6972190620860435,0.40130139981109864,0.8885536638358791,-0.4127704551213236,,-1.2675939285094626,-0.3376842176583409,0.14813742862,0.6632492912415505,0.44106262124284173,-0.4995726749928314,0.8763409148104082,,-0.03805254101660637,-0.09251335866352443,0.09127582152,-0.07163176773016745,,-2.8017908e-05,-2.2649765e-06,4.529953e-06,0.99999994,-1.0397285e-05,-8.579344e-06,1.0397285e-05,1.0,-9.536743e-07,8.579344e-06,1.013279e-06,0.99999994,362,1.128,0,1,0.687,False,-0.2596993024681016,1.0512047943860081
1.1498488869983703,12:11:52.009643,12:10:51.603349,0,,0.1286972,0.0076837167,0.023416579,-0.8353484,-0.5494249,-0.018033586,-0.05387616,0.04917839,0.9973359,-0.5470743,0.8340944,-0.07068193,,0.02926673,-0.06090597,0.060697913,-0.2381505,-0.4220871,0.87471515,-0.80977726,0.58354574,0.061114997,-0.53623223,-0.69376993,-0.48076832,,0.095805995,1.3379645,0.44838881,0.9948015,-0.009790742,-0.10136084,-0.07188427,-0.7725408,-0.630883,-0.07212858,0.6348896,-0.7692286,,-0.090198316,0.2482364,-0.092412144,0.8775912,0.4725521,0.080797575,-0.38223287,0.5879682,0.7128755,0.2893644,-0.6564967,0.69662064,,0.016138999,0.3961688,-0.425755,0.30775627,0.5025952,-0.80788875,-0.89217687,-0.1426084,-0.42858294,-0.33061543,0.8526787,0.40451512,,0.9753657165488071,0.33272622315308875,0.17028583956,0.6871539447987863,0.4034875838073457,0.8886495883999693,-0.4132604873197263,,-1.2675862057765883,-0.33769194039121514,0.14813742862,0.6632492912415505,0.44106262124284173,-0.4995726749928314,0.8763409148104082,,-0.03805254101660637,-0.09251335866352443,0.09127582152,-0.07163176773016745,,-2.8017908e-05,-2.2649765e-06,4.529953e-06,0.99999994,-1.0397285e-05,-8.579344e-06,1.0397285e-05,1.0,-9.536743e-07,8.579344e-06,1.013279e-06,0.99999994,375,1.168,0,1,0.687,False,-0.26041423509035333,1.0509151131813312
1.179625242948532,12:11:52.056811,12:10:51.603349,0,,0.1285865,0.007687658,0.023437485,-0.8340291,-0.55127835,-0.022079125,-0.05750686,0.04706198,0.9972352,-0.5487151,0.8329929,-0.07095328,,0.029264726,-0.060905226,0.06069696,-0.23815395,-0.4221017,0.8747071,-0.80977714,0.5835452,0.06112194,-0.536231,-0.69376147,-0.48078197,,0.095805995,1.3379645,0.44838881,0.9948015,-0.009790742,-0.10136084,-0.07188427,-0.7725408,-0.630883,-0.07212858,0.6348896,-0.7692286,,-0.09008995,0.24825482,-0.09243717,0.8762247,0.47437605,0.08483878,-0.38608095,0.5856744,0.71268994,0.28839514,-0.6572312,0.69632995,,0.0161411,0.3961687,-0.42575398,0.30775952,0.5026086,-0.8078791,-0.8921754,-0.14260061,-0.42858857,-0.33061635,0.8526721,0.40452832,,0.9759526442472481,0.33240186837237135,0.17026250634,0.6823310760986423,0.4036242203071111,0.8886198492364135,-0.41309714325359215,,-1.26757076031084,-0.3376842176583409,0.14813742862,0.6632492912415505,0.44106262124284173,-0.4995726749928314,0.8763409148104082,,-0.03805254101660637,-0.09251335866352443,0.09127582152,-0.07163176773016745,,-2.8017908e-05,-2.2649765e-06,4.529953e-06,0.99999994,-1.0397285e-05,-8.579344e-06,1.0397285e-05,1.0,-9.536743e-07,8.579344e-06,1.013279e-06,0.99999994,384,1.197,0,1,0.687,False,-0.2602950796533112,1.051397915189126
1.2267947760410607,12:11:52.088287,12:10:51.743081,0,,0.12858671,0.0076969713,0.023446485,-0.8320022,-0.5541663,-0.025918163,-0.061310127,0.045415133,0.9970851,-0.55137384,0.83116597,-0.07176143,,0.029263943,-0.060906418,0.060696602,-0.23815843,-0.42203355,0.87473875,-0.80978155,0.5835446,0.061068654,-0.5362222,-0.69380337,-0.4807312,,0.095805995,1.3379645,0.44838881,0.9948015,-0.009790742,-0.10136084,-0.07188427,-0.7725408,-0.630883,-0.07212858,0.6348896,-0.7692286,,-0.09009045,0.24826774,-0.09243793,0.8742383,0.4773216,0.08872107,-0.39073285,0.583284,0.7121149,0.2881582,-0.65722436,0.6964345,,0.016141923,0.39616778,-0.4257548,0.30776292,0.50254625,-0.8079166,-0.89217085,-0.14264077,-0.4285847,-0.33062547,0.8527021,0.4044576,,0.9759063078500029,0.33237870017374865,0.17026121005000003,0.6768791375680446,0.4040341298064074,0.887958880564762,-0.41375051951812925,,-1.2675630375779656,-0.33769194039121514,0.14813742862,0.6632492912415505,0.44106262124284173,-0.49965435373297196,0.8765042588765424,,-0.03805254101660637,-0.09251335866352443,0.09127582152,-0.07163176773016745,,-2.8017908e-05,-2.2649765e-06,4.529953e-06,0.99999994,-1.0397285e-05,-8.579344e-06,1.0397285e-05,1.0,-9.536743e-07,8.579344e-06,1.013279e-06,0.99999994,393,1.226,0,1,0.687,False,-0.2596993024681016,1.0511565141852286
1.258268916979432,12:11:52.116708,12:10:51.743081,0,,0.12864086,0.007682234,0.023457795,-0.83132386,-0.55527806,-0.023803644,-0.060014114,0.04710594,0.99708545,-0.5525384,0.8303294,-0.07248476,,0.029266879,-0.060907044,0.060698032,-0.23815235,-0.42194152,0.8747848,-0.8097803,0.5835521,0.06101364,-0.5362269,-0.693853,-0.48065436,,0.095805995,1.3379645,0.44838881,0.9948015,-0.009790742,-0.10136084,-0.07188427,-0.7725408,-0.630883,-0.07212858,0.6348896,-0.7692286,,-0.09014617,0.24826297,-0.09245023,0.87374395,0.47859916,0.086685166,-0.3905145,0.5840453,0.71161056,0.28994814,-0.65561724,0.69720596,,0.016138848,0.3961682,-0.4257559,0.30775744,0.50246114,-0.8079716,-0.8921743,-0.14268446,-0.4285629,-0.3306212,0.85274494,0.40437073,,0.975636012199405,0.3324482047696167,0.17025343231,0.6772985174550137,0.40567376780359266,0.8864585082401238,-0.41375051951812925,,-1.2675862057765883,-0.33769966312408933,0.14813742862,0.6632492912415505,0.44106262124284173,-0.4997360324731126,0.8766676029426768,,-0.03805254101660637,-0.09251335866352443,0.09127582152,-0.07163176773016745,,-2.8017908e-05,-2.2649765e-06,4.529953e-06,0.99999994,-1.0397285e-05,-8.579344e-06,1.0397285e-05,1.0,-9.536743e-07,8.579344e-06,1.013279e-06,0.99999994,406,1.267,0,1,0.687,False,-0.2596993024681016,1.05105995378367
1.2866863230010495,12:11:52.151365,12:10:51.743081,0,,0.12870952,0.007689446,0.023519725,-0.82668096,-0.5622066,-0.02284959,-0.060948446,0.04910195,0.99693245,-0.55936,0.8255376,-0.074857205,,0.029265806,-0.060906135,0.060697436,-0.23815317,-0.4219502,0.8747804,-0.8097787,0.5835536,0.061020136,-0.53622895,-0.6938465,-0.4806615,,0.095805995,1.3379645,0.44838881,0.9948015,-0.009790742,-0.10136084,-0.07188427,-0.7725408,-0.630883,-0.07212858,0.6348896,-0.7692286,,-0.09021971,0.24830751,-0.09248502,0.8697005,0.48603952,0.08594549,-0.39573038,0.5825677,0.7099383,0.294989,-0.6514449,0.699,,0.016139973,0.39616844,-0.42575493,0.30775848,0.5024689,-0.8079664,-0.89217484,-0.14267755,-0.4285641,-0.3306188,0.85274154,0.40437987,,0.9754429438775494,0.33254860029698163,0.17023009909,0.6712175090939625,0.4115491372935066,0.8815858596410372,-0.4135871754519951,,-1.2675784830437142,-0.33769194039121514,0.14813742862,0.6632492912415505,0.44106262124284173,-0.4997360324731126,0.8766676029426768,,-0.03805254101660637,-0.09251335866352443,0.09127582152,-0.07163176773016745,,-2.8017908e-05,-2.2649765e-06,4.529953e-06,0.99999994,-1.0397285e-05,-8.579344e-06,1.0397285e-05,1.0,-9.536743e-07,8.579344e-06,1.013279e-06,0.99999994,415,1.295,0,1,0.687,False,-0.25922268071993226,1.0516393161930233
1.321321123978123,12:11:52.178169,12:10:51.743081,0,,0.12870173,0.0076843128,0.023547992,-0.8265584,-0.5623476,-0.023793183,-0.0612278,0.047812194,0.99697804,-0.5595105,0.8255173,-0.07395074,,0.029265806,-0.060906135,0.060697436,-0.23815317,-0.4219502,0.8747804,-0.8097787,0.5835536,0.061020136,-0.53622895,-0.6938465,-0.4806615,,0.095805995,1.3379645,0.44838881,0.9948015,-0.009790742,-0.10136084,-0.07188427,-0.7725408,-0.630883,-0.07212858,0.6348896,-0.7692286,,-0.09021483,0.2483221,-0.09251053,0.8695767,0.48610857,0.086803086,-0.39604253,0.581576,0.710577,0.294935,-0.6522789,0.69824463,,0.016139973,0.39616844,-0.42575493,0.30775848,0.5024689,-0.8079664,-0.89217484,-0.14267755,-0.4285641,-0.3306188,0.85274154,0.40437987,,0.9755047257405431,0.3325794912284785,0.17020287700000003,0.6707981292069934,0.4115491372935066,0.8826476832628646,-0.41244376698905505,,-1.2675784830437142,-0.33769194039121514,0.14813742862,0.6632492912415505,0.44106262124284173,-0.4997360324731126,0.8766676029426768,,-0.03805254101660637,-0.09251335866352443,0.09127582152,-0.07163176773016745,,-2.8017908e-05,-2.2649765e-06,4.529953e-06,0.99999994,-1.0397285e-05,-8.579344e-06,1.0397285e-05,1.0,-9.536743e-07,8.579344e-06,1.013279e-06,0.99999994,428,1.336,0,1,0.687,False,-0.25910352528289105,1.0512530745867876
1.3481534239836037,12:11:52.219436,12:10:51.879843,0,,0.12871802,0.0077414736,0.02372925,-0.8151996,-0.5785758,-0.026446909,-0.063453436,0.043830156,0.99702185,-0.57569355,0.8144499,-0.07244289,,0.029264875,-0.060906313,0.06069708,-0.23815583,-0.42195618,0.8747768,-0.8097801,0.58355165,0.061020553,-0.5362256,-0.69384456,-0.480668,,0.095805995,1.3379645,0.44838881,0.9948015,-0.009790742,-0.10136084,-0.07188427,-0.7725408,-0.630883,-0.07212858,0.6348896,-0.7692286,,-0.090244405,0.24848296,-0.09260868,0.85964155,0.5030318,0.089305624,-0.40842876,0.5716328,0.71163327,0.3069241,-0.6482245,0.69685197,,0.016140949,0.3961681,-0.42575487,0.30776072,0.5024746,-0.807962,-0.8921728,-0.14267665,-0.42856857,-0.33062214,0.8527383,0.4043839,,0.9760375943088646,0.3326103821599754,0.17013287734000002,0.6554907633326231,0.4263058792681742,0.8788641024178476,-0.4135871754519951,,-1.26757076031084,-0.33769194039121514,0.14813742862,0.6632492912415505,0.44106262124284173,-0.4997360324731126,0.8766676029426768,,-0.03805254101660637,-0.09251335866352443,0.09127582152,-0.07163176773016745,,-2.8017908e-05,-2.2649765e-06,4.529953e-06,0.99999994,-1.0397285e-05,-8.579344e-06,1.0397285e-05,1.0,-9.536743e-07,8.579344e-06,1.013279e-06,0.99999994,437,1.365,0,1,0.687,False,-0.26005676877922745,1.051108233984449
1.3893976090475917,12:11:52.249224,12:10:51.879843,0,,0.12874329,0.0078028217,0.023944184,-0.80321467,-0.5951531,-0.025275022,-0.059423625,0.03783512,0.99751556,-0.5927182,0.802721,-0.065755844,,0.029265948,-0.060907222,0.060697556,-0.23815498,-0.4219475,0.8747812,-0.80978173,0.5835501,0.061014056,-0.5362236,-0.6938511,-0.48066086,,0.095805995,1.3379645,0.44838881,0.9948015,-0.009790742,-0.10136084,-0.07188427,-0.7725408,-0.630883,-0.07212858,0.6348896,-0.7692286,,-0.09028576,0.2486687,-0.0927286,0.84951466,0.52024883,0.087555505,-0.4166146,0.5597352,0.7163301,0.323662,-0.6450099,0.6922465,,0.016139822,0.39616784,-0.42575583,0.30775964,0.50246686,-0.80796725,-0.8921723,-0.14268357,-0.42856738,-0.33062455,0.8527417,0.40437475,,0.9767944221305387,0.33265671855722073,0.17005639623000002,0.6445868862714279,0.44570826223486676,0.8785617207196628,-0.41326048731972653,,-1.2675784830437142,-0.33769966312408933,0.14813742862,0.6632492912415505,0.44106262124284173,-0.4997360324731126,0.8766676029426768,,-0.03805254101660637,-0.09251335866352443,0.09127582152,-0.07163176773016745,,-2.8017908e-05,-2.2649765e-06,4.529953e-06,0.99999994,-1.0397285e-05,-8.579344e-06,1.0397285e-05,1.0,-9.536743e-07,8.579344e-06,1.013279e-06,0.99999994,446,1.394,0,1,0.687,False,-0.2599376133421849,1.0512530745867876
1.4192002400523052,12:11:52.278494,12:10:51.879843,0,,0.12871289,0.007872567,0.024147868,-0.79217106,-0.6098276,-0.02398172,-0.057469815,0.035418063,0.99771875,-0.60758704,0.7917421,-0.063103706,,0.029264875,-0.060906313,0.06069708,-0.23815583,-0.42195618,0.8747768,-0.8097801,0.58355165,0.061020553,-0.5362256,-0.69384456,-0.480668,,0.095805995,1.3379645,0.44838881,0.9948015,-0.009790742,-0.10136084,-0.07188427,-0.7725408,-0.630883,-0.07212858,0.6348896,-0.7692286,,-0.09027027,0.24885447,-0.09284054,0.8400088,0.53570765,0.0860381,-0.4249641,0.55101377,0.71818477,0.3373289,-0.6398446,0.6905129,,0.016140949,0.3961681,-0.42575487,0.30776072,0.5024746,-0.807962,-0.8921728,-0.14267665,-0.42856857,-0.33062214,0.8527383,0.4043839,,0.9777443182740683,0.33264899582434654,0.16998121141000003,0.6330539393797789,0.4621046422067196,0.8743395911718351,-0.4122804229229209,,-1.26757076031084,-0.33769194039121514,0.14813742862,0.6632492912415505,0.44106262124284173,-0.4997360324731126,0.8766676029426768,,-0.03805254101660637,-0.09251335866352443,0.09127582152,-0.07163176773016745,,-2.8017908e-05,-2.2649765e-06,4.529953e-06,0.99999994,-1.0397285e-05,-8.579344e-06,1.0397285e-05,1.0,-9.536743e-07,8.579344e-06,1.013279e-06,0.99999994,459,1.435,0,1,0.687,False,-0.25767366003838577,1.050963393382111
1.4484745430527255,12:11:52.319187,12:10:51.879843,0,,0.12854043,0.007961191,0.024349526,-0.78415936,-0.61996365,-0.027183369,-0.061249644,0.033732086,0.99755234,-0.6175292,0.7839049,-0.06442374,,0.029265806,-0.060906135,0.060697436,-0.23815317,-0.4219502,0.8747804,-0.8097787,0.5835536,0.061020136,-0.53622895,-0.6938465,-0.4806615,,0.095805995,1.3379645,0.44838881,0.9948015,-0.009790742,-0.10136084,-0.07188427,-0.7725408,-0.630883,-0.07212858,0.6348896,-0.7692286,,-0.090112284,0.24905564,-0.092953816,0.8327413,0.5464078,0.089332715,-0.43442547,0.54481244,0.71725446,0.34324387,-0.6360958,0.6910613,,0.016139973,0.39616844,-0.42575493,0.30775848,0.5024689,-0.8079664,-0.89217484,-0.14267755,-0.4285641,-0.3306188,0.85274154,0.40437987,,0.9792579739174163,0.3325794912284785,0.1698788045,0.619843472940254,0.4707127416919423,0.868545444341069,-0.41309714325359215,,-1.2675784830437142,-0.33769194039121514,0.14813742862,0.6632492912415505,0.44106262124284173,-0.4997360324731126,0.8766676029426768,,-0.03805254101660637,-0.09251335866352443,0.09127582152,-0.07163176773016745,,-2.8017908e-05,-2.2649765e-06,4.529953e-06,0.99999994,-1.0397285e-05,-8.579344e-06,1.0397285e-05,1.0,-9.536743e-07,8.579344e-06,1.013279e-06,0.99999994,468,1.463,0,1,0.687,False,-0.25922268071993226,1.0512530745867876
1.4891192689538002,12:11:52.346901,12:10:51.879843,0,,0.12843552,0.008023784,0.024534136,-0.7757151,-0.63047343,-0.02773302,-0.060452193,0.030491859,0.9977052,-0.62818104,0.7756115,-0.061766356,,0.029265657,-0.060905077,0.060697377,-0.23815133,-0.4219528,0.8747796,-0.8097757,0.5835572,0.061026126,-0.5362343,-0.69384193,-0.48066217,,0.095805995,1.3379645,0.44838881,0.9948015,-0.009790742,-0.10136084,-0.07188427,-0.7725408,-0.630883,-0.07212858,0.6348896,-0.7692286,,-0.09002139,0.24922483,-0.093063906,0.8253676,0.55743355,0.08964423,-0.4408738,0.5371391,0.7191049,0.35270175,-0.6330477,0.6890951,,0.016140126,0.39616907,-0.42575404,0.30775732,0.5024709,-0.8079656,-0.8921774,-0.14267151,-0.42856082,-0.33061302,0.85274136,0.40438497,,0.9804549975129211,0.3324636502353651,0.16979584194000003,0.6101977355399659,0.48260011717153567,0.8659581371117093,-0.41424055171653196,,-1.2675784830437142,-0.3376842176583409,0.14813742862,0.6632492912415505,0.44106262124284173,-0.4997360324731126,0.8766676029426768,,-0.03805254101660637,-0.09251335866352443,0.09127582152,-0.07163176773016745,,-2.8017908e-05,-2.2649765e-06,4.529953e-06,0.99999994,-1.0397285e-05,-8.579344e-06,1.0397285e-05,1.0,-9.536743e-07,8.579344e-06,1.013279e-06,0.99999994,481,1.504,0,1,0.687,False,-0.25910352528289105,1.0516393161930233
1.516881286050193,12:11:52.383810,12:10:51.879843,0,,0.12832543,0.0080854,0.02481854,-0.7619242,-0.64715314,-0.025771566,-0.05526556,0.02531743,0.9981507,-0.64530385,0.76193935,-0.0550552,,0.029264875,-0.060906313,0.06069708,-0.23815583,-0.42195618,0.8747768,-0.8097801,0.58355165,0.061020553,-0.5362256,-0.69384456,-0.480668,,0.095805995,1.3379645,0.44838881,0.9948015,-0.009790742,-0.10136084,-0.07188427,-0.7725408,-0.630883,-0.07212858,0.6348896,-0.7692286,,-0.08993451,0.24945812,-0.09325052,0.8135198,0.5749769,0.08710419,-0.44827357,0.5246058,0.7237676,0.37045428,-0.62784576,0.6845242,,0.016140949,0.3961681,-0.42575487,0.30776072,0.5024746,-0.807962,-0.8921728,-0.14267665,-0.42856857,-0.33062214,0.8527383,0.4043839,,0.9820381577521371,0.3321933545847673,0.16966880552000002,0.5980357188178634,0.5040520476347098,0.863412735677094,-0.41309714325359237,,-1.26757076031084,-0.33769194039121514,0.14813742862,0.6632492912415505,0.44106262124284173,-0.4997360324731126,0.8766676029426768,,-0.03805254101660637,-0.09251335866352443,0.09127582152,-0.07163176773016745,,-2.8017908e-05,-2.2649765e-06,4.529953e-06,0.99999994,-1.0397285e-05,-8.579344e-06,1.0397285e-05,1.0,-9.536743e-07,8.579344e-06,1.013279e-06,0.99999994,490,1.533,1,2,0.69,False,-0.2586269035347226,1.051494475590685
1.5537916929461062,12:11:52.421303,12:10:51.879843,0,,0.12818015,0.008071803,0.024936557,-0.76058304,-0.6486869,-0.026805803,-0.05493982,0.023167104,0.99822086,-0.64691186,0.76070243,-0.053259134,,0.029265806,-0.060906135,0.060697436,-0.23815317,-0.4219502,0.8747804,-0.8097787,0.5835536,0.061020136,-0.53622895,-0.6938465,-0.4806615,,0.095805995,1.3379645,0.44838881,0.9948015,-0.009790742,-0.10136084,-0.07188427,-0.7725408,-0.630883,-0.07212858,0.6348896,-0.7692286,,-0.08980166,0.2495268,-0.09336389,0.81235224,0.57649356,0.08797175,-0.4490919,0.5221931,0.725004,0.3720219,-0.628466,0.6831033,,0.016139973,0.39616844,-0.42575493,0.30775848,0.5024689,-0.8079664,-0.89217484,-0.14267755,-0.4285641,-0.3306188,0.85274154,0.40437987,,0.9830343902929121,0.33190761346842096,0.16956250974,0.5961485093265028,0.5066481411302531,0.8641545514117817,-0.41228042292292066,,-1.2675784830437142,-0.33769194039121514,0.14813742862,0.6632492912415505,0.44106262124284173,-0.4997360324731126,0.8766676029426768,,-0.03805254101660637,-0.09251335866352443,0.09127582152,-0.07163176773016745,,-2.8017908e-05,-2.2649765e-06,4.529953e-06,0.99999994,-1.0397285e-05,-8.579344e-06,1.0397285e-05,1.0,-9.536743e-07,8.579344e-06,1.013279e-06,0.99999994,499,1.562,1,2,0.719,False,-0.2583290149421176,1.0516875963938028
1.591286069015041,12:11:52.445553,12:10:52.097273,0,,0.12809408,0.008026734,0.025060639,-0.75930524,-0.65023243,-0.025555916,-0.054291815,0.02416566,0.9982326,-0.64846563,0.75935066,-0.053651333,,0.029265657,-0.060905077,0.060697377,-0.23815133,-0.4219528,0.8747796,-0.8097757,0.5835572,0.061026126,-0.5362343,-0.69384193,-0.48066217,,0.095805995,1.3379645,0.44838881,0.9948015,-0.009790742,-0.10136084,-0.07188427,-0.7725408,-0.630883,-0.07212858,0.6348896,-0.7692286,,-0.08973002,0.24957451,-0.093495905,0.81126094,0.5782105,0.08676574,-0.449629,0.5221006,0.72473764,0.37375045,-0.62696373,0.6835401,,0.016140126,0.39616907,-0.42575404,0.30775732,0.5024709,-0.8079656,-0.8921774,-0.14267151,-0.42856082,-0.33061302,0.85274136,0.40438497,,0.9836213179913531,0.3316913769479427,0.16943806590000002,0.5948903696655956,0.5091075981260311,0.8622307078853867,-0.41244376698905505,,-1.2675784830437142,-0.3376842176583409,0.14813742862,0.6632492912415505,0.44106262124284173,-0.4997360324731126,0.8766676029426768,,-0.03805254101660637,-0.09251335866352443,0.09127582152,-0.07163176773016745,,-2.8017908e-05,-2.2649765e-06,4.529953e-06,0.99999994,-1.0397285e-05,-8.579344e-06,1.0397285e-05,1.0,-9.536743e-07,8.579344e-06,1.013279e-06,0.99999994,512,1.603,1,2,0.76,False,-0.2593418361569748,1.0513013547875674
1.6155364039586857,12:11:52.485250,12:10:52.097273,0,,0.12808925,0.007947668,0.025246814,-0.7561647,-0.65386117,-0.026083335,-0.051986158,0.020290852,0.99844164,-0.652313,0.7563423,-0.049334824,,0.029266581,-0.060904883,0.060697794,-0.23814866,-0.42194682,0.8747832,-0.8097743,0.5835593,0.06102574,-0.5362376,-0.69384384,-0.48065564,,0.095805995,1.3379645,0.44838881,0.9948015,-0.009790742,-0.10136084,-0.07188427,-0.7725408,-0.630883,-0.07212858,0.6348896,-0.7692286,,-0.08974675,0.24963531,-0.09368814,0.80862176,0.5818747,0.08690624,-0.45042515,0.51726127,0.7277074,0.3784813,-0.62758476,0.68035966,,0.016139152,0.3961694,-0.4257541,0.3077551,0.5024652,-0.80797,-0.89217937,-0.14267239,-0.42855635,-0.33060965,0.8527446,0.40438095,,0.9838143863132087,0.3316218723520747,0.16926177046000002,0.5932128501177194,0.5145730581166488,0.8649617208698992,-0.41244376698905505,,-1.2675862057765883,-0.3376842176583409,0.14813742862,0.6632492912415505,0.44106262124284173,-0.4997360324731126,0.8766676029426768,,-0.03805254101660637,-0.09251335866352443,0.09127582152,-0.07163176773016745,,-2.8017908e-05,-2.2649765e-06,4.529953e-06,0.99999994,-1.0397285e-05,-8.579344e-06,1.0397285e-05,1.0,-9.536743e-07,8.579344e-06,1.013279e-06,0.99999994,521,1.631,1,2,0.785,False,-0.25922268071993226,1.0513496349883464
1.6552327870158479,12:11:52.513714,12:10:52.097273,0,,0.12819877,0.007896818,0.025462627,-0.7480707,-0.66329825,-0.02062843,-0.041920662,0.01620996,0.99898946,-0.66229355,0.74817944,-0.039931983,,0.02926673,-0.06090597,0.060697913,-0.2381505,-0.42194417,0.87478405,-0.80977726,0.5835557,0.06101969,-0.53623223,-0.6938485,-0.48065498,,0.095805995,1.3379645,0.44838881,0.9948015,-0.009790742,-0.10136084,-0.07188427,-0.7725408,-0.630883,-0.07212858,0.6348896,-0.7692286,,-0.089878276,0.24973492,-0.09387236,0.80205876,0.59177446,0.08065212,-0.44938374,0.5090156,0.7341372,0.39339045,-0.6250649,0.6741942,,0.016138999,0.3961688,-0.425755,0.30775627,0.50246316,-0.8079708,-0.89217687,-0.14267842,-0.42855963,-0.33061543,0.85274476,0.40437582,,0.9838221090460829,0.3316990996808169,0.16913084517000002,0.5927934702307504,0.5308328015887361,0.8682020958384186,-0.41244376698905505,,-1.2675862057765883,-0.33769194039121514,0.14813742862,0.6632492912415505,0.44106262124284173,-0.4997360324731126,0.8766676029426768,,-0.03805254101660637,-0.09251335866352443,0.09127582152,-0.07163176773016745,,-2.8017908e-05,-2.2649765e-06,4.529953e-06,0.99999994,-1.0397285e-05,-8.579344e-06,1.0397285e-05,1.0,-9.536743e-07,8.579344e-06,1.013279e-06,0.99999994,530,1.66,0,2,0.785,False,-0.2591631030014119,1.0517358765945823
1.6836796479765326,12:11:52.541327,12:10:52.097273,0,,0.12834406,0.00786759,0.025774822,-0.7316099,-0.68146974,-0.018594854,-0.03132829,0.0063608587,0.99948895,-0.6810032,0.73181844,-0.026002854,,0.029266194,-0.06090591,0.060699105,-0.2381505,-0.42194417,0.87478405,-0.80977726,0.5835557,0.06101969,-0.53623223,-0.6938485,-0.48065498,,0.095805995,1.3379645,0.44838881,0.9948015,-0.009790742,-0.10136084,-0.07188427,-0.7725408,-0.630883,-0.07212858,0.6348896,-0.7692286,,-0.09005299,0.24991295,-0.09411154,0.7880076,0.61078316,0.07738179,-0.45374694,0.4912066,0.74352527,0.41612226,-0.6210153,0.6642155,,0.016139379,0.3961698,-0.4257557,0.30775627,0.50246316,-0.8079708,-0.89217687,-0.14267842,-0.42855963,-0.33061543,0.85274476,0.40437582,,0.9838761681762025,0.3317454360780623,0.16897917924000003,0.5837768026609158,0.5567937365441699,0.8724347823198135,-0.4122804229229211,,-1.2675862057765883,-0.33769194039121514,0.14813613233,0.6632492912415505,0.44106262124284173,-0.4997360324731125,0.8763409148104081,,-0.03805254101660637,-0.09251335866352443,0.09127582152,-0.07163176773016745,,-2.8017908e-05,-2.2649765e-06,4.529953e-06,0.99999994,-1.0397285e-05,-8.579344e-06,1.0397285e-05,1.0,-9.536743e-07,8.579344e-06,1.013279e-06,0.99999994,543,1.701,0,2,0.785,False,-0.25910352528289105,1.0513496349883464
1.7112712339730933,12:11:52.584545,12:10:52.222659,0,,0.12835881,0.00786484,0.026126489,-0.71544504,-0.6983882,-0.019798316,-0.027206331,-0.00046730042,0.99962974,-0.6981389,0.7157188,-0.018666148,,0.02926527,-0.06090609,0.06069863,-0.23815317,-0.4221645,0.87467706,-0.8097787,0.5835387,0.061163127,-0.53622895,-0.6937287,-0.48083153,,0.095805995,1.3379645,0.44838881,0.9948015,-0.009790742,-0.10136084,-0.07188427,-0.7725408,-0.630883,-0.07212858,0.6348896,-0.7692286,,-0.09010005,0.25013888,-0.09437732,0.77374065,0.6286929,0.077913694,-0.46200413,0.47584376,0.74841493,0.43344843,-0.6150755,0.6586384,,0.016140353,0.39616945,-0.42575565,0.30775848,0.50266683,-0.80784327,-0.89217484,-0.14257252,-0.42859906,-0.3306188,0.8526424,0.40458882,,0.9844939868061405,0.33173771334518803,0.16878084687000003,0.5690985066169991,0.5778357575080477,0.8703869920765686,-0.41244376698905505,,-1.2675784830437142,-0.33769194039121514,0.14813613233,0.6632492912415505,0.44106262124284173,-0.4994909962526909,0.8771576351410796,,-0.03805254101660637,-0.09251335866352443,0.09127582152,-0.07163176773016745,,-2.8017908e-05,-2.2649765e-06,4.529953e-06,0.99999994,-1.0397285e-05,-8.579344e-06,1.0397285e-05,1.0,-9.536743e-07,8.579344e-06,1.013279e-06,0.99999994,552,1.73,0,2,0.785,False,-0.25868648125324345,1.0512047943860081
1.754522550967522,12:11:52.612290,12:10:52.222659,0,,0.1282889,0.007903427,0.02628319,-0.70757043,-0.7062964,-0.022121094,-0.030075252,-0.0011761487,0.99954695,-0.7060024,0.70791507,-0.020409793,,0.029265717,-0.060908295,0.060699224,-0.2384548,-0.42298087,0.87420034,-0.8097768,0.5835115,0.06144932,-0.53609794,-0.69325423,-0.4816612,,0.095805995,1.3379645,0.44838881,0.9948015,-0.009790742,-0.10136084,-0.07188427,-0.7725408,-0.630883,-0.07212858,0.6348896,-0.7692286,,-0.09004273,0.2502711,-0.0944781,0.7664704,0.63723034,0.08037811,-0.4694212,0.47037026,0.74725866,0.43836844,-0.6104828,0.6596543,,0.016139848,0.39616853,-0.4257577,0.3080413,0.50341743,-0.8072679,-0.89204013,-0.14213409,-0.42902485,-0.33071887,0.85227275,0.4052854,,0.9851040827032043,0.3316913769479427,0.16869788431000002,0.5573558697818658,0.584804218996085,0.8640512490669268,-0.4134238313858609,,-1.2675862057765883,-0.33769194039121514,0.14813483604000002,0.663458981185035,0.4407893482433109,-0.49845137304389237,0.8761775707442738,,-0.03805254101660637,-0.09251335866352443,0.09127582152,-0.07163176773016745,,-2.8017908e-05,-2.2649765e-06,4.529953e-06,0.99999994,-1.0397285e-05,-8.579344e-06,1.0397285e-05,1.0,-9.536743e-07,8.579344e-06,1.013279e-06,0.99999994,565,1.771,0,2,0.785,False,-0.26011634649774784,1.052025557799259
1.7822506029624492,12:11:52.653276,12:10:52.222659,0,,0.12811384,0.007989332,0.026548386,-0.6959148,-0.7179111,-0.017495371,-0.02838996,0.0031602383,0.99959195,-0.7175629,0.6961274,-0.022580594,,0.02926685,-0.060908444,0.060699224,-0.23867732,-0.4231868,0.87403995,-0.8097261,0.5835826,0.06144014,-0.5360753,-0.6930686,-0.48195338,,0.095805995,1.3379645,0.44838881,0.9948015,-0.009790742,-0.10136084,-0.07188427,-0.7725408,-0.630883,-0.07212858,0.6348896,-0.7692286,,-0.08988814,0.2505115,-0.09464143,0.75603753,0.6501032,0.07598083,-0.47583747,0.46620896,0.7458069,0.44942853,-0.6000125,0.6618149,,0.016138734,0.3961683,-0.42575774,0.30825898,0.5035981,-0.8070721,-0.89196867,-0.14192401,-0.42924294,-0.33070883,0.852201,0.40544432,,0.9867799157369109,0.3315446450233324,0.16857862563,0.5445647832293098,0.5992876879712218,0.8513424851335597,-0.4132604873197263,,-1.2675939285094626,-0.3376842176583409,0.14813483604000002,0.6636686711285196,0.4406527117435454,-0.4980949189197742,0.8773209792072139,,-0.03805254101660637,-0.09251335866352443,0.09127582152,-0.07163176773016745,,-2.8017908e-05,-2.2649765e-06,4.529953e-06,0.99999994,-1.0397285e-05,-8.579344e-06,1.0397285e-05,1.0,-9.536743e-07,8.579344e-06,1.013279e-06,0.99999994,574,1.799,0,2,0.785,False,-0.2587460589717643,1.0513013547875674
1.8232317339861766,12:11:52.684178,12:10:52.336227,0,,0.12783037,0.008133605,0.026730776,-0.68843746,-0.72504765,-0.018963702,-0.029411495,0.0017826557,0.99956584,-0.724699,0.6886962,-0.022551864,,0.029265918,-0.06090861,0.060698748,-0.23867995,-0.4231927,0.87403625,-0.80972755,0.58358055,0.061440617,-0.53607196,-0.69306666,-0.48195988,,0.095805995,1.3379645,0.44838881,0.9948015,-0.009790742,-0.10136084,-0.07188427,-0.7725408,-0.630883,-0.07212858,0.6348896,-0.7692286,,-0.08961489,0.2507443,-0.09471598,0.74920005,0.65780157,0.0774365,-0.48137087,0.4604559,0.74583006,0.4549521,-0.5960516,0.6616201,,0.016139708,0.39616796,-0.42575768,0.3082612,0.50360376,-0.8070677,-0.89196664,-0.14192313,-0.42924738,-0.33071217,0.85219777,0.40544838,,0.9890040628046876,0.33135929943435105,0.16852418145,0.53345121622463,0.6076225144569137,0.8451177441890618,-0.4130971432535919,,-1.2675862057765883,-0.3376842176583409,0.14813483604000002,0.6636686711285196,0.4406527117435454,-0.49809491891977425,0.8769942910749453,,-0.03805254101660637,-0.09251335866352443,0.09127582152,-0.07163176773016745,,-2.8017908e-05,-2.2649765e-06,4.529953e-06,0.99999994,-1.0397285e-05,-8.579344e-06,1.0397285e-05,1.0,-9.536743e-07,8.579344e-06,1.013279e-06,0.99999994,587,1.84,0,2,0.785,False,-0.259580147031059,1.0508668329805522
1.8541608880041167,12:11:52.722482,12:10:52.336227,0,,0.12761182,0.008227408,0.026819631,-0.68371797,-0.7293765,-0.023225665,-0.032485694,-0.0013741851,0.9994713,-0.72902274,0.68411094,-0.02275461,,0.029263534,-0.060908847,0.060699105,-0.23868522,-0.42313328,0.8740637,-0.8097304,0.5835815,0.061393768,-0.53606534,-0.6931022,-0.48191625,,0.095805995,1.3379645,0.44838881,0.9948015,-0.009790742,-0.10136084,-0.07188427,-0.7725408,-0.630883,-0.07212858,0.6348896,-0.7692286,,-0.08940043,0.25087696,-0.09474565,0.7447306,0.662347,0.081686914,-0.4865938,0.45515054,0.7456973,0.45673054,-0.59509194,0.6612585,,0.016142037,0.3961683,-0.42575824,0.3082656,0.5035492,-0.80710006,-0.89196265,-0.1419564,-0.42924473,-0.33071887,0.85222447,0.4053868,,0.9904945502494129,0.331081281050879,0.16850344081000002,0.5242248587113109,0.6113116999505807,0.8421911395293992,-0.41326048731972653,,-1.26757076031084,-0.3376842176583409,0.14813353975000002,0.6636686711285196,0.4406527117435454,-0.49817659765991484,0.8768309470088109,,-0.03805254101660637,-0.09251335866352443,0.09127582152,-0.07163176773016745,,-2.8017908e-05,-2.2649765e-06,4.529953e-06,0.99999994,-1.0397285e-05,-8.579344e-06,1.0397285e-05,1.0,-9.536743e-07,8.579344e-06,1.013279e-06,0.99999994,596,1.869,1,3,0.808,False,-0.25820985950507547,1.051397915189126
1.892458054004237,12:11:52.754365,12:10:52.336227,0,,0.12740329,0.008287676,0.026870087,-0.6793302,-0.7332523,-0.029177926,-0.036788225,-0.0056820214,0.9993069,-0.7329099,0.6799327,-0.02311501,,0.029265001,-0.060909577,0.06070125,-0.23868178,-0.4230473,0.87410617,-0.80973047,0.58358705,0.0613392,-0.5360666,-0.69315004,-0.48184603,,0.095805995,1.3379645,0.44838881,0.9948015,-0.009790742,-0.10136084,-0.07188427,-0.7725408,-0.630883,-0.07212858,0.6348896,-0.7692286,,-0.089194335,0.250959,-0.09476695,0.7404814,0.6663397,0.087628305,-0.49246198,0.44922662,0.7454372,0.45734945,-0.595136,0.6607909,,0.016140314,0.3961694,-0.42576,0.30826235,0.5034699,-0.8071508,-0.8919641,-0.14199927,-0.4292275,-0.33071795,0.8522642,0.40530404,,0.9917224647764147,0.3306101943455513,0.16849177420000003,0.5145791213110228,0.6137711569463585,0.8403489747431446,-0.41326048731972653,,-1.2675862057765883,-0.33769194039121514,0.14813224346,0.6636686711285196,0.4406527117435454,-0.4982582764000554,0.8766676029426768,,-0.03805254101660637,-0.09251335866352443,0.09127582152,-0.07163176773016745,,-2.8017908e-05,-2.2649765e-06,4.529953e-06,0.99999994,-1.0397285e-05,-8.579344e-06,1.0397285e-05,1.0,-9.536743e-07,8.579344e-06,1.013279e-06,0.99999994,605,1.898,1,3,0.837,False,-0.259580147031059,1.0514461953899055
1.924346833024174,12:11:52.779227,12:10:52.336227,0,,0.12727073,0.008316815,0.026923105,-0.6713666,-0.7404367,-0.031940587,-0.039452672,-0.0073302984,0.99919456,-0.7400744,0.67208594,-0.0242908,,0.029265255,-0.060908295,0.06070268,-0.23867732,-0.4231868,0.87403995,-0.8097261,0.5835826,0.06144014,-0.5360753,-0.6930686,-0.48195338,,0.095805995,1.3379645,0.44838881,0.9948015,-0.009790742,-0.10136084,-0.07188427,-0.7725408,-0.630883,-0.07212858,0.6348896,-0.7692286,,-0.08906577,0.25101778,-0.09480225,0.7330702,0.6741084,0.09047632,-0.4992713,0.44299868,0.74463433,0.4618834,-0.59104145,0.6613121,,0.01613987,0.39617133,-0.42575988,0.30825898,0.5035981,-0.8070721,-0.89196867,-0.14192401,-0.42924294,-0.33070883,0.852201,0.40544432,,0.9924638471323401,0.3300232666471102,0.16848918162,0.5028364844758895,0.620739618434396,0.8346666616546272,-0.41326048731972653,,-1.2675939285094626,-0.3376842176583409,0.14813094717000003,0.6636686711285196,0.4406527117435454,-0.49809491891977425,0.8769942910749453,,-0.03805254101660637,-0.09251335866352443,0.09127582152,-0.07163176773016745,,-2.8017908e-05,-2.2649765e-06,4.529953e-06,0.99999994,-1.0397285e-05,-8.579344e-06,1.0397285e-05,1.0,-9.536743e-07,8.579344e-06,1.013279e-06,0.99999994,618,1.939,1,3,0.878,False,-0.25826943722359585,1.05105995378367
1.949210996972397,12:11:52.817691,12:10:52.336227,0,,0.1271672,0.008313134,0.027014926,-0.6564782,-0.7537256,-0.030559637,-0.039982736,-0.005687624,0.99918425,-0.75328445,0.65716445,-0.026402086,,0.029246211,-0.060904436,0.060685158,-0.23839861,-0.42327902,0.8740713,-0.8098912,0.5833372,0.06159389,-0.5359499,-0.6932189,-0.48187682,,0.095805995,1.3379645,0.44838881,0.9948015,-0.009790742,-0.10136084,-0.07188427,-0.7725408,-0.630883,-0.07212858,0.6348896,-0.7692286,,-0.08897145,0.2510763,-0.09488499,0.71944934,0.68878067,0.08929635,-0.5084968,0.43478236,0.743233,0.47310007,-0.5801254,0.66304666,,0.01616094,0.39616185,-0.42574754,0.30796763,0.50370973,-0.80711365,-0.8920001,-0.14218271,-0.42909193,-0.3308954,0.8520919,0.40552145,,0.9930044384335359,0.32906564777070635,0.16848140388000002,0.4854322191666739,0.6360429064081253,0.8221061777004873,-0.4134238313858607,,-1.2675939285094626,-0.3376764949254667,0.1481270583,0.6632492912415505,0.4406527117435454,-0.4982582764000554,0.8766676029426768,,-0.03805254101660637,-0.09251335866352443,0.09127582152,-0.07163176773016745,,-2.8017908e-05,-2.2649765e-06,4.529953e-06,0.99999994,-1.0397285e-05,-8.579344e-06,1.0397285e-05,1.0,-9.536743e-07,8.579344e-06,1.013279e-06,0.99999994,627,1.967,1,3,0.906,False,-0.2580311263495121,1.0514461953899055
1.9876525669824332,12:11:52.850457,12:10:52.336227,0,,0.12714045,0.008279853,0.027093887,-0.64398164,-0.7641913,-0.03604257,-0.044544995,-0.0095773935,0.9989614,-0.7637428,0.64491826,-0.027873158,,0.02923546,-0.060909335,0.060694456,-0.23838867,-0.42328718,0.87407,-0.80990326,0.58332,0.06159708,-0.535936,-0.69322824,-0.48187864,,0.09581359,1.3379639,0.4483956,0.99480283,-0.00977686,-0.10134951,-0.07186639,-0.772541,-0.6308848,-0.07212858,0.6348896,-0.7692286,,-0.08896348,0.25109696,-0.09496396,0.70772785,0.70008886,0.09485181,-0.5189537,0.42405894,0.7422002,0.47938332,-0.5744994,0.663432,,0.01616275,0.39616337,-0.42575142,0.3079722,0.50371134,-0.8071109,-0.891993,-0.14219387,-0.429103,-0.33091027,0.85208905,0.40551525,,0.993182061289643,0.32833971088052927,0.16846844098000002,0.4673988840270048,0.6454708248919406,0.8146633785658561,-0.4135871754519951,,-1.2675862057765883,-0.33769194039121514,0.14812316943,0.6632492912415505,0.4406527117435454,-0.4982582764000554,0.8766676029426768,,-0.03805254101660637,-0.09251335866352443,0.09127582152,-0.07163176773016745,,-2.0917505e-05,2.3841858e-06,-1.1920929e-06,1.0,3.4235418e-06,2.8274953e-06,-3.4235418e-06,0.99999994,3.5762787e-07,-2.82377e-06,-2.9802322e-07,0.99999994,636,1.996,1,3,0.935,False,-0.25815028178655464,1.050963393382111
2.020384395029396,12:11:52.875689,12:10:52.548368,0,,0.12708566,0.008277081,0.027222931,-0.62701344,-0.7782351,-0.034701787,-0.044552326,-0.00864917,0.99896955,-0.7777332,0.62791336,-0.029248983,,0.029235475,-0.06091017,0.060697258,-0.23838785,-0.4232786,0.8740744,-0.8099048,0.58331853,0.061590612,-0.5359339,-0.69323474,-0.4818715,,0.09581359,1.3379639,0.4483956,0.99480283,-0.00977686,-0.10134951,-0.07186639,-0.772541,-0.6308848,-0.07212858,0.6348896,-0.7692286,,-0.08892099,0.25117955,-0.09506902,0.6921404,0.7156621,0.09364541,-0.52832294,0.41395953,0.741291,0.49174845,-0.56255245,0.66461885,,0.01616238,0.39616513,-0.4257538,0.30797115,0.50370365,-0.8071161,-0.89199245,-0.14220078,-0.42910182,-0.3309127,0.85209244,0.4055061,,0.9934060205429955,0.32757516032598105,0.16844251518000003,0.44810740922642855,0.662003841363559,0.8011818122185891,-0.4135871754519951,,-1.2675939285094626,-0.33769966312408933,0.14812057685000002,0.6632492912415505,0.4406527117435454,-0.4982582764000554,0.8766676029426768,,-0.03805254101660637,-0.09251335866352443,0.09127582152,-0.07163176773016745,,-2.0917505e-05,2.3841858e-06,-1.1920929e-06,1.0,3.4235418e-06,2.8274953e-06,-3.4235418e-06,0.99999994,3.5762787e-07,-2.82377e-06,-2.9802322e-07,0.99999994,645,2.025,1,3,0.964,False,-0.25856732581620134,1.0515910359922438
2.0456467990297824,12:11:52.907807,12:10:52.548368,0,,0.1269988,0.008257344,0.02734673,-0.6141608,-0.7885261,-0.032139845,-0.043299645,-0.0069952905,0.99903756,-0.787992,0.61496127,-0.029846609,,0.029237583,-0.060908545,0.0606997,-0.2383781,-0.4232633,0.87408453,-0.80989754,0.5833282,0.06159538,-0.5359493,-0.693236,-0.48185265,,0.09581359,1.3379639,0.4483956,0.99480283,-0.00977686,-0.10134951,-0.07186639,-0.772541,-0.6308848,-0.07212858,0.6348896,-0.7692286,,-0.08884709,0.25124633,-0.095184505,0.6803736,0.7271741,0.09115699,-0.5342433,0.40698054,0.7409122,0.50167304,-0.55279714,0.66538674,,0.016159987,0.39616776,-0.42575383,0.30796334,0.5036886,-0.8071285,-0.89200103,-0.14219743,-0.42908514,-0.33089688,0.8521019,0.40549913,,0.9938462163168263,0.3268337779700555,0.16839455245,0.43426787295645,0.6753942183405721,0.7902628576563399,-0.4135871754519951,,-1.2676170967080853,-0.33769194039121514,0.14811928056,0.6632492912415505,0.4406527117435454,-0.4982582764000554,0.8766676029426768,,-0.03805254101660637,-0.09251335866352443,0.09127582152,-0.07163176773016745,,-2.0917505e-05,2.3841858e-06,-1.1920929e-06,1.0,3.4235418e-06,2.8274953e-06,-3.4235418e-06,0.99999994,3.5762787e-07,-2.82377e-06,-2.9802322e-07,0.99999994,663,2.082,1,3,1.021,False,-0.2596993024681016,1.0517358765945823
2.0777698799502105,12:11:52.962132,12:10:52.548368,0,,0.12671645,0.008285597,0.027656928,-0.5874456,-0.8084086,-0.03718885,-0.04520735,-0.013100803,0.9988917,-0.80799985,0.58847564,-0.02884987,,0.02924122,-0.060906444,0.060704112,-0.23866327,-0.4231516,0.8740607,-0.8097025,0.5836142,0.061449975,-0.53611696,-0.6930635,-0.48191425,,0.09581359,1.3379639,0.4483956,0.99480283,-0.00977686,-0.10134951,-0.07186639,-0.772541,-0.6308848,-0.07212858,0.6348896,-0.7692286,,-0.08859324,0.25147387,-0.095430516,0.65554005,0.7490237,0.09607702,-0.5491259,0.38547486,0.74153215,0.5183898,-0.53886235,0.6640025,,0.016155802,0.3961722,-0.42575464,0.30826625,0.50355464,-0.8070964,-0.8919837,-0.14189836,-0.42922014,-0.33066148,0.8522309,0.40542006,,0.995313535562929,0.32555952704580843,0.16826233087,0.4005077920554415,0.6990323327999933,0.773192886300654,-0.41440389578266634,,-1.267647987639582,-0.3376764949254667,0.14811668798000002,0.6636686711285196,0.4406527117435454,-0.4980949189197743,0.8766676029426768,,-0.03805254101660637,-0.09251335866352443,0.09127582152,-0.07163176773016745,,-2.0917505e-05,2.3841858e-06,-1.1920929e-06,1.0,3.4235418e-06,2.8274953e-06,-3.4235418e-06,0.99999994,3.5762787e-07,-2.82377e-06,-2.9802322e-07,0.99999994,677,2.127,1,3,1.066,False,-0.257435349164302,1.05105995378367
2.1321158750215545,12:11:53.008210,12:10:52.548368,0,,0.12631543,0.008301109,0.027874753,-0.56696594,-0.82243806,-0.046316467,-0.04764232,-0.023393422,0.99859047,-0.82236224,0.56837326,-0.025919497,,0.029241763,-0.06090728,0.06070584,-0.23866247,-0.42314303,0.8740651,-0.8097042,0.5836126,0.061443508,-0.536115,-0.69307005,-0.48190713,,0.09581359,1.3379639,0.4483956,0.99480283,-0.00977686,-0.10134951,-0.07186639,-0.772541,-0.6308848,-0.07212858,0.6348896,-0.7692286,,-0.08821364,0.25163373,-0.09562763,0.6363583,0.76423246,0.10486591,-0.5606412,0.36483124,0.743357,0.52983916,-0.5318335,0.6606236,,0.016155055,0.39617297,-0.4257563,0.3082652,0.50354695,-0.8071016,-0.89198315,-0.14190528,-0.42921898,-0.3306639,0.85223436,0.40541092,,0.9973137233773531,0.3239377531422213,0.16816251654000003,0.37261902957199977,0.7165218047699697,0.7637504402958053,-0.41293379918745776,,-1.2676557103724564,-0.3376842176583409,0.14811539169000001,0.6636686711285196,0.4406527117435454,-0.49809491891977425,0.8769942910749453,,-0.03805254101660637,-0.09251335866352443,0.09127582152,-0.07163176773016745,,-2.0917505e-05,2.3841858e-06,-1.1920929e-06,1.0,3.4235418e-06,2.8274953e-06,-3.4235418e-06,0.99999994,3.5762787e-07,-2.82377e-06,-2.9802322e-07,0.99999994,686,2.156,1,3,1.095,False,-0.25856732581620134,1.0512047943860081
2.178193319006823,12:11:53.036499,12:10:52.695403,0,,0.12615833,0.008297734,0.027905434,-0.5618142,-0.8258065,-0.049073696,-0.049103677,-0.025927186,0.998457,-0.82580465,0.563357,-0.02598381,,0.029240616,-0.060907576,0.060705304,-0.23836488,-0.42337617,0.8740334,-0.8098904,0.5833283,0.061688572,-0.535966,-0.69316703,-0.48193336,,0.09581359,1.3379639,0.4483956,0.99480283,-0.00977686,-0.10134951,-0.07186639,-0.772541,-0.6308848,-0.07212858,0.6348896,-0.7692286,,-0.08806045,0.2516537,-0.095669694,0.63146955,0.76789796,0.10760545,-0.5640728,0.35970405,0.7432596,0.53204143,-0.5300431,0.6602925,,0.01615625,0.3961725,-0.4257563,0.30795228,0.5037919,-0.80706817,-0.89201105,-0.14213179,-0.42908603,-0.33088014,0.8520518,0.4056182,,0.998031937534656,0.32325815264928953,0.16814825735000002,0.36465081171958785,0.7204842632631675,0.7606009998287495,-0.4130971432535919,,-1.2676557103724564,-0.33769194039121514,0.14811539169000001,0.6632492912415505,0.4406527117435454,-0.49809491891977425,0.8769942910749453,,-0.03805254101660637,-0.09251335866352443,0.09127582152,-0.07163176773016745,,-2.0917505e-05,2.3841858e-06,-1.1920929e-06,1.0,3.4235418e-06,2.8274953e-06,-3.4235418e-06,0.99999994,3.5762787e-07,-2.82377e-06,-2.9802322e-07,0.99999994,700,2.201,1,3,1.14,False,-0.25779281547542787,1.0516393161930233
2.2064806539565325,12:11:53.087148,12:10:52.695403,0,,0.12578776,0.008303672,0.02795355,-0.5455398,-0.83594984,-0.0597839,-0.055176258,-0.035354435,0.9978505,-0.8362665,0.5476657,-0.02683726,,0.029239394,-0.060905594,0.060704708,-0.23836382,-0.42338747,0.87402827,-0.8098858,0.58333325,0.06170109,-0.53597337,-0.6931559,-0.4819411,,0.09581359,1.3379639,0.4483956,0.99480283,-0.00977686,-0.10134951,-0.07186639,-0.772541,-0.6308848,-0.07212858,0.6348896,-0.7692286,,-0.08769611,0.2516956,-0.09574163,0.6159056,0.77888775,0.118297316,-0.57575256,0.34251744,0.7424223,0.5377447,-0.52537197,0.659405,,0.016157528,0.39617336,-0.42575446,0.30795214,0.5038017,-0.80706215,-0.89201415,-0.14211884,-0.4290839,-0.33087194,0.85204816,0.40563244,,0.9994606431163876,0.321520537752589,0.16814955364,0.33885894867099137,0.7308686372453409,0.7517248454471187,-0.41293379918745776,,-1.267647987639582,-0.3376764949254667,0.14811539169000001,0.6632492912415505,0.4406527117435454,-0.49809491891977425,0.8769942910749453,,-0.03805254101660637,-0.09251335866352443,0.09127582152,-0.07163176773016745,,-2.0917505e-05,2.3841858e-06,-1.1920929e-06,1.0,3.4235418e-06,2.8274953e-06,-3.4235418e-06,0.99999994,3.5762787e-07,-2.82377e-06,-2.9802322e-07,0.99999994,709,2.229,1,3,1.168,False,-0.2587460589717643,1.051494475590685
2.2571228169836104,12:11:53.108478,12:10:52.695403,0,,0.1256249,0.008313797,0.028009087,-0.5326494,-0.84393567,-0.0636953,-0.056837797,-0.039420217,0.9976048,-0.84442514,0.5349938,-0.026970237,,0.029240094,-0.060907517,0.060706496,-0.23836488,-0.42337617,0.8740334,-0.8098904,0.5833283,0.061688572,-0.535966,-0.69316703,-0.48193336,,0.09581359,1.3379639,0.4483956,0.99480283,-0.00977686,-0.10134951,-0.07186639,-0.772541,-0.6308848,-0.07212858,0.6348896,-0.7692286,,-0.08753872,0.25174206,-0.09579435,0.60374403,0.78775895,0.12218428,-0.58252645,0.3313323,0.74221414,0.5442022,-0.51928294,0.6589303,,0.01615663,0.3961735,-0.42575702,0.30795228,0.5037919,-0.80706817,-0.89201105,-0.14213179,-0.42908603,-0.33088014,0.8520518,0.4056182,,0.9999935116847091,0.32061697800630473,0.16815603509000002,0.32145468336177585,0.7405698287286873,0.7432424231036888,-0.4134238313858607,,-1.2676557103724564,-0.33769194039121514,0.1481140954,0.6632492912415505,0.4406527117435454,-0.49809491891977425,0.8769942910749453,,-0.03805254101660637,-0.09251335866352443,0.09127582152,-0.07163176773016745,,-2.0917505e-05,2.3841858e-06,-1.1920929e-06,1.0,3.4235418e-06,2.8274953e-06,-3.4235418e-06,0.99999994,3.5762787e-07,-2.82377e-06,-2.9802322e-07,0.99999994,723,2.274,1,3,1.213,False,-0.2591631030014119,1.0513496349883464
2.2784319990314543,12:11:53.154202,12:10:52.695403,0,,0.12549081,0.008302018,0.028100312,-0.51677877,-0.853951,-0.06088826,-0.05385226,-0.03855592,0.9978042,-0.8544234,0.518923,-0.02606225,,0.029241018,-0.060907383,0.060706973,-0.23836222,-0.42337024,0.8740371,-0.80988896,0.5833303,0.061688185,-0.5359693,-0.693169,-0.48192686,,0.09581359,1.3379639,0.4483956,0.99480283,-0.00977686,-0.10134951,-0.07186639,-0.772541,-0.6308848,-0.07212858,0.6348896,-0.7692286,,-0.087414436,0.25179455,-0.09588511,0.58905095,0.79923797,0.119321615,-0.58701,0.3217237,0.74290854,0.5553721,-0.507654,0.65867233,,0.016155656,0.39617383,-0.42575708,0.30795005,0.50378627,-0.8070726,-0.8920131,-0.14213267,-0.42908156,-0.33087677,0.852055,0.40561417,,1.0004182619927915,0.3195898545340329,0.16815733138000002,0.30426010799604486,0.756009753202182,0.7296720551043065,-0.41375051951812925,,-1.2676634331053307,-0.33769194039121514,0.1481140954,0.6632492912415505,0.4406527117435454,-0.49809491891977425,0.8769942910749453,,-0.03805254101660637,-0.09251335866352443,0.09127582152,-0.07163176773016745,,-2.0917505e-05,2.3841858e-06,-1.1920929e-06,1.0,3.4235418e-06,2.8274953e-06,-3.4235418e-06,0.99999994,3.5762787e-07,-2.82377e-06,-2.9802322e-07,0.99999994,737,2.319,1,3,1.258,False,-0.2587460589717643,1.0513496349883464
2.3241765879793093,12:11:53.206118,12:10:52.834586,0,,0.12522422,0.008410037,0.028348505,-0.48012477,-0.8743739,-0.07035863,-0.057587653,-0.048616856,0.9971559,-0.8753077,0.482811,-0.027010947,,0.029240735,-0.060905997,0.060709596,-0.23835775,-0.4233669,0.8740398,-0.8098845,0.5833358,0.061693788,-0.535978,-0.6931664,-0.481921,,0.09581359,1.3379639,0.4483956,0.99480283,-0.00977686,-0.10134951,-0.07186639,-0.772541,-0.6308848,-0.07212858,0.6348896,-0.7692286,,-0.08716603,0.25204223,-0.09603102,0.55431336,0.82228374,0.12878722,-0.60401666,0.29097003,0.74195707,0.572626,-0.48906636,0.65796167,,0.016155591,0.39617682,-0.42575768,0.30794668,0.5037826,-0.80707616,-0.8920176,-0.14212754,-0.4290738,-0.33086765,0.852058,0.40561524,,1.0009665760268613,0.3184623355343961,0.16814307219000002,0.2547732813336971,0.7806043231599613,0.7030008544875652,-0.41358717545199486,,-1.2676711558382048,-0.3376842176583409,0.14811150282000002,0.6632492912415505,0.4406527117435454,-0.49809491891977425,0.8769942910749453,,-0.03805254101660637,-0.09251335866352443,0.09127582152,-0.07163176773016745,,-2.0917505e-05,2.3841858e-06,-1.1920929e-06,1.0,3.4235418e-06,2.8274953e-06,-3.4235418e-06,0.99999994,3.5762787e-07,-2.82377e-06,-2.9802322e-07,0.99999994,746,2.348,1,3,1.287,False,-0.25856732581620134,1.0513496349883464
2.376097577973269,12:11:53.228311,12:10:52.834586,0,,0.12505515,0.008473448,0.028541863,-0.4562396,-0.88687974,-0.07272908,-0.05706343,-0.052403837,0.99699426,-0.8880253,0.4590184,-0.026699662,,0.029240884,-0.06090707,0.060709715,-0.23835956,-0.42336422,0.87404066,-0.8098876,0.5833323,0.061687738,-0.53597265,-0.6931709,-0.48192033,,0.09581359,1.3379639,0.4483956,0.99480283,-0.00977686,-0.10134951,-0.07186639,-0.772541,-0.6308848,-0.07212858,0.6348896,-0.7692286,,-0.08701209,0.25221878,-0.096154,0.53176254,0.83668375,0.13110621,-0.6122704,0.2728531,0.74207556,0.58510983,-0.47488046,0.6573698,,0.016155438,0.39617622,-0.42575857,0.30794784,0.50378054,-0.807077,-0.8920151,-0.14213356,-0.4290771,-0.33087343,0.85205823,0.4056101,,1.0013372672048242,0.31781362597296126,0.16811455381,0.2241585495849565,0.7979571586301722,0.6834599838688427,-0.41195373479065234,,-1.2676711558382048,-0.33769194039121514,0.14811150282000002,0.6632492912415505,0.4406527117435454,-0.4980949189197743,0.8766676029426768,,-0.03805254101660637,-0.09251335866352443,0.09127582152,-0.07163176773016745,,-2.0917505e-05,2.3841858e-06,-1.1920929e-06,1.0,3.4235418e-06,2.8274953e-06,-3.4235418e-06,0.99999994,3.5762787e-07,-2.82377e-06,-2.9802322e-07,0.99999994,760,2.393,1,3,1.332,False,-0.25785239319394915,1.0512047943860081
2.398294477025047,12:11:53.276509,12:10:52.834586,0,,0.12477405,0.008552693,0.028815746,-0.42122585,-0.90365386,-0.077319875,-0.056927085,-0.058741048,0.9966487,-0.9051673,0.4242157,-0.026699066,,0.029241137,-0.060905803,0.060711265,-0.2383551,-0.42336094,0.8740435,-0.8098831,0.5833379,0.06169334,-0.53598136,-0.6931683,-0.48191446,,0.09581359,1.3379639,0.4483956,0.99480283,-0.00977686,-0.10134951,-0.07186639,-0.772541,-0.6308848,-0.07212858,0.6348896,-0.7692286,,-0.086753264,0.25246152,-0.096339464,0.4985314,0.85619235,0.13565072,-0.62387615,0.2457205,0.7418895,0.6018679,-0.45448443,0.6566574,,0.016154995,0.39617816,-0.42575845,0.30794448,0.5037769,-0.80708057,-0.8920196,-0.14212842,-0.42906934,-0.3308643,0.8520613,0.40561122,,1.0018315221087746,0.3167942252335636,0.1680639985,0.17760738213139213,0.8215952730895935,0.6538114865315102,-0.4127704551213238,,-1.267678878571079,-0.3376842176583409,0.14811020653,0.6632492912415505,0.4406527117435454,-0.4980949189197743,0.8763409148104082,,-0.03805254101660637,-0.09251335866352443,0.09127582152,-0.07163176773016745,,-2.0917505e-05,2.3841858e-06,-1.1920929e-06,1.0,3.4235418e-06,2.8274953e-06,-3.4235418e-06,0.99999994,3.5762787e-07,-2.82377e-06,-2.9802322e-07,0.99999994,769,2.422,1,3,1.361,False,-0.2583290149421176,1.0513496349883464
2.4464919900055975,12:11:53.299466,12:10:52.834586,0,,0.12460096,0.008563921,0.029033422,-0.39755723,-0.9145064,-0.07500798,-0.052663386,-0.058869913,0.9968755,-0.91606474,0.40026522,-0.02475679,,0.029240347,-0.060907025,0.060710907,-0.23835956,-0.42336422,0.87404066,-0.8098876,0.5833323,0.061687738,-0.53597265,-0.6931709,-0.48192033,,0.09581359,1.3379639,0.4483956,0.99480283,-0.00977686,-0.10134951,-0.07186639,-0.772541,-0.6308848,-0.07212858,0.6348896,-0.7692286,,-0.0866005,0.25261423,-0.096514985,0.4762404,0.8691699,0.13318706,-0.62810093,0.23025556,0.74328434,0.6153733,-0.43763694,0.65558344,,0.016155818,0.39617723,-0.4257593,0.30794784,0.50378054,-0.807077,-0.8920151,-0.14213356,-0.4290771,-0.33087343,0.85205823,0.4056101,,1.0020632040950013,0.3160219519461412,0.16800048029,0.14867016993052776,0.8403144735574588,0.6311144683723093,-0.41260711105518943,,-1.2676711558382048,-0.33769194039121514,0.14811020653,0.6632492912415505,0.4406527117435454,-0.4980949189197743,0.8763409148104082,,-0.03805254101660637,-0.09251335866352443,0.09127582152,-0.07163176773016745,,-2.0917505e-05,2.3841858e-06,-1.1920929e-06,1.0,3.4235418e-06,2.8274953e-06,-3.4235418e-06,0.99999994,3.5762787e-07,-2.82377e-06,-2.9802322e-07,0.99999994,783,2.467,1,3,1.406,False,-0.2593418361569748,1.050963393382111
2.4694449519738555,12:11:53.349109,12:10:52.983730,0,,0.12423456,0.008580953,0.029429942,-0.35581362,-0.9315345,-0.075099744,-0.04766825,-0.06216401,0.9969269,-0.9333403,0.35830003,-0.022285819,,0.029241137,-0.060905803,0.060711265,-0.2383551,-0.42336094,0.8740435,-0.8098831,0.5833379,0.06169334,-0.53598136,-0.6931683,-0.48191446,,0.09581359,1.3379639,0.4483956,0.99480283,-0.00977686,-0.10134951,-0.07186639,-0.772541,-0.6308848,-0.07212858,0.6348896,-0.7692286,,-0.08627161,0.25289068,-0.096842386,0.43660545,0.8897596,0.13305467,-0.6362102,0.20079195,0.74492896,0.6360914,-0.4098908,0.653741,,0.016154995,0.39617816,-0.42575845,0.30794448,0.5037769,-0.80708057,-0.8920196,-0.14212842,-0.42906934,-0.3308643,0.8520613,0.40561122,,1.0025111226017063,0.3147168100903972,0.16785399952000002,0.09352171479409786,0.8695546845072629,0.5904452165123193,-0.41130035852611524,,-1.267678878571079,-0.3376842176583409,0.14811020653,0.6632492912415505,0.4406527117435454,-0.4980949189197743,0.8763409148104082,,-0.03805254101660637,-0.09251335866352443,0.09127582152,-0.07163176773016745,,-2.0917505e-05,2.3841858e-06,-1.1920929e-06,1.0,3.4235418e-06,2.8274953e-06,-3.4235418e-06,0.99999994,3.5762787e-07,-2.82377e-06,-2.9802322e-07,0.99999994,792,2.496,1,3,1.435,False,-0.2588652144088064,1.0506254319766548
2.519086899003014,12:11:53.376530,12:10:52.983730,0,,0.12412092,0.008576497,0.029569462,-0.3417889,-0.9369702,-0.07257457,-0.043759197,-0.06127423,0.9971612,-0.9387573,0.34399438,-0.020058185,,0.029239275,-0.06090613,0.06071043,-0.23836039,-0.42337286,0.8740363,-0.80988604,0.5833338,0.061694235,-0.53597474,-0.6931644,-0.48192748,,0.09581359,1.3379639,0.4483956,0.99480283,-0.00977686,-0.10134951,-0.07186639,-0.772541,-0.6308848,-0.07212858,0.6348896,-0.7692286,,-0.086171664,0.25297973,-0.0969627,0.42337978,0.89652526,0.13035324,-0.63698685,0.19227253,0.7465112,0.6442029,-0.39909106,0.6524791,,0.016156944,0.3961775,-0.42575833,0.3079489,0.5037883,-0.8070718,-0.89201564,-0.14212665,-0.42907825,-0.33087102,0.8520548,0.40561926,,1.0026115181290711,0.31426116885081795,0.16780603679000003,0.07611744948488233,0.8808955139877945,0.575480018695677,-0.4129337991874582,,-1.2676634331053307,-0.3376842176583409,0.14811020653,0.6632492912415505,0.4406527117435454,-0.4980949189197743,0.8763409148104082,,-0.03805254101660637,-0.09251335866352443,0.09127582152,-0.07163176773016745,,-2.0917505e-05,2.3841858e-06,-1.1920929e-06,1.0,3.4235418e-06,2.8274953e-06,-3.4235418e-06,0.99999994,3.5762787e-07,-2.82377e-06,-2.9802322e-07,0.99999994,806,2.541,1,3,1.48,False,-0.2594014138754961,1.0505771517758753
2.546458716969937,12:11:53.419971,12:10:52.983730,0,,0.12385847,0.008580513,0.02989477,-0.31061393,-0.9478773,-0.07104549,-0.033869505,-0.06365824,0.99739677,-0.9499324,0.31221154,-0.0123309195,,0.029240206,-0.060905937,0.060710788,-0.23835775,-0.4233669,0.8740398,-0.8098845,0.5833358,0.061693788,-0.535978,-0.6931664,-0.481921,,0.09581359,1.3379639,0.4483956,0.99480283,-0.00977686,-0.10134951,-0.07186639,-0.772541,-0.6308848,-0.07212858,0.6348896,-0.7692286,,-0.08594033,0.25319833,-0.09723367,0.39396948,0.9101476,0.12813804,-0.63723814,0.17000917,0.7516811,0.66235614,-0.37779385,0.6469592,,0.01615597,0.39617783,-0.4257584,0.30794668,0.5037826,-0.80707616,-0.8920176,-0.14212754,-0.4290738,-0.33086765,0.852058,0.40561524,,1.0028740910467948,0.3133807773031564,0.16769844472,0.03690543005327629,0.9063099029441665,0.545934984672962,-0.41130035852611524,,-1.2676711558382048,-0.3376842176583409,0.14811020653,0.6632492912415505,0.4406527117435454,-0.4980949189197743,0.8763409148104082,,-0.03805254101660637,-0.09251335866352443,0.09127582152,-0.07163176773016745,,-2.0917505e-05,2.3841858e-06,-1.1920929e-06,1.0,3.4235418e-06,2.8274953e-06,-3.4235418e-06,0.99999994,3.5762787e-07,-2.82377e-06,-2.9802322e-07,0.99999994,815,2.569,1,3,1.508,False,-0.25922268071993226,1.0511565141852286
2.5899471830343828,12:11:53.453868,12:10:53.115791,0,,0.123698875,0.008604154,0.030068547,-0.2925986,-0.9533635,-0.07405439,-0.031446934,-0.06780827,0.99720263,-0.9557179,0.2941088,-0.010139704,,0.029240496,-0.060908098,0.060711026,-0.23836142,-0.4233616,0.87404144,-0.80989057,0.5833288,0.061681688,-0.5359673,-0.69317555,-0.4819197,,0.09581359,1.3379639,0.4483956,0.99480283,-0.00977686,-0.10134951,-0.07186639,-0.772541,-0.6308848,-0.07212858,0.6348896,-0.7692286,,-0.08579626,0.25333175,-0.097366594,0.37672618,0.9170267,0.13091761,-0.63945085,0.15519302,0.7530058,0.67020893,-0.3673924,0.6448588,,0.016155666,0.39617664,-0.42576018,0.307949,0.5037785,-0.8070778,-0.89201254,-0.1421396,-0.4290804,-0.33087918,0.8520584,0.40560502,,1.0029204274440402,0.3130718679881874,0.1676362228,0.01111356700467979,0.9173774594251671,0.5290689754200578,-0.41130035852611524,,-1.2676711558382048,-0.33769966312408933,0.14811020653,0.6632492912415505,0.4406527117435454,-0.4980949189197743,0.8763409148104082,,-0.03805254101660637,-0.09251335866352443,0.09127582152,-0.07163176773016745,,-2.0917505e-05,2.3841858e-06,-1.1920929e-06,1.0,3.4235418e-06,2.8274953e-06,-3.4235418e-06,0.99999994,3.5762787e-07,-2.82377e-06,-2.9802322e-07,0.99999994,829,2.614,1,3,1.553,False,-0.25922268071993226,1.050432311173537
2.6238445850322023,12:11:53.492442,12:10:53.115791,0,,0.12351972,0.008647338,0.030281752,-0.2709815,-0.9601539,-0.0683629,-0.028979123,-0.062850505,0.9976021,-0.96214813,0.2723127,-0.01079306,,0.029241279,-0.060906876,0.060711384,-0.23835695,-0.4233583,0.87404424,-0.80988604,0.5833344,0.06168732,-0.535976,-0.6931729,-0.48191383,,0.09581359,1.3379639,0.4483956,0.99480283,-0.00977686,-0.10134951,-0.07186639,-0.772541,-0.6308848,-0.07212858,0.6348896,-0.7692286,,-0.085635245,0.25350598,-0.09751871,0.35596368,0.9260558,0.12534168,-0.64210737,0.14492737,0.7527909,0.678961,-0.34844905,0.64621615,,0.016154844,0.39617756,-0.42575935,0.30794564,0.5037749,-0.8070814,-0.89201707,-0.14213446,-0.42907262,-0.33087006,0.85206145,0.4056061,,1.0028818137796691,0.3129096905978287,0.16755974169,-0.020759304404967913,0.9295381079042914,0.49799798829467057,-0.4101569500631752,,-1.267678878571079,-0.33769194039121514,0.14811020653,0.6632492912415505,0.4406527117435454,-0.4980949189197743,0.8763409148104082,,-0.03805254101660637,-0.09251335866352443,0.09127582152,-0.07163176773016745,,-2.0917505e-05,2.3841858e-06,-1.1920929e-06,1.0,3.4235418e-06,2.8274953e-06,-3.4235418e-06,0.99999994,3.5762787e-07,-2.82377e-06,-2.9802322e-07,0.99999994,838,2.643,1,3,1.582,False,-0.25952056931253775,1.0508185527797727
2.662373404018581,12:11:53.526384,12:10:53.115791,0,,0.12343052,0.008676685,0.030447006,-0.25522664,-0.9646843,-0.065141335,-0.024421334,-0.060919285,0.9978438,-0.96657264,0.2562671,-0.008010656,,0.029241279,-0.060906876,0.060711384,-0.23835695,-0.4233583,0.87404424,-0.80988604,0.5833344,0.06168732,-0.535976,-0.6931729,-0.48191383,,0.09581359,1.3379639,0.4483956,0.99480283,-0.00977686,-0.10134951,-0.07186639,-0.772541,-0.6308848,-0.07212858,0.6348896,-0.7692286,,-0.08556005,0.25363705,-0.09763402,0.34096366,0.9321399,0.12189747,-0.6417752,0.1360554,0.7547274,0.6869268,-0.3355654,0.6446142,,0.016154844,0.39617756,-0.42575935,0.30794564,0.5037749,-0.8070814,-0.89201707,-0.14213446,-0.42907262,-0.33087006,0.85206145,0.4056061,,1.0026810227249392,0.31290196786495444,0.16751177896000002,-0.04235736858387392,0.9404690278855267,0.4783029623004027,-0.41505727204720344,,-1.267678878571079,-0.33769194039121514,0.14811020653,0.6632492912415505,0.4406527117435454,-0.4980949189197743,0.8763409148104082,,-0.03805254101660637,-0.09251335866352443,0.09127582152,-0.07163176773016745,,-2.0917505e-05,2.3841858e-06,-1.1920929e-06,1.0,3.4235418e-06,2.8274953e-06,-3.4235418e-06,0.99999994,3.5762787e-07,-2.82377e-06,-2.9802322e-07,0.99999994,852,2.688,1,3,1.627,False,-0.2587460589717643,1.0512530745867876
2.6963667389936745,12:11:53.563730,12:10:53.115791,0,,0.12331623,0.008704014,0.03064181,-0.23347656,-0.97025084,-0.06404598,-0.020964622,-0.060828105,0.997928,-0.97213626,0.23433544,-0.0061389506,,0.029241428,-0.060907934,0.060711443,-0.23835875,-0.42335564,0.8740451,-0.80988914,0.5833308,0.06168127,-0.5359706,-0.69317746,-0.4819132,,0.09581359,1.3379639,0.4483956,0.99480283,-0.00977686,-0.10134951,-0.07186639,-0.772541,-0.6308848,-0.07212858,0.6348896,-0.7692286,,-0.08546274,0.25378618,-0.09777559,0.32004544,0.9396896,0.12064167,-0.6431194,0.12198045,0.75598824,0.69567835,-0.31953758,0.6433719,,0.016154692,0.39617696,-0.42576024,0.3079468,0.50377285,-0.80708224,-0.89201456,-0.14214048,-0.42907593,-0.33087584,0.8520616,0.405601,,1.002124985957995,0.3129174133307029,0.16744566817,-0.07443992993700614,0.9524930398648853,0.4518357237864429,-0.4140772076503978,,-1.267678878571079,-0.33769966312408933,0.14811020653,0.6632492912415505,0.4406527117435454,-0.4980949189197743,0.8763409148104082,,-0.03805254101660637,-0.09251335866352443,0.09127582152,-0.07163176773016745,,-2.0917505e-05,2.3841858e-06,-1.1920929e-06,1.0,3.4235418e-06,2.8274953e-06,-3.4235418e-06,0.99999994,3.5762787e-07,-2.82377e-06,-2.9802322e-07,0.99999994,875,2.762,1,3,1.701,False,-0.2594014138754961,1.0505288715750958
2.733697621966712,12:11:53.638820,12:10:53.249890,0,,0.123134226,0.008701034,0.030993015,-0.1904944,-0.9794311,-0.066531114,-0.01308763,-0.06523234,0.99778426,-0.9816009,0.190943,-0.00039198995,,0.029241525,-0.06090558,0.060712874,-0.23835245,-0.42335492,0.87404716,-0.8098817,0.5833399,0.061692953,-0.5359847,-0.69317025,-0.48190796,,0.09581359,1.3379639,0.4483956,0.99480283,-0.00977686,-0.10134951,-0.07186639,-0.772541,-0.6308848,-0.07212858,0.6348896,-0.7692286,,-0.08531417,0.25401494,-0.098062076,0.27862608,0.95254517,0.12257743,-0.6439872,0.090615734,0.75965077,0.71249425,-0.2905968,0.6386748,,0.0161544,0.39617953,-0.42575926,0.30794224,0.5037712,-0.807085,-0.89202166,-0.14212932,-0.42906487,-0.33086094,0.8520645,0.4056072,,1.0001247981435708,0.3129174133307029,0.16729140966000003,-0.14699265038265158,0.9781807018207882,0.39593065711135517,-0.4121170788567866,,-1.2676866013039532,-0.3376842176583409,0.14810891024,0.6632492912415505,0.4406527117435454,-0.4980949189197743,0.8766676029426768,,-0.03805254101660637,-0.09251335866352443,0.09127582152,-0.07163176773016745,,-2.0917505e-05,2.3841858e-06,-1.1920929e-06,1.0,3.4235418e-06,2.8274953e-06,-3.4235418e-06,0.99999994,3.5762787e-07,-2.82377e-06,-2.9802322e-07,0.99999994,898,2.836,1,3,1.775,False,-0.25922268071993226,1.0504805913743163
