AlexandreBanks6/ExpertPlaybackApp/resources/Motions/P_08/PC1/Data_PC1_10.csv
Task Time,PC1 Time,PC2 Time,Gaze Calib,s_T_psm1,Tx,Ty,Tz,R00,R01,R02,R10,R11,R12,R20,R21,R22,s_T_psm3,Tx,Ty,Tz,R00,R01,R02,R10,R11,R12,R20,R21,R22,cart_T_ecm,Tx,Ty,Tz,R00,R01,R02,R10,R11,R12,R20,R21,R22,ecm_T_psm1,Tx,Ty,Tz,R00,R01,R02,R10,R11,R12,R20,R21,R22,ecm_T_psm3,Tx,Ty,Tz,R00,R01,R02,R10,R11,R12,R20,R21,R22,psm1_joints,q1,q2,q3,q4,q5,q6,jaw,psm3_joints,q1,q2,q3,q4,q5,q6,jaw,ecm_joints,q1,q2,q3,q4,ecmi_T_ecm,Tx,Ty,Tz,R00,R01,R02,R10,R11,R12,R20,R21,R22,Sample #,Task Duration (s),Collisions (binary),Collisions (increments),Cumulative Collision Time (s),Clutch Press,MTMR Angle,MTML Angle
""
lci_T_si,,,,,-0.06109692,0.03167272,0.2299341,0.9947057,-0.03862675,0.09522884,0.030706912,-0.772613,-0.63413423,0.098069586,0.63370115,-0.7673364
rci_T_si,,,,,-0.07092086,0.035947774,0.24085279,0.99028605,-0.05390731,0.12817007,0.04142117,-0.7655644,-0.64202446,0.13273226,0.64109683,-0.75589484
ecm_T_lc,,,,,-4.4061628e-05,-0.00034663224,-0.01840835,-0.99912,0.030754527,0.028518902,-0.031987965,-0.99852574,-0.043852776,0.027128186,-0.04472645,0.9986309
ecm_T_rc,,,,,-0.0043358393,0.01870579,-0.007592615,-0.99555075,-0.052743673,-0.078081585,0.04863213,-0.9973746,0.053654674,-0.08070653,0.04961868,0.9955021
cart_T_ecmi,,,,,0.09583431,1.3379636,0.44839177,0.99480253,-0.009780299,-0.10135232,-0.07187082,-0.7725409,-0.63088435,-0.07212858,0.6348896,-0.7692286
ecmac_T_ecmrep_psm1,,,,,0.006309411,-0.25313872,-0.31568977,0.99868697,0.047558498,0.019040095,-0.047043137,0.9985371,-0.026657216,-0.020280018,0.025726508,0.99946326
ecmac_T_ecmrep_psm3,,,,,-0.020520164,-0.44355312,-0.56256753,0.99888426,-0.027940953,0.03807337,0.020709034,0.9837047,0.17859514,-0.04244307,-0.17760742,0.9831857
""
0,12:12:40.128656,12:11:39.789671,0,,0.13672946,0.01325278,0.018594652,-0.42587996,-0.14937398,-0.892364,-0.8536104,0.39331248,0.3415476,0.29995954,0.90718937,-0.29501104,,0.024045408,-0.06221215,0.062359333,-0.10869281,-0.6681227,0.7360691,-0.8230674,0.47571015,0.3102579,-0.55744594,-0.5721117,-0.6016164,,0.09589062,1.3379587,0.44838807,0.99479616,-0.009848638,-0.101408124,-0.07195882,-0.7725401,-0.6308754,-0.07212858,0.6348896,-0.7692286,,-0.09750126,0.24921004,-0.08430609,0.34757835,0.08761535,0.9335485,-0.44739473,0.89047676,0.08300081,-0.8240311,-0.44651398,0.34870908,,0.021035707,0.39719656,-0.42817652,0.18198062,0.73204213,-0.6565039,-0.93018883,-0.08829844,-0.35630333,-0.31879732,0.6755129,0.66486883,,0.9266661630439473,0.42298952498702486,0.18078967743000002,0.055777524966883485,-0.9023474444509687,1.0440594013016489,-0.4109736703938466,,-1.2346487500680208,-0.3509750409348813,0.14497448102000002,0.5462423027771859,0.5509183670542559,-0.28718636726509555,0.8667036149084857,,-0.03805254101660637,-0.09251335866352443,0.09127582152,-0.07163176773016745,,5.6628138e-05,9.536743e-07,2.3841858e-07,1.0,-6.804615e-05,-5.6166202e-05,6.804243e-05,1.0,-6.3478947e-06,5.6155026e-05,6.4074993e-06,1.0,35,0.106,0,0,0.0,False,-0.25767366003838577,1.0407279908168656
0.12788217701017857,12:12:40.162520,12:11:39.789671,0,,0.13671643,0.013301507,0.018981382,-0.42885077,-0.14050995,-0.8923811,-0.85558593,0.38020995,0.35130215,0.28993067,0.9141648,-0.28327164,,0.02404569,-0.06221291,0.062360168,-0.10876064,-0.66820395,0.7359852,-0.8231252,0.47564584,0.31020308,-0.55734736,-0.5720701,-0.60174716,,0.09589062,1.3379587,0.44838807,0.99479616,-0.009848638,-0.101408124,-0.07195882,-0.7725401,-0.6308754,-0.07212858,0.6348896,-0.7692286,,-0.097521,0.24949837,-0.084567994,0.35133934,0.077421725,0.9330416,-0.45535815,0.88489383,0.09803982,-0.81805235,-0.45931333,0.34615263,,0.021035321,0.39719677,-0.42817765,0.18203586,0.7321179,-0.6564041,-0.93014014,-0.08829699,-0.35643086,-0.31890792,0.67543095,0.66489905,,0.9273225953382565,0.424093875788039,0.18042541994000003,0.05556783502339895,-0.8927828894673879,1.0580683716604293,-0.40917688566636956,,-1.234656472800895,-0.3509750409348813,0.14497318473,0.5462423027771859,0.5507817305544904,-0.28707494936139916,0.8667036149084857,,-0.03805254101660637,-0.09251335866352443,0.09127582152,-0.07163176773016745,,5.6628138e-05,9.536743e-07,2.3841858e-07,1.0,-6.804615e-05,-5.6166202e-05,6.804243e-05,1.0,-6.3478947e-06,5.6155026e-05,6.4074993e-06,1.0,46,0.139,0,0,0.0,False,-0.25624379479388093,1.0412107928246603
0.1616888849530369,12:12:40.199659,12:11:39.789671,0,,0.13669114,0.013324201,0.019214883,-0.43049085,-0.13730992,-0.8920894,-0.85637003,0.37437648,0.35563004,0.28514576,0.91705406,-0.27875373,,0.024044774,-0.06221309,0.06235981,-0.1087634,-0.66820896,0.73598033,-0.82312644,0.4756437,0.31020305,-0.557345,-0.5720662,-0.6017532,,0.09589062,1.3379587,0.44838807,0.99479616,-0.009848638,-0.101408124,-0.07195882,-0.7725401,-0.6308754,-0.07212858,0.6348896,-0.7692286,,-0.09751598,0.24966763,-0.08473232,0.35336408,0.07364521,0.93258256,-0.45903346,0.8822802,0.1042591,-0.81512094,-0.464928,0.34557173,,0.021036277,0.39719644,-0.42817762,0.18203832,0.7321223,-0.6563985,-0.93013877,-0.08829472,-0.35643506,-0.3189106,0.6754265,0.6649023,,0.9277705138449615,0.42472713988372535,0.18020893951000003,0.055987214910368004,-0.8882738849751284,1.0630495272933471,-0.41048363819544376,,-1.2346487500680208,-0.3509750409348813,0.14497318473,0.5462423027771859,0.5507817305544904,-0.28707494936139916,0.8667036149084857,,-0.03805254101660637,-0.09251335866352443,0.09127582152,-0.07163176773016745,,5.6628138e-05,9.536743e-07,2.3841858e-07,1.0,-6.804615e-05,-5.6166202e-05,6.804243e-05,1.0,-6.3478947e-06,5.6155026e-05,6.4074993e-06,1.0,58,0.176,0,0,0.0,False,-0.2570778828531757,1.0412107928246603
0.19887637393549085,12:12:40.224994,12:11:39.789671,0,,0.13666813,0.013334215,0.019416094,-0.43251383,-0.13941838,-0.89078295,-0.8570284,0.37045264,0.35814416,0.28006098,0.9183285,-0.27971137,,0.024043366,-0.062213194,0.062360585,-0.10876618,-0.66821384,0.7359755,-0.8231277,0.47564155,0.31020302,-0.5573425,-0.5720623,-0.6017591,,0.09589062,1.3379587,0.44838807,0.99479616,-0.009848638,-0.101408124,-0.07195882,-0.7725401,-0.6308754,-0.07212858,0.6348896,-0.7692286,,-0.09751097,0.24980623,-0.08488025,0.35580412,0.07540243,0.9315138,-0.4628014,0.88015836,0.10552776,-0.8119226,-0.46865308,0.3480603,,0.021037575,0.39719716,-0.42817828,0.18204078,0.7321267,-0.6563929,-0.93013734,-0.088292465,-0.35643926,-0.31891325,0.675422,0.66490555,,0.9281180368243016,0.42519050385617885,0.18000931085000002,0.0568259746843061,-0.883218334483807,1.0619491782417803,-0.4122804229229209,,-1.2346410273351467,-0.3509750409348813,0.14497188844,0.5462423027771859,0.5507817305544904,-0.28707494936139916,0.8667036149084857,,-0.03805254101660637,-0.09251335866352443,0.09127582152,-0.07163176773016745,,5.6628138e-05,9.536743e-07,2.3841858e-07,1.0,-6.804615e-05,-5.6166202e-05,6.804243e-05,1.0,-6.3478947e-06,5.6155026e-05,6.4074993e-06,1.0,66,0.2,0,0,0.0,False,-0.2575545046013441,1.042031556237911
0.22421750403009355,12:12:40.258299,12:11:39.902672,0,,0.13666253,0.013295308,0.019580066,-0.43371525,-0.14053391,-0.8900232,-0.8574025,0.36807123,0.3597008,0.27704173,0.9191158,-0.2801322,,0.024043366,-0.062213194,0.062360585,-0.10876618,-0.66821384,0.7359755,-0.8231277,0.47564155,0.31020302,-0.5573425,-0.5720623,-0.6017591,,0.09589062,1.3379587,0.44838807,0.99479616,-0.009848638,-0.101408124,-0.07195882,-0.7725401,-0.6308754,-0.07212858,0.6348896,-0.7692286,,-0.09752263,0.24988319,-0.085029826,0.35725412,0.07630449,0.93088514,-0.46502596,0.8788768,0.10642579,-0.8100126,-0.47090682,0.3494659,,0.021037575,0.39719716,-0.42817828,0.18204078,0.7321267,-0.6563929,-0.93013734,-0.088292465,-0.35643926,-0.31891325,0.675422,0.66490555,,0.9282029868859181,0.4254530767739025,0.17983042283000003,0.05724535457127515,-0.8802123314889674,1.0616216316041138,-0.41228042292292083,,-1.2346410273351467,-0.3509750409348813,0.14497188844,0.5462423027771859,0.5507817305544904,-0.28707494936139916,0.8667036149084857,,-0.03805254101660637,-0.09251335866352443,0.09127582152,-0.07163176773016745,,5.6628138e-05,9.536743e-07,2.3841858e-07,1.0,-6.804615e-05,-5.6166202e-05,6.804243e-05,1.0,-6.3478947e-06,5.6155026e-05,6.4074993e-06,1.0,77,0.233,0,0,0.0,False,-0.25695872741613357,1.0417418750332343
0.2574954639421776,12:12:40.286407,12:11:39.902672,0,,0.13667911,0.013278246,0.019700363,-0.43525484,-0.14073339,-0.88923967,-0.8581252,0.36363912,0.36247474,0.27234998,0.9208477,-0.2790425,,0.024042457,-0.062213328,0.062360168,-0.10876898,-0.66815865,0.7360253,-0.82312894,0.47566468,0.31016415,-0.55734015,-0.5721075,-0.6017184,,0.09589062,1.3379587,0.44838807,0.99479616,-0.009848638,-0.101408124,-0.07195882,-0.7725401,-0.6308754,-0.07212858,0.6348896,-0.7692286,,-0.097551115,0.24994802,-0.085129924,0.3591739,0.076093115,0.9301634,-0.46859565,0.8766339,0.10922975,-0.80710113,-0.475103,0.3505209,,0.02103853,0.39719686,-0.42817822,0.18204325,0.7320775,-0.6564471,-0.93013597,-0.08831932,-0.35643628,-0.31891593,0.67547184,0.6648537,,0.9282029868859181,0.42566159056150654,0.17969042351000003,0.05724535457127515,-0.875430053997177,1.063521195524719,-0.41048363819544387,,-1.2346333046022724,-0.3509750409348813,0.14497188844,0.5462423027771859,0.5507817305544904,-0.2871566281015397,0.86686695897462,,-0.03805254101660637,-0.09251335866352443,0.09127582152,-0.07163176773016745,,5.6628138e-05,9.536743e-07,2.3841858e-07,1.0,-6.804615e-05,-5.6166202e-05,6.804243e-05,1.0,-6.3478947e-06,5.6155026e-05,6.4074993e-06,1.0,89,0.27,0,0,0.0,False,-0.2561246393568388,1.0420798364386905
0.2855998979648575,12:12:40.325091,12:11:39.902672,0,,0.13669302,0.013254955,0.019836396,-0.43794644,-0.14082181,-0.88790315,-0.85898435,0.35693666,0.36707234,0.2652333,0.923453,-0.27728286,,0.024042875,-0.06221309,0.062361777,-0.10876618,-0.66815376,0.73603004,-0.8231277,0.47566682,0.31016415,-0.5573425,-0.5721114,-0.60171247,,0.09589062,1.3379587,0.44838807,0.99479616,-0.009848638,-0.101408124,-0.07195882,-0.7725401,-0.6308754,-0.07212858,0.6348896,-0.7692286,,-0.09757873,0.2500184,-0.08524623,0.36245355,0.07556276,0.9289336,-0.47382432,0.8732294,0.11384633,-0.80256957,-0.48141536,0.35230854,,0.021037918,0.3971982,-0.42817897,0.18204078,0.7320731,-0.65645266,-0.93013734,-0.08832158,-0.35643205,-0.31891325,0.6754763,0.6648504,,0.9281952641530439,0.42579287702036833,0.17951542436,0.05787442440172872,-0.8679150465100777,1.0661328360164557,-0.4116270466583838,,-1.2346410273351467,-0.3509750409348813,0.14497059215000002,0.5462423027771859,0.5507817305544904,-0.2871566281015397,0.8678470233714256,,-0.03805254101660637,-0.09251335866352443,0.09127582152,-0.07163176773016745,,5.6628138e-05,9.536743e-07,2.3841858e-07,1.0,-6.804615e-05,-5.6166202e-05,6.804243e-05,1.0,-6.3478947e-06,5.6155026e-05,6.4074993e-06,1.0,108,0.327,0,0,0.0,False,-0.25683957197909146,1.0423695176433674
0.32431719393935055,12:12:40.382034,12:11:40.038536,0,,0.13669711,0.013176769,0.020129561,-0.44130427,-0.14706051,-0.8852252,-0.86034906,0.349719,0.37080488,0.25504932,0.9252404,-0.28085583,,0.024039976,-0.062212925,0.062366188,-0.10876898,-0.66815865,0.7360253,-0.82312894,0.47566468,0.31016415,-0.55734015,-0.5721075,-0.6017184,,0.09589062,1.3379587,0.44838807,0.99479616,-0.009848638,-0.101408124,-0.07195882,-0.7725401,-0.6308754,-0.07212858,0.6348896,-0.7692286,,-0.0976141,0.25014916,-0.08551774,0.36664805,0.08119267,0.9268101,-0.48141748,0.86900395,0.11432118,-0.79611963,-0.48809823,0.35770616,,0.021040244,0.39720204,-0.42818174,0.18204325,0.7320775,-0.6564471,-0.93013597,-0.08831932,-0.35643628,-0.31891593,0.67547184,0.6648537,,0.9282802142146603,0.42608634086958885,0.17915894461,0.058084114345213246,-0.8573940360281388,1.0635162054620926,-0.40983026193090666,,-1.2346333046022724,-0.3509750409348813,0.14496540699000002,0.5462423027771859,0.5507817305544904,-0.2871566281015397,0.8678470233714256,,-0.03805254101660637,-0.09251335866352443,0.09127582152,-0.07163176773016745,,5.6628138e-05,9.536743e-07,2.3841858e-07,1.0,-6.804615e-05,-5.6166202e-05,6.804243e-05,1.0,-6.3478947e-06,5.6155026e-05,6.4074993e-06,1.0,120,0.364,0,0,0.0,False,-0.25773323775690704,1.0418384354347932
0.38125213398598135,12:12:40.412034,12:11:40.038536,0,,0.13670126,0.013154596,0.020358816,-0.44395143,-0.14746693,-0.8838329,-0.8616177,0.34106338,0.37588653,0.24601215,0.9284014,-0.27847567,,0.024037935,-0.0622144,0.062369585,-0.108620465,-0.6682539,0.7359607,-0.823202,0.4754853,0.3102453,-0.5572612,-0.5721454,-0.60175544,,0.09589062,1.3379587,0.44838807,0.99479616,-0.009848638,-0.101408124,-0.07195882,-0.7725401,-0.6308754,-0.07212858,0.6348896,-0.7692286,,-0.097640485,0.25028104,-0.08570478,0.37003636,0.080816925,0.9254954,-0.48820493,0.8644802,0.11970772,-0.790398,-0.49612764,0.35934433,,0.021041846,0.397204,-0.4281851,0.1818864,0.7321777,-0.65637887,-0.93013406,-0.088449255,-0.35640895,-0.31901088,0.6753463,0.66493565,,0.928473282536516,0.4264415865818032,0.17889579774000003,0.05787442440172872,-0.8482393905438543,1.0672411933136892,-0.4109736703938466,,-1.2346333046022724,-0.35099048640062974,0.14496151812000002,0.5460326128337014,0.5507817305544904,-0.28715662810153975,0.8675203352391571,,-0.03805254101660637,-0.09251335866352443,0.09127582152,-0.07163176773016745,,5.6628138e-05,9.536743e-07,2.3841858e-07,1.0,-6.804615e-05,-5.6166202e-05,6.804243e-05,1.0,-6.3478947e-06,5.6155026e-05,6.4074993e-06,1.0,128,0.389,0,0,0.0,False,-0.2571374605716965,1.0412590730254399
0.4112455960130319,12:12:40.446208,12:11:40.038536,0,,0.13666822,0.013124153,0.020660117,-0.44544375,-0.1428336,-0.883843,-0.8624799,0.33333728,0.38080806,0.24022555,0.9319253,-0.2716741,,0.02403643,-0.062213298,0.062375903,-0.10846313,-0.6683434,0.7359026,-0.82326525,0.47531453,0.3103392,-0.5571984,-0.5721827,-0.60177803,,0.09589062,1.3379587,0.44838807,0.99479616,-0.009848638,-0.101408124,-0.07195882,-0.7725401,-0.6308754,-0.07212858,0.6348896,-0.7692286,,-0.097637,0.25045404,-0.085955516,0.3720016,0.075450145,0.9251606,-0.49259222,0.86081547,0.12786585,-0.786745,-0.5032932,0.35739088,,0.021042537,0.39720982,-0.42818823,0.18172279,0.732272,-0.6563189,-0.9301397,-0.08857406,-0.35636318,-0.31908762,0.6752276,0.6650194,,0.928921201043221,0.42702851428024424,0.17858857701000003,0.0576647344582442,-0.8427739305532367,1.0749546094467763,-0.41179039072451795,,-1.2346487500680208,-0.35099048640062974,0.14495503667,0.5458229228902169,0.5507817305544904,-0.28715662810153975,0.8671936471068885,,-0.03805254101660637,-0.09251335866352443,0.09127582152,-0.07163176773016745,,5.6628138e-05,9.536743e-07,2.3841858e-07,1.0,-6.804615e-05,-5.6166202e-05,6.804243e-05,1.0,-6.3478947e-06,5.6155026e-05,6.4074993e-06,1.0,140,0.425,0,0,0.0,False,-0.2575545046013441,1.0406797106160863
0.44542469293810427,12:12:40.479718,12:11:40.038536,0,,0.1366325,0.01311481,0.020903856,-0.44690603,-0.13885462,-0.8837389,-0.86295766,0.32725555,0.38497794,0.2357524,0.9346781,-0.2660781,,0.0240295,-0.06221385,0.062386394,-0.10853925,-0.6683192,0.73591334,-0.8233269,0.4752944,0.31020653,-0.55709255,-0.5722277,-0.6018333,,0.09589062,1.3379587,0.44838807,0.99479616,-0.009848638,-0.101408124,-0.07195882,-0.7725401,-0.6308754,-0.07212858,0.6348896,-0.7692286,,-0.09762435,0.25060573,-0.0861494,0.37383834,0.07089769,0.9247802,-0.49583504,0.8579115,0.13466787,-0.78383195,-0.50888246,0.35587376,,0.021048103,0.3972184,-0.42819554,0.18178537,0.7322538,-0.65632194,-0.9300868,-0.088624045,-0.35648888,-0.31920624,0.6752408,0.664949,,0.9293536740841775,0.4275459373828173,0.17834876336000002,0.058084114345213246,-0.8385381990605081,1.0808120308082112,-0.41113701445998085,,-1.2346333046022724,-0.35099048640062974,0.14494207377,0.5458229228902169,0.5506450940547251,-0.28720856767812447,0.8662135827100829,,-0.03805254101660637,-0.09251335866352443,0.09127582152,-0.07163176773016745,,5.6628138e-05,9.536743e-07,2.3841858e-07,1.0,-6.804615e-05,-5.6166202e-05,6.804243e-05,1.0,-6.3478947e-06,5.6155026e-05,6.4074993e-06,1.0,151,0.458,0,0,0.0,False,-0.25785239319394915,1.0411142324231015
0.47894400893710554,12:12:40.514076,12:11:40.038536,0,,0.13660902,0.013130695,0.021130517,-0.44841355,-0.13529082,-0.883528,-0.8636574,0.32022896,0.38929343,0.23026335,0.9376298,-0.2604399,,0.024029486,-0.062215026,0.06239283,-0.10891062,-0.6680815,0.7360743,-0.82325304,0.47563106,0.30988634,-0.5571292,-0.5722255,-0.60180146,,0.09589062,1.3379587,0.44838807,0.99479616,-0.009848638,-0.101408124,-0.07195882,-0.7725401,-0.6308754,-0.07212858,0.6348896,-0.7692286,,-0.097620875,0.25076535,-0.086312786,0.3758006,0.06668624,0.92429805,-0.49990547,0.8544251,0.14160626,-0.7803002,-0.5152773,0.3544303,,0.021047315,0.39722273,-0.4282004,0.18215801,0.7320159,-0.65648395,-0.9300323,-0.08844028,-0.3566767,-0.31915265,0.67552274,0.66468835,,0.9297938698580083,0.42810969688263567,0.17813228293000002,0.058084114345213246,-0.8333460120694213,1.087033029205739,-0.4108103263277123,,-1.2346410273351467,-0.35099048640062974,0.14493559232,0.5462423027771859,0.5505084575549596,-0.2872605072547092,0.8658868945778143,,-0.03805254101660637,-0.09251335866352443,0.09127582152,-0.07163176773016745,,5.6628138e-05,9.536743e-07,2.3841858e-07,1.0,-6.804615e-05,-5.6166202e-05,6.804243e-05,1.0,-6.3478947e-06,5.6155026e-05,6.4074993e-06,1.0,163,0.495,0,0,0.0,False,-0.2571374605716965,1.0406314304153068
0.5132598900236189,12:12:40.548131,12:11:40.212784,0,,0.13660531,0.013144091,0.021389514,-0.4506703,-0.13583773,-0.8822949,-0.864447,0.31305343,0.39335608,0.22277287,0.939971,-0.25850838,,0.024027847,-0.062213745,0.062396288,-0.10890898,-0.66808367,0.7360726,-0.82324946,0.4756332,0.30989268,-0.55713487,-0.57222134,-0.6018002,,0.09589062,1.3379587,0.44838807,0.99479616,-0.009848638,-0.101408124,-0.07195882,-0.7725401,-0.6308754,-0.07212858,0.6348896,-0.7692286,,-0.097640164,0.25094372,-0.08650008,0.37868613,0.06660913,0.92312515,-0.50533104,0.850497,0.14592929,-0.775395,-0.5217452,0.3557311,,0.0210485,0.3972264,-0.42820162,0.18215708,0.73201746,-0.65648246,-0.9300347,-0.08843545,-0.35667166,-0.31914622,0.67552173,0.66469246,,0.9301491155702226,0.42875068371119635,0.1778769138,0.058293804288697765,-0.826104277581853,1.089459111804166,-0.40983026193090655,,-1.2346410273351467,-0.3509827636677555,0.14493170345,0.5462423027771859,0.5505084575549596,-0.2872605072547092,0.8658868945778143,,-0.03805254101660637,-0.09251335866352443,0.09127582152,-0.07163176773016745,,5.6628138e-05,9.536743e-07,2.3841858e-07,1.0,-6.804615e-05,-5.6166202e-05,6.804243e-05,1.0,-6.3478947e-06,5.6155026e-05,6.4074993e-06,1.0,171,0.52,0,0,0.0,False,-0.25791197091247,1.0413556334269989
0.5473497270140797,12:12:40.573885,12:11:40.212784,0,,0.1366334,0.01315777,0.021580115,-0.45225096,-0.14132363,-0.88062286,-0.8662281,0.30474734,0.3959521,0.21241006,0.9418899,-0.26024076,,0.024025097,-0.062214654,0.062400818,-0.10891341,-0.66808647,0.73606944,-0.8232543,0.4756289,0.30988628,-0.5571268,-0.5722216,-0.6018075,,0.09589062,1.3379587,0.44838807,0.99479616,-0.009848638,-0.101408124,-0.07195882,-0.7725401,-0.6308754,-0.07212858,0.6348896,-0.7692286,,-0.09768479,0.25107738,-0.08663218,0.38110667,0.071416944,0.9217686,-0.5133863,0.84551674,0.14675128,-0.76889026,-0.52915126,0.35889655,,0.021050671,0.39722967,-0.42820525,0.18216047,0.7320203,-0.65647835,-0.9300309,-0.08843802,-0.3566809,-0.3191553,0.6755183,0.6646916,,0.9303653520907009,0.429152265820656,0.17766432224,0.055987214910368004,-0.8159931765992103,1.0898721333855304,-0.4101569500631752,,-1.2346333046022724,-0.35099048640062974,0.14492651829000003,0.5462423027771859,0.5505084575549596,-0.2872605072547092,0.8658868945778143,,-0.03805254101660637,-0.09251335866352443,0.09127582152,-0.07163176773016745,,5.6628138e-05,9.536743e-07,2.3841858e-07,1.0,-6.804615e-05,-5.6166202e-05,6.804243e-05,1.0,-6.3478947e-06,5.6155026e-05,6.4074993e-06,1.0,183,0.557,0,0,0.0,False,-0.2566012611050077,1.0413073532262194
0.5731048459419981,12:12:40.608686,12:11:40.212784,0,,0.13665146,0.01317656,0.02176112,-0.455404,-0.14415827,-0.87853605,-0.86742723,0.2940209,0.4013999,0.20044279,0.9448651,-0.25894508,,0.0240236,-0.062214386,0.062404394,-0.10891341,-0.66808647,0.73606944,-0.8232543,0.4756289,0.30988628,-0.5571268,-0.5722216,-0.6018075,,0.09589062,1.3379587,0.44838807,0.99479616,-0.009848638,-0.101408124,-0.07195882,-0.7725401,-0.6308754,-0.07212858,0.6348896,-0.7692286,,-0.097718276,0.25120887,-0.08675478,0.38527045,0.0733551,0.91988355,-0.52201456,0.83933765,0.15170081,-0.7609649,-0.5386384,0.3616644,,0.0210517,0.39723277,-0.42820734,0.18216047,0.7320203,-0.65647835,-0.9300309,-0.08843802,-0.3566809,-0.3191553,0.6755183,0.6646916,,0.9305661431454307,0.4294302842041281,0.17744913810000001,0.05556783502339895,-0.8038325281200862,1.0925344659381957,-0.41146370259224946,,-1.2346333046022724,-0.35099048640062974,0.14492262942,0.5462423027771859,0.5505084575549596,-0.28726050725470914,0.8662135827100829,,-0.03805254101660637,-0.09251335866352443,0.09127582152,-0.07163176773016745,,5.6628138e-05,9.536743e-07,2.3841858e-07,1.0,-6.804615e-05,-5.6166202e-05,6.804243e-05,1.0,-6.3478947e-06,5.6155026e-05,6.4074993e-06,1.0,194,0.589,0,0,0.0,False,-0.25725661600873906,1.0417901552340136
0.6078972079558298,12:12:40.647488,12:11:40.212784,0,,0.13661383,0.013156161,0.022038668,-0.45817903,-0.14710462,-0.87660265,-0.8682859,0.2850327,0.40600008,0.19013593,0.9471623,-0.25832486,,0.024019577,-0.0622151,0.062410474,-0.10898677,-0.66823775,0.7359212,-0.82331455,0.475535,0.3098702,-0.55702335,-0.57212293,-0.6019969,,0.09589062,1.3379587,0.44838807,0.99479616,-0.009848638,-0.101408124,-0.07195882,-0.7725401,-0.6308754,-0.07212858,0.6348896,-0.7692286,,-0.097707465,0.25137416,-0.08698155,0.38892546,0.075564854,0.91816497,-0.5293123,0.83404225,0.1555698,-0.7540328,-0.5465011,0.36437768,,0.021054938,0.3972375,-0.4282119,0.18222061,0.73215854,-0.6563075,-0.9299793,-0.08840286,-0.35682407,-0.31927124,0.6753731,0.6647835,,0.9310526753165069,0.4297778071834682,0.17713802850000002,0.05556783502339895,-0.7934481541379126,1.0937047965938538,-0.41113701445998085,,-1.234625581869398,-0.35099048640062974,0.14491485168,0.5462423027771859,0.5503718210551941,-0.2870674106108722,0.8670303030407542,,-0.03805254101660637,-0.09251335866352443,0.09127582152,-0.07163176773016745,,5.6628138e-05,9.536743e-07,2.3841858e-07,1.0,-6.804615e-05,-5.6166202e-05,6.804243e-05,1.0,-6.3478947e-06,5.6155026e-05,6.4074993e-06,1.0,206,0.626,0,0,0.0,False,-0.2570183051346544,1.04212811663947
0.6467145589413121,12:12:40.678305,12:11:40.212784,0,,0.13659558,0.013173938,0.022250772,-0.46089292,-0.15518996,-0.87378126,-0.8690201,0.2785683,0.40890568,0.17994967,0.94779515,-0.2632533,,0.024014957,-0.062213328,0.062421143,-0.10898513,-0.66823983,0.73591954,-0.823311,0.47553718,0.3098765,-0.55702895,-0.57211876,-0.6019957,,0.09589062,1.3379587,0.44838807,0.99479616,-0.009848638,-0.101408124,-0.07195882,-0.7725401,-0.6308754,-0.07212858,0.6348896,-0.7692286,,-0.097707756,0.25152567,-0.08713216,0.3925157,0.083179146,0.91597635,-0.5364381,0.8296707,0.15453354,-0.7471048,-0.55202144,0.37027922,,0.02105818,0.39724743,-0.42821732,0.18221968,0.7321601,-0.656306,-0.9299817,-0.08839803,-0.35681903,-0.3192648,0.67537206,0.6647876,,0.931469702891715,0.43011760742993405,0.17690599259,0.05556783502339895,-0.7832004166555047,1.0890239971229476,-0.4122804229229208,,-1.234625581869398,-0.3509827636677555,0.14490318507000002,0.5462423027771859,0.5503718210551941,-0.2870674106108722,0.8673569911730228,,-0.03805254101660637,-0.09251335866352443,0.09127582152,-0.07163176773016745,,5.6628138e-05,9.536743e-07,2.3841858e-07,1.0,-6.804615e-05,-5.6166202e-05,6.804243e-05,1.0,-6.3478947e-06,5.6155026e-05,6.4074993e-06,1.0,214,0.651,0,0,0.0,False,-0.2571374605716965,1.0415004740293372
0.6775236539542675,12:12:40.711789,12:11:40.372919,0,,0.1365722,0.013150707,0.02250582,-0.4630457,-0.156187,-0.8724644,-0.86954796,0.27072024,0.4130339,0.17168319,0.9499032,-0.26116788,,0.024011888,-0.062212523,0.062431097,-0.10898237,-0.6682349,0.7359244,-0.82330966,0.47553933,0.30987662,-0.5570314,-0.5721227,-0.60198975,,0.09589062,1.3379587,0.44838807,0.99479616,-0.009848638,-0.101408124,-0.07195882,-0.7725401,-0.6308754,-0.07212858,0.6348896,-0.7692286,,-0.09770921,0.25167394,-0.087342285,0.39538378,0.08353283,0.91470975,-0.54217005,0.8250873,0.15900493,-0.74143326,-0.55879617,0.37151513,,0.021059968,0.39725602,-0.42822295,0.18221723,0.7321557,-0.65631163,-0.9299831,-0.0884003,-0.35681483,-0.31926215,0.67537653,0.6647844,,0.9318403940696778,0.4304960213407711,0.17662858653000002,0.05556783502339895,-0.7750022266695782,1.0915686205370458,-0.411790390724518,,-1.2346333046022724,-0.3509827636677555,0.14489281475000002,0.5462423027771859,0.5503718210551941,-0.2870674106108722,0.8670303030407542,,-0.03805254101660637,-0.09251335866352443,0.09127582152,-0.07163176773016745,,5.6628138e-05,9.536743e-07,2.3841858e-07,1.0,-6.804615e-05,-5.6166202e-05,6.804243e-05,1.0,-6.3478947e-06,5.6155026e-05,6.4074993e-06,1.0,226,0.688,0,0,0.0,False,-0.25779281547542787,1.041403913627778
0.7110090079950169,12:12:40.743771,12:11:40.372919,0,,0.13657875,0.01317668,0.02275914,-0.46752188,-0.1617217,-0.8690623,-0.8697912,0.25960645,0.41960442,0.15775502,0.952077,-0.26203576,,0.024007566,-0.06221279,0.062441945,-0.10898399,-0.6680525,0.7360898,-0.8233133,0.47561315,0.30975372,-0.55702573,-0.57227445,-0.60185075,,0.09589062,1.3379587,0.44838807,0.99479616,-0.009848638,-0.101408124,-0.07195882,-0.7725401,-0.6308754,-0.07212858,0.6348896,-0.7692286,,-0.09773747,0.25185803,-0.087516055,0.40109685,0.08820686,0.911779,-0.5513224,0.81813806,0.16338202,-0.7315497,-0.5682162,0.376783,,0.021062898,0.39726478,-0.4282301,0.18221815,0.7319933,-0.6564925,-0.9299807,-0.08849255,-0.35679817,-0.31926855,0.67554045,0.6646147,,0.9321493033846467,0.4309130489159792,0.1763472916,0.0568259746843061,-0.7607920306939724,1.0907627522511725,-0.40950357379863805,,-1.2346333046022724,-0.35099048640062974,0.14488114814000003,0.5462423027771859,0.5503718210551941,-0.2873124468312939,0.8665402708423514,,-0.03805254101660637,-0.09251335866352443,0.09127582152,-0.07163176773016745,,5.6628138e-05,9.536743e-07,2.3841858e-07,1.0,-6.804615e-05,-5.6166202e-05,6.804243e-05,1.0,-6.3478947e-06,5.6155026e-05,6.4074993e-06,1.0,241,0.733,0,0,0.0,False,-0.2566608388235285,1.0412107928246603
0.7429884410230443,12:12:40.787395,12:11:40.372919,0,,0.13657561,0.01314041,0.023177058,-0.473621,-0.17080252,-0.8640079,-0.86954695,0.24651176,0.42792535,0.13989732,0.95396984,-0.26527393,,0.024001122,-0.062213805,0.062456846,-0.109056205,-0.66813654,0.7360028,-0.82337594,0.4755446,0.3096924,-0.55691904,-0.57223314,-0.6019887,,0.09589062,1.3379587,0.44838807,0.99479616,-0.009848638,-0.101408124,-0.07195882,-0.7725401,-0.6308754,-0.07212858,0.6348896,-0.7692286,,-0.09777471,0.25210178,-0.08785544,0.4088112,0.09631994,0.90752184,-0.562628,0.80955875,0.16752431,-0.7185563,-0.579083,0.38514897,,0.021067426,0.39727652,-0.42824048,0.18227676,0.73207194,-0.6563885,-0.9299281,-0.08849362,-0.35693493,-0.31938824,0.6754551,0.66464394,,0.9324891036311126,0.4314304720185522,0.17587155317000003,0.05913256406263587,-0.7424827397254035,1.087022740555109,-0.408360165335698,,-1.2346333046022724,-0.350998209133504,0.14486429637,0.5462423027771859,0.5502351845554286,-0.2872010289275974,0.8665402708423514,,-0.03805254101660637,-0.09251335866352443,0.09127582152,-0.07163176773016745,,5.6628138e-05,9.536743e-07,2.3841858e-07,1.0,-6.804615e-05,-5.6166202e-05,6.804243e-05,1.0,-6.3478947e-06,5.6155026e-05,6.4074993e-06,1.0,249,0.757,0,0,0.0,False,-0.25779281547542787,1.0405348700137478
0.7866184050217271,12:12:40.817733,12:11:40.372919,0,,0.1365561,0.0130999535,0.023571163,-0.47762942,-0.17647788,-0.8606542,-0.8699049,0.23217553,0.43515533,0.12302756,0.9565302,-0.2644128,,0.023996852,-0.062213566,0.06247127,-0.10912125,-0.6681528,0.73597836,-0.8234323,0.4755079,0.30959877,-0.55682284,-0.57224464,-0.60206676,,0.09589062,1.3379587,0.44838807,0.99479616,-0.009848638,-0.101408124,-0.07195882,-0.7725401,-0.6308754,-0.07212858,0.6348896,-0.7692286,,-0.09779372,0.25232717,-0.08818127,0.4143224,0.10091592,0.90451807,-0.57378477,0.80041224,0.17352614,-0.7064758,-0.59089446,0.38953272,,0.021069858,0.3972884,-0.42824936,0.18232952,0.7320897,-0.656354,-0.92988074,-0.088523515,-0.35705099,-0.31949612,0.6754319,0.6646157,,0.9331378131925475,0.4319324496553768,0.17530377815,0.058713184175666816,-0.7196644442645749,1.088835635672947,-0.41195373479065217,,-1.2346487500680208,-0.350998209133504,0.14484874089000002,0.5462423027771859,0.5500985480556632,-0.2871712897640416,0.8660502386439486,,-0.03805254101660637,-0.09251335866352443,0.09127582152,-0.07163176773016745,,5.6628138e-05,9.536743e-07,2.3841858e-07,1.0,-6.804615e-05,-5.6166202e-05,6.804243e-05,1.0,-6.3478947e-06,5.6155026e-05,6.4074993e-06,1.0,265,0.806,0,0,0.0,False,-0.2580311263495121,1.040438309612189
0.8169569909805432,12:12:40.860159,12:11:40.516184,0,,0.13652922,0.01306811,0.023967952,-0.48116443,-0.1836194,-0.8571841,-0.8705991,0.21459582,0.44272557,0.10265508,0.95928746,-0.26311475,,0.02399274,-0.062213954,0.06248015,-0.10919182,-0.66805875,0.7360533,-0.82349133,0.47551736,0.30942735,-0.55672175,-0.5723467,-0.6020633,,0.09589062,1.3379587,0.44838807,0.99479616,-0.009848638,-0.101408124,-0.07195882,-0.7725401,-0.6308754,-0.07212858,0.6348896,-0.7692286,,-0.09780518,0.25256097,-0.08850438,0.41966495,0.10676786,0.9013778,-0.5874789,0.78895116,0.1800684,-0.69191754,-0.60510886,0.393819,,0.021072827,0.39729553,-0.42825535,0.18238719,0.73200905,-0.6564279,-0.9298305,-0.08860723,-0.35716102,-0.31960937,0.6755083,0.66448355,,0.9336243453636236,0.43215640890872936,0.17495637243,0.05703566462779063,-0.7051809752894381,1.0915641536261464,-0.4096669178647723,,-1.2346487500680208,-0.350998209133504,0.14483837057,0.5462423027771859,0.5499619115558978,-0.2873049080807669,0.8652335183132771,,-0.03805254101660637,-0.09251335866352443,0.09127582152,-0.07163176773016745,,5.6628138e-05,9.536743e-07,2.3841858e-07,1.0,-6.804615e-05,-5.6166202e-05,6.804243e-05,1.0,-6.3478947e-06,5.6155026e-05,6.4074993e-06,1.0,273,0.831,0,0,0.0,False,-0.2575545046013441,1.0402934690098506
0.8593597719445825,12:12:40.889303,12:11:40.516184,0,,0.13648356,0.012989312,0.024298087,-0.48310426,-0.19009537,-0.85467774,-0.87083405,0.2056371,0.44649926,0.09087598,0.959988,-0.26488566,,0.023989,-0.062214624,0.062487006,-0.10919623,-0.6680615,0.7360501,-0.8234963,0.47551304,0.30942094,-0.5567137,-0.5723469,-0.60207045,,0.09589062,1.3379587,0.44838807,0.99479616,-0.009848638,-0.101408124,-0.07195882,-0.7725401,-0.6308754,-0.07212858,0.6348896,-0.7692286,,-0.09779452,0.25271612,-0.08880948,0.4226599,0.112634726,0.89926195,-0.5952718,0.78270006,0.18174718,-0.6833814,-0.61212254,0.39786422,,0.021075683,0.39730087,-0.42826036,0.18239057,0.7320119,-0.6564238,-0.92982674,-0.0886098,-0.35717025,-0.31961846,0.67550486,0.66448265,,0.9341031548018256,0.4323340317648365,0.17456878172,0.055987214910368004,-0.6934302363096103,1.090395124142732,-0.40917688566636945,,-1.2346410273351467,-0.3510059318663782,0.14483059283000002,0.5462423027771859,0.5499619115558978,-0.2873049080807669,0.8652335183132771,,-0.03805254101660637,-0.09251335866352443,0.09127582152,-0.07163176773016745,,5.6628138e-05,9.536743e-07,2.3841858e-07,1.0,-6.804615e-05,-5.6166202e-05,6.804243e-05,1.0,-6.3478947e-06,5.6155026e-05,6.4074993e-06,1.0,284,0.864,0,0,0.0,False,-0.25779281547542787,1.040438309612189
0.8884863969869912,12:12:40.915447,12:11:40.516184,0,,0.13643321,0.0129122585,0.024605542,-0.48498744,-0.19519371,-0.8524591,-0.87070584,0.19873223,0.44986334,0.08160058,0.96041906,-0.2663389,,0.02398727,-0.06221303,0.062493324,-0.10919182,-0.66805875,0.7360533,-0.82349133,0.47551736,0.30942735,-0.55672175,-0.5723467,-0.6020633,,0.09589062,1.3379587,0.44838807,0.99479616,-0.009848638,-0.101408124,-0.07195882,-0.7725401,-0.6308754,-0.07212858,0.6348896,-0.7692286,,-0.097777,0.25285792,-0.08909685,0.42538962,0.11727295,0.89737993,-0.6011642,0.7778132,0.18332544,-0.67649484,-0.61745745,0.40137395,,0.0210766,0.39730695,-0.42826304,0.18238719,0.73200905,-0.6564279,-0.9298305,-0.08860723,-0.35716102,-0.31960937,0.6755083,0.66448355,,0.9345587960414048,0.43253482281956634,0.17420582052000003,0.055777524966883485,-0.6838656813260294,1.0889668126149463,-0.4116270466583837,,-1.2346487500680208,-0.350998209133504,0.14482411138,0.5462423027771859,0.5498252750561323,-0.28719349017707047,0.8655602064455458,,-0.03805254101660637,-0.09251335866352443,0.09127582152,-0.07163176773016745,,5.6628138e-05,9.536743e-07,2.3841858e-07,1.0,-6.804615e-05,-5.6166202e-05,6.804243e-05,1.0,-6.3478947e-06,5.6155026e-05,6.4074993e-06,1.0,296,0.901,0,0,0.0,False,-0.25719703829021734,1.0406314304153068
0.9146384699270129,12:12:40.954343,12:11:40.516184,0,,0.13640714,0.012878299,0.024950176,-0.48873404,-0.20178372,-0.84877694,-0.87000716,0.18522215,0.45692486,0.065012276,0.9617567,-0.2660776,,0.023983896,-0.062214863,0.06249827,-0.1092668,-0.66808766,0.736016,-0.82355523,0.47547194,0.3093272,-0.5566127,-0.5723506,-0.6021604,,0.09589062,1.3379587,0.44838807,0.99479616,-0.009848638,-0.101408124,-0.07195882,-0.7725401,-0.6308754,-0.07212858,0.6348896,-0.7692286,,-0.09778458,0.25305626,-0.089381866,0.4306745,0.12293711,0.89409506,-0.61133915,0.76851636,0.18880431,-0.6639156,-0.6279085,0.40613663,,0.02107934,0.39731008,-0.42826775,0.18244824,0.7320385,-0.65637815,-0.9297765,-0.08863518,-0.3572947,-0.31973168,0.67547274,0.66446084,,0.9350376054796067,0.4327665048057931,0.17381693352000002,0.055987214910368004,-0.6673326648544111,1.089207274611294,-0.4121170788567865,,-1.2346410273351467,-0.3510059318663782,0.14481762993000002,0.5462423027771859,0.5498252750561323,-0.287275168917211,0.86572355051168,,-0.03805254101660637,-0.09251335866352443,0.09127582152,-0.07163176773016745,,5.6628138e-05,9.536743e-07,2.3841858e-07,1.0,-6.804615e-05,-5.6166202e-05,6.804243e-05,1.0,-6.3478947e-06,5.6155026e-05,6.4074993e-06,1.0,304,0.925,0,0,0.0,False,-0.25791197091247,1.039279584793482
0.9535692100180313,12:12:40.981739,12:11:40.516184,0,,0.13638993,0.012864307,0.025304556,-0.49204963,-0.2077649,-0.84541166,-0.86941147,0.16729647,0.46490395,0.044843674,0.96376634,-0.2629513,,0.023982085,-0.06221291,0.06250727,-0.109259635,-0.66820014,0.7359148,-0.82354903,0.47542796,0.30941126,-0.5566231,-0.5722559,-0.6022407,,0.09589062,1.3379587,0.44838807,0.99479616,-0.009848638,-0.101408124,-0.07195882,-0.7725401,-0.6308754,-0.07212858,0.6348896,-0.7692286,,-0.09780075,0.25327593,-0.089660324,0.43585324,0.12768441,0.8909145,-0.6239236,0.75628763,0.19684604,-0.64865345,-0.6416586,0.4092957,,0.021079987,0.39731854,-0.42827186,0.18244241,0.73213845,-0.65626824,-0.9297817,-0.088576496,-0.35729575,-0.3197199,0.6753721,0.66456884,,0.9356090877122993,0.4329904640591456,0.17340730588000003,0.05472907524946085,-0.647110462889126,1.093137109899364,-0.41277045512132365,,-1.234656472800895,-0.350998209133504,0.14480855590000002,0.5462423027771859,0.5498252750561323,-0.28711181143692993,0.86572355051168,,-0.03805254101660637,-0.09251335866352443,0.09127582152,-0.07163176773016745,,5.6628138e-05,9.536743e-07,2.3841858e-07,1.0,-6.804615e-05,-5.6166202e-05,6.804243e-05,1.0,-6.3478947e-06,5.6155026e-05,6.4074993e-06,1.0,316,0.962,0,0,0.0,False,-0.256541683386486,1.0397623868012766
0.980913002975285,12:12:41.021951,12:11:40.675370,0,,0.1363577,0.012847751,0.025691763,-0.4966263,-0.22164169,-0.83918846,-0.8677113,0.15013185,0.47385392,0.020963132,0.9635016,-0.2668804,,0.023976073,-0.062213298,0.06251824,-0.10933298,-0.6682312,0.7358758,-0.8236093,0.47538465,0.30931744,-0.5565196,-0.57225555,-0.60233665,,0.09589062,1.3379587,0.44838807,0.99479616,-0.009848638,-0.101408124,-0.07195882,-0.7725401,-0.6308754,-0.07212858,0.6348896,-0.7692286,,-0.09780514,0.25351524,-0.089966856,0.4426885,0.14053293,0.88559437,-0.6380569,0.7432919,0.20099886,-0.63000816,-0.6540395,0.41871476,,0.021084597,0.39732742,-0.42827922,0.18250252,0.73216945,-0.656217,-0.92973,-0.088599585,-0.35742444,-0.3198358,0.67533547,0.66455024,,0.9362732427394826,0.43307541412076206,0.17294971551000002,0.05451938530597633,-0.6227891659308775,1.0889053624082485,-0.4119537347906522,,-1.2346487500680208,-0.350998209133504,0.14479559300000003,0.5462423027771859,0.549688638556367,-0.28708207227337396,0.8655602064455458,,-0.03805254101660637,-0.09251335866352443,0.09127582152,-0.07163176773016745,,5.6628138e-05,9.536743e-07,2.3841858e-07,1.0,-6.804615e-05,-5.6166202e-05,6.804243e-05,1.0,-6.3478947e-06,5.6155026e-05,6.4074993e-06,1.0,327,0.995,0,0,0.0,False,-0.2571374605716965,1.0394727055965998
1.0211778610246256,12:12:41.046684,12:11:40.675370,0,,0.13633122,0.012835607,0.025889337,-0.4985764,-0.22601122,-0.83686346,-0.8667809,0.1417959,0.47810555,0.0106064975,0.9637493,-0.26659822,,0.02397088,-0.062213194,0.06253219,-0.10940078,-0.66831243,0.73579186,-0.8236669,0.47532052,0.30926248,-0.55642104,-0.57221395,-0.60246736,,0.09589062,1.3379587,0.44838807,0.99479616,-0.009848638,-0.101408124,-0.07195882,-0.7725401,-0.6308754,-0.07212858,0.6348896,-0.7692286,,-0.09779762,0.2536347,-0.09012674,0.4456293,0.14438236,0.8834978,-0.64404,0.7371856,0.20437685,-0.6217934,-0.6600842,0.4214995,,0.021087985,0.39733902,-0.42828804,0.18255773,0.7322452,-0.6561171,-0.9296811,-0.088597976,-0.35755193,-0.31994635,0.67525357,0.6645803,,0.9366516566503197,0.43315264144950427,0.17272416105000002,0.05451938530597633,-0.6122681554489386,1.0889024515383832,-0.41179039072451806,,-1.234656472800895,-0.350998209133504,0.14478003752000002,0.5462423027771859,0.5495520020566015,-0.28697065436967756,0.8655602064455458,,-0.03805254101660637,-0.09251335866352443,0.09127582152,-0.07163176773016745,,5.6628138e-05,9.536743e-07,2.3841858e-07,1.0,-6.804615e-05,-5.6166202e-05,6.804243e-05,1.0,-6.3478947e-06,5.6155026e-05,6.4074993e-06,1.0,344,1.047,0,0,0.0,False,-0.25826943722359585,1.0386036619825694
1.045893513946794,12:12:41.100491,12:11:40.675370,0,,0.13622329,0.012848645,0.026508212,-0.5062601,-0.24326229,-0.8273597,-0.8619594,0.11274591,0.4942817,-0.026958644,0.96338546,-0.266761,,0.02393046,-0.06224341,0.062547624,-0.10991325,-0.6684313,0.73560756,-0.82407993,0.47506696,0.30855083,-0.5557078,-0.5722857,-0.603057,,0.09584937,1.3379623,0.44838503,0.9948011,-0.0097954245,-0.10136467,-0.071890295,-0.77254075,-0.6308824,-0.07212858,0.6348896,-0.7692286,,-0.097714745,0.25404772,-0.09060431,0.45704564,0.1599136,0.8749497,-0.6646043,0.71515465,0.21645993,-0.59110945,-0.6804274,0.4331376,,0.021165052,0.3973443,-0.4283255,0.18304223,0.7323486,-0.6558666,-0.9293121,-0.088762075,-0.35846943,-0.32074067,0.6751199,0.6643332,,0.9377714529170822,0.43339204616860527,0.17199694236000002,0.055777524966883485,-0.5738732990148498,1.0867533308298694,-0.41032029412930954,,-1.2347259773967632,-0.3510059318663782,0.1447696672,0.5462423027771859,0.5485955465582434,-0.2867624802247865,0.8644167979826057,,-0.03805254101660637,-0.09251335866352443,0.09127582152,-0.07163176773016745,,1.5564263e-05,-3.33786e-06,4.4107437e-06,1.0,-1.5065074e-05,-1.2438744e-05,1.5057623e-05,0.99999994,-1.3709068e-06,1.2427568e-05,1.4305115e-06,1.0,352,1.073,0,0,0.0,False,-0.2580907040680329,1.0394727055965998
1.0996258240193129,12:12:41.132930,12:11:40.675370,0,,0.13616882,0.012802839,0.026782274,-0.5090415,-0.24522029,-0.82507193,-0.8600165,0.10555369,0.49922943,-0.035331756,0.96370393,-0.26462474,,0.023939133,-0.062240727,0.062550604,-0.10995291,-0.6685325,0.7355097,-0.8241188,0.4750015,0.30854762,-0.55564225,-0.57222176,-0.60317814,,0.09584937,1.3379623,0.44838503,0.9948011,-0.0097954245,-0.10136467,-0.071890295,-0.77254075,-0.6308824,-0.07212858,0.6348896,-0.7692286,,-0.09768831,0.2541917,-0.090846695,0.46068826,0.16142431,0.87275916,-0.668516,0.70992434,0.22157134,-0.58382595,-0.68552876,0.43496853,,0.021156052,0.3973474,-0.42832458,0.18307357,0.73244137,-0.6557543,-0.9292805,-0.08874173,-0.35855627,-0.32081422,0.6750219,0.66439724,,0.9382425396224099,0.43357739175758664,0.17169879566000001,0.0576647344582442,-0.5651285630298617,1.0873003865665112,-0.41456723984880084,,-1.2348032047255053,-0.35099048640062974,0.1447696672,0.5462423027771859,0.5484589100584779,-0.2865693835809496,0.8642534539164715,,-0.03805254101660637,-0.09251335866352443,0.09127582152,-0.07163176773016745,,1.5564263e-05,-3.33786e-06,4.4107437e-06,1.0,-1.5065074e-05,-1.2438744e-05,1.5057623e-05,0.99999994,-1.3709068e-06,1.2427568e-05,1.4305115e-06,1.0,364,1.109,0,0,0.0,False,-0.2586269035347226,1.039376145195041
1.1321308399783447,12:12:41.171604,12:11:40.675370,0,,0.13617466,0.012837306,0.026989698,-0.5115844,-0.2577556,-0.8196604,-0.8578385,0.0988892,0.5043156,-0.04893455,0.9611361,-0.27170283,,0.023942024,-0.062241264,0.062551916,-0.10994623,-0.6685157,0.73552597,-0.8241186,0.47500592,0.3085414,-0.5556438,-0.57223785,-0.60316145,,0.09584937,1.3379623,0.44838503,0.9948011,-0.0097954245,-0.10136467,-0.071890295,-0.77254075,-0.6308824,-0.07212858,0.6348896,-0.7692286,,-0.097711176,0.25435245,-0.0909804,0.4645865,0.17374523,0.8683156,-0.67564756,0.7033973,0.22075476,-0.57241577,-0.689235,0.44417942,,0.021153035,0.39734775,-0.42832556,0.18306714,0.73242664,-0.65577257,-0.92928237,-0.08875334,-0.35854867,-0.3208126,0.6750364,0.66438335,,0.93859006260175,0.43380135101093914,0.17148490781,0.058084114345213246,-0.5513282765535522,1.0790692916783735,-0.41048363819544365,,-1.234826372924128,-0.350998209133504,0.1447696672,0.5462423027771859,0.5484589100584779,-0.2865693835809496,0.8642534539164715,,-0.03805254101660637,-0.09251335866352443,0.09127582152,-0.07163176773016745,,1.5564263e-05,-3.33786e-06,4.4107437e-06,1.0,-1.5065074e-05,-1.2438744e-05,1.5057623e-05,0.99999994,-1.3709068e-06,1.2427568e-05,1.4305115e-06,1.0,376,1.146,0,0,0.0,False,-0.25826943722359585,1.0393278649942614
1.1708238909486681,12:12:41.197439,12:11:40.675370,0,,0.13614774,0.012833938,0.0271976,-0.51401246,-0.25790986,-0.81809145,-0.85586095,0.09039652,0.5092451,-0.057386726,0.96193075,-0.2671999,,0.02394294,-0.062241085,0.06255227,-0.10994348,-0.6685107,0.7355308,-0.82411736,0.47500807,0.30854136,-0.55564624,-0.5722418,-0.6031555,,0.09584937,1.3379623,0.44838503,0.9948011,-0.0097954245,-0.10136467,-0.071890295,-0.77254075,-0.6308824,-0.07212858,0.6348896,-0.7692286,,-0.09770365,0.2544853,-0.09114243,0.46788698,0.17334552,0.8666217,-0.67959005,0.6974571,0.22740059,-0.5650125,-0.6953452,0.44413495,,0.021152081,0.39734808,-0.4283256,0.1830647,0.73242223,-0.65577817,-0.92928374,-0.08875561,-0.35854447,-0.32080993,0.67504084,0.6643801,,0.938968476512587,0.4340098647985432,0.17126972367,0.05955194394960492,-0.5425835405685641,1.082311745839654,-0.410646982261578,,-1.2348340956570023,-0.350998209133504,0.1447696672,0.5462423027771859,0.5484589100584779,-0.2865693835809496,0.8642534539164715,,-0.03805254101660637,-0.09251335866352443,0.09127582152,-0.07163176773016745,,1.5564263e-05,-3.33786e-06,4.4107437e-06,1.0,-1.5065074e-05,-1.2438744e-05,1.5057623e-05,0.99999994,-1.3709068e-06,1.2427568e-05,1.4305115e-06,1.0,384,1.171,0,0,0.0,False,-0.25785239319394915,1.0387967827856874
1.1966435189824551,12:12:41.229647,12:11:40.675370,0,,0.13614863,0.012865335,0.02736552,-0.5158254,-0.26474398,-0.8147605,-0.8538165,0.08098909,0.51423556,-0.07015395,0.9609115,-0.26781908,,0.023942783,-0.06224004,0.062552154,-0.10994184,-0.6685129,0.7355292,-0.8241138,0.4750102,0.3085478,-0.55565196,-0.5722375,-0.6031542,,0.09584937,1.3379623,0.44838503,0.9948011,-0.0097954245,-0.10136467,-0.071890295,-0.77254075,-0.6308824,-0.07212858,0.6348896,-0.7692286,,-0.097718164,0.25461817,-0.09124882,0.47097525,0.17970136,0.8636491,-0.68629295,0.6897548,0.23073854,-0.5542421,-0.7013884,0.44818524,,0.021152236,0.39734864,-0.42832473,0.18306378,0.7324238,-0.6557767,-0.9292862,-0.08875078,-0.35853943,-0.3208035,0.67503977,0.66438425,,0.9393082767590529,0.4341025375930339,0.17109213194000003,0.05934225400612039,-0.5296030730908472,1.081038421364518,-0.4119537347906523,,-1.2348340956570023,-0.35099048640062974,0.1447696672,0.5462423027771859,0.5484589100584779,-0.2865693835809496,0.8642534539164715,,-0.03805254101660637,-0.09251335866352443,0.09127582152,-0.07163176773016745,,1.5564263e-05,-3.33786e-06,4.4107437e-06,1.0,-1.5065074e-05,-1.2438744e-05,1.5057623e-05,0.99999994,-1.3709068e-06,1.2427568e-05,1.4305115e-06,1.0,405,1.236,1,1,0.019,False,-0.25791197091247,1.038748502584908
1.2288336750352755,12:12:41.284422,12:11:40.920404,0,,0.13607419,0.012824178,0.0276424,-0.51626223,-0.2698949,-0.81279147,-0.8525066,0.07120299,0.51784444,-0.081890374,0.96025336,-0.26684654,,0.023942284,-0.062239967,0.062553406,-0.10994184,-0.6685129,0.7355292,-0.8241138,0.4750102,0.3085478,-0.55565196,-0.5722375,-0.6031542,,0.09584937,1.3379623,0.44838503,0.9948011,-0.0097954245,-0.10136467,-0.071890295,-0.77254075,-0.6308824,-0.07212858,0.6348896,-0.7692286,,-0.09767186,0.25476784,-0.09149245,0.47255945,0.18432929,0.8618064,-0.6929081,0.6819708,0.23408166,-0.54457873,-0.7077701,0.44999498,,0.02115258,0.3973497,-0.42832544,0.18306378,0.7324238,-0.6557767,-0.9292862,-0.08875078,-0.35853943,-0.3208035,0.67503977,0.66438425,,0.9400419363821042,0.43411026032590816,0.17078231863,0.0576647344582442,-0.5178523341110194,1.0818296816444772,-0.4111370144599808,,-1.2348340956570023,-0.35099048640062974,0.14476837091000003,0.5462423027771859,0.5484589100584779,-0.2865693835809496,0.8642534539164715,,-0.03805254101660637,-0.09251335866352443,0.09127582152,-0.07163176773016745,,1.5564263e-05,-3.33786e-06,4.4107437e-06,1.0,-1.5065074e-05,-1.2438744e-05,1.5057623e-05,0.99999994,-1.3709068e-06,1.2427568e-05,1.4305115e-06,1.0,422,1.289,1,1,0.073,False,-0.2580311263495121,1.0388933431872462
1.2836052749771625,12:12:41.340150,12:11:40.920404,0,,0.13603747,0.012804031,0.027896017,-0.5165972,-0.2833433,-0.80798745,-0.85060966,0.061899453,0.52214146,-0.097931236,0.9570186,-0.2729917,,0.023942359,-0.062240697,0.06255627,-0.10994071,-0.6685659,0.73548114,-0.8241161,0.47498503,0.30858022,-0.5556487,-0.5721964,-0.60319614,,0.09584937,1.3379623,0.44838503,0.9948011,-0.0097954245,-0.10136467,-0.071890295,-0.77254075,-0.6308824,-0.07212858,0.6348896,-0.7692286,,-0.09765973,0.25491777,-0.09170091,0.47447017,0.19746988,0.85783666,-0.7018728,0.67301905,0.23328069,-0.5312745,-0.71277696,0.4579262,,0.021152155,0.39735147,-0.42832774,0.18306226,0.7324714,-0.6557239,-0.92928517,-0.088728584,-0.3585475,-0.32080725,0.674991,0.6644319,,0.9406288640805452,0.43401758753141745,0.17049065338000002,0.0551484551364299,-0.5017292271386973,1.0755433831801067,-0.4124437669890551,,-1.2348418183898764,-0.350998209133504,0.14476577833,0.5462423027771859,0.5484589100584779,-0.286487704840809,0.86458014204874,,-0.03805254101660637,-0.09251335866352443,0.09127582152,-0.07163176773016745,,1.5564263e-05,-3.33786e-06,4.4107437e-06,1.0,-1.5065074e-05,-1.2438744e-05,1.5057623e-05,0.99999994,-1.3709068e-06,1.2427568e-05,1.4305115e-06,1.0,435,1.33,1,1,0.113,False,-0.25791197091247,1.0383622609786725
1.339374852948822,12:12:41.380110,12:11:40.920404,0,,0.13597924,0.012778938,0.028128564,-0.5180138,-0.29111615,-0.80430907,-0.84814006,0.052791923,0.5271352,-0.110996485,0.95523,-0.2742542,,0.02394072,-0.0622394,0.06255978,-0.10993909,-0.66844785,0.73558867,-0.8241124,0.47503757,0.30850896,-0.55565435,-0.5722908,-0.6031015,,0.09584937,1.3379623,0.44838503,0.9948011,-0.0097954245,-0.10136467,-0.071890295,-0.77254075,-0.6308824,-0.07212858,0.6348896,-0.7692286,,-0.09762457,0.2550506,-0.09189893,0.47721577,0.20484647,0.8545777,-0.70845246,0.66506076,0.23619774,-0.5199618,-0.71814495,0.46250144,,0.02115334,0.39735517,-0.42832896,0.18306133,0.7323658,-0.6558421,-0.92928755,-0.088782325,-0.358528,-0.32080084,0.67509854,0.66432583,,0.9412312372447348,0.4338863010725556,0.17022361764000002,0.05472907524946085,-0.48820221366191874,1.0731709571690606,-0.411790390724518,,-1.2348418183898764,-0.35099048640062974,0.14476188946000002,0.5462423027771859,0.5484589100584779,-0.2866510623210902,0.8645801420487401,,-0.03805254101660637,-0.09251335866352443,0.09127582152,-0.07163176773016745,,1.5564263e-05,-3.33786e-06,4.4107437e-06,1.0,-1.5065074e-05,-1.2438744e-05,1.5057623e-05,0.99999994,-1.3709068e-06,1.2427568e-05,1.4305115e-06,1.0,448,1.372,1,1,0.155,False,-0.25785239319394915,1.0387967827856874
1.37933356303256,12:12:41.425364,12:11:41.062130,0,,0.1358869,0.012725383,0.02847153,-0.5182548,-0.3017438,-0.80022657,-0.8453218,0.038743496,0.5328509,-0.1297808,0.9526014,-0.2751496,,0.02393964,-0.062238924,0.06256491,-0.10993632,-0.6684429,0.73559356,-0.8241112,0.47503975,0.308509,-0.5556568,-0.5722947,-0.60309553,,0.09584937,1.3379623,0.44838503,0.9948011,-0.0097954245,-0.10136467,-0.071890295,-0.77254075,-0.6308824,-0.07212858,0.6348896,-0.7692286,,-0.09756724,0.25523403,-0.09220239,0.47933665,0.21485886,0.85092425,-0.7184989,0.65284723,0.23989543,-0.50397986,-0.7263788,0.46730945,,0.02115376,0.39735964,-0.42833182,0.18305889,0.7323614,-0.6558477,-0.929289,-0.08878459,-0.3585238,-0.32079816,0.675103,0.66432256,,0.942165687922516,0.43363917362058046,0.16982565661000001,0.05200310598416204,-0.4690731036947571,1.0717028726958788,-0.41195373479065234,,-1.2348495411227507,-0.35099048640062974,0.1447567043,0.5462423027771859,0.5484589100584779,-0.2866510623210901,0.8640901098503373,,-0.03805254101660637,-0.09251335866352443,0.09127582152,-0.07163176773016745,,1.5564263e-05,-3.33786e-06,4.4107437e-06,1.0,-1.5065074e-05,-1.2438744e-05,1.5057623e-05,0.99999994,-1.3709068e-06,1.2427568e-05,1.4305115e-06,1.0,457,1.399,1,1,0.183,False,-0.257435349164302,1.0389899035888053
1.4245660309679806,12:12:41.449442,12:11:41.062130,0,,0.13583273,0.0127047,0.0286116,-0.5194653,-0.3063251,-0.79769707,-0.8434048,0.03391394,0.5362072,-0.13720056,0.95132256,-0.27597323,,0.023937732,-0.062238924,0.062566936,-0.10993909,-0.66844785,0.73558867,-0.8241124,0.47503757,0.30850896,-0.55565435,-0.5722908,-0.6031015,,0.09584937,1.3379623,0.44838503,0.9948011,-0.0097954245,-0.10136467,-0.071890295,-0.77254075,-0.6308824,-0.07212858,0.6348896,-0.7692286,,-0.0975274,0.25531015,-0.092327304,0.48132864,0.21925765,0.8486748,-0.7218375,0.64842033,0.24187118,-0.49726585,-0.7290248,0.47037166,,0.0211554,0.3973614,-0.42833316,0.18306133,0.7323658,-0.6558421,-0.92928755,-0.088782325,-0.358528,-0.32080084,0.67509854,0.66432583,,0.9426058836963468,0.4334847189630959,0.16966232407,0.05242248587113109,-0.4611481867083615,1.0696512862490768,-0.4106469822615779,,-1.2348418183898764,-0.35099048640062974,0.14475411172000002,0.5462423027771859,0.5484589100584779,-0.2866510623210901,0.8640901098503373,,-0.03805254101660637,-0.09251335866352443,0.09127582152,-0.07163176773016745,,1.5564263e-05,-3.33786e-06,4.4107437e-06,1.0,-1.5065074e-05,-1.2438744e-05,1.5057623e-05,0.99999994,-1.3709068e-06,1.2427568e-05,1.4305115e-06,1.0,466,1.428,1,1,0.211,False,-0.2570778828531757,1.0387967827856874
1.448622173978947,12:12:41.482283,12:11:41.062130,0,,0.13574004,0.012623295,0.028805196,-0.51828045,-0.3106619,-0.7967901,-0.84300137,0.02871117,0.5371448,-0.14399362,0.9500866,-0.27676886,,0.0239349,-0.062239476,0.06257415,-0.10994071,-0.66844577,0.73559034,-0.8241161,0.4750354,0.3085026,-0.5556487,-0.57229495,-0.60310274,,0.09584937,1.3379623,0.44838503,0.9948011,-0.0097954245,-0.10136467,-0.071890295,-0.77254075,-0.6308824,-0.07212858,0.6348896,-0.7692286,,-0.0974576,0.25537544,-0.09253602,0.48079616,0.22338833,0.847899,-0.72595996,0.6437334,0.24205267,-0.49174914,-0.7319187,0.47167552,,0.021157302,0.39736703,-0.42833823,0.18306226,0.7323643,-0.65584356,-0.92928517,-0.08878715,-0.35853302,-0.32080725,0.67509955,0.66432166,,0.9432314250591589,0.43320670057962385,0.16942121413000003,0.0499062065493168,-0.4543163617200895,1.0691444729529704,-0.4103202941293094,,-1.2348418183898764,-0.350998209133504,0.14474633398,0.5462423027771859,0.5484589100584779,-0.2866510623210901,0.8640901098503373,,-0.03805254101660637,-0.09251335866352443,0.09127582152,-0.07163176773016745,,1.5564263e-05,-3.33786e-06,4.4107437e-06,1.0,-1.5065074e-05,-1.2438744e-05,1.5057623e-05,0.99999994,-1.3709068e-06,1.2427568e-05,1.4305115e-06,1.0,479,1.47,1,1,0.253,False,-0.25737577144578117,1.0386519421833489
1.481480753980577,12:12:41.521023,12:11:41.167075,0,,0.13561453,0.012558982,0.029072449,-0.51828027,-0.32094467,-0.7927042,-0.84060645,0.020611763,0.54125416,-0.15737355,0.9468735,-0.28047085,,0.02393461,-0.062239088,0.06257892,-0.10986899,-0.6683525,0.7356857,-0.8240596,0.4751017,0.30855137,-0.5557466,-0.57234883,-0.6029614,,0.09584937,1.3379623,0.44838503,0.9948011,-0.0097954245,-0.10136467,-0.071890295,-0.77254075,-0.6308824,-0.07212858,0.6348896,-0.7692286,,-0.09736095,0.2555021,-0.09279279,0.48215786,0.23344782,0.84440863,-0.7328242,0.6356588,0.24270688,-0.48009637,-0.7358261,0.47756407,,0.021156993,0.39737102,-0.42834085,0.18300307,0.73227817,-0.6559562,-0.9293346,-0.08879827,-0.35840216,-0.32069784,0.67519146,0.6642811,,0.9442276575999339,0.43278195027154154,0.16909066018000002,0.04801899705795608,-0.4398328927449528,1.064195189332957,-0.4099936059970408,,-1.2348495411227507,-0.3510059318663782,0.14474114882000003,0.5462423027771859,0.5485955465582434,-0.2867624802247865,0.8640901098503373,,-0.03805254101660637,-0.09251335866352443,0.09127582152,-0.07163176773016745,,1.5564263e-05,-3.33786e-06,4.4107437e-06,1.0,-1.5065074e-05,-1.2438744e-05,1.5057623e-05,0.99999994,-1.3709068e-06,1.2427568e-05,1.4305115e-06,1.0,488,1.499,1,1,0.282,False,-0.25767366003838577,1.0381691401755546
1.5202478989958763,12:12:41.545815,12:11:41.167075,0,,0.13552788,0.012514472,0.029284775,-0.5175378,-0.3275612,-0.7904798,-0.8384204,0.00961861,0.54493934,-0.17089763,0.9447809,-0.279612,,0.02393338,-0.06223757,0.06258398,-0.10986459,-0.66828954,0.7357435,-0.8240548,0.47513115,0.30851895,-0.55575466,-0.5723978,-0.6029074,,0.09584937,1.3379623,0.44838503,0.9948011,-0.0097954245,-0.10136467,-0.071890295,-0.77254075,-0.6308824,-0.07212858,0.6348896,-0.7692286,,-0.0972968,0.25560752,-0.09299112,0.48278296,0.23959605,0.84232676,-0.7399531,0.62605006,0.24602997,-0.46839088,-0.7420614,0.47953615,,0.021157568,0.39737606,-0.42834282,0.1829997,0.7322217,-0.65602016,-0.9293384,-0.08882498,-0.35838568,-0.32068875,0.67524916,0.66422683,,0.9449458717572368,0.43238809089495606,0.16884047621,0.04529302779265726,-0.4264425157679396,1.0648746158706677,-0.41309714325359237,,-1.2348572638556248,-0.350998209133504,0.14473725995,0.5462423027771859,0.5485955465582434,-0.28684415896492704,0.8642534539164716,,-0.03805254101660637,-0.09251335866352443,0.09127582152,-0.07163176773016745,,1.5564263e-05,-3.33786e-06,4.4107437e-06,1.0,-1.5065074e-05,-1.2438744e-05,1.5057623e-05,0.99999994,-1.3709068e-06,1.2427568e-05,1.4305115e-06,1.0,497,1.526,1,1,0.309,False,-0.25773323775690704,1.0381691401755546
1.5450062910094857,12:12:41.584442,12:11:41.167075,0,,0.13542196,0.0124696195,0.029481143,-0.51570874,-0.3381412,-0.7872134,-0.836236,-0.001267761,0.54836833,-0.18642387,0.9410944,-0.28211206,,0.023930714,-0.06223876,0.06258565,-0.10987175,-0.66835743,0.7356809,-0.82406086,0.4750995,0.3085513,-0.5557442,-0.5723449,-0.6029674,,0.09584937,1.3379623,0.44838503,0.9948011,-0.0097954245,-0.10136467,-0.071890295,-0.77254075,-0.6308824,-0.07212858,0.6348896,-0.7692286,,-0.09721203,0.25570264,-0.093179695,0.48251134,0.24983683,0.83950245,-0.74840105,0.61555374,0.24696054,-0.45505902,-0.74744576,0.4839898,,0.021160007,0.39737692,-0.428345,0.18300551,0.7322826,-0.6559506,-0.92933315,-0.08879601,-0.35840636,-0.32070053,0.675187,0.66428435,,0.9458262633048984,0.4317548267992697,0.16858640337000003,0.041099228922966774,-0.4104560452953831,1.0622935998761782,-0.41260711105518943,,-1.2348418183898764,-0.3510059318663782,0.14473466737000001,0.5462423027771859,0.5485955465582434,-0.2867624802247865,0.8640901098503373,,-0.03805254101660637,-0.09251335866352443,0.09127582152,-0.07163176773016745,,1.5564263e-05,-3.33786e-06,4.4107437e-06,1.0,-1.5065074e-05,-1.2438744e-05,1.5057623e-05,0.99999994,-1.3709068e-06,1.2427568e-05,1.4305115e-06,1.0,510,1.568,1,1,0.351,False,-0.2585077480976805,1.0378794589708777
1.5835966089507565,12:12:41.621170,12:11:41.167075,0,,0.13531068,0.012391642,0.02959767,-0.51302016,-0.34742194,-0.7849256,-0.83579767,-0.0061752796,0.5490029,-0.19558275,0.93768847,-0.28720638,,0.023931406,-0.062239297,0.062588155,-0.10993681,-0.6681934,0.73582006,-0.8241172,0.47513843,0.30834115,-0.55564785,-0.57250404,-0.602905,,0.09584937,1.3379623,0.44838503,0.9948011,-0.0097954245,-0.10136467,-0.071890295,-0.77254075,-0.6308824,-0.07212858,0.6348896,-0.7692286,,-0.09711647,0.25572082,-0.09332999,0.48070273,0.2590983,0.8377308,-0.75405777,0.6097647,0.24409823,-0.44757324,-0.74903613,0.4884906,,0.021159012,0.39737847,-0.42834687,0.18305829,0.7321396,-0.65609545,-0.9292856,-0.088913634,-0.3585006,-0.32080832,0.6753265,0.6640904,,0.9465213092635786,0.43102116717621836,0.16840233019,0.036695740109791763,-0.4010281268115677,1.0577912353866072,-0.41309714325359226,,-1.2348572638556248,-0.3510059318663782,0.14473207479000003,0.5462423027771859,0.5484589100584779,-0.2869777772816524,0.8631100454535315,,-0.03805254101660637,-0.09251335866352443,0.09127582152,-0.07163176773016745,,1.5564263e-05,-3.33786e-06,4.4107437e-06,1.0,-1.5065074e-05,-1.2438744e-05,1.5057623e-05,0.99999994,-1.3709068e-06,1.2427568e-05,1.4305115e-06,1.0,528,1.625,1,1,0.408,False,-0.25779281547542787,1.038120859974775
1.6203963089501485,12:12:41.679604,12:11:41.295703,0,,0.13511407,0.012312338,0.02977842,-0.5080187,-0.37575477,-0.7750647,-0.8323568,-0.017323673,0.55396944,-0.22158355,0.92655706,-0.30396128,,0.023928583,-0.062239446,0.06258911,-0.10970347,-0.6685383,0.73554164,-0.82430774,0.47469667,0.3085121,-0.5554113,-0.572468,-0.6031572,,0.09584937,1.3379623,0.44838503,0.9948011,-0.0097954245,-0.10136467,-0.071890295,-0.77254075,-0.6308824,-0.07212858,0.6348896,-0.7692286,,-0.096942075,0.2557811,-0.093538694,0.47830826,0.28765628,0.829744,-0.7684023,0.59453094,0.23683523,-0.42518133,-0.7508574,0.5054048,,0.021161692,0.39737943,-0.42834777,0.18279815,0.7324795,-0.6557885,-0.9292409,-0.089120924,-0.35856494,-0.32108596,0.6749305,0.6643588,,0.9479268466466875,0.42932216594388894,0.16809899833000003,0.027888762483441742,-0.373837463358245,1.040519796959453,-0.4114637025922494,,-1.2348572638556248,-0.3510059318663782,0.14472948221,0.5458229228902169,0.5483222735587124,-0.2867846806378154,0.8636000776519344,,-0.03805254101660637,-0.09251335866352443,0.09127582152,-0.07163176773016745,,1.5564263e-05,-3.33786e-06,4.4107437e-06,1.0,-1.5065074e-05,-1.2438744e-05,1.5057623e-05,0.99999994,-1.3709068e-06,1.2427568e-05,1.4305115e-06,1.0,537,1.653,0,1,0.408,False,-0.25779281547542787,1.038120859974775
1.678818832966499,12:12:41.710473,12:11:41.295703,0,,0.13497125,0.012232989,0.029840514,-0.5055977,-0.38616526,-0.7715227,-0.8314385,-0.020715535,0.5552306,-0.23039317,0.92219687,-0.3105989,,0.02392809,-0.062239356,0.0625903,-0.10970347,-0.6685383,0.73554164,-0.82430774,0.47469667,0.3085121,-0.5554113,-0.572468,-0.6031572,,0.09584937,1.3379623,0.44838503,0.9948011,-0.0097954245,-0.10136467,-0.071890295,-0.77254075,-0.6308824,-0.07212858,0.6348896,-0.7692286,,-0.09681025,0.25576344,-0.093652114,0.47676086,0.29821408,0.82690233,-0.77346283,0.58929384,0.23342672,-0.4176773,-0.75086695,0.51160973,,0.021162035,0.39738044,-0.42834845,0.18279815,0.7324795,-0.6557885,-0.9292409,-0.089120924,-0.35856494,-0.32108596,0.6749305,0.6643588,,0.9487068426669841,0.42827959700586865,0.16795770272000002,0.024114343500720302,-0.3642729083746642,1.0336190098422495,-0.4126071110551893,,-1.2348572638556248,-0.3510059318663782,0.14472818592,0.5458229228902169,0.5483222735587124,-0.2867846806378154,0.8639267657842029,,-0.03805254101660637,-0.09251335866352443,0.09127582152,-0.07163176773016745,,1.5564263e-05,-3.33786e-06,4.4107437e-06,1.0,-1.5065074e-05,-1.2438744e-05,1.5057623e-05,0.99999994,-1.3709068e-06,1.2427568e-05,1.4305115e-06,1.0,550,1.694,0,1,0.408,False,-0.2588652144088064,1.0378794589708777
1.7096709189936519,12:12:41.753734,12:11:41.408785,0,,0.13475281,0.012104422,0.029894322,-0.50086385,-0.39947033,-0.7678272,-0.83122146,-0.025275469,0.55536664,-0.2412596,0.9163975,-0.3193888,,0.023926415,-0.062240712,0.062589645,-0.10971062,-0.668546,0.73553354,-0.82431394,0.4746902,0.30850568,-0.5554008,-0.5724643,-0.6031704,,0.09584937,1.3379623,0.44838503,0.9948011,-0.0097954245,-0.10136467,-0.071890295,-0.77254075,-0.6308824,-0.07212858,0.6348896,-0.7692286,,-0.09660529,0.25570422,-0.093799144,0.4730629,0.31171554,0.8240418,-0.78043026,0.5822823,0.22776292,-0.4088277,-0.75085336,0.51872844,,0.021163788,0.39737925,-0.42834926,0.18280396,0.7324868,-0.65577877,-0.9292357,-0.08912122,-0.35857838,-0.32109773,0.6749226,0.6643612,,0.9498343616666209,0.4266578231022815,0.16778140728000002,0.017404265309215523,-0.3525221693948363,1.0253439299666065,-0.41195373479065234,,-1.2348418183898764,-0.35101365459925243,0.14472818592,0.5458229228902169,0.5483222735587124,-0.2867846806378154,0.8636000776519344,,-0.03805254101660637,-0.09251335866352443,0.09127582152,-0.07163176773016745,,1.5564263e-05,-3.33786e-06,4.4107437e-06,1.0,-1.5065074e-05,-1.2438744e-05,1.5057623e-05,0.99999994,-1.3709068e-06,1.2427568e-05,1.4305115e-06,1.0,559,1.723,0,1,0.408,False,-0.2580907040680329,1.0370586955576269
1.752957655931823,12:12:41.783089,12:11:41.408785,0,,0.13457778,0.012009576,0.029956698,-0.49893877,-0.4077681,-0.76471245,-0.8292787,-0.031643897,0.5579387,-0.251708,0.91253686,-0.32236505,,0.023925923,-0.062240623,0.06259078,-0.10971062,-0.6683057,0.7357519,-0.82431394,0.47479093,0.3083506,-0.5554008,-0.57266134,-0.60298336,,0.09584937,1.3379623,0.44838503,0.9948011,-0.0097954245,-0.10136467,-0.071890295,-0.77254075,-0.6308824,-0.07212858,0.6348896,-0.7692286,,-0.09644236,0.2556755,-0.09392623,0.4722166,0.3199588,0.8213634,-0.78576726,0.57507086,0.22773522,-0.39947626,-0.75294083,0.52297115,,0.02116413,0.3973803,-0.42834994,0.18280396,0.7322725,-0.656018,-0.9292357,-0.08923837,-0.35854924,-0.32109773,0.6751396,0.66414064,,0.9507379214129051,0.4253295130479149,0.16762325990000002,0.014258916156947658,-0.34077143041500846,1.0214795020585534,-0.41130035852611513,,-1.2348418183898764,-0.35101365459925243,0.14472688963000002,0.5458229228902169,0.5483222735587124,-0.28711139559837767,0.8629467013873973,,-0.03805254101660637,-0.09251335866352443,0.09127582152,-0.07163176773016745,,1.5564263e-05,-3.33786e-06,4.4107437e-06,1.0,-1.5065074e-05,-1.2438744e-05,1.5057623e-05,0.99999994,-1.3709068e-06,1.2427568e-05,1.4305115e-06,1.0,572,1.765,0,1,0.408,False,-0.2580311263495121,1.0366724539513914
1.7822589139686897,12:12:41.815403,12:11:41.408785,0,,0.13441384,0.011907622,0.029993892,-0.49539316,-0.41351494,-0.7639312,-0.8291757,-0.03705144,0.55775875,-0.2589462,0.9097431,-0.32452157,,0.023925923,-0.062240623,0.06259078,-0.10971062,-0.66824555,0.7358065,-0.82431394,0.4748161,0.30831182,-0.5554008,-0.5727106,-0.60293657,,0.09584937,1.3379623,0.44838503,0.9948011,-0.0097954245,-0.10136467,-0.071890295,-0.77254075,-0.6308824,-0.07212858,0.6348896,-0.7692286,,-0.096288554,0.25562483,-0.09403772,0.46936095,0.32562256,0.8207742,-0.79044646,0.5692403,0.22618555,-0.39356658,-0.75494075,0.52456635,,0.02116413,0.3973803,-0.42834994,0.18280396,0.7322189,-0.65607786,-0.9292357,-0.089267656,-0.35854194,-0.32109773,0.67519385,0.6640855,,0.9515488083646987,0.4241170439866616,0.16749492719,0.009436047456803596,-0.33284651342861293,1.0199996667927356,-0.4121170788567865,,-1.2348418183898764,-0.35101365459925243,0.14472688963000002,0.5458229228902169,0.5483222735587124,-0.28719307433851826,0.862783357321263,,-0.03805254101660637,-0.09251335866352443,0.09127582152,-0.07163176773016745,,1.5564263e-05,-3.33786e-06,4.4107437e-06,1.0,-1.5065074e-05,-1.2438744e-05,1.5057623e-05,0.99999994,-1.3709068e-06,1.2427568e-05,1.4305115e-06,1.0,581,1.792,0,1,0.408,False,-0.25719703829021734,1.036431052947494
1.8145885670091957,12:12:41.845400,12:11:41.408785,0,,0.13424967,0.011817664,0.030069023,-0.49192864,-0.4212456,-0.7619437,-0.8281101,-0.043783307,0.55885303,-0.26877475,0.90588903,-0.32729948,,0.02392774,-0.06224031,0.06259161,-0.109705105,-0.6682958,0.73576164,-0.8243114,0.47479528,0.30835062,-0.55540556,-0.5726692,-0.6029714,,0.09584937,1.3379623,0.44838503,0.9948011,-0.0097954245,-0.10136467,-0.071890295,-0.77254075,-0.6308824,-0.07212858,0.6348896,-0.7692286,,-0.096137315,0.2556079,-0.094170116,0.46687776,0.33328086,0.81911474,-0.7960737,0.56174725,0.2251815,-0.38508677,-0.75720793,0.5275834,,0.021162223,0.39738092,-0.42835003,0.18279907,0.7322637,-0.6560292,-0.9292385,-0.08924289,-0.35854083,-0.3210924,0.67514855,0.6641341,,0.9524446453781088,0.4229354658569053,0.16733548352000002,0.004613178756659536,-0.3221888664469086,1.0172716183346755,-0.4126071110551893,,-1.2348572638556248,-0.35101365459925243,0.14472688963000002,0.5458229228902169,0.5483222735587124,-0.2871113955983777,0.8626200132551287,,-0.03805254101660637,-0.09251335866352443,0.09127582152,-0.07163176773016745,,1.5564263e-05,-3.33786e-06,4.4107437e-06,1.0,-1.5065074e-05,-1.2438744e-05,1.5057623e-05,0.99999994,-1.3709068e-06,1.2427568e-05,1.4305115e-06,1.0,594,1.834,0,1,0.408,False,-0.2571374605716965,1.03676901435295
1.8445800159825012,12:12:41.885610,12:11:41.535353,0,,0.13404736,0.0117777735,0.030226171,-0.48849574,-0.43060172,-0.75891626,-0.8248669,-0.05573955,0.56257254,-0.2845463,0.90081906,-0.32796055,,0.023927242,-0.06224025,0.062592804,-0.109705105,-0.6682958,0.73576164,-0.8243114,0.47479528,0.30835062,-0.55540556,-0.5726692,-0.6029714,,0.09584937,1.3379623,0.44838503,0.9948011,-0.0097954245,-0.10136467,-0.071890295,-0.77254075,-0.6308824,-0.07212858,0.6348896,-0.7692286,,-0.09595283,0.25568295,-0.09433612,0.46509394,0.3423712,0.8163759,-0.8039022,0.5495189,0.22753073,-0.370714,-0.7621095,0.5308109,,0.021162566,0.39738196,-0.42835075,0.18279907,0.7322637,-0.6560292,-0.9292385,-0.08924289,-0.35854083,-0.3210924,0.67514855,0.6641341,,0.953827014562595,0.42179250139152,0.16711770680000002,-0.0004193798869690487,-0.30524594047599396,1.0153808943368414,-0.41130035852611524,,-1.2348572638556248,-0.35101365459925243,0.14472559334,0.5458229228902169,0.5483222735587124,-0.2871113955983777,0.8626200132551287,,-0.03805254101660637,-0.09251335866352443,0.09127582152,-0.07163176773016745,,1.5564263e-05,-3.33786e-06,4.4107437e-06,1.0,-1.5065074e-05,-1.2438744e-05,1.5057623e-05,0.99999994,-1.3709068e-06,1.2427568e-05,1.4305115e-06,1.0,603,1.862,0,1,0.408,False,-0.2585077480976805,1.0363827727467145
1.884835685021244,12:12:41.920098,12:11:41.535353,0,,0.13381076,0.01172024,0.03040281,-0.4844269,-0.44069993,-0.75572085,-0.8236727,-0.06131506,0.5637409,-0.29477757,0.8955578,-0.33328986,,0.023927242,-0.06224025,0.062592804,-0.109705105,-0.6682958,0.73576164,-0.8243114,0.47479528,0.30835062,-0.55540556,-0.5726692,-0.6029714,,0.09584937,1.3379623,0.44838503,0.9948011,-0.0097954245,-0.10136467,-0.071890295,-0.77254075,-0.6308824,-0.07212858,0.6348896,-0.7692286,,-0.095737055,0.25575778,-0.09453188,0.46205413,0.35257766,0.8137536,-0.8097032,0.5420311,0.22490673,-0.36178267,-0.762818,0.535931,,0.021162566,0.39738196,-0.42835075,0.18279907,0.7322637,-0.6560292,-0.9292385,-0.08924289,-0.35854083,-0.3210924,0.67514855,0.6641341,,0.9553870066031883,0.4208657734466131,0.16688826347000002,-0.005871318417566682,-0.2944516569945242,1.0091925996293223,-0.41195373479065234,,-1.2348572638556248,-0.35101365459925243,0.14472559334,0.5458229228902169,0.5483222735587124,-0.2871113955983777,0.8626200132551287,,-0.03805254101660637,-0.09251335866352443,0.09127582152,-0.07163176773016745,,1.5564263e-05,-3.33786e-06,4.4107437e-06,1.0,-1.5065074e-05,-1.2438744e-05,1.5057623e-05,0.99999994,-1.3709068e-06,1.2427568e-05,1.4305115e-06,1.0,616,1.904,0,1,0.408,False,-0.2580907040680329,1.0363827727467145
1.9193233200348914,12:12:41.959421,12:11:41.535353,0,,0.13357908,0.011695787,0.030538335,-0.48239255,-0.45102888,-0.750913,-0.8215418,-0.06447452,0.5664911,-0.30391854,0.89017737,-0.33943707,,0.023926333,-0.062240385,0.06259239,-0.109707855,-0.6683608,0.7357022,-0.82431257,0.47476795,0.30838937,-0.5554032,-0.572616,-0.6030241,,0.09584937,1.3379623,0.44838503,0.9948011,-0.0097954245,-0.10136467,-0.071890295,-0.77254075,-0.6308824,-0.07212858,0.6348896,-0.7692286,,-0.09552052,0.255831,-0.09467471,0.46099004,0.3631611,0.8096927,-0.8140502,0.53630716,0.222928,-0.35328516,-0.7618981,0.5428636,,0.02116352,0.39738163,-0.4283507,0.18280151,0.7323217,-0.65596384,-0.92923707,-0.089211345,-0.3585523,-0.32109505,0.67508984,0.6641925,,0.9569161077122847,0.4199853818989515,0.16671456061,-0.008806977626350023,-0.2843405560118816,1.0007026385353652,-0.4126071110551893,,-1.2348495411227507,-0.35101365459925243,0.14472559334,0.5458229228902169,0.5483222735587124,-0.2870297168582372,0.8624566691889944,,-0.03805254101660637,-0.09251335866352443,0.09127582152,-0.07163176773016745,,1.5564263e-05,-3.33786e-06,4.4107437e-06,1.0,-1.5065074e-05,-1.2438744e-05,1.5057623e-05,0.99999994,-1.3709068e-06,1.2427568e-05,1.4305115e-06,1.0,625,1.932,0,1,0.408,False,-0.25856732581620134,1.0363827727467145
1.9586156569421291,12:12:41.989071,12:11:41.535353,0,,0.13339928,0.011643127,0.030617446,-0.4814175,-0.45714086,-0.7478364,-0.82007647,-0.06623182,0.5684083,-0.3093732,0.8869246,-0.34300533,,0.023925833,-0.06224031,0.06259364,-0.109707855,-0.6684209,0.73564756,-0.82431257,0.47474277,0.30842817,-0.5554032,-0.57256675,-0.603071,,0.09584937,1.3379623,0.44838503,0.9948011,-0.0097954245,-0.10136467,-0.071890295,-0.77254075,-0.6308824,-0.07212858,0.6348896,-0.7692286,,-0.095351994,0.2558453,-0.09478765,0.4606035,0.3694363,0.80706954,-0.8164929,0.5329607,0.22201861,-0.34811458,-0.7612291,0.5471257,,0.021163862,0.39738268,-0.4283514,0.18280151,0.73237526,-0.655904,-0.92923707,-0.08918206,-0.3585596,-0.32109505,0.6750356,0.66424763,,0.9579509539174309,0.41914360401566103,0.16658622790000002,-0.010274807230741693,-0.2779186405229059,0.9953843183214929,-0.41260711105518943,,-1.2348495411227507,-0.35101365459925243,0.14472429705,0.5458229228902169,0.5483222735587124,-0.28694803811809655,0.8619666369905916,,-0.03805254101660637,-0.09251335866352443,0.09127582152,-0.07163176773016745,,1.5564263e-05,-3.33786e-06,4.4107437e-06,1.0,-1.5065074e-05,-1.2438744e-05,1.5057623e-05,0.99999994,-1.3709068e-06,1.2427568e-05,1.4305115e-06,1.0,638,1.974,0,1,0.408,False,-0.25779281547542787,1.0360930915420377
1.9882567790336907,12:12:42.030413,12:11:41.703536,0,,0.1331491,0.011489481,0.030658022,-0.48094204,-0.46174997,-0.7453064,-0.8187429,-0.06753996,0.57017416,-0.31361577,0.88443494,-0.3455717,,0.023924917,-0.062240474,0.06259322,-0.10971062,-0.66842586,0.73564273,-0.82431394,0.47474056,0.3084281,-0.5554008,-0.5725628,-0.60307693,,0.09584937,1.3379623,0.44838503,0.9948011,-0.0097954245,-0.10136467,-0.071890295,-0.77254075,-0.6308824,-0.07212858,0.6348896,-0.7692286,,-0.095115684,0.25575894,-0.0949443,0.46059516,0.37417284,0.8048893,-0.81824064,0.5304262,0.22165361,-0.3439976,-0.76068574,0.5504752,,0.021164816,0.39738238,-0.42835134,0.18280396,0.7323797,-0.6558984,-0.9292357,-0.0891798,-0.3585638,-0.32109773,0.67503107,0.6642509,,0.9590321365198223,0.4175449983106966,0.16642678423,-0.01111356700467979,-0.2719066345332265,0.9909720029996938,-0.4122804229229209,,-1.2348418183898764,-0.35101365459925243,0.14472429705,0.5458229228902169,0.5483222735587124,-0.28694803811809655,0.8619666369905916,,-0.03805254101660637,-0.09251335866352443,0.09127582152,-0.07163176773016745,,1.5564263e-05,-3.33786e-06,4.4107437e-06,1.0,-1.5065074e-05,-1.2438744e-05,1.5057623e-05,0.99999994,-1.3709068e-06,1.2427568e-05,1.4305115e-06,1.0,660,2.043,0,1,0.408,False,-0.25672041654204936,1.0351757677272282
2.0296166909392923,12:12:42.090917,12:11:41.703536,0,,0.13275975,0.011081204,0.030647203,-0.47887877,-0.4659598,-0.74401385,-0.8178591,-0.07119581,0.5709971,-0.31903225,0.8819367,-0.34699532,,0.023926474,-0.062242188,0.062592566,-0.1098462,-0.6682279,0.7358023,-0.8244289,0.47476345,0.3080852,-0.5552032,-0.5727748,-0.60305744,,0.09584937,1.3379623,0.44838503,0.9948011,-0.0097954245,-0.10136467,-0.071890295,-0.77254075,-0.6308824,-0.07212858,0.6348896,-0.7692286,,-0.094750695,0.2554479,-0.09524168,0.45909035,0.37838045,0.8037813,-0.8211189,0.5260942,0.22133386,-0.33911625,-0.76161224,0.5522201,,0.021163363,0.39738068,-0.42835224,0.18291433,0.73220974,-0.65605736,-0.9291376,-0.08935207,-0.35877508,-0.3213187,0.67519265,0.66397977,,0.960121041855088,0.41410065944879243,0.16614678559,-0.013839536269978608,-0.2631618985482383,0.9886603028314159,-0.41048363819544376,,-1.2348572638556248,-0.35101365459925243,0.14472429705,0.5458229228902169,0.5480490005591817,-0.2872152747515471,0.860986572593786,,-0.03805254101660637,-0.09251335866352443,0.09127582152,-0.07163176773016745,,1.5564263e-05,-3.33786e-06,4.4107437e-06,1.0,-1.5065074e-05,-1.2438744e-05,1.5057623e-05,0.99999994,-1.3709068e-06,1.2427568e-05,1.4305115e-06,1.0,669,2.071,0,1,0.408,False,-0.25779281547542787,1.0351757677272282
2.090078409994021,12:12:42.129635,12:11:41.703536,0,,0.13252676,0.010790795,0.03060624,-0.47619465,-0.47404787,-0.7406194,-0.81702435,-0.072892964,0.57197714,-0.32513043,0.87747645,-0.35259745,,0.023927823,-0.0622439,0.06259465,-0.11015182,-0.6680273,0.73593885,-0.8243007,0.4751116,0.30789155,-0.555333,-0.57272017,-0.60298985,,0.09584937,1.3379623,0.44838503,0.9948011,-0.0097954245,-0.10136467,-0.071890295,-0.77254075,-0.6308824,-0.07212858,0.6348896,-0.7692286,,-0.09453171,0.25520432,-0.09542341,0.45702803,0.38673437,0.80097556,-0.8244872,0.5220424,0.21838622,-0.3336858,-0.76020277,0.5574456,,0.021161785,0.3973811,-0.4283547,0.18323313,0.73200196,-0.65620023,-0.9291294,-0.089116335,-0.35885483,-0.32116058,0.675449,0.66379553,,0.9606152967590383,0.41149037573730457,0.16597178644000002,-0.017194575365730998,-0.25455379906301556,0.9823760835598063,-0.41113701445998097,,-1.2348572638556248,-0.3510213773321266,0.14472300076000003,0.5462423027771859,0.5480490005591817,-0.2872152747515471,0.860986572593786,,-0.03805254101660637,-0.09251335866352443,0.09127582152,-0.07163176773016745,,1.5564263e-05,-3.33786e-06,4.4107437e-06,1.0,-1.5065074e-05,-1.2438744e-05,1.5057623e-05,0.99999994,-1.3709068e-06,1.2427568e-05,1.4305115e-06,1.0,682,2.113,0,1,0.408,False,-0.25779281547542787,1.0357551301365815
2.1288514350308105,12:12:42.169379,12:11:41.703536,0,,0.13235804,0.010560423,0.030613393,-0.47380137,-0.4767225,-0.7404375,-0.81659347,-0.076930225,0.5720637,-0.3296776,0.8756809,-0.35283887,,0.023926906,-0.06224405,0.062594235,-0.110154584,-0.66809225,0.7358793,-0.82430196,0.47508436,0.30793035,-0.5553306,-0.572667,-0.6030426,,0.09584937,1.3379623,0.44838503,0.9948011,-0.0097954245,-0.10136467,-0.071890295,-0.77254075,-0.6308824,-0.07212858,0.6348896,-0.7692286,,-0.09437768,0.25503656,-0.09559578,0.45508987,0.38932976,0.8008218,-0.827151,0.517851,0.21829233,-0.32971865,-0.7617432,0.55770326,,0.021162739,0.3973808,-0.42835468,0.18323557,0.73205996,-0.65613484,-0.92912805,-0.08908476,-0.3588663,-0.32116327,0.67539036,0.66385394,,0.9609550970055042,0.4097141471762329,0.16581104648000003,-0.02013023457451434,-0.24854179307333618,0.9824560989457383,-0.41113701445998097,,-1.2348495411227507,-0.3510213773321266,0.14472300076000003,0.5462423027771859,0.5480490005591817,-0.2871335960114065,0.8608232285276517,,-0.03805254101660637,-0.09251335866352443,0.09127582152,-0.07163176773016745,,1.5564263e-05,-3.33786e-06,4.4107437e-06,1.0,-1.5065074e-05,-1.2438744e-05,1.5057623e-05,0.99999994,-1.3709068e-06,1.2427568e-05,1.4305115e-06,1.0,704,2.183,0,1,0.408,False,-0.25773323775690704,1.0356585697350225
2.168601752957329,12:12:42.231069,12:11:41.845587,0,,0.1318873,0.0101741105,0.030850917,-0.4666902,-0.49174598,-0.73510957,-0.8128812,-0.08898711,0.5755914,-0.3484601,0.8661795,-0.35820156,,0.024006188,-0.06221516,0.06260449,-0.11007324,-0.6681956,0.7357977,-0.8243028,0.47500503,0.30805025,-0.55534565,-0.57261205,-0.603081,,0.095869444,1.3379613,0.4483877,0.9947974,-0.009835053,-0.10139703,-0.07194132,-0.7725403,-0.63087714,-0.07212858,0.6348896,-0.7692286,,-0.09396619,0.25490585,-0.09606955,0.4499085,0.40444994,0.79624283,-0.8366573,0.5027446,0.21737616,-0.31238902,-0.76398176,0.5645751,,0.021064546,0.39739367,-0.42833102,0.18310963,0.7321745,-0.65604216,-0.92915696,-0.08910614,-0.35878614,-0.32115147,0.6752633,0.6639888,,0.9620671705393925,0.4063393129101968,0.16530160451,-0.02893721220086436,-0.22654331661110025,0.9758711613301525,-0.41195373479065234,,-1.2348186501912537,-0.3510213773321266,0.14471392673000003,0.5462423027771859,0.5480490005591817,-0.287051917271266,0.8613132607260545,,-0.03805254101660637,-0.09251335866352443,0.09127582152,-0.07163176773016745,,3.540516e-05,-1.0728836e-06,9.536743e-07,1.0,-5.4519624e-05,-4.5001507e-05,5.45159e-05,1.0,-5.096197e-06,4.499033e-05,5.155802e-06,0.99999994,713,2.21,0,1,0.408,False,-0.25636295023092304,1.035803410337361
2.230286397971213,12:12:42.266877,12:11:41.845587,0,,0.13176346,0.010035753,0.030972272,-0.46171993,-0.49704945,-0.73468125,-0.81235373,-0.09567478,0.57526314,-0.3562248,0.8624314,-0.35960492,,0.023996606,-0.0622165,0.06261104,-0.11016038,-0.66825134,0.73573405,-0.8243692,0.47495097,0.30795613,-0.55522984,-0.5725919,-0.60320663,,0.095869444,1.3379613,0.4483877,0.9947974,-0.009835053,-0.10139703,-0.07194132,-0.7725403,-0.63087714,-0.07212858,0.6348896,-0.7692286,,-0.09386203,0.25488147,-0.09626389,0.44570875,0.40968764,0.795927,-0.8413789,0.49531347,0.21620846,-0.30565542,-0.7660422,0.5654681,,0.021073239,0.39739895,-0.42833677,0.18318193,0.73222756,-0.6559628,-0.929098,-0.08911785,-0.35893577,-0.32128066,0.6752043,0.6639864,,0.9626154845734625,0.4053044667050507,0.16509679069000002,-0.03480853061843105,-0.21820849012540838,0.9752005747152129,-0.4121170788567865,,-1.2347723137940083,-0.3510213773321266,0.14470355641000002,0.5462423027771859,0.5479123640594162,-0.28702217810771014,0.8614766047921888,,-0.03805254101660637,-0.09251335866352443,0.09127582152,-0.07163176773016745,,3.540516e-05,-1.0728836e-06,9.536743e-07,1.0,-5.4519624e-05,-4.5001507e-05,5.45159e-05,1.0,-5.096197e-06,4.499033e-05,5.155802e-06,0.99999994,726,2.252,0,1,0.408,False,-0.2590439475643693,1.0362862123451555
2.2660917779430747,12:12:42.301356,12:11:41.982241,0,,0.13158807,0.009882197,0.031171188,-0.45746204,-0.5089543,-0.7291734,-0.8090986,-0.10194713,0.5787626,-0.36890092,0.8547351,-0.3651572,,0.023988925,-0.062215786,0.06261617,-0.110172555,-0.6682179,0.73576254,-0.8243719,0.47496742,0.30792353,-0.55522335,-0.5726173,-0.6031885,,0.095869444,1.3379613,0.4483877,0.9947974,-0.009835053,-0.10139703,-0.07194132,-0.7725403,-0.63087714,-0.07212858,0.6348896,-0.7692286,,-0.09371458,0.2548967,-0.0965321,0.4428218,0.42187363,0.7911583,-0.8472026,0.48574457,0.21517433,-0.29352447,-0.76555526,0.5725107,,0.021080222,0.3974042,-0.42833987,0.1831932,0.7321975,-0.65599316,-0.92909336,-0.08913104,-0.35894448,-0.3212876,0.6752351,0.6639517,,0.9635035988539983,0.4039761566506841,0.16480512544,-0.03984108926205963,-0.20399829414980258,0.9674520135173914,-0.4122804229229209,,-1.2347337001296372,-0.35101365459925243,0.14469577867000002,0.5462423027771859,0.5479123640594162,-0.28710385684785067,0.8616399488583231,,-0.03805254101660637,-0.09251335866352443,0.09127582152,-0.07163176773016745,,3.540516e-05,-1.0728836e-06,9.536743e-07,1.0,-5.4519624e-05,-4.5001507e-05,5.45159e-05,1.0,-5.096197e-06,4.499033e-05,5.155802e-06,0.99999994,744,2.309,0,1,0.408,False,-0.25779281547542787,1.0360930915420377
2.3005293819587678,12:12:42.365995,12:11:41.982241,0,,0.13125768,0.009641632,0.031410605,-0.45189524,-0.5220562,-0.72335875,-0.80416954,-0.112592876,0.58363867,-0.38613737,0.84544647,-0.36894146,,0.023987815,-0.062217917,0.06261718,-0.110178575,-0.6681586,0.7358155,-0.8243803,0.47498608,0.30787206,-0.5552096,-0.572671,-0.6031502,,0.095869444,1.3379613,0.4483877,0.9947974,-0.009835053,-0.10139703,-0.07194132,-0.7725403,-0.63087714,-0.07212858,0.6348896,-0.7692286,,-0.0934217,0.25487465,-0.09690367,0.4391463,0.43514827,0.7860003,-0.8547352,0.47183594,0.2163297,-0.2767277,-0.7668225,0.57914156,,0.021081205,0.39740378,-0.42834228,0.1831975,0.73214525,-0.65605026,-0.92908716,-0.08916775,-0.35895145,-0.32130313,0.6752869,0.6638915,,0.9651022045589628,0.40158983219254873,0.16440975699000002,-0.04634147751007988,-0.18391272868428285,0.9603032793099011,-0.4121170788567866,,-1.2347259773967632,-0.3510291000650009,0.14469448238000002,0.5462423027771859,0.5479123640594162,-0.2871855355879912,0.8614766047921888,,-0.03805254101660637,-0.09251335866352443,0.09127582152,-0.07163176773016745,,3.540516e-05,-1.0728836e-06,9.536743e-07,1.0,-5.4519624e-05,-4.5001507e-05,5.45159e-05,1.0,-5.096197e-06,4.499033e-05,5.155802e-06,0.99999994,757,2.35,0,1,0.408,False,-0.25779281547542787,1.035706849935802
2.3652142949867994,12:12:42.404302,12:11:41.982241,0,,0.1310032,0.009502038,0.031454235,-0.447096,-0.53336865,-0.71806884,-0.80033,-0.11997849,0.5874326,-0.3994711,0.8373307,-0.37322894,,0.023987167,-0.06221683,0.062618256,-0.11017694,-0.6681006,0.73586845,-0.8243767,0.4750134,0.30783954,-0.55521524,-0.57271606,-0.60310215,,0.095869444,1.3379613,0.4483877,0.9947974,-0.009835053,-0.10139703,-0.07194132,-0.7725403,-0.63087714,-0.07212858,0.6348896,-0.7692286,,-0.09318059,0.25480103,-0.097054005,0.43581456,0.44672078,0.78134894,-0.8605502,0.4611383,0.21634412,-0.2636645,-0.76667595,0.58539647,,0.021081705,0.3974054,-0.4283421,0.18319657,0.7320932,-0.6561086,-0.92908955,-0.08919224,-0.35893914,-0.32129672,0.6753401,0.6638405,,0.9662915054215934,0.3994042987891432,0.16424642445,-0.05179341604067752,-0.16778962171196088,0.9530368359638439,-0.4119537347906522,,-1.2347259773967632,-0.3510213773321266,0.14469318609,0.5462423027771859,0.5479123640594162,-0.2872672143281318,0.8613132607260545,,-0.03805254101660637,-0.09251335866352443,0.09127582152,-0.07163176773016745,,3.540516e-05,-1.0728836e-06,9.536743e-07,1.0,-5.4519624e-05,-4.5001507e-05,5.45159e-05,1.0,-5.096197e-06,4.499033e-05,5.155802e-06,0.99999994,766,2.378,0,1,0.408,False,-0.2570778828531757,1.0356102895342432
2.4035136009333655,12:12:42.437696,12:11:41.982241,0,,0.13077943,0.009337291,0.031432122,-0.44477355,-0.53636914,-0.7172758,-0.79978454,-0.122620314,0.58763,-0.40313926,0.8350282,-0.3744414,,0.023987576,-0.06221659,0.062619865,-0.110174194,-0.6680957,0.73587334,-0.82437545,0.47501555,0.30783957,-0.5552176,-0.57272,-0.6030962,,0.095869444,1.3379613,0.4483877,0.9947974,-0.009835053,-0.10139703,-0.07194132,-0.7725403,-0.63087714,-0.07212858,0.6348896,-0.7692286,,-0.09296541,0.25466508,-0.0971677,0.43387276,0.44976532,0.7806828,-0.862555,0.45768425,0.21569404,-0.26029453,-0.7669656,0.58652407,,0.021081096,0.39740673,-0.42834285,0.18319413,0.7320888,-0.6561142,-0.929091,-0.08919451,-0.35893494,-0.32129404,0.6753446,0.6638372,,0.9670792241747642,0.39765123842669425,0.16414790641000002,-0.05451938530597633,-0.1627340712206396,0.9512830569911527,-0.41130035852611513,,-1.2347337001296372,-0.3510213773321266,0.1446918898,0.5462423027771859,0.5479123640594162,-0.2872672143281318,0.8613132607260545,,-0.03805254101660637,-0.09251335866352443,0.09127582152,-0.07163176773016745,,3.540516e-05,-1.0728836e-06,9.536743e-07,1.0,-5.4519624e-05,-4.5001507e-05,5.45159e-05,1.0,-5.096197e-06,4.499033e-05,5.155802e-06,0.99999994,779,2.419,0,1,0.408,False,-0.25737577144578117,1.0354654489319046
2.4369195050094277,12:12:42.473801,12:11:42.128515,0,,0.13055986,0.009187669,0.03142631,-0.43879616,-0.5541285,-0.7073892,-0.79517233,-0.12720245,0.5928916,-0.41851985,0.8226547,-0.3848117,,0.023985758,-0.062216904,0.06261903,-0.11017971,-0.6681657,0.735809,-0.824378,0.47498608,0.3078783,-0.55521286,-0.57266283,-0.6031549,,0.095869444,1.3379613,0.4483877,0.9947974,-0.009835053,-0.10139703,-0.07194132,-0.7725403,-0.63087714,-0.07212858,0.6348896,-0.7692286,,-0.09275505,0.25455117,-0.09728347,0.429601,0.46829626,0.77210206,-0.8691308,0.4464615,0.21279989,-0.24506044,-0.76247674,0.59881103,,0.021083001,0.3974061,-0.42834276,0.18319902,0.7321512,-0.65604323,-0.9290882,-0.089160666,-0.35895064,-0.3212994,0.6752814,0.6638989,,0.9679210020580546,0.3952494685028104,0.16402605515000002,-0.061019773553996584,-0.14442478025207056,0.9366797728563945,-0.4116270466583838,,-1.2347182546638888,-0.3510213773321266,0.1446918898,0.5462423027771859,0.5479123640594162,-0.2871855355879912,0.8614766047921888,,-0.03805254101660637,-0.09251335866352443,0.09127582152,-0.07163176773016745,,3.540516e-05,-1.0728836e-06,9.536743e-07,1.0,-5.4519624e-05,-4.5001507e-05,5.45159e-05,1.0,-5.096197e-06,4.499033e-05,5.155802e-06,0.99999994,788,2.448,0,1,0.408,False,-0.2574949268828224,1.035706849935802
2.4729859239887446,12:12:42.509835,12:11:42.128515,0,,0.13042901,0.00905104,0.031448334,-0.43375885,-0.5634608,-0.703111,-0.79323703,-0.13130784,0.5945866,-0.42735034,0.8156408,-0.39000195,,0.023985408,-0.062217873,0.06262034,-0.110181354,-0.66816354,0.73581064,-0.8243816,0.4749839,0.30787194,-0.5552071,-0.57266706,-0.6031561,,0.095869444,1.3379613,0.4483877,0.9947974,-0.009835053,-0.10139703,-0.07194132,-0.7725403,-0.63087714,-0.07212858,0.6348896,-0.7692286,,-0.09263472,0.25446373,-0.097402416,0.42551202,0.4779848,0.7684205,-0.87347466,0.43894085,0.21064888,-0.23660418,-0.76082945,0.6042822,,0.02108319,0.39740655,-0.42834434,0.18319994,0.73214966,-0.65604466,-0.92908573,-0.089165494,-0.35895565,-0.3213058,0.6752824,0.6638947,,0.9683225841675144,0.39372036739371397,0.16390809276,-0.06647171208459422,-0.13404040626989708,0.9300906231986993,-0.4114637025922494,,-1.2347182546638888,-0.3510291000650009,0.14469059351000002,0.5462423027771859,0.5479123640594162,-0.2871855355879912,0.8614766047921888,,-0.03805254101660637,-0.09251335866352443,0.09127582152,-0.07163176773016745,,3.540516e-05,-1.0728836e-06,9.536743e-07,1.0,-5.4519624e-05,-4.5001507e-05,5.45159e-05,1.0,-5.096197e-06,4.499033e-05,5.155802e-06,0.99999994,801,2.489,0,1,0.408,False,-0.2575545046013441,1.0355620093334637
2.509032945963554,12:12:42.545408,12:11:42.128515,0,,0.1303573,0.008929774,0.031573147,-0.42998406,-0.5760718,-0.6951654,-0.78640604,-0.13924634,0.6018107,-0.44348553,0.80545115,-0.39315248,,0.023986325,-0.06221771,0.0626207,-0.110178575,-0.66809845,0.7358701,-0.8243803,0.47501123,0.3078332,-0.5552096,-0.5727203,-0.6031034,,0.095869444,1.3379613,0.4483877,0.9947974,-0.009835053,-0.10139703,-0.07194132,-0.7725403,-0.63087714,-0.07212858,0.6348896,-0.7692286,,-0.09258173,0.25445372,-0.09758275,0.42362484,0.4910071,0.7612188,-0.8788163,0.426498,0.21396591,-0.21959949,-0.75961274,0.6121802,,0.021082236,0.39740688,-0.42834437,0.1831975,0.73209167,-0.65611005,-0.92908716,-0.08919707,-0.35894418,-0.32130313,0.6753411,0.6638363,,0.9685079297564958,0.39229166181198244,0.16371105668000002,-0.07003644112383114,-0.11504793280250085,0.922199657417969,-0.4116270466583838,,-1.2347259773967632,-0.3510291000650009,0.14469059351000002,0.5462423027771859,0.5479123640594162,-0.28726721432813174,0.8616399488583231,,-0.03805254101660637,-0.09251335866352443,0.09127582152,-0.07163176773016745,,3.540516e-05,-1.0728836e-06,9.536743e-07,1.0,-5.4519624e-05,-4.5001507e-05,5.45159e-05,1.0,-5.096197e-06,4.499033e-05,5.155802e-06,0.99999994,810,2.517,0,1,0.408,False,-0.25791197091247,1.0352240479280073
2.5446289379615337,12:12:42.575298,12:11:42.128515,0,,0.13034932,0.008877322,0.031742543,-0.42772242,-0.58750916,-0.68693995,-0.77847433,-0.14680052,0.6102682,-0.45938128,0.79579043,-0.3945709,,0.023986742,-0.062217485,0.06262237,-0.110175826,-0.667793,0.73614776,-0.8243791,0.47513908,0.30763918,-0.555212,-0.5729705,-0.60286343,,0.095869444,1.3379613,0.4483877,0.9947974,-0.009835053,-0.10139703,-0.07194132,-0.7725403,-0.63087714,-0.07212858,0.6348896,-0.7692286,,-0.0925923,0.25452393,-0.09774544,0.42328236,0.50283587,0.7536499,-0.88314056,0.41467136,0.2193408,-0.2022246,-0.7584219,0.61959785,,0.021081625,0.39740822,-0.4283451,0.18319507,0.7318193,-0.65641457,-0.9290886,-0.08934591,-0.3589035,-0.32130048,0.6756167,0.6635572,,0.9685697116194896,0.3915348339903084,0.16352439092,-0.07171396067170732,-0.09646536883440095,0.9151330177891714,-0.4114637025922493,,-1.2347337001296372,-0.3510291000650009,0.14468929722,0.5462423027771859,0.5479123640594162,-0.2876756080288346,0.8608232285276516,,-0.03805254101660637,-0.09251335866352443,0.09127582152,-0.07163176773016745,,3.540516e-05,-1.0728836e-06,9.536743e-07,1.0,-5.4519624e-05,-4.5001507e-05,5.45159e-05,1.0,-5.096197e-06,4.499033e-05,5.155802e-06,0.99999994,823,2.558,0,1,0.408,False,-0.25719703829021734,1.0354654489319046
2.5745197830256075,12:12:42.621218,12:11:42.262397,0,,0.13031337,0.008756518,0.032063037,-0.42272004,-0.60010046,-0.6791076,-0.7695905,-0.15801814,0.61867666,-0.47857952,0.7841616,-0.39503402,,0.023984753,-0.062214654,0.06262201,-0.11010751,-0.6677809,0.736169,-0.82431567,0.47518015,0.30774575,-0.55531967,-0.57295054,-0.6027832,,0.095869444,1.3379613,0.4483877,0.9947974,-0.009835053,-0.10139703,-0.07194132,-0.7725403,-0.63087714,-0.07212858,0.6348896,-0.7692286,,-0.09259277,0.2546407,-0.09806943,0.42057168,0.5157849,0.7463815,-0.8889297,0.39880025,0.22530499,-0.18144824,-0.7582376,0.62622064,,0.021083616,0.39740992,-0.42834288,0.18314046,0.73180455,-0.6564463,-0.92914104,-0.089306384,-0.3587775,-0.32117984,0.67563784,0.663594,,0.9688013936057163,0.39068533337414374,0.16317309633000002,-0.07611744948488233,-0.07433025587239961,0.9089267347107327,-0.41195373479065234,,-1.2347182546638888,-0.35101365459925243,0.14468929722,0.5462423027771859,0.5480490005591817,-0.28770534719239055,0.8606598844615173,,-0.03805254101660637,-0.09251335866352443,0.09127582152,-0.07163176773016745,,3.540516e-05,-1.0728836e-06,9.536743e-07,1.0,-5.4519624e-05,-4.5001507e-05,5.45159e-05,1.0,-5.096197e-06,4.499033e-05,5.155802e-06,0.99999994,836,2.6,0,1,0.408,False,-0.2588652144088064,1.0362379321443762
2.6204381049610674,12:12:42.654298,12:11:42.262397,0,,0.13026147,0.008714803,0.032303184,-0.41951987,-0.61138743,-0.6709756,-0.7630439,-0.16286945,0.62548983,-0.4916981,0.7743892,-0.39818847,,0.023985013,-0.062213387,0.0626235,-0.11010313,-0.6677781,0.7361722,-0.8243108,0.47518447,0.30775207,-0.55532783,-0.5729503,-0.602776,,0.095869444,1.3379613,0.4483877,0.9947974,-0.009835053,-0.10139703,-0.07194132,-0.7725403,-0.63087714,-0.07212858,0.6348896,-0.7692286,,-0.092565544,0.25476572,-0.098283276,0.41896316,0.5276275,0.7389716,-0.89252,0.3889541,0.22830394,-0.1669666,-0.75519794,0.6338756,,0.021083161,0.39741182,-0.42834276,0.18313709,0.7318017,-0.6564504,-0.92914486,-0.089303814,-0.35876825,-0.32117072,0.6756413,0.6635949,,0.969272480311044,0.3902683057989356,0.16293846784000002,-0.07884341875018115,-0.05916360439843572,0.9001532119666145,-0.4116270466583838,,-1.2347259773967632,-0.3510059318663782,0.14468800093,0.5462423027771859,0.5480490005591817,-0.2877053471923905,0.860986572593786,,-0.03805254101660637,-0.09251335866352443,0.09127582152,-0.07163176773016745,,3.540516e-05,-1.0728836e-06,9.536743e-07,1.0,-5.4519624e-05,-4.5001507e-05,5.45159e-05,1.0,-5.096197e-06,4.499033e-05,5.155802e-06,0.99999994,845,2.628,0,1,0.408,False,-0.2580311263495121,1.0358516905381403
2.653524548979476,12:12:42.687081,12:11:42.262397,0,,0.13016775,0.008745126,0.032708064,-0.41195697,-0.6236918,-0.6643041,-0.7511759,-0.18021402,0.63502574,-0.51577735,0.76061237,-0.39426175,,0.023985028,-0.06221546,0.062622964,-0.11017532,-0.6679223,0.73603046,-0.8243731,0.4750909,0.30772954,-0.55522096,-0.57285964,-0.6029606,,0.095869444,1.3379613,0.4483877,0.9947974,-0.009835053,-0.10139703,-0.07194132,-0.7725403,-0.63087714,-0.07212858,0.6348896,-0.7692286,,-0.09250776,0.25505316,-0.09857937,0.41432318,0.5401414,0.7325186,-0.8992507,0.36702436,0.2379944,-0.14030156,-0.75732446,0.63778925,,0.021083234,0.3974101,-0.42834404,0.18319565,0.73193395,-0.65628654,-0.929092,-0.08927537,-0.35891226,-0.32129028,0.6755017,0.6636791,,0.9703999993106808,0.3898821691552244,0.16260272873,-0.08555349694168593,-0.03169966794558218,0.8966260022961037,-0.41244376698905505,,-1.2347259773967632,-0.35101365459925243,0.14468800093,0.5462423027771859,0.5479123640594162,-0.2875122505485534,0.8614766047921888,,-0.03805254101660637,-0.09251335866352443,0.09127582152,-0.07163176773016745,,3.540516e-05,-1.0728836e-06,9.536743e-07,1.0,-5.4519624e-05,-4.5001507e-05,5.45159e-05,1.0,-5.096197e-06,4.499033e-05,5.155802e-06,0.99999994,867,2.699,0,1,0.408,False,-0.25820985950507547,1.0360930915420377
2.6863007799256593,12:12:42.746838,12:11:42.262397,0,,0.12996301,0.008845463,0.033126116,-0.39836365,-0.636821,-0.6601252,-0.74017745,-0.20185253,0.64139915,-0.5417044,0.7441198,-0.39094973,,0.023986205,-0.062214028,0.06262481,-0.11016817,-0.6679146,0.73603857,-0.8243669,0.47509745,0.30773592,-0.55523145,-0.5728633,-0.6029474,,0.095869444,1.3379613,0.4483877,0.9947974,-0.009835053,-0.10139703,-0.07194132,-0.7725403,-0.63087714,-0.07212858,0.6348896,-0.7692286,,-0.09233686,0.25540423,-0.09885196,0.40380806,0.5534813,0.7284212,-0.90794206,0.34007996,0.24492207,-0.112161666,-0.76026577,0.639856,,0.021081826,0.39741233,-0.42834395,0.18318984,0.7319267,-0.65629625,-0.9290972,-0.089275055,-0.35889882,-0.3212785,0.67550963,0.66367674,,0.9724079098579791,0.3894188051827709,0.16229291542000002,-0.09876396338121096,-0.002732729995308809,0.893588449227884,-0.41309714325359215,,-1.2347414228625115,-0.3510059318663782,0.14468670464000002,0.5462423027771859,0.5479123640594162,-0.2875122505485534,0.8614766047921888,,-0.03805254101660637,-0.09251335866352443,0.09127582152,-0.07163176773016745,,3.540516e-05,-1.0728836e-06,9.536743e-07,1.0,-5.4519624e-05,-4.5001507e-05,5.45159e-05,1.0,-5.096197e-06,4.499033e-05,5.155802e-06,0.99999994,876,2.726,0,1,0.408,False,-0.25695872741613357,1.035079207325669
2.746065762010403,12:12:42.783987,12:11:42.442487,0,,0.12981626,0.008810535,0.033248037,-0.39483282,-0.6387725,-0.66036093,-0.7400759,-0.20478609,0.64058596,-0.54442155,0.7416415,-0.3918837,,0.023983464,-0.06221452,0.06262368,-0.11017645,-0.66792935,0.7360239,-0.8243708,0.47509092,0.30773586,-0.55522424,-0.5728515,-0.60296535,,0.095869444,1.3379613,0.4483877,0.9947974,-0.009835053,-0.10139703,-0.07194132,-0.7725403,-0.63087714,-0.07212858,0.6348896,-0.7692286,,-0.09220411,0.25545925,-0.098982215,0.40055257,0.55548257,0.7286952,-0.90968704,0.33627254,0.24370126,-0.1096684,-0.7604998,0.6400101,,0.021084687,0.3974114,-0.42834383,0.18319717,0.7319399,-0.6562795,-0.929093,-0.089268275,-0.35891142,-0.32128656,0.6754962,0.6636865,,0.9733500832686345,0.3890481140048081,0.16216069384,-0.10274807230741693,0.00013663649976544044,0.8923104968720865,-0.4116270466583837,,-1.2347182546638888,-0.3510059318663782,0.14468670464000002,0.5462423027771859,0.5479123640594162,-0.28751225054855345,0.8611499166599202,,-0.03805254101660637,-0.09251335866352443,0.09127582152,-0.07163176773016745,,3.540516e-05,-1.0728836e-06,9.536743e-07,1.0,-5.4519624e-05,-4.5001507e-05,5.45159e-05,1.0,-5.096197e-06,4.499033e-05,5.155802e-06,0.99999994,889,2.768,0,1,0.408,False,-0.2580311263495121,1.0345481251170952
2.783197270007804,12:12:42.819234,12:11:42.442487,0,,0.12969488,0.008814588,0.033314884,-0.393258,-0.6466284,-0.65362054,-0.7344191,-0.20677224,0.6464316,-0.55315167,0.73424566,-0.39358127,,0.02398453,-0.062215354,0.06262416,-0.11017532,-0.6679223,0.73603046,-0.8243731,0.4750909,0.30772954,-0.55522096,-0.57285964,-0.6029606,,0.095869444,1.3379613,0.4483877,0.9947974,-0.009835053,-0.10139703,-0.07194132,-0.7725403,-0.63087714,-0.07212858,0.6348896,-0.7692286,,-0.09208934,0.25550774,-0.099043,0.40010732,0.5638583,0.7224805,-0.91107833,0.33009127,0.24693322,-0.099249154,-0.7570361,0.645791,,0.021083577,0.39741114,-0.42834473,0.18319565,0.73193395,-0.65628654,-0.929092,-0.08927537,-0.35891226,-0.32129028,0.6755017,0.6636791,,0.974122356556057,0.38826039525163725,0.16209847192000001,-0.10379652202483955,0.011340829480531557,0.8847261248316507,-0.41309714325359215,,-1.2347259773967632,-0.35101365459925243,0.14468670464000002,0.5462423027771859,0.5479123640594162,-0.28751225054855345,0.8601698522631145,,-0.03805254101660637,-0.09251335866352443,0.09127582152,-0.07163176773016745,,3.540516e-05,-1.0728836e-06,9.536743e-07,1.0,-5.4519624e-05,-4.5001507e-05,5.45159e-05,1.0,-5.096197e-06,4.499033e-05,5.155802e-06,0.99999994,898,2.796,0,1,0.408,False,-0.2580907040680329,1.034741245920213
2.8184538779314607,12:12:42.854406,12:11:42.442487,0,,0.12966152,0.00882259,0.03337075,-0.39098272,-0.6522409,-0.6493953,-0.7258096,-0.21537632,0.6533097,-0.5659797,0.7267699,-0.3891942,,0.023984231,-0.062213298,0.06262392,-0.11017205,-0.66786647,0.7360817,-0.8243659,0.47512037,0.30770344,-0.5552323,-0.5729004,-0.60291135,,0.095869444,1.3379613,0.4483877,0.9947974,-0.009835053,-0.10139703,-0.07194132,-0.7725403,-0.63087714,-0.07212858,0.6348896,-0.7692286,,-0.09206084,0.25555062,-0.09908356,0.39950842,0.5696364,0.71826696,-0.91289586,0.31878808,0.2549418,-0.08375082,-0.7575543,0.64737725,,0.02108389,0.39741227,-0.428343,0.18319379,0.73188347,-0.6563434,-0.92909676,-0.08929502,-0.3588949,-0.32127744,0.67555386,0.6636323,,0.9743231476107869,0.38742634010122096,0.16205699064,-0.10484497174226218,0.02773720945238441,0.8834444299288833,-0.4127704551213237,,-1.2347259773967632,-0.350998209133504,0.14468670464000002,0.5462423027771859,0.5479123640594162,-0.287593929288694,0.8600065081969802,,-0.03805254101660637,-0.09251335866352443,0.09127582152,-0.07163176773016745,,3.540516e-05,-1.0728836e-06,9.536743e-07,1.0,-5.4519624e-05,-4.5001507e-05,5.45159e-05,1.0,-5.096197e-06,4.499033e-05,5.155802e-06,0.99999994,911,2.838,0,1,0.408,False,-0.25767366003838577,1.0350309271248894
2.85362033394631,12:12:42.890995,12:11:42.442487,0,,0.12964284,0.008794233,0.03345555,-0.38398358,-0.66339904,-0.642229,-0.71432066,-0.2272982,0.6618772,-0.5850663,0.71290743,-0.3866008,,0.02398464,-0.062213015,0.06262547,-0.110169284,-0.6678014,0.73614115,-0.82436466,0.47514766,0.30766463,-0.5552347,-0.5729536,-0.60285854,,0.095869444,1.3379613,0.4483877,0.9947974,-0.009835053,-0.10139703,-0.07194132,-0.7725403,-0.63087714,-0.07212858,0.6348896,-0.7692286,,-0.09205165,0.25558442,-0.09916792,0.39494982,0.5813256,0.7113896,-0.9166646,0.30090764,0.26302212,-0.061161093,-0.7559862,0.651724,,0.021083279,0.39741364,-0.4283437,0.18319134,0.7318254,-0.6564088,-0.9290982,-0.08932659,-0.3588834,-0.32127476,0.67561257,0.6635738,,0.9742999794121642,0.3861289209783513,0.16197791695000002,-0.11008722032937529,0.05178523341110193,0.8783736946233331,-0.41244376698905516,,-1.2347337001296372,-0.350998209133504,0.14468540835000002,0.5462423027771859,0.5479123640594162,-0.28767560802883463,0.860496540395383,,-0.03805254101660637,-0.09251335866352443,0.09127582152,-0.07163176773016745,,3.540516e-05,-1.0728836e-06,9.536743e-07,1.0,-5.4519624e-05,-4.5001507e-05,5.45159e-05,1.0,-5.096197e-06,4.499033e-05,5.155802e-06,0.99999994,920,2.866,0,1,0.408,False,-0.2584481703791588,1.0356102895342432
2.890210733981803,12:12:42.920445,12:11:42.571574,0,,0.12960392,0.008730926,0.033519983,-0.378573,-0.6742173,-0.63412416,-0.70896715,-0.22920874,0.66695493,-0.5950194,0.7020643,-0.39122552,,0.023985423,-0.06221391,0.06262523,-0.11023708,-0.66788274,0.7360572,-0.8244221,0.47508362,0.30760956,-0.55513597,-0.57291186,-0.6029892,,0.095869444,1.3379613,0.4483877,0.9947974,-0.009835053,-0.10139703,-0.07194132,-0.7725403,-0.63087714,-0.07212858,0.6348896,-0.7692286,,-0.09202245,0.25557876,-0.09926168,0.39078608,0.5929666,0.7040432,-0.91914386,0.29259506,0.26374733,-0.0496062,-0.7501858,0.6593637,,0.021082552,0.39741278,-0.42834416,0.18324654,0.7319012,-0.6563088,-0.92904913,-0.08932487,-0.3590109,-0.3213852,0.6755306,0.6636037,,0.9743308703436611,0.3852099157663185,0.16189236181000002,-0.11470039908603481,0.06435579138952245,0.8681232474832625,-0.41244376698905516,,-1.2347414228625115,-0.350998209133504,0.14468540835000002,0.5462423027771859,0.5477757275596508,-0.2875641901251381,0.860496540395383,,-0.03805254101660637,-0.09251335866352443,0.09127582152,-0.07163176773016745,,3.540516e-05,-1.0728836e-06,9.536743e-07,1.0,-5.4519624e-05,-4.5001507e-05,5.45159e-05,1.0,-5.096197e-06,4.499033e-05,5.155802e-06,0.99999994,933,2.908,0,1,0.408,False,-0.2591631030014119,1.0353688885303458
