AlexandreBanks6/ExpertPlaybackApp/resources/Motions/Pilot_05/PC1/Data_PC1_4.csv
Task Time,PC1 Time,PC2 Time,Gaze Calib,s_T_psm1,Tx,Ty,Tz,R00,R01,R02,R10,R11,R12,R20,R21,R22,s_T_psm3,Tx,Ty,Tz,R00,R01,R02,R10,R11,R12,R20,R21,R22,cart_T_ecm,Tx,Ty,Tz,R00,R01,R02,R10,R11,R12,R20,R21,R22,ecm_T_psm1,Tx,Ty,Tz,R00,R01,R02,R10,R11,R12,R20,R21,R22,ecm_T_psm3,Tx,Ty,Tz,R00,R01,R02,R10,R11,R12,R20,R21,R22,psm1_joints,q1,q2,q3,q4,q5,q6,jaw,psm3_joints,q1,q2,q3,q4,q5,q6,jaw,ecm_joints,q1,q2,q3,q4,ecmi_T_ecm,Tx,Ty,Tz,R00,R01,R02,R10,R11,R12,R20,R21,R22,Sample #,Task Duration (s),Collisions (binary),Collisions (increments),Cumulative Collision Time (s),Clutch Press,MTMR Angle,MTML Angle
""
lci_T_si,,,,,-0.06405862,0.016163385,0.23836872,0.9936273,-0.018126413,0.1112486,0.06163678,-0.7389648,-0.6709187,0.09437015,0.6735001,-0.7331383
rci_T_si,,,,,-0.07404149,0.020406518,0.24901661,0.991507,-0.031528454,0.12617382,0.062267285,-0.73666036,-0.67339015,0.1141782,0.6755276,-0.7284407
ecm_T_lc,,,,,-4.4061628e-05,-0.00034663224,-0.01840835,-0.99912,0.030754527,0.028518902,-0.031987965,-0.99852574,-0.043852776,0.027128186,-0.04472645,0.9986309
ecm_T_rc,,,,,-0.0043358393,0.01870579,-0.007592615,-0.99555075,-0.052743673,-0.078081585,0.04863213,-0.9973746,0.053654674,-0.08070653,0.04961868,0.9955021
cart_T_ecmi,,,,,0.10736985,1.3461393,0.4449551,0.99602276,0.009220387,-0.08862091,-0.050110485,-0.7644486,-0.6427342,-0.07367239,0.64461875,-0.76094615
ecmac_T_ecmrep_psm1,,,,,0.0019077883,-0.24418817,-0.31129345,0.9990406,0.03670117,0.023893757,-0.03487346,0.99673134,-0.072872825,-0.026490174,0.07196965,0.997055
ecmac_T_ecmrep_psm3,,,,,-0.025437847,-0.43631262,-0.5392238,0.9997681,0.02112905,0.0041644988,-0.020983119,0.99925387,-0.03242474,-0.0048464956,0.032329835,0.9994655
""
0,18:11:03.252358,18:10:47.621227,0,,0.13189961,0.00037501752,0.02538973,0.6963293,0.18311429,-0.69397,0.47078797,0.6132941,0.63421524,0.5417416,-0.76833546,0.3408466,,0.09844585,-0.005991265,0.017373383,0.011987511,0.6963897,0.71756357,0.8638228,-0.3686673,0.3433578,0.50365293,0.61573184,-0.6059768,,0.10735227,1.3461424,0.444943,0.9960238,0.009236286,-0.08860754,-0.05008977,-0.7644484,-0.6427361,-0.07367239,0.64461875,-0.76094615,,-0.08762958,0.25695625,-0.08559926,-0.7410133,-0.08335134,0.66629714,0.67074394,-0.0451063,0.74031615,-0.031652138,0.99549884,0.08933177,,-0.033652503,0.44173047,-0.30661574,-0.05758175,-0.782707,-0.619721,0.9723413,0.09677496,-0.21257234,0.22635533,-0.6148206,0.75548583,,0.8836350954687684,0.3440786404781988,0.19708274644,3.4689007350644863,-0.20181211015355555,-1.6451099227946824,-0.4106469822615779,,-0.9798835152802284,0.0696976641898762,0.21911319499,-2.715275078181106,-0.14920705774386098,0.1882365240510504,0.8642534539164715,,-0.046482481303738984,-0.07979645340118074,0.07698830152,-0.06345462529521684,,-1.6763806e-05,-1.0371208e-05,8.821487e-06,0.99999994,1.5828758e-05,1.3411045e-05,-1.5828758e-05,1.0,1.5199184e-06,-1.3399869e-05,-1.5199184e-06,1.0,36,0.108,1,1,0.085,False,-0.2622015666459845,1.0383139807778927
0.12882920799893327,18:11:03.282325,18:10:47.621227,0,,0.13178897,0.0003899485,0.025502712,0.69511855,0.18187392,-0.6955082,0.47232834,0.61380595,0.63257265,0.54195553,-0.7682214,0.3407637,,0.09845197,-0.0059942305,0.017373264,0.012063969,0.6964507,0.71750295,0.8638819,-0.3686107,0.34327006,0.5035499,0.6156967,-0.6060981,,0.10735227,1.3461424,0.444943,0.9960238,0.009236286,-0.08860754,-0.05008977,-0.7644484,-0.6427361,-0.07367239,0.64461875,-0.76094615,,-0.08753177,0.25704712,-0.08568531,-0.7397991,-0.082119875,0.66779757,0.67211664,-0.044576187,0.73910224,-0.030927116,0.9956251,0.08817156,,-0.033658635,0.44172776,-0.30661693,-0.057641983,-0.7827612,-0.6196469,0.97230893,0.09678807,-0.2127143,0.22647893,-0.61474955,0.75550663,,0.8842838050302032,0.3441326996083184,0.19697904324,3.4665941456861566,-0.20153883715402465,-1.6453327586020752,-0.4106469822615779,,-0.9799066834788511,0.06968221872412775,0.21911578757000003,-2.715275078181106,-0.14907042124409553,0.18812510614735395,0.8639267657842029,,-0.046482481303738984,-0.07979645340118074,0.07698830152,-0.06345462529521684,,-1.6763806e-05,-1.0371208e-05,8.821487e-06,0.99999994,1.5828758e-05,1.3411045e-05,-1.5828758e-05,1.0,1.5199184e-06,-1.3399869e-05,-1.5199184e-06,1.0,49,0.148,1,1,0.125,False,-0.2620824112089424,1.0387002223841284
0.15878772000723984,18:11:03.329605,18:10:47.621227,0,,0.13157445,0.00045491755,0.025721878,0.6911344,0.18439955,-0.6988059,0.47341084,0.61508214,0.6305204,0.5460907,-0.7665968,0.33780766,,0.098455116,-0.0059970617,0.0173707,0.012221523,0.6966626,0.7172946,0.863995,-0.36846313,0.34314373,0.5033519,0.6155453,-0.6064163,,0.10735227,1.3461424,0.444943,0.9960238,0.009236286,-0.08860754,-0.05008977,-0.7644484,-0.6427361,-0.07367239,0.64461875,-0.76094615,,-0.087341316,0.25725067,-0.08582873,-0.73627186,-0.084779784,0.67135394,0.67584515,-0.0426915,0.7358062,-0.03372039,0.9954847,0.08873056,,-0.033661474,0.44172373,-0.30661666,-0.05776829,-0.78294677,-0.6194007,0.9722459,0.096777685,-0.21300712,0.2267174,-0.6145148,0.7556261,,0.8856970651461863,0.3441790360055637,0.1968027478,3.461142207155559,-0.20550129564722242,-1.642673390575863,-0.4098302619309069,,-0.9799144062117253,0.06967449599125353,0.21911838015000001,-2.715275078181106,-0.14879714824456466,0.18782059159982054,0.8644167979826058,,-0.046482481303738984,-0.07979645340118074,0.07698830152,-0.06345462529521684,,-1.6763806e-05,-1.0371208e-05,8.821487e-06,0.99999994,1.5828758e-05,1.3411045e-05,-1.5828758e-05,1.0,1.5199184e-06,-1.3399869e-05,-1.5199184e-06,1.0,61,0.185,0,1,0.156,False,-0.26232072208302704,1.0381691401755546
0.2060668050107779,18:11:03.369504,18:10:47.621227,0,,0.13139343,0.00054340065,0.025840864,0.686093,0.18418935,-0.7038112,0.47505116,0.6192765,0.6251583,0.55100137,-0.7632632,0.33738196,,0.098469704,-0.00600332,0.017369151,0.012224738,0.6965611,0.71739316,0.86400807,-0.36849764,0.3430739,0.5033295,0.61563945,-0.6063392,,0.10735227,1.3461424,0.444943,0.9960238,0.009236286,-0.08860754,-0.05008977,-0.7644484,-0.6427361,-0.07367239,0.64461875,-0.76094615,,-0.087172575,0.25740504,-0.08587822,-0.73176706,-0.084843814,0.67625326,0.6805586,-0.03733408,0.73174185,-0.036836475,0.9956946,0.085061036,,-0.03367587,0.44171703,-0.30661806,-0.057768103,-0.78285986,-0.61951053,0.97224,0.0968238,-0.2130132,0.22674285,-0.61461824,0.7555343,,0.8869172569403139,0.3441404223411926,0.19673015556,3.4544321289640547,-0.21001030013948196,-1.6442240391228773,-0.40983026193090644,,-0.9799607426089707,0.06962815959400818,0.21912615789000003,-2.715275078181106,-0.14879714824456466,0.18790227033996112,0.8642534539164715,,-0.046482481303738984,-0.07979645340118074,0.07698830152,-0.06345462529521684,,-1.6763806e-05,-1.0371208e-05,8.821487e-06,0.99999994,1.5828758e-05,1.3411045e-05,-1.5828758e-05,1.0,1.5199184e-06,-1.3399869e-05,-1.5199184e-06,1.0,86,0.263,0,1,0.156,False,-0.26196325577190027,1.038024299573216
0.24594372900901362,18:11:03.435706,18:10:47.779197,0,,0.13110086,0.00065240264,0.025940448,0.67897445,0.18634504,-0.7101189,0.47724703,0.62297094,0.61979216,0.5578787,-0.75972533,0.33404878,,0.09849504,-0.006010562,0.017369986,0.012216572,0.69654286,0.7174109,0.86402214,-0.36848438,0.3430527,0.50330555,0.61566806,-0.6063301,,0.10735227,1.3461424,0.444943,0.9960238,0.009236286,-0.08860754,-0.05008977,-0.7644484,-0.6427361,-0.07367239,0.64461875,-0.76094615,,-0.08689038,0.25756848,-0.08591072,-0.72540265,-0.0872925,0.68276715,0.6870863,-0.032352637,0.7258552,-0.041272394,0.9956572,0.08344617,,-0.033701263,0.44171044,-0.30662066,-0.057756405,-0.7828453,-0.61952996,0.9722346,0.0968542,-0.21302381,0.22676878,-0.61463195,0.75551534,,0.8887243764328824,0.3437542856974814,0.19667830396000002,3.444996081507251,-0.21670548862798855,-1.6428484988487806,-0.40885019753410123,,-0.9800534154034614,0.06956637773101439,0.21913782450000002,-2.715275078181106,-0.14879714824456466,0.1878205915998206,0.8636000776519344,,-0.046482481303738984,-0.07979645340118074,0.07698830152,-0.06345462529521684,,-1.6763806e-05,-1.0371208e-05,8.821487e-06,0.99999994,1.5828758e-05,1.3411045e-05,-1.5828758e-05,1.0,1.5199184e-06,-1.3399869e-05,-1.5199184e-06,1.0,94,0.287,0,1,0.156,False,-0.2622611443645053,1.036865574754509
0.3121515160019044,18:11:03.463197,18:10:47.779197,0,,0.13083702,0.0006855428,0.025946587,0.6792163,0.183599,-0.71060276,0.47667456,0.62585443,0.61732286,0.5580738,-0.7580222,0.33757356,,0.09849882,-0.006011203,0.017366052,0.012145352,0.69657534,0.7173807,0.8639726,-0.36848772,0.34317374,0.50339216,0.6156293,-0.6062975,,0.10735227,1.3461424,0.444943,0.9960238,0.009236286,-0.08860754,-0.05008977,-0.7644484,-0.6427361,-0.07367239,0.64461875,-0.76094615,,-0.08662816,0.25761208,-0.08591963,-0.7256774,-0.08468661,0.68280345,0.68676615,-0.028909383,0.7263033,-0.041768737,0.9959882,0.07913878,,-0.033704497,0.44170704,-0.30661783,-0.05769888,-0.7828723,-0.61950123,0.9722624,0.09682314,-0.21291098,0.22666417,-0.6146025,0.75557077,,0.8901299138159912,0.34318280346478874,0.19666663735,3.4447863915637664,-0.21807185362564296,-1.6461449717794068,-0.4101569500631752,,-0.9800534154034614,0.06955093226526593,0.21914300966000003,-2.715275078181106,-0.14893378474433008,0.1877686520232359,0.8621299810567258,,-0.046482481303738984,-0.07979645340118074,0.07698830152,-0.06345462529521684,,-1.6763806e-05,-1.0371208e-05,8.821487e-06,0.99999994,1.5828758e-05,1.3411045e-05,-1.5828758e-05,1.0,1.5199184e-06,-1.3399869e-05,-1.5199184e-06,1.0,115,0.353,0,1,0.156,False,-0.2621419889274632,1.0365276133490526
0.33955750000313856,18:11:03.534459,18:10:47.930679,0,,0.13044406,0.00072421134,0.0259559,0.6796619,0.18475297,-0.7098772,0.47533718,0.6261398,0.6180643,0.55867165,-0.7575059,0.33774343,,0.098515026,-0.0060142577,0.017365336,0.012063263,0.6964495,0.7175042,0.86392635,-0.36855644,0.3432164,0.5034736,0.6157305,-0.6061272,,0.10735227,1.3461424,0.444943,0.9960238,0.009236286,-0.08860754,-0.05008977,-0.7644484,-0.6427361,-0.07367239,0.64461875,-0.76094615,,-0.08623784,0.25766903,-0.08594,-0.7262164,-0.08588372,0.68208045,0.6861172,-0.028420892,0.7269357,-0.04304661,0.99589974,0.07956602,,-0.033720534,0.4417031,-0.3066175,-0.057629798,-0.7827632,-0.61964554,0.9722898,0.09685074,-0.21277335,0.22656427,-0.6147371,0.7554912,,0.8922073289591576,0.34226379825275605,0.19664589671000002,3.4447863915637664,-0.22066794712118631,-1.6442730678295965,-0.40966691786477205,,-0.9801074745335809,0.06951231860089481,0.21915208369000003,-2.715275078181106,-0.14907042124409553,0.1878800699269323,0.8627833573212629,,-0.046482481303738984,-0.07979645340118074,0.07698830152,-0.06345462529521684,,-1.6763806e-05,-1.0371208e-05,8.821487e-06,0.99999994,1.5828758e-05,1.3411045e-05,-1.5828758e-05,1.0,1.5199184e-06,-1.3399869e-05,-1.5199184e-06,1.0,140,0.431,0,1,0.156,False,-0.26285692154971585,1.0365758935498322
0.41092578700045124,18:11:03.605784,18:10:47.930679,0,,0.12993553,0.00090524554,0.026096761,0.6777525,0.18284991,-0.7121917,0.47706816,0.62768847,0.61515296,0.5595153,-0.75668555,0.33818555,,0.098558456,-0.0060179234,0.017374039,0.011848027,0.6963971,0.71755856,0.86399233,-0.36837488,0.34324527,0.5033655,0.6158984,-0.6060464,,0.10735227,1.3461424,0.444943,0.9960238,0.009236286,-0.08860754,-0.05008977,-0.7644484,-0.6427361,-0.07367239,0.64461875,-0.76094615,,-0.08574399,0.25792575,-0.08597777,-0.724373,-0.084048264,0.68426573,0.6880822,-0.026609458,0.7251447,-0.042739213,0.9961063,0.07710729,,-0.033764824,0.44170317,-0.30662125,-0.05740027,-0.7827293,-0.6197096,0.97228056,0.09710119,-0.21270141,0.22666217,-0.6147407,0.75545883,,0.8952655311773505,0.3419780571364097,0.19656423044000002,3.4403829027505908,-0.22189767561907528,-1.6435153429167504,-0.40983026193090666,,-0.9802928201225624,0.06945053673790101,0.21916893546000002,-2.7154847681245906,-0.14907042124409553,0.1877983911867917,0.8622933251228602,,-0.046482481303738984,-0.07979645340118074,0.07698830152,-0.06345462529521684,,-1.6763806e-05,-1.0371208e-05,8.821487e-06,0.99999994,1.5828758e-05,1.3411045e-05,-1.5828758e-05,1.0,1.5199184e-06,-1.3399869e-05,-1.5199184e-06,1.0,148,0.455,0,1,0.156,False,-0.262797343831195,1.0355137291326841
0.4822571160038933,18:11:03.631315,18:10:47.930679,0,,0.12970209,0.0010201931,0.026203007,0.6783927,0.18177621,-0.711857,0.47671002,0.6283522,0.61475277,0.5590445,-0.7563933,0.33961505,,0.09858387,-0.006021172,0.017371416,0.011835678,0.6965641,0.7173968,0.8640012,-0.3682769,0.34332806,0.50335056,0.6157682,-0.6061911,,0.10735227,1.3461424,0.444943,0.9960238,0.009236286,-0.08860754,-0.05008977,-0.7644484,-0.6427361,-0.07367239,0.64461875,-0.76094615,,-0.08552115,0.25809476,-0.086005576,-0.7249653,-0.08299862,0.6837665,0.68746954,-0.025857452,0.7257528,-0.042556014,0.99621415,0.07580477,,-0.033789728,0.44169715,-0.3066186,-0.057385776,-0.78287446,-0.6195276,0.9722778,0.097072296,-0.21272716,0.22667763,-0.6145604,0.7556009,,0.8968023550193212,0.3421016208623973,0.1965046011,3.4403829027505908,-0.22189767561907528,-1.6435153429167504,-0.4101569500631752,,-0.9803777701841788,0.06940420034065567,0.21918449094000003,-2.7154847681245906,-0.14907042124409553,0.18747167622622946,0.8616399488583231,,-0.046482481303738984,-0.07979645340118074,0.07698830152,-0.06345462529521684,,-1.6763806e-05,-1.0371208e-05,8.821487e-06,0.99999994,1.5828758e-05,1.3411045e-05,-1.5828758e-05,1.0,1.5199184e-06,-1.3399869e-05,-1.5199184e-06,1.0,165,0.509,0,1,0.156,False,-0.2620824112089424,1.0363827727467145
0.5077485910005635,18:11:03.678409,18:10:47.930679,0,,0.12944171,0.0011814237,0.026343375,0.6769959,0.17967477,-0.7137178,0.4782878,0.629653,0.612191,0.5593899,-0.7558135,0.34033626,,0.09862377,-0.0060302317,0.017353892,0.0118458085,0.6965347,0.7174252,0.8640303,-0.3682614,0.34327152,0.5033004,0.61581075,-0.60618937,,0.10735227,1.3461424,0.444943,0.9960238,0.009236286,-0.08860754,-0.05008977,-0.7644484,-0.6427361,-0.07367239,0.64461875,-0.76094615,,-0.08527426,0.2583225,-0.08603148,-0.7235798,-0.0809451,0.68547803,0.68896633,-0.024379393,0.72438323,-0.041923735,0.9964204,0.07340889,,-0.033827107,0.4416757,-0.30660746,-0.057388272,-0.7828507,-0.61955744,0.97226435,0.0971147,-0.2127694,0.2267348,-0.6145841,0.7555645,,0.8985863063132671,0.34241825291024053,0.19643460144000002,3.4372375535983237,-0.22176103911930983,-1.6437901183007277,-0.4098302619309069,,-0.9804704429786695,0.06930380481329075,0.21921819448000002,-2.7154847681245906,-0.14907042124409553,0.18738999748608892,0.8619666369905915,,-0.046482481303738984,-0.07979645340118074,0.07698830152,-0.06345462529521684,,-1.6763806e-05,-1.0371208e-05,8.821487e-06,0.99999994,1.5828758e-05,1.3411045e-05,-1.5828758e-05,1.0,1.5199184e-06,-1.3399869e-05,-1.5199184e-06,1.0,173,0.533,0,1,0.156,False,-0.2622611443645053,1.0358999707389198
0.5548571270046523,18:11:03.712139,18:10:47.930679,0,,0.1294024,0.0012317747,0.026385456,0.6774329,0.17941567,-0.71336836,0.47790664,0.62988377,0.61225134,0.55918664,-0.7556827,0.34096006,,0.09865174,-0.0060399026,0.017328262,0.011580085,0.69617015,0.7177833,0.8638516,-0.36849874,0.3434663,0.5036131,0.6160809,-0.605655,,0.10735227,1.3461424,0.444943,0.9960238,0.009236286,-0.08860754,-0.05008977,-0.7644484,-0.6427361,-0.07367239,0.64461875,-0.76094615,,-0.085238695,0.2583902,-0.08603413,-0.7240002,-0.08069684,0.6850633,0.6885214,-0.02410525,0.72481537,-0.041976687,0.99644715,0.07301371,,-0.033851594,0.4416492,-0.3065923,-0.057172067,-0.7825324,-0.6199794,0.97236526,0.09715106,-0.21229091,0.22635618,-0.6149835,0.75535303,,0.8989492747583556,0.3426267666978446,0.19641774967000003,3.437656933485292,-0.22162440261954441,-1.6439015362044243,-0.4098302619309069,,-0.980485888444418,0.06918796382017738,0.21925189802000003,-2.7154847681245906,-0.1496169672431573,0.18783566910087462,0.8618032929244572,,-0.046482481303738984,-0.07979645340118074,0.07698830152,-0.06345462529521684,,-1.6763806e-05,-1.0371208e-05,8.821487e-06,0.99999994,1.5828758e-05,1.3411045e-05,-1.5828758e-05,1.0,1.5199184e-06,-1.3399869e-05,-1.5199184e-06,1.0,186,0.574,0,1,0.156,False,-0.2623802998015474,1.035803410337361
0.5885805069992784,18:11:03.747743,18:10:48.144930,0,,0.12942521,0.0012559146,0.026403219,0.6772696,0.17931882,-0.7135477,0.4780073,0.6300202,0.6120323,0.55929846,-0.755592,0.3409778,,0.09866343,-0.0060515106,0.017312646,0.011619747,0.6962113,0.7177428,0.8638825,-0.36846465,0.34342542,0.50355935,0.6160549,-0.6057262,,0.10735227,1.3461424,0.444943,0.9960238,0.009236286,-0.08860754,-0.05008977,-0.7644484,-0.6427361,-0.07367239,0.64461875,-0.76094615,,-0.08526278,0.25841877,-0.08602949,-0.723848,-0.08060754,0.68523467,0.6886793,-0.023937553,0.7246708,-0.042011093,0.9964584,0.07283989,,-0.03386135,0.44162923,-0.30658752,-0.057203278,-0.7825687,-0.6199307,0.97234845,0.09715535,-0.21236609,0.22642063,-0.61493665,0.7553718,,0.8989106610939844,0.34282755775257445,0.19641515709000001,3.4374472435418078,-0.22148776611977897,-1.6440129541081205,-0.4098302619309069,,-0.9804781657115438,0.06911073649143513,0.21926745350000001,-2.7154847681245906,-0.1496169672431573,0.18775399036073404,0.8613132607260545,,-0.046482481303738984,-0.07979645340118074,0.07698830152,-0.06345462529521684,,-1.6763806e-05,-1.0371208e-05,8.821487e-06,0.99999994,1.5828758e-05,1.3411045e-05,-1.5828758e-05,1.0,1.5199184e-06,-1.3399869e-05,-1.5199184e-06,1.0,194,0.599,0,1,0.156,False,-0.26232072208302704,1.0362862123451555
0.6241931390104583,18:11:03.775271,18:10:48.144930,0,,0.12960511,0.0012214929,0.026410699,0.6768219,0.17905293,-0.71403915,0.4785162,0.63007903,0.611574,0.55940515,-0.755606,0.34077147,,0.098572105,-0.0060925707,0.017288327,0.006631326,0.6969061,0.71713156,0.86573505,-0.3629116,0.3446708,0.50045854,0.6185604,-0.60574275,,0.10737303,1.3461405,0.44494927,0.9960225,0.009217311,-0.0886235,-0.050114494,-0.76444864,-0.6427339,-0.07367239,0.64461875,-0.76094615,,-0.085459955,0.2583834,-0.08603352,-0.72339106,-0.08032496,0.6857501,0.68917245,-0.023884233,0.7242036,-0.04179301,0.99648255,0.0726354,,-0.033785556,0.44158378,-0.30660337,-0.05177237,-0.7834595,-0.61928254,0.9719684,0.10287771,-0.21140857,0.2293404,-0.6128682,0.75617164,,0.8985863063132671,0.34305923973880115,0.1964138608,3.4370278636548384,-0.22107785662048265,-1.6443472078192098,-0.4098302619309069,,-0.9804704429786695,0.06906440009418979,0.2192804164,-2.721775466429126,-0.1496169672431573,0.18775399036073404,0.8613132607260545,,-0.046482481303738984,-0.07979645340118074,0.07698830152,-0.06345462529521684,,3.5464764e-06,-4.6491623e-06,3.33786e-06,0.99999994,-3.0621886e-06,-2.592802e-06,3.0621886e-06,1.0,-2.9802322e-07,2.603978e-06,2.9802322e-07,1.0,211,0.652,0,1,0.156,False,-0.2622611443645053,1.035706849935802
0.6517423290060833,18:11:03.828988,18:10:48.144930,0,,0.1296929,0.001243785,0.026431113,0.67617357,0.17934868,-0.714579,0.47877285,0.63022846,0.6112189,0.5599693,-0.7554112,0.3402765,,0.09861317,-0.006085597,0.017282248,0.0068311803,0.69692796,0.7171086,0.8657212,-0.36303684,0.34457353,0.50047964,0.6184623,-0.60582536,,0.10737303,1.3461405,0.44494927,0.9960225,0.009217311,-0.0886235,-0.050114494,-0.76444864,-0.6427339,-0.07367239,0.64461875,-0.76094615,,-0.08554892,0.25840876,-0.08602569,-0.7228033,-0.080636926,0.6863331,0.68976945,-0.023660531,0.72364235,-0.04211329,0.9964627,0.0727228,,-0.033825215,0.44158173,-0.30658942,-0.05197354,-0.78347105,-0.6192511,0.971958,0.102718025,-0.21153408,0.22933906,-0.6128802,0.75616235,,0.8982233378681785,0.3434144854510155,0.1964138608,3.4363987938243854,-0.22107785662048265,-1.6443472078192098,-0.4098302619309069,,-0.9806094521704055,0.06904895462844134,0.21931023107000003,-2.7215657764856416,-0.14948033074339184,0.18756089371689705,0.8618032929244572,,-0.046482481303738984,-0.07979645340118074,0.07698830152,-0.06345462529521684,,3.5464764e-06,-4.6491623e-06,3.33786e-06,0.99999994,-3.0621886e-06,-2.592802e-06,3.0621886e-06,1.0,-2.9802322e-07,2.603978e-06,2.9802322e-07,1.0,236,0.73,0,1,0.156,False,-0.26154621174225356,1.0356585697350225
0.7054282290046103,18:11:03.904484,18:10:48.144930,0,,0.12967128,0.0012248456,0.026583299,0.671975,0.17743269,-0.7190042,0.48286882,0.6311455,0.60703635,0.56150424,-0.75509804,0.33843723,,0.098655164,-0.0060784444,0.017298639,0.0068261772,0.69669926,0.71733075,0.8657547,-0.36310232,0.34442037,0.5004218,0.61868143,-0.6056494,,0.10737303,1.3461405,0.44494927,0.9960225,0.009217311,-0.0886235,-0.050114494,-0.76444864,-0.6427339,-0.07367239,0.64461875,-0.76094615,,-0.08554466,0.25849456,-0.08615455,-0.71870804,-0.07874691,0.6908384,0.69410163,-0.022656815,0.7195204,-0.04100781,0.99663717,0.07094199,,-0.033868838,0.441595,-0.30659148,-0.05195988,-0.78327596,-0.61949897,0.9719436,0.10283554,-0.21154302,0.22940308,-0.61310977,0.75595677,,0.8983469015941661,0.343638444704368,0.19626867632000003,3.4301080955198495,-0.22066794712118631,-1.6448448190105802,-0.40950357379863833,,-0.9808179659580096,0.06904895462844134,0.21932319397000002,-2.7215657764856416,-0.1493436942436264,0.1876945120336223,0.8616399488583231,,-0.046482481303738984,-0.07979645340118074,0.07698830152,-0.06345462529521684,,3.5464764e-06,-4.6491623e-06,3.33786e-06,0.99999994,-3.0621886e-06,-2.592802e-06,3.0621886e-06,1.0,-2.9802322e-07,2.603978e-06,2.9802322e-07,1.0,244,0.754,0,1,0.156,False,-0.2613079008681689,1.0343550043139773
0.7809420880075777,18:11:03.930190,18:10:48.144930,0,,0.1296725,0.0011905134,0.026665092,0.6718415,0.17726237,-0.7191709,0.4830493,0.6311981,0.606838,0.56150883,-0.755094,0.33843857,,0.09865842,-0.0060836747,0.017297268,0.0069126226,0.69659203,0.71743405,0.86581844,-0.3631264,0.344235,0.5003105,0.6187881,-0.6056325,,0.10737303,1.3461405,0.44494927,0.9960225,0.009217311,-0.0886235,-0.050114494,-0.76444864,-0.6427339,-0.07367239,0.64461875,-0.76094615,,-0.085555665,0.25852168,-0.086238295,-0.7185718,-0.07857694,0.69099945,0.6942487,-0.022604996,0.71938014,-0.04090665,0.9966517,0.070795245,,-0.03387201,0.44158995,-0.30659366,-0.052028764,-0.78318477,-0.6196084,0.97190833,0.10289815,-0.21167473,0.229537,-0.61321574,0.75583017,,0.8983237333955434,0.3437002265673618,0.19618052860000001,3.429898405576365,-0.22053131062142087,-1.6449562369142767,-0.40950357379863833,,-0.9808256886908838,0.06902578642981867,0.21932449026000003,-2.7215657764856416,-0.14920705774386098,0.18782813035034757,0.8608232285276516,,-0.046482481303738984,-0.07979645340118074,0.07698830152,-0.06345462529521684,,3.5464764e-06,-4.6491623e-06,3.33786e-06,0.99999994,-3.0621886e-06,-2.592802e-06,3.0621886e-06,1.0,-2.9802322e-07,2.603978e-06,2.9802322e-07,1.0,261,0.808,0,1,0.156,False,-0.2626186106756321,1.0341618835108592
0.8066576200071722,18:11:03.978622,18:10:48.352687,0,,0.12972516,0.0010554045,0.026948512,0.6696759,0.17582919,-0.7215387,0.4855086,0.631545,0.60451007,0.5619746,-0.7551391,0.33756378,,0.09866252,-0.006091036,0.017295957,0.0069278833,0.696576,0.71744955,0.86583257,-0.3631256,0.34420007,0.5002857,0.6188066,-0.605634,,0.10737303,1.3461405,0.44494927,0.9960225,0.009217311,-0.0886235,-0.050114494,-0.76444864,-0.6427339,-0.07367239,0.64461875,-0.76094615,,-0.085642315,0.25860074,-0.086534254,-0.71641564,-0.07714005,0.69339603,0.6965338,-0.022292763,0.71717757,-0.0398654,0.99677104,0.06970154,,-0.03387608,0.44158342,-0.30659723,-0.052040152,-0.7831714,-0.6196244,0.97190076,0.10291246,-0.21170239,0.22956632,-0.61323047,0.7558093,,0.897929874018958,0.3439859676837081,0.19587071529000002,3.426753056424097,-0.2195748551230628,-1.6457361622401518,-0.40950357379863833,,-0.9808334114237581,0.06898717276544755,0.21932578655,-2.7215657764856416,-0.14920705774386098,0.18782813035034757,0.8601698522631145,,-0.046482481303738984,-0.07979645340118074,0.07698830152,-0.06345462529521684,,3.5464764e-06,-4.6491623e-06,3.33786e-06,0.99999994,-3.0621886e-06,-2.592802e-06,3.0621886e-06,1.0,-2.9802322e-07,2.603978e-06,2.9802322e-07,1.0,269,0.832,0,1,0.156,False,-0.2622015666459845,1.0333411200976084
0.8550775710027665,18:11:04.010149,18:10:48.352687,0,,0.12979506,0.0009878874,0.027179241,0.66913337,0.17985249,-0.7210502,0.48342207,0.6315744,0.60614926,0.56441426,-0.75416625,0.33566278,,0.09866308,-0.0060969368,0.01729083,0.006948743,0.69663554,0.71739143,0.8658463,-0.36309257,0.34420067,0.5002618,0.618759,-0.60570234,,0.10737303,1.3461405,0.44494927,0.9960225,0.009217311,-0.0886235,-0.050114494,-0.76444864,-0.6427339,-0.07367239,0.64461875,-0.76094615,,-0.08573874,0.2586958,-0.08674485,-0.71619284,-0.0812444,0.6931574,0.6965695,-0.021858845,0.7171563,-0.043113314,0.9964545,0.07224752,,-0.033876106,0.44157562,-0.30659753,-0.05205723,-0.7832231,-0.6195576,0.971893,0.10289994,-0.21174408,0.2295953,-0.6131666,0.75585234,,0.8976673011012344,0.3443025997315513,0.19564775341,3.427172436311066,-0.22244422161813707,-1.643396386262527,-0.40950357379863833,,-0.9808179659580096,0.06895628183395065,0.21932837913000003,-2.7215657764856416,-0.14920705774386098,0.18774645161020698,0.8600065081969803,,-0.046482481303738984,-0.07979645340118074,0.07698830152,-0.06345462529521684,,3.5464764e-06,-4.6491623e-06,3.33786e-06,0.99999994,-3.0621886e-06,-2.592802e-06,3.0621886e-06,1.0,-2.9802322e-07,2.603978e-06,2.9802322e-07,1.0,282,0.873,0,1,0.156,False,-0.26273776611267374,1.032858318089814
0.8865741300105583,18:11:04.047960,18:10:48.352687,0,,0.12989374,0.00092445314,0.027523443,0.6671467,0.18664712,-0.72116435,0.48017216,0.6323921,0.6078774,0.56951714,-0.75182647,0.33227548,,0.09867212,-0.0061063543,0.017290771,0.0066227093,0.6966478,0.71738267,0.86598516,-0.3627212,0.3442427,0.50002575,0.618963,-0.6056889,,0.10737303,1.3461405,0.44494927,0.9960225,0.009217311,-0.0886235,-0.050114494,-0.76444864,-0.6427339,-0.07367239,0.64461875,-0.76094615,,-0.08587618,0.2588662,-0.08703523,-0.71485513,-0.0882354,0.6936834,0.6975351,-0.020090882,0.7162689,-0.049263563,0.995897,0.07590936,,-0.0338853,0.44156802,-0.30660284,-0.051698714,-0.78325313,-0.61954963,0.97185844,0.10330896,-0.21170361,0.22982255,-0.6130594,0.7558702,,0.8974047281835107,0.344843191032747,0.19533534752,3.4265433664806126,-0.22818295460828555,-1.639696979188964,-0.40885019753410123,,-0.9808488568895065,0.06890222270383108,0.21933097171000002,-2.7219851563726105,-0.14920705774386098,0.18774645161020703,0.859353131932443,,-0.046482481303738984,-0.07979645340118074,0.07698830152,-0.06345462529521684,,3.5464764e-06,-4.6491623e-06,3.33786e-06,0.99999994,-3.0621886e-06,-2.592802e-06,3.0621886e-06,1.0,-2.9802322e-07,2.603978e-06,2.9802322e-07,1.0,290,0.898,0,1,0.156,False,-0.26386974276457353,1.0323272358812399
0.9244215530052315,18:11:04.078944,18:10:48.352687,0,,0.12996629,0.0009177923,0.027807117,0.66206634,0.18971184,-0.725036,0.4768789,0.63966787,0.6028363,0.5781474,-0.74487215,0.3330329,,0.098678604,-0.006110899,0.017288864,0.0013612993,0.69720095,0.7168743,0.8678561,-0.35697746,0.3455329,0.49681377,0.62167335,-0.6055562,,0.10737303,1.3461405,0.44494927,0.9960225,0.009217311,-0.0886235,-0.050114494,-0.76444864,-0.6427339,-0.07367239,0.64461875,-0.76094615,,-0.08597972,0.25904164,-0.08724562,-0.71083343,-0.09188302,0.697333,0.7009319,-0.010224088,0.7131549,-0.05839723,0.99571735,0.07167137,,-0.033891577,0.4415629,-0.30660382,-0.046003915,-0.7840184,-0.6190305,0.971435,0.10930647,-0.21063276,0.232804,-0.6110378,0.7565944,,0.8973738372520138,0.34522932767645825,0.19510849677000003,3.4225592575544064,-0.23761087309210094,-1.6431991312331677,-0.4109736703938469,,-0.9809029160196261,0.06885588630658573,0.21933486058,-2.728485544620631,-0.14920705774386098,0.18790980909048816,0.858699755667906,,-0.046482481303738984,-0.07979645340118074,0.07698830152,-0.06345462529521684,,3.5464764e-06,-4.6491623e-06,3.33786e-06,0.99999994,-3.0621886e-06,-2.592802e-06,3.0621886e-06,1.0,-2.9802322e-07,2.603978e-06,2.9802322e-07,1.0,307,0.951,0,1,0.156,False,-0.2631548101423209,1.0323272358812399
0.9554050540027674,18:11:04.128876,18:10:48.352687,0,,0.13004392,0.000889644,0.028242469,0.6578467,0.19128913,-0.7284545,0.47321838,0.64746517,0.59737194,0.5859197,-0.73769724,0.33541128,,0.09869827,-0.006133206,0.017286003,0.0028899964,0.69706416,0.71700287,0.86769485,-0.3581651,0.34470767,0.49708867,0.6211435,-0.6058742,,0.10737303,1.3461405,0.44494927,0.9960225,0.009217311,-0.0886235,-0.050114494,-0.76444864,-0.6427339,-0.07367239,0.64461875,-0.76094615,,-0.0861055,0.2592992,-0.08758357,-0.7075807,-0.09406522,0.7003437,0.70344514,0.0002630912,0.7107495,-0.06704106,0.995566,0.06598356,,-0.03391125,0.4415432,-0.30661464,-0.04755943,-0.7838421,-0.6191363,0.97139126,0.10808877,-0.21146128,0.23267391,-0.61148053,0.75627667,,0.8973970054506365,0.34594754183376114,0.19473775783000002,3.419623598345623,-0.24608233607755825,-1.6482163172645117,-0.4099936059970408,,-0.9809569751497457,0.06875549077922082,0.21934134203000002,-2.727017715016239,-0.14866051174479922,0.1877908524362647,0.8583730675356374,,-0.046482481303738984,-0.07979645340118074,0.07698830152,-0.06345462529521684,,3.5464764e-06,-4.6491623e-06,3.33786e-06,0.99999994,-3.0621886e-06,-2.592802e-06,3.0621886e-06,1.0,-2.9802322e-07,2.603978e-06,2.9802322e-07,1.0,315,0.975,0,1,0.156,False,-0.2637505873275314,1.0323755160820194
1.0053205990116112,18:11:04.156712,18:10:48.545097,0,,0.13006479,0.00086683035,0.028400153,0.65812373,0.19098338,-0.7282845,0.47387788,0.6465981,0.59778816,0.58507496,-0.7385365,0.33503875,,0.09870521,-0.0061442032,0.017283559,0.0029881094,0.69711876,0.71694934,0.8677696,-0.3581043,0.3445826,0.4969575,0.62111723,-0.60600865,,0.10737303,1.3461405,0.44494927,0.9960225,0.009217311,-0.0886235,-0.050114494,-0.76444864,-0.6427339,-0.07367239,0.64461875,-0.76094615,,-0.08614414,0.25938332,-0.08771492,-0.7077479,-0.09368848,0.7002253,0.7033802,-0.00092285714,0.7108132,-0.0659488,0.9956011,0.066551775,,-0.03391808,0.441533,-0.30661958,-0.0476369,-0.7838911,-0.61906826,0.9713498,0.10811136,-0.21164003,0.23283105,-0.6114137,0.7562823,,0.8973583917862653,0.3463491239432208,0.19458738819000002,3.419623598345623,-0.24457933458013842,-1.6475633031819394,-0.4108103263277121,,-0.9809724206154942,0.06870143164910124,0.21934393461,-2.727017715016239,-0.14852387524503374,0.18767943453256827,0.8583730675356374,,-0.046482481303738984,-0.07979645340118074,0.07698830152,-0.06345462529521684,,3.5464764e-06,-4.6491623e-06,3.33786e-06,0.99999994,-3.0621886e-06,-2.592802e-06,3.0621886e-06,1.0,-2.9802322e-07,2.603978e-06,2.9802322e-07,1.0,328,1.016,0,1,0.156,False,-0.2622611443645053,1.0318927140742247
1.0331859620055184,18:11:04.191837,18:10:48.545097,0,,0.13009018,0.0008697063,0.028503194,0.6574807,0.19037732,-0.7290236,0.4747377,0.64667505,0.5970221,0.5851008,-0.73862565,0.33479708,,0.098725796,-0.006168179,0.01728499,0.002853362,0.6967669,0.7172918,0.86787295,-0.35806325,0.34436506,0.4967779,0.62153566,-0.6057269,,0.10737303,1.3461405,0.44494927,0.9960225,0.009217311,-0.0886235,-0.050114494,-0.76444864,-0.6427339,-0.07367239,0.64461875,-0.76094615,,-0.086180665,0.25945112,-0.087787986,-0.70709234,-0.093074694,0.700969,0.7040838,-0.000889202,0.7101163,-0.06547056,0.99565876,0.06616113,,-0.033939283,0.44151494,-0.30663455,-0.047476433,-0.7835981,-0.61945134,0.9713134,0.10845098,-0.2116332,0.2330155,-0.611729,0.7559705,,0.89731205538902,0.3466966469225609,0.19449924047000003,3.4185751486282006,-0.24389615208131118,-1.6477119989997187,-0.41032029412930937,,-0.9810419252113621,0.06857014519023942,0.21934782348,-2.727227404959724,-0.14852387524503374,0.1880878282332711,0.8578830353372346,,-0.046482481303738984,-0.07979645340118074,0.07698830152,-0.06345462529521684,,3.5464764e-06,-4.6491623e-06,3.33786e-06,0.99999994,-3.0621886e-06,-2.592802e-06,3.0621886e-06,1.0,-2.9802322e-07,2.603978e-06,2.9802322e-07,1.0,337,1.045,0,1,0.156,False,-0.2626186106756321,1.0316030328695482
1.0682849870063365,18:11:04.221670,18:10:48.545097,0,,0.13010839,0.00087454915,0.02858457,0.65494484,0.18977624,-0.7314589,0.47682124,0.64714795,0.59484535,0.5862496,-0.73836607,0.33335677,,0.098743014,-0.00618995,0.017288148,0.0028841123,0.6966943,0.71736217,0.86791134,-0.35806838,0.34426272,0.49671045,0.621614,-0.60570174,,0.10737303,1.3461405,0.44494927,0.9960225,0.009217311,-0.0886235,-0.050114494,-0.76444864,-0.6427339,-0.07367239,0.64461875,-0.76094615,,-0.08620762,0.2595067,-0.08784419,-0.7046521,-0.09249537,0.7034985,0.70654887,-0.00032912588,0.7076642,-0.06522412,0.99571306,0.06558441,,-0.033957336,0.4414999,-0.30664966,-0.047496755,-0.783537,-0.6195271,0.97129357,0.10850571,-0.2116962,0.23309402,-0.61179763,0.7558908,,0.8972657189917747,0.3469437743745361,0.19443183339000003,3.4150104195889637,-0.24389615208131118,-1.6476303202595781,-0.41015695006317543,,-0.9811037070743559,0.06845430419712606,0.21934911977000002,-2.727227404959724,-0.14852387524503374,0.1880878282332711,0.8578830353372346,,-0.046482481303738984,-0.07979645340118074,0.07698830152,-0.06345462529521684,,3.5464764e-06,-4.6491623e-06,3.33786e-06,0.99999994,-3.0621886e-06,-2.592802e-06,3.0621886e-06,1.0,-2.9802322e-07,2.603978e-06,2.9802322e-07,1.0,350,1.086,0,1,0.156,False,-0.2623802998015474,1.0312650714640919
1.0981380330049433,18:11:04.262525,18:10:48.545097,0,,0.13010037,0.0008588582,0.02865848,0.6512435,0.18659791,-0.7355697,0.4809259,0.64831275,0.59025496,0.5870196,-0.7381543,0.33246967,,0.09875317,-0.00621175,0.017284453,0.0019116718,0.69678307,0.7172793,0.86831087,-0.35694054,0.34442672,0.49601662,0.62216306,-0.6057067,,0.10737303,1.3461405,0.44494927,0.9960225,0.009217311,-0.0886235,-0.050114494,-0.76444864,-0.6427339,-0.07367239,0.64461875,-0.76094615,,-0.086208165,0.25954333,-0.08791076,-0.7009664,-0.08933425,0.70757717,0.71036273,0.00086572074,0.70383525,-0.06348916,0.9960013,0.06285288,,-0.033967458,0.44148067,-0.30666065,-0.046429247,-0.78366977,-0.6194401,0.9711866,0.10969626,-0.21157348,0.23375401,-0.61141515,0.75599647,,0.8972271053274036,0.3470673381005237,0.19433590793000002,3.407461581623521,-0.243212969582484,-1.6484324459984818,-0.40950357379863833,,-0.9811268752729786,0.06833846320401268,0.21935171235000003,-2.728485544620631,-0.14852387524503374,0.18808782823327108,0.8575563472049661,,-0.046482481303738984,-0.07979645340118074,0.07698830152,-0.06345462529521684,,3.5464764e-06,-4.6491623e-06,3.33786e-06,0.99999994,-3.0621886e-06,-2.592802e-06,3.0621886e-06,1.0,-2.9802322e-07,2.603978e-06,2.9802322e-07,1.0,363,1.127,0,1,0.156,False,-0.26196325577190027,1.0309271100586357
1.1389822390046902,18:11:04.307596,18:10:48.671685,0,,0.13011411,0.0008082688,0.028780729,0.6428885,0.18796474,-0.7425385,0.48615038,0.6490025,0.5851953,0.5919054,-0.73720074,0.32585704,,0.09875506,-0.0062237456,0.017280102,-0.0022112634,0.6969121,0.7171531,0.86969703,-0.3526346,0.34536338,0.49358076,0.62446964,-0.60532266,,0.10737303,1.3461405,0.44494927,0.9960225,0.009217311,-0.0886235,-0.050114494,-0.76444864,-0.6427339,-0.07367239,0.64461875,-0.76094615,,-0.08623646,0.25958374,-0.08803429,-0.69308513,-0.09078194,0.7151165,0.7179576,0.0019333693,0.69608414,-0.06457445,0.9958689,0.063837595,,-0.03396906,0.4414688,-0.30666545,-0.041979764,-0.7839977,-0.6193426,0.97085136,0.11439972,-0.21061884,0.2359773,-0.6101314,0.75634277,,0.8970649279370448,0.3470364471690268,0.19423220473000002,3.3984449140536865,-0.24539915357873104,-1.6465680807991987,-0.4098302619309069,,-0.9811423207387271,0.06826123587527044,0.21935300864,-2.7335181032642595,-0.14866051174479922,0.18860763983767037,0.8567396268742946,,-0.046482481303738984,-0.07979645340118074,0.07698830152,-0.06345462529521684,,3.5464764e-06,-4.6491623e-06,3.33786e-06,0.99999994,-3.0621886e-06,-2.592802e-06,3.0621886e-06,1.0,-2.9802322e-07,2.603978e-06,2.9802322e-07,1.0,376,1.168,0,1,0.156,False,-0.26285692154971585,1.030444308050841
1.184069241004181,18:11:04.353028,18:10:48.671685,0,,0.13011266,0.000712052,0.028959304,0.6334165,0.1851173,-0.75134206,0.49425948,0.650298,0.57690567,0.59539145,-0.7367796,0.3204134,,0.09876132,-0.0062347725,0.017278552,-0.0016986728,0.69688797,0.717178,0.8697073,-0.3529454,0.34502,0.4935648,0.624321,-0.6054891,,0.10737303,1.3461405,0.44494927,0.9960225,0.009217311,-0.0886235,-0.050114494,-0.76444864,-0.6427339,-0.07367239,0.64461875,-0.76094615,,-0.08625689,0.25962707,-0.08823142,-0.6838744,-0.08796978,0.72427696,0.7268889,0.0033452497,0.68674695,-0.062835865,0.99611753,0.061656527,,-0.03397534,0.44145927,-0.30667117,-0.042485017,-0.7839618,-0.6193537,0.97081035,0.11407343,-0.21098462,0.23605567,-0.6102387,0.7562318,,0.8968255232179438,0.34702872443615257,0.19402998349000003,3.385234447614161,-0.24539915357873104,-1.6465680807991987,-0.4098302619309069,,-0.9811577662044755,0.06821489947802509,0.21935430493000002,-2.7330987233772905,-0.14838723874526832,0.18854816151055862,0.8560862506097575,,-0.046482481303738984,-0.07979645340118074,0.07698830152,-0.06345462529521684,,3.5464764e-06,-4.6491623e-06,3.33786e-06,0.99999994,-3.0621886e-06,-2.592802e-06,3.0621886e-06,1.0,-2.9802322e-07,2.603978e-06,2.9802322e-07,1.0,389,1.209,0,1,0.156,False,-0.2622611443645053,1.030347747649282
1.2294990150112426,18:11:04.388811,18:10:48.671685,0,,0.13012636,0.00055994093,0.029227257,0.629411,0.18392313,-0.75499266,0.49766636,0.6507797,0.57342297,0.59679955,-0.7366533,0.31807548,,0.09876372,-0.006240703,0.017276525,-0.0016838927,0.696762,0.71730024,0.86971927,-0.35299975,0.3449341,0.49354374,0.6244308,-0.60539305,,0.10737303,1.3461405,0.44494927,0.9960225,0.009217311,-0.0886235,-0.050114494,-0.76444864,-0.6427339,-0.07367239,0.64461875,-0.76094615,,-0.086303495,0.25968534,-0.08853067,-0.67997265,-0.086786225,0.7280834,0.73060596,0.003857927,0.68278843,-0.062065523,0.9962195,0.060783252,,-0.03397759,0.44145337,-0.30667344,-0.04249649,-0.78385335,-0.6194901,0.97080374,0.114117354,-0.2109913,0.23608081,-0.6103697,0.7561182,,0.8965397821015976,0.3470750608333979,0.19372405905,3.3797825090835634,-0.2452625170789656,-1.6466794987028952,-0.4098302619309069,,-0.9811577662044755,0.0681840085465282,0.21935560122000003,-2.7330987233772905,-0.14838723874526832,0.18871151899083974,0.855759562477489,,-0.046482481303738984,-0.07979645340118074,0.07698830152,-0.06345462529521684,,3.5464764e-06,-4.6491623e-06,3.33786e-06,0.99999994,-3.0621886e-06,-2.592802e-06,3.0621886e-06,1.0,-2.9802322e-07,2.603978e-06,2.9802322e-07,1.0,411,1.279,0,1,0.156,False,-0.2626186106756321,1.0295269842360313
1.2652230390085606,18:11:04.453664,18:10:48.812845,0,,0.13015726,0.00030006468,0.029681474,0.6278389,0.18359035,-0.75638133,0.4993538,0.6504202,0.57236296,0.597046,-0.7370537,0.31668255,,0.09877506,-0.0062635764,0.017276645,-0.0016406085,0.6966509,0.7174083,0.86976105,-0.35302663,0.3448012,0.49347025,0.62453955,-0.6053407,,0.10737303,1.3461405,0.44494927,0.9960225,0.009217311,-0.0886235,-0.050114494,-0.76444864,-0.6427339,-0.07367239,0.64461875,-0.76094615,,-0.086390175,0.25978214,-0.08903851,-0.67839956,-0.08641954,0.72959286,0.732131,0.0033434378,0.6811557,-0.061304506,0.99625325,0.061002236,,-0.033989444,0.44143593,-0.3066878,-0.042528324,-0.7837587,-0.6196076,0.97078127,0.11417962,-0.21106094,0.23616742,-0.6104796,0.7560024,,0.8960918635948926,0.34720634729225974,0.19320424676000003,3.3776856096487182,-0.24457933458013842,-1.6464198008199715,-0.41113701445998063,,-0.9811886571359724,0.06806816755341483,0.21935560122000003,-2.7330987233772905,-0.14838723874526832,0.1887931977309803,0.8555962184113547,,-0.046482481303738984,-0.07979645340118074,0.07698830152,-0.06345462529521684,,3.5464764e-06,-4.6491623e-06,3.33786e-06,0.99999994,-3.0621886e-06,-2.592802e-06,3.0621886e-06,1.0,-2.9802322e-07,2.603978e-06,2.9802322e-07,1.0,420,1.307,0,1,0.156,False,-0.26243987752006825,1.0291407426297956
1.3301400390046183,18:11:04.492829,18:10:48.812845,0,,0.1301673,0.00014828146,0.030027479,0.6276418,0.19008562,-0.754939,0.4989966,0.646105,0.5775386,0.59755164,-0.7391994,0.31067044,,0.098776616,-0.0062816963,0.017269433,-0.0045753345,0.69715184,0.7169088,0.8708988,-0.34954792,0.345473,0.491441,0.6259357,-0.60554945,,0.10737303,1.3461405,0.44494927,0.9960225,0.009217311,-0.0886235,-0.050114494,-0.76444864,-0.6427339,-0.07367239,0.64461875,-0.76094615,,-0.086441755,0.25989163,-0.08939658,-0.6782676,-0.09273446,0.7289399,0.7322,-0.001678251,0.6810876,-0.061936952,0.99568945,0.06903848,,-0.033990473,0.44141763,-0.30669472,-0.039317228,-0.78435326,-0.61906713,0.9704528,0.11763345,-0.21067457,0.23806629,-0.60905856,0.7565528,,0.8959682998689049,0.347422583812738,0.19283091524,3.3776856096487182,-0.24498924407943473,-1.6384077455356696,-0.4114637025922492,,-0.9811886571359724,0.06797549475892413,0.21935689751,-2.736873142360012,-0.14825060224550288,0.1886001010871433,0.8551061862129519,,-0.046482481303738984,-0.07979645340118074,0.07698830152,-0.06345462529521684,,3.5464764e-06,-4.6491623e-06,3.33786e-06,0.99999994,-3.0621886e-06,-2.592802e-06,3.0621886e-06,1.0,-2.9802322e-07,2.603978e-06,2.9802322e-07,1.0,446,1.389,1,2,0.156,False,-0.2630356547052788,1.02875450102356
1.3406118109996896,18:11:04.560182,18:10:48.950095,0,,0.13020405,7.56681e-05,0.030423194,0.6245808,0.21255314,-0.7514784,0.49420565,0.63749653,0.591066,0.6046977,-0.7405534,0.29312307,,0.09878424,-0.0063029155,0.017265499,-0.0064930934,0.69702935,0.7170131,0.8716842,-0.34742394,0.34563464,0.49002498,0.6272532,-0.6053337,,0.10737303,1.3461405,0.44494927,0.9960225,0.009217311,-0.0886235,-0.050114494,-0.76444864,-0.6427339,-0.07367239,0.64461875,-0.76094615,,-0.086523555,0.26009196,-0.08973775,-0.67612255,-0.11510454,0.72774255,0.733386,-0.010315314,0.6797342,-0.0707336,0.99329984,0.091390476,,-0.033998046,0.4413989,-0.30670547,-0.03720558,-0.784355,-0.61919546,0.97020775,0.1200891,-0.21041761,0.23940073,-0.6085769,0.75651926,,0.8960455271976472,0.3477623840592039,0.19247184291000002,3.376427469987811,-0.25373398006442294,-1.6155946815921107,-0.4111370144599811,,-0.9812118253345951,0.06786737649868499,0.21935819380000002,-2.739389421681826,-0.14811396574573746,0.18906043436443082,0.8542894658822804,,-0.046482481303738984,-0.07979645340118074,0.07698830152,-0.06345462529521684,,3.5464764e-06,-4.6491623e-06,3.33786e-06,0.99999994,-3.0621886e-06,-2.592802e-06,3.0621886e-06,1.0,-2.9802322e-07,2.603978e-06,2.9802322e-07,1.0,455,1.418,1,2,0.185,False,-0.26297607698675796,1.0285613802204423
1.4079545980057446,18:11:04.593578,18:10:48.950095,0,,0.1302039,4.144013e-05,0.030555725,0.62173957,0.22428215,-0.7504246,0.4940976,0.63109475,0.5979858,0.60770655,-0.7425745,0.2815593,,0.09878912,-0.0062976554,0.017271578,-0.0072675664,0.69556797,0.71842337,0.8711407,-0.348346,0.34607643,0.49097946,0.628363,-0.6034061,,0.10737303,1.3461405,0.44494927,0.9960225,0.009217311,-0.0886235,-0.050114494,-0.76444864,-0.6427339,-0.07367239,0.64461875,-0.76094615,,-0.086538784,0.26015222,-0.08985971,-0.6736337,-0.12668088,0.7281274,0.735417,-0.017124334,0.6773984,-0.07334473,0.9917957,0.10469881,,-0.03400356,0.4414065,-0.3067057,-0.03658192,-0.7830819,-0.62084174,0.97051454,0.12027479,-0.20889106,0.23825043,-0.6101776,0.7555925,,0.8960764181291441,0.3477932749907008,0.19234610278000003,3.3734918107790275,-0.2567399830592626,-1.60162678535097,-0.40934022973250395,,-0.9812272708003436,0.06783648556718809,0.21935949009000003,-2.739389421681826,-0.14948033074339184,0.19107307954294123,0.8537994336838777,,-0.046482481303738984,-0.07979645340118074,0.07698830152,-0.06345462529521684,,3.5464764e-06,-4.6491623e-06,3.33786e-06,0.99999994,-3.0621886e-06,-2.592802e-06,3.0621886e-06,1.0,-2.9802322e-07,2.603978e-06,2.9802322e-07,1.0,468,1.459,1,2,0.226,False,-0.2630356547052788,1.0285131000196626
1.4413664390012855,18:11:04.632397,18:10:48.950095,0,,0.13018443,-8.523464e-06,0.030703709,0.61399084,0.24225676,-0.7512167,0.49785668,0.6196733,0.6067484,0.6124978,-0.74653643,0.25986457,,0.09879656,-0.006312661,0.017269969,-0.007236548,0.6953017,0.7186816,0.8711692,-0.3484569,0.345893,0.49092937,0.62859637,-0.6032039,,0.10737303,1.3461405,0.44494927,0.9960225,0.009217311,-0.0886235,-0.050114494,-0.76444864,-0.6427339,-0.07367239,0.64461875,-0.76094615,,-0.08653689,0.26021168,-0.09000543,-0.66637766,-0.14436263,0.73150545,0.74180686,-0.029341774,0.66997135,-0.07525516,0.9890897,0.1266419,,-0.03401111,0.4413939,-0.3067139,-0.036605105,-0.7828526,-0.6211296,0.9704991,0.12037147,-0.20890704,0.2383097,-0.6104528,0.75535154,,0.8960918635948926,0.34771604766195857,0.19219832572,3.3638460733787396,-0.26001925905363316,-1.57771628322571,-0.4099936059970408,,-0.9812427162660919,0.06775925823844585,0.21936078638000003,-2.739389421681826,-0.14948033074339184,0.19139979450350345,0.8541261218161462,,-0.046482481303738984,-0.07979645340118074,0.07698830152,-0.06345462529521684,,3.5464764e-06,-4.6491623e-06,3.33786e-06,0.99999994,-3.0621886e-06,-2.592802e-06,3.0621886e-06,1.0,-2.9802322e-07,2.603978e-06,2.9802322e-07,1.0,477,1.487,1,2,0.254,False,-0.2622611443645053,1.0275957762048529
1.4801856289996067,18:11:04.671448,18:10:48.950095,0,,0.13018009,-3.8668513e-05,0.030845225,0.6063729,0.25862184,-0.7519484,0.49896345,0.6125477,0.6130423,0.61915034,-0.746927,0.24238944,,0.09880324,-0.0063339695,0.017267048,-0.0071130674,0.69517237,0.71880776,0.87126297,-0.34847507,0.34563836,0.4907648,0.6287292,-0.6031993,,0.10737303,1.3461405,0.44494927,0.9960225,0.009217311,-0.0886235,-0.050114494,-0.76444864,-0.6427339,-0.07367239,0.64461875,-0.76094615,,-0.086548865,0.26028112,-0.09013189,-0.65951675,-0.16074176,0.7343022,0.74739045,-0.035893563,0.6634148,-0.080281734,0.9863436,0.14380926,,-0.034017876,0.44137582,-0.30672553,-0.036702685,-0.782743,-0.6212619,0.970447,0.120457776,-0.2090994,0.2385069,-0.6105763,0.7551894,,0.8961227545263895,0.3476079294017194,0.19207388188000002,3.355458475639359,-0.26630453804284343,-1.5587873525719194,-0.410156950063175,,-0.9812504389989662,0.06765886271108093,0.21936078638000003,-2.739389421681826,-0.1493436942436264,0.19153341282022873,0.8533094014854748,,-0.046482481303738984,-0.07979645340118074,0.07698830152,-0.06345462529521684,,3.5464764e-06,-4.6491623e-06,3.33786e-06,0.99999994,-3.0621886e-06,-2.592802e-06,3.0621886e-06,1.0,-2.9802322e-07,2.603978e-06,2.9802322e-07,1.0,490,1.528,1,2,0.295,False,-0.26112916771260597,1.0271129741970584
1.5191968690050999,18:11:04.705511,18:10:48.950095,0,,0.13020247,-4.5880675e-05,0.030958205,0.60330844,0.27391428,-0.7489925,0.49484637,0.6079325,0.6209228,0.62541646,-0.7452442,0.23122525,,0.098807245,-0.0063510463,0.01726222,-0.0070692785,0.6952123,0.71876967,0.8712969,-0.34843948,0.34558892,0.4907053,0.62870485,-0.60327315,,0.10737303,1.3461405,0.44494927,0.9960225,0.009217311,-0.0886235,-0.050114494,-0.76444864,-0.6427339,-0.07367239,0.64461875,-0.76094615,,-0.08658374,0.2603479,-0.090219304,-0.657256,-0.176227,0.7327746,0.74851483,-0.039135873,0.6619622,-0.08797784,0.98357123,0.15763082,,-0.034021635,0.44135976,-0.3067332,-0.03673711,-0.78277826,-0.6212154,0.9704282,0.12046433,-0.20918283,0.23857807,-0.6105297,0.7552046,,0.8961613681907605,0.34753070207297715,0.19199221561000002,3.353990646034967,-0.27436609152900443,-1.544454215940477,-0.40934022973250395,,-0.9812427162660919,0.06757391264946445,0.21936208267,-2.739389421681826,-0.1493436942436264,0.19145173408008817,0.8529827133532062,,-0.046482481303738984,-0.07979645340118074,0.07698830152,-0.06345462529521684,,3.5464764e-06,-4.6491623e-06,3.33786e-06,0.99999994,-3.0621886e-06,-2.592802e-06,3.0621886e-06,1.0,-2.9802322e-07,2.603978e-06,2.9802322e-07,1.0,512,1.598,1,2,0.365,False,-0.2618441003348577,1.0273543752009557
1.5532394040055806,18:11:04.773041,18:10:49.151093,0,,0.13018864,-8.127093e-05,0.03102474,0.6075407,0.28544933,-0.7412238,0.4841869,0.60666555,0.6304918,0.6296484,-0.7419404,0.23036312,,0.09881432,-0.0063728318,0.017259598,-0.007020412,0.69511825,0.7188609,0.8713382,-0.3484618,0.34546226,0.49063268,0.62879634,-0.6032368,,0.10737303,1.3461405,0.44494927,0.9960225,0.009217311,-0.0886235,-0.050114494,-0.76444864,-0.6427339,-0.07367239,0.64461875,-0.76094615,,-0.08657812,0.26036513,-0.09029375,-0.6621693,-0.18808174,0.7253669,0.74295855,-0.038580816,0.6682246,-0.097695604,0.9813953,0.16528398,,-0.034028858,0.44134152,-0.30674535,-0.0367746,-0.78269815,-0.62131405,0.9704056,0.12051694,-0.20925756,0.23866439,-0.610622,0.7551027,,0.8964239411084842,0.34711367449776903,0.19193777143000001,3.362797623661317,-0.28352073701328895,-1.5381327187547846,-0.40999360599704104,,-0.9812504389989662,0.06746579438922531,0.21936208267,-2.739389421681826,-0.1493436942436264,0.19153341282022876,0.8529827133532062,,-0.046482481303738984,-0.07979645340118074,0.07698830152,-0.06345462529521684,,3.5464764e-06,-4.6491623e-06,3.33786e-06,0.99999994,-3.0621886e-06,-2.592802e-06,3.0621886e-06,1.0,-2.9802322e-07,2.603978e-06,2.9802322e-07,1.0,521,1.627,1,2,0.394,False,-0.26190367805337944,1.0262439305830282
1.6208336550043896,18:11:04.800004,18:10:49.151093,0,,0.13015968,-0.000118240714,0.031080216,0.607932,0.28682208,-0.7403726,0.48352444,0.6058839,0.6317506,0.6297798,-0.7420497,0.2296506,,0.09881891,-0.0063851997,0.017258525,-0.0069937687,0.69497854,0.71899635,0.87136143,-0.34851554,0.3453494,0.49059173,0.62892103,-0.6031402,,0.10737303,1.3461405,0.44494927,0.9960225,0.009217311,-0.0886235,-0.050114494,-0.76444864,-0.6427339,-0.07367239,0.64461875,-0.76094615,,-0.0865563,0.26037478,-0.090362415,-0.66258746,-0.18945138,0.72462815,0.74252063,-0.03931956,0.6686681,-0.09818804,0.9811025,0.16672422,,-0.03403359,0.44133142,-0.30675247,-0.036794838,-0.78257805,-0.6214642,0.9703928,0.120572455,-0.20928448,0.2387129,-0.610765,0.75497174,,0.8965706730330945,0.3469978335046557,0.19184573484000003,3.3634266934917707,-0.2840672830123507,-1.5364618660378906,-0.41015695006317543,,-0.9812581617318404,0.06740401252623152,0.21936208267,-2.739389421681826,-0.1493436942436264,0.19169677030050986,0.851675960824132,,-0.046482481303738984,-0.07979645340118074,0.07698830152,-0.06345462529521684,,3.5464764e-06,-4.6491623e-06,3.33786e-06,0.99999994,-3.0621886e-06,-2.592802e-06,3.0621886e-06,1.0,-2.9802322e-07,2.603978e-06,2.9802322e-07,1.0,534,1.668,1,2,0.435,False,-0.26243987752006825,1.025712848374454
1.6477868420042796,18:11:04.842827,18:10:49.151093,0,,0.13015938,-0.00013625622,0.031162202,0.6098981,0.2881239,-0.73824704,0.48182312,0.6047907,0.6340936,0.62918246,-0.742437,0.23003592,,0.09882127,-0.006396003,0.01725471,-0.00696481,0.69496846,0.71900636,0.87138325,-0.3485103,0.34529966,0.49055335,0.62893516,-0.6031566,,0.10737303,1.3461405,0.44494927,0.9960225,0.009217311,-0.0886235,-0.050114494,-0.76444864,-0.6427339,-0.07367239,0.64461875,-0.76094615,,-0.08656547,0.26041448,-0.09043582,-0.66451377,-0.19072695,0.7225266,0.7407351,-0.0404712,0.67057705,-0.09865559,0.9808085,0.16817181,,-0.034035683,0.44132078,-0.30675682,-0.03681776,-0.7825698,-0.6214732,0.97038066,0.12058664,-0.20933276,0.23875888,-0.6107728,0.7549509,,0.8966092866974655,0.3471291199635175,0.19178999437000002,3.3661526627570697,-0.2840672830123507,-1.535645078636485,-0.41048363819544353,,-0.9812504389989662,0.06734995339611195,0.21936337896000002,-2.739389421681826,-0.1493436942436264,0.19169677030050986,0.8513492726918634,,-0.046482481303738984,-0.07979645340118074,0.07698830152,-0.06345462529521684,,3.5464764e-06,-4.6491623e-06,3.33786e-06,0.99999994,-3.0621886e-06,-2.592802e-06,3.0621886e-06,1.0,-2.9802322e-07,2.603978e-06,2.9802322e-07,1.0,543,1.696,1,2,0.463,False,-0.2622611443645053,1.0263887711853665
1.69057242499548,18:11:04.874473,18:10:49.151093,0,,0.13017341,-0.00014089048,0.031247035,0.6104571,0.29011855,-0.73700273,0.4811827,0.60326135,0.6360338,0.6291305,-0.7429044,0.22866511,,0.098826185,-0.0064064637,0.017252922,-0.0069418866,0.6950071,0.71896935,0.87140346,-0.34847993,0.34527922,0.4905178,0.6289093,-0.6032125,,0.10737303,1.3461405,0.44494927,0.9960225,0.009217311,-0.0886235,-0.050114494,-0.76444864,-0.6427339,-0.07367239,0.64461875,-0.76094615,,-0.08658887,0.26046535,-0.09050121,-0.665078,-0.19269195,0.7214853,0.7401854,-0.042043455,0.67108715,-0.098979354,0.9803582,0.17058994,,-0.034040578,0.44131154,-0.30676207,-0.03683512,-0.78260374,-0.62142944,0.97036964,0.120588504,-0.20938289,0.23880109,-0.6107289,0.754973,,0.8966170094303398,0.34735307921687,0.19171480955000003,3.3669914225310076,-0.2840672830123507,-1.5332763951724089,-0.4109736703938467,,-0.9812581617318404,0.06729589426599238,0.21936467525000003,-2.739389421681826,-0.1493436942436264,0.19161509156036932,0.8515126167579977,,-0.046482481303738984,-0.07979645340118074,0.07698830152,-0.06345462529521684,,3.5464764e-06,-4.6491623e-06,3.33786e-06,0.99999994,-3.0621886e-06,-2.592802e-06,3.0621886e-06,1.0,-2.9802322e-07,2.603978e-06,2.9802322e-07,1.0,556,1.737,1,2,0.504,False,-0.262797343831195,1.0262922107838077
1.7222467709943885,18:11:04.918311,18:10:49.303746,0,,0.13015047,-0.0001001209,0.031363636,0.6086198,0.291966,-0.73779225,0.48236895,0.6021381,0.6361996,0.6300015,-0.74309194,0.22563781,,0.09898933,-0.006382726,0.017243862,-0.006920362,0.6952159,0.7187676,0.87151086,-0.34825522,0.34523493,0.4903274,0.62880296,-0.60347813,,0.10738537,1.3461405,0.44494316,0.9960212,0.009197103,-0.08864049,-0.05014082,-0.7644489,-0.64273155,-0.07367239,0.64461875,-0.76094615,,-0.08658704,0.26057872,-0.09056711,-0.6633084,-0.19451654,0.7226239,0.7417647,-0.043112114,0.6692731,-0.099030845,0.9799514,0.17288214,,-0.034209393,0.44131467,-0.30672416,-0.036804263,-0.7827983,-0.6211862,0.9703186,0.12067993,-0.20956662,0.2390131,-0.6104615,0.7551222,,0.8966710685604594,0.3477392158605812,0.19161499522000003,3.3644751432091935,-0.2840672830123507,-1.5303359605273483,-0.41097367039384647,,-0.9812658844647146,0.06717233054000478,0.21936467525000003,-2.739389421681826,-0.14920705774386098,0.1913403161763918,0.8518393048902663,,-0.046482481303738984,-0.07979645340118074,0.07698830152,-0.06345462529521684,,1.6283244e-05,-8.46386e-06,6.914139e-06,0.99999994,-2.3178756e-05,-1.9628555e-05,2.3175031e-05,1.0,-2.2351742e-06,1.9643456e-05,2.2351742e-06,1.0,565,1.766,1,2,0.533,False,-0.26255903295711036,1.0254714473705566
1.7660873800050467,18:11:04.949953,18:10:49.303746,0,,0.13016286,-8.34018e-05,0.031427786,0.6102409,0.2954551,-0.7350592,0.4802921,0.59990835,0.63986665,0.63002,-0.7435161,0.22418378,,0.098983735,-0.006402813,0.017240942,-0.009075452,0.6953576,0.71860653,0.8722906,-0.34585315,0.34568018,0.48890364,0.6299709,-0.60341513,,0.10738537,1.3461405,0.44494316,0.9960212,0.009197103,-0.08864049,-0.05014082,-0.7644489,-0.64273155,-0.07367239,0.64461875,-0.76094615,,-0.08660604,0.26063243,-0.09060318,-0.6649682,-0.1979872,0.7201516,0.74011433,-0.045268916,0.67095566,-0.100240156,0.9791587,0.17663555,,-0.034203988,0.4412984,-0.3067364,-0.034456655,-0.7830342,-0.62102354,0.9700816,0.12321805,-0.20918646,0.24032146,-0.6096514,0.7553614,,0.8967560186220759,0.34797089784680796,0.19156962507000003,3.3669914225310076,-0.2847504655111779,-1.5268384363638061,-0.41097367039384647,,-0.9812427162660919,0.0670796577455141,0.21935819380000002,-2.742115390947125,-0.14920705774386098,0.19150367365667292,0.8515126167579977,,-0.046482481303738984,-0.07979645340118074,0.07698830152,-0.06345462529521684,,1.6283244e-05,-8.46386e-06,6.914139e-06,0.99999994,-2.3178756e-05,-1.9628555e-05,2.3175031e-05,1.0,-2.2351742e-06,1.9643456e-05,2.2351742e-06,1.0,578,1.807,1,2,0.574,False,-0.2629164992682367,1.0257611285752335
1.7977088119951077,18:11:04.984065,18:10:49.303746,0,,0.13017604,-3.3065677e-05,0.031510487,0.6050317,0.30736506,-0.73448145,0.47726724,0.59837294,0.64355713,0.63730085,-0.73991656,0.21533926,,0.09897847,-0.0064253137,0.017234027,-0.0117305145,0.6954373,0.71849096,0.87323886,-0.3429372,0.3461907,0.4871512,0.63147515,-0.6032601,,0.10738537,1.3461405,0.44494316,0.9960212,0.009197103,-0.08864049,-0.05014082,-0.7644489,-0.64273155,-0.07367239,0.64461875,-0.76094615,,-0.086627126,0.26072362,-0.090631224,-0.66066366,-0.21025321,0.7206366,0.74284375,-0.04474526,0.6679678,-0.10819731,0.97662246,0.18574686,,-0.034198422,0.44127768,-0.30674738,-0.03156494,-0.78324074,-0.6209167,0.9697817,0.12636462,-0.20869951,0.24192387,-0.6087412,0.7555838,,0.896933641478183,0.34800178877830484,0.19154369927,3.362797623661317,-0.2933585649964006,-1.5165519588253091,-0.40999360599704104,,-0.9812118253345951,0.06697153948527494,0.21935430493000002,-2.7454704300428774,-0.14920705774386098,0.19183038861723511,0.8511859286257292,,-0.046482481303738984,-0.07979645340118074,0.07698830152,-0.06345462529521684,,1.6283244e-05,-8.46386e-06,6.914139e-06,0.99999994,-2.3178756e-05,-1.9628555e-05,2.3175031e-05,1.0,-2.2351742e-06,1.9643456e-05,2.2351742e-06,1.0,587,1.836,1,2,0.603,False,-0.2621419889274632,1.0261956503822487
1.831845260996488,18:11:05.018126,18:10:49.303746,0,,0.13012841,-1.8492341e-05,0.03155105,0.60044,0.31319222,-0.73578674,0.48045298,0.59423864,0.6450158,0.6392468,-0.7408043,0.2063304,,0.09898496,-0.0064475015,0.017230868,-0.011168594,0.6951711,0.71875745,0.8731124,-0.34357995,0.34587228,0.48739097,0.63141894,-0.6031252,,0.10738537,1.3461405,0.44494316,0.9960212,0.009197103,-0.08864049,-0.05014082,-0.7644489,-0.64273155,-0.07367239,0.64461875,-0.76094615,,-0.08658394,0.26076367,-0.09065689,-0.6562436,-0.21603902,0.72296023,0.7467752,-0.04877501,0.6632856,-0.10803318,0.9751657,0.19334087,,-0.034204997,0.44125882,-0.30675948,-0.032157253,-0.7829862,-0.6212073,0.96981055,0.12587607,-0.2088605,0.24173002,-0.6091698,0.75530046,,0.8971653234644097,0.3479863433125564,0.19151258831,3.356506925356782,-0.2940417474952278,-1.5074186015920679,-0.4114637025922492,,-0.9812118253345951,0.0668634212250358,0.21935430493000002,-2.7448413602124235,-0.14920705774386098,0.19207542483765683,0.851675960824132,,-0.046482481303738984,-0.07979645340118074,0.07698830152,-0.06345462529521684,,1.6283244e-05,-8.46386e-06,6.914139e-06,0.99999994,-2.3178756e-05,-1.9628555e-05,2.3175031e-05,1.0,-2.2351742e-06,1.9643456e-05,2.2351742e-06,1.0,600,1.877,1,2,0.644,False,-0.26339312101640555,1.0253748869689978
1.865915871996549,18:11:05.068954,18:10:49.453220,0,,0.13004741,-4.157424e-06,0.031655595,0.5973371,0.32961762,-0.73112255,0.4805151,0.5827912,0.6553317,0.64210075,-0.7427695,0.18973656,,0.09898964,-0.0064711496,0.017225862,-0.0112798065,0.69475305,0.71915984,0.8732145,-0.34357932,0.34561506,0.48720548,0.6318792,-0.6027929,,0.10738537,1.3461405,0.44494316,0.9960212,0.009197103,-0.08864049,-0.05014082,-0.7644489,-0.64273155,-0.07367239,0.64461875,-0.76094615,,-0.08651466,0.26084697,-0.09073407,-0.65347385,-0.2324025,0.7203894,0.7488487,-0.05962809,0.66005313,-0.110442564,0.97079015,0.21299972,,-0.03420958,0.4412378,-0.30677143,-0.032019332,-0.78263444,-0.6216575,0.9697676,0.12621935,-0.20885281,0.24192062,-0.60955065,0.75493205,,0.897690469299857,0.3479400069153111,0.19142832946000002,3.352942196317544,-0.2970477504900675,-1.486099618738277,-0.4109736703938467,,-0.9812041026017209,0.06674758023192244,0.21935430493000002,-2.7450510501559084,-0.14920705774386098,0.1926471760186408,0.8508592404934606,,-0.046482481303738984,-0.07979645340118074,0.07698830152,-0.06345462529521684,,1.6283244e-05,-8.46386e-06,6.914139e-06,0.99999994,-2.3178756e-05,-1.9628555e-05,2.3175031e-05,1.0,-2.2351742e-06,1.9643456e-05,2.2351742e-06,1.0,622,1.946,1,2,0.713,False,-0.2611887454311268,1.0248438047604238
1.8827439279993996,18:11:05.116036,18:10:49.453220,0,,0.12996635,1.4990568e-05,0.031819493,0.5904997,0.34450483,-0.7298124,0.4812743,0.5755932,0.6611108,0.64783096,-0.7416259,0.17408621,,0.09898935,-0.00647486,0.01722455,-0.011513885,0.69469196,0.7192152,0.87322515,-0.34344897,0.3457177,0.48718095,0.63201725,-0.60266805,,0.10738537,1.3461405,0.44494316,0.9960212,0.009197103,-0.08864049,-0.05014082,-0.7644489,-0.64273155,-0.07367239,0.64461875,-0.76094615,,-0.08645175,0.26097253,-0.09085271,-0.64729464,-0.24748419,0.72094464,0.75352615,-0.065155424,0.65418124,-0.11492607,0.9666987,0.22866057,,-0.03420921,0.4412342,-0.30677304,-0.031783886,-0.7825892,-0.6217266,0.9697759,0.12641278,-0.2086971,0.24191828,-0.60956866,0.7549183,,0.8982465060668011,0.34792456144956263,0.19130129304000001,3.345183668408617,-0.30264984698045055,-1.46797281382339,-0.4096669178647725,,-0.9811963798688467,0.06672441203329976,0.21935430493000002,-2.745260740099393,-0.1493436942436264,0.19275859392233718,0.8508592404934606,,-0.046482481303738984,-0.07979645340118074,0.07698830152,-0.06345462529521684,,1.6283244e-05,-8.46386e-06,6.914139e-06,0.99999994,-2.3178756e-05,-1.9628555e-05,2.3175031e-05,1.0,-2.2351742e-06,1.9643456e-05,2.2351742e-06,1.0,631,1.975,1,2,0.742,False,-0.26178452261633733,1.0252300463666597
1.9298008409969043,18:11:05.149199,18:10:49.453220,0,,0.12985529,-2.9146671e-05,0.03197767,0.5901365,0.34834093,-0.7282837,0.48150542,0.57222044,0.6638646,0.6479901,-0.7424435,0.16996011,,0.09899064,-0.006474696,0.017225564,-0.011516869,0.69468695,0.71922,0.8732244,-0.3434505,0.34571815,0.48718226,0.63202196,-0.6026621,,0.10738537,1.3461405,0.44494316,0.9960212,0.009197103,-0.08864049,-0.05014082,-0.7644489,-0.64273155,-0.07367239,0.64461875,-0.76094615,,-0.08635985,0.26104805,-0.09101129,-0.64694613,-0.25128213,0.71994305,0.7538247,-0.06845308,0.6535002,-0.11493059,0.9654903,0.23370813,,-0.034210615,0.44123492,-0.30677348,-0.03178113,-0.7825849,-0.6217321,0.96977645,0.12641518,-0.20869309,0.24191643,-0.60957366,0.7549148,,0.8988334337652423,0.34782416592219767,0.19113277534,3.3443449086346786,-0.30292311997998145,-1.4621141449462987,-0.4108103263277123,,-0.9812041026017209,0.06672441203329976,0.21935430493000002,-2.745260740099393,-0.1493436942436264,0.19275859392233718,0.8508592404934606,,-0.046482481303738984,-0.07979645340118074,0.07698830152,-0.06345462529521684,,1.6283244e-05,-8.46386e-06,6.914139e-06,0.99999994,-2.3178756e-05,-1.9628555e-05,2.3175031e-05,1.0,-2.2351742e-06,1.9643456e-05,2.2351742e-06,1.0,644,2.016,1,2,0.783,False,-0.2631548101423209,1.0244575631541881
1.9629154529975494,18:11:05.189663,18:10:49.453220,0,,0.1297821,-3.734231e-05,0.03206809,0.591282,0.34910208,-0.726989,0.48067898,0.5712734,0.66527766,0.64755934,-0.7428152,0.16997765,,0.09898931,-0.0064797476,0.017222822,-0.011499742,0.6946318,0.7192735,0.873235,-0.343474,0.34566814,0.48716372,0.6320698,-0.6026269,,0.10738537,1.3461405,0.44494316,0.9960212,0.009197103,-0.08864049,-0.05014082,-0.7644489,-0.64273155,-0.07367239,0.64461875,-0.76094615,,-0.08629728,0.26110467,-0.09109181,-0.64805555,-0.25201887,0.71868664,0.7528555,-0.06945417,0.6545111,-0.115033366,0.9652267,0.23474394,,-0.034209054,0.44122943,-0.3067751,-0.031795304,-0.7825374,-0.6217912,0.9697704,0.12643452,-0.20870975,0.24193905,-0.6096307,0.75486153,,0.8992890750048215,0.34782416592219767,0.19104333133,3.345603048295586,-0.30292311997998145,-1.46088896384419,-0.41064698226157814,,-0.9811886571359724,0.06670124383467708,0.21935430493000002,-2.745260740099393,-0.1493436942436264,0.19284027266247775,0.8497158320305207,,-0.046482481303738984,-0.07979645340118074,0.07698830152,-0.06345462529521684,,1.6283244e-05,-8.46386e-06,6.914139e-06,0.99999994,-2.3178756e-05,-1.9628555e-05,2.3175031e-05,1.0,-2.2351742e-06,1.9643456e-05,2.2351742e-06,1.0,653,2.045,1,2,0.812,False,-0.26249945523859,1.0249403651619828
2.0034478140005376,18:11:05.229436,18:10:49.605455,0,,0.12968136,-3.9353967e-05,0.032252148,0.5904694,0.36299363,-0.7208198,0.47817218,0.5621474,0.67479,0.6501515,-0.743119,0.15835734,,0.098992676,-0.0064885244,0.017221928,-0.011405874,0.69469595,0.71921307,0.87330455,-0.34341142,0.34555447,0.48704123,0.63203335,-0.6027642,,0.10738537,1.3461405,0.44494316,0.9960212,0.009197103,-0.08864049,-0.05014082,-0.7644489,-0.64273155,-0.07367239,0.64461875,-0.76094615,,-0.08621754,0.26122838,-0.09124135,-0.64759076,-0.26599526,0.7140537,0.75268674,-0.077328876,0.65382177,-0.118696526,0.9608677,0.25028858,,-0.034212496,0.4412222,-0.30678004,-0.03186987,-0.7825943,-0.6217157,0.9697313,0.12645084,-0.20888151,0.24208596,-0.6095542,0.7548762,,0.9000072891621244,0.34782416592219767,0.19088259137000002,3.3453933583521014,-0.3067489419734138,-1.4440472341970758,-0.4099936059970408,,-0.9811963798688467,0.06666263017030596,0.21935430493000002,-2.745260740099393,-0.14920705774386098,0.19272885475878132,0.8497158320305207,,-0.046482481303738984,-0.07979645340118074,0.07698830152,-0.06345462529521684,,1.6283244e-05,-8.46386e-06,6.914139e-06,0.99999994,-2.3178756e-05,-1.9628555e-05,2.3175031e-05,1.0,-2.2351742e-06,1.9643456e-05,2.2351742e-06,1.0,666,2.085,1,2,0.852,False,-0.26255903295711036,1.0244092829534086
2.0432305819995236,18:11:05.262141,18:10:49.605455,0,,0.12952524,-4.6357512e-05,0.032412544,0.5885279,0.375514,-0.71597755,0.48099,0.54918605,0.68340564,0.6498333,-0.74658144,0.1425928,,0.098997265,-0.0065008923,0.017220855,-0.011379125,0.6946738,0.7192348,0.87332785,-0.34340858,0.34549853,0.48700017,0.6320593,-0.6027702,,0.10738537,1.3461405,0.44494316,0.9960212,0.009197103,-0.08864049,-0.05014082,-0.7644489,-0.64273155,-0.07367239,0.64461875,-0.76094615,,-0.086080246,0.26133597,-0.091381826,-0.6455627,-0.2783477,0.71117604,0.7547213,-0.09008832,0.6498307,-0.116810225,0.95624614,0.26823258,,-0.034217224,0.4412121,-0.30678716,-0.031890202,-0.78257585,-0.62173796,0.96971846,0.12647212,-0.20892811,0.2421346,-0.60957354,0.75484496,,0.9008645125111633,0.3478318886550719,0.19072185141000003,3.3416189393693805,-0.3053825769757594,-1.4239249407974939,-0.411300358526115,,-0.9812041026017209,0.06660084830731217,0.21935430493000002,-2.745260740099393,-0.14920705774386098,0.19272885475878132,0.8503692082950578,,-0.046482481303738984,-0.07979645340118074,0.07698830152,-0.06345462529521684,,1.6283244e-05,-8.46386e-06,6.914139e-06,0.99999994,-2.3178756e-05,-1.9628555e-05,2.3175031e-05,1.0,-2.2351742e-06,1.9643456e-05,2.2351742e-06,1.0,675,2.114,1,2,0.881,False,-0.2620824112089424,1.024119601748732
2.0759182759938994,18:11:05.292031,18:10:49.605455,0,,0.12943341,-2.963841e-05,0.032488003,0.5860954,0.38197294,-0.7145548,0.48262995,0.54379255,0.686555,0.65081507,-0.74725246,0.13436265,,0.09900062,-0.0065085515,0.017220557,-0.011363523,0.69465804,0.7192503,0.87334204,-0.34340733,0.34546372,0.48697495,0.6320772,-0.60277176,,0.10738537,1.3461405,0.44494316,0.9960212,0.009197103,-0.08864049,-0.05014082,-0.7644489,-0.64273155,-0.07367239,0.64461875,-0.76094615,,-0.085996956,0.26140276,-0.091436654,-0.6432167,-0.28481373,0.7107414,0.7567359,-0.09496574,0.6467861,-0.11671747,0.9538672,0.27661234,,-0.034220703,0.44120604,-0.3067918,-0.031901874,-0.7825627,-0.62175393,0.96971065,0.12648632,-0.20895573,0.24216431,-0.6095875,0.75482416,,0.9013973810794847,0.3478164431893235,0.19065703691000002,3.3380542103301427,-0.3057924864750557,-1.4140342744899588,-0.40983026193090644,,-0.9812118253345951,0.06656223464294105,0.21935430493000002,-2.745260740099393,-0.14920705774386098,0.19272885475878132,0.8500425201627891,,-0.046482481303738984,-0.07979645340118074,0.07698830152,-0.06345462529521684,,1.6283244e-05,-8.46386e-06,6.914139e-06,0.99999994,-2.3178756e-05,-1.9628555e-05,2.3175031e-05,1.0,-2.2351742e-06,1.9643456e-05,2.2351742e-06,1.0,684,2.143,1,2,0.91,False,-0.26309523242380006,1.0233471185362608
2.1058284799946705,18:11:05.322235,18:10:49.605455,0,,0.12929891,1.3977289e-05,0.03257884,0.5829101,0.3958816,-0.70957255,0.4839649,0.5323167,0.6945624,0.65268177,-0.7482759,0.11869989,,0.099003464,-0.0065244213,0.01721698,-0.011323348,0.69458294,0.7193236,0.87337285,-0.34342846,0.34536484,0.4869206,0.63214827,-0.6027411,,0.10738537,1.3461405,0.44494316,0.9960212,0.009197103,-0.08864049,-0.05014082,-0.7644489,-0.64273155,-0.07367239,0.64461875,-0.76094615,,-0.08587234,0.26150227,-0.09148969,-0.6402274,-0.29878098,0.70769966,0.75913626,-0.105089694,0.64239264,-0.11756276,0.94851786,0.2940968,,-0.034223456,0.4411918,-0.3067997,-0.031933498,-0.7824984,-0.6218332,0.96969336,0.12652461,-0.20901266,0.24222927,-0.609662,0.75474316,,0.902231436229901,0.3477855522578266,0.19059092612000003,3.333650721516968,-0.3072954879724756,-1.3941042460571094,-0.4116270466583838,,-0.9812041026017209,0.0664850073141988,0.21935430493000002,-2.745260740099393,-0.14920705774386098,0.1928105334989219,0.8495524879643863,,-0.046482481303738984,-0.07979645340118074,0.07698830152,-0.06345462529521684,,1.6283244e-05,-8.46386e-06,6.914139e-06,0.99999994,-2.3178756e-05,-1.9628555e-05,2.3175031e-05,1.0,-2.2351742e-06,1.9643456e-05,2.2351742e-06,1.0,697,2.184,1,2,0.951,False,-0.2622015666459845,1.0232988383354813
2.1360314909979934,18:11:05.351250,18:10:49.751145,0,,0.12911433,0.00010088086,0.032670364,0.5797641,0.4151209,-0.7011047,0.4838212,0.5169521,0.706171,0.655584,-0.74862206,0.098865926,,0.09900507,-0.0065355822,0.017214179,-0.011294337,0.6945729,0.7193336,0.87339467,-0.343423,0.34531504,0.48688215,0.6321622,-0.6027575,,0.10738537,1.3461405,0.44494316,0.9960212,0.009197103,-0.08864049,-0.05014082,-0.7644489,-0.64273155,-0.07367239,0.64461875,-0.76094615,,-0.08569705,0.26163778,-0.09151993,-0.63742477,-0.31820777,0.70173603,0.76108766,-0.11801225,0.6378234,-0.12014691,0.94064707,0.31740794,,-0.03422496,0.44118163,-0.3068051,-0.03195646,-0.78249025,-0.62184227,0.96968114,0.12653875,-0.20906092,0.24227528,-0.6096695,0.7547223,,0.9034593507569028,0.34772377039483277,0.19054555597000003,3.3296666125907626,-0.31057476396684613,-1.3675800242473513,-0.4119537347906521,,-0.9811963798688467,0.06643094818407923,0.21935430493000002,-2.745260740099393,-0.14920705774386098,0.19281053349892185,0.8492257998321178,,-0.046482481303738984,-0.07979645340118074,0.07698830152,-0.06345462529521684,,1.6283244e-05,-8.46386e-06,6.914139e-06,0.99999994,-2.3178756e-05,-1.9628555e-05,2.3175031e-05,1.0,-2.2351742e-06,1.9643456e-05,2.2351742e-06,1.0,706,2.212,1,2,0.979,False,-0.2621419889274632,1.0223332343198919
2.165042603999609,18:11:05.390428,18:10:49.751145,0,,0.12897485,0.00015726686,0.03271909,0.57735693,0.42833507,-0.69511706,0.48302352,0.5072109,0.7137404,0.65829104,-0.747841,0.085945755,,0.09900842,-0.006543286,0.01721394,-0.011278728,0.69461596,0.7192923,0.8734089,-0.34339362,0.34530833,0.486857,0.63213086,-0.6028107,,0.10738537,1.3461405,0.44494316,0.9960212,0.009197103,-0.08864049,-0.05014082,-0.7644489,-0.64273155,-0.07367239,0.64461875,-0.76094615,,-0.08556258,0.26171982,-0.09153348,-0.6353495,-0.33164465,0.69738287,0.762376,-0.12561025,0.63482666,-0.122938424,0.9350048,0.3326443,,-0.03422844,0.44117558,-0.30680975,-0.03196814,-0.78252786,-0.6217943,0.96967334,0.12653586,-0.20909889,0.242305,-0.6096218,0.75475127,,0.9043783559689355,0.3475384248058514,0.19052740791000003,3.3269406433254636,-0.31426394946051306,-1.3495428526616844,-0.41179039072451773,,-0.9812041026017209,0.06639233451970811,0.21935430493000002,-2.745260740099393,-0.14920705774386098,0.19272885475878132,0.8490624557659836,,-0.046482481303738984,-0.07979645340118074,0.07698830152,-0.06345462529521684,,1.6283244e-05,-8.46386e-06,6.914139e-06,0.99999994,-2.3178756e-05,-1.9628555e-05,2.3175031e-05,1.0,-2.2351742e-06,1.9643456e-05,2.2351742e-06,1.0,715,2.241,1,2,1.008,False,-0.2631548101423209,1.0225746353237892
2.204199683998013,18:11:05.420062,18:10:49.751145,0,,0.128863,0.00024205446,0.032797024,0.57050866,0.44884402,-0.68779254,0.47828752,0.49921757,0.7225115,0.6676531,-0.7411617,0.07013136,,0.09901053,-0.0065462515,0.017214417,-0.011274278,0.6947829,0.7191311,0.8734141,-0.3433094,0.34537882,0.48684773,0.6319931,-0.6029627,,0.10738537,1.3461405,0.44494316,0.9960212,0.009197103,-0.08864049,-0.05014082,-0.7644489,-0.64273155,-0.07367239,0.64461875,-0.76094615,,-0.08545809,0.2618409,-0.09154776,-0.62968457,-0.35294092,0.6920477,0.7652527,-0.1284487,0.6307846,-0.13373707,0.9267867,0.35097116,,-0.03423067,0.44117358,-0.30681187,-0.031971153,-0.7826724,-0.62161225,0.96967053,0.12649174,-0.20913853,0.24231577,-0.60944545,0.75489026,,0.9052433020508486,0.3472217927580082,0.19052351904,3.3212790148513816,-0.3260146884403409,-1.328199174363551,-0.41032029412930937,,-0.9812118253345951,0.06637688905395966,0.21935430493000002,-2.745260740099393,-0.14920705774386098,0.19248381853835966,0.8482457354353121,,-0.046482481303738984,-0.07979645340118074,0.07698830152,-0.06345462529521684,,1.6283244e-05,-8.46386e-06,6.914139e-06,0.99999994,-2.3178756e-05,-1.9628555e-05,2.3175031e-05,1.0,-2.2351742e-06,1.9643456e-05,2.2351742e-06,1.0,738,2.315,0,2,1.056,False,-0.2623802998015474,1.0226711957253483
2.2338223160040798,18:11:05.486127,18:10:49.751145,0,,0.12853017,0.00035770237,0.03289424,0.55652326,0.4888686,-0.6717806,0.47711354,0.47390035,0.7401223,0.68017966,-0.73241097,0.030490637,,0.099018365,-0.006572582,0.017210782,-0.011553906,0.6949579,0.7189576,0.87357664,-0.3428399,0.34543413,0.48654944,0.63205564,-0.60313785,,0.10738537,1.3461405,0.44494316,0.9960212,0.009197103,-0.08864049,-0.05014082,-0.7644489,-0.64273155,-0.07367239,0.64461875,-0.76094615,,-0.0851355,0.26201,-0.091578074,-0.6171962,-0.39424944,0.6809084,0.7732782,-0.14413688,0.617467,-0.145292,0.90762985,0.39382523,,-0.034238633,0.4411513,-0.3068263,-0.03164957,-0.7828419,-0.6214152,0.96960765,0.12686464,-0.20920414,0.24260938,-0.6091502,0.75503427,,0.9072048762009016,0.346356846676095,0.19050796356000002,3.3059716489770112,-0.3404981574154776,-1.276529651383136,-0.40999360599704104,,-0.9812195480674692,0.06624560259509785,0.21935430493000002,-2.745680119986362,-0.14920705774386098,0.19223878231793795,0.8477557032369093,,-0.046482481303738984,-0.07979645340118074,0.07698830152,-0.06345462529521684,,1.6283244e-05,-8.46386e-06,6.914139e-06,0.99999994,-2.3178756e-05,-1.9628555e-05,2.3175031e-05,1.0,-2.2351742e-06,1.9643456e-05,2.2351742e-06,1.0,747,2.344,0,2,1.056,False,-0.26309523242380006,1.0213676303043029
2.2999259030038957,18:11:05.514048,18:10:49.891587,0,,0.12839365,0.00041623414,0.032968596,0.5536866,0.49819142,-0.66726017,0.47414604,0.47010797,0.74443537,0.6845557,-0.72856283,0.024076879,,0.099019855,-0.0065913573,0.017205894,-0.015131997,0.695492,0.71837443,0.8745697,-0.33904362,0.34666613,0.48466372,0.6335142,-0.6031259,,0.10738537,1.3461405,0.44494316,0.9960212,0.009197103,-0.08864049,-0.05014082,-0.7644489,-0.64273155,-0.07367239,0.64461875,-0.76094615,,-0.08500671,0.2621102,-0.0916092,-0.6149275,-0.40402335,0.6772218,0.77403164,-0.1450194,0.6163152,-0.15079543,0.90318024,0.40190327,,-0.034239933,0.44113412,-0.30683538,-0.027824432,-0.7834694,-0.6208071,0.96931785,0.13059063,-0.20825225,0.24423087,-0.60755396,0.75579727,,0.9081393268786828,0.3461328874227425,0.19047814889000003,3.3036650595986807,-0.3466467999049224,-1.26612504886752,-0.41228042292292066,,-0.9812195480674692,0.06612976160198447,0.21935430493000002,-2.7498739188560526,-0.1496169672431573,0.1920012848480433,0.8469389829062379,,-0.046482481303738984,-0.07979645340118074,0.07698830152,-0.06345462529521684,,1.6283244e-05,-8.46386e-06,6.914139e-06,0.99999994,-2.3178756e-05,-1.9628555e-05,2.3175031e-05,1.0,-2.2351742e-06,1.9643456e-05,2.2351742e-06,1.0,761,2.389,0,2,1.056,False,-0.2635718541719685,1.021995272914436
2.3278393279906595,18:11:05.573573,18:10:49.891587,0,,0.12817632,0.0005053878,0.03319609,0.55155617,0.50615895,-0.6630148,0.4678439,0.47034281,0.74826443,0.690585,-0.7228974,0.022617042,,0.09903133,-0.0066319928,0.017202377,-0.017565291,0.69420755,0.7195605,0.87461346,-0.33806837,0.34750718,0.48450267,0.6354413,-0.601225,,0.10738537,1.3461405,0.44494316,0.9960212,0.009197103,-0.08864049,-0.05014082,-0.7644489,-0.64273155,-0.07367239,0.64461875,-0.76094615,,-0.08481383,0.26233765,-0.0917434,-0.61361825,-0.4125597,0.67325115,0.77329516,-0.14159447,0.61803365,-0.15964712,0.8998586,0.40591535,,-0.034251872,0.44110116,-0.3068592,-0.025391433,-0.7824327,-0.6222173,0.96941936,0.13270493,-0.20643532,0.24409305,-0.60843116,0.75513583,,0.9097765462480184,0.3460556600940003,0.19033296441000003,3.3030359897682278,-0.35593808188897236,-1.2596921337781313,-0.4116270466583838,,-0.9812195480674692,0.06586718868426085,0.21935430493000002,-2.7519708182908977,-0.15111996874057715,0.19396199044996898,0.8480823913691778,,-0.046482481303738984,-0.07979645340118074,0.07698830152,-0.06345462529521684,,1.6283244e-05,-8.46386e-06,6.914139e-06,0.99999994,-2.3178756e-05,-1.9628555e-05,2.3175031e-05,1.0,-2.2351742e-06,1.9643456e-05,2.2351742e-06,1.0,770,2.417,0,2,1.056,False,-0.2629164992682367,1.022429794721451
2.340303734992631,18:11:05.599247,18:10:49.891587,0,,0.12801242,0.00055892766,0.033398926,0.55205446,0.50721484,-0.66179204,0.46613482,0.4703473,0.74932754,0.6913422,-0.7221541,0.023226768,,0.0990404,-0.0066665187,0.017196774,-0.01748331,0.6941609,0.7196074,0.8746798,-0.33805567,0.34735236,0.4843857,0.63549894,-0.6012582,,0.10738537,1.3461405,0.44494316,0.9960212,0.009197103,-0.08864049,-0.05014082,-0.7644489,-0.64273155,-0.07367239,0.64461875,-0.76094615,,-0.08467213,0.26251915,-0.09187703,-0.61423564,-0.41369078,0.67199296,0.77246535,-0.14116561,0.61916846,-0.16128199,0.8994066,0.40627074,,-0.034261003,0.44107145,-0.3068776,-0.025455069,-0.782394,-0.6222633,0.9693826,0.13275671,-0.20657453,0.24423231,-0.6084696,0.7550598,,0.9109812925763974,0.34627189661447855,0.19017352074000002,3.3034553696551967,-0.3574410833863922,-1.2582215006170487,-0.41244376698905505,,-0.9812195480674692,0.0656972885610279,0.21935430493000002,-2.7519708182908977,-0.15111996874057715,0.19396199044996898,0.8480823913691778,,-0.046482481303738984,-0.07979645340118074,0.07698830152,-0.06345462529521684,,1.6283244e-05,-8.46386e-06,6.914139e-06,0.99999994,-2.3178756e-05,-1.9628555e-05,2.3175031e-05,1.0,-2.2351742e-06,1.9643456e-05,2.2351742e-06,1.0,793,2.491,0,2,1.056,False,-0.2630356547052788,1.0216090313082002
2.365909988002386,18:11:05.663586,18:10:50.027142,0,,0.12789154,0.00064121187,0.033659264,0.5504848,0.5111253,-0.6600887,0.4634002,0.47060668,0.75085926,0.6944253,-0.71922195,0.022206157,,0.09904498,-0.0066789016,0.017195702,-0.01745646,0.6940802,0.719686,0.8747032,-0.338081,0.34726888,0.48434457,0.6355737,-0.60121244,,0.10738537,1.3461405,0.44494316,0.9960212,0.009197103,-0.08864049,-0.05014082,-0.7644489,-0.64273155,-0.07367239,0.64461875,-0.76094615,,-0.084578864,0.26275742,-0.09203091,-0.6130779,-0.4178939,0.67044777,0.7724849,-0.13927697,0.6195716,-0.16553727,0.89775646,0.40820435,,-0.034265723,0.44106135,-0.30688477,-0.025475468,-0.7823248,-0.6223495,0.96936977,0.13279481,-0.2066103,0.24428116,-0.6085503,0.754979,,0.9120933661102857,0.34673526058693205,0.18998944756000002,3.3021972299942894,-0.3615401783793554,-1.254552248545594,-0.4117903907245182,,-0.9812195480674692,0.06563550669803411,0.21935430493000002,-2.7519708182908977,-0.15111996874057715,0.1940436691901095,0.847592359170775,,-0.046482481303738984,-0.07979645340118074,0.07698830152,-0.06345462529521684,,1.6283244e-05,-8.46386e-06,6.914139e-06,0.99999994,-2.3178756e-05,-1.9628555e-05,2.3175031e-05,1.0,-2.2351742e-06,1.9643456e-05,2.2351742e-06,1.0,802,2.52,0,2,1.056,False,-0.26297607698675796,1.0212710699027439
2.4302985160029493,18:11:05.703202,18:10:50.027142,0,,0.12786645,0.0007067174,0.03383766,0.54813594,0.5144707,-0.65944415,0.46321538,0.46975094,0.75150883,0.6964038,-0.71739376,0.019176543,,0.0990449,-0.006680943,0.017196536,-0.017282786,0.6940589,0.7197107,0.8746513,-0.3382693,0.3472162,0.48444444,0.63549674,-0.6012133,,0.10738537,1.3461405,0.44494316,0.9960212,0.009197103,-0.08864049,-0.05014082,-0.7644489,-0.64273155,-0.07367239,0.64461875,-0.76094615,,-0.08457213,0.26292446,-0.09212472,-0.6109664,-0.421439,0.6701561,0.7737606,-0.13892002,0.618058,-0.16737565,0.8961531,0.41096836,,-0.03426581,0.44106048,-0.3068868,-0.025662368,-0.7822982,-0.62237525,0.9693868,0.1326065,-0.2066512,0.24419387,-0.60862553,0.75494653,,0.9125412846169907,0.3472912973538762,0.18986889259000003,3.299471260728991,-0.36317981637654073,-1.2503564777963172,-0.411300358526115,,-0.9812272708003436,0.06562778396515988,0.21935300864,-2.751761128347413,-0.15111996874057715,0.1940436691901095,0.847592359170775,,-0.046482481303738984,-0.07979645340118074,0.07698830152,-0.06345462529521684,,1.6283244e-05,-8.46386e-06,6.914139e-06,0.99999994,-2.3178756e-05,-1.9628555e-05,2.3175031e-05,1.0,-2.2351742e-06,1.9643456e-05,2.2351742e-06,1.0,816,2.565,0,2,1.056,False,-0.26297607698675796,1.0216573115089795
2.469930552993901,18:11:05.741994,18:10:50.027142,0,,0.12790218,0.0007997751,0.0340472,0.54508394,0.52343804,-0.6549015,0.45763567,0.46874344,0.7555456,0.7024621,-0.7115421,0.015960455,,0.0990449,-0.006680943,0.017196536,-0.017282786,0.6940589,0.7197107,0.8746513,-0.3382693,0.3472162,0.48444444,0.63549674,-0.6012133,,0.10738537,1.3461405,0.44494316,0.9960212,0.009197103,-0.08864049,-0.05014082,-0.7644489,-0.64273155,-0.07367239,0.64461875,-0.76094615,,-0.08462865,0.2631293,-0.092218,-0.6087283,-0.43101752,0.66608846,0.7736409,-0.13637015,0.61877537,-0.17586844,0.89197934,0.41646513,,-0.03426581,0.44106048,-0.3068868,-0.025662368,-0.7822982,-0.62237525,0.9693868,0.1326065,-0.2066512,0.24419387,-0.60862553,0.75494653,,0.9128656393977082,0.34790139325093994,0.18976000423000003,3.2984228110115685,-0.37137800636246715,-1.243099652393548,-0.4121170788567865,,-0.9812272708003436,0.06562778396515988,0.21935300864,-2.751761128347413,-0.15111996874057715,0.1940436691901095,0.847592359170775,,-0.046482481303738984,-0.07979645340118074,0.07698830152,-0.06345462529521684,,1.6283244e-05,-8.46386e-06,6.914139e-06,0.99999994,-2.3178756e-05,-1.9628555e-05,2.3175031e-05,1.0,-2.2351742e-06,1.9643456e-05,2.2351742e-06,1.0,825,2.593,0,2,1.056,False,-0.26381016504605226,1.0213676303043029
2.5087205930030905,18:11:05.776978,18:10:50.027142,0,,0.12794206,0.00090251863,0.03422998,0.5402021,0.53516924,-0.64944226,0.4496706,0.4687534,0.76030684,0.7113211,-0.7027546,0.012571663,,0.099047005,-0.006683834,0.017197132,-0.017278304,0.69410837,0.7196631,0.87465656,-0.33824137,0.34723014,0.48443514,0.6354576,-0.6012622,,0.10738537,1.3461405,0.44494316,0.9960212,0.009197103,-0.08864049,-0.05014082,-0.7644489,-0.64273155,-0.07367239,0.64461875,-0.76094615,,-0.0846861,0.2633238,-0.092284426,-0.605035,-0.4436431,0.66114557,0.773636,-0.13129176,0.6198789,-0.18820201,0.88653445,0.42265436,,-0.03426804,0.44105852,-0.3068889,-0.02566541,-0.7823412,-0.62232107,0.969384,0.13259673,-0.20667067,0.24420473,-0.6085724,0.75498587,,0.9131822714455514,0.3483029753603996,0.18969389344,3.2965356015202074,-0.3838119278411222,-1.234594197959985,-0.4121170788567865,,-0.9812349935332177,0.06561233849941144,0.21935300864,-2.751761128347413,-0.15111996874057715,0.19396199044996898,0.8474290151046407,,-0.046482481303738984,-0.07979645340118074,0.07698830152,-0.06345462529521684,,1.6283244e-05,-8.46386e-06,6.914139e-06,0.99999994,-2.3178756e-05,-1.9628555e-05,2.3175031e-05,1.0,-2.2351742e-06,1.9643456e-05,2.2351742e-06,1.0,848,2.667,0,2,1.056,False,-0.2636314318904893,1.0207882678949494
2.543708860001061,18:11:05.840225,18:10:50.172146,0,,0.12779137,0.0011356026,0.03463073,0.53469837,0.54187745,-0.6484336,0.4448871,0.47187716,0.76118815,0.7184518,-0.6954859,0.0112375915,,0.09904942,-0.006694697,0.017194986,-0.01759211,0.6937203,0.7200296,0.87478745,-0.33805802,0.34707892,0.48418742,0.63597864,-0.60091066,,0.10738537,1.3461405,0.44494316,0.9960212,0.009197103,-0.08864049,-0.05014082,-0.7644489,-0.64273155,-0.07367239,0.64461875,-0.76094615,,-0.084575295,0.26376933,-0.0924484,-0.600461,-0.45103958,0.66031045,0.7749516,-0.12456622,0.61962354,-0.19722235,0.8837684,0.42433098,,-0.034270436,0.441049,-0.3068945,-0.025317648,-0.7820226,-0.6227356,0.9693348,0.13311265,-0.20656982,0.24443626,-0.60886914,0.75467163,,0.9153060229859631,0.34970079001063425,0.18944759834000002,3.2906642831026405,-0.39337648282470306,-1.2285101982441873,-0.41228042292292066,,-0.9812349935332177,0.06555827936929186,0.21935300864,-2.752180508234382,-0.15111996874057715,0.19453374163095294,0.847592359170775,,-0.046482481303738984,-0.07979645340118074,0.07698830152,-0.06345462529521684,,1.6283244e-05,-8.46386e-06,6.914139e-06,0.99999994,-2.3178756e-05,-1.9628555e-05,2.3175031e-05,1.0,-2.2351742e-06,1.9643456e-05,2.2351742e-06,1.0,871,2.741,0,2,1.056,False,-0.2636314318904893,1.0223332343198919
2.6069280529918615,18:11:05.916078,18:10:50.172146,0,,0.12764916,0.0017984957,0.035234526,0.5168531,0.5656326,-0.6425903,0.4295926,0.47790036,0.7661993,0.74048144,-0.67206466,0.0040125847,,0.09905635,-0.006717913,0.017190158,-0.017536191,0.693865,0.71989155,0.8748327,-0.3379643,0.34705618,0.48410767,0.6358707,-0.6010892,,0.10738537,1.3461405,0.44494316,0.9960212,0.009197103,-0.08864049,-0.05014082,-0.7644489,-0.64273155,-0.07367239,0.64461875,-0.76094615,,-0.08448556,0.26467204,-0.09248379,-0.58550525,-0.47709036,0.65541464,0.77867126,-0.10607514,0.6184004,-0.22550967,0.87242925,0.43360412,,-0.03427724,0.44102824,-0.306906,-0.025361052,-0.78214884,-0.62257534,0.9693097,0.13309737,-0.20669733,0.24453121,-0.6087104,0.75476897,,0.917985811293319,0.35197127347565627,0.18936333949000003,3.277034436776147,-0.42070378277779114,-1.2105555907323526,-0.41375051951812947,,-0.9812349935332177,0.0654424383761785,0.21935430493000002,-2.752180508234382,-0.15111996874057715,0.19428870541053123,0.8487357676337149,,-0.046482481303738984,-0.07979645340118074,0.07698830152,-0.06345462529521684,,1.6283244e-05,-8.46386e-06,6.914139e-06,0.99999994,-2.3178756e-05,-1.9628555e-05,2.3175031e-05,1.0,-2.2351742e-06,1.9643456e-05,2.2351742e-06,1.0,880,2.77,0,2,1.056,False,-0.2644655199497832,1.0244575631541881
2.682734318994335,18:11:05.945477,18:10:50.172146,0,,0.12761928,0.0019618124,0.035368666,0.5122373,0.5689575,-0.64335054,0.42581084,0.48229456,0.7655567,0.7458537,-0.66609246,0.004780948,,0.099058725,-0.0067300424,0.017188072,-0.0176561,0.69380903,0.7199425,0.87474966,-0.3380243,0.34720683,0.4842533,0.6358998,-0.6009411,,0.10738537,1.3461405,0.44494316,0.9960212,0.009197103,-0.08864049,-0.05014082,-0.7644489,-0.64273155,-0.07367239,0.64461875,-0.76094615,,-0.08446697,0.26488465,-0.092481,-0.58159703,-0.4809533,0.65607077,0.7795535,-0.09904442,0.618455,-0.23246783,0.8711338,0.43253276,,-0.034279633,0.44101778,-0.30691248,-0.025264164,-0.78209895,-0.6226419,0.96935654,0.13307732,-0.20649046,0.24435548,-0.60877883,0.75477064,,0.9186808572519992,0.35257364663984575,0.18935037659,3.273260017793425,-0.42767224426582856,-1.2096923233121286,-0.41130035852611524,,-0.9812272708003436,0.06537293378031048,0.21935430493000002,-2.752180508234382,-0.15139324174010801,0.19434818373764295,0.8497158320305206,,-0.046482481303738984,-0.07979645340118074,0.07698830152,-0.06345462529521684,,1.6283244e-05,-8.46386e-06,6.914139e-06,0.99999994,-2.3178756e-05,-1.9628555e-05,2.3175031e-05,1.0,-2.2351742e-06,1.9643456e-05,2.2351742e-06,1.0,894,2.815,0,2,1.056,False,-0.26351227645344677,1.0253748869689978
2.712203912989935,18:11:05.995158,18:10:50.365320,0,,0.12751636,0.0022117943,0.035570845,0.50786334,0.573426,-0.64285076,0.4227909,0.48426998,0.7659833,0.7505481,-0.6608065,0.003503561,,0.099057436,-0.0067941323,0.017171085,-0.025990387,0.6940056,0.71950036,0.87757117,-0.32884765,0.3488956,0.47874147,0.64048064,-0.60049236,,0.10738537,1.3461405,0.44494316,0.9960212,0.009197103,-0.08864049,-0.05014082,-0.7644489,-0.64273155,-0.07367239,0.64461875,-0.76094615,,-0.08438133,0.2652112,-0.09248001,-0.57783693,-0.48593163,0.6557247,0.7805587,-0.0943554,0.61792,-0.23839572,0.8688887,0.43382022,,-0.034277722,0.44095945,-0.30694404,-0.016189603,-0.7826745,-0.6222207,0.9682942,0.14287986,-0.2049188,0.24928753,-0.6058102,0.755546,,0.9200323355049885,0.3535698791806207,0.18931148789000002,3.2688565289802503,-0.43327434075621163,-1.2054509042211374,-0.4119537347906521,,-0.9812041026017209,0.06504857899959304,0.21934911977000002,-2.7626650054086084,-0.15139324174010801,0.19524664987918913,0.8515126167579976,,-0.046482481303738984,-0.07979645340118074,0.07698830152,-0.06345462529521684,,1.6283244e-05,-8.46386e-06,6.914139e-06,0.99999994,-2.3178756e-05,-1.9628555e-05,2.3175031e-05,1.0,-2.2351742e-06,1.9643456e-05,2.2351742e-06,1.0,903,2.843,0,2,1.056,False,-0.2641080536386573,1.0280785782126476
2.7618800600030227,18:11:06.038272,18:10:50.365320,0,,0.1275008,0.002301097,0.03571056,0.49994206,0.5845274,-0.6390505,0.4157864,0.4852911,0.7691646,0.7597233,-0.65024626,-0.00042116642,,0.098981366,-0.006918721,0.0171749,-0.026401434,0.69358176,0.7198938,0.8779448,-0.32828552,0.3484845,0.47803319,0.6412276,-0.60025936,,0.107339144,1.3461409,0.44495,0.99602413,0.009241802,-0.08860291,-0.050082583,-0.76444834,-0.64273673,-0.07367239,0.64461875,-0.76094615,,-0.08434103,0.2653635,-0.09252901,-0.5711619,-0.49813262,0.6524094,0.78162974,-0.08734937,0.6175962,-0.25065726,0.86269,0.43924588,,-0.03416764,0.44087267,-0.30703866,-0.015729332,-0.7823248,-0.622672,0.9681156,0.1437964,-0.20512131,0.2500095,-0.60604495,0.755119,,0.9204725312788193,0.3536702747079856,0.18930371015000003,3.2631949005061682,-0.44639144473369397,-1.1963883602690923,-0.4134238313858607,,-0.981173211670224,0.06463927415725915,0.21934263832000003,-2.7635037651825463,-0.15139324174010801,0.19573672232003253,0.8524926811548034,,-0.046482481303738984,-0.07979645340118074,0.07698830152,-0.06345462529521684,,-3.0275434e-05,-4.7683716e-06,5.6028366e-06,0.99999994,2.1316111e-05,1.8063933e-05,-2.1316111e-05,1.0,2.0861626e-06,-1.8049031e-05,-2.0563602e-06,1.0,926,2.917,0,2,1.056,False,-0.26273776611267374,1.0289476218266778
2.7786536130006425,18:11:06.096149,18:10:50.365320,0,,0.12752175,0.002332732,0.035811678,0.49037173,0.5939895,-0.6377396,0.4094063,0.48898876,0.7702444,0.7693646,-0.6388008,-0.003396839,,0.0990068,-0.0070213303,0.017154098,-0.025713328,0.69315135,0.7203331,0.87793267,-0.32895622,0.34788212,0.478093,0.64134926,-0.6000818,,0.107339144,1.3461409,0.44495,0.99602413,0.009241802,-0.08860291,-0.050082583,-0.76444834,-0.64273673,-0.07367239,0.64461875,-0.76094615,,-0.08437228,0.2654521,-0.09258234,-0.56285995,-0.50871336,0.65145946,0.7835923,-0.07762427,0.61640704,-0.2630054,0.85742944,0.44231543,,-0.034192692,0.44078168,-0.30709064,-0.016419278,-0.7819324,-0.6231469,0.96809673,0.14342007,-0.20547363,0.25003827,-0.6066402,0.7546314,,0.920464808545945,0.35347720638613006,0.18928556209000003,3.2558557524842096,-0.460055094710238,-1.1899839368276026,-0.41326048731972653,,-0.9811500434716013,0.06412957378756033,0.21934523090000002,-2.762874695352093,-0.15152987823987346,0.1960931764441506,0.8559229065436234,,-0.046482481303738984,-0.07979645340118074,0.07698830152,-0.06345462529521684,,-3.0275434e-05,-4.7683716e-06,5.6028366e-06,0.99999994,2.1316111e-05,1.8063933e-05,-2.1316111e-05,1.0,2.0861626e-06,-1.8049031e-05,-2.0563602e-06,1.0,940,2.962,0,2,1.056,False,-0.2631548101423209,1.0331479992944907
2.83656159399834,18:11:06.141364,18:10:50.513669,0,,0.12756978,0.0023936778,0.035935864,0.4787691,0.605972,-0.6352778,0.4029123,0.4912433,0.7722316,0.7800267,-0.62568194,-0.008961529,,0.09895538,-0.0070885345,0.017134428,-0.024801686,0.6926699,0.7208281,0.87784857,-0.32989103,0.3472085,0.47829562,0.64138925,-0.5998775,,0.107339144,1.3461409,0.44495,0.99602413,0.009241802,-0.08860291,-0.050082583,-0.76444834,-0.64273673,-0.07367239,0.64461875,-0.76094615,,-0.084432326,0.2655764,-0.0926312,-0.5526537,-0.52201563,0.6496719,0.78624415,-0.068042696,0.6141582,-0.27639475,0.8502175,0.4480358,,-0.03414084,0.44072294,-0.30712825,-0.017351842,-0.7814853,-0.6236823,0.9681056,0.14279902,-0.20586401,0.24994092,-0.60736245,0.75408244,,0.9203644130185802,0.35348492911900425,0.18927000661,3.2464197050274057,-0.47481183668490556,-1.179829414251622,-0.4130971432535919,,-0.980864302355255,0.06387472360271092,0.21931282365000002,-2.7620359355781545,-0.15152987823987346,0.1968282851054157,0.8577196912711003,,-0.046482481303738984,-0.07979645340118074,0.07698830152,-0.06345462529521684,,-3.0275434e-05,-4.7683716e-06,5.6028366e-06,0.99999994,2.1316111e-05,1.8063933e-05,-2.1316111e-05,1.0,2.0861626e-06,-1.8049031e-05,-2.0563602e-06,1.0,949,2.991,0,2,1.056,False,-0.26255903295711036,1.0344998449163156
2.8817749799927697,18:11:06.170472,18:10:50.513669,0,,0.12760144,0.0024464428,0.036027864,0.4710169,0.6140043,-0.6333573,0.39701575,0.49360636,0.77377725,0.78773177,-0.61591506,-0.01127252,,0.098904096,-0.007135056,0.0171355,-0.02379866,0.6924473,0.7210757,0.87766165,-0.33089566,0.34672496,0.47868955,0.6411121,-0.5998596,,0.107339144,1.3461409,0.44495,0.99602413,0.009241802,-0.08860291,-0.050082583,-0.76444834,-0.64273673,-0.07367239,0.64461875,-0.76094615,,-0.08447272,0.26567444,-0.09266279,-0.5459338,-0.53102076,0.64805347,0.7872139,-0.060341924,0.6137207,-0.28679362,0.8452076,0.4509696,,-0.034091406,0.44069344,-0.30716673,-0.01840349,-0.78125346,-0.6239426,0.9681623,0.14189278,-0.20622374,0.24964595,-0.60787296,0.7537688,,0.920356690285706,0.3535003745847527,0.18926482145,3.2407580765533237,-0.48615266616543706,-1.1738488778504417,-0.41407720765039757,,-0.9806480658347767,0.06372799167810066,0.21927004608000003,-2.760987485860732,-0.15152987823987346,0.1971550000659779,0.8583730675356374,,-0.046482481303738984,-0.07979645340118074,0.07698830152,-0.06345462529521684,,-3.0275434e-05,-4.7683716e-06,5.6028366e-06,0.99999994,2.1316111e-05,1.8063933e-05,-2.1316111e-05,1.0,2.0861626e-06,-1.8049031e-05,-2.0563602e-06,1.0,972,3.064,0,2,1.056,False,-0.262797343831195,1.0337273617038443
2.910869344996172,18:11:06.238618,18:10:50.513669,0,,0.12762275,0.0025451034,0.03626491,0.44815174,0.633929,-0.6303123,0.3834675,0.5005976,0.7761152,0.8075348,-0.58952177,-0.018747598,,0.09859025,-0.0075036213,0.0170964,-0.023904905,0.69224346,0.72126794,0.8782691,-0.33011013,0.34593457,0.4775687,0.64173687,-0.60008484,,0.107339144,1.3461409,0.44495,0.99602413,0.009241802,-0.08860291,-0.050082583,-0.76444834,-0.64273673,-0.07367239,0.64461875,-0.76094615,,-0.08451783,0.2659022,-0.09277451,-0.52570415,-0.5535718,0.6459051,0.7910852,-0.038975086,0.61046314,-0.31276098,0.8318889,0.45841184,,-0.033784848,0.44042048,-0.30742627,-0.018130686,-0.7811157,-0.62412304,0.96785426,0.14290585,-0.2069686,0.25085726,-0.60781264,0.7534152,,0.9204107494158256,0.35323780166702906,0.18923111791000002,3.221676291696232,-0.5153928771152414,-1.1571931755917768,-0.4127704551213238,,-0.979180746588674,0.06236879069223714,0.21902245469000003,-2.7620359355781545,-0.15234969723846611,0.19839525866914037,0.8582097234695032,,-0.046482481303738984,-0.07979645340118074,0.07698830152,-0.06345462529521684,,-3.0275434e-05,-4.7683716e-06,5.6028366e-06,0.99999994,2.1316111e-05,1.8063933e-05,-2.1316111e-05,1.0,2.0861626e-06,-1.8049031e-05,-2.0563602e-06,1.0,995,3.138,0,2,1.056,False,-0.26243987752006825,1.0339687627077414
2.9790366789966356,18:11:06.311983,18:10:50.641000,0,,0.12764412,0.0026711076,0.036645606,0.41483396,0.6660576,-0.6199031,0.36426705,0.5027425,0.7839384,0.83379984,-0.55101466,-0.034068197,,0.09796816,-0.008316837,0.016929507,-0.027293129,0.6917805,0.7215917,0.88118446,-0.3241838,0.3441202,0.47198394,0.6452476,-0.60073835,,0.107339144,1.3461409,0.44495,0.99602413,0.009241802,-0.08860291,-0.050082583,-0.76444834,-0.64273673,-0.07367239,0.64461875,-0.76094615,,-0.084578186,0.26624408,-0.092976354,-0.49592867,-0.5896946,0.6374284,0.7954512,-0.0140723325,0.6058542,-0.34829885,0.8075037,0.4760522,,-0.03316726,0.4397583,-0.30793256,-0.01394276,-0.7809783,-0.62440246,0.96644807,0.14965427,-0.20876232,0.25648335,-0.6063633,0.7526884,,0.9204107494158256,0.3529829514821797,0.18914685906,3.19420690909976,-0.5554273715465154,-1.123649263667179,-0.412933799187458,,-0.9760067033773677,0.05924880661105044,0.2185804198,-2.768955703713144,-0.15316951623705874,0.2015958070356763,0.8583730675356374,,-0.046482481303738984,-0.07979645340118074,0.07698830152,-0.06345462529521684,,-3.0275434e-05,-4.7683716e-06,5.6028366e-06,0.99999994,2.1316111e-05,1.8063933e-05,-2.1316111e-05,1.0,2.0861626e-06,-1.8049031e-05,-2.0563602e-06,1.0,1028,3.245,0,2,1.056,False,-0.2626781883941529,1.0339687627077414
3.052402022993192,18:11:06.413777,18:10:50.641000,0,,0.12753192,0.002746597,0.037150726,0.3625947,0.70614976,-0.6081753,0.3385767,0.50818163,0.7919073,0.86826885,-0.49305546,-0.05482194,,0.09745667,-0.008777089,0.01663518,-0.029372158,0.6914782,0.7217998,0.8832514,-0.3201242,0.34261844,0.46797878,0.64759415,-0.6013465,,0.107339144,1.3461409,0.44495,0.99602413,0.009241802,-0.08860291,-0.050082583,-0.76444834,-0.64273673,-0.07367239,0.64461875,-0.76094615,,-0.084520705,0.26663595,-0.09331776,-0.44840345,-0.6358015,0.6282442,0.8012759,0.025539275,0.5977497,-0.39609507,0.77142996,0.4980005,,-0.03263279,0.43925977,-0.3080933,-0.011287484,-0.780891,-0.6245653,0.9653963,0.15423638,-0.21028818,0.26054284,-0.60532665,0.75212836,,0.9204107494158256,0.3518631552154171,0.18900945232000002,3.146816981872257,-0.611448336450346,-1.0746190948058836,-0.4124437669890548,,-0.9730411739536655,0.05754208264584682,0.21839764291000002,-2.773778572413288,-0.15344278923658963,0.2049224349684106,0.8580463794033689,,-0.046482481303738984,-0.07979645340118074,0.07698830152,-0.06345462529521684,,-3.0275434e-05,-4.7683716e-06,5.6028366e-06,0.99999994,2.1316111e-05,1.8063933e-05,-2.1316111e-05,1.0,2.0861626e-06,-1.8049031e-05,-2.0563602e-06,1.0,1047,3.306,0,2,1.056,False,-0.26148663402373185,1.032954878491373
3.1541724679991603,18:11:06.482141,18:10:50.840110,0,,0.1274793,0.0027582347,0.037451193,0.33236077,0.73260194,-0.5939953,0.31544337,0.5071839,0.80203485,0.88883716,-0.45393687,-0.062526494,,0.097480945,-0.008680649,0.016696095,-0.029682416,0.68961954,0.72356325,0.8828913,-0.32130006,0.3424458,0.46863818,0.6489923,-0.5993222,,0.107339144,1.3461409,0.44495,0.99602413,0.009241802,-0.08860291,-0.050082583,-0.76444834,-0.64273673,-0.07367239,0.64461875,-0.76094615,,-0.084501304,0.26684308,-0.09354116,-0.42115283,-0.6664224,0.6152328,0.79878795,0.048770625,0.59963256,-0.4296139,0.7439775,0.51179034,,-0.032662574,0.43936983,-0.30806878,-0.011078842,-0.77927,-0.62659043,0.96560293,0.15446123,-0.20917134,0.25978488,-0.60735494,0.7507542,,0.9202485720254668,0.3509209818047617,0.18895500814000002,3.122283258484568,-0.6507996483827929,-1.041223878699065,-0.41244376698905505,,-0.9733578060015088,0.057974555686803396,0.21838986517000003,-2.7735688824698035,-0.15357942573635508,0.20707582137562103,0.857556347204966,,-0.046482481303738984,-0.07979645340118074,0.07698830152,-0.06345462529521684,,-3.0275434e-05,-4.7683716e-06,5.6028366e-06,0.99999994,2.1316111e-05,1.8063933e-05,-2.1316111e-05,1.0,2.0861626e-06,-1.8049031e-05,-2.0563602e-06,1.0,1066,3.368,0,2,1.056,False,-0.2622015666459845,1.0319892744757837
3.2225582899991423,18:11:06.544538,18:10:50.840110,0,,0.12735887,0.0027070642,0.03764315,0.3074241,0.74750364,-0.5888365,0.30537632,0.5085731,0.8050457,0.9012411,-0.42730728,-0.07192233,,0.09756471,-0.008674689,0.016756833,-0.030116916,0.6894587,0.72369844,0.8830091,-0.3209281,0.34249094,0.4683885,0.6493472,-0.599133,,0.107339144,1.3461409,0.44495,0.99602413,0.009241802,-0.08860291,-0.050082583,-0.76444834,-0.64273673,-0.07367239,0.64461875,-0.76094615,,-0.08440397,0.26693577,-0.09373066,-0.39797014,-0.684135,0.6112111,0.80059844,0.06632294,0.5955195,-0.44795305,0.7263336,0.52132285,,-0.032753613,0.43940923,-0.30809885,-0.010611622,-0.77914906,-0.62674886,0.9655517,0.1549857,-0.20901996,0.2599948,-0.6073765,0.75066406,,0.9200786719022339,0.34997880839410633,0.18887723074,3.097120465266425,-0.6736179438436214,-1.0163278257909394,-0.41228042292292066,,-0.9738520609054592,0.05795138748818072,0.21839116146,-2.773988262356773,-0.15344278923658963,0.20688272473178404,0.8570663150065632,,-0.046482481303738984,-0.07979645340118074,0.07698830152,-0.06345462529521684,,-3.0275434e-05,-4.7683716e-06,5.6028366e-06,0.99999994,2.1316111e-05,1.8063933e-05,-2.1316111e-05,1.0,2.0861626e-06,-1.8049031e-05,-2.0563602e-06,1.0,1099,3.474,0,2,1.056,False,-0.2618441003348577,1.0320858348773425
