AlexandreBanks6/ExpertPlaybackApp/resources/Motions/Pilot_05/PC1/Data_PC1_3.csv
Task Time,PC1 Time,PC2 Time,Gaze Calib,s_T_psm1,Tx,Ty,Tz,R00,R01,R02,R10,R11,R12,R20,R21,R22,s_T_psm3,Tx,Ty,Tz,R00,R01,R02,R10,R11,R12,R20,R21,R22,cart_T_ecm,Tx,Ty,Tz,R00,R01,R02,R10,R11,R12,R20,R21,R22,ecm_T_psm1,Tx,Ty,Tz,R00,R01,R02,R10,R11,R12,R20,R21,R22,ecm_T_psm3,Tx,Ty,Tz,R00,R01,R02,R10,R11,R12,R20,R21,R22,psm1_joints,q1,q2,q3,q4,q5,q6,jaw,psm3_joints,q1,q2,q3,q4,q5,q6,jaw,ecm_joints,q1,q2,q3,q4,ecmi_T_ecm,Tx,Ty,Tz,R00,R01,R02,R10,R11,R12,R20,R21,R22,Sample #,Task Duration (s),Collisions (binary),Collisions (increments),Cumulative Collision Time (s),Clutch Press,MTMR Angle,MTML Angle
""
lci_T_si,,,,,-0.06405862,0.016163385,0.23836872,0.9936273,-0.018126413,0.1112486,0.06163678,-0.7389648,-0.6709187,0.09437015,0.6735001,-0.7331383
rci_T_si,,,,,-0.07404149,0.020406518,0.24901661,0.991507,-0.031528454,0.12617382,0.062267285,-0.73666036,-0.67339015,0.1141782,0.6755276,-0.7284407
ecm_T_lc,,,,,-4.4061628e-05,-0.00034663224,-0.01840835,-0.99912,0.030754527,0.028518902,-0.031987965,-0.99852574,-0.043852776,0.027128186,-0.04472645,0.9986309
ecm_T_rc,,,,,-0.0043358393,0.01870579,-0.007592615,-0.99555075,-0.052743673,-0.078081585,0.04863213,-0.9973746,0.053654674,-0.08070653,0.04961868,0.9955021
cart_T_ecmi,,,,,0.10736985,1.3461393,0.4449551,0.99602276,0.009220387,-0.08862091,-0.050110485,-0.7644486,-0.6427342,-0.07367239,0.64461875,-0.76094615
ecmac_T_ecmrep_psm1,,,,,0.0019077883,-0.24418817,-0.31129345,0.9990406,0.03670117,0.023893757,-0.03487346,0.99673134,-0.072872825,-0.026490174,0.07196965,0.997055
ecmac_T_ecmrep_psm3,,,,,-0.025437847,-0.43631262,-0.5392238,0.9997681,0.02112905,0.0041644988,-0.020983119,0.99925387,-0.03242474,-0.0048464956,0.032329835,0.9994655
""
0,18:08:14.154431,18:07:58.491738,0,,0.12744957,0.0010629296,0.025212288,0.8604981,-0.009990551,-0.50935537,0.44402838,0.5048702,0.74023306,0.24976295,-0.8631375,0.43887585,,0.096593276,-0.0026939735,0.024280548,0.51065946,0.6407378,0.57330793,0.6481647,-0.7249994,0.23293427,0.56489766,0.25264794,-0.7855314,,0.10737642,1.3461392,0.44493735,0.9960232,0.009226751,-0.08861556,-0.050102193,-0.7644485,-0.642735,-0.07367239,0.64461875,-0.76094615,,-0.08319558,0.25760826,-0.085458145,-0.87253475,0.11653777,0.47444916,0.4515644,-0.1782951,0.8742428,0.18647428,0.9770516,0.10294437,,-0.032689877,0.44896266,-0.30957824,-0.56538886,-0.6877089,-0.45540303,0.8195301,-0.40591845,-0.40447572,0.093305066,-0.60190254,0.79309994,,0.9029573731200782,0.34648813313495685,0.19704126516,3.677542228831588,0.05287832540922545,-1.6484326874531252,-0.41048363819544376,,-1.000333311931175,0.09978543146785489,0.21368303618,-2.1864370407131357,0.06121315189491732,0.04442372400635258,0.8734007216199912,,-0.046482481303738984,-0.07979645340118074,0.07698830152,-0.06345462529521684,,7.867813e-06,-1.13248825e-05,1.2993813e-05,1.0,6.336719e-06,5.3718686e-06,-6.3329935e-06,1.0,6.556511e-07,-5.364418e-06,-5.9604645e-07,1.0,37,0.111,0,0,0.0,False,-0.2620824112089424,1.0482597021384612
0.12597977899713442,18:08:14.183912,18:07:58.491738,0,,0.1273896,0.0010412484,0.025357723,0.86048543,-0.00699953,-0.5094269,0.44274488,0.5050007,0.7409124,0.25207487,-0.86309046,0.4376447,,0.09659901,-0.002691619,0.024285793,0.51063806,0.6406356,0.57344127,0.6481573,-0.7250404,0.23282754,0.56492555,0.25278962,-0.78546584,,0.10737642,1.3461392,0.44493735,0.9960232,0.009226751,-0.08861556,-0.050102193,-0.7644485,-0.642735,-0.07367239,0.64461875,-0.76094615,,-0.08315252,0.2576897,-0.085587494,-0.8728061,0.113563545,0.47467136,0.45209625,-0.17833,0.87396073,0.18389823,0.97739536,0.10430585,,-0.03269621,0.44896752,-0.30957976,-0.56537163,-0.6876279,-0.45554674,0.81954515,-0.4058448,-0.4045191,0.09327734,-0.60204476,0.7929953,,0.9034052916267832,0.3464726876692084,0.19689737697,3.677542228831588,0.050008958914151205,-1.6466646626564843,-0.4108103263277123,,-1.000371925595546,0.09979315420072911,0.21368303618,-2.1864370407131357,0.06121315189491732,0.04458708148663376,0.873400721619991,,-0.046482481303738984,-0.07979645340118074,0.07698830152,-0.06345462529521684,,7.867813e-06,-1.13248825e-05,1.2993813e-05,1.0,6.336719e-06,5.3718686e-06,-6.3329935e-06,1.0,6.556511e-07,-5.364418e-06,-5.9604645e-07,1.0,45,0.135,0,0,0.0,False,-0.26190367805337944,1.0477769001306665
0.1555280140019022,18:08:14.206547,18:07:58.595986,0,,0.12736624,0.0010627806,0.025607437,0.85964143,0.009878837,-0.5108021,0.43536118,0.5090358,0.74252486,0.26735178,-0.86068857,0.43328735,,0.096598595,-0.0026900992,0.024286091,0.5106353,0.64063925,0.5734395,0.6481564,-0.72503877,0.2328349,0.564929,0.2527848,-0.78546476,,0.10737642,1.3461392,0.44493735,0.9960232,0.009226751,-0.08861556,-0.050102193,-0.7644485,-0.642735,-0.07367239,0.64461875,-0.76094615,,-0.08315638,0.25786972,-0.08576343,-0.87381935,0.09661881,0.47655484,0.45648402,-0.17463824,0.8724241,0.16751727,0.97988075,0.10849734,,-0.032695785,0.44896886,-0.30957898,-0.5653694,-0.68763083,-0.45554495,0.81954706,-0.4058472,-0.40451288,0.09327391,-0.60203975,0.79299945,,0.9042625149758221,0.34636456940896926,0.19667960025000003,3.6769131590011344,0.03251948694417483,-1.6414695111389448,-0.4090135416002354,,-1.000371925595546,0.09980087693360334,0.21368303618,-2.1864370407131357,0.06121315189491732,0.044587081486633706,0.8737274097522597,,-0.046482481303738984,-0.07979645340118074,0.07698830152,-0.06345462529521684,,7.867813e-06,-1.13248825e-05,1.2993813e-05,1.0,6.336719e-06,5.3718686e-06,-6.3329935e-06,1.0,6.556511e-07,-5.364418e-06,-5.9604645e-07,1.0,56,0.168,0,0,0.0,False,-0.26148663402373185,1.048452822941579
0.1780630589928478,18:08:14.245087,18:07:58.595986,0,,0.12736523,0.0010830462,0.02580978,0.85869575,0.023575671,-0.511943,0.4271099,0.5191506,0.74031055,0.28322878,-0.85435754,0.43572298,,0.096599445,-0.002693154,0.024285495,0.5106407,0.6405382,0.5735476,0.6481582,-0.72508,0.2327016,0.5649221,0.25292274,-0.7854254,,0.10737642,1.3461392,0.44493735,0.9960232,0.009226751,-0.08861556,-0.050102193,-0.7644485,-0.642735,-0.07367239,0.64461875,-0.76094615,,-0.08317723,0.25801674,-0.085902385,-0.8748173,0.08253949,0.4773698,0.4606103,-0.16361001,0.8723932,0.15010937,0.98306614,0.105110325,,-0.032696635,0.44896618,-0.30958053,-0.5653738,-0.6875505,-0.45566085,0.8195433,-0.40577632,-0.40459162,0.09328078,-0.6021793,0.7928927,,0.9049884518659992,0.3461560556213652,0.19650719368000003,3.67670346905765,0.014073559475840366,-1.6442340594905707,-0.41228042292292066,,-1.000371925595546,0.09978543146785489,0.21368303618,-2.1864370407131357,0.06121315189491732,0.04475043896691483,0.8734007216199912,,-0.046482481303738984,-0.07979645340118074,0.07698830152,-0.06345462529521684,,7.867813e-06,-1.13248825e-05,1.2993813e-05,1.0,6.336719e-06,5.3718686e-06,-6.3329935e-06,1.0,6.556511e-07,-5.364418e-06,-5.9604645e-07,1.0,64,0.193,0,0,0.0,False,-0.2620824112089424,1.047390658524431
0.2166810710041318,18:08:14.267836,18:07:58.595986,0,,0.12735116,0.0010956675,0.025929272,0.85798556,0.033396833,-0.51258683,0.42132062,0.5250978,0.73943305,0.29385287,-0.8503864,0.43645543,,0.09659697,-0.002693452,0.024283469,0.5106482,0.64054304,0.57353544,0.6481608,-0.7250782,0.23269993,0.56491226,0.25291547,-0.78543484,,0.10737642,1.3461392,0.44493735,0.9960232,0.009226751,-0.08861556,-0.050102193,-0.7644485,-0.642735,-0.07367239,0.64461875,-0.76094615,,-0.083176136,0.25810477,-0.08598535,-0.87541425,0.07247724,0.4779089,0.46317267,-0.15706126,0.8722401,0.13827853,0.9849258,0.10392419,,-0.03269393,0.44896477,-0.3095796,-0.5653798,-0.6875543,-0.4556476,0.819538,-0.40578032,-0.4045983,0.09329049,-0.60217226,0.7928969,,0.9055290431671948,0.3459320963680127,0.19640608306000001,3.67670346905765,0.001503001497419845,-1.6450102422694757,-0.4068900687404897,,-1.0003564801297977,0.09978543146785489,0.21368303618,-2.1864370407131357,0.06121315189491732,0.04475043896691483,0.8734007216199912,,-0.046482481303738984,-0.07979645340118074,0.07698830152,-0.06345462529521684,,7.867813e-06,-1.13248825e-05,1.2993813e-05,1.0,6.336719e-06,5.3718686e-06,-6.3329935e-06,1.0,6.556511e-07,-5.364418e-06,-5.9604645e-07,1.0,72,0.216,0,0,0.0,False,-0.26243987752006825,1.0478734605322257
0.23944888499681838,18:08:14.300392,18:07:58.595986,0,,0.12722467,0.001038447,0.026053414,0.8565748,0.03742087,-0.51466423,0.42058444,0.5272367,0.7383293,0.29897872,-0.84889406,0.4358789,,0.09659451,-0.0026938096,0.024281502,0.51065564,0.640548,0.5735233,0.6481635,-0.7250764,0.23269826,0.56490254,0.25290817,-0.78544414,,0.10737642,1.3461392,0.44493735,0.9960232,0.009226751,-0.08861556,-0.050102193,-0.7644485,-0.642735,-0.07367239,0.64461875,-0.76094615,,-0.08306543,0.25814912,-0.08612841,-0.8745944,0.06836256,0.48001173,0.4660261,-0.1546913,0.8711431,0.13380721,0.9855948,0.10343339,,-0.03269123,0.44896337,-0.3095787,-0.5653858,-0.6875582,-0.45563433,0.81953275,-0.40578428,-0.40460497,0.09330021,-0.60216516,0.7929011,,0.9062704255231204,0.3454378414640623,0.19626089858,3.6743968796793203,-0.004235731492728653,-1.6448230210219568,-0.411300358526115,,-1.0003410346640491,0.09978543146785489,0.21368303618,-2.1864370407131357,0.06121315189491732,0.04475043896691483,0.8734007216199912,,-0.046482481303738984,-0.07979645340118074,0.07698830152,-0.06345462529521684,,7.867813e-06,-1.13248825e-05,1.2993813e-05,1.0,6.336719e-06,5.3718686e-06,-6.3329935e-06,1.0,6.556511e-07,-5.364418e-06,-5.9604645e-07,1.0,87,0.263,0,0,0.0,False,-0.26196325577190027,1.04835626254002
0.27200537599856034,18:08:14.335878,18:07:58.595986,0,,0.1270807,0.0009587407,0.026161686,0.85521376,0.043630887,-0.5164355,0.41942835,0.5270772,0.7391005,0.30444893,-0.84869665,0.43246347,,0.09659815,-0.0026946142,0.024282277,0.5106509,0.6405394,0.5735372,0.6481617,-0.7250798,0.23269248,0.5649088,0.25292036,-0.78543574,,0.10737642,1.3461392,0.44493735,0.9960232,0.009226751,-0.08861556,-0.050102193,-0.7644485,-0.642735,-0.07367239,0.64461875,-0.76094615,,-0.08293612,0.25816706,-0.08627592,-0.8738715,0.062166642,0.48216587,0.46878257,-0.155025,0.86960346,0.1288081,0.9859526,0.10632929,,-0.03269495,0.44896302,-0.30957934,-0.56538194,-0.6875514,-0.45564938,0.81953615,-0.4057779,-0.40460452,0.09329393,-0.60217726,0.7928927,,0.9070426988105429,0.3447427955053821,0.19611830668000002,3.672299980244475,-0.010657646981704355,-1.641301633091177,-0.40983026193090666,,-1.0003564801297977,0.09977770873498067,0.21368433247000002,-2.1864370407131357,0.06121315189491732,0.044750438966914885,0.8730740334877225,,-0.046482481303738984,-0.07979645340118074,0.07698830152,-0.06345462529521684,,7.867813e-06,-1.13248825e-05,1.2993813e-05,1.0,6.336719e-06,5.3718686e-06,-6.3329935e-06,1.0,6.556511e-07,-5.364418e-06,-5.9604645e-07,1.0,95,0.287,0,0,0.0,False,-0.261427056305211,1.0475837793275489
0.30748955099261366,18:08:14.365988,18:07:58.595986,0,,0.12691414,0.00085283816,0.026270807,0.85399586,0.04716161,-0.5181377,0.41841018,0.5296538,0.7378345,0.30923104,-0.8469018,0.43258914,,0.09660019,-0.0026927218,0.024284542,0.5106407,0.6405382,0.5735476,0.6481582,-0.72508,0.2327016,0.5649221,0.25292274,-0.7854254,,0.10737642,1.3461392,0.44493735,0.9960232,0.009226751,-0.08861556,-0.050102193,-0.7644485,-0.642735,-0.07367239,0.64461875,-0.76094615,,-0.08278506,0.25816694,-0.08644338,-0.8732118,0.058518667,0.48381478,0.4711882,-0.15209955,0.86881953,0.12443017,0.9866313,0.10524181,,-0.03269723,0.44896576,-0.30957946,-0.5653738,-0.6875505,-0.45566085,0.8195433,-0.40577632,-0.40459162,0.09328078,-0.6021793,0.7928927,,0.9078458630294622,0.3439087403549659,0.19596145559000003,3.670412770753114,-0.016533016471618294,-1.6419014600815078,-0.4095035737986381,,-1.000371925595546,0.09978543146785489,0.21368433247000002,-2.1864370407131357,0.06121315189491732,0.04475043896691483,0.8734007216199912,,-0.046482481303738984,-0.07979645340118074,0.07698830152,-0.06345462529521684,,7.867813e-06,-1.13248825e-05,1.2993813e-05,1.0,6.336719e-06,5.3718686e-06,-6.3329935e-06,1.0,6.556511e-07,-5.364418e-06,-5.9604645e-07,1.0,107,0.323,0,0,0.0,False,-0.2622611443645053,1.0480665813353434
0.33759348299645353,18:08:14.401013,18:07:58.595986,0,,0.12674394,0.0007416755,0.026468366,0.85215086,0.05294611,-0.52061063,0.41534892,0.5367323,0.73444104,0.31831434,-0.8420898,0.4353857,,0.09659815,-0.0026946142,0.024282277,0.5106509,0.6405394,0.5735372,0.6481617,-0.7250798,0.23269248,0.5649088,0.25292036,-0.78543574,,0.10737642,1.3461392,0.44493735,0.9960232,0.009226751,-0.08861556,-0.050102193,-0.7644485,-0.642735,-0.07367239,0.64461875,-0.76094615,,-0.08264024,0.25822055,-0.08668108,-0.8724495,0.052400254,0.48588687,0.47487772,-0.14392488,0.8682032,0.115425274,0.9882003,0.10068347,,-0.03269495,0.44896302,-0.30957934,-0.56538194,-0.6875514,-0.45564938,0.81953615,-0.4057779,-0.40460452,0.09329393,-0.60217726,0.7928927,,0.9088652637688599,0.3430437942730527,0.19572553081000002,3.6681061813747844,-0.02732729995308809,-1.6457596504112777,-0.4099936059970408,,-1.0003564801297977,0.09977770873498067,0.21368433247000002,-2.1864370407131357,0.06121315189491732,0.04475043896691483,0.8734007216199912,,-0.046482481303738984,-0.07979645340118074,0.07698830152,-0.06345462529521684,,7.867813e-06,-1.13248825e-05,1.2993813e-05,1.0,6.336719e-06,5.3718686e-06,-6.3329935e-06,1.0,6.556511e-07,-5.364418e-06,-5.9604645e-07,1.0,118,0.357,0,0,0.0,False,-0.2616653671792948,1.0476320595283284
0.3726268549944507,18:08:14.433550,18:07:58.595986,0,,0.12662855,0.0006701201,0.026632518,0.8518334,0.054437473,-0.5209762,0.41439724,0.53831685,0.7338187,0.32039744,-0.8409825,0.43599746,,0.096597426,-0.0026963726,0.024280965,0.510518,0.6406376,0.5735459,0.6483134,-0.72494787,0.23268092,0.564855,0.25304964,-0.7854328,,0.10737642,1.3461392,0.44493735,0.9960232,0.009226751,-0.08861556,-0.050102193,-0.7644485,-0.642735,-0.07367239,0.64461875,-0.76094615,,-0.082545295,0.25827944,-0.08686247,-0.8723854,0.050832074,0.4861685,0.4755289,-0.14208621,0.86814964,0.11320768,0.9885482,0.09978182,,-0.032694105,0.44896093,-0.3095797,-0.56523913,-0.68766266,-0.45565867,0.81962025,-0.40560097,-0.40461162,0.0934207,-0.60216933,0.79288375,,0.9094830823987978,0.3427271622252095,0.19554016134000002,3.667686801487816,-0.030196666448162338,-1.6462786303385726,-0.408850197534101,,-1.0003487573969234,0.09976998600210644,0.21368433247000002,-2.1866467306566197,0.06121315189491732,0.04475043896691483,0.8734007216199912,,-0.046482481303738984,-0.07979645340118074,0.07698830152,-0.06345462529521684,,7.867813e-06,-1.13248825e-05,1.2993813e-05,1.0,6.336719e-06,5.3718686e-06,-6.3329935e-06,1.0,6.556511e-07,-5.364418e-06,-5.9604645e-07,1.0,126,0.381,0,0,0.0,False,-0.2607717014014801,1.0476320595283284
0.40516206600295845,18:08:14.458666,18:07:58.595986,0,,0.12656668,0.0006250441,0.026792094,0.8511646,0.05402129,-0.5221115,0.4155618,0.5383148,0.73316133,0.3206666,-0.84101063,0.43574518,,0.09659676,-0.0026945844,0.024281204,0.51093316,0.6402961,0.5735574,0.6478641,-0.7253629,0.23263884,0.5649949,0.25272438,-0.7854368,,0.10737642,1.3461392,0.44493735,0.9960232,0.009226751,-0.08861556,-0.050102193,-0.7644485,-0.642735,-0.07367239,0.64461875,-0.76094615,,-0.08250244,0.25835246,-0.08701789,-0.8717241,0.05124867,0.48730958,0.47662303,-0.14208321,0.8675499,0.11369929,0.9885272,0.09943107,,-0.032693435,0.44896242,-0.30957875,-0.565681,-0.68729126,-0.45567065,0.81935614,-0.40609992,-0.40464595,0.09306181,-0.6022571,0.7928593,,0.9098228826452637,0.3427657758895806,0.19537423622000002,3.6662189718834237,-0.030060029948396898,-1.6461450120218473,-0.4096669178647725,,-1.0003487573969234,0.09977770873498067,0.21368433247000002,-2.1860176608261663,0.06121315189491732,0.04483211770705542,0.8732373775538569,,-0.046482481303738984,-0.07979645340118074,0.07698830152,-0.06345462529521684,,7.867813e-06,-1.13248825e-05,1.2993813e-05,1.0,6.336719e-06,5.3718686e-06,-6.3329935e-06,1.0,6.556511e-07,-5.364418e-06,-5.9604645e-07,1.0,134,0.406,0,0,0.0,False,-0.26095043455704303,1.0471009773197542
0.4302672129997518,18:08:14.487341,18:07:58.595986,0,,0.12655228,0.0005798191,0.026971549,0.8511802,0.054054458,-0.5220826,0.41546908,0.538454,0.7331117,0.32074538,-0.8409194,0.43586332,,0.09659594,-0.0026948676,0.024282157,0.51107246,0.64010286,0.573649,0.6477147,-0.72553337,0.23252356,0.5650404,0.25272453,-0.7854041,,0.10737642,1.3461392,0.44493735,0.9960232,0.009226751,-0.08861556,-0.050102193,-0.7644485,-0.642735,-0.07367239,0.64461875,-0.76094615,,-0.08250896,0.2584357,-0.08718367,-0.8717504,0.051208798,0.48726675,0.47660315,-0.14192024,0.8675875,0.11358113,0.98855263,0.09931275,,-0.032692757,0.4489629,-0.30957973,-0.565829,-0.68710434,-0.4557688,0.81926745,-0.4062103,-0.4047148,0.092943326,-0.6023959,0.79276776,,0.9099541691041255,0.3429665669443105,0.19519405191000003,3.6662189718834237,-0.030060029948396898,-1.6460633332817067,-0.4095035737986381,,-1.0003487573969234,0.09977770873498067,0.21368303618,-2.185807970882682,0.06121315189491732,0.04499547518733654,0.8729106894215883,,-0.046482481303738984,-0.07979645340118074,0.07698830152,-0.06345462529521684,,7.867813e-06,-1.13248825e-05,1.2993813e-05,1.0,6.336719e-06,5.3718686e-06,-6.3329935e-06,1.0,6.556511e-07,-5.364418e-06,-5.9604645e-07,1.0,146,0.442,0,0,0.0,False,-0.2612483231496481,1.047390658524431
0.45890910299203824,18:08:14.509703,18:07:58.595986,0,,0.12654871,0.0005494505,0.027068436,0.8508677,0.05385316,-0.52261245,0.41597533,0.53855854,0.7327477,0.3209182,-0.8408653,0.43584043,,0.0965976,-0.0026962683,0.024282873,0.5110714,0.64004993,0.57370913,0.6477142,-0.72555476,0.23245764,0.5650418,0.25279713,-0.7853797,,0.10737642,1.3461392,0.44493735,0.9960232,0.009226751,-0.08861556,-0.050102193,-0.7644485,-0.642735,-0.07367239,0.64461875,-0.76094615,,-0.08251676,0.2584759,-0.087276645,-0.87144756,0.051405217,0.48778751,0.47711626,-0.14179477,0.86732596,0.11375079,0.98856044,0.09904044,,-0.032694533,0.44896227,-0.30958098,-0.5658281,-0.68706226,-0.45583335,0.81926817,-0.40617284,-0.40475085,0.092941895,-0.60246915,0.7927123,,0.9099927827684966,0.34308240793742384,0.19505275630000002,3.6653802121094863,-0.030196666448162338,-1.6459519153780104,-0.4095035737986381,,-1.0003564801297977,0.09976998600210644,0.21368303618,-2.185807970882682,0.06121315189491732,0.045077153927477104,0.872747345355454,,-0.046482481303738984,-0.07979645340118074,0.07698830152,-0.06345462529521684,,7.867813e-06,-1.13248825e-05,1.2993813e-05,1.0,6.336719e-06,5.3718686e-06,-6.3329935e-06,1.0,6.556511e-07,-5.364418e-06,-5.9604645e-07,1.0,161,0.488,0,0,0.0,False,-0.2608312791200009,1.047390658524431
0.4812989530037157,18:08:14.557749,18:07:58.595986,0,,0.12657607,0.0004937202,0.027220517,0.8507488,0.0598763,-0.5221506,0.41324452,0.5376463,0.7349594,0.32473895,-0.84104174,0.43265826,,0.09659514,-0.0026965812,0.024280906,0.51107883,0.6400548,0.573697,0.6477168,-0.72555304,0.23245597,0.56503206,0.25278986,-0.78538907,,0.10737642,1.3461392,0.44493735,0.9960232,0.009226751,-0.08861556,-0.050102193,-0.7644485,-0.642735,-0.07367239,0.64461875,-0.76094615,,-0.082561985,0.2585311,-0.08742462,-0.87181246,0.04541921,0.48772952,0.47753868,-0.14293167,0.86690676,0.109086215,0.98868984,0.10292018,,-0.032691833,0.44896087,-0.30958006,-0.5658341,-0.6870661,-0.45582008,0.8192629,-0.40617684,-0.40475753,0.09295161,-0.6024621,0.79271644,,0.9099773373027482,0.34307468520454965,0.19493738649000003,3.6662189718834237,-0.03456903444065643,-1.6423048637195843,-0.40934022973250395,,-1.0003410346640491,0.09976998600210644,0.21368303618,-2.185807970882682,0.06121315189491732,0.04507715392747713,0.8724206572231854,,-0.046482481303738984,-0.07979645340118074,0.07698830152,-0.06345462529521684,,7.867813e-06,-1.13248825e-05,1.2993813e-05,1.0,6.336719e-06,5.3718686e-06,-6.3329935e-06,1.0,6.556511e-07,-5.364418e-06,-5.9604645e-07,1.0,169,0.512,0,0,0.0,False,-0.261427056305211,1.0471975377213132
0.5293533950025449,18:08:14.594333,18:07:58.972560,0,,0.12655722,0.00041773915,0.02732426,0.8490315,0.05909249,-0.525027,0.41594225,0.5379949,0.7331804,0.3257873,-0.84087425,0.4321955,,0.09659476,-0.002699785,0.024279356,0.51108795,0.6400498,0.57369435,0.64772,-0.7255553,0.23244023,0.5650202,0.25279593,-0.7853956,,0.10737642,1.3461392,0.44493735,0.9960232,0.009226751,-0.08861556,-0.050102193,-0.7644485,-0.642735,-0.07367239,0.64461875,-0.76094615,,-0.08255642,0.25854203,-0.08755399,-0.8701608,0.04618745,0.4905985,0.48035875,-0.14251554,0.865416,0.10988927,0.98871434,0.101824895,,-0.03269133,0.4489575,-0.30958116,-0.5658415,-0.687062,-0.45581704,0.81925654,-0.406174,-0.4047733,0.09296334,-0.6024686,0.7927102,,0.909969614569874,0.3429665669443105,0.19480905378000002,3.6628639327876713,-0.034432397940890994,-1.6429880328042645,-0.4095035737986381,,-1.000333311931175,0.09975454053635799,0.21368303618,-2.185807970882682,0.06121315189491732,0.04507715392747713,0.8724206572231854,,-0.046482481303738984,-0.07979645340118074,0.07698830152,-0.06345462529521684,,7.867813e-06,-1.13248825e-05,1.2993813e-05,1.0,6.336719e-06,5.3718686e-06,-6.3329935e-06,1.0,6.556511e-07,-5.364418e-06,-5.9604645e-07,1.0,181,0.549,0,0,0.0,False,-0.26154621174225356,1.046859576315857
0.5659212439932162,18:08:14.626055,18:07:58.972560,0,,0.12656544,0.00039546192,0.027374297,0.8480229,0.06202998,-0.52631664,0.4158402,0.5377755,0.7333992,0.32853287,-0.8408031,0.43025127,,0.09659487,-0.0027032122,0.024279773,0.5110934,0.6400424,0.57369787,0.64772177,-0.7255584,0.2324253,0.5650133,0.2528056,-0.78539747,,0.10737642,1.3461392,0.44493735,0.9960232,0.009226751,-0.08861556,-0.050102193,-0.7644485,-0.642735,-0.07367239,0.64461875,-0.76094615,,-0.08257062,0.25855723,-0.08760534,-0.86946374,0.043255813,0.49209931,0.4821225,-0.14279692,0.86438817,0.10766008,0.98880637,0.10330214,,-0.032691587,0.44895527,-0.30958378,-0.5658458,-0.6870561,-0.45582065,0.8192527,-0.4061692,-0.40478575,0.0929702,-0.6024786,0.7927017,,0.9099850600356224,0.34290478508131667,0.19475590589000003,3.66139610318328,-0.037028491436434365,-1.6412794863347355,-0.4090135416002352,,-1.000333311931175,0.09973909507060955,0.21368173989000003,-2.185807970882682,0.06121315189491732,0.045077153927477104,0.872747345355454,,-0.046482481303738984,-0.07979645340118074,0.07698830152,-0.06345462529521684,,7.867813e-06,-1.13248825e-05,1.2993813e-05,1.0,6.336719e-06,5.3718686e-06,-6.3329935e-06,1.0,6.556511e-07,-5.364418e-06,-5.9604645e-07,1.0,189,0.573,1,1,0.003,False,-0.2623802998015474,1.0468112961150775
0.5976369779964443,18:08:14.654999,18:07:58.972560,0,,0.12659574,0.00040504336,0.027430013,0.8471761,0.06781934,-0.52696586,0.41304556,0.53978586,0.7335016,0.3341943,-0.83906597,0.42928112,,0.09659487,-0.0027032122,0.024279773,0.5110934,0.63999563,0.57375014,0.64772177,-0.72557735,0.23236603,0.5650133,0.25286973,-0.78537685,,0.10737642,1.3461392,0.44493735,0.9960232,0.009226751,-0.08861556,-0.050102193,-0.7644485,-0.642735,-0.07367239,0.64461875,-0.76094615,,-0.08260664,0.25859907,-0.08763797,-0.8693099,0.037357125,0.49285367,0.48373365,-0.14046215,0.86387044,0.101499,0.989381,0.10403423,,-0.032691587,0.44895527,-0.30958378,-0.5658458,-0.6870189,-0.45587677,0.8192527,-0.40613616,-0.40481892,0.0929702,-0.60254335,0.79265255,,0.9100777328301132,0.34288161688269403,0.19471572090000003,3.6609767232963106,-0.043450406925410065,-1.6403718180884534,-0.40852350940183224,,-1.000333311931175,0.09973909507060955,0.21368173989000003,-2.185807970882682,0.06121315189491732,0.045158832667617665,0.8725840012893198,,-0.046482481303738984,-0.07979645340118074,0.07698830152,-0.06345462529521684,,7.867813e-06,-1.13248825e-05,1.2993813e-05,1.0,6.336719e-06,5.3718686e-06,-6.3329935e-06,1.0,6.556511e-07,-5.364418e-06,-5.9604645e-07,1.0,201,0.61,0,1,0.021,False,-0.2617249448978165,1.0474389387252105
0.6265642630023649,18:08:14.680501,18:07:58.972560,0,,0.12664902,0.00043310225,0.027512133,0.84423494,0.077435926,-0.5303497,0.41007176,0.5438373,0.7321763,0.34512067,-0.83561033,0.4273721,,0.09659487,-0.0027032122,0.024279773,0.5110934,0.6399018,0.5738547,0.64772177,-0.7256153,0.23224747,0.5650133,0.25299802,-0.7853355,,0.10737642,1.3461392,0.44493735,0.9960232,0.009226751,-0.08861556,-0.050102193,-0.7644485,-0.642735,-0.07367239,0.64461875,-0.76094615,,-0.082668014,0.2586708,-0.08767617,-0.86765975,0.027512165,0.4963966,0.4887483,-0.13567364,0.86181074,0.09105822,0.9903715,0.10427204,,-0.032691587,0.44895527,-0.30958378,-0.5658458,-0.68694437,-0.45598897,0.8192527,-0.40607002,-0.40488526,0.0929702,-0.6026728,0.7925541,,0.9102476329533461,0.3428430032183229,0.19466516559000002,3.657621684200558,-0.05479123640594162,-1.6394553635759879,-0.41113701445998063,,-1.000333311931175,0.09973909507060955,0.21368173989000003,-2.185807970882682,0.06121315189491732,0.04532219014789876,0.8722573131570512,,-0.046482481303738984,-0.07979645340118074,0.07698830152,-0.06345462529521684,,7.867813e-06,-1.13248825e-05,1.2993813e-05,1.0,6.336719e-06,5.3718686e-06,-6.3329935e-06,1.0,6.556511e-07,-5.364418e-06,-5.9604645e-07,1.0,209,0.635,0,1,0.021,False,-0.2620824112089424,1.04748721892599
0.6521002090012189,18:08:14.710701,18:07:58.972560,0,,0.1267375,0.00048018992,0.0276393,0.83919144,0.09071954,-0.53621584,0.40441534,0.5551174,0.7268376,0.36360112,-0.8268099,0.4291613,,0.09659543,-0.0027035251,0.0242818,0.5109503,0.6400926,0.5737693,0.64786994,-0.72544587,0.23236364,0.5649727,0.25300157,-0.78536355,,0.10737642,1.3461392,0.44493735,0.9960232,0.009226751,-0.08861556,-0.050102193,-0.7644485,-0.642735,-0.07367239,0.64461875,-0.76094615,,-0.08276889,0.25878432,-0.08773231,-0.8648144,0.0135974195,0.50190747,0.4967589,-0.12213386,0.8592519,0.07298351,0.9924205,0.09886849,,-0.032692425,0.44895637,-0.3095854,-0.5656948,-0.6871294,-0.45589754,0.8193441,-0.40595767,-0.40481305,0.09308383,-0.60253763,0.79264355,,0.9105333740696924,0.3427271622252095,0.19459257335000002,3.6523794356134447,-0.07433025587239961,-1.6438606096423993,-0.4096669178647723,,-1.0003410346640491,0.09973909507060955,0.21368044360000002,-2.1860176608261663,0.06121315189491732,0.04515883266761769,0.8722573131570512,,-0.046482481303738984,-0.07979645340118074,0.07698830152,-0.06345462529521684,,7.867813e-06,-1.13248825e-05,1.2993813e-05,1.0,6.336719e-06,5.3718686e-06,-6.3329935e-06,1.0,6.556511e-07,-5.364418e-06,-5.9604645e-07,1.0,217,0.66,0,1,0.021,False,-0.26243987752006825,1.0471009773197542
0.6823104249924654,18:08:14.739662,18:07:58.972560,0,,0.12673524,0.00047819316,0.027713358,0.8364729,0.093508326,-0.53997123,0.40430582,0.55984604,0.72326285,0.36993185,-0.8233035,0.43049002,,0.09659366,-0.002706699,0.024279177,0.5112417,0.63989115,0.5737345,0.6475754,-0.72571206,0.23235351,0.5650469,0.25274757,-0.785392,,0.10737642,1.3461392,0.44493735,0.9960232,0.009226751,-0.08861556,-0.050102193,-0.7644485,-0.642735,-0.07367239,0.64461875,-0.76094615,,-0.08277486,0.25883108,-0.087789506,-0.86281395,0.0105465595,0.50541157,0.5009426,-0.11642414,0.8576141,0.067886986,0.9931436,0.09516916,,-0.03269041,0.4489524,-0.3095859,-0.56600106,-0.68690234,-0.45585954,0.8191576,-0.4063098,-0.40483722,0.092863426,-0.6025591,0.7926531,,0.9107496105901707,0.3426267666978446,0.19453035143000003,3.648605016630724,-0.08034226186207899,-1.6468810596733914,-0.40721675687275827,,-1.0003255891983007,0.09972364960486109,0.21368044360000002,-2.1855982809391974,0.06121315189491732,0.04515883266761769,0.8722573131570512,,-0.046482481303738984,-0.07979645340118074,0.07698830152,-0.06345462529521684,,7.867813e-06,-1.13248825e-05,1.2993813e-05,1.0,6.336719e-06,5.3718686e-06,-6.3329935e-06,1.0,6.556511e-07,-5.364418e-06,-5.9604645e-07,1.0,270,0.823,0,1,0.021,False,-0.26232072208302704,1.0468112961150775
0.7112506779958494,18:08:14.891515,18:07:59.150025,0,,0.12633419,0.000359267,0.028559625,0.82167083,0.11013678,-0.55921984,0.4076541,0.5721556,0.7116573,0.39834034,-0.81271636,0.42522573,,0.096593544,-0.00272014,0.02427882,0.51140606,0.63957685,0.5739383,0.6474343,-0.7259321,0.232059,0.5650598,0.25291103,-0.78533006,,0.10737642,1.3461392,0.44493735,0.9960232,0.009226751,-0.08861556,-0.050102193,-0.7644485,-0.642735,-0.07367239,0.64461875,-0.76094615,,-0.08247238,0.2593134,-0.08854253,-0.8511634,-0.0068655247,0.524856,0.5227685,-0.10112624,0.8464553,0.04726535,0.9948499,0.08966403,,-0.032690592,0.4489424,-0.3095948,-0.5661693,-0.686619,-0.4560775,0.8190511,-0.40633675,-0.4050256,0.092777215,-0.60286385,0.7924314,,0.9138309810069862,0.3419317207391644,0.19372405905,3.626377882621364,-0.10684974281657443,-1.6469108524935345,-0.4108103263277125,,-1.0003178664654264,0.09966186774186729,0.21367655473000002,-2.185388590995713,0.06121315189491732,0.045485547628179884,0.8719306250247827,,-0.046482481303738984,-0.07979645340118074,0.07698830152,-0.06345462529521684,,7.867813e-06,-1.13248825e-05,1.2993813e-05,1.0,6.336719e-06,5.3718686e-06,-6.3329935e-06,1.0,6.556511e-07,-5.364418e-06,-5.9604645e-07,1.0,278,0.847,0,1,0.021,False,-0.2623802998015474,1.0463284941072828
0.8631195409980137,18:08:14.928429,18:07:59.289039,0,,0.12628391,0.00034369528,0.028662875,0.8203982,0.10891275,-0.56132394,0.41012013,0.57197255,0.71038646,0.39843202,-0.8130101,0.42457783,,0.096593976,-0.0027216151,0.024278581,0.5114088,0.63957316,0.5739401,0.6474352,-0.72593373,0.23205152,0.5650564,0.25291592,-0.7853311,,0.10737642,1.3461392,0.44493735,0.9960232,0.009226751,-0.08861556,-0.050102193,-0.7644485,-0.642735,-0.07367239,0.64461875,-0.76094615,,-0.08243417,0.25937152,-0.088635236,-0.8498532,-0.0056210323,0.52698946,0.5247664,-0.10138867,0.8451867,0.04867994,0.994831,0.08911522,,-0.032691017,0.44894108,-0.30959558,-0.56617147,-0.686616,-0.45607927,0.81904924,-0.40633437,-0.40503183,0.09278064,-0.60286885,0.79242724,,0.9141089993904583,0.34201667080078085,0.19362165214000002,3.6236519133560656,-0.10589328731821636,-1.6467923116778636,-0.410483638195444,,-1.0003178664654264,0.09965414500899307,0.21367655473000002,-2.185388590995713,0.06121315189491732,0.045485547628179884,0.8719306250247827,,-0.046482481303738984,-0.07979645340118074,0.07698830152,-0.06345462529521684,,7.867813e-06,-1.13248825e-05,1.2993813e-05,1.0,6.336719e-06,5.3718686e-06,-6.3329935e-06,1.0,6.556511e-07,-5.364418e-06,-5.9604645e-07,1.0,286,0.872,1,2,0.027,False,-0.26285692154971585,1.0464733347096211
0.9000422690005507,18:08:14.950609,18:07:59.289039,0,,0.12626746,0.00033144653,0.028737202,0.820484,0.108484425,-0.5612815,0.41027158,0.5719839,0.7102898,0.3980994,-0.81305933,0.42479545,,0.09659322,-0.0027220324,0.024279535,0.5114088,0.63957316,0.5739401,0.6474352,-0.72593373,0.23205152,0.5650564,0.25291592,-0.7853311,,0.10737642,1.3461392,0.44493735,0.9960232,0.009226751,-0.08861556,-0.050102193,-0.7644485,-0.642735,-0.07367239,0.64461875,-0.76094615,,-0.08242629,0.25941148,-0.08870071,-0.84989834,-0.0051897336,0.52692115,0.5246601,-0.10138858,0.8452527,0.049037155,0.99483335,0.08889283,,-0.032690424,0.4489415,-0.30959666,-0.56617147,-0.686616,-0.45607927,0.81904924,-0.40633437,-0.40503183,0.09278064,-0.60286885,0.79242724,,0.9142248403835717,0.34211706632814576,0.19354905990000001,3.6236519133560656,-0.10548337781892003,-1.6468815291685313,-0.41032029412930937,,-1.0003178664654264,0.09965414500899307,0.21367525844000002,-2.185388590995713,0.06121315189491732,0.045485547628179884,0.8719306250247827,,-0.046482481303738984,-0.07979645340118074,0.07698830152,-0.06345462529521684,,7.867813e-06,-1.13248825e-05,1.2993813e-05,1.0,6.336719e-06,5.3718686e-06,-6.3329935e-06,1.0,6.556511e-07,-5.364418e-06,-5.9604645e-07,1.0,294,0.896,1,2,0.051,False,-0.262797343831195,1.046666455512739
0.922224734997144,18:08:14.973847,18:07:59.289039,0,,0.12625298,0.0002860576,0.028938904,0.8190036,0.10834012,-0.56346726,0.41217184,0.57210064,0.70909464,0.39918333,-0.81299657,0.42389756,,0.09659371,-0.002722226,0.024281561,0.511405,0.6395708,0.5739462,0.647434,-0.7259346,0.2320523,0.5650612,0.25291952,-0.78532636,,0.10737642,1.3461392,0.44493735,0.9960232,0.009226751,-0.08861556,-0.050102193,-0.7644485,-0.642735,-0.07367239,0.64461875,-0.76094615,,-0.082435176,0.2595091,-0.08888331,-0.84850395,-0.0050506387,0.52916497,0.5268861,-0.10125138,0.8438834,0.04931653,0.9948481,0.0885733,,-0.03269118,0.44894266,-0.30959818,-0.5661685,-0.6866141,-0.45608592,0.81905186,-0.40633237,-0.4050285,0.092775784,-0.6028724,0.7924251,,0.914371572308182,0.34236419378012095,0.19334943124,3.6209259440907666,-0.10548337781892003,-1.6465548142079691,-0.4099936059970408,,-1.0003255891983007,0.09965414500899307,0.21367396215,-2.185388590995713,0.06121315189491732,0.045485547628179884,0.8719306250247827,,-0.046482481303738984,-0.07979645340118074,0.07698830152,-0.06345462529521684,,7.867813e-06,-1.13248825e-05,1.2993813e-05,1.0,6.336719e-06,5.3718686e-06,-6.3329935e-06,1.0,6.556511e-07,-5.364418e-06,-5.9604645e-07,1.0,306,0.934,1,2,0.089,False,-0.26273776611267374,1.0463284941072828
0.9453624379966641,18:08:15.011208,18:07:59.289039,0,,0.1262471,0.00024974346,0.029067919,0.8184296,0.10823048,-0.5643218,0.41287932,0.572267,0.70854855,0.39962927,-0.8128939,0.423674,,0.096590854,-0.0027244017,0.02428019,0.51155436,0.63947237,0.5739227,0.6472879,-0.72606677,0.23204637,0.5650933,0.25278887,-0.78534526,,0.10737642,1.3461392,0.44493735,0.9960232,0.009226751,-0.08861556,-0.050102193,-0.7644485,-0.642735,-0.07367239,0.64461875,-0.76094615,,-0.08244438,0.2595658,-0.089004554,-0.84796673,-0.0049492433,0.5300264,0.5277437,-0.10105255,0.84337115,0.04938647,0.99486876,0.08830114,,-0.032688227,0.4489404,-0.30959904,-0.56632453,-0.6865024,-0.45606026,0.81895584,-0.40651038,-0.40504396,0.092670426,-0.6028795,0.79243195,,0.9144333541711758,0.342503202971857,0.19321850595,3.619877494373344,-0.10548337781892003,-1.6465548142079691,-0.4099936059970408,,-1.0003101437325523,0.09964642227611885,0.21367266586000003,-2.1851789010522285,0.06121315189491732,0.045485547628179884,0.8719306250247827,,-0.046482481303738984,-0.07979645340118074,0.07698830152,-0.06345462529521684,,7.867813e-06,-1.13248825e-05,1.2993813e-05,1.0,6.336719e-06,5.3718686e-06,-6.3329935e-06,1.0,6.556511e-07,-5.364418e-06,-5.9604645e-07,1.0,319,0.974,1,2,0.129,False,-0.26196325577190027,1.0464733347096211
0.9828211359999841,18:08:15.049926,18:07:59.289039,0,,0.12623471,0.00020195544,0.029322505,0.81472516,0.10849794,-0.56960595,0.41711345,0.57271534,0.7057007,0.4027891,-0.8125425,0.42134959,,0.09658545,-0.0027310178,0.02428037,0.5115737,0.6394217,0.5739619,0.6472945,-0.7260877,0.2319622,0.5650683,0.25285667,-0.7853415,,0.10737642,1.3461392,0.44493735,0.9960232,0.009226751,-0.08861556,-0.050102193,-0.7644485,-0.642735,-0.07367239,0.64461875,-0.76094615,,-0.08246124,0.25969586,-0.08922826,-0.8445387,-0.005243629,0.5354689,0.53321016,-0.100499,0.83999217,0.049409475,0.99492335,0.08767125,,-0.03268307,0.44893605,-0.3096043,-0.5663401,-0.686462,-0.4561018,0.8189423,-0.40647602,-0.40510583,0.092695296,-0.6029487,0.79237646,,0.9146186997601571,0.34282755775257445,0.19297221085000002,3.6133771061253235,-0.10630319681751266,-1.6458863067857905,-0.4099936059970408,,-1.0002869755339296,0.09962325407749617,0.21366748070000002,-2.1851789010522285,0.06121315189491732,0.045567226368320474,0.8717672809586483,,-0.046482481303738984,-0.07979645340118074,0.07698830152,-0.06345462529521684,,7.867813e-06,-1.13248825e-05,1.2993813e-05,1.0,6.336719e-06,5.3718686e-06,-6.3329935e-06,1.0,6.556511e-07,-5.364418e-06,-5.9604645e-07,1.0,332,1.015,1,2,0.17,False,-0.2629164992682367,1.0466181753119597
1.021536643995205,18:08:15.092470,18:07:59.490854,0,,0.12618333,0.00013647974,0.029713482,0.80713594,0.110656515,-0.5799022,0.4245717,0.57372093,0.70041645,0.4102076,-0.81154144,0.41608906,,0.0965744,-0.0027374998,0.024289906,0.511723,0.6393702,0.57388616,0.6471485,-0.72620094,0.23201555,0.56510043,0.25266194,-0.7853811,,0.10737642,1.3461392,0.44493735,0.9960232,0.009226751,-0.08861556,-0.050102193,-0.7644485,-0.642735,-0.07367239,0.64461875,-0.76094615,,-0.082454786,0.25990334,-0.089569874,-0.83764726,-0.007476154,0.5461604,0.54410255,-0.0992047,0.83313316,0.047953047,0.995039,0.08716634,,-0.032673582,0.44893858,-0.30961686,-0.56649613,-0.68638754,-0.4560201,0.8188463,-0.40668708,-0.4050881,0.09258994,-0.6028912,0.79243255,,0.9151206773969818,0.34317508073191455,0.19259758304000002,3.6005860195727677,-0.10971910931164867,-1.6438359678546448,-0.41015695006317543,,-1.0002715300681813,0.09961553134462195,0.21365192522,-2.1849692111087435,0.06121315189491732,0.04548554762817994,0.8716039368925141,,-0.046482481303738984,-0.07979645340118074,0.07698830152,-0.06345462529521684,,7.867813e-06,-1.13248825e-05,1.2993813e-05,1.0,6.336719e-06,5.3718686e-06,-6.3329935e-06,1.0,6.556511e-07,-5.364418e-06,-5.9604645e-07,1.0,345,1.056,1,2,0.211,False,-0.2622015666459845,1.0463284941072828
1.0640540519962087,18:08:15.130746,18:07:59.490854,0,,0.12615159,0.000108629465,0.029906198,0.80224264,0.1139576,-0.5860207,0.42769802,0.5751379,0.69734555,0.4165105,-0.8100803,0.41266063,,0.09656417,-0.0027436689,0.02429843,0.5117331,0.63941824,0.5738236,0.64715195,-0.72618175,0.23206574,0.5650872,0.25259534,-0.78541195,,0.10737642,1.3461392,0.44493735,0.9960232,0.009226751,-0.08861556,-0.050102193,-0.7644485,-0.642735,-0.07367239,0.64461875,-0.76094615,,-0.08244512,0.26000932,-0.089736015,-0.83340955,-0.0108853625,0.5525487,0.5508392,-0.09736227,0.82891303,0.04477438,0.9951895,0.087138735,,-0.032664772,0.4489406,-0.30962846,-0.5665043,-0.6864256,-0.45595255,0.81883913,-0.40672174,-0.40506777,0.09260309,-0.60282445,0.7924818,,0.9154682003763218,0.3432214171291599,0.19241739873000002,3.5930371816073245,-0.11422811380390821,-1.642364503016458,-0.4103202941293096,,-1.0002560846024326,0.09960780861174773,0.21363766603000003,-2.1849692111087435,0.06121315189491732,0.04540386888803935,0.8717672809586483,,-0.046482481303738984,-0.07979645340118074,0.07698830152,-0.06345462529521684,,7.867813e-06,-1.13248825e-05,1.2993813e-05,1.0,6.336719e-06,5.3718686e-06,-6.3329935e-06,1.0,6.556511e-07,-5.364418e-06,-5.9604645e-07,1.0,354,1.085,1,2,0.24,False,-0.26232072208302704,1.0456525712963705
1.1023213940061396,18:08:15.156220,18:07:59.490854,0,,0.1261294,2.6330352e-05,0.030256867,0.7924659,0.11868299,-0.5982575,0.4330917,0.58115894,0.6889745,0.42945212,-0.8050893,0.4091479,,0.09653043,-0.002762489,0.024345696,0.50985104,0.64045656,0.57434076,0.6492779,-0.72446585,0.2314896,0.5643491,0.25488165,-0.785204,,0.10737642,1.3461392,0.44493735,0.9960232,0.009226751,-0.08861556,-0.050102193,-0.7644485,-0.642735,-0.07367239,0.64461875,-0.76094615,,-0.082463615,0.26017624,-0.09005543,-0.82500035,-0.01599505,0.5649058,0.5638796,-0.0898142,0.8209587,0.03760529,0.9958301,0.08311603,,-0.032638237,0.44896138,-0.30967933,-0.5644849,-0.68771887,-0.45650795,0.82003164,-0.4039929,-0.40538603,0.09436567,-0.6031853,0.79199916,,0.9158620597529072,0.3431982489305372,0.19207906704000002,3.5785685755068926,-0.12392930528725449,-1.643765208230036,-0.4103202941293096,,-1.000263807335307,0.09961553134462195,0.21357674040000002,-2.1879048703175275,0.06134978839468276,0.04602755964560798,0.8706238724957084,,-0.046482481303738984,-0.07979645340118074,0.07698830152,-0.06345462529521684,,7.867813e-06,-1.13248825e-05,1.2993813e-05,1.0,6.336719e-06,5.3718686e-06,-6.3329935e-06,1.0,6.556511e-07,-5.364418e-06,-5.9604645e-07,1.0,367,1.126,1,2,0.281,False,-0.26273776611267374,1.0458939723002678
1.12778246999369,18:08:15.200711,18:07:59.490854,0,,0.12610957,-6.881356e-05,0.03052178,0.78722095,0.120573975,-0.6047685,0.4367948,0.5832522,0.6848556,0.43530828,-0.8032925,0.40648216,,0.09648317,-0.0027892813,0.024407089,0.50692695,0.6429104,0.57418746,0.65284437,-0.72132003,0.23128301,0.56286705,0.25761148,-0.7853769,,0.10737642,1.3461392,0.44493735,0.9960232,0.009226751,-0.08861556,-0.050102193,-0.7644485,-0.642735,-0.07367239,0.64461875,-0.76094615,,-0.08247529,0.26027754,-0.09031853,-0.8203509,-0.018024852,0.57157636,0.570782,-0.08716362,0.8164621,0.03510405,0.9960309,0.08179302,,-0.032600436,0.4489869,-0.30974746,-0.56129515,-0.690437,-0.45633808,0.8218494,-0.40002152,-0.4056431,0.097525984,-0.6027267,0.7919654,,0.916024237143266,0.3431982489305372,0.19180425356000003,3.5706003576544805,-0.12775512728068683,-1.6436676203117373,-0.40917688566636956,,-1.0002715300681813,0.0996309768103704,0.21349507413000002,-2.192727739017671,0.06189633439374452,0.045745245511103455,0.8712772487602455,,-0.046482481303738984,-0.07979645340118074,0.07698830152,-0.06345462529521684,,7.867813e-06,-1.13248825e-05,1.2993813e-05,1.0,6.336719e-06,5.3718686e-06,-6.3329935e-06,1.0,6.556511e-07,-5.364418e-06,-5.9604645e-07,1.0,380,1.167,1,2,0.322,False,-0.2626186106756321,1.0442041652729868
1.1723198499967111,18:08:15.238369,18:07:59.490854,0,,0.12603733,-0.0002937615,0.031023249,0.78444725,0.11971225,-0.60853195,0.4401787,0.58374685,0.68226266,0.4369038,-0.80306196,0.4052238,,0.09651713,-0.0027949736,0.024600208,0.49675876,0.6499591,0.57513803,0.6644609,-0.7111343,0.22973865,0.558321,0.26803207,-0.78513455,,0.10736744,1.3461385,0.4449537,0.99602365,0.009234325,-0.08860919,-0.050092325,-0.7644484,-0.64273584,-0.07367239,0.64461875,-0.76094615,,-0.082455166,0.2604257,-0.09083839,-0.81769896,-0.01718855,0.57538944,0.57452965,-0.08659246,0.8138903,0.03583479,0.99609554,0.08068189,,-0.032651678,0.44910026,-0.30987558,-0.550313,-0.6985573,-0.45735464,0.8280043,-0.38602936,-0.40668198,0.10753837,-0.602494,0.79084545,,0.9162945327938639,0.34327547625927946,0.19125203402000002,3.5657774889543368,-0.12775512728068683,-1.6437492990518776,-0.4093402297325037,,-1.000263807335307,0.09964642227611885,0.21326951967000002,-2.208664174722495,0.06312606289163349,0.04662109540106854,0.8704605284295741,,-0.046482481303738984,-0.07979645340118074,0.07698830152,-0.06345462529521684,,-2.2426248e-06,-3.5762787e-07,1.7881393e-06,0.99999994,1.3872981e-05,1.17607415e-05,-1.3872981e-05,1.0,1.3411045e-06,-1.1742115e-05,-1.3411045e-06,1.0,389,1.195,1,2,0.35,False,-0.2626781883941529,1.04304544045428
1.2099616829946171,18:08:15.274518,18:07:59.490854,0,,0.12601052,-0.00037245452,0.0312327,0.7828583,0.1192421,-0.6106667,0.44206402,0.5840725,0.6807633,0.43784922,-0.8028952,0.4045333,,0.09644516,-0.0028422847,0.024697542,0.48789015,0.6556082,0.57631665,0.67366797,-0.70265263,0.22902143,0.5550986,0.2765088,-0.7844796,,0.10736744,1.3461385,0.4449537,0.99602365,0.009234325,-0.08860919,-0.050092325,-0.7644484,-0.64273584,-0.07367239,0.64461875,-0.76094615,,-0.08245342,0.26050377,-0.09104978,-0.8161818,-0.016732426,0.57755286,0.5766602,-0.08621144,0.81242263,0.036197864,0.99613637,0.08001313,,-0.03259482,0.44913694,-0.3099866,-0.5408531,-0.70507944,-0.45862934,0.8332036,-0.37449387,-0.4068489,0.11510694,-0.60217714,0.79002094,,0.9164258192527257,0.34337587178664436,0.19102907214,3.5630515196890373,-0.12775512728068683,-1.6438309777920184,-0.4095035737986381,,-1.0002483618695586,0.09963869954324463,0.21313989067000003,-2.22187464116202,0.06326269939139893,0.04724478615863717,0.8693171199666341,,-0.046482481303738984,-0.07979645340118074,0.07698830152,-0.06345462529521684,,-2.2426248e-06,-3.5762787e-07,1.7881393e-06,0.99999994,1.3872981e-05,1.17607415e-05,-1.3872981e-05,1.0,1.3411045e-06,-1.1742115e-05,-1.3411045e-06,1.0,402,1.236,1,2,0.391,False,-0.26190367805337944,1.0416453146316753
1.2461266180034727,18:08:15.314363,18:07:59.490854,0,,0.12597606,-0.00046537817,0.031577244,0.78165865,0.118908584,-0.6122663,0.44334936,0.5845333,0.67953086,0.4386921,-0.80260926,0.4041874,,0.096273795,-0.0029424056,0.024882019,0.48038036,0.66056305,0.57696706,0.68217146,-0.6948738,0.22758007,0.55125016,0.2842655,-0.78442097,,0.10736744,1.3461385,0.4449537,0.99602365,0.009234325,-0.08860919,-0.050092325,-0.7644484,-0.64273584,-0.07367239,0.64461875,-0.76094615,,-0.08245928,0.26065934,-0.091372706,-0.8150537,-0.016422154,0.57915264,0.57824814,-0.08565805,0.81135184,0.036284946,0.99618924,0.07931199,,-0.032452665,0.4492014,-0.31020802,-0.5326725,-0.71083474,-0.459319,0.837364,-0.36390954,-0.40791097,0.12280672,-0.60190016,0.78907204,,0.9167038376361978,0.34372339476598446,0.19068037013000003,3.560954620254193,-0.12775512728068683,-1.6438309777920184,-0.4095035737986381,,-1.000132520876445,0.09961553134462195,0.21287155864,-2.233826967940638,0.06435579138952245,0.04798701773187708,0.8680103674375599,,-0.046482481303738984,-0.07979645340118074,0.07698830152,-0.06345462529521684,,-2.2426248e-06,-3.5762787e-07,1.7881393e-06,0.99999994,1.3872981e-05,1.17607415e-05,-1.3872981e-05,1.0,1.3411045e-06,-1.1742115e-05,-1.3411045e-06,1.0,411,1.265,1,2,0.42,False,-0.26160578946077395,1.0383622609786725
1.2859407369978726,18:08:15.363828,18:07:59.735789,0,,0.12593234,-0.00055179,0.031989753,0.778176,0.12202029,-0.61607844,0.44480035,0.5854544,0.6777874,0.44338968,-0.80147004,0.4013118,,0.0959751,-0.0031260625,0.025111914,0.47057024,0.6679705,0.5765232,0.69389606,-0.6837467,0.22582921,0.545043,0.29377866,-0.7852528,,0.10736744,1.3461385,0.4449537,0.99602365,0.009234325,-0.08860919,-0.050092325,-0.7644484,-0.64273584,-0.07367239,0.64461875,-0.76094615,,-0.08246327,0.26086456,-0.091743425,-0.8120785,-0.019618912,0.58321834,0.582594,-0.08439028,0.8083703,0.033358615,0.9962396,0.07996139,,-0.032192737,0.44924498,-0.31053415,-0.5218104,-0.7191698,-0.4588123,0.8424494,-0.3498659,-0.40972283,0.13413751,-0.6003238,0.7884278,,0.9171749243415255,0.34407091774532456,0.19027852023000003,3.555922061610564,-0.13130767627458828,-1.6418325784374577,-0.4080334772034293,,-0.9996614341711174,0.09945335395426323,0.21247100503000002,-2.2501827835324306,0.0665419753857695,0.04775622733540502,0.8662135827100828,,-0.046482481303738984,-0.07979645340118074,0.07698830152,-0.06345462529521684,,-2.2426248e-06,-3.5762787e-07,1.7881393e-06,0.99999994,1.3872981e-05,1.17607415e-05,-1.3872981e-05,1.0,1.3411045e-06,-1.1742115e-05,-1.3411045e-06,1.0,424,1.306,1,2,0.461,False,-0.26106958999408425,1.0352240479280073
1.3038016240025172,18:08:15.379624,18:07:59.735789,0,,0.12589043,-0.00060105324,0.03219928,0.7756811,0.12194933,-0.61923087,0.44693884,0.58660346,0.67538285,0.44560543,-0.8006402,0.4005132,,0.09577902,-0.0032674298,0.025227606,0.45998782,0.67501575,0.5768577,0.70533,-0.67242134,0.2244085,0.53937054,0.3036499,-0.7854145,,0.10736744,1.3461385,0.4449537,0.99602365,0.009234325,-0.08860919,-0.050092325,-0.7644484,-0.64273584,-0.07367239,0.64461875,-0.76094615,,-0.08244585,0.2609658,-0.09193713,-0.80979544,-0.019613953,0.5863844,0.58579236,-0.082976125,0.80620235,0.032843094,0.9963585,0.07868339,,-0.032017875,0.44923446,-0.31073695,-0.5102633,-0.72718954,-0.45915872,0.8477418,-0.33540788,-0.4108959,0.14479376,-0.59891313,0.7876153,,0.9174761109236202,0.3442022042041864,0.19006981754000002,3.5519379526843577,-0.1324007682727118,-1.6421664163099947,-0.4091768856663698,,-0.9992135156644124,0.09922939470091073,0.21222859880000003,-2.266748289067708,0.06777170388365845,0.047896968564105136,0.8639267657842029,,-0.046482481303738984,-0.07979645340118074,0.07698830152,-0.06345462529521684,,-2.2426248e-06,-3.5762787e-07,1.7881393e-06,0.99999994,1.3872981e-05,1.17607415e-05,-1.3872981e-05,1.0,1.3411045e-06,-1.1742115e-05,-1.3411045e-06,1.0,446,1.376,1,2,0.531,False,-0.2620824112089424,1.032954878491373
1.3195878349943087,18:08:15.454489,18:07:59.735789,0,,0.12599772,-0.0005530566,0.032639995,0.763781,0.1459319,-0.62876236,0.43548495,0.60250294,0.6688371,0.4764358,-0.78466177,0.39662907,,0.095155664,-0.0038128272,0.025589705,0.43963432,0.6880053,0.5773821,0.7297144,-0.6484016,0.21700755,0.5236777,0.32592008,-0.7871071,,0.10736744,1.3461385,0.4449537,0.99602365,0.009234325,-0.08860919,-0.050092325,-0.7644484,-0.64273584,-0.07367239,0.64461875,-0.76094615,,-0.08259999,0.2612829,-0.09222652,-0.8016302,-0.04484702,0.59613574,0.5978193,-0.06185632,0.79924077,0.0010311956,0.997077,0.07639631,,-0.031463698,0.44912696,-0.311443,-0.48734456,-0.7424452,-0.45964164,0.85642713,-0.30369565,-0.41749427,0.17037545,-0.59711313,0.78385466,,0.9181479886836778,0.34418675873843796,0.18975741165,3.541872835397101,-0.16628662021454105,-1.6422238691009328,-0.4103202941293096,,-0.9978079782813035,0.0980864302355255,0.21143526932,-2.3015568196861396,0.0736470733735724,0.050212049097387884,0.8582097234695032,,-0.046482481303738984,-0.07979645340118074,0.07698830152,-0.06345462529521684,,-2.2426248e-06,-3.5762787e-07,1.7881393e-06,0.99999994,1.3872981e-05,1.17607415e-05,-1.3872981e-05,1.0,1.3411045e-06,-1.1742115e-05,-1.3411045e-06,1.0,455,1.404,1,2,0.559,False,-0.26232072208302704,1.0216573115089795
1.393274140995345,18:08:15.481763,18:07:59.735789,0,,0.12603295,-0.000516206,0.03276877,0.75715864,0.15263726,-0.6351475,0.43264365,0.6113085,0.6626623,0.48941806,-0.7765331,0.39681992,,0.094922036,-0.004043795,0.025742888,0.43393207,0.6919172,0.5770212,0.73891455,-0.6397563,0.2114647,0.51546884,0.33460805,-0.7888784,,0.10736744,1.3461385,0.4449537,0.99602365,0.009234325,-0.08860919,-0.050092325,-0.7644484,-0.64273584,-0.07367239,0.64461875,-0.76094615,,-0.08264836,0.26139262,-0.092295796,-0.7965459,-0.052207254,0.6023197,0.60447377,-0.050266866,0.79503757,-0.011230002,0.99737036,0.07159778,,-0.03125905,0.44907907,-0.3117383,-0.48034576,-0.7472709,-0.4591886,0.85800725,-0.29176956,-0.42272222,0.18191075,-0.59704,0.7813141,,0.9184182843342756,0.3441095314096957,0.18968481941,3.5351627572055966,-0.1798136336913196,-1.645732312380007,-0.4083601653356981,,-0.9974141189047181,0.09763851172882047,0.21111897456000003,-2.3139285263517264,0.07883926036465913,0.051940716787184926,0.8570663150065633,,-0.046482481303738984,-0.07979645340118074,0.07698830152,-0.06345462529521684,,-2.2426248e-06,-3.5762787e-07,1.7881393e-06,0.99999994,1.3872981e-05,1.17607415e-05,-1.3872981e-05,1.0,1.3411045e-06,-1.1742115e-05,-1.3411045e-06,1.0,468,1.445,1,2,0.6,False,-0.2626781883941529,1.0190984608676685
1.4217025589896366,18:08:15.524779,18:07:59.893345,0,,0.12597552,-0.000527367,0.0329182,0.7492187,0.15812679,-0.6431693,0.43417552,0.6160695,0.657229,0.50016254,-0.7716568,0.39291596,,0.09446801,-0.004525028,0.026060939,0.42625675,0.69973874,0.5732981,0.7543316,-0.624748,0.20167765,0.49928838,0.34649044,-0.7941381,,0.10736744,1.3461385,0.4449537,0.99602365,0.009234325,-0.08860919,-0.050092325,-0.7644484,-0.64273584,-0.07367239,0.64461875,-0.76094615,,-0.08260803,0.2614845,-0.09242104,-0.7898069,-0.05809211,0.6105983,0.6130585,-0.04379011,0.78882295,-0.019086223,0.99735034,0.070199594,,-0.03086496,0.44897622,-0.31234902,-0.47015148,-0.75623596,-0.45504373,0.85887283,-0.27331156,-0.43317232,0.20321175,-0.5944813,0.77800834,,0.9189434301697229,0.3437928993618525,0.18956037557000002,3.525097639918339,-0.18965146167443137,-1.645142988666656,-0.40983026193090666,,-0.9967345184117864,0.0966731701195424,0.21048119988000003,-2.3340587609262404,0.09031672634495613,0.05181131051256904,0.8520026489564005,,-0.046482481303738984,-0.07979645340118074,0.07698830152,-0.06345462529521684,,-2.2426248e-06,-3.5762787e-07,1.7881393e-06,0.99999994,1.3872981e-05,1.17607415e-05,-1.3872981e-05,1.0,1.3411045e-06,-1.1742115e-05,-1.3411045e-06,1.0,477,1.474,1,2,0.629,False,-0.2631548101423209,1.0152843250060912
1.464742046999163,18:08:15.552155,18:07:59.893345,0,,0.12594393,-0.0005247295,0.0330597,0.7423396,0.16777472,-0.64867795,0.43387902,0.6173703,0.6562035,0.51056886,-0.76857376,0.38550448,,0.09414859,-0.0048903897,0.02629292,0.4228308,0.70530635,0.5689964,0.7645472,-0.61472857,0.19384632,0.48649925,0.35306048,-0.7991662,,0.10736744,1.3461385,0.4449537,0.99602365,0.009234325,-0.08860919,-0.050092325,-0.7644484,-0.64273584,-0.07367239,0.64461875,-0.76094615,,-0.08259219,0.26158026,-0.09252878,-0.784126,-0.06798934,0.6168662,0.61997974,-0.04132971,0.78352857,-0.027776694,0.9968296,0.07455972,,-0.030589513,0.44888982,-0.3128029,-0.4647606,-0.7623791,-0.4503062,0.8579223,-0.26193854,-0.44199264,0.2190134,-0.59174854,0.77580076,,0.9193836259435536,0.3435689401085,0.18945278350000003,3.5171294220659273,-0.19989919915683937,-1.6391553293535006,-0.4109736703938469,,-0.9963252135694525,0.09593951049649109,0.21002101693000003,-2.3468498474787967,0.10042782732759872,0.0504273998108411,0.848082391369178,,-0.046482481303738984,-0.07979645340118074,0.07698830152,-0.06345462529521684,,-2.2426248e-06,-3.5762787e-07,1.7881393e-06,0.99999994,1.3872981e-05,1.17607415e-05,-1.3872981e-05,1.0,1.3411045e-06,-1.1742115e-05,-1.3411045e-06,1.0,490,1.515,1,2,0.67,False,-0.26309523242380006,1.0132082763725743
1.4921224659919972,18:08:15.594294,18:07:59.893345,0,,0.12599014,-0.00047440827,0.03337647,0.7312428,0.1825551,-0.6572346,0.4254235,0.6311087,0.6486268,0.53319657,-0.75390685,0.38383037,,0.093814194,-0.0053467825,0.02657324,0.41282713,0.7161689,0.5627395,0.782274,-0.5952452,0.18365896,0.46649867,0.36439708,-0.80597365,,0.10736744,1.3461385,0.4449537,0.99602365,0.009234325,-0.08860919,-0.050092325,-0.7644484,-0.64273584,-0.07367239,0.64461875,-0.76094615,,-0.0826719,0.26182187,-0.0927295,-0.77578634,-0.0839829,0.6253818,0.62889963,-0.022194482,0.77716964,-0.051388934,0.99622,0.07003499,,-0.030308157,0.4487708,-0.31335554,-0.4516829,-0.77416563,-0.4434525,0.8580575,-0.24080163,-0.45359883,0.24437653,-0.58539057,0.7730446,,0.9200014445734916,0.3434762673140093,0.18924926597000002,3.507903064552608,-0.22531358811321128,-1.6417100402060267,-0.41048363819544353,,-0.9960317497202319,0.09501278255158414,0.20949342690000003,-2.371383570866486,0.11450138680343909,0.04662915730332251,0.843508757517418,,-0.046482481303738984,-0.07979645340118074,0.07698830152,-0.06345462529521684,,-2.2426248e-06,-3.5762787e-07,1.7881393e-06,0.99999994,1.3872981e-05,1.17607415e-05,-1.3872981e-05,1.0,1.3411045e-06,-1.1742115e-05,-1.3411045e-06,1.0,499,1.544,1,2,0.699,False,-0.26232072208302704,1.010214903924248
1.5342611689993646,18:08:15.623473,18:07:59.893345,0,,0.12597033,-0.0004621148,0.033580855,0.725881,0.19082782,-0.6608186,0.41879973,0.63950104,0.6447055,0.5456219,-0.7447303,0.38428295,,0.09362495,-0.0056530163,0.026744783,0.40979353,0.72361004,0.55538964,0.79211503,-0.5842285,0.17672276,0.4523527,0.36751264,-0.8125955,,0.10736744,1.3461385,0.4449537,0.99602365,0.009234325,-0.08860919,-0.050092325,-0.7644484,-0.64273584,-0.07367239,0.64461875,-0.76094615,,-0.082674496,0.2619652,-0.09287702,-0.7719788,-0.093025446,0.62880445,0.6322568,-0.010322739,0.7746901,-0.06557491,0.99561024,0.06678491,,-0.030151911,0.44867706,-0.3137102,-0.44650662,-0.78167075,-0.43545684,0.8558841,-0.23117957,-0.4626213,0.2609488,-0.57926404,0.7722428,,0.9205960950048069,0.3432677535264052,0.18910537778000003,3.5045480254568555,-0.24048023958717518,-1.6440448261210248,-0.4108103263277123,,-0.9959854133229865,0.09439496392164619,0.20917583585000002,-2.3841746574190417,0.12611548928350153,0.041079215015873666,0.839915188062464,,-0.046482481303738984,-0.07979645340118074,0.07698830152,-0.06345462529521684,,-2.2426248e-06,-3.5762787e-07,1.7881393e-06,0.99999994,1.3872981e-05,1.17607415e-05,-1.3872981e-05,1.0,1.3411045e-06,-1.1742115e-05,-1.3411045e-06,1.0,512,1.584,1,2,0.739,False,-0.2632143878608417,1.0072215314759216
1.5634255780023523,18:08:15.657791,18:07:59.893345,0,,0.1259416,-0.0004683137,0.03374678,0.7205474,0.20079611,-0.6636957,0.41257307,0.6451432,0.643097,0.5573101,-0.73720497,0.38201317,,0.09347354,-0.0059864447,0.026848316,0.4149611,0.72666276,0.54751104,0.7980434,-0.5797001,0.16454378,0.43695992,0.36865833,-0.8204614,,0.10736744,1.3461385,0.4449537,0.99602365,0.009234325,-0.08860919,-0.050092325,-0.7644484,-0.64273584,-0.07367239,0.64461875,-0.76094615,,-0.08266439,0.26206997,-0.09300859,-0.7681089,-0.10363284,0.6318773,0.635434,-0.0017016835,0.7721533,-0.07894518,0.9946142,0.0671589,,-0.030024653,0.4485146,-0.31402996,-0.4493863,-0.78473157,-0.4269055,0.8494013,-0.22731552,-0.47628257,0.27671173,-0.57664895,0.7687045,,0.9211289635731283,0.34289706234844247,0.18898611910000002,3.501192986361103,-0.2549637085623119,-1.6428527645474773,-0.40934022973250395,,-0.9960240269873577,0.09366130429859486,0.20893083704,-2.388997526119186,0.1422385962558235,0.03838678111768795,0.8343614898138985,,-0.046482481303738984,-0.07979645340118074,0.07698830152,-0.06345462529521684,,-2.2426248e-06,-3.5762787e-07,1.7881393e-06,0.99999994,1.3872981e-05,1.17607415e-05,-1.3872981e-05,1.0,1.3411045e-06,-1.1742115e-05,-1.3411045e-06,1.0,521,1.613,1,2,0.768,False,-0.26243987752006825,1.0013313469808274
1.5977293409960112,18:08:15.695674,18:07:59.893345,0,,0.12589125,-0.0005365759,0.03394504,0.71462023,0.22240412,-0.66321474,0.40292186,0.64415735,0.65016556,0.5718142,-0.7318454,0.3707164,,0.09342538,-0.00616356,0.02686727,0.4137195,0.72824997,0.5463406,0.80465883,-0.57321775,0.15474373,0.4258641,0.37559724,-0.8231442,,0.10736744,1.3461385,0.4449537,0.99602365,0.009234325,-0.08860919,-0.050092325,-0.7644484,-0.64273584,-0.07367239,0.64461875,-0.76094615,,-0.08263776,0.26214996,-0.09320707,-0.76403725,-0.12571688,0.6328051,0.6378805,-0.00015041715,0.77013534,-0.09672383,0.99206614,0.080307275,,-0.029984124,0.44840142,-0.31416997,-0.44648194,-0.7870744,-0.42563808,0.8468059,-0.2179864,-0.4851822,0.28909117,-0.5770579,0.7638262,,0.9217390594701921,0.3420784526637747,0.18882019398000002,3.4988863969827735,-0.27422945502923896,-1.6291031298896552,-0.4108103263277125,,-0.9960549179188546,0.09325972218913518,0.20884917077,-2.3975948138020513,0.15180315123940433,0.040634012896227645,0.8315846406896157,,-0.046482481303738984,-0.07979645340118074,0.07698830152,-0.06345462529521684,,-2.2426248e-06,-3.5762787e-07,1.7881393e-06,0.99999994,1.3872981e-05,1.17607415e-05,-1.3872981e-05,1.0,1.3411045e-06,-1.1742115e-05,-1.3411045e-06,1.0,534,1.654,1,2,0.809,False,-0.26202283349042155,0.998531095335619
1.63561286899494,18:08:15.728184,18:08:00.101305,0,,0.12584402,-0.0006028265,0.034034953,0.7101039,0.23583919,-0.6634244,0.39843512,0.64226454,0.65478677,0.58051836,-0.7292984,0.3621079,,0.093401074,-0.006300591,0.02685839,0.40828872,0.7342869,0.542331,0.8147758,-0.561036,0.1462161,0.41163167,0.38217986,-0.82734376,,0.10736744,1.3461385,0.4449537,0.99602365,0.009234325,-0.08860919,-0.050092325,-0.7644484,-0.64273584,-0.07367239,0.64461875,-0.76094615,,-0.08260224,0.26216084,-0.09332249,-0.760611,-0.13939023,0.63406724,0.6403903,-0.0006663404,0.7680494,-0.10663608,0.9902373,0.089770965,,-0.029962422,0.448297,-0.31425983,-0.43891254,-0.7936278,-0.42132023,0.84495175,-0.20505807,-0.4939714,0.30563432,-0.5728055,0.7605797,,0.9220634142509095,0.34137568397222023,0.18873334255000002,3.49595073777399,-0.2854336480100051,-1.6190683956450025,-0.4096669178647725,,-0.9961089770489742,0.09306665386727957,0.20881676352000003,-2.4124827997894527,0.16259743472087412,0.038447976455595834,0.8284811034330644,,-0.046482481303738984,-0.07979645340118074,0.07698830152,-0.06345462529521684,,-2.2426248e-06,-3.5762787e-07,1.7881393e-06,0.99999994,1.3872981e-05,1.17607415e-05,-1.3872981e-05,1.0,1.3411045e-06,-1.1742115e-05,-1.3411045e-06,1.0,543,1.683,1,2,0.838,False,-0.2629164992682367,0.9941858772654677
1.6681315729947528,18:08:15.754238,18:08:00.101305,0,,0.12583686,-0.00066031516,0.034194157,0.7013697,0.26076967,-0.6633848,0.3915583,0.6367309,0.66427094,0.59561926,-0.7256535,0.34447718,,0.09331425,-0.006506063,0.026777148,0.41363007,0.7384579,0.5325316,0.8245069,-0.55189615,0.12489629,0.3861327,0.38741517,-0.8371445,,0.10736744,1.3461385,0.4449537,0.99602365,0.009234325,-0.08860919,-0.050092325,-0.7644484,-0.64273584,-0.07367239,0.64461875,-0.76094615,,-0.08261399,0.26222122,-0.093480356,-0.75375324,-0.16468924,0.6361867,0.64548117,-0.0038584303,0.76376647,-0.12332944,0.98633796,0.10921211,,-0.029870782,0.44809806,-0.31435132,-0.44049692,-0.7982299,-0.41084245,0.8343838,-0.19513075,-0.51548785,0.3313098,-0.56987107,0.7519846,,0.9223568781001301,0.34063430161629465,0.18861278758000002,3.489660039469454,-0.304016211978105,-1.598361406412731,-0.41032029412930937,,-0.9961166997818484,0.09305893113440535,0.20880898578,-2.422967296963679,0.1884217331765424,0.03748296273155055,0.8235807814490359,,-0.046482481303738984,-0.07979645340118074,0.07698830152,-0.06345462529521684,,-2.2426248e-06,-3.5762787e-07,1.7881393e-06,0.99999994,1.3872981e-05,1.17607415e-05,-1.3872981e-05,1.0,1.3411045e-06,-1.1742115e-05,-1.3411045e-06,1.0,556,1.724,1,2,0.879,False,-0.26154621174225356,0.9889716155812862
1.6941782679932658,18:08:15.799927,18:08:00.101305,0,,0.12587443,-0.0007059723,0.03433101,0.6933548,0.282708,-0.6628235,0.3833718,0.6341258,0.67149866,0.6101516,-0.71969485,0.33129182,,0.09322382,-0.006708555,0.026698709,0.41875988,0.74139917,0.52437323,0.83445483,-0.54195213,0.09986526,0.35822514,0.39574617,-0.84561193,,0.10736744,1.3461385,0.4449537,0.99602365,0.009234325,-0.08860919,-0.050092325,-0.7644484,-0.64273584,-0.07367239,0.64461875,-0.76094615,,-0.08266744,0.26227358,-0.09360931,-0.747577,-0.18720415,0.6372466,0.6491705,-0.0031624294,0.7606363,-0.14037904,0.98231596,0.12389158,,-0.029775852,0.4479034,-0.3144432,-0.44153997,-0.80201226,-0.4022671,0.8223566,-0.18242571,-0.5389346,0.35884827,-0.56876814,0.7400883,,0.9224418281617466,0.3400164829863567,0.18852334357000003,3.485046860712795,-0.3225987759462049,-1.582800177809315,-0.410156950063175,,-0.9961475907133452,0.09315932666177026,0.20880768949000003,-2.4347099337988123,0.21629557912869224,0.039502368640070895,0.8181904272666047,,-0.046482481303738984,-0.07979645340118074,0.07698830152,-0.06345462529521684,,-2.2426248e-06,-3.5762787e-07,1.7881393e-06,0.99999994,1.3872981e-05,1.17607415e-05,-1.3872981e-05,1.0,1.3411045e-06,-1.1742115e-05,-1.3411045e-06,1.0,565,1.752,1,2,0.907,False,-0.2621419889274632,0.9858334025306215
1.7398634999990463,18:08:15.822497,18:08:00.101305,0,,0.12591287,-0.00073988736,0.03443037,0.6864004,0.30076134,-0.6621154,0.3769322,0.63148516,0.67760503,0.62191343,-0.71468115,0.32008493,,0.093202725,-0.006813802,0.026676953,0.41845375,0.7484926,0.5144463,0.8407873,-0.53344977,0.092240214,0.3434723,0.3939417,-0.85254705,,0.10736744,1.3461385,0.4449537,0.99602365,0.009234325,-0.08860919,-0.050092325,-0.7644484,-0.64273584,-0.07367239,0.64461875,-0.76094615,,-0.08271737,0.2623104,-0.09370233,-0.7421096,-0.20575537,0.637917,0.6523233,-0.0028945827,0.7579353,-0.15410276,0.9785992,0.13636713,,-0.029754756,0.44781324,-0.31450167,-0.43907434,-0.80857223,-0.39169455,0.8170055,-0.17795315,-0.54848397,0.37378564,-0.56084186,0.73874265,,0.9224495508946208,0.33952222808240634,0.18846501052000003,3.480853061843104,-0.3376287909204033,-1.5694823847808812,-0.40999360599704104,,-0.9962557089735844,0.09318249486039293,0.20880768949000003,-2.443936291312131,0.22968595610570539,0.03136049124260071,0.8159036103407248,,-0.046482481303738984,-0.07979645340118074,0.07698830152,-0.06345462529521684,,-2.2426248e-06,-3.5762787e-07,1.7881393e-06,0.99999994,1.3872981e-05,1.17607415e-05,-1.3872981e-05,1.0,1.3411045e-06,-1.1742115e-05,-1.3411045e-06,1.0,578,1.793,1,2,0.948,False,-0.2629164992682367,0.9846263975111349
1.7624648929922841,18:08:15.871054,18:08:00.244856,0,,0.12588161,-0.00085636973,0.03447838,0.682953,0.3129126,-0.66004586,0.37272596,0.6278322,0.6833024,0.628212,-0.7126798,0.3121491,,0.09311624,-0.007123448,0.026604831,0.42427978,0.7657539,0.48332947,0.8535321,-0.5164541,0.068980455,0.30243945,0.3832702,-0.8727165,,0.10736744,1.3461385,0.4449537,0.99602365,0.009234325,-0.08860919,-0.050092325,-0.7644484,-0.64273584,-0.07367239,0.64461875,-0.76094615,,-0.082694225,0.26225507,-0.093817465,-0.7394738,-0.21813269,0.63686466,0.6534223,-0.0050284094,0.7569769,-0.161919,0.9759062,0.14625114,,-0.029667396,0.44754428,-0.3146707,-0.43895698,-0.82378125,-0.35874945,0.79807186,-0.1740298,-0.5768838,0.41279298,-0.53953505,0.73382825,,0.9224804418261177,0.3386572820004932,0.18839112199000002,3.479385232238713,-0.3466467999049224,-1.5593517259721383,-0.40836016533569786,,-0.9964951136926854,0.09325199945626095,0.20881028207000002,-2.4619696264518005,0.269583814037214,0.007566088558285777,0.8131267612164421,,-0.046482481303738984,-0.07979645340118074,0.07698830152,-0.06345462529521684,,-2.2426248e-06,-3.5762787e-07,1.7881393e-06,0.99999994,1.3872981e-05,1.17607415e-05,-1.3872981e-05,1.0,1.3411045e-06,-1.1742115e-05,-1.3411045e-06,1.0,596,1.851,1,2,1.006,False,-0.2632143878608417,0.9845781173103556
1.8109788459987612,18:08:15.931802,18:08:00.244856,0,,0.12589677,-0.00087733567,0.034559205,0.67353076,0.33895478,-0.6568605,0.36170733,0.6238483,0.6928067,0.6446114,-0.704218,0.29757854,,0.0930929,-0.007213719,0.026601434,0.4244763,0.77282417,0.47176534,0.85991323,-0.50722563,0.057196945,0.28349447,0.38139847,-0.87986696,,0.10736744,1.3461385,0.4449537,0.99602365,0.009234325,-0.08860919,-0.050092325,-0.7644484,-0.64273584,-0.07367239,0.64461875,-0.76094615,,-0.082718685,0.26229092,-0.09389041,-0.7321692,-0.24503258,0.6355213,0.65625757,-0.0039746286,0.7545265,-0.18235761,0.9695067,0.16371457,,-0.029646171,0.44747764,-0.3147325,-0.4364203,-0.8302903,-0.34663433,0.7898767,-0.1690702,-0.58949983,0.43085045,-0.531068,0.72961265,,0.9227275692780929,0.33778461318570585,0.18837945538,3.4749817434255377,-0.36905518586645464,-1.5405891173250819,-0.4106469822615779,,-0.9967190729460379,0.09353001783973304,0.20881546723000002,-2.472663813569511,0.2870732860071904,-0.000977891305016798,0.8111666324228307,,-0.046482481303738984,-0.07979645340118074,0.07698830152,-0.06345462529521684,,-2.2426248e-06,-3.5762787e-07,1.7881393e-06,0.99999994,1.3872981e-05,1.17607415e-05,-1.3872981e-05,1.0,1.3411045e-06,-1.1742115e-05,-1.3411045e-06,1.0,619,1.924,1,2,1.079,False,-0.26309523242380006,0.9846263975111349
1.871764480994898,18:08:15.998261,18:08:00.379309,0,,0.12596114,-0.0007928461,0.034756944,0.65317124,0.38313702,-0.65312546,0.34543288,0.6167913,0.7072797,0.67382723,-0.68758595,0.27052218,,0.09312594,-0.0071325526,0.02665186,0.42369598,0.77310544,0.47200584,0.8599533,-0.507009,0.058500707,0.2845383,0.38111645,-0.87965214,,0.10736744,1.3461385,0.4449537,0.99602365,0.009234325,-0.08860919,-0.050092325,-0.7644484,-0.64273584,-0.07367239,0.64461875,-0.76094615,,-0.08280254,0.26248002,-0.09397757,-0.7155292,-0.29092777,0.6351212,0.6640472,-0.0009325383,0.7476901,-0.21693154,0.95674455,0.19385703,,-0.029683607,0.4475688,-0.31470978,-0.43578774,-0.83052504,-0.3468677,0.79067117,-0.16912368,-0.5884184,0.4300327,-0.5306838,0.7303742,,0.9231909332505464,0.33702778536403183,0.18837686280000002,3.4617712769860125,-0.40717676930101254,-1.5063180513282983,-0.4108103263277123,,-0.9970279822610069,0.09388526355194736,0.20881676352000003,-2.4728735035129956,0.2862534670085977,-0.0014528862448060509,0.8105132561582936,,-0.046482481303738984,-0.07979645340118074,0.07698830152,-0.06345462529521684,,-2.2426248e-06,-3.5762787e-07,1.7881393e-06,0.99999994,1.3872981e-05,1.17607415e-05,-1.3872981e-05,1.0,1.3411045e-06,-1.1742115e-05,-1.3411045e-06,1.0,633,1.97,1,2,1.125,False,-0.26190367805337944,0.9842401559048992
1.938234310990083,18:08:16.042236,18:08:00.379309,0,,0.12591892,-0.0007388443,0.034888342,0.6350024,0.4134171,-0.65257794,0.33938885,0.609562,0.7164142,0.6939646,-0.6764025,0.24676405,,0.09313158,-0.007122211,0.026659966,0.42381755,0.7730418,0.47200084,0.8598477,-0.5071784,0.058583707,0.2846761,0.38102013,-0.8796494,,0.10736744,1.3461385,0.4449537,0.99602365,0.009234325,-0.08860919,-0.050092325,-0.7644484,-0.64273584,-0.07367239,0.64461875,-0.76094615,,-0.08277386,0.26260868,-0.09404526,-0.69983333,-0.3224122,0.63740385,0.6735631,-0.0008005081,0.73912925,-0.23779404,0.946599,0.21772519,,-0.029690018,0.4475814,-0.3147079,-0.43592954,-0.8304534,-0.34686098,0.79067856,-0.1693082,-0.5883555,0.42987543,-0.5307371,0.73042816,,0.9237238018188678,0.33628640300810625,0.18837167764,3.4454154613942194,-0.4316347027590264,-1.4774712638913177,-0.4106469822615779,,-0.9970743186582522,0.09393159994919272,0.20881676352000003,-2.472663813569511,0.2862534670085977,-0.0015345649849466403,0.8105132561582936,,-0.046482481303738984,-0.07979645340118074,0.07698830152,-0.06345462529521684,,-2.2426248e-06,-3.5762787e-07,1.7881393e-06,0.99999994,1.3872981e-05,1.17607415e-05,-1.3872981e-05,1.0,1.3411045e-06,-1.1742115e-05,-1.3411045e-06,1.0,642,1.998,1,2,1.153,False,-0.2632143878608417,0.9837090736963254
1.9821696040016832,18:08:16.080013,18:08:00.379309,0,,0.12591659,-0.0007118732,0.03500475,0.6242652,0.43502614,-0.6488797,0.32978654,0.60621685,0.7237003,0.7081903,-0.6657728,0.23497418,,0.09312714,-0.007124342,0.026655853,0.42382735,0.7732063,0.4717226,0.8598505,-0.5071558,0.058737546,0.284653,0.3807164,-0.87978834,,0.10736744,1.3461385,0.4449537,0.99602365,0.009234325,-0.08860919,-0.050092325,-0.7644484,-0.64273584,-0.07367239,0.64461875,-0.76094615,,-0.08278377,0.26270497,-0.09411539,-0.6909504,-0.34513178,0.6351941,0.67613,0.0023906473,0.7367785,-0.2558042,0.9385512,0.23170213,,-0.029685117,0.4475774,-0.31470692,-0.43593606,-0.8305746,-0.3465626,0.7906642,-0.16950972,-0.58831674,0.4298952,-0.5304831,0.73060095,,0.9240867702639564,0.33576125717265903,0.18835741845,3.4391247630896835,-0.45172026822454614,-1.4607661170873816,-0.41097367039384647,,-0.9970434277267554,0.0939238772163185,0.20881676352000003,-2.472663813569511,0.2862534670085977,-0.0017796012053682975,0.8101865680260251,,-0.046482481303738984,-0.07979645340118074,0.07698830152,-0.06345462529521684,,-2.2426248e-06,-3.5762787e-07,1.7881393e-06,0.99999994,1.3872981e-05,1.17607415e-05,-1.3872981e-05,1.0,1.3411045e-06,-1.1742115e-05,-1.3411045e-06,1.0,656,2.043,1,2,1.198,False,-0.26154621174225356,0.983805634097884
2.0199640520004323,18:08:16.118232,18:08:00.501402,0,,0.12591583,-0.00068067014,0.035177097,0.60803413,0.4680648,-0.6412562,0.3136209,0.6004136,0.73562586,0.72933954,-0.6483971,0.21827695,,0.093128115,-0.0071246997,0.026653886,0.42386276,0.77311885,0.47183415,0.8597328,-0.50733006,0.058956534,0.28495592,0.38066182,-0.87971383,,0.10736744,1.3461385,0.4449537,0.99602365,0.009234325,-0.08860919,-0.050092325,-0.7644484,-0.64273584,-0.07367239,0.64461875,-0.76094615,,-0.08280131,0.26284075,-0.09422463,-0.6775204,-0.38000795,0.62973017,0.67852896,0.007478753,0.7345356,-0.28383896,0.924953,0.2527794,,-0.029685829,0.44757575,-0.3147056,-0.4360152,-0.8304851,-0.34667745,0.7907809,-0.16966772,-0.5881143,0.4296002,-0.53057265,0.73070943,,0.9246041933665294,0.3349040338236201,0.18834445555,3.4307371653503034,-0.483010026670832,-1.435251417140901,-0.41064698226157836,,-0.9970357049938811,0.09390843175057004,0.20881805981,-2.4724541236260267,0.2859801940090668,-0.0017201228782566247,0.8098598798937565,,-0.046482481303738984,-0.07979645340118074,0.07698830152,-0.06345462529521684,,-2.2426248e-06,-3.5762787e-07,1.7881393e-06,0.99999994,1.3872981e-05,1.17607415e-05,-1.3872981e-05,1.0,1.3411045e-06,-1.1742115e-05,-1.3411045e-06,1.0,679,2.117,1,2,1.272,False,-0.2630356547052788,0.9836607934955457
2.0582046089984942,18:08:16.192504,18:08:00.501402,0,,0.12572661,-0.0006650835,0.035608634,0.56606096,0.5290959,-0.6321648,0.29105285,0.5891943,0.75374955,0.77127373,-0.6106616,0.17952487,,0.09311075,-0.0071438625,0.026649237,0.4244337,0.77437663,0.46925116,0.86016786,-0.50668645,0.058139294,0.28278476,0.37895852,-0.8811487,,0.10736744,1.3461385,0.4449537,0.99602365,0.009234325,-0.08860919,-0.050092325,-0.7644484,-0.64273584,-0.07367239,0.64461875,-0.76094615,,-0.08266055,0.2631436,-0.094557405,-0.640949,-0.44506645,0.6253801,0.69100964,0.02016628,0.7225642,-0.33420068,0.89527047,0.29461965,,-0.0296685,0.44755986,-0.31471738,-0.4362754,-0.83148354,-0.34394613,0.78958476,-0.17044456,-0.5894951,0.43153176,-0.52875686,0.73088753,,0.9260174534825125,0.3327648368174599,0.18821612284000003,3.3978158442232327,-0.5424469040687986,-1.3789434699794636,-0.41162704665838357,,-0.99699709132951,0.09391615448344426,0.20881157836000003,-2.4730831934564805,0.2881663780053139,-0.003992881778242752,0.8092065036292193,,-0.046482481303738984,-0.07979645340118074,0.07698830152,-0.06345462529521684,,-2.2426248e-06,-3.5762787e-07,1.7881393e-06,0.99999994,1.3872981e-05,1.17607415e-05,-1.3872981e-05,1.0,1.3411045e-06,-1.1742115e-05,-1.3411045e-06,1.0,693,2.162,1,2,1.317,False,-0.2629164992682367,0.9817295854643675
2.1324129049899057,18:08:16.242323,18:08:00.501402,0,,0.12557772,-0.00068466365,0.035840556,0.5513767,0.549832,-0.62742984,0.2802753,0.5862839,0.76007694,0.7857666,-0.59494185,0.16915886,,0.093049616,-0.007182218,0.026640952,0.42293707,0.7767183,0.4667256,0.8620479,-0.50361776,0.056943685,0.2792804,0.3782562,-0.882567,,0.10736744,1.3461385,0.4449537,0.99602365,0.009234325,-0.08860919,-0.050092325,-0.7644484,-0.64273584,-0.07367239,0.64461875,-0.76094615,,-0.08253863,0.26328778,-0.094759114,-0.6282002,-0.46747026,0.62196153,0.69307685,0.02704519,0.72035617,-0.35356614,0.883595,0.30700302,,-0.029607829,0.4475307,-0.31474465,-0.4342696,-0.8336278,-0.3412837,0.7886932,-0.16884886,-0.59114563,0.43517005,-0.5258847,0.7308025,,0.9269750723589163,0.3318149406739303,0.18809945674000003,3.3875410369924905,-0.5654018360293926,-1.3606336558591678,-0.41032029412930937,,-0.9967422411446606,0.09391615448344426,0.20877787482000001,-2.476647922495717,0.29048919850132643,-0.006703773542487523,0.8072463748356081,,-0.046482481303738984,-0.07979645340118074,0.07698830152,-0.06345462529521684,,-2.2426248e-06,-3.5762787e-07,1.7881393e-06,0.99999994,1.3872981e-05,1.17607415e-05,-1.3872981e-05,1.0,1.3411045e-06,-1.1742115e-05,-1.3411045e-06,1.0,702,2.191,1,2,1.346,False,-0.2620824112089424,0.9778671694020107
2.1822657199954847,18:08:16.273635,18:08:00.663451,0,,0.12538575,-0.0006939918,0.036059693,0.5434509,0.5597297,-0.62559044,0.27289408,0.58696514,0.76223403,0.7938449,-0.5849568,0.16623971,,0.092950955,-0.00726638,0.02667725,0.42026684,0.78090405,0.4621303,0.8657691,-0.49757957,0.053465128,0.2716976,0.37762856,-0.88519883,,0.10736744,1.3461385,0.4449537,0.99602365,0.009234325,-0.08860919,-0.050092325,-0.7644484,-0.64273584,-0.07367239,0.64461875,-0.76094615,,-0.082372256,0.26343378,-0.09494874,-0.62138253,-0.4783909,0.62050456,0.69317394,0.03351126,0.7199909,-0.365231,0.8775073,0.3107848,,-0.029517218,0.44750103,-0.31483975,-0.43050128,-0.83753145,-0.33646658,0.7864685,-0.16516657,-0.5951364,0.44287238,-0.52082735,0.7297965,,0.9281952641530439,0.33117395384536963,0.18795686484000002,3.3822987884053783,-0.5793387590054675,-1.3531896092088798,-0.40983026193090644,,-0.9965028364255596,0.0939238772163185,0.20868324565000002,-2.4837773805741907,0.295954658491944,-0.011405525910766046,0.8064296545049368,,-0.046482481303738984,-0.07979645340118074,0.07698830152,-0.06345462529521684,,-2.2426248e-06,-3.5762787e-07,1.7881393e-06,0.99999994,1.3872981e-05,1.17607415e-05,-1.3872981e-05,1.0,1.3411045e-06,-1.1742115e-05,-1.3411045e-06,1.0,716,2.236,1,2,1.391,False,-0.2618441003348577,0.9741978741427719
2.213600128001417,18:08:16.313296,18:08:00.663451,0,,0.12514637,-0.00069847703,0.036260888,0.54163253,0.5603177,-0.62664014,0.27269992,0.58801913,0.76149076,0.7951532,-0.58333313,0.16569161,,0.0927572,-0.00743217,0.02675718,0.4153141,0.78684,0.45650494,0.8727914,-0.48612007,0.043846488,0.25641626,0.3802235,-0.8886397,,0.10736744,1.3461385,0.4449537,0.99602365,0.009234325,-0.08860919,-0.050092325,-0.7644484,-0.64273584,-0.07367239,0.64461875,-0.76094615,,-0.0821567,0.2635744,-0.09512641,-0.61972445,-0.47913042,0.6215912,0.69397765,0.035333488,0.719129,-0.36651957,0.8770323,0.31060877,,-0.02934045,0.44744822,-0.3150331,-0.4233439,-0.8434637,-0.33067942,0.78160495,-0.15546314,-0.60409015,0.45811966,-0.51419854,0.7250698,,0.9295853560704043,0.3308804899961491,0.18777408795000003,3.3791534392531104,-0.5815249430017145,-1.351406922749737,-0.4101569500631752,,-0.9960626406517288,0.09396249088068961,0.20849269102,-2.4976169168441698,0.30715885147271016,-0.0161311420462823,0.8021827087854454,,-0.046482481303738984,-0.07979645340118074,0.07698830152,-0.06345462529521684,,-2.2426248e-06,-3.5762787e-07,1.7881393e-06,0.99999994,1.3872981e-05,1.17607415e-05,-1.3872981e-05,1.0,1.3411045e-06,-1.1742115e-05,-1.3411045e-06,1.0,725,2.264,1,2,1.419,False,-0.2613079008681689,0.9700457768757385
2.253181146996212,18:08:16.341050,18:08:00.663451,0,,0.12502174,-0.00062064826,0.036367446,0.5374227,0.5664747,-0.62472636,0.26893815,0.5869947,0.7636161,0.7992803,-0.5783975,0.1631176,,0.092430815,-0.0076229125,0.026785553,0.414163,0.78963137,0.45271528,0.8758781,-0.48105228,0.037766874,0.24760154,0.38088176,-0.8908549,,0.107358836,1.3461398,0.44494754,0.9960236,0.009233125,-0.0886102,-0.05009389,-0.7644484,-0.6427357,-0.07367239,0.64461875,-0.76094615,,-0.082034424,0.26371458,-0.095172554,-0.61608106,-0.48581478,0.62002265,0.6940437,0.037429642,0.7189593,-0.37248826,0.87326,0.31411698,,-0.029017588,0.4473569,-0.31522632,-0.42092848,-0.8461863,-0.3267843,0.7779698,-0.15151504,-0.60975915,0.46645707,-0.5108933,0.72208434,,0.9301800065017195,0.3308727672632749,0.18773390296000003,3.376217780044327,-0.5883567679899866,-1.3456726700846349,-0.41048363819544353,,-0.9957305631381371,0.09397793634643806,0.20837083976,-2.503907615148705,0.31426394946051306,-0.01873940217301423,0.7994058596611626,,-0.046482481303738984,-0.07979645340118074,0.07698830152,-0.06345462529521684,,-1.0430813e-05,-5.364418e-06,6.4373016e-06,1.0,1.2680888e-05,1.07474625e-05,-1.2677163e-05,1.0,1.2218952e-06,-1.0736287e-05,-1.2516975e-06,1.0,739,2.309,1,2,1.464,False,-0.2616653671792948,0.9702871778796358
2.2810209849994862,18:08:16.391696,18:08:00.663451,0,,0.12481433,-0.0005222708,0.03647396,0.53590214,0.5694633,-0.6233139,0.2660206,0.58678097,0.7648014,0.801275,-0.57567316,0.16296814,,0.092048414,-0.007924214,0.026827455,0.40755013,0.7994396,0.4413605,0.88753355,-0.4605124,0.014585525,0.21491215,0.38577795,-0.8972113,,0.107358836,1.3461398,0.44494754,0.9960236,0.009233125,-0.0886102,-0.05009389,-0.7644484,-0.6427357,-0.07367239,0.64461875,-0.76094615,,-0.08183786,0.2638698,-0.09520883,-0.6148561,-0.48908973,0.6186624,0.6932142,0.038875245,0.71968246,-0.37603995,0.87136674,0.31514126,,-0.028652359,0.4471931,-0.31550655,-0.40964907,-0.856029,-0.31528088,0.7648114,-0.13389547,-0.6301869,0.49724355,-0.4992859,0.70955086,,0.9316473257478222,0.3308032626674069,0.18769631055000002,3.3749596403834197,-0.5925924994827152,-1.342545430030608,-0.40983026193090666,,-0.9945721532070034,0.09419417286691635,0.20810639660000002,-2.528860718423364,0.33981497491665036,-0.02626091552133336,0.7969556986691485,,-0.046482481303738984,-0.07979645340118074,0.07698830152,-0.06345462529521684,,-1.0430813e-05,-5.364418e-06,6.4373016e-06,1.0,1.2680888e-05,1.07474625e-05,-1.2677163e-05,1.0,1.2218952e-06,-1.0736287e-05,-1.2516975e-06,1.0,753,2.355,1,2,1.51,False,-0.2617249448978165,0.9666178826203968
2.331597568001598,18:08:16.432167,18:08:00.663451,0,,0.124709554,-0.00046555698,0.03651327,0.5357334,0.5713739,-0.6217084,0.26457182,0.5856204,0.7661922,0.8018674,-0.5749614,0.16256694,,0.091632605,-0.008160919,0.026884556,0.40046498,0.8087723,0.43071473,0.89709413,-0.441817,-0.004470408,0.18668142,0.38818195,-0.902477,,0.107358836,1.3461398,0.44494754,0.9960236,0.009233125,-0.0886102,-0.05009389,-0.7644484,-0.6427357,-0.07367239,0.64461875,-0.76094615,,-0.0817368,0.2639441,-0.09521166,-0.6147865,-0.4910929,0.61714286,0.692511,0.038353875,0.72038704,-0.37744677,0.87026244,0.3165078,,-0.028254407,0.44708925,-0.31575763,-0.3985602,-0.86511123,-0.30451992,0.7531795,-0.11927974,-0.64691037,0.52332634,-0.48719087,0.69912416,,0.9324041535694961,0.3307878172016584,0.18769112539000002,3.3749596403834197,-0.5942321374799004,-1.3401465915644235,-0.41032029412930937,,-0.9932361204197626,0.09461892317499869,0.20782250909000002,-2.5515072323196923,0.36113026888005906,-0.034739125822653816,0.7941788495448658,,-0.046482481303738984,-0.07979645340118074,0.07698830152,-0.06345462529521684,,-1.0430813e-05,-5.364418e-06,6.4373016e-06,1.0,1.2680888e-05,1.07474625e-05,-1.2677163e-05,1.0,1.2218952e-06,-1.0736287e-05,-1.2516975e-06,1.0,762,2.383,1,2,1.538,False,-0.2620824112089424,0.96545915780169
2.3720585859991843,18:08:16.455223,18:08:00.663451,0,,0.124662936,-0.00042249262,0.0365524,0.5321363,0.57375556,-0.62260365,0.26434964,0.5860098,0.7659712,0.8043321,-0.5721863,0.16016497,,0.09126937,-0.0082356185,0.026965976,0.39955312,0.8119139,0.4256208,0.89906895,-0.43771422,-0.009021193,0.17897582,0.3862669,-0.90485656,,0.107358836,1.3461398,0.44494754,0.9960236,0.009233125,-0.0886102,-0.05009389,-0.7644484,-0.6427357,-0.07367239,0.64461875,-0.76094615,,-0.08169383,0.26400474,-0.09521756,-0.6114891,-0.49375668,0.61829233,0.6941433,0.040322836,0.7187066,-0.3797975,0.86866474,0.3180809,,-0.027907606,0.44711652,-0.3159097,-0.39656228,-0.8678567,-0.29927096,0.7494652,-0.11780901,-0.6514775,0.5301323,-0.48264456,0.697147,,0.9327130628844652,0.3307878172016584,0.1876898291,3.370765841513729,-0.5972381404747401,-1.3368786102816967,-0.4106469822615779,,-0.9921163241530001,0.09507456441457794,0.20755158448000002,-2.5563301010198365,0.36727891136950397,-0.03836439290660332,0.7930354410819257,,-0.046482481303738984,-0.07979645340118074,0.07698830152,-0.06345462529521684,,-1.0430813e-05,-5.364418e-06,6.4373016e-06,1.0,1.2680888e-05,1.07474625e-05,-1.2677163e-05,1.0,1.2218952e-06,-1.0736287e-05,-1.2516975e-06,1.0,776,2.428,1,2,1.583,False,-0.2626781883941529,0.9643487131837623
2.3951455839996925,18:08:16.504131,18:08:00.663451,0,,0.12463961,-0.0003645271,0.036646277,0.52503484,0.58170116,-0.6212583,0.26012477,0.5853529,0.7679174,0.8103539,-0.56478816,0.15601571,,0.09065164,-0.008360386,0.027125835,0.3919416,0.81693274,0.42308694,0.9041631,-0.42698526,-0.013143659,0.1699143,0.38769114,-0.9059937,,0.107358836,1.3461398,0.44494754,0.9960236,0.009233125,-0.0886102,-0.05009389,-0.7644484,-0.6427357,-0.07367239,0.64461875,-0.76094615,,-0.08167969,0.26411098,-0.09525261,-0.6051924,-0.5024826,0.61745715,0.69524896,0.04419996,0.7174087,-0.38777697,0.8634568,0.32260105,,-0.027320674,0.44717908,-0.31618232,-0.38766387,-0.87274116,-0.29671463,0.7476049,-0.10936629,-0.65507704,0.5392621,-0.475775,0.6948629,,0.9331300904596733,0.33079553993453265,0.18767556991,3.3638460733787396,-0.606802695458321,-1.3291610357630879,-0.41048363819544376,,-0.9900543544755821,0.09568466031164168,0.20705510541000002,-2.5687018076854233,0.37110473336293626,-0.04156577295024355,0.7915653444867173,,-0.046482481303738984,-0.07979645340118074,0.07698830152,-0.06345462529521684,,-1.0430813e-05,-5.364418e-06,6.4373016e-06,1.0,1.2680888e-05,1.07474625e-05,-1.2677163e-05,1.0,1.2218952e-06,-1.0736287e-05,-1.2516975e-06,1.0,799,2.502,1,2,1.657,False,-0.2621419889274632,0.9645901141876596
2.4440283970034216,18:08:16.575837,18:08:00.960766,0,,0.12445006,-0.0001617223,0.03700179,0.5021791,0.6020721,-0.6207457,0.2527541,0.58428526,0.77118486,0.82700145,-0.544169,0.14123961,,0.089717284,-0.008638591,0.027298987,0.3905995,0.81911916,0.42009014,0.9055357,-0.42399672,-0.01523,0.16564155,0.3863555,-0.9073545,,0.107358836,1.3461398,0.44494754,0.9960236,0.009233125,-0.0886102,-0.05009389,-0.7644484,-0.6427357,-0.07367239,0.64461875,-0.76094615,,-0.08152597,0.26450625,-0.09540613,-0.58448464,-0.5250222,0.6186513,0.7017477,0.05568147,0.71024626,-0.40734246,0.84926516,0.33588815,,-0.026425932,0.4471617,-0.31660604,-0.3857203,-0.87464803,-0.29361653,0.7458098,-0.10824729,-0.6573053,0.5431276,-0.47251812,0.6940742,,0.934497014178411,0.33088821272902336,0.18757705187,3.342038319256349,-0.6304408099177423,-1.3044949415743297,-0.410156950063175,,-0.9867721930040367,0.09583139223625194,0.20632010898000003,-2.571637466894207,0.3726077348603561,-0.041974582489498646,0.7905852800899115,,-0.046482481303738984,-0.07979645340118074,0.07698830152,-0.06345462529521684,,-1.0430813e-05,-5.364418e-06,6.4373016e-06,1.0,1.2680888e-05,1.07474625e-05,-1.2677163e-05,1.0,1.2218952e-06,-1.0736287e-05,-1.2516975e-06,1.0,813,2.547,1,2,1.702,False,-0.2623802998015474,0.9638659111759678
2.5158102119894465,18:08:16.622752,18:08:00.960766,0,,0.12430015,-7.793307e-06,0.037249893,0.48756674,0.61599445,-0.6187321,0.24633908,0.58282226,0.77436113,0.8376131,-0.5299707,0.1324211,,0.08919888,-0.008799776,0.027316153,0.39227366,0.8195861,0.4176122,0.905214,-0.4246177,-0.016955495,0.16342893,0.38467968,-0.9084671,,0.107358836,1.3461398,0.44494754,0.9960236,0.009233125,-0.0886102,-0.05009389,-0.7644484,-0.6427357,-0.07367239,0.64461875,-0.76094615,,-0.0814009,0.26479247,-0.09550693,-0.57128054,-0.5404551,0.6176948,0.7045919,0.063041955,0.7068069,-0.4209381,0.83900774,0.34478563,,-0.025919003,0.44709358,-0.31678876,-0.38708726,-0.87489974,-0.29105654,0.7439511,-0.10987215,-0.6591395,0.544702,-0.47167635,0.6934127,,0.9356554241095447,0.33098860825638826,0.18751353366,3.3281987829863704,-0.6464272803902987,-1.2878651822756637,-0.408523509401832,,-0.9847488369909899,0.0958159467705035,0.20597529584000002,-2.570589017176784,0.3742473728575414,-0.04167802253104441,0.7900952478915086,,-0.046482481303738984,-0.07979645340118074,0.07698830152,-0.06345462529521684,,-1.0430813e-05,-5.364418e-06,6.4373016e-06,1.0,1.2680888e-05,1.07474625e-05,-1.2677163e-05,1.0,1.2218952e-06,-1.0736287e-05,-1.2516975e-06,1.0,822,2.576,1,2,1.731,False,-0.26196325577190027,0.9639624715775268
2.5627202820032835,18:08:16.651415,18:08:00.960766,0,,0.1241602,9.047985e-05,0.037395388,0.47917283,0.62151104,-0.6197719,0.2442804,0.58378565,0.7742877,0.8430424,-0.5224159,0.12791121,,0.08885663,-0.008894369,0.02726376,0.39391157,0.8194114,0.41641146,0.90492314,-0.42512995,-0.019460052,0.16108304,0.38448593,-0.908968,,0.107358836,1.3461398,0.44494754,0.9960236,0.009233125,-0.0886102,-0.05009389,-0.7644484,-0.6427357,-0.07367239,0.64461875,-0.76094615,,-0.081275664,0.26496923,-0.09556593,-0.56358534,-0.54674804,0.61922383,0.7070244,0.06838209,0.7038753,-0.42718625,0.83450013,0.34802505,,-0.02557539,0.44701403,-0.31685534,-0.38839948,-0.87471384,-0.28986466,0.7420272,-0.11036523,-0.6612224,0.5463894,-0.47190592,0.6919273,,0.9365744293215774,0.33101177645501095,0.18746816351,3.3187627355295666,-0.6542155608769288,-1.279962465702297,-0.40999360599704104,,-0.9832429040805162,0.09583911496912617,0.20580418556000002,-2.569750257402846,0.37629692035402296,-0.04024549896114943,0.7896052156931058,,-0.046482481303738984,-0.07979645340118074,0.07698830152,-0.06345462529521684,,-1.0430813e-05,-5.364418e-06,6.4373016e-06,1.0,1.2680888e-05,1.07474625e-05,-1.2677163e-05,1.0,1.2218952e-06,-1.0736287e-05,-1.2516975e-06,1.0,836,2.621,1,2,1.776,False,-0.2626186106756321,0.9645418339868801
2.591386378990137,18:08:16.689031,18:08:00.960766,0,,0.12398824,0.00018444657,0.037557423,0.47069687,0.6291356,-0.6185731,0.24411866,0.5808587,0.77653676,0.84785044,-0.5165187,0.1198245,,0.08853954,-0.008956388,0.027139366,0.39473644,0.8195824,0.41529232,0.9048476,-0.4252235,-0.020878345,0.1594804,0.38401777,-0.9094483,,0.107358836,1.3461398,0.44494754,0.9960236,0.009233125,-0.0886102,-0.05009389,-0.7644484,-0.6427357,-0.07367239,0.64461875,-0.76094615,,-0.08112054,0.26515526,-0.09564331,-0.5556972,-0.55504066,0.6189754,0.7104947,0.069580756,0.7002541,-0.4317383,0.82890797,0.35568762,,-0.02524611,0.44690767,-0.31684476,-0.38900143,-0.87482226,-0.28872812,0.7408246,-0.11076369,-0.66250306,0.54759187,-0.47161153,0.69117707,,0.9376015527938493,0.3310349446536336,0.18739557127,3.3078588584683715,-0.6602275668666083,-1.2664838102248954,-0.41048363819544376,,-0.9815979619783063,0.09588545136637151,0.20570955639000002,-2.5693308775158767,0.37725337585238106,-0.039228492003931914,0.7902585919576431,,-0.046482481303738984,-0.07979645340118074,0.07698830152,-0.06345462529521684,,-1.0430813e-05,-5.364418e-06,6.4373016e-06,1.0,1.2680888e-05,1.07474625e-05,-1.2677163e-05,1.0,1.2218952e-06,-1.0736287e-05,-1.2516975e-06,1.0,850,2.666,1,2,1.821,False,-0.2618441003348577,0.9639141913767473
2.628897770991898,18:08:16.737987,18:08:01.088328,0,,0.12386656,0.00026778877,0.03779891,0.45862797,0.6412021,-0.6152398,0.23791316,0.5784728,0.78023493,0.8561878,-0.5042113,0.11275327,,0.08838191,-0.008980453,0.02703631,0.39511102,0.81978565,0.41453415,0.90475124,-0.42542017,-0.021045,0.15909865,0.38336542,-0.9097904,,0.107358836,1.3461398,0.44494754,0.9960236,0.009233125,-0.0886102,-0.05009389,-0.7644484,-0.6427357,-0.07367239,0.64461875,-0.76094615,,-0.081024386,0.26538214,-0.095782414,-0.5447648,-0.5684418,0.6165267,0.7118787,0.075114265,0.69827396,-0.44323805,0.81928736,0.36374202,,-0.02507665,0.44683176,-0.31680512,-0.38932326,-0.8749404,-0.28793517,0.7404677,-0.1113648,-0.66280115,0.54784566,-0.47125062,0.6912221,,0.9384664988757624,0.3310349446536336,0.18729446065000002,3.2965356015202074,-0.6740278533429177,-1.2511466649445289,-0.4095035737986381,,-0.9806480658347767,0.09588545136637151,0.20569529720000002,-2.568911497628908,0.37725337585238106,-0.03898345578351031,0.7900952478915086,,-0.046482481303738984,-0.07979645340118074,0.07698830152,-0.06345462529521684,,-1.0430813e-05,-5.364418e-06,6.4373016e-06,1.0,1.2680888e-05,1.07474625e-05,-1.2677163e-05,1.0,1.2218952e-06,-1.0736287e-05,-1.2516975e-06,1.0,859,2.695,1,2,1.85,False,-0.26249945523859,0.963769350774409
2.6779242619959405,18:08:16.777799,18:08:01.088328,0,,0.123813495,0.00030688941,0.037953377,0.45076507,0.6473075,-0.61465734,0.23154137,0.5802257,0.78085005,0.8620901,-0.49429864,0.11166695,,0.088420466,-0.00897719,0.0270617,0.39463106,0.81985885,0.4148465,0.9049821,-0.42492604,-0.021103472,0.15897712,0.38375676,-0.90964663,,0.107358836,1.3461398,0.44494754,0.9960236,0.009233125,-0.0886102,-0.05009389,-0.7644484,-0.6427357,-0.07367239,0.64461875,-0.76094615,,-0.08098781,0.26551515,-0.0958782,-0.5377469,-0.575562,0.61608166,0.71132195,0.08255361,0.69800144,-0.4526029,0.8135805,0.36501694,,-0.025118196,0.4468485,-0.31681675,-0.38882542,-0.875053,-0.28826553,0.7405894,-0.11074348,-0.6627694,0.5480348,-0.47118798,0.69111484,,0.9389066946495932,0.33096544005776557,0.18723742389000003,3.2906642831026405,-0.6850954098239184,-1.245960715531725,-0.40999360599704104,,-0.9808720250881292,0.09587772863349729,0.20569788978000003,-2.5695405674593617,0.37725337585238106,-0.03906513452365079,0.7899319038253745,,-0.046482481303738984,-0.07979645340118074,0.07698830152,-0.06345462529521684,,-1.0430813e-05,-5.364418e-06,6.4373016e-06,1.0,1.2680888e-05,1.07474625e-05,-1.2677163e-05,1.0,1.2218952e-06,-1.0736287e-05,-1.2516975e-06,1.0,873,2.74,1,2,1.895,False,-0.2613079008681689,0.9646866745892184
2.717709083997761,18:08:16.815014,18:08:01.088328,0,,0.12378618,0.00031352043,0.038076907,0.4465896,0.6537658,-0.6108583,0.22606272,0.5781265,0.784006,0.86570966,-0.4882213,0.11039317,,0.0884881,-0.008965999,0.02711296,0.39449942,0.8198066,0.41507506,0.9050299,-0.42482406,-0.02110517,0.15903166,0.38398138,-0.9095423,,0.107358836,1.3461398,0.44494754,0.9960236,0.009233125,-0.0886102,-0.05009389,-0.7644484,-0.6427357,-0.07367239,0.64461875,-0.76094615,,-0.08097415,0.26560202,-0.09596941,-0.534121,-0.5826969,0.6125186,0.70975465,0.0845608,0.6993553,-0.45930725,0.80827826,0.36840615,,-0.02519183,0.44688648,-0.31683826,-0.38870114,-0.87502897,-0.2885061,0.740671,-0.11051276,-0.6627167,0.5480127,-0.47128683,0.691065,,0.9392001584988138,0.3309036581947718,0.18717520197,3.2887770736112802,-0.6928836903105485,-1.2396915737611696,-0.41015695006317543,,-0.9813044981290858,0.09589317409924573,0.20569918607,-2.569750257402846,0.37739001235214653,-0.039258231167487834,0.7897685597592401,,-0.046482481303738984,-0.07979645340118074,0.07698830152,-0.06345462529521684,,-1.0430813e-05,-5.364418e-06,6.4373016e-06,1.0,1.2680888e-05,1.07474625e-05,-1.2677163e-05,1.0,1.2218952e-06,-1.0736287e-05,-1.2516975e-06,1.0,882,2.768,0,2,1.895,False,-0.26112916771260597,0.9647832349907774
2.7549871549999807,18:08:16.845991,18:08:01.088328,0,,0.123724416,0.00032821298,0.038151473,0.4419726,0.6577578,-0.60993004,0.22366104,0.5776653,0.7850342,0.86869776,-0.4833813,0.10819733,,0.08854957,-0.008958831,0.027157843,0.39447856,0.81971145,0.4152826,0.90500104,-0.42489165,-0.020985574,0.1592479,0.38410953,-0.9094503,,0.107358836,1.3461398,0.44494754,0.9960236,0.009233125,-0.0886102,-0.05009389,-0.7644484,-0.6427357,-0.07367239,0.64461875,-0.76094615,,-0.08092067,0.26566502,-0.09602193,-0.5299172,-0.58720785,0.61186165,0.71013206,0.08713972,0.6986552,-0.46357328,0.804732,0.37081832,,-0.025258608,0.44691768,-0.31685862,-0.38871053,-0.87495387,-0.28872097,0.74079806,-0.11046829,-0.6625821,0.5478343,-0.47143656,0.6911043,,0.9395322360124054,0.3307492035372873,0.18714409101,3.2843735847981055,-0.6982125138014007,-1.234447809375463,-0.4090135416002352,,-0.9816906347727969,0.09588545136637151,0.20570048236000002,-2.569750257402846,0.37739001235214653,-0.03942158864776896,0.7900952478915088,,-0.046482481303738984,-0.07979645340118074,0.07698830152,-0.06345462529521684,,-1.0430813e-05,-5.364418e-06,6.4373016e-06,1.0,1.2680888e-05,1.07474625e-05,-1.2677163e-05,1.0,1.2218952e-06,-1.0736287e-05,-1.2516975e-06,1.0,905,2.842,0,2,1.895,False,-0.2608312791200009,0.9648797953923365
2.785950741992565,18:08:16.915371,18:08:01.240190,0,,0.1235224,0.0003810674,0.038306504,0.43091097,0.66413933,-0.61092913,0.22619736,0.5758997,0.78560436,0.87358475,-0.47671628,0.09793484,,0.08854993,-0.008967504,0.02715385,0.39440492,0.81982905,0.41512036,0.9050751,-0.42472792,-0.021106541,0.15900934,0.38403964,-0.9095216,,0.107358836,1.3461398,0.44494754,0.9960236,0.009233125,-0.0886102,-0.05009389,-0.7644484,-0.6427357,-0.07367239,0.64461875,-0.76094615,,-0.08073585,0.26581702,-0.09612382,-0.5194076,-0.5943238,0.6139991,0.7158399,0.08978603,0.6924678,-0.46667868,0.79919815,0.3788052,,-0.025258644,0.4469086,-0.3168616,-0.38860336,-0.8750566,-0.2885538,0.74069583,-0.11040459,-0.662707,0.5480485,-0.47126076,0.6910544,,0.9403894593614444,0.330532967016809,0.18705205442000003,3.2684371490932813,-0.7031314277929566,-1.2191650987029943,-0.40934022973250395,,-0.9816751893070486,0.09584683770200039,0.20570177865000003,-2.5699599473463306,0.37752664885191195,-0.039614685291605944,0.790258591957643,,-0.046482481303738984,-0.07979645340118074,0.07698830152,-0.06345462529521684,,-1.0430813e-05,-5.364418e-06,6.4373016e-06,1.0,1.2680888e-05,1.07474625e-05,-1.2677163e-05,1.0,1.2218952e-06,-1.0736287e-05,-1.2516975e-06,1.0,919,2.887,0,2,1.895,False,-0.26190367805337944,0.9650729161954543
2.855338865003432,18:08:16.960303,18:08:01.240190,0,,0.12342486,0.00043930113,0.038416833,0.42161065,0.67202586,-0.6087903,0.22820452,0.57113355,0.78849804,0.87759167,-0.4713679,0.08743662,,0.08852264,-0.008971512,0.027134538,0.3944159,0.8198319,0.41510436,0.90508735,-0.42469692,-0.021201283,0.15891194,0.38406786,-0.9095267,,0.107358836,1.3461398,0.44494754,0.9960236,0.009233125,-0.0886102,-0.05009389,-0.7644484,-0.6427357,-0.07367239,0.64461875,-0.76094615,,-0.08064977,0.26593825,-0.09617833,-0.5105629,-0.60285777,0.61309713,0.7204776,0.08922001,0.68771493,-0.46929482,0.7928445,0.38879305,,-0.025229115,0.44689456,-0.31685358,-0.3886007,-0.87506247,-0.2885397,0.74063796,-0.110362984,-0.66277856,0.54812855,-0.47125968,0.69099164,,0.9407524278065329,0.33057930341405434,0.18700149911000002,3.255436372597241,-0.7069572497863889,-1.2024867265361612,-0.4077067890711612,,-0.9815052891838156,0.09584683770200039,0.20570048236000002,-2.5699599473463306,0.37752664885191195,-0.03945132781132488,0.7905852800899116,,-0.046482481303738984,-0.07979645340118074,0.07698830152,-0.06345462529521684,,-1.0430813e-05,-5.364418e-06,6.4373016e-06,1.0,1.2680888e-05,1.07474625e-05,-1.2677163e-05,1.0,1.2218952e-06,-1.0736287e-05,-1.2516975e-06,1.0,942,2.961,0,2,1.895,False,-0.26136747858668974,0.9644452735853215
2.9002466419915436,18:08:17.034942,18:08:01.366408,0,,0.12337895,0.0005257726,0.0385876,0.40212366,0.695436,-0.59553766,0.22172028,0.5571201,0.8002858,0.8883336,-0.45385668,0.06983885,,0.08852099,-0.008991599,0.027136743,0.39492553,0.8207218,0.41285527,0.9052464,-0.4242922,-0.022475392,0.15672511,0.38261187,-0.91051924,,0.107358836,1.3461398,0.44494754,0.9960236,0.009233125,-0.0886102,-0.05009389,-0.7644484,-0.6427357,-0.07367239,0.64461875,-0.76094615,,-0.080621034,0.26611733,-0.0962548,-0.4925311,-0.6283671,0.6021361,0.72362196,0.08870499,0.68447256,-0.48351252,0.7728429,0.4110103,,-0.025228292,0.44688147,-0.31686905,-0.38880527,-0.8757362,-0.2862109,0.7392339,-0.11111976,-0.66421807,0.5498761,-0.46982828,0.6905778,,0.940791041470904,0.3304866306195637,0.18699501766,3.235306138022726,-0.7245833582561307,-1.1654071272002464,-0.4093402297325037,,-0.9815361801153125,0.09583911496912617,0.20569918607,-2.570589017176784,0.379712832848159,-0.0413973717507487,0.7899319038253745,,-0.046482481303738984,-0.07979645340118074,0.07698830152,-0.06345462529521684,,-1.0430813e-05,-5.364418e-06,6.4373016e-06,1.0,1.2680888e-05,1.07474625e-05,-1.2677163e-05,1.0,1.2218952e-06,-1.0736287e-05,-1.2516975e-06,1.0,951,2.989,0,2,1.895,False,-0.2626186106756321,0.9642038725814241
2.974915536993649,18:08:17.060115,18:08:01.366408,0,,0.123350084,0.0005647391,0.038681984,0.38891423,0.7080454,-0.58942115,0.21567273,0.5520373,0.805444,0.8956734,-0.4403708,0.06198892,,0.08851962,-0.008992463,0.02713716,0.3947696,0.8207697,0.4129091,0.90532935,-0.42411304,-0.022516757,0.15663889,0.38270766,-0.91049385,,0.107358836,1.3461398,0.44494754,0.9960236,0.009233125,-0.0886102,-0.05009389,-0.7644484,-0.6427357,-0.07367239,0.64461875,-0.76094615,,-0.08060188,0.26620984,-0.09630316,-0.4803518,-0.6424986,0.5970408,0.72453964,0.09293189,0.6829392,-0.4942716,0.7606308,0.42087573,,-0.02522701,0.4468812,-0.31687006,-0.388637,-0.8757919,-0.28626868,0.7392475,-0.11092732,-0.66423506,0.5499767,-0.46976975,0.6905375,,0.9407447050736586,0.33025494863333693,0.18700927685000002,3.2225150514701704,-0.7379737352331439,-1.1462386198838004,-0.41113701445998085,,-0.9815284573824383,0.09583911496912617,0.20569788978000003,-2.5707987071202685,0.379712832848159,-0.0413973717507487,0.7899319038253745,,-0.046482481303738984,-0.07979645340118074,0.07698830152,-0.06345462529521684,,-1.0430813e-05,-5.364418e-06,6.4373016e-06,1.0,1.2680888e-05,1.07474625e-05,-1.2677163e-05,1.0,1.2218952e-06,-1.0736287e-05,-1.2516975e-06,1.0,965,3.034,0,2,1.895,False,-0.2623802998015474,0.9640590319790854
3.000088136002887,18:08:17.110412,18:08:01.366408,0,,0.12324695,0.00056032836,0.038678795,0.37696353,0.7183472,-0.5847013,0.21755788,0.5449395,0.8097589,0.9003149,-0.43245602,0.049140155,,0.08850771,-0.008993506,0.02713263,0.39486888,0.8207405,0.4128722,0.90525687,-0.42427516,-0.022374839,0.15680733,0.38259053,-0.91051406,,0.107358836,1.3461398,0.44494754,0.9960236,0.009233125,-0.0886102,-0.05009389,-0.7644484,-0.6427357,-0.07367239,0.64461875,-0.76094615,,-0.08049916,0.26621008,-0.09631375,-0.4689464,-0.65376824,0.59386563,0.7296433,0.09213565,0.6775926,-0.4977047,0.75106466,0.43381092,,-0.025214631,0.44687825,-0.31686893,-0.38876,-0.8757514,-0.28622574,0.7393015,-0.111123145,-0.66414225,0.5498172,-0.46979904,0.69064456,,0.9406906459435391,0.3296989118663928,0.18703649894000002,3.2063689258218617,-0.7434391952237615,-1.1240576171254415,-0.41097367039384647,,-0.9814666755194444,0.09583911496912617,0.20569400091,-2.570589017176784,0.37957619634839357,-0.04136763258719289,0.7900952478915088,,-0.046482481303738984,-0.07979645340118074,0.07698830152,-0.06345462529521684,,-1.0430813e-05,-5.364418e-06,6.4373016e-06,1.0,1.2680888e-05,1.07474625e-05,-1.2677163e-05,1.0,1.2218952e-06,-1.0736287e-05,-1.2516975e-06,1.0,974,3.063,0,2,1.895,False,-0.2637505873275314,0.9643004329829827
