AlexandreBanks6/ExpertPlaybackApp/resources/Motions/Pilot_05/PC1/Data_PC1_2.csv
Task Time,PC1 Time,PC2 Time,Gaze Calib,s_T_psm1,Tx,Ty,Tz,R00,R01,R02,R10,R11,R12,R20,R21,R22,s_T_psm3,Tx,Ty,Tz,R00,R01,R02,R10,R11,R12,R20,R21,R22,cart_T_ecm,Tx,Ty,Tz,R00,R01,R02,R10,R11,R12,R20,R21,R22,ecm_T_psm1,Tx,Ty,Tz,R00,R01,R02,R10,R11,R12,R20,R21,R22,ecm_T_psm3,Tx,Ty,Tz,R00,R01,R02,R10,R11,R12,R20,R21,R22,psm1_joints,q1,q2,q3,q4,q5,q6,jaw,psm3_joints,q1,q2,q3,q4,q5,q6,jaw,ecm_joints,q1,q2,q3,q4,ecmi_T_ecm,Tx,Ty,Tz,R00,R01,R02,R10,R11,R12,R20,R21,R22,Sample #,Task Duration (s),Collisions (binary),Collisions (increments),Cumulative Collision Time (s),Clutch Press,MTMR Angle,MTML Angle
""
lci_T_si,,,,,-0.06405862,0.016163385,0.23836872,0.9936273,-0.018126413,0.1112486,0.06163678,-0.7389648,-0.6709187,0.09437015,0.6735001,-0.7331383
rci_T_si,,,,,-0.07404149,0.020406518,0.24901661,0.991507,-0.031528454,0.12617382,0.062267285,-0.73666036,-0.67339015,0.1141782,0.6755276,-0.7284407
ecm_T_lc,,,,,-4.4061628e-05,-0.00034663224,-0.01840835,-0.99912,0.030754527,0.028518902,-0.031987965,-0.99852574,-0.043852776,0.027128186,-0.04472645,0.9986309
ecm_T_rc,,,,,-0.0043358393,0.01870579,-0.007592615,-0.99555075,-0.052743673,-0.078081585,0.04863213,-0.9973746,0.053654674,-0.08070653,0.04961868,0.9955021
cart_T_ecmi,,,,,0.10736985,1.3461393,0.4449551,0.99602276,0.009220387,-0.08862091,-0.050110485,-0.7644486,-0.6427342,-0.07367239,0.64461875,-0.76094615
ecmac_T_ecmrep_psm1,,,,,0.0019077883,-0.24418817,-0.31129345,0.9990406,0.03670117,0.023893757,-0.03487346,0.99673134,-0.072872825,-0.026490174,0.07196965,0.997055
ecmac_T_ecmrep_psm3,,,,,-0.025437847,-0.43631262,-0.5392238,0.9997681,0.02112905,0.0041644988,-0.020983119,0.99925387,-0.03242474,-0.0048464956,0.032329835,0.9994655
""
0,18:04:48.739182,18:04:33.097391,0,,0.12092361,0.0016960651,0.016161904,0.9122931,-0.020840593,-0.40900692,0.40864694,0.11215386,0.9057754,0.026994735,-0.9934722,0.110833496,,0.08238059,-0.019041464,0.041544557,-0.21987076,-0.09152605,0.97122586,0.9755162,-0.015524894,0.21937896,-0.0050008,0.99568164,0.092698574,,0.10735384,1.346142,0.4449498,0.99602264,0.009219039,-0.08862205,-0.05011224,-0.7644486,-0.6427341,-0.07367239,0.64461875,-0.76094615,,-0.07567366,0.25255552,-0.0788748,-0.90022683,0.13281558,0.41467056,0.27703944,-0.55999964,0.7808006,0.33591786,0.81777775,0.46733156,,-0.021351468,0.44975418,-0.33484077,0.2438643,-0.04456913,-0.9687847,0.72612333,0.6705682,0.1519315,0.64286476,-0.74050784,0.19589032,,0.9221715325111487,0.31791402150032616,0.20516252201000001,3.811324412774715,0.20481811314839524,-1.2645326689096705,-0.4081968212695639,,-0.9862933835658348,0.05707871867339335,0.18764705153000003,-3.2141274537307893,0.1334938602708353,0.9902955141601423,0.8537994336838775,,-0.046482481303738984,-0.07979645340118074,0.07698830152,-0.06345462529521684,,-1.5687197e-05,-5.7816505e-06,3.695488e-06,0.99999994,-1.3411045e-06,-1.1324883e-06,1.3411045e-06,1.0,-8.940697e-08,1.1473894e-06,1.1920929e-07,1.0,36,0.107,0,0,0.0,False,-0.26160578946077395,1.028223418814986
0.1272768439957872,18:04:48.769526,18:04:33.097391,0,,0.121024504,0.0017460138,0.016368955,0.912116,-0.020084426,-0.40943953,0.40897426,0.11281592,0.9055455,0.028003871,-0.99341285,0.11111504,,0.08237903,-0.019045189,0.04154718,-0.21986149,-0.09152782,0.9712278,0.9755181,-0.015512019,0.21937087,-0.0050128996,0.99568164,0.09269753,,0.10735384,1.346142,0.4449498,0.99602264,0.009219039,-0.08862205,-0.05011224,-0.7644486,-0.6427341,-0.07367239,0.64461875,-0.76094615,,-0.07579562,0.25272247,-0.07898791,-0.9001547,0.13207264,0.41506416,0.27795345,-0.559501,0.78083324,0.33535552,0.8182393,0.4669274,,-0.02135037,0.44975337,-0.3348454,0.2438568,-0.044567045,-0.96878666,0.7261159,0.67057776,0.15192471,0.64287597,-0.7404993,0.19588579,,0.9220325233194127,0.3187944130479878,0.20500437463,3.8106953429442614,0.20481811314839524,-1.2645326689096705,-0.4081968212695639,,-0.9862933835658348,0.0570632732076449,0.18764316266000003,-3.2141274537307893,0.1334938602708353,0.9902955141601424,0.853472745551609,,-0.046482481303738984,-0.07979645340118074,0.07698830152,-0.06345462529521684,,-1.5687197e-05,-5.7816505e-06,3.695488e-06,0.99999994,-1.3411045e-06,-1.1324883e-06,1.3411045e-06,1.0,-8.940697e-08,1.1473894e-06,1.1920929e-07,1.0,48,0.144,0,0,0.0,False,-0.26101001227556386,1.028416539618104
0.15754388899949845,18:04:48.804943,18:04:33.097391,0,,0.12114845,0.0017999411,0.016524509,0.9117589,-0.018519036,-0.41030777,0.4096517,0.11319363,0.9051921,0.029680908,-0.9934002,0.110791594,,0.08237969,-0.019049883,0.041549325,-0.21992537,-0.09162195,0.97120446,0.9755043,-0.015623659,0.21942513,-0.0049304366,0.9956713,0.09281364,,0.10735384,1.346142,0.4449498,0.99602264,0.009219039,-0.08862205,-0.05011224,-0.7644486,-0.6427341,-0.07367239,0.64461875,-0.76094615,,-0.07593471,0.25285769,-0.07905746,-0.8999696,0.13052438,0.41595456,0.279577,-0.5592926,0.7804028,0.3345019,0.81863004,0.4668547,,-0.021351434,0.4497513,-0.33485,0.24390857,-0.04447532,-0.9687779,0.7261663,0.670496,0.15204483,0.64279944,-0.7405789,0.1958362,,0.9217622276688148,0.319628468198404,0.20489418998000003,3.8094372032833537,0.2044082036490989,-1.2641984151985812,-0.40852350940183235,,-0.986301106298709,0.05703238227614801,0.18764057008,-3.2141274537307893,0.13335722377106987,0.9904069320638387,0.8537994336838775,,-0.046482481303738984,-0.07979645340118074,0.07698830152,-0.06345462529521684,,-1.5687197e-05,-5.7816505e-06,3.695488e-06,0.99999994,-1.3411045e-06,-1.1324883e-06,1.3411045e-06,1.0,-8.940697e-08,1.1473894e-06,1.1920929e-07,1.0,59,0.177,0,0,0.0,False,-0.2611887454311268,1.0281751386142066
0.19303941499674693,18:04:48.840266,18:04:33.206688,0,,0.12131664,0.0018106699,0.016778663,0.91159433,-0.014400624,-0.4108381,0.4097357,0.11289701,0.90519106,0.03334701,-0.99350226,0.108816564,,0.08237946,-0.019059002,0.041551173,-0.21989757,-0.091627255,0.97121024,0.97551024,-0.0155849755,0.21940082,-0.0049668252,0.9956713,0.09281042,,0.10735384,1.346142,0.4449498,0.99602264,0.009219039,-0.08862205,-0.05011224,-0.7644486,-0.6427341,-0.07367239,0.64461875,-0.76094615,,-0.07612963,0.25302187,-0.07922496,-0.90020853,0.1264367,0.41669932,0.28203398,-0.55981,0.77914673,0.33178517,0.81891793,0.46828628,,-0.021351695,0.44974592,-0.33485758,0.24388611,-0.04446906,-0.9687838,0.726144,0.6705247,0.15202446,0.6428331,-0.7405532,0.19582261,,0.9213374773607325,0.3205474734104367,0.20467511697000002,3.8079693736789624,0.2020853831530864,-1.262304310835742,-0.40852350940183235,,-0.986301106298709,0.05698604587890266,0.18763668121000002,-3.2141274537307893,0.13335722377106987,0.9904069320638387,0.854126121816146,,-0.046482481303738984,-0.07979645340118074,0.07698830152,-0.06345462529521684,,-1.5687197e-05,-5.7816505e-06,3.695488e-06,0.99999994,-1.3411045e-06,-1.1324883e-06,1.3411045e-06,1.0,-8.940697e-08,1.1473894e-06,1.1920929e-07,1.0,75,0.226,0,0,0.0,False,-0.26041423509035333,1.028223418814986
0.22836537200782914,18:04:48.886790,18:04:33.206688,0,,0.121409446,0.0017568469,0.016980201,0.9112062,-0.012957111,-0.4117463,0.4104808,0.11290327,0.9048527,0.034763187,-0.9935214,0.108196706,,0.082378805,-0.019068629,0.041553795,-0.22018534,-0.09177329,0.9711313,0.97544557,-0.01568237,0.21968149,-0.0049313903,0.9956564,0.09297283,,0.10735384,1.346142,0.4449498,0.99602264,0.009219039,-0.08862205,-0.05011224,-0.7644486,-0.6427341,-0.07367239,0.64461875,-0.76094615,,-0.076245286,0.25310707,-0.07940241,-0.8999622,0.1250046,0.41766247,0.28354082,-0.559897,0.7785371,0.33116868,0.81907827,0.4684422,,-0.021351648,0.4497407,-0.3348661,0.24416462,-0.044324942,-0.96872026,0.72614187,0.67045414,0.15234564,0.6427298,-0.7406258,0.19588737,,0.9209976771142666,0.3209876691842675,0.20447419202000003,3.806711234018055,0.2016754736537901,-1.2619700571246528,-0.40852350940183235,,-0.986301106298709,0.05692426401590886,0.18763149605,-3.2143371436742734,0.133083950771539,0.9905480891310909,0.8536360896177433,,-0.046482481303738984,-0.07979645340118074,0.07698830152,-0.06345462529521684,,-1.5687197e-05,-5.7816505e-06,3.695488e-06,0.99999994,-1.3411045e-06,-1.1324883e-06,1.3411045e-06,1.0,-8.940697e-08,1.1473894e-06,1.1920929e-07,1.0,82,0.247,0,0,0.0,False,-0.26160578946077395,1.027692336606412
0.2748643890081439,18:04:48.916553,18:04:33.206688,0,,0.12151692,0.0016957223,0.017216668,0.91161066,-0.004382804,-0.41103092,0.40895444,0.11061612,0.90582573,0.041496575,-0.99385345,0.10263109,,0.08238082,-0.019088984,0.04155481,-0.22043598,-0.09208493,0.9710449,0.9753889,-0.015764058,0.21992715,-0.004944384,0.99562633,0.09329355,,0.10735384,1.346142,0.4449498,0.99602264,0.009219039,-0.08862205,-0.05011224,-0.7644486,-0.6427341,-0.07367239,0.64461875,-0.76094615,,-0.07637954,0.25320864,-0.07960947,-0.9011412,0.11646969,0.4175875,0.28674132,-0.56231683,0.7756154,0.32515216,0.81867856,0.4733302,,-0.021354318,0.44972637,-0.33488053,0.24441315,-0.04401434,-0.96867174,0.72611,0.67039686,0.15274912,0.64267135,-0.74069613,0.19581306,,0.9207814405937883,0.3212965784992365,0.20422919321000002,3.8054530943571483,0.19525355816481438,-1.2565700581706398,-0.40852350940183246,,-0.986301106298709,0.05680070028992127,0.18762631089,-3.2145468336177587,0.1328106777720081,0.9908526036786245,0.853472745551609,,-0.046482481303738984,-0.07979645340118074,0.07698830152,-0.06345462529521684,,-1.5687197e-05,-5.7816505e-06,3.695488e-06,0.99999994,-1.3411045e-06,-1.1324883e-06,1.3411045e-06,1.0,-8.940697e-08,1.1473894e-06,1.1920929e-07,1.0,94,0.284,0,0,0.0,False,-0.2612483231496481,1.0275474960040736
0.3046398610022152,18:04:48.939038,18:04:33.206688,0,,0.12153915,0.0016441345,0.017384574,0.9112577,-0.0035423934,-0.41182107,0.40965307,0.11062613,0.90550876,0.042350426,-0.9938556,0.102259904,,0.08237901,-0.019120678,0.041557908,-0.22041881,-0.09217246,0.9710405,0.97539264,-0.015755177,0.21991119,-0.004970938,0.99561834,0.09337704,,0.10735384,1.346142,0.4449498,0.99602264,0.009219039,-0.08862205,-0.05011224,-0.7644486,-0.6427341,-0.07367239,0.64461875,-0.76094615,,-0.07642131,0.25327754,-0.07976709,-0.90086883,0.115635104,0.41840637,0.28784534,-0.5623569,0.77517724,0.3249314,0.81876934,0.47332478,,-0.021353766,0.4497054,-0.33490455,0.24439985,-0.043926325,-0.9686791,0.7260935,0.67040443,0.15279439,0.64269507,-0.7406945,0.19574136,,0.9207273814636687,0.3216363787457024,0.20395178715,3.8044046446397255,0.19470701216575265,-1.2561243865558542,-0.40852350940183246,,-0.9862933835658348,0.05670030476255635,0.18761853315000002,-3.2145468336177587,0.1328106777720081,0.9908526036786245,0.8531460574193405,,-0.046482481303738984,-0.07979645340118074,0.07698830152,-0.06345462529521684,,-1.5687197e-05,-5.7816505e-06,3.695488e-06,0.99999994,-1.3411045e-06,-1.1324883e-06,1.3411045e-06,1.0,-8.940697e-08,1.1473894e-06,1.1920929e-07,1.0,106,0.32,0,0,0.0,False,-0.26106958999408425,1.027402655401735
0.3271407230058685,18:04:48.977388,18:04:33.348005,0,,0.12160392,0.0015473962,0.01782766,0.9117031,0.00139492,-0.41084698,0.4082237,0.10980052,0.9062545,0.046375304,-0.9939526,0.09953585,,0.08238183,-0.019162476,0.041559577,-0.22044352,-0.091766834,0.9710733,0.9753854,-0.015353888,0.21997145,-0.0052764416,0.9956621,0.09289266,,0.10735384,1.346142,0.4449498,0.99602264,0.009219039,-0.08862205,-0.05011224,-0.7644486,-0.6427341,-0.07367239,0.64461875,-0.76094615,,-0.07653673,0.25348884,-0.08015687,-0.90178764,0.11072119,0.41775578,0.28935555,-0.5633167,0.7739171,0.32101783,0.8187888,0.47595423,,-0.021357888,0.4496758,-0.33493397,0.2444655,-0.04432354,-0.96864444,0.7258829,0.67069775,0.15250757,0.642908,-0.74040526,0.19613616,,0.9207505496622914,0.32209974271815583,0.20361475175000002,3.804194954696241,0.1911544631718512,-1.2532275210597472,-0.40852350940183246,,-0.9862779381000863,0.056406840913335816,0.18760427396,-3.214756523561243,0.1326740412722427,0.9904739491414774,0.8524926811548031,,-0.046482481303738984,-0.07979645340118074,0.07698830152,-0.06345462529521684,,-1.5687197e-05,-5.7816505e-06,3.695488e-06,0.99999994,-1.3411045e-06,-1.1324883e-06,1.3411045e-06,1.0,-8.940697e-08,1.1473894e-06,1.1920929e-07,1.0,121,0.366,0,0,0.0,False,-0.260652545964438,1.027402655401735
0.3654900849942351,18:04:49.017738,18:04:33.348005,0,,0.121665366,0.0014782995,0.018315151,0.9123365,0.006442666,-0.40939012,0.40630922,0.109184295,0.9071888,0.050543606,-0.9940006,0.096994996,,0.082386136,-0.019224629,0.041558087,-0.22095622,-0.09238501,0.97089815,0.9752693,-0.015527725,0.22047347,-0.005292684,0.99560225,0.09353119,,0.10735384,1.346142,0.4449498,0.99602264,0.009219039,-0.08862205,-0.05011224,-0.7644486,-0.6427341,-0.07367239,0.64461875,-0.76094615,,-0.076653115,0.25375018,-0.080562286,-0.90292007,0.105696894,0.41660956,0.2905812,-0.5640921,0.7728924,0.3166985,0.818919,0.4786165,,-0.021363568,0.449629,-0.33497474,0.24497248,-0.043707695,-0.9685443,0.72582465,0.6705754,0.15332057,0.6427807,-0.74055266,0.19599664,,0.9208972815869017,0.32287973873845255,0.20314549477000002,3.8044046446397255,0.18705536817888796,-1.249966662688995,-0.4086868534679666,,-0.9862547699014637,0.05603614973537304,0.18759131106000002,-3.2151759034482117,0.13199085877341546,0.9911127174001002,0.8526560252209378,,-0.046482481303738984,-0.07979645340118074,0.07698830152,-0.06345462529521684,,-1.5687197e-05,-5.7816505e-06,3.695488e-06,0.99999994,-1.3411045e-06,-1.1324883e-06,1.3411045e-06,1.0,-8.940697e-08,1.1473894e-06,1.1920929e-07,1.0,129,0.39,0,0,0.0,False,-0.2593418361569748,1.0271129741970584
0.4058300330070779,18:04:49.052068,18:04:33.348005,0,,0.12174219,0.0014681071,0.01874137,0.9127002,0.013367578,-0.40841073,0.40473348,0.10811409,0.908021,0.056292936,-0.99404854,0.093265325,,0.08239524,-0.019287944,0.041557312,-0.22082627,-0.09211217,0.9709537,0.9752978,-0.015277147,0.22036496,-0.0054649413,0.9956314,0.093210384,,0.10735384,1.346142,0.4449498,0.99602264,0.009219039,-0.08862205,-0.05011224,-0.7644486,-0.6427341,-0.07367239,0.64461875,-0.76094615,,-0.07677668,0.25401542,-0.080881715,-0.90395117,0.0987971,0.41606656,0.2931065,-0.5653146,0.7710435,0.31138536,0.8189375,0.4820587,,-0.021374118,0.44958147,-0.33501622,0.24486783,-0.043975353,-0.96855867,0.7257191,0.67075837,0.15301958,0.64293975,-0.7403711,0.1961609,,0.9210980726416315,0.3237601302861141,0.20275660777,3.803565884865787,0.1817265446880358,-1.2456213644448346,-0.4086868534679666,,-0.9862547699014637,0.055680904023158714,0.18758094074,-3.2151759034482117,0.13185422227365004,0.9908157416030936,0.8521659930225347,,-0.046482481303738984,-0.07979645340118074,0.07698830152,-0.06345462529521684,,-1.5687197e-05,-5.7816505e-06,3.695488e-06,0.99999994,-1.3411045e-06,-1.1324883e-06,1.3411045e-06,1.0,-8.940697e-08,1.1473894e-06,1.1920929e-07,1.0,145,0.439,0,0,0.0,False,-0.25922268071993226,1.0272578147993967
0.4401607080071699,18:04:49.100091,18:04:33.480740,0,,0.12176353,0.0014955252,0.0190811,0.9130611,0.015643261,-0.40752226,0.40360716,0.108639896,0.9084595,0.05848442,-0.993958,0.092881024,,0.08240248,-0.019333705,0.04156041,-0.2210705,-0.092220895,0.9708878,0.9752424,-0.015303642,0.22060838,-0.0054866374,0.99562097,0.09332088,,0.10735384,1.346142,0.4449498,0.99602264,0.009219039,-0.08862205,-0.05011224,-0.7644486,-0.6427341,-0.07367239,0.64461875,-0.76094615,,-0.07683473,0.25425595,-0.081117064,-0.90457696,0.096537784,0.41523606,0.29365858,-0.56498235,0.7710769,0.3090391,0.819436,0.48272085,,-0.021382915,0.44954962,-0.33504885,0.24511123,-0.043866944,-0.96850204,0.7256818,0.6707399,0.15327737,0.64288914,-0.7403943,0.19623931,,0.92146104108672,0.3245787399707819,0.20246494252000002,3.8037755748092716,0.1796769971915542,-1.2443584895900912,-0.40787013313729525,,-0.9862702153672122,0.05541060837256086,0.18757057042000003,-3.215385593391696,0.13144431277435373,0.9909049590937612,0.8526560252209376,,-0.046482481303738984,-0.07979645340118074,0.07698830152,-0.06345462529521684,,-1.5687197e-05,-5.7816505e-06,3.695488e-06,0.99999994,-1.3411045e-06,-1.1324883e-06,1.3411045e-06,1.0,-8.940697e-08,1.1473894e-06,1.1920929e-07,1.0,164,0.497,0,0,0.0,False,-0.26053339052739544,1.0270646939962789
0.48815866600489244,18:04:49.153547,18:04:33.480740,0,,0.12176757,0.0014956445,0.019459546,0.91214466,0.026053593,-0.4090391,0.40444374,0.10461065,0.9085604,0.06646104,-0.9941718,0.08488268,,0.082400404,-0.019377753,0.04156351,-0.22148976,-0.09190178,0.97082245,0.9751483,-0.0154747665,0.22101176,-0.0052882433,0.9956478,0.093045354,,0.10735384,1.346142,0.4449498,0.99602264,0.009219039,-0.08862205,-0.05011224,-0.7644486,-0.6427341,-0.07367239,0.64461875,-0.76094615,,-0.07688049,0.25450197,-0.08140101,-0.9045272,0.08612609,0.41762766,0.29953048,-0.5687461,0.76603484,0.3034997,0.81799155,0.48864895,,-0.021382418,0.44951963,-0.33508134,0.24549717,-0.0441911,-0.9683895,0.72577834,0.67060953,0.15339029,0.6426328,-0.74049306,0.19670568,,0.9220479687851612,0.32518883586784564,0.20211883309000003,3.799372085996097,0.1729818087030476,-1.236366971364609,-0.40852350940183213,,-0.9862470471685895,0.05514803545483722,0.18755501494000001,-3.215595283335181,0.1307611302755265,0.9906452612108378,0.8526560252209374,,-0.046482481303738984,-0.07979645340118074,0.07698830152,-0.06345462529521684,,-1.5687197e-05,-5.7816505e-06,3.695488e-06,0.99999994,-1.3411045e-06,-1.1324883e-06,1.3411045e-06,1.0,-8.940697e-08,1.1473894e-06,1.1920929e-07,1.0,176,0.533,1,1,0.0,False,-0.2589247921273281,1.0270164137954993
0.541569998007617,18:04:49.192348,18:04:33.480740,0,,0.12172093,0.0014459193,0.019688457,0.911517,0.034111395,-0.4098449,0.40494573,0.09954405,0.908906,0.07180166,-0.9944482,0.076922745,,0.08234328,-0.019401021,0.041574597,-0.22148892,-0.0921143,0.9708025,0.9751489,-0.015580654,0.22100219,-0.0052318573,0.99562645,0.09327605,,0.1073833,1.3461413,0.444945,0.9960216,0.009203452,-0.088635154,-0.05013255,-0.76444876,-0.64273226,-0.07367239,0.64461875,-0.76094615,,-0.07688737,0.25461885,-0.08161099,-0.90447253,0.078037225,0.41933239,0.30343303,-0.57320714,0.7611583,0.299763,0.8156861,0.494771,,-0.021355115,0.44951624,-0.3351138,0.24550845,-0.04397982,-0.9683963,0.7258141,0.6705328,0.15355653,0.64258814,-0.7405751,0.19654265,,0.9223259871686332,0.3252969541280848,0.20186605654000003,3.7964364267873134,0.1683361677110226,-1.2286581831121839,-0.40803347720342964,,-0.9862238789699668,0.0550785308589692,0.18754334833000003,-3.215595283335181,0.13062449377576107,0.9908383578546749,0.852819369287072,,-0.046482481303738984,-0.07979645340118074,0.07698830152,-0.06345462529521684,,1.4044344e-05,-7.867813e-06,5.2452087e-06,0.99999994,-1.6856939e-05,-1.4279038e-05,1.6856939e-05,1.0,-1.6093254e-06,1.4290214e-05,1.6093254e-06,1.0,184,0.558,1,1,0.025,False,-0.2608908568385213,1.026726732590823
0.5804218630073592,18:04:49.220502,18:04:33.480740,0,,0.12173109,0.0014023036,0.019821912,0.9111051,0.039205723,-0.41030487,0.40521893,0.096897274,0.9090702,0.07539818,-0.99452186,0.072396636,,0.082339086,-0.01941099,0.041574597,-0.22154208,-0.09194301,0.97080666,0.9751371,-0.015612811,0.22105168,-0.0051672757,0.9956418,0.09311588,,0.1073833,1.3461413,0.444945,0.9960216,0.009203452,-0.088635154,-0.05013255,-0.76444876,-0.64273226,-0.07367239,0.64461875,-0.76094615,,-0.07691316,0.25467205,-0.081738755,-0.9044537,0.07292348,0.42029235,0.3060017,-0.57554007,0.7583644,0.29719767,0.81451565,0.49823466,,-0.021351228,0.44950932,-0.33512115,0.24555203,-0.044152398,-0.9683774,0.7258532,0.67050713,0.1534838,0.6425273,-0.7405881,0.19669256,,0.9224109372302497,0.3253355677924559,0.20172346464000002,3.794549217295953,0.1651935282164175,-1.2243803177842143,-0.4081968212695638,,-0.9862007107713441,0.05502447172884963,0.18753816317000002,-3.215595283335181,0.13048785727599563,0.9907047395379496,0.8526560252209376,,-0.046482481303738984,-0.07979645340118074,0.07698830152,-0.06345462529521684,,1.4044344e-05,-7.867813e-06,5.2452087e-06,0.99999994,-1.6856939e-05,-1.4279038e-05,1.6856939e-05,1.0,-1.6093254e-06,1.4290214e-05,1.6093254e-06,1.0,209,0.635,1,1,0.103,False,-0.26005676877922745,1.026340490984587
0.6086012970044976,18:04:49.290142,18:04:33.623028,0,,0.12188262,0.0012542456,0.020341307,0.90947485,0.061398976,-0.41120008,0.40509367,0.09171462,0.90966344,0.09356545,-0.9938905,0.058539778,,0.082313895,-0.019470833,0.04158944,-0.22154653,-0.091734424,0.9708253,0.97513604,-0.01555571,0.22106037,-0.0051770806,0.995662,0.092899814,,0.1073833,1.3461413,0.444945,0.9960216,0.009203452,-0.088635154,-0.05013255,-0.76444876,-0.64273226,-0.07367239,0.64461875,-0.76094615,,-0.077124365,0.25488934,-0.0822108,-0.9048403,0.05068439,0.42272353,0.31781167,-0.58027506,0.74985105,0.28330168,0.8128419,0.50894815,,-0.02132984,0.44947743,-0.33517554,0.24555773,-0.04436022,-0.96836644,0.7258461,0.67054725,0.15334226,0.6425331,-0.7405394,0.19685675,,0.9223800462987528,0.3257062589704187,0.20117902284000003,3.7865809994435407,0.14907042124409553,-1.2116413988487393,-0.4083601653356981,,-0.9861080379768534,0.054738730612503325,0.18749668189000002,-3.215595283335181,0.13021458427646476,0.9906008603847801,0.8520026489564005,,-0.046482481303738984,-0.07979645340118074,0.07698830152,-0.06345462529521684,,1.4044344e-05,-7.867813e-06,5.2452087e-06,0.99999994,-1.6856939e-05,-1.4279038e-05,1.6856939e-05,1.0,-1.6093254e-06,1.4290214e-05,1.6093254e-06,1.0,230,0.7,1,1,0.168,False,-0.26011634649774784,1.0259059691775718
0.6781737830024213,18:04:49.352709,18:04:33.623028,0,,0.12205803,0.001255542,0.020846605,0.90819794,0.07489515,-0.41178495,0.4050191,0.0907931,0.9097891,0.10552603,-0.99304944,0.052124113,,0.08230285,-0.019512914,0.041609168,-0.22174817,-0.09185246,0.97076815,0.97508794,-0.015182734,0.22129837,-0.0055879653,0.99565685,0.09293094,,0.1073833,1.3461413,0.444945,0.9960216,0.009203452,-0.088635154,-0.05013255,-0.76444876,-0.64273226,-0.07367239,0.64461875,-0.76094615,,-0.07735436,0.25520933,-0.08257248,-0.9048924,0.03716039,0.42401513,0.325604,-0.58116746,0.74580586,0.27413824,0.8129351,0.5137945,,-0.021322682,0.4494609,-0.3352198,0.24581183,-0.044232894,-0.9683078,0.72554713,0.6708251,0.15354161,0.6427736,-0.7402953,0.1969898,,0.9223800462987528,0.32691100529879774,0.20072661763000002,3.7813387508564276,0.1392325932609838,-1.2053345633255486,-0.40852350940183213,,-0.9861003152439792,0.05454566229064771,0.18746427464,-3.21601466322215,0.13021458427646476,0.9906008603847802,0.851675960824132,,-0.046482481303738984,-0.07979645340118074,0.07698830152,-0.06345462529521684,,1.4044344e-05,-7.867813e-06,5.2452087e-06,0.99999994,-1.6856939e-05,-1.4279038e-05,1.6856939e-05,1.0,-1.6093254e-06,1.4290214e-05,1.6093254e-06,1.0,238,0.726,1,1,0.193,False,-0.25975888018662197,1.0263887711853665
0.7408110910037067,18:04:49.390130,18:04:33.623028,0,,0.122162275,0.0012891889,0.021068126,0.9071564,0.08328788,-0.41246814,0.40520453,0.0914278,0.90964293,0.113473296,-0.99232244,0.04919064,,0.08230021,-0.019515581,0.041613042,-0.22174355,-0.09185335,0.9707691,0.97508895,-0.015176296,0.22129434,-0.005594045,0.99565685,0.09293039,,0.1073833,1.3461413,0.444945,0.9960216,0.009203452,-0.088635154,-0.05013255,-0.76444876,-0.64273226,-0.07367239,0.64461875,-0.76094615,,-0.07748161,0.25537315,-0.08270678,-0.90472984,0.028755222,0.4250142,0.3309703,-0.5806748,0.74382484,0.2681839,0.8136276,0.5158367,,-0.021320647,0.44946173,-0.33522472,0.2458081,-0.04423185,-0.9683088,0.7255434,0.67082995,0.15353821,0.64277923,-0.740291,0.19698755,,0.9224032144973754,0.32755971486023255,0.20054254445000003,3.777564331873706,0.1326740412722427,-1.2026002236326185,-0.4088501975341009,,-0.9861003152439792,0.05453793955777349,0.18745908948,-3.21601466322215,0.13021458427646476,0.9906008603847802,0.851675960824132,,-0.046482481303738984,-0.07979645340118074,0.07698830152,-0.06345462529521684,,1.4044344e-05,-7.867813e-06,5.2452087e-06,0.99999994,-1.6856939e-05,-1.4279038e-05,1.6856939e-05,1.0,-1.6093254e-06,1.4290214e-05,1.6093254e-06,1.0,251,0.766,1,1,0.233,False,-0.2599376133421849,1.0259542493783513
0.7782237049977994,18:04:49.429413,18:04:33.623028,0,,0.12227723,0.0013049096,0.021349221,0.90636975,0.09176385,-0.41239908,0.40449965,0.09329286,0.90976727,0.12195763,-0.99140084,0.047439337,,0.08229939,-0.019517802,0.041616738,-0.22173813,-0.09178243,0.97077703,0.97509015,-0.015153378,0.22129062,-0.005600214,0.9956637,0.092856154,,0.1073833,1.3461413,0.444945,0.9960216,0.009203452,-0.088635154,-0.05013255,-0.76444876,-0.64273226,-0.07367239,0.64461875,-0.76094615,,-0.07762648,0.25556156,-0.08289647,-0.90489984,0.020273725,0.4251415,0.33599737,-0.5791279,0.7427763,0.26127017,0.81498456,0.5172408,,-0.021320397,0.44946268,-0.33522898,0.2458036,-0.044302423,-0.9683067,0.7255397,0.67084616,0.15348458,0.64278513,-0.74027205,0.19703957,,0.9224109372302497,0.328262483551787,0.20029754564000002,3.7744189827214387,0.1252956702849089,-1.200830951320321,-0.40787013313729537,,-0.9861080379768534,0.054530216824899266,0.18745520061,-3.21601466322215,0.13021458427646476,0.9905191816446396,0.8518393048902664,,-0.046482481303738984,-0.07979645340118074,0.07698830152,-0.06345462529521684,,1.4044344e-05,-7.867813e-06,5.2452087e-06,0.99999994,-1.6856939e-05,-1.4279038e-05,1.6856939e-05,1.0,-1.6093254e-06,1.4290214e-05,1.6093254e-06,1.0,259,0.791,1,1,0.258,False,-0.2599971910607066,1.0258576889767925
0.8175157280056737,18:04:49.455020,18:04:33.830568,0,,0.12234312,0.0012921989,0.02153103,0.90592545,0.097989544,-0.41194272,0.40365744,0.09401083,0.91006744,0.12790415,-0.9907371,0.045612544,,0.0822989,-0.01952251,0.04161817,-0.22172424,-0.09178509,0.97077996,0.97509325,-0.015133947,0.22127849,-0.0056183934,0.99566376,0.092854545,,0.1073833,1.3461413,0.444945,0.9960216,0.009203452,-0.088635154,-0.05013255,-0.76444876,-0.64273226,-0.07367239,0.64461875,-0.76094615,,-0.0777123,0.25566655,-0.08303495,-0.90513325,0.014030655,0.42489636,0.33925107,-0.5784942,0.74179053,0.25620788,0.8155658,0.51885444,,-0.021320224,0.44946024,-0.33523327,0.24579237,-0.044299297,-0.9683097,0.7255286,0.6708606,0.15347439,0.642802,-0.7402592,0.19703281,,0.9224186599631239,0.3285791155996302,0.20012773165000003,3.7725317732300776,0.11983021029429128,-1.1989879548569622,-0.4072167568727584,,-0.9861080379768534,0.05450704862627659,0.18745260803000002,-3.21601466322215,0.13021458427646476,0.9905191816446396,0.8518393048902664,,-0.046482481303738984,-0.07979645340118074,0.07698830152,-0.06345462529521684,,1.4044344e-05,-7.867813e-06,5.2452087e-06,0.99999994,-1.6856939e-05,-1.4279038e-05,1.6856939e-05,1.0,-1.6093254e-06,1.4290214e-05,1.6093254e-06,1.0,272,0.831,1,1,0.298,False,-0.25880563669028556,1.0261473701814692
0.8430688030057354,18:04:49.489972,18:04:33.830568,0,,0.122416824,0.0012461394,0.021743685,0.9051842,0.107692696,-0.41114914,0.40225863,0.095244825,0.91055834,0.13722032,-0.98961127,0.042893767,,0.082298696,-0.019532867,0.04161781,-0.22177118,-0.09170891,0.97077644,0.9750829,-0.015180796,0.22132084,-0.0055600107,0.9956701,0.09279041,,0.1073833,1.3461413,0.444945,0.9960216,0.009203452,-0.088635154,-0.05013255,-0.76444876,-0.64273226,-0.07367239,0.64461875,-0.76094615,,-0.07781002,0.25576591,-0.083217576,-0.9054558,0.004292981,0.4244188,0.34429085,-0.5773601,0.74035066,0.24822079,0.8164784,0.521296,,-0.021320244,0.44945243,-0.3352401,0.24583068,-0.04437682,-0.9682964,0.72556406,0.670825,0.15346213,0.6427473,-0.74028677,0.1971076,,0.9224418281617466,0.3287258475242405,0.19991254751,3.769596114021294,0.11094883780953764,-1.1964014793047069,-0.40868685346796685,,-0.9861003152439792,0.05444526676328279,0.18745001545,-3.21601466322215,0.13007794777669932,0.9904672420680548,0.8515126167579976,,-0.046482481303738984,-0.07979645340118074,0.07698830152,-0.06345462529521684,,1.4044344e-05,-7.867813e-06,5.2452087e-06,0.99999994,-1.6856939e-05,-1.4279038e-05,1.6856939e-05,1.0,-1.6093254e-06,1.4290214e-05,1.6093254e-06,1.0,280,0.857,1,1,0.324,False,-0.25975888018662197,1.0258576889767925
0.8780688859988004,18:04:49.521159,18:04:33.830568,0,,0.122441225,0.0011942536,0.021993026,0.9050892,0.114856,-0.40941596,0.40012324,0.09585008,0.91143525,0.14392637,-0.988747,0.04079631,,0.0823004,-0.019545995,0.0416196,-0.22164889,-0.09175642,0.97079986,0.9751117,-0.015359163,0.22118166,-0.005384296,0.995663,0.09287703,,0.1073833,1.3461413,0.444945,0.9960216,0.009203452,-0.088635154,-0.05013255,-0.76444876,-0.64273226,-0.07367239,0.64461875,-0.76094615,,-0.07786294,0.25588742,-0.08343642,-0.9061494,-0.0029063965,0.42294782,0.3470396,-0.5767329,0.7395558,0.24177848,0.8169276,0.52361476,,-0.021322524,0.44944394,-0.33525014,0.24568655,-0.044333454,-0.968335,0.72569525,0.6706933,0.15341738,0.64265424,-0.7404087,0.1969529,,0.9226580646822249,0.32887257944885073,0.19966236354000003,3.7685476643038713,0.10398037632150017,-1.1939046370816713,-0.4075434450050268,,-0.9861080379768534,0.05436803943454055,0.18744612658,-3.2158049732786655,0.12994131127693384,0.9905786599717512,0.8515126167579976,,-0.046482481303738984,-0.07979645340118074,0.07698830152,-0.06345462529521684,,1.4044344e-05,-7.867813e-06,5.2452087e-06,0.99999994,-1.6856939e-05,-1.4279038e-05,1.6856939e-05,1.0,-1.6093254e-06,1.4290214e-05,1.6093254e-06,1.0,293,0.897,1,1,0.364,False,-0.2598184579051428,1.0260025295791309
0.9092066879966296,18:04:49.558169,18:04:33.830568,0,,0.12241544,0.0011504143,0.022281453,0.90503305,0.11718039,-0.40888095,0.39950922,0.09571165,0.9117191,0.14597026,-0.98848766,0.03980747,,0.08230294,-0.019570492,0.041621685,-0.22212371,-0.092010096,0.9706673,0.97500134,-0.0150637925,0.22168761,-0.0057756603,0.9956441,0.09305595,,0.1073833,1.3461413,0.444945,0.9960216,0.009203452,-0.088635154,-0.05013255,-0.76444876,-0.64273226,-0.07367239,0.64461875,-0.76094615,,-0.07787012,0.2560432,-0.08368433,-0.90633297,-0.0052477545,0.4225317,0.34790674,-0.57679677,0.7390983,0.23983632,0.8168708,0.5245957,,-0.021325951,0.44942722,-0.33526802,0.24620695,-0.04407194,-0.96821475,0.7253841,0.67091507,0.15391842,0.64280635,-0.7402234,0.19715303,,0.9230287558601876,0.3291969342295682,0.19938366119000003,3.768128284416903,0.10193082882501858,-1.192396726006506,-0.408196821269564,,-0.9861080379768534,0.05422903024280451,0.18743964513000003,-3.216434043109119,0.12980467477716842,0.9906900778754477,0.8515126167579976,,-0.046482481303738984,-0.07979645340118074,0.07698830152,-0.06345462529521684,,1.4044344e-05,-7.867813e-06,5.2452087e-06,0.99999994,-1.6856939e-05,-1.4279038e-05,1.6856939e-05,1.0,-1.6093254e-06,1.4290214e-05,1.6093254e-06,1.0,301,0.923,1,1,0.39,False,-0.26011634649774784,1.0257611285752335
0.9462313090043608,18:04:49.577858,18:04:33.973074,0,,0.122405216,0.0011390895,0.022455752,0.9049995,0.11832505,-0.40862557,0.399253,0.095393926,0.91186464,0.14687683,-0.988382,0.0390898,,0.08230272,-0.019597419,0.04162401,-0.22219828,-0.09218581,0.9706336,0.974985,-0.015205622,0.22175023,-0.005683273,0.9956256,0.093258366,,0.1073833,1.3461413,0.444945,0.9960216,0.009203452,-0.088635154,-0.05013255,-0.76444876,-0.64273226,-0.07367239,0.64461875,-0.76094615,,-0.077879444,0.25614855,-0.08382372,-0.9064054,-0.006403971,0.4223604,0.34830406,-0.5770316,0.7387278,0.23898451,0.8166967,0.5252551,,-0.021326747,0.44940913,-0.3352881,0.24626786,-0.04389911,-0.9682071,0.7254402,0.6708118,0.15410396,0.64271975,-0.74032724,0.19704556,,0.9233685561066535,0.32968346640064433,0.19913347722000002,3.7672895246429645,0.10015455432806786,-1.1903765420774688,-0.4083601653356982,,-0.9861003152439792,0.054074575585320014,0.18743057110000003,-3.216434043109119,0.12953140177763753,0.9909129136828405,0.8515126167579976,,-0.046482481303738984,-0.07979645340118074,0.07698830152,-0.06345462529521684,,1.4044344e-05,-7.867813e-06,5.2452087e-06,0.99999994,-1.6856939e-05,-1.4279038e-05,1.6856939e-05,1.0,-1.6093254e-06,1.4290214e-05,1.6093254e-06,1.0,314,0.963,1,1,0.43,False,-0.26017592421626956,1.0257611285752335
0.9659557429986307,18:04:49.616295,18:04:33.973074,0,,0.12247328,0.0012076348,0.022886813,0.90451896,0.12211821,-0.4085735,0.39900726,0.095689416,0.9119413,0.15046076,-0.987892,0.037826777,,0.08230633,-0.019654073,0.04162991,-0.22233424,-0.09216493,0.97060436,0.9749509,-0.014707714,0.22193328,-0.0061792135,0.99563503,0.09312628,,0.1073833,1.3461413,0.444945,0.9960216,0.009203452,-0.088635154,-0.05013255,-0.76444876,-0.64273226,-0.07367239,0.64461875,-0.76094615,,-0.077993065,0.2564771,-0.08409629,-0.90632874,-0.010220374,0.4224497,0.35047516,-0.5766974,0.7379616,0.2360834,0.81689394,0.5262594,,-0.021332609,0.44937146,-0.3353306,0.24646877,-0.04390807,-0.96815556,0.725089,0.6711807,0.15415038,0.6430389,-0.73999226,0.19726235,,0.9236156835586287,0.33079553993453265,0.19887421922,3.766450764869026,0.098651552830648,-1.189150945136808,-0.4083601653356982,,-0.9861003152439792,0.05377338900322526,0.18741371933,-3.2168534229960883,0.12953140177763753,0.9907495562025593,0.8511859286257291,,-0.046482481303738984,-0.07979645340118074,0.07698830152,-0.06345462529521684,,1.4044344e-05,-7.867813e-06,5.2452087e-06,0.99999994,-1.6856939e-05,-1.4279038e-05,1.6856939e-05,1.0,-1.6093254e-06,1.4290214e-05,1.6093254e-06,1.0,331,1.016,1,1,0.483,False,-0.2607121236829584,1.0255197275713361
1.004375874006655,18:04:49.691009,18:04:33.973074,0,,0.1227038,0.0013794899,0.023204625,0.9032521,0.1373018,-0.40655074,0.39731845,0.090278,0.91322947,0.16209063,-0.98640656,0.026991248,,0.08231136,-0.01976382,0.041637123,-0.22238126,-0.09247564,0.9705641,0.97494054,-0.014833361,0.22197068,-0.006130278,0.9956044,0.09345685,,0.1073833,1.3461413,0.444945,0.9960216,0.009203452,-0.088635154,-0.05013255,-0.76444876,-0.64273226,-0.07367239,0.64461875,-0.76094615,,-0.07825328,0.2568013,-0.08420038,-0.9063909,-0.025593756,0.42166397,0.35682884,-0.5806652,0.73177946,0.2261166,0.8137401,0.53544223,,-0.021341426,0.4492957,-0.33541,0.24650845,-0.04359946,-0.96815944,0.72511804,0.6710909,0.15440486,0.642991,-0.740092,0.19704433,,0.9235616244285091,0.33240186837237135,0.19867588685,3.7626763458863053,0.08881372484753629,-1.177534991504481,-0.4096669178647725,,-0.9860848697782307,0.0531555703732873,0.18738260837,-3.2168534229960883,0.12884821927881035,0.9911432882407605,0.8511859286257292,,-0.046482481303738984,-0.07979645340118074,0.07698830152,-0.06345462529521684,,1.4044344e-05,-7.867813e-06,5.2452087e-06,0.99999994,-1.6856939e-05,-1.4279038e-05,1.6856939e-05,1.0,-1.6093254e-06,1.4290214e-05,1.6093254e-06,1.0,344,1.058,1,1,0.525,False,-0.2599376133421849,1.0250369255635419
1.0234758959995816,18:04:49.722121,18:04:34.098337,0,,0.12281081,0.0014135242,0.023306414,0.90228593,0.14631721,-0.40555024,0.39712018,0.08417261,0.9138986,0.16785526,-0.98565006,0.017842144,,0.08231346,-0.019822039,0.0416376,-0.22259238,-0.09255286,0.97050834,0.97489184,-0.014800489,0.22218633,-0.006200105,0.9955977,0.09352346,,0.1073833,1.3461413,0.444945,0.9960216,0.009203452,-0.088635154,-0.05013255,-0.76444876,-0.64273226,-0.07367239,0.64461875,-0.76094615,,-0.07837007,0.25688744,-0.08424418,-0.9060711,-0.03477349,0.4216941,0.3604808,-0.58529407,0.7262812,0.22155973,0.8100751,0.54285324,,-0.021345092,0.4492533,-0.33544976,0.24672574,-0.043521207,-0.9681076,0.7250506,0.67111605,0.15461183,0.6429836,-0.74007374,0.19713669,,0.923384001572402,0.3328575096119506,0.19860329461,3.760160066564491,0.08403144735574587,-1.1684079255061102,-0.4086868534679666,,-0.986061701579608,0.05282349285969565,0.18736834918000003,-3.217063112939573,0.128438309779514,0.991232505731428,0.8506958964273265,,-0.046482481303738984,-0.07979645340118074,0.07698830152,-0.06345462529521684,,1.4044344e-05,-7.867813e-06,5.2452087e-06,0.99999994,-1.6856939e-05,-1.4279038e-05,1.6856939e-05,1.0,-1.6093254e-06,1.4290214e-05,1.6093254e-06,1.0,353,1.085,0,1,0.543,False,-0.2607121236829584,1.0243127225518498
1.0545999080059119,18:04:49.752858,18:04:34.098337,0,,0.12291863,0.0014178306,0.023385212,0.9003723,0.1612874,-0.40412346,0.39695632,0.07589528,0.9146943,0.17819971,-0.9839848,0.0043098927,,0.08230039,-0.019853987,0.041636765,-0.22321007,-0.091931686,0.9704255,0.9747703,-0.02062723,0.22225535,-0.00041523576,0.9955516,0.094216436,,0.1073833,1.3461413,0.444945,0.9960216,0.009203452,-0.088635154,-0.05013255,-0.76444876,-0.64273226,-0.07367239,0.64461875,-0.76094615,,-0.078485794,0.256936,-0.08428999,-0.90531427,-0.05001955,0.42178684,0.36718938,-0.5913045,0.7180049,0.21349016,0.8048957,0.55368304,,-0.02133286,0.4492303,-0.33547246,0.2465511,-0.044282135,-0.9681176,0.72892994,0.66677827,0.1551383,0.6386499,-0.7439394,0.19667348,,0.9232372696477917,0.3329810733379382,0.19853459124000003,3.7553371978643466,0.07487680187146135,-1.1552254141486107,-0.4090135416002354,,-0.986023087915237,0.05240646528448752,0.18734760854000002,-3.213917763787305,0.12310948628866183,0.9923923331101066,0.8498791760966549,,-0.046482481303738984,-0.07979645340118074,0.07698830152,-0.06345462529521684,,1.4044344e-05,-7.867813e-06,5.2452087e-06,0.99999994,-1.6856939e-05,-1.4279038e-05,1.6856939e-05,1.0,-1.6093254e-06,1.4290214e-05,1.6093254e-06,1.0,366,1.127,0,1,0.543,False,-0.2589843698458485,1.0248438047604238
1.0852848240028834,18:04:49.784282,18:04:34.098337,0,,0.12301165,0.001394093,0.023439288,0.8970607,0.1769168,-0.40494722,0.39935267,0.06779736,0.9142872,0.1892071,-0.9818879,-0.009833902,,0.08229539,-0.0198896,0.041641355,-0.22405285,-0.0906741,0.97034967,0.97457695,-0.021182895,0.22304948,0.0003299117,0.9956552,0.09311491,,0.1073833,1.3461413,0.444945,0.9960216,0.009203452,-0.088635154,-0.05013255,-0.76444876,-0.64273226,-0.07367239,0.64461875,-0.76094615,,-0.07858472,0.25694808,-0.084336974,-0.90318346,-0.065964185,0.4241561,0.37634563,-0.59693444,0.70854306,0.2064549,0.79957366,0.56396663,,-0.02132946,0.44920778,-0.33550066,0.24727987,-0.045556236,-0.96787256,0.72935575,0.6663498,0.15497763,0.6378815,-0.7442463,0.19800161,,0.9230596467916845,0.33291929147494437,0.19847496190000002,3.7475786699554194,0.06613206588647318,-1.1422137990219192,-0.40803347720342986,,-0.9859999197166143,0.05215933783251234,0.18733075677000002,-3.2141274537307893,0.12174312129100744,0.9913011861632757,0.8503692082950579,,-0.046482481303738984,-0.07979645340118074,0.07698830152,-0.06345462529521684,,1.4044344e-05,-7.867813e-06,5.2452087e-06,0.99999994,-1.6856939e-05,-1.4279038e-05,1.6856939e-05,1.0,-1.6093254e-06,1.4290214e-05,1.6093254e-06,1.0,375,1.155,1,2,0.561,False,-0.2594014138754961,1.0244092829534086
1.116765837999992,18:04:49.816267,18:04:34.098337,0,,0.123143256,0.0013210624,0.02358231,0.8953647,0.19137819,-0.40211466,0.39883852,0.057092994,0.9152422,0.19811532,-0.9798544,-0.025210023,,0.08229026,-0.019917049,0.041650176,-0.2240533,-0.09068628,0.97034836,0.97457683,-0.021183461,0.2230499,0.00032761693,0.9956541,0.09312692,,0.1073833,1.3461413,0.444945,0.9960216,0.009203452,-0.088635154,-0.05013255,-0.76444876,-0.64273226,-0.07367239,0.64461875,-0.76094615,,-0.07873293,0.25697854,-0.08447918,-0.90249234,-0.08080026,0.423059,0.38184285,-0.6045162,0.699111,0.19925766,0.79248434,0.57642424,,-0.021326296,0.44919407,-0.33552632,0.24728063,-0.045544032,-0.9678729,0.7293542,0.66634953,0.15498617,0.637883,-0.74424726,0.19799307,,0.922627173750728,0.3329810733379382,0.19831681452000002,3.7438042509726976,0.05820714890007763,-1.127093614152627,-0.40868685346796685,,-0.9859921969837401,0.0520203286407763,0.18731390500000003,-3.2141274537307893,0.121606484791242,0.9913309253268314,0.8505325523611922,,-0.046482481303738984,-0.07979645340118074,0.07698830152,-0.06345462529521684,,1.4044344e-05,-7.867813e-06,5.2452087e-06,0.99999994,-1.6856939e-05,-1.4279038e-05,1.6856939e-05,1.0,-1.6093254e-06,1.4290214e-05,1.6093254e-06,1.0,388,1.196,1,2,0.599,False,-0.2588652144088064,1.0252783265674388
1.148714947004919,18:04:49.854699,18:04:34.227873,0,,0.123180695,0.0012734532,0.023639902,0.8959745,0.19023317,-0.40129864,0.39864826,0.053732157,0.91552854,0.19572653,-0.9802673,-0.02769345,,0.08227968,-0.019929342,0.041656673,-0.22402854,-0.09058253,0.9703638,0.9745825,-0.0211204,0.22303094,0.00029164553,0.9956649,0.09301166,,0.1073833,1.3461413,0.444945,0.9960216,0.009203452,-0.088635154,-0.05013255,-0.76444876,-0.64273226,-0.07367239,0.64461875,-0.76094615,,-0.07877756,0.2569779,-0.084549844,-0.9028392,-0.07969306,0.42252856,0.38011163,-0.60726815,0.69766796,0.20098884,0.79049,0.5785577,,-0.021317014,0.44919026,-0.33554065,0.24726112,-0.045646615,-0.9678731,0.72933215,0.66639537,0.15489303,0.6379158,-0.7442,0.1980652,,0.9221406415796518,0.3332050325912907,0.19820274100000002,3.745901150407543,0.06244288039280628,-1.1233598400348468,-0.4096669178647724,,-0.9859613060522432,0.05197399224353095,0.18729964581000003,-3.2141274537307893,0.121606484791242,0.9912492465866909,0.8500425201627894,,-0.046482481303738984,-0.07979645340118074,0.07698830152,-0.06345462529521684,,1.4044344e-05,-7.867813e-06,5.2452087e-06,0.99999994,-1.6856939e-05,-1.4279038e-05,1.6856939e-05,1.0,-1.6093254e-06,1.4290214e-05,1.6093254e-06,1.0,401,1.238,0,2,0.599,False,-0.2596993024681016,1.0251334859651007
1.1871600080048665,18:04:49.912820,18:04:34.227873,0,,0.123455174,0.0010875314,0.024053141,0.8972103,0.1876156,-0.3997672,0.39927393,0.04210645,0.9158643,0.18866321,-0.9813395,-0.037131757,,0.08225225,-0.019932412,0.04166031,-0.22405285,-0.09047486,0.97036815,0.97457695,-0.021118104,0.22305562,0.00031131506,0.9956747,0.09290622,,0.1073833,1.3461413,0.444945,0.9960216,0.009203452,-0.088635154,-0.05013255,-0.76444876,-0.64273226,-0.07367239,0.64461875,-0.76094615,,-0.07910008,0.2570907,-0.084954716,-0.9032739,-0.07723707,0.4220554,0.37592405,-0.6166298,0.6916999,0.20682704,0.78345525,0.5860208,,-0.021290416,0.44919252,-0.33554855,0.24728242,-0.045754533,-0.96786255,0.7293432,0.6663958,0.15483925,0.6378949,-0.74419296,0.19815871,,0.920704213265046,0.334317106125179,0.197813854,3.748627119672842,0.06900143238154742,-1.1153942647693633,-0.4081968212695638,,-0.985853187792004,0.05199716044215363,0.18728020146000002,-3.2141274537307893,0.121606484791242,0.9912492465866909,0.850532552361192,,-0.046482481303738984,-0.07979645340118074,0.07698830152,-0.06345462529521684,,1.4044344e-05,-7.867813e-06,5.2452087e-06,0.99999994,-1.6856939e-05,-1.4279038e-05,1.6856939e-05,1.0,-1.6093254e-06,1.4290214e-05,1.6093254e-06,1.0,414,1.279,0,2,0.599,False,-0.25952056931253775,1.0251334859651007
1.2047902860067552,18:04:49.935201,18:04:34.227873,0,,0.123747,0.0010571182,0.024320096,0.89767516,0.1876477,-0.39870703,0.39860696,0.03994909,0.9162514,0.18786044,-0.9814236,-0.038936466,,0.08221293,-0.019944213,0.041664004,-0.22374651,-0.09029722,0.97045547,0.9746473,-0.021308362,0.22273026,0.00056672096,0.9956869,0.09277554,,0.1073833,1.3461413,0.444945,0.9960216,0.009203452,-0.088635154,-0.05013255,-0.76444876,-0.64273226,-0.07367239,0.64461875,-0.76094615,,-0.07942018,0.25722525,-0.08514652,-0.9036624,-0.077308536,0.42120978,0.37487108,-0.6183207,0.69076127,0.207041,0.7821144,0.5877339,,-0.021252284,0.44918925,-0.33556387,0.24694623,-0.04593707,-0.96793973,0.72954524,0.66625184,0.1545063,0.6377941,-0.7443106,0.19804154,,0.9194222396079248,0.335622247980923,0.19758052180000002,3.7500949492772335,0.07118761637779447,-1.1135830866623213,-0.4091768856663698,,-0.9856910104016453,0.0519894377092794,0.18725168308,-3.2137080738438204,0.121606484791242,0.9913309253268314,0.8505325523611922,,-0.046482481303738984,-0.07979645340118074,0.07698830152,-0.06345462529521684,,1.4044344e-05,-7.867813e-06,5.2452087e-06,0.99999994,-1.6856939e-05,-1.4279038e-05,1.6856939e-05,1.0,-1.6093254e-06,1.4290214e-05,1.6093254e-06,1.0,423,1.307,0,2,0.599,False,-0.2587460589717643,1.0251817661658802
1.2271319370047422,18:04:49.980896,18:04:34.354900,0,,0.12415647,0.0010716915,0.024707586,0.89789635,0.1890884,-0.39752674,0.39837384,0.03518948,0.9165479,0.18729731,-0.9813292,-0.04373145,,0.082170665,-0.01995992,0.041659236,-0.22374812,-0.090098485,0.9704736,0.9746469,-0.02124083,0.2227383,0.0005451739,0.9957063,0.09256677,,0.1073833,1.3461413,0.444945,0.9960216,0.009203452,-0.088635154,-0.05013255,-0.76444876,-0.64273226,-0.07367239,0.64461875,-0.76094615,,-0.07986945,0.2574658,-0.08538798,-0.9038253,-0.07885825,0.42057252,0.3743161,-0.62194455,0.6878026,0.2073339,0.77908045,0.59164715,,-0.021210184,0.44917765,-0.33557606,0.24695075,-0.04613477,-0.9679292,0.7295305,0.66629976,0.15436926,0.6378092,-0.7442555,0.19819994,,0.9177772975057149,0.33771510858983783,0.19726941220000002,3.751143398994656,0.07419361937263416,-1.108683193930992,-0.4088501975341009,,-0.9854824966140412,0.0519585467777825,0.18722705357000002,-3.2137080738438204,0.121606484791242,0.9913309253268314,0.8505325523611922,,-0.046482481303738984,-0.07979645340118074,0.07698830152,-0.06345462529521684,,1.4044344e-05,-7.867813e-06,5.2452087e-06,0.99999994,-1.6856939e-05,-1.4279038e-05,1.6856939e-05,1.0,-1.6093254e-06,1.4290214e-05,1.6093254e-06,1.0,436,1.349,0,2,0.599,False,-0.2593418361569748,1.0248920849612033
1.2728625160088995,18:04:50.008384,18:04:34.354900,0,,0.1243649,0.0011140704,0.024926066,0.8979762,0.18982765,-0.3969935,0.3979845,0.034555912,0.91674113,0.18774126,-0.98120904,-0.044518113,,0.082106,-0.019982882,0.041647375,-0.22335659,-0.08967708,0.97060275,0.9747366,-0.021235079,0.22234589,0.0006713867,0.99574447,0.09215446,,0.1073833,1.3461413,0.444945,0.9960216,0.009203452,-0.088635154,-0.05013255,-0.76444876,-0.64273226,-0.07367239,0.64461875,-0.76094615,,-0.08009969,0.25762856,-0.085504055,-0.9039625,-0.07962038,0.42013383,0.37430546,-0.622387,0.6874081,0.20675413,0.7786495,0.5924168,,-0.021145131,0.44915754,-0.3355907,0.24654819,-0.046557173,-0.96801156,0.72965294,0.6662989,0.15379322,0.6378249,-0.7442299,0.19824538,,0.9170668060812863,0.3389430231168395,0.19710867224000003,3.7515627788816257,0.07501343837122681,-1.1076364478102187,-0.40803347720342964,,-0.9851504191004495,0.05191993311341138,0.18719335003,-3.213288693956851,0.12174312129100744,0.9913011861632757,0.8503692082950579,,-0.046482481303738984,-0.07979645340118074,0.07698830152,-0.06345462529521684,,1.4044344e-05,-7.867813e-06,5.2452087e-06,0.99999994,-1.6856939e-05,-1.4279038e-05,1.6856939e-05,1.0,-1.6093254e-06,1.4290214e-05,1.6093254e-06,1.0,445,1.376,0,2,0.599,False,-0.2590439475643693,1.0248920849612033
1.300352661011857,18:04:50.037942,18:04:34.354900,0,,0.12462254,0.0011582226,0.0252693,0.8975825,0.19380355,-0.39596164,0.39806303,0.029689312,0.9168775,0.18944995,-0.98059094,-0.050497472,,0.08202204,-0.02001413,0.0416345,-0.2235952,-0.08968118,0.97054744,0.9746817,-0.02152431,0.22255874,0.00093090534,0.9957378,0.09222329,,0.1073833,1.3461413,0.444945,0.9960216,0.009203452,-0.088635154,-0.05013255,-0.76444876,-0.64273226,-0.07367239,0.64461875,-0.76094615,,-0.080392554,0.2578711,-0.0857079,-0.90375787,-0.08374936,0.41977105,0.37549785,-0.62589043,0.68356603,0.20548247,0.7754013,0.59710115,,-0.021061042,0.44913214,-0.33561248,0.24674796,-0.04655977,-0.96796054,0.7298063,0.6660832,0.1539996,0.6375721,-0.7444228,0.19833429,,0.916263641862367,0.3405725197533009,0.19684163650000003,3.750933709051172,0.07528671137075768,-1.1013249844063666,-0.40672672467435544,,-0.9845403232033858,0.05177320118880111,0.18712594295,-3.213288693956851,0.12105993879218024,0.9922666693824603,0.8502058642289234,,-0.046482481303738984,-0.07979645340118074,0.07698830152,-0.06345462529521684,,1.4044344e-05,-7.867813e-06,5.2452087e-06,0.99999994,-1.6856939e-05,-1.4279038e-05,1.6856939e-05,1.0,-1.6093254e-06,1.4290214e-05,1.6093254e-06,1.0,458,1.417,0,2,0.599,False,-0.2585077480976805,1.0255197275713361
1.3298966900038067,18:04:50.074759,18:04:34.354900,0,,0.124821156,0.0011833161,0.025705755,0.8974001,0.19595131,-0.39531747,0.3982224,0.0260728,0.9169184,0.18997836,-0.9802668,-0.05463454,,0.081861995,-0.020118602,0.04159689,-0.22329664,-0.0890961,0.97067004,0.9747499,-0.021545678,0.22225754,0.0011113882,0.9957899,0.091657445,,0.1073833,1.3461413,0.444945,0.9960216,0.009203452,-0.088635154,-0.05013255,-0.76444876,-0.64273226,-0.07367239,0.64461875,-0.76094615,,-0.08063747,0.25816303,-0.08600004,-0.9036313,-0.0860011,0.41958818,0.37597227,-0.62853765,0.68087095,0.20517133,0.77300984,0.6003004,,-0.020900156,0.449042,-0.3356752,0.24642959,-0.047146864,-0.9680132,0.7299566,0.6660599,0.15338662,0.6375231,-0.7444067,0.19855204,,0.9156998823625485,0.34255726210197657,0.19639182387,3.750304639220718,0.07528671137075768,-1.0938105403134348,-0.4083601653356983,,-0.9838298317789572,0.051441123675209456,0.18705594329000003,-3.212869314069882,0.12105993879218024,0.9921849906423199,0.8506958964273265,,-0.046482481303738984,-0.07979645340118074,0.07698830152,-0.06345462529521684,,1.4044344e-05,-7.867813e-06,5.2452087e-06,0.99999994,-1.6856939e-05,-1.4279038e-05,1.6856939e-05,1.0,-1.6093254e-06,1.4290214e-05,1.6093254e-06,1.0,471,1.459,0,2,0.599,False,-0.259282258438454,1.0249886453627624
1.3667032560042571,18:04:50.121123,18:04:34.354900,0,,0.124930434,0.0011674911,0.026090205,0.8969332,0.20457737,-0.3919931,0.3968747,0.018368095,0.917689,0.19493856,-0.978678,-0.0647167,,0.08175209,-0.020212017,0.04156834,-0.22305131,-0.0888423,0.97074974,0.9748058,-0.021747679,0.22199294,0.0013890564,0.99580824,0.09145479,,0.1073833,1.3461413,0.444945,0.9960216,0.009203452,-0.088635154,-0.05013255,-0.76444876,-0.64273226,-0.07367239,0.64461875,-0.76094615,,-0.08078881,0.25839508,-0.08628856,-0.903745,-0.09492196,0.4174144,0.37820277,-0.63381547,0.6747152,0.2005184,0.7676378,0.6087073,,-0.020789878,0.4489624,-0.33573106,0.24615048,-0.047405973,-0.9680716,0.73016775,0.665906,0.15304986,0.63738924,-0.74452794,0.1985274,,0.9156998823625485,0.34317508073191455,0.19613904732,3.7496755693902646,0.072280708375918,-1.0856418346222743,-0.4075434450050268,,-0.9832197358818935,0.05105498703149823,0.18699242508000002,-3.212449934182913,0.12065002929288392,0.9926826018336903,0.850369208295058,,-0.046482481303738984,-0.07979645340118074,0.07698830152,-0.06345462529521684,,1.4044344e-05,-7.867813e-06,5.2452087e-06,0.99999994,-1.6856939e-05,-1.4279038e-05,1.6856939e-05,1.0,-1.6093254e-06,1.4290214e-05,1.6093254e-06,1.0,480,1.487,0,2,0.599,False,-0.25922268071993226,1.0247955245596445
1.413084528001491,18:04:50.147740,18:04:34.515985,0,,0.12495376,0.0010947138,0.026352376,0.8961972,0.21293482,-0.38921592,0.39661688,0.00860098,0.91794395,0.19880988,-0.9770285,-0.07674536,,0.08162092,-0.020323656,0.041540146,-0.2223772,-0.088237375,0.97095954,0.97495914,-0.021933913,0.22129995,0.0017699599,0.9958579,0.0909054,,0.1073833,1.3461413,0.444945,0.9960216,0.009203452,-0.088635154,-0.05013255,-0.76444876,-0.64273226,-0.07367239,0.64461875,-0.76094615,,-0.080842555,0.25850916,-0.08653079,-0.9034465,-0.10362933,0.41598728,0.3805656,-0.64060163,0.6669328,0.19736832,0.7608486,0.618187,,-0.020659046,0.44887128,-0.3358021,0.24543524,-0.048016712,-0.9682231,0.73048866,0.6657591,0.15215512,0.6372973,-0.7446202,0.1984764,,0.9157693869584166,0.34342220818388974,0.19587330787,3.747998049842388,0.06886479588178199,-1.0732182956932772,-0.40738010093889254,,-0.9824937989917163,0.050599345791918986,0.18691075881000002,-3.2116111744089753,0.12037675629335302,0.9929871163812236,0.8502058642289236,,-0.046482481303738984,-0.07979645340118074,0.07698830152,-0.06345462529521684,,1.4044344e-05,-7.867813e-06,5.2452087e-06,0.99999994,-1.6856939e-05,-1.4279038e-05,1.6856939e-05,1.0,-1.6093254e-06,1.4290214e-05,1.6093254e-06,1.0,493,1.528,0,2,0.599,False,-0.25910352528289105,1.0245058433549676
1.4397101100039436,18:04:50.190543,18:04:34.515985,0,,0.12497072,0.0008776784,0.026852548,0.895715,0.22395684,-0.38410628,0.3960387,-0.009180844,0.918188,0.20210809,-0.97455573,-0.096919,,0.08143172,-0.020459004,0.041496754,-0.2213766,-0.08763075,0.9712431,0.9751855,-0.022305608,0.2202627,0.0023622215,0.99590325,0.09039411,,0.1073833,1.3461413,0.444945,0.9960216,0.009203452,-0.088635154,-0.05013255,-0.76444876,-0.64273226,-0.07367239,0.64461875,-0.76094615,,-0.08091948,0.25866908,-0.08704659,-0.9033442,-0.115256555,0.41314062,0.38229913,-0.653071,0.65371686,0.19446498,0.7484746,0.6340104,,-0.020469299,0.44875675,-0.33588508,0.24436991,-0.048633374,-0.96846175,0.7309824,0.66547346,0.15102908,0.6371405,-0.7448355,0.19817184,,0.9157307732940455,0.34364616743724224,0.19533016236000003,3.7469496001249656,0.0658587928869423,-1.0523893852803297,-0.40852350940183246,,-0.981451230053696,0.05008192268934594,0.18680187045000002,-3.210353034748068,0.12010348329382216,0.9937000246294598,0.8498791760966549,,-0.046482481303738984,-0.07979645340118074,0.07698830152,-0.06345462529521684,,1.4044344e-05,-7.867813e-06,5.2452087e-06,0.99999994,-1.6856939e-05,-1.4279038e-05,1.6856939e-05,1.0,-1.6093254e-06,1.4290214e-05,1.6093254e-06,1.0,506,1.57,0,2,0.599,False,-0.25975888018662197,1.0226229155245687
1.4824835480103502,18:04:50.230478,18:04:34.515985,0,,0.12500343,0.0007635206,0.027169198,0.8951322,0.22649732,-0.38397536,0.39686036,-0.012504637,0.91779387,0.20307639,-0.97393143,-0.1010811,,0.08121247,-0.020572923,0.041447043,-0.22095877,-0.087292306,0.9713687,0.9752803,-0.022178948,0.21985544,0.0023520887,0.9959358,0.09003505,,0.1073833,1.3461413,0.444945,0.9960216,0.009203452,-0.088635154,-0.05013255,-0.76444876,-0.64273226,-0.07367239,0.64461875,-0.76094615,,-0.0809895,0.25878674,-0.087355845,-0.90285325,-0.11792499,0.41346064,0.3835834,-0.65532273,0.6507042,0.19421588,0.746087,0.6368943,,-0.02024839,0.44865587,-0.3359524,0.2439599,-0.048969682,-0.9685482,0.73101413,0.6655633,0.15047854,0.6372612,-0.74473315,0.1981683,,0.9156072095680579,0.3440091358823308,0.19499960841000002,3.7456914604640583,0.06572215638717686,-1.0482757091097454,-0.40803347720342953,,-0.9802619291910655,0.049726676977131616,0.18668650064000003,-3.2099336548610986,0.12010348329382216,0.9945984907710061,0.8484090795014465,,-0.046482481303738984,-0.07979645340118074,0.07698830152,-0.06345462529521684,,1.4044344e-05,-7.867813e-06,5.2452087e-06,0.99999994,-1.6856939e-05,-1.4279038e-05,1.6856939e-05,1.0,-1.6093254e-06,1.4290214e-05,1.6093254e-06,1.0,515,1.597,0,2,0.599,False,-0.2583885926606384,1.021802152111318
1.5224425440101186,18:04:50.262277,18:04:34.639643,0,,0.1251183,0.0007250756,0.02761361,0.8956354,0.23028605,-0.38053277,0.39462087,-0.016691536,0.91869247,0.20521039,-0.97297966,-0.105825245,,0.08103563,-0.020645104,0.041412175,-0.22014204,-0.08680159,0.971598,0.9754636,-0.022513658,0.21900654,0.0028639734,0.99597114,0.08962794,,0.1073833,1.3461413,0.444945,0.9960216,0.009203452,-0.088635154,-0.05013255,-0.76444876,-0.64273226,-0.07367239,0.64461875,-0.76094615,,-0.08115352,0.25904033,-0.08770362,-0.9036394,-0.12188938,0.41058353,0.38324687,-0.65808403,0.6481105,0.19120069,0.743013,0.64138436,,-0.020070402,0.44859242,-0.33599707,0.24308644,-0.049469233,-0.9687424,0.73143536,0.66530645,0.14956486,0.6371117,-0.7449296,0.19791053,,0.9154450321776991,0.3451134866833449,0.19459646222000002,3.7469496001249656,0.06380924539046068,-1.0423052064904055,-0.4077067890711611,,-0.9793352012461585,0.049549054121024456,0.18659446405000002,-3.208885205143676,0.12010348329382216,0.9952519206921304,0.8474290151046406,,-0.046482481303738984,-0.07979645340118074,0.07698830152,-0.06345462529521684,,1.4044344e-05,-7.867813e-06,5.2452087e-06,0.99999994,-1.6856939e-05,-1.4279038e-05,1.6856939e-05,1.0,-1.6093254e-06,1.4290214e-05,1.6093254e-06,1.0,528,1.638,0,2,0.599,False,-0.2587460589717643,1.021802152111318
1.5542320320091676,18:04:50.305855,18:04:34.639643,0,,0.12529396,0.00081834197,0.028115451,0.89659494,0.23173514,-0.3773806,0.39203158,-0.018966854,0.9197563,0.2059821,-0.9725939,-0.107853115,,0.08078009,-0.020747252,0.04136026,-0.21980292,-0.08621406,0.97172713,0.9755399,-0.022425026,0.2186757,0.002938062,0.99602413,0.089034304,,0.1073833,1.3461413,0.444945,0.9960216,0.009203452,-0.088635154,-0.05013255,-0.76444876,-0.64273226,-0.07367239,0.64461875,-0.76094615,,-0.08138129,0.25942773,-0.088002704,-0.90473646,-0.123423316,0.40769917,0.38173434,-0.65963656,0.6474245,0.18902601,0.74138135,0.6439122,,-0.019812936,0.44850126,-0.33605897,0.24274251,-0.050056018,-0.96879846,0.7315164,0.665364,0.1489109,0.63714975,-0.74483895,0.19812892,,0.9153214684517116,0.34711367449776903,0.19421016780000003,3.749256189503295,0.06367260889069525,-1.038436566540243,-0.40738010093889254,,-0.9779837229931693,0.04930192666904927,0.18646353876000002,-3.2084658252567073,0.12010348329382216,0.9960687080935362,0.8471023269723723,,-0.046482481303738984,-0.07979645340118074,0.07698830152,-0.06345462529521684,,1.4044344e-05,-7.867813e-06,5.2452087e-06,0.99999994,-1.6856939e-05,-1.4279038e-05,1.6856939e-05,1.0,-1.6093254e-06,1.4290214e-05,1.6093254e-06,1.0,541,1.68,0,2,0.599,False,-0.2589843698458485,1.0216573115089795
1.5978242510027485,18:04:50.338773,18:04:34.639643,0,,0.12561215,0.0010895729,0.028656885,0.8985138,0.23235053,-0.37240556,0.38761213,-0.021861762,0.92156327,0.20598423,-0.97238636,-0.10970503,,0.080562085,-0.0208795,0.04129857,-0.21923658,-0.085805625,0.97189134,0.9756675,-0.02222991,0.21812576,0.0028885603,0.9960638,0.08859129,,0.107339114,1.3461404,0.44494456,0.9960248,0.009251721,-0.08859456,-0.050069656,-0.7644482,-0.64273787,-0.07367239,0.64461875,-0.76094615,,-0.081716016,0.2599645,-0.08820845,-0.9067692,-0.124121524,0.40294343,0.3782376,-0.66173804,0.6473323,0.1862951,0.73938936,0.6469911,,-0.019556042,0.44837946,-0.33613363,0.24213049,-0.050462503,-0.96893054,0.73154324,0.66550463,0.1481488,0.63735175,-0.74468595,0.19805446,,0.9149971136709941,0.35032633137344643,0.1938860953,3.7538693682599553,0.0644924278892879,-1.033632598373004,-0.4075434450050268,,-0.9772577861029921,0.048892621826715374,0.18639872426,-3.2080464453697384,0.12010348329382216,0.996477101794239,0.8462856066417009,,-0.046482481303738984,-0.07979645340118074,0.07698830152,-0.06345462529521684,,-2.9880553e-05,-7.987022e-06,1.013279e-05,0.99999994,3.119558e-05,2.642721e-05,-3.1191856e-05,1.0,3.0100346e-06,-2.6416034e-05,-3.0100346e-06,1.0,554,1.721,0,2,0.599,False,-0.26017592421626956,1.0205468668910522
1.630673828010913,18:04:50.375766,18:04:34.639643,0,,0.12573871,0.001210615,0.028825983,0.8988383,0.23110722,-0.37239632,0.38718525,-0.02056247,0.9217726,0.20537089,-0.9727109,-0.10796377,,0.08056769,-0.020919017,0.041291833,-0.2192662,-0.08577992,0.97188693,0.97566164,-0.021915376,0.21818353,0.0025834441,0.996073,0.088497415,,0.107339114,1.3461404,0.44494456,0.9960248,0.009251721,-0.08859456,-0.050069656,-0.7644482,-0.64273787,-0.07367239,0.64461875,-0.76094615,,-0.08185768,0.26015922,-0.08824416,-0.90703356,-0.122820996,0.40274695,0.37749743,-0.6608964,0.6486229,0.18650949,0.74035865,0.64581984,,-0.019561704,0.44834557,-0.33615506,0.242201,-0.050481014,-0.96891195,0.73133427,0.665739,0.14812772,0.6375648,-0.7444752,0.19816114,,0.9148040453491385,0.3516005822976935,0.19380442903000003,3.7547081280338936,0.06599542938670773,-1.0346948378333833,-0.4075434450050267,,-0.9772346179043695,0.04866866257336286,0.18639742797000003,-3.208256135313223,0.12010348329382216,0.9963954230540983,0.8464489507078352,,-0.046482481303738984,-0.07979645340118074,0.07698830152,-0.06345462529521684,,-2.9880553e-05,-7.987022e-06,1.013279e-05,0.99999994,3.119558e-05,2.642721e-05,-3.1191856e-05,1.0,3.0100346e-06,-2.6416034e-05,-3.0100346e-06,1.0,563,1.749,0,2,0.599,False,-0.25880563669028556,1.0195329826746835
1.667720959012513,18:04:50.410179,18:04:34.639643,0,,0.12592739,0.0013505816,0.02905713,0.89921397,0.23157261,-0.37119818,0.3860379,-0.020697147,0.92225075,0.20588523,-0.97259736,-0.1080071,,0.08060098,-0.020982139,0.041304052,-0.21966784,-0.08675887,0.97170925,0.97557247,-0.021687001,0.21860483,0.002107501,0.99599314,0.08940345,,0.107339114,1.3461404,0.44494456,0.9960248,0.009251721,-0.08859456,-0.050069656,-0.7644482,-0.64273787,-0.07367239,0.64461875,-0.76094615,,-0.0820675,0.2604052,-0.088308044,-0.90748954,-0.123298995,0.401572,0.37694204,-0.6609502,0.64889103,0.18541147,0.7402312,0.64628196,,-0.01959798,0.44830528,-0.33620307,0.24266092,-0.049494673,-0.96884775,0.7309758,0.6659238,0.14906324,0.63780093,-0.74437606,0.1977731,,0.91444107690405,0.3532223562012806,0.19368128148000002,3.7557565777513156,0.0665419753857695,-1.0336702921256389,-0.40787013313729537,,-0.9773813498289797,0.04828252592965163,0.18639094652000002,-3.208885205143676,0.11983021029429128,0.9971083313023346,0.8444888219142238,,-0.046482481303738984,-0.07979645340118074,0.07698830152,-0.06345462529521684,,-2.9880553e-05,-7.987022e-06,1.013279e-05,0.99999994,3.119558e-05,2.642721e-05,-3.1191856e-05,1.0,3.0100346e-06,-2.6416034e-05,-3.0100346e-06,1.0,576,1.791,0,2,0.599,False,-0.25922268071993226,1.018325977655197
1.7021254360006424,18:04:50.454210,18:04:34.814803,0,,0.12618653,0.0014509261,0.029318318,0.8946913,0.25326627,-0.36794484,0.38783085,-0.031762153,0.9211831,0.2216179,-0.9668749,-0.12664187,,0.080665216,-0.021071948,0.04132402,-0.21978986,-0.08753458,0.9716121,0.9755459,-0.021373123,0.21875417,0.0016177595,0.9959321,0.09009154,,0.107339114,1.3461404,0.44494456,0.9960248,0.009251721,-0.08859456,-0.050069656,-0.7644482,-0.64273787,-0.07367239,0.64461875,-0.76094615,,-0.082351536,0.26063687,-0.08841345,-0.9046903,-0.1457357,0.40037048,0.38878095,-0.6668043,0.63578403,0.17431234,0.7308441,0.6599107,,-0.019666646,0.44824842,-0.3362712,0.24284743,-0.048709936,-0.9688408,0.73063326,0.6661689,0.14964621,0.6381224,-0.7442085,0.1973665,,0.9140549402603387,0.35445799346115653,0.19351146749,3.746110840351028,0.05451796340641074,-1.0149625339250326,-0.40803347720342964,,-0.9776748136782003,0.04771876642983325,0.18638965023,-3.209304585030645,0.11955693729476038,0.9974945245900086,0.8441621337819551,,-0.046482481303738984,-0.07979645340118074,0.07698830152,-0.06345462529521684,,-2.9880553e-05,-7.987022e-06,1.013279e-05,0.99999994,3.119558e-05,2.642721e-05,-3.1191856e-05,1.0,3.0100346e-06,-2.6416034e-05,-3.0100346e-06,1.0,585,1.819,0,2,0.599,False,-0.259580147031059,1.0180845766512996
1.7461274470115313,18:04:50.476947,18:04:34.814803,0,,0.12624967,0.0014376789,0.029422864,0.893361,0.26388037,-0.36369365,0.3859878,-0.03629461,0.92178965,0.23004204,-0.9638722,-0.13427883,,0.0806974,-0.021138348,0.041338086,-0.21994436,-0.087667376,0.97156507,0.9755118,-0.020946294,0.21894777,0.0011560321,0.9959295,0.09012753,,0.107339114,1.3461404,0.44494456,0.9960248,0.009251721,-0.08859456,-0.050069656,-0.7644482,-0.64273787,-0.07367239,0.64461875,-0.76094615,,-0.08242611,0.26069134,-0.08849445,-0.9043392,-0.15671581,0.39700228,0.39293647,-0.6688689,0.631043,0.16664806,0.7266736,0.66646373,,-0.019702148,0.44820702,-0.33632284,0.2430621,-0.04856695,-0.9687941,0.7303065,0.66648906,0.14981562,0.6384146,-0.7439312,0.19746698,,0.9140626629932129,0.35448888439265347,0.19341424574000002,3.743594561029213,0.04618313692071887,-1.0066141457368802,-0.40852350940183246,,-0.9778215456028105,0.047324907053247794,0.1863805762,-3.209723964917614,0.11942030079499495,0.9973609062732833,0.8436721015835522,,-0.046482481303738984,-0.07979645340118074,0.07698830152,-0.06345462529521684,,-2.9880553e-05,-7.987022e-06,1.013279e-05,0.99999994,3.119558e-05,2.642721e-05,-3.1191856e-05,1.0,3.0100346e-06,-2.6416034e-05,-3.0100346e-06,1.0,598,1.86,0,2,0.599,False,-0.2593418361569748,1.0177466152458434
1.7688970790040912,18:04:50.522326,18:04:34.814803,0,,0.12630688,0.0013774335,0.02969186,0.88605136,0.29317915,-0.3591082,0.38747448,-0.043076336,0.92087346,0.25451186,-0.95508647,-0.15176728,,0.08071019,-0.021234296,0.04134363,-0.2200289,-0.087768525,0.9715369,0.9754932,-0.020394623,0.21908247,0.00058555603,0.99593204,0.09010497,,0.107339114,1.3461404,0.44494456,0.9960248,0.009251721,-0.08859456,-0.050069656,-0.7644482,-0.64273787,-0.07367239,0.64461875,-0.76094615,,-0.08251397,0.2608175,-0.08873029,-0.8997413,-0.18695045,0.39435413,0.41037884,-0.66990376,0.61872303,0.14850876,0.71852523,0.6794605,,-0.019718062,0.4481397,-0.33639076,0.2432226,-0.04845276,-0.9687596,0.72991234,0.6669016,0.14990091,0.6388042,-0.74356884,0.1975718,,0.9147036498217737,0.3541336386804391,0.19309146953000003,3.7266096756069667,0.020768747964346947,-0.9858087369092052,-0.4080334772034294,,-0.9778369910685589,0.0467920384849263,0.18635983556000002,-3.2101433448045835,0.11928366429522952,0.9973089666966987,0.8436721015835524,,-0.046482481303738984,-0.07979645340118074,0.07698830152,-0.06345462529521684,,-2.9880553e-05,-7.987022e-06,1.013279e-05,0.99999994,3.119558e-05,2.642721e-05,-3.1191856e-05,1.0,3.0100346e-06,-2.6416034e-05,-3.0100346e-06,1.0,611,1.902,0,2,0.599,False,-0.25856732581620134,1.0175534944427256
1.8142809300043155,18:04:50.559630,18:04:34.814803,0,,0.12629652,0.0013622344,0.029899761,0.8820146,0.30873534,-0.35599515,0.38772017,-0.046115667,0.9206228,0.26781183,-0.95002925,-0.16037765,,0.08070373,-0.021274827,0.04135257,-0.22014958,-0.087823614,0.97150457,0.975466,-0.02022931,0.21921854,0.0004002452,0.99593055,0.09012237,,0.107339114,1.3461404,0.44494456,0.9960248,0.009251721,-0.08859456,-0.050069656,-0.7644482,-0.64273787,-0.07367239,0.64461875,-0.76094615,,-0.08252697,0.26094177,-0.08889748,-0.89719146,-0.2030341,0.39220485,0.41943666,-0.6697726,0.6127622,0.13827646,0.7142701,0.6860742,,-0.019713921,0.44811657,-0.33642557,0.24336648,-0.048393693,-0.9687264,0.72977567,0.66702557,0.15001461,0.63890547,-0.7434615,0.1976482,,0.915128400129856,0.35410274774894224,0.19295535908000003,3.7215771169633385,0.012297284978889642,-0.9793908993208704,-0.40836016533569797,,-0.9778138228699363,0.04658352469732224,0.18633909492000003,-3.210353034748068,0.11914702779546407,0.9973387058602545,0.8438354456496867,,-0.046482481303738984,-0.07979645340118074,0.07698830152,-0.06345462529521684,,-2.9880553e-05,-7.987022e-06,1.013279e-05,0.99999994,3.119558e-05,2.642721e-05,-3.1191856e-05,1.0,3.0100346e-06,-2.6416034e-05,-3.0100346e-06,1.0,620,1.929,0,2,0.599,False,-0.26005676877922745,1.0172638132380487
1.8515531130105956,18:04:50.590071,18:04:34.973192,0,,0.12626238,0.0013719499,0.030119568,0.87766737,0.3221847,-0.3548193,0.3892972,-0.047421455,0.91989076,0.27954867,-0.9454883,-0.16704592,,0.080706686,-0.021301009,0.041369736,-0.22022645,-0.08754407,0.9715124,0.97544885,-0.019935936,0.2193223,0.00016766787,0.99596107,0.089785144,,0.107339114,1.3461404,0.44494456,0.9960248,0.009251721,-0.08859456,-0.050069656,-0.7644482,-0.64273787,-0.07367239,0.64461875,-0.76094615,,-0.08251705,0.26109394,-0.089059696,-0.89413077,-0.21692832,0.3917554,0.42850366,-0.668548,0.6078061,0.13005693,0.7113267,0.6907239,,-0.019719852,0.44810882,-0.33645546,0.24347366,-0.048667073,-0.96868575,0.729611,0.6672402,0.14986122,0.63905275,-0.74325097,0.19796345,,0.9158388915542846,0.35417225234481026,0.19276480445000002,3.713399209167442,0.002186183996247047,-0.972126119329022,-0.4086868534679666,,-0.9778678820000559,0.046452238238460425,0.18632094686000003,-3.2105627246915525,0.11914702779546407,0.9969303121595516,0.8436721015835522,,-0.046482481303738984,-0.07979645340118074,0.07698830152,-0.06345462529521684,,-2.9880553e-05,-7.987022e-06,1.013279e-05,0.99999994,3.119558e-05,2.642721e-05,-3.1191856e-05,1.0,3.0100346e-06,-2.6416034e-05,-3.0100346e-06,1.0,633,1.97,0,2,0.599,False,-0.2583885926606384,1.0171189726357106
1.8820431760104839,18:04:50.644411,18:04:34.973192,0,,0.12620316,0.0014813244,0.03047438,0.86762655,0.3542823,-0.34886673,0.39025244,-0.050444067,0.919325,0.30810225,-0.93377686,-0.18202624,,0.08070686,-0.021317549,0.04139042,-0.22064933,-0.087758794,0.97139704,0.9753531,-0.020251393,0.21971834,0.00038984418,0.9959358,0.0900642,,0.107339114,1.3461404,0.44494456,0.9960248,0.009251721,-0.08859456,-0.050069656,-0.7644482,-0.64273787,-0.07367239,0.64461875,-0.76094615,,-0.08249488,0.26141083,-0.08926086,-0.8872814,-0.25018173,0.3874801,0.44834948,-0.66498595,0.5973076,0.108233385,0.70370644,0.7021985,,-0.019723263,0.4481108,-0.3364817,0.24385992,-0.048459183,-0.968599,0.7297228,0.6670082,0.15034854,0.63877773,-0.74347275,0.19801834,,0.9174992791222428,0.3542417569406783,0.19250554645,3.6959949438582265,-0.023774750959186637,-0.9544689034527463,-0.40787013313729514,,-0.9779296638630497,0.046351842711095506,0.18630020622000001,-3.210772414635037,0.1186004817964023,0.9971309475539157,0.8431820693851495,,-0.046482481303738984,-0.07979645340118074,0.07698830152,-0.06345462529521684,,-2.9880553e-05,-7.987022e-06,1.013279e-05,0.99999994,3.119558e-05,2.642721e-05,-3.1191856e-05,1.0,3.0100346e-06,-2.6416034e-05,-3.0100346e-06,1.0,646,2.012,0,2,0.599,False,-0.2585077480976805,1.016732731029475
1.895057068002643,18:04:50.670600,18:04:34.973192,0,,0.12618458,0.0015103072,0.030566841,0.8632771,0.3652435,-0.3483526,0.39208925,-0.050676525,0.91853034,0.3178339,-0.9295315,-0.18695596,,0.08070707,-0.021327846,0.041392326,-0.2207772,-0.08773492,0.97137016,0.9753243,-0.020083368,0.21986195,0.00021880865,0.9959413,0.09000391,,0.107339114,1.3461404,0.44494456,0.9960248,0.009251721,-0.08859456,-0.050069656,-0.7644482,-0.64273787,-0.07367239,0.64461875,-0.76094615,,-0.08248597,0.26149395,-0.089313254,-0.8839915,-0.26154676,0.38749498,0.45630932,-0.6630036,0.59347117,0.10169012,0.701441,0.70543575,,-0.019724004,0.44810453,-0.33649006,0.24400899,-0.048479192,-0.96856046,0.72959507,0.66713303,0.15041466,0.6388667,-0.74335945,0.19815664,,0.9179780885604448,0.3541876978105587,0.19243943566000002,3.6884461058927833,-0.03197294094511307,-0.9490906890732098,-0.4081968212695639,,-0.9779296638630497,0.046297783580975936,0.18629631735000002,-3.2109821045785214,0.1186004817964023,0.9970492688137751,0.8430187253190151,,-0.046482481303738984,-0.07979645340118074,0.07698830152,-0.06345462529521684,,-2.9880553e-05,-7.987022e-06,1.013279e-05,0.99999994,3.119558e-05,2.642721e-05,-3.1191856e-05,1.0,3.0100346e-06,-2.6416034e-05,-3.0100346e-06,1.0,655,2.04,0,2,0.599,False,-0.2589843698458485,1.0172155330372692
1.921202572004404,18:04:50.704082,18:04:34.973192,0,,0.12612772,0.0015405118,0.030741423,0.85885686,0.376844,-0.34691945,0.3929252,-0.05022174,0.918198,0.32859448,-0.9249141,-0.19120488,,0.080708236,-0.02133932,0.041392744,-0.2208181,-0.08766742,0.97136694,0.975315,-0.020125717,0.21989918,0.00027143955,0.9959464,0.08994742,,0.107339114,1.3461404,0.44494456,0.9960248,0.009251721,-0.08859456,-0.050069656,-0.7644482,-0.64273787,-0.07367239,0.64461875,-0.76094615,,-0.082448035,0.2616335,-0.08943035,-0.8807673,-0.27357247,0.3865321,0.4641839,-0.6602938,0.59037733,0.093713745,0.69940704,0.70855314,,-0.019725502,0.44809633,-0.33649802,0.24404211,-0.04854785,-0.96854866,0.729627,0.66710055,0.15040381,0.63881755,-0.7433841,0.19822244,,0.9187735300464899,0.35417225234481026,0.19230073263000003,3.681106957870825,-0.04167413242845934,-0.9437120588551214,-0.4083601653356981,,-0.9779296638630497,0.046228278985107916,0.18629372477000003,-3.2109821045785214,0.11846384529663687,0.9969973292371904,0.8426920371867468,,-0.046482481303738984,-0.07979645340118074,0.07698830152,-0.06345462529521684,,-2.9880553e-05,-7.987022e-06,1.013279e-05,0.99999994,3.119558e-05,2.642721e-05,-3.1191856e-05,1.0,3.0100346e-06,-2.6416034e-05,-3.0100346e-06,1.0,668,2.081,0,2,0.599,False,-0.25952056931253775,1.0168292914310337
1.9547254410135793,18:04:50.738759,18:04:35.104732,0,,0.126071,0.0015414953,0.030848458,0.8561796,0.38125962,-0.3487081,0.39555094,-0.04946375,0.91711116,0.33240902,-0.9231437,-0.19315755,,0.080708936,-0.021353625,0.04139191,-0.22085056,-0.08775292,0.9713518,0.9753076,-0.020189583,0.219926,0.0003119409,0.9959376,0.09004493,,0.107339114,1.3461404,0.44494456,0.9960248,0.009251721,-0.08859456,-0.050069656,-0.7644482,-0.64273787,-0.07367239,0.64461875,-0.76094615,,-0.082403466,0.26170698,-0.08951572,-0.8784684,-0.27813822,0.3885002,0.46880126,-0.65881085,0.58838224,0.09229657,0.6990046,0.70913607,,-0.019726466,0.44808528,-0.3365071,0.2440686,-0.048463624,-0.9685462,0.72965145,0.6670542,0.15049064,0.6387795,-0.7434312,0.19816853,,0.9192291712860692,0.35417997507768445,0.19220480717000002,3.676074399227196,-0.044133589424237264,-0.9419515728090075,-0.4081968212695638,,-0.9779219411301754,0.04614332892349145,0.18629113219000001,-3.2109821045785214,0.11832720879687143,0.9971087471408868,0.8426920371867468,,-0.046482481303738984,-0.07979645340118074,0.07698830152,-0.06345462529521684,,-2.9880553e-05,-7.987022e-06,1.013279e-05,0.99999994,3.119558e-05,2.642721e-05,-3.1191856e-05,1.0,3.0100346e-06,-2.6416034e-05,-3.0100346e-06,1.0,677,2.109,0,2,0.599,False,-0.26041423509035333,1.0164913300255776
1.9893853750108974,18:04:50.771041,18:04:35.104732,0,,0.12610489,0.0015926659,0.030929402,0.85067356,0.39587522,-0.34588578,0.39650738,-0.051172644,0.9166042,0.345161,-0.9168773,-0.20049873,,0.08071459,-0.021378301,0.041391492,-0.22100484,-0.08775109,0.9713169,0.9752727,-0.020064056,0.22009225,0.00017514825,0.99594027,0.090015456,,0.107339114,1.3461404,0.44494456,0.9960248,0.009251721,-0.08859456,-0.050069656,-0.7644482,-0.64273787,-0.07367239,0.64461875,-0.76094615,,-0.08244489,0.26179653,-0.08953985,-0.87438226,-0.2933906,0.38649404,0.47812194,-0.65683365,0.5830686,0.08279544,0.69461614,0.71460015,,-0.019732643,0.4480665,-0.33652294,0.244239,-0.04846254,-0.9685033,0.7295445,0.66714764,0.1505948,0.6388365,-0.7433474,0.19829907,,0.9195535260667866,0.3541876978105587,0.19216591847000003,3.6674771115443305,-0.05533778240500338,-0.933387055886885,-0.40868685346796685,,-0.9779296638630497,0.04599659699888118,0.18628853961000003,-3.2111917945220063,0.11819057229710599,0.997056807564302,0.8426920371867466,,-0.046482481303738984,-0.07979645340118074,0.07698830152,-0.06345462529521684,,-2.9880553e-05,-7.987022e-06,1.013279e-05,0.99999994,3.119558e-05,2.642721e-05,-3.1191856e-05,1.0,3.0100346e-06,-2.6416034e-05,-3.0100346e-06,1.0,690,2.15,0,2,0.599,False,-0.2594014138754961,1.0161533686201212
2.021666645014193,18:04:50.812937,18:04:35.104732,0,,0.12624472,0.0017074943,0.031048417,0.83637583,0.42929974,-0.3408475,0.39811662,-0.04830581,0.9160621,0.37680027,-0.9018692,-0.21131328,,0.080722645,-0.021402992,0.041394293,-0.22107443,-0.08772719,0.9713032,0.9752569,-0.02015996,0.22015348,0.00026795268,0.99594045,0.090013355,,0.107339114,1.3461404,0.44494456,0.9960248,0.009251721,-0.08859456,-0.050069656,-0.7644482,-0.64273787,-0.07367239,0.64461875,-0.76094615,,-0.08259439,0.26195323,-0.08954067,-0.86362857,-0.32819316,0.38266823,0.5007041,-0.6467384,0.57534754,0.058661114,0.6884901,0.72286946,,-0.01974164,0.44804975,-0.33654085,0.24429497,-0.04848874,-0.9684879,0.729601,0.6670759,0.15063915,0.6387506,-0.7434101,0.19834071,,0.9199319399776236,0.3540718568174453,0.19214388154,3.6465081171958786,-0.08348490135668411,-0.9197463441014462,-0.4093402297325037,,-0.9779605547945466,0.04584214234139669,0.18628465074000003,-3.2111917945220063,0.1179172992975751,0.9970346071512733,0.8422020049883439,,-0.046482481303738984,-0.07979645340118074,0.07698830152,-0.06345462529521684,,-2.9880553e-05,-7.987022e-06,1.013279e-05,0.99999994,3.119558e-05,2.642721e-05,-3.1191856e-05,1.0,3.0100346e-06,-2.6416034e-05,-3.0100346e-06,1.0,703,2.191,0,2,0.599,False,-0.2598780356236645,1.0160085280177829
2.063584093004465,18:04:50.851172,18:04:35.104732,0,,0.1263134,0.0017778426,0.031123444,0.8217097,0.4592914,-0.33740833,0.4022592,-0.04802966,0.9142651,0.4037085,-0.88698614,-0.22422063,,0.080727965,-0.021426328,0.041393936,-0.22123328,-0.08780369,0.97126013,0.9752209,-0.0200589,0.2203221,0.00013720989,0.99593574,0.09006564,,0.107339114,1.3461404,0.44494456,0.9960248,0.009251721,-0.08859456,-0.050069656,-0.7644482,-0.64273787,-0.07367239,0.64461875,-0.76094615,,-0.0826693,0.26205155,-0.08954443,-0.85192984,-0.35962942,0.38063398,0.52214897,-0.63849854,0.56540257,0.039698854,0.68043095,0.73173606,,-0.01974748,0.4480321,-0.33655593,0.24446906,-0.048409704,-0.9684479,0.72949773,0.6671522,0.15080108,0.638802,-0.74334675,0.19841285,,0.920325799354209,0.35367799744085987,0.1921361038,3.625119742960457,-0.10657646981704355,-0.9044289042027952,-0.40721675687275816,,-0.9779682775274208,0.045703133149660645,0.18628205816,-3.211401484465491,0.11778066279780966,0.9970643463148291,0.8417119727899409,,-0.046482481303738984,-0.07979645340118074,0.07698830152,-0.06345462529521684,,-2.9880553e-05,-7.987022e-06,1.013279e-05,0.99999994,3.119558e-05,2.642721e-05,-3.1191856e-05,1.0,3.0100346e-06,-2.6416034e-05,-3.0100346e-06,1.0,712,2.22,0,2,0.599,False,-0.26005676877922745,1.0161050884193419
2.1018027680111118,18:04:50.879835,18:04:35.104732,0,,0.12628973,0.0018045157,0.0311694,0.8151851,0.47505867,-0.331349,0.40148288,-0.05111903,0.91443884,0.41747388,-0.8784679,-0.23239946,,0.08073013,-0.02143865,0.04139334,-0.22119206,-0.08781196,0.9712687,0.97523034,-0.020000696,0.22028595,8.2314014e-05,0.99593616,0.090060815,,0.107339114,1.3461404,0.44494456,0.9960248,0.009251721,-0.08859456,-0.050069656,-0.7644482,-0.64273787,-0.07367239,0.64461875,-0.76094615,,-0.08265025,0.26210296,-0.08956389,-0.84698254,-0.37630567,0.3755191,0.5308719,-0.6361661,0.5598819,0.02820577,0.67356277,0.7385917,,-0.019749865,0.4480225,-0.33656365,0.24443592,-0.048400056,-0.96845675,0.7294643,0.6671957,0.15077075,0.63885283,-0.74330837,0.1983927,,0.9208432224567821,0.35323007893415487,0.19212054832000003,3.616732145221076,-0.12010348329382216,-0.8932351742565683,-0.40787013313729525,,-0.9779682775274208,0.045633628553792625,0.18628076187,-3.211401484465491,0.11778066279780966,0.9970643463148291,0.8417119727899409,,-0.046482481303738984,-0.07979645340118074,0.07698830152,-0.06345462529521684,,-2.9880553e-05,-7.987022e-06,1.013279e-05,0.99999994,3.119558e-05,2.642721e-05,-3.1191856e-05,1.0,3.0100346e-06,-2.6416034e-05,-3.0100346e-06,1.0,725,2.261,0,2,0.599,False,-0.26041423509035333,1.0162499290216802
2.130475177007611,18:04:50.917076,18:04:35.268326,0,,0.12617972,0.0018146038,0.0312265,0.80534977,0.49265882,-0.32969493,0.40499586,-0.05112824,0.91288793,0.43288553,-0.8687191,-0.24070096,,0.08073179,-0.021462925,0.04139346,-0.2213524,-0.08787343,0.9712267,0.9751939,-0.019896507,0.22045639,-4.8279762e-05,0.9959328,0.090097696,,0.107339114,1.3461404,0.44494456,0.9960248,0.009251721,-0.08859456,-0.050069656,-0.7644482,-0.64273787,-0.07367239,0.64461875,-0.76094615,,-0.08254702,0.26215377,-0.08961103,-0.8388301,-0.39486936,0.37475616,0.5440973,-0.63080037,0.553217,0.017947886,0.6679589,0.7439817,,-0.019752149,0.4480047,-0.33658007,0.24461146,-0.048336018,-0.9684156,0.72936094,0.6672741,0.15092349,0.6389037,-0.74324214,0.1984773,,0.9219475732577962,0.35231879645499636,0.19207128930000003,3.598489120137922,-0.136499863265675,-0.880926849434825,-0.4090135416002353,,-0.9779605547945466,0.045494619362056586,0.18627557671000003,-3.2116111744089753,0.11764402629804423,0.9970940854783851,0.842202004988344,,-0.046482481303738984,-0.07979645340118074,0.07698830152,-0.06345462529521684,,-2.9880553e-05,-7.987022e-06,1.013279e-05,0.99999994,3.119558e-05,2.642721e-05,-3.1191856e-05,1.0,3.0100346e-06,-2.6416034e-05,-3.0100346e-06,1.0,738,2.303,0,2,0.599,False,-0.2593418361569748,1.0154291656084296
2.167660604012781,18:04:50.962592,18:04:35.268326,0,,0.12607679,0.0018637925,0.031361625,0.7891838,0.52020866,-0.32645285,0.40821117,-0.04716757,0.9116682,0.4588597,-0.8527356,-0.24957895,,0.08073725,-0.021480434,0.041403353,-0.22153041,-0.08774475,0.9711978,0.97515357,-0.01978141,0.22064549,-0.0001488626,0.9959465,0.08994673,,0.107339114,1.3461404,0.44494456,0.9960248,0.009251721,-0.08859456,-0.050069656,-0.7644482,-0.64273787,-0.07367239,0.64461875,-0.76094615,,-0.08245851,0.26228458,-0.08969061,-0.82555914,-0.42391747,0.37248632,0.5643146,-0.6189191,0.54634076,-0.0010645122,0.6612361,0.7501771,,-0.019759351,0.44799823,-0.33659855,0.24480031,-0.048462313,-0.9683616,0.72927624,0.6673581,0.15096152,0.638928,-0.7431585,0.19871189,,0.9228897466684516,0.35165464142781305,0.19201165996000003,3.580665474941738,-0.15726861123002195,-0.8698721973630894,-0.40901354160023506,,-0.978006891191792,0.04539422383469167,0.18626650268000003,-3.2118208643524593,0.1175073897982788,0.9968787884215191,0.8408952524592694,,-0.046482481303738984,-0.07979645340118074,0.07698830152,-0.06345462529521684,,-2.9880553e-05,-7.987022e-06,1.013279e-05,0.99999994,3.119558e-05,2.642721e-05,-3.1191856e-05,1.0,3.0100346e-06,-2.6416034e-05,-3.0100346e-06,1.0,760,2.373,0,2,0.599,False,-0.26059296824591627,1.0153326052068705
2.2132410520134727,18:04:51.029665,18:04:35.268326,0,,0.1258873,0.0018979162,0.031586766,0.7733436,0.5457426,-0.32265207,0.4106141,-0.043394208,0.910776,0.48304805,-0.83682835,-0.2576483,,0.080739126,-0.021492995,0.041424036,-0.22165145,-0.08770892,0.9711734,0.97512597,-0.019609183,0.22078258,-0.0003207326,0.9959531,0.0898736,,0.107339114,1.3461404,0.44494456,0.9960248,0.009251721,-0.08859456,-0.050069656,-0.7644482,-0.64273787,-0.07367239,0.64461875,-0.76094615,,-0.08229431,0.26246727,-0.089856185,-0.8124331,-0.45095834,0.3695795,0.5827371,-0.6071185,0.5402079,-0.019232718,0.6542505,0.7560333,,-0.019764338,0.44800293,-0.3366218,0.24494278,-0.04849421,-0.968324,0.72914845,0.66748583,0.15101397,0.63901925,-0.7430417,0.19885531,,0.9244960751062903,0.35077424988015143,0.19185221629000002,3.5599061705367703,-0.17995027019108506,-0.8566042647184795,-0.40934022973250384,,-0.9780763957876599,0.0453401647045721,0.18624835462000003,-3.2120305542959438,0.1175073897982788,0.996715430941238,0.8415486287238068,,-0.046482481303738984,-0.07979645340118074,0.07698830152,-0.06345462529521684,,-2.9880553e-05,-7.987022e-06,1.013279e-05,0.99999994,3.119558e-05,2.642721e-05,-3.1191856e-05,1.0,3.0100346e-06,-2.6416034e-05,-3.0100346e-06,1.0,769,2.4,0,2,0.599,False,-0.25922268071993226,1.0156222864115474
2.28030911400856,18:04:51.065256,18:04:35.451892,0,,0.12579344,0.0019323826,0.031665042,0.76544905,0.5579379,-0.32061315,0.4110263,-0.04056123,0.9107207,0.49512115,-0.82889074,-0.2603748,,0.08074466,-0.021499984,0.04143256,-0.2219438,-0.087935716,0.9710861,0.9750594,-0.019394577,0.22109562,-0.000608474,0.9959372,0.09004699,,0.107339114,1.3461404,0.44494456,0.9960248,0.009251721,-0.08859456,-0.050069656,-0.7644482,-0.64273787,-0.07367239,0.64461875,-0.76094615,,-0.082208894,0.26254946,-0.08990175,-0.80591094,-0.46388763,0.367853,0.59133524,-0.60048026,0.5382807,-0.028813308,0.65133077,0.7582467,,-0.019771153,0.44800317,-0.33663204,0.24526957,-0.04826186,-0.9682529,0.72892606,0.66764873,0.15136687,0.6391476,-0.74291044,0.19893326,,0.9252992393252096,0.35030316317482374,0.19181332759000003,3.550050743192997,-0.19170100917091293,-0.8509429045273342,-0.4090135416002354,,-0.9781304549177795,0.0452783828415783,0.18624057688,-3.2126596241263976,0.1175073897982788,0.9967971096813787,0.8413852846576725,,-0.046482481303738984,-0.07979645340118074,0.07698830152,-0.06345462529521684,,-2.9880553e-05,-7.987022e-06,1.013279e-05,0.99999994,3.119558e-05,2.642721e-05,-3.1191856e-05,1.0,3.0100346e-06,-2.6416034e-05,-3.0100346e-06,1.0,782,2.441,0,2,0.599,False,-0.2607717014014801,1.015477445809209
2.315866682009073,18:04:51.105383,18:04:35.451892,0,,0.12565118,0.0019681454,0.031752214,0.7547402,0.5753042,-0.31526512,0.41108394,-0.04023385,0.9107092,0.5112505,-0.81694925,-0.26686457,,0.080750495,-0.021517001,0.041439593,-0.22212246,-0.088037476,0.971036,0.9750185,-0.019331932,0.22128075,-0.00070908666,0.9959295,0.09013218,,0.107339114,1.3461404,0.44494456,0.9960248,0.009251721,-0.08859456,-0.050069656,-0.7644482,-0.64273787,-0.07367239,0.64461875,-0.76094615,,-0.08207635,0.26264104,-0.089957915,-0.7970478,-0.48245317,0.36325446,0.6024575,-0.5934206,0.5337573,-0.041950237,0.6442755,0.76364213,,-0.019778334,0.4479951,-0.33664808,0.2454591,-0.048158396,-0.96821,0.7288412,0.6676968,0.1515637,0.63917166,-0.742874,0.19899207,,0.9264035901262238,0.3495231671545271,0.19177314260000003,3.537049966696957,-0.20782411614323493,-0.8394291666939677,-0.40934022973250384,,-0.9781613458492764,0.04520115551283606,0.18623668801,-3.2126596241263976,0.11737075329851333,0.9968268488449346,0.8415486287238068,,-0.046482481303738984,-0.07979645340118074,0.07698830152,-0.06345462529521684,,-2.9880553e-05,-7.987022e-06,1.013279e-05,0.99999994,3.119558e-05,2.642721e-05,-3.1191856e-05,1.0,3.0100346e-06,-2.6416034e-05,-3.0100346e-06,1.0,795,2.483,0,2,0.599,False,-0.2598184579051428,1.0153326052068705
2.3559652700059814,18:04:51.134349,18:04:35.451892,0,,0.1254889,0.001980424,0.031816408,0.7427809,0.590522,-0.31553137,0.41456896,-0.03558603,0.90932184,0.52574605,-0.80623645,-0.2712448,,0.08075576,-0.021536969,0.041445196,-0.22221044,-0.08800958,0.97101843,0.9749986,-0.019453496,0.22135806,-0.0005919039,0.9959296,0.09013192,,0.107339114,1.3461404,0.44494456,0.9960248,0.009251721,-0.08859456,-0.050069656,-0.7644482,-0.64273787,-0.07367239,0.64461875,-0.76094615,,-0.0819219,0.26270103,-0.09001409,-0.7866846,-0.4986508,0.36397082,0.61518264,-0.58376867,0.5298721,-0.0517464,0.64075077,0.76600313,,-0.01978482,0.44798383,-0.3366651,0.24552983,-0.048189204,-0.96819055,0.7289125,0.6676059,0.15162136,0.6390631,-0.7429537,0.19904287,,0.9274152681327471,0.34865822107261396,0.19173684648000003,3.5213232209356176,-0.22094122012071718,-0.8321635550250149,-0.4090135416002352,,-0.9781922367807733,0.04507759178684846,0.18623020656000003,-3.2126596241263976,0.11709748029898247,0.9968046484319055,0.8407319083931354,,-0.046482481303738984,-0.07979645340118074,0.07698830152,-0.06345462529521684,,-2.9880553e-05,-7.987022e-06,1.013279e-05,0.99999994,3.119558e-05,2.642721e-05,-3.1191856e-05,1.0,3.0100346e-06,-2.6416034e-05,-3.0100346e-06,1.0,804,2.511,0,2,0.599,False,-0.2598184579051428,1.0157188468131064
2.3849567150027724,18:04:51.172721,18:04:35.451892,0,,0.12535538,0.0019720495,0.03185998,0.7373707,0.59771585,-0.31467408,0.41450313,-0.03255272,0.90946555,0.5333585,-0.80104667,-0.2717586,,0.08075931,-0.02155248,0.0414477,-0.22223608,-0.08756307,0.97105294,0.97499275,-0.019389093,0.22138937,-0.00055778027,0.99597025,0.08968225,,0.107339114,1.3461404,0.44494456,0.9960248,0.009251721,-0.08859456,-0.050069656,-0.7644482,-0.64273787,-0.07367239,0.64461875,-0.76094615,,-0.081794225,0.26273036,-0.09006543,-0.7821499,-0.5063029,0.36317888,0.62038106,-0.5784908,0.52959967,-0.058042213,0.6395356,0.76656723,,-0.019789085,0.44797397,-0.3366771,0.24555047,-0.04863527,-0.968163,0.7289333,0.6676477,0.15133677,0.6390315,-0.742887,0.19939308,,0.9281952641530439,0.34799406604543065,0.19170184665,3.5148228326875977,-0.22900277360687818,-0.8294287994935325,-0.409503573798638,,-0.9782076822465218,0.04498491899235777,0.18622631769000003,-3.2126596241263976,0.11696084379921703,0.9963443151546182,0.8415486287238068,,-0.046482481303738984,-0.07979645340118074,0.07698830152,-0.06345462529521684,,-2.9880553e-05,-7.987022e-06,1.013279e-05,0.99999994,3.119558e-05,2.642721e-05,-3.1191856e-05,1.0,3.0100346e-06,-2.6416034e-05,-3.0100346e-06,1.0,817,2.552,0,2,0.599,False,-0.2596993024681016,1.015815407214665
2.423342837006203,18:04:51.208599,18:04:35.451892,0,,0.12519237,0.0019275397,0.032001868,0.73481196,0.6024008,-0.31171185,0.41303518,-0.03288111,0.9101213,0.5380084,-0.79751605,-0.27297425,,0.080760755,-0.021567248,0.04145044,-0.22234464,-0.08782625,0.9710043,0.974968,-0.019604176,0.22147909,-0.000415951,0.99594283,0.08998662,,0.107339114,1.3461404,0.44494456,0.9960248,0.009251721,-0.08859456,-0.050069656,-0.7644482,-0.64273787,-0.07367239,0.64461875,-0.76094615,,-0.0816489,0.2627979,-0.090217106,-0.7801534,-0.51135486,0.36038437,0.62243366,-0.5767009,0.5291431,-0.06274587,0.6371281,0.7681997,,-0.019791268,0.44796494,-0.33668897,0.24563812,-0.048376486,-0.9681537,0.72901934,0.6674912,0.15161236,0.63889956,-0.74304456,0.19922867,,0.9291374375636993,0.34745347474423494,0.19155795846,3.512096863422298,-0.2348781430967921,-0.8255362957761326,-0.40803347720342964,,-0.978215404979396,0.044892246197867074,0.18622113253000003,-3.2126596241263976,0.11668757079968614,0.9966488297021515,0.8413852846576726,,-0.046482481303738984,-0.07979645340118074,0.07698830152,-0.06345462529521684,,-2.9880553e-05,-7.987022e-06,1.013279e-05,0.99999994,3.119558e-05,2.642721e-05,-3.1191856e-05,1.0,3.0100346e-06,-2.6416034e-05,-3.0100346e-06,1.0,826,2.58,0,2,0.599,False,-0.2594609915940169,1.0158636874154445
2.4592240180063527,18:04:51.247346,18:04:35.451892,0,,0.12508059,0.0018918663,0.03217475,0.73509455,0.60203516,-0.31175202,0.41293785,-0.032892764,0.9101651,0.537697,-0.7977916,-0.2727825,,0.08076055,-0.021590985,0.041454554,-0.22211145,-0.087712765,0.9710679,0.97502124,-0.019587666,0.22124639,-0.00038528442,0.99595314,0.08987239,,0.107339114,1.3461404,0.44494456,0.9960248,0.009251721,-0.08859456,-0.050069656,-0.7644482,-0.64273787,-0.07367239,0.64461875,-0.76094615,,-0.0815577,0.26288944,-0.0903813,-0.780402,-0.5109614,0.3604041,0.62214184,-0.5768689,0.52930313,-0.06254756,0.6372917,0.7680801,,-0.019792238,0.44795036,-0.3367081,0.24540439,-0.048489854,-0.9682073,0.7290619,0.6675019,0.15136006,0.6389409,-0.7430275,0.19916002,,0.9298015925908825,0.34743030654561224,0.19138295931000002,3.512096863422298,-0.2348781430967921,-0.8252095808155704,-0.40868685346796685,,-0.978215404979396,0.044768682471879484,0.18621205850000003,-3.212449934182913,0.11668757079968614,0.9965671509620109,0.841221940591538,,-0.046482481303738984,-0.07979645340118074,0.07698830152,-0.06345462529521684,,-2.9880553e-05,-7.987022e-06,1.013279e-05,0.99999994,3.119558e-05,2.642721e-05,-3.1191856e-05,1.0,3.0100346e-06,-2.6416034e-05,-3.0100346e-06,1.0,839,2.621,0,2,0.599,False,-0.2599376133421849,1.0158636874154445
2.4979832750104833,18:04:51.279770,18:04:35.649973,0,,0.12496774,0.0018925667,0.032450616,0.73439145,0.6046937,-0.30824426,0.41135266,-0.035302848,0.91079235,0.5398685,-0.7956752,-0.27466857,,0.08076201,-0.021611564,0.04145688,-0.22275954,-0.0878056,0.970911,0.9748733,-0.019500345,0.22190508,-0.0005515218,0.9959467,0.089943156,,0.107339114,1.3461404,0.44494456,0.9960248,0.009251721,-0.08859456,-0.050069656,-0.7644482,-0.64273787,-0.07367239,0.64461875,-0.76094615,,-0.08147599,0.2630756,-0.09059926,-0.77997863,-0.5138908,0.35714084,0.62239176,-0.5774646,0.52835894,-0.065282635,0.6343902,0.77025145,,-0.019794539,0.44793683,-0.3367237,0.24606498,-0.048394766,-0.9680444,0.72888863,0.6675682,0.15190126,0.6388845,-0.74297416,0.19953956,,0.9307283205357895,0.3476697112647132,0.19114184937,3.5114677935918452,-0.23774750959186638,-0.8206644788541503,-0.40852350940183235,,-0.978215404979396,0.044629673280143445,0.18620557705000002,-3.2130790040133665,0.11627766130038981,0.9965746897125378,0.8418753168560751,,-0.046482481303738984,-0.07979645340118074,0.07698830152,-0.06345462529521684,,-2.9880553e-05,-7.987022e-06,1.013279e-05,0.99999994,3.119558e-05,2.642721e-05,-3.1191856e-05,1.0,3.0100346e-06,-2.6416034e-05,-3.0100346e-06,1.0,848,2.65,0,2,0.599,False,-0.2602950796533112,1.0155740062107677
2.5304144830151927,18:04:51.312744,18:04:35.649973,0,,0.124860235,0.001912728,0.03261596,0.73448664,0.6049222,-0.3075683,0.41153833,-0.036667407,0.91065454,0.53959733,-0.79543984,-0.2758805,,0.0807648,-0.021641351,0.041456044,-0.2228192,-0.087825805,0.97089547,0.9748597,-0.0195871,0.22195712,-0.00047656894,0.9959432,0.08998215,,0.107339114,1.3461404,0.44494456,0.9960248,0.009251721,-0.08859456,-0.050069656,-0.7644482,-0.64273787,-0.07367239,0.64461875,-0.76094615,,-0.081386946,0.2632043,-0.09072094,-0.7800392,-0.5141746,0.35659975,0.6223509,-0.5783579,0.5274292,-0.064948425,0.6333456,0.7711388,,-0.019797958,0.4479142,-0.336743,0.24611355,-0.048376527,-0.96803296,0.7289339,0.6675039,0.15196691,0.63881415,-0.7430331,0.19954506,,0.9315005938232119,0.34787822505231725,0.19100055376000002,3.511048413704876,-0.23747423659233552,-0.8185186311974668,-0.4083601653356983,,-0.9782076822465218,0.0444597731569105,0.18620039189,-3.2130790040133665,0.11600438830085893,0.9966341680396497,0.8418753168560753,,-0.046482481303738984,-0.07979645340118074,0.07698830152,-0.06345462529521684,,-2.9880553e-05,-7.987022e-06,1.013279e-05,0.99999994,3.119558e-05,2.642721e-05,-3.1191856e-05,1.0,3.0100346e-06,-2.6416034e-05,-3.0100346e-06,1.0,861,2.691,0,2,0.599,False,-0.26101001227556386,1.0161050884193419
2.5633898040105123,18:04:51.349607,18:04:35.649973,0,,0.12473203,0.0019301176,0.032760844,0.7353873,0.6041025,-0.30702654,0.41085446,-0.037168443,0.910943,0.53889126,-0.7960392,-0.27553147,,0.08077277,-0.02169136,0.041454196,-0.22280937,-0.087867275,0.97089404,0.974862,-0.019578487,0.22194806,-0.00049343705,0.9959397,0.09002067,,0.107339114,1.3461404,0.44494456,0.9960248,0.009251721,-0.08859456,-0.050069656,-0.7644482,-0.64273787,-0.07367239,0.64461875,-0.76094615,,-0.08127514,0.26331875,-0.0908311,-0.7808717,-0.51330537,0.35602942,0.621324,-0.57908225,0.5278449,-0.064775325,0.63338876,0.77111787,,-0.019806912,0.44787586,-0.33677486,0.24610616,-0.048334762,-0.96803695,0.7289234,0.66751087,0.15198651,0.638829,-0.7430296,0.19951089,,0.932365539905125,0.34797089784680796,0.19087481363000003,3.5118871734788137,-0.23733760009257007,-0.8179766191800387,-0.4096669178647725,,-0.9782076822465218,0.04416630930768997,0.18619391044000003,-3.2130790040133665,0.11573111530132807,0.9966936463667614,0.8415486287238068,,-0.046482481303738984,-0.07979645340118074,0.07698830152,-0.06345462529521684,,-2.9880553e-05,-7.987022e-06,1.013279e-05,0.99999994,3.119558e-05,2.642721e-05,-3.1191856e-05,1.0,3.0100346e-06,-2.6416034e-05,-3.0100346e-06,1.0,874,2.733,0,2,0.599,False,-0.2607121236829584,1.0159119676162243
2.6002206490084063,18:04:51.385143,18:04:35.649973,0,,0.12466985,0.001951158,0.03279847,0.73565996,0.6038377,-0.30689436,0.41055748,-0.037139058,0.9110781,0.5387456,-0.79624146,-0.27523193,,0.08078024,-0.021732561,0.041451693,-0.22274947,-0.08797832,0.97089773,0.97487557,-0.01951477,0.22189376,-0.000575006,0.99593115,0.09011474,,0.107339114,1.3461404,0.44494456,0.9960248,0.009251721,-0.08859456,-0.050069656,-0.7644482,-0.64273787,-0.07367239,0.64461875,-0.76094615,,-0.08121703,0.2633626,-0.090851754,-0.7811332,-0.5130193,0.35586813,0.62098926,-0.57917696,0.5281348,-0.064832754,0.63353395,0.7709938,,-0.019815037,0.44784346,-0.33680025,0.24605826,-0.04822197,-0.9680547,0.7288736,0.66755986,0.15201032,0.6389042,-0.74299294,0.19940634,,0.9327825674803332,0.3479786205796822,0.19084888783,3.512096863422298,-0.23747423659233552,-0.8178652012763422,-0.40999360599704093,,-0.9782076822465218,0.043926904588589014,0.18619002157000003,-3.2130790040133665,0.11559447880156261,0.9968050642704578,0.8415486287238068,,-0.046482481303738984,-0.07979645340118074,0.07698830152,-0.06345462529521684,,-2.9880553e-05,-7.987022e-06,1.013279e-05,0.99999994,3.119558e-05,2.642721e-05,-3.1191856e-05,1.0,3.0100346e-06,-2.6416034e-05,-3.0100346e-06,1.0,883,2.761,0,2,0.599,False,-0.26112916771260597,1.0162499290216802
2.6357615100132534,18:04:51.419886,18:04:35.649973,0,,0.124659374,0.0019593835,0.032816753,0.7403105,0.59975654,-0.30369753,0.40668225,-0.039826185,0.91270113,0.53530335,-0.79919076,-0.27339417,,0.08078317,-0.021753497,0.04145235,-0.22300047,-0.08793083,0.97084445,0.9748179,-0.019171715,0.22217676,-0.00092342496,0.995942,0.08999181,,0.107339114,1.3461404,0.44494456,0.9960248,0.009251721,-0.08859456,-0.050069656,-0.7644482,-0.64273787,-0.07367239,0.64461875,-0.76094615,,-0.08120845,0.26338127,-0.09086114,-0.785462,-0.5086994,0.3525256,0.6155589,-0.58290654,0.530384,-0.064316556,0.6335968,0.7709854,,-0.019818574,0.44782835,-0.33681464,0.24635252,-0.04826155,-0.96797794,0.7286136,0.66781455,0.15213782,0.6390873,-0.74276143,0.19968182,,0.9329292994049434,0.34812535250429244,0.19083333235000002,3.519016631557288,-0.23597123509491563,-0.8189274407367217,-0.4096669178647724,,-0.9782076822465218,0.043811063595475645,0.1861861327,-3.213498383900336,0.11559447880156261,0.9966417067901767,0.8418753168560752,,-0.046482481303738984,-0.07979645340118074,0.07698830152,-0.06345462529521684,,-2.9880553e-05,-7.987022e-06,1.013279e-05,0.99999994,3.119558e-05,2.642721e-05,-3.1191856e-05,1.0,3.0100346e-06,-2.6416034e-05,-3.0100346e-06,1.0,896,2.802,0,2,0.599,False,-0.2607717014014801,1.0162016488209007
2.670532780015492,18:04:51.463855,18:04:35.840088,0,,0.124614656,0.0019569546,0.03281282,0.75774807,0.5792759,-0.30042833,0.3988993,-0.04684046,0.9157977,0.5164273,-0.81378454,-0.26656613,,0.08085798,-0.021734662,0.041471124,-0.223095,-0.088071615,0.97080994,0.9747963,-0.01926735,0.22226313,-0.0008701682,0.9959277,0.09015028,,0.10736102,1.3461406,0.44494617,0.99602306,0.0092251785,-0.088616885,-0.05010424,-0.7644485,-0.64273477,-0.07367239,0.64461875,-0.76094615,,-0.081180386,0.26338005,-0.09085957,-0.800868,-0.48689926,0.34862536,0.5964484,-0.5965716,0.5369837,-0.05347696,0.6379901,0.76818544,,-0.019912098,0.44784787,-0.33680388,0.24647194,-0.048121657,-0.9679545,0.728636,0.6677447,0.15233706,0.63901573,-0.7428333,0.1996435,,0.9328443493433269,0.3487431711342304,0.19079703623000002,3.5425019052275544,-0.22135112962001352,-0.8278270430470381,-0.40983026193090666,,-0.9782076822465218,0.043757004465356075,0.18618224383,-3.213498383900336,0.11545784230179718,0.9968348034340138,0.8420386609222096,,-0.046482481303738984,-0.07979645340118074,0.07698830152,-0.06345462529521684,,-8.199364e-06,-6.7949295e-06,6.67572e-06,0.99999994,4.772097e-06,4.0382147e-06,-4.7683716e-06,1.0,4.4703484e-07,-4.030764e-06,-4.4703484e-07,1.0,905,2.83,0,2,0.599,False,-0.2594609915940169,1.0158636874154445
2.714482819006662,18:04:51.490018,18:04:35.840088,0,,0.12463915,0.0019889772,0.03287165,0.76444995,0.57104665,-0.299202,0.39850143,-0.053738892,0.915592,0.506767,-0.8191567,-0.26864368,,0.080845736,-0.021743245,0.04147917,-0.22316182,-0.08796926,0.9708038,0.97478104,-0.019335598,0.22232398,-0.0007866919,0.99593544,0.0900657,,0.10736102,1.3461406,0.44494617,0.99602306,0.0092251785,-0.088616885,-0.05010424,-0.7644485,-0.64273477,-0.07367239,0.64461875,-0.76094615,,-0.081210494,0.26344123,-0.09088047,-0.8064708,-0.47828582,0.3476313,0.5894961,-0.6048398,0.5354094,-0.045817476,0.63671935,0.76973325,,-0.019901292,0.44784796,-0.336817,0.2465264,-0.04822585,-0.96793544,0.72868645,0.6676925,0.15232465,0.63893723,-0.7428735,0.19974536,,0.9327593992817105,0.3495386126202755,0.19074518463,3.5504701230799665,-0.21178657463643272,-0.8268866711107474,-0.4090135416002352,,-0.9781767913150249,0.043726113533859176,0.18616668835000003,-3.213498383900336,0.11532120580203174,0.996782863857429,0.8420386609222095,,-0.046482481303738984,-0.07979645340118074,0.07698830152,-0.06345462529521684,,-8.199364e-06,-6.7949295e-06,6.67572e-06,0.99999994,4.772097e-06,4.0382147e-06,-4.7683716e-06,1.0,4.4703484e-07,-4.030764e-06,-4.4703484e-07,1.0,918,2.871,0,2,0.599,False,-0.2599376133421849,1.0166844508286954
2.7406569960148772,18:04:51.530011,18:04:35.840088,0,,0.12475027,0.0021124482,0.033026963,0.7636065,0.5757911,-0.2921806,0.39606026,-0.060310304,0.91624177,0.5099423,-0.8153693,-0.27410144,,0.080830134,-0.02176062,0.04148799,-0.22351736,-0.088111,0.97070915,0.97469985,-0.019871026,0.22263257,-0.00032749772,0.9959124,0.09032327,,0.10736102,1.3461406,0.44494617,0.99602306,0.0092251785,-0.088616885,-0.05010424,-0.7644485,-0.64273477,-0.07367239,0.64461875,-0.76094615,,-0.081335254,0.26362967,-0.09090578,-0.80603814,-0.48356643,0.34127116,0.58975804,-0.60761607,0.5319663,-0.049879212,0.63005257,0.77494895,,-0.019887488,0.4478424,-0.33683702,0.24681427,-0.048096288,-0.9678685,0.72896457,0.66729575,0.15273191,0.6385087,-0.7432383,0.19975859,,0.9327593992817105,0.3505734588254216,0.19068296271000001,3.5504701230799665,-0.21492921413103783,-0.8180347963349065,-0.408850197534101,,-0.9781304549177795,0.04362571800649426,0.18614594771,-3.213498383900336,0.11463802330320454,0.9970949171554895,0.8422020049883439,,-0.046482481303738984,-0.07979645340118074,0.07698830152,-0.06345462529521684,,-8.199364e-06,-6.7949295e-06,6.67572e-06,0.99999994,4.772097e-06,4.0382147e-06,-4.7683716e-06,1.0,4.4703484e-07,-4.030764e-06,-4.4703484e-07,1.0,931,2.913,0,2,0.599,False,-0.2598184579051428,1.0162982092224597
