AlexandreBanks6/ExpertPlaybackApp/resources/Motions/Pilot_05/PC1/Data_PC1_1.csv
Task Time,PC1 Time,PC2 Time,Gaze Calib,s_T_psm1,Tx,Ty,Tz,R00,R01,R02,R10,R11,R12,R20,R21,R22,s_T_psm3,Tx,Ty,Tz,R00,R01,R02,R10,R11,R12,R20,R21,R22,cart_T_ecm,Tx,Ty,Tz,R00,R01,R02,R10,R11,R12,R20,R21,R22,ecm_T_psm1,Tx,Ty,Tz,R00,R01,R02,R10,R11,R12,R20,R21,R22,ecm_T_psm3,Tx,Ty,Tz,R00,R01,R02,R10,R11,R12,R20,R21,R22,psm1_joints,q1,q2,q3,q4,q5,q6,jaw,psm3_joints,q1,q2,q3,q4,q5,q6,jaw,ecm_joints,q1,q2,q3,q4,ecmi_T_ecm,Tx,Ty,Tz,R00,R01,R02,R10,R11,R12,R20,R21,R22,Sample #,Task Duration (s),Collisions (binary),Collisions (increments),Cumulative Collision Time (s),Clutch Press,MTMR Angle,MTML Angle
""
lci_T_si,,,,,-0.06405862,0.016163385,0.23836872,0.9936273,-0.018126413,0.1112486,0.06163678,-0.7389648,-0.6709187,0.09437015,0.6735001,-0.7331383
rci_T_si,,,,,-0.07404149,0.020406518,0.24901661,0.991507,-0.031528454,0.12617382,0.062267285,-0.73666036,-0.67339015,0.1141782,0.6755276,-0.7284407
ecm_T_lc,,,,,-4.4061628e-05,-0.00034663224,-0.01840835,-0.99912,0.030754527,0.028518902,-0.031987965,-0.99852574,-0.043852776,0.027128186,-0.04472645,0.9986309
ecm_T_rc,,,,,-0.0043358393,0.01870579,-0.007592615,-0.99555075,-0.052743673,-0.078081585,0.04863213,-0.9973746,0.053654674,-0.08070653,0.04961868,0.9955021
cart_T_ecmi,,,,,0.10736985,1.3461393,0.4449551,0.99602276,0.009220387,-0.08862091,-0.050110485,-0.7644486,-0.6427342,-0.07367239,0.64461875,-0.76094615
ecmac_T_ecmrep_psm1,,,,,0.0019077883,-0.24418817,-0.31129345,0.9990406,0.03670117,0.023893757,-0.03487346,0.99673134,-0.072872825,-0.026490174,0.07196965,0.997055
ecmac_T_ecmrep_psm3,,,,,-0.025437847,-0.43631262,-0.5392238,0.9997681,0.02112905,0.0041644988,-0.020983119,0.99925387,-0.03242474,-0.0048464956,0.032329835,0.9994655
""
0,18:00:52.819282,NaN,0,,0.122424975,-0.0006352365,0.018919244,0.9193752,-0.006477706,-0.39332858,0.3907591,0.13030577,0.9112233,0.045350373,-0.9914526,0.12233102,,0.09521802,-0.012241401,0.018658817,-0.42826137,0.5979888,0.6774967,0.89888966,0.20501176,0.38725638,0.09268013,0.77484167,-0.6253245,,0.10738933,1.3461405,0.4449492,0.9960206,0.009187618,-0.08864846,-0.05015318,-0.764449,-0.6427304,-0.07367239,0.64461875,-0.76094615,,-0.07755206,0.25250098,-0.08231719,-0.90967596,0.118736744,0.39798403,0.27506506,-0.5457239,0.7915331,0.31117347,0.8295101,0.46377158,,-0.030820379,0.4382631,-0.3121748,0.4350784,-0.6918394,-0.5762508,0.75162685,0.63144517,-0.190615,0.49574578,-0.3501931,0.7947332,,0.9121860389047765,0.3177595668428417,0.2016638353,3.8232767395533322,0.1860989126805299,-1.2811231247580799,-0.41113701445998085,,-0.9715661319746887,0.047942725683185757,0.21454377274000003,-3.3281987829863704,-0.08881372484753629,0.22197541060004336,0.8384450914672554,,-0.046482481303738984,-0.07979645340118074,0.07698830152,-0.06345462529521684,,1.9785017e-05,-4.5895576e-06,1.9073486e-06,1.0000001,-3.2618642e-05,-2.7626753e-05,3.2618642e-05,1.0,-3.1590462e-06,2.7641654e-05,3.1590462e-06,1.0,35,0.106,1,1,0.082,False,-0.2599971910607066,1.0131117159710155
0.12863802000356372,18:00:52.845796,NaN,0,,0.12265041,-0.0006926954,0.01900293,0.9209338,-0.005474098,-0.38968068,0.386993,0.1309067,0.9127431,0.046015397,-0.9913795,0.12267479,,0.095211774,-0.012239955,0.01866144,-0.42826957,0.5979996,0.67748207,0.89888424,0.20501135,0.3872694,0.092695296,0.7748335,-0.62533236,,0.10738933,1.3461405,0.4449492,0.9960206,0.009187618,-0.08864846,-0.05015318,-0.764449,-0.6427304,-0.07367239,0.64461875,-0.76094615,,-0.077786595,0.2524995,-0.08239543,-0.91138333,0.11774507,0.39435586,0.27255866,-0.54527617,0.79270786,0.3083703,0.8299458,0.46486315,,-0.030814517,0.43826637,-0.31217644,0.43508434,-0.69184893,-0.57623494,0.75163376,0.63143855,-0.19060977,0.4957301,-0.3501863,0.79474604,,0.911073965370888,0.3182074853495467,0.20157179871000003,3.827051158536054,0.18486918418264095,-1.2811821872466393,-0.41064698226157814,,-0.9715506865089402,0.047958171148934206,0.21453858758000002,-3.3281987829863704,-0.08881372484753629,0.22197541060004336,0.8384450914672554,,-0.046482481303738984,-0.07979645340118074,0.07698830152,-0.06345462529521684,,1.9785017e-05,-4.5895576e-06,1.9073486e-06,1.0000001,-3.2618642e-05,-2.7626753e-05,3.2618642e-05,1.0,-3.1590462e-06,2.7641654e-05,3.1590462e-06,1.0,43,0.13,1,1,0.106,False,-0.260652545964438,1.0135462377780307
0.155147051991662,18:00:52.866755,NaN,0,,0.122792706,-0.0007137209,0.019092545,0.9223649,-0.004753679,-0.38629052,0.38354886,0.1308158,0.91420865,0.046187058,-0.9913952,0.122483134,,0.09521158,-0.012240447,0.01866442,-0.42826957,0.59793854,0.6775359,0.8988844,0.20497803,0.38728663,0.09269357,0.7748894,-0.6252634,,0.10738933,1.3461405,0.4449492,0.9960206,0.009187618,-0.08864846,-0.05015318,-0.764449,-0.6427304,-0.07367239,0.64461875,-0.76094615,,-0.07793835,0.25253403,-0.08246252,-0.91290236,0.117028914,0.39104164,0.2699823,-0.5453948,0.79350746,0.3061354,0.8299691,0.46629643,,-0.03081474,0.43826807,-0.31217894,0.43508458,-0.69179696,-0.5762971,0.7516327,0.63145655,-0.19055432,0.49573147,-0.3502565,0.7947142,,0.9104407012752017,0.3186167901918806,0.20148753986,3.830615887575291,0.18391272868428285,-1.2804022619207645,-0.41064698226157814,,-0.9715584092418145,0.047958171148934206,0.21453599500000003,-3.3281987829863704,-0.08881372484753629,0.22205708934018392,0.838281747401121,,-0.046482481303738984,-0.07979645340118074,0.07698830152,-0.06345462529521684,,1.9785017e-05,-4.5895576e-06,1.9073486e-06,1.0000001,-3.2618642e-05,-2.7626753e-05,3.2618642e-05,1.0,-3.1590462e-06,2.7641654e-05,3.1590462e-06,1.0,51,0.154,1,1,0.13,False,-0.2617249448978165,1.012870314967118
0.1761296409968054,18:00:52.897122,18:00:37.280032,0,,0.12305904,-0.0007378459,0.01935047,0.920715,0.0019487962,-0.3902308,0.3866502,0.13068852,0.91291964,0.052777767,-0.9914215,0.119573295,,0.09520884,-0.01224374,0.018671274,-0.42826545,0.5979332,0.6775432,0.89888716,0.2049782,0.38728017,0.092686,0.7748934,-0.6252594,,0.10738933,1.3461405,0.4449492,0.9960206,0.009187618,-0.08864846,-0.05015318,-0.764449,-0.6427304,-0.07367239,0.64461875,-0.76094615,,-0.078231975,0.2526689,-0.0826459,-0.91191953,0.11036907,0.39524853,0.27670893,-0.5458764,0.7908547,0.30304274,0.8305647,0.46725523,,-0.03081304,0.43827048,-0.31218648,0.43508163,-0.6917922,-0.5763051,0.75162923,0.63145983,-0.19055694,0.4957393,-0.35025993,0.79470783,,0.9095062505974205,0.3196516363970267,0.20125420766000002,3.824954259101209,0.18063345268991227,-1.2787900558538776,-0.41113701445998085,,-0.9715661319746887,0.04795044841605998,0.21452821726000001,-3.3281987829863704,-0.08881372484753629,0.22205708934018392,0.838281747401121,,-0.046482481303738984,-0.07979645340118074,0.07698830152,-0.06345462529521684,,1.9785017e-05,-4.5895576e-06,1.9073486e-06,1.0000001,-3.2618642e-05,-2.7626753e-05,3.2618642e-05,1.0,-3.1590462e-06,2.7641654e-05,3.1590462e-06,1.0,68,0.207,1,1,0.183,False,-0.2611887454311268,1.0129185951678976
0.20649260599748231,18:00:52.946067,18:00:37.280032,0,,0.12327346,-0.0007070899,0.019704267,0.9202523,0.009124704,-0.3912192,0.38669705,0.13210365,0.91269606,0.060009614,-0.9911938,0.118040115,,0.09520084,-0.012245797,0.018671453,-0.42826545,0.5980665,0.67742556,0.89888644,0.20504835,0.3872447,0.092693,0.77477205,-0.6254089,,0.10738933,1.3461405,0.4449492,0.9960206,0.009187618,-0.08864846,-0.05015318,-0.764449,-0.6427304,-0.07367239,0.64461875,-0.76094615,,-0.078483365,0.2529105,-0.082870685,-0.9122563,0.10324575,0.3963947,0.28147313,-0.54505014,0.78974247,0.29759255,0.832022,0.46816453,,-0.030805193,0.43826973,-0.31218892,0.43508065,-0.691906,-0.57616925,0.75163347,0.631419,-0.19067557,0.49573374,-0.35010883,0.79477787,,0.9090737775564639,0.32091044185552525,0.20094828322000002,3.8220185998924254,0.1753046291990601,-1.2773851922547776,-0.4108103263277123,,-0.9715352410431918,0.04795044841605998,0.2145230321,-3.3281987829863704,-0.08881372484753629,0.2218937318599028,0.8386084355333896,,-0.046482481303738984,-0.07979645340118074,0.07698830152,-0.06345462529521684,,1.9785017e-05,-4.5895576e-06,1.9073486e-06,1.0000001,-3.2618642e-05,-2.7626753e-05,3.2618642e-05,1.0,-3.1590462e-06,2.7641654e-05,3.1590462e-06,1.0,76,0.232,1,1,0.208,False,-0.2613079008681689,1.0128220347663386
0.25542574799328577,18:00:52.975058,18:00:37.280032,0,,0.12334141,-0.0006830245,0.019924715,0.9202316,0.009876721,-0.39124975,0.3866033,0.13267872,0.9126524,0.06092453,-0.9911098,0.118276685,,0.095197715,-0.012245081,0.018672764,-0.42826957,0.5980719,0.67741823,0.8988836,0.2050481,0.3872511,0.0927006,0.77476794,-0.6254128,,0.10738933,1.3461405,0.4449492,0.9960206,0.009187618,-0.08864846,-0.05015318,-0.764449,-0.6427304,-0.07367239,0.64461875,-0.76094615,,-0.07857464,0.2530684,-0.08301398,-0.91233873,0.10250229,0.39639795,0.2819983,-0.54460114,0.7898649,0.29684174,0.8324079,0.46795523,,-0.030802263,0.43827137,-0.31218976,0.4350836,-0.69191074,-0.57616127,0.7516369,0.63141567,-0.19067295,0.4957259,-0.35010543,0.79478425,,0.9090351638920928,0.32162865601282814,0.20077198778000002,3.821808909948941,0.1750313561995292,-1.2772440351875254,-0.41064698226157803,,-0.9715275183103176,0.047958171148934206,0.21452043952000002,-3.3281987829863704,-0.08881372484753629,0.2218937318599028,0.8386084355333896,,-0.046482481303738984,-0.07979645340118074,0.07698830152,-0.06345462529521684,,1.9785017e-05,-4.5895576e-06,1.9073486e-06,1.0000001,-3.2618642e-05,-2.7626753e-05,3.2618642e-05,1.0,-3.1590462e-06,2.7641654e-05,3.1590462e-06,1.0,84,0.258,1,1,0.234,False,-0.26106958999408425,1.0126289139632207
0.28443198899913114,18:00:52.992854,18:00:37.280032,0,,0.123408645,-0.00065131485,0.020132035,0.9204405,0.012321234,-0.39068842,0.38576305,0.13260448,0.91301864,0.06305656,-0.9910923,0.117301434,,0.095199175,-0.012246914,0.018676579,-0.42826545,0.59800553,0.6774794,0.89888656,0.205015,0.38726193,0.09269124,0.77482796,-0.6253398,,0.10738933,1.3461405,0.4449492,0.9960206,0.009187618,-0.08864846,-0.05015318,-0.764449,-0.6427304,-0.07367239,0.64461875,-0.76094615,,-0.0786636,0.25322354,-0.0831425,-0.91280055,0.1000697,0.39595607,0.2827368,-0.54478025,0.7894773,0.2947118,0.83258665,0.46898234,,-0.03080426,0.43827245,-0.31219354,0.4350809,-0.691854,-0.5762314,0.7516324,0.631437,-0.19062012,0.49573514,-0.35017908,0.79474604,,0.909042886624967,0.3223082565057599,0.20060217379000003,3.821808909948941,0.1732550817025785,-1.2757956024394719,-0.41064698226157803,,-0.971542963776066,0.04795044841605998,0.21451784694000003,-3.3281987829863704,-0.08881372484753629,0.22197541060004333,0.8381184033349869,,-0.046482481303738984,-0.07979645340118074,0.07698830152,-0.06345462529521684,,1.9785017e-05,-4.5895576e-06,1.9073486e-06,1.0000001,-3.2618642e-05,-2.7626753e-05,3.2618642e-05,1.0,-3.1590462e-06,2.7641654e-05,3.1590462e-06,1.0,97,0.298,0,1,0.264,False,-0.2617249448978165,1.0124357931601031
0.30222943700209726,18:00:53.033450,18:00:37.392351,0,,0.123536035,-0.00070618093,0.020686194,0.92044854,0.018593922,-0.3904214,0.38481998,0.13186806,0.9135231,0.068470106,-0.9910928,0.11422235,,0.095194824,-0.012249775,0.018677413,-0.42826134,0.5979618,0.6775206,0.8988888,0.20498873,0.38727072,0.09268892,0.7748686,-0.6252898,,0.10738933,1.3461405,0.4449492,0.9960206,0.009187618,-0.08864846,-0.05015318,-0.764449,-0.6427304,-0.07367239,0.64461875,-0.76094615,,-0.07885254,0.2535354,-0.08358228,-0.91342694,0.09382027,0.39604172,0.28554264,-0.5456829,0.78784233,0.29002878,0.8327232,0.47165176,,-0.030800147,0.43827128,-0.31219664,0.43507716,-0.69181687,-0.5762788,0.75163215,0.63144857,-0.19058277,0.4957388,-0.35023144,0.7947207,,0.9089656592962247,0.3234666664368936,0.20008365779,3.820550770288034,0.1688827137100844,-1.2722302295211865,-0.41064698226157803,,-0.9715275183103176,0.047942725683185757,0.21451395807,-3.3281987829863704,-0.08881372484753629,0.22205708934018392,0.837628371136584,,-0.046482481303738984,-0.07979645340118074,0.07698830152,-0.06345462529521684,,1.9785017e-05,-4.5895576e-06,1.9073486e-06,1.0000001,-3.2618642e-05,-2.7626753e-05,3.2618642e-05,1.0,-3.1590462e-06,2.7641654e-05,3.1590462e-06,1.0,105,0.322,0,1,0.264,False,-0.26160578946077395,1.012097831754647
0.3428264069953002,18:00:53.063541,18:00:37.392351,0,,0.12359139,-0.00076676905,0.02087006,0.92036456,0.019873258,-0.39055622,0.38481742,0.13173082,0.91354406,0.06960338,-0.9910862,0.113592744,,0.09519243,-0.012248732,0.018677771,-0.42826545,0.5979671,0.6775133,0.8988861,0.20498852,0.3872772,0.09269649,0.7748645,-0.62529373,,0.10738933,1.3461405,0.4449492,0.9960206,0.009187618,-0.08864846,-0.05015318,-0.764449,-0.6427304,-0.07367239,0.64461875,-0.76094615,,-0.07892921,0.25360602,-0.08375453,-0.91346854,0.09254523,0.39624563,0.28628236,-0.54585284,0.7874561,0.2891671,0.8327545,0.47212535,,-0.030797796,0.43827242,-0.31219643,0.43508014,-0.69182163,-0.5762708,0.7516356,0.6314453,-0.19058016,0.49573097,-0.35022804,0.7947271,,0.9087494227757466,0.32374468482036567,0.19989439945,3.8201313904010643,0.1681995312112572,-1.2716731400027041,-0.41064698226157803,,-0.9715197955774433,0.04795044841605998,0.21451266178000003,-3.3281987829863704,-0.08881372484753629,0.22205708934018392,0.837628371136584,,-0.046482481303738984,-0.07979645340118074,0.07698830152,-0.06345462529521684,,1.9785017e-05,-4.5895576e-06,1.9073486e-06,1.0000001,-3.2618642e-05,-2.7626753e-05,3.2618642e-05,1.0,-3.1590462e-06,2.7641654e-05,3.1590462e-06,1.0,122,0.375,0,1,0.264,False,-0.26106958999408425,1.0122909525577648
0.3729163309908472,18:00:53.116470,18:00:37.392351,0,,0.123741984,-0.0009620786,0.021311343,0.91997635,0.023208935,-0.3912862,0.38520688,0.13115692,0.9134624,0.07252039,-0.9910898,0.11172092,,0.095188476,-0.012253143,0.018678367,-0.4282572,0.59803444,0.6774591,0.8988908,0.2050275,0.38724554,0.09268835,0.7748023,-0.62537205,,0.10738933,1.3461405,0.4449492,0.9960206,0.009187618,-0.08864846,-0.05015318,-0.764449,-0.6427304,-0.07367239,0.64461875,-0.76094615,,-0.07913193,0.25373676,-0.0841988,-0.9133957,0.08921816,0.39717555,0.28849584,-0.5464732,0.78621703,0.28719065,0.83271074,0.4734072,,-0.030794075,0.4382699,-0.31220037,0.43507323,-0.69187886,-0.5762074,0.7516329,0.63142663,-0.19065244,0.49574107,-0.35014868,0.79475576,,0.9080234858855694,0.3242621079229387,0.19941866102000003,3.818663560796673,0.1665598932140719,-1.2703361251583472,-0.41064698226157803,,-0.9715120728445691,0.04792728021743731,0.21450747662000003,-3.3281987829863704,-0.08881372484753629,0.22205708934018392,0.837628371136584,,-0.046482481303738984,-0.07979645340118074,0.07698830152,-0.06345462529521684,,1.9785017e-05,-4.5895576e-06,1.9073486e-06,1.0000001,-3.2618642e-05,-2.7626753e-05,3.2618642e-05,1.0,-3.1590462e-06,2.7641654e-05,3.1590462e-06,1.0,147,0.453,0,1,0.264,False,-0.26095043455704303,1.011711590148411
0.4258016259991564,18:00:53.194333,18:00:37.534270,0,,0.12392644,-0.0012238324,0.02191165,0.91929054,0.032989934,-0.39219445,0.3852447,0.12856433,0.913815,0.080568895,-0.9911522,0.105478674,,0.09517549,-0.012259506,0.0186916,-0.42818487,0.59783167,0.6776837,0.8989359,0.20494294,0.38718557,0.092585236,0.77498114,-0.6251657,,0.10738933,1.3461405,0.4449492,0.9960206,0.009187618,-0.08864846,-0.05015318,-0.764449,-0.6427304,-0.07367239,0.64461875,-0.76094615,,-0.07938735,0.25391874,-0.08480257,-0.9136011,0.07944749,0.3987745,0.2937966,-0.5490151,0.7824743,0.28109884,0.832028,0.47823942,,-0.030783165,0.4382752,-0.31221578,0.43501672,-0.6917044,-0.5764594,0.75159067,0.63150096,-0.19057283,0.49585474,-0.35035914,0.7945921,,0.9072743807967696,0.32478725375838596,0.19876662715,3.8153085217009206,0.1601379777250962,-1.2649361262043342,-0.41064698226157814,,-0.9714889046459464,0.04793500295031153,0.21448932856000003,-3.3281987829863704,-0.08867708834777085,0.22227238639704971,0.8373016830043154,,-0.046482481303738984,-0.07979645340118074,0.07698830152,-0.06345462529521684,,1.9785017e-05,-4.5895576e-06,1.9073486e-06,1.0000001,-3.2618642e-05,-2.7626753e-05,3.2618642e-05,1.0,-3.1590462e-06,2.7641654e-05,3.1590462e-06,1.0,155,0.478,0,1,0.264,False,-0.2604738128088746,1.010842546534381
0.5037014870031271,18:00:53.217575,18:00:37.534270,0,,0.12395002,-0.001241535,0.021983266,0.9191044,0.03622403,-0.39234546,0.38511252,0.12787685,0.91396713,0.083279446,-0.9911282,0.10358173,,0.09516649,-0.012264855,0.018704772,-0.42811257,0.5978389,0.67772293,0.89898133,0.20498154,0.3870597,0.09247851,0.7749653,-0.6252011,,0.10738933,1.3461405,0.4449492,0.9960206,0.009187618,-0.08864846,-0.05015318,-0.764449,-0.6427304,-0.07367239,0.64461875,-0.76094615,,-0.079419084,0.25395063,-0.08486563,-0.91371804,0.07621574,0.3991372,0.29546955,-0.54969794,0.78136414,0.27895713,0.83187944,0.4797495,,-0.030776178,0.43828085,-0.31222996,0.43496072,-0.69170845,-0.5764968,0.7515462,0.63151795,-0.19069177,0.4959712,-0.35032058,0.7945364,,0.9072666580638954,0.3248490356213798,0.19869273862000003,3.8142600719834983,0.15767852072931826,-1.2631756401582201,-0.408850197534101,,-0.9714889046459464,0.04793500295031153,0.21447247679000003,-3.3281987829863704,-0.08854045184800541,0.2222426472334939,0.8368116508059127,,-0.046482481303738984,-0.07979645340118074,0.07698830152,-0.06345462529521684,,1.9785017e-05,-4.5895576e-06,1.9073486e-06,1.0000001,-3.2618642e-05,-2.7626753e-05,3.2618642e-05,1.0,-3.1590462e-06,2.7641654e-05,3.1590462e-06,1.0,172,0.531,0,1,0.264,False,-0.26136747858668974,1.0113736287429549
0.5269480510032736,18:00:53.267562,18:00:37.534270,0,,0.12398769,-0.0012598336,0.022058368,0.91882753,0.042874075,-0.39232352,0.38428217,0.12926596,0.91412115,0.089906186,-0.9906826,0.102297366,,0.095156774,-0.012269594,0.018720984,-0.4281126,0.5978333,0.67772794,0.8989816,0.20497982,0.38706023,0.092476845,0.7749702,-0.6251954,,0.10738933,1.3461405,0.4449492,0.9960206,0.009187618,-0.08864846,-0.05015318,-0.764449,-0.6427304,-0.07367239,0.64461875,-0.76094615,,-0.07946521,0.25398353,-0.08493031,-0.9141927,0.0695903,0.39926055,0.29916543,-0.5487208,0.78064436,0.27340782,0.83310425,0.48081747,,-0.030768873,0.43828914,-0.31224605,0.434961,-0.69170356,-0.5765025,0.7515452,0.6315204,-0.19068791,0.49597257,-0.35032588,0.7945332,,0.907320717194015,0.32481042195700865,0.19861107235000003,3.8121631725486527,0.1512566052403426,-1.2621862931717978,-0.40999360599704093,,-0.9714966273788207,0.04793500295031153,0.21445303244000002,-3.3281987829863704,-0.08854045184800541,0.2222426472334939,0.8368116508059127,,-0.046482481303738984,-0.07979645340118074,0.07698830152,-0.06345462529521684,,1.9785017e-05,-4.5895576e-06,1.9073486e-06,1.0000001,-3.2618642e-05,-2.7626753e-05,3.2618642e-05,1.0,-3.1590462e-06,2.7641654e-05,3.1590462e-06,1.0,180,0.556,0,1,0.264,False,-0.2608908568385213,1.010214903924248
0.576938390993746,18:00:53.298042,18:00:37.676790,0,,0.123993434,-0.0012729466,0.022089586,0.9183611,0.044304945,-0.39325556,0.38499856,0.1299634,0.9137207,0.091591224,-0.99052835,0.102295995,,0.09515311,-0.012271203,0.01872605,-0.4281126,0.5978333,0.67772794,0.8989816,0.20497982,0.38706023,0.092476845,0.7749702,-0.6251954,,0.10738933,1.3461405,0.4449492,0.9960206,0.009187618,-0.08864846,-0.05015318,-0.764449,-0.6427304,-0.07367239,0.64461875,-0.76094615,,-0.07947466,0.25399357,-0.08496176,-0.91389877,0.06816732,0.40017772,0.30082968,-0.5481706,0.7803913,0.27256283,0.83358395,0.48046568,,-0.030765979,0.43829164,-0.31225127,0.434961,-0.69170356,-0.5765025,0.7515452,0.6315204,-0.19068791,0.49597257,-0.35032588,0.7945332,,0.9073361626597635,0.3248026992241344,0.19857477623000003,3.8106953429442614,0.15002687674245363,-1.2625720706209196,-0.41048363819544365,,-0.9714966273788207,0.04793500295031153,0.21444655099,-3.3281987829863704,-0.08854045184800541,0.22224264723349385,0.836484962673644,,-0.046482481303738984,-0.07979645340118074,0.07698830152,-0.06345462529521684,,1.9785017e-05,-4.5895576e-06,1.9073486e-06,1.0000001,-3.2618642e-05,-2.7626753e-05,3.2618642e-05,1.0,-3.1590462e-06,2.7641654e-05,3.1590462e-06,1.0,197,0.609,0,1,0.264,False,-0.2611887454311268,1.0097803821172329
0.607407579998835,18:00:53.345391,18:00:37.676790,0,,0.12403802,-0.0012944043,0.022169203,0.91800267,0.047494844,-0.39371988,0.38507515,0.13058794,0.9135995,0.09480633,-0.99029833,0.10159093,,0.0951425,-0.012278624,0.018739045,-0.42803612,0.5979018,0.6777158,0.8990293,0.20505369,0.38691005,0.09236607,0.7748977,-0.62530154,,0.10738933,1.3461405,0.4449492,0.9960206,0.009187618,-0.08864846,-0.05015318,-0.764449,-0.6427304,-0.07367239,0.64461875,-0.76094615,,-0.07952823,0.25402665,-0.085031204,-0.9138955,0.064986505,0.40071413,0.30299836,-0.54772305,0.77986634,0.27016115,0.834132,0.4808708,,-0.03075742,0.4382958,-0.31226692,0.4349015,-0.69175977,-0.57648,0.7514994,0.6315202,-0.19086878,0.49609408,-0.3502152,0.79450613,,0.9072357671323985,0.32491081748437356,0.19849440625000003,3.809227513339869,0.1472941467471448,-1.2620589660899428,-0.41048363819544376,,-0.9714889046459464,0.04792728021743731,0.21442840293,-3.3281987829863704,-0.08840381534823998,0.22213122932979748,0.8355048982768384,,-0.046482481303738984,-0.07979645340118074,0.07698830152,-0.06345462529521684,,1.9785017e-05,-4.5895576e-06,1.9073486e-06,1.0000001,-3.2618642e-05,-2.7626753e-05,3.2618642e-05,1.0,-3.1590462e-06,2.7641654e-05,3.1590462e-06,1.0,205,0.633,0,1,0.264,False,-0.26053339052739544,1.0089596187039818
0.6547573269926943,18:00:53.376175,18:00:37.676790,0,,0.12407707,-0.0013163239,0.022276297,0.9176149,0.051865153,-0.3940724,0.3849917,0.13050553,0.91364646,0.09881504,-0.99009,0.09978607,,0.09513278,-0.012284301,0.018753171,-0.42796382,0.59796447,0.6777062,0.8990747,0.20512381,0.3867674,0.09225938,0.7748308,-0.6254002,,0.10738933,1.3461405,0.4449492,0.9960206,0.009187618,-0.08864846,-0.05015318,-0.764449,-0.6427304,-0.07367239,0.64461875,-0.76094615,,-0.07957933,0.25407755,-0.08512217,-0.91395414,0.060619127,0.40126452,0.30556357,-0.54788995,0.77874744,0.26705578,0.83435124,0.48222324,,-0.030749854,0.43830195,-0.31228215,0.4348455,-0.6918109,-0.57646084,0.75145495,0.6315215,-0.19103931,0.49621052,-0.35011175,0.794479,,0.9072125989337758,0.32503438121036116,0.19838681418,3.8075499937919934,0.14374159775324336,-1.2604689604360848,-0.4101569500631751,,-0.9714889046459464,0.04792728021743731,0.21441025487,-3.3281987829863704,-0.08826717884847453,0.222019811426101,0.8351782101445698,,-0.046482481303738984,-0.07979645340118074,0.07698830152,-0.06345462529521684,,1.9785017e-05,-4.5895576e-06,1.9073486e-06,1.0000001,-3.2618642e-05,-2.7626753e-05,3.2618642e-05,1.0,-3.1590462e-06,2.7641654e-05,3.1590462e-06,1.0,218,0.674,0,1,0.264,False,-0.26136747858668974,1.008428536495408
0.6855065769923385,18:00:53.402734,18:00:37.676790,0,,0.1241492,-0.0013063848,0.022392645,0.9164567,0.061843123,-0.39532578,0.38524663,0.13061282,0.91352355,0.108129755,-0.98950267,0.09587604,,0.0951179,-0.012288876,0.018773854,-0.42789972,0.5980818,0.6776431,0.89911485,0.20522162,0.38662183,0.0921644,0.77471423,-0.6255585,,0.10738933,1.3461405,0.4449492,0.9960206,0.009187618,-0.08864846,-0.05015318,-0.764449,-0.6427304,-0.07367239,0.64461875,-0.76094615,,-0.07966362,0.2541568,-0.085196026,-0.9138249,0.05064226,0.4029384,0.31187826,-0.5479746,0.77618027,0.26010752,0.8349606,0.48495865,,-0.030738033,0.43831375,-0.31230193,0.43479592,-0.69190884,-0.5763807,0.75141525,0.6315054,-0.19124843,0.49631402,-0.3499472,0.7944868,,0.9072743807967696,0.3252274495322168,0.19828181469000003,3.8031465049788187,0.1355434077673169,-1.2571327145600626,-0.4108103263277124,,-0.9714889046459464,0.047942725683185757,0.21438432907000002,-3.3281987829863704,-0.08813054234870908,0.22182671478226404,0.834688177946167,,-0.046482481303738984,-0.07979645340118074,0.07698830152,-0.06345462529521684,,1.9785017e-05,-4.5895576e-06,1.9073486e-06,1.0000001,-3.2618642e-05,-2.7626753e-05,3.2618642e-05,1.0,-3.1590462e-06,2.7641654e-05,3.1590462e-06,1.0,226,0.699,0,1,0.264,False,-0.26101001227556386,1.0080905750899518
0.7120511370012537,18:00:53.438784,18:00:37.676790,0,,0.12425441,-0.0012847185,0.0225427,0.91619194,0.07489666,-0.39367872,0.38169634,0.13614118,0.9142065,0.122066915,-0.9878541,0.09614357,,0.09511256,-0.012291618,0.018784046,-0.42789972,0.59807616,0.67764807,0.8991151,0.20521992,0.38662237,0.09216264,0.7747191,-0.6255528,,0.10738933,1.3461405,0.4449492,0.9960206,0.009187618,-0.08864846,-0.05015318,-0.764449,-0.6427304,-0.07367239,0.64461875,-0.76094615,,-0.079784214,0.254265,-0.08528433,-0.9151794,0.03761519,0.40128776,0.31826717,-0.54343075,0.7767812,0.24729086,0.8386108,0.48536488,,-0.030734202,0.438319,-0.31231177,0.43479615,-0.6919039,-0.5763864,0.7514142,0.6315079,-0.19124456,0.49631542,-0.34995255,0.7944836,,0.9074056672556314,0.3253973496554497,0.19814829682,3.8004205357135192,0.12146984829147656,-1.2573367303194318,-0.4108103263277123,,-0.9714966273788207,0.047942725683185757,0.21437266246000003,-3.3281987829863704,-0.08813054234870908,0.22182671478226407,0.8343614898138983,,-0.046482481303738984,-0.07979645340118074,0.07698830152,-0.06345462529521684,,1.9785017e-05,-4.5895576e-06,1.9073486e-06,1.0000001,-3.2618642e-05,-2.7626753e-05,3.2618642e-05,1.0,-3.1590462e-06,2.7641654e-05,3.1590462e-06,1.0,243,0.752,0,1,0.264,False,-0.26154621174225356,1.0076077730821573
0.7481602390034823,18:00:53.491651,18:00:37.834060,0,,0.124322504,-0.0013214052,0.02306573,0.91509396,0.0863387,-0.3938893,0.38003886,0.14190319,0.9140208,0.13480951,-0.98610795,0.09704265,,0.09507997,-0.012312241,0.018831193,-0.42774677,0.59831274,0.6775358,0.89921093,0.2054271,0.38628942,0.09193757,0.7744815,-0.62588,,0.10738933,1.3461405,0.4449492,0.9960206,0.009187618,-0.08864846,-0.05015318,-0.764449,-0.6427304,-0.07367239,0.64461875,-0.76094615,,-0.0799104,0.25457364,-0.08569466,-0.9155313,0.0261839,0.40139365,0.32535902,-0.5385578,0.77723676,0.23652478,0.8421816,0.48454735,,-0.030708848,0.4383383,-0.3123637,0.43467766,-0.69210064,-0.5762395,0.7513204,0.6314809,-0.19170171,0.49656114,-0.3496121,0.79447997,,0.9078613084952107,0.3261541774771237,0.19765829920000003,3.796226736843829,0.10958247281188324,-1.2579348939555537,-0.4114637025922495,,-0.9714966273788207,0.04792728021743731,0.21431173683000002,-3.3281987829863704,-0.08785726934917822,0.22144052149459015,0.8324013610202872,,-0.046482481303738984,-0.07979645340118074,0.07698830152,-0.06345462529521684,,1.9785017e-05,-4.5895576e-06,1.9073486e-06,1.0000001,-3.2618642e-05,-2.7626753e-05,3.2618642e-05,1.0,-3.1590462e-06,2.7641654e-05,3.1590462e-06,1.0,255,0.789,0,1,0.264,False,-0.26005676877922745,1.0059179660548763
0.8010005039977841,18:00:53.546251,18:00:37.834060,0,,0.124432385,-0.0012876093,0.023319975,0.9128992,0.10583992,-0.39422458,0.379134,0.13797563,0.91499734,0.15123664,-0.9847641,0.08583024,,0.095066026,-0.01231771,0.018862307,-0.42407396,0.6000294,0.678326,0.900627,0.20081857,0.38541263,0.095038414,0.7743621,-0.6255645,,0.10738933,1.3461405,0.4449492,0.9960206,0.009187618,-0.08864846,-0.05015318,-0.764449,-0.6427304,-0.07367239,0.64461875,-0.76094615,,-0.08004685,0.25475857,-0.085852906,-0.91518277,0.0065694666,0.40298554,0.33547753,-0.54173034,0.77070296,0.22337261,0.84052664,0.49357837,,-0.030699389,0.43835646,-0.31239155,0.43065706,-0.693905,-0.5770878,0.754189,0.62790376,-0.19218695,0.4957151,-0.3524666,0.7937467,,0.9081393268786828,0.3265866505180803,0.19744052248000002,3.789516658652324,0.09455245783768479,-1.2469857843911965,-0.4085235094018326,,-0.9715120728445691,0.04793500295031153,0.21427803329000003,-3.3231662243427422,-0.08785726934917822,0.22152220023473068,0.8322380169541528,,-0.046482481303738984,-0.07979645340118074,0.07698830152,-0.06345462529521684,,1.9785017e-05,-4.5895576e-06,1.9073486e-06,1.0000001,-3.2618642e-05,-2.7626753e-05,3.2618642e-05,1.0,-3.1590462e-06,2.7641654e-05,3.1590462e-06,1.0,268,0.83,0,1,0.264,False,-0.26005676877922745,1.0041315986260362
0.818074451002758,18:00:53.569486,18:00:37.834060,0,,0.124468796,-0.0012734383,0.0234617,0.91273504,0.113861695,-0.39236498,0.37670675,0.13717976,0.9161189,0.15813538,-0.9839802,0.08231619,,0.09505986,-0.012323566,0.01887238,-0.42369056,0.6005727,0.67808473,0.900792,0.20069793,0.38508964,0.09518406,0.77397203,-0.6260249,,0.10738933,1.3461405,0.4449492,0.9960206,0.009187618,-0.08864846,-0.05015318,-0.764449,-0.6427304,-0.07367239,0.64461875,-0.76094615,,-0.08009833,0.25485948,-0.0859466,-0.91583556,-0.0015057871,0.40155074,0.33813426,-0.5422639,0.76916516,0.21658829,0.84020686,0.49713376,,-0.030694792,0.43835944,-0.3124035,0.4302619,-0.69439346,-0.5767949,0.7543803,0.62751114,-0.19271761,0.49576712,-0.35220367,0.79383093,,0.908355563399161,0.3267797188399359,0.19731737493,3.788677898878386,0.08731072335011646,-1.2429592465185193,-0.41064698226157814,,-0.9715120728445691,0.04792728021743731,0.21426507039000003,-3.322746844455773,-0.08772063284941276,0.22092070989019086,0.8312579525573471,,-0.046482481303738984,-0.07979645340118074,0.07698830152,-0.06345462529521684,,1.9785017e-05,-4.5895576e-06,1.9073486e-06,1.0000001,-3.2618642e-05,-2.7626753e-05,3.2618642e-05,1.0,-3.1590462e-06,2.7641654e-05,3.1590462e-06,1.0,276,0.855,0,1,0.264,False,-0.261427056305211,1.0032625550120058
0.8412934640073217,18:00:53.593339,18:00:37.965371,0,,0.12444763,-0.0012788475,0.023756742,0.9122134,0.12324884,-0.39073837,0.37503275,0.13283104,0.91744554,0.16497625,-0.9834457,0.074947804,,0.095044136,-0.012333922,0.018894017,-0.42414263,0.6005176,0.67785096,0.90062135,0.20136814,0.38513893,0.094785064,0.7738408,-0.62624776,,0.10738933,1.3461405,0.4449492,0.9960206,0.009187618,-0.08864846,-0.05015318,-0.764449,-0.6427304,-0.07367239,0.64461875,-0.76094615,,-0.08010997,0.25504842,-0.08617395,-0.9161096,-0.010990727,0.4007772,0.3413437,-0.54572654,0.76528883,0.21030366,0.8378913,0.5036969,,-0.030682428,0.4383677,-0.31242806,0.4307592,-0.69430363,-0.5765319,0.7540181,0.6279163,-0.19281548,0.49588624,-0.3516585,0.79399824,,0.9089424910976022,0.32710407362065336,0.19704645032,3.78700037933051,0.08034226186207899,-1.2348265712257847,-0.4116270466583837,,-0.9715120728445691,0.04791183475168886,0.21423655201000003,-3.3233759142862267,-0.08772063284941276,0.2206756736697692,0.8291344796976015,,-0.046482481303738984,-0.07979645340118074,0.07698830152,-0.06345462529521684,,1.9785017e-05,-4.5895576e-06,1.9073486e-06,1.0000001,-3.2618642e-05,-2.7626753e-05,3.2618642e-05,1.0,-3.1590462e-06,2.7641654e-05,3.1590462e-06,1.0,289,0.896,0,1,0.264,False,-0.2607717014014801,1.0035039560159031
0.8650554000050761,18:00:53.630844,18:00:37.965371,0,,0.12442955,-0.001276046,0.023886606,0.91068196,0.13242854,-0.3913069,0.3756612,0.12859929,0.9177913,0.17186356,-0.98281467,0.06736472,,0.09503436,-0.012336589,0.018907607,-0.42399335,0.60048056,0.67797714,0.90067744,0.20111264,0.3851413,0.09492007,0.773936,-0.6261096,,0.10738933,1.3461405,0.4449492,0.9960206,0.009187618,-0.08864846,-0.05015318,-0.764449,-0.6427304,-0.07367239,0.64461875,-0.76094615,,-0.08010626,0.255136,-0.08627151,-0.9153333,-0.020277554,0.4021863,0.34638315,-0.5490263,0.7606503,0.20538673,0.83555907,0.50956583,,-0.030674644,0.43837565,-0.3124408,0.43059453,-0.69428647,-0.57667553,0.7541397,0.6277967,-0.19272938,0.4958444,-0.3519057,0.7939148,,0.9093595186728103,0.32713496455215024,0.19692719164000003,3.783016270404304,0.07419361937263416,-1.2273624033552288,-0.40999360599704093,,-0.9715120728445691,0.047919557484563086,0.21421970024000003,-3.3231662243427422,-0.08772063284941276,0.22083903115005032,0.82946116782987,,-0.046482481303738984,-0.07979645340118074,0.07698830152,-0.06345462529521684,,1.9785017e-05,-4.5895576e-06,1.9073486e-06,1.0000001,-3.2618642e-05,-2.7626753e-05,3.2618642e-05,1.0,-3.1590462e-06,2.7641654e-05,3.1590462e-06,1.0,297,0.92,0,1,0.264,False,-0.2608908568385213,1.00379363722058
0.9026691619947087,18:00:53.651429,18:00:37.965371,0,,0.124475285,-0.0012262464,0.024026737,0.9094352,0.15351157,-0.38647342,0.37079492,0.12136844,0.92075014,0.1882515,-0.98066485,0.053455383,,0.09503123,-0.012338348,0.01891464,-0.42399332,0.60053027,0.67793304,0.9006777,0.20114239,0.38512537,0.09491834,0.77388966,-0.6261671,,0.10738933,1.3461405,0.4449492,0.9960206,0.009187618,-0.08864846,-0.05015318,-0.764449,-0.6427304,-0.07367239,0.64461875,-0.76094615,,-0.08016603,0.25526235,-0.086339824,-0.9160122,-0.041627463,0.39898464,0.35342285,-0.5542642,0.75358045,0.18977326,0.8312992,0.5224249,,-0.03067255,0.43837938,-0.3124475,0.43059477,-0.69432867,-0.5766245,0.75413865,0.6277834,-0.1927768,0.49584576,-0.3518462,0.7939403,,0.9099232781726286,0.32711179635352755,0.19681830328000002,3.7798709212520363,0.056977420402188665,-1.2124252813479335,-0.41113701445998074,,-0.9715197955774433,0.047919557484563086,0.2142119225,-3.3231662243427422,-0.08772063284941276,0.22075735240990974,0.8296245118960044,,-0.046482481303738984,-0.07979645340118074,0.07698830152,-0.06345462529521684,,1.9785017e-05,-4.5895576e-06,1.9073486e-06,1.0000001,-3.2618642e-05,-2.7626753e-05,3.2618642e-05,1.0,-3.1590462e-06,2.7641654e-05,3.1590462e-06,1.0,314,0.973,0,1,0.264,False,-0.2617249448978165,1.0030211540081084
0.9232521340018138,18:00:53.709467,18:00:38.101390,0,,0.12437023,-0.0012493879,0.024365857,0.90806127,0.1683699,-0.38350484,0.37003714,0.10643366,0.9229,0.19620639,-0.9799609,0.03434512,,0.095015034,-0.012353547,0.018940926,-0.42397442,0.6007459,0.67775345,0.9006887,0.20126818,0.3850338,0.09489721,0.7736893,-0.62641776,,0.10734708,1.34614,0.44495058,0.9960241,0.009240602,-0.088603914,-0.050084144,-0.76444834,-0.64273655,-0.07367239,0.64461875,-0.76094615,,-0.08006702,0.25546646,-0.086625494,-0.9155687,-0.0568143,0.39812818,0.35804853,-0.5659445,0.7426359,0.18312612,0.8224834,0.53850335,,-0.030627461,0.43838638,-0.312481,0.43051735,-0.6945294,-0.5764405,0.7541513,0.6276889,-0.19303499,0.49589378,-0.35161844,0.79401124,,0.9106878287271769,0.3272739737438863,0.19649552707,3.776515882156284,0.049189139915558566,-1.1924341112337635,-0.4086868534679666,,-0.9715506865089402,0.04792728021743731,0.21419895960000002,-3.3231662243427422,-0.08772063284941276,0.22018560122892583,0.8281544153007958,,-0.046482481303738984,-0.07979645340118074,0.07698830152,-0.06345462529521684,,-2.2381544e-05,-3.695488e-06,5.00679e-06,0.99999994,2.0124018e-05,1.7046928e-05,-2.0124018e-05,1.0,1.937151e-06,-1.7039478e-05,-1.937151e-06,1.0,322,0.998,0,1,0.264,False,-0.2607717014014801,1.0014279073823864
0.9812899149983423,18:00:53.736349,18:00:38.101390,0,,0.12433546,-0.0012782365,0.024555713,0.90738106,0.17274287,-0.38316992,0.37098747,0.099326074,0.9233108,0.1975541,-0.97994596,0.02604112,,0.095018074,-0.012354724,0.018942773,-0.42381692,0.60091954,0.67769796,0.9007502,0.20113884,0.3849575,0.095017046,0.77358806,-0.6265246,,0.10734708,1.34614,0.44495058,0.9960241,0.009240602,-0.088603914,-0.050084144,-0.76444834,-0.64273655,-0.07367239,0.64461875,-0.76094615,,-0.08005406,0.25557,-0.08679044,-0.91502,-0.06132169,0.39872053,0.3596824,-0.5715601,0.7375281,0.18266627,0.8182657,0.54504526,,-0.030630745,0.43838656,-0.31248274,0.43034676,-0.69469106,-0.5763731,0.7542659,0.62751293,-0.19315915,0.49586752,-0.3516132,0.79402995,,0.9109967380421459,0.3274670420657419,0.19631145389000001,3.774838362608407,0.04836932091696592,-1.183924444758091,-0.4103202941293095,,-0.9715584092418145,0.047919557484563086,0.21419895960000002,-3.3229565343992573,-0.08772063284941276,0.22018560122892583,0.8278277271685273,,-0.046482481303738984,-0.07979645340118074,0.07698830152,-0.06345462529521684,,-2.2381544e-05,-3.695488e-06,5.00679e-06,0.99999994,2.0124018e-05,1.7046928e-05,-2.0124018e-05,1.0,1.937151e-06,-1.7039478e-05,-1.937151e-06,1.0,331,1.027,0,1,0.264,False,-0.260652545964438,1.0011382261777095
1.0081115049979417,18:00:53.777815,18:00:38.101390,0,,0.12440249,-0.0012657791,0.024843544,0.9059231,0.18701592,-0.37990522,0.36992323,0.08705512,0.9249747,0.2060577,-0.9784918,0.009683669,,0.095017135,-0.012355529,0.018946826,-0.42381698,0.60091394,0.67770296,0.9007504,0.20113717,0.38495797,0.09501526,0.77359295,-0.62651885,,0.10734708,1.34614,0.44495058,0.9960241,0.009240602,-0.088603914,-0.050084144,-0.76444834,-0.64273655,-0.07367239,0.64461875,-0.76094615,,-0.08015214,0.25576293,-0.08699205,-0.91453326,-0.07594159,0.39731824,0.36448663,-0.58069575,0.7279711,0.17543773,0.81057096,0.55874527,,-0.030630387,0.43838876,-0.3124863,0.43034703,-0.6946862,-0.5763788,0.7542649,0.6275154,-0.19315527,0.4958689,-0.3516185,0.79402673,,0.9112206972954984,0.3280385242984345,0.19606256621,3.7716930134561393,0.040581040430335814,-1.166792030548841,-0.41130035852611535,,-0.9715661319746887,0.047919557484563086,0.21419507073000002,-3.3229565343992573,-0.08772063284941276,0.22018560122892583,0.8281544153007958,,-0.046482481303738984,-0.07979645340118074,0.07698830152,-0.06345462529521684,,-2.2381544e-05,-3.695488e-06,5.00679e-06,0.99999994,2.0124018e-05,1.7046928e-05,-2.0124018e-05,1.0,1.937151e-06,-1.7039478e-05,-1.937151e-06,1.0,344,1.068,0,1,0.264,False,-0.2611887454311268,0.9997863805558849
1.0214626750093885,18:00:53.800169,18:00:38.101390,0,,0.12443976,-0.0012675375,0.025035888,0.9059695,0.19024912,-0.37818533,0.36892778,0.0833351,0.9257146,0.20763248,-0.9781924,0.0053108037,,0.09501161,-0.012358718,0.01895994,-0.42381704,0.6010133,0.67761487,0.90075076,0.2011966,0.38492614,0.09501189,0.77350026,-0.62663376,,0.10734708,1.34614,0.44495058,0.9960241,0.009240602,-0.088603914,-0.050084144,-0.76444834,-0.64273655,-0.07367239,0.64461875,-0.76094615,,-0.080210425,0.25588465,-0.08713409,-0.91477555,-0.07927127,0.39610833,0.36475405,-0.58349717,0.7255932,0.17360938,0.8082371,0.56268346,,-0.030626776,0.4383957,-0.31249863,0.43034753,-0.6947705,-0.5762768,0.7542628,0.6274887,-0.19325005,0.4958716,-0.35149944,0.79407775,,0.911274756425618,0.3287567384557374,0.19582015998000002,3.7710639436256863,0.037301764435965244,-1.156603556767195,-0.4093402297325037,,-0.9715815774404372,0.047919557484563086,0.21418081154000002,-3.3229565343992573,-0.08772063284941276,0.22002224374864465,0.8261942865071845,,-0.046482481303738984,-0.07979645340118074,0.07698830152,-0.06345462529521684,,-2.2381544e-05,-3.695488e-06,5.00679e-06,0.99999994,2.0124018e-05,1.7046928e-05,-2.0124018e-05,1.0,1.937151e-06,-1.7039478e-05,-1.937151e-06,1.0,353,1.096,0,1,0.264,False,-0.26101001227556386,0.9986276557371778
1.0438100610044785,18:00:53.842372,18:00:38.101390,0,,0.12453163,-0.0012366772,0.025373042,0.9050134,0.19607005,-0.37750092,0.36960378,0.07686669,0.92600465,0.21057898,-0.97757244,-0.0029028952,,0.09499529,-0.012366377,0.018985331,-0.42381704,0.6011737,0.67747253,0.9007509,0.20128922,0.38487732,0.09501007,0.77335155,-0.62681764,,0.10734708,1.34614,0.44495058,0.9960241,0.009240602,-0.088603914,-0.050084144,-0.76444834,-0.64273655,-0.07367239,0.64461875,-0.76094615,,-0.08033819,0.25612226,-0.08735832,-0.91413516,-0.08526973,0.3963407,0.3672351,-0.5883146,0.7204334,0.17174186,0.80412376,0.5691131,,-0.030614253,0.43840855,-0.3125241,0.4303478,-0.69490683,-0.5761122,0.75426173,0.6274438,-0.19339994,0.49587297,-0.3513102,0.79416066,,0.911274756425618,0.32956762540753093,0.19561275358000002,3.769805803964779,0.037575037435496124,-1.1530691705281222,-0.41130035852611513,,-0.9715893001733114,0.047919557484563086,0.21414970058000002,-3.3229565343992573,-0.08772063284941276,0.21977720752822294,0.825377566176513,,-0.046482481303738984,-0.07979645340118074,0.07698830152,-0.06345462529521684,,-2.2381544e-05,-3.695488e-06,5.00679e-06,0.99999994,2.0124018e-05,1.7046928e-05,-2.0124018e-05,1.0,1.937151e-06,-1.7039478e-05,-1.937151e-06,1.0,366,1.137,0,1,0.264,False,-0.26095043455704303,0.9984828151348395
1.0860137560084695,18:00:53.873850,18:00:38.101390,0,,0.124594115,-0.0011998713,0.025598034,0.90507835,0.19663376,-0.37705168,0.36915225,0.07683709,0.9261872,0.21109124,-0.9774616,-0.0030442476,,0.0949742,-0.012374453,0.01901704,-0.42382118,0.6011677,0.6774752,0.9007485,0.20128557,0.38488477,0.095014244,0.77335715,-0.62681013,,0.10734708,1.34614,0.44495058,0.9960241,0.009240602,-0.088603914,-0.050084144,-0.76444834,-0.64273655,-0.07367239,0.64461875,-0.76094615,,-0.08042426,0.25629303,-0.08749729,-0.9142664,-0.08584275,0.39591405,0.36722255,-0.5882959,0.7204551,0.17106874,0.8040765,0.56938255,,-0.030597864,0.43842572,-0.312555,0.4303513,-0.69490176,-0.5761157,0.7542631,0.62744534,-0.19338958,0.49586788,-0.35131738,0.79416066,,0.9112824791584921,0.3303862350921988,0.19543386556000003,3.7700154939082635,0.037575037435496124,-1.1523340618668572,-0.4114637025922493,,-0.9715970229061855,0.04792728021743731,0.21411081188000003,-3.3229565343992573,-0.08772063284941276,0.21977720752822294,0.825377566176513,,-0.046482481303738984,-0.07979645340118074,0.07698830152,-0.06345462529521684,,-2.2381544e-05,-3.695488e-06,5.00679e-06,0.99999994,2.0124018e-05,1.7046928e-05,-2.0124018e-05,1.0,1.937151e-06,-1.7039478e-05,-1.937151e-06,1.0,379,1.178,0,1,0.264,False,-0.26095043455704303,0.9987242161387369
1.117449530007434,18:00:53.918268,18:00:38.286563,0,,0.12468453,-0.0011321902,0.025974378,0.90434337,0.19846761,-0.37785366,0.37016785,0.075972736,0.9258531,0.21245843,-0.97715837,-0.0047609806,,0.09495337,-0.012384199,0.01905483,-0.42368457,0.60116524,0.6775629,0.90083456,0.20135315,0.384648,0.094807476,0.7733415,-0.62686074,,0.10734708,1.34614,0.44495058,0.9960241,0.009240602,-0.088603914,-0.050084144,-0.76444834,-0.64273655,-0.07367239,0.64461875,-0.76094615,,-0.08055408,0.2565841,-0.0877271,-0.9136639,-0.08771791,0.3968927,0.3689216,-0.5888544,0.71912956,0.17063145,0.80346507,0.57037604,,-0.030582597,0.43844572,-0.3125913,0.4302462,-0.69489545,-0.5762018,0.7541758,0.6274843,-0.19360349,0.49609178,-0.3512603,0.79404604,,0.9113751519529828,0.3317608815438107,0.19513701515,3.768337974360387,0.037848310435027004,-1.1500248567298925,-0.41130035852611513,,-0.9716201911048082,0.047942725683185757,0.21406673802,-3.3229565343992573,-0.08744735984988189,0.21971772920111127,0.8255409102426474,,-0.046482481303738984,-0.07979645340118074,0.07698830152,-0.06345462529521684,,-2.2381544e-05,-3.695488e-06,5.00679e-06,0.99999994,2.0124018e-05,1.7046928e-05,-2.0124018e-05,1.0,1.937151e-06,-1.7039478e-05,-1.937151e-06,1.0,388,1.207,0,1,0.264,False,-0.2607717014014801,0.9978551725247067
1.1619127260055393,18:00:53.947013,18:00:38.286563,0,,0.12470663,-0.0011068434,0.026101828,0.9043437,0.1988548,-0.37764922,0.37007263,0.07545772,0.92593324,0.21262284,-0.97711957,-0.005351126,,0.09494769,-0.012388818,0.019065738,-0.42368048,0.60138124,0.67737377,0.9008373,0.201479,0.38457572,0.094799995,0.77314067,-0.62710947,,0.10734708,1.34614,0.44495058,0.9960241,0.009240602,-0.088603914,-0.050084144,-0.76444834,-0.64273655,-0.07367239,0.64461875,-0.76094615,,-0.080589525,0.256685,-0.087804176,-0.91368455,-0.08811856,0.3967564,0.36895633,-0.5892406,0.7187953,0.17044578,0.80313796,0.570892,,-0.030578572,0.43845016,-0.31260303,0.43024325,-0.6950789,-0.5759827,0.7541724,0.62742436,-0.1938111,0.4960996,-0.35100433,0.7941544,,0.9114523792817251,0.33221652278339,0.19503720082,3.768337974360387,0.03798494693479244,-1.1490744510117614,-0.41179039072451806,,-0.9716279138376824,0.04793500295031153,0.21405377512,-3.3229565343992573,-0.08744735984988189,0.21939101424054905,0.8234174373829016,,-0.046482481303738984,-0.07979645340118074,0.07698830152,-0.06345462529521684,,-2.2381544e-05,-3.695488e-06,5.00679e-06,0.99999994,2.0124018e-05,1.7046928e-05,-2.0124018e-05,1.0,1.937151e-06,-1.7039478e-05,-1.937151e-06,1.0,401,1.248,0,1,0.264,False,-0.26101001227556386,0.9977103319223684
1.1906536040041829,18:00:53.986267,18:00:38.286563,0,,0.12474641,-0.0010602474,0.026296675,0.9025143,0.20277703,-0.37993303,0.37263063,0.07458913,0.92497724,0.21590303,-0.97637993,-0.008243263,,0.09494294,-0.012392633,0.019072652,-0.42367637,0.60127085,0.6774743,0.9008398,0.20141809,0.38460165,0.094794095,0.7732424,-0.6269849,,0.10734708,1.34614,0.44495058,0.9960241,0.009240602,-0.088603914,-0.050084144,-0.76444834,-0.64273655,-0.07367239,0.64461875,-0.76094615,,-0.080649495,0.25684482,-0.08791632,-0.91217077,-0.092117056,0.39932314,0.37312824,-0.58963317,0.71631557,0.16946928,0.8024009,0.57221764,,-0.030574907,0.4384524,-0.31261116,0.43024004,-0.6949849,-0.5760985,0.75416994,0.6274569,-0.19371508,0.49610603,-0.35113218,0.79409385,,0.9116145566720838,0.3329038460091959,0.19488812747,3.7641441754906966,0.036618581937138045,-1.1464083759121269,-0.41130035852611535,,-0.9716279138376824,0.04792728021743731,0.21404470109,-3.3229565343992573,-0.08744735984988189,0.21955437172083017,0.8237441255151702,,-0.046482481303738984,-0.07979645340118074,0.07698830152,-0.06345462529521684,,-2.2381544e-05,-3.695488e-06,5.00679e-06,0.99999994,2.0124018e-05,1.7046928e-05,-2.0124018e-05,1.0,1.937151e-06,-1.7039478e-05,-1.937151e-06,1.0,414,1.289,0,1,0.264,False,-0.26148663402373185,0.999158737945752
1.229886697998154,18:00:54.026896,18:00:38.286563,0,,0.12478359,-0.0010648221,0.026546538,0.90006125,0.21222289,-0.3805926,0.37366998,0.07345384,0.92464876,0.22418761,-0.97445667,-0.013188422,,0.09493623,-0.012395613,0.019081652,-0.4238298,0.6009202,0.67768943,0.9007813,0.20145169,0.38472122,0.09466502,0.7735063,-0.6266789,,0.10734708,1.34614,0.44495058,0.9960241,0.009240602,-0.088603914,-0.050084144,-0.76444834,-0.64273655,-0.07367239,0.64461875,-0.76094615,,-0.08071409,0.25700182,-0.088103436,-0.9106236,-0.10174062,0.4005165,0.3794385,-0.5897617,0.7128868,0.16367975,0.80114293,0.5756552,,-0.030569559,0.43845686,-0.31262052,0.43040794,-0.6946724,-0.5763499,0.75405085,0.62768614,-0.19343595,0.49614146,-0.35134077,0.7939794,,0.9118771295898074,0.33328998265290716,0.19466516559000002,3.7589019269035835,0.029786756948866018,-1.1414909106484301,-0.411300358526115,,-0.9716279138376824,0.04792728021743731,0.21403303448000002,-3.3231662243427422,-0.08744735984988189,0.21996276542153295,0.8252142221103788,,-0.046482481303738984,-0.07979645340118074,0.07698830152,-0.06345462529521684,,-2.2381544e-05,-3.695488e-06,5.00679e-06,0.99999994,2.0124018e-05,1.7046928e-05,-2.0124018e-05,1.0,1.937151e-06,-1.7039478e-05,-1.937151e-06,1.0,427,1.33,0,1,0.264,False,-0.2617249448978165,1.0000760617605615
1.270540539000649,18:00:54.071860,18:00:38.436198,0,,0.124810174,-0.0010937154,0.026843652,0.8953303,0.23062286,-0.38104635,0.37497887,0.07138851,0.92428064,0.24036255,-0.97042084,-0.022562474,,0.09493178,-0.012404434,0.019088805,-0.42396665,0.6006813,0.6778157,0.9007329,0.20155576,0.38478005,0.09451246,0.7736647,-0.6265063,,0.10734708,1.34614,0.44495058,0.9960241,0.009240602,-0.088603914,-0.050084144,-0.76444834,-0.64273655,-0.07367239,0.64461875,-0.76094615,,-0.080773935,0.2571717,-0.08834299,-0.9076771,-0.12051539,0.40199292,0.3912097,-0.58971304,0.7065363,0.15191194,0.79857033,0.5824158,,-0.030566348,0.43845558,-0.3126322,0.4305629,-0.69445455,-0.5764967,0.75392205,0.62788725,-0.19328515,0.49620268,-0.35141218,0.79390955,,0.9123945526923805,0.3333672099816494,0.19438775953,3.749256189503295,0.015576560973260212,-1.1322721321280786,-0.41179039072451795,,-0.9716279138376824,0.04789638928594041,0.21402266416000001,-3.3233759142862267,-0.08744735984988189,0.22020780164195464,0.8270110068378558,,-0.046482481303738984,-0.07979645340118074,0.07698830152,-0.06345462529521684,,-2.2381544e-05,-3.695488e-06,5.00679e-06,0.99999994,2.0124018e-05,1.7046928e-05,-2.0124018e-05,1.0,1.937151e-06,-1.7039478e-05,-1.937151e-06,1.0,436,1.358,0,1,0.264,False,-0.2620824112089424,1.0002691825636794
1.315477379001095,18:00:54.096090,18:00:38.436198,0,,0.12478317,-0.001128152,0.026981711,0.8952424,0.23339787,-0.3795604,0.37372607,0.070533276,0.9248535,0.24263048,-0.9698198,-0.024082541,,0.09492281,-0.012410887,0.019090235,-0.42748165,0.59892726,0.6771598,0.89937806,0.20591365,0.38564068,0.09153417,0.7738769,-0.62668645,,0.10734708,1.34614,0.44495058,0.9960241,0.009240602,-0.088603914,-0.050084144,-0.76444834,-0.64273655,-0.07367239,0.64461875,-0.76094615,,-0.0807631,0.25723687,-0.08847186,-0.9078682,-0.12335838,0.400697,0.39174032,-0.5901226,0.7059001,0.14938165,0.7978334,0.58407795,,-0.030557815,0.43845245,-0.31263864,0.43441233,-0.6926326,-0.5758003,0.75117004,0.6313468,-0.19272976,0.4970206,-0.34879977,0.7945497,,0.9126648483429783,0.3333672099816494,0.19424127876000002,3.749256189503295,0.012707194478185961,-1.1300957136307348,-0.41179039072451795,,-0.971612468371934,0.04788094382019196,0.21401488642000002,-3.3281987829863704,-0.08744735984988189,0.2202894803820952,0.8268476627717216,,-0.046482481303738984,-0.07979645340118074,0.07698830152,-0.06345462529521684,,-2.2381544e-05,-3.695488e-06,5.00679e-06,0.99999994,2.0124018e-05,1.7046928e-05,-2.0124018e-05,1.0,1.937151e-06,-1.7039478e-05,-1.937151e-06,1.0,449,1.399,0,1,0.264,False,-0.2616653671792948,1.0026349124018727
1.3397303439996904,18:00:54.137128,18:00:38.436198,0,,0.12472437,-0.001186341,0.027314812,0.8939394,0.23847246,-0.37947726,0.37419704,0.06888163,0.9247875,0.24667537,-0.96870327,-0.027659744,,0.0949134,-0.012429513,0.019093633,-0.4346327,0.59498876,0.6760788,0.8965801,0.21493961,0.3872276,0.08507994,0.7744605,-0.62687504,,0.10734708,1.34614,0.44495058,0.9960241,0.009240602,-0.088603914,-0.050084144,-0.76444834,-0.64273655,-0.07367239,0.64461875,-0.76094615,,-0.08074273,0.25741264,-0.088765934,-0.9070089,-0.12856117,0.4010074,0.39479944,-0.5909267,0.70351905,0.14652076,0.7964155,0.5867317,,-0.03054945,0.43844187,-0.3126549,0.44229618,-0.68857586,-0.5746628,0.7452727,0.63863236,-0.19161771,0.49894157,-0.34352872,0.7956415,,0.913236330575671,0.33360661470075037,0.19392239142,3.7465302202379966,0.009291281984049951,-1.1261667636763564,-0.41179039072451784,,-0.971612468371934,0.04782688469007239,0.21400192352000003,-3.338263900273628,-0.08717408685035101,0.22072007449582687,0.8278277271685273,,-0.046482481303738984,-0.07979645340118074,0.07698830152,-0.06345462529521684,,-2.2381544e-05,-3.695488e-06,5.00679e-06,0.99999994,2.0124018e-05,1.7046928e-05,-2.0124018e-05,1.0,1.937151e-06,-1.7039478e-05,-1.937151e-06,1.0,462,1.44,0,1,0.264,False,-0.2620824112089424,1.005676565050979
1.3807601570006227,18:00:54.170337,18:00:38.436198,0,,0.12475173,-0.0011617243,0.027629793,0.89051765,0.2539738,-0.37745893,0.37352687,0.06548819,0.92530483,0.2597223,-0.9649914,-0.03654769,,0.09491033,-0.012475945,0.019091189,-0.44665325,0.58796257,0.674389,0.8917663,0.23149207,0.38879868,0.0724833,0.7750556,-0.62772197,,0.10734708,1.34614,0.44495058,0.9960241,0.009240602,-0.088603914,-0.050084144,-0.76444834,-0.64273655,-0.07367239,0.64461875,-0.76094615,,-0.080804095,0.25763464,-0.08898393,-0.90506303,-0.14445001,0.3999939,0.40296498,-0.59193563,0.6980197,0.13594168,0.7929353,0.59394735,,-0.03054729,0.43840647,-0.31268516,0.45578223,-0.68126655,-0.57283366,0.73409384,0.65165645,-0.19091901,0.5033575,-0.33349618,0.797127,,0.9138309810069862,0.3340236422759585,0.19365665197,3.7402395219334608,-0.002732729995308809,-1.1163619881510713,-0.412280422922921,,-0.9716201911048082,0.0477033209640848,0.21398896062000003,-3.3562972354132965,-0.08539781235340027,0.2209868952907252,0.8309312644250785,,-0.046482481303738984,-0.07979645340118074,0.07698830152,-0.06345462529521684,,-2.2381544e-05,-3.695488e-06,5.00679e-06,0.99999994,2.0124018e-05,1.7046928e-05,-2.0124018e-05,1.0,1.937151e-06,-1.7039478e-05,-1.937151e-06,1.0,471,1.469,0,1,0.264,False,-0.2613079008681689,1.0129668753686771
1.413929091009777,18:00:54.201104,18:00:38.436198,0,,0.12477514,-0.0011546761,0.028008506,0.88822055,0.2643598,-0.37573633,0.37166175,0.06728247,0.9259269,0.27005833,-0.9620742,-0.038490802,,0.09490175,-0.012511976,0.019088924,-0.45480415,0.5822972,0.6738568,0.8882772,0.24208069,0.390334,0.06416261,0.7760971,-0.62734073,,0.10734708,1.34614,0.44495058,0.9960241,0.009240602,-0.088603914,-0.050084144,-0.76444834,-0.64273655,-0.07367239,0.64461875,-0.76094615,,-0.080868974,0.257885,-0.089261666,-0.9039626,-0.15505117,0.3985106,0.4084003,-0.58924985,0.6971326,0.12673107,0.79293364,0.5959828,,-0.030539418,0.4383792,-0.3127091,0.4648911,-0.6755207,-0.57231814,0.72649896,0.66052216,-0.1894986,0.506039,-0.3276923,0.797836,,0.9144024632396789,0.3345874017757769,0.19332739431,3.73646510295074,-0.012707194478185961,-1.113210884329807,-0.41195373479065234,,-0.9715970229061855,0.04759520270384565,0.21397599772000003,-3.3684592521353993,-0.0844413568550422,0.22241229594864542,0.835341554210704,,-0.046482481303738984,-0.07979645340118074,0.07698830152,-0.06345462529521684,,-2.2381544e-05,-3.695488e-06,5.00679e-06,0.99999994,2.0124018e-05,1.7046928e-05,-2.0124018e-05,1.0,1.937151e-06,-1.7039478e-05,-1.937151e-06,1.0,484,1.51,0,1,0.264,False,-0.26112916771260597,1.0190019004661093
1.4447530269972049,18:00:54.246115,18:00:38.436198,0,,0.124737956,-0.0011546761,0.028262913,0.88642776,0.26633033,-0.3785679,0.3743955,0.06835389,0.92474633,0.27216458,-0.961455,-0.039122134,,0.094898954,-0.012583874,0.019096255,-0.45397478,0.5808263,0.6756829,0.8888618,0.24253535,0.3887177,0.061900377,0.7770568,-0.6263793,,0.10734708,1.34614,0.44495058,0.9960241,0.009240602,-0.088603914,-0.050084144,-0.76444834,-0.64273655,-0.07367239,0.64461875,-0.76094615,,-0.08086008,0.2580525,-0.08945651,-0.9023518,-0.15705328,0.4013671,0.41193983,-0.5881437,0.6959832,0.12675509,0.7933607,0.595409,,-0.030539509,0.4383318,-0.31276372,0.4643912,-0.67418194,-0.5742991,0.7253314,0.6616135,-0.19016284,0.5081684,-0.32824725,0.79625285,,0.9148581044792581,0.3350584884811046,0.19310054356000003,3.7324809940245336,-0.013253740477247724,-1.1127652127150212,-0.4116270466583837,,-0.9715506865089402,0.047363520717618915,0.21394877563000003,-3.3690883219658527,-0.08225517285879515,0.22397843783526578,0.8438354456496866,,-0.046482481303738984,-0.07979645340118074,0.07698830152,-0.06345462529521684,,-2.2381544e-05,-3.695488e-06,5.00679e-06,0.99999994,2.0124018e-05,1.7046928e-05,-2.0124018e-05,1.0,1.937151e-06,-1.7039478e-05,-1.937151e-06,1.0,497,1.551,0,1,0.264,False,-0.2618441003348577,1.0195329826746835
1.4897588580060983,18:00:54.295321,18:00:38.673457,0,,0.12477866,-0.0011096895,0.028652161,0.88065547,0.28584582,-0.37780645,0.37540215,0.06542364,0.9245502,0.28899625,-0.95603955,-0.049691528,,0.09473244,-0.012841411,0.019180357,-0.45604524,0.5790579,0.6758065,0.88787067,0.24407367,0.39001763,0.0608961,0.7778945,-0.6254372,,0.10734708,1.34614,0.44495058,0.9960241,0.009240602,-0.088603914,-0.050084144,-0.76444834,-0.64273655,-0.07367239,0.64461875,-0.76094615,,-0.08094243,0.2583375,-0.089715734,-0.89844984,-0.17710814,0.40177178,0.4239664,-0.5879144,0.68891877,0.11419432,0.78929675,0.60329956,,-0.030392684,0.43821278,-0.31301945,0.4665521,-0.6725038,-0.5745152,0.7240778,0.6634365,-0.18858248,0.50797683,-0.3280102,0.7964728,,0.915576318636561,0.3356531389124199,0.19278295251000002,3.7222061867937914,-0.02787384595214985,-1.1013335694603474,-0.4116270466583838,,-0.9710487088721156,0.046351842711095506,0.21372451746,-3.3716046012876673,-0.08375817435621499,0.226020822177332,0.8443254778480895,,-0.046482481303738984,-0.07979645340118074,0.07698830152,-0.06345462529521684,,-2.2381544e-05,-3.695488e-06,5.00679e-06,0.99999994,2.0124018e-05,1.7046928e-05,-2.0124018e-05,1.0,1.937151e-06,-1.7039478e-05,-1.937151e-06,1.0,506,1.58,0,1,0.264,False,-0.2607121236829584,1.010842546534381
1.538967541011516,18:00:54.315871,18:00:38.673457,0,,0.12479712,-0.0010928363,0.028781831,0.8789683,0.29336846,-0.37596446,0.37425786,0.064230084,0.92509764,0.2955427,-0.95383924,-0.053339332,,0.09462933,-0.012994312,0.019223511,-0.45950478,0.5767908,0.6754018,0.8863444,0.2489902,0.39038134,0.056999803,0.77802056,-0.6256475,,0.10734708,1.34614,0.44495058,0.9960241,0.009240602,-0.088603914,-0.050084144,-0.76444834,-0.64273655,-0.07367239,0.64461875,-0.76094615,,-0.0809747,0.25843358,-0.08980039,-0.89752126,-0.18485261,0.4003562,0.42744973,-0.58780116,0.6868599,0.10836199,0.78760356,0.60657924,,-0.030300377,0.43813777,-0.31316686,0.47046643,-0.6701475,-0.5740764,0.7205738,0.6672839,-0.18842936,0.50934744,-0.3250147,0.79682535,,0.9158388915542846,0.33580759356990436,0.19267924931000002,3.7196899074719774,-0.034295761441125554,-1.0969137153880213,-0.41097367039384647,,-0.9707166313585239,0.045803528677025564,0.21359359217,-3.377056539818265,-0.08348490135668411,0.22661477377134476,0.842365349054478,,-0.046482481303738984,-0.07979645340118074,0.07698830152,-0.06345462529521684,,-2.2381544e-05,-3.695488e-06,5.00679e-06,0.99999994,2.0124018e-05,1.7046928e-05,-2.0124018e-05,1.0,1.937151e-06,-1.7039478e-05,-1.937151e-06,1.0,519,1.621,0,1,0.264,False,-0.26243987752006825,1.0055800046494199
1.5595198640075978,18:00:54.359103,18:00:38.673457,0,,0.124757364,-0.0010729283,0.029131934,0.87465775,0.3072522,-0.37492594,0.37462297,0.06238559,0.925076,0.30762163,-0.9495809,-0.060537785,,0.0942436,-0.013588272,0.019336402,-0.4699177,0.5693269,0.67456955,0.881804,0.2681546,0.38796255,0.039988488,0.7771485,-0.6280454,,0.10734708,1.34614,0.44495058,0.9960241,0.009240602,-0.088603914,-0.050084144,-0.76444834,-0.64273655,-0.07367239,0.64461875,-0.76094615,,-0.080973364,0.25867856,-0.09005444,-0.89456207,-0.19915943,0.40011773,0.43581897,-0.58719224,0.6821049,0.099098384,0.7845641,0.61207736,,-0.02994908,0.43780836,-0.31369823,0.4829651,-0.662138,-0.5729904,0.70648295,0.6812553,-0.19176301,0.5173263,-0.31219313,0.79681176,,0.9167424513005689,0.3361473938163702,0.19238110261000002,3.712350759450019,-0.04522668142236079,-1.0885720342732914,-0.41113701445998097,,-0.969272480311044,0.04377244993110452,0.21313470551000002,-3.39676739450581,-0.0787026238648937,0.22712579910956038,0.8361582745413754,,-0.046482481303738984,-0.07979645340118074,0.07698830152,-0.06345462529521684,,-2.2381544e-05,-3.695488e-06,5.00679e-06,0.99999994,2.0124018e-05,1.7046928e-05,-2.0124018e-05,1.0,1.937151e-06,-1.7039478e-05,-1.937151e-06,1.0,532,1.662,1,2,0.268,False,-0.26059296824591627,0.992109828631951
1.602715088010882,18:00:54.398470,18:00:38.782609,0,,0.124676354,-0.001059413,0.029391676,0.87116826,0.31763828,-0.3743947,0.37553778,0.060142964,0.9248536,0.31628615,-0.9463026,-0.0668906,,0.09376033,-0.014240809,0.019462049,-0.47619787,0.5652498,0.6735933,0.8789396,0.2829092,0.38396287,0.026469111,0.7748901,-0.6315414,,0.10734708,1.34614,0.44495058,0.9960241,0.009240602,-0.088603914,-0.050084144,-0.76444834,-0.64273655,-0.07367239,0.64461875,-0.76094615,,-0.08092121,0.25886217,-0.09024879,-0.8920297,-0.2098917,0.40028548,0.4423389,-0.58733004,0.67777556,0.09284021,0.7816578,0.6167591,,-0.029504415,0.4374519,-0.31429017,0.4909413,-0.65741014,-0.5716542,0.6956821,0.69081295,-0.19698684,0.52440727,-0.30098066,0.7964971,,0.9176537337797274,0.3362709575423578,0.19215684444000003,3.706269751088968,-0.053014961908990896,-1.0813227476210494,-0.4109736703938467,,-0.9674267471541044,0.041571471061950534,0.21259804145000002,-3.410816620719273,-0.07392034637310328,0.2261666071252459,0.8286444474991986,,-0.046482481303738984,-0.07979645340118074,0.07698830152,-0.06345462529521684,,-2.2381544e-05,-3.695488e-06,5.00679e-06,0.99999994,2.0124018e-05,1.7046928e-05,-2.0124018e-05,1.0,1.937151e-06,-1.7039478e-05,-1.937151e-06,1.0,541,1.69,1,2,0.296,False,-0.26101001227556386,0.9771912465910981
1.6421102470048936,18:00:54.428368,18:00:38.782609,0,,0.12462756,-0.0010228008,0.029561296,0.8689878,0.3275739,-0.37088436,0.37350205,0.05743563,0.9258496,0.32458615,-0.94307804,-0.07243869,,0.09339662,-0.014706515,0.019569099,-0.47724476,0.5654796,0.6726589,0.8785348,0.28929156,0.38011473,0.020352483,0.77236193,-0.63485634,,0.10734708,1.34614,0.44495058,0.9960241,0.009240602,-0.088603914,-0.050084144,-0.76444834,-0.64273655,-0.07367239,0.64461875,-0.76094615,,-0.0808906,0.2590029,-0.090357184,-0.8908245,-0.22018096,0.39743185,0.4463144,-0.58783025,0.67472893,0.08506,0.7784446,0.6219235,,-0.029170798,0.43721068,-0.31472734,0.49279583,-0.6571292,-0.5703801,0.6913151,0.69374883,-0.20198014,0.5284276,-0.2947774,0.79615986,,0.9184028388685271,0.3363250166724774,0.19202591915000003,3.7033340918801847,-0.06175969789397908,-1.0741103230443378,-0.41113701445998097,,-0.9660675461682409,0.04000375628848296,0.21219230268000003,-3.415639489419417,-0.07091434337826359,0.2240421282044869,0.8208039323247532,,-0.046482481303738984,-0.07979645340118074,0.07698830152,-0.06345462529521684,,-2.2381544e-05,-3.695488e-06,5.00679e-06,0.99999994,2.0124018e-05,1.7046928e-05,-2.0124018e-05,1.0,1.937151e-06,-1.7039478e-05,-1.937151e-06,1.0,554,1.731,1,2,0.337,False,-0.2612483231496481,0.9704320184819739
1.671933504010667,18:00:54.469206,18:00:38.782609,0,,0.124571584,-0.0009647906,0.029736072,0.8634613,0.34229207,-0.3705002,0.37463892,0.056644917,0.9254389,0.3377573,-0.9378845,-0.07932535,,0.09284164,-0.015368648,0.019791842,-0.4786977,0.56839454,0.6691606,0.8778583,0.29718423,0.37556136,0.014603019,0.7672085,-0.6412314,,0.10734708,1.34614,0.44495058,0.9960241,0.009240602,-0.088603914,-0.050084144,-0.76444834,-0.64273655,-0.07367239,0.64461875,-0.76094615,,-0.08085295,0.2591636,-0.09045619,-0.8867601,-0.23539622,0.3978004,0.45604548,-0.58586055,0.6699178,0.075359434,0.7754715,0.62686914,,-0.028668508,0.4369183,-0.3154043,0.49499577,-0.65911317,-0.56617045,0.6870284,0.69581157,-0.20937581,0.5319503,-0.28533503,0.7972533,,0.9193141213476856,0.3363172939396032,0.19190277160000002,3.69431742431035,-0.0736470733735724,-1.0662138977058415,-0.4114637025922494,,-0.9641909220798043,0.03771782735771251,0.21153508365,-3.4206720480630457,-0.06900143238154742,0.21848001928584937,0.8034894613145196,,-0.046482481303738984,-0.07979645340118074,0.07698830152,-0.06345462529521684,,-2.2381544e-05,-3.695488e-06,5.00679e-06,0.99999994,2.0124018e-05,1.7046928e-05,-2.0124018e-05,1.0,1.937151e-06,-1.7039478e-05,-1.937151e-06,1.0,563,1.76,1,2,0.366,False,-0.26178452261633733,0.9650246359946748
1.7128430599987041,18:00:54.498714,18:00:38.782609,0,,0.124577135,-0.00089892745,0.029858887,0.8576688,0.35902315,-0.36811173,0.37446943,0.054500103,0.92563623,0.352387,-0.93173593,-0.08770022,,0.09268752,-0.015559636,0.019871414,-0.47932747,0.5695654,0.6677126,0.8775312,0.29927427,0.37466502,0.013566911,0.7655258,-0.6432619,,0.10734708,1.34614,0.44495058,0.9960241,0.009240602,-0.088603914,-0.050084144,-0.76444834,-0.64273655,-0.07367239,0.64461875,-0.76094615,,-0.080870524,0.25929308,-0.090505004,-0.88262177,-0.25274754,0.39635524,0.46575004,-0.5844063,0.6644894,0.06368443,0.7710953,0.6335269,,-0.028531605,0.43684393,-0.3156099,0.49575135,-0.6599906,-0.5644847,0.6861329,0.6961129,-0.21130186,0.53240234,-0.28255832,0.7979402,,0.9199242172447494,0.33630184847385475,0.19183536452000002,3.6857201366274843,-0.08731072335011646,-1.0563789671784485,-0.4108103263277123,,-0.9637430035730993,0.03706911779627765,0.21134582531,-3.4219301877239525,-0.06913806888131287,0.21663114742617232,0.7967923546030141,,-0.046482481303738984,-0.07979645340118074,0.07698830152,-0.06345462529521684,,-2.2381544e-05,-3.695488e-06,5.00679e-06,0.99999994,2.0124018e-05,1.7046928e-05,-2.0124018e-05,1.0,1.937151e-06,-1.7039478e-05,-1.937151e-06,1.0,576,1.801,1,2,0.407,False,-0.2612483231496481,0.9641555923806446
1.7423607550008455,18:00:54.542510,18:00:38.922724,0,,0.124586396,-0.00083334744,0.03000173,0.85311955,0.37640795,-0.36125302,0.3706836,0.04993105,0.9274161,0.3671245,-0.9251074,-0.09693116,,0.09249892,-0.015823089,0.019968867,-0.47994408,0.57052916,0.6664457,0.8772044,0.30092615,0.37410682,0.012887865,0.7641594,-0.64489853,,0.10734708,1.34614,0.44495058,0.9960241,0.009240602,-0.088603914,-0.050084144,-0.76444834,-0.64273655,-0.07367239,0.64461875,-0.76094615,,-0.08089399,0.25943515,-0.090568654,-0.87981236,-0.27085608,0.39059845,0.4727165,-0.5845126,0.65945745,0.049691625,0.7648412,0.64229953,,-0.028364854,0.4367312,-0.31588188,0.49644548,-0.6607172,-0.5630228,0.68547875,0.69632334,-0.21272671,0.53259814,-0.28033295,0.7985942,,0.9205883722719327,0.3362709575423578,0.19175369825000002,3.6804778880403717,-0.10275064782361121,-1.0441971377614556,-0.41130035852611513,,-0.9631637986075324,0.03607288525550269,0.21109953021000002,-3.4229786374413753,-0.06982125138014007,0.2153913046615621,0.7912386563544487,,-0.046482481303738984,-0.07979645340118074,0.07698830152,-0.06345462529521684,,-2.2381544e-05,-3.695488e-06,5.00679e-06,0.99999994,2.0124018e-05,1.7046928e-05,-2.0124018e-05,1.0,1.937151e-06,-1.7039478e-05,-1.937151e-06,1.0,585,1.829,1,2,0.435,False,-0.2618441003348577,0.9687904916554726
1.7861508460046025,18:00:54.571750,18:00:38.922724,0,,0.12455435,-0.00083348155,0.030084655,0.85012895,0.38359284,-0.36074507,0.37148735,0.048638552,0.9271631,0.37319925,-0.92222047,-0.10115093,,0.092485175,-0.015840016,0.019988239,-0.47984818,0.5702727,0.6667342,0.877259,0.30082417,0.37406102,0.0127469,0.76439095,-0.64462686,,0.10734708,1.34614,0.44495058,0.9960241,0.009240602,-0.088603914,-0.050084144,-0.76444834,-0.64273655,-0.07367239,0.64461875,-0.76094615,,-0.080871314,0.25949073,-0.09063423,-0.8774926,-0.27834293,0.3905534,0.47744063,-0.5840092,0.65649354,0.045356434,0.76253426,0.64535594,,-0.028354308,0.43673298,-0.31590903,0.496371,-0.6604971,-0.56334656,0.685416,0.69642466,-0.2125972,0.53274834,-0.28059965,0.79840034,,0.9210749044430088,0.3360933346862507,0.19165777279,3.674816259566289,-0.10958247281188324,-1.0380544913956506,-0.4121170788567867,,-0.9631560758746581,0.03602654885825734,0.21107230812000002,-3.4229786374413753,-0.06968461488037464,0.21576995919870906,0.7945055376771343,,-0.046482481303738984,-0.07979645340118074,0.07698830152,-0.06345462529521684,,-2.2381544e-05,-3.695488e-06,5.00679e-06,0.99999994,2.0124018e-05,1.7046928e-05,-2.0124018e-05,1.0,1.937151e-06,-1.7039478e-05,-1.937151e-06,1.0,598,1.87,1,2,0.476,False,-0.2602355019347904,0.9739564731388748
1.8153887060034322,18:00:54.610630,18:00:38.922724,0,,0.12453895,-0.00083881617,0.030187786,0.8476506,0.39368826,-0.35566497,0.36892915,0.044388562,0.928397,0.38128647,-0.9181715,-0.10761717,,0.09248455,-0.015804611,0.020006657,-0.4800137,0.56946915,0.66730165,0.87716997,0.30061412,0.37443817,0.012630641,0.7650724,-0.6438202,,0.10734708,1.34614,0.44495058,0.9960241,0.009240602,-0.088603914,-0.050084144,-0.76444834,-0.64273655,-0.07367239,0.64461875,-0.76094615,,-0.08086751,0.2595546,-0.090716735,-0.87597984,-0.28891674,0.38624662,0.48089823,-0.5851507,0.65294373,0.03736612,0.7577109,0.6515198,,-0.028355265,0.43677142,-0.31589827,0.4965484,-0.659799,-0.56400794,0.68528426,0.69679224,-0.21181615,0.5327524,-0.2813288,0.79814094,,0.921352922826481,0.33593888002876615,0.19159814345,3.673348429961898,-0.11709748029898247,-1.0309463618106607,-0.41048363819544365,,-0.9632255804705262,0.03621189444723873,0.21106582667,-3.4231883273848602,-0.06954797838060918,0.21672036491683994,0.8005492681241027,,-0.046482481303738984,-0.07979645340118074,0.07698830152,-0.06345462529521684,,-2.2381544e-05,-3.695488e-06,5.00679e-06,0.99999994,2.0124018e-05,1.7046928e-05,-2.0124018e-05,1.0,1.937151e-06,-1.7039478e-05,-1.937151e-06,1.0,607,1.899,1,2,0.505,False,-0.2613079008681689,0.9745358355482281
1.8542350260104286,18:00:54.641121,18:00:38.922724,0,,0.12456886,-0.0008200705,0.030254692,0.8444254,0.40489304,-0.3507236,0.36631542,0.041241318,0.9295764,0.3908433,-0.9134334,-0.11349335,,0.09248595,-0.015759595,0.020024836,-0.48033887,0.56913036,0.6673567,0.8769903,0.3005935,0.37487543,0.012749821,0.7653326,-0.6435086,,0.10734708,1.34614,0.44495058,0.9960241,0.009240602,-0.088603914,-0.050084144,-0.76444834,-0.64273655,-0.07367239,0.64461875,-0.76094615,,-0.08090417,0.25961068,-0.09075185,-0.87388813,-0.30064392,0.3820114,0.48531064,-0.5850695,0.64974403,0.028161636,0.7531978,0.657191,,-0.02835794,0.4368165,-0.31588054,0.49684963,-0.65949917,-0.56409335,0.68525755,0.69697845,-0.21128908,0.53250587,-0.28157032,0.7982203,,0.9215691593469592,0.33581531630277855,0.19156055104000003,3.6699933908661455,-0.12720858128162504,-1.0230281518976876,-0.41113701445998097,,-0.9633105305321427,0.036428130967717014,0.21106323409000002,-3.4233980173283447,-0.06968461488037464,0.21699514030081746,0.8008759562563712,,-0.046482481303738984,-0.07979645340118074,0.07698830152,-0.06345462529521684,,-2.2381544e-05,-3.695488e-06,5.00679e-06,0.99999994,2.0124018e-05,1.7046928e-05,-2.0124018e-05,1.0,1.937151e-06,-1.7039478e-05,-1.937151e-06,1.0,616,1.928,1,2,0.534,False,-0.2618441003348577,0.9719287047061373
1.8847516890091356,18:00:54.671507,18:00:38.922724,0,,0.12457618,-0.0008190572,0.030325234,0.84247494,0.41154912,-0.34765354,0.36393857,0.04103753,0.9305185,0.3972209,-0.9104631,-0.115205556,,0.09248989,-0.015751101,0.020038903,-0.48070318,0.56959546,0.66669726,0.8767828,0.30069605,0.37527847,0.013283581,0.7649462,-0.6439571,,0.10734708,1.34614,0.44495058,0.9960241,0.009240602,-0.088603914,-0.050084144,-0.76444834,-0.64273655,-0.07367239,0.64461875,-0.76094615,,-0.08091921,0.25965694,-0.0908035,-0.8727072,-0.30758992,0.379171,0.4877648,-0.583658,0.6491755,0.021626329,0.7514864,0.659394,,-0.028363528,0.436832,-0.31588447,0.49713278,-0.65990484,-0.563369,0.68549454,0.69675726,-0.21125002,0.53193635,-0.28116703,0.79874206,,0.9217853958674375,0.3356994753096652,0.19150740315,3.668315871318269,-0.13431367926942794,-1.0198481405899718,-0.41179039072451784,,-0.9633800351280107,0.03644357643346546,0.21105675264,-3.4233980173283447,-0.07036779737920183,0.21632704871719113,0.7974457308675513,,-0.046482481303738984,-0.07979645340118074,0.07698830152,-0.06345462529521684,,-2.2381544e-05,-3.695488e-06,5.00679e-06,0.99999994,2.0124018e-05,1.7046928e-05,-2.0124018e-05,1.0,1.937151e-06,-1.7039478e-05,-1.937151e-06,1.0,629,1.969,1,2,0.575,False,-0.2608908568385213,0.9695146946671644
1.9151462270092452,18:00:54.703651,18:00:39.065352,0,,0.12457,-0.0008288175,0.030515537,0.83687073,0.4239232,-0.34631807,0.3649109,0.03954175,0.93020236,0.40802842,-0.90483445,-0.12160289,,0.09248394,-0.015765674,0.020038843,-0.48124212,0.5694749,0.66641146,0.8764852,0.30097634,0.3757486,0.013405263,0.7649258,-0.64397883,,0.10734708,1.34614,0.44495058,0.9960241,0.009240602,-0.088603914,-0.050084144,-0.76444834,-0.64273655,-0.07367239,0.64461875,-0.76094615,,-0.08093428,0.25977364,-0.09095349,-0.8683086,-0.3205399,0.37854245,0.49583828,-0.58181065,0.6447021,0.013587274,0.7474962,0.6641271,,-0.028358003,0.43682176,-0.31589505,0.49764237,-0.6597754,-0.56307065,0.68539906,0.69695723,-0.21089998,0.5315828,-0.2809753,0.79904485,,0.9221947007097714,0.3356531389124199,0.19134666319000002,3.660347653465857,-0.14401487075277425,-1.012100826907807,-0.41179039072451784,,-0.963356866929388,0.036358626371848994,0.21105027119000003,-3.4238173972153136,-0.07091434337826359,0.21636432663127403,0.7961389783384771,,-0.046482481303738984,-0.07979645340118074,0.07698830152,-0.06345462529521684,,-2.2381544e-05,-3.695488e-06,5.00679e-06,0.99999994,2.0124018e-05,1.7046928e-05,-2.0124018e-05,1.0,1.937151e-06,-1.7039478e-05,-1.937151e-06,1.0,638,1.997,1,2,0.603,False,-0.2608312791200009,0.9688387718562521
1.9472537990077399,18:00:54.734774,18:00:39.065352,0,,0.124557905,-0.00083367527,0.0306243,0.8359857,0.42804584,-0.343372,0.36295763,0.037992537,0.93103087,0.41156945,-0.9029579,-0.12360138,,0.092471614,-0.015778594,0.020052373,-0.48122314,0.56970733,0.66622645,0.87649596,0.30111274,0.37561405,0.013380647,0.764699,-0.64424866,,0.10734708,1.34614,0.44495058,0.9960241,0.009240602,-0.088603914,-0.050084144,-0.76444834,-0.64273655,-0.07367239,0.64461875,-0.76094615,,-0.08093436,0.25984135,-0.09103958,-0.8678639,-0.3248783,0.37585422,0.49671,-0.5819906,0.6438681,0.009564867,0.74548036,0.66645896,,-0.028347965,0.43682235,-0.31591505,0.49762717,-0.6599713,-0.5628544,0.68538886,0.6968861,-0.21116772,0.5316101,-0.2806914,0.79912645,,0.9224649963603693,0.3356763071110425,0.19125333031000002,3.659928273578888,-0.14825060224550288,-1.0087285506333585,-0.4116270466583838,,-0.9633414214636395,0.03632001270747787,0.21102953055,-3.4238173972153136,-0.07091434337826359,0.21603761167071178,0.7946688817432686,,-0.046482481303738984,-0.07979645340118074,0.07698830152,-0.06345462529521684,,-2.2381544e-05,-3.695488e-06,5.00679e-06,0.99999994,2.0124018e-05,1.7046928e-05,-2.0124018e-05,1.0,1.937151e-06,-1.7039478e-05,-1.937151e-06,1.0,651,2.038,1,2,0.644,False,-0.2599376133421849,0.9680662886437805
1.9784229560027597,18:00:54.769215,18:00:39.065352,0,,0.12453756,-0.0007855445,0.030816734,0.8283049,0.44399428,-0.34173042,0.36363152,0.038004458,0.93076736,0.42624268,-0.89522314,-0.12997112,,0.092456564,-0.01578375,0.020082474,-0.481089,0.5698632,0.66618997,0.87657267,0.30126718,0.37531105,0.013174742,0.76452196,-0.644463,,0.10734708,1.34614,0.44495058,0.9960241,0.009240602,-0.088603914,-0.050084144,-0.76444834,-0.64273655,-0.07367239,0.64461875,-0.76094615,,-0.080934286,0.2600041,-0.09115482,-0.861835,-0.3415782,0.37491968,0.50718564,-0.57782775,0.6394356,-0.0017782474,0.7412418,0.67123574,,-0.02833726,0.43684012,-0.31594208,0.4975242,-0.6600978,-0.5627971,0.68529546,0.6968675,-0.21153197,0.5318268,-0.28044006,0.7990705,,0.9231677650519237,0.3356608616452941,0.19112370131000003,3.649443776404662,-0.1617776157222815,-1.0001485403716295,-0.4109736703938467,,-0.9633645896622622,0.036343180906100545,0.21099582701000003,-3.4238173972153136,-0.07064107037873271,0.21573309712317837,0.7948322258094029,,-0.046482481303738984,-0.07979645340118074,0.07698830152,-0.06345462529521684,,-2.2381544e-05,-3.695488e-06,5.00679e-06,0.99999994,2.0124018e-05,1.7046928e-05,-2.0124018e-05,1.0,1.937151e-06,-1.7039478e-05,-1.937151e-06,1.0,660,2.067,1,2,0.673,False,-0.26160578946077395,0.9667627232227354
2.0128506010078127,18:00:54.801040,18:00:39.065352,0,,0.12445411,-0.00074990094,0.031034842,0.82401526,0.4539219,-0.3390479,0.362253,0.038012743,0.93130434,0.43562758,-0.8902302,-0.13311154,,0.09244484,-0.015789278,0.020118177,-0.4810208,0.57004654,0.6660823,0.8766118,0.30141065,0.3751044,0.013062596,0.76432866,-0.64469445,,0.10734708,1.34614,0.44495058,0.9960241,0.009240602,-0.088603914,-0.050084144,-0.76444834,-0.64273655,-0.07367239,0.64461875,-0.76094615,,-0.080874614,0.26017752,-0.091303706,-0.8586388,-0.35199317,0.3726127,0.51248056,-0.57511985,0.6376526,-0.010152397,0.73847,0.67420983,,-0.028330626,0.43686116,-0.315973,0.49747285,-0.6602495,-0.56266457,0.685243,0.6968279,-0.21183215,0.5319424,-0.28018126,0.7990843,,0.923831920079107,0.3356608616452941,0.19100703521,3.6456693574219403,-0.16874607721031895,-0.996916589487329,-0.4109736703938467,,-0.9634186487923818,0.036358626371848994,0.21095953089000002,-3.4238173972153136,-0.07050443387896727,0.21537664299906023,0.7930354410819257,,-0.046482481303738984,-0.07979645340118074,0.07698830152,-0.06345462529521684,,-2.2381544e-05,-3.695488e-06,5.00679e-06,0.99999994,2.0124018e-05,1.7046928e-05,-2.0124018e-05,1.0,1.937151e-06,-1.7039478e-05,-1.937151e-06,1.0,673,2.108,1,2,0.714,False,-0.26101001227556386,0.9668110034235147
2.0446725180081557,18:00:54.844371,18:00:39.205850,0,,0.12451303,-0.0007419437,0.031213164,0.8172071,0.46826276,-0.33600956,0.36222818,0.03617531,0.9313872,0.44828913,-0.8828484,-0.14005539,,0.0924372,-0.015806809,0.020128727,-0.4810385,0.57007086,0.66604894,0.8766024,0.3014564,0.37508965,0.013042837,0.7642926,-0.6447376,,0.10732406,1.346141,0.4449461,0.99602413,0.009241125,-0.088603474,-0.050083466,-0.76444834,-0.6427366,-0.07367239,0.64461875,-0.76094615,,-0.08093009,0.26030013,-0.09143153,-0.8532711,-0.36709848,0.3703607,0.5210701,-0.5724996,0.6330325,-0.020353936,0.7331323,0.67978144,,-0.028302385,0.4368599,-0.3159982,0.49749216,-0.6602676,-0.56262624,0.6852243,0.6968348,-0.21187013,0.5319485,-0.28012142,0.79910123,,0.9251447846677251,0.33559135704942605,0.19085925815000002,3.635394550191199,-0.1837760921845174,-0.9846606200807226,-0.41064698226157803,,-0.9634418169910045,0.036335458173226316,0.21094008654000002,-3.4238173972153136,-0.07050443387896727,0.21529496425891964,0.7928720970157914,,-0.046482481303738984,-0.07979645340118074,0.07698830152,-0.06345462529521684,,-4.502386e-05,-7.56979e-06,9.775162e-06,1.0,2.0645559e-05,1.7490238e-05,-2.0641834e-05,1.0,1.9669533e-06,-1.7482787e-05,-1.9967556e-06,1.0,682,2.137,1,2,0.743,False,-0.26101001227556386,0.966521322218838
2.0880157310020877,18:00:54.873853,18:00:39.205850,0,,0.12448832,-0.0006944984,0.031297088,0.8125752,0.47876394,-0.33242518,0.36117274,0.03404486,0.93187726,0.45746654,-0.8772833,-0.14525256,,0.0924379,-0.015808925,0.020133436,-0.48103333,0.5701149,0.66601497,0.87660545,0.30148572,0.375059,0.013032705,0.7642481,-0.6447906,,0.10732406,1.346141,0.4449461,0.99602413,0.009241125,-0.088603474,-0.050083466,-0.76444834,-0.6427366,-0.07367239,0.64461875,-0.76094615,,-0.08091372,0.260392,-0.09146607,-0.84970474,-0.3781948,0.36738336,0.52649367,-0.5710715,0.6298268,-0.028395042,0.7285918,0.6843593,,-0.028303768,0.43686152,-0.31600296,0.4974885,-0.6603045,-0.5625861,0.6852192,0.6968228,-0.2119259,0.5319585,-0.28006414,0.79911464,,0.9256622077702982,0.3354986842549354,0.19082166574,3.6299426116606015,-0.19306737416856737,-0.9770025238892255,-0.4108103263277123,,-0.9634572624567529,0.036327735440352095,0.21093619767000002,-3.4238173972153136,-0.07050443387896727,0.2152132855187791,0.7930354410819257,,-0.046482481303738984,-0.07979645340118074,0.07698830152,-0.06345462529521684,,-4.502386e-05,-7.56979e-06,9.775162e-06,1.0,2.0645559e-05,1.7490238e-05,-2.0641834e-05,1.0,1.9669533e-06,-1.7482787e-05,-1.9967556e-06,1.0,695,2.178,1,2,0.784,False,-0.2607717014014801,0.9662799212149407
2.11750261799898,18:00:54.923003,18:00:39.205850,0,,0.124305494,-0.00067059696,0.031499922,0.8111521,0.48319346,-0.32947844,0.35923773,0.03289953,0.93266594,0.46149775,-0.8748952,-0.1468949,,0.09243049,-0.015807644,0.020135164,-0.48104313,0.57013,0.665995,0.8765998,0.3014866,0.37507147,0.013050854,0.7642365,-0.64480394,,0.10732406,1.346141,0.4449461,0.99602413,0.009241125,-0.088603474,-0.050083466,-0.76444834,-0.6427366,-0.07367239,0.64461875,-0.76094615,,-0.080753885,0.26055208,-0.09162091,-0.8487791,-0.38288543,0.36465433,0.5277276,-0.5706296,0.62919426,-0.032826785,0.72648513,0.6863977,,-0.028296627,0.43686417,-0.3160042,0.4974956,-0.6603178,-0.56256425,0.6852281,0.69681454,-0.21192437,0.5319404,-0.2800534,0.7991305,,0.9269827950917906,0.33535967506319936,0.19065314804000003,3.6284747820562093,-0.19839619765941952,-0.9729022618654866,-0.41064698226157803,,-0.9634340942581302,0.036343180906100545,0.21093101251000002,-3.4238173972153136,-0.07050443387896727,0.2152132855187791,0.7933621292141942,,-0.046482481303738984,-0.07979645340118074,0.07698830152,-0.06345462529521684,,-4.502386e-05,-7.56979e-06,9.775162e-06,1.0,2.0645559e-05,1.7490238e-05,-2.0641834e-05,1.0,1.9669533e-06,-1.7482787e-05,-1.9967556e-06,1.0,704,2.206,1,2,0.812,False,-0.2617249448978165,0.9667627232227354
2.1666443860012805,18:00:54.939338,18:00:39.205850,0,,0.12429129,-0.00062189996,0.031580642,0.8072662,0.4918267,-0.3262326,0.3581099,0.031183302,0.9331586,0.46912527,-0.87013435,-0.15095493,,0.09243656,-0.015807241,0.020142853,-0.48103967,0.5701513,0.6659792,0.87660193,0.30150723,0.37505004,0.013037682,0.7642125,-0.6448327,,0.10732406,1.346141,0.4449461,0.99602413,0.009241125,-0.088603474,-0.050083466,-0.76444834,-0.6427366,-0.07367239,0.64461875,-0.76094615,,-0.08074758,0.26064226,-0.091651194,-0.8457845,-0.39202765,0.36188805,0.53204733,-0.56930816,0.62674856,-0.03967694,0.7226358,0.6900893,,-0.028303672,0.43686923,-0.31600875,0.497494,-0.6603351,-0.5625453,0.6852205,0.69681174,-0.2119584,0.5319517,-0.28001952,0.7991348,,0.9276392273860996,0.33535967506319936,0.19060000015000003,3.6223937736951584,-0.2094637541404202,-0.9644491628470604,-0.41113701445998085,,-0.9634804306553756,0.036343180906100545,0.21092841993000003,-3.4238173972153136,-0.07050443387896727,0.21513160677863852,0.79319878514806,,-0.046482481303738984,-0.07979645340118074,0.07698830152,-0.06345462529521684,,-4.502386e-05,-7.56979e-06,9.775162e-06,1.0,2.0645559e-05,1.7490238e-05,-2.0641834e-05,1.0,1.9669533e-06,-1.7482787e-05,-1.9967556e-06,1.0,717,2.247,1,2,0.85,False,-0.26041423509035333,0.9686456510531343
2.18298163000145,18:00:54.985193,18:00:39.205850,0,,0.12424296,-0.0005482733,0.031740725,0.8001915,0.50387186,-0.32527912,0.3578756,0.034065098,0.9331477,0.48126748,-0.86310637,-0.15306494,,0.09243788,-0.015809074,0.02014649,-0.48118073,0.56983495,0.666148,0.87652653,0.30156803,0.37517732,0.012900144,0.7644244,-0.6445842,,0.10732406,1.346141,0.4449461,0.99602413,0.009241125,-0.088603474,-0.050083466,-0.76444834,-0.6427366,-0.07367239,0.64461875,-0.76094615,,-0.08071555,0.2608048,-0.09172823,-0.84009933,-0.40470624,0.3611731,0.5401555,-0.5632161,0.62531567,-0.04965066,0.7204169,0.69176173,,-0.028305527,0.43687028,-0.3160125,0.49765036,-0.6600489,-0.5627429,0.68508244,0.69702315,-0.21170923,0.53198326,-0.2801681,0.7990617,,0.9282184323516665,0.33536739779607355,0.19053129678000003,3.6152643156166846,-0.21793521712587752,-0.9617885473051916,-0.41113701445998074,,-0.9634958761211241,0.036335458173226316,0.21092582735,-3.424027087158798,-0.07050443387896727,0.2154583217392008,0.7948322258094027,,-0.046482481303738984,-0.07979645340118074,0.07698830152,-0.06345462529521684,,-4.502386e-05,-7.56979e-06,9.775162e-06,1.0,2.0645559e-05,1.7490238e-05,-2.0641834e-05,1.0,1.9669533e-06,-1.7482787e-05,-1.9967556e-06,1.0,726,2.276,0,2,0.85,False,-0.26041423509035333,0.9688870520570316
2.2286857290018816,18:00:55.007966,18:00:39.205850,0,,0.12420237,-0.00053440034,0.031856343,0.79850876,0.50768423,-0.32348162,0.35670698,0.03382033,0.9336039,0.4849162,-0.8608791,-0.15408882,,0.092435695,-0.015809998,0.020149529,-0.48118073,0.56983495,0.666148,0.87652653,0.30156803,0.37517732,0.012900144,0.7644244,-0.6445842,,0.10732406,1.346141,0.4449461,0.99602413,0.009241125,-0.088603474,-0.050083466,-0.76444834,-0.6427366,-0.07367239,0.64461875,-0.76094615,,-0.08068766,0.26089275,-0.09181007,-0.83885604,-0.40874556,0.35951024,0.5417356,-0.5621625,0.62489665,-0.053320553,0.71895784,0.69300544,,-0.028303804,0.43687183,-0.3160156,0.49765036,-0.6600489,-0.5627429,0.68508244,0.69702315,-0.21170923,0.53198326,-0.2801681,0.7990617,,0.9286663508583716,0.3354060114604447,0.19044185277000003,3.613586796068808,-0.22203431211884073,-0.9592627975957047,-0.40983026193090666,,-0.9634958761211241,0.036335458173226316,0.21092193848000002,-3.424027087158798,-0.07050443387896727,0.2154583217392008,0.7948322258094027,,-0.046482481303738984,-0.07979645340118074,0.07698830152,-0.06345462529521684,,-4.502386e-05,-7.56979e-06,9.775162e-06,1.0,2.0645559e-05,1.7490238e-05,-2.0641834e-05,1.0,1.9669533e-06,-1.7482787e-05,-1.9967556e-06,1.0,739,2.317,0,2,0.85,False,-0.2594014138754961,0.9693698540648259
2.2516062290087575,18:00:55.059888,18:00:39.407372,0,,0.12413395,-0.00054845214,0.032078817,0.79626095,0.513399,-0.31998396,0.35480356,0.032087326,0.93439007,0.4899823,-0.85754985,-0.15660608,,0.09243326,-0.015812367,0.020150423,-0.4813235,0.56975275,0.6661152,0.87645,0.30175638,0.3752045,0.012769192,0.7644114,-0.64460224,,0.10732406,1.346141,0.4449461,0.99602413,0.009241125,-0.088603474,-0.050083466,-0.76444834,-0.6427366,-0.07367239,0.64461875,-0.76094615,,-0.080644526,0.26103055,-0.09199317,-0.8372243,-0.41483036,0.35633022,0.54371184,-0.5616244,0.6236629,-0.05859057,0.7158867,0.6957538,,-0.028301563,0.43687084,-0.3160181,0.4978075,-0.6599608,-0.56270725,0.6849482,0.6971581,-0.21169919,0.53200907,-0.28003985,0.7990895,,0.9293382286184291,0.3354291796590674,0.19024740927000003,3.611489896633963,-0.22790968160875466,-0.9543084702564775,-0.4101569500631751,,-0.9634881533882498,0.036327735440352095,0.21091934590000003,-3.4242367771022826,-0.07050443387896727,0.2154583217392008,0.7948322258094027,,-0.046482481303738984,-0.07979645340118074,0.07698830152,-0.06345462529521684,,-4.502386e-05,-7.56979e-06,9.775162e-06,1.0,2.0645559e-05,1.7490238e-05,-2.0641834e-05,1.0,1.9669533e-06,-1.7482787e-05,-1.9967556e-06,1.0,748,2.346,0,2,0.85,False,-0.2602950796533112,0.9691284530609285
2.3035300269984873,18:00:55.089044,18:00:39.407372,0,,0.124085724,-0.0005568564,0.032214522,0.7956581,0.5149362,-0.31901222,0.35505164,0.030240148,0.9343575,0.49078143,-0.8566948,-0.1587682,,0.09243354,-0.015817285,0.020150721,-0.4814576,0.569612,0.6661387,0.8763784,0.30191654,0.37524283,0.012624443,0.76445293,-0.64455575,,0.10732406,1.346141,0.4449461,0.99602413,0.009241125,-0.088603474,-0.050083466,-0.76444834,-0.6427366,-0.07367239,0.64461875,-0.76094615,,-0.08061176,0.26111507,-0.092105374,-0.8367078,-0.4164938,0.35560235,0.5444526,-0.56255233,0.6221786,-0.059088595,0.7141903,0.697453,,-0.02830201,0.43686745,-0.31602165,0.49795806,-0.6598229,-0.56273574,0.68480754,0.6973138,-0.21164136,0.5320492,-0.27997717,0.7990847,,0.929716642529266,0.3355527433850549,0.19012296543,3.61044144691654,-0.22859286410758187,-0.951382697273919,-0.4099936059970408,,-0.9634881533882498,0.03630456724172942,0.21091804961000002,-3.4244464670457675,-0.07050443387896727,0.21554000047934138,0.7949955698755371,,-0.046482481303738984,-0.07979645340118074,0.07698830152,-0.06345462529521684,,-4.502386e-05,-7.56979e-06,9.775162e-06,1.0,2.0645559e-05,1.7490238e-05,-2.0641834e-05,1.0,1.9669533e-06,-1.7482787e-05,-1.9967556e-06,1.0,770,2.415,0,2,0.85,False,-0.26017592421626956,0.9679214480414422
2.3326837150088977,18:00:55.156690,18:00:39.407372,0,,0.12404918,-0.00048807263,0.032487214,0.78944224,0.5265599,-0.31546068,0.35538802,0.0269413,0.93433046,0.5004798,-0.84971094,-0.16586465,,0.09243642,-0.015821815,0.020153046,-0.48144436,0.56965756,0.6661092,0.87638605,0.30195007,0.37519816,0.012602687,0.7644058,-0.6446122,,0.10732406,1.346141,0.4449461,0.99602413,0.009241125,-0.088603474,-0.050083466,-0.76444834,-0.6427366,-0.07367239,0.64461875,-0.76094615,,-0.080603965,0.26134655,-0.09226905,-0.8315935,-0.42888838,0.3528555,0.5513566,-0.56114846,0.6173477,-0.066768944,0.7079316,0.7031179,,-0.02830529,0.43686548,-0.31602606,0.4979481,-0.6598608,-0.5627001,0.6847974,0.69730294,-0.21171013,0.53207165,-0.27991492,0.79909164,,0.930504361282437,0.33596204822738884,0.1899324108,3.6024732290641284,-0.23747423659233552,-0.940873383928029,-0.41064698226157803,,-0.9635035988539983,0.036281399043106746,0.21091675332,-3.4244464670457675,-0.07050443387896727,0.2154583217392008,0.7941788495448656,,-0.046482481303738984,-0.07979645340118074,0.07698830152,-0.06345462529521684,,-4.502386e-05,-7.56979e-06,9.775162e-06,1.0,2.0645559e-05,1.7490238e-05,-2.0641834e-05,1.0,1.9669533e-06,-1.7482787e-05,-1.9967556e-06,1.0,783,2.456,0,2,0.85,False,-0.2599376133421849,0.9665696024196175
2.4003091430058703,18:00:55.195736,18:00:39.548629,0,,0.12401572,-0.00043827295,0.032641917,0.7873923,0.5312966,-0.31262922,0.35323167,0.026772559,0.93515277,0.5052134,-0.8467626,-0.16659042,,0.09243481,-0.015823811,0.020152867,-0.48144093,0.5697183,0.6660598,0.87638795,0.30198446,0.37516594,0.012599081,0.7643471,-0.644682,,0.10732406,1.346141,0.4449461,0.99602413,0.009241125,-0.088603474,-0.050083466,-0.76444834,-0.6427366,-0.07367239,0.64461875,-0.76094615,,-0.080586664,0.26148674,-0.09235614,-0.8301274,-0.433924,0.35014063,0.552914,-0.5596192,0.617343,-0.07193453,0.706071,0.7044779,,-0.028303726,0.43686405,-0.31602752,0.49794522,-0.65991205,-0.5626426,0.6847961,0.69728374,-0.21177737,0.53207594,-0.27984193,0.7991143,,0.931091288980878,0.3362014529464898,0.18982741131000003,3.6007957095162526,-0.2429396965829531,-0.9378052063625617,-0.4081968212695638,,-0.9634958761211241,0.036273676310232525,0.21091545703000003,-3.4244464670457675,-0.07050443387896727,0.21537664299906023,0.7936888173464628,,-0.046482481303738984,-0.07979645340118074,0.07698830152,-0.06345462529521684,,-4.502386e-05,-7.56979e-06,9.775162e-06,1.0,2.0645559e-05,1.7490238e-05,-2.0641834e-05,1.0,1.9669533e-06,-1.7482787e-05,-1.9967556e-06,1.0,796,2.497,0,2,0.85,False,-0.2604738128088746,0.9661833608133816
2.439375372006907,18:00:55.236435,18:00:39.548629,0,,0.12394141,-0.00036150217,0.032816708,0.7837475,0.5363969,-0.3130784,0.35467833,0.027259707,0.93459094,0.5098461,-0.8435254,-0.16888368,,0.09243496,-0.015822425,0.020155132,-0.48144436,0.5697664,0.6660162,0.87638605,0.30201134,0.37514883,0.012602687,0.76430047,-0.64473706,,0.10732406,1.346141,0.4449461,0.99602413,0.009241125,-0.088603474,-0.050083466,-0.76444834,-0.6427366,-0.07367239,0.64461875,-0.76094615,,-0.08053037,0.26166266,-0.0924447,-0.826984,-0.43933785,0.35082722,0.5572233,-0.5574251,0.6154506,-0.07483084,0.7044569,0.70579094,,-0.028304141,0.43686652,-0.31602815,0.4979481,-0.6599527,-0.5625923,0.6847974,0.6972683,-0.21182403,0.53207165,-0.27978435,0.79913735,,0.9318790077340489,0.3365489759258299,0.18971722666000002,3.595343770985654,-0.24662888207662,-0.9340618143014934,-0.40999360599704104,,-0.9635035988539983,0.036281399043106746,0.21091416074000002,-3.4244464670457675,-0.07050443387896727,0.21529496425891964,0.7928720970157914,,-0.046482481303738984,-0.07979645340118074,0.07698830152,-0.06345462529521684,,-4.502386e-05,-7.56979e-06,9.775162e-06,1.0,2.0645559e-05,1.7490238e-05,-2.0641834e-05,1.0,1.9669533e-06,-1.7482787e-05,-1.9967556e-06,1.0,805,2.526,0,2,0.85,False,-0.26053339052739544,0.966521322218838
2.4800748740090057,18:00:55.260129,18:00:39.548629,0,,0.12391367,-0.00028039515,0.032942265,0.7825946,0.5409109,-0.30815712,0.35122785,0.025054187,0.9359547,0.51398873,-0.8407065,-0.17037585,,0.09243622,-0.015822291,0.020155966,-0.48144376,0.5697609,0.6660213,0.8763864,0.30200967,0.37514934,0.012600452,0.76430523,-0.64473146,,0.10732406,1.346141,0.4449461,0.99602413,0.009241125,-0.088603474,-0.050083466,-0.76444834,-0.6427366,-0.07367239,0.64461875,-0.76094615,,-0.08051481,0.2618073,-0.0924889,-0.82637334,-0.4441839,0.3461326,0.5573667,-0.55751085,0.61524296,-0.080308326,0.7013432,0.70828545,,-0.028305506,0.43686718,-0.31602857,0.49794784,-0.65994793,-0.5625981,0.6847961,0.69727075,-0.21182021,0.53207356,-0.2797896,0.79913425,,0.9324968263639869,0.33687333070654735,0.18965630103000003,3.595343770985654,-0.25209434206723763,-0.929523419413496,-0.4101569500631752,,-0.9635113215868725,0.036281399043106746,0.21091416074000002,-3.4244464670457675,-0.07050443387896727,0.2152949642589197,0.7925454088835229,,-0.046482481303738984,-0.07979645340118074,0.07698830152,-0.06345462529521684,,-4.502386e-05,-7.56979e-06,9.775162e-06,1.0,2.0645559e-05,1.7490238e-05,-2.0641834e-05,1.0,1.9669533e-06,-1.7482787e-05,-1.9967556e-06,1.0,818,2.567,0,2,0.85,False,-0.2608908568385213,0.9675352064352065
2.503660601010779,18:00:55.309522,18:00:39.687282,0,,0.12384179,-0.00016731024,0.03311546,0.78302234,0.54085404,-0.30716884,0.34985086,0.02535063,0.9364623,0.5142764,-0.84073424,-0.16936824,,0.09243783,-0.015823618,0.020156741,-0.4814391,0.5697018,0.6660752,0.876389,0.30197942,0.37516752,0.0125924945,0.76436126,-0.6446652,,0.10732406,1.346141,0.4449461,0.99602413,0.009241125,-0.088603474,-0.050083466,-0.76444834,-0.6427366,-0.07367239,0.64461875,-0.76094615,,-0.08045994,0.26200956,-0.09255237,-0.82686114,-0.44411764,0.34505093,0.556487,-0.55730116,0.6162285,-0.08138069,0.7015518,0.7079564,,-0.028307246,0.43686658,-0.31602982,0.4979444,-0.65989774,-0.56266004,0.6847923,0.69729096,-0.21176593,0.53208166,-0.2798576,0.79910505,,0.9333772179116485,0.33753748573373066,0.18955648670000003,3.595972840816108,-0.25277752456606484,-0.9290480086351545,-0.41032029412930937,,-0.9635190443197468,0.036273676310232525,0.21091416074000002,-3.4244464670457675,-0.07050443387896727,0.21537664299906023,0.7933621292141942,,-0.046482481303738984,-0.07979645340118074,0.07698830152,-0.06345462529521684,,-4.502386e-05,-7.56979e-06,9.775162e-06,1.0,2.0645559e-05,1.7490238e-05,-2.0641834e-05,1.0,1.9669533e-06,-1.7482787e-05,-1.9967556e-06,1.0,827,2.595,0,2,0.85,False,-0.2602355019347904,0.9662316410141611
2.5531565109995427,18:00:55.333525,18:00:39.687282,0,,0.123812795,-7.203221e-05,0.03322825,0.7831412,0.54069144,-0.30715203,0.34941778,0.025961906,0.93660724,0.5143898,-0.8408202,-0.1685955,,0.092436746,-0.01582238,0.020157993,-0.4814432,0.56975543,0.6660265,0.87638676,0.30200803,0.3751499,0.012598306,0.76430994,-0.6447258,,0.10732406,1.346141,0.4449461,0.99602413,0.009241125,-0.088603474,-0.050083466,-0.76444834,-0.6427366,-0.07367239,0.64461875,-0.76094615,,-0.08044142,0.2621567,-0.092577845,-0.8270016,-0.44393277,0.3449523,0.55622613,-0.556885,0.61684,-0.08173675,0.7019991,0.7074718,,-0.028306298,0.4368684,-0.31603,0.49794757,-0.65994316,-0.56260395,0.68479484,0.69727314,-0.2118164,0.5320754,-0.2797948,0.79913116,,0.9339023637470958,0.3381244134321717,0.18950204252000002,3.595972840816108,-0.25277752456606484,-0.9290480086351545,-0.41032029412930937,,-0.9635190443197468,0.036281399043106746,0.21091286445000001,-3.4244464670457675,-0.07050443387896727,0.2152949642589197,0.79319878514806,,-0.046482481303738984,-0.07979645340118074,0.07698830152,-0.06345462529521684,,-4.502386e-05,-7.56979e-06,9.775162e-06,1.0,2.0645559e-05,1.7490238e-05,-2.0641834e-05,1.0,1.9669533e-06,-1.7482787e-05,-1.9967556e-06,1.0,840,2.636,0,2,0.85,False,-0.2602950796533112,0.9661350806126023
2.5771328789996915,18:00:55.378037,18:00:39.687282,0,,0.12385557,6.972253e-05,0.033354938,0.7798035,0.5458643,-0.3064938,0.34946796,0.026630163,0.9365698,0.51940197,-0.83745015,-0.1699959,,0.09243658,-0.01582715,0.020156443,-0.4814317,0.56981754,0.66598153,0.87639326,0.30204648,0.3751036,0.012583077,0.7642485,-0.6447991,,0.10732406,1.346141,0.4449461,0.99602413,0.009241125,-0.088603474,-0.050083466,-0.76444834,-0.6427366,-0.07367239,0.64461875,-0.76094615,,-0.08049469,0.26234412,-0.09257639,-0.82423675,-0.4494293,0.3444518,0.55970734,-0.5544713,0.61586463,-0.08579898,0.7004105,0.7085645,,-0.028306056,0.43686387,-0.31603214,0.4979384,-0.6599954,-0.56255084,0.68478847,0.697255,-0.21189661,0.5320922,-0.27971688,0.7991473,,0.9342421639935616,0.33892757765109105,0.18947093156000003,3.5917790419464177,-0.256876619559028,-0.9258688290045428,-0.4099936059970408,,-0.9635113215868725,0.036258230844484075,0.21091286445000001,-3.4244464670457675,-0.07050443387896727,0.2152132855187791,0.7927087529496571,,-0.046482481303738984,-0.07979645340118074,0.07698830152,-0.06345462529521684,,-4.502386e-05,-7.56979e-06,9.775162e-06,1.0,2.0645559e-05,1.7490238e-05,-2.0641834e-05,1.0,1.9669533e-06,-1.7482787e-05,-1.9967556e-06,1.0,853,2.677,0,2,0.85,False,-0.2608908568385213,0.9660385202110433
2.621654012997169,18:00:55.429637,18:00:39.687282,0,,0.123918384,0.00013519824,0.033407107,0.779804,0.54565877,-0.30685842,0.34944648,0.027290314,0.9365588,0.5194158,-0.8375629,-0.16939753,,0.0924384,-0.015825763,0.020158231,-0.48164898,0.5694947,0.6661007,0.87627417,0.30206847,0.375364,0.012559742,0.7644805,-0.64452446,,0.10732406,1.346141,0.4449461,0.99602413,0.009241125,-0.088603474,-0.050083466,-0.76444834,-0.6427366,-0.07367239,0.64461875,-0.76094615,,-0.08056138,0.26242423,-0.092566706,-0.8242392,-0.44919777,0.3447479,0.5597,-0.55403316,0.6162655,-0.08582333,0.70090556,0.7080718,,-0.028308064,0.436866,-0.3160323,0.4981537,-0.6597064,-0.5626992,0.6847015,0.6974521,-0.2115287,0.53200257,-0.2799072,0.7991403,,0.9341417684661967,0.3395145053495321,0.18945926495,3.5917790419464177,-0.2563300735599663,-0.926396179359469,-0.40983026193090655,,-0.963526767052621,0.036258230844484075,0.21091286445000001,-3.424656156989252,-0.07064107037873271,0.2155697396428972,0.7925454088835229,,-0.046482481303738984,-0.07979645340118074,0.07698830152,-0.06345462529521684,,-4.502386e-05,-7.56979e-06,9.775162e-06,1.0,2.0645559e-05,1.7490238e-05,-2.0641834e-05,1.0,1.9669533e-06,-1.7482787e-05,-1.9967556e-06,1.0,875,2.747,0,2,0.85,False,-0.26041423509035333,0.9647349547899979
2.636963746001129,18:00:55.484661,18:00:39.687282,0,,0.124041185,0.0002193898,0.033471674,0.7773836,0.54879296,-0.30740985,0.35031295,0.028192997,0.9362083,0.5224513,-0.8354827,-0.17033261,,0.09242975,-0.01581502,0.020157218,-0.48329434,0.5690274,0.6653077,0.87534606,0.3019449,0.37762213,0.013991028,0.7648771,-0.64402425,,0.10732406,1.346141,0.4449461,0.99602413,0.009241125,-0.088603474,-0.050083466,-0.76444834,-0.6427366,-0.07367239,0.64461875,-0.76094615,,-0.080688626,0.26252323,-0.09254826,-0.82214946,-0.4525211,0.34539104,0.5624637,-0.5521686,0.6154221,-0.08777739,0.7002389,0.7084918,,-0.028299078,0.4368738,-0.31602523,0.4995654,-0.65930057,-0.5619227,0.6851143,0.69766504,-0.20947996,0.5301441,-0.2803324,0.8002256,,0.933809690952605,0.34025588770545767,0.18945407979,3.58863369279415,-0.2579697115571516,-0.925059164515112,-0.40983026193090655,,-0.963526767052621,0.03621961718011295,0.21091286445000001,-3.425285226819705,-0.0729638908747452,0.21623866290362798,0.7900952478915086,,-0.046482481303738984,-0.07979645340118074,0.07698830152,-0.06345462529521684,,-4.502386e-05,-7.56979e-06,9.775162e-06,1.0,2.0645559e-05,1.7490238e-05,-2.0641834e-05,1.0,1.9669533e-06,-1.7482787e-05,-1.9967556e-06,1.0,884,2.776,0,2,0.85,False,-0.25922268071993226,0.9645418339868801
2.6919870379933855,18:00:55.515596,18:00:39.886958,0,,0.12411775,0.00029838085,0.033525974,0.7764688,0.5509973,-0.30577433,0.3489952,0.028015852,0.93670565,0.5246887,-0.8340366,-0.17054212,,0.092432335,-0.015818924,0.020157754,-0.48321363,0.56908345,0.6653185,0.8753927,0.30201507,0.37745816,0.013868928,0.76480776,-0.6441092,,0.10732406,1.346141,0.4449461,0.99602413,0.009241125,-0.088603474,-0.050083466,-0.76444834,-0.6427366,-0.07367239,0.64461875,-0.76094615,,-0.0807689,0.2626142,-0.09253002,-0.821517,-0.4548749,0.34380025,0.56297076,-0.5514835,0.61557275,-0.090408415,0.699253,0.7091344,,-0.028301813,0.43687108,-0.316028,0.4995032,-0.6593448,-0.5619262,0.6850596,0.6976652,-0.20965828,0.53027344,-0.28022796,0.80017644,,0.9337324636238628,0.3408196472052761,0.18945407979,3.588214312907181,-0.26015589555339863,-0.9236848717566721,-0.4090135416002352,,-0.9635344897854952,0.0362041717143645,0.21091286445000001,-3.425285226819705,-0.07282725437497976,0.21612724499993155,0.7900952478915086,,-0.046482481303738984,-0.07979645340118074,0.07698830152,-0.06345462529521684,,-4.502386e-05,-7.56979e-06,9.775162e-06,1.0,2.0645559e-05,1.7490238e-05,-2.0641834e-05,1.0,1.9669533e-06,-1.7482787e-05,-1.9967556e-06,1.0,897,2.817,0,2,0.85,False,-0.2594014138754961,0.9642521527822032
2.7229229980002856,18:00:55.552833,18:00:39.886958,0,,0.12423692,0.00043071806,0.033628687,0.77312446,0.5576423,-0.30218148,0.3470206,0.026892781,0.93747187,0.5309004,-0.8296455,-0.17272192,,0.09243145,-0.015820667,0.020156622,-0.48321015,0.56908965,0.6653156,0.8753946,0.30201882,0.37745064,0.013865292,0.7648016,-0.6441166,,0.10732406,1.346141,0.4449461,0.99602413,0.009241125,-0.088603474,-0.050083466,-0.76444834,-0.6427366,-0.07367239,0.64461875,-0.76094615,,-0.080895655,0.2627747,-0.09250919,-0.81892353,-0.4619873,0.34048796,0.5656984,-0.54984385,0.61453813,-0.0966936,0.6958732,0.71162546,,-0.028300822,0.4368691,-0.31602845,0.4995003,-0.65935004,-0.56192255,0.68505836,0.69766337,-0.20966858,0.5302778,-0.28022024,0.8001763,,0.9336861272266175,0.3416537023556923,0.18944889463000003,3.5852786536983974,-0.266167901543078,-0.9187824839940295,-0.4090135416002352,,-0.963526767052621,0.03619644898149028,0.21091286445000001,-3.425285226819705,-0.07282725437497976,0.21612724499993155,0.7900952478915086,,-0.046482481303738984,-0.07979645340118074,0.07698830152,-0.06345462529521684,,-4.502386e-05,-7.56979e-06,9.775162e-06,1.0,2.0645559e-05,1.7490238e-05,-2.0641834e-05,1.0,1.9669533e-06,-1.7482787e-05,-1.9967556e-06,1.0,910,2.858,0,2,0.85,False,-0.26095043455704303,0.9644452735853215
