AlexandreBanks6/ExpertPlaybackApp/resources/Motions/Pilot_05/PC1/Data_PC1_5.csv
Task Time,PC1 Time,PC2 Time,Gaze Calib,s_T_psm1,Tx,Ty,Tz,R00,R01,R02,R10,R11,R12,R20,R21,R22,s_T_psm3,Tx,Ty,Tz,R00,R01,R02,R10,R11,R12,R20,R21,R22,cart_T_ecm,Tx,Ty,Tz,R00,R01,R02,R10,R11,R12,R20,R21,R22,ecm_T_psm1,Tx,Ty,Tz,R00,R01,R02,R10,R11,R12,R20,R21,R22,ecm_T_psm3,Tx,Ty,Tz,R00,R01,R02,R10,R11,R12,R20,R21,R22,psm1_joints,q1,q2,q3,q4,q5,q6,jaw,psm3_joints,q1,q2,q3,q4,q5,q6,jaw,ecm_joints,q1,q2,q3,q4,ecmi_T_ecm,Tx,Ty,Tz,R00,R01,R02,R10,R11,R12,R20,R21,R22,Sample #,Task Duration (s),Collisions (binary),Collisions (increments),Cumulative Collision Time (s),Clutch Press,MTMR Angle,MTML Angle
""
lci_T_si,,,,,-0.06405862,0.016163385,0.23836872,0.9936273,-0.018126413,0.1112486,0.06163678,-0.7389648,-0.6709187,0.09437015,0.6735001,-0.7331383
rci_T_si,,,,,-0.07404149,0.020406518,0.24901661,0.991507,-0.031528454,0.12617382,0.062267285,-0.73666036,-0.67339015,0.1141782,0.6755276,-0.7284407
ecm_T_lc,,,,,-4.4061628e-05,-0.00034663224,-0.01840835,-0.99912,0.030754527,0.028518902,-0.031987965,-0.99852574,-0.043852776,0.027128186,-0.04472645,0.9986309
ecm_T_rc,,,,,-0.0043358393,0.01870579,-0.007592615,-0.99555075,-0.052743673,-0.078081585,0.04863213,-0.9973746,0.053654674,-0.08070653,0.04961868,0.9955021
cart_T_ecmi,,,,,0.10736985,1.3461393,0.4449551,0.99602276,0.009220387,-0.08862091,-0.050110485,-0.7644486,-0.6427342,-0.07367239,0.64461875,-0.76094615
ecmac_T_ecmrep_psm1,,,,,0.0019077883,-0.24418817,-0.31129345,0.9990406,0.03670117,0.023893757,-0.03487346,0.99673134,-0.072872825,-0.026490174,0.07196965,0.997055
ecmac_T_ecmrep_psm3,,,,,-0.025437847,-0.43631262,-0.5392238,0.9997681,0.02112905,0.0041644988,-0.020983119,0.99925387,-0.03242474,-0.0048464956,0.032329835,0.9994655
""
0,18:14:37.238139,18:14:21.627250,0,,0.12602377,0.0026600957,0.011251599,0.9091351,0.0012665465,-0.41649914,0.39480102,0.3159486,0.8627332,0.13268498,-0.9487754,0.28673983,,0.07404618,-0.020749196,0.025406182,-0.6763811,-0.28561512,0.67892015,0.7365208,-0.25380334,0.62699366,-0.006766677,0.92412543,0.3820292,,0.107371405,1.3461404,0.4449443,0.996023,0.009223968,-0.0886179,-0.050105818,-0.7644485,-0.64273465,-0.07367239,0.64461875,-0.76094615,,-0.08019691,0.24981381,-0.07405821,-0.9090614,0.11052705,0.4017352,0.33545506,-0.37774295,0.8630065,0.24713819,0.91928995,0.30631468,,-0.010974771,0.43817586,-0.32532293,0.6900217,0.15114799,-0.7078307,0.58369887,0.46205986,0.6676798,0.42797863,-0.87387353,0.2306064,,0.898617197244764,0.32080232359528615,0.21006638708000003,3.7840647201217266,0.11887375479593319,-1.4673394782942397,-0.40345984335166984,,-0.902918759455707,0.032991514838687105,0.19575016032000003,-3.6429433881566418,-0.17352835470210937,1.3910221043647764,0.8774843232733481,,-0.046482481303738984,-0.07979645340118074,0.07698830152,-0.06345462529521684,,2.2947788e-06,-7.748604e-06,7.390976e-06,1.0,3.5651028e-06,3.028661e-06,-3.5651028e-06,1.0,3.5762787e-07,-3.0174851e-06,-3.5762787e-07,1.0,37,0.11,0,0,0.0,False,-0.2599971910607066,1.0513013547875674
0.1293660610099323,18:14:37.271149,18:14:21.627250,0,,0.12600903,0.002764687,0.011090219,0.90868586,0.00092927366,-0.41747934,0.39592868,0.31522724,0.8624803,0.13240229,-0.94901574,0.2860745,,0.074050464,-0.020745248,0.025409877,-0.6736996,-0.28555313,0.6816071,0.73899215,-0.25480005,0.6236727,-0.0044181943,0.9238703,0.38268012,,0.107371405,1.3461404,0.4449443,0.996023,0.009223968,-0.0886179,-0.050105818,-0.7644485,-0.64273465,-0.07367239,0.64461875,-0.76094615,,-0.0801621,0.24978891,-0.07387014,-0.90855825,0.11087238,0.40277684,0.33615026,-0.37842727,0.862436,0.24804206,0.9189669,0.30655345,,-0.010979413,0.43818095,-0.32532242,0.6871122,0.15109517,-0.7106666,0.5869016,0.46115345,0.66549534,0.42827946,-0.87436134,0.22818619,,0.8987793746351227,0.32085638272540573,0.21025694171000003,3.783016270404304,0.11955693729476038,-1.466753065450754,-0.4034598433516696,,-0.902918759455707,0.032991514838687105,0.19575016032000003,-3.638539899343467,-0.17352835470210937,1.3909404256246358,0.8773209792072137,,-0.046482481303738984,-0.07979645340118074,0.07698830152,-0.06345462529521684,,2.2947788e-06,-7.748604e-06,7.390976e-06,1.0,3.5651028e-06,3.028661e-06,-3.5651028e-06,1.0,3.5762787e-07,-3.0174851e-06,-3.5762787e-07,1.0,49,0.146,0,0,0.0,False,-0.26017592421626956,1.0519772775984795
0.16235508301178925,18:14:37.311285,18:14:21.627250,0,,0.125966,0.002847448,0.01095131,0.90882766,-0.0006143451,-0.41717115,0.39604667,0.31545612,0.8623424,0.1310694,-0.9489399,0.28693843,,0.074053824,-0.020750895,0.025410295,-0.6739418,-0.28557566,0.6813582,0.7387697,-0.2546744,0.62398744,-0.004671186,0.923898,0.38261023,,0.107371405,1.3461404,0.4449443,0.996023,0.009223968,-0.0886179,-0.050105818,-0.7644485,-0.64273465,-0.07367239,0.64461875,-0.76094615,,-0.080102146,0.24976364,-0.073715985,-0.9085495,0.11240299,0.40237218,0.335365,-0.3781197,0.8628765,0.24913475,0.9189075,0.30584443,,-0.01098295,0.43817687,-0.3253262,0.68738055,0.151117,-0.7104025,0.5865852,0.46126577,0.6656964,0.42828238,-0.87429833,0.22842212,,0.8990187793542236,0.3208177690610346,0.21041638538000002,3.7834356502912727,0.12065002929288392,-1.4673993724599037,-0.40362318741780423,,-0.9029342049214555,0.032960623907190206,0.19575016032000003,-3.6389592792304355,-0.17352835470210937,1.3909404256246358,0.8773209792072137,,-0.046482481303738984,-0.07979645340118074,0.07698830152,-0.06345462529521684,,2.2947788e-06,-7.748604e-06,7.390976e-06,1.0,3.5651028e-06,3.028661e-06,-3.5651028e-06,1.0,3.5762787e-07,-3.0174851e-06,-3.5762787e-07,1.0,64,0.192,0,0,0.0,False,-0.2599376133421849,1.051108233984449
0.20251861000724602,18:14:37.358615,18:14:21.627250,0,,0.12591058,0.0029272288,0.010930419,0.90912753,-0.00016570091,-0.41651756,0.39541024,0.31464186,0.8629317,0.1309108,-0.9492104,0.28611493,,0.074056745,-0.020754278,0.02541089,-0.67375195,-0.28565675,0.68151194,0.73894274,-0.25459343,0.6238156,-0.00468871,0.92389524,0.38261673,,0.107371405,1.3461404,0.4449443,0.996023,0.009223968,-0.0886179,-0.050105818,-0.7644485,-0.64273465,-0.07367239,0.64461875,-0.76094615,,-0.08004298,0.24981353,-0.07365369,-0.9088444,0.11196862,0.4018269,0.33476323,-0.3789372,0.8627515,0.24886827,0.91862375,0.306912,,-0.010986016,0.4381746,-0.3253286,0.6871994,0.15119982,-0.7105601,0.5866859,0.46132904,0.6655638,0.42843512,-0.8742506,0.22831824,,0.899443529662306,0.32093361005414794,0.21046694069000002,3.7840647201217266,0.12037675629335302,-1.4659513555504025,-0.40411321961620694,,-0.9029419276543297,0.03294517844144176,0.19575016032000003,-3.6387495892869515,-0.17339171820234395,1.3909106864610798,0.8771576351410796,,-0.046482481303738984,-0.07979645340118074,0.07698830152,-0.06345462529521684,,2.2947788e-06,-7.748604e-06,7.390976e-06,1.0,3.5651028e-06,3.028661e-06,-3.5651028e-06,1.0,3.5762787e-07,-3.0174851e-06,-3.5762787e-07,1.0,80,0.241,0,0,0.0,False,-0.2602355019347904,1.0513496349883464
0.24986336201254744,18:14:37.392092,18:14:21.627250,0,,0.12587993,0.0029812753,0.010955647,0.90922135,-0.0005131066,-0.41631243,0.39531064,0.31467316,0.86296594,0.1305595,-0.9492,0.28631026,,0.074058935,-0.020758733,0.025411844,-0.6735836,-0.2857026,0.6816591,0.7390939,-0.25407982,0.62384593,-0.005038649,0.92402244,0.3823049,,0.107371405,1.3461404,0.4449443,0.996023,0.009223968,-0.0886179,-0.050105818,-0.7644485,-0.64273465,-0.07367239,0.64461875,-0.76094615,,-0.08001408,0.24987257,-0.07364041,-0.90890115,0.112313375,0.4016023,0.33445412,-0.37888756,0.86289316,0.24907656,0.91860217,0.30680767,,-0.010988417,0.4381718,-0.32533202,0.68708396,0.15124135,-0.71066284,0.5865468,0.46179432,0.6653637,0.42881057,-0.87399775,0.22858134,,0.8997215480457781,0.32112667837600356,0.21046694069000002,3.784274410065211,0.12065002929288392,-1.4657657976570926,-0.403623187417804,,-0.9029419276543297,0.032937455708567535,0.19574886403000002,-3.6387495892869515,-0.1729818087030476,1.3905764327499908,0.8769942910749452,,-0.046482481303738984,-0.07979645340118074,0.07698830152,-0.06345462529521684,,2.2947788e-06,-7.748604e-06,7.390976e-06,1.0,3.5651028e-06,3.028661e-06,-3.5651028e-06,1.0,3.5762787e-07,-3.0174851e-06,-3.5762787e-07,1.0,91,0.274,0,0,0.0,False,-0.26053339052739544,1.0514461953899055
0.28334121000079904,18:14:37.431953,18:14:21.829915,0,,0.12579098,0.0030539185,0.010992482,0.9084943,-0.010380901,-0.41776818,0.39977193,0.31281278,0.8615861,0.121739134,-0.94975805,0.2883385,,0.07408616,-0.02079019,0.025411367,-0.6717036,-0.28824696,0.6824428,0.74076617,-0.25021917,0.62342274,-0.008939505,0.92428565,0.3815966,,0.107371405,1.3461404,0.4449443,0.996023,0.009223968,-0.0886179,-0.050105818,-0.7644485,-0.64273465,-0.07367239,0.64461875,-0.76094615,,-0.07992811,0.24995646,-0.07362945,-0.90710497,0.12213792,0.4027939,0.33213767,-0.38011783,0.8632468,0.25854433,0.91683847,0.30424017,,-0.011016134,0.43814644,-0.32534993,0.6857936,0.15382634,-0.7113541,0.5849862,0.46498287,0.6645164,0.43298757,-0.8718534,0.22889599,,0.9000459028264954,0.32162865601282814,0.21047212585000002,3.783645340234757,0.1307611302755265,-1.4676397807996637,-0.40394987555007256,,-0.9029342049214555,0.032937455708567535,0.19574886403000002,-3.6387495892869515,-0.1683361677110226,1.389810337409513,0.877320979207214,,-0.046482481303738984,-0.07979645340118074,0.07698830152,-0.06345462529521684,,2.2947788e-06,-7.748604e-06,7.390976e-06,1.0,3.5651028e-06,3.028661e-06,-3.5651028e-06,1.0,3.5762787e-07,-3.0174851e-06,-3.5762787e-07,1.0,103,0.311,0,0,0.0,False,-0.260652545964438,1.0515910359922438
0.32320721600262914,18:14:37.473403,18:14:21.829915,0,,0.12582642,0.003220886,0.011059299,0.90894616,-0.012849435,-0.41671517,0.3995939,0.31194815,0.86198205,0.11891751,-0.95001227,0.28867853,,0.07409963,-0.020801648,0.025413215,-0.6708513,-0.28989395,0.6825834,0.74152005,-0.24939677,0.6228558,-0.010328114,0.9239928,0.38227022,,0.107371405,1.3461404,0.4449443,0.996023,0.009223968,-0.0886179,-0.050105818,-0.7644485,-0.64273465,-0.07367239,0.64461875,-0.76094615,,-0.079966925,0.25012445,-0.07356728,-0.9072468,0.12459924,0.40171906,0.3301429,-0.3808026,0.86371005,0.26059327,0.91622293,0.30434638,,-0.011030032,0.4381384,-0.32535756,0.6851571,0.15551868,-0.7115994,0.5845333,0.4655067,0.6645482,0.43460396,-0.87127346,0.22803938,,0.900238971148351,0.32258627488923197,0.21049286649,3.7851131698391494,0.13390376977013163,-1.466935242979059,-0.40460325181460965,,-0.9029496503872039,0.03292973297569331,0.19574886403000002,-3.6372817596825593,-0.1665598932140719,1.3904855519051142,0.8769942910749455,,-0.046482481303738984,-0.07979645340118074,0.07698830152,-0.06345462529521684,,2.2947788e-06,-7.748604e-06,7.390976e-06,1.0,3.5651028e-06,3.028661e-06,-3.5651028e-06,1.0,3.5762787e-07,-3.0174851e-06,-3.5762787e-07,1.0,115,0.347,0,0,0.0,False,-0.260652545964438,1.0517358765945823
0.364636596001219,18:14:37.508785,18:14:21.829915,0,,0.12591413,0.0034507662,0.011106521,0.9092933,-0.015584245,-0.41586384,0.39955646,0.3121104,0.8619407,0.11636272,-0.94991803,0.29002655,,0.07411161,-0.020817459,0.025415897,-0.66869956,-0.28999278,0.68464965,0.7434815,-0.24997574,0.62028015,-0.008731008,0.9238053,0.38276288,,0.107371405,1.3461404,0.4449443,0.996023,0.009223968,-0.0886179,-0.050105818,-0.7644485,-0.64273465,-0.07367239,0.64461875,-0.76094615,,-0.08005408,0.25032452,-0.073444195,-0.9073108,0.12730993,0.40072355,0.32843387,-0.3804681,0.8645086,0.26252306,0.9159892,0.3033899,,-0.011042664,0.43812773,-0.32536882,0.6828608,0.15562688,-0.7137797,0.58689255,0.4649634,0.66284704,0.43503824,-0.8715442,0.22616902,,0.9003239212099675,0.32386824854635327,0.21056286615000003,3.786371309500056,0.13718304576450221,-1.4672405892036968,-0.40411321961620694,,-0.9029728185858266,0.03283706018120262,0.19574886403000002,-3.6351848602477137,-0.16642325671430647,1.3904558127415583,0.8771576351410797,,-0.046482481303738984,-0.07979645340118074,0.07698830152,-0.06345462529521684,,2.2947788e-06,-7.748604e-06,7.390976e-06,1.0,3.5651028e-06,3.028661e-06,-3.5651028e-06,1.0,3.5762787e-07,-3.0174851e-06,-3.5762787e-07,1.0,130,0.393,0,0,0.0,False,-0.26041423509035333,1.0513496349883464
0.4000398680072976,18:14:37.547213,18:14:21.829915,0,,0.12595809,0.0036747307,0.011156857,0.90947604,-0.023114286,-0.41511294,0.40123507,0.31037128,0.86178887,0.10891946,-0.95033437,0.29154938,,0.074130505,-0.020833597,0.02542293,-0.668651,-0.29010344,0.68465024,0.74352384,-0.24989837,0.62026054,-0.008846849,0.9237915,0.38279355,,0.107371405,1.3461404,0.4449443,0.996023,0.009223968,-0.0886179,-0.050105818,-0.7644485,-0.64273465,-0.07367239,0.64461875,-0.76094615,,-0.08009824,0.25052452,-0.073331624,-0.90663356,0.13479869,0.39980602,0.32485482,-0.3816428,0.8653428,0.26923016,0.91442776,0.30222017,,-0.011062758,0.4381193,-0.3253827,0.68282944,0.15574038,-0.71378493,0.5868414,0.4650188,0.6628534,0.43515646,-0.87149435,0.2261336,,0.9004474849359552,0.32521200406646833,0.21063156952000003,3.788048829047932,0.14565450874995953,-1.46761420002163,-0.4041132196162067,,-0.9030654913803172,0.0327366646538377,0.19574886403000002,-3.6351848602477137,-0.16642325671430647,1.3904558127415583,0.8771576351410797,,-0.046482481303738984,-0.07979645340118074,0.07698830152,-0.06345462529521684,,2.2947788e-06,-7.748604e-06,7.390976e-06,1.0,3.5651028e-06,3.028661e-06,-3.5651028e-06,1.0,3.5762787e-07,-3.0174851e-06,-3.5762787e-07,1.0,138,0.418,0,0,0.0,False,-0.2602950796533112,1.0516875963938028
0.43847286800155416,18:14:37.571545,18:14:21.829915,0,,0.1259973,0.0037889332,0.011171371,0.910218,-0.022930838,-0.41349387,0.39977753,0.3092305,0.8628757,0.10807845,-0.95071065,0.29063433,,0.0741453,-0.020847335,0.025428057,-0.66848195,-0.29018787,0.68477947,0.74367595,-0.24988046,0.62008536,-0.008828312,0.92376983,0.38284624,,0.107371405,1.3461404,0.4449443,0.996023,0.009223968,-0.0886179,-0.050105818,-0.7644485,-0.64273465,-0.07367239,0.64461875,-0.76094615,,-0.08013625,0.25061834,-0.0732642,-0.90731096,0.13463211,0.39832273,0.32316282,-0.3827618,0.8654821,0.2689844,0.9139845,0.30377588,,-0.01107847,0.4381117,-0.32539406,0.6826635,0.15582737,-0.7139246,0.5869528,0.46502337,0.66275156,0.43526646,-0.8714764,0.22599116,,0.9005247122646974,0.32577576356628674,0.2106730508,3.789936038539293,0.14620105474902126,-1.4657728669124799,-0.4031331552194013,,-0.9031349959761853,0.03265171459222123,0.19574886403000002,-3.6349751703042297,-0.16642325671430647,1.3904558127415583,0.8771576351410797,,-0.046482481303738984,-0.07979645340118074,0.07698830152,-0.06345462529521684,,2.2947788e-06,-7.748604e-06,7.390976e-06,1.0,3.5651028e-06,3.028661e-06,-3.5651028e-06,1.0,3.5762787e-07,-3.0174851e-06,-3.5762787e-07,1.0,146,0.442,0,0,0.0,False,-0.2598184579051428,1.0519289973977002
0.46279603701259475,18:14:37.600285,18:14:21.829915,0,,0.12603873,0.003937468,0.011196911,0.9100688,-0.02268333,-0.41383567,0.39995658,0.30987236,0.8625623,0.10867043,-0.9505075,0.29107738,,0.0741739,-0.02086936,0.025440931,-0.66828454,-0.29035708,0.68490046,0.7438528,-0.24982539,0.61989546,-0.008885562,0.92373157,0.38293728,,0.107371405,1.3461404,0.4449443,0.996023,0.009223968,-0.0886179,-0.050105818,-0.7644485,-0.64273465,-0.07367239,0.64461875,-0.76094615,,-0.080176845,0.2507452,-0.07318241,-0.907224,0.1343783,0.39860642,0.32369167,-0.3821571,0.86555165,0.26864162,0.9142748,0.30320492,,-0.011109102,0.43810222,-0.32541505,0.6824803,0.15600161,-0.71406174,0.58702874,0.4650501,0.66266555,0.4354514,-0.87143093,0.2258101,,0.9007100578536787,0.3264862549907154,0.21071971724000002,3.789516658652324,0.14620105474902126,-1.4657728669124799,-0.40378653148393795,,-0.9032817279007955,0.03251270540048518,0.19574756774000002,-3.634765480360745,-0.16642325671430647,1.3904558127415583,0.8771576351410797,,-0.046482481303738984,-0.07979645340118074,0.07698830152,-0.06345462529521684,,2.2947788e-06,-7.748604e-06,7.390976e-06,1.0,3.5651028e-06,3.028661e-06,-3.5651028e-06,1.0,3.5762787e-07,-3.0174851e-06,-3.5762787e-07,1.0,154,0.466,0,0,0.0,False,-0.2598184579051428,1.0515427557914643
0.4915409070090391,18:14:37.633697,18:14:22.020377,0,,0.1260394,0.004049152,0.011224538,0.9089752,-0.022412628,-0.416247,0.40213042,0.31015912,0.8614479,0.109795466,-0.9504204,0.29093963,,0.074197225,-0.020893574,0.025448442,-0.6682155,-0.29049358,0.6849098,0.7439128,-0.24970776,0.61987084,-0.00904128,0.9237205,0.38296044,,0.107371405,1.3461404,0.4449443,0.996023,0.009223968,-0.0886179,-0.050105818,-0.7644485,-0.64273465,-0.07367239,0.64461875,-0.76094615,,-0.08017805,0.25084776,-0.07313027,-0.9062122,0.13410619,0.40099242,0.32613042,-0.381898,0.86475015,0.26910657,0.914423,0.30234453,,-0.011133855,0.43808782,-0.32543424,0.6824347,0.15614137,-0.71407473,0.586962,0.46513867,0.66266257,0.43561283,-0.87135863,0.22577772,,0.9010035217028993,0.32698050989466576,0.21074564304,3.786790689387025,0.14633769124878673,-1.4658026060760359,-0.4036231874178038,,-0.9033898461610347,0.03236597347587492,0.19574756774000002,-3.634765480360745,-0.16642325671430647,1.3904558127415583,0.8771576351410797,,-0.046482481303738984,-0.07979645340118074,0.07698830152,-0.06345462529521684,,2.2947788e-06,-7.748604e-06,7.390976e-06,1.0,3.5651028e-06,3.028661e-06,-3.5651028e-06,1.0,3.5762787e-07,-3.0174851e-06,-3.5762787e-07,1.0,173,0.524,0,0,0.0,False,-0.2596993024681016,1.0517358765945823
0.5249414030113257,18:14:37.678890,18:14:22.020377,0,,0.1260083,0.00418067,0.011258468,0.9095174,-0.022644654,-0.41504848,0.40101108,0.31060117,0.8618103,0.10939914,-0.95027053,0.2915778,,0.07422531,-0.020922199,0.025457561,-0.6674895,-0.29070324,0.68552846,0.74456877,-0.2498602,0.6190213,-0.008665234,0.9236133,0.3832275,,0.107371405,1.3461404,0.4449443,0.996023,0.009223968,-0.0886179,-0.050105818,-0.7644485,-0.64273465,-0.07367239,0.64461875,-0.76094615,,-0.080147915,0.25097117,-0.073073044,-0.90673256,0.1343302,0.39973933,0.3249948,-0.3814529,0.86537397,0.26872757,0.91457593,0.30221912,,-0.011163652,0.43807104,-0.32545707,0.6816818,0.15635954,-0.7147458,0.5876433,0.46496987,0.66217697,0.43587297,-0.8714096,0.22507787,,0.901474608408227,0.3274670420657419,0.21077286513000001,3.788048829047932,0.14633769124878673,-1.4654758911154735,-0.40329649928553546,,-0.9035134098870223,0.032188350619767755,0.19574756774000002,-3.6337170306433224,-0.16642325671430647,1.3905374914816988,0.8773209792072139,,-0.046482481303738984,-0.07979645340118074,0.07698830152,-0.06345462529521684,,2.2947788e-06,-7.748604e-06,7.390976e-06,1.0,3.5651028e-06,3.028661e-06,-3.5651028e-06,1.0,3.5762787e-07,-3.0174851e-06,-3.5762787e-07,1.0,185,0.561,0,0,0.0,False,-0.25952056931253775,1.0513013547875674
0.5701192359993001,18:14:37.719390,18:14:22.020377,0,,0.12601937,0.004222378,0.011285156,0.9095915,-0.022849254,-0.41487485,0.4008918,0.3107249,0.86182123,0.10921997,-0.95022523,0.29179272,,0.074229255,-0.020930767,0.02545774,-0.66752213,-0.2908296,0.6854432,0.7445404,-0.25008303,0.6189654,-0.008595824,0.9235132,0.38347024,,0.107371405,1.3461404,0.4449443,0.996023,0.009223968,-0.0886179,-0.050105818,-0.7644485,-0.64273465,-0.07367239,0.64461875,-0.76094615,,-0.08016091,0.2510195,-0.073064804,-0.90678906,0.1345313,0.39954334,0.32478386,-0.3813184,0.86551243,0.26879174,0.91460246,0.30208176,,-0.011167811,0.43806463,-0.3254626,0.68170387,0.15649249,-0.7146957,0.58767205,0.46474835,0.66230696,0.43579972,-0.8715039,0.22485448,,0.9015363902712208,0.3277141695177171,0.21076897626000002,3.7882585189914173,0.1466109642483176,-1.4654536907024447,-0.40345984335166984,,-0.9035288553527707,0.032134291489648185,0.19574756774000002,-3.6337170306433224,-0.1665598932140719,1.3908122668656764,0.877320979207214,,-0.046482481303738984,-0.07979645340118074,0.07698830152,-0.06345462529521684,,2.2947788e-06,-7.748604e-06,7.390976e-06,1.0,3.5651028e-06,3.028661e-06,-3.5651028e-06,1.0,3.5762787e-07,-3.0174851e-06,-3.5762787e-07,1.0,197,0.597,0,0,0.0,False,-0.25963972474957986,1.0512530745867876
0.6106432939996012,18:14:37.755391,18:14:22.020377,0,,0.12605801,0.0042479336,0.011327207,0.9097532,-0.022639312,-0.4145317,0.4005311,0.31050324,0.8620688,0.10919677,-0.9503027,0.29154897,,0.07422926,-0.020931572,0.025457323,-0.66720945,-0.29089004,0.685722,0.7448219,-0.2500614,0.61863536,-0.008482367,0.9235,0.38350448,,0.107371405,1.3461404,0.4449443,0.996023,0.009223968,-0.0886179,-0.050105818,-0.7644485,-0.64273465,-0.07367239,0.64461875,-0.76094615,,-0.08020338,0.2510641,-0.07307594,-0.90695536,0.13432623,0.39923486,0.3244866,-0.3815483,0.86552256,0.26858976,0.9145367,0.3024602,,-0.011167783,0.43806377,-0.32546282,0.6813862,0.15655468,-0.714985,0.5879319,0.46475968,0.66206837,0.4359461,-0.8714867,0.22463733,,0.9014514402096043,0.32799218790118917,0.21074564304,3.788677898878386,0.14674760074808305,-1.4649933574251572,-0.40329649928553546,,-0.9035211326198965,0.032134291489648185,0.19574756774000002,-3.633297650756354,-0.16642325671430647,1.3907825277021204,0.8771576351410796,,-0.046482481303738984,-0.07979645340118074,0.07698830152,-0.06345462529521684,,2.2947788e-06,-7.748604e-06,7.390976e-06,1.0,3.5651028e-06,3.028661e-06,-3.5651028e-06,1.0,3.5762787e-07,-3.0174851e-06,-3.5762787e-07,1.0,205,0.621,0,0,0.0,False,-0.2599376133421849,1.0520738380000385
0.6466354170115665,18:14:37.785794,18:14:22.171669,0,,0.12610641,0.0042565465,0.011407077,0.90980047,-0.022623688,-0.4144287,0.4004886,0.3099837,0.8622755,0.108958274,-0.95047265,0.2910837,,0.07423606,-0.020930782,0.025459707,-0.6643852,-0.29084444,0.68847793,0.7473633,-0.25069606,0.61530447,-0.0063591897,0.9233423,0.3839252,,0.107371405,1.3461404,0.4449443,0.996023,0.009223968,-0.0886179,-0.050105818,-0.7644485,-0.64273465,-0.07367239,0.64461875,-0.76094615,,-0.080260076,0.2511199,-0.07312561,-0.906977,0.1343177,0.3991885,0.32429668,-0.38205332,0.865371,0.26874593,0.9143271,0.3029548,,-0.011174814,0.43806544,-0.3254632,0.6783676,0.15651433,-0.7178584,0.5910226,0.46418524,0.65971535,0.43647417,-0.87180007,0.2223847,,0.9013047082849941,0.3283242654147808,0.21068212483,3.7888875888218703,0.1472941467471448,-1.4643772054181157,-0.4032964992855357,,-0.9035211326198965,0.03212656875677396,0.19574886403000002,-3.6288941619431787,-0.16614998371477557,1.390478013154587,0.877320979207214,,-0.046482481303738984,-0.07979645340118074,0.07698830152,-0.06345462529521684,,2.2947788e-06,-7.748604e-06,7.390976e-06,1.0,3.5651028e-06,3.028661e-06,-3.5651028e-06,1.0,3.5762787e-07,-3.0174851e-06,-3.5762787e-07,1.0,220,0.668,0,0,0.0,False,-0.26011634649774784,1.0518807171969207
0.6770487090107054,18:14:37.826900,18:14:22.171669,0,,0.12618,0.004281044,0.011606827,0.9096681,-0.02236157,-0.41473338,0.4011128,0.3063771,0.86327374,0.10776064,-0.9516475,0.28767085,,0.074266255,-0.020961493,0.025461614,-0.6632521,-0.29303947,0.6886396,0.74831605,-0.24622282,0.61595243,-0.010939658,0.9238518,0.38259387,,0.107371405,1.3461404,0.4449443,0.996023,0.009223968,-0.0886179,-0.050105818,-0.7644485,-0.64273465,-0.07367239,0.64461875,-0.76094615,,-0.080354676,0.25126433,-0.073252514,-0.9066993,0.13410527,0.3998902,0.32399797,-0.3855643,0.86392444,0.2700402,0.91288334,0.30614102,,-0.011205778,0.43804207,-0.325482,0.6778904,0.15873593,-0.71782136,0.58852994,0.46796316,0.6592746,0.4405645,-0.8693753,0.22380689,,0.9011425308946354,0.3290810932364548,0.21052268116000003,3.7888875888218703,0.1493436942436264,-1.4604943196440034,-0.4031331552194011,,-0.9035443008185192,0.032134291489648185,0.19574886403000002,-3.630152301604086,-0.16150434272275063,1.389221845373266,0.8774843232733482,,-0.046482481303738984,-0.07979645340118074,0.07698830152,-0.06345462529521684,,2.2947788e-06,-7.748604e-06,7.390976e-06,1.0,3.5651028e-06,3.028661e-06,-3.5651028e-06,1.0,3.5762787e-07,-3.0174851e-06,-3.5762787e-07,1.0,232,0.704,0,0,0.0,False,-0.259282258438454,1.0512530745867876
0.7181609640101669,18:14:37.866822,18:14:22.171669,0,,0.1263091,0.0043510795,0.011908323,0.90980244,-0.02173239,-0.414472,0.40069062,0.306322,0.86348933,0.108196184,-0.9516798,0.28740036,,0.07428631,-0.020944744,0.025466144,-0.6599713,-0.295385,0.6907861,0.75121695,-0.24656475,0.6122736,-0.010533005,0.92301327,0.38462383,,0.10734995,1.346141,0.44494694,0.9960251,0.009255794,-0.08859114,-0.05006435,-0.76444817,-0.64273834,-0.07367239,0.64461875,-0.76094615,,-0.080499016,0.2515031,-0.07342165,-0.90690786,0.13347015,0.39962962,0.32392442,-0.38566017,0.86390924,0.26942733,0.9129359,0.306524,,-0.011209383,0.4380556,-0.32546997,0.6746308,0.16117223,-0.7203449,0.590706,0.4673246,0.6577797,0.4426507,-0.8692705,0.22006619,,0.9009494625727797,0.3303707896264503,0.21032175621000002,3.7893069687088397,0.14989024024268818,-1.4595514526763997,-0.40329649928553546,,-0.903606082681513,0.03214201422252241,0.19575016032000003,-3.6261681926778797,-0.159454795226269,1.3906543689431614,0.876830947008811,,-0.046482481303738984,-0.07979645340118074,0.07698830152,-0.06345462529521684,,-1.9297004e-05,-6.7949295e-06,6.914139e-06,1.0,3.5248697e-05,2.9854476e-05,-3.5248697e-05,1.0,3.427267e-06,-2.9847026e-05,-3.3974648e-06,1.0,244,0.74,0,0,0.0,False,-0.2589247921273281,1.0518807171969207
0.7580435130075784,18:14:37.893846,18:14:22.171669,0,,0.12645674,0.004494652,0.012165159,0.9096428,-0.023283198,-0.41473818,0.40134752,0.30668285,0.863056,0.107098356,-0.9515269,0.28831643,,0.07431546,-0.020948395,0.025479913,-0.6582478,-0.29557183,0.6923489,0.75274533,-0.24721584,0.6101302,-0.009177774,0.92277926,0.3852195,,0.10734995,1.346141,0.44494694,0.9960251,0.009255794,-0.08859114,-0.05006435,-0.76444817,-0.64273834,-0.07367239,0.64461875,-0.76094615,,-0.08067082,0.2517708,-0.073506534,-0.9066133,0.13500237,0.39978328,0.32371694,-0.38520205,0.86419135,0.27066523,0.912904,0.30552673,,-0.011240215,0.43806013,-0.325479,0.6727801,0.161372,-0.7220291,0.59261596,0.46670356,0.6565014,0.44291452,-0.86956704,0.21835724,,0.9007641169837983,0.3318921680026725,0.21017138657,3.7893069687088397,0.15248633373823153,-1.4597897818233987,-0.4029698111532667,,-0.9037528146061232,0.03208795509240284,0.19575275290000002,-3.623442223412581,-0.159454795226269,1.390736047683302,0.8766676029426768,,-0.046482481303738984,-0.07979645340118074,0.07698830152,-0.06345462529521684,,-1.9297004e-05,-6.7949295e-06,6.914139e-06,1.0,3.5248697e-05,2.9854476e-05,-3.5248697e-05,1.0,3.427267e-06,-2.9847026e-05,-3.3974648e-06,1.0,256,0.777,0,0,0.0,False,-0.2594014138754961,1.0515427557914643
0.7850948840059573,18:14:37.935192,18:14:22.171669,0,,0.12659535,0.0046036094,0.012340337,0.9096028,-0.024039157,-0.4147828,0.4016412,0.30637962,0.8630272,0.10633451,-0.9516058,0.28833878,,0.074347205,-0.020955488,0.025495648,-0.65750074,-0.29580498,0.692959,0.7534019,-0.24730828,0.6092818,-0.008854181,0.9226798,0.3854653,,0.10734995,1.346141,0.44494694,0.9960251,0.009255794,-0.08859114,-0.05006435,-0.76444817,-0.64273834,-0.07367239,0.64461875,-0.76094615,,-0.0808254,0.25195965,-0.0735535,-0.9064827,0.13575538,0.3998245,0.32344484,-0.3854416,0.86418647,0.27142695,0.91269124,0.30548677,,-0.011273975,0.43806326,-0.32549152,0.6720134,0.16161399,-0.7226887,0.5932606,0.46658567,0.6560028,0.4432154,-0.8695854,0.2176726,,0.9004860986003262,0.33306602339955466,0.2100767574,3.789516658652324,0.1543992447349477,-1.4593076639716347,-0.4029698111532669,,-0.9039227147293561,0.03202617322940904,0.19575404919000003,-3.6223937736951584,-0.15931815872650357,1.390706308519746,0.8768309470088109,,-0.046482481303738984,-0.07979645340118074,0.07698830152,-0.06345462529521684,,-1.9297004e-05,-6.7949295e-06,6.914139e-06,1.0,3.5248697e-05,2.9854476e-05,-3.5248697e-05,1.0,3.427267e-06,-2.9847026e-05,-3.3974648e-06,1.0,267,0.811,0,0,0.0,False,-0.2588652144088064,1.051494475590685
0.8264322390023153,18:14:37.973034,18:14:22.355387,0,,0.12679411,0.0046753436,0.01251784,0.9092451,-0.023653157,-0.4155884,0.4023815,0.3056054,0.8629568,0.10659438,-0.95186436,0.28738773,,0.07439941,-0.020964205,0.025521994,-0.6571238,-0.29616177,0.69316405,0.7537296,-0.24725479,0.60889804,-0.008944243,0.92257965,0.3857028,,0.10734995,1.346141,0.44494694,0.9960251,0.009255794,-0.08859114,-0.05006435,-0.76444817,-0.64273834,-0.07367239,0.64461875,-0.76094615,,-0.081040874,0.2521185,-0.07362059,-0.9061392,0.13538289,0.40072832,0.3241944,-0.38621753,0.86355895,0.2716794,0.9124185,0.30607647,,-0.011329475,0.43807095,-0.32551038,0.6716608,0.1619823,-0.72293395,0.59341145,0.4665831,0.65586823,0.4435478,-0.8695182,0.21726343,,0.8998682799703883,0.33423215606356255,0.20996657275000002,3.7888875888218703,0.15576560973260212,-1.4582981957649443,-0.40329649928553546,,-0.9042161785785767,0.03194122316779257,0.19575664177000002,-3.621974393808189,-0.15918152222673815,1.3906765693561902,0.8769942910749455,,-0.046482481303738984,-0.07979645340118074,0.07698830152,-0.06345462529521684,,-1.9297004e-05,-6.7949295e-06,6.914139e-06,1.0,3.5248697e-05,2.9854476e-05,-3.5248697e-05,1.0,3.427267e-06,-2.9847026e-05,-3.3974648e-06,1.0,279,0.848,0,0,0.0,False,-0.25910352528289105,1.0519772775984795
0.8642513740051072,18:14:37.996183,18:14:22.355387,0,,0.12690373,0.0046447515,0.012601823,0.9090949,-0.023715474,-0.4159133,0.4027116,0.3055707,0.86281514,0.106628805,-0.95187396,0.28734317,,0.07443561,-0.020974368,0.025539875,-0.65681136,-0.29636532,0.69337314,0.7540027,-0.24730548,0.60853916,-0.008874983,0.9225007,0.38589317,,0.10734995,1.346141,0.44494694,0.9960251,0.009255794,-0.08859114,-0.05006435,-0.76444817,-0.64273834,-0.07367239,0.64461875,-0.76094615,,-0.08115973,0.25214392,-0.073692895,-0.90598637,0.13544507,0.40105283,0.32447514,-0.38624665,0.86344045,0.27185407,0.9123969,0.30598563,,-0.011368008,0.43807295,-0.325526,0.67134905,0.1621933,-0.7231762,0.59363514,0.46650743,0.6557195,0.44372037,-0.8695195,0.21690567,,0.8993508568678152,0.33457967904290264,0.20988620277000003,3.788677898878386,0.1564487922314293,-1.458528570322864,-0.4029698111532669,,-0.9044246923661807,0.0318562731061761,0.19575793806000003,-3.6215550139212205,-0.15904488572697267,1.3905651514524937,0.8769942910749455,,-0.046482481303738984,-0.07979645340118074,0.07698830152,-0.06345462529521684,,-1.9297004e-05,-6.7949295e-06,6.914139e-06,1.0,3.5248697e-05,2.9854476e-05,-3.5248697e-05,1.0,3.427267e-06,-2.9847026e-05,-3.3974648e-06,1.0,287,0.871,0,0,0.0,False,-0.25963972474957986,1.0516393161930233
0.8874122420093045,18:14:38.027972,18:14:22.355387,0,,0.12696172,0.0045959353,0.0126445,0.9080284,-0.02324155,-0.41826317,0.40488416,0.30488095,0.86204195,0.10748528,-0.95210683,0.2862506,,0.07445647,-0.020978898,0.02554965,-0.65620834,-0.2964803,0.69389486,0.75453055,-0.24731112,0.60788226,-0.008617312,0.9224622,0.38599098,,0.10734995,1.346141,0.44494694,0.9960251,0.009255794,-0.08859114,-0.05006435,-0.76444817,-0.64273834,-0.07367239,0.64461875,-0.76094615,,-0.08122317,0.25213152,-0.073751114,-0.9049721,0.13498427,0.4034908,0.32673678,-0.38694674,0.86227334,0.27252278,0.91216856,0.30607164,,-0.011390112,0.43807474,-0.32553372,0.6707306,0.16231224,-0.7237232,0.5941516,0.4664857,0.6552671,0.4439644,-0.869509,0.21644814,,0.8990110566213494,0.33464918363877066,0.20983046230000002,3.786161619556572,0.15685870173072564,-1.4582910728529694,-0.40378653148393817,,-0.9045250878935457,0.03181765944180498,0.19575923435000003,-3.620716254147282,-0.15904488572697267,1.3905651514524937,0.8769942910749455,,-0.046482481303738984,-0.07979645340118074,0.07698830152,-0.06345462529521684,,-1.9297004e-05,-6.7949295e-06,6.914139e-06,1.0,3.5248697e-05,2.9854476e-05,-3.5248697e-05,1.0,3.427267e-06,-2.9847026e-05,-3.3974648e-06,1.0,299,0.908,0,0,0.0,False,-0.2596993024681016,1.0518324369961412
0.9192116440099198,18:14:38.066760,18:14:22.355387,0,,0.12702739,0.0044923723,0.012792572,0.9078283,-0.02362696,-0.41867572,0.40554237,0.3034876,0.8622242,0.10669111,-0.95254236,0.2850963,,0.074466355,-0.020988181,0.02555263,-0.6559418,-0.2965478,0.694118,0.7547604,-0.24698439,0.6077298,-0.008784682,0.922528,0.38582978,,0.10734995,1.346141,0.44494694,0.9960251,0.009255794,-0.08859114,-0.05006435,-0.76444817,-0.64273834,-0.07367239,0.64461875,-0.76094615,,-0.0813071,0.25214574,-0.073923506,-0.9046708,0.13538383,0.40403217,0.32672998,-0.38826445,0.86168337,0.27352932,0.9115492,0.30701753,,-0.011400551,0.43806928,-0.32554105,0.6704952,0.16237868,-0.72392637,0.59418654,0.4667742,0.6550299,0.44427302,-0.86934173,0.21648663,,0.8985554153817702,0.3347804700976325,0.20965805573000001,3.7859519296130877,0.15822506672838005,-1.4574449621265602,-0.4044399077484755,,-0.9045637015579168,0.03177132304455963,0.19575923435000003,-3.6205065642037977,-0.1587716127274418,1.3903423156451011,0.8769942910749455,,-0.046482481303738984,-0.07979645340118074,0.07698830152,-0.06345462529521684,,-1.9297004e-05,-6.7949295e-06,6.914139e-06,1.0,3.5248697e-05,2.9854476e-05,-3.5248697e-05,1.0,3.427267e-06,-2.9847026e-05,-3.3974648e-06,1.0,314,0.954,0,0,0.0,False,-0.2594609915940169,1.0516393161930233
0.9579983270086814,18:14:38.111551,18:14:22.355387,0,,0.12713692,0.0044725686,0.0130830705,0.9076974,-0.024983622,-0.4188808,0.40632957,0.30161765,0.8625098,0.104793206,-0.9531016,0.28392905,,0.0744624,-0.020990565,0.025549293,-0.6552327,-0.29646134,0.6948242,0.7553812,-0.24699315,0.60695434,-0.0083217025,0.92255354,0.38577926,,0.10734995,1.346141,0.44494694,0.9960251,0.009255794,-0.08859114,-0.05006435,-0.76444817,-0.64273834,-0.07367239,0.64461875,-0.76094615,,-0.08144839,0.25231364,-0.074144006,-0.9043136,0.13675132,0.4043711,0.32609925,-0.38997024,0.8611518,0.27545634,0.91061646,0.30806088,,-0.011396251,0.43806556,-0.32554075,0.6697464,0.16228937,-0.7246392,0.5949024,0.4667787,0.6543767,0.44444448,-0.869356,0.21607701,,0.898169278738059,0.335691752576791,0.20940268660000003,3.786161619556572,0.1612310697232197,-1.4559755764811344,-0.40394987555007256,,-0.9045250878935457,0.03176360031168541,0.19575923435000003,-3.619458114486375,-0.15863497622767636,1.3901492190012639,0.8771576351410798,,-0.046482481303738984,-0.07979645340118074,0.07698830152,-0.06345462529521684,,-1.9297004e-05,-6.7949295e-06,6.914139e-06,1.0,3.5248697e-05,2.9854476e-05,-3.5248697e-05,1.0,3.427267e-06,-2.9847026e-05,-3.3974648e-06,1.0,322,0.979,0,0,0.0,False,-0.25952056931253775,1.0516393161930233
1.0028107750113122,18:14:38.142209,18:14:22.532786,0,,0.12723437,0.004534036,0.013300836,0.90775543,-0.027730547,-0.41858205,0.4069593,0.3003617,0.86265117,0.1018042,-0.9534222,0.28394005,,0.07446172,-0.020991981,0.025548458,-0.65509963,-0.2964548,0.6949524,0.7554978,-0.24703297,0.606793,-0.00821057,0.922545,0.38580206,,0.10734995,1.346141,0.44494694,0.9960251,0.009255794,-0.08859114,-0.05006435,-0.76444817,-0.64273834,-0.07367239,0.64461875,-0.76094615,,-0.08156786,0.25249648,-0.07425799,-0.9040274,0.1394878,0.40407628,0.32462925,-0.3909793,0.8612497,0.2781193,0.9097683,0.30817416,,-0.011395498,0.438064,-0.3255412,0.6696026,0.16228299,-0.72477347,0.59505326,0.46674332,0.6542647,0.4444592,-0.8693762,0.2159655,,0.8979375967518322,0.33675748971343394,0.20924972438000003,3.78700037933051,0.1651935282164175,-1.4553677949017243,-0.40329649928553546,,-0.9045173651606715,0.03175587757881118,0.19575923435000003,-3.6192484245428904,-0.15863497622767636,1.3901492190012639,0.8771576351410798,,-0.046482481303738984,-0.07979645340118074,0.07698830152,-0.06345462529521684,,-1.9297004e-05,-6.7949295e-06,6.914139e-06,1.0,3.5248697e-05,2.9854476e-05,-3.5248697e-05,1.0,3.427267e-06,-2.9847026e-05,-3.3974648e-06,1.0,334,1.016,0,0,0.0,False,-0.260652545964438,1.051494475590685
1.033451455004979,18:14:38.163076,18:14:22.532786,0,,0.12736675,0.0045874417,0.013587773,0.9075265,-0.02911412,-0.4189845,0.40789628,0.29881668,0.86274517,0.100081444,-0.95386624,0.28305948,,0.074465886,-0.020992517,0.025550425,-0.6540709,-0.2965303,0.6958887,0.7563946,-0.24708286,0.6056545,-0.0076527894,0.92250735,0.38590348,,0.10734995,1.346141,0.44494694,0.9960251,0.009255794,-0.08859114,-0.05006435,-0.76444817,-0.64273834,-0.07367239,0.64461875,-0.76094615,,-0.08172985,0.25271627,-0.0744258,-0.9035887,0.14087668,0.40457538,0.32423133,-0.39236262,0.86077034,0.28000274,0.9089584,0.3088578,,-0.011399906,0.43806463,-0.32554248,0.6685314,0.16236158,-0.72574407,0.59601164,0.46668687,0.65343213,0.4447875,-0.8693918,0.21522544,,0.8976132419711148,0.3380008497061841,0.20903324395000003,3.78700037933051,0.1683361677110226,-1.4540098271599948,-0.4036231874178038,,-0.9045250878935457,0.03175587757881118,0.19575923435000003,-3.6177805949384987,-0.1583617032281455,1.3900080619340116,0.8769942910749455,,-0.046482481303738984,-0.07979645340118074,0.07698830152,-0.06345462529521684,,-1.9297004e-05,-6.7949295e-06,6.914139e-06,1.0,3.5248697e-05,2.9854476e-05,-3.5248697e-05,1.0,3.427267e-06,-2.9847026e-05,-3.3974648e-06,1.0,342,1.04,0,0,0.0,False,-0.2599376133421849,1.051494475590685
1.0542967580113327,18:14:38.197970,18:14:22.532786,0,,0.12755314,0.0046623945,0.01387772,0.90694916,-0.027537316,-0.42033878,0.40868807,0.29929876,0.8622032,0.10206412,-0.95376194,0.28270286,,0.07446703,-0.020994842,0.025550306,-0.65401065,-0.29665625,0.69589156,0.7564454,-0.24700543,0.60562253,-0.0077727735,0.9224876,0.38594836,,0.10734995,1.346141,0.44494694,0.9960251,0.009255794,-0.08859114,-0.05006435,-0.76444817,-0.64273834,-0.07367239,0.64461875,-0.76094615,,-0.08194534,0.25295138,-0.07457653,-0.90321594,0.13930929,0.40594816,0.32615238,-0.3920162,0.86020225,0.27897242,0.9093493,0.30863923,,-0.0114010805,0.43806273,-0.32554382,0.66848934,0.16249104,-0.72575384,0.595963,0.4667393,0.653439,0.4449158,-0.86933947,0.2151716,,0.8971962143959067,0.3393523279591734,0.20882324497000002,3.785532549726118,0.1681995312112572,-1.4535716942957362,-0.403623187417804,,-0.9045250878935457,0.03174815484593696,0.19575923435000003,-3.6177805949384987,-0.15822506672838005,1.3900600015105962,0.8773209792072139,,-0.046482481303738984,-0.07979645340118074,0.07698830152,-0.06345462529521684,,-1.9297004e-05,-6.7949295e-06,6.914139e-06,1.0,3.5248697e-05,2.9854476e-05,-3.5248697e-05,1.0,3.427267e-06,-2.9847026e-05,-3.3974648e-06,1.0,371,1.129,0,0,0.0,False,-0.259282258438454,1.0513013547875674
1.0892003090120852,18:14:38.278069,18:14:22.532786,0,,0.12798816,0.004689604,0.014521241,0.90665025,-0.006236799,-0.4218367,0.40482205,0.29433364,0.8657291,0.11876136,-0.9556823,0.26938242,,0.074476436,-0.021008745,0.025549233,-0.65259945,-0.29728895,0.69694555,0.7576649,-0.24681944,0.6041721,-0.007594079,0.9223337,0.38631952,,0.10734995,1.346141,0.44494694,0.9960251,0.009255794,-0.08859114,-0.05006435,-0.76444817,-0.64273834,-0.07367239,0.64461875,-0.76094615,,-0.08244795,0.25336662,-0.0749997,-0.90484774,0.1182439,0.40898526,0.334099,-0.39819792,0.85429287,0.263872,0.9096465,0.3208033,,-0.011410615,0.43805116,-0.32555145,0.6670992,0.16314337,-0.72688574,0.59687227,0.4668175,0.6525526,0.4457826,-0.86917526,0.21403784,,0.8962385955195028,0.34137568397222023,0.20827621059,3.7823872005738504,0.15357942573635508,-1.4398530463171269,-0.40345984335167007,,-0.9045250878935457,0.03169409571581739,0.19576053064,-3.6161030753906225,-0.1574052477297874,1.3902082814898233,0.8776476673394826,,-0.046482481303738984,-0.07979645340118074,0.07698830152,-0.06345462529521684,,-1.9297004e-05,-6.7949295e-06,6.914139e-06,1.0,3.5248697e-05,2.9854476e-05,-3.5248697e-05,1.0,3.427267e-06,-2.9847026e-05,-3.3974648e-06,1.0,379,1.154,0,0,0.0,False,-0.259580147031059,1.0513496349883464
1.1693257600127254,18:14:38.319376,18:14:22.712376,0,,0.1280843,0.004538879,0.014886007,0.9059599,0.009595655,-0.42325458,0.4046591,0.27425092,0.8723746,0.12444894,-0.9616102,0.24457726,,0.074479096,-0.021013916,0.025548697,-0.6518985,-0.29748094,0.6975195,0.7582692,-0.24663642,0.60348845,-0.0074926913,0.9223207,0.38635248,,0.10734995,1.346141,0.44494694,0.9960251,0.009255794,-0.08859114,-0.05006435,-0.76444817,-0.64273834,-0.07367239,0.64461875,-0.76094615,,-0.08258711,0.25348437,-0.07536272,-0.9047927,0.10271261,0.4132799,0.3377125,-0.418139,0.8432734,0.25942326,0.90255743,0.3436418,,-0.011413307,0.43804684,-0.32555428,0.66640687,0.16334005,-0.7274764,0.59733135,0.46695665,0.6520328,0.446203,-0.8690636,0.21361499,,0.8958910725401626,0.34166914782144076,0.20788473101000002,3.7800806111955203,0.14879714824456466,-1.4146352685110655,-0.4028064670871325,,-0.9045173651606715,0.03167865025006894,0.19576053064,-3.6152643156166846,-0.15699533823049108,1.3901190639991559,0.8771576351410798,,-0.046482481303738984,-0.07979645340118074,0.07698830152,-0.06345462529521684,,-1.9297004e-05,-6.7949295e-06,6.914139e-06,1.0,3.5248697e-05,2.9854476e-05,-3.5248697e-05,1.0,3.427267e-06,-2.9847026e-05,-3.3974648e-06,1.0,391,1.191,0,0,0.0,False,-0.25910352528289105,1.0518324369961412
1.2106037129997276,18:14:38.352097,18:14:22.712376,0,,0.1281034,0.004454285,0.01512219,0.9053338,0.019672811,-0.4242447,0.4049819,0.26085794,0.87632346,0.12790732,-0.9651767,0.22819626,,0.07448214,-0.021017939,0.025548995,-0.65125346,-0.29749882,0.69811416,0.75882536,-0.24647585,0.6028546,-0.00728032,0.9223579,0.3862678,,0.10734995,1.346141,0.44494694,0.9960251,0.009255794,-0.08859114,-0.05006435,-0.76444817,-0.64273834,-0.07367239,0.64461875,-0.76094615,,-0.08263405,0.25357282,-0.07559351,-0.9045447,0.09279055,0.41615954,0.34024066,-0.43115947,0.83566606,0.25697306,0.89749175,0.3584319,,-0.011416468,0.43804386,-0.3255569,0.66575366,0.16335689,-0.72807044,0.59783465,0.4671006,0.65146816,0.44650394,-0.8689831,0.21331352,,0.8958910725401626,0.34181587974605104,0.20763454704000003,3.7781934017041596,0.1459277817494904,-1.398001713008842,-0.4032964992855357,,-0.9045173651606715,0.03166320478432049,0.19576053064,-3.6144255558427463,-0.1567220652309602,1.389896228191763,0.8771576351410798,,-0.046482481303738984,-0.07979645340118074,0.07698830152,-0.06345462529521684,,-1.9297004e-05,-6.7949295e-06,6.914139e-06,1.0,3.5248697e-05,2.9854476e-05,-3.5248697e-05,1.0,3.427267e-06,-2.9847026e-05,-3.3974648e-06,1.0,403,1.228,0,0,0.0,False,-0.25952056931253775,1.0511565141852286
1.2433032840053784,18:14:38.389988,18:14:22.712376,0,,0.12815157,0.0043923706,0.015458941,0.9051612,0.029154234,-0.42406738,0.40365285,0.25371513,0.8790296,0.13321972,-0.9668395,0.21788478,,0.074487984,-0.021032035,0.025549531,-0.6509243,-0.29806224,0.6981808,0.75910497,-0.2464034,0.6025321,-0.0075580776,0.9221953,0.38665038,,0.10734995,1.346141,0.44494694,0.9960251,0.009255794,-0.08859114,-0.05006435,-0.76444817,-0.64273834,-0.07367239,0.64461875,-0.76094615,,-0.08272046,0.25374228,-0.07588228,-0.9049891,0.08339157,0.4171817,0.34269822,-0.4381738,0.8310004,0.2520965,0.89501375,0.36796436,,-0.011422691,0.4380335,-0.32556617,0.66547257,0.1639388,-0.7281966,0.5978266,0.46708474,0.6514869,0.4469335,-0.868882,0.2128251,,0.8959528544031565,0.3422560755198818,0.20730528938,3.777144951986737,0.1408722312581691,-1.3871815938805483,-0.40198974675646126,,-0.9045250878935457,0.03160142292132669,0.19575923435000003,-3.614215865899262,-0.15631215573166388,1.3902970831419388,0.8766676029426768,,-0.046482481303738984,-0.07979645340118074,0.07698830152,-0.06345462529521684,,-1.9297004e-05,-6.7949295e-06,6.914139e-06,1.0,3.5248697e-05,2.9854476e-05,-3.5248697e-05,1.0,3.427267e-06,-2.9847026e-05,-3.3974648e-06,1.0,419,1.278,0,0,0.0,False,-0.2590439475643693,1.0514461953899055
1.2812292910093674,18:14:38.430587,18:14:22.712376,0,,0.12819363,0.004332915,0.01581715,0.9050456,0.037625328,-0.42364684,0.40278357,0.24407625,0.8821521,0.13659333,-0.96902585,0.20574513,,0.0745087,-0.021064341,0.025547028,-0.64904475,-0.2990527,0.69950587,0.76067716,-0.24236768,0.6021862,-0.010547906,0.92294395,0.38478988,,0.10734995,1.346141,0.44494694,0.9960251,0.009255794,-0.08859114,-0.05006435,-0.76444817,-0.64273834,-0.07367239,0.64461875,-0.76094615,,-0.08280309,0.2539279,-0.07618616,-0.905266,0.07499791,0.41817322,0.34424004,-0.44736418,0.8254478,0.2489826,0.8912018,0.3791663,,-0.011443705,0.43800664,-0.32558396,0.66405666,0.1649234,-0.7292661,0.59681064,0.47061634,0.64987487,0.4503841,-0.8667875,0.21408787,,0.8960069135332761,0.342812112286826,0.20696047624000002,3.776515882156284,0.1378662282633294,-1.3743572000013757,-0.40215309082259565,,-0.904501919694923,0.03157053198982979,0.19575923435000003,-3.613796486012293,-0.15248633373823153,1.3882392054602661,0.8773209792072139,,-0.046482481303738984,-0.07979645340118074,0.07698830152,-0.06345462529521684,,-1.9297004e-05,-6.7949295e-06,6.914139e-06,1.0,3.5248697e-05,2.9854476e-05,-3.5248697e-05,1.0,3.427267e-06,-2.9847026e-05,-3.3974648e-06,1.0,452,1.379,0,0,0.0,False,-0.2594014138754961,1.0512530745867876
1.3218039960047463,18:14:38.538751,18:14:22.863629,0,,0.12836348,0.0042924285,0.016903728,0.9033369,0.074409224,-0.42242825,0.39766127,0.22385573,0.8898057,0.16077268,-0.97177756,0.17262739,,0.07452657,-0.021086976,0.025547385,-0.6467066,-0.30291802,0.70000803,0.7626291,-0.24123302,0.6001695,-0.012937248,0.92198014,0.38702103,,0.10734995,1.346141,0.44494694,0.9960251,0.009255794,-0.08859114,-0.05006435,-0.76444817,-0.64273834,-0.07367239,0.64461875,-0.76094615,,-0.083092615,0.25459453,-0.077012524,-0.9063505,0.038294934,0.4207877,0.35617846,-0.46649584,0.809641,0.22730087,0.883694,0.4091689,,-0.01146205,0.43798903,-0.32559758,0.66211516,0.16891183,-0.73011804,0.5964459,0.4710766,0.6498762,0.4537133,-0.8657688,0.21116018,,0.896725127690579,0.3446501227108914,0.20596881439000003,3.7704348737952325,0.11491129630273542,-1.3394666016325458,-0.4024797789548642,,-0.9044787514963003,0.03158597745557824,0.19575793806000003,-3.612538346351385,-0.14879714824456466,1.390458361429459,0.8771576351410795,,-0.046482481303738984,-0.07979645340118074,0.07698830152,-0.06345462529521684,,-1.9297004e-05,-6.7949295e-06,6.914139e-06,1.0,3.5248697e-05,2.9854476e-05,-3.5248697e-05,1.0,3.427267e-06,-2.9847026e-05,-3.3974648e-06,1.0,460,1.404,0,0,0.0,False,-0.25910352528289105,1.0511565141852286
1.4300068630109308,18:14:38.560411,18:14:22.863629,0,,0.12834857,0.004299298,0.01710245,0.9032871,0.078224204,-0.42184514,0.39614075,0.22551486,0.89006495,0.16475692,-0.97109425,0.17271677,,0.07452379,-0.021088153,0.02554673,-0.64612436,-0.3029536,0.70053005,0.7631283,-0.24129692,0.599509,-0.012587726,0.92195165,0.38710016,,0.10734995,1.346141,0.44494694,0.9960251,0.009255794,-0.08859114,-0.05006435,-0.76444817,-0.64273834,-0.07367239,0.64461875,-0.76094615,,-0.08309957,0.2547298,-0.07715887,-0.90677476,0.034466278,0.42020428,0.35762036,-0.46500415,0.80986345,0.22330971,0.88463736,0.40932816,,-0.011459239,0.43798792,-0.3255982,0.66150415,0.16894926,-0.73066294,0.5970051,0.47101322,0.6494085,0.45386901,-0.86579597,0.21071364,,0.8971035416014159,0.3449281410943635,0.20579122266000002,3.7700154939082635,0.11067556481000676,-1.3390347600031571,-0.40329649928553546,,-0.9044555832976777,0.03158597745557824,0.19575664177000002,-3.6116995865774477,-0.14866051174479922,1.3904286222659032,0.8773209792072139,,-0.046482481303738984,-0.07979645340118074,0.07698830152,-0.06345462529521684,,-1.9297004e-05,-6.7949295e-06,6.914139e-06,1.0,3.5248697e-05,2.9854476e-05,-3.5248697e-05,1.0,3.427267e-06,-2.9847026e-05,-3.3974648e-06,1.0,468,1.428,0,0,0.0,False,-0.2588652144088064,1.0522186786023768
1.4516684880072717,18:14:38.577516,18:14:22.863629,0,,0.12828529,0.004288614,0.017400727,0.9027817,0.082194604,-0.42217174,0.39584976,0.22505373,0.890311,0.16819006,-0.9708732,0.17063758,,0.0745205,-0.021090105,0.025544167,-0.64612323,-0.30287695,0.7005643,0.7631294,-0.24123701,0.59953165,-0.012582332,0.92199254,0.38700306,,0.10734995,1.346141,0.44494694,0.9960251,0.009255794,-0.08859114,-0.05006435,-0.76444817,-0.64273834,-0.07367239,0.64461875,-0.76094615,,-0.08306982,0.25491917,-0.07739623,-0.9066579,0.030486334,0.4207637,0.35966048,-0.465428,0.8087157,0.22048998,0.8845605,0.41101924,,-0.011455677,0.437985,-0.32559806,0.6615023,0.16886936,-0.73068315,0.59700954,0.4710791,0.64935666,0.453866,-0.8657757,0.2108033,,0.8974896782451272,0.3451752685463387,0.20562270496,3.7689670441908407,0.10862601731352516,-1.3375268489279921,-0.4034598433516696,,-0.904432415099055,0.03157825472270402,0.19575664177000002,-3.6116995865774477,-0.14866051174479922,1.3903469435257625,0.8771576351410795,,-0.046482481303738984,-0.07979645340118074,0.07698830152,-0.06345462529521684,,-1.9297004e-05,-6.7949295e-06,6.914139e-06,1.0,3.5248697e-05,2.9854476e-05,-3.5248697e-05,1.0,3.427267e-06,-2.9847026e-05,-3.3974648e-06,1.0,480,1.465,0,0,0.0,False,-0.2593418361569748,1.0513496349883464
1.468765997007722,18:14:38.622978,18:14:22.994216,0,,0.12821804,0.0042786,0.017751604,0.9021755,0.09199116,-0.42144606,0.39380836,0.22309467,0.8917083,0.17605159,-0.97044647,0.16504353,,0.07451994,-0.021092191,0.025542974,-0.6455366,-0.30286416,0.70111036,0.7636312,-0.24124601,0.59888875,-0.01224193,0.9219943,0.38700956,,0.10734995,1.346141,0.44494694,0.9960251,0.009255794,-0.08859114,-0.05006435,-0.76444817,-0.64273834,-0.07367239,0.64461875,-0.76094615,,-0.083041936,0.2551435,-0.07767307,-0.9069686,0.020660771,0.42069116,0.36326,-0.46717337,0.80609626,0.21319029,0.8839243,0.41620636,,-0.011455018,0.4379827,-0.32559872,0.66088825,0.16885623,-0.7312416,0.5975642,0.47107282,0.64885086,0.45403057,-0.8657817,0.21042405,,0.8985631381146444,0.34556912792292416,0.20518844781,3.766660454812511,0.09919809882970976,-1.33000237105322,-0.40329649928553524,,-0.9044169696333065,0.03157053198982979,0.19575664177000002,-3.6108608268035094,-0.14852387524503374,1.390235525622066,0.8771576351410795,,-0.046482481303738984,-0.07979645340118074,0.07698830152,-0.06345462529521684,,-1.9297004e-05,-6.7949295e-06,6.914139e-06,1.0,3.5248697e-05,2.9854476e-05,-3.5248697e-05,1.0,3.427267e-06,-2.9847026e-05,-3.3974648e-06,1.0,488,1.491,0,0,0.0,False,-0.2589843698458485,1.0516875963938028
1.5141747190064052,18:14:38.648761,18:14:22.994216,0,,0.12817231,0.0042803884,0.017929554,0.9016903,0.093733914,-0.42210013,0.39417362,0.2230345,0.891562,0.17771247,-0.97029346,0.16416049,,0.074517265,-0.021093205,0.0255422,-0.6451625,-0.30285355,0.7014593,0.7639475,-0.24100474,0.5985824,-0.012227893,0.92206097,0.38685137,,0.10734995,1.346141,0.44494694,0.9960251,0.009255794,-0.08859114,-0.05006435,-0.76444817,-0.64273834,-0.07367239,0.64461875,-0.76094615,,-0.08301607,0.2552631,-0.07781015,-0.9066614,0.018910864,0.42143512,0.36464357,-0.46721524,0.80544704,0.21213262,0.88394135,0.4167103,,-0.011452295,0.43798164,-0.32559916,0.660524,0.16884297,-0.7315737,0.59777755,0.47129366,0.6484939,0.45427966,-0.8656641,0.21037024,,0.8989801656898525,0.3458162553748993,0.20502770785000002,3.7654023151516034,0.09783173383205536,-1.3288881920162559,-0.40329649928553524,,-0.9043938014346838,0.03157825472270402,0.19575534548,-3.61044144691654,-0.14825060224550288,1.3900126898146732,0.8771576351410795,,-0.046482481303738984,-0.07979645340118074,0.07698830152,-0.06345462529521684,,-1.9297004e-05,-6.7949295e-06,6.914139e-06,1.0,3.5248697e-05,2.9854476e-05,-3.5248697e-05,1.0,3.427267e-06,-2.9847026e-05,-3.3974648e-06,1.0,525,1.604,0,0,0.0,False,-0.25975888018662197,1.0519772775984795
1.5399683880095836,18:14:38.749844,18:14:23.134828,0,,0.1283232,0.0044312626,0.018342122,0.9018965,0.10006723,-0.42020136,0.39114344,0.22355407,0.89276564,0.18327428,-0.96954113,0.16248193,,0.07450449,-0.021099016,0.025534987,-0.64414805,-0.30295274,0.7023481,0.76480734,-0.24073943,0.5975904,-0.011958808,0.9220977,0.38677225,,0.10734995,1.346141,0.44494694,0.9960251,0.009255794,-0.08859114,-0.05006435,-0.76444817,-0.64273834,-0.07367239,0.64461875,-0.76094615,,-0.08320809,0.2556374,-0.07800698,-0.90754807,0.012546569,0.4197607,0.36595362,-0.4666805,0.8051629,0.20599617,0.884337,0.41894352,,-0.011438807,0.4379734,-0.32559937,0.6595052,0.16894315,-0.7324692,0.5985142,0.47151983,0.64764947,0.45478967,-0.8655214,0.20985492,,0.8991423430802112,0.347492088408606,0.20474122776000003,3.765821695038573,0.09277618334073406,-1.3256641957210347,-0.4021530908225954,,-0.904293405907319,0.03157825472270402,0.19575275290000002,-3.609183307255633,-0.14770405624644115,1.3898120544203094,0.8769942910749452,,-0.046482481303738984,-0.07979645340118074,0.07698830152,-0.06345462529521684,,-1.9297004e-05,-6.7949295e-06,6.914139e-06,1.0,3.5248697e-05,2.9854476e-05,-3.5248697e-05,1.0,3.427267e-06,-2.9847026e-05,-3.3974648e-06,1.0,533,1.629,0,0,0.0,False,-0.25856732581620134,1.0517358765945823
1.6410527740081307,18:14:38.786714,18:14:23.134828,0,,0.12839246,0.0044797063,0.018425018,0.9019619,0.100548506,-0.41994584,0.39074787,0.22388557,0.89285576,0.18379508,-0.96941483,0.16264704,,0.074504815,-0.021097824,0.025535285,-0.6433016,-0.3029952,0.70310515,0.7655282,-0.24090666,0.59659916,-0.01138407,0.92204005,0.38692692,,0.10734995,1.346141,0.44494694,0.9960251,0.009255794,-0.08859114,-0.05006435,-0.76444817,-0.64273834,-0.07367239,0.64461875,-0.76094615,,-0.08328496,0.25572422,-0.07803088,-0.9076795,0.012061906,0.41949067,0.36598906,-0.46637368,0.8053245,0.20535316,0.88450557,0.41890332,,-0.011439146,0.43797448,-0.32559878,0.6586078,0.16898866,-0.7332657,0.5993689,0.47136158,0.6469739,0.45496455,-0.8655987,0.20915586,,0.8990110566213494,0.34802495697692754,0.20469585761000003,3.7660313849820573,0.09263954684096863,-1.3255527778173382,-0.4021530908225954,,-0.9042856831744447,0.03158597745557824,0.19575275290000002,-3.607925167594726,-0.1475674197466757,1.3897823152567534,0.876830947008811,,-0.046482481303738984,-0.07979645340118074,0.07698830152,-0.06345462529521684,,-1.9297004e-05,-6.7949295e-06,6.914139e-06,1.0,3.5248697e-05,2.9854476e-05,-3.5248697e-05,1.0,3.427267e-06,-2.9847026e-05,-3.3974648e-06,1.0,545,1.666,0,0,0.0,False,-0.25773323775690704,1.0518807171969207
1.67792485600512,18:14:38.823426,18:14:23.134828,0,,0.12846145,0.0045173913,0.018499821,0.9018399,0.100459725,-0.42022902,0.39093935,0.22443146,0.89263487,0.18398641,-0.9692979,0.16312745,,0.074505694,-0.021100849,0.025535941,-0.64286387,-0.30323738,0.7034011,0.7658942,-0.24068606,0.59621835,-0.011496931,0.92201805,0.38697603,,0.10734995,1.346141,0.44494694,0.9960251,0.009255794,-0.08859114,-0.05006435,-0.76444817,-0.64273834,-0.07367239,0.64461875,-0.76094615,,-0.083360925,0.25579762,-0.07805574,-0.9075751,0.012149535,0.41971406,0.3662653,-0.46587914,0.8054852,0.2053223,0.88476497,0.41837034,,-0.011440179,0.43797264,-0.3256012,0.658199,0.16923723,-0.7335754,0.5995278,0.47152576,0.64670694,0.45534658,-0.8654607,0.20889537,,0.8988334337652423,0.3485192118808779,0.20465308004000002,3.765821695038573,0.09304945634026494,-1.325968710268568,-0.4023164348887298,,-0.9042779604415705,0.03158597745557824,0.19575145661,-3.607505787707757,-0.14715751024737936,1.3897747765062263,0.8774843232733481,,-0.046482481303738984,-0.07979645340118074,0.07698830152,-0.06345462529521684,,-1.9297004e-05,-6.7949295e-06,6.914139e-06,1.0,3.5248697e-05,2.9854476e-05,-3.5248697e-05,1.0,3.427267e-06,-2.9847026e-05,-3.3974648e-06,1.0,553,1.69,0,0,0.0,False,-0.2586269035347226,1.0515910359922438
1.7146843650116352,18:14:38.847325,18:14:23.134828,0,,0.12857723,0.0045770556,0.018649012,0.9016109,0.101076424,-0.4205725,0.39107025,0.22499022,0.89243686,0.18482903,-0.9691041,0.16332558,,0.07450582,-0.02110152,0.025535583,-0.6424098,-0.30334607,0.703769,0.7662785,-0.24075362,0.59569705,-0.011267543,0.92196465,0.38710994,,0.10734995,1.346141,0.44494694,0.9960251,0.009255794,-0.08859114,-0.05006435,-0.76444817,-0.64273834,-0.07367239,0.64461875,-0.76094615,,-0.08349107,0.2559335,-0.07811757,-0.90743744,0.011528001,0.42002904,0.36692503,-0.46536368,0.80548286,0.20475188,0.88504446,0.4180585,,-0.011440275,0.43797192,-0.3256014,0.6577282,0.16935036,-0.7339715,0.599931,0.4714482,0.6463895,0.45549583,-0.86548084,0.20848624,,0.8985631381146444,0.3493687124970426,0.20455845087000002,3.7654023151516034,0.09318609284003039,-1.325998449432124,-0.4024797789548642,,-0.9042702377086963,0.03158597745557824,0.19575145661,-3.606876717877303,-0.1470208737476139,1.389826716082811,0.8769942910749452,,-0.046482481303738984,-0.07979645340118074,0.07698830152,-0.06345462529521684,,-1.9297004e-05,-6.7949295e-06,6.914139e-06,1.0,3.5248697e-05,2.9854476e-05,-3.5248697e-05,1.0,3.427267e-06,-2.9847026e-05,-3.3974648e-06,1.0,565,1.728,0,0,0.0,False,-0.2580311263495121,1.0513496349883464
1.7385696740093408,18:14:38.885753,18:14:23.134828,0,,0.12866355,0.0046237707,0.018752486,0.90148056,0.10099347,-0.42087173,0.3912751,0.2255412,0.892208,0.18503107,-0.9689847,0.16380468,,0.07450852,-0.021103412,0.025536537,-0.64208317,-0.30341572,0.704037,0.7665537,-0.24072075,0.5953561,-0.011164218,0.92195034,0.3871471,,0.10734995,1.346141,0.44494694,0.9960251,0.009255794,-0.08859114,-0.05006435,-0.76444817,-0.64273834,-0.07367239,0.64461875,-0.76094615,,-0.08358721,0.25603142,-0.07815639,-0.90732557,0.011609695,0.4202684,0.36721882,-0.46486405,0.8056375,0.20472085,0.88530594,0.41751975,,-0.011443124,0.43797097,-0.32560304,0.65739787,0.16942213,-0.7342508,0.6001783,0.4714676,0.6461457,0.45564684,-0.8654562,0.20825829,,0.8983469015941661,0.3500096993256032,0.20449622895000003,3.765192625208119,0.09373263883909215,-1.326362442306769,-0.4023164348887298,,-0.9042779604415705,0.03157825472270402,0.19575145661,-3.6064573379903346,-0.1468842372478485,1.3897969769192553,0.8769942910749452,,-0.046482481303738984,-0.07979645340118074,0.07698830152,-0.06345462529521684,,-1.9297004e-05,-6.7949295e-06,6.914139e-06,1.0,3.5248697e-05,2.9854476e-05,-3.5248697e-05,1.0,3.427267e-06,-2.9847026e-05,-3.3974648e-06,1.0,602,1.842,0,0,0.0,False,-0.25791197091247,1.0511565141852286
1.7769381860125577,18:14:38.995374,18:14:23.360020,0,,0.12898886,0.004733503,0.01909542,0.90071535,0.12115377,-0.41717315,0.38801092,0.20746216,0.8980017,0.1953439,-0.9707117,0.1398553,,0.07456916,-0.021158338,0.025532663,-0.6379194,-0.3094382,0.7051998,0.7698885,-0.2346349,0.5934797,-0.018180817,0.9215175,0.38791108,,0.10737616,1.3461399,0.44494417,0.9960227,0.00921925,-0.08862187,-0.050111968,-0.7644486,-0.6427341,-0.07367239,0.64461875,-0.76094615,,-0.08396525,0.25632322,-0.07830939,-0.90775687,-0.008630526,0.41940793,0.37152857,-0.48078945,0.7942342,0.19479226,0.8767936,0.4396464,,-0.011524554,0.43792367,-0.32563227,0.6543467,0.17559476,-0.7355249,0.59753054,0.47605765,0.6452336,0.4634519,-0.86170506,0.20658351,,0.8976132419711148,0.35163147322919036,0.20426548933000002,3.7637247956037276,0.08471462985457308,-1.3012028953121626,-0.4016630586241925,,-0.9041621194484571,0.03158597745557824,0.19573719742,-3.605828268159881,-0.13800286476309484,1.3906410084529033,0.8768309470088108,,-0.046482481303738984,-0.07979645340118074,0.07698830152,-0.06345462529521684,,7.0668757e-06,-7.5101852e-06,7.390976e-06,1.0,-1.1324883e-06,-9.536743e-07,1.1324883e-06,1.0,-8.940697e-08,9.648502e-07,8.940697e-08,1.0,610,1.867,0,0,0.0,False,-0.25826943722359585,1.051397915189126
1.8866284250107128,18:14:39.019587,18:14:23.360020,0,,0.12900081,0.004727781,0.019137964,0.9004338,0.13023615,-0.4150389,0.38790134,0.19138235,0.90161276,0.19685364,-0.9728367,0.12180826,,0.074559614,-0.021160588,0.025535524,-0.6375252,-0.3093925,0.70557624,0.7702234,-0.23476589,0.5929932,-0.017822415,0.92149943,0.3879705,,0.10737616,1.3461399,0.44494417,0.9960227,0.00921925,-0.08862187,-0.050111968,-0.7644486,-0.6427341,-0.07367239,0.64461875,-0.76094615,,-0.083981946,0.2563459,-0.078343935,-0.90764606,-0.017784499,0.4193594,0.3724429,-0.49485314,0.7851157,0.19355841,0.8687946,0.45577523,,-0.011515547,0.43792468,-0.325637,0.6539164,0.17554855,-0.73591846,0.5979895,0.47594625,0.6448905,0.46346724,-0.861776,0.20625287,,0.897620964703989,0.35168553235930994,0.20422530434000002,3.763095725773274,0.08334826485691868,-1.2826911446252585,-0.4031331552194013,,-0.9041235057840861,0.03158597745557824,0.19572941968000002,-3.6051991983294274,-0.13800286476309484,1.3906410084529033,0.8768309470088108,,-0.046482481303738984,-0.07979645340118074,0.07698830152,-0.06345462529521684,,7.0668757e-06,-7.5101852e-06,7.390976e-06,1.0,-1.1324883e-06,-9.536743e-07,1.1324883e-06,1.0,-8.940697e-08,9.648502e-07,8.940697e-08,1.0,622,1.903,0,0,0.0,False,-0.2587460589717643,1.0518807171969207
1.9108286250120727,18:14:39.059817,18:14:23.360020,0,,0.12901229,0.0047110915,0.019186944,0.89914054,0.13984159,-0.41471705,0.38913274,0.17823923,0.90377355,0.20030393,-0.97399944,0.105845034,,0.07455303,-0.021166533,0.025535285,-0.63716125,-0.3094323,0.70588744,0.7705169,-0.23417419,0.5928459,-0.018145084,0.92163664,0.3876295,,0.10737616,1.3461399,0.44494417,0.9960227,0.00921925,-0.08862187,-0.050111968,-0.7644486,-0.6427341,-0.07367239,0.64461875,-0.76094615,,-0.08399914,0.25636446,-0.0783905,-0.9067138,-0.027497897,0.42084906,0.37569085,-0.5060948,0.77635324,0.19164145,0.8620394,0.4692139,,-0.011509141,0.43792063,-0.32564163,0.65360737,0.17558478,-0.73618436,0.59795856,0.47647497,0.6445286,0.46394283,-0.8614764,0.20643513,,0.8976518556354859,0.3516700868935615,0.20417345274,3.760160066564491,0.08075217136137532,-1.2669338548515525,-0.4016630586241927,,-0.9040771693868407,0.03158597745557824,0.19572423452,-3.6049895083859425,-0.13745631876403308,1.3902770155782582,0.8766676029426766,,-0.046482481303738984,-0.07979645340118074,0.07698830152,-0.06345462529521684,,7.0668757e-06,-7.5101852e-06,7.390976e-06,1.0,-1.1324883e-06,-9.536743e-07,1.1324883e-06,1.0,-8.940697e-08,9.648502e-07,8.940697e-08,1.0,630,1.928,0,0,0.0,False,-0.2584481703791588,1.0522186786023768
1.9510202680103248,18:14:39.087376,18:14:23.360020,0,,0.12906758,0.004708439,0.019245371,0.89739615,0.15473875,-0.41320196,0.38897818,0.16459274,0.90642446,0.20826903,-0.9741484,0.08751482,,0.074566975,-0.021208629,0.025535047,-0.6348805,-0.31171107,0.7069391,0.7722708,-0.22890657,0.59262097,-0.022903532,0.9221919,0.38605362,,0.10737616,1.3461399,0.44494417,0.9960227,0.00921925,-0.08862187,-0.050111968,-0.7644486,-0.6427341,-0.07367239,0.64461875,-0.76094615,,-0.08406058,0.25639743,-0.07843072,-0.9058624,-0.04259261,0.42142516,0.38084975,-0.5173491,0.7663572,0.18538278,0.85471386,0.4848685,,-0.011524034,0.4378887,-0.32566857,0.6520384,0.17790385,-0.73701847,0.5958468,0.48087093,0.6432183,0.46884176,-0.85855305,0.20754288,,0.8976518556354859,0.35166236416068725,0.20412030485000002,3.7563856475817694,0.07351043687380696,-1.2486952161944176,-0.4011730264257899,,-0.9039922193252242,0.03159370018845247,0.19571516049,-3.6051991983294274,-0.13185422227365004,1.3886493161717652,0.8773209792072137,,-0.046482481303738984,-0.07979645340118074,0.07698830152,-0.06345462529521684,,7.0668757e-06,-7.5101852e-06,7.390976e-06,1.0,-1.1324883e-06,-9.536743e-07,1.1324883e-06,1.0,-8.940697e-08,9.648502e-07,8.940697e-08,1.0,642,1.966,0,0,0.0,False,-0.2583885926606384,1.0518807171969207
1.9786279200052377,18:14:39.122432,18:14:23.525547,0,,0.12908329,0.0046762526,0.019326538,0.89596355,0.16624033,-0.41184124,0.39035642,0.14751732,0.9087688,0.21182771,-0.9749886,0.0672771,,0.07459267,-0.021251127,0.025538385,-0.63228315,-0.31635693,0.7072031,0.7742224,-0.2247378,0.5916694,-0.028243482,0.92163515,0.38702843,,0.10737616,1.3461399,0.44494417,0.9960227,0.00921925,-0.08862187,-0.050111968,-0.7644486,-0.6427341,-0.07367239,0.64461875,-0.76094615,,-0.084085874,0.25642496,-0.07851115,-0.90480024,-0.05431462,0.42235819,0.38428712,-0.5314644,0.7548967,0.1834664,0.8453375,0.5017415,,-0.0115510365,0.43785796,-0.32569692,0.6502397,0.18268932,-0.7374367,0.59346193,0.48388317,0.64316404,0.47433242,-0.8558515,0.2062209,,0.8976518556354859,0.3516700868935615,0.20403345342,3.7532402984295015,0.07091434337826359,-1.2286089531932618,-0.4024797789548642,,-0.903953605660853,0.03161686838707514,0.19570867904000003,-3.605408888272912,-0.12556894328443977,1.3897316768524126,0.8773209792072139,,-0.046482481303738984,-0.07979645340118074,0.07698830152,-0.06345462529521684,,7.0668757e-06,-7.5101852e-06,7.390976e-06,1.0,-1.1324883e-06,-9.536743e-07,1.1324883e-06,1.0,-8.940697e-08,9.648502e-07,8.940697e-08,1.0,671,2.055,0,0,0.0,False,-0.25737577144578117,1.0522186786023768
2.013620447003632,18:14:39.206461,18:14:23.525547,0,,0.12911598,0.0044930875,0.019761771,0.8936503,0.19034041,-0.40639818,0.39085633,0.114837885,0.91325986,0.22050016,-0.9749783,0.028229088,,0.0745759,-0.021253064,0.02553773,-0.6315346,-0.31725085,0.7074715,0.77483535,-0.22507042,0.59073985,-0.028181791,0.9212465,0.38795692,,0.10737616,1.3461399,0.44494417,0.9960227,0.00921925,-0.08862187,-0.050111968,-0.7644486,-0.6427341,-0.07367239,0.64461875,-0.76094615,,-0.0841705,0.25656745,-0.07895455,-0.90344685,-0.079001784,0.4213579,0.39043316,-0.5575409,0.732605,0.17704715,0.8263818,0.53455347,,-0.011534393,0.43785736,-0.32569972,0.6495059,0.18361866,-0.73785245,0.593897,0.4834421,0.6430942,0.47479302,-0.85590184,0.20494793,,0.8976518556354859,0.3517627596880522,0.20356290015000003,3.7484174297293578,0.06339933589116437,-1.1892377212527498,-0.4029698111532669,,-0.9038609328663624,0.03164775931857204,0.19569960501000003,-3.6045701284989735,-0.125022397285378,1.3906745438200165,0.8774843232733481,,-0.046482481303738984,-0.07979645340118074,0.07698830152,-0.06345462529521684,,7.0668757e-06,-7.5101852e-06,7.390976e-06,1.0,-1.1324883e-06,-9.536743e-07,1.1324883e-06,1.0,-8.940697e-08,9.648502e-07,8.940697e-08,1.0,679,2.08,0,0,0.0,False,-0.257435349164302,1.0518324369961412
2.097701439008233,18:14:39.235242,18:14:23.525547,0,,0.12916772,0.0044496655,0.019965157,0.8946852,0.19798404,-0.40042537,0.38584763,0.10915297,0.9160826,0.22507732,-0.9741087,0.021265805,,0.07457413,-0.021253198,0.025539756,-0.6308701,-0.31721866,0.7080784,0.77539706,-0.2252908,0.58991826,-0.027609557,0.92120373,0.3880996,,0.10737616,1.3461399,0.44494417,0.9960227,0.00921925,-0.08862187,-0.050111968,-0.7644486,-0.6427341,-0.07367239,0.64461875,-0.76094615,,-0.08424532,0.25666398,-0.079130635,-0.9050933,-0.086821295,0.4162549,0.38955837,-0.56170243,0.7298868,0.17044169,0.8227712,0.54221505,,-0.011532902,0.43785873,-0.32570148,0.648785,0.18358684,-0.73849434,0.594647,0.48324955,0.6425456,0.47484,-0.85601735,0.2043557,,0.8976441329026117,0.3519481052770336,0.20336456778000003,3.751143398994656,0.057250693401719545,-1.1807117297603664,-0.3995395857644469,,-0.9038532101334882,0.03164775931857204,0.19569701243,-3.603521678781551,-0.125022397285378,1.3906745438200165,0.8774843232733481,,-0.046482481303738984,-0.07979645340118074,0.07698830152,-0.06345462529521684,,7.0668757e-06,-7.5101852e-06,7.390976e-06,1.0,-1.1324883e-06,-9.536743e-07,1.1324883e-06,1.0,-8.940697e-08,9.648502e-07,8.940697e-08,1.0,687,2.104,0,0,0.0,False,-0.25731619372725945,1.0519289973977002
2.12650174900773,18:14:39.267302,18:14:23.525547,0,,0.12921558,0.004376471,0.020347998,0.898851,0.20476246,-0.38747787,0.37551036,0.096019804,0.9218309,0.22596185,-0.9740906,0.009416908,,0.0745756,-0.021254122,0.025541782,-0.63067627,-0.31722665,0.70824754,0.7755546,-0.22516644,0.5897585,-0.02761358,0.9212314,0.3880337,,0.10737616,1.3461399,0.44494417,0.9960227,0.00921925,-0.08862187,-0.050111968,-0.7644486,-0.6427341,-0.07367239,0.64461875,-0.76094615,,-0.08433676,0.2568549,-0.07946139,-0.90956396,-0.093855694,0.40482655,0.3820729,-0.5720132,0.7258245,0.16344339,0.81485707,0.55614233,,-0.011534668,0.43785933,-0.3257034,0.6485976,0.18359423,-0.7386571,0.5947452,0.48335987,0.64237165,0.47497293,-0.8559535,0.20431425,,0.897690469299857,0.3524578056467324,0.20299512513,3.7609988263384286,0.0523317794101637,-1.1651023041273356,-0.40084633829352123,,-0.9038609328663624,0.03164775931857204,0.19569571614000003,-3.6033119888380667,-0.12488576078561256,1.39056312591632,0.8771576351410796,,-0.046482481303738984,-0.07979645340118074,0.07698830152,-0.06345462529521684,,7.0668757e-06,-7.5101852e-06,7.390976e-06,1.0,-1.1324883e-06,-9.536743e-07,1.1324883e-06,1.0,-8.940697e-08,9.648502e-07,8.940697e-08,1.0,703,2.154,0,0,0.0,False,-0.2566012611050077,1.0520738380000385
2.1584815890091704,18:14:39.312238,18:14:23.715600,0,,0.12928143,0.0043316334,0.02078648,0.90093017,0.21346594,-0.37783182,0.3688842,0.081890404,0.9258609,0.22858056,-0.97351223,-0.004966736,,0.074568555,-0.021256149,0.025539815,-0.62995505,-0.31716478,0.7089168,0.7761573,-0.22521058,0.58894825,-0.027138054,0.9212419,0.3880423,,0.10737616,1.3461399,0.44494417,0.9960227,0.00921925,-0.08862187,-0.050111968,-0.7644486,-0.6427341,-0.07367239,0.64461875,-0.76094615,,-0.084451556,0.2571025,-0.07981374,-0.91206867,-0.10288721,0.3969194,0.37864155,-0.5828202,0.7189932,0.15735741,0.8060613,0.57052934,,-0.011527476,0.43785706,-0.3257042,0.6478346,0.18353038,-0.7393423,0.59545547,0.4833301,0.6417358,0.4751244,-0.855984,0.2038338,,0.8977754193614734,0.35326869259852595,0.20259197894000003,3.7662410749255417,0.04768613841813872,-1.1479187820186052,-0.40280646708713264,,-0.903814596469117,0.03164775931857204,0.19569312356000002,-3.602263539120644,-0.12474912428584713,1.3904517080126237,0.8771576351410796,,-0.046482481303738984,-0.07979645340118074,0.07698830152,-0.06345462529521684,,7.0668757e-06,-7.5101852e-06,7.390976e-06,1.0,-1.1324883e-06,-9.536743e-07,1.1324883e-06,1.0,-8.940697e-08,9.648502e-07,8.940697e-08,1.0,715,2.191,0,0,0.0,False,-0.2566608388235285,1.0521703984015973
2.203434349008603,18:14:39.344196,18:14:23.715600,0,,0.12932226,0.004315272,0.021110013,0.9010422,0.21768631,-0.37514728,0.36773026,0.0752351,0.9268842,0.22999421,-0.97311467,-0.01225999,,0.07456526,-0.021256626,0.02554059,-0.6298999,-0.31715444,0.70897037,0.77619845,-0.22504544,0.58895713,-0.02723986,0.92128587,0.3879308,,0.10737616,1.3461399,0.44494417,0.9960227,0.00921925,-0.08862187,-0.050111968,-0.7644486,-0.6427341,-0.07367239,0.64461875,-0.76094615,,-0.084528185,0.25729823,-0.08006356,-0.9123619,-0.10727513,0.39507946,0.3786805,-0.5878358,0.7148777,0.15555327,0.8018361,0.576942,,-0.011524322,0.43785745,-0.32570547,0.64779484,0.1835185,-0.73938,0.59541243,0.48347995,0.6416628,0.4752324,-0.8559019,0.20392664,,0.89786036942309,0.3540023522215773,0.20230290627000003,3.766660454812511,0.04645640992024975,-1.1396466130128273,-0.3997029298305814,,-0.9037991510033686,0.03165548205144626,0.19569053098000003,-3.602263539120644,-0.1246124877860817,1.3903402901089272,0.8771576351410796,,-0.046482481303738984,-0.07979645340118074,0.07698830152,-0.06345462529521684,,7.0668757e-06,-7.5101852e-06,7.390976e-06,1.0,-1.1324883e-06,-9.536743e-07,1.1324883e-06,1.0,-8.940697e-08,9.648502e-07,8.940697e-08,1.0,740,2.268,0,0,0.0,False,-0.256541683386486,1.0518324369961412
2.235447737009963,18:14:39.421159,18:14:23.715600,0,,0.1295039,0.0044003874,0.021973282,0.9010133,0.22953281,-0.36808887,0.36285704,0.06620377,0.9294902,0.23771732,-0.9710466,-0.023637235,,0.0745621,-0.021259233,0.02554226,-0.6289821,-0.317056,0.70982873,0.77695847,-0.22491974,0.5880022,-0.026775122,0.9213504,0.38780987,,0.10737616,1.3461399,0.44494417,0.9960227,0.00921925,-0.08862187,-0.050111968,-0.7644486,-0.6427341,-0.07367239,0.64461875,-0.76094615,,-0.08480196,0.2579142,-0.08063899,-0.9132953,-0.11947868,0.38937968,0.3800128,-0.5939841,0.70906496,0.14656721,0.79555494,0.5878864,,-0.011521494,0.4378569,-0.3257088,0.6468427,0.18341555,-0.7402386,0.59621596,0.4836084,0.6408194,0.47552183,-0.8558514,0.2034633,,0.8981770014709332,0.3564967949399518,0.20159772451000002,3.767499214586449,0.03921467543268141,-1.1250835176620173,-0.40068299422738685,,-0.9037759828047459,0.03165548205144626,0.19568664211000003,-3.601005399459737,-0.1243392147865508,1.390035775561394,0.8773209792072137,,-0.046482481303738984,-0.07979645340118074,0.07698830152,-0.06345462529521684,,7.0668757e-06,-7.5101852e-06,7.390976e-06,1.0,-1.1324883e-06,-9.536743e-07,1.1324883e-06,1.0,-8.940697e-08,9.648502e-07,8.940697e-08,1.0,752,2.305,0,0,0.0,False,-0.25672041654204936,1.0522669588031563
2.312418345012702,18:14:39.466189,18:14:23.853284,0,,0.12963532,0.004542902,0.022216111,0.8997084,0.23484719,-0.36792842,0.36406082,0.061267912,0.92935777,0.24079926,-0.97009945,-0.03037548,,0.074561045,-0.021257907,0.02554512,-0.6284516,-0.31709197,0.71028244,0.7774035,-0.2251524,0.5873247,-0.02631417,0.9212812,0.3880058,,0.10737616,1.3461399,0.44494417,0.9960227,0.00921925,-0.08862187,-0.050111968,-0.7644486,-0.6427341,-0.07367239,0.64461875,-0.76094615,,-0.084956095,0.25817287,-0.08071563,-0.9123114,-0.124975376,0.3899604,0.38300088,-0.59739965,0.70457363,0.14490785,0.7921457,0.59288013,,-0.0115207955,0.4378599,-0.3257101,0.6462664,0.18345448,-0.7407322,0.596815,0.483394,0.6404234,0.47555405,-0.8559642,0.2029129,,0.8981538332723105,0.35789460959018643,0.20146291035000002,3.7647732453211504,0.03812158343455788,-1.1178212327014823,-0.40019296202898424,,-0.9037759828047459,0.03166320478432049,0.19568404953000001,-3.6001666396857988,-0.1243392147865508,1.3901174543015344,0.8774843232733481,,-0.046482481303738984,-0.07979645340118074,0.07698830152,-0.06345462529521684,,7.0668757e-06,-7.5101852e-06,7.390976e-06,1.0,-1.1324883e-06,-9.536743e-07,1.1324883e-06,1.0,-8.940697e-08,9.648502e-07,8.940697e-08,1.0,760,2.329,0,0,0.0,False,-0.2570778828531757,1.052025557799259
2.3574071360053495,18:14:39.485827,18:14:23.853284,0,,0.12967254,0.0046019405,0.022290051,0.8995926,0.23599151,-0.3674793,0.36399302,0.059826672,0.9294783,0.24133402,-0.9699117,-0.032079697,,0.07455928,-0.021260098,0.025543034,-0.6280667,-0.31718728,0.7105803,0.7777148,-0.22499329,0.58697337,-0.026304662,0.9212873,0.38799205,,0.10737616,1.3461399,0.44494417,0.9960227,0.00921925,-0.08862187,-0.050111968,-0.7644486,-0.6427341,-0.07367239,0.64461875,-0.76094615,,-0.084999904,0.25826365,-0.08072903,-0.9122568,-0.12616572,0.3897048,0.3833037,-0.5984323,0.70353186,0.14445034,0.791177,0.5942837,,-0.011518828,0.437857,-0.3257103,0.645892,0.18355218,-0.7410345,0.5970208,0.4835214,0.64013535,0.47580427,-0.85587126,0.20271814,,0.8981847242038073,0.3585742100831182,0.20143050310000002,3.764563555377666,0.037301764435965244,-1.1142122906342433,-0.40035630609511863,,-0.9037528146061232,0.03166320478432049,0.19568404953000001,-3.59974725979883,-0.12406594178701993,1.3900579759744227,0.8774843232733481,,-0.046482481303738984,-0.07979645340118074,0.07698830152,-0.06345462529521684,,7.0668757e-06,-7.5101852e-06,7.390976e-06,1.0,-1.1324883e-06,-9.536743e-07,1.1324883e-06,1.0,-8.940697e-08,9.648502e-07,8.940697e-08,1.0,772,2.367,0,0,0.0,False,-0.25683957197909146,1.0516875963938028
2.3770740830077557,18:14:39.520615,18:14:23.853284,0,,0.12973018,0.004698992,0.022347152,0.89916,0.24119492,-0.36515206,0.36297795,0.05505207,0.93017006,0.24445465,-0.9689139,-0.03804794,,0.07455925,-0.021261543,0.025544167,-0.6277962,-0.31723708,0.7107971,0.77794063,-0.22512266,0.5866244,-0.026082486,0.92123854,0.38812274,,0.10737616,1.3461399,0.44494417,0.9960227,0.00921925,-0.08862187,-0.050111968,-0.7644486,-0.6427341,-0.07367239,0.64461875,-0.76094615,,-0.085061274,0.25837114,-0.08070298,-0.91219413,-0.13155411,0.38806626,0.3845879,-0.6016867,0.7000466,0.1414003,0.787824,0.5994492,,-0.011518992,0.43785673,-0.3257121,0.64559984,0.18360473,-0.741276,0.59731674,0.48339742,0.63995284,0.47582927,-0.85593003,0.20241113,,0.8982928424640465,0.35892173306245834,0.20142920681,3.763934485547212,0.03511558043971819,-1.108999097089197,-0.4003563060951183,,-0.9037528146061232,0.03165548205144626,0.19568275324,-3.5993278799118604,-0.12406594178701993,1.3901396547145632,0.8773209792072139,,-0.046482481303738984,-0.07979645340118074,0.07698830152,-0.06345462529521684,,7.0668757e-06,-7.5101852e-06,7.390976e-06,1.0,-1.1324883e-06,-9.536743e-07,1.1324883e-06,1.0,-8.940697e-08,9.648502e-07,8.940697e-08,1.0,780,2.392,0,0,0.0,False,-0.25677999426057063,1.0517358765945823
2.4117976420093328,18:14:39.549011,18:14:23.853284,0,,0.12975058,0.0047314465,0.022365466,0.8988095,0.24186608,-0.36557084,0.3638226,0.053532302,0.9299288,0.24448806,-0.9688318,-0.03988114,,0.074555814,-0.021262959,0.025544405,-0.6274143,-0.31721416,0.7111444,0.77824914,-0.22487494,0.5863101,-0.026067346,0.92130697,0.38796133,,0.10737616,1.3461399,0.44494417,0.9960227,0.00921925,-0.08862187,-0.050111968,-0.7644486,-0.6427341,-0.07367239,0.64461875,-0.76094615,,-0.08508284,0.25840652,-0.08069355,-0.91183037,-0.13226444,0.38867912,0.38526884,-0.6028216,0.6986945,0.14189173,0.78683686,0.60062844,,-0.011515665,0.43785614,-0.32571366,0.6452277,0.18357922,-0.7416063,0.5975246,0.4836233,0.63958806,0.47607318,-0.8558079,0.20235404,,0.8982773969982981,0.3591611377815593,0.20143050310000002,3.763095725773274,0.03566212643877995,-1.1072394427201875,-0.40019296202898413,,-0.9037296464075005,0.03166320478432049,0.19568016066000002,-3.5989085000248915,-0.12379266878748904,1.3899168189071704,0.8773209792072139,,-0.046482481303738984,-0.07979645340118074,0.07698830152,-0.06345462529521684,,7.0668757e-06,-7.5101852e-06,7.390976e-06,1.0,-1.1324883e-06,-9.536743e-07,1.1324883e-06,1.0,-8.940697e-08,9.648502e-07,8.940697e-08,1.0,805,2.469,0,0,0.0,False,-0.2568991496976123,1.0515427557914643
2.4402354620106053,18:14:39.624451,18:14:23.968295,0,,0.12980582,0.0048122406,0.022447616,0.89910114,0.24176958,-0.36491692,0.36357725,0.051804423,0.9301226,0.24377963,-0.96894974,-0.041324586,,0.074544,-0.021266967,0.025544882,-0.6263079,-0.31718588,0.7121316,0.7791561,-0.22471914,0.5851641,-0.025576174,0.92135465,0.3878807,,0.10737616,1.3461399,0.44494417,0.9960227,0.00921925,-0.08862187,-0.050111968,-0.7644486,-0.6427341,-0.07367239,0.64461875,-0.76094615,,-0.08514495,0.25851813,-0.08069718,-0.9120476,-0.13219462,0.38819292,0.3846062,-0.60420215,0.6978666,0.14229277,0.785789,0.601904,,-0.011504121,0.43785438,-0.3257181,0.6440889,0.18354882,-0.74260306,0.5984396,0.48376748,0.6386228,0.47646567,-0.8557329,0.20174639,,0.8982542287996754,0.35984073827449103,0.20140198472,3.7637247956037276,0.03675521843690348,-1.105272030044839,-0.4010096823596555,,-0.9036601418116326,0.03167092751719471,0.19567238292000003,-3.5974406704204998,-0.12338275928819273,1.3896642439362217,0.8771576351410795,,-0.046482481303738984,-0.07979645340118074,0.07698830152,-0.06345462529521684,,7.0668757e-06,-7.5101852e-06,7.390976e-06,1.0,-1.1324883e-06,-9.536743e-07,1.1324883e-06,1.0,-8.940697e-08,9.648502e-07,8.940697e-08,1.0,813,2.493,0,0,0.0,False,-0.25683957197909146,1.0516875963938028
2.5156839460105402,18:14:39.646169,18:14:23.968295,0,,0.12985203,0.0048761964,0.02256991,0.89908797,0.24214782,-0.36469853,0.36346757,0.051409334,0.93018734,0.24399173,-0.9688763,-0.04179147,,0.0745298,-0.02127251,0.02554673,-0.6257929,-0.3172326,0.7125634,0.7795745,-0.22459656,0.58465374,-0.02543199,0.9213685,0.38785744,,0.10737616,1.3461399,0.44494417,0.9960227,0.00921925,-0.08862187,-0.050111968,-0.7644486,-0.6427341,-0.07367239,0.64461875,-0.76094615,,-0.0852029,0.25864357,-0.080742836,-0.9120604,-0.13258748,0.38802892,0.38466176,-0.60447454,0.69760007,0.14206055,0.7855133,0.6023186,,-0.0114904465,0.43785262,-0.32572487,0.64357024,0.18359645,-0.74304086,0.5988055,0.48386994,0.6382021,0.47670677,-0.8556648,0.20146574,,0.8982928424640465,0.36075202075364954,0.20131254071000002,3.7637247956037276,0.03743840093573068,-1.1040321872802288,-0.40068299422738685,,-0.9035906372157645,0.03167092751719471,0.19566201260000002,-3.5968116005900463,-0.12310948628866183,1.38960476560911,0.8771576351410794,,-0.046482481303738984,-0.07979645340118074,0.07698830152,-0.06345462529521684,,7.0668757e-06,-7.5101852e-06,7.390976e-06,1.0,-1.1324883e-06,-9.536743e-07,1.1324883e-06,1.0,-8.940697e-08,9.648502e-07,8.940697e-08,1.0,825,2.53,0,0,0.0,False,-0.2575545046013441,1.0519772775984795
2.537420369000756,18:14:39.687780,18:14:24.079310,0,,0.1299825,0.0050106198,0.022741929,0.8981061,0.24403915,-0.3658553,0.3648972,0.0508295,0.9296593,0.24546951,-0.96843225,-0.043398976,,0.07451194,-0.021276638,0.0255391,-0.6254759,-0.31718597,0.7128625,0.7798343,-0.22454545,0.5843269,-0.025270283,0.921397,0.38780022,,0.10737616,1.3461399,0.44494417,0.9960227,0.00921925,-0.08862187,-0.050111968,-0.7644486,-0.6427341,-0.07367239,0.64461875,-0.76094615,,-0.08534848,0.25885013,-0.08077161,-0.9112154,-0.13452888,0.38934365,0.38675994,-0.6047289,0.69621813,0.1417859,0.7849872,0.60306865,,-0.011471836,0.43784574,-0.32572424,0.64324105,0.18354769,-0.74333787,0.59908175,0.48392323,0.6379023,0.47680396,-0.8556451,0.20131919,,0.8981306650736878,0.3617791442259214,0.20125291137,3.761418206225398,0.03743840093573068,-1.1024802912175582,-0.4010096823596553,,-0.9034825189555253,0.03167092751719471,0.19565812373000002,-3.596392220703077,-0.1229728497888964,1.3895750264455542,0.877320979207214,,-0.046482481303738984,-0.07979645340118074,0.07698830152,-0.06345462529521684,,7.0668757e-06,-7.5101852e-06,7.390976e-06,1.0,-1.1324883e-06,-9.536743e-07,1.1324883e-06,1.0,-8.940697e-08,9.648502e-07,8.940697e-08,1.0,833,2.555,0,0,0.0,False,-0.25826943722359585,1.0516875963938028
2.5790379070094787,18:14:39.721627,18:14:24.079310,0,,0.13009518,0.0050837696,0.022900894,0.89771986,0.24569215,-0.3656968,0.3648225,0.050781697,0.9296913,0.24698853,-0.96801674,-0.044046372,,0.07450008,-0.021280378,0.025536478,-0.6245017,-0.31721246,0.7137042,0.78062665,-0.22439149,0.58332705,-0.02488947,0.92142534,0.38775736,,0.10737616,1.3461399,0.44494417,0.9960227,0.00921925,-0.08862187,-0.050111968,-0.7644486,-0.6427341,-0.07367239,0.64461875,-0.76094615,,-0.08547634,0.25900275,-0.08083231,-0.91100085,-0.13621828,0.38925827,0.38771248,-0.6045857,0.6958126,0.14055757,0.7848062,0.6035916,,-0.011459831,0.4378421,-0.32572627,0.64224535,0.18357413,-0.74419177,0.5998479,0.484057,0.63708025,0.47718272,-0.85556376,0.20076683,,0.8979453194847065,0.3626672585064572,0.20115957849000002,3.7609988263384286,0.036891854936668925,-1.1015445471619292,-0.4018264026903269,,-0.9034052916267832,0.03167865025006894,0.19565293857000002,-3.5951340810421697,-0.12256294028960008,1.389404130214746,0.8773209792072139,,-0.046482481303738984,-0.07979645340118074,0.07698830152,-0.06345462529521684,,7.0668757e-06,-7.5101852e-06,7.390976e-06,1.0,-1.1324883e-06,-9.536743e-07,1.1324883e-06,1.0,-8.940697e-08,9.648502e-07,8.940697e-08,1.0,845,2.593,0,0,0.0,False,-0.2583885926606384,1.0516393161930233
2.612873768011923,18:14:39.751487,18:14:24.079310,0,,0.13020879,0.005149469,0.023079991,0.89689,0.24748442,-0.3665236,0.36576778,0.050768673,0.92932045,0.24860024,-0.9675607,-0.044988006,,0.074491724,-0.021282896,0.025532007,-0.62444705,-0.3173421,0.71369445,0.78066754,-0.22435579,0.58328605,-0.0249798,0.92138946,0.387837,,0.10737616,1.3461399,0.44494417,0.9960227,0.00921925,-0.08862187,-0.050111968,-0.7644486,-0.6427341,-0.07367239,0.64461875,-0.76094615,,-0.08560746,0.25916275,-0.08091288,-0.9103326,-0.13804974,0.3901753,0.38952243,-0.6043975,0.6949647,0.13988128,0.7846311,0.60397625,,-0.011451015,0.43783784,-0.32572573,0.64220446,0.18370831,-0.744194,0.59981257,0.4840683,0.637105,0.4772822,-0.8555286,0.20068027,,0.8977290829642282,0.36361715464998684,0.20104420868000003,3.759321306790553,0.03675521843690348,-1.1005346631166866,-0.40264312302099836,,-0.9033512324966636,0.03167865025006894,0.19565164228,-3.5951340810421697,-0.12242630378983464,1.3895377485314713,0.8771576351410795,,-0.046482481303738984,-0.07979645340118074,0.07698830152,-0.06345462529521684,,7.0668757e-06,-7.5101852e-06,7.390976e-06,1.0,-1.1324883e-06,-9.536743e-07,1.1324883e-06,1.0,-8.940697e-08,9.648502e-07,8.940697e-08,1.0,866,2.657,0,0,0.0,False,-0.25767366003838577,1.0518324369961412
2.6427404490095796,18:14:39.810313,18:14:24.079310,0,,0.1305229,0.0052067935,0.02342911,0.8942575,0.25643024,-0.36680636,0.367009,0.0488922,0.92893165,0.2561401,-0.96532524,-0.050390065,,0.07448262,-0.021288425,0.02553022,-0.62335044,-0.3176168,0.71453035,0.78154814,-0.224053,0.5822222,-0.024830908,0.9213685,0.38789633,,0.10737616,1.3461399,0.44494417,0.9960227,0.00921925,-0.08862187,-0.050111968,-0.7644486,-0.6427341,-0.07367239,0.64461875,-0.76094615,,-0.0859568,0.25941598,-0.08110702,-0.90852034,-0.14722767,0.39104325,0.39551115,-0.6048568,0.69117236,0.13476546,0.78260607,0.6077549,,-0.011441899,0.43783328,-0.32572928,0.6411212,0.18399109,-0.74505764,0.6004769,0.48429567,0.63630587,0.4779028,-0.8553391,0.20000981,,0.8967174049577047,0.3655092242041718,0.20075772859000002,3.75407905820344,0.03238285044440938,-1.0953357153955898,-0.40133637049192405,,-0.9032817279007955,0.03168637298294316,0.19564645712,-3.593875941381263,-0.12174312129100744,1.3894707314538324,0.8768309470088109,,-0.046482481303738984,-0.07979645340118074,0.07698830152,-0.06345462529521684,,7.0668757e-06,-7.5101852e-06,7.390976e-06,1.0,-1.1324883e-06,-9.536743e-07,1.1324883e-06,1.0,-8.940697e-08,9.648502e-07,8.940697e-08,1.0,878,2.694,0,0,0.0,False,-0.2571374605716965,1.0517358765945823
2.7015354040049715,18:14:39.857937,18:14:24.243603,0,,0.13071814,0.005225152,0.023708507,0.8926789,0.25866884,-0.36907247,0.36915705,0.05012521,0.9280144,0.2585482,-0.9646646,-0.05074379,,0.07448338,-0.021287978,0.025533795,-0.6228895,-0.31778574,0.7148571,0.78192294,-0.22416657,0.5816751,-0.024600983,0.9212826,0.38811487,,0.10737616,1.3461399,0.44494417,0.9960227,0.00921925,-0.08862187,-0.050111968,-0.7644486,-0.6427341,-0.07367239,0.64461875,-0.76094615,,-0.0861812,0.25960088,-0.08128585,-0.90716887,-0.14949702,0.39331323,0.3987914,-0.60361594,0.6903718,0.1342016,0.78313375,0.6071997,,-0.011443129,0.43783593,-0.3257315,0.64064324,0.1841671,-0.74542516,0.600873,0.48416677,0.63603,0.4780459,-0.8553742,0.19951715,,0.8961536454578863,0.36649001127919834,0.20057495170000003,3.7513530889381403,0.03251948694417483,-1.0955288120394269,-0.40149971455805844,,-0.9032894506336697,0.03169409571581739,0.19564386454000002,-3.59324687155081,-0.121606484791242,1.3896043497705577,0.8769942910749452,,-0.046482481303738984,-0.07979645340118074,0.07698830152,-0.06345462529521684,,7.0668757e-06,-7.5101852e-06,7.390976e-06,1.0,-1.1324883e-06,-9.536743e-07,1.1324883e-06,1.0,-8.940697e-08,9.648502e-07,8.940697e-08,1.0,890,2.731,0,0,0.0,False,-0.2583290149421176,1.0513013547875674
2.749197967001237,18:14:39.892220,18:14:24.243603,0,,0.13085258,0.0052563697,0.023896664,0.89051205,0.2674586,-0.3680407,0.36904454,0.04844752,0.92814827,0.2660718,-0.96235055,-0.055561155,,0.07448703,-0.021292076,0.025535941,-0.622301,-0.31790784,0.7153153,0.7823911,-0.22387823,0.58115643,-0.024610639,0.9213106,0.38804787,,0.10737616,1.3461399,0.44494417,0.9960227,0.00921925,-0.08862187,-0.050111968,-0.7644486,-0.6427341,-0.07367239,0.64461875,-0.76094615,,-0.086334825,0.25973952,-0.08139367,-0.9058481,-0.15852405,0.39282236,0.4037183,-0.60386497,0.6872835,0.12826072,0.781164,0.611009,,-0.011447139,0.4378341,-0.3257354,0.64007384,0.18429177,-0.74588335,0.60116553,0.48440558,0.6355716,0.47844067,-0.85521215,0.19926548,,0.8959296862045338,0.36715416630638165,0.20043624867,3.7475786699554194,0.026370844454730008,-1.090515006373088,-0.40149971455805844,,-0.903297173366544,0.03168637298294316,0.19564256825,-3.592617801720356,-0.12119657529194568,1.3894334535397497,0.877320979207214,,-0.046482481303738984,-0.07979645340118074,0.07698830152,-0.06345462529521684,,7.0668757e-06,-7.5101852e-06,7.390976e-06,1.0,-1.1324883e-06,-9.536743e-07,1.1324883e-06,1.0,-8.940697e-08,9.648502e-07,8.940697e-08,1.0,902,2.769,0,0,0.0,False,-0.2575545046013441,1.0516393161930233
2.7834666250128066,18:14:39.927519,18:14:24.243603,0,,0.13091466,0.005278066,0.024086848,0.8887998,0.27167568,-0.3690895,0.37040356,0.048424363,0.9276079,0.26988143,-0.9611697,-0.057590127,,0.07447709,-0.021294817,0.025532007,-0.6219778,-0.31796142,0.7155725,0.78265244,-0.22388142,0.58080316,-0.024469614,0.9212913,0.38810253,,0.10737616,1.3461399,0.44494417,0.9960227,0.00921925,-0.08862187,-0.050111968,-0.7644486,-0.6427341,-0.07367239,0.64461875,-0.76094615,,-0.086417,0.25987622,-0.08151638,-0.9045361,-0.16284509,0.39407605,0.40731964,-0.6033462,0.6856122,0.1261157,0.7806759,0.6120784,,-0.011436835,0.43783018,-0.32573557,0.6397415,0.18434736,-0.7461547,0.60142857,0.4843941,0.63533145,0.47855464,-0.85520667,0.19901523,,0.8959219634716596,0.36775653947057113,0.20028587903000003,3.744223630859667,0.02404802395871752,-1.0886209020102489,-0.40149971455805844,,-0.9032353915035503,0.03168637298294316,0.19563997567000002,-3.592198421833387,-0.12105993879218024,1.3894853931163342,0.8769942910749453,,-0.046482481303738984,-0.07979645340118074,0.07698830152,-0.06345462529521684,,7.0668757e-06,-7.5101852e-06,7.390976e-06,1.0,-1.1324883e-06,-9.536743e-07,1.1324883e-06,1.0,-8.940697e-08,9.648502e-07,8.940697e-08,1.0,910,2.793,0,0,0.0,False,-0.25773323775690704,1.0513496349883464
2.8187742330046603,18:14:39.951051,18:14:24.243603,0,,0.13099304,0.005332485,0.024294868,0.88674194,0.27911,-0.36849156,0.37026572,0.048391104,0.92766464,0.2767522,-0.959039,-0.06043449,,0.07447218,-0.021295309,0.02553022,-0.6217894,-0.31804675,0.7156984,0.78280276,-0.22385275,0.5806116,-0.02445063,0.9212688,0.38815707,,0.10737616,1.3461399,0.44494417,0.9960227,0.00921925,-0.08862187,-0.050111968,-0.7644486,-0.6427341,-0.07367239,0.64461875,-0.76094615,,-0.08651659,0.26004842,-0.0816295,-0.9032523,-0.17046793,0.3937969,0.41179675,-0.6023941,0.6837725,0.12065963,0.7797833,0.614312,,-0.011431739,0.437829,-0.32573518,0.63955617,0.18443568,-0.74629176,0.6015375,0.4844061,0.6352191,0.47866538,-0.8551808,0.19885994,,0.8960300817318987,0.3684361399635029,0.20013680568000003,3.7406589018204297,0.018309290968569022,-1.0853298886373886,-0.40133637049192405,,-0.9032045005720533,0.03169409571581739,0.19563867938,-3.5919887318899018,-0.1209233022924148,1.389537332692919,0.8769942910749453,,-0.046482481303738984,-0.07979645340118074,0.07698830152,-0.06345462529521684,,7.0668757e-06,-7.5101852e-06,7.390976e-06,1.0,-1.1324883e-06,-9.536743e-07,1.1324883e-06,1.0,-8.940697e-08,9.648502e-07,8.940697e-08,1.0,931,2.858,0,0,0.0,False,-0.2575545046013441,1.0515910359922438
2.842259411001578,18:14:40.024849,18:14:24.376571,0,,0.13106751,0.0054835677,0.024810404,0.88142145,0.29743868,-0.36691457,0.36946416,0.04979211,0.92791003,0.29426578,-0.95344156,-0.0660052,,0.07447648,-0.021302298,0.02553451,-0.620211,-0.3184913,0.71686924,0.7840643,-0.22360116,0.5790041,-0.024115056,0.9211763,0.38839757,,0.10737616,1.3461399,0.44494417,0.9960227,0.00921925,-0.08862187,-0.050111968,-0.7644486,-0.6427341,-0.07367239,0.64461875,-0.76094615,,-0.08664404,0.26049408,-0.08191111,-0.8999153,-0.1892657,0.39284986,0.42287195,-0.59869933,0.6802488,0.10645118,0.77829146,0.6188138,,-0.011436774,0.43782648,-0.3257426,0.63798034,0.18489507,-0.7475259,0.6025716,0.48456,0.63412064,0.47946694,-0.85499436,0.19772723,,0.8969490869439315,0.3698416773466118,0.19976606674000003,3.7316422342505953,0.0028693664950742498,-1.07813046236897,-0.4016630586241927,,-0.9032045005720533,0.03168637298294316,0.19563479051000002,-3.590101522398542,-0.12010348329382216,1.389522255191865,0.8769942910749453,,-0.046482481303738984,-0.07979645340118074,0.07698830152,-0.06345462529521684,,7.0668757e-06,-7.5101852e-06,7.390976e-06,1.0,-1.1324883e-06,-9.536743e-07,1.1324883e-06,1.0,-8.940697e-08,9.648502e-07,8.940697e-08,1.0,943,2.895,0,0,0.0,False,-0.2571374605716965,1.0517358765945823
2.855207786007668,18:14:40.052974,18:14:24.376571,0,,0.13107899,0.0055918545,0.025038779,0.87935185,0.30665517,-0.36428374,0.36801118,0.047804683,0.9285917,0.3021719,-0.9506194,-0.070815474,,0.07447693,-0.021302685,0.025534391,-0.6196895,-0.31870773,0.7172239,0.7844802,-0.22358829,0.57844543,-0.02399218,0.92110455,0.3885752,,0.10737616,1.3461399,0.44494417,0.9960227,0.00921925,-0.08862187,-0.050111968,-0.7644486,-0.6427341,-0.07367239,0.64461875,-0.76094615,,-0.08667818,0.26072404,-0.08201098,-0.8987637,-0.1987798,0.39078173,0.42702663,-0.598876,0.6774923,0.099357985,0.7757797,0.6231323,,-0.011437198,0.43782607,-0.3257427,0.637458,0.18511946,-0.7479158,0.60292083,0.48453668,0.6338065,0.47972256,-0.8549591,0.19725943,,0.8977522511628508,0.37074523709289603,0.19957810469,3.728287195154843,-0.004782277491790415,-1.0716460235415488,-0.4011730264257898,,-0.9031967778391791,0.03169409571581739,0.19563479051000002,-3.589472452568088,-0.11983021029429128,1.3896261343450345,0.877320979207214,,-0.046482481303738984,-0.07979645340118074,0.07698830152,-0.06345462529521684,,7.0668757e-06,-7.5101852e-06,7.390976e-06,1.0,-1.1324883e-06,-9.536743e-07,1.1324883e-06,1.0,-8.940697e-08,9.648502e-07,8.940697e-08,1.0,955,2.932,0,0,0.0,False,-0.25725661600873906,1.0520738380000385
2.8833137650071876,18:14:40.089115,18:14:24.376571,0,,0.13103625,0.005689949,0.02522768,0.87845665,0.30881602,-0.36461803,0.36866736,0.047393262,0.9283525,0.30397052,-0.9499402,-0.07221758,,0.07447709,-0.021302775,0.025537431,-0.61976653,-0.31872168,0.7171512,0.7844125,-0.22338298,0.57861656,-0.024218291,0.9211496,0.3884545,,0.10737616,1.3461399,0.44494417,0.9960227,0.00921925,-0.08862187,-0.050111968,-0.7644486,-0.6427341,-0.07367239,0.64461875,-0.76094615,,-0.08665432,0.26092356,-0.08209317,-0.89805776,-0.2010111,0.39126313,0.4287427,-0.59886473,0.6764175,0.098346256,0.77521324,0.62399715,,-0.0114377765,0.43782803,-0.32574493,0.6375631,0.18513253,-0.747823,0.6027236,0.48471838,0.63385516,0.47983074,-0.8548532,0.19745481,,0.8982387833339269,0.37123176926397217,0.19950032729000003,3.7266096756069667,-0.0057387329901484995,-1.0697225958537058,-0.4010096823596554,,-0.9032045005720533,0.03170181844869161,0.19563219793000003,-3.589682142511572,-0.11969357379452583,1.389514716441338,0.877320979207214,,-0.046482481303738984,-0.07979645340118074,0.07698830152,-0.06345462529521684,,7.0668757e-06,-7.5101852e-06,7.390976e-06,1.0,-1.1324883e-06,-9.536743e-07,1.1324883e-06,1.0,-8.940697e-08,9.648502e-07,8.940697e-08,1.0,963,2.957,0,0,0.0,False,-0.25785239319394915,1.0511565141852286
2.919468608000898,18:14:40.113800,18:14:24.376571,0,,0.13106522,0.005814716,0.025399148,0.8759324,0.32018635,-0.36086398,0.36732996,0.042266965,0.9291298,0.31274733,-0.94641113,-0.08059111,,0.07442675,-0.021331318,0.025549531,-0.6186486,-0.31879717,0.7180823,0.785311,-0.22336736,0.57740265,-0.023678184,0.9211272,0.3885408,,0.1073722,1.3461394,0.44495365,0.9960239,0.009237841,-0.08860624,-0.050087743,-0.76444834,-0.64273626,-0.07367239,0.64461875,-0.76094615,,-0.086698115,0.26112005,-0.08213215,-0.8965572,-0.21281528,0.38845176,0.4335595,-0.6010834,0.6713605,0.090616114,0.7703301,0.63117373,,-0.011388668,0.43781292,-0.3257718,0.63638747,0.18521515,-0.7488033,0.60367566,0.48472515,0.63294333,0.48019448,-0.8548315,0.19666311,,0.8987793746351227,0.3718959242911555,0.19940699441,3.7228352566242453,-0.013936922976074925,-1.059770372026298,-0.40149971455805844,,-0.9031967778391791,0.03169409571581739,0.19563219793000003,-3.588214312907181,-0.11942030079499495,1.3893735593740857,0.8771576351410797,,-0.046482481303738984,-0.07979645340118074,0.07698830152,-0.06345462529521684,,2.4475157e-06,-1.013279e-06,8.34465e-07,0.99999994,1.7374754e-05,1.4714897e-05,-1.7374754e-05,1.0,1.6987324e-06,-1.4711171e-05,-1.6987324e-06,1.0,992,3.046,0,0,0.0,False,-0.2579715486309908,1.0514461953899055
2.9441543930006446,18:14:40.202504,18:14:24.589479,0,,0.13115232,0.006176159,0.02613014,0.85947514,0.3652519,-0.3576216,0.371638,0.033875674,0.92775947,0.35098058,-0.930292,-0.10662627,,0.074434616,-0.021333627,0.025552869,-0.617671,-0.3192746,0.7187115,0.78608,-0.22312534,0.576449,-0.023682743,0.9210205,0.3887934,,0.1073722,1.3461394,0.44495365,0.9960239,0.009237841,-0.08860624,-0.050087743,-0.76444834,-0.64273626,-0.07367239,0.64461875,-0.76094615,,-0.086857125,0.2618645,-0.08243722,-0.8843241,-0.25956172,0.38807043,0.46259335,-0.5994345,0.65321183,0.063074,0.7571697,0.65016586,,-0.01139698,0.43781292,-0.3257749,0.6354398,0.18570879,-0.7494855,0.60416305,0.48486483,0.632371,0.480836,-0.85464513,0.19590403,,0.9007950079152952,0.374011953098693,0.19896107065000002,3.6955755639712575,-0.04604650042095343,-1.0305650512724385,-0.4016630586241928,,-0.9032199460378018,0.03170181844869161,0.19563219793000003,-3.587165863189758,-0.11873711829616776,1.389469899776728,0.8774843232733481,,-0.046482481303738984,-0.07979645340118074,0.07698830152,-0.06345462529521684,,2.4475157e-06,-1.013279e-06,8.34465e-07,0.99999994,1.7374754e-05,1.4714897e-05,-1.7374754e-05,1.0,1.6987324e-06,-1.4711171e-05,-1.6987324e-06,1.0,1000,3.071,0,0,0.0,False,-0.2583885926606384,1.0523152390039359
3.032862109001144,18:14:40.230094,18:14:24.589479,0,,0.13114649,0.0062646866,0.026294097,0.85552526,0.37558368,-0.35638905,0.37210983,0.032596946,0.9276161,0.36001468,-0.92621493,-0.111870974,,0.07443723,-0.021335639,0.025553763,-0.6173358,-0.31962806,0.7188424,0.78634644,-0.22331944,0.5760102,-0.023577511,0.9208509,0.3892014,,0.1073722,1.3461394,0.44495365,0.9960239,0.009237841,-0.08860624,-0.050087743,-0.76444834,-0.64273626,-0.07367239,0.64461875,-0.76094615,,-0.08686741,0.26203853,-0.082503274,-0.88138497,-0.27030638,0.38742095,0.46904334,-0.59831953,0.6496245,0.056203865,0.7542865,0.6541353,,-0.011399731,0.43781188,-0.32577658,0.6351005,0.18607676,-0.74968183,0.6044046,0.4846338,0.63231725,0.4809807,-0.85469615,0.19532551,,0.9013742128808621,0.37439808974240424,0.19886903406000003,3.6897042455536906,-0.053698144407818095,-1.02448900614572,-0.4016630586241927,,-0.903227668770676,0.03169409571581739,0.19563219793000003,-3.5867464833027887,-0.1186004817964023,1.389848554313875,0.8768309470088109,,-0.046482481303738984,-0.07979645340118074,0.07698830152,-0.06345462529521684,,2.4475157e-06,-1.013279e-06,8.34465e-07,0.99999994,1.7374754e-05,1.4714897e-05,-1.7374754e-05,1.0,1.6987324e-06,-1.4711171e-05,-1.6987324e-06,1.0,1008,3.095,0,0,0.0,False,-0.25767366003838577,1.0516875963938028
3.0604509450058686,18:14:40.269769,18:14:24.589479,0,,0.13110471,0.0064424127,0.026626036,0.8468029,0.39599833,-0.35511953,0.37387943,0.03174284,0.92693394,0.37833682,-0.9177023,-0.121175796,,0.07444001,-0.02134066,0.025553346,-0.6165494,-0.3198476,0.7194194,0.78696316,-0.22299457,0.5752935,-0.023579597,0.9208534,0.3891954,,0.1073722,1.3461394,0.44495365,0.9960239,0.009237841,-0.08860624,-0.050087743,-0.76444834,-0.64273626,-0.07367239,0.64461875,-0.76094615,,-0.08685848,0.26239136,-0.08264093,-0.8746989,-0.29154944,0.38717028,0.48277944,-0.59455234,0.6429864,0.042730663,0.7493373,0.6608083,,-0.011402563,0.43780774,-0.3257794,0.6343379,0.18630235,-0.7502712,0.6047964,0.48488924,0.6317466,0.4814943,-0.85450214,0.19490862,,0.9027179684009772,0.37513174936545557,0.19867329427000002,3.6762840891706814,-0.06954797838060918,-1.0131981041197462,-0.40198974675646104,,-0.9032199460378018,0.03168637298294316,0.19563219793000003,-3.5859077235288512,-0.11805393579734054,1.3897295976596515,0.8774843232733482,,-0.046482481303738984,-0.07979645340118074,0.07698830152,-0.06345462529521684,,2.4475157e-06,-1.013279e-06,8.34465e-07,0.99999994,1.7374754e-05,1.4714897e-05,-1.7374754e-05,1.0,1.6987324e-06,-1.4711171e-05,-1.6987324e-06,1.0,1029,3.161,0,0,0.0,False,-0.2580907040680329,1.0516875963938028
3.0780790080170846,18:14:40.323901,18:14:24.708012,0,,0.13093686,0.0066042393,0.02703783,0.83862466,0.4174174,-0.34995863,0.37181106,0.03085661,0.92779547,0.3980765,-0.9081907,-0.12932348,,0.07444197,-0.02134309,0.025553405,-0.6155554,-0.3199337,0.7202319,0.78775114,-0.22283986,0.57427394,-0.023233235,0.92086095,0.3891984,,0.1073722,1.3461394,0.44495365,0.9960239,0.009237841,-0.08860624,-0.050087743,-0.76444834,-0.64273626,-0.07367239,0.64461875,-0.76094615,,-0.08673347,0.262791,-0.08286137,-0.86879647,-0.3139014,0.3829603,0.49449977,-0.590215,0.6380566,0.025742058,0.7437151,0.66800094,,-0.011404575,0.43780586,-0.32578087,0.633327,0.18639064,-0.7511028,0.6055345,0.48501378,0.6309434,0.48189718,-0.8544122,0.19430636,,0.9048031062770178,0.37553333147491524,0.19839459192000003,3.665170522166001,-0.08908699784706718,-1.0009408871974834,-0.4018264026903269,,-0.9032122233049276,0.03168637298294316,0.19563219793000003,-3.584649583867944,-0.11764402629804423,1.3895587014288435,0.8771576351410796,,-0.046482481303738984,-0.07979645340118074,0.07698830152,-0.06345462529521684,,2.4475157e-06,-1.013279e-06,8.34465e-07,0.99999994,1.7374754e-05,1.4714897e-05,-1.7374754e-05,1.0,1.6987324e-06,-1.4711171e-05,-1.6987324e-06,1.0,1041,3.198,0,0,0.0,False,-0.2583885926606384,1.0522186786023768
