AlexandreBanks6/ExpertPlaybackApp/resources/Motions/P_07/PC1/Data_PC1_10.csv
Task Time,PC1 Time,PC2 Time,Gaze Calib,s_T_psm1,Tx,Ty,Tz,R00,R01,R02,R10,R11,R12,R20,R21,R22,s_T_psm3,Tx,Ty,Tz,R00,R01,R02,R10,R11,R12,R20,R21,R22,cart_T_ecm,Tx,Ty,Tz,R00,R01,R02,R10,R11,R12,R20,R21,R22,ecm_T_psm1,Tx,Ty,Tz,R00,R01,R02,R10,R11,R12,R20,R21,R22,ecm_T_psm3,Tx,Ty,Tz,R00,R01,R02,R10,R11,R12,R20,R21,R22,psm1_joints,q1,q2,q3,q4,q5,q6,jaw,psm3_joints,q1,q2,q3,q4,q5,q6,jaw,ecm_joints,q1,q2,q3,q4,ecmi_T_ecm,Tx,Ty,Tz,R00,R01,R02,R10,R11,R12,R20,R21,R22,Sample #,Task Duration (s),Collisions (binary),Collisions (increments),Cumulative Collision Time (s),Clutch Press,MTMR Angle,MTML Angle
""
lci_T_si,,,,,-0.053492907,0.03067575,0.21583572,0.9922148,0.027492212,0.12146585,0.10393389,-0.72013074,-0.6860098,0.06861137,0.6932935,-0.7173818
rci_T_si,,,,,-0.06295502,0.034948092,0.22635663,0.9921467,0.010968016,0.12459805,0.0950465,-0.7136615,-0.6940126,0.08130889,0.7004049,-0.70909935
ecm_T_lc,,,,,-4.4061628e-05,-0.00034663224,-0.01840835,-0.99912,0.030754527,0.028518902,-0.031987965,-0.99852574,-0.043852776,0.027128186,-0.04472645,0.9986309
ecm_T_rc,,,,,-0.0043358393,0.01870579,-0.007592615,-0.99555075,-0.052743673,-0.078081585,0.04863213,-0.9973746,0.053654674,-0.08070653,0.04961868,0.9955021
cart_T_ecmi,,,,,0.07476978,1.3022323,0.43178007,0.9961213,0.07739788,-0.04185594,0.027623024,-0.72670597,-0.686393,-0.08354233,0.6825745,-0.7260253
ecmac_T_ecmrep_psm1,,,,,0.012989772,-0.26409563,-0.29155013,0.99659246,0.08125139,0.014199966,-0.079952136,0.9939098,-0.07583538,-0.020275215,0.07444165,0.99701923
ecmac_T_ecmrep_psm3,,,,,0.016264312,-0.47033283,-0.5183238,0.99978954,0.020288749,-0.0030332562,-0.020227978,0.99961716,0.018877296,0.0034150917,-0.018811967,0.9998172
""
0,11:16:49.795314,NaN,0,,0.12475686,-0.00079740584,0.022049993,0.84580636,0.31309414,-0.43195307,0.3225051,0.34490353,0.88149416,0.42497283,-0.8848805,0.19074717,,0.023572981,0.003124304,0.0123256445,-0.40876216,-0.028797872,0.9121863,0.90943617,-0.096539974,0.404482,0.07641423,0.9949124,0.065651685,,0.074783616,1.3022308,0.43178296,0.99612164,0.07738821,-0.041865073,0.02760977,-0.72670704,-0.6863924,-0.08354233,0.6825745,-0.7260253,,-0.10126129,0.25681123,-0.08779685,-0.8777227,-0.22068729,0.4253234,0.47835678,-0.35190272,0.80457395,-0.027886782,0.90964913,0.41444027,,-0.010054602,0.4562696,-0.30659676,0.38124126,-0.12083196,-0.916545,0.7184409,0.66266125,0.21147752,0.5818056,-0.7391074,0.33944443,,1.1422462512279246,0.5448156360779165,0.20260753442,3.506854614835185,0.033749215442063794,-1.1282229243472328,-0.4109736703938467,,-0.16839419032246544,0.2961204693292646,0.19187814209,-3.2631949005061682,0.2951348394933514,1.1861832395312115,0.8704605284295742,,-0.030951232622554444,-0.025656340004316647,0.11367150912,-0.09289233806103908,,1.3500452e-05,4.1127205e-06,-1.7881393e-06,0.99999994,-9.670854e-06,-9.0785325e-06,9.655952e-06,1.0,-1.1324883e-06,9.085983e-06,1.1622906e-06,1.0,41,0.123,0,0,0.0,False,-0.2596993024681016,1.0449283682846786
0.12113748909905553,11:16:49.835579,NaN,0,,0.12470348,-0.0006316602,0.022692725,0.8397087,0.33085176,-0.4306114,0.3153632,0.34843946,0.8826868,0.4420805,-0.87699884,0.18824914,,0.023571812,0.0031109974,0.012323797,-0.40891004,-0.02894646,0.91211534,0.90938145,-0.096464574,0.40462312,0.076274395,0.9949155,0.065768674,,0.074783616,1.3022308,0.43178296,0.99612164,0.07738821,-0.041865073,0.02760977,-0.72670704,-0.6863924,-0.08354233,0.6825745,-0.7260253,,-0.10126765,0.2573665,-0.088164344,-0.8734192,-0.2390654,0.42424825,0.484811,-0.3449558,0.8037187,-0.045794424,0.9076636,0.41719258,,-0.010053005,0.4562594,-0.30660546,0.3814093,-0.12068649,-0.91649425,0.71831983,0.6627322,0.2116664,0.5818449,-0.73906755,0.3394637,,1.1446943575490538,0.5463679053856356,0.20226142499000002,3.4976282573218667,0.016669652971383734,-1.122871954099939,-0.40983026193090666,,-0.16836329939096853,0.2960586874662708,0.19187295693000003,-3.2634045904496527,0.2951348394933514,1.186264918271352,0.8706238724957084,,-0.030951232622554444,-0.025656340004316647,0.11367150912,-0.09289233806103908,,1.3500452e-05,4.1127205e-06,-1.7881393e-06,0.99999994,-9.670854e-06,-9.0785325e-06,9.655952e-06,1.0,-1.1324883e-06,9.085983e-06,1.1622906e-06,1.0,49,0.146,0,0,0.0,False,-0.2589843698458485,1.045411170292473
0.16140866302885115,11:16:49.868190,NaN,0,,0.124682456,-0.000491783,0.023141831,0.83588123,0.33991265,-0.4310009,0.31003255,0.3555968,0.8817203,0.45297047,-0.8706379,0.19185275,,0.023574762,0.0031079724,0.012326002,-0.40890422,-0.028965384,0.9121173,0.9093853,-0.096455455,0.40461648,0.07625881,0.9949157,0.06578171,,0.074783616,1.3022308,0.43178296,0.99612164,0.07738821,-0.041865073,0.02760977,-0.72670704,-0.6863924,-0.08354233,0.6825745,-0.7260253,,-0.10128791,0.25777152,-0.088403665,-0.87074596,-0.24858463,0.42427257,0.48833445,-0.3358753,0.8054299,-0.05771481,0.9085117,0.41385448,,-0.01005621,0.4562586,-0.3066089,0.38140583,-0.120667934,-0.9164981,0.7183104,0.6627408,0.21167116,0.5818588,-0.7390628,0.33945027,,1.146385636048509,0.5475958199126373,0.20204105569000003,3.492176318791269,0.005465459990617618,-1.1247623159158084,-0.4126071110551893,,-0.16837874485671697,0.29604324200052234,0.19187036435000002,-3.2634045904496527,0.2951348394933514,1.186264918271352,0.8706238724957084,,-0.030951232622554444,-0.025656340004316647,0.11367150912,-0.09289233806103908,,1.3500452e-05,4.1127205e-06,-1.7881393e-06,0.99999994,-9.670854e-06,-9.0785325e-06,9.655952e-06,1.0,-1.1324883e-06,9.085983e-06,1.1622906e-06,1.0,61,0.183,0,0,0.0,False,-0.2596993024681016,1.0453146098909143
0.19403152400627732,11:16:49.902103,NaN,0,,0.124668196,-0.000380978,0.023687199,0.8290632,0.35899937,-0.4286881,0.30141202,0.35881656,0.8834033,0.47096166,-0.861609,0.18927488,,0.023573793,0.0031058118,0.012326002,-0.40890193,-0.02896019,0.91211855,0.90938693,-0.09644613,0.40461516,0.07625258,0.9949168,0.065773025,,0.074783616,1.3022308,0.43178296,0.99612164,0.07738821,-0.041865073,0.02760977,-0.72670704,-0.6863924,-0.08354233,0.6825745,-0.7260253,,-0.10132464,0.25821888,-0.08873291,-0.8658341,-0.2684012,0.4222464,0.49431992,-0.32846707,0.80483365,-0.07732428,0.90557724,0.41707408,,-0.010055231,0.45625725,-0.30661058,0.3814045,-0.12067336,-0.916498,0.7183067,0.66274726,0.21166383,0.5818643,-0.73905617,0.33945525,,1.1483085965341908,0.5487310616451483,0.20173642754,3.483159651221434,-0.013527013476778605,-1.1191583548590138,-0.4127704551213236,,-0.16837102212384275,0.29603551926764815,0.19186906806,-3.2634045904496527,0.2951348394933514,1.186264918271352,0.8706238724957084,,-0.030951232622554444,-0.025656340004316647,0.11367150912,-0.09289233806103908,,1.3500452e-05,4.1127205e-06,-1.7881393e-06,0.99999994,-9.670854e-06,-9.0785325e-06,9.655952e-06,1.0,-1.1324883e-06,9.085983e-06,1.1622906e-06,1.0,72,0.217,0,0,0.0,False,-0.2590439475643693,1.04478352768234
0.2279548100195825,11:16:49.936447,NaN,0,,0.12470214,-0.00035217404,0.02407442,0.8237763,0.37293366,-0.42698106,0.2920875,0.3663041,0.88346255,0.48587784,-0.8524915,0.19282344,,0.023571461,0.00310532,0.012327731,-0.40895268,-0.029077165,0.91209203,0.90935373,-0.09663716,0.4046442,0.07637605,0.99489486,0.06596142,,0.074783616,1.3022308,0.43178296,0.99612164,0.07738821,-0.041865073,0.02760977,-0.72670704,-0.6863924,-0.08354233,0.6825745,-0.7260253,,-0.101395376,0.25849718,-0.08899649,-0.86216027,-0.2830315,0.4202057,0.49764702,-0.31755874,0.80715793,-0.09501111,0.9050136,0.41463628,,-0.010053178,0.45625848,-0.3066123,0.38143638,-0.12055205,-0.9165007,0.7183803,0.6626164,0.21182375,0.5817526,-0.7391933,0.3393482,,1.149382056403708,0.5493720484737089,0.20149402131000002,3.4774980227473518,-0.03087984894698954,-1.120363884235994,-0.41015695006317543,,-0.16836329939096853,0.29603551926764815,0.19186647548000002,-3.2634045904496527,0.2949982029935859,1.186458014915189,0.8704605284295741,,-0.030951232622554444,-0.025656340004316647,0.11367150912,-0.09289233806103908,,1.3500452e-05,4.1127205e-06,-1.7881393e-06,0.99999994,-9.670854e-06,-9.0785325e-06,9.655952e-06,1.0,-1.1324883e-06,9.085983e-06,1.1622906e-06,1.0,80,0.24,0,0,0.0,False,-0.2590439475643693,1.0445904068792222
0.2622948170173913,11:16:49.957982,NaN,0,,0.12469259,-0.0003849715,0.024297386,0.8179589,0.38151652,-0.43056726,0.29212794,0.36930764,0.8821979,0.49558485,-0.8473825,0.19062683,,0.023570962,0.0031033233,0.012327969,-0.4091178,-0.02923283,0.912013,0.90928733,-0.09661719,0.40479827,0.07628271,0.99489224,0.06610884,,0.074783616,1.3022308,0.43178296,0.99612164,0.07738821,-0.041865073,0.02760977,-0.72670704,-0.6863924,-0.08354233,0.6825745,-0.7260253,,-0.10140793,0.25862232,-0.08918373,-0.8573078,-0.29201943,0.42396697,0.5044718,-0.31237206,0.8049422,-0.10262332,0.9039626,0.41511455,,-0.010052696,0.45625737,-0.306614,0.38161454,-0.120398045,-0.91644675,0.7182873,0.6626466,0.21204454,0.5817506,-0.73919135,0.33935595,,1.149930370437778,0.5496346213914326,0.20131642958,3.4686910451210022,-0.03825821993432332,-1.1194930780652428,-0.407706789071161,,-0.1683555766580943,0.2960277965347739,0.19186517919,-3.2636142803931367,0.2949982029935859,1.1865396936553296,0.8702971843634398,,-0.030951232622554444,-0.025656340004316647,0.11367150912,-0.09289233806103908,,1.3500452e-05,4.1127205e-06,-1.7881393e-06,0.99999994,-9.670854e-06,-9.0785325e-06,9.655952e-06,1.0,-1.1324883e-06,9.085983e-06,1.1622906e-06,1.0,95,0.286,0,0,0.0,False,-0.2590439475643693,1.04478352768234
0.2837044009938836,11:16:50.002315,NaN,0,,0.12462552,-0.0004892349,0.024780184,0.8060883,0.40015244,-0.43600395,0.29402238,0.3685866,0.88187003,0.51358765,-0.8390602,0.17945954,,0.02357766,0.003096439,0.012327492,-0.40910128,-0.029267617,0.91201925,0.9092984,-0.09658268,0.4047814,0.076238275,0.9948946,0.066125095,,0.074783616,1.3022308,0.43178296,0.99612164,0.07738821,-0.041865073,0.02760977,-0.72670704,-0.6863924,-0.08354233,0.6825745,-0.7260253,,-0.10138945,0.2588711,-0.08961529,-0.84720343,-0.31138113,0.4304511,0.51853687,-0.3083365,0.79752624,-0.115610845,0.8988717,0.42268634,,-0.010059156,0.45625156,-0.30661812,0.3816048,-0.12036443,-0.9164552,0.71826047,0.66267574,0.21204424,0.58179003,-0.7391707,0.33933324,,1.1511660076976538,0.5501211535625087,0.20090291307000002,3.4504480200378485,-0.050828777912743844,-1.1103861332871399,-0.40934022973250384,,-0.16837874485671697,0.2959814601375286,0.19186388290000003,-3.2636142803931367,0.2949982029935859,1.1865396936553296,0.8702971843634398,,-0.030951232622554444,-0.025656340004316647,0.11367150912,-0.09289233806103908,,1.3500452e-05,4.1127205e-06,-1.7881393e-06,0.99999994,-9.670854e-06,-9.0785325e-06,9.655952e-06,1.0,-1.1324883e-06,9.085983e-06,1.1622906e-06,1.0,103,0.31,0,0,0.0,False,-0.2593418361569748,1.04478352768234
0.32814470189623535,11:16:50.033407,NaN,0,,0.12463124,-0.00050359964,0.024974406,0.8033785,0.40546018,-0.4361019,0.29053873,0.372373,0.88143384,0.5197789,-0.8348295,0.18135461,,0.023577057,0.0030917302,0.012326121,-0.40926152,-0.029345706,0.91194487,0.90923524,-0.09651354,0.40493983,0.07613179,0.994899,0.06618142,,0.074783616,1.3022308,0.43178296,0.99612164,0.07738821,-0.041865073,0.02760977,-0.72670704,-0.6863924,-0.08354233,0.6825745,-0.7260253,,-0.10141413,0.2589899,-0.089767724,-0.8451595,-0.3170125,0.43035868,0.5202322,-0.3029817,0.7984739,-0.12273537,0.8987242,0.42098793,,-0.010058295,0.45624748,-0.30662075,0.38178006,-0.120288774,-0.91639215,0.7181595,0.662735,0.21220107,0.5817997,-0.7391299,0.33940554,,1.1519305582522021,0.550576794802088,0.20069291409,3.442479802185436,-0.06271615339233716,-1.112862907946495,-0.40983026193090644,,-0.16836329939096853,0.2959582919389059,0.19186258661000002,-3.263823970336621,0.2949982029935859,1.1865396936553296,0.8702971843634398,,-0.030951232622554444,-0.025656340004316647,0.11367150912,-0.09289233806103908,,1.3500452e-05,4.1127205e-06,-1.7881393e-06,0.99999994,-9.670854e-06,-9.0785325e-06,9.655952e-06,1.0,-1.1324883e-06,9.085983e-06,1.1622906e-06,1.0,115,0.347,0,0,0.0,False,-0.25975888018662197,1.044735247481561
0.35925655509345233,11:16:50.058840,NaN,0,,0.12465438,-0.00047127903,0.025328755,0.7906642,0.42151847,-0.44404072,0.2891801,0.38215268,0.87768686,0.5396526,-0.8223634,0.18025962,,0.023575783,0.003088899,0.012327194,-0.40925923,-0.02934049,0.91194606,0.9092369,-0.0965043,0.40493855,0.07612562,0.99490005,0.06617272,,0.074783616,1.3022308,0.43178296,0.99612164,0.07738821,-0.041865073,0.02760977,-0.72670704,-0.6863924,-0.08354233,0.6825745,-0.7260253,,-0.10147089,0.25924942,-0.090005584,-0.83444726,-0.334044,0.4383062,0.5331779,-0.28824776,0.7953833,-0.13935225,0.8974006,0.41863245,,-0.010057172,0.45624653,-0.3066237,0.38177872,-0.1202942,-0.916392,0.7181558,0.66274136,0.21219374,0.5818052,-0.7391233,0.3394105,,1.1525947132793855,0.5509552087129249,0.20055032219000002,3.429898405576365,-0.07392034637310328,-1.1132830524398343,-0.4103202941293095,,-0.1683555766580943,0.29595056920603163,0.19185999403,-3.263823970336621,0.2949982029935859,1.1865396936553296,0.8702971843634398,,-0.030951232622554444,-0.025656340004316647,0.11367150912,-0.09289233806103908,,1.3500452e-05,4.1127205e-06,-1.7881393e-06,0.99999994,-9.670854e-06,-9.0785325e-06,9.655952e-06,1.0,-1.1324883e-06,9.085983e-06,1.1622906e-06,1.0,123,0.371,0,0,0.0,False,-0.25922268071993226,1.0446869672807815
0.3846922470256686,11:16:50.082814,NaN,0,,0.12462509,-0.00045920908,0.025548398,0.7876486,0.42602217,-0.44510067,0.2869941,0.38557172,0.87690866,0.54520077,-0.8184372,0.18142918,,0.0235769,0.0030864999,0.012326181,-0.40925404,-0.029195763,0.9119531,0.90924037,-0.09642431,0.40494972,0.076111674,0.994912,0.06600799,,0.074783616,1.3022308,0.43178296,0.99612164,0.07738821,-0.041865073,0.02760977,-0.72670704,-0.6863924,-0.08354233,0.6825745,-0.7260253,,-0.10146275,0.2594067,-0.090161934,-0.8320166,-0.33885154,0.4392358,0.5354228,-0.28332633,0.7956435,-0.14515795,0.8971654,0.41716105,,-0.010058083,0.456244,-0.30662465,0.38177565,-0.12044004,-0.91637415,0.71814734,0.6627867,0.21208052,0.5818176,-0.7390588,0.33952954,,1.1533283729024366,0.5513413453566361,0.20040643400000002,3.4261239865936433,-0.07952244286348634,-1.1140240364974174,-0.41113701445998085,,-0.1683555766580943,0.2959351237402832,0.19185999403,-3.263823970336621,0.2949982029935859,1.1863763361750483,0.8699704962311713,,-0.030951232622554444,-0.025656340004316647,0.11367150912,-0.09289233806103908,,1.3500452e-05,4.1127205e-06,-1.7881393e-06,0.99999994,-9.670854e-06,-9.0785325e-06,9.655952e-06,1.0,-1.1324883e-06,9.085983e-06,1.1622906e-06,1.0,131,0.396,0,0,0.0,False,-0.2590439475643693,1.0444938464776636
0.4086550180800259,11:16:50.109385,NaN,0,,0.124569625,-0.00039327145,0.02585271,0.7809485,0.43269405,-0.4504388,0.28995362,0.38760066,0.8750386,0.5532144,-0.8139666,0.17723495,,0.0235833,0.0030796453,0.0123256445,-0.40957257,-0.029172592,0.9118108,0.9091151,-0.096200764,0.40528393,0.0758937,0.9949343,0.065922424,,0.074783616,1.3022308,0.43178296,0.99612164,0.07738821,-0.041865073,0.02760977,-0.72670704,-0.6863924,-0.08354233,0.6825745,-0.7260253,,-0.10143592,0.25966188,-0.090346806,-0.82607615,-0.3458913,0.44492406,0.54332936,-0.27918792,0.7917369,-0.14963748,0.89577526,0.4185634,,-0.010064245,0.4562382,-0.30662873,0.38212502,-0.12046909,-0.91622466,0.7179423,0.6629511,0.21226083,0.5818413,-0.7389066,0.3398201,,1.1544790601006962,0.5521290641098071,0.2002379163,3.4154297994759326,-0.08334826485691868,-1.1116394438551827,-0.4096669178647723,,-0.16837102212384275,0.29588878734303786,0.19185869774000003,-3.2642433502235906,0.2949982029935859,1.1861312999546267,0.8701338402973057,,-0.030951232622554444,-0.025656340004316647,0.11367150912,-0.09289233806103908,,1.3500452e-05,4.1127205e-06,-1.7881393e-06,0.99999994,-9.670854e-06,-9.0785325e-06,9.655952e-06,1.0,-1.1324883e-06,9.085983e-06,1.1622906e-06,1.0,142,0.43,0,0,0.0,False,-0.2590439475643693,1.044735247481561
0.4352365320082754,11:16:50.141081,NaN,0,,0.12450731,-0.00031796098,0.026153892,0.7726443,0.44119847,-0.45646954,0.29365966,0.3890921,0.8731388,0.5628362,-0.80867255,0.1710676,,0.023587413,0.0030767098,0.012325048,-0.40956417,-0.029193647,0.91181386,0.9091208,-0.09618467,0.405275,0.07587102,0.99493533,0.065934286,,0.074783616,1.3022308,0.43178296,0.99612164,0.07738821,-0.041865073,0.02760977,-0.72670704,-0.6863924,-0.08354233,0.6825745,-0.7260253,,-0.101401806,0.25992233,-0.09052366,-0.81868297,-0.35484284,0.4514917,0.55294967,-0.27499565,0.78652656,-0.15493506,0.8935681,0.4213445,,-0.010068192,0.45623535,-0.30663016,0.38212004,-0.12044862,-0.9162294,0.71792865,0.6629652,0.21226309,0.58186144,-0.7388974,0.3398058,,1.1556838064290753,0.5528704464657327,0.20007847263000003,3.402429022979892,-0.08799390584894365,-1.107769556389364,-0.4095035737986381,,-0.16838646758959122,0.29586561914441517,0.19185869774000003,-3.2642433502235906,0.2949982029935859,1.1861312999546267,0.8701338402973057,,-0.030951232622554444,-0.025656340004316647,0.11367150912,-0.09289233806103908,,1.3500452e-05,4.1127205e-06,-1.7881393e-06,0.99999994,-9.670854e-06,-9.0785325e-06,9.655952e-06,1.0,-1.1324883e-06,9.085983e-06,1.1622906e-06,1.0,150,0.453,0,0,0.0,False,-0.2602950796533112,1.0445904068792222
0.46692961803637445,11:16:50.166604,NaN,0,,0.12437786,-0.00025698543,0.02641806,0.7720516,0.44256803,-0.45614657,0.2925439,0.3896981,0.873243,0.56422895,-0.8076316,0.1713964,,0.023588262,0.0030735955,0.012324691,-0.40960678,-0.029324219,0.9117906,0.90909314,-0.096357316,0.4052961,0.075972706,0.99491477,0.06612706,,0.074783616,1.3022308,0.43178296,0.99612164,0.07738821,-0.041865073,0.02760977,-0.72670704,-0.6863924,-0.08354233,0.6825745,-0.7260253,,-0.10129755,0.26015097,-0.090688325,-0.8182451,-0.35629684,0.45114017,0.55308366,-0.27392322,0.7868065,-0.15675892,0.8933189,0.4211983,,-0.01006894,0.45623285,-0.30663213,0.38214716,-0.120314315,-0.9162358,0.7179891,0.6628493,0.21242046,0.58176905,-0.73902315,0.33969036,,1.1571279574765552,0.5534110377669283,0.19992162154,3.401170883318985,-0.08977018034589437,-1.1064028023814507,-0.4096669178647723,,-0.16838646758959122,0.29584245094579253,0.19185740145000002,-3.2642433502235906,0.29486156649382045,1.1863243965984638,0.8699704962311714,,-0.030951232622554444,-0.025656340004316647,0.11367150912,-0.09289233806103908,,1.3500452e-05,4.1127205e-06,-1.7881393e-06,0.99999994,-9.670854e-06,-9.0785325e-06,9.655952e-06,1.0,-1.1324883e-06,9.085983e-06,1.1622906e-06,1.0,158,0.478,0,0,0.0,False,-0.2588652144088064,1.044976648485458
0.492450931109488,11:16:50.193226,NaN,0,,0.12427749,-0.00021204352,0.02658555,0.76782393,0.44626632,-0.45966578,0.29482037,0.390877,0.87194955,0.56879455,-0.8050227,0.16855627,,0.023591869,0.0030645356,0.012322068,-0.4095886,-0.029339127,0.91179824,0.9091054,-0.09630886,0.40528002,0.07592368,0.99491906,0.06611936,,0.074783616,1.3022308,0.43178296,0.99612164,0.07738821,-0.041865073,0.02760977,-0.72670704,-0.6863924,-0.08354233,0.6825745,-0.7260253,,-0.101213135,0.26030156,-0.09079003,-0.814443,-0.36021087,0.45489645,0.5580482,-0.27150157,0.7841359,-0.15894917,0.8924881,0.42213756,,-0.010071984,0.45622438,-0.30663672,0.38213643,-0.12030084,-0.916242,0.7179595,0.6628869,0.2124031,0.58181256,-0.7389917,0.33968437,,1.158085576352959,0.5536349970202809,0.19982958495000003,3.394251115183996,-0.09168309134261053,-1.104842951729701,-0.4096669178647723,,-0.16838646758959122,0.29578839181567296,0.19185610516,-3.2642433502235906,0.29486156649382045,1.1863243965984638,0.8702971843634398,,-0.030951232622554444,-0.025656340004316647,0.11367150912,-0.09289233806103908,,1.3500452e-05,4.1127205e-06,-1.7881393e-06,0.99999994,-9.670854e-06,-9.0785325e-06,9.655952e-06,1.0,-1.1324883e-06,9.085983e-06,1.1622906e-06,1.0,166,0.502,0,0,0.0,False,-0.2585077480976805,1.0449283682846786
0.519074555952102,11:16:50.220535,NaN,0,,0.12410678,-0.0001334399,0.026776135,0.76316065,0.45034623,-0.4634369,0.29712412,0.3923156,0.87052035,0.57384914,-0.80204535,0.16559115,,0.023597501,0.003053464,0.01231879,-0.40989992,-0.029531062,0.91165215,0.9089849,-0.09615919,0.40558577,0.075686395,0.9949278,0.06625891,,0.074783616,1.3022308,0.43178296,0.99612164,0.07738821,-0.041865073,0.02760977,-0.72670704,-0.6863924,-0.08354233,0.6825745,-0.7260253,,-0.101060405,0.2604963,-0.090891995,-0.81025416,-0.36453614,0.45891345,0.5633828,-0.26866135,0.7812944,-0.16151774,0.891591,0.42305738,,-0.010076931,0.45621386,-0.3066422,0.38248155,-0.1201143,-0.9161225,0.7177427,0.66301733,0.21272859,0.58185333,-0.73890495,0.33980304,,1.15956834106481,0.5537894516777654,0.19973495578000003,3.386492587275068,-0.09427918483815391,-1.1028076902996096,-0.4101569500631752,,-0.16838646758959122,0.29571888721980494,0.19185480887000003,-3.2646627301105595,0.29486156649382045,1.1863243965984638,0.8699704962311714,,-0.030951232622554444,-0.025656340004316647,0.11367150912,-0.09289233806103908,,1.3500452e-05,4.1127205e-06,-1.7881393e-06,0.99999994,-9.670854e-06,-9.0785325e-06,9.655952e-06,1.0,-1.1324883e-06,9.085983e-06,1.1622906e-06,1.0,174,0.527,0,0,0.0,False,-0.25922268071993226,1.0445904068792222
0.5463771929498762,11:16:50.244635,NaN,0,,0.123993635,-8.004904e-05,0.02689454,0.7607971,0.45389417,-0.4638616,0.29617757,0.39314476,0.87046885,0.57746553,-0.79963565,0.16467014,,0.023603283,0.0030468926,0.012316704,-0.40988368,-0.029558502,0.9116585,0.90899587,-0.096122354,0.40557,0.075642705,0.9949305,0.06626752,,0.074783616,1.3022308,0.43178296,0.99612164,0.07738821,-0.041865073,0.02760977,-0.72670704,-0.6863924,-0.08354233,0.6825745,-0.7260253,,-0.10095841,0.26062104,-0.09095284,-0.80826616,-0.36828676,0.4594243,0.5652222,-0.26662445,0.7806634,-0.16501422,0.8906606,0.42366737,,-0.010082244,0.45620722,-0.3066451,0.38247195,-0.12008804,-0.91612995,0.71771634,0.6630475,0.21272342,0.58189213,-0.7388822,0.33978623,,1.1605722963384593,0.5537817289448912,0.19968051160000003,3.383137548179316,-0.0979683703318208,-1.1011879454821958,-0.4090135416002352,,-0.16840191305533966,0.29567255082255955,0.19185480887000003,-3.2646627301105595,0.29486156649382045,1.1863243965984638,0.8699704962311714,,-0.030951232622554444,-0.025656340004316647,0.11367150912,-0.09289233806103908,,1.3500452e-05,4.1127205e-06,-1.7881393e-06,0.99999994,-9.670854e-06,-9.0785325e-06,9.655952e-06,1.0,-1.1324883e-06,9.085983e-06,1.1622906e-06,1.0,185,0.561,0,0,0.0,False,-0.2599376133421849,1.0442041652729868
0.5704840989783406,11:16:50.274795,NaN,0,,0.123812586,7.7188015e-06,0.027091712,0.75376666,0.46027002,-0.4690279,0.29685238,0.39827392,0.86790353,0.58627164,-0.79342884,0.16357338,,0.02361577,0.0030375645,0.012316465,-0.4100257,-0.029484719,0.9115971,0.9089447,-0.09593099,0.4057299,0.07548761,0.99495125,0.066134155,,0.074783616,1.3022308,0.43178296,0.99612164,0.07738821,-0.041865073,0.02760977,-0.72670704,-0.6863924,-0.08354233,0.6825745,-0.7260253,,-0.100795895,0.26082754,-0.09105438,-0.8021095,-0.37515086,0.46463132,0.57198024,-0.25900954,0.7783012,-0.17163642,0.8900426,0.42233288,,-0.010094438,0.45619926,-0.30665067,0.38263643,-0.12016646,-0.916051,0.7175859,0.66318285,0.21274161,0.5819449,-0.73874795,0.33998767,,1.1627732752076132,0.5537353925476458,0.19956254921000002,3.3703464616267595,-0.10712301581610531,-1.1014824262478888,-0.4090135416002352,,-0.168448249452585,0.29560304622669153,0.19185351258000002,-3.264872420054044,0.29486156649382045,1.186079360378042,0.8701338402973054,,-0.030951232622554444,-0.025656340004316647,0.11367150912,-0.09289233806103908,,1.3500452e-05,4.1127205e-06,-1.7881393e-06,0.99999994,-9.670854e-06,-9.0785325e-06,9.655952e-06,1.0,-1.1324883e-06,9.085983e-06,1.1622906e-06,1.0,193,0.584,0,0,0.0,False,-0.2599376133421849,1.0442041652729868
0.600647937040776,11:16:50.303484,NaN,0,,0.1236146,0.00012974441,0.027250752,0.7481173,0.46659827,-0.47181198,0.29555902,0.4022908,0.8664912,0.5941089,-0.78768533,0.16305336,,0.023791961,0.003080435,0.012329817,-0.41036415,-0.029463425,0.91144556,0.9087976,-0.09587267,0.40607285,0.07541841,0.99495745,0.066118985,,0.074814595,1.3022337,0.43178135,0.99612284,0.077357545,-0.04189404,0.02756773,-0.7267103,-0.6863907,-0.08354233,0.6825745,-0.7260253,,-0.100638,0.26103842,-0.091102235,-0.79725206,-0.38192242,0.46746597,0.57658076,-0.2525123,0.77704066,-0.17872834,0.88902915,0.42152506,,-0.010297073,0.45621678,-0.30661082,0.38302195,-0.12019012,-0.91588676,0.7174672,0.6632253,0.21300948,0.5818376,-0.738706,0.3402623,,1.1637000031525202,0.5536890561504004,0.19952236422000003,3.3651042130396474,-0.1121785663074266,-1.1008721496371656,-0.4096669178647724,,-0.16848686311695613,0.2955335416308235,0.19185092,-3.265082109997529,0.29472492999405503,1.1860274208014574,0.8698071521650369,,-0.030951232622554444,-0.025656340004316647,0.11367150912,-0.09289233806103908,,4.4584274e-05,3.33786e-06,-3.8146973e-06,1.0,-4.030764e-05,-3.7889928e-05,4.029274e-05,1.0,-4.6491623e-06,3.7889928e-05,4.6789646e-06,1.0,201,0.609,0,0,0.0,False,-0.2588652144088064,1.0443007256745458
0.6293297139927745,11:16:50.329732,NaN,0,,0.123448655,0.00021018088,0.027398244,0.7417745,0.47241917,-0.4760154,0.29527414,0.40722948,0.86427844,0.60214925,-0.7816548,0.16257927,,0.023784846,0.0030714646,0.012339473,-0.41055652,-0.029499285,0.91135776,0.90867203,-0.09641302,0.40622598,0.07588336,0.9949042,0.066388175,,0.074814595,1.3022337,0.43178135,0.99612284,0.077357545,-0.04189404,0.02756773,-0.7267103,-0.6863907,-0.08354233,0.6825745,-0.7260253,,-0.10048584,0.26120546,-0.0911708,-0.7917209,-0.38822,0.47166008,0.5820782,-0.24512681,0.775305,-0.18537235,0.8883682,0.42004645,,-0.010291391,0.45621863,-0.30662456,0.3831433,-0.12013997,-0.91584253,0.717744,0.66282606,0.21331932,0.58141613,-0.7390724,0.34018713,,1.1651055405356292,0.5535191560271675,0.19946532746,3.3562972354132965,-0.11914702779546407,-1.1013157420591901,-0.4095035737986381,,-0.16846369491833346,0.29550265069932663,0.19183536452000002,-3.265082109997529,0.2941783839949933,1.186309734935962,0.8698071521650369,,-0.030951232622554444,-0.025656340004316647,0.11367150912,-0.09289233806103908,,4.4584274e-05,3.33786e-06,-3.8146973e-06,1.0,-4.030764e-05,-3.7889928e-05,4.029274e-05,1.0,-4.6491623e-06,3.7889928e-05,4.6789646e-06,1.0,209,0.633,0,0,0.0,False,-0.259580147031059,1.044638687080002
0.6555528889875859,11:16:50.355146,NaN,0,,0.12334414,0.00026375055,0.027485177,0.7384538,0.4766406,-0.47696924,0.29370147,0.40937018,0.8638029,0.6069805,-0.77796507,0.1623109,,0.02377171,0.0030592903,0.0123487115,-0.41055644,-0.029517137,0.91135716,0.90867215,-0.096420586,0.406224,0.07588294,0.99490297,0.06640746,,0.074814595,1.3022337,0.43178135,0.99612284,0.077357545,-0.04189404,0.02756773,-0.7267103,-0.6863907,-0.08354233,0.6825745,-0.7260253,,-0.10038938,0.26130885,-0.09120764,-0.78890765,-0.39274383,0.47262776,0.5843154,-0.241297,0.77482337,-0.19026342,0.88742775,0.41984734,,-0.010279653,0.45621872,-0.30664095,0.38314328,-0.120122045,-0.9158449,0.71774375,0.6628222,0.21333213,0.5814165,-0.73907876,0.34017274,,1.1660013775490392,0.553364701369683,0.19943680908000003,3.352103436543606,-0.1243392147865508,-1.1005940475447704,-0.41064698226157803,,-0.16840191305533966,0.29549492796645244,0.19181851275000003,-3.265082109997529,0.2941783839949933,1.1863914136761022,0.8696438080989025,,-0.030951232622554444,-0.025656340004316647,0.11367150912,-0.09289233806103908,,4.4584274e-05,3.33786e-06,-3.8146973e-06,1.0,-4.030764e-05,-3.7889928e-05,4.029274e-05,1.0,-4.6491623e-06,3.7889928e-05,4.6789646e-06,1.0,217,0.658,0,0,0.0,False,-0.259580147031059,1.0444938464776636
0.6809968799352646,11:16:50.380145,NaN,0,,0.12319145,0.00033447146,0.027590021,0.7295872,0.48298204,-0.48418054,0.29592836,0.41530892,0.8602005,0.61654586,-0.770874,0.1600759,,0.023758307,0.0030512437,0.012352526,-0.41055927,-0.02937664,0.9113605,0.9086702,-0.096366376,0.40624115,0.07589045,0.9949124,0.066257805,,0.074814595,1.3022337,0.43178135,0.99612284,0.077357545,-0.04189404,0.02756773,-0.7267103,-0.6863907,-0.08354233,0.6825745,-0.7260253,,-0.10024643,0.2614395,-0.09125015,-0.7809725,-0.3996461,0.47996348,0.59282994,-0.23248845,0.7710394,-0.19655694,0.8866973,0.41848928,,-0.01026689,0.45621768,-0.30665073,0.38314497,-0.120263,-0.9158257,0.7177482,0.66284883,0.21323429,0.5814098,-0.739032,0.34028575,,1.1671752329459213,0.5530866829862109,0.19940440183000002,3.339522039934535,-0.13089776677529194,-1.1013718936778842,-0.41048363819544353,,-0.16833240845947164,0.29549492796645244,0.19180814243000002,-3.265082109997529,0.2941783839949933,1.186309734935962,0.8698071521650369,,-0.030951232622554444,-0.025656340004316647,0.11367150912,-0.09289233806103908,,4.4584274e-05,3.33786e-06,-3.8146973e-06,1.0,-4.030764e-05,-3.7889928e-05,4.029274e-05,1.0,-4.6491623e-06,3.7889928e-05,4.6789646e-06,1.0,232,0.704,0,0,0.0,False,-0.26017592421626956,1.0440593246706484
0.7059819321148098,11:16:50.411717,NaN,0,,0.12301661,0.00040341914,0.027710691,0.72159684,0.49286813,-0.48618817,0.2933886,0.41838574,0.8595792,0.6270734,-0.7629118,0.15730387,,0.023752585,0.0030432865,0.012357116,-0.41105753,-0.029677607,0.9111261,0.90846753,-0.096242964,0.40672332,0.07561886,0.99491537,0.06652251,,0.074814595,1.3022337,0.43178135,0.99612284,0.077357545,-0.04189404,0.02756773,-0.7267103,-0.6863907,-0.08354233,0.6825745,-0.7260253,,-0.10008299,0.26158056,-0.091307335,-0.7740775,-0.4102053,0.4822195,0.5984033,-0.2254099,0.7688328,-0.20668225,0.8836979,0.41995293,,-0.010261826,0.4562163,-0.30666018,0.38368103,-0.119967505,-0.91564,0.71747345,0.66297036,0.2137806,0.58139545,-0.738971,0.34044266,,1.1686271067262755,0.5525538144178894,0.19936032797000003,3.3288278528168243,-0.14196532325629263,-1.098309591508735,-0.41130035852611524,,-0.1682937947951005,0.29547948250070394,0.19179906840000002,-3.2657111798279823,0.2941783839949933,1.1863914136761025,0.8699704962311713,,-0.030951232622554444,-0.025656340004316647,0.11367150912,-0.09289233806103908,,4.4584274e-05,3.33786e-06,-3.8146973e-06,1.0,-4.030764e-05,-3.7889928e-05,4.029274e-05,1.0,-4.6491623e-06,3.7889928e-05,4.6789646e-06,1.0,240,0.728,0,0,0.0,False,-0.2603546573718325,1.0450249286862374
0.7375695889350027,11:16:50.441157,NaN,0,,0.12282819,0.0004734844,0.02784215,0.7090409,0.50503314,-0.49214083,0.2906955,0.42651,0.8564959,0.6424618,-0.7503537,0.15560207,,0.023754768,0.00303597,0.012356639,-0.41104457,-0.029688247,0.9111317,0.90847635,-0.096208364,0.40671188,0.075583905,0.99491835,0.06651698,,0.074814595,1.3022337,0.43178135,0.99612284,0.077357545,-0.04189404,0.02756773,-0.7267103,-0.6863907,-0.08354233,0.6825745,-0.7260253,,-0.09990708,0.26173037,-0.091372855,-0.76311076,-0.4233968,0.48825926,0.607353,-0.21163581,0.7657236,-0.22087178,0.8808776,0.4186529,,-0.010263816,0.45621076,-0.30666503,0.38367337,-0.119957864,-0.9156445,0.71745235,0.6629972,0.21376817,0.58142656,-0.73894846,0.34043843,,1.1700326441093842,0.5518742139249577,0.19931884669000002,3.313939866829423,-0.15726861123002195,-1.0979192398355395,-0.40917688566636956,,-0.1682937947951005,0.29544086883633286,0.19179647582,-3.2657111798279823,0.2941783839949933,1.1863914136761025,0.8699704962311713,,-0.030951232622554444,-0.025656340004316647,0.11367150912,-0.09289233806103908,,4.4584274e-05,3.33786e-06,-3.8146973e-06,1.0,-4.030764e-05,-3.7889928e-05,4.029274e-05,1.0,-4.6491623e-06,3.7889928e-05,4.6789646e-06,1.0,248,0.752,0,0,0.0,False,-0.26005676877922745,1.044107604871428
0.76700458698906,11:16:50.471681,NaN,0,,0.12262764,0.0005455911,0.027993307,0.69648147,0.516817,-0.49780893,0.28542662,0.4369665,0.85299003,0.65836555,-0.7361796,0.15682572,,0.023766585,0.003027968,0.012358546,-0.41302884,-0.030756481,0.91019833,0.90766734,-0.09563503,0.40864876,0.07447827,0.99494123,0.06741668,,0.074814595,1.3022337,0.43178135,0.99612284,0.077357545,-0.04189404,0.02756773,-0.7267103,-0.6863907,-0.08354233,0.6825745,-0.7260253,,-0.09972095,0.26189554,-0.09145254,-0.75223106,-0.43632832,0.49372667,0.61473566,-0.19503087,0.7642402,-0.23716769,0.8783966,0.41493484,,-0.010275682,0.45620534,-0.30667108,0.38581187,-0.11891251,-0.91488194,0.71633905,0.66352874,0.21584232,0.5813841,-0.73864025,0.34117895,,1.1715462997527324,0.5511096633704095,0.19926958767000003,3.3001003305594443,-0.17407490070117113,-1.0998971557878674,-0.41064698226157814,,-0.16830924026084895,0.29537908697333903,0.19179388324000002,-3.268227459149797,0.2941783839949933,1.1863914136761025,0.8699704962311713,,-0.030951232622554444,-0.025656340004316647,0.11367150912,-0.09289233806103908,,4.4584274e-05,3.33786e-06,-3.8146973e-06,1.0,-4.030764e-05,-3.7889928e-05,4.029274e-05,1.0,-4.6491623e-06,3.7889928e-05,4.6789646e-06,1.0,256,0.777,0,0,0.0,False,-0.26041423509035333,1.0444938464776636
0.7975322289858013,11:16:50.495696,NaN,0,,0.12249424,0.00058956444,0.028116092,0.6869314,0.52805114,-0.49928677,0.27985704,0.44183722,0.85232615,0.6706752,-0.72521853,0.15573302,,0.023776516,0.003026031,0.012360096,-0.41404608,-0.031361677,0.9097154,0.9072038,-0.09598991,0.40959385,0.07447788,0.9948881,0.0681957,,0.074814595,1.3022337,0.43178135,0.99612284,0.077357545,-0.04189404,0.02756773,-0.7267103,-0.6863907,-0.08354233,0.6825745,-0.7260253,,-0.099599354,0.2620173,-0.091524616,-0.74400383,-0.44849047,0.49529248,0.61933404,-0.18468893,0.7630959,-0.2507662,0.8744978,0.41517466,,-0.010285723,0.456204,-0.3066727,0.3868231,-0.11830193,-0.9145341,0.71614784,0.6633231,0.21710522,0.58094764,-0.7389229,0.34131038,,1.1726274823551237,0.5505150129390942,0.19922421752000002,3.290035213272187,-0.18855836967630782,-1.0976432705924923,-0.4101569500631752,,-0.1683478539252201,0.29532502784321946,0.19179258695,-3.2692759088672196,0.2936318379959315,1.1867554065507475,0.8701338402973056,,-0.030951232622554444,-0.025656340004316647,0.11367150912,-0.09289233806103908,,4.4584274e-05,3.33786e-06,-3.8146973e-06,1.0,-4.030764e-05,-3.7889928e-05,4.029274e-05,1.0,-4.6491623e-06,3.7889928e-05,4.6789646e-06,1.0,279,0.847,0,0,0.0,False,-0.26106958999408425,1.0444938464776636
0.8215336280409247,11:16:50.561106,NaN,0,,0.12184565,0.0007584989,0.02850394,0.64562076,0.56123674,-0.51786786,0.2741794,0.46256834,0.8431228,0.71274084,-0.6863263,0.1447641,,0.023786545,0.003014885,0.012356877,-0.4145239,-0.031036183,0.909509,0.9069316,-0.09660086,0.41005284,0.07513282,0.9948392,0.06819102,,0.074814595,1.3022337,0.43178135,0.99612284,0.077357545,-0.04189404,0.02756773,-0.7267103,-0.6863907,-0.08354233,0.6825745,-0.7260253,,-0.098988675,0.26243624,-0.09175088,-0.70704454,-0.4849466,0.51469874,0.64541984,-0.14507966,0.7499234,-0.2890005,0.86242604,0.41557193,,-0.010295006,0.4561929,-0.3066778,0.38719967,-0.118608736,-0.91433495,0.7164982,0.66283613,0.21743639,0.5802644,-0.7393106,0.34163287,,1.1768749854359473,0.5481827476110783,0.19908032933000003,3.240967766496808,-0.22968595610570539,-1.0912238233065361,-0.4114637025922494,,-0.16837874485671697,0.29520146411723186,0.19178999437000002,-3.269485598810704,0.29267538249757347,1.1866368657350763,0.8699704962311711,,-0.030951232622554444,-0.025656340004316647,0.11367150912,-0.09289233806103908,,4.4584274e-05,3.33786e-06,-3.8146973e-06,1.0,-4.030764e-05,-3.7889928e-05,4.029274e-05,1.0,-4.6491623e-06,3.7889928e-05,4.6789646e-06,1.0,287,0.871,0,0,0.0,False,-0.26017592421626956,1.0445904068792222
0.8869488590862602,11:16:50.587341,NaN,0,,0.12167616,0.0008096546,0.028654113,0.6339752,0.5703871,-0.5222393,0.26747087,0.47189793,0.8401022,0.72562706,-0.6722878,0.14660963,,0.02378241,0.0030172244,0.0123564005,-0.41479844,-0.032209545,0.90934294,0.9067095,-0.09842116,0.41011107,0.07628906,0.9946234,0.07002963,,0.074814595,1.3022337,0.43178135,0.99612284,0.077357545,-0.04189404,0.02756773,-0.7267103,-0.6863907,-0.08354233,0.6825745,-0.7260253,,-0.09883371,0.26258355,-0.09184134,-0.6968056,-0.49526194,0.51882327,0.6496694,-0.12926188,0.7491469,-0.30395985,0.85907334,0.41182694,,-0.010290882,0.45619467,-0.30667618,0.38729888,-0.117393926,-0.9144497,0.717223,0.66159105,0.21883424,0.57930195,-0.7406186,0.34043112,,1.1788056686545034,0.5471479014059323,0.19899607048,3.222724741413655,-0.2552369815618427,-1.0921968989328357,-0.407706789071161,,-0.16837102212384275,0.2951628504528608,0.19178740179,-3.2692759088672196,0.2914456539996845,1.1885380930098903,0.8701338402973056,,-0.030951232622554444,-0.025656340004316647,0.11367150912,-0.09289233806103908,,4.4584274e-05,3.33786e-06,-3.8146973e-06,1.0,-4.030764e-05,-3.7889928e-05,4.029274e-05,1.0,-4.6491623e-06,3.7889928e-05,4.6789646e-06,1.0,295,0.896,0,0,0.0,False,-0.259580147031059,1.04391448406831
0.9131554260384291,11:16:50.612232,NaN,0,,0.12140879,0.0008724481,0.028906181,0.6131737,0.5865025,-0.52918124,0.2583949,0.48412627,0.8359748,0.7464918,-0.6493355,0.14530414,,0.023786068,0.003010951,0.012355804,-0.41473734,-0.032176703,0.90937203,0.9067502,-0.09823513,0.41006577,0.07613769,0.9946429,0.06991799,,0.074814595,1.3022337,0.43178135,0.99612284,0.077357545,-0.04189404,0.02756773,-0.7267103,-0.6863907,-0.08354233,0.6825745,-0.7260253,,-0.09859098,0.26281276,-0.092007205,-0.6782626,-0.5133242,0.52579284,0.657979,-0.10570679,0.7455801,-0.3271444,0.8516598,0.4094535,,-0.010294331,0.45618957,-0.30668005,0.38726088,-0.11743163,-0.91446096,0.7171329,0.66172683,0.21871887,0.57943887,-0.74049133,0.34047502,,1.179994969517134,0.5464528554472521,0.19892736711000003,3.207627065482769,-0.270813542535103,-1.091175317751544,-0.4114637025922494,,-0.16837874485671697,0.29513195952136384,0.19178610550000003,-3.2692759088672196,0.2915822904994499,1.1884266751061938,0.8698071521650369,,-0.030951232622554444,-0.025656340004316647,0.11367150912,-0.09289233806103908,,4.4584274e-05,3.33786e-06,-3.8146973e-06,1.0,-4.030764e-05,-3.7889928e-05,4.029274e-05,1.0,-4.6491623e-06,3.7889928e-05,4.6789646e-06,1.0,307,0.932,0,0,0.0,False,-0.26005676877922745,1.044011044469869
0.9380795711185783,11:16:50.643312,NaN,0,,0.12109867,0.000907585,0.029110357,0.5967464,0.59727484,-0.53586984,0.25226596,0.49431008,0.831877,0.7617451,-0.63160133,0.14430562,,0.023792006,0.0030074045,0.012358546,-0.4147283,-0.03221246,0.90937483,0.90675634,-0.098223716,0.4100548,0.076113254,0.99464285,0.06994501,,0.074814595,1.3022337,0.43178135,0.99612284,0.077357545,-0.04189404,0.02756773,-0.7267103,-0.6863907,-0.08354233,0.6825745,-0.7260253,,-0.098301515,0.26299176,-0.09215979,-0.6634843,-0.5255973,0.53248113,0.66449416,-0.08687182,0.7422269,-0.3438548,0.8462865,0.4068944,,-0.01030057,0.45618844,-0.30668396,0.38725558,-0.11739642,-0.9144677,0.7171182,0.6617388,0.2187308,0.57946056,-0.7404862,0.34044915,,1.1818638708726963,0.545348504646238,0.19882366391000003,3.190013110230069,-0.28925947000343744,-1.0904276802771253,-0.4106469822615779,,-0.16840963578821389,0.2951087913227412,0.19178351292,-3.2692759088672196,0.2915822904994499,1.1884266751061938,0.8698071521650369,,-0.030951232622554444,-0.025656340004316647,0.11367150912,-0.09289233806103908,,4.4584274e-05,3.33786e-06,-3.8146973e-06,1.0,-4.030764e-05,-3.7889928e-05,4.029274e-05,1.0,-4.6491623e-06,3.7889928e-05,4.6789646e-06,1.0,315,0.957,0,0,0.0,False,-0.2607717014014801,1.043721363265192
0.9691641149111092,11:16:50.672193,NaN,0,,0.12076842,0.00090903044,0.029289827,0.5822334,0.6066375,-0.54129016,0.25100118,0.49913198,0.82937664,0.7733062,-0.61875534,0.13834456,,0.023797132,0.0030068532,0.012361288,-0.4147245,-0.03202112,0.90938336,0.906759,-0.09812564,0.4100725,0.07610279,0.99465877,0.069730505,,0.074814595,1.3022337,0.43178135,0.99612284,0.077357545,-0.04189404,0.02756773,-0.7267103,-0.6863907,-0.08354233,0.6825745,-0.7260253,,-0.09799016,0.26313025,-0.092318386,-0.6501778,-0.5360797,0.53841186,0.6720506,-0.075207375,0.7366762,-0.35442466,0.84081054,0.40917087,,-0.010306042,0.45618942,-0.3066857,0.38725334,-0.11758915,-0.9144439,0.71711195,0.66179365,0.21858557,0.57946986,-0.74040663,0.3406064,,1.1836323767008936,0.5443136584410919,0.19869662749000003,3.172818534864338,-0.3011468454830307,-1.0850632958829864,-0.4101569500631752,,-0.16844052671971077,0.29510106858986695,0.19178221663000003,-3.2692759088672196,0.2915822904994499,1.1881816388857722,0.8696438080989026,,-0.030951232622554444,-0.025656340004316647,0.11367150912,-0.09289233806103908,,4.4584274e-05,3.33786e-06,-3.8146973e-06,1.0,-4.030764e-05,-3.7889928e-05,4.029274e-05,1.0,-4.6491623e-06,3.7889928e-05,4.6789646e-06,1.0,326,0.991,0,0,0.0,False,-0.26005676877922745,1.043817923666751
0.9979814279358834,11:16:50.706593,NaN,0,,0.120434925,0.0009049773,0.029488757,0.5668781,0.6156643,-0.54736334,0.25121963,0.50359344,0.8266089,0.78456223,-0.6060949,0.1308091,,0.023797892,0.0030069724,0.012361586,-0.41455716,-0.03179399,0.90946764,0.9068282,-0.09810427,0.40992445,0.07618952,0.9946681,0.06950152,,0.074814595,1.3022337,0.43178135,0.99612284,0.077357545,-0.04189404,0.02756773,-0.7267103,-0.6863907,-0.08354233,0.6825745,-0.7260253,,-0.09767755,0.26327786,-0.09249528,-0.63598,-0.54621583,0.5451401,0.6805486,-0.06391651,0.7299098,-0.3638448,0.83520234,0.41237605,,-0.010306843,0.45618966,-0.30668572,0.38707396,-0.11781534,-0.91449076,0.71720177,0.6617877,0.2183088,0.57947856,-0.740376,0.34065813,,1.1854008825290911,0.5433792077633107,0.19855014672000001,3.154156129894216,-0.31166785596496965,-1.0787711220222977,-0.408850197534101,,-0.168448249452585,0.29510106858986695,0.19178221663000003,-3.2690662189237343,0.2915822904994499,1.188018281405491,0.8689904318343654,,-0.030951232622554444,-0.025656340004316647,0.11367150912,-0.09289233806103908,,4.4584274e-05,3.33786e-06,-3.8146973e-06,1.0,-4.030764e-05,-3.7889928e-05,4.029274e-05,1.0,-4.6491623e-06,3.7889928e-05,4.6789646e-06,1.0,347,1.055,0,0,0.0,False,-0.25952056931253775,1.0434799622612947
1.032442197902128,11:16:50.770565,NaN,0,,0.11979979,0.0009675026,0.030050322,0.5280571,0.6341322,-0.5648292,0.23965514,0.52680826,0.81549895,0.8146908,-0.56599414,0.12621176,,0.023801751,0.0030002221,0.012361884,-0.4147109,-0.031972192,0.9093913,0.9067683,-0.09806216,0.4100671,0.07606611,0.9946666,0.06965883,,0.074814595,1.3022337,0.43178135,0.99612284,0.077357545,-0.04189404,0.02756773,-0.7267103,-0.6863907,-0.08354233,0.6825745,-0.7260253,,-0.09709873,0.26373318,-0.092919886,-0.6004382,-0.5681025,0.5627909,0.69415766,-0.020875258,0.7195203,-0.39701283,0.82269305,0.40688697,,-0.010310611,0.45618483,-0.30669054,0.38724536,-0.117639475,-0.9144408,0.7170899,0.6618363,0.21852878,0.5795025,-0.7403605,0.3406511,,1.1892313580347065,0.5416415928666102,0.19824940744000003,3.11221814119731,-0.34801316490257683,-1.0766596950664193,-0.4093402297325037,,-0.16845597218545924,0.2950624549254958,0.19177962405,-3.2692759088672196,0.2915822904994499,1.1880999601456317,0.8691537759005,,-0.030951232622554444,-0.025656340004316647,0.11367150912,-0.09289233806103908,,4.4584274e-05,3.33786e-06,-3.8146973e-06,1.0,-4.030764e-05,-3.7889928e-05,4.029274e-05,1.0,-4.6491623e-06,3.7889928e-05,4.6789646e-06,1.0,355,1.08,0,0,0.0,False,-0.26017592421626956,1.04304544045428
1.0964139439165592,11:16:50.798928,NaN,0,,0.11967099,0.0009882152,0.030205622,0.5199865,0.641531,-0.5639609,0.2328467,0.52877617,0.8161974,0.821825,-0.5557281,0.12557805,,0.023807436,0.0029984787,0.01236403,-0.41470447,-0.031857267,0.90939826,0.90677273,-0.09799072,0.41007447,0.0760487,0.9946773,0.06952444,,0.074814595,1.3022337,0.43178135,0.99612284,0.077357545,-0.04189404,0.02756773,-0.7267103,-0.6863907,-0.08354233,0.6825745,-0.7260253,,-0.09698521,0.26385915,-0.09303116,-0.59320295,-0.5764263,0.561999,0.6943001,-0.012948303,0.7195691,-0.40750164,0.8170465,0.40789387,,-0.010316538,0.45618457,-0.30669275,0.38724157,-0.11775558,-0.91442746,0.7170794,0.6618786,0.2184351,0.579518,-0.74030423,0.340747,,1.1901349177809908,0.541255456222899,0.19818070407000002,3.105088683118837,-0.3596272673826392,-1.0723349338810788,-0.408850197534101,,-0.16848686311695613,0.2950470094597474,0.19177832776,-3.2692759088672196,0.2915822904994499,1.1879366026653506,0.8688270877682313,,-0.030951232622554444,-0.025656340004316647,0.11367150912,-0.09289233806103908,,4.4584274e-05,3.33786e-06,-3.8146973e-06,1.0,-4.030764e-05,-3.7889928e-05,4.029274e-05,1.0,-4.6491623e-06,3.7889928e-05,4.6789646e-06,1.0,363,1.105,0,0,0.0,False,-0.2596993024681016,1.043190281056618
1.12476030504331,11:16:50.823026,NaN,0,,0.1194777,0.0009907484,0.030342683,0.51199657,0.6452011,-0.5670759,0.22914448,0.5336568,0.8140659,0.82786,-0.54674125,0.12538615,,0.0238152,0.0029965416,0.012365162,-0.41469514,-0.031603247,0.9094114,0.90677905,-0.09784761,0.41009453,0.0760234,0.99469954,0.06923407,,0.074814595,1.3022337,0.43178135,0.99612284,0.077357545,-0.04189404,0.02756773,-0.7267103,-0.6863907,-0.08354233,0.6825745,-0.7260253,,-0.09680606,0.2639629,-0.09314649,-0.58589274,-0.5808699,0.5650839,0.69600904,-0.0035165006,0.7180244,-0.41509163,0.8139888,0.406351,,-0.010324355,0.4561831,-0.3066942,0.3872361,-0.11801177,-0.91439676,0.71706414,0.6619609,0.21823563,0.5795405,-0.74018985,0.34095716,,1.1912238231162564,0.5406916967230806,0.19809644522000003,3.0967010853794554,-0.36823536686786196,-1.0716865476791682,-0.40917688566636934,,-0.16852547678132726,0.29502384126112474,0.19177832776,-3.2692759088672196,0.2915822904994499,1.1876098877047883,0.8681737115036942,,-0.030951232622554444,-0.025656340004316647,0.11367150912,-0.09289233806103908,,4.4584274e-05,3.33786e-06,-3.8146973e-06,1.0,-4.030764e-05,-3.7889928e-05,4.029274e-05,1.0,-4.6491623e-06,3.7889928e-05,4.6789646e-06,1.0,371,1.129,0,0,0.0,False,-0.25922268071993226,1.0429005998519412
1.1488534261006862,11:16:50.850646,NaN,0,,0.11932947,0.0009945184,0.030505285,0.49878925,0.6548748,-0.56775725,0.22346368,0.5357474,0.8142718,0.8374205,-0.53302324,0.1208843,,0.023820631,0.002996616,0.012366772,-0.4146913,-0.03156046,0.90941465,0.90678173,-0.09781653,0.4100961,0.07601294,0.9947039,0.06918211,,0.074814595,1.3022337,0.43178135,0.99612284,0.077357545,-0.04189404,0.02756773,-0.7267103,-0.6863907,-0.08354233,0.6825745,-0.7260253,,-0.09667418,0.2640822,-0.09327609,-0.573762,-0.5917893,0.56620014,0.6988822,0.0066871666,0.7152055,-0.42703724,0.80606496,0.4097542,,-0.010329971,0.4561837,-0.30669472,0.38723385,-0.11805511,-0.9143921,0.7170579,0.6619799,0.21819846,0.5795498,-0.7401659,0.34099337,,1.1920424328009243,0.5401588281547591,0.19801607524000003,3.0834906189399307,-0.38148910734510977,-1.0642278393663784,-0.4096669178647723,,-0.16855636771282415,0.2950161185282505,0.19177832776,-3.2692759088672196,0.2915822904994499,1.1875282089646477,0.86801036743756,,-0.030951232622554444,-0.025656340004316647,0.11367150912,-0.09289233806103908,,4.4584274e-05,3.33786e-06,-3.8146973e-06,1.0,-4.030764e-05,-3.7889928e-05,4.029274e-05,1.0,-4.6491623e-06,3.7889928e-05,4.6789646e-06,1.0,383,1.166,0,0,0.0,False,-0.2608908568385213,1.042948880052721
1.1764708911068738,11:16:50.885645,NaN,0,,0.11919986,0.0009854287,0.030640021,0.4847613,0.66186124,-0.5717921,0.21807423,0.54163444,0.8118348,0.8470242,-0.51823926,0.118228614,,0.023836628,0.0029963031,0.012372732,-0.41467977,-0.03158065,0.9094192,0.9067896,-0.09779033,0.4100849,0.07598159,0.99470586,0.069188654,,0.074814595,1.3022337,0.43178135,0.99612284,0.077357545,-0.04189404,0.02756773,-0.7267103,-0.6863907,-0.08354233,0.6825745,-0.7260253,,-0.096558355,0.26417235,-0.09339225,-0.56081414,-0.6000774,0.57043374,0.70204395,0.020563163,0.7118367,-0.438887,0.7996776,0.40974855,,-0.010346674,0.4561859,-0.30669743,0.3872271,-0.11803577,-0.9143975,0.717039,0.66200143,0.21819514,0.5795776,-0.74014974,0.34098116,,1.1926293604993652,0.5395719004563181,0.19794866816,3.0694413927264677,-0.39474284782235747,-1.0610981042810383,-0.4103202941293096,,-0.16864904050731483,0.2949929503296278,0.19177703147000003,-3.2692759088672196,0.2915822904994499,1.1874465302245072,0.8681737115036943,,-0.030951232622554444,-0.025656340004316647,0.11367150912,-0.09289233806103908,,4.4584274e-05,3.33786e-06,-3.8146973e-06,1.0,-4.030764e-05,-3.7889928e-05,4.029274e-05,1.0,-4.6491623e-06,3.7889928e-05,4.6789646e-06,1.0,391,1.191,0,0,0.0,False,-0.2596993024681016,1.043093720655059
1.211433659074828,11:16:50.907017,NaN,0,,0.11913757,0.000969097,0.030736431,0.47635573,0.6667499,-0.57317525,0.21103582,0.5461327,0.8106805,0.8535509,-0.5071328,0.119445264,,0.023847945,0.0029967204,0.012376189,-0.4148391,-0.03172961,0.9093413,0.9067258,-0.09775177,0.4102351,0.07587314,0.99470496,0.06932129,,0.074814595,1.3022337,0.43178135,0.99612284,0.077357545,-0.04189404,0.02756773,-0.7267103,-0.6863907,-0.08354233,0.6825745,-0.7260253,,-0.09650593,0.26422796,-0.093479425,-0.55319035,-0.6059445,0.57167447,0.7016276,0.03106264,0.71186644,-0.4491093,0.79490024,0.40796384,,-0.010358395,0.45618737,-0.3066984,0.38740176,-0.117888875,-0.9143424,0.71693605,0.66204464,0.21840242,0.5795883,-0.74013454,0.34099606,,1.1929228243485859,0.5391317046824873,0.19790459430000001,3.0625216245914784,-0.40635695030241986,-1.0603672076618826,-0.4088501975341008,,-0.16871082237030863,0.29497750486387936,0.19177703147000003,-3.269485598810704,0.2915822904994499,1.1874465302245072,0.8681737115036943,,-0.030951232622554444,-0.025656340004316647,0.11367150912,-0.09289233806103908,,4.4584274e-05,3.33786e-06,-3.8146973e-06,1.0,-4.030764e-05,-3.7889928e-05,4.029274e-05,1.0,-4.6491623e-06,3.7889928e-05,4.6789646e-06,1.0,399,1.215,0,0,0.0,False,-0.25910352528289105,1.0425143582457057
1.2328689449932426,11:16:50.938339,NaN,0,,0.11901437,0.00093115866,0.030822411,0.4645743,0.6724629,-0.5761635,0.20540819,0.5510602,0.80878925,0.86138153,-0.49409142,0.11787903,,0.023863845,0.0029981062,0.012380004,-0.41299084,-0.030906036,0.91021055,0.90749043,-0.09825346,0.40842047,0.07680866,0.99468136,0.06862472,,0.074814595,1.3022337,0.43178135,0.99612284,0.077357545,-0.04189404,0.02756773,-0.7267103,-0.6863907,-0.08354233,0.6825745,-0.7260253,,-0.09639224,0.26426378,-0.093578406,-0.5423108,-0.6128121,0.57476985,0.7033087,0.043129798,0.70957506,-0.4596259,0.78905076,0.40760633,,-0.010374706,0.4561892,-0.30669847,0.385424,-0.11869317,-0.91507393,0.71791184,0.6615902,0.21656632,0.579699,-0.74041224,0.34020397,,1.193308960992297,0.5383903223265617,0.19784885383000003,3.051198367643314,-0.4185175987815441,-1.0578021008455518,-0.40983026193090644,,-0.16883438609629622,0.2949620593981309,0.19177832776,-3.2671790094323745,0.2915822904994499,1.187446530224507,0.8685003996359627,,-0.030951232622554444,-0.025656340004316647,0.11367150912,-0.09289233806103908,,4.4584274e-05,3.33786e-06,-3.8146973e-06,1.0,-4.030764e-05,-3.7889928e-05,4.029274e-05,1.0,-4.6491623e-06,3.7889928e-05,4.6789646e-06,1.0,432,1.318,0,0,0.0,False,-0.26095043455704303,1.0429971602535004
1.2641910531092435,11:16:51.034152,NaN,0,,0.11863548,0.00085781515,0.031197324,0.41696098,0.69880813,-0.5812148,0.17336488,0.5665692,0.8055706,0.8922377,-0.43665376,0.11508837,,0.024041407,0.0030091926,0.0124318,-0.4134959,-0.03169427,0.9099541,0.90732604,-0.0977951,0.40889543,0.07602942,0.99470174,0.06919487,,0.074814595,1.3022337,0.43178135,0.99612284,0.077357545,-0.04189404,0.02756773,-0.7267103,-0.6863907,-0.08354233,0.6825745,-0.7260253,,-0.09605254,0.26447996,-0.093935296,-0.4984122,-0.6443346,0.58001566,0.7026728,0.09161787,0.70558995,-0.50777584,0.75923586,0.4070929,,-0.010558184,0.4562131,-0.30670837,0.3860431,-0.11792279,-0.9149125,0.71729404,0.6620089,0.21733277,0.5800517,-0.7401611,0.34014928,,1.194513707320676,0.5358340977451934,0.19771533596000002,3.0090506890029243,-0.47467520018514014,-1.0426388699790334,-0.41032029412930937,,-0.1698383413699454,0.29474582287765266,0.19178351292,-3.268017769206312,0.29171892699921537,1.1867633611398267,0.8689904318343659,,-0.030951232622554444,-0.025656340004316647,0.11367150912,-0.09289233806103908,,4.4584274e-05,3.33786e-06,-3.8146973e-06,1.0,-4.030764e-05,-3.7889928e-05,4.029274e-05,1.0,-4.6491623e-06,3.7889928e-05,4.6789646e-06,1.0,440,1.342,0,0,0.0,False,-0.2599376133421849,1.0434316820605154
1.3599977470003068,11:16:51.059090,NaN,0,,0.11855865,0.00084616244,0.031249955,0.40853235,0.70120245,-0.58430856,0.16719046,0.57184696,0.8031428,0.89730066,-0.42580062,0.11638355,,0.024110436,0.0030086413,0.01245147,-0.41310942,-0.03177779,0.9101266,0.9074992,-0.097837925,0.40850073,0.07606363,0.9946949,0.06925605,,0.074814595,1.3022337,0.43178135,0.99612284,0.077357545,-0.04189404,0.02756773,-0.7267103,-0.6863907,-0.08354233,0.6825745,-0.7260253,,-0.095981345,0.26451057,-0.09398825,-0.49061054,-0.6476825,0.58293116,0.70192087,0.10265909,0.70481783,-0.5163413,0.75496256,0.40425622,,-0.010629372,0.45621875,-0.30671546,0.3856538,-0.11783867,-0.9150875,0.7173895,0.661985,0.21709022,0.58019257,-0.7401959,0.33983326,,1.1947222211082802,0.5353089519097461,0.19770496564,3.001711540980966,-0.4849229376675481,-1.043185509877123,-0.40917688566636956,,-0.17023220074653087,0.2946377046174135,0.19178351292,-3.267598389319343,0.29171892699921537,1.1866000036595457,0.8693171199666343,,-0.030951232622554444,-0.025656340004316647,0.11367150912,-0.09289233806103908,,4.4584274e-05,3.33786e-06,-3.8146973e-06,1.0,-4.030764e-05,-3.7889928e-05,4.029274e-05,1.0,-4.6491623e-06,3.7889928e-05,4.6789646e-06,1.0,448,1.367,0,0,0.0,False,-0.25868648125324345,1.0431420008558385
1.3849262930452824,11:16:51.082099,NaN,0,,0.11841095,0.0008164495,0.03129022,0.39504308,0.7081529,-0.5852012,0.16316703,0.5727991,0.8032918,0.9040561,-0.4128204,0.11073309,,0.024154432,0.003005378,0.012462676,-0.41218692,-0.031041645,0.9105702,0.9079002,-0.09767094,0.40764868,0.0762822,0.9947345,0.068441406,,0.074814595,1.3022337,0.43178135,0.99612284,0.077357545,-0.04189404,0.02756773,-0.7267103,-0.6863907,-0.08354233,0.6825745,-0.7260253,,-0.09583872,0.26452327,-0.09405002,-0.47790208,-0.6558384,0.5843677,0.7041647,0.11166947,0.7012004,-0.5251302,0.7465962,0.40845114,,-0.010674525,0.45621943,-0.3067213,0.384704,-0.118574336,-0.9153922,0.71770877,0.6620383,0.21586885,0.58042824,-0.74003065,0.33979064,,1.1950002394917523,0.5344748967593299,0.19768552129000003,2.987662314767503,-0.49558058464925253,-1.0344949133888022,-0.4095035737986381,,-0.17048705093138028,0.29456047728867124,0.19178351292,-3.2665499396019206,0.2918555634989808,1.1859168345748654,0.8681737115036943,,-0.030951232622554444,-0.025656340004316647,0.11367150912,-0.09289233806103908,,4.4584274e-05,3.33786e-06,-3.8146973e-06,1.0,-4.030764e-05,-3.7889928e-05,4.029274e-05,1.0,-4.6491623e-06,3.7889928e-05,4.6789646e-06,1.0,465,1.42,1,1,0.05,False,-0.26041423509035333,1.0432385612573978
1.4079442210495472,11:16:51.138521,NaN,0,,0.118196994,0.00075541437,0.031423017,0.36939162,0.72201973,-0.5850106,0.14880908,0.5754513,0.80418384,0.9172816,-0.3841136,0.10512379,,0.024260178,0.0029883161,0.0124819875,-0.412076,-0.033494532,0.91053355,0.90797555,-0.098433554,0.40729746,0.075984806,0.9945798,0.07097429,,0.074814595,1.3022337,0.43178135,0.99612284,0.077357545,-0.04189404,0.02756773,-0.7267103,-0.6863907,-0.08354233,0.6825745,-0.7260253,,-0.09563957,0.26457804,-0.09420647,-0.45387784,-0.67236984,0.5847339,0.7037077,0.13208206,0.69810444,-0.5466172,0.72833586,0.4132027,,-0.010781757,0.45620933,-0.30673695,0.3846384,-0.116117075,-0.91573477,0.71752983,0.66170484,0.21748033,0.58069295,-0.74071825,0.33783457,,1.1953168715395954,0.5330461911775983,0.19764144743,2.9635479712667827,-0.5216781561044516,-1.019503356773609,-0.4116270466583838,,-0.17103536496545022,0.2942979043709476,0.19178480921000002,-3.2665499396019206,0.2918555634989808,1.1879588030783794,0.8686637437020969,,-0.030951232622554444,-0.025656340004316647,0.11367150912,-0.09289233806103908,,4.4584274e-05,3.33786e-06,-3.8146973e-06,1.0,-4.030764e-05,-3.7889928e-05,4.029274e-05,1.0,-4.6491623e-06,3.7889928e-05,4.6789646e-06,1.0,473,1.444,1,1,0.074,False,-0.2598184579051428,1.043190281056618
1.4643698469735682,11:16:51.159708,NaN,0,,0.118097134,0.00073826313,0.03151174,0.35455096,0.72665215,-0.5884473,0.13888383,0.58142376,0.80165935,0.92466474,-0.3659549,0.10522413,,0.024285696,0.0029817,0.012485623,-0.41221195,-0.033942223,0.9104554,0.9079281,-0.09845802,0.40739718,0.07581359,0.99456215,0.07140267,,0.074814595,1.3022337,0.43178135,0.99612284,0.077357545,-0.04189404,0.02756773,-0.7267103,-0.6863907,-0.08354233,0.6825745,-0.7260253,,-0.095549025,0.2646299,-0.09429163,-0.43997824,-0.6786399,0.5881046,0.7020628,0.14840125,0.6964804,-0.55993485,0.71932256,0.41115448,,-0.010807445,0.45620444,-0.30674186,0.38479924,-0.115671605,-0.91572356,0.71738946,0.66172916,0.21786886,0.58075976,-0.7407662,0.33761448,,1.1954481579984573,0.5323511452189181,0.19763107711000003,2.950127814883773,-0.537937899576539,-1.0165361474914458,-0.407706789071161,,-0.1711589286914378,0.2942206770422054,0.19178480921000002,-3.2667596295454047,0.2918555634989808,1.188203839298801,0.8688270877682314,,-0.030951232622554444,-0.025656340004316647,0.11367150912,-0.09289233806103908,,4.4584274e-05,3.33786e-06,-3.8146973e-06,1.0,-4.030764e-05,-3.7889928e-05,4.029274e-05,1.0,-4.6491623e-06,3.7889928e-05,4.6789646e-06,1.0,486,1.485,1,1,0.115,False,-0.2598184579051428,1.043093720655059
1.4855440880637616,11:16:51.203100,NaN,0,,0.11780093,0.00067694485,0.031664506,0.31873304,0.7377621,-0.5950767,0.120863974,0.59106106,0.79752034,0.940107,-0.32611945,0.099221766,,0.024323545,0.0029693618,0.012487531,-0.41220844,-0.034272946,0.9104446,0.90793157,-0.09858084,0.40735966,0.07579091,0.99453866,0.07175332,,0.074814595,1.3022337,0.43178135,0.99612284,0.077357545,-0.04189404,0.02756773,-0.7267103,-0.6863907,-0.08354233,0.6825745,-0.7260253,,-0.09526997,0.2647022,-0.09446977,-0.4061083,-0.6933925,0.5952167,0.700909,0.1815796,0.68975025,-0.58634686,0.69730604,0.41226405,,-0.010844993,0.45619297,-0.30674875,0.38479915,-0.115339644,-0.91576546,0.71737486,0.6616688,0.21810016,0.5807778,-0.7408719,0.33735135,,1.1957261763819294,0.5305671939249723,0.1976064476,2.914899904378373,-0.5708672960200102,-1.002753031123098,-0.4093402297325037,,-0.17133655154754499,0.29408166785046935,0.19178610550000003,-3.2667596295454047,0.29171892699921537,1.188396935942638,0.8689904318343655,,-0.030951232622554444,-0.025656340004316647,0.11367150912,-0.09289233806103908,,4.4584274e-05,3.33786e-06,-3.8146973e-06,1.0,-4.030764e-05,-3.7889928e-05,4.029274e-05,1.0,-4.6491623e-06,3.7889928e-05,4.6789646e-06,1.0,495,1.514,1,1,0.144,False,-0.2589843698458485,1.0431420008558385
1.528934618923813,11:16:51.235748,NaN,0,,0.117598325,0.0006262362,0.03171487,0.29747087,0.7444991,-0.597689,0.114962906,0.59354144,0.79655004,0.94778395,-0.30566254,0.09097141,,0.024332576,0.0029576048,0.012483835,-0.41029298,-0.033276275,0.9113463,0.90873384,-0.09882048,0.40550855,0.07656589,0.9945488,0.07078461,,0.074814595,1.3022337,0.43178135,0.99612284,0.077357545,-0.04189404,0.02756773,-0.7267103,-0.6863907,-0.08354233,0.6825745,-0.7260253,,-0.09507401,0.26470897,-0.094557576,-0.38578284,-0.7020341,0.59859806,0.7027879,0.19673102,0.6836564,-0.59771293,0.6844304,0.41748562,,-0.010853213,0.45618126,-0.30675408,0.3827788,-0.116323344,-0.91648746,0.71825105,0.66139495,0.21603742,0.58102995,-0.7409626,0.3367173,,1.1958265719092942,0.5295014567883293,0.19758570696000002,2.8918340105950757,-0.5853507649951469,-0.9897992309693096,-0.4103202941293096,,-0.17139061067766453,0.29401216325460133,0.19178610550000003,-3.264453040167075,0.2918555634989808,1.188203839298801,0.8688270877682314,,-0.030951232622554444,-0.025656340004316647,0.11367150912,-0.09289233806103908,,4.4584274e-05,3.33786e-06,-3.8146973e-06,1.0,-4.030764e-05,-3.7889928e-05,4.029274e-05,1.0,-4.6491623e-06,3.7889928e-05,4.6789646e-06,1.0,508,1.555,1,1,0.185,False,-0.25975888018662197,1.0425626384464852
1.5615980550646782,11:16:51.272661,NaN,0,,0.11733399,0.0005709678,0.031814143,0.26536837,0.7549898,-0.59964156,0.10326454,0.59610605,0.7962374,0.95860106,-0.27321795,0.08022407,,0.024341457,0.002953224,0.012483895,-0.41027832,-0.034961216,0.9112898,0.90874374,-0.09952605,0.40531376,0.07652676,0.9944206,0.07260418,,0.074814595,1.3022337,0.43178135,0.99612284,0.077357545,-0.04189404,0.02756773,-0.7267103,-0.6863907,-0.08354233,0.6825745,-0.7260253,,-0.09482141,0.26474833,-0.09468959,-0.35506397,-0.715568,0.6015746,0.70303786,0.21975525,0.67634714,-0.61617154,0.6630762,0.4250442,,-0.0108619435,0.4561773,-0.30675656,0.38277012,-0.11462985,-0.9167044,0.7182275,0.6610273,0.21723749,0.58106476,-0.7415544,0.3353518,,1.195849740107917,0.5281345330695916,0.19757015148,2.8576545498070978,-0.608988879454568,-0.9688086800868769,-0.4101569500631752,,-0.17142922434203567,0.2939735495902302,0.19178610550000003,-3.264453040167075,0.2918555634989808,1.1900007715818934,0.8678470233714256,,-0.030951232622554444,-0.025656340004316647,0.11367150912,-0.09289233806103908,,4.4584274e-05,3.33786e-06,-3.8146973e-06,1.0,-4.030764e-05,-3.7889928e-05,4.029274e-05,1.0,-4.6491623e-06,3.7889928e-05,4.6789646e-06,1.0,517,1.584,1,1,0.214,False,-0.25910352528289105,1.0419832760371317
1.5985106700100005,11:16:51.308238,NaN,0,,0.11710882,0.00054967403,0.031886175,0.23736218,0.7604317,-0.6044856,0.097441345,0.6004928,0.79367095,0.96652174,-0.24728933,0.06843674,,0.024344452,0.0029526874,0.012484431,-0.41027507,-0.036020078,0.9112501,0.9087459,-0.09998721,0.40519536,0.07651815,0.9943366,0.07375534,,0.074814595,1.3022337,0.43178135,0.99612284,0.077357545,-0.04189404,0.02756773,-0.7267103,-0.6863907,-0.08354233,0.6825745,-0.7260253,,-0.09460462,0.2647926,-0.09477548,-0.3280492,-0.72341925,0.60749346,0.70549536,0.24004611,0.6668239,-0.6282197,0.6473349,0.431622,,-0.01086498,0.45617697,-0.30675703,0.38276818,-0.11356487,-0.9168378,0.7182223,0.66078174,0.21800047,0.58107245,-0.74193704,0.33449104,,1.195849740107917,0.5272309733233073,0.19756367003000003,2.825152608566997,-0.6248387134273592,-0.951963623731345,-0.40983026193090666,,-0.1714446698077841,0.29396582685735595,0.19178610550000003,-3.264453040167075,0.2918555634989808,1.1911442739438614,0.8678470233714257,,-0.030951232622554444,-0.025656340004316647,0.11367150912,-0.09289233806103908,,4.4584274e-05,3.33786e-06,-3.8146973e-06,1.0,-4.030764e-05,-3.7889928e-05,4.029274e-05,1.0,-4.6491623e-06,3.7889928e-05,4.6789646e-06,1.0,530,1.625,0,1,0.235,False,-0.2599971910607066,1.0416453146316753
1.6340847820974886,11:16:51.339878,NaN,0,,0.1168923,0.00053572655,0.03196864,0.20918517,0.76597226,-0.60788816,0.09034434,0.60384434,0.7919658,0.9736936,-0.22058678,0.057113975,,0.024347037,0.0029544458,0.01248312,-0.41010717,-0.035800368,0.9113344,0.90881443,-0.09996888,0.4050461,0.07660425,0.9943463,0.07353385,,0.074814595,1.3022337,0.43178135,0.99612284,0.077357545,-0.04189404,0.02756773,-0.7267103,-0.6863907,-0.08354233,0.6825745,-0.7260253,,-0.094397314,0.26484883,-0.094863474,-0.30081227,-0.73145974,0.6119466,0.70651627,0.2600806,0.65817386,-0.6405831,0.630337,0.43855277,,-0.010867365,0.45617688,-0.30675462,0.38258836,-0.11378373,-0.91688573,0.71831113,0.6607749,0.21772839,0.5810811,-0.74190956,0.33453688,,1.1958111264435458,0.5264664227687591,0.19756107745,2.793699117044318,-0.6404152744006194,-0.9341162220810976,-0.40999360599704104,,-0.17146011527353255,0.29396582685735595,0.19178869808000001,-3.2642433502235906,0.2918555634989808,1.1909809164635803,0.8671936471068885,,-0.030951232622554444,-0.025656340004316647,0.11367150912,-0.09289233806103908,,4.4584274e-05,3.33786e-06,-3.8146973e-06,1.0,-4.030764e-05,-3.7889928e-05,4.029274e-05,1.0,-4.6491623e-06,3.7889928e-05,4.6789646e-06,1.0,539,1.653,0,1,0.235,False,-0.2590439475643693,1.0410176720215425
1.6657078340649605,11:16:51.376137,NaN,0,,0.116590105,0.0005274564,0.032080874,0.16962376,0.772944,-0.6113799,0.08042574,0.60744345,0.79028094,0.98222166,-0.18322116,0.040872246,,0.02434627,0.0029535815,0.012483954,-0.4099399,-0.035491526,0.9114217,0.9088826,-0.09991288,0.40490717,0.076692015,0.99436295,0.07321592,,0.074814595,1.3022337,0.43178135,0.99612284,0.077357545,-0.04189404,0.02756773,-0.7267103,-0.6863907,-0.08354233,0.6825745,-0.7260253,,-0.09410754,0.26493374,-0.094976656,-0.2624211,-0.74195063,0.61696386,0.70695364,0.2873474,0.6462569,-0.65677375,0.6057563,0.44911867,,-0.010866726,0.45617703,-0.30675587,0.38240886,-0.114092216,-0.9169223,0.71840096,0.6607878,0.21739264,0.58108824,-0.7418507,0.33465508,,1.195718453649055,0.5255319720909779,0.19756496632,2.747777019421207,-0.6615939318642626,-0.9064732470103009,-0.410156950063175,,-0.17146011527353255,0.29396582685735595,0.19178740179,-3.2640336602801066,0.2918555634989808,1.1907358802431585,0.8670303030407542,,-0.030951232622554444,-0.025656340004316647,0.11367150912,-0.09289233806103908,,4.4584274e-05,3.33786e-06,-3.8146973e-06,1.0,-4.030764e-05,-3.7889928e-05,4.029274e-05,1.0,-4.6491623e-06,3.7889928e-05,4.6789646e-06,1.0,552,1.694,0,1,0.235,False,-0.2594014138754961,1.041403913627778
1.701983760111034,11:16:51.407292,NaN,0,,0.116337255,0.0005226284,0.032197252,0.13605528,0.77790904,-0.61347085,0.06902909,0.6102802,0.7891723,0.9882934,-0.14971843,0.029333442,,0.0243484,0.0029535815,0.0124861,-0.40993923,-0.035506196,0.9114214,0.908883,-0.09991762,0.40490508,0.076690346,0.994362,0.0732311,,0.074814595,1.3022337,0.43178135,0.99612284,0.077357545,-0.04189404,0.02756773,-0.7267103,-0.6863907,-0.08354233,0.6825745,-0.7260253,,-0.09386722,0.26502132,-0.09508656,-0.22978011,-0.7500834,0.6201419,0.70433486,0.3115739,0.6378355,-0.6716499,0.58334947,0.4567164,,-0.0108691575,0.45617834,-0.30675712,0.3824085,-0.1140775,-0.91692424,0.71839994,0.6607857,0.21740234,0.5810897,-0.74185485,0.33464333,,1.195610335388816,0.5248369261322977,0.19756885519000003,2.7087746899330853,-0.6814062243302514,-0.8823948131806852,-0.4081968212695639,,-0.17147556073928102,0.29396582685735595,0.19178610550000003,-3.2640336602801066,0.2918555634989808,1.1907358802431585,0.8670303030407542,,-0.030951232622554444,-0.025656340004316647,0.11367150912,-0.09289233806103908,,4.4584274e-05,3.33786e-06,-3.8146973e-06,1.0,-4.030764e-05,-3.7889928e-05,4.029274e-05,1.0,-4.6491623e-06,3.7889928e-05,4.6789646e-06,1.0,565,1.735,0,1,0.235,False,-0.2594609915940169,1.0408728314192042
1.7331414620857686,11:16:51.454432,NaN,0,,0.11594805,0.00044973195,0.032312393,0.08380167,0.78673166,-0.61158025,0.05122456,0.6095267,0.79110885,0.995165,-0.09762421,0.010779321,,0.024257623,0.0029247105,0.012488544,-0.40966952,-0.035055406,0.91156,0.90903395,-0.09931165,0.40471518,0.07634106,0.9944387,0.072551444,,0.074764945,1.3022345,0.43178412,0.99612045,0.07741974,-0.041835293,0.027652988,-0.72670364,-0.6863943,-0.08354233,0.6825745,-0.7260253,,-0.09345341,0.2650623,-0.09525531,-0.17872499,-0.7639611,0.6200168,0.6984808,0.34530172,0.62681043,-0.6929517,0.5450965,0.47189808,,-0.010740191,0.45617563,-0.30678523,0.38211435,-0.114539914,-0.9169892,0.7182348,0.6611947,0.21670336,0.58148724,-0.741419,0.33491856,,1.1953091488067211,0.523539507009428,0.19759218841,2.646077396831213,-0.7107830717798213,-0.8367950977487056,-0.4095035737986381,,-0.17165318359538817,0.2939735495902302,0.19178480921000002,-3.2640336602801066,0.29226547299827715,1.1898298753510852,0.8658868945778142,,-0.030951232622554444,-0.025656340004316647,0.11367150912,-0.09289233806103908,,-5.0887465e-06,7.1525574e-07,-4.4107437e-06,0.99999994,2.1833926e-05,2.05338e-05,-2.1845102e-05,1.0,2.503395e-06,-2.0530075e-05,-2.503395e-06,1.0,574,1.764,1,2,0.251,False,-0.26017592421626956,1.040969391820763
1.7802641880698502,11:16:51.478796,NaN,0,,0.1157655,0.00042775273,0.032342076,0.0640897,0.788589,-0.61157155,0.044105023,0.6099944,0.79117733,0.996969,-0.07767975,0.0043136775,,0.024302535,0.0029379725,0.012506187,-0.40982562,-0.034735233,0.91150206,0.90897346,-0.099054545,0.40491402,0.07622361,0.9944756,0.072168455,,0.074764945,1.3022345,0.43178412,0.99612045,0.07741974,-0.041835293,0.027652988,-0.72670364,-0.6863943,-0.08354233,0.6825745,-0.7260253,,-0.093274936,0.26507553,-0.09530693,-0.15939362,-0.76772875,0.6206337,0.69545025,0.35887602,0.6225408,-0.700673,0.5308489,0.47671458,,-0.01078741,0.456192,-0.30678305,0.3822871,-0.11486515,-0.9168765,0.7181272,0.6613567,0.21656564,0.58150655,-0.7412242,0.33531594,,1.1951855850807336,0.5229989157082322,0.19760385502000002,2.621753363387008,-0.7217139917610564,-0.820040506399498,-0.4108103263277125,,-0.17193120197886025,0.2939735495902302,0.19178740179,-3.2642433502235906,0.29226547299827715,1.1890947666898202,0.8667036149084856,,-0.030951232622554444,-0.025656340004316647,0.11367150912,-0.09289233806103908,,-5.0887465e-06,7.1525574e-07,-4.4107437e-06,0.99999994,2.1833926e-05,2.05338e-05,-2.1845102e-05,1.0,2.503395e-06,-2.0530075e-05,-2.503395e-06,1.0,587,1.805,0,2,0.279,False,-0.2596993024681016,1.0402451888090711
1.8046476820018142,11:16:51.522577,NaN,0,,0.11538124,0.00034539402,0.032357603,0.026981141,0.7949809,-0.60603404,0.028020412,0.6054151,0.7954165,0.99924314,-0.03844261,-0.0059408844,,0.02436839,0.0029475987,0.01253134,-0.40991297,-0.035230793,0.91144377,0.90895814,-0.09896806,0.40496957,0.07593644,0.9944668,0.07259154,,0.074764945,1.3022345,0.43178412,0.99612045,0.07741974,-0.041835293,0.027652988,-0.72670364,-0.6863943,-0.08354233,0.6825745,-0.7260253,,-0.09289532,0.26504523,-0.09540516,-0.122935236,-0.77795196,0.6161799,0.6870053,0.38135418,0.6185408,-0.7161778,0.49935928,0.48757526,,-0.010856431,0.45620894,-0.30678663,0.38241708,-0.11437506,-0.9168836,0.7179182,0.661468,0.21691819,0.58167917,-0.7412006,0.3350686,,1.1948380621013934,0.5216397147223687,0.19763496598000002,2.5752021959334437,-0.7443956507221196,-0.7808804131303296,-0.4099936059970406,,-0.1723250613554457,0.29393493592585906,0.19178740179,-3.264453040167075,0.2924021094980425,1.1890650275262644,0.8655602064455459,,-0.030951232622554444,-0.025656340004316647,0.11367150912,-0.09289233806103908,,-5.0887465e-06,7.1525574e-07,-4.4107437e-06,0.99999994,2.1833926e-05,2.05338e-05,-2.1845102e-05,1.0,2.503395e-06,-2.0530075e-05,-2.503395e-06,1.0,600,1.846,0,2,0.279,False,-0.25880563669028556,1.0407279908168656
1.8484000489115715,11:16:51.561449,NaN,0,,0.11496754,0.00024358928,0.03230408,-0.0058651045,0.8012078,-0.5983573,0.016262561,0.59836495,0.8010586,0.9998505,-0.0050325096,-0.016539127,,0.0244499,0.00295946,0.012563467,-0.4098744,-0.035640962,0.91144526,0.908984,-0.09903574,0.404895,0.07583481,0.99444544,0.072989255,,0.074764945,1.3022345,0.43178412,0.99612045,0.07741974,-0.041835293,0.027652988,-0.72670364,-0.6863943,-0.08354233,0.6825745,-0.7260253,,-0.09248003,0.2649559,-0.09546789,-0.09048981,-0.787487,0.6096523,0.6804311,0.39811406,0.6152387,-0.7272036,0.47049922,0.49980533,,-0.010942007,0.45623058,-0.3067918,0.38239405,-0.11396558,-0.9169442,0.71785706,0.661456,0.21715723,0.58176976,-0.7412745,0.33474782,,1.1946218255809151,0.520133781811895,0.19766478065,2.5317963776321473,-0.7612019401932687,-0.7408754566504089,-0.4093402297325037,,-0.1728193162593961,0.2938808767957395,0.19178610550000003,-3.264453040167075,0.2924021094980425,1.1889833487861239,0.8657235505116798,,-0.030951232622554444,-0.025656340004316647,0.11367150912,-0.09289233806103908,,-5.0887465e-06,7.1525574e-07,-4.4107437e-06,0.99999994,2.1833926e-05,2.05338e-05,-2.1845102e-05,1.0,2.503395e-06,-2.0530075e-05,-2.503395e-06,1.0,609,1.875,0,2,0.279,False,-0.26041423509035333,1.0400520680059533
1.8872818590607494,11:16:51.592281,NaN,0,,0.114706956,0.00017632544,0.032255203,-0.023730334,0.8036667,-0.59460616,0.009521723,0.5949285,0.80372226,0.99967307,0.013410896,-0.02177009,,0.024504729,0.002974078,0.012587547,-0.4099086,-0.036544017,0.91139406,0.908962,-0.09952563,0.40482414,0.07591316,0.9943637,0.07401347,,0.074764945,1.3022345,0.43178412,0.99612045,0.07741974,-0.041835293,0.027652988,-0.72670364,-0.6863943,-0.08354233,0.6825745,-0.7260253,,-0.09221703,0.26488718,-0.0954983,-0.07279897,-0.79176956,0.60646623,0.6762595,0.40775603,0.61352104,-0.73305756,0.4547923,0.50575745,,-0.011000013,0.45625138,-0.306792,0.38241625,-0.11305456,-0.9170477,0.7179034,0.6611741,0.21786125,0.581698,-0.7416653,0.33400598,,1.1945677664507957,0.5191529947368685,0.19768422500000002,2.507472344187942,-0.7703565856775533,-0.7190349988380096,-0.4103202941293096,,-0.1731668392387362,0.2938731540628653,0.19178610550000003,-3.264453040167075,0.29226547299827715,1.1896665178708041,0.8652335183132772,,-0.030951232622554444,-0.025656340004316647,0.11367150912,-0.09289233806103908,,-5.0887465e-06,7.1525574e-07,-4.4107437e-06,0.99999994,2.1833926e-05,2.05338e-05,-2.1845102e-05,1.0,2.503395e-06,-2.0530075e-05,-2.503395e-06,1.0,622,1.916,0,2,0.279,False,-0.2583885926606384,1.0399072274036147
1.9181001319084316,11:16:51.638548,NaN,0,,0.11417113,4.0233135e-05,0.03214723,-0.054571103,0.803547,-0.59273446,-0.0066363513,0.59331405,0.80494374,0.99848783,0.047860295,-0.02704513,,0.024518661,0.002975762,0.012594163,-0.40956786,-0.038175248,0.9114804,0.9091023,-0.100393265,0.40429458,0.076072395,0.9942152,0.075823024,,0.074764945,1.3022345,0.43178412,0.99612045,0.07741974,-0.041835293,0.027652988,-0.72670364,-0.6863943,-0.08354233,0.6825745,-0.7260253,,-0.09167548,0.26474252,-0.09555388,-0.042245276,-0.7950034,0.60513216,0.66511554,0.42958167,0.61080354,-0.74554455,0.42828637,0.5106213,,-0.01101481,0.45625564,-0.30679387,0.38205364,-0.111409,-0.9174002,0.7180731,0.66067594,0.21881096,0.58172673,-0.7423579,0.33241346,,1.1946372710466637,0.5170292431964567,0.19773996547000003,2.46427621583013,-0.7901688781435422,-0.6856451886323698,-0.4088501975341008,,-0.17325951203322687,0.29386543132999104,0.19178480921000002,-3.2640336602801066,0.29226547299827715,1.191545128894037,0.8657235505116798,,-0.030951232622554444,-0.025656340004316647,0.11367150912,-0.09289233806103908,,-5.0887465e-06,7.1525574e-07,-4.4107437e-06,0.99999994,2.1833926e-05,2.05338e-05,-2.1845102e-05,1.0,2.503395e-06,-2.0530075e-05,-2.503395e-06,1.0,631,1.944,0,2,0.279,False,-0.25856732581620134,1.0397623868012766
1.9643516119103879,11:16:51.663175,NaN,0,,0.11398526,-1.0579824e-06,0.03209868,-0.065332815,0.80142194,-0.5945202,-0.011507571,0.59514844,0.8035333,0.99779713,0.0593386,-0.029660285,,0.024512045,0.0029676855,0.012587607,-0.40721536,-0.036972657,0.9125833,0.91005695,-0.10096651,0.40199748,0.07727748,0.9942026,0.074762315,,0.074764945,1.3022345,0.43178412,0.99612045,0.07741974,-0.041835293,0.027652988,-0.72670364,-0.6863943,-0.08354233,0.6825745,-0.7260253,,-0.09148646,0.26468933,-0.09556098,-0.031544942,-0.79396856,0.6071399,0.661611,0.43872523,0.60810447,-0.7491834,0.42087305,0.51145875,,-0.011007176,0.45624623,-0.30679604,0.37953427,-0.11258865,-0.9183014,0.71931285,0.6601357,0.21635608,0.5818443,-0.7426605,0.33153057,,1.1946604392452862,0.5163341972377765,0.19776589127000002,2.4487591600122753,-0.796044247633456,-0.6766886030262551,-0.41032029412930937,,-0.17324406656747843,0.29383454039849416,0.19178480921000002,-3.2610980010713226,0.29226547299827715,1.191545128894037,0.8653968623794114,,-0.030951232622554444,-0.025656340004316647,0.11367150912,-0.09289233806103908,,-5.0887465e-06,7.1525574e-07,-4.4107437e-06,0.99999994,2.1833926e-05,2.05338e-05,-2.1845102e-05,1.0,2.503395e-06,-2.0530075e-05,-2.503395e-06,1.0,644,1.985,0,2,0.279,False,-0.25922268071993226,1.0401969086082916
1.9890220689121634,11:16:51.704417,NaN,0,,0.113588914,-8.328259e-05,0.03203121,-0.089223556,0.79789233,-0.59616005,-0.023460269,0.59669775,0.80212307,0.9957352,0.08555439,-0.034520715,,0.02451539,0.0029614866,0.012586951,-0.40748888,-0.037027568,0.91245896,0.9099622,-0.10065895,0.40228915,0.076951355,0.99423176,0.07471104,,0.074764945,1.3022345,0.43178412,0.99612045,0.07741974,-0.041835293,0.027652988,-0.72670364,-0.6863943,-0.08354233,0.6825745,-0.7260253,,-0.09108679,0.26460427,-0.09559888,-0.0077572516,-0.7929639,0.60921925,0.6526328,0.45757866,0.6038975,-0.75763464,0.40228102,0.5139647,,-0.011010309,0.45624116,-0.3067999,0.37985513,-0.11254261,-0.9181744,0.7190442,0.66037107,0.21653049,0.58196694,-0.7424582,0.33176845,,1.1947376665740286,0.5150367781149068,0.19780866884,2.41374093945036,-0.8095712611102346,-0.653406419539225,-0.4093402297325037,,-0.17324406656747843,0.2938036494669973,0.19178351292,-3.2615173809582916,0.2924021094980425,1.1913520322502,0.8655602064455457,,-0.030951232622554444,-0.025656340004316647,0.11367150912,-0.09289233806103908,,-5.0887465e-06,7.1525574e-07,-4.4107437e-06,0.99999994,2.1833926e-05,2.05338e-05,-2.1845102e-05,1.0,2.503395e-06,-2.0530075e-05,-2.503395e-06,1.0,657,2.026,0,2,0.279,False,-0.2590439475643693,1.0396175461989383
2.030269213952124,11:16:51.743772,NaN,0,,0.11319994,-0.00015163422,0.031927317,-0.115910694,0.7952283,-0.5951273,-0.029847324,0.5961067,0.8023503,0.9928111,0.11076394,-0.0453597,,0.024518535,0.0029563159,0.012586415,-0.40747803,-0.036894374,0.91246927,0.90996945,-0.10056785,0.4022954,0.076922655,0.99424595,0.074551925,,0.074764945,1.3022345,0.43178412,0.99612045,0.07741974,-0.041835293,0.027652988,-0.72670364,-0.6863943,-0.08354233,0.6825745,-0.7260253,,-0.09069072,0.26450482,-0.09560001,0.018984038,-0.7927571,0.60924196,0.64735746,0.4741254,0.59676915,-0.7619501,0.38306826,0.522198,,-0.011013275,0.45623696,-0.30680305,0.37984866,-0.112677515,-0.91816056,0.7190269,0.6604269,0.21641766,0.5819925,-0.74238807,0.33188045,,1.1947685575055254,0.5140173773755091,0.19784755754000002,2.3738998501883,-0.8166763590980376,-0.6240892113865291,-0.41032029412930937,,-0.17325178930035265,0.29377275853550033,0.19178221663000003,-3.2615173809582916,0.2924021094980425,1.191188674769919,0.8652335183132771,,-0.030951232622554444,-0.025656340004316647,0.11367150912,-0.09289233806103908,,-5.0887465e-06,7.1525574e-07,-4.4107437e-06,0.99999994,2.1833926e-05,2.05338e-05,-2.1845102e-05,1.0,2.503395e-06,-2.0530075e-05,-2.503395e-06,1.0,666,2.055,0,2,0.279,False,-0.2580907040680329,1.0389899035888053
2.069623586954549,11:16:51.773650,NaN,0,,0.112961225,-0.00018028915,0.03184414,-0.13322872,0.79389954,-0.59327346,-0.030780435,0.5950067,0.8031311,0.99060726,0.12526134,-0.05483538,,0.024522744,0.0029561222,0.012587547,-0.4074745,-0.03676948,0.9124759,0.90997183,-0.10050222,0.40230644,0.07691327,0.9942572,0.07441123,,0.074764945,1.3022345,0.43178412,0.99612045,0.07741974,-0.041835293,0.027652988,-0.72670364,-0.6863943,-0.08354233,0.6825745,-0.7260253,,-0.09044557,0.26444066,-0.09557746,0.03641717,-0.7928524,0.6083246,0.6461129,0.4830661,0.59091896,-0.76237255,0.3715268,0.5298641,,-0.011017599,0.4562371,-0.30680355,0.37984654,-0.11280349,-0.91814595,0.71902126,0.66046447,0.21632186,0.5820009,-0.74233556,0.33198324,,1.1948457848342677,0.5135153997386845,0.19787218705,2.3478982971962195,-0.8174961780966302,-0.6040628425510374,-0.4095035737986379,,-0.1732749574989753,0.29376503580262614,0.19178221663000003,-3.2615173809582916,0.2924021094980425,1.191025317289638,0.8649068301810086,,-0.030951232622554444,-0.025656340004316647,0.11367150912,-0.09289233806103908,,-5.0887465e-06,7.1525574e-07,-4.4107437e-06,0.99999994,2.1833926e-05,2.05338e-05,-2.1845102e-05,1.0,2.503395e-06,-2.0530075e-05,-2.503395e-06,1.0,679,2.096,0,2,0.279,False,-0.2589843698458485,1.039376145195041
2.0994949468877167,11:16:51.810429,NaN,0,,0.112564586,-0.00021620095,0.031779557,-0.16588284,0.7863351,-0.5951133,-0.036233336,0.59820676,0.8005222,0.9854796,0.15435585,-0.07074067,,0.024530299,0.0029562563,0.012591302,-0.40747002,-0.03689018,0.912473,0.9099748,-0.10054213,0.40228966,0.076901436,0.9942487,0.07453698,,0.074764945,1.3022345,0.43178412,0.99612045,0.07741974,-0.041835293,0.027652988,-0.72670364,-0.6863943,-0.08354233,0.6825745,-0.7260253,,-0.090045154,0.26439196,-0.09558647,0.06932431,-0.78808445,0.61165106,0.6403758,0.5052825,0.5784535,-0.7649268,0.35158566,0.53969854,,-0.011025642,0.45623904,-0.3068053,0.37984386,-0.11268241,-0.9181619,0.71901417,0.6604458,0.21640244,0.5820114,-0.74237055,0.33188653,,1.194992516758878,0.5130829266977279,0.19788903882000003,2.2986211604773557,-0.821458636589828,-0.57306095169605,-0.4095035737986381,,-0.17332129389622067,0.2937573130697519,0.19178092034000002,-3.2615173809582916,0.2924021094980425,1.1911069960297787,0.8650701742471429,,-0.030951232622554444,-0.025656340004316647,0.11367150912,-0.09289233806103908,,-5.0887465e-06,7.1525574e-07,-4.4107437e-06,0.99999994,2.1833926e-05,2.05338e-05,-2.1845102e-05,1.0,2.503395e-06,-2.0530075e-05,-2.503395e-06,1.0,692,2.137,0,2,0.279,False,-0.25820985950507547,1.0385071015810106
2.1362815119791776,11:16:51.851308,NaN,0,,0.1121696,-0.00025387108,0.03170094,-0.19963345,0.7785979,-0.59492147,-0.041058034,0.599963,0.7989735,0.97901005,0.18392815,-0.087805,,0.024534144,0.0029554367,0.012593985,-0.4074182,-0.03678769,0.9125003,0.91000855,-0.10035595,0.40225983,0.076776624,0.99427134,0.07436393,,0.074764945,1.3022345,0.43178412,0.99612045,0.07741974,-0.041835293,0.027652988,-0.72670364,-0.6863943,-0.08354233,0.6825745,-0.7260253,,-0.089645065,0.26433244,-0.09558615,0.10346216,-0.78321344,0.61308426,0.63426656,0.52675587,0.5658924,-0.76616025,0.33031037,0.55126536,,-0.011029832,0.45623997,-0.3068073,0.3798111,-0.11278943,-0.91816235,0.71893984,0.6605756,0.21625303,0.5821246,-0.74223876,0.33198276,,1.195162416882111,0.512774017382759,0.19790200172000003,2.2472471243236476,-0.8233715475865442,-0.538911283728216,-0.4096669178647725,,-0.17334446209484333,0.2937573130697519,0.19177962405,-3.2615173809582916,0.292538745997808,1.1909138993859414,0.8639267657842029,,-0.030951232622554444,-0.025656340004316647,0.11367150912,-0.09289233806103908,,-5.0887465e-06,7.1525574e-07,-4.4107437e-06,0.99999994,2.1833926e-05,2.05338e-05,-2.1845102e-05,1.0,2.503395e-06,-2.0530075e-05,-2.503395e-06,1.0,701,2.165,1,3,0.279,False,-0.2593418361569748,1.0381691401755546
2.177145686931908,11:16:51.881205,NaN,0,,0.11188285,-0.00029437244,0.03161025,-0.22444242,0.7741259,-0.59190756,-0.043967158,0.5987412,0.7997349,0.97349495,0.20551896,-0.100346774,,0.024535954,0.0029548109,0.012597263,-0.40741757,-0.03672784,0.91250294,0.910009,-0.10032782,0.40226594,0.076775014,0.99427634,0.074297935,,0.074764945,1.3022345,0.43178412,0.99612045,0.07741974,-0.041835293,0.027652988,-0.72670364,-0.6863943,-0.08354233,0.6825745,-0.7260253,,-0.089351565,0.26425704,-0.095569976,0.12863912,-0.78086764,0.6113082,0.6297413,0.54051274,0.5579175,-0.76607955,0.313196,0.56127566,,-0.011032109,0.4562417,-0.30680978,0.37981072,-0.112849705,-0.9181551,0.7189389,0.6605911,0.21620877,0.582126,-0.7422158,0.33203164,,1.195239644210853,0.5124959989992869,0.19791626091000003,2.2092932445529483,-0.8233715475865442,-0.5105687608994408,-0.4111370144599811,,-0.1733599075605918,0.2937573130697519,0.19177703147000003,-3.2615173809582916,0.292538745997808,1.1908322206458009,0.8640901098503371,,-0.030951232622554444,-0.025656340004316647,0.11367150912,-0.09289233806103908,,-5.0887465e-06,7.1525574e-07,-4.4107437e-06,0.99999994,2.1833926e-05,2.05338e-05,-2.1845102e-05,1.0,2.503395e-06,-2.0530075e-05,-2.503395e-06,1.0,714,2.206,1,3,0.32,False,-0.25791197091247,1.0370586955576269
2.2070244099013507,11:16:51.922153,NaN,0,,0.111483835,-0.00037409365,0.031451404,-0.25870714,0.7649635,-0.58983153,-0.04907444,0.5994226,0.79892695,0.9647084,0.23563372,-0.11753476,,0.024543203,0.0029568225,0.012600899,-0.40736744,-0.037017897,0.9125137,0.9100416,-0.10031977,0.4021942,0.07665479,0.9942664,0.074554786,,0.074764945,1.3022345,0.43178412,0.99612045,0.07741974,-0.041835293,0.027652988,-0.72670364,-0.6863943,-0.08354233,0.6825745,-0.7260253,,-0.088940375,0.26411295,-0.09553899,0.16350798,-0.77464753,0.6108898,0.6219016,0.5616266,0.5457234,-0.7658352,0.29068318,0.573585,,-0.011039861,0.4562449,-0.30681008,0.37977895,-0.1125616,-0.9182036,0.7188673,0.660624,0.21634611,0.5822351,-0.74223024,0.33180797,,1.19527053514235,0.5120017440953365,0.19794218671000002,2.156241688851364,-0.8233715475865442,-0.4740583640566095,-0.41162704665838357,,-0.17340624395783713,0.29376503580262614,0.19177703147000003,-3.2615173809582916,0.29267538249757347,1.1910475177026667,0.8639267657842029,,-0.030951232622554444,-0.025656340004316647,0.11367150912,-0.09289233806103908,,-5.0887465e-06,7.1525574e-07,-4.4107437e-06,0.99999994,2.1833926e-05,2.05338e-05,-2.1845102e-05,1.0,2.503395e-06,-2.0530075e-05,-2.503395e-06,1.0,723,2.235,1,3,0.349,False,-0.2583885926606384,1.0373483767623035
2.247998442966491,11:16:51.945924,NaN,0,,0.11127281,-0.00042316318,0.03136757,-0.27646887,0.75871325,-0.5898466,-0.053115904,0.60076773,0.79765713,0.95955384,0.25185755,-0.12579381,,0.024549134,0.0029573888,0.012606084,-0.4075333,-0.03885416,0.9123633,0.90997505,-0.10104373,0.40216348,0.07656285,0.994123,0.07653499,,0.074764945,1.3022345,0.43178412,0.99612045,0.07741974,-0.041835293,0.027652988,-0.72670364,-0.6863943,-0.08354233,0.6825745,-0.7260253,,-0.088723026,0.26403174,-0.09552736,0.18161893,-0.76997334,0.61168265,0.6164023,0.57379705,0.5392635,-0.7662002,0.27910215,0.5788258,,-0.011046498,0.45624828,-0.30681255,0.37995762,-0.11071595,-0.9183541,0.7187754,0.66025114,0.2177851,0.58223206,-0.7428394,0.33044735,,1.1952782578752243,0.5117314484447387,0.19795644590000003,2.128143236424438,-0.8241913665851368,-0.4560739637246317,-0.40803347720342975,,-0.17344485762220826,0.29376503580262614,0.19177443889,-3.261727070901776,0.29267538249757347,1.1929261287258996,0.8622933251228599,,-0.030951232622554444,-0.025656340004316647,0.11367150912,-0.09289233806103908,,-5.0887465e-06,7.1525574e-07,-4.4107437e-06,0.99999994,2.1833926e-05,2.05338e-05,-2.1845102e-05,1.0,2.503395e-06,-2.0530075e-05,-2.503395e-06,1.0,736,2.276,1,3,0.39,False,-0.2583290149421176,1.0372035361599652
2.271776694105938,11:16:51.992650,NaN,0,,0.110764705,-0.00056263804,0.031078696,-0.3174457,0.7504656,-0.57968044,-0.060791016,0.5939363,0.802212,0.9463259,0.2898981,-0.14292094,,0.024561077,0.0029601902,0.012615383,-0.4075808,-0.039059304,0.91233325,0.9099442,-0.10126257,0.40217823,0.0766764,0.9940927,0.07681444,,0.074764945,1.3022345,0.43178412,0.99612045,0.07741974,-0.041835293,0.027652988,-0.72670364,-0.6863943,-0.08354233,0.6825745,-0.7260253,,-0.08819165,0.26376224,-0.09544948,0.22355644,-0.76554704,0.6032912,0.6040461,0.5945825,0.5306599,-0.7649515,0.24578324,0.5953484,,-0.0110597545,0.45625553,-0.30681562,0.37998778,-0.110505894,-0.9183669,0.7188429,0.660106,0.21800211,0.58212894,-0.7429997,0.3302686,,1.1952782578752243,0.5107892750340833,0.19801607524000003,2.0629296640007504,-0.8230982745870132,-0.4019138360994642,-0.4109736703938466,,-0.17352980768382473,0.29376503580262614,0.19177055002,-3.261727070901776,0.292538745997808,1.1931192253697365,0.8624566691889946,,-0.030951232622554444,-0.025656340004316647,0.11367150912,-0.09289233806103908,,-5.0887465e-06,7.1525574e-07,-4.4107437e-06,0.99999994,2.1833926e-05,2.05338e-05,-2.1845102e-05,1.0,2.503395e-06,-2.0530075e-05,-2.503395e-06,1.0,745,2.305,1,3,0.419,False,-0.25791197091247,1.0366724539513914
2.3184787679929286,11:16:52.016239,NaN,0,,0.110550545,-0.00062559545,0.030939221,-0.33548775,0.74458873,-0.5770922,-0.06371671,0.5932575,0.80248713,0.9398873,0.30599505,-0.1515879,,0.024566196,0.0029596388,0.0126181245,-0.40757692,-0.039016277,0.9123369,0.9099468,-0.10123211,0.40218002,0.076666206,0.99409753,0.07676256,,0.074764945,1.3022345,0.43178412,0.99612045,0.07741974,-0.041835293,0.027652988,-0.72670364,-0.6863943,-0.08354233,0.6825745,-0.7260253,,-0.08796603,0.2636337,-0.095406346,0.24208792,-0.76126397,0.60155684,0.5985319,0.6051462,0.5249358,-0.7636446,0.23297031,0.60213935,,-0.011065218,0.45625654,-0.30681738,0.37998545,-0.110549524,-0.9183626,0.7188368,0.6601249,0.21796514,0.58213806,-0.7429764,0.33030492,,1.1953091488067211,0.5102486837328876,0.19805366765000001,2.0214110551908147,-0.8209120905907662,-0.371760135163647,-0.4085235094018326,,-0.17356069861532164,0.2937573130697519,0.19176925373,-3.261727070901776,0.292538745997808,1.1930375466295962,0.8629467013873973,,-0.030951232622554444,-0.025656340004316647,0.11367150912,-0.09289233806103908,,-5.0887465e-06,7.1525574e-07,-4.4107437e-06,0.99999994,2.1833926e-05,2.05338e-05,-2.1845102e-05,1.0,2.503395e-06,-2.0530075e-05,-2.503395e-06,1.0,754,2.333,1,3,0.447,False,-0.25868648125324345,1.0371552559591857
2.3420554948970675,11:16:52.046280,NaN,0,,0.110145964,-0.0007429123,0.030685961,-0.37001073,0.7332868,-0.57042295,-0.07015774,0.59019184,0.80420864,0.92637455,0.3375854,-0.16693154,,0.024574898,0.0029575974,0.012624085,-0.40756947,-0.03899739,0.912341,0.9099518,-0.10120174,0.40217644,0.076646596,0.99410135,0.07673243,,0.074764945,1.3022345,0.43178412,0.99612045,0.07741974,-0.041835293,0.027652988,-0.72670364,-0.6863943,-0.08354233,0.6825745,-0.7260253,,-0.08754077,0.26339892,-0.09533137,0.2776494,-0.7531159,0.59642875,0.5865583,0.62457895,0.51560694,-0.7608286,0.20668225,0.61516035,,-0.011074703,0.45625848,-0.3068221,0.379981,-0.11056914,-0.9183621,0.718825,0.66014594,0.21794027,0.5821555,-0.7429548,0.3303228,,1.1954172670669603,0.5097853197604341,0.19808607490000002,1.9786343067199719,-0.8177694510961611,-0.3391192099480824,-0.408850197534101,,-0.1736147577454412,0.29374186760400345,0.19176536486,-3.261727070901776,0.292538745997808,1.1929558678894554,0.8627833573212631,,-0.030951232622554444,-0.025656340004316647,0.11367150912,-0.09289233806103908,,-5.0887465e-06,7.1525574e-07,-4.4107437e-06,0.99999994,2.1833926e-05,2.05338e-05,-2.1845102e-05,1.0,2.503395e-06,-2.0530075e-05,-2.503395e-06,1.0,767,2.374,1,3,0.488,False,-0.2570778828531757,1.0362862123451555
2.3721327129751444,11:16:52.093242,NaN,0,,0.109797515,-0.00082956254,0.030382544,-0.4035818,0.7225989,-0.56122404,-0.0697262,0.5873232,0.80634344,0.9122828,0.36455753,-0.18664894,,0.024589121,0.0029583573,0.012633383,-0.40756312,-0.039013073,0.9123431,0.909956,-0.10118985,0.40216976,0.07663,0.9941019,0.0767414,,0.074764945,1.3022345,0.43178412,0.99612045,0.07741974,-0.041835293,0.027652988,-0.72670364,-0.6863943,-0.08354233,0.6825745,-0.7260253,,-0.08716604,0.2631504,-0.095194235,0.3124273,-0.7451297,0.5892121,0.5792475,0.6410396,0.5035281,-0.7529021,0.1839837,0.6318928,,-0.011090177,0.45626405,-0.30682638,0.3799772,-0.110553876,-0.9183655,0.71881497,0.66015625,0.21794206,0.58217037,-0.7429479,0.3303121,,1.195718453649055,0.5092524511921126,0.19813922279,1.9276796504532323,-0.8061553486160986,-0.3008076687800493,-0.41048363819544365,,-0.1737074305399319,0.2937341448711292,0.19176147599,-3.261727070901776,0.292538745997808,1.1928741891493149,0.8622933251228602,,-0.030951232622554444,-0.025656340004316647,0.11367150912,-0.09289233806103908,,-5.0887465e-06,7.1525574e-07,-4.4107437e-06,0.99999994,2.1833926e-05,2.05338e-05,-2.1845102e-05,1.0,2.503395e-06,-2.0530075e-05,-2.503395e-06,1.0,776,2.403,1,3,0.517,False,-0.25826943722359585,1.0360930915420377
2.4190081800334156,11:16:52.119138,NaN,0,,0.10955446,-0.0008611828,0.030188143,-0.42573047,0.71661687,-0.55246145,-0.06992,0.58267665,0.8096908,0.9021445,0.38333815,-0.19795737,,0.02460245,0.0029553324,0.0126386285,-0.40738213,-0.039009638,0.912424,0.91003275,-0.101228535,0.40198654,0.07668197,0.9940982,0.0767387,,0.074764945,1.3022345,0.43178412,0.99612045,0.07741974,-0.041835293,0.027652988,-0.72670364,-0.6863943,-0.08354233,0.6825745,-0.7260253,,-0.086905874,0.26300997,-0.095091976,0.33544597,-0.7410634,0.5816365,0.57350695,0.6504575,0.49799082,-0.74737257,0.16652358,0.6431984,,-0.011104101,0.45626423,-0.30683088,0.37978947,-0.110556215,-0.91844285,0.7188829,0.660127,0.2178067,0.58220905,-0.74297357,0.33018625,,1.1961509266900117,0.5089512646100178,0.19818588923000002,1.893919569552224,-0.7979571586301722,-0.27237088474139287,-0.41048363819544376,,-0.17378465786867414,0.2937032539396323,0.19175888341000003,-3.2615173809582916,0.292538745997808,1.1928741891493149,0.8622933251228602,,-0.030951232622554444,-0.025656340004316647,0.11367150912,-0.09289233806103908,,-5.0887465e-06,7.1525574e-07,-4.4107437e-06,0.99999994,2.1833926e-05,2.05338e-05,-2.1845102e-05,1.0,2.503395e-06,-2.0530075e-05,-2.503395e-06,1.0,789,2.444,1,3,0.558,False,-0.2583885926606384,1.0354171687311253
2.4449725719168782,11:16:52.161715,NaN,0,,0.10913418,-0.0009048134,0.029961228,-0.45872647,0.70442814,-0.54161876,-0.077810585,0.57534844,0.81419885,0.8851641,0.41563824,-0.20911556,,0.02462282,0.0029470325,0.01264447,-0.40752172,-0.039135106,0.9123564,0.90998375,-0.10112047,0.40212443,0.07652068,0.9941042,0.076821044,,0.074764945,1.3022345,0.43178412,0.99612045,0.07741974,-0.041835293,0.027652988,-0.72670364,-0.6863943,-0.08354233,0.6825745,-0.7260253,,-0.08646637,0.26284832,-0.094988324,0.3698,-0.73216826,0.5719944,0.55805945,0.6672482,0.4933047,-0.7428443,0.13678284,0.6553418,,-0.0111250095,0.4562604,-0.30683902,0.37995243,-0.110434465,-0.9183901,0.71874917,0.6602194,0.21796787,0.58226776,-0.74290955,0.33022663,,1.1970776546349187,0.5085882961649293,0.19824811115000002,1.8394001842462477,-0.7912619701416657,-0.227516258095931,-0.40917688566636945,,-0.17388505339603905,0.2936337493437643,0.19175499454000003,-3.261727070901776,0.292538745997808,1.1927925104091743,0.8608232285276518,,-0.030951232622554444,-0.025656340004316647,0.11367150912,-0.09289233806103908,,-5.0887465e-06,7.1525574e-07,-4.4107437e-06,0.99999994,2.1833926e-05,2.05338e-05,-2.1845102e-05,1.0,2.503395e-06,-2.0530075e-05,-2.503395e-06,1.0,798,2.473,1,3,0.587,False,-0.25868648125324345,1.034741245920213
2.487561292015016,11:16:52.185219,NaN,0,,0.10895582,-0.0009073168,0.029818565,-0.47418752,0.7034857,-0.52939004,-0.07564807,0.5665113,0.8205744,0.87716794,0.4291535,-0.21541524,,0.024633959,0.0029421896,0.012648046,-0.40767366,-0.039282523,0.91228217,0.90992653,-0.10105902,0.40226948,0.076392144,0.9941046,0.07694325,,0.074764945,1.3022345,0.43178412,0.99612045,0.07741974,-0.041835293,0.027652988,-0.72670364,-0.6863943,-0.08354233,0.6825745,-0.7260253,,-0.08627514,0.2627606,-0.09489942,0.38599318,-0.73267454,0.560533,0.5551434,0.66977024,0.4931771,-0.73676664,0.12081322,0.6652662,,-0.011136507,0.45625842,-0.30684394,0.3801228,-0.11028958,-0.918337,0.71863514,0.66027886,0.21816362,0.5822973,-0.7428782,0.33024502,,1.1976877505319823,0.5083566141787026,0.19827922211000001,1.8171730502368881,-0.7821073246573812,-0.20214640410708534,-0.40983026193090655,,-0.17393911252615862,0.29359513567939316,0.19175240196,-3.261936760845261,0.292538745997808,1.1927925104091743,0.8614766047921889,,-0.030951232622554444,-0.025656340004316647,0.11367150912,-0.09289233806103908,,-5.0887465e-06,7.1525574e-07,-4.4107437e-06,0.99999994,2.1833926e-05,2.05338e-05,-2.1845102e-05,1.0,2.503395e-06,-2.0530075e-05,-2.503395e-06,1.0,811,2.514,0,3,0.596,False,-0.25815028178655464,1.0354654489319046
2.5110543300397694,11:16:52.228712,NaN,0,,0.108529955,-0.00089769065,0.029461175,-0.5121943,0.6943205,-0.5055452,-0.07264671,0.5514844,0.83101594,0.8557917,0.4623678,-0.23202708,,0.024673447,0.0029152185,0.012654245,-0.40599626,-0.038654074,0.91305673,0.9106454,-0.101028115,0.40064707,0.07675773,0.99413246,0.07621713,,0.074764945,1.3022345,0.43178412,0.99612045,0.07741974,-0.041835293,0.027652988,-0.72670364,-0.6863943,-0.08354233,0.6825745,-0.7260253,,-0.085816644,0.2625516,-0.094664305,0.4259295,-0.72699744,0.53857106,0.5451084,0.6812977,0.4885594,-0.72210866,0.08548775,0.6864772,,-0.011176132,0.45623997,-0.3068643,0.3784006,-0.11091535,-0.9189727,0.7191855,0.6602446,0.21644709,0.5827394,-0.74281555,0.32960564,,1.1997188292779033,0.5076615682200224,0.19840755482000003,1.7475559890000258,-0.7565562992012438,-0.1327265442429948,-0.40934022973250395,,-0.17413990358088846,0.29341751282328604,0.19174462422000002,-3.2600495513539003,0.2928120189973389,1.1925696746017815,0.8611499166599201,,-0.030951232622554444,-0.025656340004316647,0.11367150912,-0.09289233806103908,,-5.0887465e-06,7.1525574e-07,-4.4107437e-06,0.99999994,2.1833926e-05,2.05338e-05,-2.1845102e-05,1.0,2.503395e-06,-2.0530075e-05,-2.503395e-06,1.0,820,2.542,0,3,0.596,False,-0.2586269035347226,1.0352723281287868
2.5545553350821137,11:16:52.255904,NaN,0,,0.108190134,-0.0008659959,0.029269814,-0.53519654,0.6909986,-0.48588622,-0.07305357,0.5351822,0.84157187,0.84156275,0.4859021,-0.23594776,,0.024713665,0.0028914511,0.012661219,-0.40597638,-0.039826505,0.9130152,0.91065973,-0.10147056,0.4005028,0.076693535,0.9940411,0.07746303,,0.074764945,1.3022345,0.43178412,0.99612045,0.07741974,-0.041835293,0.027652988,-0.72670364,-0.6863943,-0.08354233,0.6825745,-0.7260253,,-0.08545946,0.26246533,-0.09452982,0.45018938,-0.72622067,0.5195508,0.536522,0.68510044,0.49272874,-0.71377426,0.056929156,0.6980583,,-0.011216653,0.4562242,-0.30688277,0.3783905,-0.10973719,-0.9191183,0.719146,0.66002,0.21726179,0.5827947,-0.74319,0.32866234,,1.2007150618186784,0.5073989953022987,0.19844514723,1.7267966845950582,-0.7478115632162555,-0.10694075780291923,-0.4088501975341009,,-0.17432524916986986,0.2932321672343046,0.19173684648000003,-3.2600495513539003,0.29267538249757347,1.1936612373871647,0.8608232285276516,,-0.030951232622554444,-0.025656340004316647,0.11367150912,-0.09289233806103908,,-5.0887465e-06,7.1525574e-07,-4.4107437e-06,0.99999994,2.1833926e-05,2.05338e-05,-2.1845102e-05,1.0,2.503395e-06,-2.0530075e-05,-2.503395e-06,1.0,833,2.583,1,4,0.634,False,-0.2571374605716965,1.0355137291326841
2.58172859903425,11:16:52.298875,NaN,0,,0.107793875,-0.0008032769,0.028972805,-0.56863844,0.68467873,-0.4559223,-0.067837864,0.513333,0.8555041,0.8197855,0.51740134,-0.24545375,,0.024774358,0.0028501004,0.012670398,-0.4045721,-0.04045281,0.91361076,0.9112402,-0.10218543,0.39899778,0.0772171,0.9939425,0.07820356,,0.074764945,1.3022345,0.43178412,0.99612045,0.07741974,-0.041835293,0.027652988,-0.72670364,-0.6863943,-0.08354233,0.6825745,-0.7260253,,-0.08503543,0.2623345,-0.094301224,0.48565626,-0.72331667,0.49086756,0.5276197,0.69026774,0.49512413,-0.6969616,0.018531265,0.716869,,-0.011277519,0.4561957,-0.30691373,0.37691608,-0.10909437,-0.91980034,0.71975064,0.65954083,0.21671377,0.58300364,-0.7437098,0.3271123,,1.2027924769618448,0.5069201858640968,0.19853459124000003,1.6804552070849783,-0.7232169932584763,-0.052831684420644676,-0.408850197534101,,-0.17461871301909038,0.2929309806522099,0.19172388358000003,-3.2583720318060236,0.292538745997808,1.1947528001725478,0.8611499166599201,,-0.030951232622554444,-0.025656340004316647,0.11367150912,-0.09289233806103908,,-5.0887465e-06,7.1525574e-07,-4.4107437e-06,0.99999994,2.1833926e-05,2.05338e-05,-2.1845102e-05,1.0,2.503395e-06,-2.0530075e-05,-2.503395e-06,1.0,842,2.612,1,4,0.663,False,-0.25767366003838577,1.0348378063217716
2.6247109801042825,11:16:52.329229,NaN,0,,0.10746439,-0.0007747859,0.028667837,-0.6007178,0.6742591,-0.42954934,-0.06381863,0.4951404,0.8664659,0.79690987,0.5479147,-0.2544093,,0.024831347,0.0028105825,0.012682259,-0.40403432,-0.040653214,0.9138399,0.91150695,-0.10185966,0.39847153,0.07688421,0.9939678,0.07821043,,0.074764945,1.3022345,0.43178412,0.99612045,0.07741974,-0.041835293,0.027652988,-0.72670364,-0.6863943,-0.08354233,0.6825745,-0.7260253,,-0.08467763,0.2621694,-0.09408425,0.5198543,-0.71618,0.4656583,0.51702315,0.6977079,0.49587375,-0.6800283,-0.01702596,0.7329881,,-0.011335149,0.45617086,-0.30694553,0.37643158,-0.10890415,-0.9200213,0.71962386,0.65980315,0.21633612,0.583473,-0.743505,0.32674077,,1.2045146463927967,0.5064182082272722,0.19861625751000003,1.636000939066259,-0.6993056057995242,-0.0051898931719762675,-0.4085235094018324,,-0.174881285936814,0.29266840773448627,0.19170962439000003,-3.2579526519190547,0.2928120189973389,1.194693321845436,0.8608232285276516,,-0.030951232622554444,-0.025656340004316647,0.11367150912,-0.09289233806103908,,-5.0887465e-06,7.1525574e-07,-4.4107437e-06,0.99999994,2.1833926e-05,2.05338e-05,-2.1845102e-05,1.0,2.503395e-06,-2.0530075e-05,-2.503395e-06,1.0,855,2.653,1,4,0.704,False,-0.25785239319394915,1.0344032845147566
