AlexandreBanks6/ExpertPlaybackApp/resources/Motions/P_07/PC1/Data_PC1_7.csv
Task Time,PC1 Time,PC2 Time,Gaze Calib,s_T_psm1,Tx,Ty,Tz,R00,R01,R02,R10,R11,R12,R20,R21,R22,s_T_psm3,Tx,Ty,Tz,R00,R01,R02,R10,R11,R12,R20,R21,R22,cart_T_ecm,Tx,Ty,Tz,R00,R01,R02,R10,R11,R12,R20,R21,R22,ecm_T_psm1,Tx,Ty,Tz,R00,R01,R02,R10,R11,R12,R20,R21,R22,ecm_T_psm3,Tx,Ty,Tz,R00,R01,R02,R10,R11,R12,R20,R21,R22,psm1_joints,q1,q2,q3,q4,q5,q6,jaw,psm3_joints,q1,q2,q3,q4,q5,q6,jaw,ecm_joints,q1,q2,q3,q4,ecmi_T_ecm,Tx,Ty,Tz,R00,R01,R02,R10,R11,R12,R20,R21,R22,Sample #,Task Duration (s),Collisions (binary),Collisions (increments),Cumulative Collision Time (s),Clutch Press,MTMR Angle,MTML Angle
""
lci_T_si,,,,,-0.053492907,0.03067575,0.21583572,0.9922148,0.027492212,0.12146585,0.10393389,-0.72013074,-0.6860098,0.06861137,0.6932935,-0.7173818
rci_T_si,,,,,-0.06295502,0.034948092,0.22635663,0.9921467,0.010968016,0.12459805,0.0950465,-0.7136615,-0.6940126,0.08130889,0.7004049,-0.70909935
ecm_T_lc,,,,,-4.4061628e-05,-0.00034663224,-0.01840835,-0.99912,0.030754527,0.028518902,-0.031987965,-0.99852574,-0.043852776,0.027128186,-0.04472645,0.9986309
ecm_T_rc,,,,,-0.0043358393,0.01870579,-0.007592615,-0.99555075,-0.052743673,-0.078081585,0.04863213,-0.9973746,0.053654674,-0.08070653,0.04961868,0.9955021
cart_T_ecmi,,,,,0.07476978,1.3022323,0.43178007,0.9961213,0.07739788,-0.04185594,0.027623024,-0.72670597,-0.686393,-0.08354233,0.6825745,-0.7260253
ecmac_T_ecmrep_psm1,,,,,0.012989772,-0.26409563,-0.29155013,0.99659246,0.08125139,0.014199966,-0.079952136,0.9939098,-0.07583538,-0.020275215,0.07444165,0.99701923
ecmac_T_ecmrep_psm3,,,,,0.016264312,-0.47033283,-0.5183238,0.99978954,0.020288749,-0.0030332562,-0.020227978,0.99961716,0.018877296,0.0034150917,-0.018811967,0.9998172
""
0,11:13:09.340232,NaN,0,,0.1234405,-0.0031432807,0.020636603,0.96030045,0.16552699,-0.2245523,0.18933848,0.20442283,0.9603969,0.20487523,-0.96478605,0.16496667,,0.02519986,0.005963579,0.0066252947,-0.5755713,-0.3547246,0.73680925,0.77717084,0.043030262,0.6278168,-0.25440717,0.9339801,0.25091463,,0.07481952,1.3022327,0.43178523,0.99612236,0.07736949,-0.04188276,0.027584098,-0.726709,-0.68639135,-0.08354233,0.6825745,-0.7260253,,-0.09988406,0.25419462,-0.08842865,-0.9724964,-0.06831449,0.22267455,0.22640824,-0.50170434,0.83488446,0.054682076,0.86233747,0.5033726,,-0.010867893,0.4538373,-0.30053568,0.5978104,0.20881602,-0.7739629,0.40828937,0.7515562,0.5181342,0.6898714,-0.62574685,0.36403078,,1.138168648270334,0.5315248128013761,0.2021823513,3.7792418514215824,0.10398037632150017,-1.0221342465660688,-0.40803347720342964,,-0.15728117771645636,0.3008776727797869,0.19926310622,-3.644201527817549,0.4895685786595731,1.2633604066168664,0.8198238679279473,,-0.02858849314766712,-0.02640246825954422,0.113675081,-0.09420068085063119,,4.913658e-05,7.033348e-06,-6.198883e-06,1.0,-2.8371811e-05,-2.6665628e-05,2.836436e-05,1.0,-3.2782555e-06,2.6676804e-05,3.2782555e-06,1.0,35,0.104,0,0,0.0,False,-0.25773323775690704,0.9942824376670267
0.12911974918097258,11:13:09.368286,NaN,0,,0.12343733,-0.0031368583,0.02090256,0.9594214,0.16954559,-0.22531049,0.1893751,0.20459005,0.96035403,0.20892006,-0.9640525,0.16418037,,0.025199756,0.0059604794,0.0066297054,-0.5750507,-0.3550757,0.73704666,0.7773109,0.04384324,0.62758696,-0.25515544,0.93380886,0.25079215,,0.07481952,1.3022327,0.43178523,0.99612236,0.07736949,-0.04188276,0.027584098,-0.726709,-0.68639135,-0.08354233,0.6825745,-0.7260253,,-0.0999065,0.25437725,-0.0886208,-0.9720116,-0.072382025,0.2235044,0.22918467,-0.5013035,0.8343675,0.05165032,0.86223876,0.50386167,,-0.0108684255,0.45383844,-0.30054092,0.5974072,0.20917895,-0.7741762,0.40777674,0.7520223,0.5178615,0.6905235,-0.62506527,0.36396527,,1.13885597149614,0.5322661951573017,0.20199438925000002,3.7760965022693145,0.10124764632619138,-1.0208860333738272,-0.40672672467435533,,-0.15727345498358214,0.30090856371128377,0.19926180993000003,-3.644201527817549,0.4905250341579312,1.2631522324719753,0.8199872119940819,,-0.02858849314766712,-0.02640246825954422,0.113675081,-0.09420068085063119,,4.913658e-05,7.033348e-06,-6.198883e-06,1.0,-2.8371811e-05,-2.6665628e-05,2.836436e-05,1.0,-3.2782555e-06,2.6676804e-05,3.2782555e-06,1.0,43,0.129,0,0,0.0,False,-0.25773323775690704,0.9946686792732624
0.15715790609829128,11:13:09.393609,NaN,0,,0.1234203,-0.0031567812,0.02111359,0.9588154,0.17257476,-0.22559004,0.18880032,0.2061303,0.96013784,0.2121965,-0.9631865,0.16505876,,0.025209248,0.0059696287,0.0066358447,-0.5754084,-0.35560563,0.7365117,0.77722216,0.042600513,0.62778246,-0.25461876,0.93366474,0.25187194,,0.07481952,1.3022327,0.43178523,0.99612236,0.07736949,-0.04188276,0.027584098,-0.726709,-0.68639135,-0.08354233,0.6825745,-0.7260253,,-0.09991025,0.25450438,-0.08879125,-0.9717341,-0.075456046,0.22369434,0.23097944,-0.49974266,0.8348088,0.04879823,0.862881,0.5030458,,-0.010878842,0.45384797,-0.3005374,0.5976807,0.20973986,-0.77381325,0.40815043,0.75114214,0.51884365,0.6900659,-0.6259351,0.36333773,,1.139412008263084,0.5327218363968809,0.20182587155,3.773999602834469,0.09851491633088257,-1.0213530737245373,-0.4088501975341009,,-0.15735068231232438,0.300916286444158,0.19926051364000003,-3.644201527817549,0.48984185165910404,1.2642810731714413,0.8191704916634102,,-0.02858849314766712,-0.02640246825954422,0.113675081,-0.09420068085063119,,4.913658e-05,7.033348e-06,-6.198883e-06,1.0,-2.8371811e-05,-2.6665628e-05,2.836436e-05,1.0,-3.2782555e-06,2.6676804e-05,3.2782555e-06,1.0,51,0.153,0,0,0.0,False,-0.25761408231986493,0.9939444762615703
0.18243507505394518,11:13:09.418232,NaN,0,,0.123405755,-0.0031823814,0.021224365,0.95838106,0.17483515,-0.22569531,0.18855926,0.20594594,0.96022475,0.21436207,-0.9628182,0.16440788,,0.025237218,0.0059713423,0.0066441894,-0.57430977,-0.35576805,0.73729044,0.7783618,0.041710377,0.6264289,-0.2536161,0.9336431,0.25296155,,0.07481952,1.3022327,0.43178523,0.99612236,0.07736949,-0.04188276,0.027584098,-0.726709,-0.68639135,-0.08354233,0.6825745,-0.7260253,,-0.09990687,0.25456014,-0.08889131,-0.9715148,-0.07774405,0.22386333,0.23227055,-0.49975345,0.83444405,0.047003407,0.8626716,0.5035755,,-0.010907778,0.45385188,-0.30053914,0.5964291,0.20991465,-0.77473104,0.40951797,0.750545,0.5186301,0.69033855,-0.6265924,0.3616831,,1.1396977493794305,0.5328917365201138,0.20172605722000003,3.7725317732300776,0.09673864183393184,-1.0205580708976083,-0.4075434450050267,,-0.15755147336705422,0.3009008409784096,0.19926051364000003,-3.6421046283827034,0.48970521515933857,1.2657810296575274,0.8196605238618131,,-0.02858849314766712,-0.02640246825954422,0.113675081,-0.09420068085063119,,4.913658e-05,7.033348e-06,-6.198883e-06,1.0,-2.8371811e-05,-2.6665628e-05,2.836436e-05,1.0,-3.2782555e-06,2.6676804e-05,3.2782555e-06,1.0,59,0.177,0,0,0.0,False,-0.2580311263495121,0.9937513554584525
0.20711478404700756,11:13:09.439076,NaN,0,,0.1233845,-0.0032343417,0.021367595,0.9574459,0.1787362,-0.22660667,0.18895628,0.20528707,0.9602879,0.2181576,-0.9622425,0.16277796,,0.02525045,0.0059741586,0.0066518188,-0.574097,-0.35723403,0.736747,0.7785076,0.040593386,0.626321,-0.25365028,0.9331323,0.2548049,,0.07481952,1.3022327,0.43178523,0.99612236,0.07736949,-0.04188276,0.027584098,-0.726709,-0.68639135,-0.08354233,0.6825745,-0.7260253,,-0.09990038,0.25461844,-0.089033544,-0.9709446,-0.081692375,0.22492877,0.23515081,-0.5000649,0.8334502,0.044392455,0.8621261,0.50474536,,-0.010922042,0.45385772,-0.30054092,0.59622216,0.21145469,-0.77447146,0.40956602,0.7495949,0.5199645,0.6904888,-0.6272116,0.36032045,,1.1400375496258963,0.5330461911775983,0.20158346532000002,3.7693864240778097,0.09414254833838846,-1.019094560648501,-0.40656338060822084,,-0.15763642342867068,0.30090856371128377,0.19925921735000002,-3.6418949384392194,0.48984185165910404,1.267711580257345,0.8194971797956789,,-0.02858849314766712,-0.02640246825954422,0.113675081,-0.09420068085063119,,4.913658e-05,7.033348e-06,-6.198883e-06,1.0,-2.8371811e-05,-2.6665628e-05,2.836436e-05,1.0,-3.2782555e-06,2.6676804e-05,3.2782555e-06,1.0,74,0.223,0,0,0.0,False,-0.25761408231986493,0.993799635659232
0.2279599499888718,11:13:09.482116,NaN,0,,0.12336516,-0.0033425838,0.021713361,0.9530713,0.19783908,-0.22916086,0.1882391,0.20558515,0.9603648,0.23710977,-0.95843333,0.15869623,,0.025251836,0.005981058,0.0066615343,-0.5728441,-0.3582478,0.73722994,0.77935195,0.040539533,0.6252736,-0.25388983,0.93274593,0.25597838,,0.07481952,1.3022327,0.43178523,0.99612236,0.07736949,-0.04188276,0.027584098,-0.726709,-0.68639135,-0.08354233,0.6825745,-0.7260253,,-0.09991623,0.25477016,-0.089362755,-0.968433,-0.10106679,0.22786619,0.24751379,-0.49831298,0.8309158,0.02957068,0.86108637,0.50759816,,-0.010924968,0.45386925,-0.3005422,0.5950096,0.21251579,-0.7751133,0.40981138,0.7493987,0.52005404,0.6913886,-0.62708735,0.35880807,,1.1410492276324198,0.5332469822323281,0.2012490225,3.7559662676948005,0.07924916986395546,-1.0159346705610528,-0.4075434450050268,,-0.15767503709304181,0.30100895923864873,0.19925921735000002,-3.640636798778312,0.4909349436572275,1.2691072417517095,0.8194971797956789,,-0.02858849314766712,-0.02640246825954422,0.113675081,-0.09420068085063119,,4.913658e-05,7.033348e-06,-6.198883e-06,1.0,-2.8371811e-05,-2.6665628e-05,2.836436e-05,1.0,-3.2782555e-06,2.6676804e-05,3.2782555e-06,1.0,82,0.247,0,0,0.0,False,-0.25642252794944387,0.9939927564623499
0.27098183310590684,11:13:09.503227,NaN,0,,0.123344675,-0.003370449,0.021854833,0.950991,0.20780474,-0.22898301,0.18593112,0.20741293,0.96042156,0.24707417,-0.9559273,0.15861043,,0.025255263,0.0059823096,0.0066625476,-0.57190984,-0.3586328,0.7377678,0.7803539,0.03943798,0.6240932,-0.2529164,0.93264514,0.25730565,,0.07481952,1.3022327,0.43178523,0.99612236,0.07736949,-0.04188276,0.027584098,-0.726709,-0.68639135,-0.08354233,0.6825745,-0.7260253,,-0.099909954,0.25484508,-0.08948747,-0.9673616,-0.11119789,0.22769837,0.25256917,-0.49581134,0.8308911,0.020502105,0.8612817,0.50771403,,-0.010928523,0.45387045,-0.30054164,0.5939266,0.21292517,-0.7758312,0.41108444,0.748628,0.52015924,0.69156396,-0.62786853,0.3570999,,1.1416670462623577,0.5332083685679571,0.20112068979000003,3.750304639220718,0.0699578878799055,-1.0157910184624872,-0.40868685346796685,,-0.1577368189560356,0.3010244047043972,0.19925921735000002,-3.6387495892869515,0.4907983071574621,1.2709339131983577,0.8191704916634102,,-0.02858849314766712,-0.02640246825954422,0.113675081,-0.09420068085063119,,4.913658e-05,7.033348e-06,-6.198883e-06,1.0,-2.8371811e-05,-2.6665628e-05,2.836436e-05,1.0,-3.2782555e-06,2.6676804e-05,3.2782555e-06,1.0,93,0.28,0,0,0.0,False,-0.25672041654204936,0.9933168336514373
0.2920789220370352,11:13:09.538320,NaN,0,,0.12332856,-0.0034287423,0.022072867,0.94763106,0.22294652,-0.22867003,0.18258354,0.20925722,0.9606637,0.26202747,-0.95210624,0.1575923,,0.025319815,0.0059975237,0.006690383,-0.57144237,-0.35938472,0.7377642,0.78058374,0.03941223,0.6238074,-0.2532638,0.93235683,0.2580081,,0.07481952,1.3022327,0.43178523,0.99612236,0.07736949,-0.04188276,0.027584098,-0.726709,-0.68639135,-0.08354233,0.6825745,-0.7260253,,-0.09991589,0.25494835,-0.089688696,-0.9655151,-0.126607,0.22748908,0.2602543,-0.49269357,0.8303739,0.006951269,0.8609435,0.5086531,,-0.010996725,0.45389324,-0.30054298,0.5935142,0.21371229,-0.77593035,0.41093057,0.7484908,0.5204782,0.6920093,-0.6277647,0.35641903,,1.1425088241456482,0.533169754903586,0.20090809823000003,3.7412879716508836,0.05561105540453427,-1.0146286960524955,-0.4080334772034294,,-0.15812295559974685,0.30103212743727137,0.19926051364000003,-3.638539899343467,0.4912082166567584,1.2713347681485336,0.8191704916634106,,-0.02858849314766712,-0.02640246825954422,0.113675081,-0.09420068085063119,,4.913658e-05,7.033348e-06,-6.198883e-06,1.0,-2.8371811e-05,-2.6665628e-05,2.836436e-05,1.0,-3.2782555e-06,2.6676804e-05,3.2782555e-06,1.0,101,0.305,0,0,0.0,False,-0.25630337251240265,0.9939444762615703
0.327204124070704,11:13:09.562592,NaN,0,,0.12328208,-0.0034981072,0.022282079,0.9437593,0.2351154,-0.23246284,0.18420081,0.2099779,0.96019757,0.27456927,-0.9490153,0.15486005,,0.025357723,0.0060094,0.0067080855,-0.57147795,-0.35975027,0.7375585,0.7805059,0.039278984,0.6239133,-0.2534235,0.93222153,0.25834012,,0.07481952,1.3022327,0.43178523,0.99612236,0.07736949,-0.04188276,0.027584098,-0.726709,-0.68639135,-0.08354233,0.6825745,-0.7260253,,-0.09989095,0.25503913,-0.08989333,-0.9628479,-0.13900466,0.23152024,0.27003992,-0.49073976,0.82840383,-0.0015358106,0.86014664,0.5100446,,-0.0110370265,0.45390964,-0.30054256,0.5935745,0.21409571,-0.77577853,0.41076598,0.74834615,0.5208161,0.69205534,-0.6278066,0.35625598,,1.143219315570077,0.5331774776364602,0.20070976586000003,3.7310131644201423,0.047549501918373274,-1.0130374428829811,-0.4057466602775496,,-0.15835463758597357,0.3010398501701456,0.19926051364000003,-3.6387495892869515,0.4912082166567584,1.2714164468886742,0.8186804594650074,,-0.02858849314766712,-0.02640246825954422,0.113675081,-0.09420068085063119,,4.913658e-05,7.033348e-06,-6.198883e-06,1.0,-2.8371811e-05,-2.6665628e-05,2.836436e-05,1.0,-3.2782555e-06,2.6676804e-05,3.2782555e-06,1.0,109,0.329,0,0,0.0,False,-0.25725661600873906,0.9941375970646882
0.351466067135334,11:13:09.591979,NaN,0,,0.12317611,-0.0035577714,0.022506118,0.94175005,0.24242273,-0.23310488,0.18426356,0.20789793,0.96063805,0.2813425,-0.94763374,0.15111825,,0.025407314,0.006025389,0.0067315698,-0.57059944,-0.3593123,0.7384516,0.7813424,0.03930089,0.6228639,-0.25282443,0.9323895,0.25832093,,0.07481952,1.3022327,0.43178523,0.99612236,0.07736949,-0.04188276,0.027584098,-0.726709,-0.68639135,-0.08354233,0.6825745,-0.7260253,,-0.09980807,0.25515017,-0.09010731,-0.9615016,-0.14644317,0.2325276,0.27471873,-0.4917482,0.8262647,-0.006655791,0.8583345,0.5130474,,-0.011089782,0.45393157,-0.30054185,0.5926053,0.21363714,-0.7766455,0.41166154,0.7484307,0.5199868,0.6923538,-0.627862,0.3555778,,1.144192379912229,0.5331852003693344,0.20049458172,3.725561225889544,0.04208404192775565,-1.0090707991759675,-0.407706789071161,,-0.15869443783243944,0.3010707411016425,0.19926051364000003,-3.6372817596825593,0.4912082166567584,1.2714164468886742,0.8190071475972764,,-0.02858849314766712,-0.02640246825954422,0.113675081,-0.09420068085063119,,4.913658e-05,7.033348e-06,-6.198883e-06,1.0,-2.8371811e-05,-2.6665628e-05,2.836436e-05,1.0,-3.2782555e-06,2.6676804e-05,3.2782555e-06,1.0,117,0.354,0,0,0.0,False,-0.2566012611050077,0.9942824376670267
0.38086178712546825,11:13:09.620085,NaN,0,,0.123107396,-0.0035798252,0.0226589,0.9403272,0.2481829,-0.23278688,0.18345168,0.20641911,0.96111214,0.28658327,-0.9464652,0.14857194,,0.025437668,0.0060211867,0.0067406297,-0.5688876,-0.3582082,0.7403064,0.7827958,0.04017958,0.62098,-0.25218537,0.93277675,0.25754628,,0.07481952,1.3022327,0.43178523,0.99612236,0.07736949,-0.04188276,0.027584098,-0.726709,-0.68639135,-0.08354233,0.6825745,-0.7260253,,-0.09975478,0.25523955,-0.09024045,-0.96060467,-0.15231186,0.23246458,0.2776934,-0.49237087,0.82489836,-0.01118302,0.8569551,0.51526976,,-0.011121106,0.45393166,-0.30054817,0.5907987,0.21247643,-0.7783384,0.41290268,0.74917346,0.5179291,0.6931582,-0.6273698,0.3548786,,1.1449260395352805,0.5332083685679571,0.20036106385000002,3.7219964968503074,0.037301764435965244,-1.006069638688139,-0.4068900687404895,,-0.15889522888716928,0.30105529563589406,0.19926051364000003,-3.634765480360745,0.49175476265582013,1.2709707752738884,0.8190071475972764,,-0.02858849314766712,-0.02640246825954422,0.113675081,-0.09420068085063119,,4.913658e-05,7.033348e-06,-6.198883e-06,1.0,-2.8371811e-05,-2.6665628e-05,2.836436e-05,1.0,-3.2782555e-06,2.6676804e-05,3.2782555e-06,1.0,125,0.377,0,0,0.0,False,-0.2574949268828224,0.9934133940529963
0.4089605889748782,11:13:09.643050,NaN,0,,0.1229871,-0.0035992265,0.022884294,0.93775815,0.25564933,-0.23505938,0.18428819,0.20737314,0.9607467,0.29435927,-0.9442668,0.1473526,,0.025460191,0.0060215592,0.0067473054,-0.568835,-0.3583228,0.74029136,0.78281385,0.04017973,0.6209573,-0.25224793,0.9327327,0.25764441,,0.07481952,1.3022327,0.43178523,0.99612236,0.07736949,-0.04188276,0.027584098,-0.726709,-0.68639135,-0.08354233,0.6825745,-0.7260253,,-0.09965715,0.25538212,-0.09042963,-0.95878583,-0.15993977,0.23483817,0.28364614,-0.49059048,0.8239331,-0.016570302,0.8565864,0.51573753,,-0.011144382,0.4539341,-0.30055028,0.590756,0.21259634,-0.7783381,0.412863,0.7491553,0.51798695,0.69321823,-0.6273509,0.3547948,,1.1460998949321626,0.5332701504309508,0.20017180551000002,3.715076728715318,0.03156303144581674,-1.0049022725589334,-0.4080334772034294,,-0.15901879261315688,0.3010244047043972,0.19926051364000003,-3.634765480360745,0.49175476265582013,1.2709707752738884,0.8190071475972764,,-0.02858849314766712,-0.02640246825954422,0.113675081,-0.09420068085063119,,4.913658e-05,7.033348e-06,-6.198883e-06,1.0,-2.8371811e-05,-2.6665628e-05,2.836436e-05,1.0,-3.2782555e-06,2.6676804e-05,3.2782555e-06,1.0,140,0.424,0,0,0.0,False,-0.2568991496976123,0.9940410366631294
0.43187840306200087,11:13:09.682574,NaN,0,,0.12282548,-0.0035778582,0.023216233,0.9362029,0.26219898,-0.23404229,0.18137836,0.2099447,0.96074194,0.3010415,-0.94189966,0.14899358,,0.025495365,0.006029278,0.0067604184,-0.5685374,-0.35860738,0.7403821,0.7830694,0.039919168,0.62065184,-0.2521258,0.93263453,0.25811896,,0.07481952,1.3022327,0.43178523,0.99612236,0.07736949,-0.04188276,0.027584098,-0.726709,-0.68639135,-0.08354233,0.6825745,-0.7260253,,-0.09952802,0.25562835,-0.09067348,-0.9579294,-0.16664611,0.23366736,0.28603402,-0.4874482,0.82497203,-0.023577653,0.85710174,0.51460737,,-0.011181227,0.45394462,-0.30055004,0.59044015,0.21289572,-0.77849585,0.4130887,0.748942,0.5181154,0.6933528,-0.627504,0.35426062,,1.14786840076036,0.5335713370130456,0.19993069557,3.711511999676081,0.02404802395871752,-1.0048185146260318,-0.40803347720342953,,-0.15923502913363516,0.3010166819715229,0.19926180993000003,-3.6343461004737763,0.49175476265582013,1.2713791689745912,0.8193338357295445,,-0.02858849314766712,-0.02640246825954422,0.113675081,-0.09420068085063119,,4.913658e-05,7.033348e-06,-6.198883e-06,1.0,-2.8371811e-05,-2.6665628e-05,2.836436e-05,1.0,-3.2782555e-06,2.6676804e-05,3.2782555e-06,1.0,148,0.448,0,0,0.0,False,-0.2575545046013441,0.9941375970646882
0.4714201339520514,11:13:09.712697,NaN,0,,0.12279812,-0.0035445988,0.023414567,0.93367285,0.2714035,-0.23365583,0.1791157,0.21108216,0.96091723,0.3101169,-0.93903375,0.14846903,,0.025499508,0.006032869,0.006764114,-0.56815547,-0.35916325,0.74040586,0.7836709,0.038410127,0.6199875,-0.25111586,0.9324839,0.25964293,,0.07481952,1.3022327,0.43178523,0.99612236,0.07736949,-0.04188276,0.027584098,-0.726709,-0.68639135,-0.08354233,0.6825745,-0.7260253,,-0.09951944,0.255787,-0.09079975,-0.9563238,-0.17606534,0.23333621,0.29055288,-0.485178,0.82473105,-0.03199696,0.85650647,0.5151436,,-0.011185922,0.45394924,-0.30054945,0.5899025,0.21348652,-0.77874166,0.41418424,0.74788046,0.51877373,0.6931569,-0.6285685,0.3527538,,1.1487796832395185,0.5338648008622662,0.19980884431,3.7060600611454833,0.015576560973260212,-1.003464758926412,-0.4083601653356982,,-0.15930453372950318,0.3010244047043972,0.19925921735000002,-3.6330879608128694,0.4912082166567584,1.273295057911907,0.8194971797956792,,-0.02858849314766712,-0.02640246825954422,0.113675081,-0.09420068085063119,,4.913658e-05,7.033348e-06,-6.198883e-06,1.0,-2.8371811e-05,-2.6665628e-05,2.836436e-05,1.0,-3.2782555e-06,2.6676804e-05,3.2782555e-06,1.0,156,0.473,0,0,0.0,False,-0.2568991496976123,0.993799635659232
0.501569536048919,11:13:09.734929,NaN,0,,0.122755446,-0.003477946,0.023715913,0.9314768,0.2786779,-0.23385769,0.17586647,0.2177878,0.9600206,0.31846786,-0.93536466,0.15385416,,0.02551651,0.006033331,0.006772816,-0.5678947,-0.35934046,0.74051994,0.783744,0.038800925,0.6198709,-0.2514775,0.9323995,0.2595961,,0.07481952,1.3022327,0.43178523,0.99612236,0.07736949,-0.04188276,0.027584098,-0.726709,-0.68639135,-0.08354233,0.6825745,-0.7260253,,-0.09950502,0.25604007,-0.09098092,-0.9549962,-0.18355356,0.23300278,0.29383788,-0.4781363,0.82767445,-0.0405155,0.858891,0.51055336,,-0.011204047,0.45395386,-0.30055338,0.58969855,0.21366961,-0.7788459,0.41393897,0.748104,0.51864725,0.69347686,-0.62824017,0.35270965,,1.1500848250952624,0.5345212331565752,0.19963643774000003,3.7016565723323085,0.007105097987802903,-1.0075018000760692,-0.4083601653356981,,-0.1593972065239939,0.3010244047043972,0.19925792106,-3.6330879608128694,0.49161812615605477,1.2731241616810987,0.8191704916634106,,-0.02858849314766712,-0.02640246825954422,0.113675081,-0.09420068085063119,,4.913658e-05,7.033348e-06,-6.198883e-06,1.0,-2.8371811e-05,-2.6665628e-05,2.836436e-05,1.0,-3.2782555e-06,2.6676804e-05,3.2782555e-06,1.0,168,0.509,0,0,0.0,False,-0.25779281547542787,0.9937513554584525
0.5237908440176398,11:13:09.774835,NaN,0,,0.122691736,-0.003426373,0.024040654,0.9288328,0.2861004,-0.23540565,0.17617452,0.2178913,0.95994055,0.32593223,-0.93309695,0.15198097,,0.025539085,0.0060330033,0.0067822337,-0.5671686,-0.3598832,0.7408128,0.784436,0.038032055,0.6190425,-0.2509576,0.9322218,0.26073483,,0.07481952,1.3022327,0.43178523,0.99612236,0.07736949,-0.04188276,0.027584098,-0.726709,-0.68639135,-0.08354233,0.6825745,-0.7260253,,-0.09947217,0.25629872,-0.09119117,-0.9530812,-0.19115785,0.23472303,0.29919422,-0.4769385,0.8264457,-0.046033137,0.85789764,0.51175445,,-0.0112277875,0.4539578,-0.30055782,0.5888937,0.21424243,-0.77929735,0.41469762,0.7475207,0.51888216,0.69370747,-0.6287392,0.35136443,,1.1514054124167548,0.535270338245375,0.19943551279000002,3.695156184084288,0.0017762744969507258,-1.0048717553748605,-0.40787013313729537,,-0.15955166118147837,0.30100895923864873,0.19925532848000002,-3.6318298211519617,0.49161812615605477,1.2745127002634882,0.8193338357295445,,-0.02858849314766712,-0.02640246825954422,0.113675081,-0.09420068085063119,,4.913658e-05,7.033348e-06,-6.198883e-06,1.0,-2.8371811e-05,-2.6665628e-05,2.836436e-05,1.0,-3.2782555e-06,2.6676804e-05,3.2782555e-06,1.0,183,0.555,0,0,0.0,False,-0.2580311263495121,0.9939927564623499
0.5637164050713181,11:13:09.815160,NaN,0,,0.12267317,-0.0033216178,0.024550304,0.92025864,0.30692288,-0.24273925,0.18070894,0.21688497,0.9593253,0.3470854,-0.9266926,0.14412647,,0.025516018,0.006009266,0.0067896843,-0.5665067,-0.36063963,0.7409514,0.7849835,0.037419945,0.61838543,-0.2507407,0.93195426,0.26189756,,0.07475035,1.3022321,0.43178213,0.9961203,0.077425145,-0.04183019,0.027660394,-0.7267031,-0.6863946,-0.08354233,0.6825745,-0.7260253,,-0.09944212,0.25672007,-0.091507524,-0.94653445,-0.21253313,0.24269776,0.3170959,-0.47452924,0.82114077,-0.059352435,0.8541965,0.5165517,,-0.01114668,0.45395824,-0.3005856,0.58814055,0.21502948,-0.77964926,0.415174,0.7470194,0.51922303,0.6940614,-0.6290662,0.35007775,,1.1535909458201603,0.5365059755052509,0.19916718076,3.6746065696228047,-0.010930919981235236,-0.9975320037162941,-0.4081968212695639,,-0.1597833431677051,0.30100895923864873,0.19925143961000003,-3.630991061378024,0.49175476265582013,1.2757081422020409,0.8190071475972762,,-0.02858849314766712,-0.02640246825954422,0.113675081,-0.09420068085063119,,-1.9520521e-05,0.0,-7.1525574e-07,1.0,2.7228147e-05,2.561137e-05,-2.7239323e-05,1.0,3.1292439e-06,-2.560392e-05,-3.0994415e-06,1.0,191,0.579,0,0,0.0,False,-0.25695872741613357,0.9941375970646882
0.6040453840978444,11:13:09.841950,NaN,0,,0.12267755,-0.003272444,0.0247249,0.9162353,0.31666327,-0.24543253,0.18063158,0.22030061,0.9585613,0.3576101,-0.92260057,0.14464778,,0.025553763,0.006018162,0.006808579,-0.566393,-0.36086035,0.74093086,0.78494453,0.037733197,0.618416,-0.25111955,0.9318562,0.2618836,,0.07475035,1.3022321,0.43178213,0.9961203,0.077425145,-0.04183019,0.027660394,-0.7267031,-0.6863946,-0.08354233,0.6825745,-0.7260253,,-0.09946257,0.25687298,-0.09160301,-0.9435483,-0.22256845,0.24531578,0.32428443,-0.4697781,0.82106525,-0.06749925,0.8542668,0.51543385,,-0.011186964,0.45397353,-0.30058816,0.58808595,0.21525857,-0.77962726,0.41485822,0.7471859,0.5192359,0.6942965,-0.6287901,0.35010773,,1.1543168827103374,0.5368766666832137,0.19908032933000003,3.6662189718834237,-0.018855836967630782,-0.9981758156941305,-0.4088501975341008,,-0.16000730242105762,0.3010166819715229,0.19925014332000002,-3.6312007513215083,0.492028035655351,1.2754036276545073,0.8191704916634106,,-0.02858849314766712,-0.02640246825954422,0.113675081,-0.09420068085063119,,-1.9520521e-05,0.0,-7.1525574e-07,1.0,2.7228147e-05,2.561137e-05,-2.7239323e-05,1.0,3.1292439e-06,-2.560392e-05,-3.0994415e-06,1.0,199,0.604,0,0,0.0,False,-0.2566012611050077,0.9941375970646882
0.6307925351429731,11:13:09.864077,NaN,0,,0.12269725,-0.0031953603,0.025024563,0.91106033,0.3324835,-0.24376991,0.17414306,0.22559375,0.958531,0.3736887,-0.91573036,0.1476298,,0.025588185,0.0060293376,0.0068249702,-0.5661005,-0.36102694,0.74107325,0.7852002,0.037550986,0.6181023,-0.2509797,0.93179905,0.2622208,,0.07475035,1.3022321,0.43178213,0.9961203,0.077425145,-0.04183019,0.027660394,-0.7267031,-0.6863946,-0.08354233,0.6825745,-0.7260253,,-0.0995099,0.25712937,-0.09177083,-0.94005305,-0.23889337,0.24337259,0.33048713,-0.46210057,0.8229467,-0.08413391,0.8540451,0.51335025,,-0.011223604,0.45398888,-0.3005877,0.5877724,0.21543415,-0.77981514,0.41509756,0.7470413,0.51925266,0.69441885,-0.6289018,0.3496641,,1.1555602427030875,0.5374095352515352,0.19892995969000002,3.6580410640875276,-0.03538885343924907,-0.9989880288714621,-0.4090135416002354,,-0.16023126167441012,0.30103212743727137,0.19925014332000002,-3.630781371434539,0.492028035655351,1.2756486638749291,0.8196605238618133,,-0.02858849314766712,-0.02640246825954422,0.113675081,-0.09420068085063119,,-1.9520521e-05,0.0,-7.1525574e-07,1.0,2.7228147e-05,2.561137e-05,-2.7239323e-05,1.0,3.1292439e-06,-2.560392e-05,-3.0994415e-06,1.0,207,0.628,0,0,0.0,False,-0.25767366003838577,0.9935582346553347
0.6529659321531653,11:13:09.891147,NaN,0,,0.12265016,-0.003111273,0.025373384,0.90389115,0.35024774,-0.24557531,0.17162699,0.22891635,0.9581969,0.39182252,-0.9082531,0.14680347,,0.025647,0.0060442984,0.006850064,-0.5651543,-0.36182007,0.7414085,0.78612816,0.036370665,0.6169924,-0.25020587,0.9315381,0.26388192,,0.07475035,1.3022321,0.43178213,0.9961203,0.077425145,-0.04183019,0.027660394,-0.7267031,-0.6863946,-0.08354233,0.6825745,-0.7260253,,-0.099495426,0.25742733,-0.09197567,-0.9347094,-0.2572425,0.24524392,0.3411171,-0.45558313,0.82224274,-0.099786796,0.85221493,0.51358765,,-0.011285712,0.4540102,-0.30058792,0.5867088,0.21627219,-0.780384,0.41617388,0.7461498,0.51967275,0.69467413,-0.629672,0.3477658,,1.1572051848052973,0.5379346810869825,0.19874459022000002,3.644830597648002,-0.05096541441250929,-0.9969046240683431,-0.40672672467435533,,-0.16062512105099558,0.3010398501701456,0.19925014332000002,-3.629103851886663,0.4918913991555856,1.2774753353215773,0.8185171153988731,,-0.02858849314766712,-0.02640246825954422,0.113675081,-0.09420068085063119,,-1.9520521e-05,0.0,-7.1525574e-07,1.0,2.7228147e-05,2.561137e-05,-2.7239323e-05,1.0,3.1292439e-06,-2.560392e-05,-3.0994415e-06,1.0,215,0.652,0,0,0.0,False,-0.2568991496976123,0.9933168336514373
0.6800356809981167,11:13:09.914324,NaN,0,,0.122563645,-0.0030305237,0.025571957,0.8969987,0.3627079,-0.25265825,0.17712787,0.22875103,0.95723486,0.40499252,-0.90339124,0.14094359,,0.025690392,0.006054163,0.006867647,-0.56513774,-0.36224332,0.74121445,0.78614694,0.035999954,0.6169902,-0.25018436,0.9313881,0.2644316,,0.07475035,1.3022321,0.43178213,0.9961203,0.077425145,-0.04183019,0.027660394,-0.7267031,-0.6863946,-0.08354233,0.6825745,-0.7260253,,-0.09942723,0.25762454,-0.09207517,-0.92903596,-0.27011514,0.2528438,0.3543654,-0.45311972,0.81799,-0.10638299,0.84954125,0.516684,,-0.011331402,0.4540245,-0.3005884,0.5866889,0.21671782,-0.78027534,0.41620022,0.745841,0.52009475,0.69467515,-0.62988454,0.3473786,,1.158433099332299,0.5382204222033288,0.19865514621000002,3.629523231773632,-0.05738732990148499,-0.9924847699960169,-0.4077067890711611,,-0.16088769396871921,0.3010244047043972,0.19925014332000002,-3.629103851886663,0.49175476265582013,1.2778317894456956,0.8190071475972758,,-0.02858849314766712,-0.02640246825954422,0.113675081,-0.09420068085063119,,-1.9520521e-05,0.0,-7.1525574e-07,1.0,2.7228147e-05,2.561137e-05,-2.7239323e-05,1.0,3.1292439e-06,-2.560392e-05,-3.0994415e-06,1.0,230,0.698,0,0,0.0,False,-0.25779281547542787,0.9935099544545551
0.7032046159729362,11:13:09.956652,NaN,0,,0.12236659,-0.002865702,0.02615349,0.8771376,0.40057933,-0.26488805,0.18232194,0.23251274,0.95535153,0.4442839,-0.8862697,0.13091123,,0.025763981,0.0060717314,0.0068983436,-0.56491125,-0.36268184,0.7411726,0.7862311,0.03602317,0.6168816,-0.25043118,0.9312165,0.26480186,,0.07475035,1.3022321,0.43178213,0.9961203,0.077425145,-0.04183019,0.027660394,-0.7267031,-0.6863946,-0.08354233,0.6825745,-0.7260253,,-0.099284716,0.25814587,-0.09240991,-0.9129842,-0.30939963,0.26595446,0.38552833,-0.4409014,0.81053925,-0.13352084,0.84254247,0.52181834,,-0.0114089865,0.45404983,-0.3005891,0.5865013,0.21717691,-0.78028864,0.41605017,0.74578434,0.52029604,0.69492334,-0.6297935,0.347047,,1.1617229835367189,0.5386837861757823,0.19835829580000003,3.5917790419464177,-0.0844413568550422,-0.9833292660063344,-0.4086868534679666,,-0.16132788974255,0.3010166819715229,0.19925143961000003,-3.629103851886663,0.4918913991555856,1.2778020502821397,0.8188438035311416,,-0.02858849314766712,-0.02640246825954422,0.113675081,-0.09420068085063119,,-1.9520521e-05,0.0,-7.1525574e-07,1.0,2.7228147e-05,2.561137e-05,-2.7239323e-05,1.0,3.1292439e-06,-2.560392e-05,-3.0994415e-06,1.0,238,0.723,0,0,0.0,False,-0.25767366003838577,0.9931237128483195
0.745536768110469,11:13:09.985679,NaN,0,,0.12233445,-0.0028116703,0.026424512,0.87028164,0.41583967,-0.26398325,0.17583537,0.23834243,0.9551307,0.46009967,-0.8776504,0.13430563,,0.025775,0.006071642,0.0069015026,-0.5644353,-0.36245784,0.7416447,0.78668654,0.035987794,0.61630285,-0.25007403,0.93130505,0.26482794,,0.07475035,1.3022321,0.43178213,0.9961203,0.077425145,-0.04183019,0.027660394,-0.7267031,-0.6863946,-0.08354233,0.6825745,-0.7260253,,-0.09927806,0.2583688,-0.09257631,-0.90779054,-0.3253279,0.26472265,0.39164624,-0.4316272,0.8125953,-0.15009844,0.841344,0.51924056,,-0.011420363,0.45405078,-0.30059025,0.5859712,0.21694256,-0.780752,0.41656053,0.7457981,0.5198678,0.69506484,-0.629858,0.3466465,,1.1630126799267142,0.5388536862990152,0.19821700019000002,3.5827623743765833,-0.10124764632619138,-0.9841636795966945,-0.41064698226157825,,-0.16140511707129226,0.30100895923864873,0.19925143961000003,-3.628265092112725,0.4918913991555856,1.2779654077624207,0.8188438035311423,,-0.02858849314766712,-0.02640246825954422,0.113675081,-0.09420068085063119,,-1.9520521e-05,0.0,-7.1525574e-07,1.0,2.7228147e-05,2.561137e-05,-2.7239323e-05,1.0,3.1292439e-06,-2.560392e-05,-3.0994415e-06,1.0,246,0.747,0,0,0.0,False,-0.2571374605716965,0.9932685534506578
0.7745401770807803,11:13:10.011186,NaN,0,,0.122230545,-0.0027507544,0.026796833,0.859387,0.43672812,-0.26593685,0.172301,0.24233663,0.95476973,0.481421,-0.8663379,0.1330122,,0.02577366,0.006072119,0.0069013834,-0.56387585,-0.36255643,0.742022,0.7872435,0.035561383,0.61561596,-0.24958289,0.9312831,0.26536804,,0.07475035,1.3022321,0.43178213,0.9961203,0.077425145,-0.04183019,0.027660394,-0.7267031,-0.6863946,-0.08354233,0.6825745,-0.7260253,,-0.099209666,0.25866827,-0.09281869,-0.8990632,-0.34714615,0.26678616,0.4038483,-0.42221498,0.811567,-0.16909127,0.8373912,0.5197924,,-0.011419018,0.45405117,-0.30058995,0.58533704,0.21704862,-0.7811981,0.4172269,0.7455061,0.5197522,0.69519943,-0.63016707,0.34581378,,1.164897026748025,0.5390081409564996,0.19800700121000003,3.5661968688413053,-0.12051339279311848,-0.9807055661965834,-0.40803347720342953,,-0.1614205625370407,0.3010244047043972,0.19925143961000003,-3.627216642395302,0.4918913991555856,1.2787821951638265,0.818190427266605,,-0.02858849314766712,-0.02640246825954422,0.113675081,-0.09420068085063119,,-1.9520521e-05,0.0,-7.1525574e-07,1.0,2.7228147e-05,2.561137e-05,-2.7239323e-05,1.0,3.1292439e-06,-2.560392e-05,-3.0994415e-06,1.0,254,0.771,0,0,0.0,False,-0.2579715486309908,0.992834031643643
0.8000702729914337,11:13:10.042357,NaN,0,,0.122073695,-0.0027013123,0.027117118,0.8531443,0.45040548,-0.2632103,0.1682856,0.23996061,0.9560852,0.49378607,-0.85997313,0.12892422,,0.02577424,0.006074831,0.006901622,-0.5636521,-0.363693,0.7416357,0.7874675,0.03447503,0.61539125,-0.24938142,0.93088067,0.2669645,,0.07475035,1.3022321,0.43178213,0.9961203,0.077425145,-0.04183019,0.027660394,-0.7267031,-0.6863946,-0.08354233,0.6825745,-0.7260253,,-0.09908372,0.2589273,-0.09303472,-0.8941079,-0.36140996,0.2644882,0.40946192,-0.42045265,0.80966693,-0.18141691,0.8322274,0.5239136,,-0.01141966,0.45405307,-0.300588,0.58508265,0.21824636,-0.7810549,0.41749796,0.74461615,0.5208092,0.6952508,-0.63080525,0.3445446,,1.1667659281035874,0.5390853682852419,0.19781515029000002,3.5573898912149557,-0.13335722377106987,-0.97317271789418,-0.4090135416002352,,-0.16143600800278915,0.3010398501701456,0.19925273590000003,-3.6267972625083336,0.4918913991555856,1.2805791274469187,0.818190427266605,,-0.02858849314766712,-0.02640246825954422,0.113675081,-0.09420068085063119,,-1.9520521e-05,0.0,-7.1525574e-07,1.0,2.7228147e-05,2.561137e-05,-2.7239323e-05,1.0,3.1292439e-06,-2.560392e-05,-3.0994415e-06,1.0,273,0.829,0,0,0.0,False,-0.25922268071993226,0.9924477900374071
0.8311907281167805,11:13:10.095745,NaN,0,,0.12185022,-0.0026454031,0.027653173,0.83945286,0.4755656,-0.26297572,0.16331938,0.24076867,0.956743,0.51831037,-0.84608966,0.1244449,,0.025785074,0.006067112,0.006905377,-0.56328356,-0.3636706,0.7419266,0.78764343,0.034977853,0.6151377,-0.24965857,0.9308707,0.26674032,,0.07475035,1.3022321,0.43178213,0.9961203,0.077425145,-0.04183019,0.027660394,-0.7267031,-0.6863946,-0.08354233,0.6825745,-0.7260253,,-0.09891224,0.25933883,-0.093411095,-0.88292897,-0.38777775,0.26469776,0.42289007,-0.41191417,0.80714977,-0.20396194,0.8245939,0.5276783,,-0.011430843,0.4540493,-0.30059525,0.58475804,0.21821949,-0.7813055,0.41737077,0.7449456,0.5204399,0.6956002,-0.6304255,0.3445345,,1.169607893801302,0.5391703183468584,0.19748589263000002,3.5376790365274107,-0.15658542873119474,-0.9641964805629369,-0.4073801009388923,,-0.1614823444000345,0.30100895923864873,0.19925014332000002,-3.626587572564848,0.492301308654882,1.2803265524759702,0.8186804594650079,,-0.02858849314766712,-0.02640246825954422,0.113675081,-0.09420068085063119,,-1.9520521e-05,0.0,-7.1525574e-07,1.0,2.7228147e-05,2.561137e-05,-2.7239323e-05,1.0,3.1292439e-06,-2.560392e-05,-3.0994415e-06,1.0,281,0.854,0,0,0.0,False,-0.2584481703791588,0.9930271524467609
0.8846305271144956,11:13:10.120301,NaN,0,,0.121696666,-0.0026141256,0.027953848,0.8326763,0.48627827,-0.2649218,0.161682,0.24406907,0.9561847,0.529631,-0.83902544,0.1246081,,0.025787659,0.0060638487,0.006905794,-0.5627095,-0.36330372,0.74254173,0.7882014,0.03497374,0.6144228,-0.24919158,0.9310141,0.26667643,,0.07475035,1.3022321,0.43178213,0.9961203,0.077425145,-0.04183019,0.027660394,-0.7267031,-0.6863946,-0.08354233,0.6825745,-0.7260253,,-0.09878796,0.2595711,-0.09362458,-0.87730414,-0.39906958,0.26661,0.42959905,-0.40531436,0.80694795,-0.2139675,0.8224742,0.52702385,,-0.011433427,0.4540471,-0.3005977,0.5841131,0.21783522,-0.7818949,0.41801852,0.7450032,0.51983714,0.6957531,-0.6304903,0.34410703,,1.1712760041021344,0.5392398229427264,0.19729663429000002,3.5276139192401534,-0.16696980271336823,-0.9625897340538163,-0.40999360599704093,,-0.1615132353315314,0.3010012365057745,0.19924884703,-3.6255391228474263,0.492301308654882,1.2804899099562512,0.8180270832004706,,-0.02858849314766712,-0.02640246825954422,0.113675081,-0.09420068085063119,,-1.9520521e-05,0.0,-7.1525574e-07,1.0,2.7228147e-05,2.561137e-05,-2.7239323e-05,1.0,3.1292439e-06,-2.560392e-05,-3.0994415e-06,1.0,293,0.89,0,0,0.0,False,-0.25785239319394915,0.992834031643643
0.9091653991490602,11:13:10.158241,NaN,0,,0.12156354,-0.0025907904,0.028220132,0.825863,0.49748462,-0.26544145,0.1605297,0.2438328,0.9564391,0.54053706,-0.83249897,0.12151134,,0.025803812,0.006066844,0.0069168806,-0.56199735,-0.36419082,0.7426465,0.78888404,0.033889562,0.6136069,-0.24863797,0.9307076,0.26825854,,0.07475035,1.3022321,0.43178213,0.9961203,0.077425145,-0.04183019,0.027660394,-0.7267031,-0.6863946,-0.08354233,0.6825745,-0.7260253,,-0.09868084,0.2597734,-0.09381631,-0.87159514,-0.4108563,0.26743025,0.43639296,-0.40172476,0.80509526,-0.22334513,0.81842184,0.5294362,,-0.011451107,0.45405528,-0.3006014,0.58331704,0.21877187,-0.78222764,0.41879693,0.74415463,0.52042586,0.69595283,-0.63116777,0.3424571,,1.1727201551496145,0.5392707138742233,0.19712811659,3.5175488019528958,-0.1766709941967145,-0.9574561400561494,-0.4101569500631752,,-0.1616445217903932,0.3010166819715229,0.19924495816,-3.6242809831865186,0.492301308654882,1.2823685209794844,0.8178637391343362,,-0.02858849314766712,-0.02640246825954422,0.113675081,-0.09420068085063119,,-1.9520521e-05,0.0,-7.1525574e-07,1.0,2.7228147e-05,2.561137e-05,-2.7239323e-05,1.0,3.1292439e-06,-2.560392e-05,-3.0994415e-06,1.0,305,0.926,0,0,0.0,False,-0.2589843698458485,0.9933168336514373
0.9471239750273526,11:13:10.187623,NaN,0,,0.12149523,-0.0025360584,0.028463706,0.8173521,0.51225483,-0.26368636,0.15587941,0.24398783,0.95716846,0.5546504,-0.8234469,0.11957389,,0.025829494,0.0060696155,0.0069396496,-0.56179327,-0.36462116,0.7425897,0.7889477,0.033926755,0.613523,-0.24889717,0.9305377,0.26860723,,0.07475035,1.3022321,0.43178213,0.9961203,0.077425145,-0.04183019,0.027660394,-0.7267031,-0.6863946,-0.08354233,0.6825745,-0.7260253,,-0.09863553,0.2599804,-0.09396494,-0.86456126,-0.4264276,0.26588216,0.44282413,-0.3963467,0.80424875,-0.23757234,0.81306136,0.53149843,,-0.01147996,0.45407063,-0.30061218,0.5831537,0.21922246,-0.7822233,0.41862673,0.74410766,0.5206299,0.6961921,-0.6310668,0.34215674,,1.173978960608113,0.5393016048057202,0.19701404307000003,3.5070643047786696,-0.19129109967161662,-0.9519870448317368,-0.40983026193090666,,-0.16181442191362616,0.30103212743727137,0.19923458784000003,-3.6242809831865186,0.4925745816544128,1.282554078872794,0.8183537713327391,,-0.02858849314766712,-0.02640246825954422,0.113675081,-0.09420068085063119,,-1.9520521e-05,0.0,-7.1525574e-07,1.0,2.7228147e-05,2.561137e-05,-2.7239323e-05,1.0,3.1292439e-06,-2.560392e-05,-3.0994415e-06,1.0,324,0.985,0,0,0.0,False,-0.2590439475643693,0.9935099544545551
0.9764731600880623,11:13:10.244079,NaN,0,,0.12146634,-0.002434224,0.029054984,0.7888043,0.5538199,-0.26659197,0.14184491,0.2580033,0.95567477,0.5980533,-0.7916551,0.12495759,,0.025876358,0.0060570687,0.006988287,-0.56031704,-0.36550808,0.7432687,0.79015934,0.033217043,0.6120006,-0.24838036,0.93021524,0.2701976,,0.07475035,1.3022321,0.43178213,0.9961203,0.077425145,-0.04183019,0.027660394,-0.7267031,-0.6863946,-0.08354233,0.6825745,-0.7260253,,-0.098662294,0.26045257,-0.09433529,-0.8405632,-0.47064427,0.26823035,0.46292588,-0.3669132,0.8068918,-0.28134173,0.8024143,0.52628714,,-0.0115334755,0.4540919,-0.30064958,0.5816014,0.22015667,-0.7831161,0.41964385,0.74350023,0.5206788,0.6968779,-0.6314574,0.34003338,,1.1762957804703804,0.5392861593399717,0.19675737765,3.4739332937081153,-0.23610787159468108,-0.949665364538206,-0.41064698226157803,,-0.16216194489296626,0.3010166819715229,0.19920088430000002,-3.6221840837516734,0.4929844911537091,1.2844251511455,0.8185171153988735,,-0.02858849314766712,-0.02640246825954422,0.113675081,-0.09420068085063119,,-1.9520521e-05,0.0,-7.1525574e-07,1.0,2.7228147e-05,2.561137e-05,-2.7239323e-05,1.0,3.1292439e-06,-2.560392e-05,-3.0994415e-06,1.0,357,1.086,0,0,0.0,False,-0.2590439475643693,0.9925926306397457
1.0329650479834527,11:13:10.348021,NaN,0,,0.121190876,-0.002360478,0.029959694,0.7359151,0.61546016,-0.2822014,0.1452978,0.2635317,0.9536454,0.66129977,-0.74280536,0.10451195,,0.025928333,0.006041184,0.007045746,-0.55723065,-0.3647958,0.7459342,0.7929186,0.032936722,0.6084367,-0.24652384,0.9305048,0.2709,,0.07475035,1.3022321,0.43178213,0.9961203,0.077425145,-0.04183019,0.027660394,-0.7267031,-0.6863946,-0.08354233,0.6825745,-0.7260253,,-0.09847438,0.26112643,-0.09497593,-0.7939831,-0.5366207,0.28570804,0.51055795,-0.33344802,0.79255474,-0.3300325,0.7751456,0.53872806,,-0.011593348,0.45411682,-0.30069485,0.5782357,0.21941231,-0.78581274,0.42248783,0.74343646,0.5184653,0.69795954,-0.6317915,0.3371825,,1.1798096239281526,0.5390313091551223,0.19626738003000002,3.4022193330364074,-0.285706921009536,-0.922861015099879,-0.4114637025922496,,-0.1626098633996713,0.3010244047043972,0.19915940302000001,-3.6171515251080453,0.49339440065300544,1.285969508457644,0.8170470188036647,,-0.02858849314766712,-0.02640246825954422,0.113675081,-0.09420068085063119,,-1.9520521e-05,0.0,-7.1525574e-07,1.0,2.7228147e-05,2.561137e-05,-2.7239323e-05,1.0,3.1292439e-06,-2.560392e-05,-3.0994415e-06,1.0,365,1.111,0,0,0.0,False,-0.25922268071993226,0.9923512296358483
1.136909006163478,11:13:10.376781,NaN,0,,0.121112496,-0.002323389,0.030306622,0.7130185,0.63850194,-0.28968945,0.14274664,0.27231842,0.9515598,0.68646044,-0.7198318,0.103024006,,0.02594553,0.006044835,0.0070566535,-0.55712116,-0.36591414,0.7454681,0.7929533,0.032230377,0.6084293,-0.24665967,0.9300903,0.27219665,,0.07475035,1.3022321,0.43178213,0.9961203,0.077425145,-0.04183019,0.027660394,-0.7267031,-0.6863946,-0.08354233,0.6825745,-0.7260253,,-0.098429315,0.26138994,-0.09521347,-0.77366674,-0.56163317,0.29327115,0.5266929,-0.31280228,0.7904108,-0.35218504,0.7659784,0.53781295,,-0.011612041,0.45412517,-0.30069786,0.5781476,0.22058913,-0.7855481,0.42239925,0.742792,0.5194602,0.69808614,-0.63213956,0.33626673,,1.180998924790783,0.5388691317647636,0.19610534378000002,3.3745402604964503,-0.30866185297013,-0.9181915505830569,-0.41113701445998097,,-0.16271798165991042,0.30103212743727137,0.19915681044000003,-3.6171515251080453,0.4935310371527709,1.287246629136337,0.8178637391343364,,-0.02858849314766712,-0.02640246825954422,0.113675081,-0.09420068085063119,,-1.9520521e-05,0.0,-7.1525574e-07,1.0,2.7228147e-05,2.561137e-05,-2.7239323e-05,1.0,3.1292439e-06,-2.560392e-05,-3.0994415e-06,1.0,373,1.135,0,0,0.0,False,-0.2588652144088064,0.9926891910413045
1.1656688910443336,11:13:10.395170,NaN,0,,0.12106396,-0.0022984892,0.030505195,0.701494,0.6512848,-0.28936863,0.13768685,0.2745296,0.95167005,0.69924843,-0.70743304,0.10290748,,0.025964156,0.00604327,0.0070647597,-0.5569685,-0.36619303,0.74544525,0.79291415,0.032619804,0.6084596,-0.24712995,0.9299669,0.27219146,,0.07475035,1.3022321,0.43178213,0.9961203,0.077425145,-0.04183019,0.027660394,-0.7267031,-0.6863946,-0.08354233,0.6825745,-0.7260253,,-0.098399796,0.26154366,-0.095347255,-0.76351225,-0.5755177,0.29296488,0.53209484,-0.30355653,0.7903977,-0.3659565,0.7593634,0.53799915,,-0.011631659,0.4541278,-0.3007027,0.5780683,0.22087863,-0.7855251,0.4220121,0.7429985,0.51947963,0.6983859,-0.63179576,0.33629042,,1.1817634753453314,0.5387223998401534,0.19602108493,3.3625879337178324,-0.3232819584450321,-0.913702600240331,-0.41064698226157803,,-0.16281065445440113,0.3010166819715229,0.19915551415000002,-3.6173612150515297,0.4939409466520672,1.287075732905529,0.8175370510020679,,-0.02858849314766712,-0.02640246825954422,0.113675081,-0.09420068085063119,,-1.9520521e-05,0.0,-7.1525574e-07,1.0,2.7228147e-05,2.561137e-05,-2.7239323e-05,1.0,3.1292439e-06,-2.560392e-05,-3.0994415e-06,1.0,381,1.161,0,0,0.0,False,-0.25880563669028556,0.9919649880296126
1.1840562771540135,11:13:10.419617,NaN,0,,0.12096813,-0.0022448003,0.030812547,0.6746059,0.67685735,-0.29456908,0.1368666,0.2774405,0.9509438,0.72537875,-0.681829,0.09452379,,0.025983512,0.006043136,0.007072568,-0.5566214,-0.3661425,0.74572927,0.7931688,0.03276819,0.6081196,-0.24709472,0.92998165,0.27217337,,0.07475035,1.3022321,0.43178213,0.9961203,0.077425145,-0.04183019,0.027660394,-0.7267031,-0.6863946,-0.08354233,0.6825745,-0.7260253,,-0.09833328,0.26179394,-0.095545895,-0.7392902,-0.6033951,0.29893878,0.5503743,-0.28564832,0.7845337,-0.38799244,0.74452627,0.5432702,,-0.0116519695,0.45413104,-0.30070624,0.57771677,0.22082464,-0.78579885,0.42216802,0.74310327,0.51920295,0.6985825,-0.6316914,0.3360781,,1.1827983215504774,0.5384057677923102,0.19590441883,3.330085992477731,-0.3463735269053915,-0.9002637713649129,-0.4093402297325036,,-0.16292649544751447,0.3010012365057745,0.19915421786,-3.616941835164561,0.49407758315183264,1.287045993741973,0.8177003950682018,,-0.02858849314766712,-0.02640246825954422,0.113675081,-0.09420068085063119,,-1.9520521e-05,0.0,-7.1525574e-07,1.0,2.7228147e-05,2.561137e-05,-2.7239323e-05,1.0,3.1292439e-06,-2.560392e-05,-3.0994415e-06,1.0,389,1.185,0,0,0.0,False,-0.259282258438454,0.9923512296358483
1.208504969952628,11:13:10.448003,NaN,0,,0.1209262,-0.0022319853,0.030959025,0.6656138,0.6870311,-0.2914562,0.1316075,0.27635837,0.95200074,0.7346004,-0.6720226,0.09352943,,0.025992364,0.0060436726,0.007075429,-0.5564873,-0.36608845,0.74585575,0.793286,0.032782227,0.6079659,-0.24702018,0.9300024,0.27216995,,0.07475035,1.3022321,0.43178213,0.9961203,0.077425145,-0.04183019,0.027660394,-0.7267031,-0.6863946,-0.08354233,0.6825745,-0.7260253,,-0.09830549,0.26190355,-0.095648825,-0.7313144,-0.6144842,0.29595345,0.5531109,-0.28044003,0.7844882,-0.3990584,0.7374026,0.5449677,,-0.011661166,0.45413247,-0.30070695,0.5775716,0.22076789,-0.7859215,0.42228535,0.7431214,0.51908153,0.69863164,-0.6316899,0.33597875,,1.1833543583174215,0.5382126994704546,0.19584478949000003,3.32169839473835,-0.3583975388847503,-0.8939711816656721,-0.41048363819544376,,-0.16298055457763405,0.3009935137729003,0.19915421786,-3.616732145221076,0.49407758315183264,1.287045993741973,0.8177003950682018,,-0.02858849314766712,-0.02640246825954422,0.113675081,-0.09420068085063119,,-1.9520521e-05,0.0,-7.1525574e-07,1.0,2.7228147e-05,2.561137e-05,-2.7239323e-05,1.0,3.1292439e-06,-2.560392e-05,-3.0994415e-06,1.0,397,1.21,0,0,0.0,False,-0.2599376133421849,0.9923029494350688
1.2368658490013331,11:13:10.476124,NaN,0,,0.120808035,-0.0021838844,0.031277195,0.63643515,0.7112107,-0.29854575,0.128679,0.28372976,0.9502311,0.7605208,-0.6431771,0.089057654,,0.026009172,0.0060471743,0.0070839524,-0.55633825,-0.36608,0.7459712,0.79341114,0.03277588,0.607803,-0.24695438,0.930006,0.27221745,,0.07475035,1.3022321,0.43178213,0.9961203,0.077425145,-0.04183019,0.027660394,-0.7267031,-0.6863946,-0.08354233,0.6825745,-0.7260253,,-0.098217875,0.26215813,-0.09586101,-0.70482564,-0.64121854,0.3034132,0.56980735,-0.2569817,0.7805639,-0.4225404,0.72304857,0.5464983,,-0.011679114,0.454139,-0.30070847,0.57741266,0.22075906,-0.7860407,0.42239976,0.74311864,0.51899236,0.6986938,-0.63169616,0.33583757,,1.1843892045225677,0.5377647809637495,0.19572812339,3.2881480037808264,-0.38353865484159133,-0.8837618086432413,-0.4108103263277123,,-0.1630886728378732,0.3009935137729003,0.19915292157000003,-3.6165224552775914,0.49407758315183264,1.287045993741973,0.8177003950682018,,-0.02858849314766712,-0.02640246825954422,0.113675081,-0.09420068085063119,,-1.9520521e-05,0.0,-7.1525574e-07,1.0,2.7228147e-05,2.561137e-05,-2.7239323e-05,1.0,3.1292439e-06,-2.560392e-05,-3.0994415e-06,1.0,405,1.235,0,0,0.0,False,-0.25910352528289105,0.992834031643643
1.2649996730033308,11:13:10.494598,NaN,0,,0.12074043,-0.002169624,0.03145702,0.62101,0.72438896,-0.29934442,0.12381911,0.28645152,0.9500602,0.77396077,-0.6270614,0.08819607,,0.02602376,0.006050676,0.007090211,-0.5561942,-0.36605805,0.7460893,0.7935338,0.032773107,0.6076428,-0.24688432,0.9300147,0.2722512,,0.07475035,1.3022321,0.43178213,0.9961203,0.077425145,-0.04183019,0.027660394,-0.7267031,-0.6863946,-0.08354233,0.6825745,-0.7260253,,-0.09816774,0.26229244,-0.0959897,-0.690849,-0.6558476,0.3042886,0.5760006,-0.24489465,0.7799038,-0.4369794,0.71406615,0.5469538,,-0.011694526,0.45414418,-0.30070877,0.57725817,0.22073609,-0.78616065,0.4225164,0.74312055,0.5188947,0.6987509,-0.631702,0.3357078,,1.1849761322210088,0.5374172579844094,0.19566071631,3.272211568076002,-0.39938848881438244,-0.877453309765842,-0.41064698226157803,,-0.1631813456323639,0.3009935137729003,0.19915292157000003,-3.616312765334107,0.49407758315183264,1.287045993741973,0.8177003950682018,,-0.02858849314766712,-0.02640246825954422,0.113675081,-0.09420068085063119,,-1.9520521e-05,0.0,-7.1525574e-07,1.0,2.7228147e-05,2.561137e-05,-2.7239323e-05,1.0,3.1292439e-06,-2.560392e-05,-3.0994415e-06,1.0,438,1.336,0,0,0.0,False,-0.2589843698458485,0.9919649880296126
1.283426993060857,11:13:10.591548,NaN,0,,0.120217785,-0.0021086484,0.032275423,0.5333164,0.7857543,-0.31331074,0.11441761,0.2999714,0.9470616,0.83814204,-0.5409318,0.07007545,,0.02607201,0.0060528964,0.007111013,-0.5549835,-0.36558557,0.74722177,0.7945818,0.032917053,0.6062641,-0.24623778,0.93019545,0.2722192,,0.07475035,1.3022321,0.43178213,0.9961203,0.077425145,-0.04183019,0.027660394,-0.7267031,-0.6863946,-0.08354233,0.6825745,-0.7260253,,-0.097725704,0.2629123,-0.09659554,-0.6099234,-0.7250262,0.31989124,0.61656773,-0.18057565,0.7663137,-0.49783295,0.6646273,0.5571651,,-0.011745377,0.454155,-0.30071652,0.5759507,0.22023995,-0.787258,0.42354923,0.7432926,0.51780504,0.69920444,-0.6316727,0.33481744,,1.1876713659941132,0.5353630110398657,0.19533794010000002,3.1736572946382764,-0.4671601926980409,-0.8355036641753286,-0.4101569500631752,,-0.1634979776802071,0.3009703455742776,0.1991490327,-3.6144255558427463,0.49421421965159806,1.287179612058698,0.8175370510020676,,-0.02858849314766712,-0.02640246825954422,0.113675081,-0.09420068085063119,,-1.9520521e-05,0.0,-7.1525574e-07,1.0,2.7228147e-05,2.561137e-05,-2.7239323e-05,1.0,3.1292439e-06,-2.560392e-05,-3.0994415e-06,1.0,446,1.361,0,0,0.0,False,-0.25910352528289105,0.9917235870257153
1.3803680990822613,11:13:10.625546,NaN,0,,0.12006201,-0.0020873845,0.032511935,0.5078207,0.80210286,-0.31424353,0.10732192,0.3030317,0.946918,0.85475147,-0.51458985,0.06780255,,0.026072353,0.0060538054,0.0071095824,-0.55440456,-0.3664567,0.74722475,0.7952942,0.03129065,0.60541546,-0.24523973,0.9299089,0.27409324,,0.07475035,1.3022321,0.43178213,0.9961203,0.077425145,-0.04183019,0.027660394,-0.7267031,-0.6863946,-0.08354233,0.6825745,-0.7260253,,-0.09759318,0.2630944,-0.09676855,-0.5862658,-0.74379283,0.32103685,0.6237547,-0.16157314,0.764738,-0.5169357,0.648588,0.55866903,,-0.011745513,0.45415455,-0.30071488,0.5752187,0.22116451,-0.78753394,0.4246874,0.74209064,0.5185963,0.69911665,-0.632762,0.3329386,,1.1884127483500386,0.5347065787455566,0.19526405157,3.147236361759226,-0.48915866916027684,-0.822547784828779,-0.4106469822615779,,-0.1635365913445782,0.3009703455742776,0.1991490327,-3.612957726238355,0.4938043101523018,1.2895558342733011,0.8167203306713959,,-0.02858849314766712,-0.02640246825954422,0.113675081,-0.09420068085063119,,-1.9520521e-05,0.0,-7.1525574e-07,1.0,2.7228147e-05,2.561137e-05,-2.7239323e-05,1.0,3.1292439e-06,-2.560392e-05,-3.0994415e-06,1.0,454,1.385,0,0,0.0,False,-0.25880563669028556,0.9910959444155825
1.414433091180399,11:13:10.646284,NaN,0,,0.11994846,-0.002070576,0.032645777,0.49227762,0.81108785,-0.31591004,0.10330278,0.30592775,0.94643366,0.8642864,-0.49854255,0.06681377,,0.026073724,0.0060543567,0.007111013,-0.5543284,-0.36645132,0.747284,0.79531425,0.031453162,0.6053808,-0.24534705,0.9299054,0.27400863,,0.07475035,1.3022321,0.43178213,0.9961203,0.077425145,-0.04183019,0.027660394,-0.7267031,-0.6863946,-0.08354233,0.6825745,-0.7260253,,-0.09749285,0.26320234,-0.09686537,-0.57178146,-0.7542393,0.32278326,0.627969,-0.14917955,0.7638065,-0.5279402,0.63942826,0.558937,,-0.0117470985,0.4541558,-0.30071527,0.5751594,0.22115771,-0.7875792,0.4246136,0.7421972,0.5185042,0.6992103,-0.63263935,0.3329751,,1.188907003253989,0.5342586602388516,0.19522645916000003,3.1308805461674334,-0.5020025001382282,-0.815505008967219,-0.4096669178647723,,-0.16354431407745243,0.3009780683071518,0.1991490327,-3.612957726238355,0.4939409466520672,1.2894444163696048,0.8167203306713959,,-0.02858849314766712,-0.02640246825954422,0.113675081,-0.09420068085063119,,-1.9520521e-05,0.0,-7.1525574e-07,1.0,2.7228147e-05,2.561137e-05,-2.7239323e-05,1.0,3.1292439e-06,-2.560392e-05,-3.0994415e-06,1.0,462,1.411,0,0,0.0,False,-0.2583290149421176,0.9915787464233767
1.4351728099863976,11:13:10.676601,NaN,0,,0.11977407,-0.0020579398,0.032815203,0.46865225,0.8235171,-0.31966338,0.10010788,0.3100217,0.94544435,0.8776921,-0.47508538,0.06285182,,0.026076242,0.006056845,0.0071131587,-0.5544398,-0.3665659,0.747145,0.7952075,0.031422555,0.6055226,-0.24544117,0.9298613,0.27407414,,0.07475035,1.3022321,0.43178213,0.9961203,0.077425145,-0.04183019,0.027660394,-0.7267031,-0.6863946,-0.08354233,0.6825745,-0.7260253,,-0.097335465,0.26333416,-0.09699621,-0.5496144,-0.7688106,0.32688576,0.6358108,-0.1311291,0.7606246,-0.54191196,0.62588775,0.56088847,,-0.0117499335,0.45415872,-0.30071464,0.5752851,0.22127803,-0.78745353,0.42448637,0.7421582,0.51866424,0.69918406,-0.6326431,0.333023,,1.1894707627538075,0.5335790597459198,0.19517201498000003,3.1046693032318675,-0.5183988801100811,-0.8038501140666002,-0.4101569500631752,,-0.1635597595432009,0.30098579104002604,0.1991490327,-3.613167416181839,0.4939409466520672,1.2894444163696048,0.8167203306713959,,-0.02858849314766712,-0.02640246825954422,0.113675081,-0.09420068085063119,,-1.9520521e-05,0.0,-7.1525574e-07,1.0,2.7228147e-05,2.561137e-05,-2.7239323e-05,1.0,3.1292439e-06,-2.560392e-05,-3.0994415e-06,1.0,474,1.448,0,0,0.0,False,-0.25880563669028556,0.9913856256202589
1.4654826431069523,11:13:10.710456,NaN,0,,0.1196084,-0.0020360947,0.03297679,0.4429845,0.83629364,-0.3230752,0.096376985,0.31385255,0.9445676,0.8913338,-0.44956583,0.05843237,,0.026082143,0.0060554296,0.007114053,-0.5539665,-0.36619717,0.74767673,0.79565,0.031496555,0.6049372,-0.24507558,0.93000406,0.27391675,,0.07475035,1.3022321,0.43178213,0.9961203,0.077425145,-0.04183019,0.027660394,-0.7267031,-0.6863946,-0.08354233,0.6825745,-0.7260253,,-0.09718586,0.26346716,-0.097114414,-0.5254462,-0.7839308,0.33069438,0.6435212,-0.1119144,0.7572025,-0.5565849,0.610678,0.56328106,,-0.011755902,0.45415777,-0.30071574,0.5747565,0.22089104,-0.787948,0.42499447,0.74226785,0.51809084,0.6993101,-0.63264966,0.33274582,,1.1898955130618898,0.5329149047187365,0.19513701515,3.076361160861457,-0.535751715580292,-0.7904351489584198,-0.4103202941293096,,-0.16360609594044623,0.3009780683071518,0.1991490327,-3.6123286564079007,0.4939409466520672,1.2894444163696048,0.8167203306713959,,-0.02858849314766712,-0.02640246825954422,0.113675081,-0.09420068085063119,,-1.9520521e-05,0.0,-7.1525574e-07,1.0,2.7228147e-05,2.561137e-05,-2.7239323e-05,1.0,3.1292439e-06,-2.560392e-05,-3.0994415e-06,1.0,482,1.472,0,0,0.0,False,-0.2589843698458485,0.9909028236124646
1.49933270807378,11:13:10.733966,NaN,0,,0.11944981,-0.0020283163,0.033157483,0.4132952,0.85056853,-0.3251465,0.08801213,0.31808487,0.9439682,0.90633374,-0.41875437,0.056602538,,0.026091553,0.006056547,0.00711751,-0.5539459,-0.36636814,0.74760824,0.7956577,0.031392306,0.6049324,-0.24509718,0.9299402,0.27411407,,0.07475035,1.3022321,0.43178213,0.9961203,0.077425145,-0.04183019,0.027660394,-0.7267031,-0.6863946,-0.08354233,0.6825745,-0.7260253,,-0.09704535,0.26360208,-0.09725552,-0.49747953,-0.801047,0.33292308,0.6489138,-0.0889456,0.75564516,-0.5756953,0.5919564,0.5640591,,-0.011765725,0.45415986,-0.30071634,0.5747393,0.221071,-0.78791016,0.42498147,0.7421715,0.5182395,0.6993322,-0.6326998,0.33260402,,1.1901426405138649,0.5320962950340687,0.19510849677000003,3.045536739169232,-0.5588432840406514,-0.7753627452801906,-0.4099936059970408,,-0.1636601550705658,0.3009703455742776,0.1991490327,-3.6123286564079007,0.4939409466520672,1.2896077738498861,0.8163936425391274,,-0.02858849314766712,-0.02640246825954422,0.113675081,-0.09420068085063119,,-1.9520521e-05,0.0,-7.1525574e-07,1.0,2.7228147e-05,2.561137e-05,-2.7239323e-05,1.0,3.1292439e-06,-2.560392e-05,-3.0994415e-06,1.0,511,1.561,0,0,0.0,False,-0.25815028178655464,0.9905165820062287
1.5228350791148841,11:13:10.822565,NaN,0,,0.11894563,-0.0020694584,0.033457384,0.33408025,0.8795939,-0.33868098,0.07278901,0.33417657,0.9396956,0.9397297,-0.338586,0.04761702,,0.026126847,0.0060626566,0.0071327686,-0.5530359,-0.36617568,0.74837583,0.7963815,0.031591684,0.60396886,-0.24480121,0.9300093,0.27414423,,0.07475035,1.3022321,0.43178213,0.9961203,0.077425145,-0.04183019,0.027660394,-0.7267031,-0.6863946,-0.08354233,0.6825745,-0.7260253,,-0.09657321,0.26379874,-0.09754577,-0.42210948,-0.83742476,0.34719357,0.6641407,-0.02498193,0.7471901,-0.6170419,0.5459814,0.566713,,-0.011803,0.45417085,-0.30071875,0.5737861,0.22086783,-0.7886615,0.4255764,0.7423333,0.51751906,0.699753,-0.63258094,0.33194438,,1.1901812541782362,0.5295169022540778,0.19507349694,2.9587251025666386,-0.6106285174517534,-0.736810903085572,-0.4114637025922494,,-0.16389183705679256,0.3009780683071518,0.1991490327,-3.611070516746994,0.49421421965159806,1.2897116530030557,0.8157402662745901,,-0.02858849314766712,-0.02640246825954422,0.113675081,-0.09420068085063119,,-1.9520521e-05,0.0,-7.1525574e-07,1.0,2.7228147e-05,2.561137e-05,-2.7239323e-05,1.0,3.1292439e-06,-2.560392e-05,-3.0994415e-06,1.0,519,1.586,0,0,0.0,False,-0.2587460589717643,0.9904683018054494
1.6114428581204265,11:13:10.852820,NaN,0,,0.11872794,-0.002111882,0.033505574,0.30853236,0.88734895,-0.34266546,0.068473965,0.33858684,0.9384403,0.94874597,-0.31300285,0.04370466,,0.026157588,0.0060665756,0.0071440935,-0.5529688,-0.36633575,0.7483471,0.7964069,0.031571805,0.60393643,-0.24487016,0.929947,0.27429414,,0.07475035,1.3022321,0.43178213,0.9961203,0.077425145,-0.04183019,0.027660394,-0.7267031,-0.6863946,-0.08354233,0.6825745,-0.7260253,,-0.09636189,0.26381102,-0.09762764,-0.3976228,-0.8475446,0.35151714,0.66832066,-0.0050278017,0.7438563,-0.62868404,0.5307004,0.5684307,,-0.011835138,0.45417807,-0.30072054,0.5737299,0.22103573,-0.78865534,0.4255353,0.74229366,0.5176098,0.6998241,-0.63256884,0.33181754,,1.1901580859796135,0.5283739377886925,0.19506571920000002,2.9289491305918363,-0.626341714924779,-0.7221192331372506,-0.41048363819544353,,-0.1640694599128997,0.30095490010852916,0.1991490327,-3.611070516746994,0.49421421965159806,1.2897116530030557,0.8157402662745901,,-0.02858849314766712,-0.02640246825954422,0.113675081,-0.09420068085063119,,-1.9520521e-05,0.0,-7.1525574e-07,1.0,2.7228147e-05,2.561137e-05,-2.7239323e-05,1.0,3.1292439e-06,-2.560392e-05,-3.0994415e-06,1.0,527,1.61,0,0,0.0,False,-0.25922268071993226,0.9902269008015521
1.6417068110313267,11:13:10.865260,NaN,0,,0.11856876,-0.0021370947,0.033554897,0.28945538,0.89309007,-0.34439182,0.06360817,0.3410518,0.93788993,0.9550756,-0.29338342,0.041911423,,0.02617696,0.0060674995,0.0071502924,-0.55292463,-0.36643505,0.7483311,0.79642236,0.03156838,0.6039163,-0.24491978,0.9299079,0.2743821,,0.07475035,1.3022321,0.43178213,0.9961203,0.077425145,-0.04183019,0.027660394,-0.7267031,-0.6863946,-0.08354233,0.6825745,-0.7260253,,-0.09620864,0.26383373,-0.097694,-0.37932512,-0.85511464,0.35339984,0.66995287,0.009605069,0.7423415,-0.6381815,0.51835,0.569243,,-0.011855247,0.45418093,-0.30072224,0.5736935,0.22113985,-0.7886526,0.42550427,0.7422749,0.51766217,0.69987273,-0.6325545,0.33174235,,1.1901580859796135,0.5276093872341443,0.19506312662000003,2.9086092060738373,-0.6385023634039032,-0.7110595373463013,-0.4099936059970408,,-0.16417757817313886,0.30093173190990646,0.1991490327,-3.611070516746994,0.49421421965159806,1.2897116530030557,0.8157402662745901,,-0.02858849314766712,-0.02640246825954422,0.113675081,-0.09420068085063119,,-1.9520521e-05,0.0,-7.1525574e-07,1.0,2.7228147e-05,2.561137e-05,-2.7239323e-05,1.0,3.1292439e-06,-2.560392e-05,-3.0994415e-06,1.0,535,1.636,0,0,0.0,False,-0.2583885926606384,0.9901786206007726
1.654148010071367,11:13:10.894694,NaN,0,,0.11840412,-0.0021615922,0.033574954,0.2719156,0.8969319,-0.34867623,0.06225863,0.34517273,0.9364719,0.960305,-0.2763494,0.03801605,,0.02620659,0.006066397,0.0071599483,-0.5528541,-0.36658645,0.7483091,0.7964455,0.031574667,0.6038855,-0.24500391,0.9298481,0.27451,,0.07475035,1.3022321,0.43178213,0.9961203,0.077425145,-0.04183019,0.027660394,-0.7267031,-0.6863946,-0.08354233,0.6825745,-0.7260253,,-0.0960471,0.2638377,-0.09773874,-0.36239585,-0.8605188,0.35801768,0.67337763,0.023840372,0.7389142,-0.6443848,0.5088605,0.5708145,,-0.011885973,0.4541836,-0.30072674,0.57363623,0.22129846,-0.7886498,0.42545018,0.74225366,0.5177371,0.6999526,-0.6325239,0.3316321,,1.1901503632467392,0.5268680048782187,0.19505923775000003,2.8868014519514467,-0.647110462889126,-0.7011814535085069,-0.4103202941293096,,-0.16433975556349756,0.30088539551266114,0.19914773641000003,-3.611070516746994,0.49421421965159806,1.2897116530030557,0.8157402662745901,,-0.02858849314766712,-0.02640246825954422,0.113675081,-0.09420068085063119,,-1.9520521e-05,0.0,-7.1525574e-07,1.0,2.7228147e-05,2.561137e-05,-2.7239323e-05,1.0,3.1292439e-06,-2.560392e-05,-3.0994415e-06,1.0,543,1.661,0,0,0.0,False,-0.25922268071993226,0.9898406591953166
1.6835779000539333,11:13:10.923653,NaN,0,,0.11811426,-0.0021728724,0.033622682,0.24387968,0.9034151,-0.35265273,0.057943285,0.34940916,0.93517685,0.968073,-0.24850449,0.032866955,,0.026245572,0.0060762838,0.007175863,-0.55293506,-0.36679563,0.74814683,0.79634506,0.031538725,0.6040197,-0.24514742,0.9297668,0.27465707,,0.074816346,1.3022338,0.4317852,0.9961224,0.07736906,-0.041883167,0.02758351,-0.72670907,-0.68639135,-0.08354233,0.6825745,-0.7260253,,-0.0958193,0.2638754,-0.09779589,-0.33530912,-0.86956567,0.36252353,0.67687017,0.045296203,0.7347075,-0.65529734,0.49173546,0.57339483,,-0.011982956,0.45419005,-0.30072272,0.5737999,0.2215262,-0.78846675,0.42526,0.7421788,0.51800054,0.699934,-0.632532,0.3316559,,1.1900963041166197,0.5258022677415758,0.19505664517000001,2.8547188905983147,-0.6615939318642626,-0.6840620376075499,-0.4109736703938467,,-0.1644478738237367,0.30086222731403844,0.19914773641000003,-3.6112802066904783,0.49421421965159806,1.2897116530030557,0.8157402662745901,,-0.02858849314766712,-0.02640246825954422,0.113675081,-0.09420068085063119,,4.5999885e-05,5.9604645e-06,-6.7949295e-06,1.0,-2.880767e-05,-2.7071685e-05,2.8796494e-05,1.0,-3.3080578e-06,2.7079135e-05,3.33786e-06,1.0,551,1.685,0,0,0.0,False,-0.25826943722359585,0.9897923789945371
1.7125379659701139,11:13:10.949772,NaN,0,,0.11782356,-0.0021954477,0.03369549,0.20840478,0.9090245,-0.36089054,0.052714497,0.3580163,0.9322261,0.97662103,-0.2133045,0.026693553,,0.026256822,0.0060768947,0.0071780086,-0.55245084,-0.36645377,0.7486718,0.79679096,0.031604797,0.603428,-0.24479014,0.92989933,0.27452695,,0.074816346,1.3022338,0.4317852,0.9961224,0.07736906,-0.041883167,0.02758351,-0.72670907,-0.68639135,-0.08354233,0.6825745,-0.7260253,,-0.095537394,0.26392272,-0.09788863,-0.30091265,-0.8784128,0.3712716,0.68058485,0.07490487,0.7288303,-0.6680239,0.47199607,0.57529455,,-0.011994404,0.45419067,-0.30072263,0.5732618,0.22116743,-0.7889587,0.425763,0.74227893,0.51744354,0.7000691,-0.63254005,0.33135524,,1.1899650176577579,0.5247674215364296,0.19505664517000001,2.8123615220144407,-0.6788101308347082,-0.6646325848925235,-0.4106469822615777,,-0.16452510115247895,0.30085450458116425,0.1991490327,-3.61044144691654,0.49421421965159806,1.2897116530030557,0.8157402662745901,,-0.02858849314766712,-0.02640246825954422,0.113675081,-0.09420068085063119,,4.5999885e-05,5.9604645e-06,-6.7949295e-06,1.0,-2.880767e-05,-2.7071685e-05,2.8796494e-05,1.0,-3.3080578e-06,2.7079135e-05,3.33786e-06,1.0,559,1.71,0,0,0.0,False,-0.2594609915940169,0.9896475383921988
1.7386252470314503,11:13:10.969346,NaN,0,,0.11768814,-0.0022270977,0.03372398,0.19271964,0.91293573,-0.35973236,0.04777661,0.35743994,0.93271327,0.98009,-0.19693896,0.025268734,,0.026257508,0.006078489,0.007179141,-0.55245113,-0.3664589,0.74866915,0.7967921,0.03159541,0.603427,-0.24478576,0.9298976,0.2745366,,0.074816346,1.3022338,0.4317852,0.9961224,0.07736906,-0.041883167,0.02758351,-0.72670907,-0.68639135,-0.08354233,0.6825745,-0.7260253,,-0.09540587,0.26392546,-0.09794198,-0.28571576,-0.8838952,0.37026435,0.680071,0.08520407,0.7281783,-0.6751814,0.4598581,0.5767674,,-0.011995274,0.45419246,-0.30072215,0.5732614,0.22117287,-0.7889575,0.425767,0.742272,0.5174502,0.70006704,-0.6325463,0.3313478,,1.18984145393177,0.5241496029064917,0.19505664517000001,2.7943281868747714,-0.6887845953175853,-0.6515983535142511,-0.4109736703938467,,-0.16453282388535317,0.30086222731403844,0.1991490327,-3.61044144691654,0.49421421965159806,1.2897116530030557,0.8157402662745901,,-0.02858849314766712,-0.02640246825954422,0.113675081,-0.09420068085063119,,4.5999885e-05,5.9604645e-06,-6.7949295e-06,1.0,-2.880767e-05,-2.7071685e-05,2.8796494e-05,1.0,-3.3080578e-06,2.7079135e-05,3.33786e-06,1.0,592,1.811,0,0,0.0,False,-0.25820985950507547,0.9896475383921988
1.758126337081194,11:13:11.065762,NaN,0,,0.11680972,-0.002391234,0.03378719,0.09252211,0.92180353,-0.3764545,0.032525748,0.37507647,0.9264231,0.99517924,-0.09795906,0.0047205687,,0.026254654,0.0060738996,0.007178545,-0.5516165,-0.36600208,0.74950755,0.7974808,0.031898886,0.6025005,-0.24442494,0.9300672,0.2742837,,0.074816346,1.3022338,0.4317852,0.9961224,0.07736906,-0.041883167,0.02758351,-0.72670907,-0.68639135,-0.08354233,0.6825745,-0.7260253,,-0.09454036,0.26389253,-0.09817083,-0.18769725,-0.90200365,0.38879195,0.6841553,0.16395529,0.71066886,-0.7047704,0.39938465,0.5863366,,-0.011992305,0.45418927,-0.3007254,0.57237333,0.220692,-0.7897365,0.42639455,0.74254555,0.5165403,0.7004116,-0.63239324,0.3309114,,1.1888066077266242,0.5211222916197957,0.19505534888,2.6695626705014797,-0.7311419102448719,-0.5842239498318544,-0.40901354160023495,,-0.16453282388535317,0.3008699500469127,0.19914773641000003,-3.609183307255633,0.494487492651129,1.2897338534160843,0.8152502340761874,,-0.02858849314766712,-0.02640246825954422,0.113675081,-0.09420068085063119,,4.5999885e-05,5.9604645e-06,-6.7949295e-06,1.0,-2.880767e-05,-2.7071685e-05,2.8796494e-05,1.0,-3.3080578e-06,2.7079135e-05,3.33786e-06,1.0,596,1.823,0,0,0.0,False,-0.2589843698458485,0.9894544175890809
1.8546502660028636,11:13:11.093767,NaN,0,,0.11648469,-0.0024679601,0.033779413,0.05786772,0.92197925,-0.3828911,0.026632994,0.3819716,0.9237902,0.9979689,-0.06365517,-0.002451241,,0.026254252,0.006074749,0.007177353,-0.5517332,-0.36609817,0.7493747,0.79737115,0.03188163,0.6026464,-0.24451908,0.9300299,0.27432603,,0.074816346,1.3022338,0.4317852,0.9961224,0.07736906,-0.041883167,0.02758351,-0.72670907,-0.68639135,-0.08354233,0.6825745,-0.7260253,,-0.094217345,0.26384765,-0.09824322,-0.15357159,-0.9053836,0.3958489,0.6834862,0.1919832,0.7042649,-0.7136262,0.37871236,0.589334,,-0.011991739,0.45418906,-0.30072403,0.5725043,0.2207928,-0.7896134,0.426266,0.74251825,0.5166855,0.7003828,-0.63239,0.33097842,,1.1883664119527932,0.5200797226817754,0.19505405259000003,2.624898712539276,-0.7443956507221196,-0.5602661360106709,-0.4075434450050267,,-0.16452510115247895,0.3008699500469127,0.1991490327,-3.609392997199118,0.494487492651129,1.2897338534160843,0.8152502340761874,,-0.02858849314766712,-0.02640246825954422,0.113675081,-0.09420068085063119,,4.5999885e-05,5.9604645e-06,-6.7949295e-06,1.0,-2.880767e-05,-2.7071685e-05,2.8796494e-05,1.0,-3.3080578e-06,2.7079135e-05,3.33786e-06,1.0,608,1.86,1,1,0.009,False,-0.25791197091247,0.9895509779906397
1.8826310511212796,11:13:11.126976,NaN,0,,0.116079465,-0.0025836378,0.03370586,0.018502153,0.9243856,-0.3810104,0.023717165,0.38056266,0.924451,0.9995475,-0.026140794,-0.014882535,,0.026260942,0.006076999,0.007181287,-0.551302,-0.36582252,0.74982655,0.797723,0.032082886,0.60217,-0.24434397,0.93013144,0.27413774,,0.074816346,1.3022338,0.4317852,0.9961224,0.07736906,-0.041883167,0.02758351,-0.72670907,-0.68639135,-0.08354233,0.6825745,-0.7260253,,-0.09380879,0.26373416,-0.09829979,-0.11459347,-0.91142434,0.3951885,0.6844673,0.21587507,0.6963494,-0.71998113,0.35029072,0.5991023,,-0.011998975,0.45419264,-0.3007244,0.5720473,0.22050253,-0.79002565,0.4265793,0.742695,0.5161727,0.70056546,-0.63228375,0.33079487,,1.1878335433844718,0.518759135360283,0.19504497856000003,2.571427776950722,-0.7546433882045276,-0.5208718719800259,-0.40787013313729537,,-0.16458688301547275,0.30088539551266114,0.1991490327,-3.6087639273686642,0.49462412915089443,1.289622435512388,0.8149235459439192,,-0.02858849314766712,-0.02640246825954422,0.113675081,-0.09420068085063119,,4.5999885e-05,5.9604645e-06,-6.7949295e-06,1.0,-2.880767e-05,-2.7071685e-05,2.8796494e-05,1.0,-3.3080578e-06,2.7079135e-05,3.33786e-06,1.0,621,1.901,1,1,0.05,False,-0.25785239319394915,0.9896958185929778
1.9158513061702251,11:13:11.157953,NaN,0,,0.11577909,-0.0026676506,0.033636123,-0.008758735,0.9255375,-0.37855458,0.023416728,0.37865514,0.9252416,0.99968743,-0.0007606298,-0.024989694,,0.026268512,0.0060790107,0.007184744,-0.55128676,-0.3658018,0.7498478,0.7977296,0.032121003,0.60215914,-0.24435681,0.93013835,0.2741031,,0.074816346,1.3022338,0.4317852,0.9961224,0.07736906,-0.041883167,0.02758351,-0.72670907,-0.68639135,-0.08354233,0.6825745,-0.7260253,,-0.093504444,0.26364118,-0.098329335,-0.08748172,-0.9150525,0.39373326,0.6857855,0.23135608,0.6900526,-0.72252697,0.33038357,0.6072903,,-0.0120069925,0.45419556,-0.30072448,0.57203406,0.22048052,-0.7900414,0.42657262,0.7427232,0.5161376,0.70058036,-0.6322583,0.33081204,,1.187563247733874,0.5178864665454956,0.19503201566000003,2.5349417267844148,-0.7588791196972562,-0.4928326161831275,-0.4103202941293095,,-0.16462549667984389,0.30088539551266114,0.1991490327,-3.6087639273686642,0.49462412915089443,1.2895407567722472,0.8150868900100534,,-0.02858849314766712,-0.02640246825954422,0.113675081,-0.09420068085063119,,4.5999885e-05,5.9604645e-06,-6.7949295e-06,1.0,-2.880767e-05,-2.7071685e-05,2.8796494e-05,1.0,-3.3080578e-06,2.7079135e-05,3.33786e-06,1.0,642,1.967,1,1,0.113,False,-0.2587460589717643,0.990082060199214
1.9468389181420207,11:13:11.227455,NaN,0,,0.11513416,-0.0028081834,0.03360507,-0.06531503,0.92248374,-0.38047034,0.014362603,0.3821141,0.9240035,0.9977613,0.05488676,-0.038207054,,0.026274942,0.0060739294,0.0071843863,-0.5499266,-0.3651501,0.7511631,0.7989491,0.032148868,0.60053873,-0.24343587,0.93039346,0.2740568,,0.074816346,1.3022338,0.4317852,0.9961224,0.07736906,-0.041883167,0.02758351,-0.72670907,-0.68639135,-0.08354233,0.6825745,-0.7260253,,-0.09286183,0.2635504,-0.09845364,-0.03115361,-0.91733426,0.39689708,0.6807824,0.27126607,0.68040437,-0.73182297,0.29139757,0.61605406,,-0.012013234,0.4541911,-0.30072737,0.5705353,0.2197974,-0.7913145,0.4279032,0.7428497,0.5148526,0.700991,-0.6323476,0.32976997,,1.1873856248777668,0.5164268700322672,0.19498664551000003,2.456937067808172,-0.7734992251721584,-0.4407249603384538,-0.4086868534679665,,-0.1646950012757119,0.3008776727797869,0.1991490327,-3.6064573379903346,0.4947607656506599,1.290001090049535,0.8149235459439192,,-0.02858849314766712,-0.02640246825954422,0.113675081,-0.09420068085063119,,4.5999885e-05,5.9604645e-06,-6.7949295e-06,1.0,-2.880767e-05,-2.7071685e-05,2.8796494e-05,1.0,-3.3080578e-06,2.7079135e-05,3.33786e-06,1.0,651,1.995,0,1,0.113,False,-0.25856732581620134,0.9896958185929778
2.016342641087249,11:13:11.258644,NaN,0,,0.11473609,-0.0028956085,0.033551484,-0.09737691,0.920317,-0.37885934,0.011510134,0.38168442,0.924221,0.99518096,0.08563706,-0.04776025,,0.02629456,0.0060787275,0.0071929097,-0.54977137,-0.36552334,0.7510952,0.7990749,0.03184402,0.60038763,-0.24337365,0.9302573,0.27457356,,0.074816346,1.3022338,0.4317852,0.9961224,0.07736906,-0.041883167,0.02758351,-0.72670907,-0.68639135,-0.08354233,0.6825745,-0.7260253,,-0.09246187,0.26347086,-0.09850541,0.0009586338,-0.9181551,0.3962201,0.67864394,0.2916081,0.67409724,-0.7344668,0.26824614,0.6233799,,-0.012033979,0.4541982,-0.30072773,0.570371,0.22019067,-0.7913236,0.42801479,0.7425896,0.515135,0.7010566,-0.63251626,0.32930666,,1.1874319612750122,0.5155773694161024,0.19495553455000003,2.41143435007203,-0.7780082296644178,-0.407562144325729,-0.40852350940183246,,-0.16481856500169947,0.3008776727797869,0.1991490327,-3.60624764804685,0.4947607656506599,1.290491162490378,0.814923545943919,,-0.02858849314766712,-0.02640246825954422,0.113675081,-0.09420068085063119,,4.5999885e-05,5.9604645e-06,-6.7949295e-06,1.0,-2.880767e-05,-2.7071685e-05,2.8796494e-05,1.0,-3.3080578e-06,2.7079135e-05,3.33786e-06,1.0,664,2.036,0,1,0.113,False,-0.2588652144088064,0.9895509779906397
2.0475297721568495,11:13:11.296688,NaN,0,,0.114414625,-0.0029587746,0.033513725,-0.124652475,0.9167448,-0.3795269,0.007990032,0.38342538,0.9235373,0.9921682,0.112088785,-0.055119753,,0.026319861,0.0060900375,0.007209301,-0.54991496,-0.3657813,0.75086445,0.7989725,0.031590104,0.6005372,-0.24338526,0.9301645,0.2748773,,0.074816346,1.3022338,0.4317852,0.9961224,0.07736906,-0.041883167,0.02758351,-0.72670907,-0.68639135,-0.08354233,0.6825745,-0.7260253,,-0.092139296,0.2634158,-0.098546304,0.028338782,-0.9171278,0.39758456,0.67546695,0.31076354,0.668708,-0.7368455,0.24960485,0.6282962,,-0.012061616,0.45421478,-0.300728,0.5705159,0.22046284,-0.79114336,0.42795447,0.7423816,0.51548475,0.7009755,-0.6326656,0.3291924,,1.1874628522065092,0.5150213326491583,0.19493479391000001,2.3724320205839082,-0.7819706881576157,-0.38146097787917527,-0.40852350940183246,,-0.16498846512493243,0.3009008409784096,0.19914644012000002,-3.6064573379903346,0.49462412915089443,1.2906025803940746,0.814923545943919,,-0.02858849314766712,-0.02640246825954422,0.113675081,-0.09420068085063119,,4.5999885e-05,5.9604645e-06,-6.7949295e-06,1.0,-2.880767e-05,-2.7071685e-05,2.8796494e-05,1.0,-3.3080578e-06,2.7079135e-05,3.33786e-06,1.0,673,2.065,0,1,0.113,False,-0.2586269035347226,0.9904683018054494
2.0855739780236036,11:13:11.327408,NaN,0,,0.11409395,-0.003026411,0.03344989,-0.1529196,0.9121991,-0.3801426,0.006075442,0.38552734,0.92267644,0.98822,0.13878576,-0.064496726,,0.026353106,0.0060913637,0.007225871,-0.54865444,-0.36503485,0.75214875,0.8000145,0.032048553,0.599124,-0.2428065,0.93044204,0.27444965,,0.074816346,1.3022338,0.4317852,0.9961224,0.07736906,-0.041883167,0.02758351,-0.72670907,-0.68639135,-0.08354233,0.6825745,-0.7260253,,-0.09181506,0.26333997,-0.09857089,0.056821413,-0.9151496,0.39908952,0.672909,0.33040246,0.6618366,-0.7375397,0.23094444,0.6345864,,-0.012096986,0.45422375,-0.300735,0.5691696,0.21967739,-0.7923306,0.4289281,0.7428036,0.5140657,0.70147467,-0.6324434,0.32855538,,1.1874705749393832,0.5145193550123337,0.19491405327000003,2.331752171547911,-0.7834736896550355,-0.35458825653437814,-0.40852350940183235,,-0.16522014711115915,0.3009008409784096,0.19914255125000002,-3.6045701284989735,0.49489740215042527,1.2903797445866818,0.8152502340761876,,-0.02858849314766712,-0.02640246825954422,0.113675081,-0.09420068085063119,,4.5999885e-05,5.9604645e-06,-6.7949295e-06,1.0,-2.880767e-05,-2.7071685e-05,2.8796494e-05,1.0,-3.3080578e-06,2.7079135e-05,3.33786e-06,1.0,686,2.106,0,1,0.113,False,-0.2580311263495121,0.9898406591953166
2.1162915900349617,11:13:11.365930,NaN,0,,0.11371768,-0.0031165034,0.033372253,-0.18568473,0.9075958,-0.37655157,0.0029918253,0.38373634,0.9234379,0.98260474,0.17034172,-0.073969334,,0.02640289,0.0060945526,0.0072711706,-0.5485019,-0.3662916,0.75164884,0.8001534,0.030980706,0.59899473,-0.24269344,0.9299842,0.27609646,,0.074816346,1.3022338,0.4317852,0.9961224,0.07736906,-0.041883167,0.02758351,-0.72670907,-0.68639135,-0.08354233,0.6825745,-0.7260253,,-0.09143452,0.26324123,-0.09860491,0.08992303,-0.9136449,0.39644277,0.6686086,0.3504019,0.6558819,-0.7381574,0.20608616,0.64238006,,-0.012153084,0.4542529,-0.30075827,0.569,0.22100201,-0.79208404,0.42908585,0.74190015,0.51523733,0.70151573,-0.6330421,0.32731235,,1.1875091886037543,0.5139478727796412,0.19488294231000003,2.2841525543769237,-0.7849766911524554,-0.31856751629383806,-0.40983026193090666,,-0.16556767009049927,0.3009008409784096,0.19911792174,-3.604360438555489,0.4947607656506599,1.2918797010727678,0.8150868900100532,,-0.02858849314766712,-0.02640246825954422,0.113675081,-0.09420068085063119,,4.5999885e-05,5.9604645e-06,-6.7949295e-06,1.0,-2.880767e-05,-2.7071685e-05,2.8796494e-05,1.0,-3.3080578e-06,2.7079135e-05,3.33786e-06,1.0,699,2.147,0,1,0.113,False,-0.25773323775690704,0.9894544175890809
2.1548182039987296,11:13:11.408041,NaN,0,,0.11332677,-0.00320822,0.033267766,-0.21791692,0.9011731,-0.37469888,0.0014396906,0.38422206,0.9232396,0.9759662,0.20065007,-0.085025966,,0.026442736,0.0060858056,0.007321,-0.5473293,-0.36781013,0.7517621,0.80109715,0.029732525,0.5977954,-0.24222705,0.9294254,0.2783782,,0.074816346,1.3022338,0.4317852,0.9961224,0.07736906,-0.041883167,0.02758351,-0.72670907,-0.68639135,-0.08354233,0.6825745,-0.7260253,,-0.09103684,0.2631241,-0.09862142,0.12261728,-0.9101731,0.3956639,0.66473275,0.37135395,0.64824885,-0.73695004,0.18352424,0.6505563,,-0.012199895,0.4542785,-0.30079433,0.5677588,0.22260283,-0.7925263,0.4299219,0.74083275,0.51607555,0.7020093,-0.6337308,0.32491252,,1.1877099796584842,0.5133377768825774,0.19485183135000003,2.236972317092906,-0.7837469626545664,-0.2853468853082103,-0.4096669178647723,,-0.16588430213834246,0.30090856371128377,0.19908292191000002,-3.602682919007613,0.49503403865019074,1.2944339424301543,0.8150868900100534,,-0.02858849314766712,-0.02640246825954422,0.113675081,-0.09420068085063119,,4.5999885e-05,5.9604645e-06,-6.7949295e-06,1.0,-2.880767e-05,-2.7071685e-05,2.8796494e-05,1.0,-3.3080578e-06,2.7079135e-05,3.33786e-06,1.0,708,2.176,0,1,0.113,False,-0.2584481703791588,0.9896475383921988
2.1967627140693367,11:13:11.439517,NaN,0,,0.11295416,-0.0033010244,0.033142805,-0.24306926,0.8973955,-0.3682372,0.00095778704,0.37984437,0.9250499,0.9700085,0.22449847,-0.09318805,,0.02647698,0.006077267,0.007380128,-0.5468098,-0.36811304,0.7519918,0.80108213,0.031129658,0.5977442,-0.2434468,0.9292598,0.27786678,,0.074816346,1.3022338,0.4317852,0.9961224,0.07736906,-0.041883167,0.02758351,-0.72670907,-0.68639135,-0.08354233,0.6825745,-0.7260253,,-0.09065541,0.26299152,-0.09862207,0.14821677,-0.90878636,0.39005023,0.66173,0.3842401,0.6437957,-0.7349457,0.16268662,0.65832204,,-0.01224259,0.4543117,-0.300837,0.56742996,0.22291008,-0.79267544,0.42896146,0.74169147,0.51564115,0.7028622,-0.6326175,0.3252381,,1.1881115617679439,0.5125114444650354,0.19482849813000003,2.1996475071526604,-0.7812875056587885,-0.25378244537697464,-0.4103202941293095,,-0.16613142959031765,0.30096262284140335,0.19904273692000002,-3.6031022988945822,0.49626376714807974,1.2934311812968864,0.8150868900100534,,-0.02858849314766712,-0.02640246825954422,0.113675081,-0.09420068085063119,,4.5999885e-05,5.9604645e-06,-6.7949295e-06,1.0,-2.880767e-05,-2.7071685e-05,2.8796494e-05,1.0,-3.3080578e-06,2.7079135e-05,3.33786e-06,1.0,721,2.217,0,1,0.113,False,-0.2575545046013441,0.9896475383921988
2.2282965290360153,11:13:11.479088,NaN,0,,0.11255545,-0.0033951402,0.032993793,-0.2630183,0.89181626,-0.368083,0.00045961142,0.3816316,0.9243144,0.9647907,0.24294242,-0.10078597,,0.02649261,0.00607457,0.007409692,-0.54553115,-0.36811283,0.75292003,0.80236244,0.03011161,0.59607697,-0.24209526,0.9292934,0.27893305,,0.074816346,1.3022338,0.4317852,0.9961224,0.07736906,-0.041883167,0.02758351,-0.72670907,-0.68639135,-0.08354233,0.6825745,-0.7260253,,-0.0902457,0.2628433,-0.09860799,0.1685662,-0.9049874,0.39061907,0.65893334,0.39818606,0.6381651,-0.73307043,0.14981887,0.6634471,,-0.012262479,0.45432955,-0.3008573,0.565946,0.22291733,-0.7937336,0.43065637,0.7410288,0.51518095,0.7030222,-0.633391,0.32338154,,1.1887757167951272,0.5113375890681532,0.19482072039,2.1692424653474043,-0.7789646851627761,-0.23362328990186204,-0.40983026193090666,,-0.16632449791217327,0.3009935137729003,0.1990194037,-3.6005860195727677,0.49599049414854884,1.295042555686669,0.814923545943919,,-0.02858849314766712,-0.02640246825954422,0.113675081,-0.09420068085063119,,4.5999885e-05,5.9604645e-06,-6.7949295e-06,1.0,-2.880767e-05,-2.7071685e-05,2.8796494e-05,1.0,-3.3080578e-06,2.7079135e-05,3.33786e-06,1.0,734,2.258,0,1,0.113,False,-0.25695872741613357,0.9896958185929778
2.267971736146137,11:13:11.519360,NaN,0,,0.11229183,-0.0034724176,0.0328331,-0.2714827,0.89024943,-0.3657229,0.0050655603,0.38131064,0.92443305,0.96243,0.24911502,-0.10802886,,0.026515141,0.0060758665,0.00743556,-0.54568106,-0.3693815,0.7521897,0.8020978,0.029665768,0.5964554,-0.24263397,0.9288043,0.28009203,,0.074816346,1.3022338,0.4317852,0.9961224,0.07736906,-0.041883167,0.02758351,-0.72670907,-0.68639135,-0.08354233,0.6825745,-0.7260253,,-0.08996903,0.26269257,-0.09856289,0.1772906,-0.9040293,0.38897184,0.6612237,0.40215528,0.6332885,-0.72893846,0.14492129,0.6690639,,-0.012288667,0.4543465,-0.3008715,0.56617886,0.22425078,-0.79319173,0.4301035,0.74052376,0.5163677,0.70317316,-0.633511,0.32281783,,1.1893394762949456,0.510194624602768,0.19482201668000002,2.156661068738333,-0.7732259521726275,-0.22376402611209167,-0.4081968212695637,,-0.16647122983678353,0.30100895923864873,0.19900514451,-3.6012150894032215,0.49626376714807974,1.2959632222412436,0.8145968578116507,,-0.02858849314766712,-0.02640246825954422,0.113675081,-0.09420068085063119,,4.5999885e-05,5.9604645e-06,-6.7949295e-06,1.0,-2.880767e-05,-2.7071685e-05,2.8796494e-05,1.0,-3.3080578e-06,2.7079135e-05,3.33786e-06,1.0,743,2.286,0,1,0.113,False,-0.2579715486309908,0.9898406591953166
2.308247813023627,11:13:11.548411,NaN,0,,0.11199444,-0.0035590827,0.03263387,-0.27785504,0.88844407,-0.3653269,0.009668857,0.38286936,0.92375183,0.9605744,0.25313684,-0.11497241,,0.026524805,0.0060734525,0.007444501,-0.54539275,-0.3694932,0.75234395,0.80225027,0.029868275,0.59624016,-0.24277794,0.92875326,0.2801361,,0.074816346,1.3022338,0.4317852,0.9961224,0.07736906,-0.041883167,0.02758351,-0.72670907,-0.68639135,-0.08354233,0.6825745,-0.7260253,,-0.0896552,0.26251096,-0.09849844,0.18388413,-0.9025966,0.38923776,0.6637385,0.4060951,0.6281226,-0.7250089,0.1428503,0.6737625,,-0.012299545,0.45435023,-0.3008784,0.5659138,0.2243664,-0.79334813,0.43006706,0.7406367,0.516236,0.7034088,-0.633338,0.32264394,,1.1899959085892546,0.5087041371580426,0.19484405361,2.14680564139456,-0.7678971286817754,-0.21765444561826014,-0.40852350940183235,,-0.16653301169977733,0.30100895923864873,0.19899995935000003,-3.601005399459737,0.4965370401476106,1.2959854226542726,0.8147602018777853,,-0.02858849314766712,-0.02640246825954422,0.113675081,-0.09420068085063119,,4.5999885e-05,5.9604645e-06,-6.7949295e-06,1.0,-2.880767e-05,-2.7071685e-05,2.8796494e-05,1.0,-3.3080578e-06,2.7079135e-05,3.33786e-06,1.0,756,2.327,0,1,0.113,False,-0.2580311263495121,0.9898406591953166
2.3372786801774055,11:13:11.587529,NaN,0,,0.11164437,-0.0036407858,0.032298923,-0.2834516,0.8858323,-0.3673641,0.016597033,0.38754946,0.9216995,0.9588429,0.25516003,-0.12455368,,0.02653464,0.00607004,0.0074563026,-0.54432386,-0.36927912,0.75322264,0.8032303,0.029523075,0.5949365,-0.24193512,0.92884946,0.280546,,0.074816346,1.3022338,0.4317852,0.9961224,0.07736906,-0.041883167,0.02758351,-0.72670907,-0.68639135,-0.08354233,0.6825745,-0.7260253,,-0.08927575,0.2622451,-0.098334864,0.18973026,-0.900119,0.39215836,0.66802037,0.41105878,0.62030596,-0.7195493,0.14427896,0.67928815,,-0.0123110125,0.45435536,-0.30088788,0.5647177,0.22414447,-0.79426265,0.43121403,0.7404481,0.5155493,0.7036678,-0.633637,0.3214899,,1.1906832318150606,0.5066267220148762,0.19494905310000002,2.1382083537116947,-0.7606553941942069,-0.21547339924025483,-0.4090135416002353,,-0.16664112996001648,0.3010166819715229,0.19899088532000003,-3.599118189968376,0.4965370401476106,1.2968022100556782,0.8150868900100534,,-0.02858849314766712,-0.02640246825954422,0.113675081,-0.09420068085063119,,4.5999885e-05,5.9604645e-06,-6.7949295e-06,1.0,-2.880767e-05,-2.7071685e-05,2.8796494e-05,1.0,-3.3080578e-06,2.7079135e-05,3.33786e-06,1.0,765,2.356,0,1,0.113,False,-0.25761408231986493,0.9894544175890809
2.3764173169620335,11:13:11.619093,NaN,0,,0.111432165,-0.0036625713,0.032033175,-0.28659976,0.883442,-0.3706628,0.01997757,0.39231956,0.91961205,0.9578421,0.25615564,-0.13008767,,0.02654314,0.006070979,0.007468581,-0.54407364,-0.37079924,0.7526564,0.80345535,0.028216958,0.5946959,-0.24175052,0.9282843,0.28256857,,0.074816346,1.3022338,0.4317852,0.9961224,0.07736906,-0.041883167,0.02758351,-0.72670907,-0.68639135,-0.08354233,0.6825745,-0.7260253,,-0.08903923,0.26206264,-0.09817085,0.19301327,-0.89776117,0.39594287,0.6700276,0.41539097,0.6152344,-0.7168046,0.14654428,0.68170077,,-0.012321289,0.4543639,-0.30089465,0.5644397,0.22574861,-0.79400593,0.43147036,0.7393372,0.5169273,0.70373374,-0.6343643,0.31990743,,1.1909998638629038,0.5052289073646417,0.19508257097,2.133175795068066,-0.7572394817000709,-0.21629855706929174,-0.4083601653356982,,-0.16671835728875872,0.30103212743727137,0.19898310758,-3.5986988100814075,0.4965370401476106,1.2990075360394733,0.8149235459439192,,-0.02858849314766712,-0.02640246825954422,0.113675081,-0.09420068085063119,,4.5999885e-05,5.9604645e-06,-6.7949295e-06,1.0,-2.880767e-05,-2.7071685e-05,2.8796494e-05,1.0,-3.3080578e-06,2.7079135e-05,3.33786e-06,1.0,778,2.397,0,1,0.113,False,-0.2580907040680329,0.9897440987937576
2.407979364041239,11:13:11.659162,NaN,0,,0.11121032,-0.0036464483,0.03162375,-0.2923797,0.8783979,-0.3780627,0.02368185,0.40186745,0.91539156,0.956009,0.2586887,-0.13829994,,0.026571363,0.006059341,0.007511914,-0.5434483,-0.37107053,0.75297433,0.8035371,0.029581606,0.5945192,-0.24288282,0.92813337,0.28209287,,0.074816346,1.3022338,0.4317852,0.9961224,0.07736906,-0.041883167,0.02758351,-0.72670907,-0.68639135,-0.08354233,0.6825745,-0.7260253,,-0.08877864,0.26181284,-0.097876266,0.19900092,-0.8928355,0.404034,0.67185885,0.42443705,0.60700816,-0.71344537,0.15065864,0.6843228,,-0.01235559,0.45438424,-0.30092958,0.5639919,0.22602277,-0.7942461,0.4306262,0.7401809,0.5164236,0.7046093,-0.6332819,0.3201247,,1.1910693684587719,0.5035762425295576,0.19533923639000003,2.1245785073852006,-0.7532770232068732,-0.21969303375676918,-0.4083601653356981,,-0.1669037028777401,0.30105529563589406,0.19895329291000002,-3.5989085000248915,0.49776676864549957,1.2981681323864867,0.8149235459439192,,-0.02858849314766712,-0.02640246825954422,0.113675081,-0.09420068085063119,,4.5999885e-05,5.9604645e-06,-6.7949295e-06,1.0,-2.880767e-05,-2.7071685e-05,2.8796494e-05,1.0,-3.3080578e-06,2.7079135e-05,3.33786e-06,1.0,787,2.425,0,1,0.113,False,-0.2570183051346544,0.9899372195968752
2.4480427110102028,11:13:11.689705,NaN,0,,0.111113034,-0.0035615712,0.031277686,-0.297245,0.8744847,-0.383304,0.02553013,0.40858483,0.91236323,0.9544598,0.26140955,-0.14377546,,0.026585683,0.0060497597,0.0075393915,-0.5423181,-0.37149402,0.75358015,0.8046104,0.028549343,0.5931163,-0.24185343,0.92799634,0.28342515,,0.074816346,1.3022338,0.4317852,0.9961224,0.07736906,-0.041883167,0.02758351,-0.72670907,-0.68639135,-0.08354233,0.6825745,-0.7260253,,-0.08864707,0.26164976,-0.09757207,0.2040216,-0.8890981,0.40973133,0.67245376,0.43144795,0.6013806,-0.71146405,0.15283075,0.68590206,,-0.012373776,0.454396,-0.30095363,0.5627058,0.2264748,-0.7950291,0.43196467,0.73943514,0.5163741,0.7048182,-0.63399124,0.31825534,,1.1908763001369163,0.5026572373175249,0.19562053132,2.1176587392502113,-0.7510908392106261,-0.22163907769619312,-0.4083601653356982,,-0.16706588026809882,0.30105529563589406,0.1989286634,-3.5968116005900463,0.4976301321457341,1.2999948038331348,0.8154135781423222,,-0.02858849314766712,-0.02640246825954422,0.113675081,-0.09420068085063119,,4.5999885e-05,5.9604645e-06,-6.7949295e-06,1.0,-2.880767e-05,-2.7071685e-05,2.8796494e-05,1.0,-3.3080578e-06,2.7079135e-05,3.33786e-06,1.0,800,2.466,1,2,0.119,False,-0.25683957197909146,0.990082060199214
2.478586802026257,11:13:11.727947,NaN,0,,0.110991545,-0.0034218878,0.030782342,-0.30425853,0.86954665,-0.38899267,0.02633351,0.4158746,0.90904063,0.9522254,0.26633984,-0.14943162,,0.026610956,0.006042443,0.0075936913,-0.5415555,-0.3729425,0.75341314,0.8052863,0.027117968,0.59226555,-0.24131215,0.92745805,0.28563958,,0.074816346,1.3022338,0.4317852,0.9961224,0.07736906,-0.041883167,0.02758351,-0.72670907,-0.68639135,-0.08354233,0.6825745,-0.7260253,,-0.0884761,0.2614289,-0.09712305,0.21123,-0.88454515,0.4158867,0.6719295,0.44041425,0.5954377,-0.70985395,0.15367222,0.6873807,,-0.012406884,0.4544276,-0.300993,0.5618619,0.22800556,-0.7951885,0.43272358,0.73825073,0.5174322,0.7050259,-0.63482225,0.31613156,,1.1905056089589534,0.5014370455233974,0.19604830702,2.1073839320194696,-0.7497244742129717,-0.2216914331113301,-0.40852350940183246,,-0.16732073045294824,0.3010939093002652,0.19888588583000003,-3.5955534609291395,0.4976301321457341,1.3024451660373517,0.815413578142322,,-0.02858849314766712,-0.02640246825954422,0.113675081,-0.09420068085063119,,4.5999885e-05,5.9604645e-06,-6.7949295e-06,1.0,-2.880767e-05,-2.7071685e-05,2.8796494e-05,1.0,-3.3080578e-06,2.7079135e-05,3.33786e-06,1.0,813,2.507,1,2,0.16,False,-0.25815028178655464,0.9895509779906397
2.516834669979289,11:13:11.770126,NaN,0,,0.110847354,-0.0033014119,0.030126601,-0.31545612,0.86426324,-0.39183724,0.031917453,0.4223508,0.9058703,0.94840324,0.27325588,-0.16081822,,0.026652955,0.0060340986,0.0076622963,-0.54059684,-0.37389863,0.7536277,0.80561584,0.027990907,0.59177655,-0.24235924,0.92704713,0.28608692,,0.074816346,1.3022338,0.4317852,0.9961224,0.07736906,-0.041883167,0.02758351,-0.72670907,-0.68639135,-0.08354233,0.6825745,-0.7260253,,-0.08826736,0.26108783,-0.0965704,0.22283104,-0.8798531,0.41976756,0.6741143,0.45012197,0.58562803,-0.7042132,0.15247521,0.6934227,,-0.012458672,0.45446688,-0.3010411,0.56106865,0.22900203,-0.7954622,0.4320688,0.73865527,0.5174021,0.70605844,-0.6339925,0.31549168,,1.189903235794764,0.4998307170855587,0.19654089722,2.0924959460320682,-0.7430292857244651,-0.21743114031572774,-0.40836016533569797,,-0.16763736250079142,0.3011634138961332,0.19884051568000002,-3.595343770985654,0.4989964971433885,1.302556168102496,0.8145968578116507,,-0.02858849314766712,-0.02640246825954422,0.113675081,-0.09420068085063119,,4.5999885e-05,5.9604645e-06,-6.7949295e-06,1.0,-2.880767e-05,-2.7071685e-05,2.8796494e-05,1.0,-3.3080578e-06,2.7079135e-05,3.33786e-06,1.0,822,2.536,1,2,0.189,False,-0.25672041654204936,0.9895992581914193
2.5590062241535634,11:13:11.799632,NaN,0,,0.11068411,-0.0032577962,0.029569566,-0.3256614,0.8596081,-0.39372402,0.03546354,0.42723733,0.9034437,0.9448211,0.28025386,-0.16961947,,0.026676,0.0060277656,0.0076994896,-0.53925675,-0.37476075,0.75415945,0.8068178,0.026735097,0.59019506,-0.24134459,0.926736,0.28794658,,0.074816346,1.3022338,0.4317852,0.9961224,0.07736906,-0.041883167,0.02758351,-0.72670907,-0.68639135,-0.08354233,0.6825745,-0.7260253,,-0.08805041,0.2607567,-0.096143655,0.2333892,-0.87581927,0.42245725,0.67489445,0.4586713,0.5780468,-0.70003355,0.15020418,0.6981345,,-0.012487002,0.45448697,-0.3010685,0.55957574,0.22991668,-0.79624957,0.4334582,0.7376845,0.517625,0.7063916,-0.63479125,0.31313106,,1.1893626444935683,0.4981934977162231,0.19692200648000002,2.078446719818605,-0.7383836447324401,-0.21198965140552262,-0.40787013313729525,,-0.16786904448701817,0.30118658209475585,0.19881199730000002,-3.5930371816073245,0.4989964971433885,1.3049248515665723,0.8150868900100534,,-0.02858849314766712,-0.02640246825954422,0.113675081,-0.09420068085063119,,4.5999885e-05,5.9604645e-06,-6.7949295e-06,1.0,-2.880767e-05,-2.7071685e-05,2.8796494e-05,1.0,-3.3080578e-06,2.7079135e-05,3.33786e-06,1.0,831,2.565,1,2,0.218,False,-0.25826943722359585,0.9899372195968752
2.5884887881111354,11:13:11.828426,NaN,0,,0.1105683,-0.0032353252,0.029010743,-0.3313696,0.85718834,-0.39423633,0.040872276,0.43049353,0.90166783,0.9426153,0.282672,-0.17768767,,0.026705094,0.006019078,0.0077414513,-0.53888506,-0.37556654,0.7540242,0.8069178,0.026836604,0.5900538,-0.24184003,0.9264068,0.28858954,,0.074816346,1.3022338,0.4317852,0.9961224,0.07736906,-0.041883167,0.02758351,-0.72670907,-0.68639135,-0.08354233,0.6825745,-0.7260253,,-0.08788082,0.26040614,-0.09572587,0.23936835,-0.87359345,0.42371845,0.6777377,0.46283194,0.57136524,-0.69525135,0.15040322,0.7028545,,-0.012521996,0.45450816,-0.30110028,0.55928206,0.23076169,-0.79621136,0.4331204,0.73760986,0.51801395,0.70683116,-0.6345713,0.31258437,,1.1886753212677623,0.49643271462089994,0.19729922687,2.0711075717966474,-0.7327815482420571,-0.20961509254512795,-0.40934022973250384,,-0.16807755827462223,0.3011943048276301,0.19878218263000003,-3.5930371816073245,0.49954304314245024,1.3053776460933328,0.8152502340761878,,-0.02858849314766712,-0.02640246825954422,0.113675081,-0.09420068085063119,,4.5999885e-05,5.9604645e-06,-6.7949295e-06,1.0,-2.880767e-05,-2.7071685e-05,2.8796494e-05,1.0,-3.3080578e-06,2.7079135e-05,3.33786e-06,1.0,844,2.606,1,2,0.259,False,-0.25791197091247,0.9899372195968752
2.6173075281549245,11:13:11.863458,NaN,0,,0.1104361,-0.003214419,0.02817598,-0.33728826,0.8552056,-0.3935225,0.05165744,0.4342013,0.8993335,0.939983,0.28300625,-0.1906287,,0.026725695,0.0060057864,0.0077792406,-0.5376994,-0.3756139,0.7548466,0.8079174,0.026518106,0.58869874,-0.2411406,0.92639685,0.28920627,,0.074816346,1.3022338,0.4317852,0.9961224,0.07736906,-0.041883167,0.02758351,-0.72670907,-0.68639135,-0.08354233,0.6825745,-0.7260253,,-0.087668285,0.25987092,-0.095106885,0.24568282,-0.8715941,0.42422134,0.6842972,0.46591225,0.56094843,-0.6865692,0.15247807,0.710896,,-0.012547909,0.45452425,-0.30113345,0.55799204,0.23081392,-0.79710084,0.43416226,0.73739326,0.51744986,0.70721143,-0.634804,0.31124887,,1.1876250295968678,0.49391510370390274,0.19782033545000002,2.0652362533790805,-0.7230803567587109,-0.2078876723709876,-0.4090135416002352,,-0.16827834932935207,0.3011943048276301,0.19874977538000002,-3.5911499721159643,0.4996796796422157,1.3063280518114637,0.8150868900100532,,-0.02858849314766712,-0.02640246825954422,0.113675081,-0.09420068085063119,,4.5999885e-05,5.9604645e-06,-6.7949295e-06,1.0,-2.880767e-05,-2.7071685e-05,2.8796494e-05,1.0,-3.3080578e-06,2.7079135e-05,3.33786e-06,1.0,853,2.634,1,2,0.287,False,-0.25761408231986493,0.9902751810023316
2.6523321971762925,11:13:11.892267,NaN,0,,0.11038429,-0.0032000244,0.027779758,-0.33840516,0.8551513,-0.39268082,0.057249635,0.43523836,0.8984932,0.9392573,0.28157395,-0.19624388,,0.026728757,0.0060021505,0.00779444,-0.53752893,-0.37670213,0.7544256,0.8081192,0.0254049,0.5884709,-0.24084435,0.92598605,0.29076433,,0.074816346,1.3022338,0.4317852,0.9961224,0.07736906,-0.041883167,0.02758351,-0.72670907,-0.68639135,-0.08354233,0.6825745,-0.7260253,,-0.08757823,0.25961962,-0.094809204,0.24695261,-0.8713853,0.42391288,0.6880217,0.46572775,0.55652833,-0.68237853,0.15422517,0.71454465,,-0.012553193,0.45453247,-0.30114597,0.5577763,0.23196536,-0.7969176,0.4344937,0.73647326,0.5184809,0.7071781,-0.635452,0.30999982,,1.1871307746929174,0.492687189176901,0.19807700087000002,2.0648168734921115,-0.7182980792669205,-0.20803007695389647,-0.40803347720342953,,-0.16834013119234587,0.30120202756050435,0.19873551619000002,-3.590730592228995,0.49954304314245024,1.3081547232581119,0.8154135781423217,,-0.02858849314766712,-0.02640246825954422,0.113675081,-0.09420068085063119,,4.5999885e-05,5.9604645e-06,-6.7949295e-06,1.0,-2.880767e-05,-2.7071685e-05,2.8796494e-05,1.0,-3.3080578e-06,2.7079135e-05,3.33786e-06,1.0,866,2.675,1,2,0.328,False,-0.25826943722359585,0.9893578571875219
2.681155936094001,11:13:11.932655,NaN,0,,0.11028627,-0.0031639636,0.027077615,-0.3396447,0.85392016,-0.3942865,0.06404629,0.4392313,0.8960881,0.93837065,0.279099,-0.20387298,,0.026740946,0.0059903935,0.007822514,-0.537469,-0.3774395,0.7540996,0.80789995,0.025849432,0.5887523,-0.2417115,0.92567337,0.29104012,,0.074816346,1.3022338,0.4317852,0.9961224,0.07736906,-0.041883167,0.02758351,-0.72670907,-0.68639135,-0.08354233,0.6825745,-0.7260253,,-0.08741229,0.25918245,-0.09427511,0.24837896,-0.869858,0.4262099,0.69253916,0.46710277,0.5497313,-0.677272,0.15862533,0.71842927,,-0.012569333,0.4545435,-0.3011723,0.55785096,0.23273605,-0.7966406,0.43370727,0.736634,0.5189107,0.7076018,-0.63498366,0.3099927,,1.1862040467480104,0.4904707648419986,0.19855922075000002,2.0641878036616577,-0.7131058922758337,-0.21071206123168984,-0.4088501975341009,,-0.16840963578821389,0.30120202756050435,0.19871218297,-3.591359662059449,0.5002262256412775,1.3080877061804732,0.814923545943919,,-0.02858849314766712,-0.02640246825954422,0.113675081,-0.09420068085063119,,4.5999885e-05,5.9604645e-06,-6.7949295e-06,1.0,-2.880767e-05,-2.7071685e-05,2.8796494e-05,1.0,-3.3080578e-06,2.7079135e-05,3.33786e-06,1.0,875,2.704,1,2,0.357,False,-0.25773323775690704,0.9901786206007726
2.7215409870259464,11:13:11.963496,NaN,0,,0.110218056,-0.00312455,0.026616007,-0.3411889,0.852375,-0.39629155,0.0690546,0.44317833,0.89376974,0.93745476,0.27757856,-0.21006796,,0.026733398,0.0059807077,0.007832289,-0.5360001,-0.3769631,0.75538236,0.8091891,0.02566421,0.58698744,-0.24065894,0.9258727,0.29127845,,0.074816346,1.3022338,0.4317852,0.9961224,0.07736906,-0.041883167,0.02758351,-0.72670907,-0.68639135,-0.08354233,0.6825745,-0.7260253,,-0.08729919,0.2589069,-0.09391378,0.25008318,-0.8681112,0.4287672,0.69572604,0.46909815,0.5439781,-0.6733674,0.16226475,0.7212812,,-0.012563239,0.454545,-0.3011867,0.5562239,0.2322373,-0.7979228,0.43516767,0.736597,0.5177393,0.7079859,-0.6352092,0.30865073,,1.1856789009125632,0.48908839565751244,0.19888329325,2.0629296640007504,-0.708870160783105,-0.21343090758501382,-0.4083601653356981,,-0.16844052671971077,0.30123291849200123,0.19869792378,-3.5888433827376343,0.500362862141043,1.3090381118986043,0.8159036103407249,,-0.02858849314766712,-0.02640246825954422,0.113675081,-0.09420068085063119,,4.5999885e-05,5.9604645e-06,-6.7949295e-06,1.0,-2.880767e-05,-2.7071685e-05,2.8796494e-05,1.0,-3.3080578e-06,2.7079135e-05,3.33786e-06,1.0,888,2.745,0,2,0.37,False,-0.25737577144578117,0.9896958185929778
2.7523833650629967,11:13:12.003053,NaN,0,,0.11016794,-0.003055632,0.026072979,-0.34048328,0.8536551,-0.39413726,0.07767305,0.44328696,0.8930082,0.9370369,0.27344048,-0.21723774,,0.026726618,0.0059780106,0.007857442,-0.5362051,-0.3783765,0.7545297,0.80906856,0.024415642,0.58720684,-0.24060771,0.9253297,0.29304075,,0.074816346,1.3022338,0.4317852,0.9961224,0.07736906,-0.041883167,0.02758351,-0.72670907,-0.68639135,-0.08354233,0.6825745,-0.7260253,,-0.08719577,0.25859788,-0.09347112,0.24955711,-0.8689837,0.42730382,0.7018053,0.4663459,0.538508,-0.6672261,0.16549557,0.7262373,,-0.012560317,0.45456234,-0.3012061,0.5564203,0.23373185,-0.7973493,0.43514815,0.73552835,0.5192727,0.7078436,-0.63589895,0.30755493,,1.1851305868784932,0.4875361263497933,0.19927606912,2.065445943322565,-0.7016284262955368,-0.2146803682929121,-0.4083601653356981,,-0.16845597218545924,0.30127153215637237,0.19867329427000002,-3.589053072681119,0.5002262256412775,1.310783104605112,0.8157402662745901,,-0.02858849314766712,-0.02640246825954422,0.113675081,-0.09420068085063119,,4.5999885e-05,5.9604645e-06,-6.7949295e-06,1.0,-2.880767e-05,-2.7071685e-05,2.8796494e-05,1.0,-3.3080578e-06,2.7079135e-05,3.33786e-06,1.0,897,2.774,0,2,0.37,False,-0.25767366003838577,0.9897440987937576
