AlexandreBanks6/ExpertPlaybackApp/resources/Motions/P_07/PC1/Data_PC1_8.csv
Task Time,PC1 Time,PC2 Time,Gaze Calib,s_T_psm1,Tx,Ty,Tz,R00,R01,R02,R10,R11,R12,R20,R21,R22,s_T_psm3,Tx,Ty,Tz,R00,R01,R02,R10,R11,R12,R20,R21,R22,cart_T_ecm,Tx,Ty,Tz,R00,R01,R02,R10,R11,R12,R20,R21,R22,ecm_T_psm1,Tx,Ty,Tz,R00,R01,R02,R10,R11,R12,R20,R21,R22,ecm_T_psm3,Tx,Ty,Tz,R00,R01,R02,R10,R11,R12,R20,R21,R22,psm1_joints,q1,q2,q3,q4,q5,q6,jaw,psm3_joints,q1,q2,q3,q4,q5,q6,jaw,ecm_joints,q1,q2,q3,q4,ecmi_T_ecm,Tx,Ty,Tz,R00,R01,R02,R10,R11,R12,R20,R21,R22,Sample #,Task Duration (s),Collisions (binary),Collisions (increments),Cumulative Collision Time (s),Clutch Press,MTMR Angle,MTML Angle
""
lci_T_si,,,,,-0.053492907,0.03067575,0.21583572,0.9922148,0.027492212,0.12146585,0.10393389,-0.72013074,-0.6860098,0.06861137,0.6932935,-0.7173818
rci_T_si,,,,,-0.06295502,0.034948092,0.22635663,0.9921467,0.010968016,0.12459805,0.0950465,-0.7136615,-0.6940126,0.08130889,0.7004049,-0.70909935
ecm_T_lc,,,,,-4.4061628e-05,-0.00034663224,-0.01840835,-0.99912,0.030754527,0.028518902,-0.031987965,-0.99852574,-0.043852776,0.027128186,-0.04472645,0.9986309
ecm_T_rc,,,,,-0.0043358393,0.01870579,-0.007592615,-0.99555075,-0.052743673,-0.078081585,0.04863213,-0.9973746,0.053654674,-0.08070653,0.04961868,0.9955021
cart_T_ecmi,,,,,0.07476978,1.3022323,0.43178007,0.9961213,0.07739788,-0.04185594,0.027623024,-0.72670597,-0.686393,-0.08354233,0.6825745,-0.7260253
ecmac_T_ecmrep_psm1,,,,,0.012989772,-0.26409563,-0.29155013,0.99659246,0.08125139,0.014199966,-0.079952136,0.9939098,-0.07583538,-0.020275215,0.07444165,0.99701923
ecmac_T_ecmrep_psm3,,,,,0.016264312,-0.47033283,-0.5183238,0.99978954,0.020288749,-0.0030332562,-0.020227978,0.99961716,0.018877296,0.0034150917,-0.018811967,0.9998172
""
0,11:14:43.699294,NaN,0,,0.11788231,-0.00045226514,0.03293994,-0.5095993,0.79552716,-0.32778794,0.0011012256,0.3815691,0.92433965,0.86041105,0.47068194,-0.19532353,,0.023713365,0.008771099,0.01326102,-0.76119584,-0.31000292,0.5696305,0.64413315,-0.25938585,0.7195912,-0.07532129,0.91466784,0.39712656,,0.07484063,1.3022313,0.43178564,0.99612314,0.07735031,-0.04190087,0.027557818,-0.72671103,-0.6863903,-0.08354233,0.6825745,-0.7260253,,-0.095516235,0.264706,-0.0961576,0.42405573,-0.83115077,0.3596737,0.6027523,0.55543256,0.5728737,-0.67591894,-0.026136223,0.7365124,,-0.010454479,0.4607382,-0.30304003,0.7558535,0.17125452,-0.63194734,0.471114,0.5280176,0.7065756,0.45468354,-0.8317869,0.3184235,,1.1684340384044198,0.5478892837618579,0.19673922959,1.8618370081990918,-0.710099889280994,-0.04425162050232834,-0.409503573798638,,-0.17305872097849703,0.31800669429481687,0.19374091082000003,-3.74296549119876,0.22094122012071718,1.392806427349834,0.8059396223065338,,-0.030892327760299636,-0.02567597495840158,0.113675081,-0.0932194237584371,,7.008761e-05,1.001358e-05,-6.4373016e-06,1.0,-4.7534704e-05,-4.467368e-05,4.7519803e-05,1.0,-5.453825e-06,4.4684857e-05,5.4836273e-06,1.0,47,0.143,0,1,0.045,False,-0.25677999426057063,0.9809571022518961
0.12998343911021948,11:14:43.758764,NaN,0,,0.11721161,-0.00045324862,0.032814503,-0.5129603,0.7941926,-0.3257754,0.0034600198,0.38141912,0.9243957,0.8584053,0.47305113,-0.19840086,,0.023780398,0.008753531,0.013369143,-0.7612652,-0.3108899,0.5690542,0.6439407,-0.2592424,0.7198152,-0.07626033,0.9144073,0.39754686,,0.07484063,1.3022313,0.43178564,0.99612314,0.07735031,-0.04190087,0.027557818,-0.72671103,-0.6863903,-0.08354233,0.6825745,-0.7260253,,-0.09483666,0.26465705,-0.09612089,0.42763153,-0.83005387,0.35796902,0.6033411,0.55697507,0.5707524,-0.67313504,-0.02809429,0.7389857,,-0.010536881,0.46079707,-0.30311906,0.75606644,0.17216887,-0.6314439,0.47030866,0.52803105,0.7071018,0.4551629,-0.83158946,0.31825408,,1.171569467951355,0.5455492957009678,0.19673145185000002,1.85386879034668,-0.7046344292903765,-0.0376817067312093,-0.4099936059970409,,-0.17359158954681853,0.3180298624934395,0.19365924455000003,-3.743594561029213,0.22135112962001352,1.3927172098591667,0.8074097189017424,,-0.030892327760299636,-0.02567597495840158,0.113675081,-0.0932194237584371,,7.008761e-05,1.001358e-05,-6.4373016e-06,1.0,-4.7534704e-05,-4.467368e-05,4.7519803e-05,1.0,-5.453825e-06,4.4684857e-05,5.4836273e-06,1.0,55,0.167,0,1,0.045,False,-0.25719703829021734,0.9832262716885307
0.18943776609376073,11:14:43.779212,NaN,0,,0.1170927,-0.000451684,0.032800645,-0.5127958,0.7940232,-0.32644677,0.003175199,0.38199934,0.9241571,0.85850465,0.4728674,-0.19840884,,0.023802325,0.008744784,0.013409615,-0.76108027,-0.3110849,0.56919485,0.6441484,-0.25917688,0.71965283,-0.07635102,0.91435957,0.39763921,,0.07484063,1.3022313,0.43178564,0.99612314,0.07735031,-0.04190087,0.027557818,-0.72671103,-0.6863903,-0.08354233,0.6825745,-0.7260253,,-0.094716944,0.26465526,-0.0961194,0.4274537,-0.82985836,0.35863414,0.6031874,0.55729187,0.5706056,-0.6733857,-0.027583878,0.73877656,,-0.010564561,0.460818,-0.3031505,0.75589484,0.17236802,-0.631595,0.47036073,0.5280639,0.70704263,0.45539406,-0.83152735,0.31808564,,1.172117781985425,0.5451322681257597,0.19673145185000002,1.8532397205162263,-0.7046344292903765,-0.0376817067312093,-0.4099936059970409,,-0.17377693513579992,0.31803758522631376,0.19362683730000002,-3.7433848710857287,0.22148776611977897,1.3926874706956107,0.8075730629678766,,-0.030892327760299636,-0.02567597495840158,0.113675081,-0.0932194237584371,,7.008761e-05,1.001358e-05,-6.4373016e-06,1.0,-4.7534704e-05,-4.467368e-05,4.7519803e-05,1.0,-5.453825e-06,4.4684857e-05,5.4836273e-06,1.0,63,0.192,0,1,0.045,False,-0.25785239319394915,0.9829848706846334
0.20989372208714485,11:14:43.809926,NaN,0,,0.11659959,-0.00044485927,0.03273213,-0.5152764,0.7903124,-0.33150634,0.00078469515,0.38724595,0.9219761,0.8570237,0.4748124,-0.20015895,,0.02383075,0.008723609,0.013475895,-0.760827,-0.31142986,0.5693449,0.6444184,-0.25901297,0.7194701,-0.07659684,0.91428864,0.3977551,,0.07484063,1.3022313,0.43178564,0.99612314,0.07735031,-0.04190087,0.027557818,-0.72671103,-0.6863903,-0.08354233,0.6825745,-0.7260253,,-0.09421948,0.26464072,-0.096104816,0.43002766,-0.8262704,0.36380404,0.6005555,0.5626821,0.56808627,-0.6740989,-0.02580831,0.7381901,,-0.010602423,0.46084857,-0.30320784,0.75567836,0.17271769,-0.6317585,0.47033364,0.5281642,0.7069857,0.4557812,-0.8313911,0.31788734,,1.1743187608545789,0.5435182169550468,0.19673922959,1.8456908825507834,-0.704497792790611,-0.03762976715462468,-0.41032029412930954,,-0.17403178532064933,0.31803758522631376,0.19356850425000002,-3.7431751811422442,0.22176103911930983,1.392627992368499,0.8082264392324137,,-0.030892327760299636,-0.02567597495840158,0.113675081,-0.0932194237584371,,7.008761e-05,1.001358e-05,-6.4373016e-06,1.0,-4.7534704e-05,-4.467368e-05,4.7519803e-05,1.0,-5.453825e-06,4.4684857e-05,5.4836273e-06,1.0,71,0.216,0,1,0.045,False,-0.25642252794944387,0.9849160787158118
0.24056870792992413,11:14:43.840554,NaN,0,,0.11626394,-0.00044336915,0.03266996,-0.51564556,0.7890244,-0.33399102,-0.00045847893,0.38955712,0.92100215,0.85680175,0.47506383,-0.20051163,,0.023849636,0.008700721,0.013542831,-0.7607417,-0.31169927,0.5693113,0.6444934,-0.2589627,0.719421,-0.07681261,0.91421103,0.39789188,,0.07484063,1.3022313,0.43178564,0.99612314,0.07735031,-0.04190087,0.027557818,-0.72671103,-0.6863903,-0.08354233,0.6825745,-0.7260253,,-0.09387941,0.2646181,-0.096085556,0.43039688,-0.82497644,0.3662955,0.59950423,0.5646336,0.56725967,-0.6747986,-0.024551084,0.7375934,,-0.010630937,0.4608796,-0.30326772,0.7556258,0.1729951,-0.6317455,0.47021693,0.52817386,0.70705616,0.45598873,-0.83132726,0.3177566,,1.1757783573678073,0.5422980251609193,0.19675478507000002,1.8425455333985155,-0.7046344292903765,-0.03743667051078764,-0.41048363819544376,,-0.1742402991082534,0.318045307959188,0.19350628233000003,-3.7431751811422442,0.22189767561907528,1.3925982532049432,0.8093698476953537,,-0.030892327760299636,-0.02567597495840158,0.113675081,-0.0932194237584371,,7.008761e-05,1.001358e-05,-6.4373016e-06,1.0,-4.7534704e-05,-4.467368e-05,4.7519803e-05,1.0,-5.453825e-06,4.4684857e-05,5.4836273e-06,1.0,83,0.253,0,1,0.045,False,-0.2570778828531757,0.9873300887547847
0.2712283991277218,11:14:43.875493,NaN,0,,0.11594164,-0.00046551228,0.032562256,-0.51873004,0.78532225,-0.3379171,-0.0022400916,0.3940035,0.9191061,0.85493505,0.477525,-0.2026223,,0.023866914,0.008680917,0.013599336,-0.76034504,-0.31190836,0.5697266,0.64493823,-0.2585589,0.7191676,-0.07700658,0.91425407,0.3977556,,0.07484063,1.3022313,0.43178564,0.99612314,0.07735031,-0.04190087,0.027557818,-0.72671103,-0.6863903,-0.08354233,0.6825745,-0.7260253,,-0.09354861,0.2645468,-0.09604744,0.43361878,-0.8214596,0.37037668,0.5970985,0.5697744,0.5646508,-0.67486894,-0.023691809,0.7375572,,-0.010656319,0.46090528,-0.30331847,0.75525755,0.17319033,-0.6321322,0.47032842,0.5285028,0.70673615,0.4564835,-0.8310776,0.3176994,,1.176967658230438,0.5410392197024207,0.19678330345000003,1.835416075320042,-0.7043611562908455,-0.036924397656915464,-0.4103202941293095,,-0.17441792196436054,0.31806075342493645,0.19345443073000002,-3.742755801255275,0.22230758511837162,1.3923456782339945,0.8105132561582935,,-0.030892327760299636,-0.02567597495840158,0.113675081,-0.0932194237584371,,7.008761e-05,1.001358e-05,-6.4373016e-06,1.0,-4.7534704e-05,-4.467368e-05,4.7519803e-05,1.0,-5.453825e-06,4.4684857e-05,5.4836273e-06,1.0,91,0.278,0,1,0.045,False,-0.2571374605716965,0.9882474125695941
0.3061657929793,11:14:43.893191,NaN,0,,0.115763664,-0.0004721582,0.032482833,-0.51736295,0.78620577,-0.33795843,-0.0011164248,0.3942988,0.91898155,0.8557653,0.47582436,-0.20311785,,0.023865417,0.008667819,0.013636589,-0.76028943,-0.31203213,0.569733,0.6449896,-0.25849274,0.7191453,-0.07712464,0.9142306,0.39778683,,0.07484063,1.3022313,0.43178564,0.99612314,0.07735031,-0.04190087,0.027557818,-0.72671103,-0.6863903,-0.08354233,0.6825745,-0.7260253,,-0.09336392,0.26449826,-0.09600794,0.43219578,-0.82216996,0.37046373,0.59841454,0.56881034,0.56422937,-0.67461604,-0.022166666,0.7378359,,-0.010660309,0.46092373,-0.3033532,0.7552199,0.1733154,-0.63214296,0.47027048,0.52854514,0.70674306,0.45660552,-0.8310246,0.31766266,,1.1776704269219924,0.5401433826890106,0.19681311812000002,1.836674214980949,-0.7035413372922529,-0.037511226338953374,-0.4101569500631751,,-0.17447198109448012,0.31809164435643333,0.19341554203000003,-3.742755801255275,0.22244422161813707,1.392234260330298,0.8119833527535021,,-0.030892327760299636,-0.02567597495840158,0.113675081,-0.0932194237584371,,7.008761e-05,1.001358e-05,-6.4373016e-06,1.0,-4.7534704e-05,-4.467368e-05,4.7519803e-05,1.0,-5.453825e-06,4.4684857e-05,5.4836273e-06,1.0,99,0.302,0,1,0.045,False,-0.2580907040680329,0.9880542917664765
0.323832105146721,11:14:43.920235,NaN,0,,0.11548102,-0.00049878657,0.03231561,-0.51742274,0.78539467,-0.339748,-0.0015022457,0.39619288,0.91816604,0.8557285,0.47559047,-0.2038193,,0.02385652,0.008655332,0.013683081,-0.7602468,-0.31203666,0.5697874,0.64503014,-0.25834152,0.71916324,-0.0772056,0.9142717,0.39767635,,0.07484063,1.3022313,0.43178564,0.99612314,0.07735031,-0.04190087,0.027557818,-0.72671103,-0.6863903,-0.08354233,0.6825745,-0.7260253,,-0.0930669,0.26438177,-0.09592565,0.43225276,-0.8213103,0.37229958,0.59810686,0.57010275,0.5632505,-0.6748524,-0.02079165,0.73765975,,-0.010658396,0.46095026,-0.30339432,0.7551895,0.1733118,-0.6321803,0.4702338,0.52867776,0.70666826,0.4566936,-0.83094096,0.3177548,,1.1785430957367797,0.5386606179771596,0.19688441407,1.8345773155461036,-0.7035413372922529,-0.03726619011853166,-0.410646982261578,,-0.17451059475885125,0.31816114895230135,0.19337017188000002,-3.742755801255275,0.22258085811790249,1.3921228424266014,0.8121466968196362,,-0.030892327760299636,-0.02567597495840158,0.113675081,-0.0932194237584371,,7.008761e-05,1.001358e-05,-6.4373016e-06,1.0,-4.7534704e-05,-4.467368e-05,4.7519803e-05,1.0,-5.453825e-06,4.4684857e-05,5.4836273e-06,1.0,107,0.327,0,1,0.045,False,-0.2568991496976123,0.9883439729711534
0.3509144091513008,11:14:43.950706,NaN,0,,0.11523491,-0.00053462386,0.032161444,-0.51717365,0.78499955,-0.34103793,-0.0014930367,0.3976364,0.91754186,0.8558792,0.47503766,-0.20447508,,0.023852639,0.008649178,0.013718009,-0.75994045,-0.31211835,0.5701512,0.6453945,-0.2581817,0.7188937,-0.077177346,0.91428894,0.39764225,,0.07484063,1.3022313,0.43178564,0.99612314,0.07735031,-0.04190087,0.027557818,-0.72671103,-0.6863903,-0.08354233,0.6825745,-0.7260253,,-0.092807636,0.26426524,-0.09585617,0.43199047,-0.8208409,0.3736368,0.5982011,0.5708257,0.56241757,-0.67493683,-0.019449078,0.73761916,,-0.010659767,0.46097198,-0.30342257,0.75487787,0.17338796,-0.6325314,0.4704636,0.52880794,0.70641786,0.456972,-0.8308422,0.31761268,,1.1792535871612084,0.5372936942584218,0.19694274712,1.8333191758851966,-0.7034047007924874,-0.0371325718018064,-0.41081032632771225,,-0.1745569311560966,0.3182306535481694,0.19333776463000002,-3.7423364213683064,0.22285413111743338,1.39206336409949,0.8121466968196365,,-0.030892327760299636,-0.02567597495840158,0.113675081,-0.0932194237584371,,7.008761e-05,1.001358e-05,-6.4373016e-06,1.0,-4.7534704e-05,-4.467368e-05,4.7519803e-05,1.0,-5.453825e-06,4.4684857e-05,5.4836273e-06,1.0,144,0.44,0,1,0.045,False,-0.25767366003838577,0.988006011565697
0.381400965154171,11:14:44.057792,NaN,0,,0.11441462,-0.0006971359,0.0314748,-0.52293026,0.7786611,-0.34674308,-0.008630127,0.40193868,0.91562593,0.8523317,0.4818009,-0.20346603,,0.023888953,0.008627929,0.0138008,-0.75802183,-0.3116811,0.57293785,0.64782864,-0.25792325,0.716794,-0.07563718,0.9145111,0.39742738,,0.07484063,1.3022313,0.43178564,0.99612314,0.07735031,-0.04190087,0.027557818,-0.72671103,-0.6863903,-0.08354233,0.6825745,-0.7260253,,-0.09192753,0.2637294,-0.09552597,0.43794945,-0.8151182,0.37918684,0.5908398,0.5788739,0.56197274,-0.6775755,-0.022076963,0.7351218,,-0.010707922,0.46101356,-0.3034902,0.7527185,0.17291896,-0.63522744,0.472998,0.5290917,0.7045104,0.45791677,-0.8307593,0.31646678,,1.1807595200716823,0.5324283725476604,0.19725256043000003,1.8165439804064347,-0.7075037957854506,-0.0276641291803717,-0.4109736703938467,,-0.17491989960118515,0.3182692672125405,0.19326776497,-3.7387716923290695,0.22312740411696425,1.392003885772378,0.8124733849519048,,-0.030892327760299636,-0.02567597495840158,0.113675081,-0.0932194237584371,,7.008761e-05,1.001358e-05,-6.4373016e-06,1.0,-4.7534704e-05,-4.467368e-05,4.7519803e-05,1.0,-5.453825e-06,4.4684857e-05,5.4836273e-06,1.0,152,0.466,0,1,0.045,False,-0.2580311263495121,0.988102571967256
0.4884855269920081,11:14:44.088117,NaN,0,,0.11416659,-0.0007587522,0.031267405,-0.52745336,0.77432793,-0.3495841,-0.01214242,0.4045641,0.91442895,0.8494971,0.4865635,-0.2039865,,0.023917072,0.008630134,0.013823092,-0.7581456,-0.3119933,0.5726039,0.6476327,-0.25782073,0.71700794,-0.07607257,0.9144335,0.39752275,,0.07484063,1.3022313,0.43178564,0.99612314,0.07735031,-0.04190087,0.027557818,-0.72671103,-0.6863903,-0.08354233,0.6825745,-0.7260253,,-0.09166164,0.26355827,-0.09543466,0.4426692,-0.81122446,0.3820456,0.5865794,0.5842344,0.5608875,-0.67820984,-0.024187576,0.7344701,,-0.010739121,0.46102795,-0.3035009,0.7529092,0.17323805,-0.6349144,0.47256356,0.52914184,0.7047642,0.45805177,-0.8306609,0.31652975,,1.1811379339825192,0.5310691715617969,0.19733811557000003,1.8068982430061464,-0.7087335242833396,-0.023394218441481374,-0.41130035852611524,,-0.17510524519016654,0.3182692672125405,0.19325739465000003,-3.7391910722160384,0.2232640406167297,1.3918924678686817,0.8128000730841736,,-0.030892327760299636,-0.02567597495840158,0.113675081,-0.0932194237584371,,7.008761e-05,1.001358e-05,-6.4373016e-06,1.0,-4.7534704e-05,-4.467368e-05,4.7519803e-05,1.0,-5.453825e-06,4.4684857e-05,5.4836273e-06,1.0,160,0.491,0,1,0.045,False,-0.25737577144578117,0.9880542917664765
0.5188058379571885,11:14:44.111194,NaN,0,,0.11405292,-0.00076785684,0.031137913,-0.52671254,0.7751783,-0.34881565,-0.0113354325,0.40390876,0.914729,0.8499678,0.48575324,-0.2039569,,0.023939908,0.008631147,0.013839781,-0.75801617,-0.3121733,0.5726772,0.64778745,-0.2579584,0.7168186,-0.07604477,0.9143332,0.39775863,,0.07484063,1.3022313,0.43178564,0.99612314,0.07735031,-0.04190087,0.027557818,-0.72671103,-0.6863903,-0.08354233,0.6825745,-0.7260253,,-0.09153615,0.263471,-0.095354564,0.4418992,-0.81200284,0.38128272,0.5874534,0.58316153,0.56108916,-0.6779554,-0.023959035,0.7347125,,-0.010764227,0.46103802,-0.30350918,0.75277513,0.17343284,-0.6350202,0.47267276,0.5289975,0.70479935,0.45815942,-0.8307122,0.31623915,,1.181369615968746,0.5302428391442549,0.19740941152000002,1.8075273128366,-0.7083236147840433,-0.022503291050462226,-0.4111370144599809,,-0.17525969984765102,0.31826154447966626,0.19324961691000003,-3.738981382272554,0.2232640406167297,1.3920558253489628,0.8128000730841736,,-0.030892327760299636,-0.02567597495840158,0.113675081,-0.0932194237584371,,7.008761e-05,1.001358e-05,-6.4373016e-06,1.0,-4.7534704e-05,-4.467368e-05,4.7519803e-05,1.0,-5.453825e-06,4.4684857e-05,5.4836273e-06,1.0,172,0.528,0,1,0.045,False,-0.2589843698458485,0.9874266491563435
0.5418863790109754,11:14:44.149744,NaN,0,,0.11382581,-0.0007869303,0.030872136,-0.52831495,0.77370876,-0.34965402,-0.009925634,0.4061625,0.91374695,0.84899044,0.48621672,-0.20690218,,0.023958258,0.008628659,0.013853669,-0.75642765,-0.31161207,0.57507825,0.6497917,-0.25753015,0.7151566,-0.07475145,0.9146453,0.39728594,,0.07484063,1.3022313,0.43178564,0.99612314,0.07735031,-0.04190087,0.027557818,-0.72671103,-0.6863903,-0.08354233,0.6825745,-0.7260253,,-0.09128476,0.26329133,-0.09518995,0.44361055,-0.81054956,0.3823861,0.5879317,0.58522177,0.55843693,-0.67642146,-0.022911595,0.7361583,,-0.010784422,0.46104422,-0.30351856,0.7509848,0.17282562,-0.63730145,0.47477683,0.5294465,0.7030458,0.45892134,-0.83055264,0.31555268,,1.1818252572083252,0.5287137380351584,0.19754941084000002,1.8043819636843321,-0.7062740672875617,-0.02188755488197275,-0.41179039072451795,,-0.17539870903938706,0.3182692672125405,0.19324183917,-3.7360457230637705,0.22353731361626059,1.3918329895415698,0.8121466968196362,,-0.030892327760299636,-0.02567597495840158,0.113675081,-0.0932194237584371,,7.008761e-05,1.001358e-05,-6.4373016e-06,1.0,-4.7534704e-05,-4.467368e-05,4.7519803e-05,1.0,-5.453825e-06,4.4684857e-05,5.4836273e-06,1.0,180,0.552,0,1,0.045,False,-0.2575545046013441,0.9871369679516666
0.5804332329425961,11:14:44.170242,NaN,0,,0.11372146,-0.000772506,0.03077215,-0.5284467,0.77336615,-0.3502123,-0.009826541,0.40691656,0.91341245,0.84890956,0.48613116,-0.20743418,,0.023970835,0.008630104,0.013864458,-0.75662345,-0.31174964,0.5747459,0.64953256,-0.25751162,0.71539867,-0.075021595,0.9146037,0.3973308,,0.07484063,1.3022313,0.43178564,0.99612314,0.07735031,-0.04190087,0.027557818,-0.72671103,-0.6863903,-0.08354233,0.6825745,-0.7260253,,-0.091171026,0.26324078,-0.09511511,0.44375104,-0.8101885,0.3829878,0.5879582,0.5857424,0.5578629,-0.67630625,-0.022371422,0.73628074,,-0.010798515,0.46105155,-0.30352357,0.7512224,0.17296767,-0.6369828,0.47442868,0.52944523,0.7032817,0.4588925,-0.8305239,0.31567028,,1.182134166523294,0.5281190876038431,0.1976194105,1.8035432039103938,-0.7060007942880309,-0.021783675728803353,-0.41146370259224935,,-0.17548365910100353,0.3182692672125405,0.19323665401,-3.73646510295074,0.22353731361626059,1.3917513108014294,0.8119833527535021,,-0.030892327760299636,-0.02567597495840158,0.113675081,-0.0932194237584371,,7.008761e-05,1.001358e-05,-6.4373016e-06,1.0,-4.7534704e-05,-4.467368e-05,4.7519803e-05,1.0,-5.453825e-06,4.4684857e-05,5.4836273e-06,1.0,188,0.577,0,1,0.045,False,-0.25820985950507547,0.9874266491563435
0.6008476880379021,11:14:44.191023,NaN,0,,0.11359675,-0.0007608235,0.030635148,-0.53025055,0.7712585,-0.35212857,-0.009798467,0.4097216,0.912158,0.8477843,0.4871226,-0.20969802,,0.02397918,0.008625023,0.013871849,-0.7549878,-0.31104144,0.57727516,0.6516093,-0.2572204,0.7136127,-0.073476255,0.91492665,0.3968758,,0.07484063,1.3022313,0.43178564,0.99612314,0.07735031,-0.04190087,0.027557818,-0.72671103,-0.6863903,-0.08354233,0.6825745,-0.7260253,,-0.091033496,0.26316455,-0.09501648,0.4456554,-0.80814236,0.38509372,0.58732295,0.58859843,0.5555211,-0.67560565,-0.021396583,0.73695266,,-0.010807814,0.46105254,-0.3035315,0.7493463,0.17221527,-0.6393919,0.47675952,0.5297921,0.7014419,0.45954376,-0.83045906,0.31489244,,1.1824507985711374,0.5274163189122887,0.19770755822000002,1.8001881648146416,-0.7050443387896727,-0.02223688609411606,-0.41113701445998074,,-0.17556088642974577,0.3182692672125405,0.19323017256000002,-3.733319753798472,0.223673950116026,1.391639892897733,0.8119833527535021,,-0.030892327760299636,-0.02567597495840158,0.113675081,-0.0932194237584371,,7.008761e-05,1.001358e-05,-6.4373016e-06,1.0,-4.7534704e-05,-4.467368e-05,4.7519803e-05,1.0,-5.453825e-06,4.4684857e-05,5.4836273e-06,1.0,192,0.589,0,1,0.045,False,-0.2584481703791588,0.9875232095579025
0.6217182180844247,11:14:44.218072,NaN,0,,0.11344163,-0.0007317215,0.030469894,-0.53036976,0.77088946,-0.35275662,-0.009446621,0.41070142,0.91172093,0.8477137,0.48688155,-0.21054131,,0.023993872,0.008624129,0.013885319,-0.75481194,-0.31111407,0.5774658,0.65180707,-0.25706828,0.71348685,-0.07352772,0.91494465,0.3968246,,0.07484063,1.3022313,0.43178564,0.99612314,0.07735031,-0.04190087,0.027557818,-0.72671103,-0.6863903,-0.08354233,0.6825745,-0.7260253,,-0.090862684,0.26308393,-0.0948878,0.4457864,-0.80773634,0.38579333,0.58754325,0.5891841,0.5546666,-0.67532766,-0.020592548,0.7372303,,-0.010824366,0.46106,-0.30353978,0.74917793,0.17228246,-0.6395711,0.47683445,0.5299166,0.70129687,0.4597405,-0.83036566,0.3148516,,1.1828987170778424,0.526497313700256,0.19782811319000002,1.7991397150972188,-0.704497792790611,-0.022029127787777325,-0.41146370259224946,,-0.1756612819571107,0.3182692672125405,0.19322239482000003,-3.7331100638549866,0.22381058661579145,1.3915284749940366,0.8119833527535021,,-0.030892327760299636,-0.02567597495840158,0.113675081,-0.0932194237584371,,7.008761e-05,1.001358e-05,-6.4373016e-06,1.0,-4.7534704e-05,-4.467368e-05,4.7519803e-05,1.0,-5.453825e-06,4.4684857e-05,5.4836273e-06,1.0,204,0.626,0,1,0.045,False,-0.25737577144578117,0.9878128907625792
0.648765292018652,11:14:44.242402,NaN,0,,0.11322984,-0.00067935884,0.030238107,-0.53381836,0.76741683,-0.3551188,-0.00793463,0.41539675,0.9096056,0.8455619,0.48838192,-0.21565726,,0.023977749,0.008598082,0.01390034,-0.75483626,-0.31134212,0.577311,0.65176374,-0.25718603,0.7134839,-0.07366136,0.91483414,0.3970549,,0.074786365,1.3022355,0.43178186,0.9961214,0.07739565,-0.04185805,0.027619964,-0.7267062,-0.6863929,-0.08354233,0.6825745,-0.7260253,,-0.090582944,0.26298535,-0.09470378,0.4494522,-0.80437726,0.38854858,0.58743453,0.59381914,0.5498177,-0.6729884,-0.018869912,0.73941225,,-0.010764712,0.46106616,-0.30357072,0.74918157,0.1725374,-0.6394981,0.47674242,0.52979606,0.7014505,0.45983002,-0.8303897,0.31465754,,1.1833775265160442,0.5254933584266067,0.19797200138,1.7938974665101057,-0.7013551532960058,-0.02320320099040546,-0.4106469822615781,,-0.1757616774844756,0.3182692672125405,0.19321461708,-3.733319753798472,0.22381058661579145,1.3916918324743177,0.8119833527535019,,-0.030892327760299636,-0.02567597495840158,0.113675081,-0.0932194237584371,,1.6465783e-05,2.3841858e-07,-4.2915344e-06,1.0,-2.2426248e-06,-2.0973384e-06,2.231449e-06,1.0,-2.3841858e-07,2.0973384e-06,2.682209e-07,1.0,245,0.752,0,1,0.045,False,-0.25719703829021734,0.9876197699594613
0.6730783670209348,11:14:44.371373,NaN,0,,0.11279409,-0.000535354,0.029058471,-0.54887396,0.7582276,-0.3518923,0.0032885373,0.42292702,0.90615773,0.83589864,0.4962092,-0.23462713,,0.024070159,0.008618094,0.013941169,-0.75474286,-0.31196207,0.5770985,0.6518364,-0.2574216,0.71333253,-0.07397513,0.9145566,0.3976354,,0.074786365,1.3022355,0.43178186,0.9961214,0.07739565,-0.04185805,0.027619964,-0.7267062,-0.6863929,-0.08354233,0.6825745,-0.7260253,,-0.09003307,0.2623272,-0.093772836,0.46554548,-0.7958698,0.38711578,0.59010684,0.60512555,0.53441274,-0.6595766,-0.020353762,0.7513617,,-0.01086248,0.4610983,-0.30357465,0.7491358,0.17319502,-0.63937396,0.4765518,0.5295093,0.7017965,0.46010208,-0.8304357,0.31413797,,1.1836169312351452,0.5214698145991358,0.19876403457000003,1.7750253715964985,-0.6845488638248566,-0.01648791810992467,-0.4119537347906522,,-0.17634088245004245,0.3182460990139178,0.19321332079000003,-3.733319753798472,0.22381058661579145,1.3918551899545988,0.8123100408857706,,-0.030892327760299636,-0.02567597495840158,0.113675081,-0.0932194237584371,,1.6465783e-05,2.3841858e-07,-4.2915344e-06,1.0,-2.2426248e-06,-2.0973384e-06,2.231449e-06,1.0,-2.3841858e-07,2.0973384e-06,2.682209e-07,1.0,253,0.777,0,1,0.045,False,-0.25779281547542787,0.9876680501602408
0.8020673629362136,11:14:44.392827,NaN,0,,0.112687066,-0.000488773,0.02870138,-0.5521883,0.7566659,-0.35006395,0.0063129663,0.42366496,0.9057969,0.8336955,0.49796057,-0.23871958,,0.024080507,0.008622222,0.013946712,-0.7547346,-0.31206888,0.5770516,0.65184265,-0.25750402,0.7132971,-0.07400483,0.91449696,0.39776698,,0.074786365,1.3022355,0.43178186,0.9961214,0.07739565,-0.04185805,0.027619964,-0.7267062,-0.6863929,-0.08354233,0.6825745,-0.7260253,,-0.08989133,0.26212883,-0.09348698,0.46910423,-0.7944732,0.38568586,0.5910554,0.6069263,0.5313134,-0.65619713,-0.021279665,0.7542894,,-0.010873594,0.4611039,-0.30357435,0.749132,0.17331067,-0.6393471,0.4765334,0.52942306,0.701874,0.46012735,-0.8304665,0.31401944,,1.1835551493721514,0.5202650682707568,0.1990194037,1.7708315727268082,-0.680313132332128,-0.013897646354112114,-0.4101569500631753,,-0.17641038704591047,0.31825382174679206,0.19321332079000003,-3.733319753798472,0.22381058661579145,1.3919368686947393,0.8121466968196365,,-0.030892327760299636,-0.02567597495840158,0.113675081,-0.0932194237584371,,1.6465783e-05,2.3841858e-07,-4.2915344e-06,1.0,-2.2426248e-06,-2.0973384e-06,2.231449e-06,1.0,-2.3841858e-07,2.0973384e-06,2.682209e-07,1.0,261,0.802,0,1,0.045,False,-0.25880563669028556,0.9879094511641382
0.8234959419351071,11:14:44.418780,NaN,0,,0.112612724,-0.00045515597,0.02846922,-0.5546794,0.7550012,-0.34971955,0.008126229,0.42519906,0.9050633,0.83202446,0.49917808,-0.24198449,,0.024084143,0.00862319,0.013948381,-0.75473106,-0.31204247,0.57707036,0.65184534,-0.2574514,0.7133137,-0.074016675,0.91452086,0.39770997,,0.074786365,1.3022355,0.43178186,0.9961214,0.07739565,-0.04185805,0.027619964,-0.7267062,-0.6863929,-0.08354233,0.6825745,-0.7260253,,-0.0897944,0.26200265,-0.0932993,0.4717733,-0.79291004,0.38564697,0.59141695,0.60896677,0.5285693,-0.6539541,-0.021286732,0.7562347,,-0.010877454,0.46110532,-0.3035744,0.7491303,0.17328031,-0.63935727,0.47652617,0.52947277,0.7018414,0.46013758,-0.8304412,0.3140715,,1.1835474266392771,0.5195005177162085,0.19918662511000002,1.7676862235745403,-0.6775804023368193,-0.012940533562558587,-0.411790390724518,,-0.17643355524453314,0.31825382174679206,0.19321332079000003,-3.733319753798472,0.22381058661579145,1.3918551899545988,0.8119833527535023,,-0.030892327760299636,-0.02567597495840158,0.113675081,-0.0932194237584371,,1.6465783e-05,2.3841858e-07,-4.2915344e-06,1.0,-2.2426248e-06,-2.0973384e-06,2.231449e-06,1.0,-2.3841858e-07,2.0973384e-06,2.682209e-07,1.0,273,0.839,0,1,0.045,False,-0.25868648125324345,0.988102571967256
0.8494715159758925,11:14:44.454547,NaN,0,,0.112469524,-0.00032500923,0.027915016,-0.56133026,0.75044423,-0.34891498,0.013022929,0.42956018,0.90294427,0.8274894,0.5023061,-0.25089818,,0.024082653,0.008621715,0.013947368,-0.75467736,-0.31201872,0.57715344,0.6518955,-0.25722218,0.7133505,-0.07412204,0.91459346,0.39752343,,0.074786365,1.3022355,0.43178186,0.9961214,0.07739565,-0.04185805,0.027619964,-0.7267062,-0.6863929,-0.08354233,0.6825745,-0.7260253,,-0.08959631,0.26173654,-0.09281503,0.47890735,-0.7886085,0.38567394,0.59237415,0.61453533,0.52099824,-0.64787394,-0.021046625,0.7614568,,-0.010875812,0.46110377,-0.30357495,0.7490926,0.173243,-0.63941157,0.47647688,0.52967745,0.7017205,0.46025005,-0.8303184,0.31423116,,1.1835551493721514,0.5179945848057348,0.19960532678,1.759927695665613,-0.6702020313494853,-0.011606013749514865,-0.41048363819544376,,-0.1764181097787847,0.31825382174679206,0.19321332079000003,-3.733319753798472,0.2239472231155569,1.391662093310762,0.8121466968196365,,-0.030892327760299636,-0.02567597495840158,0.113675081,-0.0932194237584371,,1.6465783e-05,2.3841858e-07,-4.2915344e-06,1.0,-2.2426248e-06,-2.0973384e-06,2.231449e-06,1.0,-2.3841858e-07,2.0973384e-06,2.682209e-07,1.0,281,0.863,0,1,0.045,False,-0.2579715486309908,0.9868955669477697
0.8852354590781033,11:14:44.484077,NaN,0,,0.112362474,-0.00021235645,0.027488306,-0.56619346,0.74734,-0.34771803,0.016081095,0.43178332,0.90183395,0.8241155,0.5050208,-0.25649092,,0.024083234,0.008620523,0.013946831,-0.7546753,-0.3120683,0.5771294,0.6518973,-0.25727326,0.7133304,-0.07412791,0.9145621,0.39759433,,0.074786365,1.3022355,0.43178186,0.9961214,0.07739565,-0.04185805,0.027619964,-0.7267062,-0.6863929,-0.08354233,0.6825745,-0.7260253,,-0.089446776,0.2615407,-0.09243352,0.48412114,-0.78574646,0.38500553,0.5926478,0.61816394,0.5163739,-0.64373547,-0.021814832,0.7649371,,-0.010876278,0.4611025,-0.3035754,0.7490913,0.17329739,-0.63939834,0.47647357,0.52962613,0.7017614,0.46025547,-0.8303398,0.31416672,,1.1835551493721514,0.5168516203403495,0.19994754734000003,1.7538466873045617,-0.6651464808581642,-0.009357534455318506,-0.4114637025922495,,-0.1764181097787847,0.3182460990139178,0.19321332079000003,-3.733319753798472,0.2239472231155569,1.3917437720509023,0.8123100408857706,,-0.030892327760299636,-0.02567597495840158,0.113675081,-0.0932194237584371,,1.6465783e-05,2.3841858e-07,-4.2915344e-06,1.0,-2.2426248e-06,-2.0973384e-06,2.231449e-06,1.0,-2.3841858e-07,2.0973384e-06,2.682209e-07,1.0,289,0.888,0,1,0.045,False,-0.257435349164302,0.9859299629321803
0.914765187073499,11:14:44.509551,NaN,0,,0.11230376,-0.0001219064,0.027213946,-0.56902015,0.7450551,-0.34800708,0.017769992,0.43424174,0.90062106,0.8221316,0.5062875,-0.26033193,,0.024084143,0.008620195,0.013948381,-0.7546742,-0.3121695,0.5770762,0.65189815,-0.25739166,0.7132869,-0.074131876,0.9144943,0.3977496,,0.074786365,1.3022355,0.43178186,0.9961214,0.07739565,-0.04185805,0.027619964,-0.7267062,-0.6863929,-0.08354233,0.6825745,-0.7260253,,-0.08936043,0.26142764,-0.09217535,0.4871525,-0.78355616,0.38564515,0.59272575,0.6209561,0.5129227,-0.6413725,-0.02128976,0.7669342,,-0.010877421,0.46110332,-0.30357665,0.7490908,0.17340912,-0.63936865,0.47647116,0.52950895,0.7018515,0.4602589,-0.83039117,0.31402582,,1.1835474266392771,0.5161874653131663,0.20018347212,1.7502819582653246,-0.6622771143630898,-0.009328626968867049,-0.4099936059970409,,-0.17642583251165891,0.3182460990139178,0.19321202450000002,-3.733319753798472,0.2239472231155569,1.3919071295311833,0.8116566646212338,,-0.030892327760299636,-0.02567597495840158,0.113675081,-0.0932194237584371,,1.6465783e-05,2.3841858e-07,-4.2915344e-06,1.0,-2.2426248e-06,-2.0973384e-06,2.231449e-06,1.0,-2.3841858e-07,2.0973384e-06,2.682209e-07,1.0,297,0.913,0,1,0.045,False,-0.25880563669028556,0.9853988807236063
0.9401574470102787,11:14:44.531614,NaN,0,,0.11225349,-2.6673079e-05,0.026920214,-0.57243645,0.74211186,-0.34869245,0.019319504,0.4373503,0.8990836,0.81972146,0.5079317,-0.2646925,,0.024084143,0.008620195,0.013948381,-0.7546742,-0.31212237,0.5771017,0.65189815,-0.25733343,0.71330786,-0.074131876,0.9145267,0.39767486,,0.074786365,1.3022355,0.43178186,0.9961214,0.07739565,-0.04185805,0.027619964,-0.7267062,-0.6863929,-0.08354233,0.6825745,-0.7260253,,-0.08928052,0.26130474,-0.09189897,0.49080956,-0.78073704,0.38672426,0.59244686,0.62451804,0.50890464,-0.638837,-0.02066171,0.7690646,,-0.010877421,0.46110332,-0.30357665,0.7490908,0.1733569,-0.63938284,0.47647116,0.5295663,0.7018082,0.4602589,-0.83036554,0.31409365,,1.183470199310535,0.5155310330188572,0.20043624867,1.7458784694521496,-0.6592711113682501,-0.009492816126252523,-0.4119537347906523,,-0.17642583251165891,0.3182460990139178,0.19321202450000002,-3.733319753798472,0.2239472231155569,1.3918254507910428,0.8114933205550992,,-0.030892327760299636,-0.02567597495840158,0.113675081,-0.0932194237584371,,1.6465783e-05,2.3841858e-07,-4.2915344e-06,1.0,-2.2426248e-06,-2.0973384e-06,2.231449e-06,1.0,-2.3841858e-07,2.0973384e-06,2.682209e-07,1.0,305,0.937,0,1,0.045,False,-0.25773323775690704,0.9844815569087966
0.9622960360720754,11:14:44.555616,NaN,0,,0.11218564,0.00011140108,0.026508793,-0.5769285,0.73769236,-0.3506614,0.021644443,0.4429709,0.89627457,0.8165078,0.5094965,-0.27152944,,0.024083637,0.008621059,0.0139507055,-0.75462234,-0.3121546,0.57715195,0.65194654,-0.2571807,0.7133188,-0.07423344,0.91455865,0.3975824,,0.074786365,1.3022355,0.43178186,0.9961214,0.07739565,-0.04185805,0.027619964,-0.7267062,-0.6863929,-0.08354233,0.6825745,-0.7260253,,-0.08917108,0.2611359,-0.0915085,0.49562705,-0.7764015,0.38930005,0.59226376,0.62996954,0.50235647,-0.6352775,-0.018413158,0.7720644,,-0.010877276,0.46110564,-0.30357757,0.7490544,0.17338204,-0.6394186,0.47642362,0.52969646,0.70174223,0.4603673,-0.83027726,0.31416818,,1.1833698037831701,0.5146197505396987,0.20079402471000002,1.7402168409780678,-0.6550353798755215,-0.01147655381831153,-0.410646982261578,,-0.17642583251165891,0.31826154447966626,0.19321072821000002,-3.733319753798472,0.22408385961532232,1.3917140328873465,0.8108399442905623,,-0.030892327760299636,-0.02567597495840158,0.113675081,-0.0932194237584371,,1.6465783e-05,2.3841858e-07,-4.2915344e-06,1.0,-2.2426248e-06,-2.0973384e-06,2.231449e-06,1.0,-2.3841858e-07,2.0973384e-06,2.682209e-07,1.0,326,1.002,0,2,0.094,False,-0.2583885926606384,0.9841435955033404
0.9862978630699217,11:14:44.620961,NaN,0,,0.11203146,0.00040575862,0.025662735,-0.58405834,0.73026603,-0.35438284,0.023446709,0.45158303,0.8919209,0.8113729,0.51262486,-0.28087324,,0.024083376,0.008615233,0.013959944,-0.7545652,-0.31219864,0.57720286,0.65199935,-0.25701547,0.71333003,-0.074350685,0.9145901,0.39748824,,0.074786365,1.3022355,0.43178186,0.9961214,0.07739565,-0.04185805,0.027619964,-0.7267062,-0.6863929,-0.08354233,0.6825745,-0.7260253,,-0.08893129,0.26079726,-0.09069978,0.5032471,-0.7691776,0.39383772,0.5905491,0.63884556,0.49308017,-0.6308677,-0.015560652,0.77573436,,-0.010878343,0.46110845,-0.30358806,0.749015,0.17341879,-0.63945484,0.47636706,0.5298362,0.7016752,0.46049,-0.8301804,0.3142442,,1.1831149535983208,0.5126736218553941,0.20155753952000002,1.7299420337473261,-0.6501164658839657,-0.013118914887306377,-0.41211707885678656,,-0.17643355524453314,0.31826154447966626,0.19319906160000003,-3.733319753798472,0.22422049611508776,1.39160261498365,0.8098598798937564,,-0.030892327760299636,-0.02567597495840158,0.113675081,-0.0932194237584371,,1.6465783e-05,2.3841858e-07,-4.2915344e-06,1.0,-2.2426248e-06,-2.0973384e-06,2.231449e-06,1.0,-2.3841858e-07,2.0973384e-06,2.682209e-07,1.0,351,1.08,0,2,0.094,False,-0.2589247921273281,0.9842401559048992
1.0516544841229916,11:14:44.695241,NaN,0,,0.11178829,0.0006380975,0.024592236,-0.59502876,0.7195033,-0.358128,0.027290136,0.46342748,0.8857145,0.8032409,0.5172523,-0.29538798,,0.024076954,0.008598469,0.013991952,-0.75440633,-0.3122374,0.5773896,0.6521836,-0.25691524,0.71319777,-0.0743469,0.914605,0.39745462,,0.074786365,1.3022355,0.43178186,0.9961214,0.07739565,-0.04185805,0.027619964,-0.7267062,-0.6863929,-0.08354233,0.6825745,-0.7260253,,-0.08858223,0.26026735,-0.08977433,0.5150108,-0.7587273,0.3988694,0.58855087,0.6512993,0.4789751,-0.6231948,-0.011922399,0.78197575,,-0.010876633,0.46112123,-0.30362245,0.7488551,0.1734536,-0.63963264,0.47647512,0.5299193,0.70153904,0.46063814,-0.8301201,0.31418645,,1.1827210942217352,0.5097698742946857,0.20240920205000001,1.7148443578164403,-0.6413717298989775,-0.014695506394319158,-0.4114637025922495,,-0.1764490007102816,0.3182769899454147,0.19316406177,-3.7331100638549866,0.2243571326148532,1.3915728758200943,0.8100232239598908,,-0.030892327760299636,-0.02567597495840158,0.113675081,-0.0932194237584371,,1.6465783e-05,2.3841858e-07,-4.2915344e-06,1.0,-2.2426248e-06,-2.0973384e-06,2.231449e-06,1.0,-2.3841858e-07,2.0973384e-06,2.682209e-07,1.0,359,1.105,0,2,0.094,False,-0.25725661600873906,0.9848195183142527
1.1259335670620203,11:14:44.723213,NaN,0,,0.11167535,0.00067411363,0.02410695,-0.6003449,0.7144252,-0.35941976,0.029806018,0.4690956,0.88264424,0.7991855,0.51917815,-0.30291334,,0.024083711,0.008592434,0.014006197,-0.7539216,-0.31211188,0.5780901,0.65277886,-0.2567252,0.7127214,-0.074038595,0.9147013,0.3972907,,0.074786365,1.3022355,0.43178186,0.9961214,0.07739565,-0.04185805,0.027619964,-0.7267062,-0.6863929,-0.08354233,0.6825745,-0.7260253,,-0.088422395,0.25997585,-0.08940149,0.52073264,-0.7537705,0.4008336,0.5879908,0.6570623,0.47173718,-0.6189542,-0.009962477,0.7853639,,-0.010885399,0.46112674,-0.3036358,0.748322,0.17331263,-0.6402944,0.47704327,0.5301026,0.7010142,0.46091634,-0.8300325,0.31400985,,1.1823967394410178,0.5082716641170861,0.20274234858,1.707924589681451,-0.6365894524071871,-0.015573019638493002,-0.4113003585261152,,-0.1765107825732754,0.3182769899454147,0.19315109887,-3.732271304081049,0.22449376911461866,1.3914614579163977,0.8100232239598908,,-0.030892327760299636,-0.02567597495840158,0.113675081,-0.0932194237584371,,1.6465783e-05,2.3841858e-07,-4.2915344e-06,1.0,-2.2426248e-06,-2.0973384e-06,2.231449e-06,1.0,-2.3841858e-07,2.0973384e-06,2.682209e-07,1.0,372,1.145,0,2,0.094,False,-0.25922268071993226,0.9848195183142527
1.1538963371422142,11:14:44.765608,NaN,0,,0.11154859,0.0006954223,0.02350165,-0.5992151,0.71627766,-0.3576135,0.039286256,0.4724583,0.88047695,0.7996235,0.5135458,-0.3112441,,0.02409383,0.008583687,0.014035463,-0.7538526,-0.3122834,0.57808745,0.6528406,-0.25664783,0.7126928,-0.07419729,0.9146645,0.3973459,,0.074786365,1.3022355,0.43178186,0.9961214,0.07739565,-0.04185805,0.027619964,-0.7267062,-0.6863929,-0.08354233,0.6825745,-0.7260253,,-0.08823743,0.25959396,-0.08895107,0.5197151,-0.75501716,0.39980665,0.59525895,0.6556962,0.46446657,-0.61283195,-0.0034017768,0.79020596,,-0.010899704,0.4611409,-0.30366087,0.748277,0.17348677,-0.6402998,0.4769611,0.53014857,0.7010354,0.46107438,-0.8299668,0.31395155,,1.1819797118658097,0.5060166261178125,0.20313642074000002,1.7131668382685639,-0.6293477179196186,-0.020824738613278937,-0.41146370259224935,,-0.1766111781006403,0.31828471267828895,0.19312517307000002,-3.732271304081049,0.2246304056143841,1.391431718752842,0.810186568026025,,-0.030892327760299636,-0.02567597495840158,0.113675081,-0.0932194237584371,,1.6465783e-05,2.3841858e-07,-4.2915344e-06,1.0,-2.2426248e-06,-2.0973384e-06,2.231449e-06,1.0,-2.3841858e-07,2.0973384e-06,2.682209e-07,1.0,380,1.171,0,2,0.094,False,-0.2590439475643693,0.9844332767080171
1.1962981179822236,11:14:44.787897,NaN,0,,0.111424,0.00067828596,0.023101673,-0.598683,0.71640104,-0.35825703,0.043883443,0.47593448,0.8783851,0.79978293,0.51015276,-0.31637207,,0.024093501,0.00857573,0.01405561,-0.753955,-0.3124103,0.5778854,0.65270835,-0.25673023,0.7127842,-0.074320495,0.914598,0.39747584,,0.074786365,1.3022355,0.43178186,0.9961214,0.07739565,-0.04185805,0.027619964,-0.7267062,-0.6863929,-0.08354233,0.6825745,-0.7260253,,-0.08807507,0.25932062,-0.088677704,0.5192424,-0.75475746,0.40090957,0.5987489,0.65600234,0.45952213,-0.6098254,0.0014408033,0.7925345,,-0.010902331,0.46115023,-0.3036802,0.7483985,0.17362325,-0.64012086,0.47679445,0.53005975,0.7012159,0.46104968,-0.829995,0.3139133,,1.1817403071467087,0.50434851581698,0.20338012326000002,1.715263737703409,-0.6259318054254827,-0.02475368856765736,-0.4108103263277123,,-0.17664206903213722,0.31829243541116314,0.19310443243000003,-3.7324809940245336,0.2246304056143841,1.3915133974929825,0.8100232239598908,,-0.030892327760299636,-0.02567597495840158,0.113675081,-0.0932194237584371,,1.6465783e-05,2.3841858e-07,-4.2915344e-06,1.0,-2.2426248e-06,-2.0973384e-06,2.231449e-06,1.0,-2.3841858e-07,2.0973384e-06,2.682209e-07,1.0,397,1.224,0,2,0.094,False,-0.2588652144088064,0.9846746777119144
1.2185859489254653,11:14:44.839301,NaN,0,,0.11128332,0.0006416142,0.022512019,-0.5830629,0.73113847,-0.35422322,0.06403908,0.47601068,0.87710476,0.8098991,0.4887232,-0.32436562,,0.024103172,0.0085640475,0.014089167,-0.753675,-0.31243247,0.57823855,0.653039,-0.25657758,0.71253633,-0.074256524,0.9146333,0.3974067,,0.074786365,1.3022355,0.43178186,0.9961214,0.07739565,-0.04185805,0.027619964,-0.7267062,-0.6863929,-0.08354233,0.6825745,-0.7260253,,-0.087878674,0.2589069,-0.088278845,0.50303704,-0.76735294,0.39764714,0.61963624,0.6409577,0.4530167,-0.6024987,0.018512398,0.79790515,,-0.010916828,0.46116564,-0.3037104,0.7481079,0.17363797,-0.6404564,0.4770306,0.5301911,0.7009559,0.46127686,-0.82990795,0.31380954,,1.1814622887632367,0.5013212045302841,0.20371456608000002,1.744830019734727,-0.6169137964409637,-0.041173610367223445,-0.4111370144599809,,-0.17675018729237635,0.3183001581440374,0.19307332147000003,-3.732061614137564,0.22476704211414955,1.3914019795892862,0.8100232239598908,,-0.030892327760299636,-0.02567597495840158,0.113675081,-0.0932194237584371,,1.6465783e-05,2.3841858e-07,-4.2915344e-06,1.0,-2.2426248e-06,-2.0973384e-06,2.231449e-06,1.0,-2.3841858e-07,2.0973384e-06,2.682209e-07,1.0,405,1.248,0,2,0.094,False,-0.25880563669028556,0.9845298371095761
1.2699288530275226,11:14:44.862466,NaN,0,,0.11125964,0.0006324947,0.022362113,-0.57347643,0.7395586,-0.35238868,0.07378498,0.47503084,0.8768703,0.81589246,0.47686344,-0.32698733,,0.02411186,0.008559532,0.014111221,-0.7535054,-0.31243864,0.5784561,0.65323097,-0.25637782,0.7124322,-0.0742881,0.91468716,0.39727664,,0.074786365,1.3022355,0.43178186,0.9961214,0.07739565,-0.04185805,0.027619964,-0.7267062,-0.6863929,-0.08354233,0.6825745,-0.7260253,,-0.08784078,0.25880122,-0.08817631,0.49307087,-0.7746024,0.396071,0.63036406,0.6318591,0.45099354,-0.59960175,0.02729715,0.7998329,,-0.010928693,0.4611776,-0.30372766,0.74794275,0.17363344,-0.6406505,0.47711688,0.53036594,0.7007649,0.46145543,-0.8297972,0.3138399,,1.1814545660303624,0.500355862921006,0.20379363977,1.7618149051569736,-0.6132246109472966,-0.05022612053742864,-0.41277045512132365,,-0.1768351373539928,0.31831560360978584,0.19305517341000003,-3.7318519241940797,0.22490367861391497,1.3912088829454492,0.8098598798937566,,-0.030892327760299636,-0.02567597495840158,0.113675081,-0.0932194237584371,,1.6465783e-05,2.3841858e-07,-4.2915344e-06,1.0,-2.2426248e-06,-2.0973384e-06,2.231449e-06,1.0,-2.3841858e-07,2.0973384e-06,2.682209e-07,1.0,418,1.288,0,2,0.094,False,-0.25910352528289105,0.9852540401212677
1.2931429950986058,11:14:44.908721,NaN,0,,0.11121723,0.0006709397,0.021968171,-0.5457987,0.76094913,-0.3507992,0.10135183,0.4755368,0.8738378,0.8317641,0.44138548,-0.33667094,,0.024148025,0.008557446,0.014177322,-0.7533125,-0.31278586,0.5785197,0.65344,-0.25645405,0.71221316,-0.07440655,0.9145471,0.3975768,,0.074786365,1.3022355,0.43178186,0.9961214,0.07739565,-0.04185805,0.027619964,-0.7267062,-0.6863929,-0.08354233,0.6825745,-0.7260253,,-0.08775991,0.2585688,-0.08786342,0.46442634,-0.79245526,0.39537683,0.6599564,0.60739356,0.4421885,-0.59056395,0.055567477,0.80507547,,-0.010974419,0.46122,-0.30377004,0.74776745,0.17399877,-0.640756,0.47714856,0.5302542,0.70082796,0.46170676,-0.82979214,0.31348354,,1.1816553570850923,0.4980235975929902,0.20403863858000001,1.8094145223279605,-0.6017471449669998,-0.0802499457034902,-0.41130035852611513,,-0.17715949213471024,0.31837738547277966,0.19300850697000002,-3.7316422342505953,0.22504031511368042,1.391260822522034,0.8101865680260252,,-0.030892327760299636,-0.02567597495840158,0.113675081,-0.0932194237584371,,1.6465783e-05,2.3841858e-07,-4.2915344e-06,1.0,-2.2426248e-06,-2.0973384e-06,2.231449e-06,1.0,-2.3841858e-07,2.0973384e-06,2.682209e-07,1.0,426,1.314,0,2,0.094,False,-0.25922268071993226,0.9853023203220472
1.3394126989878714,11:14:44.935017,NaN,0,,0.11118123,0.0006778687,0.021854833,-0.53347886,0.770085,-0.34981334,0.11035371,0.47341844,0.8738975,0.83858347,0.4276027,-0.33754045,,0.024166547,0.00855308,0.014202356,-0.75323534,-0.312947,0.5785331,0.6535079,-0.2563206,0.7121988,-0.07459059,0.9145293,0.39758304,,0.074786365,1.3022355,0.43178186,0.9961214,0.07739565,-0.04185805,0.027619964,-0.7267062,-0.6863929,-0.08354233,0.6825745,-0.7260253,,-0.08771303,0.25850013,-0.087778114,0.4516484,-0.80024916,0.39448065,0.67053884,0.59612715,0.4415995,-0.58855027,0.06506688,0.805838,,-0.0109964525,0.46123305,-0.30378827,0.74771816,0.17415908,-0.64077,0.47705117,0.5303506,0.7008212,0.46188715,-0.82969683,0.31347,,1.1818329799411993,0.49712776057958014,0.20410863824000003,1.8287059971285369,-0.5991510514714563,-0.090044687446935,-0.41293379918745793,,-0.17729850132644628,0.31837738547277966,0.19299035891000002,-3.7316422342505953,0.22517695161344586,1.3911494046183375,0.8101865680260252,,-0.030892327760299636,-0.02567597495840158,0.113675081,-0.0932194237584371,,1.6465783e-05,2.3841858e-07,-4.2915344e-06,1.0,-2.2426248e-06,-2.0973384e-06,2.231449e-06,1.0,-2.3841858e-07,2.0973384e-06,2.682209e-07,1.0,439,1.354,0,2,0.094,False,-0.2599971910607066,0.985785122329842
1.365706091048196,11:14:44.972622,NaN,0,,0.11118646,0.00069101155,0.021593153,-0.4916301,0.7986382,-0.34709755,0.14099759,0.4663408,0.87329596,0.85931337,0.38039866,-0.34187335,,0.02419155,0.008551724,0.014242113,-0.7531561,-0.31330222,0.5784438,0.65357673,-0.25640738,0.7121043,-0.07478666,0.9143834,0.39788187,,0.074786365,1.3022355,0.43178186,0.9961214,0.07739565,-0.04185805,0.027619964,-0.7267062,-0.6863929,-0.08354233,0.6825745,-0.7260253,,-0.08769276,0.25833476,-0.087575845,0.40848,-0.8242169,0.39218697,0.70490783,0.5578183,0.43811378,-0.57986987,0.097494975,0.8088546,,-0.011027163,0.46125808,-0.30381355,0.7476687,0.17453332,-0.64072585,0.4769454,0.5302284,0.7009857,0.4620764,-0.82969636,0.31319228,,1.1822500075164075,0.49492678171042614,0.20424993385,1.893080809778286,-0.5883567679899866,-0.12424879002266709,-0.4124437669890551,,-0.17750701511405034,0.31840827640427655,0.19296313682000002,-3.7316422342505953,0.22531358811321128,1.3912830229350628,0.8103499120921591,,-0.030892327760299636,-0.02567597495840158,0.113675081,-0.0932194237584371,,1.6465783e-05,2.3841858e-07,-4.2915344e-06,1.0,-2.2426248e-06,-2.0973384e-06,2.231449e-06,1.0,-2.3841858e-07,2.0973384e-06,2.682209e-07,1.0,447,1.379,0,2,0.094,False,-0.2593418361569748,0.9857368421290624
1.403298017103225,11:14:44.997002,NaN,0,,0.111138225,0.00066931546,0.021429345,-0.47144473,0.8082729,-0.35275322,0.15425852,0.46940708,0.86940277,0.8682995,0.35546017,-0.34598246,,0.024202563,0.008552484,0.014266908,-0.7528303,-0.31339568,0.57881725,0.65394974,-0.2561817,0.7118431,-0.07480629,0.91441464,0.39780635,,0.074786365,1.3022355,0.43178186,0.9961214,0.07739565,-0.04185805,0.027619964,-0.7267062,-0.6863929,-0.08354233,0.6825745,-0.7260253,,-0.087629266,0.25821176,-0.08747351,0.38773194,-0.83134806,0.39815122,0.71968085,0.54291934,0.43277946,-0.5759543,0.118739374,0.80881244,,-0.011041811,0.4612753,-0.3038285,0.74734503,0.17461821,-0.64108026,0.47714385,0.53041464,0.70070964,0.46239504,-0.8295594,0.31308475,,1.1825125804341312,0.4935830261903111,0.20432511867000003,1.9224374018661192,-0.5837111269979616,-0.14731318142151822,-0.41440389578266634,,-0.1776151333742895,0.3184546128015219,0.19294628505000003,-3.7312228543636268,0.22558686111274218,1.3911418658678105,0.8105132561582937,,-0.030892327760299636,-0.02567597495840158,0.113675081,-0.0932194237584371,,1.6465783e-05,2.3841858e-07,-4.2915344e-06,1.0,-2.2426248e-06,-2.0973384e-06,2.231449e-06,1.0,-2.3841858e-07,2.0973384e-06,2.682209e-07,1.0,460,1.419,0,2,0.094,False,-0.2602355019347904,0.9861230837352981
1.427692024037242,11:14:45.040032,NaN,0,,0.11108038,0.0006675273,0.021129027,-0.3962373,0.8393768,-0.37207863,0.19065338,0.47163558,0.86093616,0.89813536,0.27019703,-0.34690964,,0.024205767,0.008553214,0.014285862,-0.7524626,-0.3134035,0.5792909,0.65439916,-0.25616056,0.71143764,-0.07457566,0.91441786,0.3978422,,0.074786365,1.3022355,0.43178186,0.9961214,0.07739565,-0.04185805,0.027619964,-0.7267062,-0.6863929,-0.08354233,0.6825745,-0.7260253,,-0.08754271,0.25801286,-0.08725789,0.31057584,-0.85403144,0.41734028,0.7626297,0.48595208,0.4269034,-0.5673963,0.18569022,0.80223477,,-0.011047852,0.46128923,-0.30384037,0.74694115,0.17462516,-0.6415489,0.47757098,0.5304322,0.7004053,0.4626066,-0.8295467,0.31280577,,1.1836478221666422,0.4902699737872688,0.20448585863000002,2.0249757842300515,-0.5738732990148498,-0.22108665630081312,-0.4142405517165322,,-0.1776769152372833,0.3185009491987672,0.19293202586000002,-3.730593784533173,0.22572349761250762,1.391193805444395,0.810839944290562,,-0.030892327760299636,-0.02567597495840158,0.113675081,-0.0932194237584371,,1.6465783e-05,2.3841858e-07,-4.2915344e-06,1.0,-2.2426248e-06,-2.0973384e-06,2.231449e-06,1.0,-2.3841858e-07,2.0973384e-06,2.682209e-07,1.0,472,1.457,0,2,0.094,False,-0.259282258438454,0.9852057599204886
1.4706950469408184,11:14:45.075905,NaN,0,,0.11102758,0.00067675114,0.020957634,-0.3468279,0.85636204,-0.3825628,0.21276972,0.46908277,0.8571408,0.9134765,0.21588257,-0.34489888,,0.024202757,0.008553721,0.014293134,-0.75257415,-0.31345075,0.5791205,0.65426004,-0.25619164,0.71155435,-0.07467146,0.91439307,0.39788148,,0.074786365,1.3022355,0.43178186,0.9961214,0.07739565,-0.04185805,0.027619964,-0.7267062,-0.6863929,-0.08354233,0.6825745,-0.7260253,,-0.08747347,0.257908,-0.087129615,0.26026943,-0.86572874,0.42752022,0.78666806,0.4468649,0.42598724,-0.55983317,0.22544505,0.7973464,,-0.011045983,0.46129522,-0.30384514,0.7470676,0.17467605,-0.6413878,0.4774207,0.5303987,0.70053315,0.46255764,-0.8295574,0.31284973,,1.1847135593032851,0.4883624587673353,0.20457011748,2.0891409069363163,-0.5652651995296272,-0.2643713448560973,-0.4116270466583837,,-0.1776769152372833,0.3185241173973899,0.19292554441,-3.730803474476657,0.22572349761250762,1.391193805444395,0.8111666324228308,,-0.030892327760299636,-0.02567597495840158,0.113675081,-0.0932194237584371,,1.6465783e-05,2.3841858e-07,-4.2915344e-06,1.0,-2.2426248e-06,-2.0973384e-06,2.231449e-06,1.0,-2.3841858e-07,2.0973384e-06,2.682209e-07,1.0,485,1.497,0,2,0.094,False,-0.2603546573718325,0.9850609193181499
1.5065718630794436,11:14:45.115226,NaN,0,,0.110976264,0.0007197857,0.020693004,-0.27121538,0.8743898,-0.40234873,0.2515641,0.4678815,0.8472321,0.9290628,0.1285659,-0.3468618,,0.024206728,0.00855317,0.0143018365,-0.75257045,-0.31353012,0.5790824,0.65426266,-0.25626633,0.711525,-0.074685246,0.9143448,0.39798954,,0.074786365,1.3022355,0.43178186,0.9961214,0.07739565,-0.04185805,0.027619964,-0.7267062,-0.6863929,-0.08354233,0.6825745,-0.7260253,,-0.08739617,0.25776583,-0.08690977,0.18412432,-0.87525433,0.44724494,0.8218553,0.38667497,0.41837338,-0.53912157,0.29053792,0.7905287,,-0.011051212,0.4613007,-0.30385098,0.74706596,0.1747627,-0.6413661,0.477412,0.5303228,0.7005966,0.46256918,-0.8295877,0.31275228,,1.1867755289807032,0.4860919753023133,0.20467511697000002,2.1841304513348057,-0.5413538120706751,-0.3345102968901196,-0.4135871754519951,,-0.17771552890165443,0.31853184013026414,0.19291906296000003,-3.730803474476657,0.22572349761250762,1.3912754841845356,0.8103499120921593,,-0.030892327760299636,-0.02567597495840158,0.113675081,-0.0932194237584371,,1.6465783e-05,2.3841858e-07,-4.2915344e-06,1.0,-2.2426248e-06,-2.0973384e-06,2.231449e-06,1.0,-2.3841858e-07,2.0973384e-06,2.682209e-07,1.0,493,1.523,0,2,0.094,False,-0.26005676877922745,0.9842401559048992
1.5458974179346114,11:14:45.142734,NaN,0,,0.11090763,0.0007959008,0.020505354,-0.2102823,0.88275534,-0.42014784,0.2792622,0.46608794,0.83950853,0.93690664,0.059202373,-0.34453022,,0.024212971,0.008552544,0.014306366,-0.7526674,-0.31366906,0.578881,0.6541352,-0.2563361,0.711617,-0.074824154,0.9142777,0.3981178,,0.074786365,1.3022355,0.43178186,0.9961214,0.07739565,-0.04185805,0.027619964,-0.7267062,-0.6863929,-0.08354233,0.6825745,-0.7260253,,-0.08730853,0.2577006,-0.086725965,0.123161584,-0.8769076,0.46461198,0.8444145,0.33855417,0.41514495,-0.5213401,0.34119517,0.7821703,,-0.011058065,0.46130285,-0.30385393,0.7471844,0.17491104,-0.64118767,0.47723648,0.5302434,0.7007762,0.46255898,-0.8296072,0.31271565,,1.188767994062253,0.48466326972058177,0.20476844985000003,2.256683171780451,-0.5211316101053899,-0.388899082062411,-0.41391386358426363,,-0.17775414256602554,0.3185241173973899,0.19291647038,-3.7310131644201423,0.22572349761250762,1.3913571629246761,0.8101865680260252,,-0.030892327760299636,-0.02567597495840158,0.113675081,-0.0932194237584371,,1.6465783e-05,2.3841858e-07,-4.2915344e-06,1.0,-2.2426248e-06,-2.0973384e-06,2.231449e-06,1.0,-2.3841858e-07,2.0973384e-06,2.682209e-07,1.0,506,1.563,0,2,0.094,False,-0.26005676877922745,0.9840953153025609
1.5734247099608183,11:14:45.179887,NaN,0,,0.110764414,0.00089640915,0.020206451,-0.12649688,0.8862177,-0.44566417,0.3177469,0.46180063,0.82811654,0.93969965,-0.036854237,-0.34000927,,0.024224497,0.00855159,0.014317393,-0.7525995,-0.3138221,0.5788865,0.654196,-0.25624576,0.7115937,-0.07497664,0.9142505,0.39815158,,0.074786365,1.3022355,0.43178186,0.9961214,0.07739565,-0.04185805,0.027619964,-0.7267062,-0.6863929,-0.08354233,0.6825745,-0.7260253,,-0.08713556,0.25758308,-0.08644989,0.040113743,-0.87114197,0.48938996,0.8703899,0.27100822,0.41106695,-0.49072638,0.40947062,0.7691043,,-0.011071109,0.46130884,-0.30386087,0.7471395,0.17506528,-0.64119786,0.47715834,0.53030294,0.7007844,0.4627121,-0.8295366,0.3126764,,1.1917875826160749,0.48295654575537816,0.20489937514000003,2.3518824061224253,-0.48697248516402974,-0.46077839892227923,-0.4153839601794722,,-0.17783136989476778,0.3185241173973899,0.19290998893000003,-3.7310131644201423,0.22586013411227307,1.3913274237611204,0.8100232239598908,,-0.030892327760299636,-0.02567597495840158,0.113675081,-0.0932194237584371,,1.6465783e-05,2.3841858e-07,-4.2915344e-06,1.0,-2.2426248e-06,-2.0973384e-06,2.231449e-06,1.0,-2.3841858e-07,2.0973384e-06,2.682209e-07,1.0,519,1.604,1,3,0.122,False,-0.26041423509035333,0.9840470351017814
1.6105806310661137,11:14:45.221350,NaN,0,,0.110600814,0.0010004044,0.019860163,-0.04166502,0.87984776,-0.47342575,0.35442778,0.45603743,0.8163398,0.9341546,-0.13378242,-0.33084333,,0.024238601,0.008551888,0.014327943,-0.75268817,-0.31391478,0.5787209,0.65407485,-0.25621244,0.7117171,-0.07514307,0.91422796,0.39817178,,0.074786365,1.3022355,0.43178186,0.9961214,0.07739565,-0.04185805,0.027619964,-0.7267062,-0.6863929,-0.08354233,0.6825745,-0.7260253,,-0.08693765,0.2574376,-0.086138174,-0.043198477,-0.8555302,0.51594764,0.8894,0.202307,0.40992624,-0.45508412,0.476592,0.7521692,,-0.0110866595,0.46131504,-0.30386645,0.74725384,0.17515989,-0.6410388,0.476966,0.53032017,0.7009023,0.46272573,-0.8295056,0.31273848,,1.1948303393685193,0.48159734476951466,0.20505752252,2.4437266013686467,-0.4483043557304101,-0.531025388494993,-0.41440389578266645,,-0.1779240426892585,0.3185163946645157,0.19290480377000002,-3.7312228543636268,0.22586013411227307,1.3912457450209799,0.8098598798937566,,-0.030892327760299636,-0.02567597495840158,0.113675081,-0.0932194237584371,,1.6465783e-05,2.3841858e-07,-4.2915344e-06,1.0,-2.2426248e-06,-2.0973384e-06,2.231449e-06,1.0,-2.3841858e-07,2.0973384e-06,2.682209e-07,1.0,532,1.646,1,3,0.164,False,-0.2613079008681689,0.9839504747002223
1.6520327681209892,11:14:45.260190,NaN,0,,0.11039969,0.0010706633,0.019391999,0.038427483,0.86206186,-0.5053441,0.388955,0.45293045,0.8022269,0.92045486,-0.22738367,-0.31789827,,0.024252065,0.008550815,0.014344156,-0.75251377,-0.31403136,0.57888436,0.65427023,-0.25612533,0.71156883,-0.075188026,0.9142123,0.39819926,,0.074786365,1.3022355,0.43178186,0.9961214,0.07739565,-0.04185805,0.027619964,-0.7267062,-0.6863929,-0.08354233,0.6825745,-0.7260253,,-0.08669116,0.2571876,-0.08576226,-0.12104023,-0.8288369,0.5462404,0.90161496,0.13840641,0.40979764,-0.4152586,0.54210055,0.7305391,,-0.011102394,0.46132448,-0.3038768,0.7470859,0.17527644,-0.6412026,0.47704425,0.5303815,0.70080256,0.4629162,-0.8294417,0.31262594,,1.1974792367443783,0.4802304210507769,0.20527789182000003,2.526973508932003,-0.40649358680218534,-0.6002411252865396,-0.4147305839149351,,-0.1780244382166234,0.3185241173973899,0.19289443345,-3.7310131644201423,0.22599677061203852,1.3912160058574239,0.8096965358276225,,-0.030892327760299636,-0.02567597495840158,0.113675081,-0.0932194237584371,,1.6465783e-05,2.3841858e-07,-4.2915344e-06,1.0,-2.2426248e-06,-2.0973384e-06,2.231449e-06,1.0,-2.3841858e-07,2.0973384e-06,2.682209e-07,1.0,541,1.673,0,3,0.173,False,-0.2607121236829584,0.9833228320900893
1.690877817105502,11:14:45.288751,NaN,0,,0.110283494,0.0011074394,0.019079998,0.080668375,0.84829676,-0.5233402,0.40752393,0.45109144,0.7940029,0.9096246,-0.27732462,-0.3093124,,0.02425944,0.008550979,0.014354289,-0.7524016,-0.31407678,0.57900554,0.65440935,-0.25619614,0.7114154,-0.07510018,0.9141769,0.3982972,,0.074786365,1.3022355,0.43178186,0.9961214,0.07739565,-0.04185805,0.027619964,-0.7267062,-0.6863929,-0.08354233,0.6825745,-0.7260253,,-0.08654481,0.2570126,-0.08551699,-0.16174018,-0.8103428,0.56319153,0.905915,0.10440484,0.41038716,-0.3913542,0.57657975,0.71721524,,-0.011111215,0.46133107,-0.30388275,0.74696004,0.17532755,-0.6413353,0.47718868,0.5303134,0.7007558,0.4629705,-0.8294745,0.31245857,,1.1987457649357511,0.47951992962634826,0.20543733549,2.569750257402846,-0.381899016844406,-0.6369588109405704,-0.414077207650398,,-0.1780862200796172,0.31853184013026414,0.19288795200000003,-3.730803474476657,0.22599677061203852,1.3912976845975646,0.8095331917614881,,-0.030892327760299636,-0.02567597495840158,0.113675081,-0.0932194237584371,,1.6465783e-05,2.3841858e-07,-4.2915344e-06,1.0,-2.2426248e-06,-2.0973384e-06,2.231449e-06,1.0,-2.3841858e-07,2.0973384e-06,2.682209e-07,1.0,554,1.714,0,3,0.173,False,-0.2604738128088746,0.9829848706846334
1.7194285800214857,11:14:45.336008,NaN,0,,0.109938934,0.0011300594,0.018182203,0.17548881,0.8081784,-0.56218433,0.4563794,0.43919697,0.7738371,0.87230814,-0.3923691,-0.29176188,,0.02427078,0.0085500255,0.0143793225,-0.75233746,-0.31424755,0.57899624,0.6544665,-0.2561421,0.7113823,-0.075244874,0.9141333,0.39836973,,0.074786365,1.3022355,0.43178186,0.9961214,0.07739565,-0.04185805,0.027619964,-0.7267062,-0.6863929,-0.08354233,0.6825745,-0.7260253,,-0.086114824,0.25644782,-0.084867835,-0.25173256,-0.7594911,0.59983665,0.91220146,0.020841978,0.4092116,-0.32329434,0.65018374,0.6875623,,-0.011126212,0.46134734,-0.30389914,0.7469178,0.17550226,-0.6413367,0.47711417,0.53033864,0.7007874,0.4631154,-0.8294214,0.31238475,,1.201356048647239,0.4777977601953962,0.20587159264000002,2.6626429023664904,-0.31303422096262407,-0.7135331194387071,-0.4160373364440092,,-0.17819433833985635,0.31856273106176103,0.19286980394000003,-3.730803474476657,0.22613340711180394,1.3912679454340084,0.8090431595630849,,-0.030892327760299636,-0.02567597495840158,0.113675081,-0.0932194237584371,,1.6465783e-05,2.3841858e-07,-4.2915344e-06,1.0,-2.2426248e-06,-2.0973384e-06,2.231449e-06,1.0,-2.3841858e-07,2.0973384e-06,2.682209e-07,1.0,567,1.756,1,4,0.198,False,-0.261427056305211,0.9835642330939867
1.7666639760136604,11:14:45.373493,NaN,0,,0.1095469,0.001101464,0.01733628,0.23993869,0.7656116,-0.5968821,0.50289977,0.4278866,0.7510026,0.8303741,-0.4803665,-0.28235936,,0.02430562,0.00857906,0.014407158,-0.7523263,-0.31422788,0.57902133,0.6544677,-0.25596642,0.7114444,-0.075345635,0.9141892,0.3982223,,0.07481108,1.302236,0.43177733,0.99612224,0.077373326,-0.04187914,0.027589357,-0.7267086,-0.6863916,-0.08354233,0.6825745,-0.7260253,,-0.08566447,0.25588548,-0.084295936,-0.3110758,-0.7087923,0.63312346,0.91528946,-0.04406822,0.4003788,-0.2558848,0.7040394,0.6624587,,-0.011186305,0.46138403,-0.30389598,0.74694234,0.17546661,-0.64131784,0.47702485,0.5304895,0.700734,0.46316782,-0.8293325,0.31254312,,1.2030936635439395,0.4765080638054007,0.20627214625,2.7226142262030644,-0.24567242657826194,-0.7698506845434325,-0.41424055171653207,,-0.17827156566859859,0.31863223565762905,0.19285424846000002,-3.730803474476657,0.22627004361156938,1.3910748487901716,0.8088798154969508,,-0.030892327760299636,-0.02567597495840158,0.113675081,-0.0932194237584371,,4.146993e-05,-1.3113022e-06,-2.3841858e-06,1.0,-2.4542212e-05,-2.3066998e-05,2.4534762e-05,1.0,-2.8312206e-06,2.3070723e-05,2.8312206e-06,1.0,576,1.784,1,4,0.226,False,-0.260652545964438,0.9845298371095761
1.8041405731346458,11:14:45.401931,NaN,0,,0.109272756,0.0011015534,0.016793206,0.28061396,0.73811466,-0.61354905,0.5249937,0.41710114,0.741895,0.8035157,-0.5302955,-0.27046108,,0.024295345,0.008580282,0.014424086,-0.7522916,-0.31432313,0.57901466,0.65450144,-0.25597668,0.7114096,-0.075398326,0.91415364,0.39829403,,0.07481108,1.302236,0.43177733,0.99612224,0.077373326,-0.04187914,0.027589357,-0.7267086,-0.6863916,-0.08354233,0.6825745,-0.7260253,,-0.08533918,0.25553724,-0.08391776,-0.34861323,-0.6767743,0.64841753,0.91158044,-0.083972275,0.40245473,-0.21792193,0.73138577,0.64620805,,-0.011178722,0.4613984,-0.30390733,0.74691564,0.17556627,-0.64132166,0.47700515,0.5304681,0.70076364,0.46323115,-0.8293251,0.3124689,,1.2041671234134568,0.4754809403331288,0.20657677440000002,2.7611971758042166,-0.20891720814135845,-0.7998221006377699,-0.41424055171653207,,-0.17825612020285014,0.31870174025349707,0.19283869298000003,-3.730803474476657,0.22640668011133483,1.3911267883667562,0.8088798154969505,,-0.030892327760299636,-0.02567597495840158,0.113675081,-0.0932194237584371,,4.146993e-05,-1.3113022e-06,-2.3841858e-06,1.0,-2.4542212e-05,-2.3066998e-05,2.4534762e-05,1.0,-2.8312206e-06,2.3070723e-05,2.8312206e-06,1.0,589,1.826,1,4,0.268,False,-0.2613079008681689,0.9843849965072375
1.8325170821044594,11:14:45.447446,NaN,0,,0.108888395,0.00110358,0.016080871,0.32389325,0.6956092,-0.64126503,0.557064,0.40763354,0.72354305,0.7647044,-0.5915764,-0.25546902,,0.02428782,0.008582294,0.014439464,-0.7521994,-0.31441462,0.5790849,0.6545879,-0.25576338,0.7114068,-0.07556802,0.91418195,0.39819705,,0.07481108,1.302236,0.43177733,0.99612224,0.077373326,-0.04187914,0.027589357,-0.7267086,-0.6863916,-0.08354233,0.6825745,-0.7260253,,-0.084887825,0.2550832,-0.083422504,-0.38743043,-0.6287025,0.6742631,0.90715057,-0.12968613,0.40032405,-0.16424216,0.7667559,0.6205722,,-0.011173642,0.4614119,-0.30391684,0.74684906,0.17564979,-0.6413763,0.47692886,0.5306436,0.7006827,0.463417,-0.82919514,0.3125382,,1.2054799880020748,0.4743688667992405,0.20699029091,2.8012479550097606,-0.1567220652309602,-0.8416486311885378,-0.4153839601794721,,-0.1782483974699759,0.31877896758223934,0.19282573008,-3.730803474476657,0.2266799531108657,1.390985631299504,0.8093698476953537,,-0.030892327760299636,-0.02567597495840158,0.113675081,-0.0932194237584371,,4.146993e-05,-1.3113022e-06,-2.3841858e-06,1.0,-2.4542212e-05,-2.3066998e-05,2.4534762e-05,1.0,-2.8312206e-06,2.3070723e-05,2.8312206e-06,1.0,598,1.854,1,4,0.296,False,-0.26136747858668974,0.9843367163064582
1.8781025980133563,11:14:45.471321,NaN,0,,0.1086245,0.001113534,0.015616283,0.35224554,0.6674788,-0.65604496,0.57433426,0.39930016,0.7146325,0.738961,-0.6285151,-0.24270421,,0.024282262,0.008587122,0.014445543,-0.75221354,-0.31434563,0.579104,0.6545762,-0.25574672,0.71142364,-0.075528994,0.9142102,0.3981393,,0.07481108,1.302236,0.43177733,0.99612224,0.077373326,-0.04187914,0.027589357,-0.7267086,-0.6863916,-0.08354233,0.6825745,-0.7260253,,-0.08458017,0.2547942,-0.08309478,-0.41288772,-0.5972703,0.68759865,0.90126115,-0.15905738,0.40302497,-0.13134721,0.78611,0.6039694,,-0.011169123,0.46142024,-0.30391786,0.7468573,0.17557713,-0.6413867,0.47695106,0.5306672,0.70064974,0.46338093,-0.8291954,0.31259096,,1.20627542948812,0.47356570258032116,0.20728195616000003,2.828297957719265,-0.1252956702849089,-0.8660495679366063,-0.4158739923778749,,-0.17824067473710167,0.3188175812466104,0.19282184121,-3.730803474476657,0.2266799531108657,1.3909039525593636,0.8095331917614881,,-0.030892327760299636,-0.02567597495840158,0.113675081,-0.0932194237584371,,4.146993e-05,-1.3113022e-06,-2.3841858e-06,1.0,-2.4542212e-05,-2.3066998e-05,2.4534762e-05,1.0,-2.8312206e-06,2.3070723e-05,2.8312206e-06,1.0,611,1.896,1,4,0.338,False,-0.2623802998015474,0.9841435955033404
1.9020085870288312,11:14:45.510327,NaN,0,,0.10838925,0.0011467338,0.015241101,0.3733078,0.64493614,-0.66685724,0.5865333,0.39284497,0.70827365,0.7187628,-0.655538,-0.23162442,,0.024278872,0.008592129,0.014449179,-0.75211936,-0.31427854,0.5792627,0.6547009,-0.25577325,0.71129936,-0.07538627,0.9142259,0.39813042,,0.07481108,1.302236,0.43177733,0.99612224,0.077373326,-0.04187914,0.027589357,-0.7267086,-0.6863916,-0.08354233,0.6825745,-0.7260253,,-0.08430929,0.25458065,-0.08281511,-0.4317056,-0.57232726,0.6971885,0.8957005,-0.1807062,0.40628302,-0.10654056,0.79986674,0.5906457,,-0.011166389,0.46142668,-0.30391693,0.74674106,0.17550878,-0.64154065,0.47712782,0.53065264,0.70054036,0.46338624,-0.82921916,0.31252,,1.2069859209125486,0.4728629338887667,0.20754251045000002,2.8486378822372633,-0.10179419232525314,-0.8843149812308446,-0.41571064831174065,,-0.17824067473710167,0.31885619491098155,0.19282054492000003,-3.730593784533173,0.2266799531108657,1.3909039525593636,0.8095331917614881,,-0.030892327760299636,-0.02567597495840158,0.113675081,-0.0932194237584371,,4.146993e-05,-1.3113022e-06,-2.3841858e-06,1.0,-2.4542212e-05,-2.3066998e-05,2.4534762e-05,1.0,-2.8312206e-06,2.3070723e-05,2.8312206e-06,1.0,620,1.923,1,4,0.365,False,-0.2607717014014801,0.9847229579126939
1.941018379991874,11:14:45.543946,NaN,0,,0.1080589,0.0011624843,0.014803335,0.39654028,0.6193981,-0.67757034,0.60028034,0.38347697,0.701861,0.6945641,-0.68504834,-0.21974844,,0.02427806,0.008595347,0.014452517,-0.75212467,-0.31427807,0.57925606,0.65469635,-0.2557968,0.711295,-0.07537264,0.9142195,0.3981478,,0.07481108,1.302236,0.43177733,0.99612224,0.077373326,-0.04187914,0.027589357,-0.7267086,-0.6863916,-0.08354233,0.6825745,-0.7260253,,-0.08393798,0.2543174,-0.08250874,-0.45227242,-0.54420877,0.70660204,0.88850045,-0.20601961,0.4100279,-0.077566914,0.81326056,0.5767067,,-0.011166127,0.46143135,-0.30391684,0.7467443,0.17550957,-0.6415367,0.47713536,0.530632,0.70055085,0.4633733,-0.8292322,0.31250462,,1.207928094323204,0.4718203649507464,0.20783547199000002,2.871284396133592,-0.07460352887193049,-0.9024848857995449,-0.4129337991874581,,-0.1782483974699759,0.31887936310960424,0.19281924863000002,-3.730593784533173,0.2266799531108657,1.3909039525593636,0.8095331917614881,,-0.030892327760299636,-0.02567597495840158,0.113675081,-0.0932194237584371,,4.146993e-05,-1.3113022e-06,-2.3841858e-06,1.0,-2.4542212e-05,-2.3066998e-05,2.4534762e-05,1.0,-2.8312206e-06,2.3070723e-05,2.8312206e-06,1.0,633,1.965,1,4,0.407,False,-0.26112916771260597,0.9840953153025609
1.9746251269243658,11:14:45.587746,NaN,0,,0.10768838,0.0011875033,0.014453337,0.40250656,0.60697466,-0.6852519,0.60851353,0.38182777,0.6956427,0.6838857,-0.69698584,-0.21566409,,0.024279691,0.00859876,0.014455378,-0.7520724,-0.31436837,0.57927495,0.6547445,-0.2557131,0.7112808,-0.07547608,0.91421187,0.39814568,,0.07481108,1.302236,0.43177733,0.99612224,0.077373326,-0.04187914,0.027589357,-0.7267086,-0.6863916,-0.08354233,0.6825745,-0.7260253,,-0.08353504,0.25412178,-0.08226425,-0.45704883,-0.5307178,0.7137542,0.88715893,-0.21455981,0.40855,-0.06368178,0.8199407,0.56889534,,-0.011168224,0.4614356,-0.30391613,0.7467077,0.17559895,-0.6415549,0.47708628,0.5306938,0.7005375,0.46348286,-0.82917374,0.3124973,,1.2089706632612243,0.47030670930739843,0.20808435967000002,2.8763169547772205,-0.0621696073932754,-0.9114804126739515,-0.4152206161133378,,-0.17826384293572436,0.3189025313082269,0.19281924863000002,-3.730593784533173,0.22681658961063117,1.3908742133958076,0.8096965358276222,,-0.030892327760299636,-0.02567597495840158,0.113675081,-0.0932194237584371,,4.146993e-05,-1.3113022e-06,-2.3841858e-06,1.0,-2.4542212e-05,-2.3066998e-05,2.4534762e-05,1.0,-2.8312206e-06,2.3070723e-05,2.8312206e-06,1.0,651,2.022,1,4,0.464,False,-0.26005676877922745,0.9842401559048992
2.0184160459320992,11:14:45.642147,NaN,0,,0.10703592,0.0010614395,0.013987899,0.41202626,0.5883116,-0.69578993,0.6199493,0.3786183,0.68724895,0.6677553,-0.7145191,-0.20872262,,0.024274237,0.0086016655,0.014457166,-0.7518734,-0.31428242,0.5795798,0.6550027,-0.25577712,0.71102,-0.07521789,0.91422355,0.39816785,,0.07481108,1.302236,0.43177733,0.99612224,0.077373326,-0.04187914,0.027589357,-0.7267086,-0.6863916,-0.08354233,0.6825745,-0.7260253,,-0.08284274,0.2537519,-0.082058996,-0.46478453,-0.51050127,0.72343886,0.88436264,-0.22766542,0.40751833,-0.043336596,0.8291905,0.5572836,,-0.011163131,0.46143946,-0.30391568,0.7464687,0.17551303,-0.6418564,0.47742468,0.53064877,0.70034105,0.46351928,-0.8292208,0.31231844,,1.2106233280963083,0.46741068447956424,0.20830343268,2.8847045525166015,-0.044680135423299024,-0.9241900082844225,-0.4147305839149351,,-0.1782483974699759,0.3189334222397238,0.19281795234000002,-3.730174404646204,0.22681658961063117,1.3909558921359482,0.8095331917614879,,-0.030892327760299636,-0.02567597495840158,0.113675081,-0.0932194237584371,,4.146993e-05,-1.3113022e-06,-2.3841858e-06,1.0,-2.4542212e-05,-2.3066998e-05,2.4534762e-05,1.0,-2.8312206e-06,2.3070723e-05,2.8312206e-06,1.0,664,2.063,1,4,0.506,False,-0.26148663402373185,0.9833711122908688
2.0727979380171746,11:14:45.688623,NaN,0,,0.10664031,0.0009806305,0.013705388,0.4083448,0.58643603,-0.6995335,0.62572384,0.37813824,0.6822617,0.6646233,-0.7163129,-0.21253622,,0.024275504,0.008604661,0.014459431,-0.7518753,-0.314386,0.5795211,0.65500087,-0.25591144,0.7109733,-0.07521403,0.91415036,0.3983366,,0.07481108,1.302236,0.43177733,0.99612224,0.077373326,-0.04187914,0.027589357,-0.7267086,-0.6863916,-0.08354233,0.6825745,-0.7260253,,-0.082423,0.25352418,-0.081937246,-0.4607272,-0.508469,0.72745425,0.88675094,-0.2291206,0.40146795,-0.037459254,0.83003795,0.55644745,,-0.011164765,0.46144298,-0.30391484,0.7464701,0.17562813,-0.6418233,0.4774265,0.5305172,0.70043945,0.46351516,-0.82928056,0.3121657,,1.21150371964397,0.4653796057336432,0.20843824684,2.8798816838164574,-0.04030776743080493,-0.9240798378963828,-0.4152206161133378,,-0.17826384293572436,0.31894886770547226,0.19281795234000002,-3.730174404646204,0.22681658961063117,1.3911192496162292,0.808879815496951,,-0.030892327760299636,-0.02567597495840158,0.113675081,-0.0932194237584371,,4.146993e-05,-1.3113022e-06,-2.3841858e-06,1.0,-2.4542212e-05,-2.3066998e-05,2.4534762e-05,1.0,-2.8312206e-06,2.3070723e-05,2.8312206e-06,1.0,673,2.091,1,4,0.533,False,-0.2603546573718325,0.9818261458659265
2.1192858619615436,11:14:45.713753,NaN,0,,0.106367365,0.00092478096,0.013488814,0.4054353,0.5854288,-0.702065,0.6282343,0.37945712,0.6792156,0.6640359,-0.71643937,-0.21394116,,0.024278723,0.008600444,0.014460623,-0.7515445,-0.3146191,0.5798236,0.6553414,-0.2554069,0.710841,-0.07555324,0.91421115,0.39813256,,0.07481108,1.302236,0.43177733,0.99612224,0.077373326,-0.04187914,0.027589357,-0.7267086,-0.6863916,-0.08354233,0.6825745,-0.7260253,,-0.082131326,0.25335252,-0.081837334,-0.4577354,-0.50743353,0.7300613,0.8883761,-0.22817284,0.39840305,-0.03558292,0.8309322,0.5552347,,-0.011168073,0.46144062,-0.30391845,0.74619025,0.17584309,-0.6420898,0.47736973,0.53093004,0.70016533,0.46402398,-0.82897073,0.31223264,,1.2120288654794171,0.4638196136930498,0.20854843149000002,2.8763169547772205,-0.03962458493197773,-0.9247186061550056,-0.41571064831174065,,-0.17826384293572436,0.31894886770547226,0.19281665605,-3.7299647147027195,0.2273631356096929,1.3909186142218652,0.8077364070340107,,-0.030892327760299636,-0.02567597495840158,0.113675081,-0.0932194237584371,,4.146993e-05,-1.3113022e-06,-2.3841858e-06,1.0,-2.4542212e-05,-2.3066998e-05,2.4534762e-05,1.0,-2.8312206e-06,2.3070723e-05,2.8312206e-06,1.0,686,2.133,1,4,0.575,False,-0.26106958999408425,0.981053662653455
2.144445283105597,11:14:45.751923,NaN,0,,0.106088385,0.0008225143,0.013233796,0.40861645,0.57833356,-0.7060899,0.6323379,0.3784868,0.6759412,0.65816516,-0.7226881,-0.21104626,,0.024276532,0.008600906,0.014463425,-0.75133866,-0.31464654,0.58007544,0.65560484,-0.25557616,0.71053714,-0.07531464,0.9141544,0.3983081,,0.07481108,1.302236,0.43177733,0.99612224,0.077373326,-0.04187914,0.027589357,-0.7267086,-0.6863916,-0.08354233,0.6825745,-0.7260253,,-0.081830665,0.25312105,-0.08174067,-0.46026948,-0.49978402,0.7337356,0.88733,-0.23269124,0.39812097,-0.028240655,0.8343085,0.550574,,-0.011166333,0.46144325,-0.30392018,0.7459475,0.17588091,-0.6423615,0.47769657,0.53077775,0.70005786,0.46407798,-0.82906026,0.3119146,,1.2124458930546254,0.4622287307209596,0.20865343098000003,2.879252613986004,-0.03388585194182923,-0.9297248730708174,-0.41571064831174076,,-0.17826384293572436,0.3189643131712207,0.19281406347000002,-3.72954533481575,0.2273631356096929,1.3911636504422868,0.807246374835608,,-0.030892327760299636,-0.02567597495840158,0.113675081,-0.0932194237584371,,4.146993e-05,-1.3113022e-06,-2.3841858e-06,1.0,-2.4542212e-05,-2.3066998e-05,2.4534762e-05,1.0,-2.8312206e-06,2.3070723e-05,2.8312206e-06,1.0,695,2.161,1,4,0.603,False,-0.26053339052739544,0.981053662653455
2.182613237062469,11:14:45.783932,NaN,0,,0.105678715,0.0006429404,0.012836412,0.40686178,0.5758486,-0.7091275,0.63588923,0.37878424,0.672434,0.6558264,-0.7245142,-0.2120631,,0.024276294,0.008598238,0.014475822,-0.75133944,-0.31470972,0.5800401,0.65560395,-0.25565425,0.7105099,-0.07531467,0.91411084,0.3984081,,0.07481108,1.302236,0.43177733,0.99612224,0.077373326,-0.04187914,0.027589357,-0.7267086,-0.6863916,-0.08354233,0.6825745,-0.7260253,,-0.08138741,0.25274402,-0.0816015,-0.4582414,-0.49712995,0.7368016,0.8884961,-0.23355868,0.39500004,-0.024279935,0.83565074,0.5487243,,-0.01116794,0.4614505,-0.30393046,0.74594826,0.1759509,-0.6423414,0.47769603,0.53070086,0.7001165,0.46407726,-0.8290946,0.31182432,,1.2128243069654623,0.45945626961911296,0.20880768949000003,2.8769460246076743,-0.03238285044440938,-0.930950470011478,-0.41571064831174076,,-0.17828701113434703,0.31897975863696915,0.19280239686000003,-3.72954533481575,0.2273631356096929,1.3912453291824276,0.8070830307694736,,-0.030892327760299636,-0.02567597495840158,0.113675081,-0.0932194237584371,,4.146993e-05,-1.3113022e-06,-2.3841858e-06,1.0,-2.4542212e-05,-2.3066998e-05,2.4534762e-05,1.0,-2.8312206e-06,2.3070723e-05,2.8312206e-06,1.0,708,2.203,1,4,0.645,False,-0.26017592421626956,0.9810053824526754
2.214587642112747,11:14:45.821837,NaN,0,,0.105341986,0.00048211217,0.012530774,0.4067555,0.5736052,-0.71100426,0.6382217,0.37843248,0.6704193,0.653623,-0.726475,-0.21215776,,0.024280258,0.008592457,0.014500439,-0.75138515,-0.3148962,0.5798797,0.6555239,-0.25559136,0.71060634,-0.07555507,0.9140642,0.39846948,,0.07481108,1.302236,0.43177733,0.99612224,0.077373326,-0.04187914,0.027589357,-0.7267086,-0.6863916,-0.08354233,0.6825745,-0.7260253,,-0.081025295,0.25243834,-0.08151149,-0.457886,-0.4947134,0.7386468,0.88876045,-0.23501073,0.39354134,-0.021100245,0.83667713,0.54728985,,-0.011175515,0.46146405,-0.30395082,0.74603075,0.17614147,-0.6421933,0.47747248,0.53073174,0.70024556,0.4641747,-0.8290344,0.3118395,,1.2131486617461797,0.4571935088869652,0.20891139269000003,2.876526644720705,-0.03128975844628586,-0.9318418132410494,-0.41571064831174076,,-0.17834879299734083,0.31900292683559184,0.19278035993,-3.7297550247592346,0.22749977210945835,1.3912155900188716,0.8069196867033392,,-0.030892327760299636,-0.02567597495840158,0.113675081,-0.0932194237584371,,4.146993e-05,-1.3113022e-06,-2.3841858e-06,1.0,-2.4542212e-05,-2.3066998e-05,2.4534762e-05,1.0,-2.8312206e-06,2.3070723e-05,2.8312206e-06,1.0,717,2.23,1,4,0.672,False,-0.2607717014014801,0.9819709864682649
2.252524252049625,11:14:45.853520,NaN,0,,0.10493627,0.00028699636,0.012226522,0.41168174,0.5663806,-0.71395457,0.64196336,0.37582356,0.6683111,0.6468394,-0.7334641,-0.20887588,,0.024288721,0.008590415,0.014542818,-0.7513281,-0.3150278,0.5798822,0.6555747,-0.25552085,0.7105849,-0.075682074,0.91403854,0.3985042,,0.07481108,1.302236,0.43177733,0.99612224,0.077373326,-0.04187914,0.027589357,-0.7267086,-0.6863916,-0.08354233,0.6825745,-0.7260253,,-0.08059522,0.2521118,-0.08145113,-0.4620744,-0.4868895,0.7412327,0.8867432,-0.24123298,0.39432627,-0.013183558,0.83949107,0.54321355,,-0.011190264,0.4614925,-0.30397987,0.74599296,0.17627458,-0.64220077,0.47740743,0.5307764,0.70025605,0.46430236,-0.82897747,0.31180066,,1.213743312177495,0.45481490716170403,0.20898917009,2.881349513420849,-0.025824298455668245,-0.9357267782079224,-0.4142405517165322,,-0.17848007945620264,0.31907243143145986,0.19274665639000002,-3.7297550247592346,0.22763640860922377,1.3911041721151753,0.8069196867033392,,-0.030892327760299636,-0.02567597495840158,0.113675081,-0.0932194237584371,,4.146993e-05,-1.3113022e-06,-2.3841858e-06,1.0,-2.4542212e-05,-2.3066998e-05,2.4534762e-05,1.0,-2.8312206e-06,2.3070723e-05,2.8312206e-06,1.0,730,2.272,1,4,0.714,False,-0.26053339052739544,0.9829848706846334
2.2842110011260957,11:14:45.889443,NaN,0,,0.10434328,5.7518482e-05,0.0119427,0.42054302,0.55487704,-0.71781266,0.64978546,0.36795592,0.66512203,0.6331844,-0.7461366,-0.20580974,,0.024300456,0.008581027,0.014605284,-0.7490968,-0.31468,0.5829497,0.6582776,-0.2548552,0.7083215,-0.07432693,0.9143442,0.398058,,0.07481108,1.302236,0.43177733,0.99612224,0.077373326,-0.04187914,0.027589357,-0.7267086,-0.6863916,-0.08354233,0.6825745,-0.7260253,,-0.079981275,0.25178334,-0.081444256,-0.46945083,-0.474341,0.7447258,0.882954,-0.25492805,0.39421308,0.0028600777,0.8426223,0.53849745,,-0.011211194,0.46153024,-0.30402747,0.74354917,0.1758764,-0.6451373,0.479951,0.5314065,0.69803596,0.4655982,-0.82865834,0.3107148,,1.215187463224975,0.4521505643200966,0.20902546621,2.8899468011037146,-0.01257055797842052,-0.9395916219545275,-0.41505727204720355,,-0.17868087051093248,0.31919599515744745,0.19269480479,-3.7259806057765132,0.22845622760781642,1.39092573713384,0.8085531273646822,,-0.030892327760299636,-0.02567597495840158,0.113675081,-0.0932194237584371,,4.146993e-05,-1.3113022e-06,-2.3841858e-06,1.0,-2.4542212e-05,-2.3066998e-05,2.4534762e-05,1.0,-2.8312206e-06,2.3070723e-05,2.8312206e-06,1.0,739,2.3,1,4,0.742,False,-0.26053339052739544,0.9848195183142527
2.320097186136991,11:14:45.919747,NaN,0,,0.103927955,-7.7188015e-06,0.011874124,0.425975,0.5429745,-0.7236877,0.65581506,0.365721,0.6604202,0.6232591,-0.75592774,-0.20030284,,0.024319485,0.00858061,0.01467222,-0.7495609,-0.3152614,0.58203816,0.65766716,-0.2550018,0.70883566,-0.075047806,0.91410303,0.39847648,,0.07481108,1.302236,0.43177733,0.99612224,0.077373326,-0.04187914,0.027589357,-0.7267086,-0.6863916,-0.08354233,0.6825745,-0.7260253,,-0.07956236,0.25171116,-0.081471555,-0.473803,-0.46158502,0.7499667,0.88050866,-0.26249653,0.39471513,0.014669043,0.8473694,0.53080124,,-0.011240121,0.4615764,-0.30407077,0.7441245,0.17648932,-0.644306,0.47906977,0.53120166,0.6987968,0.4655866,-0.82865936,0.31072944,,1.2167551779984427,0.4509535407245918,0.20902287363000002,2.894979359747343,-0.0019129109967161663,-0.9470570373407399,-0.41522061611333794,,-0.1789125524971592,0.31929639068481236,0.19264424948000003,-3.727029055493936,0.22859286410758187,1.390977676710425,0.8092065036292195,,-0.030892327760299636,-0.02567597495840158,0.113675081,-0.0932194237584371,,4.146993e-05,-1.3113022e-06,-2.3841858e-06,1.0,-2.4542212e-05,-2.3066998e-05,2.4534762e-05,1.0,-2.8312206e-06,2.3070723e-05,2.8312206e-06,1.0,748,2.329,1,4,0.771,False,-0.26154621174225356,0.9858816827314008
2.350431837141514,11:14:45.953280,NaN,0,,0.10352582,5.081296e-06,0.0118958205,0.44130376,0.5231736,-0.7290681,0.6605644,0.36051917,0.6585443,0.607376,-0.77221453,-0.1864914,,0.024352118,0.008585289,0.014732182,-0.7494823,-0.31558704,0.58196306,0.6577338,-0.2550448,0.7087583,-0.07524836,0.9139787,0.3987238,,0.07481108,1.302236,0.43177733,0.99612224,0.077373326,-0.04187914,0.027589357,-0.7267086,-0.6863916,-0.08354233,0.6825745,-0.7260253,,-0.079164036,0.25175652,-0.08151204,-0.48744905,-0.44038785,0.7539575,0.872607,-0.27618745,0.40283683,0.030829156,0.85427105,0.51891285,,-0.011281505,0.46161932,-0.3041044,0.7440763,0.17683052,-0.64426816,0.47895932,0.53112113,0.6989337,0.46577722,-0.82863826,0.31050003,,1.2187167521484956,0.450443840354893,0.20900991073000003,2.910915795452167,0.013117103977482282,-0.9592313280072057,-0.41505727204720355,,-0.17921373907925398,0.3193813407464288,0.19260536078,-3.727029055493936,0.2287295006073473,1.390947937546869,0.8103499120921593,,-0.030892327760299636,-0.02567597495840158,0.113675081,-0.0932194237584371,,4.146993e-05,-1.3113022e-06,-2.3841858e-06,1.0,-2.4542212e-05,-2.3066998e-05,2.4534762e-05,1.0,-2.8312206e-06,2.3070723e-05,2.8312206e-06,1.0,761,2.37,1,4,0.812,False,-0.26136747858668974,0.9863644847391955
2.3839684170670807,11:14:45.984189,NaN,0,,0.10314394,6.455183e-05,0.011990771,0.46275473,0.49861223,-0.7329692,0.66367084,0.35329366,0.6593365,0.5877066,-0.79156137,-0.16742605,,0.024410106,0.0085897,0.014802635,-0.7491606,-0.31595033,0.5821801,0.6580917,-0.25507686,0.70841444,-0.075323135,0.91384417,0.3990178,,0.07481108,1.302236,0.43177733,0.99612224,0.077373326,-0.04187914,0.027589357,-0.7267086,-0.6863916,-0.08354233,0.6825745,-0.7260253,,-0.07879222,0.25188437,-0.081573606,-0.5068481,-0.4141894,0.7560107,0.8606311,-0.29317194,0.41637045,0.049184885,0.8616829,0.50505793,,-0.011349531,0.46166667,-0.30414283,0.7437652,0.17721036,-0.64452296,0.47910786,0.5310451,0.6988897,0.4661212,-0.82860583,0.31006995,,1.2208713946204044,0.4504206721562703,0.20897879977000003,2.933981689235465,0.030333302947927777,-0.9734333413532359,-0.4153839601794721,,-0.17966938031883323,0.3194353998765484,0.1925638795,-3.7266096756069667,0.22886613710711273,1.3909181983833132,0.810513256158294,,-0.030892327760299636,-0.02567597495840158,0.113675081,-0.0932194237584371,,4.146993e-05,-1.3113022e-06,-2.3841858e-06,1.0,-2.4542212e-05,-2.3066998e-05,2.4534762e-05,1.0,-2.8312206e-06,2.3070723e-05,2.8312206e-06,1.0,770,2.398,1,4,0.84,False,-0.26095043455704303,0.9867990065462104
2.414879485964775,11:14:46.020866,NaN,0,,0.10260057,0.00011533499,0.012154326,0.48549458,0.45959935,-0.7436824,0.6742715,0.3446061,0.65314966,0.5564647,-0.8185444,-0.14259037,,0.024453841,0.008595154,0.014850378,-0.749224,-0.3162923,0.5819127,0.65799,-0.25519586,0.7084661,-0.07558073,0.91369265,0.39931607,,0.07481108,1.302236,0.43177733,0.99612224,0.077373326,-0.04187914,0.027589357,-0.7267086,-0.6863916,-0.08354233,0.6825745,-0.7260253,,-0.078266464,0.2520602,-0.08170493,-0.5262938,-0.3728942,0.7641759,0.84641623,-0.31557623,0.42894194,0.081205785,0.8725603,0.4817095,,-0.011400051,0.46169984,-0.30416667,0.7438681,0.17757276,-0.6443044,0.47885925,0.5308954,0.69917375,0.46621242,-0.8286242,0.3098838,,1.2239295968385973,0.4506677996082455,0.20889972608000001,2.958934792510123,0.0614864248944482,-0.9968763336326465,-0.41636402457627775,,-0.18000145783242488,0.3194662908080453,0.19253795370000001,-3.7268193655504516,0.22886613710711273,1.3909181983833132,0.8108399442905623,,-0.030892327760299636,-0.02567597495840158,0.113675081,-0.0932194237584371,,4.146993e-05,-1.3113022e-06,-2.3841858e-06,1.0,-2.4542212e-05,-2.3066998e-05,2.4534762e-05,1.0,-2.8312206e-06,2.3070723e-05,2.8312206e-06,1.0,783,2.44,1,4,0.882,False,-0.26017592421626956,0.9866541659438723
2.4515551200602204,11:14:46.055584,NaN,0,,0.10203394,0.00010815263,0.012331873,0.5057022,0.4176209,-0.7548894,0.6855797,0.336621,0.6454973,0.5236848,-0.84396625,-0.1160824,,0.024498276,0.008590072,0.014887452,-0.74763525,-0.3158513,0.5841912,0.65994257,-0.25495836,0.70673335,-0.07427831,0.91391146,0.39905953,,0.07481108,1.302236,0.43177733,0.99612224,0.077373326,-0.04187914,0.027589357,-0.7267086,-0.6863916,-0.08354233,0.6825745,-0.7260253,,-0.07771982,0.25220358,-0.081887305,-0.5430598,-0.3287874,0.772648,0.8318333,-0.33625856,0.44156936,0.114627056,0.8825129,0.45610482,,-0.0114495205,0.46171808,-0.30419105,0.7420767,0.17710084,-0.64649636,0.480935,0.5311622,0.69754446,0.46693012,-0.82855415,0.30898908,,1.226910571728048,0.45078364060135884,0.20878176369,2.9822103762369054,0.09400591183862303,-1.0219235773898647,-0.41636402457627797,,-0.1803258126131423,0.31945084534229684,0.19251591677000002,-3.723883706341668,0.22900277360687818,1.3908067804796167,0.8108399442905623,,-0.030892327760299636,-0.02567597495840158,0.113675081,-0.0932194237584371,,4.146993e-05,-1.3113022e-06,-2.3841858e-06,1.0,-2.4542212e-05,-2.3066998e-05,2.4534762e-05,1.0,-2.8312206e-06,2.3070723e-05,2.8312206e-06,1.0,792,2.468,1,4,0.91,False,-0.26136747858668974,0.9863644847391955
2.486275118077174,11:14:46.086034,NaN,0,,0.10159682,9.149313e-05,0.012513399,0.52555496,0.38734356,-0.7574674,0.689571,0.32751843,0.6459284,0.49828073,-0.8617985,-0.094971895,,0.024516396,0.008588031,0.014905751,-0.7475073,-0.31591594,0.58431983,0.6600921,-0.2549734,0.7065882,-0.07423648,0.91388494,0.39912817,,0.07481108,1.302236,0.43177733,0.99612224,0.077373326,-0.04187914,0.027589357,-0.7267086,-0.6863916,-0.08354233,0.6825745,-0.7260253,,-0.07730259,0.25233573,-0.082068324,-0.56030047,-0.29707628,0.77318114,0.8167674,-0.35332054,0.45613116,0.13767502,0.88707966,0.44060788,,-0.0114701595,0.46172783,-0.30420306,0.74194205,0.17716894,-0.64663213,0.4810511,0.53114045,0.697481,0.46702445,-0.82855356,0.3088481,,1.22918105519307,0.45082225426572997,0.20865472727000003,3.0059053398506568,0.1158677518010935,-1.036238256155248,-0.41587399237787503,,-0.1804570990720041,0.3194431226094226,0.19250425016000003,-3.7236740163981836,0.22900277360687818,1.3908067804796167,0.8108399442905623,,-0.030892327760299636,-0.02567597495840158,0.113675081,-0.0932194237584371,,4.146993e-05,-1.3113022e-06,-2.3841858e-06,1.0,-2.4542212e-05,-2.3066998e-05,2.4534762e-05,1.0,-2.8312206e-06,2.3070723e-05,2.8312206e-06,1.0,805,2.51,1,4,0.952,False,-0.26112916771260597,0.9856402817275036
2.516700505046174,11:14:46.126140,NaN,0,,0.101029545,0.00010445714,0.012838095,0.5503812,0.3472017,-0.7592967,0.6920817,0.31897485,0.6475167,0.4670155,-0.88187635,-0.06473422,,0.02451875,0.008583248,0.014919519,-0.7475538,-0.3161271,0.5841462,0.66001284,-0.25494564,0.7066723,-0.074472785,0.9138197,0.39923352,,0.07481108,1.302236,0.43177733,0.99612224,0.077373326,-0.04187914,0.027589357,-0.7267086,-0.6863916,-0.08354233,0.6825745,-0.7260253,,-0.07676921,0.2525924,-0.082345806,-0.58194774,-0.2553223,0.7721058,0.79642236,-0.37094435,0.47761044,0.16446368,0.8928666,0.4192146,,-0.011474519,0.46173435,-0.3042156,0.7420248,0.17738715,-0.6464774,0.48083106,0.531137,0.6976353,0.46711957,-0.8285091,0.3088236,,1.2323396529386277,0.45106938171770516,0.20845250603,3.036520071599397,0.14128214075746542,-1.055900162620955,-0.41571064831174065,,-0.18048799000350102,0.31945084534229684,0.19249128726000003,-3.723883706341668,0.22913941010664365,1.3908587200562015,0.8105132561582937,,-0.030892327760299636,-0.02567597495840158,0.113675081,-0.0932194237584371,,4.146993e-05,-1.3113022e-06,-2.3841858e-06,1.0,-2.4542212e-05,-2.3066998e-05,2.4534762e-05,1.0,-2.8312206e-06,2.3070723e-05,2.8312206e-06,1.0,814,2.538,1,4,0.98,False,-0.2598184579051428,0.9849160787158118
2.556833724025637,11:14:46.155918,NaN,0,,0.100740165,0.00012907386,0.013063252,0.55825514,0.32963583,-0.7613746,0.6942662,0.31683996,0.64622515,0.45425284,-0.8893552,-0.05197747,,0.024514839,0.008579463,0.01492697,-0.74755716,-0.31611773,0.5841469,0.6600101,-0.25495094,0.7066729,-0.07446307,0.9138214,0.3992313,,0.07481108,1.302236,0.43177733,0.99612224,0.077373326,-0.04187914,0.027589357,-0.7267086,-0.6863916,-0.08354233,0.6825745,-0.7260253,,-0.076502584,0.25277647,-0.08251921,-0.58851665,-0.23715195,0.77292114,0.78909796,-0.37659287,0.4852857,0.17599015,0.89550924,0.4087673,,-0.011471737,0.4617377,-0.30422378,0.7420267,0.1773777,-0.6464778,0.48083672,0.53113353,0.697634,0.46711075,-0.8285133,0.30882552,,1.2341467724311963,0.45132423190255455,0.20831898816000002,3.046585188886654,0.15262297023799698,-1.065147848627758,-0.41571064831174065,,-0.1804802672706268,0.3194585680751711,0.19248221323000003,-3.723883706341668,0.22913941010664365,1.3908587200562015,0.8105132561582937,,-0.030892327760299636,-0.02567597495840158,0.113675081,-0.0932194237584371,,4.146993e-05,-1.3113022e-06,-2.3841858e-06,1.0,-2.4542212e-05,-2.3066998e-05,2.4534762e-05,1.0,-2.8312206e-06,2.3070723e-05,2.8312206e-06,1.0,823,2.566,1,4,1.008,False,-0.2607717014014801,0.9852057599204886
2.5866098280530423,11:14:46.187685,NaN,0,,0.10011854,0.00020137429,0.013618574,0.5761662,0.29156247,-0.76356,0.6971299,0.31237122,0.6453171,0.42666435,-0.9041104,-0.02327916,,0.024512433,0.008573562,0.014934003,-0.7475016,-0.31614622,0.58420265,0.66006076,-0.25478166,0.7066867,-0.074572265,0.9138588,0.3991254,,0.07481108,1.302236,0.43177733,0.99612224,0.077373326,-0.04187914,0.027589357,-0.7267086,-0.6863916,-0.08354233,0.6825745,-0.7260253,,-0.07593644,0.2532342,-0.08293153,-0.6036316,-0.19790646,0.7723095,0.7718388,-0.38774607,0.5039027,0.19973436,0.90027,0.38680765,,-0.011470344,0.46173912,-0.304233,0.7419876,0.17739813,-0.6465171,0.48078474,0.53127843,0.6975595,0.46722633,-0.82841605,0.3089117,,1.238201207190164,0.45206561425848013,0.20799750824000002,3.070070462556921,0.1759878116978873,-1.0842003101598459,-0.41571064831174065,,-0.18047254453775258,0.3194585680751711,0.19247313920000003,-3.723883706341668,0.22927604660640907,1.390747302152505,0.8105132561582937,,-0.030892327760299636,-0.02567597495840158,0.113675081,-0.0932194237584371,,4.146993e-05,-1.3113022e-06,-2.3841858e-06,1.0,-2.4542212e-05,-2.3066998e-05,2.4534762e-05,1.0,-2.8312206e-06,2.3070723e-05,2.8312206e-06,1.0,837,2.611,1,4,1.053,False,-0.26053339052739544,0.9852057599204886
2.6183663040865213,11:14:46.227210,NaN,0,,0.0995044,0.00033906102,0.014277473,0.5900549,0.263527,-0.7631439,0.6970903,0.31057027,0.64622843,0.4073085,-0.9132905,-0.00044852495,,0.024508797,0.008562684,0.014950097,-0.7474448,-0.3161816,0.5842562,0.66011226,-0.25461414,0.7066989,-0.074685365,0.9138932,0.39902538,,0.07481108,1.302236,0.43177733,0.99612224,0.077373326,-0.04187914,0.027589357,-0.7267086,-0.6863916,-0.08354233,0.6825745,-0.7260253,,-0.075386725,0.25380924,-0.08337587,-0.6155846,-0.16914721,0.76970434,0.7581392,-0.39372745,0.5198112,0.21512912,0.9035308,0.3706097,,-0.011469048,0.46174395,-0.30425212,0.7419479,0.17742583,-0.646555,0.48073038,0.53142077,0.69748855,0.46734524,-0.8283188,0.30899256,,1.242634055859969,0.4529151148746448,0.2076397322,3.088313487640075,0.19129109967161662,-1.0970058303344075,-0.4153839601794721,,-0.18047254453775258,0.3194585680751711,0.19245369485000002,-3.723883706341668,0.22941268310617452,1.3906358842488085,0.8105132561582937,,-0.030892327760299636,-0.02567597495840158,0.113675081,-0.0932194237584371,,4.146993e-05,-1.3113022e-06,-2.3841858e-06,1.0,-2.4542212e-05,-2.3066998e-05,2.4534762e-05,1.0,-2.8312206e-06,2.3070723e-05,2.8312206e-06,1.0,846,2.64,1,4,1.082,False,-0.259580147031059,0.9857368421290624
2.657905322033912,11:14:46.256587,NaN,0,,0.099193044,0.00042317808,0.014635906,0.5943669,0.25149608,-0.76385707,0.6973703,0.31185204,0.64530843,0.40050292,-0.91624117,0.009968668,,0.024507262,0.008556992,0.014960229,-0.7474436,-0.3161885,0.58425397,0.66011316,-0.25461608,0.7066974,-0.07468921,0.91389024,0.39903134,,0.07481108,1.302236,0.43177733,0.99612224,0.077373326,-0.04187914,0.027589357,-0.7267086,-0.6863916,-0.08354233,0.6825745,-0.7260253,,-0.07511017,0.25412768,-0.08360952,-0.61921406,-0.15686883,0.7693933,0.75357085,-0.39410886,0.52612656,0.22069187,0.90557736,0.36224952,,-0.011468997,0.46174768,-0.30426326,0.74194735,0.17743312,-0.6465537,0.48072803,0.5314182,0.6974921,0.4673486,-0.8283189,0.30898726,,1.245004934852356,0.4533553106484756,0.20744917757000003,3.093975116114157,0.19702983266176513,-1.1036456720530308,-0.4147305839149351,,-0.1804802672706268,0.3194585680751711,0.19244202824,-3.723883706341668,0.22941268310617452,1.3906358842488085,0.8105132561582937,,-0.030892327760299636,-0.02567597495840158,0.113675081,-0.0932194237584371,,4.146993e-05,-1.3113022e-06,-2.3841858e-06,1.0,-2.4542212e-05,-2.3066998e-05,2.4534762e-05,1.0,-2.8312206e-06,2.3070723e-05,2.8312206e-06,1.0,860,2.685,0,4,1.098,False,-0.2598184579051428,0.9855920015267241
2.6872732441406697,11:14:46.306399,NaN,0,,0.09852843,0.0005503893,0.015668407,0.6043362,0.22583178,-0.7640534,0.69723636,0.3141471,0.6443392,0.3855374,-0.9221233,0.032392383,,0.024505705,0.008546561,0.014980018,-0.7474401,-0.3162092,0.5842472,0.66011584,-0.25462168,0.7066929,-0.07470086,0.9138816,0.39904907,,0.07481108,1.302236,0.43177733,0.99612224,0.077373326,-0.04187914,0.027589357,-0.7267086,-0.6863916,-0.08354233,0.6825745,-0.7260253,,-0.07454647,0.25494725,-0.08434065,-0.627692,-0.13072337,0.7674074,0.7429428,-0.39497292,0.54040015,0.23246223,0.9093447,0.34504133,,-0.011470322,0.46175522,-0.30428436,0.74194556,0.17745496,-0.6465497,0.48072094,0.5314106,0.6975028,0.46735868,-0.82831913,0.3089714,,1.2505961934532945,0.4548689662918236,0.20681788434,3.107185582553682,0.20960039064018565,-1.11659151761774,-0.4152206161133378,,-0.18050343546924946,0.3194585680751711,0.19241999131,-3.723883706341668,0.22941268310617452,1.3906358842488085,0.8105132561582937,,-0.030892327760299636,-0.02567597495840158,0.113675081,-0.0932194237584371,,4.146993e-05,-1.3113022e-06,-2.3841858e-06,1.0,-2.4542212e-05,-2.3066998e-05,2.4534762e-05,1.0,-2.8312206e-06,2.3070723e-05,2.8312206e-06,1.0,869,2.714,0,4,1.098,False,-0.2598780356236645,0.9851091995189294
2.737092545023188,11:14:46.336695,NaN,0,,0.09809673,0.00058595836,0.016528547,0.6105397,0.207543,-0.76430833,0.6966245,0.31837335,0.64292514,0.37677,-0.92496717,0.049799994,,0.024504185,0.008538559,0.01498723,-0.7473299,-0.31615892,0.58441544,0.6602521,-0.25459763,0.70657426,-0.07459901,0.9139056,0.39901304,,0.07481108,1.302236,0.43177733,0.99612224,0.077373326,-0.04187914,0.027589357,-0.7267086,-0.6863916,-0.08354233,0.6825745,-0.7260253,,-0.07419937,0.25557128,-0.08498683,-0.6330283,-0.11218112,0.7659573,0.73630136,-0.3927654,0.5509952,0.23903027,0.9127709,0.33123073,,-0.011469809,0.46175522,-0.3042952,0.74181956,0.17740132,-0.64670897,0.48087385,0.5314383,0.6973763,0.46740136,-0.8283128,0.30892366,,1.2546042918150169,0.45618955361331603,0.20624103529,3.115363490349578,0.21697876162751942,-1.127590487565921,-0.4147305839149351,,-0.18050343546924946,0.3194431226094226,0.19240962099000003,-3.7236740163981836,0.22941268310617452,1.3906358842488085,0.8105132561582937,,-0.030892327760299636,-0.02567597495840158,0.113675081,-0.0932194237584371,,4.146993e-05,-1.3113022e-06,-2.3841858e-06,1.0,-2.4542212e-05,-2.3066998e-05,2.4534762e-05,1.0,-2.8312206e-06,2.3070723e-05,2.8312206e-06,1.0,883,2.759,0,4,1.098,False,-0.2589247921273281,0.9854954411251651
2.7673723299521953,11:14:46.377222,NaN,0,,0.09770802,0.0005584806,0.017316386,0.6157437,0.19276252,-0.76400405,0.69593424,0.321655,0.64203864,0.36950675,-0.92702776,0.06390706,,0.024506502,0.008536413,0.014994383,-0.7474322,-0.31623483,0.5842435,0.66012216,-0.25461283,0.7066902,-0.07472423,0.9138751,0.3990594,,0.07481108,1.302236,0.43177733,0.99612224,0.077373326,-0.04187914,0.027589357,-0.7267086,-0.6863916,-0.08354233,0.6825745,-0.7260253,,-0.07388907,0.2560979,-0.08561842,-0.6375167,-0.09722086,0.7642778,0.7306598,-0.39092183,0.55974674,0.24435383,0.9152749,0.32025456,,-0.0114731705,0.46175876,-0.30430138,0.7419412,0.17748114,-0.6465475,0.48070723,0.5314149,0.69750893,0.4673797,-0.82831067,0.3089622,,1.258118135272789,0.4572166770855879,0.20567196398,3.122283258484568,0.22285413111743338,-1.1359753219910518,-0.41440389578266634,,-0.18052660366787213,0.3194431226094226,0.19240313954000002,-3.723883706341668,0.22941268310617452,1.3906358842488085,0.8105132561582937,,-0.030892327760299636,-0.02567597495840158,0.113675081,-0.0932194237584371,,4.146993e-05,-1.3113022e-06,-2.3841858e-06,1.0,-2.4542212e-05,-2.3066998e-05,2.4534762e-05,1.0,-2.8312206e-06,2.3070723e-05,2.8312206e-06,1.0,892,2.787,0,4,1.098,False,-0.25952056931253775,0.985785122329842
2.80791695904918,11:14:46.407105,NaN,0,,0.09744512,0.00048178434,0.01796168,0.619404,0.18247,-0.76357275,0.6956506,0.32323933,0.6415502,0.3638804,-0.92855847,0.073280424,,0.024513282,0.0085333735,0.01499927,-0.74593705,-0.31552365,0.58653426,0.6619849,-0.25449705,0.7049874,-0.07316896,0.9141532,0.39871073,,0.07481108,1.302236,0.43177733,0.99612224,0.077373326,-0.04187914,0.027589357,-0.7267086,-0.6863916,-0.08354233,0.6825745,-0.7260253,,-0.07369097,0.25648612,-0.08616747,-0.6406204,-0.08680491,0.7629354,0.7264956,-0.39022225,0.5656242,0.24861541,0.9166196,0.3130477,,-0.011480563,0.46175942,-0.30430624,0.7402052,0.17673473,-0.648738,0.48291767,0.53161025,0.69583124,0.46785334,-0.82834494,0.30815238,,1.2606434689226604,0.45808934590037526,0.20516900346000003,3.1273158171281965,0.22763640860922377,-1.1411818084626755,-0.41440389578266634,,-0.18059610826374015,0.3194431226094226,0.19239925067000002,-3.7209480471328846,0.22941268310617452,1.3906358842488085,0.8105132561582937,,-0.030892327760299636,-0.02567597495840158,0.113675081,-0.0932194237584371,,4.146993e-05,-1.3113022e-06,-2.3841858e-06,1.0,-2.4542212e-05,-2.3066998e-05,2.4534762e-05,1.0,-2.8312206e-06,2.3070723e-05,2.8312206e-06,1.0,906,2.833,0,4,1.098,False,-0.25922268071993226,0.9853988807236063
2.8377949770074338,11:14:46.453850,NaN,0,,0.09708829,0.0003682822,0.018781945,0.6246068,0.1687759,-0.7624834,0.6946983,0.32592604,0.6412227,0.3567361,-0.93020797,0.086327255,,0.024534069,0.008538604,0.015011847,-0.7463421,-0.315862,0.5858365,0.66147053,-0.25456652,0.70544493,-0.073688895,0.91401696,0.39892718,,0.07481108,1.302236,0.43177733,0.99612224,0.077373326,-0.04187914,0.027589357,-0.7267086,-0.6863916,-0.08354233,0.6825745,-0.7260253,,-0.07341688,0.2569689,-0.08687799,-0.64512306,-0.07297491,0.7605859,0.7207391,-0.38860327,0.5740406,0.2536756,0.91851085,0.3032928,,-0.011503069,0.46176958,-0.30430883,0.7406905,0.17709063,-0.6480867,0.48224047,0.53150475,0.6963813,0.46778378,-0.82833666,0.30828026,,1.2639179076613316,0.4590546875096533,0.20451956217000003,3.13444527520667,0.23310186859984142,-1.1484156017753118,-0.41375051951812925,,-0.18072739472260196,0.3194431226094226,0.19239665809,-3.721786806906823,0.22941268310617452,1.3906358842488085,0.8105132561582937,,-0.030892327760299636,-0.02567597495840158,0.113675081,-0.0932194237584371,,4.146993e-05,-1.3113022e-06,-2.3841858e-06,1.0,-2.4542212e-05,-2.3066998e-05,2.4534762e-05,1.0,-2.8312206e-06,2.3070723e-05,2.8312206e-06,1.0,915,2.861,0,4,1.098,False,-0.2596993024681016,0.9854471609243856
2.8845431809313595,11:14:46.484933,NaN,0,,0.09679733,0.00031387806,0.01943162,0.62821084,0.15845948,-0.7617359,0.69424766,0.32781702,0.6407465,0.35124236,-0.9313574,0.09592807,,0.02461718,0.008545294,0.015012264,-0.7446499,-0.31513825,0.58837414,0.66356647,-0.25452006,0.7034907,-0.071943805,0.9142797,0.3986435,,0.07477848,1.3022339,0.4317797,0.9961211,0.07740343,-0.0418507,0.027630629,-0.72670543,-0.6863933,-0.08354233,0.6825745,-0.7260253,,-0.07316348,0.2573757,-0.08741993,-0.64821506,-0.062581554,0.7588813,0.71652234,-0.38742504,0.5800841,0.25770703,0.91977465,0.29597583,,-0.011557923,0.46176466,-0.30429626,0.73870033,0.17634237,-0.6505576,0.48474348,0.5316488,0.69453096,0.4683434,-0.82840383,0.30724838,,1.2665590823043165,0.4599119108586922,0.20402437939,3.139477833850299,0.23761087309210094,-1.1536442886599643,-0.4142405517165322,,-0.1808277902499669,0.3194353998765484,0.19239406551000002,-3.7184317678110705,0.22941268310617452,1.3906358842488085,0.8105132561582937,,-0.030892327760299636,-0.02567597495840158,0.113675081,-0.0932194237584371,,8.746982e-06,-8.34465e-07,-1.3113022e-06,1.0,5.5357814e-06,5.211681e-06,-5.5506825e-06,1.0,6.2584877e-07,-5.207956e-06,-5.662441e-07,1.0,938,2.935,0,4,1.098,False,-0.25975888018662197,0.9849643589165913
