AlexandreBanks6/ExpertPlaybackApp/resources/Motions/P_07/PC1/Data_PC1_6.csv
Task Time,PC1 Time,PC2 Time,Gaze Calib,s_T_psm1,Tx,Ty,Tz,R00,R01,R02,R10,R11,R12,R20,R21,R22,s_T_psm3,Tx,Ty,Tz,R00,R01,R02,R10,R11,R12,R20,R21,R22,cart_T_ecm,Tx,Ty,Tz,R00,R01,R02,R10,R11,R12,R20,R21,R22,ecm_T_psm1,Tx,Ty,Tz,R00,R01,R02,R10,R11,R12,R20,R21,R22,ecm_T_psm3,Tx,Ty,Tz,R00,R01,R02,R10,R11,R12,R20,R21,R22,psm1_joints,q1,q2,q3,q4,q5,q6,jaw,psm3_joints,q1,q2,q3,q4,q5,q6,jaw,ecm_joints,q1,q2,q3,q4,ecmi_T_ecm,Tx,Ty,Tz,R00,R01,R02,R10,R11,R12,R20,R21,R22,Sample #,Task Duration (s),Collisions (binary),Collisions (increments),Cumulative Collision Time (s),Clutch Press,MTMR Angle,MTML Angle
""
lci_T_si,,,,,-0.053492907,0.03067575,0.21583572,0.9922148,0.027492212,0.12146585,0.10393389,-0.72013074,-0.6860098,0.06861137,0.6932935,-0.7173818
rci_T_si,,,,,-0.06295502,0.034948092,0.22635663,0.9921467,0.010968016,0.12459805,0.0950465,-0.7136615,-0.6940126,0.08130889,0.7004049,-0.70909935
ecm_T_lc,,,,,-4.4061628e-05,-0.00034663224,-0.01840835,-0.99912,0.030754527,0.028518902,-0.031987965,-0.99852574,-0.043852776,0.027128186,-0.04472645,0.9986309
ecm_T_rc,,,,,-0.0043358393,0.01870579,-0.007592615,-0.99555075,-0.052743673,-0.078081585,0.04863213,-0.9973746,0.053654674,-0.08070653,0.04961868,0.9955021
cart_T_ecmi,,,,,0.07476978,1.3022323,0.43178007,0.9961213,0.07739788,-0.04185594,0.027623024,-0.72670597,-0.686393,-0.08354233,0.6825745,-0.7260253
ecmac_T_ecmrep_psm1,,,,,0.012989772,-0.26409563,-0.29155013,0.99659246,0.08125139,0.014199966,-0.079952136,0.9939098,-0.07583538,-0.020275215,0.07444165,0.99701923
ecmac_T_ecmrep_psm3,,,,,0.016264312,-0.47033283,-0.5183238,0.99978954,0.020288749,-0.0030332562,-0.020227978,0.99961716,0.018877296,0.0034150917,-0.018811967,0.9998172
""
0,11:11:59.605520,11:11:03.468448,0,,0.11831407,-0.0073145553,0.023456633,0.90265137,0.013172101,-0.43017083,0.42379382,0.14689213,0.8937681,0.07496151,-0.9890648,0.12701014,,0.026611634,0.011042535,0.017563462,-0.4915131,0.087304674,0.86648285,0.8534541,-0.14969805,0.49920577,0.17329374,0.9848697,-0.00093203783,,0.074741416,1.3022339,0.43178242,0.9961196,0.077442355,-0.04181394,0.027683977,-0.72670126,-0.6863956,-0.08354233,0.6825745,-0.7260253,,-0.09505487,0.2532581,-0.09373452,-0.89892346,0.08473096,0.429834,0.3165955,-0.55253196,0.7710225,0.3028265,0.82917374,0.4698585,,-0.013915865,0.4650703,-0.303972,0.4490061,-0.23340845,-0.8625045,0.7611305,0.6055483,0.23236074,0.4680532,-0.7608099,0.44954923,,1.1512664032250188,0.5224660471399107,0.19722533834000003,3.6678964914313,0.34528043490726806,-1.0340592755558569,-0.4121170788567866,,-0.20460608476970416,0.33281117321470527,0.19228258457000003,-3.3084879282988253,0.19320401066833282,1.053750800457798,0.8601698522631145,,-0.028595038132362097,-0.02640246825954422,0.113675081,-0.0945277665480292,,-2.8401613e-05,-1.7881393e-06,-1.66893e-06,1.0,4.4424087e-05,4.177168e-05,-4.4427812e-05,1.0,5.096197e-06,-4.176423e-05,-5.096197e-06,1.0,34,0.102,0,0,0.0,False,-0.25880563669028556,1.0341618835108592
0.1276363271754235,11:11:59.634902,11:11:03.468448,0,,0.118338086,-0.0073245466,0.023589075,0.9021723,0.01607345,-0.43107617,0.42426002,0.1476964,0.8934144,0.078028634,-0.98890215,0.12642828,,0.02661401,0.011043191,0.017564595,-0.49151397,0.08721925,0.866491,0.85345435,-0.14974359,0.49919188,0.17329055,0.9848704,-0.000836581,,0.074741416,1.3022339,0.43178242,0.9961196,0.077442355,-0.04181394,0.027683977,-0.72670126,-0.6863956,-0.08354233,0.6825745,-0.7260253,,-0.09509172,0.2533379,-0.09383694,-0.8987357,0.08184042,0.4307857,0.31901625,-0.5519807,0.7704193,0.30083683,0.829831,0.46997634,,-0.013918401,0.4650713,-0.3039721,0.44900748,-0.23332356,-0.8625268,0.7611284,0.6055283,0.23241986,0.4680553,-0.7608519,0.4494759,,1.1514980852112455,0.5228830747151189,0.19712033885000002,3.6653802121094863,0.3435041604103173,-1.0339993813901929,-0.4109736703938467,,-0.2046215302354526,0.33281117321470527,0.19228258457000003,-3.3084879282988253,0.19320401066833282,1.0538324791979385,0.8600065081969803,,-0.028595038132362097,-0.02640246825954422,0.113675081,-0.0945277665480292,,-2.8401613e-05,-1.7881393e-06,-1.66893e-06,1.0,4.4424087e-05,4.177168e-05,-4.4427812e-05,1.0,5.096197e-06,-4.176423e-05,-5.096197e-06,1.0,45,0.135,1,1,0.021,False,-0.2591631030014119,1.0339687627077414
0.1570177550893277,11:11:59.663854,11:11:03.468448,0,,0.11835963,-0.0073275864,0.023756951,0.901723,0.017025117,-0.43197864,0.42491484,0.1491757,0.8928572,0.079641655,-0.98866415,0.12728092,,0.02661343,0.011044338,0.01756519,-0.4915165,0.08722147,0.86648935,0.8534516,-0.14974996,0.49919474,0.17329723,0.98486924,-0.00083473325,,0.074741416,1.3022339,0.43178242,0.9961196,0.077442355,-0.04181394,0.027683977,-0.72670126,-0.6863956,-0.08354233,0.6825745,-0.7260253,,-0.09512943,0.25344667,-0.09396107,-0.89843416,0.080893494,0.43159273,0.32060385,-0.55077446,0.77062356,0.3000487,0.83072484,0.46889982,,-0.013917925,0.46507257,-0.30397168,0.44900897,-0.2333255,-0.86252546,0.7611317,0.6055229,0.23242334,0.4680486,-0.7608556,0.44947663,,1.151791549060466,0.5234700024135599,0.19699848759000002,3.6637026925616096,0.34309425091102097,-1.0349719875213526,-0.4109736703938466,,-0.2046215302354526,0.33281889594757946,0.19228258457000003,-3.3084879282988253,0.19320401066833282,1.0538324791979385,0.8600065081969803,,-0.028595038132362097,-0.02640246825954422,0.113675081,-0.0945277665480292,,-2.8401613e-05,-1.7881393e-06,-1.66893e-06,1.0,4.4424087e-05,4.177168e-05,-4.4427812e-05,1.0,5.096197e-06,-4.176423e-05,-5.096197e-06,1.0,60,0.18,1,1,0.066,False,-0.2602950796533112,1.0343550043139773
0.1859108409844339,11:11:59.706682,11:11:03.550109,0,,0.118413426,-0.007304825,0.024043739,0.90042514,0.021490902,-0.4344797,0.42669544,0.15072,0.89174795,0.084649235,-0.9883429,0.12654209,,0.02661343,0.011044338,0.01756519,-0.4915165,0.0871507,0.86649644,0.8534516,-0.14979082,0.4991825,0.17329723,0.98486924,-0.0007542372,,0.074741416,1.3022339,0.43178242,0.9961196,0.077442355,-0.04181394,0.027683977,-0.72670126,-0.6863956,-0.08354233,0.6825745,-0.7260253,,-0.09521031,0.2536523,-0.09415295,-0.89759827,0.0764423,0.4341358,0.3253401,-0.5496512,0.7694397,0.297441,0.8318895,0.4684962,,-0.013917925,0.46507257,-0.30397168,0.44900897,-0.23325504,-0.86254454,0.7611317,0.60550386,0.23247279,0.4680486,-0.76089233,0.44941446,,1.1523630312931588,0.524574353214574,0.19680793296000001,3.6586701339179806,0.3411813399143048,-1.0351273904125544,-0.4114637025922494,,-0.2046215302354526,0.33281889594757946,0.19228258457000003,-3.3084879282988253,0.19320401066833282,1.053914157938079,0.859843164130846,,-0.028595038132362097,-0.02640246825954422,0.113675081,-0.0945277665480292,,-2.8401613e-05,-1.7881393e-06,-1.66893e-06,1.0,4.4424087e-05,4.177168e-05,-4.4427812e-05,1.0,5.096197e-06,-4.176423e-05,-5.096197e-06,1.0,68,0.204,1,1,0.09,False,-0.2596993024681016,1.03411360331008
0.22871347703039646,11:11:59.734299,11:11:03.550109,0,,0.11845744,-0.0072798207,0.024292916,0.90002024,0.022986226,-0.43524128,0.42700338,0.15365109,0.8911001,0.087358296,-0.9878578,0.12847391,,0.026612237,0.011044025,0.017564595,-0.49151602,0.08715801,0.866496,0.8534515,-0.14978838,0.49918336,0.17329887,0.984869,-0.00076180696,,0.074741416,1.3022339,0.43178242,0.9961196,0.077442355,-0.04181394,0.027683977,-0.72670126,-0.6863956,-0.08354233,0.6825745,-0.7260253,,-0.095277786,0.25383502,-0.094316415,-0.89745224,0.07495319,0.43469697,0.3274002,-0.5472314,0.77029014,0.29561552,0.8336185,0.46657434,,-0.013916657,0.46507207,-0.30397162,0.4490083,-0.23326227,-0.8625429,0.7611328,0.6055044,0.23246795,0.46804753,-0.7608897,0.44942006,,1.1528418407313605,0.5255396948238521,0.19664719300000003,3.6565732344831354,0.33995161141641583,-1.0369833851842065,-0.41130035852611524,,-0.20461380750257838,0.33281889594757946,0.19228258457000003,-3.3084879282988253,0.19320401066833282,1.053914157938079,0.859843164130846,,-0.028595038132362097,-0.02640246825954422,0.113675081,-0.0945277665480292,,-2.8401613e-05,-1.7881393e-06,-1.66893e-06,1.0,4.4424087e-05,4.177168e-05,-4.4427812e-05,1.0,5.096197e-06,-4.176423e-05,-5.096197e-06,1.0,76,0.229,1,1,0.115,False,-0.2598184579051428,1.0339687627077414
0.2564040881115943,11:11:59.765896,11:11:03.550109,0,,0.11851774,-0.007236764,0.024598211,0.8996776,0.025609255,-0.43580317,0.42683333,0.15789866,0.8904388,0.09161623,-0.98712313,0.13112697,,0.026612826,0.011042848,0.017563999,-0.49151355,0.087226585,0.86649054,0.85345423,-0.14974117,0.4991927,0.17329216,0.9848701,-0.0008440614,,0.074741416,1.3022339,0.43178242,0.9961196,0.077442355,-0.04181394,0.027683977,-0.72670126,-0.6863956,-0.08354233,0.6825745,-0.7260253,,-0.09536662,0.25406775,-0.094507836,-0.8975251,0.072338305,0.4349895,0.33013716,-0.54372776,0.7716019,0.29233226,0.8361383,0.46412778,,-0.013917133,0.46507078,-0.30397204,0.4490068,-0.23333079,-0.86252517,0.7611295,0.60552883,0.23241502,0.46805426,-0.76084924,0.4494815,,1.1534673820941728,0.5267367184193569,0.19645663837000002,3.653847265217837,0.3373555179208725,-1.0395221332019864,-0.41179039072451806,,-0.20461380750257838,0.33281117321470527,0.19228258457000003,-3.3084879282988253,0.19320401066833282,1.0538324791979385,0.8600065081969803,,-0.028595038132362097,-0.02640246825954422,0.113675081,-0.0945277665480292,,-2.8401613e-05,-1.7881393e-06,-1.66893e-06,1.0,4.4424087e-05,4.177168e-05,-4.4427812e-05,1.0,5.096197e-06,-4.176423e-05,-5.096197e-06,1.0,88,0.266,1,1,0.152,False,-0.2585077480976805,1.0337756419046236
0.28799118916504085,11:11:59.799928,11:11:03.550109,0,,0.118595265,-0.0071611702,0.02496244,0.8975961,0.030814841,-0.43974036,0.42976475,0.16082212,0.88850343,0.09809908,-0.9865023,0.13111019,,0.02661401,0.011043191,0.017564595,-0.49151397,0.08721925,0.866491,0.85345435,-0.14974359,0.49919188,0.17329055,0.9848704,-0.000836581,,0.074741416,1.3022339,0.43178242,0.9961196,0.077442355,-0.04181394,0.027683977,-0.72670126,-0.6863956,-0.08354233,0.6825745,-0.7260253,,-0.09547777,0.2543631,-0.094719514,-0.89603394,0.067143515,0.43887916,0.33675486,-0.54142016,0.7703638,0.28934294,0.8380668,0.4625199,,-0.013918401,0.4650713,-0.3039721,0.44900748,-0.23332356,-0.8625268,0.7611284,0.6055283,0.23241986,0.4680553,-0.7608519,0.4494759,,1.1542937145117147,0.5283276013914472,0.19625052826000003,3.646717807139363,0.3354426069241563,-1.0408210384551562,-0.41130035852611513,,-0.2046215302354526,0.33281117321470527,0.19228258457000003,-3.3084879282988253,0.19320401066833282,1.0538324791979385,0.8600065081969803,,-0.028595038132362097,-0.02640246825954422,0.113675081,-0.0945277665480292,,-2.8401613e-05,-1.7881393e-06,-1.66893e-06,1.0,4.4424087e-05,4.177168e-05,-4.4427812e-05,1.0,5.096197e-06,-4.176423e-05,-5.096197e-06,1.0,101,0.306,1,1,0.192,False,-0.2594014138754961,1.0336790815030648
0.3220383091829717,11:11:59.847236,11:11:03.550109,0,,0.1187106,-0.007086903,0.025386378,0.89628494,0.041950956,-0.44148985,0.42934602,0.16723228,0.887522,0.11106372,-0.9850246,0.13187626,,0.02661436,0.011043981,0.01756394,-0.4914683,0.087259635,0.8665128,0.853503,-0.149593,0.49915373,0.1731802,0.9848897,-0.0009561479,,0.074741416,1.3022339,0.43178242,0.9961196,0.077442355,-0.04181394,0.027683977,-0.72670126,-0.6863956,-0.08354233,0.6825745,-0.7260253,,-0.095632344,0.25469533,-0.09497303,-0.895988,0.056018483,0.44053087,0.34517616,-0.5362679,0.7702403,0.27939025,0.8421868,0.46115336,,-0.013918656,0.4650713,-0.30397102,0.44897842,-0.23336826,-0.86252975,0.76107544,0.60563916,0.23230445,0.4681693,-0.76074994,0.44952977,,1.1552745015867414,0.5299493752950343,0.19598478881000003,3.6381205194564976,0.3262879614398718,-1.0429941302440822,-0.4122804229229208,,-0.2046215302354526,0.33281889594757946,0.19228388086,-3.3084879282988253,0.19334064716809823,1.0537210612942423,0.8596798200647119,,-0.028595038132362097,-0.02640246825954422,0.113675081,-0.0945277665480292,,-2.8401613e-05,-1.7881393e-06,-1.66893e-06,1.0,4.4424087e-05,4.177168e-05,-4.4427812e-05,1.0,5.096197e-06,-4.176423e-05,-5.096197e-06,1.0,122,0.372,1,1,0.258,False,-0.2594609915940169,1.033823922105403
0.3693385710939765,11:11:59.905530,11:11:03.550109,0,,0.11879999,-0.00699839,0.025976717,0.89456606,0.048976537,-0.44424403,0.43076423,0.17047673,0.8862166,0.11913709,-0.98414373,0.13140538,,0.02661378,0.011045143,0.017564476,-0.4914708,0.08726183,0.8665112,0.85350025,-0.14959937,0.4991566,0.17318681,0.9848885,-0.00095430017,,0.074741416,1.3022339,0.43178242,0.9961196,0.077442355,-0.04181394,0.027683977,-0.72670126,-0.6863956,-0.08354233,0.6825745,-0.7260253,,-0.09577694,0.25515068,-0.09534187,-0.89503497,0.04899236,0.44329688,0.35171425,-0.53364515,0.76910335,0.2742434,0.84428823,0.46039978,,-0.01391818,0.46507257,-0.30397058,0.4489799,-0.2333702,-0.8625285,0.7610787,0.60563374,0.23230791,0.4681626,-0.7607537,0.44953048,,1.1566337025726048,0.5322661951573017,0.19562442019,3.6312007513215083,0.3225987759462049,-1.0428446027491987,-0.41179039072451795,,-0.2046215302354526,0.3328266186804537,0.19228388086,-3.3084879282988253,0.19334064716809823,1.0537210612942423,0.8596798200647119,,-0.028595038132362097,-0.02640246825954422,0.113675081,-0.0945277665480292,,-2.8401613e-05,-1.7881393e-06,-1.66893e-06,1.0,4.4424087e-05,4.177168e-05,-4.4427812e-05,1.0,5.096197e-06,-4.176423e-05,-5.096197e-06,1.0,130,0.398,1,1,0.284,False,-0.2598780356236645,1.0335342409007262
0.42763630603440106,11:11:59.935148,11:11:03.550109,0,,0.118855104,-0.0069528148,0.026246428,0.8930483,0.05234231,-0.4469061,0.43279678,0.17178342,0.88497305,0.12309259,-0.9837432,0.13075733,,0.026615553,0.011044264,0.017564476,-0.49146876,0.087252304,0.86651325,0.8535031,-0.14959541,0.4991529,0.17317864,0.98489,-0.0009486675,,0.074741416,1.3022339,0.43178242,0.9961196,0.077442355,-0.04181394,0.027683977,-0.72670126,-0.6863956,-0.08354233,0.6825745,-0.7260253,,-0.09585713,0.2553618,-0.09550579,-0.8938747,0.045624506,0.44598928,0.3559462,-0.53258675,0.7678891,0.27256256,0.8451448,0.45982596,,-0.013919924,0.46507177,-0.30397105,0.4489791,-0.23336104,-0.86253136,0.7610744,0.6056386,0.2323093,0.46817037,-0.7607526,0.4495242,,1.1572051848052973,0.5334323278213096,0.19546756910000002,3.626587572564848,0.3217789569476122,-1.0429928827284256,-0.41113701445998097,,-0.20462925296832685,0.33281889594757946,0.19228388086,-3.3084879282988253,0.19334064716809823,1.0537210612942423,0.8596798200647119,,-0.028595038132362097,-0.02640246825954422,0.113675081,-0.0945277665480292,,-2.8401613e-05,-1.7881393e-06,-1.66893e-06,1.0,4.4424087e-05,4.177168e-05,-4.4427812e-05,1.0,5.096197e-06,-4.176423e-05,-5.096197e-06,1.0,143,0.437,1,1,0.323,False,-0.2588652144088064,1.03411360331008
0.4572276691906154,11:11:59.968073,11:11:03.550109,0,,0.11896627,-0.0069229454,0.0265235,0.8915946,0.061515212,-0.4486367,0.4328962,0.17495778,0.8843024,0.1328905,-0.9826523,0.12936169,,0.026615553,0.011044264,0.017564476,-0.49146876,0.087252304,0.86651325,0.8535031,-0.14959541,0.4991529,0.17317864,0.98489,-0.0009486675,,0.074741416,1.3022339,0.43178242,0.9961196,0.077442355,-0.04181394,0.027683977,-0.72670126,-0.6863956,-0.08354233,0.6825745,-0.7260253,,-0.09599405,0.25556317,-0.09568104,-0.8933729,0.036439966,0.4478359,0.3626438,-0.5299899,0.76655084,0.2652816,0.84722066,0.4602639,,-0.013919924,0.46507177,-0.30397105,0.4489791,-0.23336104,-0.86253136,0.7610744,0.6056386,0.2323093,0.46817037,-0.7607526,0.4495242,,1.1576531033120026,0.5345444013551979,0.19528479221000003,3.6196678044298594,0.31522040495887116,-1.0431172989404152,-0.4093402297325037,,-0.20462925296832685,0.33281889594757946,0.19228388086,-3.3084879282988253,0.19334064716809823,1.0537210612942423,0.8596798200647119,,-0.028595038132362097,-0.02640246825954422,0.113675081,-0.0945277665480292,,-2.8401613e-05,-1.7881393e-06,-1.66893e-06,1.0,4.4424087e-05,4.177168e-05,-4.4427812e-05,1.0,5.096197e-06,-4.176423e-05,-5.096197e-06,1.0,151,0.463,1,1,0.349,False,-0.2588652144088064,1.0340653231093004
0.4901585860643536,11:11:59.985916,11:11:03.550109,0,,0.11903089,-0.0069194734,0.026702166,0.8903953,0.066845775,-0.450253,0.43325457,0.17889288,0.8833389,0.13959453,-0.98159516,0.13032413,,0.026615553,0.011044264,0.017564476,-0.49146876,0.087252304,0.86651325,0.8535031,-0.14959541,0.4991529,0.17317864,0.98489,-0.0009486675,,0.074741416,1.3022339,0.43178242,0.9961196,0.077442355,-0.04181394,0.027683977,-0.72670126,-0.6863956,-0.08354233,0.6825745,-0.7260253,,-0.096075565,0.2556817,-0.095805235,-0.8928213,0.031094484,0.4493364,0.36745283,-0.5266466,0.7665649,0.26047745,0.84951544,0.45877558,,-0.013919924,0.46507177,-0.30397105,0.4489791,-0.23336104,-0.86253136,0.7610744,0.6056386,0.2323093,0.46817037,-0.7607526,0.4495242,,1.1579388444283487,0.5351931109166328,0.19515516321,3.6146352457862307,0.31084803696637703,-1.0453511165721094,-0.4127704551213237,,-0.20462925296832685,0.33281889594757946,0.19228388086,-3.3084879282988253,0.19334064716809823,1.0537210612942423,0.8596798200647119,,-0.028595038132362097,-0.02640246825954422,0.113675081,-0.0945277665480292,,-2.8401613e-05,-1.7881393e-06,-1.66893e-06,1.0,4.4424087e-05,4.177168e-05,-4.4427812e-05,1.0,5.096197e-06,-4.176423e-05,-5.096197e-06,1.0,164,0.503,1,1,0.389,False,-0.2590439475643693,1.0337756419046236
0.5079972890671343,11:12:00.029677,11:11:03.550109,0,,0.11908775,-0.006912537,0.027061626,0.8888097,0.07461841,-0.45216075,0.4332081,0.18504938,0.8820926,0.14949244,-0.97989225,0.13214841,,0.026800223,0.011133365,0.017576039,-0.49163613,0.08725911,0.86641765,0.8534118,-0.14956209,0.4993189,0.17315331,0.98489445,-0.0009378493,,0.074790664,1.302235,0.43178713,0.99612135,0.07739643,-0.041857313,0.02762103,-0.72670615,-0.6863929,-0.08354233,0.6825745,-0.7260253,,-0.096207865,0.2559217,-0.09605208,-0.8921721,0.023303952,0.45109412,0.3741582,-0.5213498,0.766942,0.2530506,0.8530248,0.45641437,,-0.014145773,0.46511102,-0.3038915,0.4492046,-0.23337387,-0.8624105,0.7609963,0.6056703,0.2324826,0.46808103,-0.7607235,0.4496665,,1.1583867629350537,0.5365059755052509,0.19491016440000003,3.6077154776512415,0.30428948497763586,-1.048661003649581,-0.4122804229229208,,-0.20463697570120107,0.33281889594757946,0.19228388086,-3.3084879282988253,0.19334064716809823,1.0537210612942423,0.8596798200647119,,-0.028595038132362097,-0.02640246825954422,0.113675081,-0.0945277665480292,,2.0295382e-05,4.4107437e-06,-7.867813e-06,1.0,-1.4603138e-06,-1.359731e-06,1.4491379e-06,1.0,-1.7881393e-07,1.3671815e-06,1.7881393e-07,1.0,172,0.529,1,1,0.415,False,-0.2594014138754961,1.0339204825069621
0.5517448130995035,11:12:00.056188,11:11:03.550109,0,,0.11919748,-0.0069168136,0.02731748,0.88738555,0.08361842,-0.45338148,0.4329155,0.18701923,0.8818208,0.15852752,-0.97879094,0.1297585,,0.026795968,0.011130504,0.017577648,-0.49179864,0.08719614,0.8663318,0.8533374,-0.14948812,0.49946803,0.17305797,0.9849113,-0.00088968873,,0.074790664,1.302235,0.43178713,0.99612135,0.07739643,-0.041857313,0.02762103,-0.72670615,-0.6863929,-0.08354233,0.6825745,-0.7260253,,-0.096341856,0.25608364,-0.09623468,-0.89163214,0.014271734,0.45253557,0.38005352,-0.51963025,0.7652083,0.24607202,0.854272,0.457895,,-0.014141769,0.46511075,-0.30389506,0.44938058,-0.2333151,-0.8623347,0.7608962,0.60573995,0.2326286,0.4680748,-0.76068604,0.44973633,,1.1586647813185258,0.5374558716487805,0.19472090606000003,3.60163446929019,0.2980042059884256,-1.0476197170865738,-0.41113701445998085,,-0.20461380750257838,0.33281889594757946,0.19227999199,-3.30869761824231,0.19334064716809823,1.0537210612942423,0.8596798200647119,,-0.028595038132362097,-0.02640246825954422,0.113675081,-0.0945277665480292,,2.0295382e-05,4.4107437e-06,-7.867813e-06,1.0,-1.4603138e-06,-1.359731e-06,1.4491379e-06,1.0,-1.7881393e-07,1.3671815e-06,1.7881393e-07,1.0,185,0.569,1,1,0.455,False,-0.25952056931253775,1.0334376804991676
0.5782942471560091,11:12:00.097269,11:11:03.550109,0,,0.11932566,-0.006912537,0.027682915,0.88586974,0.089284174,-0.45526144,0.43328172,0.19155249,0.8806671,0.16583611,-0.9774128,0.13100532,,0.026764534,0.01111684,0.017570317,-0.49173942,0.0873466,0.8663503,0.85338736,-0.14931175,0.49943554,0.17298022,0.9849247,-0.0011180341,,0.074790664,1.302235,0.43178713,0.99612135,0.07739643,-0.041857313,0.02762103,-0.72670615,-0.6863929,-0.08354233,0.6825745,-0.7260253,,-0.09650465,0.25632417,-0.09649088,-0.8908239,0.008571332,0.45426792,0.38528904,-0.5156463,0.7652851,0.24080107,0.85675865,0.4560476,,-0.014109421,0.46509996,-0.30390316,0.4493332,-0.23346801,-0.86231804,0.76086617,0.60585076,0.23243822,0.46816912,-0.76055086,0.44986677,,1.1590663634279856,0.5389309136277574,0.19446812951000003,3.5961825307595925,0.2939051109954624,-1.0498313343052392,-0.4114637025922493,,-0.20442073918072276,0.33281889594757946,0.19227091796,-3.30869761824231,0.19347728366786368,1.0536913221306863,0.8591897878663086,,-0.028595038132362097,-0.02640246825954422,0.113675081,-0.0945277665480292,,2.0295382e-05,4.4107437e-06,-7.867813e-06,1.0,-1.4603138e-06,-1.359731e-06,1.4491379e-06,1.0,-1.7881393e-07,1.3671815e-06,1.7881393e-07,1.0,193,0.593,1,1,0.48,False,-0.2591631030014119,1.0336790815030648
0.619380746036768,11:12:00.119292,11:11:03.550109,0,,0.119391784,-0.0069082156,0.027872458,0.8845525,0.09133114,-0.45741183,0.4349591,0.19265229,0.8795997,0.1684563,-0.9770075,0.13068578,,0.026736818,0.011109047,0.017558038,-0.49172923,0.08737352,0.8663533,0.8533859,-0.14933792,0.49943024,0.1730164,0.9849183,-0.0011295378,,0.074790664,1.302235,0.43178713,0.99612135,0.07739643,-0.041857313,0.02762103,-0.72670615,-0.6863929,-0.08354233,0.6825745,-0.7260253,,-0.09658871,0.25645053,-0.09662239,-0.8897396,0.006512341,0.45642206,0.38835457,-0.514668,0.7643936,0.23988381,0.85736483,0.45539138,,-0.014080083,0.4650891,-0.3039033,0.4493177,-0.23349333,-0.86231923,0.7608903,0.6058252,0.2324259,0.46814483,-0.7605634,0.4498708,,1.1592439862840926,0.5397881369767963,0.19434368567000002,3.59282749166384,0.293768474495697,-1.0503733463226674,-0.41113701445998085,,-0.20424311632461561,0.33281889594757946,0.19226962167000003,-3.30869761824231,0.19347728366786368,1.0538546796109673,0.8591897878663091,,-0.028595038132362097,-0.02640246825954422,0.113675081,-0.0945277665480292,,2.0295382e-05,4.4107437e-06,-7.867813e-06,1.0,-1.4603138e-06,-1.359731e-06,1.4491379e-06,1.0,-1.7881393e-07,1.3671815e-06,1.7881393e-07,1.0,206,0.634,0,1,0.502,False,-0.2587460589717643,1.0338722023061826
0.641376824118197,11:12:00.162998,11:11:03.550109,0,,0.11962438,-0.006866716,0.028361812,0.8833997,0.10259331,-0.45725194,0.43256503,0.19680205,0.8798615,0.18025605,-0.97506076,0.12947667,,0.026716232,0.011101894,0.017548501,-0.4920465,0.08726247,0.86618435,0.85323906,-0.14919576,0.49972337,0.17283809,0.9849497,-0.0010445416,,0.074790664,1.302235,0.43178713,0.99612135,0.07739643,-0.041857313,0.02762103,-0.72670615,-0.6863929,-0.08354233,0.6825745,-0.7260253,,-0.096866794,0.2567959,-0.096936464,-0.8897699,-0.0048185764,0.45638388,0.3945231,-0.51088595,0.7637716,0.22947982,0.859635,0.45647198,,-0.014058196,0.46507978,-0.30390412,0.44966006,-0.23339008,-0.8621687,0.76069945,0.6059573,0.23270589,0.46812624,-0.7604898,0.45001453,,1.1596532911264266,0.5419196112500823,0.19402998349000003,3.5867464833027887,0.2850237385107088,-1.04961354221706,-0.4108103263277122,,-0.20410410713287958,0.33281117321470527,0.19226832538000002,-3.309116998129279,0.19347728366786368,1.053936358351108,0.8593531319324432,,-0.028595038132362097,-0.02640246825954422,0.113675081,-0.0945277665480292,,2.0295382e-05,4.4107437e-06,-7.867813e-06,1.0,-1.4603138e-06,-1.359731e-06,1.4491379e-06,1.0,-1.7881393e-07,1.3671815e-06,1.7881393e-07,1.0,214,0.659,0,1,0.502,False,-0.2590439475643693,1.0335342409007262
0.685111879138276,11:12:00.182163,11:11:03.550109,0,,0.119685486,-0.0068501085,0.02846165,0.88356096,0.10604198,-0.45615232,0.43073803,0.1982753,0.880427,0.18380596,-0.9743931,0.12951198,,0.026714407,0.011097424,0.017545104,-0.49203777,0.087065525,0.86620915,0.8532473,-0.14929181,0.49968082,0.1728229,0.98495257,-0.0008312464,,0.074790664,1.302235,0.43178713,0.99612135,0.07739643,-0.041857313,0.02762103,-0.72670615,-0.6863929,-0.08354233,0.6825745,-0.7260253,,-0.09693699,0.2568717,-0.09699396,-0.890302,-0.00829202,0.45529503,0.39553055,-0.50952977,0.7641564,0.22564998,0.8604131,0.45691514,,-0.014055818,0.46507448,-0.30390528,0.4496536,-0.23319466,-0.862225,0.76069283,0.6059182,0.23282947,0.46814322,-0.76058096,0.4498428,,1.159730518455169,0.5423443615581647,0.19396905786000002,3.5859077235288512,0.28147118951680733,-1.0494120751455918,-0.41130035852611513,,-0.20408093893425688,0.3327880050160826,0.19226832538000002,-3.309116998129279,0.19347728366786368,1.0541813945715297,0.859189787866309,,-0.028595038132362097,-0.02640246825954422,0.113675081,-0.0945277665480292,,2.0295382e-05,4.4107437e-06,-7.867813e-06,1.0,-1.4603138e-06,-1.359731e-06,1.4491379e-06,1.0,-1.7881393e-07,1.3671815e-06,1.7881393e-07,1.0,231,0.712,0,1,0.502,False,-0.2602355019347904,1.0328100378890346
0.7042743081692606,11:12:00.239456,11:11:03.550109,0,,0.119932,-0.0068607256,0.029066876,0.8821255,0.11403665,-0.45700124,0.42904413,0.20582417,0.87952113,0.19435957,-0.9719218,0.13263601,,0.026719995,0.011092983,0.017545521,-0.49202907,0.08696391,0.8662242,0.8532586,-0.14931431,0.49965477,0.1727916,0.9849582,-0.00073575974,,0.074790664,1.302235,0.43178713,0.99612135,0.07739643,-0.041857313,0.02762103,-0.72670615,-0.6863929,-0.08354233,0.6825745,-0.7260253,,-0.097240955,0.2572551,-0.0974273,-0.88991946,-0.016368344,0.45582384,0.40140113,-0.50270104,0.7656166,0.21661125,0.8643053,0.45393375,,-0.014061354,0.46507114,-0.30390835,0.44964966,-0.23309478,-0.862254,0.7606766,0.60591924,0.23287961,0.4681733,-0.7606107,0.44976115,,1.1601321005646286,0.5448388042765392,0.19354517103000002,3.5800364051112843,0.27450272802876985,-1.052959459692958,-0.41113701445998074,,-0.20410410713287958,0.3327571140845857,0.19226702909,-3.309116998129279,0.19347728366786368,1.0542630733116702,0.8590264438001747,,-0.028595038132362097,-0.02640246825954422,0.113675081,-0.0945277665480292,,2.0295382e-05,4.4107437e-06,-7.867813e-06,1.0,-1.4603138e-06,-1.359731e-06,1.4491379e-06,1.0,-1.7881393e-07,1.3671815e-06,1.7881393e-07,1.0,239,0.736,0,1,0.502,False,-0.2598184579051428,1.0331962794952703
0.7615129679907113,11:12:00.269458,11:11:03.550109,0,,0.1200417,-0.0068603605,0.029332116,0.88107324,0.123457655,-0.45658302,0.4274323,0.20548898,0.8803839,0.2025129,-0.97084105,0.12828112,,0.026721798,0.0110947415,0.01754725,-0.4920325,0.0869515,0.8662236,0.8532559,-0.14932552,0.49965596,0.17279506,0.9849576,-0.0007189214,,0.074790664,1.302235,0.43178713,0.99612135,0.07739643,-0.041857313,0.02762103,-0.72670615,-0.6863929,-0.08354233,0.6825745,-0.7260253,,-0.09737574,0.25742677,-0.09761371,-0.8896852,-0.025853785,0.45584187,0.40570852,-0.5027282,0.7633249,0.20942974,0.8640578,0.457759,,-0.014063415,0.46507338,-0.30390802,0.4496525,-0.23308228,-0.86225593,0.7606778,0.60591274,0.23289275,0.46816868,-0.76061976,0.4497507,,1.1604178416809747,0.5458195913515657,0.19335591269000002,3.575632916298109,0.26808081253979416,-1.049029678061475,-0.41113701445998074,,-0.20411955259862802,0.3327648368174599,0.19226702909,-3.309116998129279,0.19347728366786368,1.0542630733116702,0.8590264438001747,,-0.028595038132362097,-0.02640246825954422,0.113675081,-0.0945277665480292,,2.0295382e-05,4.4107437e-06,-7.867813e-06,1.0,-1.4603138e-06,-1.359731e-06,1.4491379e-06,1.0,-1.7881393e-07,1.3671815e-06,1.7881393e-07,1.0,256,0.79,0,1,0.502,False,-0.259282258438454,1.0336308013022852
0.791560732992366,11:12:00.314810,11:11:03.550109,0,,0.12026264,-0.0068481266,0.029810324,0.87942314,0.14352188,-0.45389032,0.41997024,0.21503022,0.8816955,0.22414275,-0.96600384,0.12882766,,0.02671764,0.01109501,0.017546117,-0.49203366,0.08697567,0.8662205,0.853253,-0.14932469,0.49966127,0.17280641,0.98495555,-0.0007395148,,0.074790664,1.302235,0.43178713,0.99612135,0.07739643,-0.041857313,0.02762103,-0.72670615,-0.6863929,-0.08354233,0.6825745,-0.7260253,,-0.09764162,0.25774363,-0.09794014,-0.89024967,-0.046138924,0.45312992,0.41471037,-0.4934814,0.7645204,0.18833704,0.8685317,0.45845595,,-0.014059135,0.4650732,-0.30390745,0.449652,-0.2331059,-0.8622498,0.7606842,0.60590893,0.2328817,0.46815878,-0.7606155,0.44976813,,1.1610588285095356,0.5473332469949137,0.19300850697000002,3.566616248728275,0.24799524707427442,-1.0500488178680407,-0.4109736703938467,,-0.20409638440000535,0.33277255955033413,0.19226702909,-3.309116998129279,0.19347728366786368,1.0542630733116702,0.8590264438001747,,-0.028595038132362097,-0.02640246825954422,0.113675081,-0.0945277665480292,,2.0295382e-05,4.4107437e-06,-7.867813e-06,1.0,-1.4603138e-06,-1.359731e-06,1.4491379e-06,1.0,-1.7881393e-07,1.3671815e-06,1.7881393e-07,1.0,264,0.814,0,1,0.502,False,-0.25856732581620134,1.033099719093711
0.8369121621362865,11:12:00.342088,11:11:03.550109,0,,0.120321214,-0.0068432987,0.02997528,0.8779248,0.15008979,-0.45466584,0.41877583,0.21963632,0.8811281,0.23210946,-0.96396726,0.12997025,,0.026716419,0.011092059,0.017543852,-0.49202782,0.08698588,0.86622274,0.8532584,-0.14930707,0.4996572,0.17279628,0.98495734,-0.0007582307,,0.074790664,1.302235,0.43178713,0.99612135,0.07739643,-0.041857313,0.02762103,-0.72670615,-0.6863929,-0.08354233,0.6825745,-0.7260253,,-0.09771577,0.2578543,-0.098053806,-0.88954693,-0.05279961,0.4537824,0.41922653,-0.48905128,0.7649039,0.18153624,0.87065554,0.45716906,,-0.01405755,0.46506968,-0.3039082,0.44964767,-0.23311646,-0.8622492,0.7606798,0.6059209,0.2328651,0.4681701,-0.7606028,0.44977787,,1.1613754605573787,0.5478275018988641,0.19288924829,3.5617933800281305,0.2415733315852987,-1.052081584266819,-0.4108103263277124,,-0.20408093893425688,0.3327571140845857,0.19226702909,-3.309116998129279,0.19347728366786368,1.0542630733116702,0.8590264438001747,,-0.028595038132362097,-0.02640246825954422,0.113675081,-0.0945277665480292,,2.0295382e-05,4.4107437e-06,-7.867813e-06,1.0,-1.4603138e-06,-1.359731e-06,1.4491379e-06,1.0,-1.7881393e-07,1.3671815e-06,1.7881393e-07,1.0,281,0.868,0,1,0.502,False,-0.2589843698458485,1.0334859606999471
0.8641616601962596,11:12:00.400219,11:11:03.550109,0,,0.120411225,-0.006825,0.030452445,0.8732784,0.17548308,-0.45452228,0.41443306,0.22297612,0.8823417,0.25618362,-0.95889896,0.12199426,,0.026718915,0.011083804,0.017542183,-0.48932612,0.08842669,0.8676062,0.85462797,-0.14952338,0.497246,0.1736972,0.98479617,-0.002406299,,0.074790664,1.302235,0.43178713,0.99612135,0.07739643,-0.041857313,0.02762103,-0.72670615,-0.6863929,-0.08354233,0.6825745,-0.7260253,,-0.09785116,0.25818196,-0.09838617,-0.8873166,-0.078508064,0.4544291,0.43233567,-0.48453546,0.76046777,0.16048415,0.87124157,0.46387818,,-0.014059673,0.46506268,-0.303913,0.44682404,-0.23451354,-0.8633375,0.7619363,0.6054849,0.22987193,0.46882975,-0.7605205,0.4492296,,1.162726938810368,0.5489241299670039,0.19253795370000001,3.547534463871183,0.2212144931202481,-1.045771837873763,-0.41113701445998074,,-0.20410410713287958,0.33274939135171144,0.1922657328,-3.3059716489770112,0.1941604661666909,1.0537059837931881,0.8590264438001747,,-0.028595038132362097,-0.02640246825954422,0.113675081,-0.0945277665480292,,2.0295382e-05,4.4107437e-06,-7.867813e-06,1.0,-1.4603138e-06,-1.359731e-06,1.4491379e-06,1.0,-1.7881393e-07,1.3671815e-06,1.7881393e-07,1.0,289,0.893,0,1,0.502,False,-0.259580147031059,1.0338722023061826
0.9223348030354828,11:12:00.420694,11:11:03.550109,0,,0.120433085,-0.006815575,0.030608848,0.87221813,0.18294576,-0.45361468,0.41104454,0.22849181,0.88251567,0.26509976,-0.95620203,0.12409589,,0.02672162,0.011086114,0.017544866,-0.4897762,0.08820028,0.8673752,0.8544526,-0.14918363,0.49764925,0.17329097,0.984868,-0.0022963583,,0.074790664,1.302235,0.43178713,0.99612135,0.07739643,-0.041857313,0.02762103,-0.72670615,-0.6863929,-0.08354233,0.6825745,-0.7260253,,-0.09788787,0.25829226,-0.098493434,-0.887176,-0.08610873,0.4533256,0.4358346,-0.4790366,0.7619529,0.15154876,0.87356126,0.4625189,,-0.014062771,0.46506584,-0.30391282,0.44733256,-0.23430482,-0.8631308,0.7615761,0.6057936,0.23025183,0.46893004,-0.76033896,0.44943216,,1.1632520846458152,0.5491635346861049,0.19242128760000002,3.543760044888462,0.21233312063549445,-1.0478410505095197,-0.40983026193090666,,-0.20411955259862802,0.3327648368174599,0.1922657328,-3.3066007188074646,0.19429710266645633,1.0535945658894919,0.8590264438001747,,-0.028595038132362097,-0.02640246825954422,0.113675081,-0.0945277665480292,,2.0295382e-05,4.4107437e-06,-7.867813e-06,1.0,-1.4603138e-06,-1.359731e-06,1.4491379e-06,1.0,-1.7881393e-07,1.3671815e-06,1.7881393e-07,1.0,302,0.933,0,1,0.502,False,-0.2587460589717643,1.0334859606999471
0.9427907490171492,11:12:00.461222,11:11:03.550109,0,,0.12048216,-0.006789975,0.030891761,0.8672521,0.2057509,-0.45336533,0.4050251,0.2379905,0.8827883,0.2895311,-0.9492245,0.123063445,,0.026720166,0.011087634,0.017543852,-0.4897783,0.088138975,0.86738026,0.85444975,-0.14922825,0.4976408,0.17329916,0.98486674,-0.0022216141,,0.074790664,1.302235,0.43178713,0.99612135,0.07739643,-0.041857313,0.02762103,-0.72670615,-0.6863929,-0.08354233,0.6825745,-0.7260253,,-0.09796363,0.2584977,-0.09868097,-0.8846885,-0.109329045,0.45318145,0.44795507,-0.46853694,0.76145214,0.12908341,0.8766529,0.46348375,,-0.014061199,0.46506628,-0.30391112,0.4473334,-0.23424348,-0.863147,0.7615804,0.60576993,0.23029993,0.46892226,-0.76037675,0.44937637,,1.164379603645452,0.5493874939394574,0.19220869604000002,3.530339888505452,0.18992473467396223,-1.048354624535636,-0.40983026193090666,,-0.2041118298657538,0.33277255955033413,0.19226702909,-3.3066007188074646,0.19429710266645633,1.0536762446296324,0.8591897878663088,,-0.028595038132362097,-0.02640246825954422,0.113675081,-0.0945277665480292,,2.0295382e-05,4.4107437e-06,-7.867813e-06,1.0,-1.4603138e-06,-1.359731e-06,1.4491379e-06,1.0,-1.7881393e-07,1.3671815e-06,1.7881393e-07,1.0,310,0.958,0,1,0.502,False,-0.259580147031059,1.0338722023061826
0.9833018120843917,11:12:00.480669,11:11:03.550109,0,,0.12050597,-0.0067749545,0.031018093,0.86428267,0.2188473,-0.45290306,0.40150526,0.2422244,0.8832445,0.30299985,-0.94521594,0.121482044,,0.026719555,0.011086173,0.01754266,-0.48977533,0.08814407,0.8673814,0.8544525,-0.14921945,0.49763873,0.17329413,0.98486763,-0.0022309422,,0.074790664,1.302235,0.43178713,0.99612135,0.07739643,-0.041857313,0.02762103,-0.72670615,-0.6863929,-0.08354233,0.6825745,-0.7260253,,-0.097999305,0.25859198,-0.09876214,-0.88308966,-0.12268322,0.45288134,0.4544998,-0.46341228,0.7607095,0.11654449,0.8776092,0.4649941,,-0.014060406,0.46506453,-0.30391148,0.44733122,-0.23424876,-0.8631467,0.7615782,0.6057759,0.23029162,0.46892795,-0.7603704,0.44938123,,1.1649433631452704,0.5493874939394574,0.19211406687000002,3.5230007404834933,0.1773541766955417,-1.0474972325117298,-0.4103202941293096,,-0.20410410713287958,0.3327648368174599,0.19226702909,-3.3066007188074646,0.19429710266645633,1.0536762446296324,0.8591897878663088,,-0.028595038132362097,-0.02640246825954422,0.113675081,-0.0945277665480292,,2.0295382e-05,4.4107437e-06,-7.867813e-06,1.0,-1.4603138e-06,-1.359731e-06,1.4491379e-06,1.0,-1.7881393e-07,1.3671815e-06,1.7881393e-07,1.0,327,1.011,0,1,0.502,False,-0.2596993024681016,1.0333894002983879
1.0027831110637635,11:12:00.533535,11:11:03.550109,0,,0.12060581,-0.0067288876,0.03136109,0.85573083,0.25541317,-0.4499874,0.3875161,0.25992066,0.8844617,0.34286422,-0.93123853,0.12344542,,0.02672159,0.011083432,0.017543137,-0.48977083,0.08813232,0.86738515,0.8544581,-0.14920914,0.4976322,0.17327926,0.98487025,-0.0022271574,,0.074790664,1.302235,0.43178713,0.99612135,0.07739643,-0.041857313,0.02762103,-0.72670615,-0.6863929,-0.08354233,0.6825745,-0.7260253,,-0.09813107,0.25885004,-0.0989761,-0.8786496,-0.1601455,0.44980916,0.47120783,-0.44288313,0.76276976,0.07705874,0.88216096,0.46460092,,-0.014062454,0.46506277,-0.30391362,0.44732893,-0.23423766,-0.86315095,0.76157063,0.6057862,0.23028955,0.46894243,-0.7603656,0.4493742,,1.1663797914598761,0.5492407620148472,0.19186517919,3.503918955626402,0.13772959176356397,-1.0501445412199284,-0.4096669178647723,,-0.2041118298657538,0.33274939135171144,0.1922657328,-3.3066007188074646,0.19429710266645633,1.0536762446296324,0.8591897878663088,,-0.028595038132362097,-0.02640246825954422,0.113675081,-0.0945277665480292,,2.0295382e-05,4.4107437e-06,-7.867813e-06,1.0,-1.4603138e-06,-1.359731e-06,1.4491379e-06,1.0,-1.7881393e-07,1.3671815e-06,1.7881393e-07,1.0,336,1.04,0,1,0.502,False,-0.2602950796533112,1.034017042908521
1.0556475291959941,11:12:00.561563,11:11:03.550109,0,,0.12063998,-0.006711781,0.03157772,0.8489043,0.27918655,-0.44879413,0.37979636,0.26831064,0.8853045,0.36758137,-0.9219892,0.12173605,,0.0267222,0.011084937,0.01754433,-0.4897738,0.0881272,0.8673841,0.85445535,-0.14921793,0.49763423,0.17328432,0.98486936,-0.0022177994,,0.074790664,1.302235,0.43178713,0.99612135,0.07739643,-0.041857313,0.02762103,-0.72670615,-0.6863929,-0.08354233,0.6825745,-0.7260253,,-0.09818573,0.25900567,-0.099121645,-0.87436485,-0.18456629,0.44879997,0.48235625,-0.4317398,0.76218975,0.05309028,0.88291335,0.4665248,,-0.014063247,0.46506456,-0.30391324,0.4473311,-0.23423237,-0.86315125,0.76157284,0.60578024,0.23029785,0.46893674,-0.760372,0.44936934,,1.1673451330691542,0.5490476936929916,0.19170443923000002,3.490708489186877,0.11368156780484645,-1.0489127067009847,-0.41179039072451795,,-0.20411955259862802,0.3327571140845857,0.1922657328,-3.3066007188074646,0.19429710266645633,1.0536762446296324,0.8591897878663088,,-0.028595038132362097,-0.02640246825954422,0.113675081,-0.0945277665480292,,2.0295382e-05,4.4107437e-06,-7.867813e-06,1.0,-1.4603138e-06,-1.359731e-06,1.4491379e-06,1.0,-1.7881393e-07,1.3671815e-06,1.7881393e-07,1.0,349,1.081,0,1,0.502,False,-0.26011634649774784,1.0335825211015057
1.0836433530785143,11:12:00.606290,11:11:03.550109,0,,0.12063055,-0.006694168,0.03194262,0.8361185,0.3174151,-0.44738495,0.36879382,0.27847645,0.88681555,0.40607485,-0.9064759,0.115778595,,0.026722483,0.011085726,0.017546475,-0.4897767,0.08798042,0.8673973,0.8544527,-0.149308,0.49761188,0.17328948,0.9848688,-0.0020475686,,0.074790664,1.302235,0.43178713,0.99612135,0.07739643,-0.041857313,0.02762103,-0.72670615,-0.6863929,-0.08354233,0.6825745,-0.7260253,,-0.09821131,0.25926304,-0.09937981,-0.8655318,-0.22395003,0.4479968,0.5005897,-0.41586116,0.7592558,0.016269108,0.88142264,0.47204813,,-0.014063867,0.46506664,-0.3039141,0.44733325,-0.23408608,-0.8631898,0.7615751,0.6057366,0.2304051,0.46893108,-0.76045173,0.44924027,,1.1691368070959742,0.5485997751862864,0.19143221833000001,3.4682716652340324,0.07665307636841208,-1.0433854343217044,-0.4101569500631753,,-0.20412727533150224,0.3327648368174599,0.19226443651000003,-3.3066007188074646,0.19429710266645633,1.0538396021099135,0.8588630997340404,,-0.028595038132362097,-0.02640246825954422,0.113675081,-0.0945277665480292,,2.0295382e-05,4.4107437e-06,-7.867813e-06,1.0,-1.4603138e-06,-1.359731e-06,1.4491379e-06,1.0,-1.7881393e-07,1.3671815e-06,1.7881393e-07,1.0,362,1.121,0,1,0.502,False,-0.2596993024681016,1.0337273617038443
1.1284053071867675,11:12:00.650805,11:11:03.550109,0,,0.120608434,-0.0066462755,0.032217935,0.824095,0.34841022,-0.44662917,0.35780615,0.29107788,0.88727015,0.43913788,-0.89100164,0.1152125,,0.026724257,0.011082329,0.017545104,-0.48972356,0.08801444,0.86742383,0.8545096,-0.1491383,0.49756512,0.17315903,0.98489153,-0.0021727085,,0.074790664,1.302235,0.43178713,0.99612135,0.07739643,-0.041857313,0.02762103,-0.72670615,-0.6863929,-0.08354233,0.6825745,-0.7260253,,-0.09821515,0.2594837,-0.099552624,-0.8569325,-0.25609297,0.44730648,0.5151653,-0.39781696,0.75917476,-0.016473211,0.8809983,0.4728325,,-0.014065375,0.46506312,-0.30391553,0.44729978,-0.23412524,-0.86319655,0.76151216,0.6058636,0.23027925,0.4690652,-0.76033854,0.44929188,,1.1707122446023162,0.5480437384193423,0.19125592289,3.4493995703204257,0.043587043425175505,-1.0424778197320097,-0.40852350940183246,,-0.20412727533150224,0.33274939135171144,0.19226443651000003,-3.3066007188074646,0.19443373916622175,1.053728184206217,0.8588630997340404,,-0.028595038132362097,-0.02640246825954422,0.113675081,-0.0945277665480292,,2.0295382e-05,4.4107437e-06,-7.867813e-06,1.0,-1.4603138e-06,-1.359731e-06,1.4491379e-06,1.0,-1.7881393e-07,1.3671815e-06,1.7881393e-07,1.0,371,1.15,0,1,0.502,False,-0.2598184579051428,1.0339204825069621
1.1729155671782792,11:12:00.681802,11:11:03.550109,0,,0.12054404,-0.006619476,0.032391354,0.8156169,0.36733934,-0.4470244,0.35100126,0.30006483,0.8869944,0.45996428,-0.88035387,0.115801364,,0.026726015,0.011078812,0.017543375,-0.48971608,0.08800776,0.8674288,0.8545179,-0.14911914,0.49755657,0.17313907,0.984895,-0.0021781921,,0.074790664,1.302235,0.43178713,0.99612135,0.07739643,-0.041857313,0.02762103,-0.72670615,-0.6863929,-0.08354233,0.6825745,-0.7260253,,-0.0981674,0.25962287,-0.09966792,-0.85061383,-0.27581847,0.44763857,0.5244808,-0.3850388,0.7593846,-0.037094083,0.8807209,0.47218084,,-0.014066802,0.46505928,-0.3039168,0.4472953,-0.23411942,-0.8632004,0.7615024,0.60587984,0.23026888,0.46908534,-0.76032734,0.4492897,,1.171916990930695,0.5474954243852724,0.19114184937,3.436818173711354,0.022545022461297675,-1.042798712952841,-0.41260711105518955,,-0.20412727533150224,0.33272622315308875,0.19226443651000003,-3.3066007188074646,0.19443373916622175,1.053728184206217,0.8588630997340404,,-0.028595038132362097,-0.02640246825954422,0.113675081,-0.0945277665480292,,2.0295382e-05,4.4107437e-06,-7.867813e-06,1.0,-1.4603138e-06,-1.359731e-06,1.4491379e-06,1.0,-1.7881393e-07,1.3671815e-06,1.7881393e-07,1.0,384,1.191,0,1,0.502,False,-0.25963972474957986,1.0331962794952703
1.2039166782051325,11:12:00.713647,11:11:03.550109,0,,0.120527536,-0.006559968,0.032563314,0.8041296,0.39468384,-0.44452235,0.34127071,0.30577272,0.88884044,0.4867338,-0.8664454,0.11118686,,0.026725717,0.011080109,0.01754415,-0.4898827,0.08792503,0.86734307,0.8544413,-0.14905882,0.49770617,0.17304593,0.98491156,-0.002105534,,0.074790664,1.302235,0.43178713,0.99612135,0.07739643,-0.041857313,0.02762103,-0.72670615,-0.6863929,-0.08354233,0.6825745,-0.7260253,,-0.098166645,0.25978282,-0.099756256,-0.84192055,-0.3042855,0.44562334,0.53575593,-0.37296265,0.75753844,-0.064307086,0.8765325,0.47702768,,-0.014066646,0.46506077,-0.3039164,0.447475,-0.23404089,-0.8631286,0.7614028,0.60594255,0.23043306,0.4690756,-0.7603016,0.44934353,,1.1730599553960803,0.5468698830224602,0.19106147939,3.421091427950015,-0.005055550491321297,-1.0366280444342764,-0.4096669178647724,,-0.20412727533150224,0.332733945885963,0.19226443651000003,-3.3068104087509487,0.19443373916622175,1.053728184206217,0.8588630997340404,,-0.028595038132362097,-0.02640246825954422,0.113675081,-0.0945277665480292,,2.0295382e-05,4.4107437e-06,-7.867813e-06,1.0,-1.4603138e-06,-1.359731e-06,1.4491379e-06,1.0,-1.7881393e-07,1.3671815e-06,1.7881393e-07,1.0,397,1.232,0,1,0.502,False,-0.2590439475643693,1.0336308013022852
1.235732597997412,11:12:00.756268,11:11:03.550109,0,,0.12049372,-0.0065035596,0.03276421,0.79020643,0.4229187,-0.44352403,0.32807124,0.3193598,0.88903236,0.5176322,-0.8480266,0.11361274,,0.026731953,0.011082448,0.017549217,-0.4898878,0.087883346,0.8673444,0.8544389,-0.14907959,0.49770406,0.17304325,0.98491216,-0.0020586848,,0.074790664,1.302235,0.43178713,0.99612135,0.07739643,-0.041857313,0.02762103,-0.72670615,-0.6863929,-0.08354233,0.6825745,-0.7260253,,-0.09815151,0.2599607,-0.09986944,-0.8312564,-0.33395037,0.44439846,0.5473447,-0.3520728,0.7592487,-0.09709075,0.87436944,0.4754487,,-0.014073607,0.4650653,-0.3039175,0.4474805,-0.23399949,-0.863137,0.76139987,0.6059339,0.23046558,0.46907514,-0.7603212,0.44931078,,1.174388265450447,0.5459817687419244,0.19096555393000003,3.403687162640799,-0.0385314929338542,-1.0370197509363037,-0.41113701445998097,,-0.2041736117287476,0.33274166861883725,0.19226314022000002,-3.3068104087509487,0.19443373916622175,1.053728184206217,0.8588630997340404,,-0.028595038132362097,-0.02640246825954422,0.113675081,-0.0945277665480292,,2.0295382e-05,4.4107437e-06,-7.867813e-06,1.0,-1.4603138e-06,-1.359731e-06,1.4491379e-06,1.0,-1.7881393e-07,1.3671815e-06,1.7881393e-07,1.0,410,1.273,0,1,0.502,False,-0.25922268071993226,1.0338722023061826
1.278384868055582,11:12:00.795989,11:11:03.550109,0,,0.120439485,-0.0064463466,0.032963857,0.77429396,0.4515921,-0.44332075,0.31540194,0.33194155,0.88900864,0.5486259,-0.82817835,0.11458737,,0.026735216,0.011082016,0.017550051,-0.49005023,0.087852314,0.86725575,0.85436785,-0.1489707,0.49785846,0.17293367,0.98493135,-0.0020551085,,0.074790664,1.302235,0.43178713,0.99612135,0.07739643,-0.041857313,0.02762103,-0.72670615,-0.6863929,-0.08354233,0.6825745,-0.7260253,,-0.09811592,0.26013944,-0.09998284,-0.81861347,-0.3642056,0.44410166,0.55949634,-0.3309973,0.7598715,-0.129753,0.8705143,0.47473052,,-0.014076938,0.46506518,-0.303918,0.4476585,-0.2339731,-0.86305183,0.7612916,0.60602516,0.23058301,0.46908092,-0.7602566,0.44941407,,1.1757474664363106,0.5450087043997721,0.19087870250000002,3.384605377783708,-0.07200743537638712,-1.0358595613756605,-0.4114637025922495,,-0.20418905719449604,0.332733945885963,0.19226314022000002,-3.307020098694434,0.19443373916622175,1.0536465054660766,0.8590264438001746,,-0.028595038132362097,-0.02640246825954422,0.113675081,-0.0945277665480292,,2.0295382e-05,4.4107437e-06,-7.867813e-06,1.0,-1.4603138e-06,-1.359731e-06,1.4491379e-06,1.0,-1.7881393e-07,1.3671815e-06,1.7881393e-07,1.0,419,1.302,0,1,0.502,False,-0.2590439475643693,1.0342584439124183
1.3181010750122368,11:12:00.827840,11:11:03.550109,0,,0.120395705,-0.006378323,0.033169135,0.75582045,0.4843544,-0.44060886,0.30044383,0.34135228,0.8906245,0.5817808,-0.8055305,0.11247972,,0.026734903,0.011080675,0.017548978,-0.49021134,0.08777245,0.8671728,0.85429674,-0.14889517,0.4980032,0.17282876,0.9849499,-0.0019936562,,0.074790664,1.302235,0.43178713,0.99612135,0.07739643,-0.041857313,0.02762103,-0.72670615,-0.6863929,-0.08354233,0.6825745,-0.7260253,,-0.09809111,0.2603294,-0.1000923,-0.8036665,-0.39885035,0.44163176,0.57152945,-0.3106218,0.7595184,-0.16575372,0.862805,0.47759107,,-0.014076465,0.46506357,-0.30391836,0.44783446,-0.23389788,-0.8629809,0.76118654,0.60609925,0.23073539,0.46908355,-0.7602207,0.44947204,,1.1770680537578029,0.5439352445302549,0.19080999913000002,3.3640557633222246,-0.10903592681282148,-1.0296788590752555,-0.4081968212695638,,-0.20418133446162182,0.33272622315308875,0.19226314022000002,-3.3072297886379185,0.19443373916622175,1.0536465054660766,0.8590264438001746,,-0.028595038132362097,-0.02640246825954422,0.113675081,-0.0945277665480292,,2.0295382e-05,4.4107437e-06,-7.867813e-06,1.0,-1.4603138e-06,-1.359731e-06,1.4491379e-06,1.0,-1.7881393e-07,1.3671815e-06,1.7881393e-07,1.0,432,1.343,0,1,0.502,False,-0.2584481703791588,1.034017042908521
1.3498697062022984,11:12:00.866199,11:11:03.550109,0,,0.12034755,-0.0063079,0.033332363,0.73885524,0.51104605,-0.439232,0.28686887,0.35125995,0.89124787,0.60975325,-0.7845052,0.11292708,,0.026734374,0.01107686,0.017545342,-0.48863554,0.08868287,0.86796916,0.85506594,-0.14913547,0.49660915,0.17348567,0.9848319,-0.0029568076,,0.074790664,1.302235,0.43178713,0.99612135,0.07739643,-0.041857313,0.02762103,-0.72670615,-0.6863929,-0.08354233,0.6825745,-0.7260253,,-0.098057844,0.26049328,-0.10016949,-0.78969824,-0.427289,0.4402281,0.5810462,-0.29063904,0.7602067,-0.19688047,0.8561268,0.47779182,,-0.014075348,0.46505842,-0.30391878,0.44616807,-0.23477696,-0.86360514,0.76199514,0.60574204,0.22899777,0.46935853,-0.7602344,0.44916165,,1.1781955727574396,0.5429390119894799,0.19077759188,3.3462321181260397,-0.14128214075746542,-1.0262542810422575,-0.4108103263277125,,-0.20418133446162182,0.33271850042021456,0.19226443651000003,-3.3053425791465574,0.19470701216575265,1.053341990918543,0.8591897878663088,,-0.028595038132362097,-0.02640246825954422,0.113675081,-0.0945277665480292,,2.0295382e-05,4.4107437e-06,-7.867813e-06,1.0,-1.4603138e-06,-1.359731e-06,1.4491379e-06,1.0,-1.7881393e-07,1.3671815e-06,1.7881393e-07,1.0,445,1.384,0,1,0.502,False,-0.25922268071993226,1.0334376804991676
1.3882930921390653,11:12:00.912933,11:11:03.550109,0,,0.12020299,-0.006213352,0.033550397,0.7105455,0.5498567,-0.43907005,0.26680088,0.36686414,0.8911946,0.65110844,-0.7503787,0.11397141,,0.026738651,0.011071093,0.017543077,-0.48785433,0.08902128,0.86837393,0.85559404,-0.14847866,0.49589592,0.1730802,0.9849007,-0.0037301779,,0.074790664,1.302235,0.43178713,0.99612135,0.07739643,-0.041857313,0.02762103,-0.72670615,-0.6863929,-0.08354233,0.6825745,-0.7260253,,-0.09793355,0.26071683,-0.10027887,-0.7658347,-0.4689646,0.43996522,0.5952888,-0.25831905,0.7608564,-0.24316333,0.8445966,0.47699907,,-0.014079152,0.46505234,-0.3039211,0.44545072,-0.23512997,-0.8638794,0.7619627,0.60619485,0.22790483,0.47009197,-0.75976425,0.4491902,,1.1800026922500082,0.5410623879010433,0.19074907350000003,3.3172949059251753,-0.18992473467396223,-1.02122129314593,-0.410156950063175,,-0.20418905719449604,0.33271850042021456,0.1922657328,-3.3047135093161035,0.1955268311643453,1.0528368409766455,0.8588630997340404,,-0.028595038132362097,-0.02640246825954422,0.113675081,-0.0945277665480292,,2.0295382e-05,4.4107437e-06,-7.867813e-06,1.0,-1.4603138e-06,-1.359731e-06,1.4491379e-06,1.0,-1.7881393e-07,1.3671815e-06,1.7881393e-07,1.0,454,1.412,0,1,0.502,False,-0.2586269035347226,1.0336790815030648
1.4350487471092492,11:12:00.949693,11:11:03.550109,0,,0.12000449,-0.006164886,0.033665463,0.6894104,0.5767831,-0.43821728,0.25473472,0.37327743,0.8920617,0.67810285,-0.7266258,0.110414684,,0.026738368,0.011072405,0.017543793,-0.4880211,0.08865476,0.86831766,0.8555178,-0.14858013,0.49599713,0.17298728,0.9849184,-0.0033355057,,0.074790664,1.302235,0.43178713,0.99612135,0.07739643,-0.041857313,0.02762103,-0.72670615,-0.6863929,-0.08354233,0.6825745,-0.7260253,,-0.097746365,0.2608402,-0.1003476,-0.74759835,-0.49795538,0.43947375,0.60549337,-0.2391196,0.75907815,-0.27290025,0.83358395,0.4802741,,-0.014078997,0.4650538,-0.30392066,0.44563055,-0.2347691,-0.86388475,0.7618635,0.6061832,0.22826721,0.47008234,-0.75988513,0.44899577,,1.1814700114961108,0.5393479412029656,0.19073999947000003,3.295487151802785,-0.22189767561907528,-1.012547075330907,-0.4096669178647723,,-0.20418905719449604,0.33272622315308875,0.1922657328,-3.3049231992595884,0.1955268311643453,1.053163555937208,0.8585364116017716,,-0.028595038132362097,-0.02640246825954422,0.113675081,-0.0945277665480292,,2.0295382e-05,4.4107437e-06,-7.867813e-06,1.0,-1.4603138e-06,-1.359731e-06,1.4491379e-06,1.0,-1.7881393e-07,1.3671815e-06,1.7881393e-07,1.0,467,1.453,0,1,0.502,False,-0.25785239319394915,1.0319409942750042
1.4717561781872064,11:12:00.985611,11:11:03.550109,0,,0.119862415,-0.0061227605,0.03377162,0.670222,0.5989858,-0.43819895,0.24422055,0.37955272,0.89235425,0.7008271,-0.70509267,0.10809985,,0.026736021,0.011068486,0.01754105,-0.48529458,0.09008501,0.8696975,0.85679245,-0.14934075,0.49356255,0.17434388,0.98467356,-0.004709929,,0.074790664,1.302235,0.43178713,0.99612135,0.07739643,-0.041857313,0.02762103,-0.72670615,-0.6863929,-0.08354233,0.6825745,-0.7260253,,-0.097614564,0.26094994,-0.10040936,-0.73086244,-0.52203286,0.4396837,0.6138932,-0.22125477,0.7577476,-0.29828703,0.82372814,0.48217925,,-0.01407622,0.46504945,-0.30392197,0.44271463,-0.23613636,-0.8650106,0.76338476,0.6053201,0.22545795,0.47036952,-0.7601494,0.448247,,1.1825589168313766,0.5379732947513536,0.19073740689000002,3.27577629711524,-0.24990815807099057,-1.0055520806604097,-0.40983026193090666,,-0.20419677992737026,0.33272622315308875,0.1922657328,-3.3015681601638365,0.19580010416387617,1.052940720129815,0.8585364116017716,,-0.028595038132362097,-0.02640246825954422,0.113675081,-0.0945277665480292,,2.0295382e-05,4.4107437e-06,-7.867813e-06,1.0,-1.4603138e-06,-1.359731e-06,1.4491379e-06,1.0,-1.7881393e-07,1.3671815e-06,1.7881393e-07,1.0,480,1.494,1,2,0.502,False,-0.25826943722359585,1.0310236704601945
1.5076527141500264,11:12:01.019266,11:11:03.550109,0,,0.11966946,-0.0060803145,0.033904865,0.6464375,0.62592584,-0.43627417,0.22574839,0.3892951,0.8930212,0.7288046,-0.67577064,0.11035323,,0.026741356,0.0110611245,0.017538846,-0.48579833,0.089214854,0.86950594,0.85666454,-0.14893985,0.4939056,0.17356786,0.9848135,-0.004072517,,0.074790664,1.302235,0.43178713,0.99612135,0.07739643,-0.041857313,0.02762103,-0.72670615,-0.6863929,-0.08354233,0.6825745,-0.7260253,,-0.09743474,0.2610807,-0.10049508,-0.71018517,-0.5515228,0.437561,0.62014127,-0.19586441,0.75964594,-0.33325943,0.8108389,0.48112205,,-0.0140810665,0.4650422,-0.3039254,0.4433315,-0.23530242,-0.8649219,0.7627938,0.6057969,0.22617655,0.47074708,-0.76002824,0.44805607,,1.1839026723514916,0.5360657797314201,0.19074388834000003,3.2550169927102712,-0.2874831955064867,-0.9994974579262029,-0.40852350940183224,,-0.20419677992737026,0.33269533222159187,0.1922657328,-3.302406919937774,0.19621001366317248,1.0533415750799908,0.8564129387420263,,-0.028595038132362097,-0.02640246825954422,0.113675081,-0.0945277665480292,,2.0295382e-05,4.4107437e-06,-7.867813e-06,1.0,-1.4603138e-06,-1.359731e-06,1.4491379e-06,1.0,-1.7881393e-07,1.3671815e-06,1.7881393e-07,1.0,489,1.523,1,2,0.531,False,-0.25820985950507547,1.0309753902594152
1.541376514127478,11:12:01.054225,11:11:03.550109,0,,0.11948676,-0.006060928,0.033963338,0.63036704,0.64214337,-0.43622145,0.21677612,0.39396608,0.89319587,0.74541634,-0.6576036,0.109141916,,0.026745193,0.011054762,0.017534316,-0.48578337,0.089201555,0.86951566,0.85668105,-0.14890161,0.49388838,0.1735279,0.9848205,-0.004083365,,0.074790664,1.302235,0.43178713,0.99612135,0.07739643,-0.041857313,0.02762103,-0.72670615,-0.6863929,-0.08354233,0.6825745,-0.7260253,,-0.097258255,0.2611439,-0.10054024,-0.6959375,-0.5693439,0.4376283,0.62543565,-0.18112123,0.75896335,-0.3528474,0.8018994,0.48213702,,-0.014084093,0.46503416,-0.3039267,0.44332257,-0.23529078,-0.8649297,0.7627741,0.60582936,0.22615583,0.47078744,-0.76000595,0.44805154,,1.184883459426518,0.5346447968825628,0.19075425866,3.239499936892417,-0.3093450354689572,-0.9935140106551572,-0.40852350940183246,,-0.20419677992737026,0.33264899582434654,0.19226702909,-3.302406919937774,0.19621001366317248,1.0533415750799908,0.8564129387420263,,-0.028595038132362097,-0.02640246825954422,0.113675081,-0.0945277665480292,,2.0295382e-05,4.4107437e-06,-7.867813e-06,1.0,-1.4603138e-06,-1.359731e-06,1.4491379e-06,1.0,-1.7881393e-07,1.3671815e-06,1.7881393e-07,1.0,502,1.564,1,2,0.572,False,-0.2583885926606384,1.030009786243826
1.5763274480123073,11:12:01.088485,11:11:03.550109,0,,0.119299024,-0.0060542077,0.0339991,0.616982,0.656675,-0.43371767,0.20860527,0.39493847,0.8947108,0.758826,-0.6424963,0.10668406,,0.026750706,0.011042319,0.017529607,-0.4857584,0.08925034,0.8695246,0.8567087,-0.14879754,0.4938718,0.17346129,0.9848318,-0.0041819215,,0.074790664,1.302235,0.43178713,0.99612135,0.07739643,-0.041857313,0.02762103,-0.72670615,-0.6863929,-0.08354233,0.6825745,-0.7260253,,-0.09707478,0.26118276,-0.10057755,-0.68404055,-0.5852498,0.43539777,0.6290427,-0.17107767,0.7583124,-0.36931533,0.7926002,0.48517117,,-0.014088678,0.46502167,-0.30393222,0.44330764,-0.23534201,-0.8649234,0.76274127,0.605902,0.22607183,0.47085464,-0.75993216,0.44810605,,1.1857947419056765,0.5332547049652024,0.19076592527000003,3.226918540283345,-0.3280642359368225,-0.9852741295008356,-0.4093402297325037,,-0.20419677992737026,0.33257176849560427,0.1922657328,-3.302406919937774,0.19621001366317248,1.0532598963398503,0.8565762828081604,,-0.028595038132362097,-0.02640246825954422,0.113675081,-0.0945277665480292,,2.0295382e-05,4.4107437e-06,-7.867813e-06,1.0,-1.4603138e-06,-1.359731e-06,1.4491379e-06,1.0,-1.7881393e-07,1.3671815e-06,1.7881393e-07,1.0,511,1.593,1,2,0.601,False,-0.2580907040680329,1.0302029070469436
1.6105709231924266,11:12:01.117491,11:11:03.550109,0,,0.119106725,-0.0060344264,0.034046665,0.60206974,0.6724315,-0.43052045,0.19892114,0.39587343,0.8965013,0.77326727,-0.62539595,0.10458252,,0.026755102,0.011034198,0.017525733,-0.4859054,0.088936776,0.8694746,0.8566549,-0.14880693,0.49396232,0.17331523,0.98485875,-0.0038820207,,0.074790664,1.302235,0.43178713,0.99612135,0.07739643,-0.041857313,0.02762103,-0.72670615,-0.6863929,-0.08354233,0.6825745,-0.7260253,,-0.09688768,0.2612394,-0.100615196,-0.6707471,-0.6025678,0.43244702,0.63229704,-0.15979533,0.7580672,-0.38768384,0.78190637,0.48818406,,-0.014092332,0.46501285,-0.3039352,0.4434757,-0.23503603,-0.86492044,0.7626162,0.60595286,0.22635725,0.47089893,-0.7599863,0.44796765,,1.1867600835149545,0.5318259993834709,0.19078796220000002,3.213288693956851,-0.34896962040093493,-0.9760683492887772,-0.4090135416002352,,-0.20419677992737026,0.3325177093654847,0.1922657328,-3.3026166098812584,0.19621001366317248,1.053504932560272,0.8564129387420262,,-0.028595038132362097,-0.02640246825954422,0.113675081,-0.0945277665480292,,2.0295382e-05,4.4107437e-06,-7.867813e-06,1.0,-1.4603138e-06,-1.359731e-06,1.4491379e-06,1.0,-1.7881393e-07,1.3671815e-06,1.7881393e-07,1.0,524,1.633,1,2,0.641,False,-0.25880563669028556,1.030106346645385
1.6396001151297241,11:12:01.166530,11:11:03.550109,0,,0.11882363,-0.005984552,0.03411515,0.5764581,0.6961224,-0.42791316,0.1797725,0.40280613,0.897457,0.7971058,-0.5942733,0.107057154,,0.026577286,0.010972574,0.017505348,-0.48566484,0.08873965,0.869629,0.85684377,-0.1486218,0.4936905,0.17305577,0.9849044,-0.0038556457,,0.074811846,1.302234,0.43178138,0.996122,0.07737923,-0.041873567,0.027597444,-0.726708,-0.68639195,-0.08354233,0.6825745,-0.7260253,,-0.09663046,0.26134026,-0.100658335,-0.6478581,-0.6290322,0.42964917,0.6353851,-0.13510218,0.7602849,-0.42019713,0.7655494,0.48720473,,-0.013931225,0.46497896,-0.3039882,0.4432956,-0.23485227,-0.86506265,0.76251924,0.6061373,0.22619021,0.47122544,-0.75989604,0.44777736,,1.1883509664870449,0.5294551203910839,0.19086055444000002,3.1912712498909763,-0.38627138483690016,-0.9666426977957788,-0.4121170788567865,,-0.20421994812599292,0.3324790957011136,0.1922657328,-3.3026166098812584,0.19648328666270337,1.053527132973301,0.8559229065436234,,-0.028595038132362097,-0.02640246825954422,0.113675081,-0.0945277665480292,,4.184991e-05,2.861023e-06,-4.053116e-06,1.0,-1.8645078e-05,-1.752749e-05,1.8641353e-05,1.0,-2.115965e-06,1.7534941e-05,2.2053719e-06,1.0,533,1.662,1,2,0.67,False,-0.2589247921273281,1.030444308050841
1.6886091951746494,11:12:01.185654,11:11:03.550109,0,,0.11868459,-0.005957976,0.034135297,0.5653327,0.70637107,-0.4259565,0.17040217,0.40524647,0.89818615,0.80707,-0.58035785,0.108731836,,0.026595242,0.010969222,0.017507672,-0.48335835,0.08993328,0.8707907,0.8580762,-0.14836308,0.4916234,0.17340648,0.98483515,-0.0054570735,,0.074811846,1.302234,0.43178138,0.996122,0.07737923,-0.041873567,0.027597444,-0.726708,-0.68639195,-0.08354233,0.6825745,-0.7260253,,-0.09649361,0.26138082,-0.10066683,-0.6378961,-0.64053744,0.4275516,0.63567954,-0.1245378,0.76184106,-0.43474138,0.7577613,0.48661873,,-0.013949282,0.46497625,-0.3039905,0.4409475,-0.23602478,-0.8659432,0.76333004,0.60611844,0.22348985,0.47211498,-0.7595477,0.4474312,,1.1890151215142282,0.5283430468571956,0.19090851717,3.182254582321142,-0.4032143108078147,-0.9621382541134467,-0.407706789071161,,-0.20432806638623208,0.3324790957011136,0.19226832538000002,-3.3001003305594443,0.19743974216106144,1.052747207647426,0.8559229065436234,,-0.028595038132362097,-0.02640246825954422,0.113675081,-0.0945277665480292,,4.184991e-05,2.861023e-06,-4.053116e-06,1.0,-1.8645078e-05,-1.752749e-05,1.8641353e-05,1.0,-2.115965e-06,1.7534941e-05,2.2053719e-06,1.0,555,1.732,1,2,0.74,False,-0.25791197091247,1.0305891486531793
1.7077700120862573,11:12:01.258076,11:11:03.550109,0,,0.11815658,-0.005831048,0.034170374,0.5147587,0.73956406,-0.43366864,0.15058118,0.4199782,0.89495456,0.8440075,-0.5259879,0.10482293,,0.026664332,0.010984391,0.017536223,-0.48337543,0.08965881,0.87080956,0.8580876,-0.14839858,0.49159285,0.17330253,0.9848548,-0.0052028596,,0.074811846,1.302234,0.43178138,0.996122,0.07737923,-0.041873567,0.027597444,-0.726708,-0.68639195,-0.08354233,0.6825745,-0.7260253,,-0.09596953,0.2615265,-0.10065105,-0.59144515,-0.6785911,0.43555343,0.6483357,-0.07904055,0.75724065,-0.4794304,0.73025113,0.48670298,,-0.014022076,0.464999,-0.30399197,0.44098002,-0.23575602,-0.8659998,0.76326406,0.6061417,0.22365206,0.47219127,-0.7596126,0.44724047,,1.1909458047327843,0.5246515805433163,0.19111333099000002,3.1319289958848557,-0.4555460902179784,-0.9448672851814321,-0.41032029412930937,,-0.20476053942718864,0.3324559275024909,0.19227091796,-3.3001003305594443,0.19743974216106144,1.052583850167145,0.8559229065436234,,-0.028595038132362097,-0.02640246825954422,0.113675081,-0.0945277665480292,,4.184991e-05,2.861023e-06,-4.053116e-06,1.0,-1.8645078e-05,-1.752749e-05,1.8641353e-05,1.0,-2.115965e-06,1.7534941e-05,2.2053719e-06,1.0,568,1.773,1,2,0.781,False,-0.2594014138754961,1.0302511872477231
1.7801930231507868,11:12:01.300184,11:11:03.550109,0,,0.11782725,-0.005751565,0.03414993,0.48714575,0.7584848,-0.4328854,0.14074737,0.42101136,0.896069,0.86190426,-0.49744368,0.09833911,,0.02668488,0.010989785,0.017546237,-0.4835476,0.089449264,0.8707355,0.8580159,-0.14837238,0.491726,0.17317757,0.9848778,-0.00500378,,0.074811846,1.302234,0.43178138,0.996122,0.07737923,-0.041873567,0.027597444,-0.726708,-0.68639195,-0.08354233,0.6825745,-0.7260253,,-0.09563856,0.26158932,-0.100609794,-0.5658484,-0.70016205,0.43541783,0.65446204,-0.06020686,0.75369394,-0.50149274,0.711441,0.49229744,,-0.01404396,0.46500745,-0.30399278,0.44116995,-0.23555271,-0.86595845,0.7631453,0.60620123,0.22389576,0.47220582,-0.7596282,0.44719872,,1.1922586693214026,0.5220567422975768,0.19130258933000002,3.0969107753229403,-0.48888539616074594,-0.9216835749463927,-0.41015695006317543,,-0.20489182588605045,0.3324559275024909,0.19227091796,-3.3003100205029288,0.19743974216106144,1.052583850167145,0.8559229065436234,,-0.028595038132362097,-0.02640246825954422,0.113675081,-0.0945277665480292,,4.184991e-05,2.861023e-06,-4.053116e-06,1.0,-1.8645078e-05,-1.752749e-05,1.8641353e-05,1.0,-2.115965e-06,1.7534941e-05,2.2053719e-06,1.0,577,1.801,1,2,0.809,False,-0.2594014138754961,1.0306374288539588
1.8222709861584008,11:12:01.329734,11:11:03.550109,0,,0.117618576,-0.005655259,0.034146354,0.46772498,0.7726702,-0.42920166,0.13155645,0.41932476,0.8982537,0.8740287,-0.4765999,0.094478846,,0.026683666,0.01098682,0.017543912,-0.48354173,0.08945949,0.8707377,0.85802126,-0.14835486,0.49172187,0.17316726,0.9848795,-0.0050224066,,0.074811846,1.302234,0.43178138,0.996122,0.07737923,-0.041873567,0.027597444,-0.726708,-0.68639195,-0.08354233,0.6825745,-0.7260253,,-0.09542902,0.2616695,-0.100559786,-0.5478367,-0.7163194,0.43215907,0.65677357,-0.048285104,0.75254035,-0.5181924,0.69609994,0.496912,,-0.014042375,0.4650039,-0.30399352,0.44116563,-0.23556328,-0.86595774,0.76314074,0.6062131,0.22387916,0.47221723,-0.7596154,0.44720832,,1.192760646958227,0.5212304098800349,0.19139203334000002,3.0849584485443224,-0.5021391366379937,-0.9121828981300888,-0.4108103263277121,,-0.204876380420302,0.3324404820367425,0.19227091796,-3.3003100205029288,0.19743974216106144,1.052583850167145,0.8559229065436234,,-0.028595038132362097,-0.02640246825954422,0.113675081,-0.0945277665480292,,4.184991e-05,2.861023e-06,-4.053116e-06,1.0,-1.8645078e-05,-1.752749e-05,1.8641353e-05,1.0,-2.115965e-06,1.7534941e-05,2.2053719e-06,1.0,590,1.842,1,2,0.85,False,-0.2583290149421176,1.030444308050841
1.8518376571591944,11:12:01.369777,11:11:03.550109,0,,0.11732714,-0.0054943413,0.034147367,0.44108087,0.7855784,-0.43395185,0.12470633,0.42518997,0.8964719,0.88876086,-0.44953305,0.08957657,,0.026682407,0.010978535,0.01753813,-0.48352486,0.08947546,0.8707454,0.8580376,-0.14830694,0.49170786,0.17313331,0.98488533,-0.0050632358,,0.074811846,1.302234,0.43178138,0.996122,0.07737923,-0.041873567,0.027597444,-0.726708,-0.68639195,-0.08354233,0.6825745,-0.7260253,,-0.09513654,0.26180506,-0.10047663,-0.5228515,-0.73168784,0.43733194,0.6629483,-0.026533198,0.7481949,-0.5358412,0.68112326,0.49894413,,-0.014040157,0.46499425,-0.3039959,0.44115394,-0.23558053,-0.865959,0.763125,0.6062477,0.22383907,0.47225353,-0.75958246,0.447226,,1.1938109386291216,0.5198325952298002,0.19157092136,3.0562309262869425,-0.5233177941016369,-0.8996504899852962,-0.4096669178647725,,-0.20484548948880513,0.3323941456394971,0.19227091796,-3.3003100205029288,0.19743974216106144,1.052583850167145,0.8559229065436234,,-0.028595038132362097,-0.02640246825954422,0.113675081,-0.0945277665480292,,4.184991e-05,2.861023e-06,-4.053116e-06,1.0,-1.8645078e-05,-1.752749e-05,1.8641353e-05,1.0,-2.115965e-06,1.7534941e-05,2.2053719e-06,1.0,599,1.871,1,2,0.879,False,-0.2584481703791588,1.0302029070469436
1.8918466900940984,11:12:01.398963,11:11:03.550109,0,,0.11709797,-0.005321011,0.034126714,0.42420602,0.7941119,-0.43524182,0.12080383,0.42670912,0.89628446,0.8974717,-0.4327881,0.08508089,,0.026684746,0.010973826,0.017535806,-0.4835149,0.0895377,0.8707446,0.85804856,-0.14824131,0.49170846,0.17310667,0.9848895,-0.005150825,,0.074811846,1.302234,0.43178138,0.996122,0.07737923,-0.041873567,0.027597444,-0.726708,-0.68639195,-0.08354233,0.6825745,-0.7260253,,-0.094903745,0.26193208,-0.10036413,-0.50696063,-0.74177396,0.43904704,0.66676855,-0.014670874,0.74512047,-0.5462697,0.6704895,0.50202906,,-0.014042061,0.46498913,-0.3039976,0.44114795,-0.23564352,-0.8659449,0.7631118,0.60628766,0.22377576,0.4722804,-0.7595311,0.4472849,,1.1948148939027707,0.5189830946136355,0.19174462422000002,3.0373588313733353,-0.5358883520800574,-0.8886649341839603,-0.4099936059970408,,-0.20484548948880513,0.3323632547080002,0.19227091796,-3.3003100205029288,0.19743974216106144,1.0525021714270042,0.8560862506097576,,-0.028595038132362097,-0.02640246825954422,0.113675081,-0.0945277665480292,,4.184991e-05,2.861023e-06,-4.053116e-06,1.0,-1.8645078e-05,-1.752749e-05,1.8641353e-05,1.0,-2.115965e-06,1.7534941e-05,2.2053719e-06,1.0,612,1.912,0,2,0.885,False,-0.25826943722359585,1.0302029070469436
1.9210398111026734,11:12:01.436073,11:11:03.550109,0,,0.11682747,-0.005038485,0.03418912,0.3972992,0.80707794,-0.43678206,0.112933874,0.42934102,0.8960537,0.91071355,-0.40532887,0.0794304,,0.026698925,0.010964245,0.017534077,-0.4834929,0.08946427,0.8707643,0.8580766,-0.14819443,0.49167383,0.17302957,0.9849032,-0.005116284,,0.074811846,1.302234,0.43178138,0.996122,0.07737923,-0.041873567,0.027597444,-0.726708,-0.68639195,-0.08354233,0.6825745,-0.7260253,,-0.094636135,0.2621978,-0.100243084,-0.481586,-0.75728875,0.44112206,0.6712046,0.0049406104,0.74125564,-0.563524,0.6530615,0.50591636,,-0.014055696,0.4649797,-0.3040022,0.44113752,-0.23557357,-0.86596924,0.76307195,0.6063381,0.22377521,0.47235462,-0.7595125,0.4472381,,1.1961818176215084,0.5182880486549553,0.19197406755000002,3.008002239285502,-0.5562471905451081,-0.8716552728324907,-0.4098302619309069,,-0.2048995486189247,0.332286027379258,0.19227091796,-3.3003100205029288,0.19743974216106144,1.0525021714270042,0.8560862506097576,,-0.028595038132362097,-0.02640246825954422,0.113675081,-0.0945277665480292,,4.184991e-05,2.861023e-06,-4.053116e-06,1.0,-1.8645078e-05,-1.752749e-05,1.8641353e-05,1.0,-2.115965e-06,1.7534941e-05,2.2053719e-06,1.0,621,1.941,1,3,0.888,False,-0.2594609915940169,1.030444308050841
1.9581667550373822,11:12:01.461608,11:11:03.550109,0,,0.116650134,-0.004799977,0.034226403,0.3801848,0.8160591,-0.43532407,0.105087936,0.42950556,0.89692897,0.91892105,-0.386746,0.07753351,,0.026700422,0.01096262,0.017531872,-0.4834879,0.08945984,0.8707676,0.858082,-0.14818165,0.49166808,0.17301622,0.9849056,-0.0051198304,,0.074811846,1.302234,0.43178138,0.996122,0.07737923,-0.041873567,0.027597444,-0.726708,-0.68639195,-0.08354233,0.6825745,-0.7260253,,-0.0944595,0.26240912,-0.10012533,-0.46547014,-0.7680193,0.4398681,0.67177474,0.017001918,0.74056035,-0.5762432,0.640201,0.50802207,,-0.014056821,0.46497682,-0.3040018,0.44113454,-0.2355697,-0.86597186,0.76306534,0.60634893,0.22376831,0.47236806,-0.75950503,0.44723654,,1.197232109292403,0.5179096347441183,0.19217628879,2.990178594089317,-0.571413842019072,-0.8592878855221879,-0.4098302619309069,,-0.2048995486189247,0.33227058191350956,0.19227221425000002,-3.3003100205029288,0.19743974216106144,1.0525021714270042,0.8560862506097576,,-0.028595038132362097,-0.02640246825954422,0.113675081,-0.0945277665480292,,4.184991e-05,2.861023e-06,-4.053116e-06,1.0,-1.8645078e-05,-1.752749e-05,1.8641353e-05,1.0,-2.115965e-06,1.7534941e-05,2.2053719e-06,1.0,634,1.982,1,3,0.929,False,-0.2587460589717643,1.0299615060430465
1.9837008430622518,11:12:01.511954,11:11:03.550109,0,,0.11641128,-0.0044351667,0.034256414,0.36125985,0.82412076,-0.4362525,0.097791076,0.43178412,0.8966601,0.9273231,-0.36658886,0.07539463,,0.026704505,0.010956451,0.017530799,-0.48364043,0.089356355,0.87069356,0.85802317,-0.148085,0.49179995,0.17288208,0.9849295,-0.0050498843,,0.074811846,1.302234,0.43178138,0.996122,0.07737923,-0.041873567,0.027597444,-0.726708,-0.68639195,-0.08354233,0.6825745,-0.7260253,,-0.09421894,0.2627126,-0.099922664,-0.44756258,-0.7779535,0.44099444,0.67297846,0.0317327,0.73898107,-0.58888686,0.62752,0.50934356,,-0.01406062,0.4649714,-0.30400524,0.44130632,-0.23547223,-0.8659108,0.7629462,0.60644394,0.22391713,0.47240013,-0.7594594,0.4472802,,1.1988307149973676,0.51769339822364,0.19247054662000002,2.9692095997408647,-0.5863072204935049,-0.8471433340192781,-0.4098302619309069,,-0.20490727135179893,0.3322319682491384,0.19227091796,-3.3005197104464137,0.19743974216106144,1.0525021714270042,0.8560862506097576,,-0.028595038132362097,-0.02640246825954422,0.113675081,-0.0945277665480292,,4.184991e-05,2.861023e-06,-4.053116e-06,1.0,-1.8645078e-05,-1.752749e-05,1.8641353e-05,1.0,-2.115965e-06,1.7534941e-05,2.2053719e-06,1.0,643,2.01,0,3,0.938,False,-0.2587460589717643,1.0302029070469436
2.033982133027166,11:12:01.533226,11:11:03.550109,0,,0.11621632,-0.0041982234,0.034272328,0.34895155,0.82748026,-0.4398968,0.09530869,0.43563315,0.89506423,0.9322816,-0.35426006,0.07314873,,0.026706554,0.010950536,0.017527878,-0.48374626,0.0893093,0.87063956,0.8580122,-0.14783329,0.4918948,0.17264023,0.9849715,-0.0051147044,,0.074811846,1.302234,0.43178138,0.996122,0.07737923,-0.041873567,0.027597444,-0.726708,-0.68639195,-0.08354233,0.6825745,-0.7260253,,-0.09402272,0.26290944,-0.09979168,-0.43583143,-0.7824272,0.44481307,0.67510295,0.042648282,0.7364897,-0.5952201,0.62128,0.50963145,,-0.01406213,0.46496502,-0.30400747,0.44144762,-0.2354352,-0.86584884,0.7627754,0.6066501,0.22394046,0.47254387,-0.7593062,0.44738844,,1.200020015859998,0.5175157753675328,0.19265073093,2.954321613753464,-0.5936855914808388,-0.8412084459598117,-0.40999360599704104,,-0.2048995486189247,0.33220107731764154,0.19227091796,-3.300729400389898,0.19757637866082686,1.052390753523308,0.8560862506097576,,-0.028595038132362097,-0.02640246825954422,0.113675081,-0.0945277665480292,,4.184991e-05,2.861023e-06,-4.053116e-06,1.0,-1.8645078e-05,-1.752749e-05,1.8641353e-05,1.0,-2.115965e-06,1.7534941e-05,2.2053719e-06,1.0,656,2.051,0,3,0.938,False,-0.2587460589717643,1.0300580664446055
2.0552795480471104,11:12:01.579118,11:11:03.550109,0,,0.11596866,-0.0038675815,0.034411296,0.32659042,0.8361863,-0.44060317,0.0855957,0.43808305,0.89485,0.94128203,-0.32996315,0.071499765,,0.026713334,0.010946393,0.017528892,-0.48373795,0.08927114,0.8706481,0.8580234,-0.14781743,0.49188,0.17260757,0.9849775,-0.005091846,,0.074811846,1.302234,0.43178138,0.996122,0.07737923,-0.041873567,0.027597444,-0.726708,-0.68639195,-0.08354233,0.6825745,-0.7260253,,-0.09378447,0.2632608,-0.099693,-0.4146,-0.7933999,0.44567198,0.675096,0.060238052,0.73526645,-0.6102067,0.60571283,0.51064634,,-0.014068933,0.46496215,-0.3040106,0.44144425,-0.23539856,-0.8658606,0.7627582,0.60666966,0.22394605,0.47257474,-0.75930196,0.44736302,,1.2016495124964595,0.5174617162374133,0.19286332249000002,2.929787890365774,-0.611448336450346,-0.8267241184792771,-0.40999360599704104,,-0.2049304395504216,0.3321701863861446,0.19226962167000003,-3.300729400389898,0.19757637866082686,1.052390753523308,0.8560862506097576,,-0.028595038132362097,-0.02640246825954422,0.113675081,-0.0945277665480292,,4.184991e-05,2.861023e-06,-4.053116e-06,1.0,-1.8645078e-05,-1.752749e-05,1.8641353e-05,1.0,-2.115965e-06,1.7534941e-05,2.2053719e-06,1.0,669,2.092,1,4,0.962,False,-0.25731619372725945,1.0299615060430465
2.1012278830166906,11:12:01.619697,11:11:03.550109,0,,0.115736954,-0.0035448521,0.03447871,0.30308995,0.84193987,-0.44640088,0.07980934,0.44436333,0.8922846,0.94961405,-0.30606937,0.06748739,,0.02672761,0.01094754,0.017534494,-0.48369184,0.08922798,0.87067807,0.8580776,-0.14768097,0.49182642,0.17246711,0.9850018,-0.0051324964,,0.074811846,1.302234,0.43178138,0.996122,0.07737923,-0.041873567,0.027597444,-0.726708,-0.68639195,-0.08354233,0.6825745,-0.7260253,,-0.09355531,0.26355767,-0.09954553,-0.39210832,-0.801335,0.451789,0.6776169,0.08055786,0.7309896,-0.6221627,0.59276694,0.5114107,,-0.014083908,0.46496528,-0.30401215,0.44141924,-0.23536126,-0.8658834,0.762687,0.6067847,0.2238767,0.47271293,-0.75922155,0.44735345,,1.202900595222084,0.5174076571072938,0.19310443243000003,2.9023185077693014,-0.6255218959261865,-0.8150030381781239,-0.4095035737986381,,-0.20501538961203805,0.3321624636532704,0.19226962167000003,-3.300729400389898,0.19771301516059234,1.0522793356196114,0.855759562477489,,-0.028595038132362097,-0.02640246825954422,0.113675081,-0.0945277665480292,,4.184991e-05,2.861023e-06,-4.053116e-06,1.0,-1.8645078e-05,-1.752749e-05,1.8641353e-05,1.0,-2.115965e-06,1.7534941e-05,2.2053719e-06,1.0,678,2.121,1,4,0.991,False,-0.25856732581620134,1.0298649456414877
2.1418128460645676,11:12:01.644470,11:11:03.550109,0,,0.115581214,-0.0033542365,0.034548506,0.28482503,0.8475345,-0.44783917,0.07282105,0.4467095,0.8917105,0.95580935,-0.28659365,0.0655157,,0.026735619,0.010946438,0.01753825,-0.48364356,0.08915032,0.8707129,0.8581315,-0.14757255,0.49176484,0.17233422,0.9850251,-0.0051302016,,0.074811846,1.302234,0.43178138,0.996122,0.07737923,-0.041873567,0.027597444,-0.726708,-0.68639195,-0.08354233,0.6825745,-0.7260253,,-0.093404055,0.26375404,-0.099482074,-0.37463963,-0.8087471,0.45340183,0.6775402,0.09501463,0.7293226,-0.6329174,0.58043116,0.5123624,,-0.014092369,0.46496633,-0.30401468,0.44139096,-0.23528937,-0.8659174,0.76262087,0.6068841,0.22383265,0.4728461,-0.7591644,0.44730976,,1.2036033639136383,0.5172686479155577,0.1932509132,2.8819785832513025,-0.6386389999036686,-0.8035718107620026,-0.4099936059970408,,-0.2050617260092834,0.33215474092039615,0.19226832538000002,-3.300729400389898,0.19784965166035778,1.0522495964560554,0.8555962184113548,,-0.028595038132362097,-0.02640246825954422,0.113675081,-0.0945277665480292,,4.184991e-05,2.861023e-06,-4.053116e-06,1.0,-1.8645078e-05,-1.752749e-05,1.8641353e-05,1.0,-2.115965e-06,1.7534941e-05,2.2053719e-06,1.0,687,2.15,0,4,1.0,False,-0.25826943722359585,1.0299615060430465
2.1665617520920932,11:12:01.679516,11:11:03.550109,0,,0.115462944,-0.0031676888,0.03457217,0.2670086,0.8533732,-0.44772825,0.067536145,0.44688356,0.8920392,0.96132463,-0.26841998,0.061688274,,0.026735589,0.0109458715,0.017539501,-0.4838082,0.08906514,0.8706302,0.85805875,-0.14750537,0.49191198,0.17223477,0.9850428,-0.005058825,,0.074811846,1.302234,0.43178138,0.996122,0.07737923,-0.041873567,0.027597444,-0.726708,-0.68639195,-0.08354233,0.6825745,-0.7260253,,-0.0932857,0.2639146,-0.099384286,-0.35752472,-0.8163106,0.45366633,0.67824936,0.106976464,0.72700334,-0.6419921,0.5676206,0.5154154,,-0.014092521,0.46496683,-0.30401593,0.44156957,-0.23520869,-0.86584824,0.76251906,0.6069526,0.22399384,0.47284356,-0.75913465,0.4473629,,1.2039972232902236,0.5171991433196896,0.19341943090000002,2.861638658733304,-0.6497065563846693,-0.7898912723745802,-0.40852350940183246,,-0.2050617260092834,0.33215474092039615,0.19226702909,-3.3009390903333826,0.19784965166035778,1.0522495964560554,0.8555962184113548,,-0.028595038132362097,-0.02640246825954422,0.113675081,-0.0945277665480292,,4.184991e-05,2.861023e-06,-4.053116e-06,1.0,-1.8645078e-05,-1.752749e-05,1.8641353e-05,1.0,-2.115965e-06,1.7534941e-05,2.2053719e-06,1.0,701,2.195,0,4,1.0,False,-0.2587460589717643,1.030347747649282
2.201623070985079,11:12:01.714404,11:11:03.550109,0,,0.1152875,-0.002956599,0.03462152,0.23785603,0.8593628,-0.452681,0.05996281,0.45217603,0.8899109,0.9694477,-0.23881465,0.056023,,0.026735865,0.010944113,0.017540276,-0.4837598,0.08924694,0.8706385,0.8581096,-0.14726841,0.49189436,0.17211756,0.9850619,-0.0053411424,,0.074811846,1.302234,0.43178138,0.996122,0.07737923,-0.041873567,0.027597444,-0.726708,-0.68639195,-0.08354233,0.6825745,-0.7260253,,-0.093112536,0.26411352,-0.09929364,-0.329416,-0.82504785,0.45910907,0.6796047,0.13036686,0.7219016,-0.65545595,0.54981863,0.51776147,,-0.014092897,0.46496624,-0.30401775,0.44153884,-0.2353942,-0.8658135,0.7624622,0.6071046,0.22377539,0.47296393,-0.7589556,0.44753942,,1.2042675189408216,0.5170215204635825,0.19361517069000003,2.8278785778322955,-0.6663762093560531,-0.7728677810377131,-0.40983026193090644,,-0.2050617260092834,0.33215474092039615,0.1922657328,-3.3009390903333826,0.1979862881601232,1.0519748210720778,0.8559229065436232,,-0.028595038132362097,-0.02640246825954422,0.113675081,-0.0945277665480292,,4.184991e-05,2.861023e-06,-4.053116e-06,1.0,-1.8645078e-05,-1.752749e-05,1.8641353e-05,1.0,-2.115965e-06,1.7534941e-05,2.2053719e-06,1.0,710,2.223,0,4,1.0,False,-0.2584481703791588,1.0299132258422672
2.2364836412016302,11:12:01.750674,11:11:03.550109,0,,0.11518666,-0.002804026,0.03461279,0.21884458,0.8636578,-0.4540951,0.055174798,0.4536784,0.8894558,0.97419846,-0.21970716,0.05163297,,0.026735865,0.010944113,0.017540276,-0.4837598,0.08924694,0.8706385,0.8581096,-0.14726841,0.49189436,0.17211756,0.9850619,-0.0053411424,,0.074811846,1.302234,0.43178138,0.996122,0.07737923,-0.041873567,0.027597444,-0.726708,-0.68639195,-0.08354233,0.6825745,-0.7260253,,-0.093008935,0.2642263,-0.099193275,-0.31103015,-0.8311443,0.46093327,0.6802353,0.14402038,0.7187058,-0.663732,0.53708225,0.520579,,-0.014092897,0.46496624,-0.30401775,0.44153884,-0.2353942,-0.8658135,0.7624622,0.6071046,0.22377539,0.47296393,-0.7589556,0.44753942,,1.2042984098723184,0.5169134022033434,0.19378109581000003,2.805651443822936,-0.6767605833382265,-0.759417617208211,-0.4090135416002352,,-0.2050617260092834,0.33215474092039615,0.1922657328,-3.3009390903333826,0.1979862881601232,1.0519748210720778,0.8559229065436232,,-0.028595038132362097,-0.02640246825954422,0.113675081,-0.0945277665480292,,4.184991e-05,2.861023e-06,-4.053116e-06,1.0,-1.8645078e-05,-1.752749e-05,1.8641353e-05,1.0,-2.115965e-06,1.7534941e-05,2.2053719e-06,1.0,724,2.268,0,4,1.0,False,-0.25761408231986493,1.030009786243826
2.2727724032010883,11:12:01.794684,11:11:03.550109,0,,0.11501554,-0.0026036054,0.0346006,0.19175445,0.8687721,-0.45658,0.0479452,0.45636547,0.8884998,0.9802711,-0.1922646,0.045856595,,0.026737869,0.010938749,0.017539024,-0.48374972,0.0892381,0.870645,0.85812056,-0.14724287,0.4918828,0.17209092,0.9850665,-0.005348325,,0.074811846,1.302234,0.43178138,0.996122,0.07737923,-0.041873567,0.027597444,-0.726708,-0.68639195,-0.08354233,0.6825745,-0.7260253,,-0.0928343,0.26437595,-0.099064045,-0.2847705,-0.83884263,0.46394914,0.6803663,0.16407867,0.7142688,-0.6752833,0.51905805,0.52399546,,-0.014094627,0.46496144,-0.3040207,0.44153282,-0.23538646,-0.8658187,0.762449,0.60712624,0.22376159,0.47299078,-0.7589407,0.44753632,,1.2043910826668092,0.5166662747513682,0.19400405769,2.7735688824698035,-0.6915173253128941,-0.7404417906970496,-0.4096669178647723,,-0.2050617260092834,0.33212384998889927,0.19226443651000003,-3.3009390903333826,0.1979862881601232,1.0519748210720778,0.8559229065436232,,-0.028595038132362097,-0.02640246825954422,0.113675081,-0.0945277665480292,,4.184991e-05,2.861023e-06,-4.053116e-06,1.0,-1.8645078e-05,-1.752749e-05,1.8641353e-05,1.0,-2.115965e-06,1.7534941e-05,2.2053719e-06,1.0,733,2.297,0,4,1.0,False,-0.2579715486309908,1.0299132258422672
2.316755051026121,11:12:01.831553,11:11:03.550109,0,,0.114838704,-0.0023908764,0.03456156,0.16606256,0.87337244,-0.45786884,0.039774925,0.45800558,0.8880591,0.98531264,-0.16568501,0.04131925,,0.026736662,0.010939091,0.017540514,-0.48358768,0.08932553,0.870726,0.85819054,-0.14731649,0.49173856,0.17219704,0.9850476,-0.005417913,,0.074811846,1.302234,0.43178138,0.996122,0.07737923,-0.041873567,0.027597444,-0.726708,-0.68639195,-0.08354233,0.6825745,-0.7260253,,-0.092651196,0.26451713,-0.09890724,-0.25981763,-0.8459626,0.46566314,0.6790359,0.1828107,0.7109785,-0.6865894,0.50092673,0.52694154,,-0.014093652,0.46496287,-0.30402154,0.44135574,-0.2354691,-0.8658865,0.7625541,0.6070523,0.22360386,0.4729866,-0.7589742,0.44748396,,1.2045069236599226,0.5163805336350218,0.19425553795000003,2.7429541507210633,-0.7062740672875617,-0.7211392492253261,-0.4099936059970408,,-0.2050617260092834,0.3321315727217735,0.19226314022000002,-3.300729400389898,0.1979862881601232,1.0519748210720778,0.8559229065436232,,-0.028595038132362097,-0.02640246825954422,0.113675081,-0.0945277665480292,,4.184991e-05,2.861023e-06,-4.053116e-06,1.0,-1.8645078e-05,-1.752749e-05,1.8641353e-05,1.0,-2.115965e-06,1.7534941e-05,2.2053719e-06,1.0,756,2.371,0,4,1.0,False,-0.25767366003838577,1.0302994674485029
2.3536667542066425,11:12:01.894842,11:11:03.550109,0,,0.11453636,-0.002088517,0.034469172,0.12353416,0.8768093,-0.4646986,0.026981622,0.46514457,0.8848235,0.9919734,-0.12184426,0.033803523,,0.026742779,0.010926917,0.017536104,-0.48389167,0.089132935,0.87057686,0.85807246,-0.14711833,0.49200395,0.17193148,0.9850946,-0.0052931905,,0.074811846,1.302234,0.43178138,0.996122,0.07737923,-0.041873567,0.027597444,-0.726708,-0.68639195,-0.08354233,0.6825745,-0.7260253,,-0.09233662,0.26469585,-0.09866134,-0.21833827,-0.85350543,0.47313517,0.67625076,0.21721846,0.7039184,-0.70357186,0.47365034,0.52975655,,-0.014098889,0.46495074,-0.30402702,0.44169784,-0.2352883,-0.8657612,0.7623175,0.6072434,0.22389166,0.4730487,-0.7588774,0.44758248,,1.2044683099955513,0.5158322196009519,0.19464701753000002,2.690951044736901,-0.7289557262486248,-0.6931691433554148,-0.4095035737986379,,-0.2050617260092834,0.33205434539303125,0.19226184393,-3.3011487802768666,0.1979862881601232,1.0519748210720778,0.8559229065436232,,-0.028595038132362097,-0.02640246825954422,0.113675081,-0.0945277665480292,,4.184991e-05,2.861023e-06,-4.053116e-06,1.0,-1.8645078e-05,-1.752749e-05,1.8641353e-05,1.0,-2.115965e-06,1.7534941e-05,2.2053719e-06,1.0,765,2.399,0,4,1.0,False,-0.2583885926606384,1.0298649456414877
2.4169174870476127,11:12:01.933361,11:11:03.550109,0,,0.114387974,-0.0019199103,0.034307793,0.10535146,0.87695366,-0.46888512,0.022833765,0.4692515,0.88276935,0.9941728,-0.10370745,0.02941218,,0.026747167,0.010919616,0.017534673,-0.48383117,0.089154124,0.87060827,0.858137,-0.14693227,0.4919469,0.17177945,0.9851204,-0.0054160655,,0.074811846,1.302234,0.43178138,0.996122,0.07737923,-0.041873567,0.027597444,-0.726708,-0.68639195,-0.08354233,0.6825745,-0.7260253,,-0.09217071,0.26472104,-0.09844151,-0.20052063,-0.8553364,0.47769347,0.67560774,0.23237678,0.69968224,-0.7094686,0.46303412,0.5312756,,-0.0141029125,0.4649442,-0.30403104,0.4416602,-0.23531546,-0.865773,0.76224315,0.6073853,0.22375993,0.47320363,-0.7587554,0.4476255,,1.2043293008038154,0.5153534101627499,0.19492053472,2.667885150953603,-0.7371539162345512,-0.6816650234653365,-0.4083601653356981,,-0.20506944874215763,0.3320157317286601,0.19226054764000003,-3.3011487802768666,0.19812292465988865,1.0518634031683816,0.8559229065436232,,-0.028595038132362097,-0.02640246825954422,0.113675081,-0.0945277665480292,,4.184991e-05,2.861023e-06,-4.053116e-06,1.0,-1.8645078e-05,-1.752749e-05,1.8641353e-05,1.0,-2.115965e-06,1.7534941e-05,2.2053719e-06,1.0,779,2.445,0,4,1.0,False,-0.2564821056679656,1.030154626846164
2.4554647551849484,11:12:01.966366,11:11:03.550109,0,,0.11427677,-0.001804933,0.034078732,0.09657852,0.8785474,-0.46778956,0.022554815,0.46793413,0.8834755,0.9950697,-0.09587562,0.025376916,,0.02674859,0.010915384,0.017533958,-0.48382363,0.089147486,0.87061316,0.85814524,-0.14691311,0.49193826,0.17175946,0.9851239,-0.0054214895,,0.074811846,1.302234,0.43178138,0.996122,0.07737923,-0.041873567,0.027597444,-0.726708,-0.68639195,-0.08354233,0.6825745,-0.7260253,,-0.0920361,0.26465923,-0.098204605,-0.19188082,-0.85769975,0.47700405,0.67646587,0.23654734,0.69745195,-0.7110384,0.45650464,0.5348157,,-0.014104166,0.4649407,-0.30403355,0.4416557,-0.23530965,-0.8657769,0.76223326,0.6074015,0.22374958,0.47322375,-0.7587442,0.44762316,,1.2041825688792052,0.5146815324026924,0.19516294095000003,2.65614251411847,-0.7397500097300945,-0.6719519604620322,-0.4080334772034293,,-0.20506944874215763,0.3319925635300374,0.19225925135000002,-3.3011487802768666,0.19812292465988865,1.0518634031683816,0.8559229065436232,,-0.028595038132362097,-0.02640246825954422,0.113675081,-0.0945277665480292,,4.184991e-05,2.861023e-06,-4.053116e-06,1.0,-1.8645078e-05,-1.752749e-05,1.8641353e-05,1.0,-2.115965e-06,1.7534941e-05,2.2053719e-06,1.0,788,2.473,0,4,1.0,False,-0.25767366003838577,1.0298649456414877
2.4884784270543605,11:12:01.995389,11:11:03.550109,0,,0.11411993,-0.0017693192,0.033960983,0.08332192,0.8779355,-0.4714729,0.021291107,0.47144175,0.8816402,0.99629515,-0.08349809,0.020589173,,0.026747987,0.010913879,0.017532766,-0.48382065,0.08922372,0.87060696,0.858148,-0.14686412,0.4919482,0.1717543,0.98512435,-0.005511254,,0.074811846,1.302234,0.43178138,0.996122,0.07737923,-0.041873567,0.027597444,-0.726708,-0.68639195,-0.08354233,0.6825745,-0.7260253,,-0.09186807,0.2646153,-0.09810677,-0.17882614,-0.85823125,0.4811033,0.67705095,0.24745296,0.6930866,-0.713879,0.44967344,0.5368152,,-0.0141033735,0.4649389,-0.30403394,0.44165352,-0.23538566,-0.86575735,0.76223093,0.60742575,0.22369166,0.47322947,-0.75870126,0.44768995,,1.2040667278860917,0.5140251001083833,0.19528219963000001,2.63852855886577,-0.7439857412228232,-0.6635156022988687,-0.40787013313729514,,-0.2050617260092834,0.3319848407971632,0.19225925135000002,-3.3011487802768666,0.19812292465988865,1.051781724428241,0.8557595624774891,,-0.028595038132362097,-0.02640246825954422,0.113675081,-0.0945277665480292,,4.184991e-05,2.861023e-06,-4.053116e-06,1.0,-1.8645078e-05,-1.752749e-05,1.8641353e-05,1.0,-2.115965e-06,1.7534941e-05,2.2053719e-06,1.0,811,2.547,0,4,1.0,False,-0.25719703829021734,1.0299132258422672
2.517502883216366,11:12:02.073930,11:11:03.550109,0,,0.113820605,-0.0017992705,0.033558384,0.06519881,0.8782525,-0.47373173,0.017681539,0.47365052,0.88053536,0.9977155,-0.06578615,0.015352547,,0.026747987,0.010913879,0.017532766,-0.48382065,0.08901037,0.8706288,0.858148,-0.14698464,0.4919122,0.1717543,0.98512566,-0.0052698553,,0.074811846,1.302234,0.43178138,0.996122,0.07737923,-0.041873567,0.027597444,-0.726708,-0.68639195,-0.08354233,0.6825745,-0.7260253,,-0.09153177,0.26433998,-0.09785444,-0.1609841,-0.8602228,0.48383972,0.6762838,0.2609096,0.68888783,-0.7188354,0.4381129,0.5397524,,-0.0141033735,0.4649389,-0.30403394,0.44165352,-0.23517351,-0.865815,0.76223093,0.6073709,0.22384049,0.47322947,-0.75881094,0.447504,,1.2034102955917827,0.5118009530406067,0.19556349456000002,2.6146239053085343,-0.7527304772078114,-0.648707054889085,-0.40721675687275827,,-0.2050617260092834,0.3319848407971632,0.19225925135000002,-3.3011487802768666,0.19812292465988865,1.0520267606486626,0.8555962184113548,,-0.028595038132362097,-0.02640246825954422,0.113675081,-0.0945277665480292,,4.184991e-05,2.861023e-06,-4.053116e-06,1.0,-1.8645078e-05,-1.752749e-05,1.8641353e-05,1.0,-2.115965e-06,1.7534941e-05,2.2053719e-06,1.0,820,2.576,0,4,1.0,False,-0.25636295023092304,1.0298166654407082
2.5960473481100053,11:12:02.103129,11:11:03.550109,0,,0.1136583,-0.0018650144,0.03337042,0.053353705,0.87824476,-0.47522578,0.014968753,0.4751468,0.8797792,0.9984634,-0.05405298,0.012204617,,0.026747987,0.010913879,0.017532766,-0.48382065,0.08908149,0.87062156,0.858148,-0.14694452,0.49192423,0.1717543,0.9851252,-0.0053502917,,0.074811846,1.302234,0.43178138,0.996122,0.07737923,-0.041873567,0.027597444,-0.726708,-0.68639195,-0.08354233,0.6825745,-0.7260253,,-0.09135312,0.26417422,-0.097773165,-0.14931083,-0.86132497,0.4856188,0.6753993,0.26985994,0.6863027,-0.7221787,0.43045902,0.54144526,,-0.0141033735,0.4649389,-0.30403394,0.44165352,-0.23524421,-0.8657958,0.76223093,0.60738915,0.22379088,0.47322947,-0.7587744,0.447566,,1.2028774270234612,0.5105807612464792,0.19566590147000001,2.5991068494906795,-0.75846921019796,-0.639208457265542,-0.407706789071161,,-0.2050617260092834,0.3319848407971632,0.19225925135000002,-3.3011487802768666,0.19812292465988865,1.051945081908522,0.8554328743452206,,-0.028595038132362097,-0.02640246825954422,0.113675081,-0.0945277665480292,,4.184991e-05,2.861023e-06,-4.053116e-06,1.0,-1.8645078e-05,-1.752749e-05,1.8641353e-05,1.0,-2.115965e-06,1.7534941e-05,2.2053719e-06,1.0,834,2.621,0,4,1.0,False,-0.25719703829021734,1.0296718248383698
2.6252351340372115,11:12:02.145425,11:11:03.550109,0,,0.11345718,-0.0019628257,0.033158615,0.032969583,0.8778352,-0.4778266,0.007606894,0.47785228,0.87840724,0.9994273,-0.032595456,0.009076983,,0.026748545,0.010910094,0.0175305,-0.48381272,0.08908215,0.87062585,0.8581562,-0.14692295,0.49191636,0.1717358,0.9851283,-0.0053632557,,0.074811846,1.302234,0.43178138,0.996122,0.07737923,-0.041873567,0.027597444,-0.726708,-0.68639195,-0.08354233,0.6825745,-0.7260253,,-0.09113405,0.2639708,-0.09769901,-0.1292336,-0.8629476,0.48848763,0.6716625,0.28622636,0.683333,-0.72949857,0.4164084,0.54261947,,-0.014103533,0.4649346,-0.30403516,0.44164836,-0.23524563,-0.865798,0.76222205,0.6074059,0.22377567,0.4732486,-0.7587605,0.44756925,,1.2018889172155605,0.5090979965346282,0.19579553047,2.5728956065551136,-0.7702199491777878,-0.6235006120371076,-0.4081968212695637,,-0.20505400327640919,0.33196167259854054,0.19225925135000002,-3.3011487802768666,0.19812292465988865,1.051945081908522,0.8554328743452206,,-0.028595038132362097,-0.02640246825954422,0.113675081,-0.0945277665480292,,4.184991e-05,2.861023e-06,-4.053116e-06,1.0,-1.8645078e-05,-1.752749e-05,1.8641353e-05,1.0,-2.115965e-06,1.7534941e-05,2.2053719e-06,1.0,843,2.649,0,4,1.0,False,-0.25695872741613357,1.030154626846164
2.6675313971936703,11:12:02.178369,11:11:03.550109,0,,0.11329287,-0.0020769835,0.032867327,0.011877939,0.8785575,-0.47748876,0.008355826,0.4774186,0.87863624,0.99989444,-0.014426231,-0.0016703606,,0.026751183,0.010908797,0.01753211,-0.48381108,0.0890653,0.8706286,0.85815907,-0.1469214,0.4919118,0.17172617,0.9851301,-0.0053500235,,0.074811846,1.302234,0.43178138,0.996122,0.07737923,-0.041873567,0.027597444,-0.726708,-0.68639195,-0.08354233,0.6825745,-0.7260253,,-0.09094419,0.2637002,-0.09757411,-0.10827655,-0.8654283,0.4891932,0.6736506,0.29800597,0.6763041,-0.7310752,0.4027732,0.5507293,,-0.014106371,0.46493462,-0.30403695,0.44164816,-0.23522925,-0.8658026,0.76221675,0.60741025,0.22378191,0.47325733,-0.7587621,0.4475573,,1.2005837753598165,0.5077696864802616,0.19591997431000002,2.5443777742412186,-0.7736358616719238,-0.6026641628736329,-0.4070534128066241,,-0.20506944874215763,0.33195394986566634,0.19225795506,-3.3011487802768666,0.19812292465988865,1.051945081908522,0.8554328743452206,,-0.028595038132362097,-0.02640246825954422,0.113675081,-0.0945277665480292,,4.184991e-05,2.861023e-06,-4.053116e-06,1.0,-1.8645078e-05,-1.752749e-05,1.8641353e-05,1.0,-2.115965e-06,1.7534941e-05,2.2053719e-06,1.0,857,2.694,0,4,1.0,False,-0.25725661600873906,1.0295269842360313
2.7004467041697353,11:12:02.217209,11:11:03.550109,0,,0.11317442,-0.0021448582,0.032653257,-0.007171221,0.879297,-0.4762198,0.010504544,0.47627205,0.87923527,0.99991906,0.0013027787,-0.0126520395,,0.026751183,0.010908797,0.01753211,-0.48381108,0.0890653,0.8706286,0.85815907,-0.1469214,0.4919118,0.17172617,0.9851301,-0.0053500235,,0.074811846,1.302234,0.43178138,0.996122,0.07737923,-0.041873567,0.027597444,-0.726708,-0.68639195,-0.08354233,0.6825745,-0.7260253,,-0.09080669,0.26351306,-0.0974714,-0.08928738,-0.8677017,0.48900056,0.67627335,0.30762511,0.6693438,-0.7312196,0.39046198,0.5593365,,-0.014106371,0.46493462,-0.30403695,0.44164816,-0.23522925,-0.8658026,0.76221675,0.60741025,0.22378191,0.47325733,-0.7587621,0.4475573,,1.1995489291546704,0.5070128586585875,0.19601330719,2.5183762212491376,-0.7744556806705164,-0.5828828302585629,-0.40738010093889243,,-0.20506944874215763,0.33195394986566634,0.19225795506,-3.3011487802768666,0.19812292465988865,1.051945081908522,0.8554328743452206,,-0.028595038132362097,-0.02640246825954422,0.113675081,-0.0945277665480292,,4.184991e-05,2.861023e-06,-4.053116e-06,1.0,-1.8645078e-05,-1.752749e-05,1.8641353e-05,1.0,-2.115965e-06,1.7534941e-05,2.2053719e-06,1.0,866,2.723,0,4,1.0,False,-0.25683957197909146,1.0299132258422672
2.7393141540233046,11:12:02.252895,11:11:03.550109,0,,0.11298901,-0.002210915,0.032405436,-0.034024872,0.8794205,-0.47482812,0.008616596,0.4753437,0.879758,0.9993838,0.02584225,-0.02375108,,0.026804328,0.010900408,0.017557502,-0.4824237,0.0898375,0.87131876,0.8587413,-0.14763147,0.49068147,0.17271563,0.9849539,-0.005926311,,0.07481937,1.3022337,0.43177864,0.99612224,0.07737355,-0.041878924,0.027589668,-0.7267086,-0.6863916,-0.08354233,0.6825745,-0.7260253,,-0.09060601,0.26330972,-0.09734981,-0.06254076,-0.8702059,0.4887027,0.6759407,0.3233309,0.6622396,-0.7342975,0.37175104,0.5679862,,-0.014169324,0.46494186,-0.3040574,0.44012684,-0.2359577,-0.86637884,0.7631617,0.606711,0.22245443,0.47315174,-0.7590954,0.44710368,,1.1981125008400646,0.5060629625150579,0.19613126958000002,2.4820998610263145,-0.7797845041613686,-0.5559941997356073,-0.40803347720342964,,-0.20507717147503185,0.33195394986566634,0.19225795506,-3.299261570785506,0.1979862881601232,1.0520564998122186,0.8554328743452206,,-0.028595038132362097,-0.02640246825954422,0.113675081,-0.0945277665480292,,4.9561262e-05,1.9073486e-06,-2.026558e-06,1.0,-2.4318695e-05,-2.285093e-05,2.430752e-05,1.0,-2.8014183e-06,2.2862107e-05,2.8312206e-06,1.0,889,2.797,0,4,1.0,False,-0.25672041654204936,1.0299132258422672
2.775004781084135,11:12:02.319238,11:11:03.550109,0,,0.112687305,-0.0024210066,0.031899422,-0.08383232,0.8764304,-0.47417504,0.0013513267,0.47594962,0.8794715,0.9964789,0.073087394,-0.04108429,,0.026807956,0.010893777,0.017552614,-0.48217624,0.08996854,0.87144214,0.8590003,-0.1468735,0.4904555,0.17211732,0.98505527,-0.0064641237,,0.07481937,1.3022337,0.43177864,0.99612224,0.07737355,-0.041878924,0.027589668,-0.7267086,-0.6863916,-0.08354233,0.6825745,-0.7260253,,-0.090260185,0.26283172,-0.09714208,-0.0128063,-0.87178427,0.48972258,0.6712531,0.35550624,0.6504111,-0.7411176,0.33705714,0.58063513,,-0.01417209,0.46493337,-0.30405867,0.4399696,-0.2361119,-0.8664167,0.7628713,0.6072806,0.22189556,0.47376588,-0.7585918,0.447308,,1.19527053514235,0.5041091110978791,0.19638015726000002,2.4139506293938444,-0.7919451526404928,-0.5076889984405615,-0.40934022973250395,,-0.20506944874215763,0.3319385043999179,0.19226054764000003,-3.299261570785506,0.1986694706589504,1.0515810890338768,0.8555962184113548,,-0.028595038132362097,-0.02640246825954422,0.113675081,-0.0945277665480292,,4.9561262e-05,1.9073486e-06,-2.026558e-06,1.0,-2.4318695e-05,-2.285093e-05,2.430752e-05,1.0,-2.8014183e-06,2.2862107e-05,2.8312206e-06,1.0,898,2.825,0,4,1.0,False,-0.2561246393568388,1.0298166654407082
2.8413546371739358,11:12:02.348973,11:11:03.550109,0,,0.112484835,-0.0025410205,0.031653076,-0.11110379,0.8723359,-0.47611535,-0.003216356,0.4787633,0.87793815,0.9938035,0.099073604,-0.050386697,,0.026807375,0.010894939,0.01755315,-0.48217884,0.08997075,0.87144053,0.8589976,-0.14687991,0.49045837,0.172124,0.985054,-0.006462306,,0.07481937,1.3022337,0.43177864,0.99612224,0.07737355,-0.041878924,0.027589668,-0.7267086,-0.6863916,-0.08354233,0.6825745,-0.7260253,,-0.09003679,0.2625888,-0.0970574,0.014520709,-0.8701754,0.49252802,0.667524,0.3751745,0.6431608,-0.7444467,0.31943512,0.5863108,,-0.014171614,0.46493465,-0.30405822,0.43997112,-0.23611383,-0.86641544,0.7628746,0.6072752,0.221899,0.47375914,-0.75859547,0.44730878,,1.1939808387523545,0.5031051558242299,0.19648645304,2.375577369736176,-0.7979571586301722,-0.48318371304418406,-0.407706789071161,,-0.20506944874215763,0.3319462271327921,0.19226054764000003,-3.299261570785506,0.1986694706589504,1.0515810890338768,0.8555962184113548,,-0.028595038132362097,-0.02640246825954422,0.113675081,-0.0945277665480292,,4.9561262e-05,1.9073486e-06,-2.026558e-06,1.0,-2.4318695e-05,-2.285093e-05,2.430752e-05,1.0,-2.8014183e-06,2.2862107e-05,2.8312206e-06,1.0,912,2.87,0,4,1.0,False,-0.25672041654204936,1.0296718248383698
2.871075731003657,11:12:02.396135,11:11:03.550109,0,,0.11227273,-0.0027120858,0.031291097,-0.14242816,0.8688687,-0.474111,-0.0069923103,0.47809917,0.878278,0.98978037,0.12840664,-0.062019378,,0.026807375,0.010894939,0.01755315,-0.48217884,0.08997075,0.87144053,0.8589976,-0.14687991,0.49045837,0.172124,0.985054,-0.006462306,,0.07481937,1.3022337,0.43177864,0.99612224,0.07737355,-0.041878924,0.027589668,-0.7267086,-0.6863916,-0.08354233,0.6825745,-0.7260253,,-0.08979343,0.26223126,-0.096922405,0.046023827,-0.8695688,0.49166238,0.6636971,0.39446464,0.6355342,-0.7465842,0.2970652,0.5952851,,-0.014171614,0.46493465,-0.30405822,0.43997112,-0.23611383,-0.86641544,0.7628746,0.6072752,0.221899,0.47375914,-0.75859547,0.44730878,,1.1921968874584088,0.5018077367013601,0.19662774865000002,2.3311231017174574,-0.8027394361219626,-0.45020645492476913,-0.4070534128066239,,-0.20506944874215763,0.3319462271327921,0.19226054764000003,-3.299261570785506,0.1986694706589504,1.051581089033877,0.8559229065436234,,-0.028595038132362097,-0.02640246825954422,0.113675081,-0.0945277665480292,,4.9561262e-05,1.9073486e-06,-2.026558e-06,1.0,-2.4318695e-05,-2.285093e-05,2.430752e-05,1.0,-2.8014183e-06,2.2862107e-05,2.8312206e-06,1.0,921,2.899,0,4,1.0,False,-0.2568991496976123,1.0302029070469436
2.9182367310859263,11:12:02.426107,11:11:03.550109,0,,0.112129144,-0.0028411448,0.030999154,-0.16597566,0.86594594,-0.47179416,-0.008180678,0.47720453,0.8787542,0.9860958,0.1497114,-0.07212031,,0.026808545,0.0108926,0.017552018,-0.48217377,0.08989515,0.8714512,0.85900307,-0.14690721,0.4904406,0.17211068,0.9850569,-0.006385416,,0.07481937,1.3022337,0.43177864,0.99612224,0.07737355,-0.041878924,0.027589668,-0.7267086,-0.6863916,-0.08354233,0.6825745,-0.7260253,,-0.08962437,0.26194805,-0.09680533,0.06979548,-0.8687321,0.49033985,0.66160387,0.40819073,0.6290156,-0.7465982,0.2805083,0.6032464,,-0.014172566,0.46493208,-0.3040591,0.4399681,-0.23603919,-0.8664373,0.76286805,0.60726786,0.22194171,0.4737726,-0.75862455,0.44724524,,1.1908299637396709,0.5009196224208243,0.19673404443000003,2.2975727107599333,-0.8039691646198516,-0.4248634292296138,-0.4083601653356981,,-0.20506944874215763,0.33193078166704365,0.19226054764000003,-3.299261570785506,0.1986694706589504,1.0516627677740176,0.8557595624774892,,-0.028595038132362097,-0.02640246825954422,0.113675081,-0.0945277665480292,,4.9561262e-05,1.9073486e-06,-2.026558e-06,1.0,-2.4318695e-05,-2.285093e-05,2.430752e-05,1.0,-2.8014183e-06,2.2862107e-05,2.8312206e-06,1.0,935,2.944,0,4,1.0,False,-0.2570778828531757,1.0303960278500615
