AlexandreBanks6/ExpertPlaybackApp/resources/Motions/P_07/PC1/Data_PC1_9.csv
Task Time,PC1 Time,PC2 Time,Gaze Calib,s_T_psm1,Tx,Ty,Tz,R00,R01,R02,R10,R11,R12,R20,R21,R22,s_T_psm3,Tx,Ty,Tz,R00,R01,R02,R10,R11,R12,R20,R21,R22,cart_T_ecm,Tx,Ty,Tz,R00,R01,R02,R10,R11,R12,R20,R21,R22,ecm_T_psm1,Tx,Ty,Tz,R00,R01,R02,R10,R11,R12,R20,R21,R22,ecm_T_psm3,Tx,Ty,Tz,R00,R01,R02,R10,R11,R12,R20,R21,R22,psm1_joints,q1,q2,q3,q4,q5,q6,jaw,psm3_joints,q1,q2,q3,q4,q5,q6,jaw,ecm_joints,q1,q2,q3,q4,ecmi_T_ecm,Tx,Ty,Tz,R00,R01,R02,R10,R11,R12,R20,R21,R22,Sample #,Task Duration (s),Collisions (binary),Collisions (increments),Cumulative Collision Time (s),Clutch Press,MTMR Angle,MTML Angle
""
lci_T_si,,,,,-0.053492907,0.03067575,0.21583572,0.9922148,0.027492212,0.12146585,0.10393389,-0.72013074,-0.6860098,0.06861137,0.6932935,-0.7173818
rci_T_si,,,,,-0.06295502,0.034948092,0.22635663,0.9921467,0.010968016,0.12459805,0.0950465,-0.7136615,-0.6940126,0.08130889,0.7004049,-0.70909935
ecm_T_lc,,,,,-4.4061628e-05,-0.00034663224,-0.01840835,-0.99912,0.030754527,0.028518902,-0.031987965,-0.99852574,-0.043852776,0.027128186,-0.04472645,0.9986309
ecm_T_rc,,,,,-0.0043358393,0.01870579,-0.007592615,-0.99555075,-0.052743673,-0.078081585,0.04863213,-0.9973746,0.053654674,-0.08070653,0.04961868,0.9955021
cart_T_ecmi,,,,,0.07476978,1.3022323,0.43178007,0.9961213,0.07739788,-0.04185594,0.027623024,-0.72670597,-0.686393,-0.08354233,0.6825745,-0.7260253
ecmac_T_ecmrep_psm1,,,,,0.012989772,-0.26409563,-0.29155013,0.99659246,0.08125139,0.014199966,-0.079952136,0.9939098,-0.07583538,-0.020275215,0.07444165,0.99701923
ecmac_T_ecmrep_psm3,,,,,0.016264312,-0.47033283,-0.5183238,0.99978954,0.020288749,-0.0030332562,-0.020227978,0.99961716,0.018877296,0.0034150917,-0.018811967,0.9998172
""
0,11:15:44.980500,NaN,0,,0.12225118,-0.0022922307,0.023683429,0.865564,0.28613806,-0.41100353,0.28190154,0.39993852,0.87211275,0.41392082,-0.87073195,0.26550967,,0.025242016,0.008923389,0.008862317,-0.80643886,-0.12606853,0.5777222,0.5903248,-0.2282275,0.7742278,0.03424628,0.9654113,0.2584729,,0.07480192,1.3022345,0.43179324,0.99612236,0.07737006,-0.041882213,0.027584892,-0.72670895,-0.6863914,-0.08354233,0.6825745,-0.7260253,,-0.09896331,0.2569223,-0.09019761,-0.89694947,-0.1943509,0.39712635,0.43980598,-0.300169,0.8464451,-0.04530235,0.93387705,0.3547131,,-0.011266342,0.45745596,-0.29983744,0.784645,-0.01860367,-0.6196661,0.5200051,0.5639572,0.64151925,0.33753055,-0.8255944,0.4521802,,1.1545253964979416,0.5367453802243519,0.20011865762000003,3.5431309750580082,0.004099094992963213,-1.183600332142017,-0.4005196501612528,,-0.17552999549824888,0.30051470433469835,0.19766478065,-3.739610452103007,0.07487680187146135,1.254542456218397,0.7737608412780809,,-0.030892327760299636,-0.02567597495840158,0.113675081,-0.0932194237584371,,3.0986965e-05,9.775162e-06,-1.2516975e-05,1.0,-2.7798116e-05,-2.612546e-05,2.7783215e-05,1.0,-3.1888485e-06,2.6132911e-05,3.1888485e-06,1.0,35,0.105,0,0,0.0,False,-0.2559459062012759,0.944408990261846
0.1166509089525789,11:15:45.008250,NaN,0,,0.12218125,-0.002355948,0.023830548,0.8634333,0.29216015,-0.41124848,0.28174764,0.396936,0.87353307,0.41845086,-0.87010586,0.26041225,,0.025323331,0.008953497,0.008875787,-0.80645245,-0.12612268,0.5776913,0.59031206,-0.22814542,0.77426183,0.03414564,0.9654236,0.25844017,,0.07481821,1.3022354,0.43178105,0.9961226,0.07736393,-0.04188801,0.027576484,-0.7267096,-0.68639106,-0.08354233,0.6825745,-0.7260253,,-0.09892513,0.25698522,-0.09036184,-0.8952666,-0.20044838,0.39789215,0.44283718,-0.30229685,0.8441042,-0.048917774,0.9318997,0.35940227,,-0.0113653075,0.4574838,-0.29982454,0.784679,-0.018554317,-0.61962456,0.5199203,0.56402755,0.64152616,0.33758226,-0.82554746,0.45222735,,1.1548806422101558,0.5367067665599807,0.19994625105000002,3.5393565560752864,0.0004099094992963213,-1.1783867227584184,-0.39970292983058153,,-0.1756612819571107,0.30048381340320146,0.19766348436000003,-3.739610452103007,0.07487680187146135,1.2543790987381158,0.7734341531458123,,-0.030892327760299636,-0.02567597495840158,0.113675081,-0.0932194237584371,,4.824996e-05,2.1457672e-06,-4.887581e-06,1.0,-3.392622e-05,-3.1888485e-05,3.3915043e-05,1.0,-3.9041042e-06,3.189221e-05,3.9339066e-06,1.0,42,0.126,0,0,0.0,False,-0.2566012611050077,0.9439744684548308
0.1445899549871683,11:15:45.037113,NaN,0,,0.12212656,-0.002430573,0.024055332,0.85986394,0.30388808,-0.41022667,0.27945018,0.39230436,0.87635887,0.42724875,-0.8681873,0.2524068,,0.025359057,0.008946225,0.008891225,-0.80649436,-0.12628658,0.5775969,0.59027714,-0.22775787,0.7744025,0.033755586,0.9654937,0.25822955,,0.07481821,1.3022354,0.43178105,0.9961226,0.07736393,-0.04188801,0.027576484,-0.7267096,-0.68639106,-0.08354233,0.6825745,-0.7260253,,-0.09889359,0.25708294,-0.09058218,-0.8926005,-0.21237837,0.3976931,0.44719997,-0.30507493,0.84079814,-0.057241134,0.92834514,0.36728564,,-0.011402873,0.45748588,-0.2998369,0.7847799,-0.018407704,-0.6195011,0.51961774,0.5643598,0.6414791,0.33781338,-0.8253237,0.4524632,,1.1555911336345845,0.5366758756284838,0.19972977062000002,3.5336949276012044,-0.008061553486160987,-1.1694368442257261,-0.4001929620289839,,-0.17585435027896631,0.30041430880733344,0.19765570662,-3.7398201420464923,0.07501343837122681,1.2540226446139977,0.7706573040215293,,-0.030892327760299636,-0.02567597495840158,0.113675081,-0.0932194237584371,,4.824996e-05,2.1457672e-06,-4.887581e-06,1.0,-3.392622e-05,-3.1888485e-05,3.3915043e-05,1.0,-3.9041042e-06,3.189221e-05,3.9339066e-06,1.0,54,0.162,0,0,0.0,False,-0.256541683386486,0.9414156178135196
0.17343211686238647,11:15:45.063393,NaN,0,,0.12206927,-0.002456054,0.024283648,0.855199,0.31608635,-0.41076034,0.27837566,0.3883856,0.87844384,0.43719754,-0.86559,0.24415615,,0.025384672,0.008941427,0.008897364,-0.80647504,-0.12652394,0.57757205,0.5903105,-0.22786534,0.7743454,0.033635393,0.9654373,0.25845614,,0.07481821,1.3022354,0.43178105,0.9961226,0.07736393,-0.04188801,0.027576484,-0.7267096,-0.68639106,-0.08354233,0.6825745,-0.7260253,,-0.09885904,0.25721964,-0.0907724,-0.88893586,-0.22483073,0.3990541,0.4532975,-0.30689543,0.83686113,-0.06568423,0.9248061,0.37472555,,-0.011429055,0.457484,-0.29984215,0.78477854,-0.018163227,-0.6195101,0.51955044,0.5642746,0.64160854,0.33792013,-0.82538736,0.4522673,,1.1564638024493719,0.5367762711558488,0.19954569744000003,3.5259363996922772,-0.016533016471618294,-1.1608136806535962,-0.40002961796284986,,-0.17598563673782813,0.3003525269443396,0.19765441033000003,-3.7398201420464923,0.07501343837122681,1.254186002094279,0.7673904226988439,,-0.030892327760299636,-0.02567597495840158,0.113675081,-0.0932194237584371,,4.824996e-05,2.1457672e-06,-4.887581e-06,1.0,-3.392622e-05,-3.1888485e-05,3.3915043e-05,1.0,-3.9041042e-06,3.189221e-05,3.9339066e-06,1.0,62,0.187,0,0,0.0,False,-0.25767366003838577,0.9401603325932535
0.1996650688815862,11:15:45.083240,NaN,0,,0.1220444,-0.0024502426,0.024491176,0.8522476,0.32885376,-0.40685278,0.27297023,0.3839028,0.8821031,0.44627488,-0.8628289,0.23741287,,0.0253959,0.008939043,0.008899152,-0.80667883,-0.12656629,0.5772782,0.590048,-0.2276102,0.7746204,0.033353597,0.9654919,0.25828862,,0.07481821,1.3022354,0.43178105,0.9961226,0.07736393,-0.04188801,0.027576484,-0.7267096,-0.68639106,-0.08354233,0.6825745,-0.7260253,,-0.098854244,0.25736392,-0.09092363,-0.88696074,-0.23787425,0.39587435,0.45550773,-0.30905536,0.8348638,-0.07624551,0.92081517,0.38247353,,-0.011440404,0.4574824,-0.2998441,0.7850258,-0.018132772,-0.61919767,0.5191925,0.5644916,0.64170736,0.33789596,-0.8252396,0.45255485,,1.1572746894011654,0.5368998348818363,0.19940310554000001,3.5223716706530404,-0.02719066345332265,-1.1515513329842915,-0.40051965016125246,,-0.1760396958679477,0.30032163601284273,0.19765441033000003,-3.7402395219334608,0.07501343837122681,1.2539409658738572,0.7672270786327096,,-0.030892327760299636,-0.02567597495840158,0.113675081,-0.0932194237584371,,4.824996e-05,2.1457672e-06,-4.887581e-06,1.0,-3.392622e-05,-3.1888485e-05,3.3915043e-05,1.0,-3.9041042e-06,3.189221e-05,3.9339066e-06,1.0,69,0.208,0,0,0.0,False,-0.2580311263495121,0.9399189315893564
0.2195648499764502,11:15:45.108382,NaN,0,,0.121984355,-0.0024314225,0.024674833,0.84903675,0.33778563,-0.4062479,0.27057177,0.38244456,0.8834744,0.45379227,-0.8600215,0.23331422,,0.025407657,0.008936048,0.008900762,-0.8058164,-0.12614128,0.578574,0.5911763,-0.22781014,0.77370095,0.034209415,0.96550035,0.25814494,,0.07481821,1.3022354,0.43178105,0.9961226,0.07736393,-0.04188801,0.027576484,-0.7267096,-0.68639106,-0.08354233,0.6825745,-0.7260253,,-0.098811924,0.25750378,-0.09105146,-0.8845293,-0.2470574,0.39568996,0.45892102,-0.308736,0.8331108,-0.08366245,0.9185014,0.38646585,,-0.011452227,0.45748013,-0.2998463,0.7840301,-0.018551672,-0.6204455,0.5204738,0.5643119,0.6408269,0.3382364,-0.8253532,0.45209318,,1.1581705264145754,0.5370079531420755,0.19928255057000002,3.5175488019528958,-0.03470567094042187,-1.146403493162675,-0.40117302642578956,,-0.1761014777309415,0.30029074508134584,0.19765441033000003,-3.738562002385585,0.07501343837122681,1.2539409658738572,0.7675537667649781,,-0.030892327760299636,-0.02567597495840158,0.113675081,-0.0932194237584371,,4.824996e-05,2.1457672e-06,-4.887581e-06,1.0,-3.392622e-05,-3.1888485e-05,3.3915043e-05,1.0,-3.9041042e-06,3.189221e-05,3.9339066e-06,1.0,81,0.244,0,0,0.0,False,-0.25761408231986493,0.9401603325932535
0.24471854092553258,11:15:45.148717,NaN,0,,0.12178604,-0.0024442524,0.02511692,0.83936024,0.35764155,-0.4093493,0.26925594,0.38063535,0.8846569,0.47220293,-0.8527657,0.22319299,,0.025428481,0.0089249015,0.008901715,-0.8025763,-0.124183476,0.58348054,0.5953685,-0.22825176,0.7703489,0.03751582,0.9656499,0.25712442,,0.07481821,1.3022354,0.43178105,0.9961226,0.07736393,-0.04188801,0.027576484,-0.7267096,-0.68639106,-0.08354233,0.6825745,-0.7260253,,-0.098657474,0.25780016,-0.0914025,-0.8766984,-0.26754743,0.3997728,0.47075936,-0.3062849,0.82739055,-0.09892185,0.9135688,0.39446995,,-0.01147282,0.4574708,-0.2998532,0.78027576,-0.02050399,-0.6250995,0.5253224,0.56388813,0.63723356,0.33942035,-0.82559663,0.4507594,,1.1603406143522326,0.5370465668064466,0.19894681146,3.501822056191557,-0.05028223191368208,-1.1359888568652188,-0.40084633829352123,,-0.17620959599118063,0.3002135177526036,0.19765311404000002,-3.732271304081049,0.07501343837122681,1.2535325721731545,0.7664103583020381,,-0.030892327760299636,-0.02567597495840158,0.113675081,-0.0932194237584371,,4.824996e-05,2.1457672e-06,-4.887581e-06,1.0,-3.392622e-05,-3.1888485e-05,3.3915043e-05,1.0,-3.9041042e-06,3.189221e-05,3.9339066e-06,1.0,89,0.269,0,0,0.0,False,-0.25820985950507547,0.940305173195592
0.28503814595751464,11:15:45.169486,NaN,0,,0.121669374,-0.0024381876,0.025368169,0.8316695,0.3705713,-0.4135246,0.27013007,0.3806458,0.88438594,0.48513445,-0.84722227,0.21646911,,0.025459334,0.008920655,0.008906901,-0.80200374,-0.12411415,0.5842819,0.5961401,-0.22773597,0.76990473,0.037505955,0.9657805,0.2566346,,0.07481821,1.3022354,0.43178105,0.9961226,0.07736393,-0.04188801,0.027576484,-0.7267096,-0.68639106,-0.08354233,0.6825745,-0.7260253,,-0.09856555,0.25797874,-0.091593385,-0.87028,-0.2809504,0.4045733,0.48045665,-0.30325985,0.82291853,-0.108508445,0.91054946,0.3989055,,-0.011504043,0.45746803,-0.29985693,0.7797018,-0.02059863,-0.62581205,0.5257674,0.56432307,0.63648105,0.34004954,-0.825297,0.45083383,,1.1616303107422281,0.5370465668064466,0.19876662715,3.489240659582485,-0.059983423397028356,-1.1302018329464274,-0.40084633829352134,,-0.1763563279157909,0.300159458622484,0.19765441033000003,-3.731432544307111,0.07542334787052313,1.2530349609817841,0.7667370464343067,,-0.030892327760299636,-0.02567597495840158,0.113675081,-0.0932194237584371,,4.824996e-05,2.1457672e-06,-4.887581e-06,1.0,-3.392622e-05,-3.1888485e-05,3.3915043e-05,1.0,-3.9041042e-06,3.189221e-05,3.9339066e-06,1.0,104,0.315,0,0,0.0,False,-0.25731619372725945,0.9399189315893564
0.3058105958625674,11:15:45.212363,NaN,0,,0.121464044,-0.0023339689,0.025912076,0.8147474,0.4034714,-0.4164101,0.2624162,0.38381925,0.8853364,0.5170341,-0.8305983,0.20683828,,0.025606684,0.008924931,0.008949161,-0.8002365,-0.12440975,0.58663744,0.598426,-0.2290076,0.7677512,0.03882867,0.9654417,0.25771028,,0.07481821,1.3022354,0.43178105,0.9961226,0.07736393,-0.04188801,0.027576484,-0.7267096,-0.68639106,-0.08354233,0.6825745,-0.7260253,,-0.0984121,0.2584304,-0.09194168,-0.85664225,-0.31524837,0.40839022,0.49694428,-0.2915443,0.8173422,-0.13860197,0.90311706,0.40641,,-0.011656138,0.457484,-0.29986832,0.7777268,-0.020239543,-0.62827647,0.5280615,0.5632536,0.6355285,0.34101617,-0.82603616,0.44874516,,1.164619008364553,0.5370002304092013,0.19845681384000002,3.4655456959687343,-0.09058999934448701,-1.1188028933817624,-0.3985595213676413,,-0.17718266033333294,0.2999586675677542,0.19765700291000002,-3.728077505211359,0.07528671137075768,1.2539631662868862,0.7664103583020383,,-0.030892327760299636,-0.02567597495840158,0.113675081,-0.0932194237584371,,4.824996e-05,2.1457672e-06,-4.887581e-06,1.0,-3.392622e-05,-3.1888485e-05,3.3915043e-05,1.0,-3.9041042e-06,3.189221e-05,3.9339066e-06,1.0,112,0.338,0,0,0.0,False,-0.2580311263495121,0.9399189315893564
0.34862940292805433,11:15:45.242219,NaN,0,,0.12128081,-0.0022336394,0.026339442,0.79816437,0.4274695,-0.42450377,0.25818014,0.3939403,0.8821304,0.544313,-0.81368345,0.2040649,,0.025738478,0.008926809,0.008991957,-0.7977761,-0.12458939,0.58994114,0.60157233,-0.23065859,0.7647923,0.040790007,0.9650254,0.25896356,,0.07481821,1.3022354,0.43178105,0.9961226,0.07736393,-0.04188801,0.027576484,-0.7267096,-0.68639106,-0.08354233,0.6825745,-0.7260253,,-0.09826945,0.25880012,-0.0922048,-0.8428406,-0.34060556,0.41666237,0.51290745,-0.27400565,0.8135397,-0.16292831,0.89939356,0.40564224,,-0.011792904,0.45750067,-0.29988325,0.7749595,-0.019978687,-0.6316951,0.5313183,0.56185764,0.634048,0.34225523,-0.82699263,0.44603193,,1.1670671146856821,0.5368921121489622,0.19823125938000002,3.442479802185436,-0.11532120580203174,-1.116932290604196,-0.40345984335166984,,-0.1779317654221327,0.29978876744452126,0.19765441033000003,-3.7234643264546987,0.07528671137075768,1.2552700261291352,0.7654302939052328,,-0.030892327760299636,-0.02567597495840158,0.113675081,-0.0932194237584371,,4.824996e-05,2.1457672e-06,-4.887581e-06,1.0,-3.392622e-05,-3.1888485e-05,3.3915043e-05,1.0,-3.9041042e-06,3.189221e-05,3.9339066e-06,1.0,124,0.375,0,0,0.0,False,-0.25719703829021734,0.9403534533963716
0.3785536689683795,11:15:45.272677,NaN,0,,0.121090055,-0.002147153,0.026767045,0.78504044,0.4499377,-0.42575514,0.25049376,0.39802527,0.8825127,0.566537,-0.7994572,0.1997593,,0.025825366,0.008924827,0.009022713,-0.7975405,-0.1253799,0.5900923,0.60191643,-0.23076364,0.7644899,0.040320203,0.964898,0.25951156,,0.07481821,1.3022354,0.43178105,0.9961226,0.07736393,-0.04188801,0.027576484,-0.7267096,-0.68639106,-0.08354233,0.6825745,-0.7260253,,-0.09811954,0.25916013,-0.09247799,-0.83204776,-0.36427566,0.4183297,0.522749,-0.26266176,0.8110131,-0.18555313,0.8934831,0.40897188,,-0.011883404,0.45751128,-0.29989716,0.7747934,-0.019176766,-0.6319237,0.53118026,0.5617887,0.6342248,0.34284517,-0.8270585,0.44545645,,1.169716012061541,0.536783993888723,0.19797848283000002,3.424656156989252,-0.14005241225957646,-1.1096708909773525,-0.4016630586241927,,-0.17841057486033463,0.29967292645140786,0.19764922517000003,-3.7232546365112142,0.07555998437028857,1.2555372627625856,0.7664103583020381,,-0.030892327760299636,-0.02567597495840158,0.113675081,-0.0932194237584371,,4.824996e-05,2.1457672e-06,-4.887581e-06,1.0,-3.392622e-05,-3.1888485e-05,3.3915043e-05,1.0,-3.9041042e-06,3.189221e-05,3.9339066e-06,1.0,132,0.4,0,0,0.0,False,-0.25731619372725945,0.9404500137979306
0.4089995769318193,11:15:45.301360,NaN,0,,0.12079511,-0.0020665228,0.027243465,0.7711187,0.47136042,-0.42801306,0.24591826,0.39957798,0.88309777,0.5872819,-0.78622943,0.19220582,,0.025971092,0.00892061,0.009101927,-0.797689,-0.12651765,0.5896484,0.60177517,-0.23099604,0.7645309,0.039479792,0.9646938,0.26039818,,0.07481821,1.3022354,0.43178105,0.9961226,0.07736393,-0.04188801,0.027576484,-0.7267096,-0.68639106,-0.08354233,0.6825745,-0.7260253,,-0.09787076,0.25955397,-0.092799686,-0.8202689,-0.38684887,0.42131564,0.53395325,-0.2538088,0.8065203,-0.20506783,0.8865264,0.4147507,,-0.012039379,0.45754868,-0.2999397,0.7750691,-0.018018441,-0.6316195,0.5304908,0.5616195,0.6349512,0.34328902,-0.8271994,0.44485256,,1.1724035231017713,0.5366218164983643,0.19771922483,3.4076712715670054,-0.1587716127274418,-1.099960792500501,-0.40084633829352145,,-0.179283243675122,0.2995107490610492,0.19761681792000002,-3.7236740163981836,0.07555998437028857,1.2557822989830072,0.7662470142359038,,-0.030892327760299636,-0.02567597495840158,0.113675081,-0.0932194237584371,,4.824996e-05,2.1457672e-06,-4.887581e-06,1.0,-3.392622e-05,-3.1888485e-05,3.3915043e-05,1.0,-3.9041042e-06,3.189221e-05,3.9339066e-06,1.0,140,0.424,0,0,0.0,False,-0.25767366003838577,0.9404500137979306
0.43769765784963965,11:15:45.323890,NaN,0,,0.120608866,-0.0020266026,0.027514637,0.76366794,0.48314974,-0.42822596,0.24248168,0.40008125,0.8838199,0.5983425,-0.77878195,0.18837425,,0.026101895,0.008911312,0.009200573,-0.79759127,-0.12780645,0.58950275,0.601948,-0.23153126,0.7642328,0.038814425,0.9643955,0.2616002,,0.07481821,1.3022354,0.43178105,0.9961226,0.07736393,-0.04188801,0.027576484,-0.7267096,-0.68639106,-0.08354233,0.6825745,-0.7260253,,-0.09771098,0.25977466,-0.0929883,-0.8139766,-0.39929304,0.42190903,0.5391886,-0.24908511,0.80450743,-0.21614294,0.88233876,0.4180437,,-0.012183463,0.4575985,-0.3000003,0.77507097,-0.016692877,-0.63165367,0.5301114,0.56119555,0.6356426,0.34387052,-0.8275149,0.44381547,,1.1741334152655976,0.5364441936422571,0.19755589229,3.3982352241102016,-0.17038571520750423,-1.0940024565123494,-0.4010096823596556,,-0.18011729882553823,0.29940263080081003,0.19756237374000002,-3.7236740163981836,0.07569662087005401,1.256405989740576,0.7660836701697696,,-0.030892327760299636,-0.02567597495840158,0.113675081,-0.0932194237584371,,4.824996e-05,2.1457672e-06,-4.887581e-06,1.0,-3.392622e-05,-3.1888485e-05,3.3915043e-05,1.0,-3.9041042e-06,3.189221e-05,3.9339066e-06,1.0,151,0.457,0,0,0.0,False,-0.25761408231986493,0.9404500137979306
0.4602218058425933,11:15:45.355182,NaN,0,,0.120244674,-0.0019453913,0.028152138,0.74629337,0.51166725,-0.42572612,0.22768837,0.40477118,0.8856175,0.6254631,-0.75786334,0.1855773,,0.026195921,0.008898824,0.009303331,-0.7977452,-0.12944952,0.5889357,0.60176367,-0.23328155,0.7638456,0.03850834,0.9637544,0.2639973,,0.07481821,1.3022354,0.43178105,0.9961226,0.07736393,-0.04188801,0.027576484,-0.7267096,-0.68639106,-0.08354233,0.6825745,-0.7260253,,-0.09740884,0.26028022,-0.093434125,-0.79953843,-0.4296204,0.4197197,0.54725325,-0.23314197,0.80384,-0.24749176,0.8723939,0.42151713,,-0.012291792,0.45765364,-0.30006948,0.7752717,-0.014950307,-0.63145095,0.52978253,0.55974424,0.6371945,0.3439248,-0.82853055,0.4418743,,1.1778866634424707,0.5359731069369295,0.19718644964,3.379572819140079,-0.20331511165097538,-1.0838132047101867,-0.4016630586241927,,-0.18078917658559576,0.29934857167069046,0.19749367037,-3.723883706341668,0.07542334787052313,1.2583440790909206,0.7655936379713667,,-0.030892327760299636,-0.02567597495840158,0.113675081,-0.0932194237584371,,4.824996e-05,2.1457672e-06,-4.887581e-06,1.0,-3.392622e-05,-3.1888485e-05,3.3915043e-05,1.0,-3.9041042e-06,3.189221e-05,3.9339066e-06,1.0,159,0.482,0,0,0.0,False,-0.25761408231986493,0.9399189315893564
0.4915028898976743,11:15:45.383300,NaN,0,,0.12006634,-0.0018979907,0.028440714,0.7372151,0.52449244,-0.42593613,0.22214597,0.40719873,0.8859121,0.6380949,-0.74772775,0.18367907,,0.026241131,0.008880541,0.009373128,-0.79727715,-0.12975362,0.5895023,0.6023966,-0.23301509,0.7634279,0.038305342,0.9637779,0.26394078,,0.07481821,1.3022354,0.43178105,0.9961226,0.07736393,-0.04188801,0.027576484,-0.7267096,-0.68639106,-0.08354233,0.6825745,-0.7260253,,-0.097258486,0.26051766,-0.093629904,-0.7918113,-0.44332477,0.42011672,0.55206203,-0.22524929,0.8028015,-0.26127082,0.86759776,0.4230977,,-0.01234682,0.45768672,-0.30012545,0.77483195,-0.014656573,-0.63199735,0.5300059,0.5599777,0.6368035,0.34457108,-0.828378,0.44165668,,1.1796397238049197,0.5357568704164511,0.19702830226,3.369298011909337,-0.21779858062611207,-1.0790272785704542,-0.4023164348887296,,-0.18112897683206164,0.299333126204942,0.19743792990000003,-3.7232546365112142,0.07583325736981945,1.2580915041199718,0.7657569820375011,,-0.030892327760299636,-0.02567597495840158,0.113675081,-0.0932194237584371,,4.824996e-05,2.1457672e-06,-4.887581e-06,1.0,-3.392622e-05,-3.1888485e-05,3.3915043e-05,1.0,-3.9041042e-06,3.189221e-05,3.9339066e-06,1.0,167,0.506,0,0,0.0,False,-0.25731619372725945,0.9395809701839002
0.5196288670413196,11:15:45.405766,NaN,0,,0.11978228,-0.0018236786,0.02879712,0.72305,0.54158306,-0.42881972,0.21930492,0.40868685,0.8859347,0.6550603,-0.73461735,0.17672923,,0.02628626,0.00886026,0.0094637275,-0.7968832,-0.12998682,0.5899833,0.6029445,-0.23235488,0.7631967,0.037880003,0.96390593,0.2635346,,0.07481821,1.3022354,0.43178105,0.9961226,0.07736393,-0.04188801,0.027576484,-0.7267096,-0.68639106,-0.08354233,0.6825745,-0.7260253,,-0.09700905,0.26082602,-0.093866415,-0.77939785,-0.46157637,0.42365816,0.56204116,-0.21629265,0.7983278,-0.2768551,0.86032826,0.42800292,,-0.012404874,0.4577336,-0.30019677,0.7745002,-0.014453552,-0.6324085,0.53001875,0.5605444,0.63629407,0.34529635,-0.8279982,0.4418024,,1.182056939194552,0.5353784565056141,0.19683774763000003,3.3512646767696683,-0.23419496059796494,-1.0697410671339118,-0.3990495535660441,,-0.18150739074289865,0.29935629440356465,0.19736404137000002,-3.7228352566242453,0.07637980336888121,1.2574007962847644,0.7652669498390984,,-0.030892327760299636,-0.02567597495840158,0.113675081,-0.0932194237584371,,4.824996e-05,2.1457672e-06,-4.887581e-06,1.0,-3.392622e-05,-3.1888485e-05,3.3915043e-05,1.0,-3.9041042e-06,3.189221e-05,3.9339066e-06,1.0,175,0.531,0,0,0.0,False,-0.257435349164302,0.9373600809480447
0.542105016997084,11:15:45.434004,NaN,0,,0.119614236,-0.0017823577,0.029048175,0.7148497,0.55476385,-0.42570746,0.21426019,0.40573442,0.8885225,0.6656442,-0.72637224,0.1711753,,0.026310056,0.008836016,0.009537876,-0.7968195,-0.13007407,0.59005016,0.6030717,-0.23131716,0.76341134,0.037188724,0.96414363,0.26276204,,0.07481821,1.3022354,0.43178105,0.9961226,0.07736393,-0.04188801,0.027576484,-0.7267096,-0.68639106,-0.08354233,0.6825745,-0.7260253,,-0.096865416,0.26103336,-0.09403775,-0.7723389,-0.47553685,0.42113814,0.5658044,-0.21367458,0.7963721,-0.28871775,0.853351,0.43409005,,-0.012439301,0.45776832,-0.30026197,0.77454025,-0.014416065,-0.63236034,0.52959365,0.56142837,0.6358685,0.34585834,-0.82739973,0.44248354,,1.1836169312351452,0.5351467745193874,0.19670293347,3.3422480091998334,-0.24676551857638546,-1.0597356562142628,-0.40133637049192417,,-0.1817390727291254,0.2993717398693131,0.19729663429000002,-3.7230449465677298,0.07692634936794297,1.2563833734889949,0.7637968532438897,,-0.030892327760299636,-0.02567597495840158,0.113675081,-0.0932194237584371,,4.824996e-05,2.1457672e-06,-4.887581e-06,1.0,-3.392622e-05,-3.1888485e-05,3.3915043e-05,1.0,-3.9041042e-06,3.189221e-05,3.9339066e-06,1.0,194,0.589,0,0,0.0,False,-0.25779281547542787,0.9354771531176462
0.5703258670400828,11:15:45.483022,NaN,0,,0.119283244,-0.0016985983,0.029556304,0.69731444,0.5781242,-0.42370352,0.2059846,0.4045636,0.8910099,0.6865295,-0.70859057,0.16302332,,0.026313446,0.008801162,0.009608865,-0.79621345,-0.13032804,0.5908118,0.6038753,-0.23112133,0.76283514,0.037130386,0.9641564,0.2627238,,0.07481821,1.3022354,0.43178105,0.9961226,0.07736393,-0.04188801,0.027576484,-0.7267096,-0.68639106,-0.08354233,0.6825745,-0.7260253,,-0.09658377,0.26145262,-0.0943837,-0.7570358,-0.50052124,0.4199705,0.57454836,-0.20390294,0.792665,-0.31111243,0.84136915,0.4419355,,-0.01245297,0.4577961,-0.30033487,0.7739401,-0.014169359,-0.63310033,0.53002095,0.56160027,0.6353605,0.34654665,-0.8272874,0.442155,,1.1866596879875897,0.5347838060742989,0.19643200886,3.322327464568804,-0.2704036330358066,-1.0446259746219506,-0.4010096823596556,,-0.18185491372223875,0.29937946260218734,0.19722144947000003,-3.7222061867937914,0.07747289536700473,1.256346095574912,0.7613466922518753,,-0.030892327760299636,-0.02567597495840158,0.113675081,-0.0932194237584371,,4.824996e-05,2.1457672e-06,-4.887581e-06,1.0,-3.392622e-05,-3.1888485e-05,3.3915043e-05,1.0,-3.9041042e-06,3.189221e-05,3.9339066e-06,1.0,198,0.601,0,0,0.0,False,-0.25642252794944387,0.9337390658895859
0.6193526599090546,11:15:45.509965,NaN,0,,0.11915814,-0.0016441345,0.029814273,0.6860271,0.58950925,-0.42643344,0.20147246,0.40926427,0.8898941,0.6991248,-0.6964061,0.16199648,,0.026309729,0.00878346,0.009642661,-0.7959813,-0.13034822,0.59112006,0.60419536,-0.2306157,0.7627348,0.03690049,0.96427476,0.26232162,,0.07481821,1.3022354,0.43178105,0.9961226,0.07736393,-0.04188801,0.027576484,-0.7267096,-0.68639106,-0.08354233,0.6825745,-0.7260253,,-0.09648333,0.26167202,-0.094547786,-0.74709046,-0.5129544,0.42276892,0.5802147,-0.19287789,0.7912958,-0.32435593,0.8364663,0.44172093,,-0.012454192,0.4578092,-0.3003709,0.7737415,-0.014173548,-0.6333429,0.53004175,0.5620301,0.634963,0.34695807,-0.8269954,0.44237852,,1.1879957207748306,0.5346834105469339,0.19631404647000003,3.309746067959732,-0.28420391951211615,-1.0416223191028087,-0.3998662738967156,,-0.18187808192086144,0.2993949080679358,0.19718385706000002,-3.7219964968503074,0.07788280486630106,1.255930163123682,0.7605299719212042,,-0.030892327760299636,-0.02567597495840158,0.113675081,-0.0932194237584371,,4.824996e-05,2.1457672e-06,-4.887581e-06,1.0,-3.392622e-05,-3.1888485e-05,3.3915043e-05,1.0,-3.9041042e-06,3.189221e-05,3.9339066e-06,1.0,210,0.637,0,0,0.0,False,-0.25683957197909146,0.9331114232794526
0.646306024864316,11:15:45.534527,NaN,0,,0.11908983,-0.0016155988,0.029947788,0.6799359,0.59581923,-0.4274184,0.19996107,0.41014057,0.88983154,0.7054804,-0.6904955,0.15972865,,0.026307866,0.0087751,0.009658992,-0.79608977,-0.13047215,0.59094673,0.60406,-0.23065573,0.7628299,0.036777183,0.9642483,0.26243567,,0.07481821,1.3022354,0.43178105,0.9961226,0.07736393,-0.04188801,0.027576484,-0.7267096,-0.68639106,-0.08354233,0.6825745,-0.7260253,,-0.09642779,0.26178604,-0.0946328,-0.74166626,-0.51979125,0.4239672,0.5836629,-0.18861338,0.7897864,-0.33055815,0.8332119,0.44327107,,-0.01245471,0.45781565,-0.30038813,0.773869,-0.01404657,-0.63319,0.5298736,0.5619987,0.635131,0.34693056,-0.8270188,0.4423563,,1.1886830440006366,0.534652519615437,0.19625182455,3.3026166098812584,-0.29062583500109185,-1.0381826099121692,-0.40051965016125246,,-0.18189352738660988,0.2993949080679358,0.19716570900000002,-3.7222061867937914,0.07788280486630106,1.2560118418638226,0.7593865634582642,,-0.030892327760299636,-0.02567597495840158,0.113675081,-0.0932194237584371,,4.824996e-05,2.1457672e-06,-4.887581e-06,1.0,-3.392622e-05,-3.1888485e-05,3.3915043e-05,1.0,-3.9041042e-06,3.189221e-05,3.9339066e-06,1.0,218,0.662,0,0,0.0,False,-0.2575545046013441,0.9320492588623046
0.6708010898437351,11:15:45.560571,NaN,0,,0.11903587,-0.0015788823,0.03016147,0.667475,0.6098609,-0.42725486,0.19692892,0.40877604,0.89113474,0.71811986,-0.67894894,0.1527485,,0.026315898,0.008762553,0.0096747875,-0.79408705,-0.12966269,0.59381235,0.60662115,-0.2299909,0.760996,0.03789863,0.9645163,0.26128894,,0.07481821,1.3022354,0.43178105,0.9961226,0.07736393,-0.04188801,0.027576484,-0.7267096,-0.68639106,-0.08354233,0.6825745,-0.7260253,,-0.09639415,0.26195893,-0.09477024,-0.7305339,-0.5349024,0.4244993,0.59051937,-0.18265674,0.786081,-0.342939,0.8249339,0.44930717,,-0.01246489,0.45781776,-0.3004072,0.77168834,-0.014895377,-0.6358264,0.5321788,0.5625456,0.6327149,0.34825683,-0.8266321,0.44203687,,1.189455317288059,0.5346447968825628,0.19615849167000002,3.2885673836677953,-0.3033330294792778,-1.0281474598289644,-0.4011730264257898,,-0.1819398637838552,0.2993949080679358,0.19714885723000003,-3.7188511476980395,0.0787026238648937,1.255179976961363,0.7590598753259956,,-0.030892327760299636,-0.02567597495840158,0.113675081,-0.0932194237584371,,4.824996e-05,2.1457672e-06,-4.887581e-06,1.0,-3.392622e-05,-3.1888485e-05,3.3915043e-05,1.0,-3.9041042e-06,3.189221e-05,3.9339066e-06,1.0,226,0.687,0,0,0.0,False,-0.25719703829021734,0.9306974132404799
0.6968691439833492,11:15:45.583197,NaN,0,,0.11900452,-0.0015672147,0.030282468,0.66152513,0.61682427,-0.42651168,0.19499198,0.4076997,0.89205325,0.72412884,-0.673282,0.1494278,,0.0263208,0.00876154,0.00968653,-0.79441565,-0.13003303,0.5932917,0.60621345,-0.23011705,0.7612827,0.03753461,0.9644364,0.26163638,,0.07481821,1.3022354,0.43178105,0.9961226,0.07736393,-0.04188801,0.027576484,-0.7267096,-0.68639106,-0.08354233,0.6825745,-0.7260253,,-0.09637446,0.2620501,-0.094854295,-0.7252236,-0.5423967,0.42409495,0.5934127,-0.1800389,0.78450453,-0.3491591,0.8206045,0.4524336,,-0.012471501,0.45782503,-0.30041537,0.7720732,-0.0145156635,-0.6353678,0.53167796,0.5624466,0.6332238,0.34816882,-0.8267062,0.4419676,,1.1898800675961414,0.534652519615437,0.19609756604000003,3.282066995419775,-0.30975494496825345,-1.0228291396150921,-0.40133637049192417,,-0.18198620018110057,0.29940263080081003,0.19713978320000003,-3.7194802175284933,0.0787026238648937,1.2554250131817848,0.7575897787307871,,-0.030892327760299636,-0.02567597495840158,0.113675081,-0.0932194237584371,,4.824996e-05,2.1457672e-06,-4.887581e-06,1.0,-3.392622e-05,-3.1888485e-05,3.3915043e-05,1.0,-3.9041042e-06,3.189221e-05,3.9339066e-06,1.0,230,0.699,0,0,0.0,False,-0.25767366003838577,0.929586968622552
0.7195339298341423,11:15:45.606217,NaN,0,,0.11898361,-0.0015500337,0.030376047,0.65586996,0.6227585,-0.42662197,0.19360517,0.40747964,0.8924558,0.7296242,-0.66793114,0.14668435,,0.026337668,0.008760273,0.009703338,-0.79462814,-0.13041207,0.5929239,0.60595345,-0.23027566,0.7614417,0.037234724,0.96434736,0.2620072,,0.07481821,1.3022354,0.43178105,0.9961226,0.07736393,-0.04188801,0.027576484,-0.7267096,-0.68639106,-0.08354233,0.6825745,-0.7260253,,-0.09636242,0.26212648,-0.09491352,-0.7201483,-0.5488228,0.42447603,0.59635556,-0.1769421,0.7829761,-0.35460746,0.8169975,0.4547181,,-0.012490694,0.45783436,-0.30042592,0.7723318,-0.014125591,-0.63506234,0.5313096,0.5623201,0.6336452,0.3481577,-0.826799,0.44180274,,1.1901966996439846,0.5346602423483112,0.19605867734000001,3.27577629711524,-0.3153570414586365,-1.018751078004382,-0.40133637049192417,,-0.18210204117421394,0.2993949080679358,0.19712941288000002,-3.719899597415462,0.0787026238648937,1.2556700494022064,0.7567730584001159,,-0.030892327760299636,-0.02567597495840158,0.113675081,-0.0932194237584371,,4.824996e-05,2.1457672e-06,-4.887581e-06,1.0,-3.392622e-05,-3.1888485e-05,3.3915043e-05,1.0,-3.9041042e-06,3.189221e-05,3.9339066e-06,1.0,241,0.733,0,0,0.0,False,-0.2566608388235285,0.9278488813944916
0.7425559589173645,11:15:45.633626,NaN,0,,0.11895942,-0.0015090704,0.030537516,0.645137,0.6336398,-0.42696455,0.18936382,0.40877613,0.8927729,0.74022937,-0.6568125,0.14372808,,0.026355468,0.0087631345,0.00971669,-0.7945832,-0.13099131,0.5928563,0.60602295,-0.23071125,0.76125455,0.037060916,0.96416473,0.26270306,,0.07481821,1.3022354,0.43178105,0.9961226,0.07736393,-0.04188801,0.027576484,-0.7267096,-0.68639106,-0.08354233,0.6825745,-0.7260253,,-0.09635329,0.26226604,-0.0950072,-0.7105582,-0.5607055,0.42510757,0.60086364,-0.16912875,0.78125435,-0.36615568,0.8105584,0.45708334,,-0.0125103425,0.45784387,-0.3004311,0.7723128,-0.013520091,-0.6350985,0.53122455,0.56196254,0.63403356,0.34832937,-0.8270522,0.4411931,,1.1907218454794317,0.5346370741496885,0.19600812203,3.2646627301105595,-0.3273810534379953,-1.0130302394861253,-0.40198974675646126,,-0.18222560490020154,0.29940263080081003,0.19712422772000002,-3.719899597415462,0.07883926036465913,1.2562937401597751,0.75464958554037,,-0.030892327760299636,-0.02567597495840158,0.113675081,-0.0932194237584371,,4.824996e-05,2.1457672e-06,-4.887581e-06,1.0,-3.392622e-05,-3.1888485e-05,3.3915043e-05,1.0,-3.9041042e-06,3.189221e-05,3.9339066e-06,1.0,249,0.756,0,0,0.0,False,-0.2564821056679656,0.9274143595874764
0.7699473488610238,11:15:45.655858,NaN,0,,0.11895936,-0.0014680177,0.030658811,0.63545716,0.64303225,-0.42743856,0.1851027,0.41057122,0.8928427,0.7496207,-0.6464833,0.14187333,,0.026376188,0.0087659955,0.009730697,-0.79461795,-0.1314743,0.5927028,0.60597557,-0.23140416,0.76108193,0.037091225,0.9639329,0.2635482,,0.07481821,1.3022354,0.43178105,0.9961226,0.07736393,-0.04188801,0.027576484,-0.7267096,-0.68639106,-0.08354233,0.6825745,-0.7260253,,-0.096364304,0.26237756,-0.095069185,-0.7018991,-0.5710223,0.42575952,0.6044901,-0.16139378,0.7800921,-0.37673506,0.8049134,0.4584595,,-0.012532982,0.45785356,-0.30043644,0.77234316,-0.012999091,-0.6350725,0.5312188,0.56138396,0.63455075,0.34827092,-0.8274534,0.4404864,,1.191038477527275,0.534613905951066,0.1959860851,3.2550169927102712,-0.338448609918996,-1.0087427562148676,-0.4018264026903271,,-0.18235689135906336,0.2993949080679358,0.19711904256,-3.719899597415462,0.0787026238648937,1.257058587984596,0.7533428330112958,,-0.030892327760299636,-0.02567597495840158,0.113675081,-0.0932194237584371,,4.824996e-05,2.1457672e-06,-4.887581e-06,1.0,-3.392622e-05,-3.1888485e-05,3.3915043e-05,1.0,-3.9041042e-06,3.189221e-05,3.9339066e-06,1.0,257,0.781,0,0,0.0,False,-0.2568991496976123,0.926545315973446
0.792176789836958,11:15:45.684986,NaN,0,,0.11894922,-0.0014028102,0.030816793,0.6208906,0.6566619,-0.42812368,0.18027449,0.41189802,0.8932195,0.7628865,-0.6317714,0.13736415,,0.026418403,0.008773014,0.0097536445,-0.79431736,-0.13175474,0.5930433,0.6063514,-0.23201993,0.76059496,0.037385836,0.96374655,0.2641872,,0.07481821,1.3022354,0.43178105,0.9961226,0.07736393,-0.04188801,0.027576484,-0.7267096,-0.68639106,-0.08354233,0.6825745,-0.7260253,,-0.09636845,0.26253206,-0.09514287,-0.68876016,-0.58598673,0.4268829,0.61054397,-0.15130302,0.7773953,-0.39095467,0.7960697,0.46198213,,-0.012578258,0.45786992,-0.30044267,0.77199686,-0.012686128,-0.6354997,0.53165096,0.5608663,0.63464653,0.34837916,-0.82780915,0.43973163,,1.1914709505682315,0.5345598468209464,0.19596793704,3.239919316779386,-0.353341988393429,-1.0007638204591263,-0.40247977895486375,,-0.1826271870096612,0.29937946260218734,0.1971138574,-3.719270527585009,0.07856598736512826,1.2575783995889953,0.7531794889451617,,-0.030892327760299636,-0.02567597495840158,0.113675081,-0.0932194237584371,,4.824996e-05,2.1457672e-06,-4.887581e-06,1.0,-3.392622e-05,-3.1888485e-05,3.3915043e-05,1.0,-3.9041042e-06,3.189221e-05,3.9339066e-06,1.0,265,0.805,0,0,0.0,False,-0.25767366003838577,0.9263039149695493
0.8213228308595717,11:15:45.706528,NaN,0,,0.11892191,-0.0013550669,0.030921817,0.6100448,0.6655256,-0.4300242,0.17882028,0.41307217,0.89296955,0.7719252,-0.62164855,0.132983,,0.026449509,0.008777082,0.009771705,-0.7929515,-0.13129771,0.5949694,0.6080649,-0.23229393,0.75914204,0.038534164,0.963743,0.26403525,,0.07481821,1.3022354,0.43178105,0.9961226,0.07736393,-0.04188801,0.027576484,-0.7267096,-0.68639106,-0.08354233,0.6825745,-0.7260253,,-0.09635066,0.2626391,-0.09519059,-0.6788625,-0.5957672,0.42919356,0.6160798,-0.1441387,0.7743834,-0.3994889,0.7901174,0.4648905,,-0.012611795,0.45788214,-0.30044886,0.770452,-0.013133962,-0.63736266,0.53347987,0.560624,0.6333245,0.34900278,-0.82796633,0.4389406,,1.1918107508146976,0.534513510423701,0.19595497414000002,3.2277573000572835,-0.36222336087818263,-0.9949101953012485,-0.40002961796284997,,-0.18282797806439105,0.29937946260218734,0.19710867224000003,-3.716754248263194,0.0787026238648937,1.2575486604254391,0.7526894567467586,,-0.030892327760299636,-0.02567597495840158,0.113675081,-0.0932194237584371,,4.824996e-05,2.1457672e-06,-4.887581e-06,1.0,-3.392622e-05,-3.1888485e-05,3.3915043e-05,1.0,-3.9041042e-06,3.189221e-05,3.9339066e-06,1.0,273,0.83,0,0,0.0,False,-0.25624379479388093,0.9256279921586366
0.8428635888267308,11:15:45.736012,NaN,0,,0.11888078,-0.0012876838,0.031068206,0.5930608,0.67944115,-0.43201688,0.17747036,0.4130555,0.8932465,0.7853554,-0.60641974,0.12438634,,0.026498944,0.00878644,0.009796917,-0.79333484,-0.1318146,0.5943438,0.60761154,-0.23203912,0.75958276,0.037786886,0.9637338,0.2641768,,0.07481821,1.3022354,0.43178105,0.9961226,0.07736393,-0.04188801,0.027576484,-0.7267096,-0.68639106,-0.08354233,0.6825745,-0.7260253,,-0.096322805,0.2627891,-0.09525681,-0.66327864,-0.6110872,0.4320115,0.62495315,-0.13471472,0.7689509,-0.41169775,0.78001565,0.47125426,,-0.012664581,0.45790088,-0.3004542,0.77094954,-0.0126248,-0.6367711,0.5326758,0.5608512,0.63379997,0.34913224,-0.82782036,0.4391129,,1.1922355011227799,0.5344285603620845,0.19593941866000003,3.2084658252567073,-0.3749305553563686,-0.983649864115935,-0.4018264026903271,,-0.1831291646464858,0.2993717398693131,0.19710478337,-3.717593008037132,0.07883926036465913,1.2573555637816023,0.7525261126806244,,-0.030892327760299636,-0.02567597495840158,0.113675081,-0.0932194237584371,,4.824996e-05,2.1457672e-06,-4.887581e-06,1.0,-3.392622e-05,-3.1888485e-05,3.3915043e-05,1.0,-3.9041042e-06,3.189221e-05,3.9339066e-06,1.0,288,0.875,0,0,0.0,False,-0.25731619372725945,0.9258211129617546
0.872334019979462,11:15:45.774985,NaN,0,,0.11883017,-0.0011834651,0.031289637,0.56807774,0.7005984,-0.43179792,0.17336181,0.4110335,0.89498436,0.8045081,-0.583278,0.11204195,,0.02656433,0.008795753,0.0098282695,-0.7934617,-0.13227612,0.59407187,0.6074617,-0.23231578,0.7596181,0.037532926,0.96360385,0.26468638,,0.07481821,1.3022354,0.43178105,0.9961226,0.07736393,-0.04188801,0.027576484,-0.7267096,-0.68639106,-0.08354233,0.6825745,-0.7260253,,-0.09629219,0.2630171,-0.09535449,-0.64033043,-0.6344102,0.4330134,0.63602746,-0.12187649,0.76198107,-0.43063444,0.7633281,0.48154354,,-0.0127340695,0.45792213,-0.3004622,0.7711151,-0.012145563,-0.6365799,0.5324049,0.5606252,0.6342274,0.34917966,-0.8279806,0.43877295,,1.1928224288212208,0.5343281648347196,0.19592386318000002,3.181206132603719,-0.3948794843221229,-0.9648508092319003,-0.4010096823596556,,-0.18353074675594547,0.299333126204942,0.19709959821000003,-3.7178026979806167,0.0787026238648937,1.2575486604254393,0.751709392349953,,-0.030892327760299636,-0.02567597495840158,0.113675081,-0.0932194237584371,,4.824996e-05,2.1457672e-06,-4.887581e-06,1.0,-3.392622e-05,-3.1888485e-05,3.3915043e-05,1.0,-3.9041042e-06,3.189221e-05,3.9339066e-06,1.0,296,0.9,0,0,0.0,False,-0.2571374605716965,0.9259659535640927
0.9113221808802336,11:15:45.804449,NaN,0,,0.118788786,-0.0010929853,0.031470865,0.5473031,0.716702,-0.4322007,0.16919994,0.41099507,0.89579827,0.8196528,-0.56340146,0.10367286,,0.026615605,0.008796573,0.009853065,-0.7940377,-0.13293529,0.59315425,0.606723,-0.23319289,0.75993955,0.037296593,0.9633013,0.2658189,,0.07481821,1.3022354,0.43178105,0.9961226,0.07736393,-0.04188801,0.027576484,-0.7267096,-0.68639106,-0.08354233,0.6825745,-0.7260253,,-0.09626708,0.26320753,-0.095430985,-0.62118405,-0.65235716,0.4342355,0.6441608,-0.10947954,0.75701463,-0.44630402,0.74996287,0.48822987,,-0.0127885,0.45793456,-0.3004734,0.7717294,-0.01143746,-0.63584816,0.5318033,0.5598919,0.6353789,0.3487391,-0.82848674,0.43816748,,1.1932780700608001,0.5342586602388516,0.19591867802000001,3.1589789985943595,-0.4115491372935066,-0.9510127887605151,-0.40149971455805833,,-0.18384737880378868,0.29925589887619974,0.19709182047,-3.718641457754555,0.07815607786583194,1.2584027257409278,0.7518727364160872,,-0.030892327760299636,-0.02567597495840158,0.113675081,-0.0932194237584371,,4.824996e-05,2.1457672e-06,-4.887581e-06,1.0,-3.392622e-05,-3.1888485e-05,3.3915043e-05,1.0,-3.9041042e-06,3.189221e-05,3.9339066e-06,1.0,304,0.924,0,0,0.0,False,-0.25683957197909146,0.9252900307531804
0.940789382904768,11:15:45.825796,NaN,0,,0.1187621,-0.0010286123,0.0315907,0.5350876,0.726537,-0.43107447,0.16554564,0.4102,0.89684474,0.82841766,-0.55125296,0.09921786,,0.02665563,0.008792505,0.00986886,-0.79401237,-0.13321602,0.5931253,0.60676706,-0.23325479,0.75988543,0.037120372,0.9632474,0.2660383,,0.07481821,1.3022354,0.43178105,0.9961226,0.07736393,-0.04188801,0.027576484,-0.7267096,-0.68639106,-0.08354233,0.6825745,-0.7260253,,-0.096251085,0.26333678,-0.09547844,-0.60993147,-0.663331,0.43356153,0.6479537,-0.10247474,0.7547549,-0.4562232,0.74127656,0.49231035,,-0.012830412,0.45793855,-0.30048323,0.7717304,-0.01115108,-0.63585204,0.5317017,0.55984455,0.6355056,0.34889174,-0.8285226,0.43797815,,1.193617870307266,0.5342509375059774,0.19591867802000001,3.1463976019852877,-0.42220678427521097,-0.9419954773116319,-0.40117302642579,,-0.18407133805714118,0.2991863942803317,0.19708663531,-3.718641457754555,0.07815607786583194,1.2584844044810684,0.7517093923499529,,-0.030892327760299636,-0.02567597495840158,0.113675081,-0.0932194237584371,,4.824996e-05,2.1457672e-06,-4.887581e-06,1.0,-3.392622e-05,-3.1888485e-05,3.3915043e-05,1.0,-3.9041042e-06,3.189221e-05,3.9339066e-06,1.0,312,0.949,0,0,0.0,False,-0.25695872741613357,0.9255314317570775
0.9621193099301308,11:15:45.858379,NaN,0,,0.11866521,-0.00089012086,0.031814218,0.5097155,0.7435789,-0.43275893,0.1623058,0.41086686,0.8971317,0.8448945,-0.52752125,0.088737965,,0.026731774,0.008774325,0.009899497,-0.79219997,-0.1335736,0.5954637,0.6090396,-0.23476005,0.7576004,0.038595647,0.96283215,0.26732853,,0.07481821,1.3022354,0.43178105,0.9961226,0.07736393,-0.04188801,0.027576484,-0.7267096,-0.68639106,-0.08354233,0.6825745,-0.7260253,,-0.09617406,0.26359403,-0.095558494,-0.586324,-0.682573,0.43625477,0.6579055,-0.08702831,0.7480551,-0.47263572,0.72561705,0.50009537,,-0.012910082,0.45793948,-0.30051005,0.76968795,-0.010716275,-0.63833034,0.5340925,0.5585691,0.6346225,0.3497508,-0.82938874,0.4356474,,1.1943901435946884,0.5342509375059774,0.19592127060000003,3.1182991495583616,-0.4396962562451874,-0.9252836234342732,-0.4011730264257898,,-0.18449608836522355,0.2990164941570988,0.19707107983000002,-3.7152864186588026,0.07815607786583194,1.2599546218035986,0.7510560160854158,,-0.030892327760299636,-0.02567597495840158,0.113675081,-0.0932194237584371,,4.824996e-05,2.1457672e-06,-4.887581e-06,1.0,-3.392622e-05,-3.1888485e-05,3.3915043e-05,1.0,-3.9041042e-06,3.189221e-05,3.9339066e-06,1.0,324,0.986,0,0,0.0,False,-0.2561842170753601,0.9242761465368119
0.9946541839744896,11:15:45.900209,NaN,0,,0.11855554,-0.0007240027,0.032056898,0.48431304,0.76086426,-0.4318869,0.15568325,0.41081744,0.8983271,0.86093175,-0.5023092,0.08051038,,0.026815578,0.008748844,0.009934425,-0.7901477,-0.13377035,0.5981404,0.61159325,-0.23616758,0.7551017,0.040251195,0.9624606,0.26842037,,0.07481821,1.3022354,0.43178105,0.9961226,0.07736393,-0.04188801,0.027576484,-0.7267096,-0.68639106,-0.08354233,0.6825745,-0.7260253,,-0.09608574,0.2638853,-0.09563524,-0.56269705,-0.70221156,0.43620056,0.66505474,-0.07113728,0.7433987,-0.49099308,0.70840555,0.5070379,,-0.012997885,0.4579377,-0.30054438,0.76737756,-0.010448294,-0.6411104,0.53677547,0.5573721,0.6334102,0.35071898,-0.8301971,0.4333232,,1.1953323170053438,0.5342586602388516,0.19594201124000002,3.091458836792343,-0.45964518521094166,-0.9077097496523465,-0.40084633829352123,,-0.184959452337677,0.29880798036949474,0.19705033919,-3.711511999676081,0.07815607786583194,1.2612614816458474,0.7490958872918048,,-0.030892327760299636,-0.02567597495840158,0.113675081,-0.0932194237584371,,4.824996e-05,2.1457672e-06,-4.887581e-06,1.0,-3.392622e-05,-3.1888485e-05,3.3915043e-05,1.0,-3.9041042e-06,3.189221e-05,3.9339066e-06,1.0,340,1.035,0,0,0.0,False,-0.25672041654204936,0.9217172958955002
1.0364894110243767,11:15:45.941418,NaN,0,,0.11844917,-0.0005440861,0.032271653,0.45794997,0.77700293,-0.4319124,0.14900693,0.41188797,0.89896894,0.87640095,-0.47604072,0.07284519,,0.026908807,0.008720592,0.009963274,-0.78953105,-0.13511051,0.59865314,0.6124316,-0.23639637,0.7543502,0.039598778,0.9622172,0.26938826,,0.07481821,1.3022354,0.43178105,0.9961226,0.07736393,-0.04188801,0.027576484,-0.7267096,-0.68639106,-0.08354233,0.6825745,-0.7260253,,-0.095997795,0.26416796,-0.09568187,-0.53806007,-0.7207933,0.43697646,0.6718356,-0.053648386,0.73875487,-0.50904644,0.69107085,0.51312065,,-0.013094051,0.45792845,-0.30057585,0.76685643,-0.009084017,-0.64175445,0.53679246,0.5572011,0.63354623,0.3518311,-0.8303279,0.43216944,,1.1961509266900117,0.5342586602388516,0.19599515913,3.0635700743089007,-0.47945747767693053,-0.8906556874748193,-0.4010096823596556,,-0.18542281631013047,0.298576298383268,0.19703608000000003,-3.710882929845628,0.07883926036465913,1.262092930709755,0.747625790696596,,-0.030892327760299636,-0.02567597495840158,0.113675081,-0.0932194237584371,,4.824996e-05,2.1457672e-06,-4.887581e-06,1.0,-3.392622e-05,-3.1888485e-05,3.3915043e-05,1.0,-3.9041042e-06,3.189221e-05,3.9339066e-06,1.0,352,1.072,0,0,0.0,False,-0.25672041654204936,0.9211379334861469
1.0777552218642086,11:15:45.973685,NaN,0,,0.118369274,-0.00038278103,0.032399446,0.43604892,0.788416,-0.43389088,0.14486402,0.4143594,0.8985102,0.8881867,-0.45464966,0.06646779,,0.026975982,0.008703008,0.009982526,-0.7885484,-0.13504657,0.5999613,0.6136646,-0.23638785,0.75335014,0.04008621,0.9622283,0.26927665,,0.07481821,1.3022354,0.43178105,0.9961226,0.07736393,-0.04188801,0.027576484,-0.7267096,-0.68639106,-0.08354233,0.6825745,-0.7260253,,-0.09592809,0.2643773,-0.095674634,-0.51746804,-0.734179,0.43955427,0.6777985,-0.038127806,0.7342584,-0.5223179,0.6778845,0.5173554,,-0.013163138,0.45792252,-0.3005954,0.76579624,-0.009148998,-0.6430182,0.5378618,0.5572072,0.63263327,0.3525064,-0.8303231,0.43162808,,1.1966529043268361,0.5342586602388516,0.19607812169000002,3.03987511069515,-0.49407758315183264,-0.8780805418581777,-0.40133637049192394,,-0.1857703392894706,0.29840639826003507,0.19702830226,-3.709205410297751,0.07897589686442458,1.2619815128060585,0.7472991025643275,,-0.030892327760299636,-0.02567597495840158,0.113675081,-0.0932194237584371,,4.824996e-05,2.1457672e-06,-4.887581e-06,1.0,-3.392622e-05,-3.1888485e-05,3.3915043e-05,1.0,-3.9041042e-06,3.189221e-05,3.9339066e-06,1.0,360,1.096,0,0,0.0,False,-0.2564821056679656,0.9209448126830293
1.1100253909826279,11:15:45.999904,NaN,0,,0.11831816,-0.00023837388,0.032488644,0.41600212,0.7998677,-0.43261275,0.1401099,0.41367307,0.89957976,0.8985051,-0.4348405,0.060019433,,0.027032569,0.008694023,0.009998918,-0.7881745,-0.13528658,0.60039836,0.61413914,-0.23656285,0.75290847,0.040173575,0.9621515,0.26953763,,0.07481821,1.3022354,0.43178105,0.9961226,0.07736393,-0.04188801,0.027576484,-0.7267096,-0.68639106,-0.08354233,0.6825745,-0.7260253,,-0.09588355,0.26454675,-0.095647864,-0.4985892,-0.7475,0.43892205,0.6822289,-0.02600967,0.7306758,-0.534764,0.66375244,0.52293426,,-0.01322144,0.4579216,-0.30060774,0.7654076,-0.008897987,-0.6434843,0.53820086,0.557062,0.6324728,0.35283288,-0.83042324,0.43116838,,1.1969077545116857,0.5342277693073547,0.19617663973000002,3.0186964264032126,-0.5080145061279076,-0.8634487660755203,-0.4006829942273873,,-0.18607152587156534,0.29828283453404747,0.19702441339,-3.708576340467298,0.07897589686442458,1.2621448702863396,0.7466457262997905,,-0.030892327760299636,-0.02567597495840158,0.113675081,-0.0932194237584371,,4.824996e-05,2.1457672e-06,-4.887581e-06,1.0,-3.392622e-05,-3.1888485e-05,3.3915043e-05,1.0,-3.9041042e-06,3.189221e-05,3.9339066e-06,1.0,372,1.133,0,0,0.0,False,-0.2559459062012759,0.920317170072896
1.1362314890138805,11:15:46.035564,NaN,0,,0.118265316,-9.892881e-05,0.03256294,0.39353552,0.8105143,-0.43381613,0.13740268,0.4147348,0.8995085,0.90898305,-0.4135961,0.051845998,,0.027086481,0.00868921,0.010018766,-0.7872113,-0.13554502,0.6016027,0.61533546,-0.23711029,0.7517585,0.040749043,0.96198034,0.27006155,,0.07481821,1.3022354,0.43178105,0.9961226,0.07736393,-0.04188801,0.027576484,-0.7267096,-0.68639106,-0.08354233,0.6825745,-0.7260253,,-0.09583595,0.2647027,-0.09561358,-0.47728527,-0.7601308,0.44090807,0.6884136,-0.011592512,0.7252257,-0.54615515,0.64966667,0.52881736,,-0.013277671,0.45792633,-0.3006195,0.76435375,-0.008609924,-0.6447397,0.53931195,0.55659884,0.6319338,0.35342047,-0.83073676,0.43008184,,1.1970004273061763,0.5342123238416062,0.19627775035000003,2.9939530130720384,-0.5207217006060936,-0.8487579278043031,-0.40019296202898436,,-0.1863727124536601,0.298197884472431,0.19701922823,-3.7068988209194216,0.07911253336419002,1.2626868823037676,0.7466457262997903,,-0.030892327760299636,-0.02567597495840158,0.113675081,-0.0932194237584371,,4.824996e-05,2.1457672e-06,-4.887581e-06,1.0,-3.392622e-05,-3.1888485e-05,3.3915043e-05,1.0,-3.9041042e-06,3.189221e-05,3.9339066e-06,1.0,380,1.158,0,0,0.0,False,-0.25642252794944387,0.9199309284666608
1.1719051129184663,11:15:46.061001,NaN,0,,0.11819465,3.20971e-05,0.032637984,0.36605626,0.82079375,-0.43852055,0.13606319,0.41895643,0.8977541,0.92059183,-0.38829505,0.041681737,,0.027124718,0.008692041,0.010039747,-0.7872374,-0.13638243,0.6013792,0.6153048,-0.2381112,0.7514673,0.040708154,0.9616148,0.2713668,,0.07481821,1.3022354,0.43178105,0.9961226,0.07736393,-0.04188801,0.027576484,-0.7267096,-0.68639106,-0.08354233,0.6825745,-0.7260253,,-0.0957708,0.26485384,-0.09558697,-0.4510805,-0.77273846,0.44654408,0.696635,0.007899566,0.7173822,-0.55787635,0.6346754,0.5347534,,-0.013318682,0.45793897,-0.30062792,0.7643861,-0.0077146026,-0.6447126,0.53926456,0.55575746,0.63271433,0.3534227,-0.8313087,0.4289735,,1.1969463681760568,0.5341505419786124,0.19637367581,2.9629189014363293,-0.5338388045835759,-0.8336511570818566,-0.4031331552194013,,-0.18661211717276105,0.2981669935409341,0.19701274678000003,-3.7068988209194216,0.07897589686442458,1.2638601238292915,0.7455023178368505,,-0.030892327760299636,-0.02567597495840158,0.113675081,-0.0932194237584371,,4.824996e-05,2.1457672e-06,-4.887581e-06,1.0,-3.392622e-05,-3.1888485e-05,3.3915043e-05,1.0,-3.9041042e-06,3.189221e-05,3.9339066e-06,1.0,417,1.272,0,0,0.0,False,-0.2559459062012759,0.9193032858565275
1.1973232049494982,11:15:46.170776,NaN,0,,0.117890716,0.00037546456,0.0329289,0.26985443,0.85753465,-0.43796438,0.12101248,0.4210294,0.8989384,0.9552667,-0.2955817,0.009844273,,0.027195364,0.008680187,0.010094881,-0.78542703,-0.13780144,0.6034193,0.6175122,-0.24096149,0.74874306,0.042222917,0.96070194,0.2743517,,0.07476461,1.3022351,0.43178362,0.9961204,0.077422164,-0.04183301,0.027656302,-0.7267034,-0.6863944,-0.08354233,0.6825745,-0.7260253,,-0.095447615,0.26531652,-0.09560038,-0.358936,-0.81826144,0.44901356,0.71372443,0.06938232,0.6969817,-0.6014669,0.5706438,0.55910933,,-0.013353295,0.45796618,-0.30066514,0.7622896,-0.0061255074,-0.6472071,0.54168236,0.55334437,0.6327639,0.35425243,-0.83293,0.42512676,,1.1967146861898301,0.5335713370130456,0.19664719300000003,2.8555576503722526,-0.5853507649951469,-0.7646109444017796,-0.4010096823596554,,-0.1873534995286866,0.2981361026094372,0.19699330243000002,-3.703543781823669,0.07883926036465913,1.266748618897767,0.7435421890432391,,-0.030892327760299636,-0.02567597495840158,0.113675081,-0.0932194237584371,,-5.364418e-06,-1.1920929e-07,-4.4107437e-06,1.0,2.4255365e-05,2.2809952e-05,-2.425909e-05,1.0,2.771616e-06,-2.2798777e-05,-2.771616e-06,1.0,425,1.297,0,0,0.0,False,-0.25588632848275505,0.9158753916011859
1.307116325944662,11:15:46.199391,NaN,0,,0.11776431,0.0004682392,0.03302069,0.24196276,0.86718327,-0.4352552,0.1137605,0.4201365,0.90030205,0.9635935,-0.26735446,0.00300619,,0.027255133,0.008685641,0.010119677,-0.7854721,-0.13818677,0.6032725,0.6174858,-0.240765,0.74882805,0.04176873,0.96069586,0.27444258,,0.07476461,1.3022351,0.43178362,0.9961204,0.077422164,-0.04183301,0.027656302,-0.7267034,-0.6863944,-0.08354233,0.6825745,-0.7260253,,-0.09532921,0.2654534,-0.095616326,-0.3320963,-0.83060443,0.44699928,0.71538866,0.08706687,0.69328094,-0.614761,0.55001426,0.5652904,,-0.013416181,0.45798072,-0.30067208,0.76240313,-0.005746145,-0.64707685,0.5413393,0.5535187,0.63290507,0.3545324,-0.8328169,0.42511505,,1.1966837952583331,0.5333242095610704,0.19671848895000002,2.825991368340935,-0.601200598967938,-0.7432735573385167,-0.3998662738967156,,-0.1877010225080267,0.29808976621219185,0.19699070985000003,-3.7037534717671536,0.07897589686442458,1.26655552225393,0.7420720924480307,,-0.030892327760299636,-0.02567597495840158,0.113675081,-0.0932194237584371,,-5.364418e-06,-1.1920929e-07,-4.4107437e-06,1.0,2.4255365e-05,2.2809952e-05,-2.425909e-05,1.0,2.771616e-06,-2.2798777e-05,-2.771616e-06,1.0,437,1.334,0,0,0.0,False,-0.25677999426057063,0.9124957775466238
1.335692006861791,11:15:46.231979,NaN,0,,0.117579475,0.0005656034,0.033158734,0.20421015,0.87700564,-0.43492424,0.103375375,0.42248306,0.9004563,0.9734535,-0.2288428,-0.0043854415,,0.02734024,0.0086885765,0.010149121,-0.7852757,-0.13884056,0.60337824,0.6177583,-0.24091455,0.7485552,0.04143274,0.96056414,0.2749542,,0.07476461,1.3022351,0.43178362,0.9961204,0.077422164,-0.04183301,0.027656302,-0.7267034,-0.6863944,-0.08354233,0.6825745,-0.7260253,,-0.09515708,0.2656277,-0.0956681,-0.29564026,-0.8440629,0.44738638,0.7162762,0.11401778,0.6884391,-0.6320959,0.5239825,0.570874,,-0.013504795,0.45799392,-0.30068168,0.7622564,-0.0050781583,-0.6472553,0.541255,0.5534003,0.6330807,0.35497636,-0.8329,0.42458147,,1.1965988451967167,0.5329921320474788,0.19678848861,2.7840533796440297,-0.6227891659308775,-0.7169299033594421,-0.40002961796284997,,-0.18817983194622862,0.29798937068482695,0.19698941356000002,-3.703543781823669,0.07911253336419002,1.2667708193107958,0.7397852755221508,,-0.030892327760299636,-0.02567597495840158,0.113675081,-0.0932194237584371,,-5.364418e-06,-1.1920929e-07,-4.4107437e-06,1.0,2.4255365e-05,2.2809952e-05,-2.425909e-05,1.0,2.771616e-06,-2.2798777e-05,-2.771616e-06,1.0,445,1.358,0,0,0.0,False,-0.25600548391979716,0.910709410117784
1.36831185198389,11:15:46.259463,NaN,0,,0.11750187,0.0005955249,0.033242866,0.18829435,0.8823879,-0.4312038,0.095828,0.42045546,0.9022384,0.9774263,-0.21120787,-0.0053881407,,0.027381077,0.008685,0.010159969,-0.78358823,-0.13855468,0.6056335,0.619845,-0.2405749,0.7469377,0.042208448,0.9606905,0.27439407,,0.07476461,1.3022351,0.43178362,0.9961204,0.077422164,-0.04183301,0.027656302,-0.7267034,-0.6863944,-0.08354233,0.6825745,-0.7260253,,-0.095087506,0.26571026,-0.09571649,-0.28030303,-0.85115457,0.44380862,0.7141756,0.12400974,0.6888939,-0.6413918,0.5100563,0.5731135,,-0.013546757,0.45799455,-0.3006878,0.7604453,-0.0053840457,-0.6493797,0.54302585,0.5536873,0.6313108,0.35615423,-0.8327073,0.42397255,,1.1965525087994713,0.5328222319242458,0.19680793296000001,2.7670684942217836,-0.6346765414104709,-0.7026625362899818,-0.40166305862419294,,-0.1883883457338327,0.29794303428758157,0.19698941356000002,-3.70081781255837,0.07979571586301723,1.2663770872725948,0.7381518348608077,,-0.030892327760299636,-0.02567597495840158,0.113675081,-0.0932194237584371,,-5.364418e-06,-1.1920929e-07,-4.4107437e-06,1.0,2.4255365e-05,2.2809952e-05,-2.425909e-05,1.0,2.771616e-06,-2.2798777e-05,-2.771616e-06,1.0,453,1.383,0,0,0.0,False,-0.2568991496976123,0.9099852071060921
1.3957967238966376,11:15:46.281719,NaN,0,,0.117311746,0.0006468445,0.03334479,0.15761009,0.88689363,-0.4342564,0.09038651,0.42495036,0.9006927,0.9833561,-0.18120922,-0.013186753,,0.027431816,0.008690216,0.010178626,-0.7836782,-0.13910137,0.60539174,0.6197523,-0.24083239,0.74693155,0.041898698,0.96054703,0.27494347,,0.07476461,1.3022351,0.43178362,0.9961204,0.077422164,-0.04183301,0.027656302,-0.7267034,-0.6863944,-0.08354233,0.6825745,-0.7260253,,-0.09490733,0.26582655,-0.095772944,-0.2504242,-0.85846597,0.4475756,0.7157303,0.14714964,0.6826984,-0.6519339,0.49130762,0.5775803,,-0.013599795,0.45800558,-0.3006917,0.7605822,-0.0048187864,-0.64922374,0.5427486,0.5534745,0.6317357,0.3562846,-0.8328522,0.4235782,,1.1965216178679745,0.5325751044722706,0.19682996989,2.7310018239424454,-0.648066918387484,-0.6828405990524112,-0.40084633829352123,,-0.18868180958305322,0.29789669789033624,0.19698941356000002,-3.701027502501855,0.07979571586301723,1.266703802233157,0.7374984585962706,,-0.030892327760299636,-0.02567597495840158,0.113675081,-0.0932194237584371,,-5.364418e-06,-1.1920929e-07,-4.4107437e-06,1.0,2.4255365e-05,2.2809952e-05,-2.425909e-05,1.0,2.771616e-06,-2.2798777e-05,-2.771616e-06,1.0,461,1.407,0,0,0.0,False,-0.2566012611050077,0.9095989654998564
1.418028139974922,11:15:46.308273,NaN,0,,0.11720954,0.0006670952,0.033429697,0.1411149,0.8913127,-0.43086886,0.0839054,0.4228903,0.902288,0.9864312,-0.16347855,-0.015109897,,0.027456328,0.008686431,0.01018399,-0.7821598,-0.13855433,0.6074771,0.6215801,-0.24106675,0.7453354,0.043173,0.9605673,0.27467534,,0.07476461,1.3022351,0.43178362,0.9961204,0.077422164,-0.04183301,0.027656302,-0.7267034,-0.6863944,-0.08354233,0.6825745,-0.7260253,,-0.094813496,0.26590374,-0.0958304,-0.2344069,-0.86460894,0.44441512,0.71385187,0.15723269,0.68241733,-0.6599007,0.4772099,0.5803463,,-0.013624781,0.45800394,-0.30069578,0.7588661,-0.0053596357,-0.6512247,0.54472804,0.5532655,0.63021314,0.35692242,-0.8329877,0.42277396,,1.1965138951351002,0.5324206498147861,0.19683385876,2.7123394189723227,-0.6584512923696575,-0.6674301454595354,-0.39806948916923846,,-0.18881309604191504,0.2978503614930909,0.19698941356000002,-3.698301533236556,0.07993235236278266,1.2666740630696014,0.7370084263978679,,-0.030892327760299636,-0.02567597495840158,0.113675081,-0.0932194237584371,,-5.364418e-06,-1.1920929e-07,-4.4107437e-06,1.0,2.4255365e-05,2.2809952e-05,-2.425909e-05,1.0,2.771616e-06,-2.2798777e-05,-2.771616e-06,1.0,494,1.51,0,0,0.0,False,-0.25630337251240265,0.9092610040944002
1.4446150758303702,11:15:46.412023,NaN,0,,0.116368935,0.00076676905,0.033719197,0.027717829,0.90431195,-0.4259711,0.07187152,0.4232291,0.9031675,0.9970287,-0.055649072,-0.053263307,,0.027493231,0.00866247,0.010183334,-0.779636,-0.13826507,0.6107784,0.6246656,-0.24066076,0.742883,0.04427558,0.9607108,0.27399722,,0.07476461,1.3022351,0.43178362,0.9961204,0.077422164,-0.04183301,0.027656302,-0.7267034,-0.6863944,-0.08354233,0.6825745,-0.7260253,,-0.09400334,0.26621583,-0.096046254,-0.122766584,-0.8879564,0.44324014,0.71802944,0.22883947,0.65731746,-0.6851001,0.3989561,0.609485,,-0.013660869,0.45798287,-0.3007096,0.75616646,-0.0056722956,-0.6543547,0.54731077,0.5536093,0.62766844,0.35869652,-0.83275723,0.4217253,,1.196537063333723,0.5317796629862255,0.19681959957000003,2.571218087007238,-0.6913806888131286,-0.5699263204471117,-0.3985595213676413,,-0.18894438250077686,0.29771907503422906,0.19698811727,-3.69431742431035,0.08102544436090618,1.2664361497611543,0.734068233207451,,-0.030892327760299636,-0.02567597495840158,0.113675081,-0.0932194237584371,,-5.364418e-06,-1.1920929e-07,-4.4107437e-06,1.0,2.4255365e-05,2.2809952e-05,-2.425909e-05,1.0,2.771616e-06,-2.2798777e-05,-2.771616e-06,1.0,506,1.547,0,0,0.0,False,-0.25630337251240265,0.9069918346577657
1.5483493679203093,11:15:46.449654,NaN,0,,0.11598602,0.00078071654,0.033776477,-0.020991333,0.9077139,-0.4190641,0.07050651,0.41945693,0.90503293,0.9972904,-0.010548949,-0.07280475,,0.027508833,0.00865338,0.010182679,-0.77848357,-0.138861,0.61211175,0.62602556,-0.24221537,0.7412312,0.045334697,0.96023405,0.2754912,,0.07476461,1.3022351,0.43178362,0.9961204,0.077422164,-0.04183301,0.027656302,-0.7267034,-0.6863944,-0.08354233,0.6825745,-0.7260253,,-0.093627565,0.2662848,-0.09611061,-0.07433792,-0.8957576,0.4382832,0.7197804,0.2559929,0.6452781,-0.69021016,0.36343628,0.6257188,,-0.013676069,0.45797437,-0.30071437,0.75485027,-0.0049918825,-0.6558781,0.54886156,0.55228436,0.62748146,0.35909894,-0.8336409,0.41963187,,1.1965293406008486,0.531625208328741,0.19679756264,2.5083111039618804,-0.6982125138014007,-0.5218824803891982,-0.3979061451031042,,-0.18901388709664488,0.29764957043836104,0.19698811727,-3.6922205248755047,0.08102544436090618,1.2682330820442467,0.7330881688106453,,-0.030892327760299636,-0.02567597495840158,0.113675081,-0.0932194237584371,,-5.364418e-06,-1.1920929e-07,-4.4107437e-06,1.0,2.4255365e-05,2.2809952e-05,-2.425909e-05,1.0,2.771616e-06,-2.2798777e-05,-2.771616e-06,1.0,514,1.571,0,0,0.0,False,-0.2566012611050077,0.905543428634382
1.585990303894505,11:15:46.473470,NaN,0,,0.11576605,0.0007814914,0.03380637,-0.0491169,0.90755147,-0.41705835,0.06831738,0.41963714,0.90511733,0.9964539,0.01596424,-0.08261275,,0.02752509,0.008649714,0.0101854205,-0.77892303,-0.13933364,0.6114449,0.62551713,-0.24227116,0.7416421,0.04479976,0.96015143,0.27586618,,0.07476461,1.3022351,0.43178362,0.9961204,0.077422164,-0.04183301,0.027656302,-0.7267034,-0.6863944,-0.08354233,0.6825745,-0.7260253,,-0.093411535,0.26631704,-0.096150234,-0.046300888,-0.89815426,0.43723583,0.7190918,0.27385002,0.6386809,-0.69337094,0.34398416,0.6331758,,-0.013692506,0.45797196,-0.30071744,0.7553719,-0.004511562,-0.65528077,0.5481816,0.5522433,0.6281117,0.35904062,-0.8336708,0.41962224,,1.1964984496693518,0.531555703732873,0.19678459974,2.471825053795573,-0.7025848817938948,-0.4965088838533826,-0.40068299422738696,,-0.18909111442538712,0.2976032340411157,0.19698811727,-3.693059284649443,0.08102544436090618,1.2684781182646685,0.7325981366122425,,-0.030892327760299636,-0.02567597495840158,0.113675081,-0.0932194237584371,,-5.364418e-06,-1.1920929e-07,-4.4107437e-06,1.0,2.4255365e-05,2.2809952e-05,-2.425909e-05,1.0,2.771616e-06,-2.2798777e-05,-2.771616e-06,1.0,522,1.596,0,0,0.0,False,-0.2552309735790237,0.9051089068273668
1.6097710579633713,11:15:46.495293,NaN,0,,0.11551395,0.00076398253,0.03382872,-0.080151916,0.908977,-0.40906763,0.066616684,0.41435537,0.90767384,0.99455416,0.04550104,-0.093764395,,0.027541064,0.008648388,0.010189533,-0.7789126,-0.13942312,0.6114379,0.62553513,-0.24226683,0.7416283,0.044730976,0.9601395,0.27591878,,0.07476461,1.3022351,0.43178362,0.9961204,0.077422164,-0.04183301,0.027656302,-0.7267034,-0.6863944,-0.08354233,0.6825745,-0.7260253,,-0.09316307,0.2663324,-0.09619918,-0.015258016,-0.9025089,0.4304008,0.71821,0.28958955,0.6327024,-0.69565916,0.31877193,0.6437723,,-0.013708915,0.45797217,-0.30071968,0.7553717,-0.004421353,-0.65528166,0.54814243,0.55224824,0.6281415,0.35910088,-0.833668,0.4195762,,1.1964752814707291,0.5314553082055081,0.19675478507000002,2.430096755042153,-0.7058641577882654,-0.46140839432886505,-0.39561932817722434,,-0.18917606448700358,0.29757234310961883,0.19698811727,-3.693059284649443,0.08102544436090618,1.2684781182646685,0.732271448479974,,-0.030892327760299636,-0.02567597495840158,0.113675081,-0.0932194237584371,,-5.364418e-06,-1.1920929e-07,-4.4107437e-06,1.0,2.4255365e-05,2.2809952e-05,-2.425909e-05,1.0,2.771616e-06,-2.2798777e-05,-2.771616e-06,1.0,530,1.62,0,0,0.0,False,-0.2548735072678969,0.9044329840164544
1.6316070419270545,11:15:46.527139,NaN,0,,0.11519286,0.0007350892,0.03382404,-0.119157895,0.9054091,-0.40747476,0.06554881,0.41667712,0.9066882,0.9907092,0.08132954,-0.108998924,,0.027570426,0.008649357,0.01019609,-0.77885455,-0.13976344,0.6114341,0.62562346,-0.24229246,0.74154544,0.044504866,0.9600836,0.27614987,,0.07476461,1.3022351,0.43178362,0.9961204,0.077422164,-0.04183301,0.027656302,-0.7267034,-0.6863944,-0.08354233,0.6825745,-0.7260253,,-0.09284353,0.26632488,-0.09624148,0.023915395,-0.9023826,0.43027166,0.71692187,0.31544104,0.6217073,-0.6967432,0.2936028,0.6544817,,-0.013738935,0.45797408,-0.30072063,0.7553475,-0.004076187,-0.6553118,0.5480305,0.552231,0.6282543,0.35932264,-0.83368117,0.4193602,,1.1964830042036032,0.531347189945269,0.19672108153,2.3795614786623824,-0.7076404322852161,-0.4285136466266952,-0.39806948916923857,,-0.1893382418773623,0.2975337294452477,0.19699070985000003,-3.693059284649443,0.08116208086067163,1.2686117365813936,0.7314547281493023,,-0.030892327760299636,-0.02567597495840158,0.113675081,-0.0932194237584371,,-5.364418e-06,-1.1920929e-07,-4.4107437e-06,1.0,2.4255365e-05,2.2809952e-05,-2.425909e-05,1.0,2.771616e-06,-2.2798777e-05,-2.771616e-06,1.0,567,1.735,0,0,0.0,False,-0.25540970673458663,0.9041915830125569
1.6634768010117114,11:15:46.633123,NaN,0,,0.11422452,0.00052030385,0.033668116,-0.23048265,0.89375556,-0.38480982,0.060044408,0.4077662,0.9111099,0.97122204,0.18688934,-0.14764813,,0.02767516,0.008649446,0.010228395,-0.7787959,-0.14045528,0.6113502,0.6257267,-0.24243507,0.7414117,0.044077456,0.95994663,0.276694,,0.07476461,1.3022351,0.43178362,0.9961204,0.077422164,-0.04183301,0.027656302,-0.7267034,-0.6863944,-0.08354233,0.6825745,-0.7260253,,-0.09186814,0.26611277,-0.09634991,0.13650183,-0.9011215,0.41151828,0.7057339,0.3799773,0.5979606,-0.69520277,0.20879968,0.6878196,,-0.0138473315,0.45798507,-0.30073237,0.7553529,-0.0033698867,-0.65530956,0.54778194,0.552118,0.6285703,0.35968998,-0.8337592,0.4188899,,1.1964598360049805,0.530559471192098,0.19659274882000002,2.2300525489579166,-0.7075037957854506,-0.3137030771526206,-0.3995395857644469,,-0.1899097241100549,0.2973792747877632,0.19699070985000003,-3.693059284649443,0.08116208086067163,1.2687750940616749,0.7285145349588853,,-0.030892327760299636,-0.02567597495840158,0.113675081,-0.0932194237584371,,-5.364418e-06,-1.1920929e-07,-4.4107437e-06,1.0,2.4255365e-05,2.2809952e-05,-2.425909e-05,1.0,2.771616e-06,-2.2798777e-05,-2.771616e-06,1.0,575,1.76,0,0,0.0,False,-0.2561246393568388,0.8998463649424058
1.7693713838234544,11:15:46.664049,NaN,0,,0.11393173,0.00043399632,0.033576503,-0.26247162,0.88796014,-0.37767074,0.05823204,0.40525573,0.91234684,0.96318096,0.21747258,-0.1580759,,0.027707197,0.00864964,0.010238349,-0.7787782,-0.14068641,0.61131966,0.625758,-0.24250308,0.74136305,0.04394719,0.9598956,0.27689177,,0.07476461,1.3022351,0.43178362,0.9961204,0.077422164,-0.04183301,0.027656302,-0.7267034,-0.6863944,-0.08354233,0.6825745,-0.7260253,,-0.09156927,0.26600307,-0.09636421,0.16908555,-0.89834756,0.40544012,0.70071656,0.39885646,0.59153175,-0.6931135,0.18407914,0.6969279,,-0.013880508,0.45798862,-0.30073592,0.7553547,-0.0031328814,-0.6553087,0.54770607,0.55206263,0.62868506,0.35980183,-0.8337968,0.41871896,,1.196506172402226,0.530211948212758,0.19655774899000003,2.1864370407131357,-0.7054542482889691,-0.2804158449279063,-0.39953958576444715,,-0.19008734696616209,0.29733293839051783,0.19699070985000003,-3.693059284649443,0.08116208086067163,1.2688567728018154,0.7270444383636772,,-0.030892327760299636,-0.02567597495840158,0.113675081,-0.0932194237584371,,-5.364418e-06,-1.1920929e-07,-4.4107437e-06,1.0,2.4255365e-05,2.2809952e-05,-2.425909e-05,1.0,2.771616e-06,-2.2798777e-05,-2.771616e-06,1.0,583,1.784,0,0,0.0,False,-0.25558843989015,0.8995084035369496
1.8003898330498487,11:15:46.683863,NaN,0,,0.11374797,0.00037918985,0.03351353,-0.28096038,0.88534594,-0.37043718,0.0574075,0.40079758,0.91436625,0.9580008,0.23563479,-0.16343373,,0.027740613,0.008645721,0.0102466345,-0.776587,-0.13995883,0.6142671,0.6283617,-0.24255297,0.73914117,0.045542955,0.9599893,0.27630824,,0.07476461,1.3022351,0.43178362,0.9961204,0.077422164,-0.04183301,0.027656302,-0.7267034,-0.6863944,-0.08354233,0.6825745,-0.7260253,,-0.09138117,0.2659301,-0.096369594,0.18797302,-0.8975702,0.39879054,0.69762623,0.407822,0.5890661,-0.6913637,0.16747822,0.70282805,,-0.013914744,0.457988,-0.30074123,0.7529152,-0.003865591,-0.6581062,0.5503625,0.55201,0.62640727,0.36085975,-0.8338285,0.4177442,,1.196614290662465,0.5299493752950343,0.19653571206,2.161064557551508,-0.7035413372922529,-0.2577987884980497,-0.39888620949990994,,-0.19026496982226926,0.2972866019932725,0.19699070985000003,-3.6892848656667216,0.08157199035996796,1.2686041978308666,0.7262277180330057,,-0.030892327760299636,-0.02567597495840158,0.113675081,-0.0932194237584371,,-5.364418e-06,-1.1920929e-07,-4.4107437e-06,1.0,2.4255365e-05,2.2809952e-05,-2.425909e-05,1.0,2.771616e-06,-2.2798777e-05,-2.771616e-06,1.0,591,1.809,0,0,0.0,False,-0.25588632848275505,0.8989290411275963
1.8201860198751092,11:15:46.710122,NaN,0,,0.11344887,0.00029313564,0.033404604,-0.3099059,0.8785246,-0.3635281,0.056562155,0.398711,0.91533065,0.94908327,0.2631044,-0.17325419,,0.02776172,0.00864809,0.010252953,-0.777146,-0.14056917,0.6134201,0.62771726,-0.24267381,0.73964894,0.044889078,0.9598696,0.2768306,,0.07476461,1.3022351,0.43178362,0.9961204,0.077422164,-0.04183301,0.027656302,-0.7267034,-0.6863944,-0.08354233,0.6825745,-0.7260253,,-0.091074325,0.26580936,-0.09637147,0.21762775,-0.89346784,0.39287835,0.6925792,0.4249899,0.582853,-0.6877298,0.14525439,0.7112868,,-0.013936602,0.45799172,-0.30074176,0.75357467,-0.0032427027,-0.65735435,0.5495185,0.55191445,0.62723184,0.36076945,-0.83389443,0.4176907,,1.1969000317788114,0.5295091795212035,0.19650071223,2.1212234682894486,-0.6993056057995242,-0.22776446005500828,-0.39806948916923857,,-0.1903808108153826,0.2972634337946498,0.19699200614,-3.6903333153841444,0.08157199035996796,1.268930912791429,0.725901029900737,,-0.030892327760299636,-0.02567597495840158,0.113675081,-0.0932194237584371,,-5.364418e-06,-1.1920929e-07,-4.4107437e-06,1.0,2.4255365e-05,2.2809952e-05,-2.425909e-05,1.0,2.771616e-06,-2.2798777e-05,-2.771616e-06,1.0,599,1.833,0,0,0.0,False,-0.25588632848275505,0.8984462391198016
1.8464633799158037,11:15:46.736585,NaN,0,,0.11313628,0.00023154914,0.033329472,-0.33602098,0.8699972,-0.360825,0.053139806,0.40000242,0.91497225,0.9403542,0.2882757,-0.1806407,,0.027788512,0.008649029,0.010261714,-0.7746667,-0.14016959,0.61663914,0.6305895,-0.24434274,0.73665017,0.04741533,0.9595046,0.2776737,,0.07476461,1.3022351,0.43178362,0.9961204,0.077422164,-0.04183301,0.027656302,-0.7267034,-0.6863944,-0.08354233,0.6825745,-0.7260253,,-0.09075694,0.26573005,-0.096383005,0.24440698,-0.8873925,0.3908961,0.68559515,0.44321975,0.57750803,-0.68572915,0.1268495,0.716718,,-0.013964412,0.45799547,-0.3007444,0.7507064,-0.0035617624,-0.6606264,0.5529992,0.55047435,0.62543577,0.36143023,-0.83484447,0.41521424,,1.1974406230800072,0.5290921519459953,0.19647219385000003,2.084318038236172,-0.6971194218032771,-0.2035733071494522,-0.3998662738967156,,-0.19055071093861556,0.2972325428631529,0.19699200614,-3.6857201366274843,0.08143535386020251,1.270267511797234,0.724757621437797,,-0.030892327760299636,-0.02567597495840158,0.113675081,-0.0932194237584371,,-5.364418e-06,-1.1920929e-07,-4.4107437e-06,1.0,2.4255365e-05,2.2809952e-05,-2.425909e-05,1.0,2.771616e-06,-2.2798777e-05,-2.771616e-06,1.0,607,1.858,0,0,0.0,False,-0.25540970673458663,0.8973357945018736
1.8729225909337401,11:15:46.761809,NaN,0,,0.11293031,0.00021192431,0.033298686,-0.35005108,0.8654767,-0.35834914,0.050576746,0.39945757,0.91535544,0.9353641,0.30229703,-0.18360361,,0.027813837,0.008649476,0.010268569,-0.77521294,-0.14089206,0.6157875,0.6300008,-0.24388522,0.73730516,0.046300977,0.95951515,0.2778251,,0.07476461,1.3022351,0.43178362,0.9961204,0.077422164,-0.04183301,0.027656302,-0.7267034,-0.6863944,-0.08354233,0.6825745,-0.7260253,,-0.0905493,0.26570588,-0.096390374,0.25881156,-0.8842567,0.38872433,0.6811047,0.45242408,0.57568115,-0.68491817,0.11576903,0.71936405,,-0.013990488,0.45799774,-0.30074632,0.7514221,-0.002854945,-0.65981567,0.55185604,0.55087745,0.62609017,0.3616901,-0.83458126,0.415517,,1.1979812143812028,0.5288218562953976,0.19645923095,2.063978113718173,-0.6961629663049191,-0.18891595058876082,-0.39806948916923857,,-0.19067427466460315,0.29720937466453023,0.19699330243000002,-3.686978276288392,0.08184526335949882,1.2701782943065663,0.7242675892393942,,-0.030892327760299636,-0.02567597495840158,0.113675081,-0.0932194237584371,,-5.364418e-06,-1.1920929e-07,-4.4107437e-06,1.0,2.4255365e-05,2.2809952e-05,-2.425909e-05,1.0,2.771616e-06,-2.2798777e-05,-2.771616e-06,1.0,615,1.883,0,0,0.0,False,-0.25630337251240265,0.8980599975135659
1.8981307200156152,11:15:46.783494,NaN,0,,0.112682775,0.00020499527,0.03325878,-0.36599675,0.85930496,-0.35726905,0.04944095,0.40131813,0.91460335,0.92930186,0.31707817,-0.1893661,,0.027838305,0.008644097,0.010273457,-0.7732678,-0.1404447,0.61833006,0.6323077,-0.24364394,0.7354077,0.0473682,0.95964205,0.2772062,,0.07476461,1.3022351,0.43178362,0.9961204,0.077422164,-0.04183301,0.027656302,-0.7267034,-0.6863944,-0.08354233,0.6825745,-0.7260253,,-0.0902992,0.26568723,-0.09638591,0.2752485,-0.8795132,0.38819426,0.6770589,0.46400893,0.5712154,-0.6825171,0.10560418,0.72319996,,-0.014015345,0.45799473,-0.30075127,0.7493095,-0.003319291,-0.66221166,0.55395687,0.55107903,0.6240542,0.36285955,-0.83444643,0.4147675,,1.1987998240658706,0.528528392446177,0.19644626805,2.04112190987836,-0.6928836903105485,-0.17525423224936254,-0.40002961796284997,,-0.1907901156577165,0.29717848373303335,0.19699330243000002,-3.683832927136124,0.08252844585832604,1.269866241008506,0.7237775570409914,,-0.030892327760299636,-0.02567597495840158,0.113675081,-0.0932194237584371,,-5.364418e-06,-1.1920929e-07,-4.4107437e-06,1.0,2.4255365e-05,2.2809952e-05,-2.425909e-05,1.0,2.771616e-06,-2.2798777e-05,-2.771616e-06,1.0,640,1.96,0,0,0.0,False,-0.25588632848275505,0.8973840747026531
1.9198306328617036,11:15:46.856978,NaN,0,,0.11151385,0.00033919513,0.03324206,-0.41112965,0.8356028,-0.36433527,0.0408552,0.41616467,0.908371,0.91066086,0.35857323,-0.20523643,,0.027915388,0.008640416,0.0102956295,-0.7716332,-0.14183518,0.6200522,0.6342628,-0.24496031,0.7332838,0.04788272,0.9591023,0.27898023,,0.07476461,1.3022351,0.43178362,0.9961204,0.077422164,-0.04183301,0.027656302,-0.7267034,-0.6863944,-0.08354233,0.6825745,-0.7260253,,-0.08913217,0.2658378,-0.096379705,0.3218307,-0.85970014,0.39666185,0.6606312,0.5040117,0.556362,-0.6782267,0.082992814,0.7301512,,-0.014094845,0.45799917,-0.30076167,0.7475918,-0.0018469638,-0.6641559,0.5554551,0.5499643,0.6237058,0.36411008,-0.8351861,0.41217473,,1.2040512824203433,0.5269375094740868,0.19643978660000003,1.9717145385849826,-0.6850954098239184,-0.14411451103554057,-0.3988862094999098,,-0.1911994205000504,0.29707808820566844,0.19699330243000002,-3.6813166478143096,0.08321162835715323,1.2717595136942403,0.7218174282473798,,-0.030892327760299636,-0.02567597495840158,0.113675081,-0.0932194237584371,,-5.364418e-06,-1.1920929e-07,-4.4107437e-06,1.0,2.4255365e-05,2.2809952e-05,-2.425909e-05,1.0,2.771616e-06,-2.2798777e-05,-2.771616e-06,1.0,648,1.985,0,0,0.0,False,-0.25558843989015,0.8955011468722547
1.993318618973717,11:15:46.885147,NaN,0,,0.111145854,0.00038723648,0.033241764,-0.4217691,0.829931,-0.36513722,0.037592053,0.4183684,0.90749913,0.9059236,0.36902884,-0.2076537,,0.027928717,0.008640669,0.010301471,-0.7717418,-0.14222386,0.619828,0.63414323,-0.24524099,0.7332934,0.04771538,0.958973,0.27945307,,0.07476461,1.3022351,0.43178362,0.9961204,0.077422164,-0.04183301,0.027656302,-0.7267034,-0.6863944,-0.08354233,0.6825745,-0.7260253,,-0.08876515,0.2658928,-0.09637754,0.33282548,-0.855031,0.39767978,0.65560985,0.5129345,0.55414253,-0.6777927,0.07629002,0.7312844,,-0.014108907,0.458002,-0.30076414,0.74772596,-0.0014397417,-0.6640059,0.55526555,0.5497273,0.6240834,0.36412364,-0.83534294,0.41184482,,1.2057811745841696,0.5263274135770231,0.19644626805,1.9543102732757671,-0.6837290448262641,-0.13469213259437224,-0.3997029298305813,,-0.19127664782879267,0.29706264273992,0.19699200614,-3.6815263377577945,0.08321162835715323,1.2721679073949432,0.7216540841812458,,-0.030892327760299636,-0.02567597495840158,0.113675081,-0.0932194237584371,,-5.364418e-06,-1.1920929e-07,-4.4107437e-06,1.0,2.4255365e-05,2.2809952e-05,-2.425909e-05,1.0,2.771616e-06,-2.2798777e-05,-2.771616e-06,1.0,656,2.01,0,0,0.0,False,-0.256541683386486,0.8950666250652395
2.021465437952429,11:15:46.912102,NaN,0,,0.110621944,0.00045453012,0.0331883,-0.43508297,0.8249839,-0.36069953,0.037252218,0.4167539,0.90825576,0.8996194,0.38172978,-0.21205503,,0.027936846,0.008644737,0.010305762,-0.771649,-0.14279965,0.6198113,0.6341826,-0.24732468,0.7325592,0.048685357,0.9583521,0.28140882,,0.07476461,1.3022351,0.43178362,0.9961204,0.077422164,-0.04183301,0.027656302,-0.7267034,-0.6863944,-0.08354233,0.6825745,-0.7260253,,-0.08823755,0.26593485,-0.09633604,0.3466791,-0.85135984,0.39370042,0.65185314,0.52048546,0.5515274,-0.67446357,0.06543183,0.735403,,-0.01411764,0.45800686,-0.30076325,0.74748695,-0.0007508943,-0.66427606,0.5559872,0.5479379,0.6250138,0.36351275,-0.83651865,0.40999395,,1.2083219536997896,0.5252307855088831,0.19647089756000002,1.9333412789273148,-0.6779903118361155,-0.11854360581377843,-0.3992128976321785,,-0.1913538751575349,0.2970394745412973,0.19699200614,-3.6808972679273406,0.08239180935856058,1.2742249533995116,0.7205106757183057,,-0.030892327760299636,-0.02567597495840158,0.113675081,-0.0932194237584371,,-5.364418e-06,-1.1920929e-07,-4.4107437e-06,1.0,2.4255365e-05,2.2809952e-05,-2.425909e-05,1.0,2.771616e-06,-2.2798777e-05,-2.771616e-06,1.0,664,2.034,0,0,0.0,False,-0.2555288621716292,0.8948735042621214
2.0484084070194513,11:15:46.935776,NaN,0,,0.11028004,0.00048799813,0.033115134,-0.4435223,0.8226325,-0.35575786,0.038582265,0.41409084,0.9094174,0.8954325,0.38962102,-0.21539769,,0.027945854,0.008641459,0.010310054,-0.7715155,-0.14308542,0.6199115,0.63437307,-0.24701437,0.73249894,0.04831712,0.95838946,0.28134492,,0.07476461,1.3022351,0.43178362,0.9961204,0.077422164,-0.04183301,0.027656302,-0.7267034,-0.6863944,-0.08354233,0.6825745,-0.7260253,,-0.08788968,0.26592898,-0.096287735,0.35550323,-0.8498237,0.38912356,0.6504913,0.52390665,0.5498935,-0.67117697,0.057632573,0.7390534,,-0.014127154,0.4580067,-0.3007677,0.74740833,-0.0004779367,-0.66436476,0.5558317,0.54820883,0.6249146,0.36391196,-0.8363413,0.41000152,,1.2099282821376283,0.5243581166940957,0.19649811965000002,1.9205501923747585,-0.6727981248450288,-0.10676845308669242,-0.39888620949990994,,-0.19139248882190601,0.2970317518084231,0.19698941356000002,-3.6808972679273406,0.0828017188578569,1.2741357359088439,0.7206740197844402,,-0.030892327760299636,-0.02567597495840158,0.113675081,-0.0932194237584371,,-5.364418e-06,-1.1920929e-07,-4.4107437e-06,1.0,2.4255365e-05,2.2809952e-05,-2.425909e-05,1.0,2.771616e-06,-2.2798777e-05,-2.771616e-06,1.0,672,2.059,0,0,0.0,False,-0.25588632848275505,0.89501834486446
2.072048902977258,11:15:46.956210,NaN,0,,0.10993399,0.0005158186,0.032985225,-0.45469546,0.8170984,-0.35440388,0.040600628,0.41651964,0.90821964,0.88972104,0.39857435,-0.22256434,,0.027952805,0.008637495,0.010311961,-0.7712975,-0.14325838,0.6201428,0.63468194,-0.24619609,0.73250693,0.04773894,0.9585742,0.28081393,,0.07476461,1.3022351,0.43178362,0.9961204,0.077422164,-0.04183301,0.027656302,-0.7267034,-0.6863944,-0.08354233,0.6825745,-0.7260253,,-0.08753231,0.26588124,-0.09620169,0.36720613,-0.84514296,0.38844955,0.648767,0.53198546,0.54414415,-0.6665291,0.05220017,0.7436491,,-0.014134265,0.45800462,-0.30077124,0.7472765,-0.00034504646,-0.6645131,0.555593,0.54891634,0.62450564,0.36454666,-0.8358772,0.410384,,1.2114264923152278,0.5233927750848177,0.19655126754000002,1.9044040667264504,-0.6659662998567567,-0.09837228370747736,-0.4003563060951184,,-0.19140793428765449,0.2970317518084231,0.19698811727,-3.6808972679273406,0.08348490135668411,1.2735786463903618,0.7206740197844402,,-0.030892327760299636,-0.02567597495840158,0.113675081,-0.0932194237584371,,-5.364418e-06,-1.1920929e-07,-4.4107437e-06,1.0,2.4255365e-05,2.2809952e-05,-2.425909e-05,1.0,2.771616e-06,-2.2798777e-05,-2.771616e-06,1.0,680,2.083,0,0,0.0,False,-0.25558843989015,0.8949217844629009
2.0925376559607685,11:15:46.986145,NaN,0,,0.10945183,0.00060878694,0.032682106,-0.465631,0.8134849,-0.34846795,0.045635134,0.41530573,0.90853643,0.8838015,0.40714034,-0.23050272,,0.027949847,0.008642428,0.010316253,-0.77141196,-0.14398375,0.61983234,0.6344575,-0.24882153,0.7318139,0.048858255,0.9577873,0.2832954,,0.07476461,1.3022351,0.43178362,0.9961204,0.077422164,-0.04183301,0.027656302,-0.7267034,-0.6863944,-0.08354233,0.6825745,-0.7260253,,-0.08702174,0.26577333,-0.095955394,0.37873992,-0.84239334,0.3833139,0.64912933,0.53700006,0.5387597,-0.65968716,0.044770483,0.7502056,,-0.014132038,0.45801136,-0.30077073,0.74722314,0.0005234917,-0.664573,0.55627024,0.5466584,0.6258818,0.36362207,-0.83735555,0.40818462,,1.213465293794023,0.521616546523746,0.19674700733000003,1.8888870109085953,-0.6559918353738795,-0.08592274816189444,-0.39741611290470147,,-0.19143882521915137,0.29702402907554887,0.19698552469000002,-3.6804778880403717,0.08239180935856058,1.2761852431628848,0.721164051982843,,-0.030892327760299636,-0.02567597495840158,0.113675081,-0.0932194237584371,,-5.364418e-06,-1.1920929e-07,-4.4107437e-06,1.0,2.4255365e-05,2.2809952e-05,-2.425909e-05,1.0,2.771616e-06,-2.2798777e-05,-2.771616e-06,1.0,713,2.186,0,0,0.0,False,-0.25672041654204936,0.895114905266019
2.1224837889894843,11:15:47.085628,NaN,0,,0.10807063,0.000812307,0.03133695,-0.48605737,0.80186427,-0.34750783,0.059090197,0.4268841,0.9023737,0.8719269,0.41807103,-0.25487253,,0.027972706,0.008633934,0.010328889,-0.769316,-0.14452942,0.6223054,0.6369739,-0.2484824,0.72974014,0.049162954,0.9577931,0.2832229,,0.07476461,1.3022351,0.43178362,0.9961204,0.077422164,-0.04183301,0.027656302,-0.7267034,-0.6863944,-0.08354233,0.6825745,-0.7260253,,-0.085514024,0.26509902,-0.09494014,0.4004264,-0.8317027,0.38461575,0.6522664,0.5535137,0.5178524,-0.6435894,0.04351015,0.7641332,,-0.014156451,0.4580121,-0.30078334,0.74507415,0.0010577433,-0.6669808,0.55793923,0.54695696,0.62413293,0.36546996,-0.83716005,0.40693337,,1.2177745787378402,0.514426682217843,0.19762978082000002,1.8589013489903083,-0.6337200859121127,-0.07467952001380873,-0.3997029298305813,,-0.1915392207465163,0.2970317518084231,0.19697774695000003,-3.677542228831588,0.08389481085598044,1.2764298635447544,0.7182238587924258,,-0.030892327760299636,-0.02567597495840158,0.113675081,-0.0932194237584371,,-5.364418e-06,-1.1920929e-07,-4.4107437e-06,1.0,2.4255365e-05,2.2809952e-05,-2.425909e-05,1.0,2.771616e-06,-2.2798777e-05,-2.771616e-06,1.0,721,2.21,0,0,0.0,False,-0.25636295023092304,0.8911559288021036
2.221969282021746,11:15:47.114085,NaN,0,,0.10773449,0.00089144707,0.03085269,-0.49014702,0.79892343,-0.34853572,0.060706288,0.43018016,0.9006996,0.86952317,0.4203169,-0.25935125,,0.027985163,0.008631326,0.010334671,-0.7688341,-0.144663,0.6228696,0.6375582,-0.2482548,0.7293072,0.04912655,0.957832,0.2830978,,0.07476461,1.3022351,0.43178362,0.9961204,0.077422164,-0.04183301,0.027656302,-0.7267034,-0.6863944,-0.08354233,0.6825745,-0.7260253,,-0.085131474,0.26485205,-0.09455748,0.40475395,-0.82894117,0.38604507,0.6520771,0.55761665,0.51367223,-0.64106923,0.043820295,0.76623106,,-0.014169598,0.4580131,-0.30078796,0.7445961,0.0011810896,-0.6675142,0.55824935,0.54715484,0.62368196,0.36597025,-0.83703053,0.40675005,,1.2184078428335268,0.5122488715473117,0.19798755686000002,1.8521912707988037,-0.6305774464175076,-0.07250476487067387,-0.3993762416983128,,-0.19160100260951007,0.29702402907554887,0.19697515437000002,-3.6769131590011344,0.08430472035527677,1.276340646054087,0.7167537621972173,,-0.030892327760299636,-0.02567597495840158,0.113675081,-0.0932194237584371,,-5.364418e-06,-1.1920929e-07,-4.4107437e-06,1.0,2.4255365e-05,2.2809952e-05,-2.425909e-05,1.0,2.771616e-06,-2.2798777e-05,-2.771616e-06,1.0,729,2.235,0,0,0.0,False,-0.2559459062012759,0.8909628079989851
2.2503991678822786,11:15:47.137388,NaN,0,,0.10754192,0.0009332746,0.030524328,-0.4941211,0.79675996,-0.34787592,0.062417686,0.43161547,0.89989555,0.8671495,0.42294383,-0.26300234,,0.027989022,0.008634858,0.01034224,-0.7690067,-0.14509743,0.6225554,0.63731694,-0.24952376,0.72908497,0.04955399,0.95743644,0.2843585,,0.07476461,1.3022351,0.43178362,0.9961204,0.077422164,-0.04183301,0.027656302,-0.7267034,-0.6863944,-0.08354233,0.6825745,-0.7260253,,-0.08490746,0.26467395,-0.09430306,0.40896514,-0.8270194,0.3857285,0.6519724,0.560552,0.51060104,-0.6384978,0.04266634,0.76844007,,-0.014174602,0.4580205,-0.30079004,0.7447051,0.0016860246,-0.66739154,0.5584184,0.54606247,0.6244875,0.36549038,-0.83774275,0.40571398,,1.2186704157512502,0.5109051160271967,0.19821829648000003,1.8465296423247215,-0.6274348069229025,-0.06951322232613316,-0.39904955356604416,,-0.19165506173962965,0.29702402907554887,0.19697126550000002,-3.6769131590011344,0.08375817435621499,1.277603105070278,0.7161003859326801,,-0.030892327760299636,-0.02567597495840158,0.113675081,-0.0932194237584371,,-5.364418e-06,-1.1920929e-07,-4.4107437e-06,1.0,2.4255365e-05,2.2809952e-05,-2.425909e-05,1.0,2.771616e-06,-2.2798777e-05,-2.771616e-06,1.0,737,2.259,0,0,0.0,False,-0.25636295023092304,0.890914527798206
2.2736712540499866,11:15:47.164442,NaN,0,,0.107316285,0.0010087937,0.03003113,-0.500496,0.793679,-0.3457996,0.066218436,0.4333525,0.89878845,0.86320263,0.42694166,-0.2694474,,0.028005607,0.008633114,0.010360539,-0.76895946,-0.14569448,0.6224744,0.63738763,-0.24992716,0.72888505,0.04937868,0.9572406,0.28504765,,0.07476461,1.3022351,0.43178362,0.9961204,0.077422164,-0.04183301,0.027656302,-0.7267034,-0.6863944,-0.08354233,0.6825745,-0.7260253,,-0.08463409,0.26441243,-0.09390713,0.41575024,-0.82431203,0.38426736,0.6524948,0.56467605,0.50536275,-0.63356316,0.040627778,0.77262354,,-0.014193747,0.45803067,-0.30080202,0.744684,0.002310789,-0.66741323,0.5583328,0.5457192,0.62486404,0.36566415,-0.83796495,0.40509814,,1.2188634840731059,0.5091443329318734,0.19857088736000003,1.838351734528825,-0.6214228009332231,-0.06494087623247058,-0.39970292983058137,,-0.19177090273274303,0.29702402907554887,0.19695959889000003,-3.6769131590011344,0.08389481085598044,1.2782267958278468,0.716590418131083,,-0.030892327760299636,-0.02567597495840158,0.113675081,-0.0932194237584371,,-5.364418e-06,-1.1920929e-07,-4.4107437e-06,1.0,2.4255365e-05,2.2809952e-05,-2.425909e-05,1.0,2.771616e-06,-2.2798777e-05,-2.771616e-06,1.0,745,2.284,0,0,0.0,False,-0.25588632848275505,0.8916870110106774
2.3007635849062353,11:15:47.187586,NaN,0,,0.10718464,0.001051262,0.029697493,-0.5056528,0.79014575,-0.3463881,0.06875995,0.43713143,0.89676535,0.8599926,0.4296343,-0.2753672,,0.028020106,0.00862772,0.010376334,-0.76878214,-0.14600042,0.6226216,0.63764,-0.2494112,0.72884095,0.048877716,0.9573285,0.28483856,,0.07476461,1.3022351,0.43178362,0.9961204,0.077422164,-0.04183301,0.027656302,-0.7267034,-0.6863944,-0.08354233,0.6825745,-0.7260253,,-0.084470175,0.26422805,-0.09364336,0.42123225,-0.82099664,0.38539314,0.6525102,0.56946737,0.49993736,-0.6299157,0.04088322,0.7755867,,-0.014210399,0.4580368,-0.30081522,0.7445814,0.0025934856,-0.6675266,0.55811715,0.5461681,0.6246644,0.3662018,-0.8376716,0.40521914,,1.2188789295388545,0.5080322593979851,0.19880292327000001,1.8318513462808048,-0.617050432940729,-0.06417727592330635,-0.40035630609511846,,-0.1918558527943595,0.29702402907554887,0.19694793228000002,-3.6769131590011344,0.0844413568550422,1.2779444816933423,0.7169171062633516,,-0.030892327760299636,-0.02567597495840158,0.113675081,-0.0932194237584371,,-5.364418e-06,-1.1920929e-07,-4.4107437e-06,1.0,2.4255365e-05,2.2809952e-05,-2.425909e-05,1.0,2.771616e-06,-2.2798777e-05,-2.771616e-06,1.0,753,2.309,0,0,0.0,False,-0.2566608388235285,0.8917835714122364
2.3238992388360202,11:15:47.215245,NaN,0,,0.1070109,0.0011407882,0.02921249,-0.51270014,0.7849486,-0.34784207,0.07122666,0.4426322,0.89386994,0.8556081,0.4335116,-0.28284693,,0.028038718,0.008623935,0.010400176,-0.7687757,-0.14638701,0.62253886,0.63765395,-0.24974036,0.72871614,0.048798412,0.9571837,0.28533852,,0.07476461,1.3022351,0.43178362,0.9961204,0.077422164,-0.04183301,0.027656302,-0.7267034,-0.6863944,-0.08354233,0.6825745,-0.7260253,,-0.08424901,0.26397964,-0.09323984,0.42870802,-0.81611264,0.3875172,0.6517859,0.5764165,0.49286824,-0.6256073,0.041281693,0.7790451,,-0.014232359,0.4580494,-0.30083224,0.7445868,0.0030015963,-0.6675189,0.55806804,0.5458869,0.62495404,0.36626565,-0.83785355,0.40478507,,1.2188480386073575,0.5065340492203856,0.19916847705000001,1.8226249887674857,-0.6119948824494077,-0.06331733521149963,-0.39904955356604427,,-0.19199486198609553,0.2970163063426746,0.19693108051000002,-3.6769131590011344,0.0844413568550422,1.2783528753940452,0.7174071384617544,,-0.030892327760299636,-0.02567597495840158,0.113675081,-0.0932194237584371,,-5.364418e-06,-1.1920929e-07,-4.4107437e-06,1.0,2.4255365e-05,2.2809952e-05,-2.425909e-05,1.0,2.771616e-06,-2.2798777e-05,-2.771616e-06,1.0,774,2.374,0,0,0.0,False,-0.2561842170753601,0.8916387308098979
2.3515757438726723,11:15:47.270387,NaN,0,,0.106654644,0.0013296455,0.028360039,-0.52232075,0.77830124,-0.3484652,0.07447046,0.4487082,0.89057004,0.84949106,0.4392129,-0.2923301,,0.028083794,0.008605018,0.010462582,-0.76833534,-0.1481669,0.6226614,0.6382228,-0.250764,0.7278661,0.048295423,0.9566419,0.28723443,,0.07478881,1.3022337,0.43178877,0.99612147,0.077393495,-0.04186008,0.027617011,-0.72670645,-0.6863928,-0.08354233,0.6825745,-0.7260253,,-0.08382775,0.26356474,-0.092508614,0.4389262,-0.8099348,0.38903657,0.6506029,0.5851116,0.48410773,-0.6197255,0.040620748,0.7837667,,-0.014304734,0.45806953,-0.3008812,0.7442464,0.00484854,-0.6678875,0.55801284,0.545012,0.6257664,0.36704078,-0.8384142,0.40291768,,1.218732197614244,0.503861983645904,0.19984125156000002,1.8096242122714452,-0.6052996939609011,-0.05987382981730294,-0.3982328332353727,,-0.19228832583531608,0.2970163063426746,0.19688441407,-3.6764937791141654,0.0851245393538694,1.2801644693396392,0.7172437943956204,,-0.030892327760299636,-0.02567597495840158,0.113675081,-0.0932194237584371,,1.8276274e-05,6.4373016e-06,-8.106232e-06,1.0,-4.388392e-06,-4.116446e-06,4.377216e-06,1.0,-4.7683716e-07,4.1238964e-06,5.364418e-07,1.0,786,2.411,0,0,0.0,False,-0.25558843989015,0.8923629338215897
2.4066698369570076,11:15:47.317183,NaN,0,,0.10648398,0.0013974458,0.027846128,-0.52795947,0.7728151,-0.3521584,0.07381493,0.45484814,0.8875046,0.84605557,0.4425719,-0.29718673,,0.02808702,0.008591816,0.010496676,-0.76813346,-0.14848635,0.6228344,0.63847613,-0.25079033,0.7276349,0.048156977,0.9565856,0.28744543,,0.07478881,1.3022337,0.43178877,0.99612147,0.077393495,-0.04186008,0.027617011,-0.72670645,-0.6863928,-0.08354233,0.6825745,-0.7260253,,-0.0836072,0.26328075,-0.09209808,0.44485936,-0.8047028,0.39313295,0.6481205,0.59220403,0.47878402,-0.6180938,0.041805983,0.7849919,,-0.014312914,0.45808503,-0.3009134,0.74406475,0.0051731276,-0.6680875,0.5580588,0.5449915,0.62574327,0.36733902,-0.83842564,0.40262207,,1.2184078428335268,0.5021938733450714,0.20023143485000003,1.8010269245885797,-0.6039333289632467,-0.0600078639725804,-0.3992128976321785,,-0.1923578304311841,0.2970317518084231,0.19685071053000003,-3.6762840891706814,0.08539781235340027,1.2803500272329493,0.717733826594023,,-0.030892327760299636,-0.02567597495840158,0.113675081,-0.0932194237584371,,1.8276274e-05,6.4373016e-06,-8.106232e-06,1.0,-4.388392e-06,-4.116446e-06,4.377216e-06,1.0,-4.7683716e-07,4.1238964e-06,5.364418e-07,1.0,794,2.436,0,0,0.0,False,-0.2561842170753601,0.8933768180379582
2.453497542999685,11:15:47.336892,NaN,0,,0.10643764,0.0014197528,0.027603924,-0.529344,0.7713894,-0.35320416,0.07333323,0.45635736,0.88676953,0.8452319,0.44350454,-0.29813853,,0.02807393,0.008587852,0.010517418,-0.76825356,-0.14858535,0.62266266,0.6382444,-0.25270155,0.7271768,0.0493,0.956067,0.28897265,,0.07478881,1.3022337,0.43178877,0.99612147,0.077393495,-0.04186008,0.027617011,-0.72670645,-0.6863928,-0.08354233,0.6825745,-0.7260253,,-0.08353733,0.26313794,-0.091908276,0.44630927,-0.8033503,0.3942541,0.6472863,0.5940229,0.47765806,-0.6179227,0.042012047,0.7851156,,-0.014303059,0.458099,-0.30093142,0.7440134,0.0053730286,-0.6681431,0.558749,0.54333586,0.6265666,0.36639267,-0.8394982,0.401247,,1.2180448743884382,0.5014447682562716,0.20041421174000001,1.7987203352102499,-0.6042066019627776,-0.059621670684906425,-0.39921289763217843,,-0.19236555316405832,0.2970394745412973,0.19682737731000002,-3.6758647092837116,0.08430472035527677,1.2819764791237858,0.7178971706601573,,-0.030892327760299636,-0.02567597495840158,0.113675081,-0.0932194237584371,,1.8276274e-05,6.4373016e-06,-8.106232e-06,1.0,-4.388392e-06,-4.116446e-06,4.377216e-06,1.0,-4.7683716e-07,4.1238964e-06,5.364418e-07,1.0,802,2.46,0,0,0.0,False,-0.25677999426057063,0.8944389824551062
2.4732004220131785,11:15:47.358365,NaN,0,,0.106426045,0.0014347136,0.027361393,-0.5304,0.77034825,-0.3538918,0.07343575,0.45763123,0.88610435,0.84456074,0.44400138,-0.2992987,,0.028077751,0.008570269,0.010540187,-0.7679465,-0.14907977,0.62292314,0.63867575,-0.25185245,0.72709256,0.04848993,0.9562141,0.28862298,,0.07478881,1.3022337,0.43178877,0.99612147,0.077393495,-0.04186008,0.027617011,-0.72670645,-0.6863928,-0.08354233,0.6825745,-0.7260253,,-0.08350213,0.2629876,-0.09172029,0.44742656,-0.8023421,0.39504,0.64697003,0.5953556,0.47642577,-0.6174457,0.042413525,0.7854692,,-0.014310055,0.45810324,-0.30095926,0.74382716,0.005828985,-0.6683466,0.55841357,0.5440753,0.6262239,0.3672811,-0.83901614,0.401443,,1.2175197285529908,0.5007728904962141,0.20059180347000002,1.7972525056058584,-0.6042066019627776,-0.059539991944765835,-0.39904955356604416,,-0.19238872136268098,0.2970394745412973,0.19680145151000003,-3.6758647092837116,0.08526117585363484,1.2816049474986135,0.7187138909908286,,-0.030892327760299636,-0.02567597495840158,0.113675081,-0.0932194237584371,,1.8276274e-05,6.4373016e-06,-8.106232e-06,1.0,-4.388392e-06,-4.116446e-06,4.377216e-06,1.0,-4.7683716e-07,4.1238964e-06,5.364418e-07,1.0,810,2.485,0,0,0.0,False,-0.2561246393568388,0.8953080260691366
2.49469399289228,11:15:47.386539,NaN,0,,0.10647418,0.0014114827,0.026960164,-0.53108114,0.769924,-0.3537934,0.07635081,0.45932877,0.8849789,0.843874,0.44298315,-0.3027252,,0.028081328,0.008550242,0.010572493,-0.7673665,-0.14965282,0.6235002,0.63942456,-0.25108472,0.7266998,0.047798663,0.9563265,0.28836572,,0.07478881,1.3022337,0.43178877,0.99612147,0.077393495,-0.04186008,0.027617011,-0.72670645,-0.6863928,-0.08354233,0.6825745,-0.7260253,,-0.083511636,0.26269972,-0.09143589,0.44821665,-0.8017949,0.39525542,0.64871067,0.5959576,0.47329593,-0.61504173,0.044267297,0.787251,,-0.014318236,0.45811284,-0.3009953,0.7433492,0.006368917,-0.66887325,0.55834615,0.544744,0.62570244,0.36834973,-0.8385782,0.40137896,,1.2163072594917377,0.4996994306266969,0.20084458002000002,1.797671885492827,-0.6024303274658269,-0.060743388472397686,-0.39921289763217854,,-0.19242733502705212,0.29705492000704575,0.19676645168,-3.675445329396743,0.08635426785175836,1.2813670341901666,0.720020643519903,,-0.030892327760299636,-0.02567597495840158,0.113675081,-0.0932194237584371,,1.8276274e-05,6.4373016e-06,-8.106232e-06,1.0,-4.388392e-06,-4.116446e-06,4.377216e-06,1.0,-4.7683716e-07,4.1238964e-06,5.364418e-07,1.0,818,2.509,0,0,0.0,False,-0.25636295023092304,0.8965633112894027
2.5228708889335394,11:15:47.416715,NaN,0,,0.10657409,0.0013342947,0.026577502,-0.5307552,0.7705933,-0.3528242,0.08160761,0.46083206,0.8837273,0.8435869,0.44024974,-0.30747533,,0.028071828,0.008534685,0.010611832,-0.76737356,-0.14991897,0.6234276,0.6394154,-0.25141582,0.7265935,0.047809377,0.95619786,0.28879035,,0.07478881,1.3022337,0.43178877,0.99612147,0.077393495,-0.04186008,0.027617011,-0.72670645,-0.6863928,-0.08354233,0.6825745,-0.7260253,,-0.08357531,0.26238146,-0.0911971,0.44800273,-0.8021732,0.39473,0.6524028,0.5952113,0.46914178,-0.61128074,0.04734616,0.7899963,,-0.01431461,0.45813212,-0.30103397,0.7433546,0.0066555343,-0.6688644,0.5583486,0.54445875,0.6259485,0.36833513,-0.8387612,0.40100983,,1.2148090493141381,0.49863369349005393,0.20104550497,1.8006075447016108,-0.5991510514714563,-0.0633357394209711,-0.39970292983058126,,-0.19245050322567478,0.29708581093854264,0.19672367411000002,-3.675445329396743,0.08635426785175836,1.2817754278908693,0.7211640519828427,,-0.030892327760299636,-0.02567597495840158,0.113675081,-0.0932194237584371,,1.8276274e-05,6.4373016e-06,-8.106232e-06,1.0,-4.388392e-06,-4.116446e-06,4.377216e-06,1.0,-4.7683716e-07,4.1238964e-06,5.364418e-07,1.0,843,2.587,0,0,0.0,False,-0.25642252794944387,0.8973840747026531
2.5530338699463755,11:15:47.481490,NaN,0,,0.10686304,0.0010387897,0.025709987,-0.537403,0.7702751,-0.3433282,0.101239115,0.4630937,0.8805083,0.83722675,0.43842947,-0.32684994,,0.028085515,0.008497253,0.010713875,-0.76671183,-0.15044618,0.6241144,0.6402805,-0.2501188,0.7262792,0.04683681,0.9564552,0.28809687,,0.07478881,1.3022337,0.43178877,0.99612147,0.077393495,-0.04186008,0.027617011,-0.72670645,-0.6863928,-0.08354233,0.6825745,-0.7260253,,-0.08378373,0.26156718,-0.09073137,0.45554164,-0.8016452,0.3871005,0.66307545,0.5956904,0.45330325,-0.59398043,0.05017833,0.80291307,,-0.0143431015,0.4581795,-0.3011285,0.742837,0.0071216854,-0.6694344,0.5581451,0.5455847,0.62514913,0.36968526,-0.83802545,0.40130556,,1.211333819520737,0.49643271462089994,0.20135013312000002,1.8010269245885797,-0.5809783970026529,-0.06410557730841843,-0.40035630609511846,,-0.19266673974615306,0.29715531553441066,0.19662515607000003,-3.6750259495097737,0.08772063284941276,1.280906285074327,0.7229608367103199,,-0.030892327760299636,-0.02567597495840158,0.113675081,-0.0932194237584371,,1.8276274e-05,6.4373016e-06,-8.106232e-06,1.0,-4.388392e-06,-4.116446e-06,4.377216e-06,1.0,-4.7683716e-07,4.1238964e-06,5.364418e-07,1.0,851,2.612,0,0,0.0,False,-0.25683957197909146,0.8979151569112274
2.617805556859821,11:15:47.512014,NaN,0,,0.10692114,0.0009353459,0.02539599,-0.5427556,0.76949376,-0.33659425,0.109221876,0.46202213,0.88011706,0.83275867,0.44092494,-0.33481064,,0.02810727,0.00848873,0.010753334,-0.76650345,-0.1505628,0.62434214,0.6405447,-0.24981081,0.72615224,0.046635985,0.95651734,0.2879231,,0.07478881,1.3022337,0.43178877,0.99612147,0.077393495,-0.04186008,0.027617011,-0.72670645,-0.6863928,-0.08354233,0.6825745,-0.7260253,,-0.08381284,0.26127753,-0.09056427,0.4614257,-0.8011255,0.38116172,0.6662986,0.59660405,0.44733626,-0.58577514,0.047555085,0.80907726,,-0.014370467,0.45819986,-0.30115917,0.74265814,0.007223752,-0.6696318,0.5581522,0.54585177,0.62490964,0.37003386,-0.83785063,0.40134928,,1.2103839233772073,0.4955986594704837,0.20145254003000002,1.7974621955493428,-0.5718237515183683,-0.05989051701597836,-0.399539585764447,,-0.19284436260226023,0.2971630382672849,0.19659404511000003,-3.674816259566289,0.08799390584894365,1.2806017705267936,0.7227974926441857,,-0.030892327760299636,-0.02567597495840158,0.113675081,-0.0932194237584371,,1.8276274e-05,6.4373016e-06,-8.106232e-06,1.0,-4.388392e-06,-4.116446e-06,4.377216e-06,1.0,-4.7683716e-07,4.1238964e-06,5.364418e-07,1.0,859,2.636,0,0,0.0,False,-0.2566012611050077,0.8989290411275963
2.648311530938372,11:15:47.539210,NaN,0,,0.10692792,0.0009012073,0.025197566,-0.5476965,0.7671615,-0.33390388,0.112620145,0.46304846,0.87914896,0.8290628,0.4439024,-0.3400078,,0.028117053,0.00848408,0.010783076,-0.7665895,-0.15111658,0.6241027,0.640429,-0.25077224,0.7259228,0.04680866,0.95617825,0.28901887,,0.07478881,1.3022337,0.43178877,0.99612147,0.077393495,-0.04186008,0.027617011,-0.72670645,-0.6863928,-0.08354233,0.6825745,-0.7260253,,-0.08380096,0.26111925,-0.0904402,0.4667533,-0.7990759,0.37897107,0.66661376,0.599479,0.44300228,-0.58117765,0.04585456,0.8124838,,-0.014384584,0.45821723,-0.30118158,0.7427185,0.007834272,-0.6695579,0.5582102,0.54502237,0.6255813,0.36982504,-0.83838487,0.40042508,,1.2099668958019993,0.49511985003228176,0.20154198404,1.7924296369057142,-0.5666315645272816,-0.057426740664916265,-0.3998662738967156,,-0.1929602035953736,0.29717076100015916,0.19656941560000002,-3.674816259566289,0.08772063284941276,1.281641393735592,0.7241042451732598,,-0.030892327760299636,-0.02567597495840158,0.113675081,-0.0932194237584371,,1.8276274e-05,6.4373016e-06,-8.106232e-06,1.0,-4.388392e-06,-4.116446e-06,4.377216e-06,1.0,-4.7683716e-07,4.1238964e-06,5.364418e-07,1.0,867,2.661,0,0,0.0,False,-0.2564821056679656,0.8996532441392877
