AlexandreBanks6/ExpertPlaybackApp/resources/Motions/P_18/PC1/Data_PC1_6.csv
Task Time,PC1 Time,PC2 Time,Gaze Calib,s_T_psm1,Tx,Ty,Tz,R00,R01,R02,R10,R11,R12,R20,R21,R22,s_T_psm3,Tx,Ty,Tz,R00,R01,R02,R10,R11,R12,R20,R21,R22,cart_T_ecm,Tx,Ty,Tz,R00,R01,R02,R10,R11,R12,R20,R21,R22,ecm_T_psm1,Tx,Ty,Tz,R00,R01,R02,R10,R11,R12,R20,R21,R22,ecm_T_psm3,Tx,Ty,Tz,R00,R01,R02,R10,R11,R12,R20,R21,R22,psm1_joints,q1,q2,q3,q4,q5,q6,jaw,psm3_joints,q1,q2,q3,q4,q5,q6,jaw,ecm_joints,q1,q2,q3,q4,ecmi_T_ecm,Tx,Ty,Tz,R00,R01,R02,R10,R11,R12,R20,R21,R22,Sample #,Task Duration (s),Collisions (binary),Collisions (increments),Cumulative Collision Time (s),Clutch Press,MTMR Angle,MTML Angle
""
lci_T_si,,,,,-0.066164754,0.026516598,0.23978148,0.99478984,-0.005419439,0.101802684,0.07109325,-0.6788334,-0.7308426,0.07306782,0.7342723,-0.6749113
rci_T_si,,,,,-0.07567082,0.03074627,0.2479851,0.9944939,-0.021734206,0.10251589,0.062365826,-0.66341096,-0.74565166,0.08421631,0.7479395,-0.6584027
ecm_T_lc,,,,,-4.4061628e-05,-0.00034663224,-0.01840835,-0.99912,0.030754527,0.028518902,-0.031987965,-0.99852574,-0.043852776,0.027128186,-0.04472645,0.9986309
ecm_T_rc,,,,,-0.0043358393,0.01870579,-0.007592615,-0.99555075,-0.052743673,-0.078081585,0.04863213,-0.9973746,0.053654674,-0.08070653,0.04961868,0.9955021
cart_T_ecmi,,,,,0.057354428,1.3212025,0.4325391,0.9967344,0.0790177,-0.016638013,0.041456804,-0.67755413,-0.73430353,-0.06929614,0.73121583,-0.67861736
ecmac_T_ecmrep_psm1,,,,,-0.0033900698,-0.29259828,-0.274185,0.99793226,0.043159027,0.047628522,-0.040498573,0.99763834,-0.055476554,-0.049910355,0.053432956,0.99732333
ecmac_T_ecmrep_psm3,,,,,-0.030876445,-0.5082754,-0.4984752,0.99144465,-0.07732987,0.105155215,0.05830459,0.98314613,0.17327517,-0.116782285,-0.16566171,0.97924364
""
0,14:56:34.828750,14:55:19.703579,0,,0.1199031,0.0017105788,0.032807216,0.49142325,0.61537755,-0.6162902,0.33098632,0.52257425,0.78572524,0.80557513,-0.5901075,0.053123564,,0.048507392,-0.04247907,0.052598536,0.830209,0.5125898,-0.21909943,0.2647738,-0.01671794,0.96416557,0.49055865,-0.85847086,-0.14959988,,0.05739022,1.3211997,0.43254384,0.9967375,0.0789669,-0.016693067,0.041382074,-0.6775601,-0.7343023,-0.06929614,0.73121583,-0.67861736,,-0.07478154,0.29695785,-0.052708197,-0.5548794,-0.5676282,0.6081999,0.7818474,-0.105975695,0.6143971,-0.2842947,0.8164358,0.50260234,,0.0025652668,0.47253203,-0.32560733,-0.9112667,-0.39332,0.12203441,0.4083554,-0.8246823,0.39133736,-0.053281203,0.40644613,0.91211987,,1.2519399489734095,0.33961490087689705,0.19800440863000002,2.9002216083344563,-0.4521301777238424,-0.9137560556155093,-0.4147305839149351,,-1.1949693485602553,0.02976341249726126,0.15756923466000003,4.539577586496468,-0.021725203462705032,-1.216695353056586,0.8734007216199913,,0.0238237442897226,0.039426987802551904,0.09203306007999999,-0.11742376536589094,,3.5226345e-05,8.225441e-06,-1.66893e-06,1.0,-5.0887465e-05,-5.4817647e-05,5.0872564e-05,1.0,-5.275011e-06,5.4828823e-05,5.155802e-06,1.0,32,0.096,0,0,0.0,False,-0.26386974276457353,1.0462319337057238
0.12993380999250803,14:56:34.848067,14:55:19.703579,0,,0.11970851,0.0017745942,0.032944933,0.477127,0.62374824,-0.6191025,0.32891482,0.5265208,0.78395844,0.8149631,-0.57767993,0.046057165,,0.04852105,-0.042496447,0.05257976,0.8315063,0.50953627,-0.22129142,0.26580828,-0.015144974,0.9639069,0.4877941,-0.8603159,-0.14803222,,0.05739022,1.3211997,0.43254384,0.9967375,0.0789669,-0.016693067,0.041382074,-0.6775601,-0.7343023,-0.06929614,0.73121583,-0.67861736,,-0.0745987,0.2971132,-0.052766137,-0.5413722,-0.57697254,0.61157084,0.78808516,-0.09475687,0.6082293,-0.29298106,0.8112483,0.50600225,,0.0025562407,0.4725051,-0.32561314,-0.9123126,-0.3902612,0.1240235,0.4063029,-0.8249475,0.39291173,-0.05102534,0.40884945,0.91117424,,1.2528126177881969,0.33919787330168893,0.19799663089000002,2.8821882731947874,-0.45978182171070714,-0.9036777522219033,-0.41587399237787515,,-1.1951855850807336,0.02963984877127367,0.15758479014000001,4.539577586496468,-0.018309290968569022,-1.2193174431687155,0.8734007216199913,,0.0238237442897226,0.039426987802551904,0.09203306007999999,-0.11742376536589094,,3.5226345e-05,8.225441e-06,-1.66893e-06,1.0,-5.0887465e-05,-5.4817647e-05,5.0872564e-05,1.0,-5.275011e-06,5.4828823e-05,5.155802e-06,1.0,43,0.129,0,0,0.0,False,-0.26339312101640555,1.0456525712963705
0.14923041299334727,14:56:34.884127,14:55:19.780323,0,,0.11925636,0.0019295812,0.033250645,0.45193863,0.64226353,-0.6190711,0.3205133,0.53073204,0.78459835,0.8324799,-0.55301094,0.03400427,,0.048605554,-0.042519543,0.052565455,0.83232296,0.50827265,-0.22112742,0.2664824,-0.017120063,0.96368766,0.4860304,-0.86102605,-0.14969525,,0.05739022,1.3211997,0.43254384,0.9967375,0.0789669,-0.016693067,0.041382074,-0.6775601,-0.7343023,-0.06929614,0.73121583,-0.67861736,,-0.07417274,0.2974682,-0.05288649,-0.51764035,-0.59740573,0.61249894,0.7965227,-0.075086325,0.599928,-0.31241015,0.7984162,0.5147149,,0.0024775423,0.47246706,-0.32562867,-0.9129707,-0.38869485,0.12409988,0.4050024,-0.8263228,0.39136136,-0.049573585,0.4075622,0.91183084,,1.2550058739244767,0.3381861952951655,0.19799663089000002,2.850525091728624,-0.4776812031799798,-0.880505739122913,-0.41440389578266656,,-1.1957802355120488,0.02936955312067581,0.15762238255000002,4.539577586496468,-0.01571319747302565,-1.218167233733325,0.8714405928263798,,0.0238237442897226,0.039426987802551904,0.09203306007999999,-0.11742376536589094,,3.5226345e-05,8.225441e-06,-1.66893e-06,1.0,-5.0887465e-05,-5.4817647e-05,5.0872564e-05,1.0,-5.275011e-06,5.4828823e-05,5.155802e-06,1.0,51,0.154,0,0,0.0,False,-0.26381016504605226,1.0474389387252105
0.18530196299252566,14:56:34.909142,14:55:19.780323,0,,0.11905674,0.0019915253,0.03337525,0.4447589,0.6506937,-0.6154569,0.31526375,0.529449,0.78758645,0.8383307,-0.54431754,0.030336946,,0.048686124,-0.04253562,0.052558064,0.8327958,0.50678265,-0.22276087,0.26713607,-0.015454233,0.9635349,0.48486012,-0.8619354,-0.14825025,,0.05739022,1.3211997,0.43254384,0.9967375,0.0789669,-0.016693067,0.041382074,-0.6775601,-0.7343023,-0.06929614,0.73121583,-0.67861736,,-0.07398383,0.29761294,-0.052937225,-0.51093733,-0.6064991,0.6091814,0.79759085,-0.070166655,0.59910387,-0.32061172,0.79198205,0.5195889,,0.002401007,0.47243914,-0.32564157,-0.9133636,-0.38730624,0.1255421,0.40425414,-0.8260114,0.39278972,-0.0484307,0.40951073,0.9110189,,1.2560252746638743,0.33766877219259245,0.19800181605000003,2.8415084241587896,-0.4857427566661408,-0.8696031095773744,-0.4153839601794722,,-1.196336272278993,0.029153316600197526,0.15765478980000003,4.539367896552983,-0.013800286476309485,-1.2205438717864805,0.8737274097522597,,0.0238237442897226,0.039426987802551904,0.09203306007999999,-0.11742376536589094,,3.5226345e-05,8.225441e-06,-1.66893e-06,1.0,-5.0887465e-05,-5.4817647e-05,5.0872564e-05,1.0,-5.275011e-06,5.4828823e-05,5.155802e-06,1.0,59,0.177,0,0,0.0,False,-0.26404847592013647,1.0461353733041652
0.21024672899511643,14:56:34.931220,14:55:19.780323,0,,0.11884241,0.0020513982,0.03348662,0.43474716,0.6560432,-0.61692965,0.3122743,0.5327306,0.78656393,0.8446773,-0.5346079,0.026737541,,0.048736066,-0.042546604,0.052552223,0.83382064,0.5043313,-0.22448397,0.26796654,-0.014247596,0.9633229,0.4826355,-0.8633927,-0.14702398,,0.05739022,1.3211997,0.43254384,0.9967375,0.0789669,-0.016693067,0.041382074,-0.6775601,-0.7343023,-0.06929614,0.73121583,-0.67861736,,-0.0737792,0.29774755,-0.05298122,-0.50145626,-0.6126135,0.6109389,0.80073816,-0.061194498,0.5958805,-0.32765836,0.7880101,0.5212294,,0.002353859,0.47242025,-0.3256498,-0.9141862,-0.38484716,0.12710746,0.4026047,-0.826232,0.39401788,-0.046616413,0.41137975,0.91027117,,1.2569906162731523,0.3371590718228936,0.19801089008000003,2.8287173376062333,-0.4921646721551165,-0.8624061783402689,-0.4142405517165322,,-1.196784190785698,0.029029752874209933,0.15767553044000002,4.539367896552983,-0.010794283481469795,-1.2226683507072396,0.8730740334877226,,0.0238237442897226,0.039426987802551904,0.09203306007999999,-0.11742376536589094,,3.5226345e-05,8.225441e-06,-1.66893e-06,1.0,-5.0887465e-05,-5.4817647e-05,5.0872564e-05,1.0,-5.275011e-06,5.4828823e-05,5.155802e-06,1.0,67,0.202,0,0,0.0,False,-0.2629164992682367,1.0480665813353434
0.23232178299804218,14:56:34.955131,14:55:19.780323,0,,0.11853813,0.002126813,0.03364058,0.42270643,0.6656978,-0.61495167,0.30448794,0.53478813,0.7882186,0.85358447,-0.5204306,0.023361325,,0.048795834,-0.042552132,0.052556038,0.8341418,0.5037628,-0.22456717,0.26823872,-0.014763266,0.96323925,0.48192874,-0.8637159,-0.14744347,,0.05739022,1.3211997,0.43254384,0.9967375,0.0789669,-0.016693067,0.041382074,-0.6775601,-0.7343023,-0.06929614,0.73121583,-0.67861736,,-0.07348835,0.29792908,-0.05304779,-0.49014527,-0.6233726,0.6092324,0.80257154,-0.050079808,0.59445006,-0.34005368,0.7803195,0.5248475,,0.0022951541,0.47241056,-0.32565862,-0.91444415,-0.38418564,0.12725276,0.40208563,-0.8266677,0.39363378,-0.046032697,0.41112265,0.910417,,1.2583420945261417,0.3362632348094836,0.1980342233,2.8136196616753475,-0.5043253206342407,-0.8501213014472112,-0.41440389578266634,,-1.1972166638266546,0.02892163461397079,0.15769367850000002,4.539367896552983,-0.00956455498358083,-1.2225276094785396,0.8730740334877225,,0.0238237442897226,0.039426987802551904,0.09203306007999999,-0.11742376536589094,,3.5226345e-05,8.225441e-06,-1.66893e-06,1.0,-5.0887465e-05,-5.4817647e-05,5.0872564e-05,1.0,-5.275011e-06,5.4828823e-05,5.155802e-06,1.0,78,0.236,0,0,0.0,False,-0.2636314318904893,1.04748721892599
0.25625901100283954,14:56:34.983717,14:55:19.780323,0,,0.11826051,0.0021823794,0.033755586,0.41050243,0.6733032,-0.6149394,0.29787198,0.5383685,0.7883093,0.8618353,-0.5067763,0.02044332,,0.048878253,-0.042561743,0.052560925,0.8351228,0.50143665,-0.22612229,0.26904404,-0.01380536,0.9630289,0.47977623,-0.8650842,-0.14643785,,0.05739022,1.3211997,0.43254384,0.9967375,0.0789669,-0.016693067,0.041382074,-0.6775601,-0.7343023,-0.06929614,0.73121583,-0.67861736,,-0.07322092,0.29806712,-0.05310075,-0.47862205,-0.632051,0.6094526,0.80474186,-0.038177203,0.59239596,-0.35115728,0.7739858,0.52691036,,0.0022144872,0.47239596,-0.32567233,-0.9152298,-0.3818321,0.12868063,0.40049237,-0.8269581,0.3946468,-0.044275314,0.4127281,0.9097776,,1.259423277128533,0.335382843261822,0.19806533426000003,2.7983122958009776,-0.5151196041157104,-0.8401757846932261,-0.41440389578266634,,-1.197911709785335,0.02877490268936052,0.15771830801,4.539367896552983,-0.00628527898921026,-1.224548209246129,0.8740540978845284,,0.0238237442897226,0.039426987802551904,0.09203306007999999,-0.11742376536589094,,3.5226345e-05,8.225441e-06,-1.66893e-06,1.0,-5.0887465e-05,-5.4817647e-05,5.0872564e-05,1.0,-5.275011e-06,5.4828823e-05,5.155802e-06,1.0,86,0.259,0,0,0.0,False,-0.2632143878608417,1.047390658524431
0.2848879789962666,14:56:35.011467,14:55:19.905907,0,,0.11807693,0.002209127,0.03380926,0.4028621,0.67651415,-0.61646634,0.29576382,0.54118025,0.78717697,0.86615586,-0.49945235,0.017932564,,0.048953325,-0.04256629,0.05256903,0.83605766,0.49962768,-0.22667104,0.26981172,-0.014689028,0.96280104,0.47771242,-0.86611575,-0.14708641,,0.05739022,1.3211997,0.43254384,0.9967375,0.0789669,-0.016693067,0.041382074,-0.6775601,-0.7343023,-0.06929614,0.73121583,-0.67861736,,-0.073042266,0.29813534,-0.053127717,-0.47134545,-0.6358423,0.61117756,0.8068835,-0.03112953,0.58988976,-0.3560512,0.77119094,0.52772343,,0.0021400421,0.47238785,-0.32568306,-0.915977,-0.37981537,0.12933055,0.39896348,-0.82796925,0.39407492,-0.042593993,0.4125617,0.90993327,,1.2600874321557163,0.33482680649487784,0.19808477861,2.788456868457205,-0.5196286086079701,-0.8351104552888546,-0.4142405517165324,,-1.198537251148147,0.028674507161995603,0.15773904865000002,4.539367896552983,-0.0034159124941360113,-1.2243559442793963,0.873890753818394,,0.0238237442897226,0.039426987802551904,0.09203306007999999,-0.11742376536589094,,3.5226345e-05,8.225441e-06,-1.66893e-06,1.0,-5.0887465e-05,-5.4817647e-05,5.0872564e-05,1.0,-5.275011e-06,5.4828823e-05,5.155802e-06,1.0,94,0.284,0,0,0.0,False,-0.2632143878608417,1.047294098122872
0.31262010599311907,14:56:35.033433,14:55:19.905907,0,,0.11780904,0.0022526681,0.033888176,0.38627148,0.6853628,-0.6173104,0.29439113,0.5426486,0.78668046,0.8741443,-0.48560315,0.007844865,,0.048987925,-0.042574976,0.05257243,0.83713734,0.49719876,-0.2280227,0.2706873,-0.014313698,0.9625609,0.47532022,-0.8675186,-0.14656806,,0.05739022,1.3211997,0.43254384,0.9967375,0.0789669,-0.016693067,0.041382074,-0.6775601,-0.7343023,-0.06929614,0.73121583,-0.67861736,,-0.07278164,0.2982384,-0.05316422,-0.45544127,-0.6457705,0.6128244,0.8127229,-0.020608915,0.58228576,-0.3633933,0.7632534,0.5342186,,0.0021065476,0.47238055,-0.3256935,-0.9168376,-0.37728804,0.13062371,0.39718485,-0.8285624,0.39462453,-0.040657215,0.41368836,0.90951025,,1.2609137645732584,0.3341240378033234,0.19811329699000002,2.767278184165268,-0.525503978097884,-0.8197012492116353,-0.41391386358426363,,-1.1989311105247324,0.028605002566127583,0.15774682639,4.539367896552983,-0.0002732729995308809,-1.2256116962221653,0.8732373775538568,,0.0238237442897226,0.039426987802551904,0.09203306007999999,-0.11742376536589094,,3.5226345e-05,8.225441e-06,-1.66893e-06,1.0,-5.0887465e-05,-5.4817647e-05,5.0872564e-05,1.0,-5.275011e-06,5.4828823e-05,5.155802e-06,1.0,105,0.318,0,0,0.0,False,-0.2631548101423209,1.0474389387252105
0.3345972730021458,14:56:35.063972,14:55:19.905907,0,,0.117578685,0.0023054928,0.033954754,0.37310073,0.69398296,-0.6157787,0.29402116,0.54105425,0.78791606,0.8799702,-0.47502413,-0.0021779835,,0.049025327,-0.042588565,0.05257249,0.8388091,0.49347293,-0.22996472,0.27204314,-0.014031559,0.96218276,0.47158435,-0.869648,-0.14601585,,0.05739022,1.3211997,0.43254384,0.9967375,0.0789669,-0.016693067,0.041382074,-0.6775601,-0.7343023,-0.06929614,0.73121583,-0.67861736,,-0.07255744,0.29833665,-0.05318354,-0.44277605,-0.65520275,0.6120937,0.8174784,-0.014547115,0.5757755,-0.3683455,0.755313,0.54205525,,0.0020712893,0.47236753,-0.32570654,-0.9181659,-0.37337974,0.13251019,0.39440393,-0.8295997,0.39523405,-0.03764198,0.41515297,0.90897256,,1.2617092060593036,0.3336220601664988,0.19814311166,2.7502932987430215,-0.5290565270917854,-0.8039808215134603,-0.4134238313858609,,-1.1994253654286828,0.02851232977163689,0.15775719671000002,4.539367896552983,0.004509004492259535,-1.2272243181276041,0.8735640656861253,,0.0238237442897226,0.039426987802551904,0.09203306007999999,-0.11742376536589094,,3.5226345e-05,8.225441e-06,-1.66893e-06,1.0,-5.0887465e-05,-5.4817647e-05,5.0872564e-05,1.0,-5.275011e-06,5.4828823e-05,5.155802e-06,1.0,112,0.338,0,0,0.0,False,-0.26285692154971585,1.0475837793275489
0.3651294390001567,14:56:35.090340,14:55:19.905907,0,,0.1174309,0.0023569316,0.034030035,0.35990888,0.70021766,-0.6165718,0.29252484,0.5428438,0.7872419,0.885943,-0.46369806,-0.009456903,,0.049054936,-0.04259308,0.05257833,0.8393841,0.49213263,-0.23073746,0.2725148,-0.013741851,0.96205336,0.47028708,-0.87041175,-0.14564824,,0.05739022,1.3211997,0.43254384,0.9967375,0.0789669,-0.016693067,0.041382074,-0.6775601,-0.7343023,-0.06929614,0.73121583,-0.67861736,,-0.07241626,0.29843533,-0.05320545,-0.4300988,-0.6623249,0.61346614,0.8215689,-0.0054795123,0.5700829,-0.3742186,0.7491967,0.5465023,,0.00204191,0.4723652,-0.32571447,-0.91862184,-0.3719961,0.13323948,0.39343962,-0.82987696,0.39561278,-0.036594044,0.41584024,0.9087011,,1.2621880154975054,0.3334058236460205,0.19815996343000003,2.733727793207744,-0.5334288950842795,-0.7927376470219618,-0.41244376698905505,,-1.1997188292779033,0.028465993374391544,0.15776238187000002,4.539367896552983,0.00628527898921026,-1.2280193209545331,0.8738907538183941,,0.0238237442897226,0.039426987802551904,0.09203306007999999,-0.11742376536589094,,3.5226345e-05,8.225441e-06,-1.66893e-06,1.0,-5.0887465e-05,-5.4817647e-05,5.0872564e-05,1.0,-5.275011e-06,5.4828823e-05,5.155802e-06,1.0,120,0.362,0,0,0.0,False,-0.26351227645344677,1.0478734605322257
0.39150608199997805,14:56:35.114052,14:55:19.905907,0,,0.11730382,0.0024167746,0.034114107,0.3511986,0.70929813,-0.61119187,0.28854477,0.5390116,0.79133326,0.890731,-0.45427155,-0.01536423,,0.04910648,-0.04259673,0.052594364,0.83917344,0.49256128,-0.23058909,0.2726119,-0.014083773,0.96202093,0.47060677,-0.8701638,-0.14609692,,0.05739022,1.3211997,0.43254384,0.9967375,0.0789669,-0.016693067,0.041382074,-0.6775601,-0.7343023,-0.06929614,0.73121583,-0.67861736,,-0.07229642,0.29854494,-0.053226165,-0.42178845,-0.6721188,0.60856456,0.8228288,-0.0018162539,0.5682864,-0.38085067,0.7404411,0.5538048,,0.0019895337,0.47236824,-0.3257276,-0.9184665,-0.37240997,0.13315439,0.39379543,-0.82990956,0.39519018,-0.036666658,0.41540453,0.90889746,,1.2627363295315754,0.3332050325912907,0.19818070407000002,2.722823916146549,-0.5393042645741934,-0.7780635496060077,-0.41375051951812925,,-1.2000663522572435,0.028388766045649296,0.15776756703000003,4.539158206609499,0.00628527898921026,-1.2276926059939708,0.8738907538183938,,0.0238237442897226,0.039426987802551904,0.09203306007999999,-0.11742376536589094,,3.5226345e-05,8.225441e-06,-1.66893e-06,1.0,-5.0887465e-05,-5.4817647e-05,5.0872564e-05,1.0,-5.275011e-06,5.4828823e-05,5.155802e-06,1.0,127,0.383,0,0,0.0,False,-0.26392932048309437,1.047390658524431
0.4152150059962878,14:56:35.138987,14:55:19.905907,0,,0.11709231,0.002493754,0.034177497,0.33842245,0.7150239,-0.61172795,0.28967258,0.5393567,0.7906859,0.89529896,-0.44478682,-0.024592489,,0.04913407,-0.04260092,0.05259788,0.8391611,0.49256092,-0.23063484,0.27260742,-0.013978541,0.9620238,0.47063142,-0.8701657,-0.14600617,,0.05739022,1.3211997,0.43254384,0.9967375,0.0789669,-0.016693067,0.041382074,-0.6775601,-0.7343023,-0.06929614,0.73121583,-0.67861736,,-0.072090834,0.29865634,-0.053224735,-0.4094199,-0.67858326,0.60983616,0.82767653,0.004955576,0.5611836,-0.38383186,0.7345068,0.55961853,,0.001962413,0.47236443,-0.325734,-0.918457,-0.37242168,0.13318755,0.39381623,-0.8298586,0.3952765,-0.03668271,0.41549587,0.9088551,,1.263554939216243,0.3329501824064413,0.19821700019000002,2.7062584106112713,-0.5403973565723169,-0.7655738252764764,-0.4132604873197264,,-1.2002439751133507,0.0283269841826555,0.15777404848,4.539158206609499,0.0064219154889757005,-1.2278857026378078,0.8737274097522596,,0.0238237442897226,0.039426987802551904,0.09203306007999999,-0.11742376536589094,,3.5226345e-05,8.225441e-06,-1.66893e-06,1.0,-5.0887465e-05,-5.4817647e-05,5.0872564e-05,1.0,-5.275011e-06,5.4828823e-05,5.155802e-06,1.0,138,0.416,0,0,0.0,False,-0.26333354329788383,1.0479700209337843
0.4400610799930291,14:56:35.165829,14:55:19.905907,0,,0.116907984,0.0025586039,0.03427489,0.33082658,0.7219847,-0.60769385,0.28530866,0.537297,0.7936692,0.8995292,-0.43594733,-0.02823639,,0.0491596,-0.042618234,0.052591264,0.8396882,0.49102142,-0.2319952,0.27329266,-0.012906462,0.9618443,0.46929193,-0.8710519,-0.14503011,,0.05739022,1.3211997,0.43254384,0.9967375,0.0789669,-0.016693067,0.041382074,-0.6775601,-0.7343023,-0.06929614,0.73121583,-0.67861736,,-0.071915016,0.29878244,-0.05325394,-0.40217498,-0.68622166,0.60609823,0.8282023,0.009535893,0.5603481,-0.3903027,0.72732997,0.56449527,,0.0019401147,0.4723459,-0.32574642,-0.91888535,-0.3709178,0.13442376,0.3929308,-0.82981557,0.3962468,-0.035428055,0.41692463,0.9082504,,1.264404439832408,0.3325872139613527,0.19823903712000002,2.6964029832674985,-0.546272726062231,-0.7537584837654419,-0.4129337991874579,,-1.200467934366703,0.02818797499091946,0.15778441880000002,4.538948516666014,0.008198189985926425,-1.2295791716062832,0.8729106894215882,,0.0238237442897226,0.039426987802551904,0.09203306007999999,-0.11742376536589094,,3.5226345e-05,8.225441e-06,-1.66893e-06,1.0,-5.0887465e-05,-5.4817647e-05,5.0872564e-05,1.0,-5.275011e-06,5.4828823e-05,5.155802e-06,1.0,149,0.449,0,0,0.0,False,-0.26381016504605226,1.0481631417369022
0.46697552199475467,14:56:35.195138,14:55:19.905907,0,,0.116660655,0.0026182234,0.03434135,0.32066554,0.7236604,-0.6111375,0.28255644,0.5427497,0.79093903,0.90406615,-0.42630786,-0.030433834,,0.049081475,-0.04267421,0.052591383,0.8410744,0.48782748,-0.23370525,0.27431166,-0.012287825,0.9615623,0.46620476,-0.87285364,-0.1441519,,0.05736573,1.321198,0.43254694,0.9967352,0.079003386,-0.016653525,0.04143575,-0.6775558,-0.7343032,-0.06929614,0.73121583,-0.67861736,,-0.07165803,0.2988823,-0.053270377,-0.39241615,-0.688703,0.6096702,0.8301964,0.020138174,0.5571072,-0.39595905,0.7247639,0.5638562,,0.0020438808,0.47233102,-0.32578936,-0.9199889,-0.36760068,0.13597868,0.39054784,-0.8305115,0.39714354,-0.03305837,0.41847384,0.907627,,1.265269385914321,0.33202345446153436,0.19825977776000003,2.6827731369410044,-0.5511916400537868,-0.7490123305711057,-0.4140772076503979,,-1.2006996163529298,0.028041243066309195,0.15778960396000002,4.538948516666014,0.011887375479593319,-1.2314439526441185,0.8745441300829311,,0.0238237442897226,0.039426987802551904,0.09203306007999999,-0.11742376536589094,,1.052767e-05,9.775162e-06,-2.1457672e-06,1.0,-1.4346093e-05,-1.5445054e-05,1.4323741e-05,1.0,-1.5199184e-06,1.5452504e-05,1.4007092e-06,1.0,160,0.482,0,0,0.0,False,-0.26309523242380006,1.0478734605322257
0.4963207760010846,14:56:35.232979,14:55:20.114462,0,,0.11645247,0.002652958,0.03447859,0.3100366,0.7304142,-0.6085822,0.273047,0.5447483,0.7929026,0.9106716,-0.4120005,-0.030545563,,0.04916265,-0.04269838,0.052580655,0.84141916,0.48723596,-0.23369814,0.2746017,-0.013056368,0.96146935,0.46541122,-0.8731727,-0.14478189,,0.05736573,1.321198,0.43254694,0.9967352,0.079003386,-0.016653525,0.04143575,-0.6775558,-0.7343032,-0.06929614,0.73121583,-0.67861736,,-0.07146154,0.29901806,-0.053350005,-0.38232428,-0.6965808,0.60712713,0.8290949,0.03147945,0.558221,-0.40795806,0.71678746,0.5654962,,0.0019681328,0.47229606,-0.32580754,-0.9202611,-0.3668874,0.13606296,0.38995987,-0.83106613,0.39656067,-0.032415785,0.41799846,0.9078692,,1.2660339364688693,0.3314210812973448,0.19826366663000003,2.669772360444964,-0.5626691060340837,-0.7385097242986385,-0.4130971432535925,,-1.2012093167226288,0.027763224682837113,0.1578233075,4.538948516666014,0.013253740477247724,-1.2312512718388338,0.8738907538183937,,0.0238237442897226,0.039426987802551904,0.09203306007999999,-0.11742376536589094,,1.052767e-05,9.775162e-06,-2.1457672e-06,1.0,-1.4346093e-05,-1.5445054e-05,1.4323741e-05,1.0,-1.5199184e-06,1.5452504e-05,1.4007092e-06,1.0,171,0.514,0,0,0.0,False,-0.2644059422312628,1.0478734605322257
0.5341281449946109,14:56:35.262890,14:55:20.114462,0,,0.11622737,0.0026613772,0.034555838,0.2969861,0.73489696,-0.60969305,0.2708995,0.5474228,0.79179645,0.9156488,-0.4003182,-0.036506265,,0.0492386,-0.042729687,0.0525859,0.8413691,0.4874098,-0.23351559,0.2745706,-0.013327509,0.9614745,0.4655199,-0.8730717,-0.14504194,,0.05736573,1.321198,0.43254694,0.9967352,0.079003386,-0.016653525,0.04143575,-0.6775558,-0.7343032,-0.06929614,0.73121583,-0.67861736,,-0.071243346,0.29909328,-0.053408634,-0.3697069,-0.70198727,0.6087123,0.83200884,0.04151687,0.5532067,-0.41361585,0.7109784,0.5687105,,0.0018963224,0.472272,-0.32583982,-0.9202221,-0.36703974,0.13591577,0.3900452,-0.83114505,0.39631134,-0.032496292,0.41770774,0.9080001,,1.2666980914960526,0.3308495990646522,0.19826107405,2.652997164966202,-0.5669048375268124,-0.7279497188918205,-0.41358717545199497,,-1.2016649579622078,0.027462038100742357,0.15783886298000002,4.538948516666014,0.013527013476778605,-1.2313107501659455,0.8738907538183939,,0.0238237442897226,0.039426987802551904,0.09203306007999999,-0.11742376536589094,,1.052767e-05,9.775162e-06,-2.1457672e-06,1.0,-1.4346093e-05,-1.5445054e-05,1.4323741e-05,1.0,-1.5199184e-06,1.5452504e-05,1.4007092e-06,1.0,182,0.547,0,0,0.0,False,-0.2632143878608417,1.0480183011345638
0.5640721749950899,14:56:35.295953,14:55:20.114462,0,,0.11605124,0.0026690364,0.03462006,0.2870999,0.74113184,-0.6068749,0.27006233,0.54522115,0.7935995,0.91904306,-0.39173645,-0.043618888,,0.049338587,-0.042766836,0.052607477,0.84130025,0.48757502,-0.23341882,0.27452913,-0.01339829,0.9614853,0.46566883,-0.8729783,-0.14512566,,0.05736573,1.321198,0.43254694,0.9967352,0.079003386,-0.016653525,0.04143575,-0.6775558,-0.7343032,-0.06929614,0.73121583,-0.67861736,,-0.07107291,0.29915562,-0.053456336,-0.3601207,-0.708881,0.60646576,0.8344853,0.04585594,0.54911894,-0.41707003,0.70383584,0.5750371,,0.0017994465,0.47225487,-0.32588634,-0.9201684,-0.3672061,0.13582988,0.3901627,-0.8311291,0.39622918,-0.032605607,0.41759333,0.9080488,,1.2672618509958709,0.3304557396880668,0.19825200002,2.6402060784136463,-0.5690910215230595,-0.7147320088129991,-0.41309714325359204,,-1.2023136675236428,0.027114515121402255,0.15784793701000002,4.538948516666014,0.013936922976074925,-1.2316450038770348,0.8738907538183939,,0.0238237442897226,0.039426987802551904,0.09203306007999999,-0.11742376536589094,,1.052767e-05,9.775162e-06,-2.1457672e-06,1.0,-1.4346093e-05,-1.5445054e-05,1.4323741e-05,1.0,-1.5199184e-06,1.5452504e-05,1.4007092e-06,1.0,193,0.58,0,0,0.0,False,-0.26249945523859,1.0480183011345638
0.5971229230053723,14:56:35.327300,14:55:20.114462,0,,0.11588828,0.00270845,0.03475879,0.27199978,0.7464314,-0.6073352,0.2659843,0.54822534,0.7929069,0.9248073,-0.37721226,-0.049421906,,0.049404763,-0.04277998,0.052625358,0.8411937,0.48781902,-0.23329318,0.27445412,-0.013439834,0.96150625,0.4659056,-0.87284136,-0.14518961,,0.05736573,1.321198,0.43254694,0.9967352,0.079003386,-0.016653525,0.04143575,-0.6775558,-0.7343032,-0.06929614,0.73121583,-0.67861736,,-0.07092162,0.29929295,-0.053531177,-0.34551826,-0.71532905,0.60738903,0.8367675,0.05813119,0.5444639,-0.4247791,0.6963656,0.57847875,,0.0017335172,0.4722523,-0.32590914,-0.9200849,-0.36745903,0.13571185,0.3903445,-0.8310748,0.39616397,-0.03278733,0.41747886,0.90809494,,1.267848778694312,0.3303321759620792,0.19822607422000002,2.6211242935565546,-0.5748297545132081,-0.7025380127648174,-0.4139138635842635,,-1.2027538632974737,0.026960060463917763,0.15785441846,4.538948516666014,0.014073559475840366,-1.2317564217807313,0.8738907538183939,,0.0238237442897226,0.039426987802551904,0.09203306007999999,-0.11742376536589094,,1.052767e-05,9.775162e-06,-2.1457672e-06,1.0,-1.4346093e-05,-1.5445054e-05,1.4323741e-05,1.0,-1.5199184e-06,1.5452504e-05,1.4007092e-06,1.0,204,0.613,0,0,0.0,False,-0.26422720907569985,1.047680339729108
0.6284317639947403,14:56:35.361760,14:55:20.114462,0,,0.11578573,0.002762109,0.034905568,0.25774288,0.7501228,-0.6090026,0.25978544,0.55328774,0.7914443,0.93063426,-0.36219925,-0.052265078,,0.04943057,-0.042784777,0.05263537,0.841129,0.48797095,-0.23320876,0.27440655,-0.013477385,0.96151924,0.46605045,-0.8727558,-0.14523876,,0.05736573,1.321198,0.43254694,0.9967352,0.079003386,-0.016653525,0.04143575,-0.6775558,-0.7343032,-0.06929614,0.73121583,-0.67861736,,-0.07083125,0.29944232,-0.053598,-0.3317561,-0.72021806,0.60928136,0.8375897,0.07226907,0.54149854,-0.43402925,0.68997324,0.57927155,,0.0017073866,0.47225407,-0.3259193,-0.92003405,-0.36761516,0.13563345,0.3904548,-0.8310466,0.39611438,-0.032899927,0.41739744,0.90812826,,1.2682426380708973,0.33042484875656986,0.19820533358000003,2.60330064836037,-0.5823447620003072,-0.6936329508967354,-0.41391386358426374,,-1.2029314861535807,0.026906001333798193,0.15785441846,4.538948516666014,0.014073559475840366,-1.2317564217807313,0.8738907538183939,,0.0238237442897226,0.039426987802551904,0.09203306007999999,-0.11742376536589094,,1.052767e-05,9.775162e-06,-2.1457672e-06,1.0,-1.4346093e-05,-1.5445054e-05,1.4323741e-05,1.0,-1.5199184e-06,1.5452504e-05,1.4007092e-06,1.0,215,0.645,0,0,0.0,False,-0.2632143878608417,1.04748721892599
0.6629389409936266,14:56:35.395167,14:55:20.295986,0,,0.115633026,0.0028380007,0.035074607,0.24138407,0.7570154,-0.6071748,0.25554553,0.55400777,0.7923205,0.9361786,-0.34641442,-0.059723318,,0.04944095,-0.042784955,0.05263555,0.8411555,0.48785737,-0.23335053,0.27442965,-0.013257563,0.96151567,0.46598887,-0.8728227,-0.14503437,,0.05736573,1.321198,0.43254694,0.9967352,0.079003386,-0.016653525,0.04143575,-0.6775558,-0.7343032,-0.06929614,0.73121583,-0.67861736,,-0.07069268,0.29962605,-0.0536665,-0.31588095,-0.728349,0.60805184,0.83967644,0.08379595,0.53658336,-0.44177222,0.68006325,0.5851079,,0.001697159,0.47225237,-0.32591993,-0.92005503,-0.36752054,0.1357474,0.39040956,-0.8309744,0.39631033,-0.032849565,0.4176244,0.90802574,,1.2689376840295776,0.3305870261469286,0.19817940778,2.582541343955402,-0.587536948991394,-0.6773922957556087,-0.4121170788567863,,-1.2030009907494488,0.026890555868049743,0.15785830733,4.538948516666014,0.014210195975605806,-1.2320311971647087,0.8735640656861253,,0.0238237442897226,0.039426987802551904,0.09203306007999999,-0.11742376536589094,,1.052767e-05,9.775162e-06,-2.1457672e-06,1.0,-1.4346093e-05,-1.5445054e-05,1.4323741e-05,1.0,-1.5199184e-06,1.5452504e-05,1.4007092e-06,1.0,226,0.678,0,0,0.0,False,-0.26309523242380006,1.0477769001306665
0.696298102993751,14:56:35.423379,14:55:20.295986,0,,0.11557837,0.0028666407,0.035143122,0.23805372,0.76173323,-0.6025718,0.25308293,0.5503253,0.79567015,0.9376991,-0.34191304,-0.06177473,,0.04943467,-0.042782437,0.052629113,0.8411753,0.48781124,-0.23337576,0.2744442,-0.013247132,0.96151173,0.46594465,-0.87284863,-0.14502028,,0.05736573,1.321198,0.43254694,0.9967352,0.079003386,-0.016653525,0.04143575,-0.6775558,-0.7343032,-0.06929614,0.73121583,-0.67861736,,-0.07064374,0.29969865,-0.05369544,-0.3126764,-0.7334016,0.60361874,0.83928794,0.08425121,0.5371197,-0.44478002,0.6745546,0.5891917,,0.0017038751,0.4722492,-0.32591423,-0.9200706,-0.367473,0.13577093,0.39037585,-0.83098346,0.3963246,-0.032815184,0.4176483,0.908016,,1.2692697615431694,0.33060247161267703,0.19816903746000003,2.578137855142227,-0.5901330424869373,-0.6687410563741316,-0.41375051951812936,,-1.2029469316193293,0.026906001333798193,0.15786219620000003,4.538948516666014,0.014210195975605806,-1.2320311971647087,0.8735640656861253,,0.0238237442897226,0.039426987802551904,0.09203306007999999,-0.11742376536589094,,1.052767e-05,9.775162e-06,-2.1457672e-06,1.0,-1.4346093e-05,-1.5445054e-05,1.4323741e-05,1.0,-1.5199184e-06,1.5452504e-05,1.4007092e-06,1.0,237,0.711,0,0,0.0,False,-0.26273776611267374,1.0479217407330053
0.7245166950015118,14:56:35.453836,14:55:20.295986,0,,0.11545025,0.0029109865,0.035221383,0.22844443,0.76782376,-0.5985481,0.25271475,0.5469629,0.7981019,0.9401854,-0.33358398,-0.06908986,,0.049431287,-0.042781737,0.05262786,0.84118366,0.48779133,-0.23338708,0.27445036,-0.013241559,0.96151,0.46592584,-0.8728598,-0.14501327,,0.05736573,1.321198,0.43254694,0.9967352,0.079003386,-0.016653525,0.04143575,-0.6775558,-0.7343032,-0.06929614,0.73121583,-0.67861736,,-0.07052237,0.29979345,-0.05372348,-0.30329502,-0.7401284,0.6001851,0.84141135,0.08761933,0.53324455,-0.44725725,0.66673297,0.59617794,,0.0017072925,0.47224903,-0.32591283,-0.92007715,-0.36745262,0.13578138,0.39036155,-0.8309868,0.39633164,-0.03280057,0.41765952,0.9080114,,1.2698180755772392,0.33060247161267703,0.19816255601000002,2.5657661484766403,-0.5908162249857646,-0.6547069747324569,-0.41326048731972664,,-1.2029237634207066,0.026913724066672418,0.15786219620000003,4.538948516666014,0.014210195975605806,-1.2320311971647087,0.8735640656861253,,0.0238237442897226,0.039426987802551904,0.09203306007999999,-0.11742376536589094,,1.052767e-05,9.775162e-06,-2.1457672e-06,1.0,-1.4346093e-05,-1.5445054e-05,1.4323741e-05,1.0,-1.5199184e-06,1.5452504e-05,1.4007092e-06,1.0,248,0.744,0,0,0.0,False,-0.262797343831195,1.0474389387252105
0.7550188119930681,14:56:35.494135,14:55:20.295986,0,,0.11530124,0.0029727668,0.035348162,0.21607319,0.7723377,-0.5973331,0.24707958,0.54862,0.7987288,0.94459736,-0.32017276,-0.072286814,,0.04943133,-0.042788398,0.052623987,0.84124225,0.48765463,-0.2334617,0.27449632,-0.013216555,0.96149725,0.4657931,-0.8729366,-0.1449779,,0.05736573,1.321198,0.43254694,0.9967352,0.079003386,-0.016653525,0.04143575,-0.6775558,-0.7343032,-0.06929614,0.73121583,-0.67861736,,-0.07038409,0.29993665,-0.053773154,-0.2913011,-0.7457012,0.5992273,0.84148186,0.09821022,0.53128433,-0.4550296,0.6590026,0.5988853,,0.001708514,0.47224241,-0.3259166,-0.9201233,-0.36731115,0.13585185,0.39026174,-0.83101636,0.39636797,-0.032695267,0.41772515,0.907985,,1.2704281714743029,0.3305638579483059,0.19816255601000002,2.549829712771816,-0.5969648674752094,-0.6431588698548728,-0.412933799187458,,-1.2029160406878323,0.02686738766942707,0.15786349249,4.538948516666014,0.014346832475371248,-1.2321426150684052,0.8735640656861253,,0.0238237442897226,0.039426987802551904,0.09203306007999999,-0.11742376536589094,,1.052767e-05,9.775162e-06,-2.1457672e-06,1.0,-1.4346093e-05,-1.5445054e-05,1.4323741e-05,1.0,-1.5199184e-06,1.5452504e-05,1.4007092e-06,1.0,259,0.777,0,0,0.0,False,-0.26351227645344677,1.0478251803314462
0.795306811996852,14:56:35.528378,14:55:20.295986,0,,0.11520475,0.0030097514,0.03541948,0.20637663,0.7750684,-0.59722483,0.24357933,0.5504545,0.7985417,0.94766974,-0.31027207,-0.0751898,,0.04943625,-0.04278813,0.05262184,0.8412831,0.48754647,-0.23354025,0.27452993,-0.013149619,0.9614886,0.46569943,-0.872998,-0.14490885,,0.05736573,1.321198,0.43254694,0.9967352,0.079003386,-0.016653525,0.04143575,-0.6775558,-0.7343032,-0.06929614,0.73121583,-0.67861736,,-0.07029369,0.30001947,-0.053800154,-0.28187174,-0.74921715,0.5993513,0.8418864,0.106484085,0.5290448,-0.4601908,0.6537085,0.6007409,,0.0017039129,0.4722399,-0.32591546,-0.92015547,-0.3672046,0.13592143,0.390192,-0.83101684,0.39643562,-0.03261999,0.41781786,0.90794504,,1.270737080789272,0.33054841248255745,0.19816774117000002,2.5374580061062293,-0.6007906894686417,-0.6351384441429392,-0.4132604873197264,,-1.2029469316193293,0.026859664936552844,0.15786738136,4.538948516666014,0.014483468975136688,-1.2322540329721015,0.8735640656861253,,0.0238237442897226,0.039426987802551904,0.09203306007999999,-0.11742376536589094,,1.052767e-05,9.775162e-06,-2.1457672e-06,1.0,-1.4346093e-05,-1.5445054e-05,1.4323741e-05,1.0,-1.5199184e-06,1.5452504e-05,1.4007092e-06,1.0,270,0.809,0,0,0.0,False,-0.2629164992682367,1.0473423783236515
0.8295517420046963,14:56:35.555085,14:55:20.450655,0,,0.11510123,0.003015101,0.03545867,0.19214186,0.77982867,-0.5957757,0.2405493,0.5511424,0.7989856,0.95142925,-0.29683208,-0.081689775,,0.049439617,-0.042788383,0.05262029,0.84132695,0.48745105,-0.23358165,0.2745657,-0.013162017,0.96147823,0.46559912,-0.87305117,-0.14491105,,0.05736573,1.321198,0.43254694,0.9967352,0.079003386,-0.016653525,0.04143575,-0.6775558,-0.7343032,-0.06929614,0.73121583,-0.67861736,,-0.07019363,0.30005774,-0.053828552,-0.26797462,-0.7550354,0.59842396,0.8433826,0.116416186,0.5245503,-0.46572027,0.6452665,0.6055871,,0.0017008241,0.47223788,-0.325915,-0.92019004,-0.36710235,0.13596368,0.3901172,-0.831052,0.3964356,-0.032539558,0.41783786,0.9079387,,1.270775694453643,0.3304402942223183,0.19817422262,2.5196343609100444,-0.6043432384625431,-0.6216233424285592,-0.41130035852611524,,-1.2029700998179518,0.02685194220367862,0.15786997394000002,4.538948516666014,0.01462010547490213,-1.2322837721356574,0.8734007216199912,,0.0238237442897226,0.039426987802551904,0.09203306007999999,-0.11742376536589094,,1.052767e-05,9.775162e-06,-2.1457672e-06,1.0,-1.4346093e-05,-1.5445054e-05,1.4323741e-05,1.0,-1.5199184e-06,1.5452504e-05,1.4007092e-06,1.0,281,0.842,0,0,0.0,False,-0.2626781883941529,1.047680339729108
0.8562488320021657,14:56:35.588469,14:55:20.450655,0,,0.11499882,0.0030050874,0.035467044,0.17726155,0.78591526,-0.5923811,0.24014845,0.54917765,0.8004577,0.9544146,-0.28414991,-0.091388345,,0.04944011,-0.04278816,0.05261916,0.8414563,0.48728272,-0.23346677,0.27441436,-0.013184249,0.9615211,0.46545455,-0.87314475,-0.14481151,,0.05736573,1.321198,0.43254694,0.9967352,0.079003386,-0.016653525,0.04143575,-0.6775558,-0.7343032,-0.06929614,0.73121583,-0.67861736,,-0.070092194,0.30006307,-0.05384699,-0.25337872,-0.76210886,0.5958098,0.84616005,0.123899534,0.5183262,-0.46884158,0.6354833,0.6134725,,0.0017004628,0.47223693,-0.32591423,-0.9202813,-0.36692205,0.13583283,0.38989687,-0.8311141,0.3965221,-0.03260013,0.41787267,0.90792054,,1.270737080789272,0.3303321759620792,0.19817811149000003,2.5011816458834066,-0.6050264209613704,-0.6048121836221052,-0.4108103263277123,,-1.202977822550826,0.02685194220367862,0.15787127023000003,4.539158206609499,0.014756741974667567,-1.2323135112992132,0.8732373775538568,,0.0238237442897226,0.039426987802551904,0.09203306007999999,-0.11742376536589094,,1.052767e-05,9.775162e-06,-2.1457672e-06,1.0,-1.4346093e-05,-1.5445054e-05,1.4323741e-05,1.0,-1.5199184e-06,1.5452504e-05,1.4007092e-06,1.0,292,0.875,0,0,0.0,False,-0.2626781883941529,1.0478734605322257
0.8896224859927315,14:56:35.624506,14:55:20.450655,0,,0.114873916,0.0029955208,0.035491213,0.15973215,0.7913161,-0.59017307,0.2384333,0.5492216,0.80094016,0.95793283,-0.26865292,-0.10094786,,0.049441405,-0.04278807,0.052613795,0.84134877,0.48724842,-0.2339254,0.27483875,-0.013009399,0.96140224,0.46539852,-0.87316656,-0.1448603,,0.05736573,1.321198,0.43254694,0.9967352,0.079003386,-0.016653525,0.04143575,-0.6775558,-0.7343032,-0.06929614,0.73121583,-0.67861736,,-0.06996959,0.3000815,-0.053877085,-0.23618144,-0.76872814,0.5943697,0.8485801,0.13484287,0.5115947,-0.47342378,0.6251995,0.62048006,,0.0016998587,0.47223222,-0.32591146,-0.92021793,-0.36690596,0.13630466,0.39007935,-0.8310395,0.39649904,-0.032203294,0.41803515,0.90785986,,1.270737080789272,0.3302086122360916,0.19817940778,2.479373891761016,-0.606802695458321,-0.5876814327670639,-0.41309714325359226,,-1.202977822550826,0.026844219470804394,0.15787645539,4.53873882672253,0.014893378474433009,-1.2325066079430502,0.8734007216199912,,0.0238237442897226,0.039426987802551904,0.09203306007999999,-0.11742376536589094,,1.052767e-05,9.775162e-06,-2.1457672e-06,1.0,-1.4346093e-05,-1.5445054e-05,1.4323741e-05,1.0,-1.5199184e-06,1.5452504e-05,1.4007092e-06,1.0,300,0.898,0,0,0.0,False,-0.2626186106756321,1.0475837793275489
0.9256669759924989,14:56:35.648140,14:55:20.450655,0,,0.11474827,0.0029931366,0.035530165,0.14301024,0.79665744,-0.587269,0.23508,0.54904544,0.80205137,0.96139777,-0.25275683,-0.108759195,,0.049443275,-0.04279339,0.05261123,0.8413206,0.487183,-0.23416299,0.27507105,-0.012959242,0.9613365,0.46531227,-0.87320375,-0.14491296,,0.05736573,1.321198,0.43254694,0.9967352,0.079003386,-0.016653525,0.04143575,-0.6775558,-0.7343032,-0.06929614,0.73121583,-0.67861736,,-0.06984745,0.3001156,-0.053912114,-0.2197808,-0.7753193,0.5920949,0.8497893,0.1459281,0.50652057,-0.47911844,0.6144794,0.6267859,,0.0016989668,0.47222707,-0.3259148,-0.92020637,-0.36684266,0.13655306,0.3901268,-0.831035,0.39646173,-0.03195869,0.41809958,0.9078388,,1.2707911399193914,0.3300927712429782,0.19818200036000003,2.4584048974125636,-0.6099453349529261,-0.5706616839771665,-0.41456723984880084,,-1.2029855452837004,0.026805605806433274,0.15787775168,4.5385291367790455,0.015030014974198449,-1.2326180258467467,0.8734007216199912,,0.0238237442897226,0.039426987802551904,0.09203306007999999,-0.11742376536589094,,1.052767e-05,9.775162e-06,-2.1457672e-06,1.0,-1.4346093e-05,-1.5445054e-05,1.4323741e-05,1.0,-1.5199184e-06,1.5452504e-05,1.4007092e-06,1.0,307,0.92,0,0,0.0,False,-0.2620824112089424,1.0477769001306665
0.9492730780038983,14:56:35.671050,14:55:20.450655,0,,0.11465943,0.003004238,0.03556378,0.13338594,0.8004262,-0.58440226,0.23348233,0.5476947,0.80344033,0.96316886,-0.24361534,-0.113830715,,0.049445376,-0.042797457,0.052607775,0.8414212,0.48692945,-0.2343288,0.2751518,-0.012845188,0.961315,0.4650826,-0.87334687,-0.14478791,,0.05736573,1.321198,0.43254694,0.9967352,0.079003386,-0.016653525,0.04143575,-0.6775558,-0.7343032,-0.06929614,0.73121583,-0.67861736,,-0.0697616,0.30015287,-0.053931743,-0.21032444,-0.77980155,0.58963823,0.8505516,0.15140405,0.5036256,-0.48200163,0.6074425,0.63141745,,0.0016978171,0.47222176,-0.3259166,-0.9202856,-0.36658803,0.13670295,0.38995486,-0.8310567,0.39658535,-0.031775527,0.41827977,0.9077623,,1.2709687627754986,0.3300541575786071,0.19818329665,2.4462428806904613,-0.6111750634508152,-0.5592857228460473,-0.41048363819544376,,-1.2030009907494488,0.026774714874936375,0.15788034426000003,4.5385291367790455,0.01530328797372933,-1.2328408616541395,0.8737274097522595,,0.0238237442897226,0.039426987802551904,0.09203306007999999,-0.11742376536589094,,1.052767e-05,9.775162e-06,-2.1457672e-06,1.0,-1.4346093e-05,-1.5445054e-05,1.4323741e-05,1.0,-1.5199184e-06,1.5452504e-05,1.4007092e-06,1.0,318,0.953,0,0,0.0,False,-0.26339312101640555,1.04748721892599
0.9722310899960576,14:56:35.699294,14:55:20.588709,0,,0.1145058,0.0030273646,0.03562729,0.120085955,0.80468166,-0.581435,0.23134917,0.54686606,0.804621,0.9654311,-0.23113832,-0.120491594,,0.049455285,-0.0428026,0.052607477,0.84145284,0.48685026,-0.23437963,0.27517816,-0.012813926,0.9613078,0.46500957,-0.8733915,-0.14475307,,0.05736573,1.321198,0.43254694,0.9967352,0.079003386,-0.016653525,0.04143575,-0.6775558,-0.7343032,-0.06929614,0.73121583,-0.67861736,,-0.069613576,0.30022395,-0.053966474,-0.19724193,-0.78503615,0.5872085,0.8515218,0.15962751,0.49942937,-0.48580477,0.5985293,0.63699013,,0.0016886877,0.47221726,-0.3259212,-0.92031056,-0.36650795,0.1367494,0.38990065,-0.8310656,0.39662,-0.031716656,0.41833225,0.9077402,,1.2714166812822036,0.3299692075169906,0.19818070407000002,2.4292579952682147,-0.6125414284484696,-0.5446945516858905,-0.41260711105518955,,-1.2030627726124425,0.02672837847769103,0.15788293684000002,4.5385291367790455,0.01543992447349477,-1.232952279557836,0.874054097884528,,0.0238237442897226,0.039426987802551904,0.09203306007999999,-0.11742376536589094,,1.052767e-05,9.775162e-06,-2.1457672e-06,1.0,-1.4346093e-05,-1.5445054e-05,1.4323741e-05,1.0,-1.5199184e-06,1.5452504e-05,1.4007092e-06,1.0,329,0.985,0,0,0.0,False,-0.26255903295711036,1.0479217407330053
1.0004630299954442,14:56:35.735725,14:55:20.588709,0,,0.114325516,0.003069222,0.035740867,0.107866965,0.80802745,-0.57918596,0.22475159,0.54768264,0.8059344,0.96842736,-0.21710671,-0.12252867,,0.04946836,-0.04280996,0.052609265,0.8414767,0.48673412,-0.23453498,0.2751987,-0.012560338,0.9613052,0.46495426,-0.8734599,-0.14451799,,0.05736573,1.321198,0.43254694,0.9967352,0.079003386,-0.016653525,0.04143575,-0.6775558,-0.7343032,-0.06929614,0.73121583,-0.67861736,,-0.069443025,0.30034578,-0.05402328,-0.18528451,-0.78949195,0.58512574,0.8498965,0.17016122,0.49871942,-0.49330068,0.5897013,0.6394582,,0.0016764454,0.4722129,-0.32592893,-0.9203294,-0.36641455,0.13687271,0.38985983,-0.83097744,0.3968448,-0.031671576,0.41858912,0.9076233,,1.2720653908436386,0.32982247559238037,0.19818070407000002,2.412902179676422,-0.618280161438618,-0.5319288044567252,-0.4140772076503979,,-1.203147722674059,0.02666659661469723,0.15788423313000002,4.5385291367790455,0.015576560973260212,-1.233308733681954,0.8735640656861252,,0.0238237442897226,0.039426987802551904,0.09203306007999999,-0.11742376536589094,,1.052767e-05,9.775162e-06,-2.1457672e-06,1.0,-1.4346093e-05,-1.5445054e-05,1.4323741e-05,1.0,-1.5199184e-06,1.5452504e-05,1.4007092e-06,1.0,337,1.009,0,0,0.0,False,-0.2621419889274632,1.0477769001306665
1.036901838000631,14:56:35.759653,14:55:20.588709,0,,0.114074625,0.003119886,0.03587003,0.09216872,0.8108697,-0.5779231,0.21851736,0.5497744,0.80622464,0.97147065,-0.20059499,-0.1265172,,0.049487673,-0.042818483,0.052612066,0.84148693,0.486728,-0.23451135,0.27520895,-0.012632698,0.9613014,0.4649298,-0.8734623,-0.1445823,,0.05736573,1.321198,0.43254694,0.9967352,0.079003386,-0.016653525,0.04143575,-0.6775558,-0.7343032,-0.06929614,0.73121583,-0.67861736,,-0.069203354,0.30048916,-0.054088064,-0.16986357,-0.7936467,0.5841843,0.8487622,0.18339808,0.49595147,-0.5007485,0.58007765,0.6424647,,0.0016580647,0.47220773,-0.32593837,-0.9203375,-0.36639977,0.13685806,0.38984245,-0.8310145,0.39678422,-0.0316506,0.41852847,0.907652,,1.2729921187885456,0.32960623907190206,0.19818070407000002,2.3919331853279693,-0.6230624389304085,-0.5172475841287961,-0.4114637025922493,,-1.2032712864000465,0.026589369285954987,0.15788682571,4.5385291367790455,0.01571319747302565,-1.23333847284551,0.873400721619991,,0.0238237442897226,0.039426987802551904,0.09203306007999999,-0.11742376536589094,,1.052767e-05,9.775162e-06,-2.1457672e-06,1.0,-1.4346093e-05,-1.5445054e-05,1.4323741e-05,1.0,-1.5199184e-06,1.5452504e-05,1.4007092e-06,1.0,345,1.034,0,0,0.0,False,-0.2630356547052788,1.0480183011345638
1.060818637997727,14:56:35.785072,14:55:20.588709,0,,0.113899246,0.0031431317,0.035936937,0.082391605,0.8129928,-0.57641494,0.21608645,0.550049,0.8066925,0.9728918,-0.19102019,-0.13035738,,0.04949531,-0.042828005,0.052612126,0.8415262,0.48663795,-0.23455705,0.27524057,-0.012625843,0.9612924,0.46483994,-0.8735125,-0.1445677,,0.05736573,1.321198,0.43254694,0.9967352,0.079003386,-0.016653525,0.04143575,-0.6775558,-0.7343032,-0.06929614,0.73121583,-0.67861736,,-0.06903392,0.30056408,-0.054126203,-0.16022493,-0.7965271,0.5829859,0.8487081,0.1904016,0.49339825,-0.5040065,0.57383955,0.6455119,,0.0016516518,0.47220173,-0.32594684,-0.92036843,-0.3663055,0.13690227,0.38977522,-0.83103853,0.39679992,-0.03157893,0.41856325,0.9076385,,1.2736331056171062,0.329397725284298,0.19817940778,2.378932408831929,-0.6244288039280628,-0.5070670649362294,-0.4132604873197264,,-1.203317622797292,0.026519864690086967,0.15788682571,4.5385291367790455,0.01584983397279109,-1.2334498907492062,0.8735640656861252,,0.0238237442897226,0.039426987802551904,0.09203306007999999,-0.11742376536589094,,1.052767e-05,9.775162e-06,-2.1457672e-06,1.0,-1.4346093e-05,-1.5445054e-05,1.4323741e-05,1.0,-1.5199184e-06,1.5452504e-05,1.4007092e-06,1.0,353,1.058,0,0,0.0,False,-0.26327396557936344,1.047680339729108
1.0862562419933965,14:56:35.804985,14:55:20.588709,0,,0.1137212,0.0031718612,0.036003307,0.074165896,0.81719375,-0.5715713,0.21406549,0.54674363,0.8094734,0.9739998,-0.18238908,-0.13438335,,0.04950609,-0.042838883,0.05261165,0.8415115,0.48667127,-0.23454079,0.2752287,-0.012626708,0.9612957,0.46487352,-0.87349397,-0.14457163,,0.05736573,1.321198,0.43254694,0.9967352,0.079003386,-0.016653525,0.04143575,-0.6775558,-0.7343032,-0.06929614,0.73121583,-0.67861736,,-0.06886181,0.30064255,-0.054160133,-0.15210879,-0.8013946,0.57847184,0.84861565,0.19414058,0.49209848,-0.5066699,0.56575274,0.6505455,,0.0016423755,0.47219408,-0.3259563,-0.92035687,-0.3663405,0.13688634,0.38980034,-0.8310289,0.39679548,-0.031605754,0.4185518,0.9076428,,1.274351319774409,0.3291737660309455,0.19818070407000002,2.367818841827249,-0.625385259426421,-0.49395364984912954,-0.41244376698905527,,-1.2033716819274116,0.026434914628470498,0.15788812200000002,4.5385291367790455,0.01584983397279109,-1.233531569489347,0.8735640656861252,,0.0238237442897226,0.039426987802551904,0.09203306007999999,-0.11742376536589094,,1.052767e-05,9.775162e-06,-2.1457672e-06,1.0,-1.4346093e-05,-1.5445054e-05,1.4323741e-05,1.0,-1.5199184e-06,1.5452504e-05,1.4007092e-06,1.0,361,1.084,0,0,0.0,False,-0.2631548101423209,1.0479700209337843
1.1061659639963182,14:56:35.834905,14:55:20.588709,0,,0.11340935,0.0032063723,0.036088005,0.058602687,0.82311517,-0.56484246,0.21234071,0.54258895,0.8127167,0.975437,-0.16756651,-0.14298382,,0.049519755,-0.042854916,0.052609146,0.8415458,0.48660526,-0.23455462,0.27525586,-0.012671471,0.96128744,0.46479535,-0.8735301,-0.14460474,,0.05736573,1.321198,0.43254694,0.9967352,0.079003386,-0.016653525,0.04143575,-0.6775558,-0.7343032,-0.06929614,0.73121583,-0.67861736,,-0.06855779,0.30074623,-0.05420947,-0.1367055,-0.8084687,0.5724421,0.849403,0.20168303,0.48768684,-0.5097314,0.55290353,0.6591446,,0.0016311106,0.47218162,-0.3259693,-0.9203839,-0.36626565,0.1369052,0.38974166,-0.8310707,0.3967655,-0.031543683,0.41853422,0.9076531,,1.275517452438417,0.32874901572286314,0.19818459294000002,2.3472692273657656,-0.6249753499271247,-0.47247967994268875,-0.41195373479065234,,-1.2034411865232795,0.026311350902482905,0.15789071458,4.5385291367790455,0.015986470472556535,-1.2336429873930435,0.8735640656861252,,0.0238237442897226,0.039426987802551904,0.09203306007999999,-0.11742376536589094,,1.052767e-05,9.775162e-06,-2.1457672e-06,1.0,-1.4346093e-05,-1.5445054e-05,1.4323741e-05,1.0,-1.5199184e-06,1.5452504e-05,1.4007092e-06,1.0,402,1.21,0,0,0.0,False,-0.2630356547052788,1.047680339729108
1.1360793189960532,14:56:35.953078,14:55:20.786572,0,,0.11235176,0.0031575412,0.036069795,-0.0023771413,0.8364781,-0.5479951,0.21094638,0.5360848,0.8173828,0.97749484,-0.1136546,-0.1777265,,0.04952786,-0.042863797,0.05260527,0.8416864,0.4862139,-0.23486151,0.27536884,-0.012363732,0.9612591,0.46447375,-0.87375236,-0.14429474,,0.05736573,1.321198,0.43254694,0.9967352,0.079003386,-0.016653525,0.04143575,-0.6775558,-0.7343032,-0.06929614,0.73121583,-0.67861736,,-0.067502,0.30076265,-0.05428848,-0.07608059,-0.8260712,0.5584068,0.85357755,0.23550953,0.46469408,-0.5153805,0.5119977,0.68719816,,0.0016246577,0.4721725,-0.3259752,-0.9204945,-0.36588788,0.1371712,0.38950095,-0.83103967,0.39706683,-0.031287245,0.41892615,0.90748113,,1.2782512998758924,0.3265248686550865,0.19827403695,2.269474258333007,-0.617050432940729,-0.40355244120734235,-0.41375051951812925,,-1.2034952456533992,0.026241846306614885,0.15789460345,4.5385291367790455,0.01639637997185285,-1.2341405985844136,0.873890753818394,,0.0238237442897226,0.039426987802551904,0.09203306007999999,-0.11742376536589094,,1.052767e-05,9.775162e-06,-2.1457672e-06,1.0,-1.4346093e-05,-1.5445054e-05,1.4323741e-05,1.0,-1.5199184e-06,1.5452504e-05,1.4007092e-06,1.0,406,1.222,0,0,0.0,False,-0.2635718541719685,1.0477769001306665
1.2542570140067255,14:56:35.978945,14:55:20.885614,0,,0.11213818,0.0031030625,0.035988316,-0.013072189,0.8355776,-0.5492167,0.21043572,0.5392612,0.81542265,0.97752035,-0.104915515,-0.18288484,,0.049535193,-0.042867433,0.052607298,0.8416708,0.48627427,-0.23479237,0.27535704,-0.012468725,0.96126103,0.464509,-0.87371725,-0.14439371,,0.05736573,1.321198,0.43254694,0.9967352,0.079003386,-0.016653525,0.04143575,-0.6775558,-0.7343032,-0.06929614,0.73121583,-0.67861736,,-0.06728247,0.30067894,-0.05428369,-0.0654204,-0.82587814,0.5600406,0.853884,0.24407871,0.45968217,-0.5163354,0.5082823,0.6892364,,0.0016176166,0.47217116,-0.32597965,-0.9204823,-0.36593953,0.1371155,0.38952765,-0.8310725,0.39697197,-0.031314824,0.4188159,0.907531,,1.2784984273278677,0.32572170443616716,0.19832070339000002,2.255844412006513,-0.6159573409426056,-0.39660262538341967,-0.41244376698905505,,-1.2035415820506445,0.026210955375117986,0.15789460345,4.5385291367790455,0.01639637997185285,-1.2340589198442733,0.8737274097522598,,0.0238237442897226,0.039426987802551904,0.09203306007999999,-0.11742376536589094,,1.052767e-05,9.775162e-06,-2.1457672e-06,1.0,-1.4346093e-05,-1.5445054e-05,1.4323741e-05,1.0,-1.5199184e-06,1.5452504e-05,1.4007092e-06,1.0,418,1.259,0,0,0.0,False,-0.262797343831195,1.0480665813353434
1.2800452560040867,14:56:36.007798,14:55:20.885614,0,,0.112007454,0.0030646324,0.035939798,-0.018043423,0.8364159,-0.54779804,0.20908198,0.5389304,0.8159894,0.9777317,-0.099811494,-0.18460372,,0.04953991,-0.04287107,0.052606642,0.8416642,0.48625788,-0.23485024,0.27535173,-0.012340248,0.96126425,0.46452424,-0.8737283,-0.14427844,,0.05736573,1.321198,0.43254694,0.9967352,0.079003386,-0.016653525,0.04143575,-0.6775558,-0.7343032,-0.06929614,0.73121583,-0.67861736,,-0.0671482,0.3006252,-0.054285366,-0.06047852,-0.8271198,0.55876213,0.85340506,0.24750216,0.45874014,-0.5177279,0.5045943,0.69089967,,0.0016134817,0.472168,-0.3259826,-0.92047703,-0.36593705,0.1371574,0.3895391,-0.8310149,0.39708132,-0.031326935,0.4189324,0.90747684,,1.2786297137867293,0.32515022220347456,0.19835181435000002,2.2491343338150083,-0.6166405234414327,-0.3906547390156605,-0.4134238313858609,,-1.2035647502492672,0.026180064443621087,0.15789589974,4.5385291367790455,0.01639637997185285,-1.2342222773245544,0.8734007216199912,,0.0238237442897226,0.039426987802551904,0.09203306007999999,-0.11742376536589094,,1.052767e-05,9.775162e-06,-2.1457672e-06,1.0,-1.4346093e-05,-1.5445054e-05,1.4323741e-05,1.0,-1.5199184e-06,1.5452504e-05,1.4007092e-06,1.0,426,1.283,0,0,0.0,False,-0.2634526987349264,1.0476320595283284
1.3089776510023512,14:56:36.031062,14:55:20.885614,0,,0.11175768,0.002990827,0.035871163,-0.027660705,0.8385996,-0.54404557,0.20741794,0.53722346,0.81753814,0.9778614,-0.09023115,-0.18880063,,0.04955142,-0.042878967,0.052609026,0.84169096,0.4861927,-0.23488876,0.27537426,-0.012322903,0.96125805,0.46446216,-0.87376475,-0.14425725,,0.05736573,1.321198,0.43254694,0.9967352,0.079003386,-0.016653525,0.04143575,-0.6775558,-0.7343032,-0.06929614,0.73121583,-0.67861736,,-0.06689357,0.3005397,-0.054305326,-0.05089812,-0.83005613,0.55535233,0.8529312,0.2531465,0.4565361,-0.5195361,0.49691418,0.6950961,,0.0016027542,0.47216418,-0.32599103,-0.9204982,-0.36587024,0.13719335,0.38949302,-0.8310262,0.39710277,-0.03127681,0.41896826,0.90746206,,1.2790004049646921,0.32411537599832846,0.19838940676000003,2.235923867375483,-0.6167771599411982,-0.37804647387045814,-0.4127704551213238,,-1.2036419775780094,0.026118282580627292,0.15789589974,4.5385291367790455,0.016533016471618294,-1.2343336952282506,0.8734007216199912,,0.0238237442897226,0.039426987802551904,0.09203306007999999,-0.11742376536589094,,1.052767e-05,9.775162e-06,-2.1457672e-06,1.0,-1.4346093e-05,-1.5445054e-05,1.4323741e-05,1.0,-1.5199184e-06,1.5452504e-05,1.4007092e-06,1.0,434,1.308,0,0,0.0,False,-0.2622015666459845,1.0480665813353434
1.3322151780012064,14:56:36.061982,14:55:20.885614,0,,0.11149061,0.0029406548,0.035849437,-0.035344504,0.8377334,-0.5449343,0.20472506,0.53978056,0.816532,0.97818124,-0.0827018,-0.19058338,,0.049564995,-0.04288618,0.05260974,0.8417641,0.48594806,-0.23513322,0.2754342,-0.0119971335,0.96124494,0.4642942,-0.8739053,-0.1439456,,0.05736573,1.321198,0.43254694,0.9967352,0.079003386,-0.016653525,0.04143575,-0.6775558,-0.7343032,-0.06929614,0.73121583,-0.67861736,,-0.06662548,0.30050546,-0.054341115,-0.043257676,-0.8297993,0.5563829,0.851774,0.26041162,0.45460624,-0.5221205,0.4935777,0.6955367,,0.0015901448,0.47215885,-0.32599804,-0.9205557,-0.36564946,0.13739587,0.38936785,-0.8309416,0.3974025,-0.03114205,0.41932866,0.9073002,,1.2796259463275044,0.32317320258767307,0.19841533256000002,2.225439370201257,-0.6180068884390871,-0.37214298832875653,-0.41195373479065234,,-1.2037346503725002,0.026056500717633494,0.15789849232000003,4.5385291367790455,0.016806289471149174,-1.2348015672560653,0.8738907538183939,,0.0238237442897226,0.039426987802551904,0.09203306007999999,-0.11742376536589094,,1.052767e-05,9.775162e-06,-2.1457672e-06,1.0,-1.4346093e-05,-1.5445054e-05,1.4323741e-05,1.0,-1.5199184e-06,1.5452504e-05,1.4007092e-06,1.0,442,1.333,0,0,0.0,False,-0.26333354329788383,1.047680339729108
1.363100870992639,14:56:36.083252,14:55:20.885614,0,,0.11130661,0.0029227138,0.035859838,-0.041787602,0.83742136,-0.5449578,0.20152172,0.5412888,0.81633043,0.9785924,-0.07570842,-0.19137785,,0.04957389,-0.0428919,0.05261171,0.8417466,0.4859586,-0.2351737,0.2754208,-0.011881143,0.96125025,0.4643337,-0.87390107,-0.14384422,,0.05736573,1.321198,0.43254694,0.9967352,0.079003386,-0.016653525,0.04143575,-0.6775558,-0.7343032,-0.06929614,0.73121583,-0.67861736,,-0.06644286,0.3005117,-0.054371007,-0.03686,-0.8300495,0.5564702,0.85025865,0.2665354,0.45389333,-0.525073,0.48987412,0.69593227,,0.0015817937,0.47215617,-0.3260043,-0.92054206,-0.365674,0.13742219,0.3893977,-0.83088183,0.39749813,-0.031173125,0.41942564,0.9072543,,1.2801202012314548,0.32263261128647736,0.19843218433,2.216213012687938,-0.6197831629360379,-0.3663655823532532,-0.4127704551213237,,-1.2037887095026196,0.02601016432038815,0.15789849232000003,4.5385291367790455,0.016806289471149174,-1.2349649247363463,0.8738907538183939,,0.0238237442897226,0.039426987802551904,0.09203306007999999,-0.11742376536589094,,1.052767e-05,9.775162e-06,-2.1457672e-06,1.0,-1.4346093e-05,-1.5445054e-05,1.4323741e-05,1.0,-1.5199184e-06,1.5452504e-05,1.4007092e-06,1.0,450,1.358,0,0,0.0,False,-0.2636314318904893,1.0477769001306665
1.3844246429944178,14:56:36.114318,14:55:21.017005,0,,0.11103763,0.0029102564,0.035872594,-0.051572427,0.8378353,-0.54348147,0.19976777,0.54186153,0.8163816,0.9784852,-0.066467315,-0.19531769,,0.04958515,-0.042900633,0.052612245,0.84177715,0.4857724,-0.23544943,0.27544576,-0.011401176,0.96124893,0.4642638,-0.874011,-0.14340135,,0.05736573,1.321198,0.43254694,0.9967352,0.079003386,-0.016653525,0.04143575,-0.6775558,-0.7343032,-0.06929614,0.73121583,-0.67861736,,-0.06617572,0.30052844,-0.054403022,-0.027093489,-0.8312003,0.5553125,0.84956145,0.2736036,0.45098388,-0.5267934,0.4839908,0.69874287,,0.00157166,0.47215036,-0.32601246,-0.920566,-0.36553276,0.13763738,0.38934556,-0.8307041,0.39792052,-0.03111705,0.41990063,0.9070365,,1.2809851473133678,0.3219530107935456,0.19845162868000002,2.203002546248413,-0.6190999804372107,-0.3564677931337433,-0.4134238313858608,,-1.2038582140984877,0.02594065972452013,0.15789978861,4.5385291367790455,0.016942925970914614,-1.235566415080886,0.8732373775538569,,0.0238237442897226,0.039426987802551904,0.09203306007999999,-0.11742376536589094,,1.052767e-05,9.775162e-06,-2.1457672e-06,1.0,-1.4346093e-05,-1.5445054e-05,1.4323741e-05,1.0,-1.5199184e-06,1.5452504e-05,1.4007092e-06,1.0,479,1.447,0,0,0.0,False,-0.26249945523859,1.0482114219376817
1.4154748459986877,14:56:36.188115,14:55:21.017005,0,,0.11051378,0.0029521883,0.0359457,-0.07350457,0.8389775,-0.5391787,0.19687706,0.54220897,0.8168529,0.977669,-0.046109527,-0.20503035,,0.04960575,-0.04290734,0.05261475,0.8417347,0.48586196,-0.23541643,0.27541378,-0.011380404,0.9612584,0.46435973,-0.87396157,-0.1433925,,0.05736573,1.321198,0.43254694,0.9967352,0.079003386,-0.016653525,0.04143575,-0.6775558,-0.7343032,-0.06929614,0.73121583,-0.67861736,,-0.06565947,0.30064148,-0.054450255,-0.005159043,-0.83396274,0.5517967,0.84829515,0.28853345,0.44400874,-0.5294985,0.47037712,0.705958,,0.001551831,0.47214565,-0.32602024,-0.9205327,-0.3656297,0.13760264,0.3894183,-0.83066684,0.39792717,-0.03119203,0.41988996,0.90703887,,1.2830085033264147,0.3210648965130098,0.19849051738,2.1740653340475484,-0.6156840679430747,-0.3341778675030012,-0.4126071110551893,,-1.2039817778244752,0.025871155128652106,0.15790367748,4.5385291367790455,0.016942925970914614,-1.2356480938210268,0.8737274097522596,,0.0238237442897226,0.039426987802551904,0.09203306007999999,-0.11742376536589094,,1.052767e-05,9.775162e-06,-2.1457672e-06,1.0,-1.4346093e-05,-1.5445054e-05,1.4323741e-05,1.0,-1.5199184e-06,1.5452504e-05,1.4007092e-06,1.0,487,1.472,0,0,0.0,False,-0.26339312101640555,1.048114861536123
1.4892987700004596,14:56:36.221450,14:55:21.017005,0,,0.110314205,0.0029632002,0.03596486,-0.081481755,0.8396528,-0.5369764,0.19450921,0.54180497,0.81768787,0.9775107,-0.03782028,-0.20746756,,0.049607582,-0.04290792,0.052613854,0.8417322,0.4858306,-0.23548979,0.2754119,-0.01123029,0.9612607,0.46436518,-0.87398094,-0.1432566,,0.05736573,1.321198,0.43254694,0.9967352,0.079003386,-0.016653525,0.04143575,-0.6775558,-0.7343032,-0.06929614,0.73121583,-0.67861736,,-0.0654621,0.30067483,-0.054465916,0.0028111849,-0.8352958,0.5497936,0.8470318,0.29422575,0.4426832,-0.53153485,0.46444818,0.7083492,,0.0015502144,0.4721443,-0.32602036,-0.9205308,-0.3656139,0.13765725,0.38942245,-0.83060306,0.3980562,-0.03119635,0.42002982,0.90697396,,1.283703549285095,0.3206633144035501,0.19851514689000002,2.1631614569863533,-0.6156840679430747,-0.32502984860725825,-0.4126071110551893,,-1.2039895005573495,0.02586343239577788,0.15790497377,4.5385291367790455,0.016942925970914614,-1.2358114513013079,0.8734007216199912,,0.0238237442897226,0.039426987802551904,0.09203306007999999,-0.11742376536589094,,1.052767e-05,9.775162e-06,-2.1457672e-06,1.0,-1.4346093e-05,-1.5445054e-05,1.4323741e-05,1.0,-1.5199184e-06,1.5452504e-05,1.4007092e-06,1.0,495,1.496,0,0,0.0,False,-0.26339312101640555,1.0478734605322257
1.522633599000983,14:56:36.248006,14:55:21.017005,0,,0.11021725,0.0029454976,0.03592597,-0.08755636,0.8391342,-0.536831,0.19645724,0.54286236,0.81652,0.97659546,-0.03397283,-0.21238512,,0.049608372,-0.042908635,0.052612484,0.8417328,0.48583126,-0.23548634,0.2754122,-0.011237979,0.9612605,0.464364,-0.8739804,-0.1432634,,0.05736573,1.321198,0.43254694,0.9967352,0.079003386,-0.016653525,0.04143575,-0.6775558,-0.7343032,-0.06929614,0.73121583,-0.67861736,,-0.065362304,0.30064029,-0.05445733,0.008934603,-0.83508813,0.5500436,0.8480674,0.29777166,0.43830785,-0.5298131,0.46255794,0.71087146,,0.0015497024,0.47214264,-0.32602027,-0.9205312,-0.36561376,0.13765477,0.38942146,-0.8306066,0.39804977,-0.031195516,0.42002296,0.9069772,,1.2839352312713217,0.3204084642187007,0.19852810979000002,2.156241688851364,-0.6121315189491732,-0.3211473786716986,-0.4134238313858608,,-1.2039895005573495,0.02585570966290366,0.15790627006000002,4.5385291367790455,0.016942925970914614,-1.2358114513013079,0.8734007216199912,,0.0238237442897226,0.039426987802551904,0.09203306007999999,-0.11742376536589094,,1.052767e-05,9.775162e-06,-2.1457672e-06,1.0,-1.4346093e-05,-1.5445054e-05,1.4323741e-05,1.0,-1.5199184e-06,1.5452504e-05,1.4007092e-06,1.0,503,1.521,0,0,0.0,False,-0.2639888982016152,1.0483079823392407
1.5491703129955567,14:56:36.273652,14:55:21.017005,0,,0.11010447,0.0029091984,0.03587149,-0.09264743,0.8406067,-0.5336635,0.1982126,0.54081213,0.81745577,0.97577065,-0.030043662,-0.21672377,,0.049611747,-0.042909335,0.052613795,0.84172446,0.48587042,-0.23543538,0.27540603,-0.011322081,0.9612613,0.4643828,-0.8739575,-0.14334181,,0.05736573,1.321198,0.43254694,0.9967352,0.079003386,-0.016653525,0.04143575,-0.6775558,-0.7343032,-0.06929614,0.73121583,-0.67861736,,-0.06524545,0.3005826,-0.054452416,0.014070893,-0.8368641,0.5472298,0.8489777,0.29912573,0.4356153,-0.52824134,0.45845643,0.7146879,,0.0015462852,0.47214282,-0.32602167,-0.9205247,-0.36564538,0.1376145,0.38943577,-0.8306358,0.39797488,-0.031210149,0.4199377,0.9070161,,1.2841360223260514,0.31996826844486986,0.19854496156,2.1503703704337975,-0.6091255159543335,-0.31412383869671473,-0.41375051951812936,,-1.2040126687559722,0.025847986930029435,0.15790627006000002,4.5385291367790455,0.016942925970914614,-1.2357297725611671,0.8735640656861254,,0.0238237442897226,0.039426987802551904,0.09203306007999999,-0.11742376536589094,,1.052767e-05,9.775162e-06,-2.1457672e-06,1.0,-1.4346093e-05,-1.5445054e-05,1.4323741e-05,1.0,-1.5199184e-06,1.5452504e-05,1.4007092e-06,1.0,511,1.546,0,0,0.0,False,-0.26297607698675796,1.0476320595283284
1.5748045710060978,14:56:36.300351,14:55:21.017005,0,,0.11001369,0.0028731525,0.035825536,-0.09831617,0.8389748,-0.535215,0.19897768,0.5435331,0.81546277,0.97506,-0.026322693,-0.22037548,,0.04955312,-0.042938825,0.05261123,0.8417309,0.48592928,-0.23529065,0.27531743,-0.011445552,0.9612852,0.46442357,-0.8739232,-0.14341909,,0.05736573,1.321198,0.43254694,0.9967352,0.079003386,-0.016653525,0.04143575,-0.6775558,-0.7343032,-0.06929614,0.73121583,-0.67861736,,-0.065151215,0.30052996,-0.05445202,0.01977634,-0.83554083,0.5490723,0.8493257,0.30378786,0.4316929,-0.52749854,0.45780393,0.71565413,,0.0016078104,0.47213584,-0.32604358,-0.9205259,-0.36569327,0.13747904,0.3894251,-0.8306782,0.39789665,-0.031307284,0.41981196,0.907071,,1.2842364178534165,0.319628468198404,0.19855662817000003,2.1436602922422923,-0.6069393319580865,-0.3123126605896726,-0.41309714325359215,,-1.2040281142217206,0.025817095998532536,0.15790627006000002,4.5385291367790455,0.016942925970914614,-1.2356480938210268,0.8737274097522596,,0.0238237442897226,0.039426987802551904,0.09203306007999999,-0.11742376536589094,,1.052767e-05,9.775162e-06,-2.1457672e-06,1.0,-1.4346093e-05,-1.5445054e-05,1.4323741e-05,1.0,-1.5199184e-06,1.5452504e-05,1.4007092e-06,1.0,519,1.571,0,0,0.0,False,-0.2630356547052788,1.0478251803314462
1.6015296289988328,14:56:36.323450,14:55:21.017005,0,,0.10987673,0.002834648,0.03576146,-0.10777992,0.8368647,-0.53669447,0.19758451,0.5471014,0.8134128,0.9743428,-0.018373013,-0.22431815,,0.049609594,-0.04293826,0.05260408,0.84164566,0.48610204,-0.23523903,0.2753173,-0.011495352,0.9612846,0.46457824,-0.8738265,-0.14350742,,0.057312097,1.3212019,0.43253946,0.9967328,0.079043806,-0.016609723,0.041495204,-0.6775511,-0.7343042,-0.06929614,0.73121583,-0.67861736,,-0.0649665,0.30047533,-0.054448128,0.029259231,-0.8341124,0.5508179,0.84841806,0.31209013,0.42753547,-0.5285175,0.4548145,0.71680754,,0.0016009165,0.4721343,-0.3260425,-0.920476,-0.3658546,0.13738386,0.3895338,-0.8306667,0.39781433,-0.031422004,0.41969422,0.9071215,,1.2843908725109008,0.319111045095831,0.19858255397000002,2.1317079654636744,-0.6058462399599629,-0.30740481326926417,-0.41130035852611513,,-1.2040590051532176,0.02580937326565831,0.15791015893000002,4.5385291367790455,0.016806289471149174,-1.2355366759173303,0.8737274097522596,,0.0238237442897226,0.039426987802551904,0.09203306007999999,-0.11742376536589094,,-4.223734e-05,-2.682209e-06,9.536743e-07,1.0,2.6144087e-05,2.817437e-05,-2.6151538e-05,1.0,2.6226044e-06,-2.816692e-05,-2.7418137e-06,1.0,548,1.66,0,0,0.0,False,-0.2626186106756321,1.0480665813353434
1.6246166979981354,14:56:36.414875,14:55:21.255329,0,,0.10950047,0.0027755946,0.035598323,-0.1329613,0.8372225,-0.53045243,0.1978288,0.5468528,0.81352055,0.9711772,0.003227979,-0.2383371,,0.049669802,-0.04293373,0.052610815,0.8417493,0.4858165,-0.23545767,0.27541092,-0.011302382,0.9612601,0.46433476,-0.87398773,-0.14331311,,0.057312097,1.3212019,0.43253946,0.9967328,0.079043806,-0.016609723,0.041495204,-0.6775511,-0.7343042,-0.06929614,0.73121583,-0.67861736,,-0.06457828,0.300339,-0.05439938,0.054612156,-0.8361906,0.5457131,0.84779435,0.3275592,0.4170727,-0.52750564,0.43987527,0.7268064,,0.0015402251,0.47213212,-0.32604423,-0.92055804,-0.3655754,0.13757725,0.38935605,-0.83065903,0.3980043,-0.03122079,0.4199526,0.9070089,,1.285055027538084,0.3180761988906849,0.19868107201000001,2.1013029236584186,-0.5981945959730983,-0.2839131544650991,-0.41260711105518943,,-1.2044760327284256,0.025763036868412963,0.15792960328000002,4.5385291367790455,0.017489471969976376,-1.2359304079555313,0.873400721619991,,0.0238237442897226,0.039426987802551904,0.09203306007999999,-0.11742376536589094,,-4.223734e-05,-2.682209e-06,9.536743e-07,1.0,2.6144087e-05,2.817437e-05,-2.6151538e-05,1.0,2.6226044e-06,-2.816692e-05,-2.7418137e-06,1.0,556,1.685,0,0,0.0,False,-0.2631548101423209,1.047680339729108
1.7160314829961862,14:56:36.440810,14:55:21.255329,0,,0.10943185,0.002771318,0.035592332,-0.13441853,0.8374487,-0.52972746,0.19744676,0.5464947,0.813854,0.9710543,0.004804045,-0.23881063,,0.04969214,-0.042930644,0.05262065,0.8416871,0.4859511,-0.2354028,0.27536556,-0.01128754,0.96127325,0.46447465,-0.87391317,-0.14331487,,0.057312097,1.3212019,0.43253946,0.9967328,0.079043806,-0.016609723,0.041495204,-0.6775511,-0.7343042,-0.06929614,0.73121583,-0.67861736,,-0.0645094,0.3003358,-0.05440201,0.056075495,-0.8365409,0.5450274,0.8475302,0.3284426,0.41691485,-0.52777654,0.43854848,0.72741127,,0.0015166167,0.4721382,-0.32604742,-0.9205092,-0.3657192,0.13752188,0.38946283,-0.83061105,0.39800003,-0.03132907,0.41992235,0.90701914,,1.2852712640585624,0.3178522396373324,0.19869273862000003,2.0992060242235735,-0.5980579594733328,-0.28173756764485974,-0.41391386358426363,,-1.2046382101187845,0.025763036868412963,0.15793089957,4.5385291367790455,0.017489471969976376,-1.2359304079555313,0.8730740334877225,,0.0238237442897226,0.039426987802551904,0.09203306007999999,-0.11742376536589094,,-4.223734e-05,-2.682209e-06,9.536743e-07,1.0,2.6144087e-05,2.817437e-05,-2.6151538e-05,1.0,2.6226044e-06,-2.816692e-05,-2.7418137e-06,1.0,568,1.722,0,0,0.0,False,-0.26386974276457353,1.0480183011345638
1.741958615006297,14:56:36.471571,14:55:21.255329,0,,0.109350204,0.0027573109,0.03557889,-0.1343998,0.83736765,-0.5298605,0.19850746,0.5466243,0.8135088,0.9708407,0.0041541457,-0.23969,,0.049709275,-0.042928215,0.052627802,0.84163946,0.48607278,-0.23532125,0.27533096,-0.011354744,0.9612824,0.46458122,-0.87384456,-0.14338768,,0.057312097,1.3212019,0.43253946,0.9967328,0.079043806,-0.016609723,0.041495204,-0.6775511,-0.7343042,-0.06929614,0.73121583,-0.67861736,,-0.06442691,0.30032134,-0.054407343,0.05607117,-0.83640856,0.5452309,0.848102,0.3280652,0.41604844,-0.5268578,0.43908307,0.7277547,,0.0014985324,0.4721426,-0.32604963,-0.92047197,-0.36584,0.1374498,0.38954416,-0.83060694,0.39792895,-0.031411566,0.4198252,0.9070613,,1.2855570051749088,0.3175047166579923,0.19870051636000002,2.0992060242235735,-0.5969648674752094,-0.2817304447328849,-0.4140772076503979,,-1.204761773844772,0.025763036868412963,0.15793219586,4.5385291367790455,0.017489471969976376,-1.2358487292153908,0.8735640656861253,,0.0238237442897226,0.039426987802551904,0.09203306007999999,-0.11742376536589094,,-4.223734e-05,-2.682209e-06,9.536743e-07,1.0,2.6144087e-05,2.817437e-05,-2.6151538e-05,1.0,2.6226044e-06,-2.816692e-05,-2.7418137e-06,1.0,576,1.746,0,0,0.0,False,-0.26381016504605226,1.047390658524431
1.7727555400051642,14:56:36.495807,14:55:21.404067,0,,0.10927475,0.0027431399,0.035569683,-0.1351326,0.8380899,-0.5285305,0.1982545,0.5455067,0.81432027,0.9707906,0.005257696,-0.2398709,,0.04971654,-0.04292668,0.052628696,0.8416217,0.48607278,-0.23538499,0.275318,-0.011193454,0.961288,0.4646212,-0.87384665,-0.14324543,,0.057312097,1.3212019,0.43253946,0.9967328,0.079043806,-0.016609723,0.041495204,-0.6775511,-0.7343042,-0.06929614,0.73121583,-0.67861736,,-0.064350925,0.30030945,-0.054415338,0.05680627,-0.8372137,0.54391754,0.84793586,0.32805532,0.41639462,-0.5270463,0.43755335,0.7285391,,0.0014910842,0.4721429,-0.326049,-0.920458,-0.3658586,0.13749374,0.38957468,-0.8305282,0.3980634,-0.0314425,0.41996473,0.9069956,,1.285773241695387,0.3171958073430233,0.19870959039000002,2.0979478845626662,-0.5969648674752094,-0.2791984037885275,-0.412933799187458,,-1.2048081102420174,0.025763036868412963,0.15793478844000003,4.5385291367790455,0.017489471969976376,-1.2360120866956719,0.873400721619991,,0.0238237442897226,0.039426987802551904,0.09203306007999999,-0.11742376536589094,,-4.223734e-05,-2.682209e-06,9.536743e-07,1.0,2.6144087e-05,2.817437e-05,-2.6151538e-05,1.0,2.6226044e-06,-2.816692e-05,-2.7418137e-06,1.0,584,1.771,0,0,0.0,False,-0.2622015666459845,1.0479700209337843
1.79697343200678,14:56:36.525458,14:55:21.404067,0,,0.109134026,0.0027132928,0.03553085,-0.1487648,0.8341748,-0.5310569,0.19631833,0.55125684,0.8109099,0.9691895,0.01637867,-0.24577147,,0.04971783,-0.042927172,0.052626133,0.8416714,0.48596433,-0.23543115,0.27535784,-0.011207402,0.9612764,0.46450743,-0.8739068,-0.14324713,,0.057312097,1.3212019,0.43253946,0.9967328,0.079043806,-0.016609723,0.041495204,-0.6775511,-0.7343042,-0.06929614,0.73121583,-0.67861736,,-0.06420748,0.30026922,-0.05441793,0.07052758,-0.8342122,0.5469149,0.84626067,0.34029737,0.40992758,-0.5280803,0.43392137,0.7299613,,0.0014902009,0.47214025,-0.32604817,-0.9204971,-0.36574244,0.1375408,0.3894895,-0.8305679,0.398064,-0.03135191,0.41998744,0.9069882,,1.2859894782158654,0.3169486798910481,0.19872773845000002,2.081172689083904,-0.5945054104794314,-0.2736078032219908,-0.41309714325359226,,-1.2048158329748915,0.02575531413553874,0.15793738102000002,4.5385291367790455,0.017626108469741816,-1.2360418258592278,0.873400721619991,,0.0238237442897226,0.039426987802551904,0.09203306007999999,-0.11742376536589094,,-4.223734e-05,-2.682209e-06,9.536743e-07,1.0,2.6144087e-05,2.817437e-05,-2.6151538e-05,1.0,2.6226044e-06,-2.816692e-05,-2.7418137e-06,1.0,596,1.809,0,0,0.0,False,-0.262797343831195,1.0482597021384612
1.826627133996226,14:56:36.554894,14:55:21.404067,0,,0.10902758,0.002693221,0.035502955,-0.15957758,0.83160746,-0.5319437,0.1943213,0.5547676,0.8089945,0.96787107,0.025729388,-0.25012758,,0.049718075,-0.042927545,0.052623093,0.84175503,0.4858805,-0.23530513,0.27516916,-0.011152625,0.9613311,0.46446776,-0.8739541,-0.1430873,,0.057312097,1.3212019,0.43253946,0.9967328,0.079043806,-0.016609723,0.041495204,-0.6775511,-0.7343042,-0.06929614,0.73121583,-0.67861736,,-0.06409909,0.3002416,-0.054419074,0.08141605,-0.8324073,0.548151,0.8445803,0.34963897,0.405508,-0.52920276,0.4299427,0.731501,,0.0014903907,0.47213745,-0.32604697,-0.9205523,-0.3656603,0.13738988,0.3893474,-0.8305665,0.39820576,-0.031496596,0.42006162,0.90694886,,1.286151655606224,0.3167865025006894,0.19874329393,2.0677525327008945,-0.592865772482246,-0.26783876767411896,-0.41260711105518943,,-1.2048081102420174,0.025747591402664517,0.1579399736,4.53873882672253,0.017626108469741816,-1.2361235045993682,0.8732373775538569,,0.0238237442897226,0.039426987802551904,0.09203306007999999,-0.11742376536589094,,-4.223734e-05,-2.682209e-06,9.536743e-07,1.0,2.6144087e-05,2.817437e-05,-2.6151538e-05,1.0,2.6226044e-06,-2.816692e-05,-2.7418137e-06,1.0,625,1.898,0,0,0.0,False,-0.26351227645344677,1.0479700209337843
1.8560777100065025,14:56:36.642404,14:55:21.404067,0,,0.10851939,0.0026658773,0.03530164,-0.18651652,0.831349,-0.5235174,0.19961947,0.55382144,0.8083525,0.9619583,0.046266854,-0.26925033,,0.049719363,-0.04292528,0.052619994,0.8416743,0.48593867,-0.23547348,0.27536002,-0.011129618,0.96127665,0.46450078,-0.8739221,-0.14317569,,0.057312097,1.3212019,0.43253946,0.9967328,0.079043806,-0.016609723,0.041495204,-0.6775511,-0.7343042,-0.06929614,0.73121583,-0.67861736,,-0.06357641,0.3001072,-0.054328106,0.1087272,-0.83378464,0.5412777,0.8455376,0.3638951,0.39070004,-0.52272797,0.4151909,0.74456155,,0.0014892548,0.47213575,-0.3260435,-0.92049944,-0.36572435,0.13757332,0.3894844,-0.8305377,0.39813203,-0.031346753,0.42006296,0.9069534,,1.2876344203180752,0.3154273015148259,0.19887940438,2.037137800952154,-0.5778357575080477,-0.24366601897803453,-0.41424055171653207,,-1.2048081102420174,0.02575531413553874,0.15794386247000003,4.5385291367790455,0.017626108469741816,-1.2361235045993682,0.8732373775538569,,0.0238237442897226,0.039426987802551904,0.09203306007999999,-0.11742376536589094,,-4.223734e-05,-2.682209e-06,9.536743e-07,1.0,2.6144087e-05,2.817437e-05,-2.6151538e-05,1.0,2.6226044e-06,-2.816692e-05,-2.7418137e-06,1.0,629,1.91,0,0,0.0,False,-0.262797343831195,1.0479700209337843
1.9434986450069118,14:56:36.664826,14:55:21.404067,0,,0.1083843,0.0026509464,0.03527148,-0.19027561,0.83001477,-0.52428114,0.19950938,0.5555861,0.8071679,0.9612447,0.048985332,-0.27131036,,0.04972118,-0.04292586,0.05261916,0.84167206,0.48594576,-0.2354674,0.2753581,-0.011136532,0.9612771,0.46450624,-0.87391806,-0.14318255,,0.057312097,1.3212019,0.43253946,0.9967328,0.079043806,-0.016609723,0.041495204,-0.6775511,-0.7343042,-0.06929614,0.73121583,-0.67861736,,-0.0634393,0.30008316,-0.054325487,0.112531476,-0.8326758,0.5422063,0.8451692,0.36715654,0.38843933,-0.52251863,0.41454437,0.7450686,,0.0014876369,0.4721344,-0.3260436,-0.9204976,-0.36573103,0.13756819,0.38948852,-0.8305389,0.39812538,-0.03135108,0.42005467,0.9069571,,1.2880282796946607,0.3149639375423724,0.19890662647000001,2.0323149322520098,-0.5764693925103933,-0.2420031208502197,-0.41326048731972653,,-1.2048158329748915,0.025747591402664517,0.15794515876,4.5385291367790455,0.017626108469741816,-1.2361235045993682,0.8732373775538569,,0.0238237442897226,0.039426987802551904,0.09203306007999999,-0.11742376536589094,,-4.223734e-05,-2.682209e-06,9.536743e-07,1.0,2.6144087e-05,2.817437e-05,-2.6151538e-05,1.0,2.6226044e-06,-2.816692e-05,-2.7418137e-06,1.0,637,1.935,0,0,0.0,False,-0.2620824112089424,1.0481631417369022
1.9659773750026943,14:56:36.693433,14:55:21.594115,0,,0.108208954,0.0026182234,0.0351889,-0.1938213,0.8296043,-0.52363133,0.20370355,0.55615294,0.8057287,0.9596553,0.049501747,-0.27678776,,0.049722224,-0.04292574,0.052619696,0.841669,0.48595214,-0.23546481,0.275356,-0.011135787,0.9612777,0.4645129,-0.8739145,-0.1431826,,0.057312097,1.3212019,0.43253946,0.9967328,0.079043806,-0.016609723,0.041495204,-0.6775511,-0.7343042,-0.06929614,0.73121583,-0.67861736,,-0.06325785,0.3000113,-0.05430205,0.11618201,-0.83230937,0.5419989,0.8471064,0.36794442,0.3834418,-0.5185677,0.41458175,0.74780315,,0.0014865323,0.47213474,-0.32604378,-0.9204953,-0.3657379,0.13756555,0.3894936,-0.8305366,0.39812517,-0.031356234,0.42005324,0.90695757,,1.2885534255301079,0.3142225551864469,0.19894681146,2.0291695830997423,-0.5710039325197757,-0.24017057400725322,-0.4127704551213237,,-1.2048235557077658,0.025747591402664517,0.15794515876,4.5385291367790455,0.017626108469741816,-1.2361235045993682,0.8732373775538569,,0.0238237442897226,0.039426987802551904,0.09203306007999999,-0.11742376536589094,,-4.223734e-05,-2.682209e-06,9.536743e-07,1.0,2.6144087e-05,2.817437e-05,-2.6151538e-05,1.0,2.6226044e-06,-2.816692e-05,-2.7418137e-06,1.0,649,1.972,0,0,0.0,False,-0.26285692154971585,1.0477769001306665
1.9946024359960575,14:56:36.721416,14:55:21.594115,0,,0.108060665,0.0026061237,0.035090104,-0.19454426,0.83009857,-0.52257895,0.20748898,0.55552804,0.80519366,0.95869756,0.048216403,-0.2803112,,0.049722984,-0.042924505,0.05262041,0.8416655,0.48595786,-0.23546562,0.27535352,-0.011127472,0.9612786,0.46452075,-0.87391144,-0.14317596,,0.057312097,1.3212019,0.43253946,0.9967328,0.079043806,-0.016609723,0.041495204,-0.6775511,-0.7343042,-0.06929614,0.73121583,-0.67861736,,-0.063102126,0.29994023,-0.054251105,0.11696947,-0.832698,0.5412321,0.84905255,0.36655423,0.38045734,-0.515197,0.41503263,0.74988,,0.0014855304,0.4721359,-0.32604316,-0.9204925,-0.3657449,0.1375654,0.38949966,-0.8305308,0.3981314,-0.03136222,0.42005864,0.9069549,,1.2889550076395675,0.3135120637620182,0.19901551483000002,2.0291695830997423,-0.5670414740265779,-0.2391543987271402,-0.4130971432535922,,-1.20483127844064,0.02575531413553874,0.15794515876,4.5385291367790455,0.017626108469741816,-1.2361235045993682,0.8732373775538569,,0.0238237442897226,0.039426987802551904,0.09203306007999999,-0.11742376536589094,,-4.223734e-05,-2.682209e-06,9.536743e-07,1.0,2.6144087e-05,2.817437e-05,-2.6151538e-05,1.0,2.6226044e-06,-2.816692e-05,-2.7418137e-06,1.0,657,1.996,0,0,0.0,False,-0.2636314318904893,1.04748721892599
2.0225975469948025,14:56:36.746074,14:55:21.594115,0,,0.1079734,0.002598703,0.035005137,-0.19627428,0.82849085,-0.52448004,0.20904234,0.5579423,0.80312,0.9580072,0.047993243,-0.2826994,,0.04972247,-0.042924237,0.052618742,0.8416684,0.48593226,-0.23550794,0.2753557,-0.011049658,0.96127886,0.4645141,-0.87392664,-0.1431045,,0.057312097,1.3212019,0.43253946,0.9967328,0.079043806,-0.016609723,0.041495204,-0.6775511,-0.7343042,-0.06929614,0.73121583,-0.67861736,,-0.06300834,0.29987875,-0.054202992,0.118745096,-0.8310836,0.54332274,0.8497212,0.36814493,0.37741652,-0.51368624,0.4168565,0.74990475,,0.0014862249,0.4721347,-0.32604206,-0.9204948,-0.3657268,0.13759792,0.38949457,-0.83050054,0.39819944,-0.031357065,0.42013416,0.9069201,,1.2890785713655553,0.3130718679881874,0.19907644046000003,2.027492063551866,-0.5649919265300962,-0.240743988542446,-0.4135871754519951,,-1.2048235557077658,0.02575531413553874,0.15794645505000002,4.5385291367790455,0.017626108469741816,-1.236205183339509,0.8737274097522596,,0.0238237442897226,0.039426987802551904,0.09203306007999999,-0.11742376536589094,,-4.223734e-05,-2.682209e-06,9.536743e-07,1.0,2.6144087e-05,2.817437e-05,-2.6151538e-05,1.0,2.6226044e-06,-2.816692e-05,-2.7418137e-06,1.0,665,2.021,0,0,0.0,False,-0.26255903295711036,1.04748721892599
2.047256264995667,14:56:36.772275,14:55:21.594115,0,,0.107893735,0.002574101,0.03493114,-0.19753861,0.8282978,-0.5243103,0.21026292,0.5582019,0.80262077,0.9574801,0.0483056,-0.2844268,,0.049721986,-0.04292686,0.05261767,0.84156144,0.4859356,-0.23588301,0.27578017,-0.011041135,0.9611573,0.46445614,-0.87392485,-0.14330336,,0.057312097,1.3212019,0.43253946,0.9967328,0.079043806,-0.016609723,0.041495204,-0.6775511,-0.7343042,-0.06929614,0.73121583,-0.67861736,,-0.06292297,0.299813,-0.054174494,0.12004436,-0.8309167,0.5432925,0.850252,0.36856106,0.37581152,-0.5125045,0.4168215,0.75073224,,0.0014871468,0.47213253,-0.32604373,-0.9204318,-0.36573136,0.13800696,0.38967535,-0.83049536,0.39803332,-0.030959135,0.42014042,0.90693086,,1.2891480759614231,0.3126085040157339,0.19911921803000002,2.026233923890959,-0.5634889250326764,-0.23992761697959253,-0.4127704551213236,,-1.2048235557077658,0.025739868669790292,0.15794645505000002,4.538109756892076,0.01776274496950726,-1.2362349225030647,0.8735640656861252,,0.0238237442897226,0.039426987802551904,0.09203306007999999,-0.11742376536589094,,-4.223734e-05,-2.682209e-06,9.536743e-07,1.0,2.6144087e-05,2.817437e-05,-2.6151538e-05,1.0,2.6226044e-06,-2.816692e-05,-2.7418137e-06,1.0,678,2.062,1,1,0.025,False,-0.26154621174225356,1.0476320595283284
2.073457521997625,14:56:36.807341,14:55:21.594115,0,,0.10782988,0.002547741,0.034747824,-0.20297396,0.82728034,-0.5238404,0.21855596,0.5597561,0.7993161,0.9544815,0.047751904,-0.2944231,,0.049723573,-0.042928915,0.05261767,0.84155965,0.48594344,-0.23587352,0.27577856,-0.011055768,0.9611575,0.4644604,-0.8739204,-0.14331701,,0.057312097,1.3212019,0.43253946,0.9967328,0.079043806,-0.016609723,0.041495204,-0.6775511,-0.7343042,-0.06929614,0.73121583,-0.67861736,,-0.06284464,0.2996658,-0.054071628,0.12568055,-0.82986236,0.5436294,0.85409284,0.3692868,0.36626858,-0.50470763,0.4182771,0.7551916,,0.0014858365,0.47213122,-0.32604554,-0.9204303,-0.36573792,0.13799933,0.3896785,-0.8305002,0.39802024,-0.030962624,0.42012528,0.9069377,,1.2891171850299263,0.3121605855090289,0.19919829172000003,2.023088574738691,-0.5536510970495647,-0.23986351077181925,-0.41195373479065234,,-1.20483127844064,0.025724423204041842,0.15794645505000002,4.538109756892076,0.01776274496950726,-1.2362349225030647,0.8732373775538569,,0.0238237442897226,0.039426987802551904,0.09203306007999999,-0.11742376536589094,,-4.223734e-05,-2.682209e-06,9.536743e-07,1.0,2.6144087e-05,2.817437e-05,-2.6151538e-05,1.0,2.6226044e-06,-2.816692e-05,-2.7418137e-06,1.0,686,2.086,1,1,0.049,False,-0.2630356547052788,1.04748721892599
2.10849460499594,14:56:36.839060,14:55:21.594115,0,,0.10777963,0.002554521,0.034587428,-0.20701993,0.8264579,-0.52355516,0.22474378,0.5610105,0.79671663,0.9521729,0.047270447,-0.30188167,,0.049724348,-0.04292966,0.05261624,0.84156024,0.48596337,-0.2358304,0.27577886,-0.011141986,0.9611565,0.4644592,-0.87390816,-0.14339522,,0.057312097,1.3212019,0.43253946,0.9967328,0.079043806,-0.016609723,0.041495204,-0.6775511,-0.7343042,-0.06929614,0.73121583,-0.67861736,,-0.06278178,0.29955718,-0.053959634,0.12988208,-0.82900727,0.54394627,0.85690635,0.36984754,0.35906035,-0.49884084,0.4194755,0.75841814,,0.0014853234,0.47212955,-0.32604548,-0.9204308,-0.36574903,0.13796696,0.38967755,-0.83053625,0.39794597,-0.030961791,0.42004433,0.90697527,,1.2891017395641777,0.3118516761940599,0.19929292089000003,2.0207819853603612,-0.546272726062231,-0.23999920828130547,-0.4142405517165322,,-1.20483127844064,0.025716700471167617,0.15794775134000003,4.538109756892076,0.01776274496950726,-1.2361532437629241,0.873400721619991,,0.0238237442897226,0.039426987802551904,0.09203306007999999,-0.11742376536589094,,-4.223734e-05,-2.682209e-06,9.536743e-07,1.0,2.6144087e-05,2.817437e-05,-2.6151538e-05,1.0,2.6226044e-06,-2.816692e-05,-2.7418137e-06,1.0,699,2.127,1,1,0.09,False,-0.2629164992682367,1.0475837793275489
2.140236320992699,14:56:36.875136,14:55:21.759023,0,,0.107711226,0.0025615394,0.03448625,-0.20923407,0.82566804,-0.52392113,0.22625828,0.5621186,0.79550606,0.9513298,0.047905475,-0.3044287,,0.049725443,-0.04293641,0.05261284,0.84166485,0.48570412,-0.23599096,0.2758618,-0.011044264,0.9611338,0.4642203,-0.8740535,-0.14328295,,0.057312097,1.3212019,0.43253946,0.9967328,0.079043806,-0.016609723,0.041495204,-0.6775511,-0.7343042,-0.06929614,0.73121583,-0.67861736,,-0.06270555,0.29949272,-0.05388893,0.13215257,-0.82827336,0.54451716,0.8574665,0.37111542,0.35640493,-0.4972794,0.4198054,0.7592606,,0.0014854805,0.4721231,-0.3260496,-0.92051303,-0.36548656,0.13811342,0.38949817,-0.830567,0.39805725,-0.030772135,0.42021182,0.9069041,,1.289140353228549,0.3115041532147198,0.19937199458000002,2.018685085925516,-0.5440865420659838,-0.2397399262369342,-0.41211707885678656,,-1.2048390011735142,0.02567036407392227,0.15794904763,4.538109756892076,0.01803601796903814,-1.236376079570317,0.873400721619991,,0.0238237442897226,0.039426987802551904,0.09203306007999999,-0.11742376536589094,,-4.223734e-05,-2.682209e-06,9.536743e-07,1.0,2.6144087e-05,2.817437e-05,-2.6151538e-05,1.0,2.6226044e-06,-2.816692e-05,-2.7418137e-06,1.0,712,2.168,1,1,0.131,False,-0.26309523242380006,1.0476320595283284
2.176305593995494,14:56:36.916444,14:55:21.759023,0,,0.10761802,0.0025759935,0.03433232,-0.2117201,0.8233379,-0.5265826,0.22818193,0.56554884,0.7925197,0.9503198,0.047635734,-0.307609,,0.049730502,-0.042949807,0.052605927,0.8417213,0.48556533,-0.23607522,0.27590495,-0.010993302,0.9611219,0.46409222,-0.8741312,-0.14322332,,0.057312097,1.3212019,0.43253946,0.9967328,0.079043806,-0.016609723,0.041495204,-0.6775511,-0.7343042,-0.06929614,0.73121583,-0.67861736,,-0.062600404,0.2993966,-0.05377804,0.13470635,-0.8259378,0.5474313,0.85820264,0.37341264,0.35220906,-0.49532053,0.42236215,0.759123,,0.0014829531,0.47210965,-0.3260577,-0.9205573,-0.36534593,0.1381902,0.38940135,-0.8305841,0.3981163,-0.030671583,0.42030033,0.9068665,,1.2891480759614231,0.31099445284502103,0.19949643842000003,2.016378496547186,-0.5414904485704405,-0.24218358136772847,-0.41244376698905516,,-1.2048467239063885,0.02556996854655735,0.1579529365,4.538109756892076,0.01817265446880358,-1.236569176214154,0.8735640656861252,,0.0238237442897226,0.039426987802551904,0.09203306007999999,-0.11742376536589094,,-4.223734e-05,-2.682209e-06,9.536743e-07,1.0,2.6144087e-05,2.817437e-05,-2.6151538e-05,1.0,2.6226044e-06,-2.816692e-05,-2.7418137e-06,1.0,721,2.197,1,1,0.16,False,-0.2621419889274632,1.047294098122872
2.21759695399669,14:56:36.948114,14:55:21.759023,0,,0.10755625,0.0025644004,0.034188017,-0.21468481,0.8213086,-0.5285475,0.2317754,0.5685487,0.78932405,0.9487838,0.046951532,-0.312418,,0.049733445,-0.042959344,0.05260241,0.84172636,0.4855137,-0.23616332,0.27590752,-0.010826856,0.9611231,0.46408156,-0.8741621,-0.14307025,,0.057312097,1.3212019,0.43253946,0.9967328,0.079043806,-0.016609723,0.041495204,-0.6775511,-0.7343042,-0.06929614,0.73121583,-0.67861736,,-0.0625273,0.2992877,-0.053691015,0.137775,-0.823868,0.5497814,0.85973173,0.37509614,0.3466471,-0.49181235,0.4249052,0.7599843,,0.0014816178,0.47210136,-0.3260642,-0.92056125,-0.36531064,0.13825727,0.38939267,-0.8305184,0.3982619,-0.030664109,0.42046085,0.90679234,,1.289070848632681,0.3105619798040644,0.19958328985,2.014281597112341,-0.5371180805779463,-0.24444209444376502,-0.41211707885678656,,-1.2048467239063885,0.02550046395068933,0.15795423279,4.538109756892076,0.01817265446880358,-1.2368142124345756,0.8734007216199912,,0.0238237442897226,0.039426987802551904,0.09203306007999999,-0.11742376536589094,,-4.223734e-05,-2.682209e-06,9.536743e-07,1.0,2.6144087e-05,2.817437e-05,-2.6151538e-05,1.0,2.6226044e-06,-2.816692e-05,-2.7418137e-06,1.0,734,2.238,1,1,0.201,False,-0.26339312101640555,1.0475354991267694
2.2492937659990275,14:56:36.985965,14:55:21.759023,0,,0.10753043,0.0025526732,0.034073874,-0.21678232,0.8208613,-0.5283864,0.2369993,0.5693181,0.7872154,0.9470147,0.045427173,-0.3179617,,0.049740367,-0.04297444,0.052600145,0.84172535,0.48548478,-0.23622638,0.27590498,-0.01069659,0.9611254,0.46408486,-0.87417966,-0.1429514,,0.057312097,1.3212019,0.43253946,0.9967328,0.079043806,-0.016609723,0.041495204,-0.6775511,-0.7343042,-0.06929614,0.73121583,-0.67861736,,-0.062492426,0.29919845,-0.05362282,0.13999371,-0.82330245,0.5500681,0.8621587,0.3745456,0.34117144,-0.48691285,0.4264841,0.7622514,,0.001476865,0.47209075,-0.32607624,-0.9205604,-0.36529514,0.13830395,0.3893944,-0.83046347,0.39837468,-0.03066795,0.42058274,0.9067357,,1.2890167895025613,0.310307129619215,0.19963643774000003,2.013862217225372,-0.5313793475877979,-0.24536442435254877,-0.41375051951812947,,-1.2048698921050112,0.025392345690450187,0.15795423279,4.538109756892076,0.01817265446880358,-1.2370592486549974,0.8732373775538569,,0.0238237442897226,0.039426987802551904,0.09203306007999999,-0.11742376536589094,,-4.223734e-05,-2.682209e-06,9.536743e-07,1.0,2.6144087e-05,2.817437e-05,-2.6151538e-05,1.0,2.6226044e-06,-2.816692e-05,-2.7418137e-06,1.0,743,2.266,1,1,0.229,False,-0.2630356547052788,1.0478251803314462
2.28713872199296,14:56:37.015319,14:55:21.901649,0,,0.10748845,0.0025635809,0.0339887,-0.21874268,0.82249075,-0.525034,0.23856589,0.5668138,0.7885482,0.94617033,0.04723391,-0.3202047,,0.04974488,-0.042984124,0.052598715,0.8417245,0.48542663,-0.23634887,0.2759032,-0.010450214,0.96112853,0.4640875,-0.874215,-0.1427271,,0.057312097,1.3212019,0.43253946,0.9967328,0.079043806,-0.016609723,0.041495204,-0.6775511,-0.7343042,-0.06929614,0.73121583,-0.67861736,,-0.06244382,0.2991467,-0.05355885,0.14201121,-0.8250644,0.54690176,0.86273843,0.37403995,0.34025952,-0.48529914,0.4235125,0.76493263,,0.001473731,0.47208396,-0.32608402,-0.9205597,-0.36526227,0.13839558,0.3893959,-0.8303606,0.39858764,-0.030670786,0.4208144,0.90662813,,1.2890167895025613,0.3100908930987367,0.19970254853000002,2.0121846976774957,-0.5291931635915509,-0.24093952656100884,-0.4144038957826665,,-1.2048853375707596,0.025315118361707942,0.15795423279,4.538109756892076,0.01817265446880358,-1.2373859636155595,0.8738907538183938,,0.0238237442897226,0.039426987802551904,0.09203306007999999,-0.11742376536589094,,-4.223734e-05,-2.682209e-06,9.536743e-07,1.0,2.6144087e-05,2.817437e-05,-2.6151538e-05,1.0,2.6226044e-06,-2.816692e-05,-2.7418137e-06,1.0,756,2.307,1,1,0.27,False,-0.26273776611267374,1.0480183011345638
2.3164546449988848,14:56:37.054936,14:55:21.901649,0,,0.107443854,0.0025814623,0.033888742,-0.22133158,0.8212933,-0.52582276,0.240843,0.5685284,0.78661937,0.9449905,0.04746297,-0.32363617,,0.049748108,-0.04299478,0.0525949,0.8417301,0.48545286,-0.2362749,0.27590606,-0.010605425,0.961126,0.4640756,-0.8741985,-0.14286643,,0.057312097,1.3212019,0.43253946,0.9967328,0.079043806,-0.016609723,0.041495204,-0.6775511,-0.7343042,-0.06929614,0.73121583,-0.67861736,,-0.062391434,0.29908913,-0.053479813,0.14468019,-0.8238934,0.5479665,0.86360013,0.37545392,0.33649534,-0.48297247,0.42453974,0.7658352,,0.0014722937,0.47207484,-0.32609132,-0.92056406,-0.36527202,0.1383408,0.38938624,-0.83042854,0.39845547,-0.030662483,0.4206718,0.9066946,,1.2890322349683099,0.30988237931113266,0.19978032593000003,2.0100877982426506,-0.5260505240969456,-0.24162352732279355,-0.412933799187458,,-1.2048853375707596,0.025245613765839923,0.15795552908000002,4.538109756892076,0.01817265446880358,-1.237304284875419,0.8737274097522596,,0.0238237442897226,0.039426987802551904,0.09203306007999999,-0.11742376536589094,,-4.223734e-05,-2.682209e-06,9.536743e-07,1.0,2.6144087e-05,2.817437e-05,-2.6151538e-05,1.0,2.6226044e-06,-2.816692e-05,-2.7418137e-06,1.0,765,2.336,1,1,0.299,False,-0.26297607698675796,1.0475837793275489
2.3561184169957414,14:56:37.084592,14:55:21.901649,0,,0.10739991,0.0025842935,0.03381659,-0.22573912,0.8187552,-0.5279032,0.24167532,0.5720171,0.78383,0.94373465,0.049359888,-0.32699963,,0.049749717,-0.04300141,0.05259323,0.8417335,0.485457,-0.23625432,0.2759077,-0.010651469,0.9611251,0.46406844,-0.8741957,-0.14290714,,0.057312097,1.3212019,0.43253946,0.9967328,0.079043806,-0.016609723,0.041495204,-0.6775511,-0.7343042,-0.06929614,0.73121583,-0.67861736,,-0.0623419,0.29904142,-0.053430725,0.1491717,-0.8215234,0.55031544,0.8635239,0.3793745,0.33226714,-0.48174086,0.42564568,0.76599705,,0.0014716778,0.4720699,-0.32609624,-0.9205667,-0.3652711,0.13832584,0.38938043,-0.8304498,0.39841688,-0.0306575,0.42063066,0.90671384,,1.289039957701184,0.3097279246536482,0.19983088124,2.005474619485991,-0.5235910671011678,-0.2426489047076424,-0.4134238313858608,,-1.2048853375707596,0.025199277368594574,0.15795552908000002,4.538109756892076,0.01817265446880358,-1.237304284875419,0.8737274097522596,,0.0238237442897226,0.039426987802551904,0.09203306007999999,-0.11742376536589094,,-4.223734e-05,-2.682209e-06,9.536743e-07,1.0,2.6144087e-05,2.817437e-05,-2.6151538e-05,1.0,2.6226044e-06,-2.816692e-05,-2.7418137e-06,1.0,774,2.365,1,1,0.328,False,-0.26243987752006825,1.0479700209337843
2.385772238005302,14:56:37.109595,14:55:21.901649,0,,0.10734546,0.002581641,0.033734933,-0.22959578,0.8175094,-0.5281705,0.24153545,0.57354975,0.78275234,0.9428396,0.052144676,-0.3291422,,0.049750537,-0.043004703,0.052592456,0.84173524,0.48545912,-0.23624402,0.27590856,-0.010674447,0.96112454,0.4640649,-0.87419426,-0.14292753,,0.057312097,1.3212019,0.43253946,0.9967328,0.079043806,-0.016609723,0.041495204,-0.6775511,-0.7343042,-0.06929614,0.73121583,-0.67861736,,-0.062281094,0.29898363,-0.05337967,0.15308776,-0.82050747,0.5507555,0.8630094,0.3825195,0.32999027,-0.4814342,0.4247897,0.76666474,,0.0014713699,0.4720674,-0.32609868,-0.920568,-0.3652706,0.13831836,0.38937753,-0.8304604,0.39839756,-0.03065501,0.4206101,0.90672344,,1.2890013440368129,0.3094730744687988,0.19989180687000002,2.0010711306728157,-0.5223613386032788,-0.24120130363669331,-0.41326048731972637,,-1.2048853375707596,0.025176109169971903,0.15795552908000002,4.538109756892076,0.01817265446880358,-1.237304284875419,0.8737274097522596,,0.0238237442897226,0.039426987802551904,0.09203306007999999,-0.11742376536589094,,-4.223734e-05,-2.682209e-06,9.536743e-07,1.0,2.6144087e-05,2.817437e-05,-2.6151538e-05,1.0,2.6226044e-06,-2.816692e-05,-2.7418137e-06,1.0,787,2.406,1,1,0.369,False,-0.2632143878608417,1.0481631417369022
2.4107385969982715,14:56:37.155707,14:55:22.035457,0,,0.10726906,0.0025417209,0.033630177,-0.23682599,0.815609,-0.52791613,0.24353337,0.5758616,0.78043246,0.9405345,0.05626148,-0.3350071,,0.049753673,-0.043006267,0.05259186,0.8417305,0.4854733,-0.23623192,0.27590483,-0.0106883645,0.96112543,0.46407583,-0.8741862,-0.1429413,,0.057312097,1.3212019,0.43253946,0.9967328,0.079043806,-0.016609723,0.041495204,-0.6775511,-0.7343042,-0.06929614,0.73121583,-0.67861736,,-0.062196493,0.29888487,-0.05334109,0.16047367,-0.81894714,0.55097526,0.86314076,0.38720405,0.32413122,-0.4787862,0.4235547,0.76900274,,0.0014685446,0.47206557,-0.3260998,-0.92056423,-0.36528403,0.1383081,0.3893858,-0.83046293,0.39838427,-0.030663662,0.42059353,0.90673083,,1.2889936213039388,0.30909466055796175,0.19993328815000003,1.9937319826508577,-0.5177156976112539,-0.23870024937154835,-0.41342383138586075,,-1.204900783036508,0.025160663704223454,0.15795682537000003,4.538109756892076,0.01817265446880358,-1.237304284875419,0.8737274097522596,,0.0238237442897226,0.039426987802551904,0.09203306007999999,-0.11742376536589094,,-4.223734e-05,-2.682209e-06,9.536743e-07,1.0,2.6144087e-05,2.817437e-05,-2.6151538e-05,1.0,2.6226044e-06,-2.816692e-05,-2.7418137e-06,1.0,796,2.434,1,1,0.397,False,-0.2635718541719685,1.0480183011345638
2.456875713993213,14:56:37.185141,14:55:22.035457,0,,0.10720351,0.0025058985,0.033555225,-0.23826562,0.8161085,-0.5264943,0.24548948,0.5751116,0.7803727,0.939662,0.056687146,-0.33737543,,0.049753405,-0.04300515,0.0525921,0.8417298,0.48547262,-0.23623537,0.27590454,-0.010680705,0.9611256,0.46407706,-0.87418675,-0.1429345,,0.057312097,1.3212019,0.43253946,0.9967328,0.079043806,-0.016609723,0.041495204,-0.6775511,-0.7343042,-0.06929614,0.73121583,-0.67861736,,-0.062125087,0.29880986,-0.05331934,0.16197334,-0.8194772,0.549747,0.8639363,0.38696823,0.32228822,-0.47684246,0.4227443,0.7706546,,0.0014686473,0.47206637,-0.326099,-0.92056376,-0.36528417,0.1383106,0.38938674,-0.8304594,0.3983907,-0.030664492,0.42060038,0.9067276,,1.2890167895025613,0.308654464784131,0.19996439911000002,1.992683532933435,-0.5153928771152414,-0.2368371316879216,-0.41407720765039785,,-1.204900783036508,0.02516838643709768,0.15795682537000003,4.538109756892076,0.01817265446880358,-1.237304284875419,0.8737274097522596,,0.0238237442897226,0.039426987802551904,0.09203306007999999,-0.11742376536589094,,-4.223734e-05,-2.682209e-06,9.536743e-07,1.0,2.6144087e-05,2.817437e-05,-2.6151538e-05,1.0,2.6226044e-06,-2.816692e-05,-2.7418137e-06,1.0,809,2.475,1,1,0.438,False,-0.2632143878608417,1.0479217407330053
2.48632493999321,14:56:37.222260,14:55:22.035457,0,,0.10706909,0.0024561584,0.033492967,-0.24854033,0.8123159,-0.5276084,0.24120691,0.5794454,0.7784999,0.93810827,0.06622586,-0.33995184,,0.049756788,-0.043007147,0.052588463,0.84172857,0.4854811,-0.23622245,0.27590322,-0.010702997,0.96112573,0.4640801,-0.8741816,-0.14295495,,0.057312097,1.3212019,0.43253946,0.9967328,0.079043806,-0.016609723,0.041495204,-0.6775511,-0.7343042,-0.06929614,0.73121583,-0.67861736,,-0.061985996,0.2987386,-0.05332002,0.17234999,-0.816468,0.5510676,0.860485,0.397084,0.31920183,-0.4794382,0.419171,0.7709959,,0.0014660035,0.47206172,-0.32609895,-0.92056274,-0.36529055,0.13830048,0.38938892,-0.8304677,0.3983712,-0.030667158,0.42057836,0.90673774,,1.2890940168313036,0.30816793261305486,0.19999939894000002,1.9794730664939097,-0.5155295136150068,-0.23207002559621323,-0.41391386358426363,,-1.2049085057693822,0.025145218238475004,0.15796071424000002,4.538109756892076,0.01817265446880358,-1.237304284875419,0.8737274097522596,,0.0238237442897226,0.039426987802551904,0.09203306007999999,-0.11742376536589094,,-4.223734e-05,-2.682209e-06,9.536743e-07,1.0,2.6144087e-05,2.817437e-05,-2.6151538e-05,1.0,2.6226044e-06,-2.816692e-05,-2.7418137e-06,1.0,818,2.504,1,1,0.467,False,-0.2629164992682367,1.0481631417369022
2.5234428700059652,14:56:37.253747,14:55:22.035457,0,,0.10700272,0.0024225712,0.03342165,-0.25061184,0.8123252,-0.5266132,0.24325988,0.5793603,0.7779243,0.9370264,0.066853136,-0.3428008,,0.04975836,-0.04300877,0.0525856,0.8417788,0.48535392,-0.2363047,0.27594322,-0.010646224,0.96111494,0.46396512,-0.87425303,-0.14289197,,0.057312097,1.3212019,0.43253946,0.9967328,0.079043806,-0.016609723,0.041495204,-0.6775511,-0.7343042,-0.06929614,0.73121583,-0.67861736,,-0.06191408,0.29866782,-0.05329918,0.17449597,-0.81652707,0.5503042,0.86123306,0.39747983,0.3166819,-0.47731417,0.41868043,0.7725787,,0.0014650173,0.47205824,-0.32609895,-0.92060226,-0.36516282,0.13837472,0.38930267,-0.8304784,0.39843324,-0.030575799,0.42066818,0.9066992,,1.2891480759614231,0.30775862777072094,0.20002791732000003,1.9777955469460338,-0.512796783619698,-0.23062284036381633,-0.4144038957826665,,-1.2049162285022565,0.025129772772726554,0.15796330682,4.538109756892076,0.018309290968569022,-1.2374157027791153,0.8737274097522596,,0.0238237442897226,0.039426987802551904,0.09203306007999999,-0.11742376536589094,,-4.223734e-05,-2.682209e-06,9.536743e-07,1.0,2.6144087e-05,2.817437e-05,-2.6151538e-05,1.0,2.6226044e-06,-2.816692e-05,-2.7418137e-06,1.0,831,2.545,1,1,0.508,False,-0.26339312101640555,1.048452822941579
2.554872309003258,14:56:37.296452,14:55:22.192641,0,,0.10684874,0.0023836195,0.033378586,-0.25971362,0.8096946,-0.52625424,0.24026859,0.5819973,0.77688485,0.9353181,0.07532516,-0.34569693,,0.04976017,-0.043011066,0.05257964,0.84188175,0.48511165,-0.23643553,0.2760251,-0.010604054,0.9610919,0.46372968,-0.874388,-0.14283052,,0.057312097,1.3212019,0.43253946,0.9967328,0.079043806,-0.016609723,0.041495204,-0.6775511,-0.7343042,-0.06929614,0.73121583,-0.67861736,,-0.06175705,0.29861906,-0.0533062,0.18371248,-0.8145869,0.5501799,0.85848564,0.4055886,0.31384757,-0.4788028,0.41466382,0.77382284,,0.0014642525,0.47205174,-0.32609794,-0.92068315,-0.36491194,0.13849844,0.38912603,-0.830531,0.39849615,-0.030388761,0.42078206,0.9066526,,1.2894492625435179,0.30725665013389636,0.20005513941000003,1.966262600054385,-0.5118403281213398,-0.2250318239587274,-0.4144038957826664,,-1.2049239512351306,0.02510660457410388,0.15796849198000001,4.538109756892076,0.018582563968099902,-1.237556859846368,0.8735640656861254,,0.0238237442897226,0.039426987802551904,0.09203306007999999,-0.11742376536589094,,-4.223734e-05,-2.682209e-06,9.536743e-07,1.0,2.6144087e-05,2.817437e-05,-2.6151538e-05,1.0,2.6226044e-06,-2.816692e-05,-2.7418137e-06,1.0,840,2.574,1,1,0.537,False,-0.2629164992682367,1.0478734605322257
