AlexandreBanks6/ExpertPlaybackApp/resources/Motions/P_18/PC1/Data_PC1_9.csv
Task Time,PC1 Time,PC2 Time,Gaze Calib,s_T_psm1,Tx,Ty,Tz,R00,R01,R02,R10,R11,R12,R20,R21,R22,s_T_psm3,Tx,Ty,Tz,R00,R01,R02,R10,R11,R12,R20,R21,R22,cart_T_ecm,Tx,Ty,Tz,R00,R01,R02,R10,R11,R12,R20,R21,R22,ecm_T_psm1,Tx,Ty,Tz,R00,R01,R02,R10,R11,R12,R20,R21,R22,ecm_T_psm3,Tx,Ty,Tz,R00,R01,R02,R10,R11,R12,R20,R21,R22,psm1_joints,q1,q2,q3,q4,q5,q6,jaw,psm3_joints,q1,q2,q3,q4,q5,q6,jaw,ecm_joints,q1,q2,q3,q4,ecmi_T_ecm,Tx,Ty,Tz,R00,R01,R02,R10,R11,R12,R20,R21,R22,Sample #,Task Duration (s),Collisions (binary),Collisions (increments),Cumulative Collision Time (s),Clutch Press,MTMR Angle,MTML Angle
""
lci_T_si,,,,,-0.066164754,0.026516598,0.23978148,0.99478984,-0.005419439,0.101802684,0.07109325,-0.6788334,-0.7308426,0.07306782,0.7342723,-0.6749113
rci_T_si,,,,,-0.07567082,0.03074627,0.2479851,0.9944939,-0.021734206,0.10251589,0.062365826,-0.66341096,-0.74565166,0.08421631,0.7479395,-0.6584027
ecm_T_lc,,,,,-4.4061628e-05,-0.00034663224,-0.01840835,-0.99912,0.030754527,0.028518902,-0.031987965,-0.99852574,-0.043852776,0.027128186,-0.04472645,0.9986309
ecm_T_rc,,,,,-0.0043358393,0.01870579,-0.007592615,-0.99555075,-0.052743673,-0.078081585,0.04863213,-0.9973746,0.053654674,-0.08070653,0.04961868,0.9955021
cart_T_ecmi,,,,,0.057354428,1.3212025,0.4325391,0.9967344,0.0790177,-0.016638013,0.041456804,-0.67755413,-0.73430353,-0.06929614,0.73121583,-0.67861736
ecmac_T_ecmrep_psm1,,,,,-0.0033900698,-0.29259828,-0.274185,0.99793226,0.043159027,0.047628522,-0.040498573,0.99763834,-0.055476554,-0.049910355,0.053432956,0.99732333
ecmac_T_ecmrep_psm3,,,,,-0.030876445,-0.5082754,-0.4984752,0.99144465,-0.07732987,0.105155215,0.05830459,0.98314613,0.17327517,-0.116782285,-0.16566171,0.97924364
""
0,15:00:05.925905,14:58:50.783085,0,,0.12392503,0.0011759698,0.030074656,0.47823837,0.26752895,-0.83649045,0.55528104,0.6458134,0.5240113,0.680405,-0.71508986,0.16029896,,0.046600074,-0.031719074,0.083372,0.12493514,0.9414345,0.31319684,-0.22235584,-0.28107274,0.9335716,0.9669277,-0.18627703,0.17421758,,0.057333432,1.3212028,0.4325468,0.9967334,0.07903324,-0.016621174,0.04147966,-0.67755234,-0.73430395,-0.06929614,0.73121583,-0.67861736,,-0.078530736,0.29436946,-0.05101504,-0.5323508,-0.21128383,0.8197327,0.8457482,-0.09130274,0.52571267,-0.036230754,0.973151,0.227298,,-0.00069636555,0.50438297,-0.33203566,-0.22043008,-0.87049496,-0.44005582,0.6894562,-0.45818397,0.56099695,-0.6899715,-0.17973861,0.7011657,,1.229397291713548,0.3579023323230607,0.19856181333000003,2.88323672291221,-0.18363945568475198,-1.2614179308405036,-0.4183241533698894,,-1.2396685264362668,0.15884889248992393,0.13923580519,4.538109756892076,-0.980913431816097,-0.796296809190258,0.8758508826120053,,0.0238237442897226,0.039426987802551904,0.09203306007999999,-0.11742376536589094,,-2.1450222e-05,3.874302e-06,-5.00679e-06,1.0,1.5556812e-05,1.6771257e-05,-1.5567988e-05,1.0,1.5497208e-06,-1.6760081e-05,-1.6391277e-06,1.0,35,0.105,0,1,0.051,False,-0.2635718541719685,1.0503840309727575
0.11934109099092893,15:00:05.946839,14:58:50.853687,0,,0.1237982,0.0010816008,0.03051889,0.47298142,0.28001514,-0.8353921,0.544784,0.6522345,0.5270678,0.69245857,-0.7044018,0.15594703,,0.04659845,-0.031718865,0.08337283,0.12494417,0.94148564,0.31303948,-0.22236004,-0.2809143,0.9336183,0.9669256,-0.18625763,0.1742501,,0.057333432,1.3212028,0.4325468,0.9967334,0.07903324,-0.016621174,0.04147966,-0.67755234,-0.73430395,-0.06929614,0.73121583,-0.67861736,,-0.07843949,0.29463437,-0.051394287,-0.5280453,-0.22459844,0.81897724,0.8475986,-0.07989355,0.52458906,-0.05239088,0.9711707,0.23255673,,-0.00069490157,0.5043841,-0.33203584,-0.2204382,-0.87056637,-0.43991047,0.6894508,-0.45809707,0.5610746,-0.68997437,-0.17961435,0.70119476,,1.2306406517062982,0.35748530474785256,0.19820662987,2.876526644720705,-0.19948928965754306,-1.253639214640574,-0.4179974652376204,,-1.2396608037033925,0.15885661522279818,0.13923450890000003,4.538109756892076,-0.980913431816097,-0.7964601666705392,0.8755241944797367,,0.0238237442897226,0.039426987802551904,0.09203306007999999,-0.11742376536589094,,-2.1450222e-05,3.874302e-06,-5.00679e-06,1.0,1.5556812e-05,1.6771257e-05,-1.5567988e-05,1.0,1.5497208e-06,-1.6760081e-05,-1.6391277e-06,1.0,43,0.13,0,1,0.051,False,-0.26351227645344677,1.0502874705711984
0.14025951900111977,15:00:05.984735,14:58:50.853687,0,,0.12360154,0.0010088682,0.031035364,0.46550974,0.29256892,-0.8352868,0.53283,0.6609341,0.5284488,0.70667726,-0.6910642,0.15178178,,0.04659477,-0.031719968,0.08337301,0.12485218,0.9414593,0.31315535,-0.22241437,-0.28103518,0.93356895,0.9669249,-0.1862084,0.17430618,,0.057333432,1.3212028,0.4325468,0.9967334,0.07903324,-0.016621174,0.04147966,-0.67755234,-0.73430395,-0.06929614,0.73121583,-0.67861736,,-0.07828446,0.29497066,-0.05181093,-0.52170104,-0.23819734,0.8192009,0.8501513,-0.065004036,0.5225105,-0.07120925,0.96903896,0.23641646,,-0.00069116725,0.50438434,-0.3320368,-0.22034116,-0.8705325,-0.440026,0.68943876,-0.4581111,0.56107795,-0.6900174,-0.1797424,0.7011196,,1.2323628211372504,0.35695243617953104,0.19782552061000003,2.8670905972639016,-0.21779858062611207,-1.2463053383783258,-0.4166907127085462,,-1.2396299127718957,0.15885661522279818,0.13923321261000002,4.538109756892076,-0.9810500683158624,-0.7963487487668428,0.8755241944797367,,0.0238237442897226,0.039426987802551904,0.09203306007999999,-0.11742376536589094,,-2.1450222e-05,3.874302e-06,-5.00679e-06,1.0,1.5556812e-05,1.6771257e-05,-1.5567988e-05,1.0,1.5497208e-06,-1.6760081e-05,-1.6391277e-06,1.0,51,0.155,0,1,0.051,False,-0.2631548101423209,1.0501909101696396
0.17816946899984032,15:00:05.999439,14:58:50.853687,0,,0.12345417,0.0009833276,0.03138551,0.46033615,0.30221072,-0.83472115,0.52326083,0.6672025,0.53013104,0.7171393,-0.6808155,0.14900237,,0.046593428,-0.031720623,0.083373606,0.12485967,0.9414584,0.31315514,-0.22241253,-0.281034,0.9335698,0.96692437,-0.18621483,0.17430225,,0.057333432,1.3212028,0.4325468,0.9967334,0.07903324,-0.016621174,0.04147966,-0.67755234,-0.73430395,-0.06929614,0.73121583,-0.67861736,,-0.0781654,0.29521582,-0.05207684,-0.517354,-0.24864118,0.81885433,0.8514795,-0.05384836,0.52161586,-0.08560121,0.9670977,0.23957151,,-0.00068984035,0.5043847,-0.33203757,-0.22034867,-0.87053096,-0.44002536,0.6894379,-0.45811582,0.5610751,-0.6900158,-0.17973803,0.7011223,,1.233621626595749,0.35654313133719717,0.19758959583000002,2.8605902090158812,-0.23187214010195245,-1.2405468061074336,-0.4202842821635002,,-1.2396221900390214,0.15885661522279818,0.13923191632,4.538109756892076,-0.9810500683158624,-0.7963487487668428,0.8755241944797367,,0.0238237442897226,0.039426987802551904,0.09203306007999999,-0.11742376536589094,,-2.1450222e-05,3.874302e-06,-5.00679e-06,1.0,1.5556812e-05,1.6771257e-05,-1.5567988e-05,1.0,1.5497208e-06,-1.6760081e-05,-1.6391277e-06,1.0,59,0.179,0,1,0.051,False,-0.26422720907569985,1.0506254319766548
0.19281891800346784,15:00:06.027618,14:58:50.853687,0,,0.12327423,0.00094884634,0.031802267,0.45316488,0.31397069,-0.83430445,0.51087385,0.6755032,0.53169835,0.73051316,-0.6671716,0.1457149,,0.046592534,-0.03172244,0.08337498,0.124743715,0.94140834,0.31335193,-0.22246635,-0.28123948,0.93349504,0.96692705,-0.18615788,0.17434871,,0.057333432,1.3212028,0.4325468,0.9967334,0.07903324,-0.016621174,0.04147966,-0.67755234,-0.73430395,-0.06929614,0.73121583,-0.67861736,,-0.07801917,0.29550502,-0.052396543,-0.5112408,-0.26147228,0.8186972,0.85310465,-0.038963027,0.5202829,-0.10414065,0.96442425,0.24298272,,-0.0006889245,0.5043851,-0.3320398,-0.2202285,-0.8704648,-0.44021636,0.6894329,-0.45816153,0.5610439,-0.6900592,-0.17994179,0.70102733,,1.2351507277048455,0.3559484809058819,0.19730181945000003,2.851573541446047,-0.2507279770695832,-1.233502366891665,-0.41881418556829186,,-1.239614467306147,0.15884889248992393,0.13923062003,4.538109756892076,-0.9811867048156279,-0.7961556521230059,0.8753608504136028,,0.0238237442897226,0.039426987802551904,0.09203306007999999,-0.11742376536589094,,-2.1450222e-05,3.874302e-06,-5.00679e-06,1.0,1.5556812e-05,1.6771257e-05,-1.5567988e-05,1.0,1.5497208e-06,-1.6760081e-05,-1.6391277e-06,1.0,67,0.204,0,1,0.051,False,-0.2623802998015474,1.0500943497680806
0.22101754299364984,15:00:06.047967,14:58:50.853687,0,,0.12307895,0.0008946061,0.032212377,0.447428,0.32533675,-0.8330451,0.4988456,0.6823237,0.53440374,0.7422676,-0.6546683,0.14299788,,0.046590075,-0.031722292,0.083375335,0.12476021,0.9414073,0.31334817,-0.22246873,-0.28123236,0.93349665,0.9669243,-0.1861734,0.17434695,,0.057333432,1.3212028,0.4325468,0.9967334,0.07903324,-0.016621174,0.04147966,-0.67755234,-0.73430395,-0.06929614,0.73121583,-0.67861736,,-0.07785708,0.2957768,-0.05272689,-0.5064292,-0.27381602,0.8176517,0.85371625,-0.02589685,0.52009416,-0.1212355,0.9614334,0.24687609,,-0.0006865668,0.5043859,-0.33203977,-0.22024412,-0.8704627,-0.4402126,0.68942666,-0.45817098,0.56104386,-0.69006044,-0.1799277,0.7010297,,1.236579433286577,0.3553229395430697,0.19702830226,2.8446537733110575,-0.2669877205416706,-1.2265328993426141,-0.41946756183282896,,-1.2395990218403987,0.15885661522279818,0.13922932374000002,4.538109756892076,-0.9811867048156279,-0.7961556521230059,0.8753608504136028,,0.0238237442897226,0.039426987802551904,0.09203306007999999,-0.11742376536589094,,-2.1450222e-05,3.874302e-06,-5.00679e-06,1.0,1.5556812e-05,1.6771257e-05,-1.5567988e-05,1.0,1.5497208e-06,-1.6760081e-05,-1.6391277e-06,1.0,75,0.228,0,1,0.051,False,-0.2632143878608417,1.0502391903704191
0.2413934850046644,15:00:06.078168,14:58:50.853687,0,,0.1227488,0.00079873204,0.032842904,0.43406245,0.3479438,-0.8309782,0.48107308,0.6903542,0.5403514,0.76168144,-0.6343077,0.13227049,,0.046584263,-0.031723782,0.08337748,0.12467722,0.94135535,0.3135374,-0.2225272,-0.28142354,0.93342507,0.96692157,-0.18614742,0.17439002,,0.057333432,1.3212028,0.4325468,0.9967334,0.07903324,-0.016621174,0.04147966,-0.67755234,-0.73430395,-0.06929614,0.73121583,-0.67861736,,-0.07757801,0.29618788,-0.05324543,-0.4946095,-0.2979944,0.81643176,0.856395,-0.0069749164,0.51627415,-0.14815226,0.95454216,0.25865075,,-0.0006809356,0.504388,-0.33204192,-0.2201552,-0.87039244,-0.4403961,0.6894092,-0.45823556,0.5610126,-0.6901063,-0.18010326,0.7009395,,1.2388730849502216,0.3541954205434329,0.19659274882000002,2.828507647662749,-0.2933585649964006,-1.2082963935348272,-0.41963090589896335,,-1.2395604081760276,0.1588643379556724,0.13922543487000003,4.538109756892076,-0.9813233413153933,-0.7959625554791687,0.8755241944797372,,0.0238237442897226,0.039426987802551904,0.09203306007999999,-0.11742376536589094,,-2.1450222e-05,3.874302e-06,-5.00679e-06,1.0,1.5556812e-05,1.6771257e-05,-1.5567988e-05,1.0,1.5497208e-06,-1.6760081e-05,-1.6391277e-06,1.0,83,0.253,0,1,0.051,False,-0.26404847592013647,1.0502874705711984
0.27151296599186026,15:00:06.100089,14:58:50.853687,0,,0.12238715,0.00063320994,0.03342405,0.4207572,0.36405084,-0.8309214,0.4671947,0.6981809,0.5424688,0.7776197,-0.61644995,0.12368198,,0.046580233,-0.03172572,0.08337909,0.124699645,0.9413526,0.31353673,-0.22252163,-0.28141993,0.93342745,0.96692,-0.1861668,0.1743783,,0.057333432,1.3212028,0.4325468,0.9967334,0.07903324,-0.016621174,0.04147966,-0.67755234,-0.73430395,-0.06929614,0.73121583,-0.67861736,,-0.07726342,0.29651725,-0.053782552,-0.48258257,-0.31549343,0.81705445,0.8592225,0.010380579,0.51149684,-0.1698554,0.94887096,0.26606956,,-0.00067695545,0.50438905,-0.33204427,-0.22017772,-0.8703877,-0.4403942,0.6894068,-0.45824972,0.561004,-0.6901015,-0.18009016,0.7009476,,1.2410277274221302,0.3528593877561921,0.19614293619,2.8123615220144407,-0.3146738589598093,-1.1945907438645107,-0.4176707771053523,,-1.239537239977405,0.1588643379556724,0.139221546,4.538109756892076,-0.9813233413153933,-0.7959625554791687,0.8755241944797372,,0.0238237442897226,0.039426987802551904,0.09203306007999999,-0.11742376536589094,,-2.1450222e-05,3.874302e-06,-5.00679e-06,1.0,1.5556812e-05,1.6771257e-05,-1.5567988e-05,1.0,1.5497208e-06,-1.6760081e-05,-1.6391277e-06,1.0,91,0.277,0,1,0.051,False,-0.2637505873275314,1.0504805913743163
0.29351743900042493,15:00:06.126974,14:58:50.853687,0,,0.122137874,0.00049352646,0.03379932,0.41122264,0.37525952,-0.8307082,0.45878077,0.70228165,0.5443534,0.7876651,-0.6049635,0.11663224,,0.046572432,-0.031726852,0.08337861,0.1246391,0.9412977,0.31372517,-0.22257459,-0.2816075,0.9333583,0.9669156,-0.1861602,0.17440963,,0.057333432,1.3212028,0.4325468,0.9967334,0.07903324,-0.016621174,0.04147966,-0.67755234,-0.73430395,-0.06929614,0.73121583,-0.67861736,,-0.07704452,0.29670838,-0.054154076,-0.47385812,-0.32759243,0.8173993,0.86130154,0.02085277,0.5076661,-0.18335262,0.94458896,0.2722746,,-0.0006690764,0.5043894,-0.33204475,-0.22011133,-0.8703126,-0.44057575,0.6893869,-0.4583285,0.5609641,-0.6901425,-0.1802526,0.7008654,,1.2423792056751195,0.35187087794829136,0.19583312288000002,2.800828575122792,-0.32792759943705707,-1.183946564686239,-0.41767077710535205,,-1.2394754581144112,0.15887206068854662,0.13921895342,4.538109756892076,-0.9814599778151588,-0.7957694588353318,0.8756875385458713,,0.0238237442897226,0.039426987802551904,0.09203306007999999,-0.11742376536589094,,-2.1450222e-05,3.874302e-06,-5.00679e-06,1.0,1.5556812e-05,1.6771257e-05,-1.5567988e-05,1.0,1.5497208e-06,-1.6760081e-05,-1.6391277e-06,1.0,99,0.302,0,1,0.051,False,-0.26351227645344677,1.05014262996886
0.3204072410007939,15:00:06.150272,14:58:50.853687,0,,0.121879354,0.0003463477,0.034157753,0.402634,0.38525856,-0.83033824,0.45068783,0.7061094,0.54615927,0.7967223,-0.59412587,0.11067228,,0.04656394,-0.0317287,0.08337605,0.12470633,0.9412896,0.31372312,-0.2225579,-0.2815966,0.9333656,0.9669108,-0.18621814,0.17437446,,0.057333432,1.3212028,0.4325468,0.9967334,0.07903324,-0.016621174,0.04147966,-0.67755234,-0.73430395,-0.06929614,0.73121583,-0.67861736,,-0.076815024,0.2968827,-0.05452003,-0.46599868,-0.3384332,0.8175012,0.8628281,0.030739542,0.504562,-0.19589016,0.9404882,0.27768508,,-0.000660167,0.50438774,-0.33204472,-0.22017889,-0.8702984,-0.44057006,0.68937975,-0.4583709,0.56093824,-0.69012815,-0.18021332,0.7008897,,1.2437229611952345,0.3508205862773968,0.19553108731000002,2.7903440779485655,-0.34036152091571215,-1.1742159291505674,-0.4184874974360233,,-1.239405953518543,0.15887206068854662,0.13921636084000003,4.538109756892076,-0.9814599778151588,-0.7957694588353318,0.8756875385458713,,0.0238237442897226,0.039426987802551904,0.09203306007999999,-0.11742376536589094,,-2.1450222e-05,3.874302e-06,-5.00679e-06,1.0,1.5556812e-05,1.6771257e-05,-1.5567988e-05,1.0,1.5497208e-06,-1.6760081e-05,-1.6391277e-06,1.0,107,0.327,0,1,0.051,False,-0.26392932048309437,1.0501909101696396
0.3436795589950634,15:00:06.176735,14:58:51.081386,0,,0.121476494,0.00014767051,0.034724742,0.39038146,0.40456486,-0.8270003,0.4330547,0.7120054,0.5527312,0.81244445,-0.5739126,0.10275495,,0.046548612,-0.031732246,0.083372,0.12482588,0.941275,0.31371936,-0.2225281,-0.2815773,0.93337846,0.96690214,-0.18632117,0.174312,,0.057333432,1.3212028,0.4325468,0.9967334,0.07903324,-0.016621174,0.04147966,-0.67755234,-0.73430395,-0.06929614,0.73121583,-0.67861736,,-0.076458156,0.2971815,-0.055073716,-0.45499444,-0.3593043,0.8147886,0.8628596,0.048287146,0.50313187,-0.22012126,0.93197036,0.2880588,,-0.00064413605,0.5043851,-0.33204514,-0.22029902,-0.8702731,-0.44055992,0.68936706,-0.45844632,0.5608922,-0.69010246,-0.18014349,0.70093286,,1.2458467127356463,0.34908297138069627,0.19509423758000002,2.775456091961164,-0.364819454373726,-1.1563957716325626,-0.4191408737005604,,-1.2392823897925556,0.15887206068854662,0.13921117568000002,4.538109756892076,-0.9814599778151588,-0.7957694588353318,0.8756875385458713,,0.0238237442897226,0.039426987802551904,0.09203306007999999,-0.11742376536589094,,-2.1450222e-05,3.874302e-06,-5.00679e-06,1.0,1.5556812e-05,1.6771257e-05,-1.5567988e-05,1.0,1.5497208e-06,-1.6760081e-05,-1.6391277e-06,1.0,115,0.351,0,1,0.051,False,-0.26404847592013647,1.0500943497680806
0.3701680639933329,15:00:06.200341,14:58:51.081386,0,,0.12117443,2.7820468e-05,0.035095304,0.3792188,0.4146904,-0.82717884,0.42015287,0.7193101,0.5532309,0.8244178,-0.5573373,0.09854251,,0.04653816,-0.03173338,0.08336878,0.124909624,0.9412659,0.31371352,-0.22251374,-0.28155926,0.9333873,0.9668946,-0.18639463,0.17427507,,0.057333432,1.3212028,0.4325468,0.9967334,0.07903324,-0.016621174,0.04147966,-0.67755234,-0.73430395,-0.06929614,0.73121583,-0.67861736,,-0.0761863,0.29738596,-0.055430382,-0.44478962,-0.37073734,0.8153012,0.86335444,0.06471191,0.5004313,-0.23828827,0.92648053,0.29129454,,-0.00063330244,0.5043836,-0.3320441,-0.22038221,-0.87025684,-0.44055048,0.68935364,-0.45849818,0.5608663,-0.6900893,-0.18009011,0.70095956,,1.2473063092488748,0.34777782952495234,0.19482979442,2.7620359355781545,-0.3829921088425296,-1.1473763809909183,-0.41897752963442625,,-1.239197439730939,0.15887978342142084,0.1392085831,4.538109756892076,-0.9814599778151588,-0.7957694588353318,0.8756875385458713,,0.0238237442897226,0.039426987802551904,0.09203306007999999,-0.11742376536589094,,-2.1450222e-05,3.874302e-06,-5.00679e-06,1.0,1.5556812e-05,1.6771257e-05,-1.5567988e-05,1.0,1.5497208e-06,-1.6760081e-05,-1.6391277e-06,1.0,123,0.376,0,1,0.051,False,-0.26458467538682573,1.050432311173537
0.39376912100124173,15:00:06.221401,14:58:51.081386,0,,0.12067465,-0.00014197826,0.035642922,0.3588646,0.4296906,-0.8286025,0.40085003,0.73075396,0.5525557,0.8429327,-0.53043824,0.09000024,,0.046522304,-0.03173755,0.08336657,0.124792874,0.9412047,0.31394318,-0.2226057,-0.28179014,0.9332957,0.96688855,-0.18635416,0.17435205,,0.057333432,1.3212028,0.4325468,0.9967334,0.07903324,-0.016621174,0.04147966,-0.67755234,-0.73430395,-0.06929614,0.73121583,-0.67861736,,-0.07573134,0.29769632,-0.05595498,-0.42592803,-0.38786292,0.817403,0.86474884,0.091170505,0.49385974,-0.26607293,0.917197,0.2965719,,-0.0006169263,0.5043824,-0.332046,-0.22025569,-0.87017477,-0.44077575,0.68932235,-0.45856872,0.56084704,-0.69016093,-0.18030684,0.7008333,,1.2495767927138968,0.3457081371146602,0.19445775919000002,2.7375022121904653,-0.4104560452953831,-1.1320874327401667,-0.4194675618328292,,-1.2390661532720773,0.15887978342142084,0.13920339794,4.538109756892076,-0.9817332508146895,-0.795546623027939,0.8756875385458713,,0.0238237442897226,0.039426987802551904,0.09203306007999999,-0.11742376536589094,,-2.1450222e-05,3.874302e-06,-5.00679e-06,1.0,1.5556812e-05,1.6771257e-05,-1.5567988e-05,1.0,1.5497208e-06,-1.6760081e-05,-1.6391277e-06,1.0,160,0.489,0,1,0.051,False,-0.2644655199497832,1.050432311173537
0.4148185609956272,15:00:06.330578,14:58:51.203975,0,,0.11863521,-0.0006812811,0.037240356,0.30167133,0.47763026,-0.82514465,0.34772122,0.7507335,0.561684,0.8877412,-0.45636445,0.06039256,,0.046472244,-0.03174652,0.083352745,0.1250701,0.94113535,0.31404108,-0.22258112,-0.28184238,0.9332858,0.9668585,-0.18662575,0.17422879,,0.057333432,1.3212028,0.4325468,0.9967334,0.07903324,-0.016621174,0.04147966,-0.67755234,-0.73430395,-0.06929614,0.73121583,-0.67861736,,-0.0738244,0.29860622,-0.057547975,-0.37235624,-0.44160542,0.8162938,0.8641966,0.15572123,0.47845072,-0.3384007,0.8835924,0.32365012,,-0.0005648017,0.5043746,-0.3320448,-0.22052774,-0.8700656,-0.44085523,0.68926203,-0.4588138,0.56072074,-0.69013435,-0.18021029,0.70088434,,1.2584811037178776,0.3378695632473223,0.19341554203000003,2.6643204219143666,-0.48273675367130114,-1.0687367097171694,-0.41963090589896357,,-1.2386568484297433,0.15889522888716928,0.13918913875000002,4.538109756892076,-0.981869887314455,-0.7954352051242425,0.8756875385458713,,0.0238237442897226,0.039426987802551904,0.09203306007999999,-0.11742376536589094,,-2.1450222e-05,3.874302e-06,-5.00679e-06,1.0,1.5556812e-05,1.6771257e-05,-1.5567988e-05,1.0,1.5497208e-06,-1.6760081e-05,-1.6391277e-06,1.0,164,0.502,0,1,0.051,False,-0.26404847592013647,1.0497563883626244
0.5239865719922818,15:00:06.352474,14:58:51.203975,0,,0.1179903,-0.0008164644,0.037669122,0.29074827,0.48616806,-0.82407886,0.33699495,0.7540625,0.56375885,0.8954886,-0.44162247,0.055406123,,0.04646045,-0.03174828,0.08335012,0.1251613,0.94115084,0.31395808,-0.2225649,-0.28174692,0.9333185,0.96685034,-0.18669139,0.17420325,,0.057333432,1.3212028,0.4325468,0.9967334,0.07903324,-0.016621174,0.04147966,-0.67755234,-0.73430395,-0.06929614,0.73121583,-0.67861736,,-0.07321539,0.29886284,-0.05797375,-0.3620588,-0.45129964,0.81562376,0.8631061,0.16818365,0.47619548,-0.35208145,0.87638056,0.32862708,,-0.0005526434,0.5043735,-0.33204454,-0.22061844,-0.87008375,-0.44077408,0.6892478,-0.45882455,0.56072944,-0.6901195,-0.18009533,0.70092845,,1.2613925740114602,0.33570719804253946,0.19314850629000002,2.649013056039996,-0.49612713064831426,-1.0547956417697195,-0.4183241533698894,,-1.2385641756352526,0.1589029516200435,0.13918524988,4.538109756892076,-0.981869887314455,-0.795516883864383,0.8758508826120053,,0.0238237442897226,0.039426987802551904,0.09203306007999999,-0.11742376536589094,,-2.1450222e-05,3.874302e-06,-5.00679e-06,1.0,1.5556812e-05,1.6771257e-05,-1.5567988e-05,1.0,1.5497208e-06,-1.6760081e-05,-1.6391277e-06,1.0,172,0.526,0,1,0.051,False,-0.26470383082386784,1.0496115477602863
0.545901026998763,15:00:06.378523,14:58:51.203975,0,,0.11761582,-0.00086286664,0.03793201,0.28680748,0.49316722,-0.8212962,0.32787314,0.7550064,0.5678595,0.9001338,-0.43214744,0.054845154,,0.046456777,-0.0317495,0.0833503,0.1250693,0.94112444,0.31407395,-0.22261918,-0.2818678,0.933269,0.9668497,-0.18664223,0.1742593,,0.057333432,1.3212028,0.4325468,0.9967334,0.07903324,-0.016621174,0.04147966,-0.67755234,-0.73430395,-0.06929614,0.73121583,-0.67861736,,-0.07286294,0.29904392,-0.058207132,-0.358478,-0.45903426,0.8128844,0.86045027,0.17528291,0.47843623,-0.36210337,0.87095547,0.33214107,,-0.0005489106,0.50437367,-0.33204553,-0.2205214,-0.87004983,-0.4408896,0.68923575,-0.4588386,0.5607327,-0.69016254,-0.18022332,0.70085317,,1.2632460299012742,0.3344329471182924,0.19301498842,2.6427223577354604,-0.5066481411302531,-1.0454813545238297,-0.41946756183282896,,-1.2385332847037558,0.1589029516200435,0.13918395359000002,4.538109756892076,-0.9820065238142205,-0.7954054659606866,0.8755241944797372,,0.0238237442897226,0.039426987802551904,0.09203306007999999,-0.11742376536589094,,-2.1450222e-05,3.874302e-06,-5.00679e-06,1.0,1.5556812e-05,1.6771257e-05,-1.5567988e-05,1.0,1.5497208e-06,-1.6760081e-05,-1.6391277e-06,1.0,180,0.551,0,1,0.051,False,-0.26404847592013647,1.0497563883626244
0.571929910001927,15:00:06.398110,14:58:51.203975,0,,0.11722821,-0.0009048581,0.0381566,0.27975908,0.49535242,-0.82241154,0.32222164,0.7584844,0.56645787,0.9043827,-0.42347074,0.052579567,,0.046452574,-0.031749442,0.083351254,0.12504111,0.94121224,0.31382188,-0.22251302,-0.28164333,0.9333621,0.9668778,-0.18653807,0.17421493,,0.057333432,1.3212028,0.4325468,0.9967334,0.07903324,-0.016621174,0.04147966,-0.67755234,-0.73430395,-0.06929614,0.73121583,-0.67861736,,-0.07249438,0.2992011,-0.058411844,-0.3517767,-0.46191296,0.8141803,0.860074,0.18382956,0.47589856,-0.3694941,0.86766535,0.33261237,,-0.0005448987,0.5043752,-0.33204585,-0.22050966,-0.8701759,-0.44064656,0.6893174,-0.458653,0.5607842,-0.69008476,-0.18008702,0.7009648,,1.2650377039280942,0.33321275532416494,0.19290091490000003,2.632657240448203,-0.513753239118056,-1.039687623531616,-0.41946756183282896,,-1.238510116505133,0.1589029516200435,0.13918136101,4.537900066948591,-0.9820065238142205,-0.7954871447008273,0.8753608504136028,,0.0238237442897226,0.039426987802551904,0.09203306007999999,-0.11742376536589094,,-2.1450222e-05,3.874302e-06,-5.00679e-06,1.0,1.5556812e-05,1.6771257e-05,-1.5567988e-05,1.0,1.5497208e-06,-1.6760081e-05,-1.6391277e-06,1.0,188,0.576,0,1,0.051,False,-0.26309523242380006,1.0499495091657423
0.5914763259934261,15:00:06.428156,14:58:51.203975,0,,0.11670247,-0.00093349814,0.0384427,0.27156493,0.49830398,-0.82337445,0.3148975,0.76242936,0.5652795,0.90944606,-0.4127888,0.050134346,,0.046449214,-0.031749383,0.083352745,0.12500542,0.94124967,0.3137237,-0.22240874,-0.28157252,0.9334084,0.9669064,-0.186456,0.174144,,0.057333432,1.3212028,0.4325468,0.9967334,0.07903324,-0.016621174,0.04147966,-0.67755234,-0.73430395,-0.06929614,0.73121583,-0.67861736,,-0.071993046,0.29942027,-0.058656197,-0.343994,-0.46571663,0.8153381,0.8592088,0.19410466,0.47337472,-0.3787194,0.8633837,0.333377,,-0.00054178044,0.50437707,-0.33204642,-0.22049038,-0.87023157,-0.44054627,0.68939984,-0.45855424,0.56076366,-0.6900086,-0.18006954,0.7010443,,1.2675321466464688,0.3316218723520747,0.19277776735000002,2.6204952237261008,-0.5226346116028098,-1.031955387350505,-0.41946756183282896,,-1.2384946710393847,0.1589029516200435,0.13917876843000002,4.537690377005107,-0.9820065238142205,-0.7954054659606865,0.875197506347468,,0.0238237442897226,0.039426987802551904,0.09203306007999999,-0.11742376536589094,,-2.1450222e-05,3.874302e-06,-5.00679e-06,1.0,1.5556812e-05,1.6771257e-05,-1.5567988e-05,1.0,1.5497208e-06,-1.6760081e-05,-1.6391277e-06,1.0,196,0.601,0,1,0.051,False,-0.2632143878608417,1.0500943497680806
0.6215143820008961,15:00:06.443387,14:58:51.203975,0,,0.11637652,-0.0009186119,0.038662076,0.2633601,0.5057108,-0.82152176,0.30463326,0.76441485,0.56821513,0.9153361,-0.39990819,0.047260016,,0.046448708,-0.03174995,0.08335382,0.12500542,0.94124967,0.3137237,-0.22240874,-0.28157252,0.9334084,0.9669064,-0.186456,0.174144,,0.057333432,1.3212028,0.4325468,0.9967334,0.07903324,-0.016621174,0.04147966,-0.67755234,-0.73430395,-0.06929614,0.73121583,-0.67861736,,-0.07168566,0.299609,-0.058812678,-0.33625916,-0.4741317,0.8137131,0.8569263,0.20436332,0.4731944,-0.39064956,0.85640806,0.3375769,,-0.0005413487,0.5043778,-0.33204743,-0.22049038,-0.87023157,-0.44054627,0.68939984,-0.45855424,0.56076366,-0.6900086,-0.18006954,0.7010443,,1.2690612477555652,0.3306565307427966,0.19272202688,2.6091719667779363,-0.5343853505826376,-1.020658194089661,-0.4199575940312321,,-1.2384946710393847,0.1589029516200435,0.13917747214,4.537690377005107,-0.9820065238142205,-0.7954054659606865,0.875197506347468,,0.0238237442897226,0.039426987802551904,0.09203306007999999,-0.11742376536589094,,-2.1450222e-05,3.874302e-06,-5.00679e-06,1.0,1.5556812e-05,1.6771257e-05,-1.5567988e-05,1.0,1.5497208e-06,-1.6760081e-05,-1.6391277e-06,1.0,204,0.626,0,1,0.051,False,-0.26392932048309437,1.0504805913743163
0.636821695996332,15:00:06.468673,14:58:51.203975,0,,0.11612094,-0.0009162426,0.038811356,0.2571938,0.510314,-0.8206284,0.29737034,0.7661949,0.56966317,0.9194685,-0.3905445,0.045308292,,0.046446025,-0.03175123,0.08335483,0.12502038,0.9412479,0.3137233,-0.22240499,-0.28157014,0.9334099,0.96690536,-0.18646887,0.17413619,,0.057333432,1.3212028,0.4325468,0.9967334,0.07903324,-0.016621174,0.04147966,-0.67755234,-0.73430395,-0.06929614,0.73121583,-0.67861736,,-0.071442805,0.29973412,-0.058926586,-0.33042374,-0.4794712,0.8129745,0.85530716,0.21209863,0.4727196,-0.3990862,0.8515407,0.34001273,,-0.00053869776,0.5043785,-0.33204898,-0.2205054,-0.8702284,-0.440545,0.6893982,-0.45856366,0.5607579,-0.69000536,-0.18006082,0.7010497,,1.270188766755202,0.32985336652387726,0.19268573076,2.600574679095071,-0.5427201770683294,-1.012963235822633,-0.4194675618328292,,-1.238479225573636,0.1589029516200435,0.13917487956000002,4.537690377005107,-0.9820065238142205,-0.7954054659606865,0.875197506347468,,0.0238237442897226,0.039426987802551904,0.09203306007999999,-0.11742376536589094,,-2.1450222e-05,3.874302e-06,-5.00679e-06,1.0,1.5556812e-05,1.6771257e-05,-1.5567988e-05,1.0,1.5497208e-06,-1.6760081e-05,-1.6391277e-06,1.0,212,0.65,0,1,0.051,False,-0.2632143878608417,1.0497563883626244
0.662072644001455,15:00:06.493329,14:58:51.203975,0,,0.115732156,-0.0009236783,0.039002717,0.23942985,0.518205,-0.8210584,0.28684762,0.77015156,0.5697235,0.92757314,-0.37192768,0.035751313,,0.0464406,-0.03175147,0.08335662,0.12505335,0.941246,0.31371576,-0.22240975,-0.2815559,0.93341315,0.96690005,-0.1864999,0.1741327,,0.057333432,1.3212028,0.4325468,0.9967334,0.07903324,-0.016621174,0.04147966,-0.67755234,-0.73430395,-0.06929614,0.73121583,-0.67861736,,-0.0710705,0.29989097,-0.05908348,-0.31333616,-0.4888312,0.81416494,0.85502374,0.22783974,0.46585774,-0.41322494,0.84210044,0.34657186,,-0.00053355395,0.5043808,-0.3320499,-0.22053665,-0.87022424,-0.4405375,0.6893858,-0.45858258,0.5607578,-0.69000787,-0.18003266,0.7010545,,1.2715247995424428,0.3286640656612467,0.19265073093,2.5775087853117737,-0.5554273715465154,-0.9962304290479022,-0.4197942499650975,,-1.2384483346421393,0.15891839708579197,0.13917099069000002,4.537690377005107,-0.9820065238142205,-0.7954054659606865,0.875197506347468,,0.0238237442897226,0.039426987802551904,0.09203306007999999,-0.11742376536589094,,-2.1450222e-05,3.874302e-06,-5.00679e-06,1.0,1.5556812e-05,1.6771257e-05,-1.5567988e-05,1.0,1.5497208e-06,-1.6760081e-05,-1.6391277e-06,1.0,220,0.675,0,1,0.051,False,-0.26339312101640555,1.049804668563404
0.6867656349932076,15:00:06.520246,14:58:51.203975,0,,0.1154926,-0.0009456575,0.03909701,0.22461067,0.5244645,-0.82127154,0.27976277,0.77261806,0.56990695,0.9334254,-0.35776854,0.026812568,,0.046435982,-0.031752035,0.083357096,0.1250848,0.94124323,0.31371152,-0.22240838,-0.2815463,0.93341637,0.96689624,-0.18652827,0.17412314,,0.057333432,1.3212028,0.4325468,0.9967334,0.07903324,-0.016621174,0.04147966,-0.67755234,-0.73430395,-0.06929614,0.73121583,-0.67861736,,-0.07083916,0.29995856,-0.05917666,-0.29901305,-0.49620575,0.8150896,0.8552903,0.23942387,0.4595157,-0.42316625,0.8345394,0.3528091,,-0.0005289788,0.50438166,-0.33205044,-0.2205673,-0.87021905,-0.4405325,0.6893779,-0.45860144,0.560752,-0.6900059,-0.18000984,0.70106226,,1.2720962817751356,0.32787634690807577,0.19263906432000003,2.558636690398166,-0.5640354710317381,-0.9822684082030798,-0.4202842821635002,,-1.2384174437106423,0.1589261198186662,0.13916839811,4.537690377005107,-0.9820065238142205,-0.7954054659606865,0.875197506347468,,0.0238237442897226,0.039426987802551904,0.09203306007999999,-0.11742376536589094,,-2.1450222e-05,3.874302e-06,-5.00679e-06,1.0,1.5556812e-05,1.6771257e-05,-1.5567988e-05,1.0,1.5497208e-06,-1.6760081e-05,-1.6391277e-06,1.0,261,0.801,0,1,0.051,False,-0.26392932048309437,1.0495632675595068
0.7136540369974682,15:00:06.642617,14:58:51.437111,0,,0.11387268,-0.0013555884,0.039164007,0.13438839,0.560808,-0.8169665,0.23802334,0.782039,0.57598597,0.9619173,-0.27186307,-0.02838853,,0.046324044,-0.031790055,0.08335191,0.12534273,0.9411518,0.3138828,-0.22237587,-0.28167635,0.9333849,0.96687037,-0.18679297,0.17398328,,0.057363972,1.3212032,0.43254042,0.9967347,0.079012126,-0.016644059,0.041448597,-0.6775548,-0.7343034,-0.06929614,0.73121583,-0.67861736,,-0.06925463,0.2998266,-0.059608884,-0.21123803,-0.5392815,0.8152018,0.85269874,0.3060135,0.42339182,-0.47779012,0.784558,0.39520293,,-0.00044142792,0.5043792,-0.33208096,-0.22082298,-0.87009376,-0.4406518,0.6893316,-0.45885777,0.5605992,-0.68997043,-0.17996201,0.70110947,,1.2738725103362072,0.32099539191714177,0.19272591575000003,2.441420011990317,-0.6117216094498769,-0.888495446438571,-0.4179974652376206,,-1.2379463570053146,0.15894156528441464,0.13914765747000002,4.537690377005107,-0.982143160313986,-0.7952940480569901,0.875197506347468,,0.0238237442897226,0.039426987802551904,0.09203306007999999,-0.11742376536589094,,9.447336e-06,1.1920929e-06,-1.5497208e-06,1.0,-5.58421e-06,-6.016344e-06,5.5767596e-06,1.0,-6.2584877e-07,6.0275197e-06,5.066395e-07,1.0,265,0.813,0,1,0.051,False,-0.2639888982016152,1.050046069567301
0.8360385300038615,15:00:06.661256,14:58:51.437111,0,,0.11350015,-0.0014457703,0.039138675,0.11972529,0.56896824,-0.81359756,0.23214874,0.78072965,0.5801449,0.9652839,-0.2583338,-0.038612247,,0.046313882,-0.031792082,0.083348274,0.12542489,0.9411418,0.3138802,-0.22235546,-0.2816631,0.9333937,0.9668644,-0.18686378,0.17394036,,0.057363972,1.3212032,0.43254042,0.9967347,0.079012126,-0.016644059,0.041448597,-0.6775548,-0.7343034,-0.06929614,0.73121583,-0.67861736,,-0.06888105,0.2997686,-0.059676856,-0.19687553,-0.5484912,0.8126484,0.85198396,0.31443688,0.41863203,-0.48514262,0.7747818,0.40540075,,-0.0004307344,0.5043769,-0.33208048,-0.22090554,-0.87007636,-0.4406448,0.6893228,-0.45890963,0.5605676,-0.6899528,-0.17991401,0.70113915,,1.2745134971647678,0.3193427270820577,0.19276869332000002,2.4204510176418648,-0.6181435249388526,-0.866678020716305,-0.4199575940312319,,-1.2378614069436982,0.15894156528441464,0.13914506489,4.537690377005107,-0.982143160313986,-0.7952940480569901,0.875197506347468,,0.0238237442897226,0.039426987802551904,0.09203306007999999,-0.11742376536589094,,9.447336e-06,1.1920929e-06,-1.5497208e-06,1.0,-5.58421e-06,-6.016344e-06,5.5767596e-06,1.0,-6.2584877e-07,6.0275197e-06,5.066395e-07,1.0,273,0.838,0,1,0.051,False,-0.26386974276457353,1.0500943497680806
0.8546586769953137,15:00:06.690616,14:58:51.437111,0,,0.112871245,-0.0015915483,0.03907889,0.09899342,0.57976466,-0.808748,0.22482947,0.77869236,0.58573866,0.96935654,-0.23981476,-0.05326286,,0.046308927,-0.03179217,0.08334714,0.12546381,0.9411381,0.31387573,-0.22235224,-0.28165233,0.93339777,0.96686006,-0.18689862,0.17392689,,0.057363972,1.3212032,0.43254042,0.9967347,0.079012126,-0.016644059,0.041448597,-0.6775548,-0.7343034,-0.06929614,0.73121583,-0.67861736,,-0.06824902,0.29966277,-0.059775285,-0.17651631,-0.56072456,0.8089685,0.8511521,0.3258211,0.41155884,-0.49435017,0.76120204,0.41974914,,-0.00042569783,0.5043767,-0.3320798,-0.22094369,-0.87006956,-0.44063917,0.6893141,-0.45893323,0.5605589,-0.6899492,-0.17988685,0.70114964,,1.2756332934315302,0.31683283889793473,0.19283739669000002,2.392771945101907,-0.6248387134273592,-0.838675211156385,-0.4188141855682921,,-1.237822793279327,0.15894928801728886,0.13914376860000002,4.537690377005107,-0.982143160313986,-0.7952940480569901,0.875197506347468,,0.0238237442897226,0.039426987802551904,0.09203306007999999,-0.11742376536589094,,9.447336e-06,1.1920929e-06,-1.5497208e-06,1.0,-5.58421e-06,-6.016344e-06,5.5767596e-06,1.0,-6.2584877e-07,6.0275197e-06,5.066395e-07,1.0,281,0.862,0,1,0.051,False,-0.2636910096090097,1.0499012289649627
0.8840345850039739,15:00:06.713890,14:58:51.437111,0,,0.11226006,-0.0017055124,0.039041728,0.079191394,0.5864468,-0.8061073,0.21680218,0.77915853,0.58813995,0.97299826,-0.22134152,-0.06544037,,0.046308056,-0.03178949,0.083348215,0.12546848,0.9411408,0.31386584,-0.22237048,-0.2816382,0.9333977,0.9668553,-0.18690646,0.1739451,,0.057363972,1.3212032,0.43254042,0.9967347,0.079012126,-0.016644059,0.041448597,-0.6775548,-0.7343034,-0.06929614,0.73121583,-0.67861736,,-0.067636535,0.2995941,-0.059865113,-0.15704785,-0.56885934,0.8073011,0.8494665,0.33913547,0.40422,-0.50372875,0.7492571,0.42996642,,-0.0004252877,0.5043791,-0.332078,-0.22094554,-0.87007284,-0.44063175,0.6893002,-0.4589333,0.560576,-0.68996257,-0.17987078,0.70114064,,1.276899821622903,0.31445423717267357,0.19291387780000002,2.3648831826184655,-0.6319438114151621,-0.8142587274121231,-0.4188141855682921,,-1.237822793279327,0.15897245621591152,0.13914376860000002,4.537690377005107,-0.982143160313986,-0.7952940480569901,0.875197506347468,,0.0238237442897226,0.039426987802551904,0.09203306007999999,-0.11742376536589094,,9.447336e-06,1.1920929e-06,-1.5497208e-06,1.0,-5.58421e-06,-6.016344e-06,5.5767596e-06,1.0,-6.2584877e-07,6.0275197e-06,5.066395e-07,1.0,289,0.888,0,1,0.051,False,-0.2635718541719685,1.0498529487641832
0.9073001810029382,15:00:06.734714,14:58:51.437111,0,,0.11184484,-0.0017678589,0.039063066,0.06059447,0.5903788,-0.8048486,0.20734102,0.7812976,0.5887135,0.97639036,-0.202551,-0.075067505,,0.046308286,-0.03178809,0.0833475,0.12547003,0.9411416,0.31386256,-0.2223765,-0.2816335,0.93339765,0.9668536,-0.18690911,0.17395109,,0.057363972,1.3212032,0.43254042,0.9967347,0.079012126,-0.016644059,0.041448597,-0.6775548,-0.7343034,-0.06929614,0.73121583,-0.67861736,,-0.06722419,0.29959157,-0.05994703,-0.1387572,-0.57428217,0.8068125,0.8465441,0.35399184,0.39755863,-0.51391584,0.7381665,0.43703625,,-0.00042558197,0.50437915,-0.33207643,-0.22094615,-0.8700739,-0.44062927,0.68929553,-0.45893332,0.5605817,-0.689967,-0.17986543,0.70113766,,1.2777029858418225,0.3130718679881874,0.19295924795000002,2.3388816296263846,-0.6397320919017923,-0.7945125935183747,-0.4191408737005604,,-1.237822793279327,0.15898017894878574,0.13914506489,4.537690377005107,-0.982143160313986,-0.7952940480569901,0.875197506347468,,0.0238237442897226,0.039426987802551904,0.09203306007999999,-0.11742376536589094,,9.447336e-06,1.1920929e-06,-1.5497208e-06,1.0,-5.58421e-06,-6.016344e-06,5.5767596e-06,1.0,-6.2584877e-07,6.0275197e-06,5.066395e-07,1.0,297,0.912,0,1,0.051,False,-0.2630356547052788,1.0503840309727575
0.9280944789934438,15:00:06.759955,14:58:51.437111,0,,0.11148218,-0.001838088,0.03901875,0.04656352,0.5939414,-0.8031597,0.20382482,0.78146666,0.58971614,0.9778995,-0.19116324,-0.08467224,,0.046308562,-0.031788923,0.08334714,0.12546848,0.9411408,0.31386584,-0.22237048,-0.2816382,0.9333977,0.9668553,-0.18690646,0.1739451,,0.057363972,1.3212032,0.43254042,0.9967347,0.079012126,-0.016644059,0.041448597,-0.6775548,-0.7343034,-0.06929614,0.73121583,-0.67861736,,-0.066858985,0.29953292,-0.059987,-0.12488258,-0.5787417,0.8058923,0.84606314,0.36215147,0.3911822,-0.5182485,0.73068756,0.44442564,,-0.0004257187,0.5043784,-0.332077,-0.22094554,-0.87007284,-0.44063175,0.6893002,-0.4589333,0.560576,-0.68996257,-0.17987078,0.70114064,,1.2783903090676285,0.311751280666695,0.19300980326000003,2.3195901548258084,-0.6417816393982737,-0.7783025092179086,-0.4201209380973663,,-1.237822793279327,0.15897245621591152,0.13914506489,4.537690377005107,-0.982143160313986,-0.7952940480569902,0.8755241944797372,,0.0238237442897226,0.039426987802551904,0.09203306007999999,-0.11742376536589094,,9.447336e-06,1.1920929e-06,-1.5497208e-06,1.0,-5.58421e-06,-6.016344e-06,5.5767596e-06,1.0,-6.2584877e-07,6.0275197e-06,5.066395e-07,1.0,305,0.937,0,1,0.051,False,-0.2636314318904893,1.0499012289649627
0.9533900069945958,15:00:06.785443,14:58:51.437111,0,,0.11091176,-0.0019433945,0.038951874,0.019768389,0.60262585,-0.79777896,0.19543585,0.78021264,0.5941993,0.98051727,-0.16766113,-0.10235125,,0.04631023,-0.031788774,0.083348155,0.12545355,0.9411169,0.3139432,-0.22237411,-0.28171685,0.93337303,0.96685636,-0.1869078,0.17393759,,0.057363972,1.3212032,0.43254042,0.9967347,0.079012126,-0.016644059,0.041448597,-0.6775548,-0.7343034,-0.06929614,0.73121583,-0.67861736,,-0.066284776,0.29944623,-0.06004804,-0.09836077,-0.5892691,0.8019271,0.8438044,0.377812,0.38111967,-0.5275597,0.71415687,0.460066,,-0.00042750625,0.50437903,-0.33207744,-0.22093053,-0.87004,-0.44070408,0.6893018,-0.45896965,0.56054425,-0.6899657,-0.17993678,0.70112056,,1.2793247597454096,0.3098205974481389,0.19310054356000003,2.282894414716017,-0.6465639168900642,-0.7449168573977907,-0.41832415336988893,,-1.2378382387450755,0.15897245621591152,0.13914506489,4.537690377005107,-0.982143160313986,-0.7952123693168497,0.8756875385458713,,0.0238237442897226,0.039426987802551904,0.09203306007999999,-0.11742376536589094,,9.447336e-06,1.1920929e-06,-1.5497208e-06,1.0,-5.58421e-06,-6.016344e-06,5.5767596e-06,1.0,-6.2584877e-07,6.0275197e-06,5.066395e-07,1.0,313,0.962,0,1,0.051,False,-0.2644655199497832,1.049708108161845
0.978871461993549,15:00:06.809413,14:58:51.718836,0,,0.11059141,-0.0020160824,0.038866848,0.0070833582,0.60668486,-0.7949109,0.19343838,0.7790843,0.59632957,0.9810869,-0.15799043,-0.111837715,,0.04631023,-0.031788774,0.083348155,0.12545355,0.94114256,0.31386635,-0.22237411,-0.28164065,0.933396,0.96685636,-0.18689358,0.17395288,,0.057363972,1.3212032,0.43254042,0.9967347,0.079012126,-0.016644059,0.041448597,-0.6775548,-0.7343034,-0.06929614,0.73121583,-0.67861736,,-0.06595849,0.29935384,-0.06005968,-0.08575663,-0.5940834,0.7998192,0.843604,0.3838069,0.37553233,-0.53007364,0.70693505,0.46825716,,-0.00042750625,0.50437903,-0.33207744,-0.22093053,-0.870076,-0.44063303,0.6893018,-0.45892388,0.56058174,-0.6899657,-0.17987952,0.7011352,,1.2798267373822343,0.3085926829211372,0.19316406177,2.2656998393502854,-0.6467005533898296,-0.7287147276864036,-0.4201209380973663,,-1.2378382387450755,0.15897245621591152,0.13914506489,4.537690377005107,-0.982143160313986,-0.7952940480569902,0.8758508826120053,,0.0238237442897226,0.039426987802551904,0.09203306007999999,-0.11742376536589094,,9.447336e-06,1.1920929e-06,-1.5497208e-06,1.0,-5.58421e-06,-6.016344e-06,5.5767596e-06,1.0,-6.2584877e-07,6.0275197e-06,5.066395e-07,1.0,330,1.014,0,1,0.051,False,-0.2630356547052788,1.049804668563404
1.002818570996169,15:00:06.862335,14:58:51.718836,0,,0.10970701,-0.002244562,0.03865376,-0.032971304,0.6109088,-0.7910142,0.17840606,0.78233075,0.5967661,0.9834045,-0.121445686,-0.1347844,,0.046308562,-0.031788923,0.08334714,0.12546848,0.9411919,0.31371212,-0.22237048,-0.28148574,0.93344367,0.9668553,-0.18687806,0.17397553,,0.057363972,1.3212032,0.43254042,0.9967347,0.079012126,-0.016644059,0.041448597,-0.6775548,-0.7343034,-0.06929614,0.73121583,-0.67861736,,-0.065059364,0.29909536,-0.06012691,-0.045977168,-0.6012155,0.79776317,0.83736074,0.41227764,0.35896263,-0.5447138,0.68451965,0.48447886,,-0.0004257187,0.5043784,-0.332077,-0.22094554,-0.8701448,-0.44048962,0.6893002,-0.4588417,0.56065094,-0.68996257,-0.17975625,0.70117,,1.2808306926558835,0.3052178486551011,0.19334813495000003,2.2097126244399177,-0.6546254703762252,-0.6864772010904449,-0.4201209380973663,,-1.237822793279327,0.15897245621591152,0.13914506489,4.537690377005107,-0.982143160313986,-0.7954574055372714,0.8755241944797367,,0.0238237442897226,0.039426987802551904,0.09203306007999999,-0.11742376536589094,,9.447336e-06,1.1920929e-06,-1.5497208e-06,1.0,-5.58421e-06,-6.016344e-06,5.5767596e-06,1.0,-6.2584877e-07,6.0275197e-06,5.066395e-07,1.0,338,1.039,0,1,0.051,False,-0.26327396557936344,1.05014262996886
1.055727566999849,15:00:06.884584,14:58:51.718836,0,,0.10932186,-0.002369672,0.038527817,-0.048366122,0.6115562,-0.78972137,0.17434323,0.78367805,0.5961988,0.9834964,-0.10884687,-0.14452428,,0.046307743,-0.031789042,0.083346605,0.12547596,0.94119114,0.31371188,-0.22236857,-0.2814845,0.93344444,0.96685475,-0.18688448,0.17397165,,0.057363972,1.3212032,0.43254042,0.9967347,0.079012126,-0.016644059,0.041448597,-0.6775548,-0.7343034,-0.06929614,0.73121583,-0.67861736,,-0.06466509,0.2989412,-0.060152147,-0.030628683,-0.60286856,0.7972524,0.83555865,0.42229778,0.35143465,-0.5485468,0.6769151,0.49079764,,-0.00042482492,0.504378,-0.3320768,-0.22095305,-0.87014323,-0.44048896,0.6892994,-0.45884642,0.5606481,-0.68996096,-0.17975189,0.7011727,,1.2812554429639658,0.30360379748438815,0.19342331977000002,2.188324250204496,-0.6555819258745833,-0.6708317450589876,-0.41816080930375477,,-1.2378150705464528,0.15897245621591152,0.13914506489,4.537690377005107,-0.982143160313986,-0.7954574055372714,0.8755241944797367,,0.0238237442897226,0.039426987802551904,0.09203306007999999,-0.11742376536589094,,9.447336e-06,1.1920929e-06,-1.5497208e-06,1.0,-5.58421e-06,-6.016344e-06,5.5767596e-06,1.0,-6.2584877e-07,6.0275197e-06,5.066395e-07,1.0,355,1.092,0,1,0.051,False,-0.2637505873275314,1.0499977893665218
1.078013860998908,15:00:06.934683,14:58:51.718836,0,,0.108215824,-0.002741307,0.03811091,-0.07773442,0.6195364,-0.7811095,0.16886446,0.78034174,0.6021224,0.9825692,-0.08509609,-0.16527718,,0.046308495,-0.0317866,0.083346784,0.12547158,0.9411681,0.31378242,-0.2223826,-0.28155255,0.93342066,0.96685207,-0.18689752,0.17397246,,0.057363972,1.3212032,0.43254042,0.9967347,0.079012126,-0.016644059,0.041448597,-0.6775548,-0.7343034,-0.06929614,0.73121583,-0.67861736,,-0.06352841,0.29844993,-0.060195807,-0.0012664826,-0.6127086,0.7903079,0.83288014,0.43675184,0.33993897,-0.55345196,0.65866226,0.5097597,,-0.00042587626,0.5043793,-0.33207482,-0.22094676,-0.870111,-0.44055575,0.6892909,-0.45888755,0.5606249,-0.68997145,-0.1798028,0.70114934,,1.282776821340188,0.2984450119244062,0.19365794826000002,2.1463862615075913,-0.654898743375756,-0.6295693196255018,-0.4191408737005605,,-1.237822793279327,0.15898790168166,0.13914636118,4.537690377005107,-0.982143160313986,-0.7953757267971309,0.8753608504136028,,0.0238237442897226,0.039426987802551904,0.09203306007999999,-0.11742376536589094,,9.447336e-06,1.1920929e-06,-1.5497208e-06,1.0,-5.58421e-06,-6.016344e-06,5.5767596e-06,1.0,-6.2584877e-07,6.0275197e-06,5.066395e-07,1.0,359,1.104,0,1,0.051,False,-0.26386974276457353,1.0498529487641832
1.1280959860014264,15:00:06.954397,14:58:51.718836,0,,0.10774629,-0.0029093474,0.03794229,-0.08849019,0.6165541,-0.78232384,0.16731748,0.7834458,0.59851265,0.9819239,-0.07793406,-0.17248768,,0.046308793,-0.031787522,0.08334643,0.12547003,0.94116724,0.31378573,-0.2223765,-0.28155726,0.93342066,0.9668536,-0.18689488,0.17396635,,0.057363972,1.3212032,0.43254042,0.9967347,0.079012126,-0.016644059,0.041448597,-0.6775548,-0.7343034,-0.06929614,0.73121583,-0.67861736,,-0.06304652,0.29824042,-0.060227532,0.009510299,-0.6103145,0.79210216,0.8319928,0.44425222,0.33230698,-0.5547049,0.6558629,0.5120022,,-0.00042601296,0.50437844,-0.33207542,-0.22094615,-0.8701099,-0.44055822,0.68929553,-0.45888752,0.5606192,-0.689967,-0.17980817,0.7011523,,1.2834950354974908,0.2962054193908811,0.19374350340000002,2.1308692056897365,-0.653942287877398,-0.6214462622760555,-0.4217543787587089,,-1.237822793279327,0.15898017894878574,0.13914636118,4.537690377005107,-0.982143160313986,-0.7953757267971309,0.8753608504136028,,0.0238237442897226,0.039426987802551904,0.09203306007999999,-0.11742376536589094,,9.447336e-06,1.1920929e-06,-1.5497208e-06,1.0,-5.58421e-06,-6.016344e-06,5.5767596e-06,1.0,-6.2584877e-07,6.0275197e-06,5.066395e-07,1.0,376,1.157,0,1,0.051,False,-0.2632143878608417,1.0499012289649627
1.147829918001662,15:00:07.004764,14:58:51.913299,0,,0.10623125,-0.003394708,0.037415743,-0.10668601,0.6101974,-0.7850332,0.16218284,0.7896448,0.59174126,0.9809766,-0.06418854,-0.18320769,,0.04630933,-0.03178654,0.08334732,0.12546411,0.9411691,0.31378263,-0.22238442,-0.28155375,0.93341976,0.96685266,-0.18689105,0.17397636,,0.057363972,1.3212032,0.43254042,0.9967347,0.079012126,-0.016644059,0.041448597,-0.6775548,-0.7343034,-0.06929614,0.73121583,-0.67861736,,-0.06149313,0.29761606,-0.060300563,0.027736366,-0.6050893,0.7956743,0.828869,0.45885074,0.3200504,-0.5587548,0.65063274,0.5142666,,-0.00042677004,0.5043796,-0.33207506,-0.22093926,-0.8701126,-0.44055638,0.6892917,-0.45888284,0.56062776,-0.68997306,-0.17980717,0.7011466,,1.2861979920034694,0.2886525866398895,0.19407664993,2.100254473940996,-0.6550353798755215,-0.6033207048768254,-0.4214276906264406,,-1.2378305160122014,0.15898790168166,0.13914636118,4.537690377005107,-0.982143160313986,-0.7953757267971309,0.8753608504136028,,0.0238237442897226,0.039426987802551904,0.09203306007999999,-0.11742376536589094,,9.447336e-06,1.1920929e-06,-1.5497208e-06,1.0,-5.58421e-06,-6.016344e-06,5.5767596e-06,1.0,-6.2584877e-07,6.0275197e-06,5.066395e-07,1.0,384,1.183,0,1,0.051,False,-0.26333354329788383,1.0501909101696396
1.1981942510028603,15:00:07.032896,14:58:51.913299,0,,0.10532263,-0.0036976188,0.037112385,-0.111818954,0.60989815,-0.7845513,0.16545716,0.78990877,0.59048104,0.9798574,-0.06378275,-0.18923888,,0.046307825,-0.031786986,0.08334744,0.12535721,0.9411445,0.313899,-0.22244254,-0.28167704,0.9333688,0.96685314,-0.18682897,0.17404023,,0.057363972,1.3212032,0.43254042,0.9967347,0.079012126,-0.016644059,0.041448597,-0.6775548,-0.7343034,-0.06929614,0.73121583,-0.67861736,,-0.060562465,0.29724252,-0.06036148,0.032934085,-0.604824,0.79567784,0.83061063,0.45934397,0.31478426,-0.5558789,0.65053135,0.5175013,,-0.0004252571,0.50437975,-0.33207545,-0.22082724,-0.8700819,-0.44067317,0.6892812,-0.4588875,0.5606368,-0.69001937,-0.17994389,0.70106596,,1.2881363979548999,0.28398033325098365,0.19424127876000002,2.091028116427677,-0.6509362848825584,-0.5944114309666337,-0.41979424996509784,,-1.2378150705464528,0.15898790168166,0.13914636118,4.537690377005107,-0.9822797968137513,-0.7952643088934344,0.8756875385458711,,0.0238237442897226,0.039426987802551904,0.09203306007999999,-0.11742376536589094,,9.447336e-06,1.1920929e-06,-1.5497208e-06,1.0,-5.58421e-06,-6.016344e-06,5.5767596e-06,1.0,-6.2584877e-07,6.0275197e-06,5.066395e-07,1.0,401,1.235,0,1,0.051,False,-0.26351227645344677,1.0500943497680806
1.2263168069912354,15:00:07.083854,14:58:51.913299,0,,0.10417214,-0.0040398836,0.03664562,-0.12402617,0.60664856,-0.7852357,0.17180356,0.7925226,0.58514214,0.9772928,-0.062333494,-0.20251805,,0.04630956,-0.03178916,0.08334887,0.12533917,0.9412471,0.31359857,-0.22243404,-0.2813839,0.93345916,0.9668574,-0.18675399,0.17409694,,0.057363972,1.3212032,0.43254042,0.9967347,0.079012126,-0.016644059,0.041448597,-0.6775548,-0.7343034,-0.06929614,0.73121583,-0.67861736,,-0.059377585,0.29673794,-0.06035202,0.04529117,-0.6017067,0.797432,0.83383447,0.4623821,0.30153424,-0.5501535,0.65126944,0.52266556,,-0.0004268871,0.5043796,-0.3320781,-0.220811,-0.8702268,-0.4403951,0.68929213,-0.45869482,0.56078106,-0.69001365,-0.17973426,0.7011253,,1.2904995542144124,0.27827323365693174,0.19452257369,2.073833541061946,-0.641508366398743,-0.583394834829498,-0.42093765842803754,,-1.2378305160122014,0.15897245621591152,0.13914506489,4.537690377005107,-0.9822797968137513,-0.7955910238539966,0.8753608504136026,,0.0238237442897226,0.039426987802551904,0.09203306007999999,-0.11742376536589094,,9.447336e-06,1.1920929e-06,-1.5497208e-06,1.0,-5.58421e-06,-6.016344e-06,5.5767596e-06,1.0,-6.2584877e-07,6.0275197e-06,5.066395e-07,1.0,409,1.261,0,1,0.051,False,-0.26309523242380006,1.0502391903704191
1.2772878050018335,15:00:07.106715,14:58:51.913299,0,,0.10362925,-0.004129052,0.036423802,-0.1326647,0.5993825,-0.78939265,0.17094314,0.79833424,0.57744324,0.97630864,-0.058335066,-0.20837122,,0.046308726,-0.03178922,0.083348334,0.12534662,0.9412974,0.31344458,-0.2224322,-0.2812302,0.933506,0.96685684,-0.18673202,0.1741235,,0.057363972,1.3212032,0.43254042,0.9967347,0.079012126,-0.016644059,0.041448597,-0.6775548,-0.7343034,-0.06929614,0.73121583,-0.67861736,,-0.05881851,0.29654834,-0.060293842,0.05398275,-0.594797,0.8020613,0.8330462,0.46970233,0.29225624,-0.5505632,0.65237737,0.5208492,,-0.00042599335,0.5043792,-0.33207786,-0.22081849,-0.87029713,-0.4402523,0.68929136,-0.4586079,0.5608531,-0.69001204,-0.17961536,0.7011574,,1.2916347959469234,0.2759023546645448,0.19471960977000002,2.0610424545093897,-0.6394588189022613,-0.5821256687398842,-0.4206109702957691,,-1.237822793279327,0.15897245621591152,0.13914506489,4.537690377005107,-0.9822797968137513,-0.7957543813342777,0.8756875385458709,,0.0238237442897226,0.039426987802551904,0.09203306007999999,-0.11742376536589094,,9.447336e-06,1.1920929e-06,-1.5497208e-06,1.0,-5.58421e-06,-6.016344e-06,5.5767596e-06,1.0,-6.2584877e-07,6.0275197e-06,5.066395e-07,1.0,422,1.3,0,1,0.051,False,-0.2631548101423209,1.0499495091657423
1.3001444510009605,15:00:07.147537,14:58:51.913299,0,,0.103193656,-0.0041612983,0.036168188,-0.14045706,0.5937267,-0.7923134,0.16981453,0.8028343,0.57150674,0.9754153,-0.05427426,-0.21358725,,0.046308562,-0.031788923,0.08334714,0.12546848,0.9413967,0.31309703,-0.22237048,-0.2808757,0.9336274,0.9668553,-0.1867643,0.17409769,,0.057363972,1.3212032,0.43254042,0.9967347,0.079012126,-0.016644059,0.041448597,-0.6775548,-0.7343034,-0.06929614,0.73121583,-0.67861736,,-0.05836385,0.2963669,-0.060165502,0.061824314,-0.58949405,0.80540335,0.8320892,0.47607175,0.28457558,-0.55118537,0.6525737,0.5199444,,-0.0004257187,0.5043784,-0.332077,-0.22094554,-0.87043244,-0.43992093,0.6893002,-0.45847526,0.5609507,-0.68996257,-0.17929804,0.7012873,,1.2923993465014716,0.2739716714459887,0.19496849745000003,2.0492998176742567,-0.637819180905076,-0.5800321764983376,-0.4206109702957689,,-1.237822793279327,0.15897245621591152,0.13914506489,4.537690377005107,-0.982143160313986,-0.7961108354583958,0.875197506347468,,0.0238237442897226,0.039426987802551904,0.09203306007999999,-0.11742376536589094,,9.447336e-06,1.1920929e-06,-1.5497208e-06,1.0,-5.58421e-06,-6.016344e-06,5.5767596e-06,1.0,-6.2584877e-07,6.0275197e-06,5.066395e-07,1.0,430,1.326,0,1,0.051,False,-0.2634526987349264,1.0500943497680806
1.340931789993192,15:00:07.167709,14:58:51.913299,0,,0.10302535,-0.0041822046,0.0359976,-0.14525956,0.5923132,-0.7925054,0.1711182,0.80397034,0.56951743,0.97448367,-0.05288437,-0.21814004,,0.046307743,-0.031789042,0.083346605,0.12547596,0.9414214,0.3130199,-0.22236857,-0.28079826,0.9336512,0.96685475,-0.18675655,0.17410901,,0.057363972,1.3212032,0.43254042,0.9967347,0.079012126,-0.016644059,0.041448597,-0.6775548,-0.7343034,-0.06929614,0.73121583,-0.67861736,,-0.05818243,0.29623893,-0.060072906,0.06668256,-0.58819866,0.8059626,0.83259493,0.4779433,0.27992123,-0.54985374,0.6523745,0.5216017,,-0.00042482492,0.504378,-0.3320768,-0.22095305,-0.87046677,-0.4398492,0.6892994,-0.45843416,0.56098527,-0.68996096,-0.1792364,0.7013047,,1.2924920192959624,0.2731839526928178,0.195091645,2.044057569087143,-0.6352230874095326,-0.5775751072206982,-0.41963090589896346,,-1.2378150705464528,0.15897245621591152,0.13914506489,4.537690377005107,-0.982143160313986,-0.7961925141985363,0.8753608504136023,,0.0238237442897226,0.039426987802551904,0.09203306007999999,-0.11742376536589094,,9.447336e-06,1.1920929e-06,-1.5497208e-06,1.0,-5.58421e-06,-6.016344e-06,5.5767596e-06,1.0,-6.2584877e-07,6.0275197e-06,5.066395e-07,1.0,443,1.366,0,1,0.051,False,-0.2637505873275314,1.0500943497680806
1.3611396689957473,15:00:07.217549,14:58:52.099504,0,,0.10266185,-0.00424543,0.03557855,-0.15845431,0.5884467,-0.7928574,0.17499608,0.8070266,0.5639895,0.97173494,-0.04938042,-0.23085281,,0.046308286,-0.03178809,0.0833475,0.12547003,0.9414488,0.31293997,-0.2223765,-0.2807185,0.93367326,0.9668536,-0.18673849,0.17413425,,0.057363972,1.3212032,0.43254042,0.9967347,0.079012126,-0.016644059,0.041448597,-0.6775548,-0.7343034,-0.06929614,0.73121583,-0.67861736,,-0.05778652,0.29591343,-0.059851468,0.08004483,-0.5846314,0.8073407,0.8340504,0.48281157,0.26693237,-0.54585046,0.65199625,0.5262586,,-0.00042558197,0.50437915,-0.33207643,-0.22094615,-0.8705054,-0.43977627,0.68929553,-0.45838365,0.5610313,-0.689967,-0.17917813,0.7013136,,1.2925692466247047,0.27134594226875236,0.19538719912000002,2.0291695830997423,-0.6272981704231372,-0.5714588196534439,-0.4211010024941718,,-1.237822793279327,0.15898017894878574,0.13914506489,4.537690377005107,-0.982143160313986,-0.7962741929386769,0.8755241944797367,,0.0238237442897226,0.039426987802551904,0.09203306007999999,-0.11742376536589094,,9.447336e-06,1.1920929e-06,-1.5497208e-06,1.0,-5.58421e-06,-6.016344e-06,5.5767596e-06,1.0,-6.2584877e-07,6.0275197e-06,5.066395e-07,1.0,451,1.392,0,1,0.051,False,-0.26297607698675796,1.0500943497680806
1.410959239990916,15:00:07.235087,14:58:52.099504,0,,0.10243924,-0.004292816,0.035330176,-0.16528834,0.5861943,-0.7931305,0.17757833,0.80873764,0.560722,0.97012675,-0.048162073,-0.23777044,,0.04630944,-0.031788446,0.083349586,0.1254551,0.9414506,0.31294045,-0.22238025,-0.2807209,0.9336716,0.96685475,-0.1867256,0.17414203,,0.057363972,1.3212032,0.43254042,0.9967347,0.079012126,-0.016644059,0.041448597,-0.6775548,-0.7343034,-0.06929614,0.73121583,-0.67861736,,-0.057544712,0.29571414,-0.059727807,0.086978905,-0.5824876,0.8081726,0.8350642,0.48500332,0.25969136,-0.5432334,0.65228826,0.52859956,,-0.0004269385,0.5043805,-0.33207786,-0.22093114,-0.87050855,-0.43977755,0.68929714,-0.4583742,0.561037,-0.6899702,-0.17918687,0.7013082,,1.292646473953447,0.270094859543128,0.19556608714,2.0214110551908147,-0.6223792564315813,-0.5686088500147078,-0.42093765842803754,,-1.2378382387450755,0.15898017894878574,0.13914376860000002,4.537690377005107,-0.982143160313986,-0.7962741929386769,0.8755241944797367,,0.0238237442897226,0.039426987802551904,0.09203306007999999,-0.11742376536589094,,9.447336e-06,1.1920929e-06,-1.5497208e-06,1.0,-5.58421e-06,-6.016344e-06,5.5767596e-06,1.0,-6.2584877e-07,6.0275197e-06,5.066395e-07,1.0,464,1.432,0,1,0.051,False,-0.26327396557936344,1.0495632675595068
1.4285216389980633,15:00:07.278462,14:58:52.099504,0,,0.1017733,-0.0043958724,0.0347192,-0.17947687,0.57791996,-0.7961134,0.18055934,0.814858,0.55082166,0.96705043,-0.044886053,-0.25059715,,0.04630889,-0.03178943,0.08334869,0.125461,0.94147444,0.3128666,-0.22237226,-0.28064814,0.9336954,0.9668558,-0.18671522,0.17414731,,0.057363972,1.3212032,0.43254042,0.9967347,0.079012126,-0.016644059,0.041448597,-0.6775548,-0.7343034,-0.06929614,0.73121583,-0.67861736,,-0.056831926,0.2952402,-0.059420016,0.101360105,-0.57451594,0.81219304,0.83572614,0.49207184,0.24377683,-0.539711,0.6540617,0.53001446,,-0.00042618148,0.5043794,-0.33207825,-0.22093803,-0.8705418,-0.43970826,0.689301,-0.45833308,0.56106585,-0.6899641,-0.17913057,0.7013285,,1.2931870652546427,0.2667818071400857,0.19603404783000003,2.0042164798250837,-0.6151375219440128,-0.5651209437944535,-0.4191408737005603,,-1.2378305160122014,0.15897245621591152,0.13914376860000002,4.537690377005107,-0.982143160313986,-0.7963558716788174,0.8753608504136026,,0.0238237442897226,0.039426987802551904,0.09203306007999999,-0.11742376536589094,,9.447336e-06,1.1920929e-06,-1.5497208e-06,1.0,-5.58421e-06,-6.016344e-06,5.5767596e-06,1.0,-6.2584877e-07,6.0275197e-06,5.066395e-07,1.0,472,1.457,0,1,0.051,False,-0.26297607698675796,1.05014262996886
1.471862869002507,15:00:07.298538,14:58:52.099504,0,,0.10146625,-0.004427761,0.034472167,-0.18419841,0.5741811,-0.7977387,0.18017054,0.81759846,0.54687387,0.9662348,-0.04299581,-0.25405094,,0.046308056,-0.03178949,0.083348215,0.12546848,0.9414735,0.31286636,-0.22237048,-0.28064695,0.9336962,0.9668553,-0.18672167,0.1741434,,0.057363972,1.3212032,0.43254042,0.9967347,0.079012126,-0.016644059,0.041448597,-0.6775548,-0.7343034,-0.06929614,0.73121583,-0.67861736,,-0.056506086,0.29505754,-0.05929045,0.10613259,-0.57094646,0.8140983,0.8351498,0.49554583,0.238661,-0.53968567,0.6545643,0.52941936,,-0.0004252877,0.5043791,-0.332078,-0.22094554,-0.8705402,-0.43970764,0.6893002,-0.4583378,0.561063,-0.68996257,-0.1791262,0.70133126,,1.2935191427682342,0.2652758742296119,0.19625052826000003,1.997506401633579,-0.6139077934461239,-0.5640817364242076,-0.42028428216350044,,-1.237822793279327,0.15897245621591152,0.13914376860000002,4.537690377005107,-0.982143160313986,-0.7963558716788174,0.8753608504136026,,0.0238237442897226,0.039426987802551904,0.09203306007999999,-0.11742376536589094,,9.447336e-06,1.1920929e-06,-1.5497208e-06,1.0,-5.58421e-06,-6.016344e-06,5.5767596e-06,1.0,-6.2584877e-07,6.0275197e-06,5.066395e-07,1.0,489,1.509,0,1,0.051,False,-0.2631548101423209,1.0499495091657423
1.4919621209992329,15:00:07.354434,14:58:52.099504,0,,0.10071029,-0.004424602,0.033866256,-0.20209002,0.56457,-0.80026275,0.17890328,0.8246542,0.5365994,0.9628881,-0.03472832,-0.26765794,,0.046309724,-0.03178934,0.08334923,0.12545355,0.94150084,0.31278992,-0.22237411,-0.28057307,0.9337175,0.96685636,-0.18669453,0.17416644,,0.057363972,1.3212032,0.43254042,0.9967347,0.079012126,-0.016644059,0.041448597,-0.6775548,-0.7343034,-0.06929614,0.73121583,-0.67861736,,-0.055704232,0.29466555,-0.05891367,0.124237165,-0.56204253,0.81772447,0.8329218,0.5069548,0.22189663,-0.5392647,0.65353274,0.5311201,,-0.00042707523,0.50437975,-0.33207846,-0.22093053,-0.8705793,-0.4396378,0.6893018,-0.45828253,0.5611062,-0.6899657,-0.17907764,0.7013405,,1.294577157172003,0.2620863855525572,0.19682219215000002,1.9740211279633122,-0.6078957874564446,-0.55738574308689,-0.41963090589896335,,-1.2378382387450755,0.15897245621591152,0.13914376860000002,4.537690377005107,-0.982143160313986,-0.7964375504189579,0.8755241944797365,,0.0238237442897226,0.039426987802551904,0.09203306007999999,-0.11742376536589094,,9.447336e-06,1.1920929e-06,-1.5497208e-06,1.0,-5.58421e-06,-6.016344e-06,5.5767596e-06,1.0,-6.2584877e-07,6.0275197e-06,5.066395e-07,1.0,497,1.535,0,1,0.051,False,-0.26232072208302704,1.0501909101696396
1.5478680050000548,15:00:07.384717,14:58:52.099504,0,,0.100359574,-0.0043821633,0.033473313,-0.2130972,0.5624711,-0.79888415,0.17988142,0.826274,0.53377324,0.9603293,-0.029958934,-0.27725485,,0.046308354,-0.031790413,0.0833478,0.12546693,0.9414981,0.31279275,-0.22236437,-0.28057536,0.93371916,0.96685684,-0.18670481,0.17415261,,0.057363972,1.3212032,0.43254042,0.9967347,0.079012126,-0.016644059,0.041448597,-0.6775548,-0.7343034,-0.06929614,0.73121583,-0.67861736,,-0.055323407,0.2944307,-0.05863254,0.13541085,-0.56033456,0.8171224,0.83239484,0.5116493,0.21291733,-0.53738505,0.6513372,0.53570247,,-0.0004254244,0.50437826,-0.3320786,-0.22094493,-0.870575,-0.439639,0.6893048,-0.45829195,0.56109476,-0.6899581,-0.17907426,0.7013489,,1.2949092346855946,0.260634511772203,0.19718385706000002,1.9610203514672717,-0.6024303274658269,-0.550080720654506,-0.41832415336988926,,-1.237822793279327,0.1589647334830373,0.13914376860000002,4.537690377005107,-0.982143160313986,-0.7964375504189579,0.8755241944797365,,0.0238237442897226,0.039426987802551904,0.09203306007999999,-0.11742376536589094,,9.447336e-06,1.1920929e-06,-1.5497208e-06,1.0,-5.58421e-06,-6.016344e-06,5.5767596e-06,1.0,-6.2584877e-07,6.0275197e-06,5.066395e-07,1.0,510,1.575,0,1,0.051,False,-0.26243987752006825,1.0499012289649627
1.5781387040042318,15:00:07.418255,14:58:52.318496,0,,0.09997091,-0.0042948425,0.032940567,-0.22842297,0.5576122,-0.79805493,0.17842662,0.82982,0.5287368,0.95707214,-0.021618694,-0.2890429,,0.046307907,-0.03178922,0.08334696,0.12559031,0.94157267,0.31251878,-0.2223086,-0.28029236,0.9338174,0.96685374,-0.18675405,0.1741176,,0.057363972,1.3212032,0.43254042,0.9967347,0.079012126,-0.016644059,0.041448597,-0.6775548,-0.7343034,-0.06929614,0.73121583,-0.67861736,,-0.05489372,0.29412758,-0.058225118,0.15095104,-0.55616486,0.8172481,0.8299499,0.5204192,0.20086564,-0.537026,0.6479541,0.5401468,,-0.0004250129,0.5043782,-0.33207715,-0.22107257,-0.8706753,-0.4393762,0.68930906,-0.45820513,0.5611605,-0.68991303,-0.17880878,0.70146096,,1.2950019074800854,0.25908224246448386,0.19768811387000002,1.9421482565536645,-0.5973747769745056,-0.541624657109627,-0.4186508415021577,,-1.237822793279327,0.15897245621591152,0.13914376860000002,4.537690377005107,-0.9820065238142205,-0.7967123258029356,0.8755241944797372,,0.0238237442897226,0.039426987802551904,0.09203306007999999,-0.11742376536589094,,9.447336e-06,1.1920929e-06,-1.5497208e-06,1.0,-5.58421e-06,-6.016344e-06,5.5767596e-06,1.0,-6.2584877e-07,6.0275197e-06,5.066395e-07,1.0,518,1.6,0,1,0.051,False,-0.2631548101423209,1.0499495091657423
1.6116863119968912,15:00:07.449728,14:58:52.318496,0,,0.099714845,-0.004202828,0.032520354,-0.23716864,0.5546393,-0.79757524,0.1765008,0.8319367,0.52605,0.9553003,-0.016010255,-0.29520372,,0.046308316,-0.031789728,0.0833469,0.12564248,0.9415343,0.31261322,-0.22241527,-0.2803561,0.93377286,0.9668224,-0.1868515,0.17418689,,0.057363972,1.3212032,0.43254042,0.9967347,0.079012126,-0.016644059,0.041448597,-0.6775548,-0.7343034,-0.06929614,0.73121583,-0.67861736,,-0.0546052,0.29390132,-0.057884265,0.15981488,-0.55365384,0.8172678,0.82786596,0.52611524,0.19452675,-0.5376775,0.6454999,0.54243225,,-0.0004253433,0.50437784,-0.33207756,-0.22110747,-0.8706176,-0.43947285,0.68922037,-0.4583133,0.5611811,-0.6899904,-0.1788123,0.7013839,,1.2948937892198462,0.25800105986209243,0.19810163038000003,1.9308249996055002,-0.595598502477555,-0.5362937544260138,-0.4201209380973664,,-1.237822793279327,0.15898017894878574,0.13914376860000002,4.537900066948591,-0.9820065238142205,-0.7967940045430761,0.8756875385458711,,0.0238237442897226,0.039426987802551904,0.09203306007999999,-0.11742376536589094,,9.447336e-06,1.1920929e-06,-1.5497208e-06,1.0,-5.58421e-06,-6.016344e-06,5.5767596e-06,1.0,-6.2584877e-07,6.0275197e-06,5.066395e-07,1.0,531,1.64,0,1,0.051,False,-0.26339312101640555,1.0503840309727575
1.6431438549916493,15:00:07.488176,14:58:52.318496,0,,0.09949638,-0.0041230023,0.032087922,-0.24814074,0.5492653,-0.797956,0.17406115,0.83559275,0.5210444,0.9529581,-0.009600967,-0.3029505,,0.046309352,-0.031794287,0.083346546,0.12568842,0.94149244,0.3127208,-0.22249767,-0.28043872,0.93372846,0.9667975,-0.1869385,0.17423186,,0.057363972,1.3212032,0.43254042,0.9967347,0.079012126,-0.016644059,0.041448597,-0.6775548,-0.7343034,-0.06929614,0.73121583,-0.67861736,,-0.054353155,0.2936556,-0.057541914,0.17094478,-0.54881704,0.8182773,0.8251488,0.5335914,0.18549843,-0.53843045,0.64349055,0.54407036,,-0.00042578927,0.50437504,-0.33208132,-0.22113988,-0.87055564,-0.43957937,0.6891503,-0.45842135,0.5611789,-0.69005007,-0.1788372,0.7013189,,1.294577157172003,0.25706660918431123,0.19850607286000002,1.9169854633355217,-0.5932756819815425,-0.5321436320184514,-0.42044762622963494,,-1.237822793279327,0.15895701075016308,0.13914247231000001,4.538109756892076,-0.9820065238142205,-0.7968756832832165,0.8758508826120055,,0.0238237442897226,0.039426987802551904,0.09203306007999999,-0.11742376536589094,,9.447336e-06,1.1920929e-06,-1.5497208e-06,1.0,-5.58421e-06,-6.016344e-06,5.5767596e-06,1.0,-6.2584877e-07,6.0275197e-06,5.066395e-07,1.0,539,1.666,0,1,0.051,False,-0.2630356547052788,1.0497563883626244
1.6816094550013077,15:00:07.510139,14:58:52.318496,0,,0.09934808,-0.0040611625,0.031752735,-0.25688994,0.54521024,-0.79796827,0.17381424,0.8382783,0.51679593,0.95068204,-0.005938709,-0.31011066,,0.04630866,-0.031794973,0.08334446,0.12581621,0.9415898,0.31237626,-0.22242796,-0.28008765,0.9338504,0.9667969,-0.18697475,0.17419624,,0.057363972,1.3212032,0.43254042,0.9967347,0.079012126,-0.016644059,0.041448597,-0.6775548,-0.7343034,-0.06929614,0.73121583,-0.67861736,,-0.05417876,0.2934639,-0.05727547,0.17984818,-0.54507345,0.8188709,0.82385147,0.5383312,0.17739289,-0.53751594,0.6427242,0.54587746,,-0.00042475716,0.5043731,-0.33208084,-0.22127382,-0.87068796,-0.43924975,0.6891629,-0.45829335,0.5612679,-0.6899945,-0.17852074,0.70145416,,1.2943300297200278,0.2564256223557506,0.19880681214,1.9069203460482644,-0.5897231329876409,-0.5295680219251406,-0.42028428216350067,,-1.2378150705464528,0.15894928801728886,0.13914247231000001,4.538109756892076,-0.981869887314455,-0.7972321374073346,0.8753608504136026,,0.0238237442897226,0.039426987802551904,0.09203306007999999,-0.11742376536589094,,9.447336e-06,1.1920929e-06,-1.5497208e-06,1.0,-5.58421e-06,-6.016344e-06,5.5767596e-06,1.0,-6.2584877e-07,6.0275197e-06,5.066395e-07,1.0,552,1.706,0,1,0.051,False,-0.26381016504605226,1.0499495091657423
1.7035751789953792,15:00:07.549594,14:58:52.318496,0,,0.09916213,-0.0038951635,0.030982614,-0.26719907,0.541696,-0.79697555,0.18375197,0.84051174,0.5096813,0.9459598,-0.010259569,-0.3241218,,0.046307363,-0.03179524,0.0833469,0.12581776,0.9416416,0.31221914,-0.22243398,-0.27993035,0.9338961,0.9667952,-0.1869489,0.17423284,,0.057363972,1.3212032,0.43254042,0.9967347,0.079012126,-0.016644059,0.041448597,-0.6775548,-0.7343034,-0.06929614,0.73121583,-0.67861736,,-0.053932417,0.29303053,-0.056637704,0.19047636,-0.5412315,0.81901604,0.82786185,0.5369408,0.16229375,-0.5276016,0.647119,0.55033946,,-0.0004237585,0.5043752,-0.33208227,-0.22127444,-0.8707608,-0.43910503,0.68915826,-0.45820168,0.5613485,-0.6899989,-0.17840078,0.7014803,,1.293580924631228,0.25523632149312003,0.19945754972000002,1.900419957800244,-0.5766060290101588,-0.5304626918631296,-0.42093765842803776,,-1.2378150705464528,0.15895701075016308,0.13913987973000003,4.538109756892076,-0.981869887314455,-0.7973954948876159,0.8756875385458709,,0.0238237442897226,0.039426987802551904,0.09203306007999999,-0.11742376536589094,,9.447336e-06,1.1920929e-06,-1.5497208e-06,1.0,-5.58421e-06,-6.016344e-06,5.5767596e-06,1.0,-6.2584877e-07,6.0275197e-06,5.066395e-07,1.0,560,1.731,0,1,0.051,False,-0.26285692154971585,1.0499012289649627
1.7429723880050005,15:00:07.580815,14:58:52.318496,0,,0.09908842,-0.0037776083,0.03049761,-0.27245355,0.54011375,-0.7962702,0.19132906,0.8414639,0.5053033,0.94295406,-0.014678031,-0.3325994,,0.046307534,-0.03179542,0.08334726,0.12593214,0.94174147,0.3118717,-0.22237405,-0.2795769,0.9340162,0.96679413,-0.18697488,0.17421108,,0.057363972,1.3212032,0.43254042,0.9967347,0.079012126,-0.016644059,0.041448597,-0.6775548,-0.7343034,-0.06929614,0.73121583,-0.67861736,,-0.05382057,0.29276398,-0.056224298,0.19593498,-0.5393044,0.8189996,0.8311953,0.53448516,0.15310134,-0.52031136,0.6507507,0.55299157,,-0.00042394604,0.5043754,-0.33208263,-0.22139397,-0.87089723,-0.43877414,0.68916786,-0.45806423,0.5614489,-0.689951,-0.17808762,0.701607,,1.2930248878642838,0.25464167106180474,0.19986458478000002,1.8985327483088836,-0.567724656525405,-0.5322323800139793,-0.42110100249417204,,-1.237822793279327,0.15895701075016308,0.13913858344000002,4.538109756892076,-0.9817332508146895,-0.7977519490117341,0.8755241944797367,,0.0238237442897226,0.039426987802551904,0.09203306007999999,-0.11742376536589094,,9.447336e-06,1.1920929e-06,-1.5497208e-06,1.0,-5.58421e-06,-6.016344e-06,5.5767596e-06,1.0,-6.2584877e-07,6.0275197e-06,5.066395e-07,1.0,577,1.784,0,1,0.051,False,-0.26202283349042155,1.049804668563404
1.7742266900022514,15:00:07.627734,14:58:52.496244,0,,0.09905969,-0.0036694258,0.02986601,-0.27863184,0.53785276,-0.79566234,0.20555574,0.84267116,0.49764654,0.9381425,-0.024892926,-0.34535387,,0.046307847,-0.031795897,0.08334887,0.12592469,0.941768,0.31179503,-0.22237593,-0.27950183,0.9340383,0.9667947,-0.1869542,0.1742303,,0.057363972,1.3212032,0.43254042,0.9967347,0.079012126,-0.016644059,0.041448597,-0.6775548,-0.7343034,-0.06929614,0.73121583,-0.67861736,,-0.05374184,0.292382,-0.055715036,0.20244199,-0.5362392,0.8194295,0.83783716,0.5280425,0.13856427,-0.5069972,0.6584973,0.5561791,,-0.0004244088,0.5043765,-0.33208385,-0.22138648,-0.87093467,-0.43870366,0.68916863,-0.45801365,0.56148916,-0.6899526,-0.17803468,0.70161885,,1.2921136053851254,0.2539311796373761,0.20033643434,1.899161818139337,-0.5525580050514411,-0.5379837893728965,-0.42028428216350056,,-1.2378305160122014,0.15895701075016308,0.13913728715,4.538109756892076,-0.9817332508146895,-0.7978336277518746,0.8756875385458711,,0.0238237442897226,0.039426987802551904,0.09203306007999999,-0.11742376536589094,,9.447336e-06,1.1920929e-06,-1.5497208e-06,1.0,-5.58421e-06,-6.016344e-06,5.5767596e-06,1.0,-6.2584877e-07,6.0275197e-06,5.066395e-07,1.0,585,1.809,0,1,0.051,False,-0.2629164992682367,1.049708108161845
1.8211694339988753,15:00:07.656125,14:58:52.496244,0,,0.09909211,-0.0036042333,0.029371351,-0.28338322,0.53833455,-0.79365605,0.21561885,0.8421583,0.49424455,0.93445307,-0.031066686,-0.3547287,,0.04630594,-0.031797923,0.083346605,0.12594399,0.9418143,0.31164703,-0.22235823,-0.27935505,0.93408644,0.9667963,-0.18693988,0.17423698,,0.057363972,1.3212032,0.43254042,0.9967347,0.079012126,-0.016644059,0.041448597,-0.6775548,-0.7343034,-0.06929614,0.73121583,-0.67861736,,-0.053734876,0.29206616,-0.055327494,0.20744747,-0.5362259,0.8181854,0.84235066,0.52318585,0.12931336,-0.4974042,0.66237324,0.5602238,,-0.0004220009,0.50437385,-0.33208436,-0.22140776,-0.87099934,-0.4385644,0.68917555,-0.45793608,0.561544,-0.6899389,-0.17791766,0.70166206,,1.291101927378602,0.25349870659641954,0.20068902522,1.8993715080828215,-0.5419003580697368,-0.5394049779887073,-0.42012093809736606,,-1.2378073478135787,0.15894156528441464,0.13913728715,4.538109756892076,-0.9817332508146895,-0.7979969852321557,0.8753608504136026,,0.0238237442897226,0.039426987802551904,0.09203306007999999,-0.11742376536589094,,9.447336e-06,1.1920929e-06,-1.5497208e-06,1.0,-5.58421e-06,-6.016344e-06,5.5767596e-06,1.0,-6.2584877e-07,6.0275197e-06,5.066395e-07,1.0,598,1.849,0,1,0.051,False,-0.26232072208302704,1.0502874705711984
1.849560182003188,15:00:07.694290,14:58:52.496244,0,,0.099239975,-0.003540337,0.028801262,-0.28432956,0.5381259,-0.79345906,0.22696006,0.84187317,0.48963106,0.9314751,-0.04086706,-0.36150262,,0.04630655,-0.031799264,0.08334786,0.12593497,0.9418398,0.31157362,-0.22235402,-0.2792847,0.9341085,0.9667984,-0.1869166,0.17425007,,0.057363972,1.3212032,0.43254042,0.9967347,0.079012126,-0.016644059,0.041448597,-0.6775548,-0.7343034,-0.06929614,0.73121583,-0.67861736,,-0.053836983,0.29168788,-0.054883204,0.20860018,-0.5352358,0.8185405,0.8480298,0.5158972,0.121224925,-0.4871667,0.66885924,0.5615122,,-0.00042260037,0.50437415,-0.33208618,-0.22139964,-0.8710357,-0.43849635,0.68918097,-0.45788547,0.5615786,-0.68993604,-0.17787006,0.7016769,,1.2894260943448952,0.253205242747199,0.20107920851000002,1.9046137566699346,-0.5324724395859214,-0.5456225960212302,-0.4207743143619034,,-1.2378150705464528,0.15893384255154042,0.13913599086,4.538109756892076,-0.9817332508146895,-0.7980786639722962,0.8755241944797365,,0.0238237442897226,0.039426987802551904,0.09203306007999999,-0.11742376536589094,,9.447336e-06,1.1920929e-06,-1.5497208e-06,1.0,-5.58421e-06,-6.016344e-06,5.5767596e-06,1.0,-6.2584877e-07,6.0275197e-06,5.066395e-07,1.0,606,1.875,0,1,0.051,False,-0.26386974276457353,1.0499012289649627
1.8877086180000333,15:00:07.719458,14:58:52.622540,0,,0.09939079,-0.0034914315,0.028397083,-0.28526178,0.5374841,-0.7935594,0.23325318,0.84199977,0.48644543,0.9296337,-0.046336085,-0.36556038,,0.04630688,-0.0317998,0.08334941,0.12592751,0.9418917,0.31142002,-0.2223559,-0.2791333,0.9341533,0.96679896,-0.18688166,0.17428452,,0.057363972,1.3212032,0.43254042,0.9967347,0.079012126,-0.016644059,0.041448597,-0.6775548,-0.7343034,-0.06929614,0.73121583,-0.67861736,,-0.05395521,0.29141936,-0.054563135,0.20966065,-0.5341605,0.8189719,0.8510684,0.5120573,0.11610319,-0.4813783,0.6726588,0.5619654,,-0.00042306312,0.50437516,-0.33208743,-0.22139214,-0.8711089,-0.4383547,0.6891818,-0.457789,0.56165624,-0.68993765,-0.17775981,0.70170325,,1.288005111496038,0.2531743518157021,0.20135661457,1.9073397259352334,-0.5274168890946002,-0.5497450584579979,-0.4204476262296347,,-1.237822793279327,0.15893384255154042,0.13913469457000002,4.538109756892076,-0.9817332508146895,-0.7982420214525775,0.8758508826120053,,0.0238237442897226,0.039426987802551904,0.09203306007999999,-0.11742376536589094,,9.447336e-06,1.1920929e-06,-1.5497208e-06,1.0,-5.58421e-06,-6.016344e-06,5.5767596e-06,1.0,-6.2584877e-07,6.0275197e-06,5.066395e-07,1.0,619,1.915,0,1,0.051,False,-0.2626781883941529,1.0502874705711984
1.9128357879963005,15:00:07.758710,14:58:52.622540,0,,0.09959138,-0.0035122037,0.028076768,-0.28674245,0.5361046,-0.7939588,0.24030831,0.8425138,0.48210183,0.9273785,-0.05255586,-0.370415,,0.046260603,-0.031825896,0.08331722,0.12596041,0.9418871,0.3114205,-0.22240368,-0.27911863,0.9341463,0.96678364,-0.18692648,0.17432117,,0.05734948,1.3212014,0.43254632,0.9967346,0.07901348,-0.016642585,0.041450597,-0.67755467,-0.7343034,-0.06929614,0.73121583,-0.67861736,,-0.05411496,0.29115635,-0.054346047,0.21129853,-0.5322925,0.8197668,0.85436285,0.5079821,0.10962807,-0.47478104,0.6772141,0.5621068,,-0.00035559863,0.5043382,-0.33208916,-0.2214169,-0.87109953,-0.4383608,0.6891391,-0.45782018,0.5616831,-0.6899723,-0.17772546,0.7016779,,1.2866459105101744,0.2532670246101928,0.2015601321,1.909856005257048,-0.5212682466051554,-0.5548405428644774,-0.4206109702957691,,-1.2378305160122014,0.15893384255154042,0.13913469457000002,4.538109756892076,-0.9817332508146895,-0.7982420214525775,0.8758508826120053,,0.0238237442897226,0.039426987802551904,0.09203306007999999,-0.11742376536589094,,-5.4761767e-06,5.6624413e-06,-4.053116e-06,1.0,-4.23193e-06,-4.5485795e-06,4.220754e-06,1.0,-5.066395e-07,4.5597553e-06,3.874302e-07,1.0,627,1.94,0,1,0.051,False,-0.26351227645344677,1.049514987358727
1.952120111003751,15:00:07.781326,14:58:52.622540,0,,0.0997304,-0.0035023987,0.027858198,-0.28727892,0.5356167,-0.79409415,0.24566764,0.8425107,0.47939864,0.92580694,-0.05736211,-0.37361932,,0.046262816,-0.031824794,0.08331907,0.12593953,0.9419161,0.31134096,-0.22241533,-0.27904123,0.93416667,0.96678364,-0.1868955,0.17435417,,0.05734948,1.3212014,0.43254632,0.9967346,0.07901348,-0.016642585,0.041450597,-0.67755467,-0.7343034,-0.06929614,0.73121583,-0.67861736,,-0.054236136,0.2909963,-0.05418203,0.2119453,-0.5314229,0.82016397,0.8569327,0.50452447,0.10545819,-0.46983567,0.6804739,0.56232524,,-0.00035814318,0.50434,-0.33208925,-0.221395,-0.87114114,-0.43828908,0.6891369,-0.45776013,0.5617348,-0.6899816,-0.1776759,0.7016813,,1.285703737099519,0.25339831106905464,0.20168068707000003,1.9123722845788622,-0.5167592421128957,-0.5585173336864593,-0.4206109702957691,,-1.237853684210824,0.15894156528441464,0.13913469457000002,4.538109756892076,-0.9817332508146895,-0.798323700192718,0.8756875385458711,,0.0238237442897226,0.039426987802551904,0.09203306007999999,-0.11742376536589094,,-5.4761767e-06,5.6624413e-06,-4.053116e-06,1.0,-4.23193e-06,-4.5485795e-06,4.220754e-06,1.0,-5.066395e-07,4.5597553e-06,3.874302e-07,1.0,644,1.993,0,1,0.051,False,-0.2637505873275314,1.0499495091657423
1.9747592490020907,15:00:07.836952,14:58:52.622540,0,,0.10012111,-0.003475532,0.027439266,-0.28571838,0.53807884,-0.79299194,0.2533301,0.8404592,0.47901142,0.92422354,-0.064026386,-0.3764463,,0.046267353,-0.031823125,0.08332133,0.12601814,0.9419449,0.3112221,-0.2223708,-0.2789179,0.9342141,0.96678364,-0.18693459,0.17431226,,0.05734948,1.3212014,0.43254632,0.9967346,0.07901348,-0.016642585,0.041450597,-0.67755467,-0.7343034,-0.06929614,0.73121583,-0.67861736,,-0.054592274,0.2906877,-0.053855218,0.21049699,-0.53334075,0.8192916,0.86094916,0.49813822,0.103077106,-0.46309566,0.68367094,0.56403583,,-0.00036309357,0.50434196,-0.33208916,-0.22147763,-0.8711789,-0.43817225,0.6891458,-0.45773667,0.56174296,-0.6899462,-0.17755108,0.7017478,,1.2833019671756352,0.25401612969899257,0.20191013040000003,1.9190823627703668,-0.5122502376206363,-0.5622758032485818,-0.4207743143619035,,-1.2379000206080693,0.15894928801728886,0.13913469457000002,4.538109756892076,-0.9815966143149242,-0.7984351180964144,0.8756875385458711,,0.0238237442897226,0.039426987802551904,0.09203306007999999,-0.11742376536589094,,-5.4761767e-06,5.6624413e-06,-4.053116e-06,1.0,-4.23193e-06,-4.5485795e-06,4.220754e-06,1.0,-5.066395e-07,4.5597553e-06,3.874302e-07,1.0,648,2.005,0,1,0.051,False,-0.26327396557936344,1.0499495091657423
2.030381154996576,15:00:07.859751,14:58:52.622540,0,,0.100254506,-0.003470838,0.027337044,-0.28445053,0.5393021,-0.7926166,0.25711453,0.8393961,0.47885922,0.9235693,-0.067581505,-0.3774292,,0.046268478,-0.03182393,0.08332151,0.1260091,0.94194496,0.31122565,-0.22236657,-0.27892384,0.9342133,0.96678585,-0.18692556,0.17431003,,0.05734948,1.3212014,0.43254632,0.9967346,0.07901348,-0.016642585,0.041450597,-0.67755467,-0.7343034,-0.06929614,0.73121583,-0.67861736,,-0.054717097,0.29060882,-0.05377481,0.20927596,-0.53427416,0.8189962,0.8629958,0.49475825,0.102237694,-0.45982808,0.68539435,0.56461734,,-0.000364124,0.5043415,-0.33208996,-0.2214695,-0.87117946,-0.43817535,0.6891513,-0.45773196,0.5617401,-0.6899433,-0.17756079,0.7017481,,1.2826378121484519,0.254270979883842,0.20195161168000003,1.922647091809604,-0.5097907806248584,-0.5641996467749768,-0.42093765842803776,,-1.2379077433409436,0.15894156528441464,0.13913469457000002,4.538109756892076,-0.9815966143149242,-0.7984351180964144,0.8756875385458711,,0.0238237442897226,0.039426987802551904,0.09203306007999999,-0.11742376536589094,,-5.4761767e-06,5.6624413e-06,-4.053116e-06,1.0,-4.23193e-06,-4.5485795e-06,4.220754e-06,1.0,-5.066395e-07,4.5597553e-06,3.874302e-07,1.0,665,2.058,0,1,0.051,False,-0.26351227645344677,1.0496115477602863
2.0531752959941514,15:00:07.902553,14:58:52.793984,0,,0.10050592,-0.003424555,0.02717495,-0.28226244,0.54060304,-0.79251254,0.2642913,0.8379563,0.47747162,0.9222138,-0.07468185,-0.37940043,,0.04627017,-0.031823363,0.08332443,0.12598826,0.9419486,0.31122303,-0.2223782,-0.27892277,0.9342109,0.9667859,-0.18690881,0.17432776,,0.05734948,1.3212014,0.43254632,0.9967346,0.07901348,-0.016642585,0.041450597,-0.67755467,-0.7343034,-0.06929614,0.73121583,-0.67861736,,-0.0549549,0.2905081,-0.053616956,0.20718516,-0.5350013,0.81905305,0.8668067,0.48854485,0.09985022,-0.45356417,0.6892732,0.56496197,,-0.00036623736,0.504344,-0.33209103,-0.2214476,-0.8711853,-0.43817475,0.689149,-0.4577178,0.5617544,-0.68995255,-0.17756855,0.70173705,,1.2815797977446832,0.2549428576438995,0.20202938908,1.929147480057624,-0.5047352301335369,-0.5690572178730096,-0.42142769062644025,,-1.2379386342724406,0.15894928801728886,0.13913339828000001,4.538109756892076,-0.9815966143149242,-0.7984351180964144,0.8756875385458711,,0.0238237442897226,0.039426987802551904,0.09203306007999999,-0.11742376536589094,,-5.4761767e-06,5.6624413e-06,-4.053116e-06,1.0,-4.23193e-06,-4.5485795e-06,4.220754e-06,1.0,-5.066395e-07,4.5597553e-06,3.874302e-07,1.0,673,2.084,0,1,0.051,False,-0.2641080536386573,1.0497563883626244
2.095942906991695,15:00:07.930639,14:58:52.793984,0,,0.10058132,-0.0034069866,0.027121395,-0.2824939,0.54038084,-0.7925816,0.2665216,0.8379184,0.4762971,0.9215008,-0.076689124,-0.3807301,,0.046270706,-0.03182241,0.08332533,0.12598233,0.9419503,0.31122,-0.22238615,-0.27891922,0.93421,0.96678483,-0.18690494,0.17433777,,0.05734948,1.3212014,0.43254632,0.9967346,0.07901348,-0.016642585,0.041450597,-0.67755467,-0.7343034,-0.06929614,0.73121583,-0.67861736,,-0.05502583,0.2904768,-0.05356356,0.20746718,-0.5346197,0.81923085,0.8678339,0.4870768,0.09808441,-0.45146617,0.690607,0.5650135,,-0.00036699435,0.5043451,-0.33209068,-0.22144072,-0.871188,-0.43817294,0.6891452,-0.45771307,0.561763,-0.68995863,-0.17756757,0.7017313,,1.2812708884297141,0.25517453963012626,0.20205661117,1.9301959297750468,-0.5026856826370554,-0.5707284864284559,-0.42142769062644025,,-1.2379386342724406,0.15895701075016308,0.13913339828000001,4.538109756892076,-0.9815966143149242,-0.7984351180964144,0.8756875385458711,,0.0238237442897226,0.039426987802551904,0.09203306007999999,-0.11742376536589094,,-5.4761767e-06,5.6624413e-06,-4.053116e-06,1.0,-4.23193e-06,-4.5485795e-06,4.220754e-06,1.0,-5.066395e-07,4.5597553e-06,3.874302e-07,1.0,686,2.124,0,1,0.051,False,-0.2639888982016152,1.0499012289649627
2.1239855969906785,15:00:07.971700,14:58:52.793984,0,,0.10072465,-0.0033500493,0.026996493,-0.2798299,0.5423666,-0.79217017,0.27074066,0.8362256,0.47689193,0.92108357,-0.08102414,-0.3808418,,0.046271287,-0.031824168,0.08332461,0.12597921,0.9419486,0.31122658,-0.22237402,-0.2789287,0.93421006,0.96678805,-0.18689975,0.17432564,,0.05734948,1.3212014,0.43254632,0.9967346,0.07901348,-0.016642585,0.041450597,-0.67755467,-0.7343034,-0.06929614,0.73121583,-0.67861736,,-0.055158895,0.29041675,-0.05342909,0.20483449,-0.53624934,0.8188281,0.87026733,0.4826539,0.09838701,-0.44797054,0.6924463,0.5655444,,-0.00036726776,0.50434357,-0.33209187,-0.22143948,-0.8711858,-0.43817788,0.6891545,-0.45771307,0.5617516,-0.68994975,-0.17757827,0.70173734,,1.2806376243340278,0.2555606762738375,0.20214735147000001,1.9354381783621597,-0.500362862141043,-0.5729493057518572,-0.4211010024941719,,-1.2379386342724406,0.15894156528441464,0.13913339828000001,4.538109756892076,-0.9815966143149242,-0.7984351180964144,0.8756875385458711,,0.0238237442897226,0.039426987802551904,0.09203306007999999,-0.11742376536589094,,-5.4761767e-06,5.6624413e-06,-4.053116e-06,1.0,-4.23193e-06,-4.5485795e-06,4.220754e-06,1.0,-5.066395e-07,4.5597553e-06,3.874302e-07,1.0,694,2.149,0,1,0.051,False,-0.26392932048309437,1.049418426957168
2.1651106709905434,15:00:07.990203,14:58:52.793984,0,,0.10079329,-0.0033258647,0.026915729,-0.27764484,0.5437445,-0.7919944,0.2739475,0.8349894,0.47722656,0.9207966,-0.084465444,-0.3807881,,0.04627046,-0.031824227,0.083324075,0.1259867,0.9419477,0.3112263,-0.2223722,-0.27892745,0.9342109,0.96678746,-0.18690619,0.17432177,,0.05734948,1.3212014,0.43254632,0.9967346,0.07901348,-0.016642585,0.041450597,-0.67755467,-0.7343034,-0.06929614,0.73121583,-0.67861736,,-0.055220935,0.2903707,-0.05335261,0.20267136,-0.53734535,0.81864786,0.87212914,0.4792284,0.09864505,-0.44532576,0.69397414,0.56576043,,-0.00036637406,0.5043432,-0.33209163,-0.22144699,-0.87118423,-0.43817723,0.6891537,-0.45771778,0.56174874,-0.68994814,-0.1775739,0.70174,,1.280305546820436,0.25567651726695084,0.20220179565000002,1.9394222872883657,-0.4985865876440922,-0.5746427747203324,-0.4212643465603061,,-1.2379309115395662,0.15894156528441464,0.13913339828000001,4.538109756892076,-0.9815966143149242,-0.7984351180964144,0.8756875385458711,,0.0238237442897226,0.039426987802551904,0.09203306007999999,-0.11742376536589094,,-5.4761767e-06,5.6624413e-06,-4.053116e-06,1.0,-4.23193e-06,-4.5485795e-06,4.220754e-06,1.0,-5.066395e-07,4.5597553e-06,3.874302e-07,1.0,707,2.189,0,1,0.051,False,-0.26386974276457353,1.0498529487641832
2.183637649999582,15:00:08.033518,14:58:52.935828,0,,0.100939766,-0.0032618046,0.02663213,-0.272947,0.54656,-0.79168934,0.28234297,0.8322084,0.47719115,0.9196643,-0.09328008,-0.3814663,,0.04627046,-0.031824227,0.083324075,0.1259867,0.94189686,0.31138024,-0.2223722,-0.2790801,0.93416524,0.96678746,-0.18693468,0.1742912,,0.05734948,1.3212014,0.43254632,0.9967346,0.07901348,-0.016642585,0.041450597,-0.67755467,-0.7343034,-0.06929614,0.73121583,-0.67861736,,-0.055344496,0.2902003,-0.053104248,0.19805796,-0.53944224,0.8183979,0.8767884,0.47076148,0.09811083,-0.43819532,0.69813013,0.56621474,,-0.00036637406,0.5043432,-0.33209163,-0.22144699,-0.87111264,-0.43831956,0.6891537,-0.45780954,0.56167394,-0.68994814,-0.17768854,0.701711,,1.2793633734097807,0.25576919006144155,0.20240401689,1.9486486448016849,-0.4935310371527709,-0.5790919521176622,-0.42159103469257475,,-1.2379309115395662,0.15894156528441464,0.13913339828000001,4.538109756892076,-0.9815966143149242,-0.7982717606161331,0.8753608504136023,,0.0238237442897226,0.039426987802551904,0.09203306007999999,-0.11742376536589094,,-5.4761767e-06,5.6624413e-06,-4.053116e-06,1.0,-4.23193e-06,-4.5485795e-06,4.220754e-06,1.0,-5.066395e-07,4.5597553e-06,3.874302e-07,1.0,715,2.215,0,1,0.051,False,-0.26285692154971585,1.0495632675595068
2.2269517270033248,15:00:08.058884,14:58:52.935828,0,,0.100977,-0.0032160878,0.026503384,-0.2713216,0.5479462,-0.79128975,0.28376132,0.83112645,0.4782344,0.9197088,-0.094782144,-0.3809886,,0.046271138,-0.0318239,0.08332342,0.12610109,0.9419201,0.31126347,-0.22231221,-0.27895546,0.9342168,0.9667864,-0.18700342,0.17422369,,0.05734948,1.3212014,0.43254632,0.9967346,0.07901348,-0.016642585,0.041450597,-0.67755467,-0.7343034,-0.06929614,0.73121583,-0.67861736,,-0.05537146,0.2901361,-0.05298096,0.19643068,-0.5407016,0.8179589,0.87769675,0.46884733,0.09914915,-0.43710795,0.69844395,0.56666803,,-0.00036699235,0.5043427,-0.332091,-0.22156653,-0.8711414,-0.438202,0.68916327,-0.4578097,0.5616621,-0.6899002,-0.1775472,0.7017939,,1.278992682231818,0.25576919006144155,0.20252068299000003,1.9511649241234992,-0.49325776415324,-0.5793147879250551,-0.42159103469257475,,-1.2379386342724406,0.15894156528441464,0.13913339828000001,4.538109756892076,-0.9814599778151588,-0.7983831785198295,0.8753608504136023,,0.0238237442897226,0.039426987802551904,0.09203306007999999,-0.11742376536589094,,-5.4761767e-06,5.6624413e-06,-4.053116e-06,1.0,-4.23193e-06,-4.5485795e-06,4.220754e-06,1.0,-5.066395e-07,4.5597553e-06,3.874302e-07,1.0,728,2.255,0,1,0.051,False,-0.26386974276457353,1.0504805913743163
2.252302441993379,15:00:08.101201,14:58:52.935828,0,,0.10106106,-0.0030762702,0.026167363,-0.26360545,0.5526242,-0.7906444,0.29367298,0.8267028,0.47991505,0.9188409,-0.1056827,-0.38021427,,0.046271533,-0.03182062,0.083325565,0.12603861,0.942039,0.31092876,-0.22222742,-0.278651,0.93432784,0.96681404,-0.18685827,0.17422605,,0.05734948,1.3212014,0.43254632,0.9967346,0.07901348,-0.016642585,0.041450597,-0.67755467,-0.7343034,-0.06929614,0.73121583,-0.67861736,,-0.055428803,0.2899834,-0.052644923,0.18878378,-0.54448473,0.8172497,0.8834078,0.45762977,0.1008252,-0.4288956,0.70293057,0.5673951,,-0.0003680397,0.5043461,-0.33208928,-0.22151846,-0.8713127,-0.43788564,0.6892397,-0.45755452,0.5617762,-0.6898393,-0.17736435,0.7019,,1.2783671408690058,0.2557382991299446,0.20282142227000002,1.963956010676055,-0.48779230416262237,-0.5837715040729119,-0.4212643465603061,,-1.237954079738189,0.15895701075016308,0.13913339828000001,4.537900066948591,-0.9814599778151588,-0.7985465360001108,0.8756875385458711,,0.0238237442897226,0.039426987802551904,0.09203306007999999,-0.11742376536589094,,-5.4761767e-06,5.6624413e-06,-4.053116e-06,1.0,-4.23193e-06,-4.5485795e-06,4.220754e-06,1.0,-5.066395e-07,4.5597553e-06,3.874302e-07,1.0,736,2.28,0,1,0.051,False,-0.26339312101640555,1.049370146756389
2.294629512995016,15:00:08.123850,14:58:52.935828,0,,0.10109946,-0.002940178,0.02590534,-0.25779375,0.55611587,-0.7901124,0.29996356,0.82341015,0.4816818,0.9184576,-0.11283037,-0.3790846,,0.046270847,-0.03181925,0.08332592,0.12598795,0.94210345,0.31075403,-0.22212675,-0.27850622,0.93439496,0.9668437,-0.18674925,0.17417791,,0.05734948,1.3212014,0.43254632,0.9967346,0.07901348,-0.016642585,0.041450597,-0.67755467,-0.7343034,-0.06929614,0.73121583,-0.67861736,,-0.055446524,0.2898845,-0.052364636,0.18300556,-0.54738724,0.8166249,0.88709927,0.44997996,0.10282471,-0.42374977,0.7056098,0.56793565,,-0.00036757273,0.5043472,-0.3320883,-0.22148414,-0.871407,-0.43771526,0.6893238,-0.45740053,0.56179845,-0.6897663,-0.17729808,0.7019885,,1.277996449691043,0.255715130931322,0.20308327285000002,1.9729726782458896,-0.48464966466801723,-0.5864157945980703,-0.4207743143619034,,-1.237954079738189,0.15895701075016308,0.13913339828000001,4.537690377005107,-0.9814599778151588,-0.7985465360001108,0.8756875385458711,,0.0238237442897226,0.039426987802551904,0.09203306007999999,-0.11742376536589094,,-5.4761767e-06,5.6624413e-06,-4.053116e-06,1.0,-4.23193e-06,-4.5485795e-06,4.220754e-06,1.0,-5.066395e-07,4.5597553e-06,3.874302e-07,1.0,749,2.32,0,1,0.051,False,-0.2631548101423209,1.0503840309727575
2.3172781449975446,15:00:08.161562,14:58:52.935828,0,,0.1011131,-0.0027799308,0.025615156,-0.25248352,0.5585987,-0.7900756,0.3077786,0.8204854,0.4817425,0.9173466,-0.121536344,-0.37908384,,0.046268962,-0.03182086,0.083325565,0.12600134,0.94210076,0.31075686,-0.22211695,-0.2785085,0.9343966,0.96684426,-0.18675959,0.17416406,,0.05734948,1.3212014,0.43254632,0.9967346,0.07901348,-0.016642585,0.041450597,-0.67755467,-0.7343034,-0.06929614,0.73121583,-0.67861736,,-0.055437393,0.28978327,-0.052048817,0.17778148,-0.54916084,0.8165881,0.89133894,0.441513,0.102864705,-0.41702354,0.70956933,0.56798124,,-0.00036549094,0.50434643,-0.33208942,-0.22149855,-0.87140274,-0.43771645,0.6893268,-0.45740998,0.561787,-0.6897586,-0.17729469,0.7019969,,1.2777724904376904,0.2556687945340766,0.20337882697,1.9819893458157243,-0.479594114176696,-0.5905382570348379,-0.4207743143619034,,-1.2379386342724406,0.15894928801728886,0.13913210199,4.537690377005107,-0.9814599778151588,-0.7985465360001108,0.8756875385458711,,0.0238237442897226,0.039426987802551904,0.09203306007999999,-0.11742376536589094,,-5.4761767e-06,5.6624413e-06,-4.053116e-06,1.0,-4.23193e-06,-4.5485795e-06,4.220754e-06,1.0,-5.066395e-07,4.5597553e-06,3.874302e-07,1.0,757,2.346,0,1,0.051,False,-0.26327396557936344,1.049804668563404
2.354998020993662,15:00:08.190170,14:58:53.093272,0,,0.10111203,-0.0025840402,0.025308087,-0.24443127,0.56274074,-0.7896683,0.31651723,0.81606793,0.48358023,0.9165535,-0.13174158,-0.37758982,,0.046269253,-0.031821724,0.08332527,0.1259998,0.9421252,0.31068322,-0.22211087,-0.2784369,0.93441933,0.96684587,-0.18674275,0.1741732,,0.05734948,1.3212014,0.43254632,0.9967346,0.07901348,-0.016642585,0.041450597,-0.67755467,-0.7343034,-0.06929614,0.73121583,-0.67861736,,-0.055412326,0.2896951,-0.05169631,0.16979648,-0.5524652,0.8160584,0.89627934,0.43083584,0.10518455,-0.409698,0.71355635,0.5683176,,-0.00036562764,0.50434566,-0.33209002,-0.22149792,-0.8714374,-0.43764776,0.6893315,-0.45736408,0.56181866,-0.6897541,-0.1772427,0.7020144,,1.2776643721774514,0.2555992899382086,0.20371326979,1.9941513625378269,-0.47467520018514014,-0.594549301567909,-0.4207743143619034,,-1.2379386342724406,0.15894156528441464,0.13913210199,4.537690377005107,-0.9814599778151588,-0.7986282147402515,0.8755241944797367,,0.0238237442897226,0.039426987802551904,0.09203306007999999,-0.11742376536589094,,-5.4761767e-06,5.6624413e-06,-4.053116e-06,1.0,-4.23193e-06,-4.5485795e-06,4.220754e-06,1.0,-5.066395e-07,4.5597553e-06,3.874302e-07,1.0,770,2.386,0,1,0.051,False,-0.26351227645344677,1.0499495091657423
2.383586067997385,15:00:08.230055,14:58:53.093272,0,,0.10106844,-0.0022675842,0.024834514,-0.23561543,0.5660522,-0.7899811,0.3282683,0.81144536,0.4835247,0.91472703,-0.14539993,-0.37700617,,0.046269253,-0.031821724,0.08332527,0.1259998,0.9421252,0.31068322,-0.22211087,-0.2784369,0.93441933,0.96684587,-0.18674275,0.1741732,,0.05734948,1.3212014,0.43254632,0.9967346,0.07901348,-0.016642585,0.041450597,-0.67755467,-0.7343034,-0.06929614,0.73121583,-0.67861736,,-0.055331904,0.2895715,-0.051144443,0.16112524,-0.5546657,0.8163238,0.9024918,0.41756397,0.105588265,-0.3994336,0.7197126,0.5678614,,-0.00036562764,0.50434566,-0.33209002,-0.22149792,-0.8714374,-0.43764776,0.6893315,-0.45736408,0.56181866,-0.6897541,-0.1772427,0.7020144,,1.2776566494445771,0.25549889441084367,0.20424604498,2.00820058875129,-0.46688691969851004,-0.6011451582990267,-0.4212643465603061,,-1.2379386342724406,0.15894156528441464,0.13913210199,4.537690377005107,-0.9814599778151588,-0.7986282147402515,0.8755241944797367,,0.0238237442897226,0.039426987802551904,0.09203306007999999,-0.11742376536589094,,-5.4761767e-06,5.6624413e-06,-4.053116e-06,1.0,-4.23193e-06,-4.5485795e-06,4.220754e-06,1.0,-5.066395e-07,4.5597553e-06,3.874302e-07,1.0,774,2.398,0,1,0.051,False,-0.2639888982016152,1.0497563883626244
2.4234680279914755,15:00:08.243152,14:58:53.093272,0,,0.10105361,-0.0021832287,0.024699181,-0.23415487,0.5655395,-0.7907822,0.33177185,0.8110496,0.48179448,0.91383755,-0.1495448,-0.37754136,,0.04627008,-0.031821664,0.0833258,0.12599233,0.94212615,0.31068343,-0.22211275,-0.27843812,0.93441856,0.96684635,-0.18673632,0.17417714,,0.05734948,1.3212014,0.43254632,0.9967346,0.07901348,-0.016642585,0.041450597,-0.67755467,-0.7343034,-0.06929614,0.73121583,-0.67861736,,-0.055306535,0.28953215,-0.050991256,0.15973157,-0.5538232,0.81716937,0.9041637,0.4143179,0.10406088,-0.3961992,0.72223306,0.5669264,,-0.00036652133,0.504346,-0.33209026,-0.22149043,-0.871439,-0.4376484,0.68933225,-0.45735937,0.5618215,-0.68975574,-0.17724708,0.7020117,,1.2776643721774514,0.25547572621222103,0.20439252575000003,2.011136247960073,-0.46401755320343574,-0.6042200429379166,-0.42175437875870925,,-1.2379463570053146,0.15894156528441464,0.13913210199,4.537690377005107,-0.9814599778151588,-0.7986282147402515,0.8755241944797367,,0.0238237442897226,0.039426987802551904,0.09203306007999999,-0.11742376536589094,,-5.4761767e-06,5.6624413e-06,-4.053116e-06,1.0,-4.23193e-06,-4.5485795e-06,4.220754e-06,1.0,-5.066395e-07,4.5597553e-06,3.874302e-07,1.0,791,2.451,0,1,0.051,False,-0.26351227645344677,1.0496115477602863
2.4365883900027256,15:00:08.292562,14:58:53.093272,0,,0.100987375,-0.0017345697,0.024033576,-0.22650312,0.56212044,-0.795435,0.34696636,0.80965257,0.47336775,0.91011584,-0.16877002,-0.37842584,,0.046269625,-0.031820472,0.08332497,0.12611571,0.94219995,0.31040922,-0.22205696,-0.27815488,0.93451613,0.96684307,-0.18678573,0.17414239,,0.05734948,1.3212014,0.43254632,0.9967346,0.07901348,-0.016642585,0.041450597,-0.67755467,-0.7343034,-0.06929614,0.73121583,-0.67861736,,-0.055188563,0.2893614,-0.050213058,0.1523633,-0.54887885,0.82189864,0.9114343,0.3996249,0.09791538,-0.38219488,0.73418796,0.5611552,,-0.00036610916,0.50434595,-0.3320888,-0.22161806,-0.8715386,-0.43738532,0.6893364,-0.45727247,0.5618872,-0.6897106,-0.17698129,0.7021231,,1.2776720949103255,0.25547572621222103,0.20514178137000003,2.025185474173536,-0.45199354122407703,-0.6197423302730409,-0.4214276906264405,,-1.2379463570053146,0.15894928801728886,0.13913210199,4.537690377005107,-0.9813233413153933,-0.7989029901242289,0.8751975063474682,,0.0238237442897226,0.039426987802551904,0.09203306007999999,-0.11742376536589094,,-5.4761767e-06,5.6624413e-06,-4.053116e-06,1.0,-4.23193e-06,-4.5485795e-06,4.220754e-06,1.0,-5.066395e-07,4.5597553e-06,3.874302e-07,1.0,795,2.464,0,1,0.051,False,-0.26339312101640555,1.0497563883626244
2.485996218994842,15:00:08.311387,14:58:53.093272,0,,0.100961834,-0.0015440583,0.023724228,-0.22408038,0.55944693,-0.7980018,0.3549903,0.8094255,0.46777362,0.9076178,-0.17846417,-0.37997472,,0.046270467,-0.031820413,0.083325446,0.12610823,0.94220096,0.31040946,-0.22205883,-0.2781561,0.93451536,0.9668436,-0.18677928,0.17414626,,0.05734948,1.3212014,0.43254632,0.9967346,0.07901348,-0.016642585,0.041450597,-0.67755467,-0.7343034,-0.06929614,0.73121583,-0.67861736,,-0.055138905,0.28926933,-0.04986418,0.15012757,-0.54544044,0.8245947,0.91498417,0.39260033,0.09310726,-0.37452063,0.74051315,0.5580095,,-0.00036700285,0.50434625,-0.332089,-0.22161055,-0.8715402,-0.43738598,0.6893372,-0.45726776,0.56189007,-0.6897122,-0.17698567,0.7021204,,1.2776643721774514,0.2554834489450952,0.20547233532000003,2.0308471026476185,-0.44488844323627413,-0.6279047447293312,-0.42028428216350056,,-1.237954079738189,0.15894928801728886,0.13913210199,4.537690377005107,-0.9813233413153933,-0.7989029901242289,0.8751975063474682,,0.0238237442897226,0.039426987802551904,0.09203306007999999,-0.11742376536589094,,-5.4761767e-06,5.6624413e-06,-4.053116e-06,1.0,-4.23193e-06,-4.5485795e-06,4.220754e-06,1.0,-5.066395e-07,4.5597553e-06,3.874302e-07,1.0,812,2.517,0,1,0.051,False,-0.26434636451274196,1.0499495091657423
2.5048224969941657,15:00:08.362716,14:58:53.250728,0,,0.100885645,-0.0010729134,0.022936925,-0.21931368,0.54878485,-0.8066825,0.37614825,0.81045306,0.44908604,0.90023005,-0.2049416,-0.384168,,0.04626909,-0.031821426,0.083324075,0.12612164,0.9421982,0.3104123,-0.22204912,-0.27815843,0.934517,0.9668442,-0.18678957,0.17413235,,0.05734948,1.3212014,0.43254632,0.9967346,0.07901348,-0.016642585,0.041450597,-0.67755467,-0.7343034,-0.06929614,0.73121583,-0.67861736,,-0.055001367,0.28902635,-0.048986875,0.14591266,-0.53270394,0.83362824,0.92386085,0.37474534,0.07776287,-0.3538229,0.7588099,0.5468244,,-0.00036535214,0.5043448,-0.33208916,-0.22162496,-0.8715359,-0.43738717,0.68934023,-0.4572772,0.5618786,-0.6897046,-0.17698227,0.7021288,,1.2777029858418225,0.2554911716779695,0.20630325721,2.0438478791436587,-0.42521278727005063,-0.6525251905763749,-0.42175437875870914,,-1.2379386342724406,0.15894156528441464,0.13913210199,4.537690377005107,-0.9813233413153933,-0.7989029901242289,0.8751975063474682,,0.0238237442897226,0.039426987802551904,0.09203306007999999,-0.11742376536589094,,-5.4761767e-06,5.6624413e-06,-4.053116e-06,1.0,-4.23193e-06,-4.5485795e-06,4.220754e-06,1.0,-5.066395e-07,4.5597553e-06,3.874302e-07,1.0,820,2.543,0,1,0.051,False,-0.2634526987349264,1.049418426957168
2.5561371719959425,15:00:08.385510,14:58:53.250728,0,,0.10085519,-0.00088109076,0.022600234,-0.2193028,0.54207116,-0.811212,0.38565096,0.81190336,0.43827635,0.89620304,-0.21672955,-0.38710305,,0.046269923,-0.031821366,0.08332461,0.12611416,0.9421992,0.3104125,-0.22205096,-0.27815962,0.9345162,0.9668448,-0.1867831,0.17413622,,0.05734948,1.3212014,0.43254632,0.9967346,0.07901348,-0.016642585,0.041450597,-0.67755467,-0.7343034,-0.06929614,0.73121583,-0.67861736,,-0.05494463,0.2889157,-0.048618603,0.14619936,-0.52507544,0.8384041,0.92746073,0.3675948,0.06848826,-0.3441545,0.767574,0.540729,,-0.00036624586,0.5043452,-0.3320894,-0.22161745,-0.8715375,-0.4373878,0.68934107,-0.45727247,0.5618815,-0.6897062,-0.17698663,0.70212615,,1.2777261540404452,0.2555375080752148,0.20666103325000001,2.047412608182896,-0.41510168628740807,-0.6649357311970788,-0.4211010024941718,,-1.2379463570053146,0.15894156528441464,0.13913210199,4.537690377005107,-0.9813233413153933,-0.7989029901242289,0.8751975063474682,,0.0238237442897226,0.039426987802551904,0.09203306007999999,-0.11742376536589094,,-5.4761767e-06,5.6624413e-06,-4.053116e-06,1.0,-4.23193e-06,-4.5485795e-06,4.220754e-06,1.0,-5.066395e-07,4.5597553e-06,3.874302e-07,1.0,833,2.583,0,1,0.051,False,-0.26339312101640555,1.049418426957168
