AlexandreBanks6/ExpertPlaybackApp/resources/Motions/P_18/PC1/Data_PC1_10.csv
Task Time,PC1 Time,PC2 Time,Gaze Calib,s_T_psm1,Tx,Ty,Tz,R00,R01,R02,R10,R11,R12,R20,R21,R22,s_T_psm3,Tx,Ty,Tz,R00,R01,R02,R10,R11,R12,R20,R21,R22,cart_T_ecm,Tx,Ty,Tz,R00,R01,R02,R10,R11,R12,R20,R21,R22,ecm_T_psm1,Tx,Ty,Tz,R00,R01,R02,R10,R11,R12,R20,R21,R22,ecm_T_psm3,Tx,Ty,Tz,R00,R01,R02,R10,R11,R12,R20,R21,R22,psm1_joints,q1,q2,q3,q4,q5,q6,jaw,psm3_joints,q1,q2,q3,q4,q5,q6,jaw,ecm_joints,q1,q2,q3,q4,ecmi_T_ecm,Tx,Ty,Tz,R00,R01,R02,R10,R11,R12,R20,R21,R22,Sample #,Task Duration (s),Collisions (binary),Collisions (increments),Cumulative Collision Time (s),Clutch Press,MTMR Angle,MTML Angle
""
lci_T_si,,,,,-0.066164754,0.026516598,0.23978148,0.99478984,-0.005419439,0.101802684,0.07109325,-0.6788334,-0.7308426,0.07306782,0.7342723,-0.6749113
rci_T_si,,,,,-0.07567082,0.03074627,0.2479851,0.9944939,-0.021734206,0.10251589,0.062365826,-0.66341096,-0.74565166,0.08421631,0.7479395,-0.6584027
ecm_T_lc,,,,,-4.4061628e-05,-0.00034663224,-0.01840835,-0.99912,0.030754527,0.028518902,-0.031987965,-0.99852574,-0.043852776,0.027128186,-0.04472645,0.9986309
ecm_T_rc,,,,,-0.0043358393,0.01870579,-0.007592615,-0.99555075,-0.052743673,-0.078081585,0.04863213,-0.9973746,0.053654674,-0.08070653,0.04961868,0.9955021
cart_T_ecmi,,,,,0.057354428,1.3212025,0.4325391,0.9967344,0.0790177,-0.016638013,0.041456804,-0.67755413,-0.73430353,-0.06929614,0.73121583,-0.67861736
ecmac_T_ecmrep_psm1,,,,,-0.0033900698,-0.29259828,-0.274185,0.99793226,0.043159027,0.047628522,-0.040498573,0.99763834,-0.055476554,-0.049910355,0.053432956,0.99732333
ecmac_T_ecmrep_psm3,,,,,-0.030876445,-0.5082754,-0.4984752,0.99144465,-0.07732987,0.105155215,0.05830459,0.98314613,0.17327517,-0.116782285,-0.16566171,0.97924364
""
0,15:01:16.799979,15:00:01.656172,0,,0.12411225,0.00019977987,0.026907802,0.40592963,0.6644291,-0.62749904,0.18305713,0.6135854,0.7681165,0.8953834,-0.42666948,0.12744403,,0.04501699,-0.03145994,0.08312923,0.15592244,0.9708006,0.18230271,-0.21320036,-0.14713348,0.965866,0.96448636,-0.18946722,0.18403354,,0.05733264,1.3212017,0.43254733,0.9967338,0.0790269,-0.016628044,0.041470334,-0.67755306,-0.7343038,-0.06929614,0.73121583,-0.67861736,,-0.078460045,0.2913919,-0.04954893,-0.4764775,-0.6298272,0.6134223,0.75053155,0.07199783,0.6569008,-0.45789906,0.77339125,0.43839985,,0.00086521084,0.50457317,-0.33163315,-0.25170988,-0.914702,-0.31616825,0.6867007,-0.39900318,0.6076501,-0.6819709,-0.06416143,0.72855955,,1.2113106513221144,0.3292278251610651,0.20192568588,2.8576545498070978,-0.6542155608769288,-0.9691748594674576,-0.41897752963442647,,-1.2298529329531274,0.16399223258415746,0.13875617789000003,4.537690377005107,-0.9576852268559721,-0.9278728354724849,0.8753608504136023,,0.0238237442897226,0.039426987802551904,0.09203306007999999,-0.11742376536589094,,-2.232194e-05,4.887581e-06,-4.529953e-06,1.0,9.208918e-06,9.931624e-06,-9.2200935e-06,1.0,8.940697e-07,-9.920448e-06,-1.013279e-06,1.0,38,0.114,0,0,0.0,False,-0.26386974276457353,1.0496598279610654
0.12033477600198239,15:01:16.836156,15:00:01.729376,0,,0.12351309,0.00046044588,0.027254254,0.40095904,0.6678491,-0.62706405,0.17744094,0.6149157,0.7683705,0.8987473,-0.419352,0.12805223,,0.04501748,-0.03145368,0.083124876,0.15593594,0.97080106,0.18228912,-0.21322235,-0.14711305,0.9658643,0.9644793,-0.1894811,0.18405613,,0.05733264,1.3212017,0.43254733,0.9967338,0.0790269,-0.016628044,0.041470334,-0.67755306,-0.7343038,-0.06929614,0.73121583,-0.67861736,,-0.07789107,0.29185775,-0.049628012,-0.47177693,-0.63382304,0.61293954,0.7494137,0.07801165,0.65749013,-0.46454883,0.76953393,0.4381916,,0.00086455006,0.5045725,-0.33162552,-0.2517197,-0.914703,-0.31615755,0.68668145,-0.39900485,0.6076707,-0.6819867,-0.06413679,0.728547,,1.2149248903072514,0.3285559474010075,0.20192179701000001,2.848847572180748,-0.6609107493654354,-0.9615100562025379,-0.4184874974360233,,-1.229845210220253,0.16402312351565437,0.13876265934,4.537690377005107,-0.9576852268559721,-0.9278728354724849,0.8753608504136023,,0.0238237442897226,0.039426987802551904,0.09203306007999999,-0.11742376536589094,,-2.232194e-05,4.887581e-06,-4.529953e-06,1.0,9.208918e-06,9.931624e-06,-9.2200935e-06,1.0,8.940697e-07,-9.920448e-06,-1.013279e-06,1.0,46,0.138,1,1,0.018,False,-0.2644655199497832,1.0499012289649627
0.15646837999520358,15:01:16.859058,15:00:01.729376,0,,0.123115376,0.0006265342,0.027475536,0.39793092,0.66909724,-0.62766224,0.1753754,0.61606693,0.7679225,0.90049684,-0.4156567,0.12780887,,0.045018516,-0.0314521,0.0831247,0.15593007,0.9708025,0.182286,-0.21323025,-0.14710952,0.9658631,0.9644785,-0.189476,0.18406555,,0.05733264,1.3212017,0.43254733,0.9967338,0.0790269,-0.016628044,0.041470334,-0.67755306,-0.7343038,-0.06929614,0.73121583,-0.67861736,,-0.07751268,0.29215586,-0.049679603,-0.46889275,-0.6353646,0.6135563,0.7494457,0.08140618,0.65704197,-0.4674085,0.7679094,0.4380005,,0.0008633712,0.504573,-0.33162415,-0.2517129,-0.9147056,-0.31615552,0.6866778,-0.398999,0.60767865,-0.6819928,-0.06413643,0.72854125,,1.217349828429758,0.32812347436005096,0.20191401927000002,2.8427665638196964,-0.6636434793607443,-0.9569946934046738,-0.41816080930375477,,-1.2298529329531274,0.1640308462485286,0.13876395563000002,4.537690377005107,-0.9576852268559721,-0.9278728354724849,0.8753608504136023,,0.0238237442897226,0.039426987802551904,0.09203306007999999,-0.11742376536589094,,-2.232194e-05,4.887581e-06,-4.529953e-06,1.0,9.208918e-06,9.931624e-06,-9.2200935e-06,1.0,8.940697e-07,-9.920448e-06,-1.013279e-06,1.0,54,0.163,1,1,0.043,False,-0.2639888982016152,1.0497563883626244
0.17941143199277576,15:01:16.886921,15:00:01.729376,0,,0.12251535,0.0008902848,0.027879804,0.38703963,0.6771891,-0.62579167,0.16642138,0.61623615,0.7697772,0.90692025,-0.4020794,0.1258091,,0.04502134,-0.031449776,0.08312094,0.1559226,0.97080374,0.1822862,-0.2132321,-0.14711079,0.9658625,0.9644792,-0.1894691,0.18406859,,0.05733264,1.3212017,0.43254733,0.9967338,0.0790269,-0.016628044,0.041470334,-0.67755306,-0.7343038,-0.06929614,0.73121583,-0.67861736,,-0.07694746,0.29266578,-0.049796045,-0.45852596,-0.6445136,0.6118465,0.74860924,0.09088288,0.656753,-0.4788926,0.75917226,0.44081667,,0.0008607938,0.5045705,-0.33162034,-0.25170544,-0.9147075,-0.31615603,0.6866788,-0.39899397,0.60768086,-0.68199456,-0.06414107,0.72853917,,1.2209331764833982,0.32745931933286765,0.20190235266,2.826620438171388,-0.6753942183405721,-0.9417769206170827,-0.4186508415021575,,-1.2298606556860017,0.1640308462485286,0.13876914079000002,4.537690377005107,-0.9576852268559721,-0.9278728354724849,0.8753608504136023,,0.0238237442897226,0.039426987802551904,0.09203306007999999,-0.11742376536589094,,-2.232194e-05,4.887581e-06,-4.529953e-06,1.0,9.208918e-06,9.931624e-06,-9.2200935e-06,1.0,8.940697e-07,-9.920448e-06,-1.013279e-06,1.0,62,0.187,1,1,0.067,False,-0.26351227645344677,1.0499012289649627
0.20719495799858123,15:01:16.910704,15:00:01.729376,0,,0.12195945,0.0011640787,0.0283359,0.3736588,0.68636996,-0.6239193,0.15206316,0.6182128,0.7711613,0.915017,-0.3830264,0.12662905,,0.0450195,-0.031445276,0.08311927,0.15594357,0.97080296,0.18227237,-0.21325219,-0.1470891,0.9658613,0.9644714,-0.18948989,0.18408823,,0.05733264,1.3212017,0.43254733,0.9967338,0.0790269,-0.016628044,0.041470334,-0.67755306,-0.7343038,-0.06929614,0.73121583,-0.67861736,,-0.07643037,0.29321748,-0.049938284,-0.44579744,-0.65518916,0.6099113,0.74542654,0.10550464,0.6581854,-0.4955844,0.7480615,0.4413617,,0.00086229004,0.5045716,-0.33161554,-0.25172272,-0.9147066,-0.3161448,0.68665856,-0.39900067,0.60769933,-0.68200856,-0.0641118,0.7285286,,1.2243620698795539,0.3269264507645462,0.20189068605000002,2.808377413088235,-0.6928836903105485,-0.9266169628023945,-0.4188141855682921,,-1.229845210220253,0.16406173718002548,0.13877173337,4.537690377005107,-0.9576852268559721,-0.9278728354724849,0.8753608504136023,,0.0238237442897226,0.039426987802551904,0.09203306007999999,-0.11742376536589094,,-2.232194e-05,4.887581e-06,-4.529953e-06,1.0,9.208918e-06,9.931624e-06,-9.2200935e-06,1.0,8.940697e-07,-9.920448e-06,-1.013279e-06,1.0,70,0.212,1,1,0.092,False,-0.2626781883941529,1.049804668563404
0.2310368749895133,15:01:16.940156,15:00:01.829070,0,,0.12147166,0.0013922155,0.028729737,0.3595003,0.6946063,-0.62312245,0.14135432,0.6195233,0.7721462,0.92237675,-0.36566794,0.124533206,,0.045018926,-0.031443518,0.08311993,0.15594661,0.97080374,0.18226567,-0.21326423,-0.1470795,0.9658601,0.96446824,-0.18949342,0.18410102,,0.05733264,1.3212017,0.43254733,0.9967338,0.0790269,-0.016628044,0.041470334,-0.67755306,-0.7343038,-0.06929614,0.73121583,-0.67861736,,-0.0759761,0.29368868,-0.05006756,-0.43224403,-0.6647864,0.60928166,0.74425995,0.11849722,0.6572941,-0.5091584,0.7375754,0.44355413,,0.00086256367,0.50457317,-0.33161435,-0.25172392,-0.914708,-0.3161397,0.6866494,-0.398999,0.6077108,-0.6820173,-0.0641018,0.7285213,,1.2272117583101425,0.32651714592221226,0.20187253799000002,2.788456868457205,-0.706683976786858,-0.9103813513804816,-0.4183241533698894,,-1.229845210220253,0.16407718264577392,0.13877173337,4.537690377005107,-0.9576852268559721,-0.9278728354724849,0.8753608504136023,,0.0238237442897226,0.039426987802551904,0.09203306007999999,-0.11742376536589094,,-2.232194e-05,4.887581e-06,-4.529953e-06,1.0,9.208918e-06,9.931624e-06,-9.2200935e-06,1.0,8.940697e-07,-9.920448e-06,-1.013279e-06,1.0,91,0.278,0,1,0.151,False,-0.2629164992682367,1.0493218665556094
0.26048493100097403,15:01:16.995173,15:00:01.829070,0,,0.12078574,0.0016455203,0.029165804,0.3551697,0.6974719,-0.62240463,0.13370687,0.6210653,0.7722696,0.9251903,-0.35750663,0.12732682,,0.045017682,-0.031437647,0.08312106,0.15595576,0.9707911,0.18232489,-0.21330002,-0.14712964,0.96584463,0.96445894,-0.18951897,0.184124,,0.05733264,1.3212017,0.43254733,0.9967338,0.0790269,-0.016628044,0.041470334,-0.67755306,-0.7343038,-0.06929614,0.73121583,-0.67861736,,-0.07532777,0.29421958,-0.050217867,-0.4281325,-0.6682973,0.6083431,0.7413112,0.12530124,0.6593613,-0.5168755,0.7332656,0.4417707,,0.000862964,0.5045772,-0.33160982,-0.25172752,-0.9146865,-0.31619912,0.68662196,-0.39904362,0.6077125,-0.6820436,-0.06413131,0.7284941,,1.2314438159252177,0.3256676453060476,0.20182976042000003,2.7794402008873704,-0.714745530273019,-0.9027458714405656,-0.4188141855682921,,-1.229845210220253,0.16412351904301928,0.13877302966000002,4.537690377005107,-0.9576852268559721,-0.9277911567323446,0.8751975063474684,,0.0238237442897226,0.039426987802551904,0.09203306007999999,-0.11742376536589094,,-2.232194e-05,4.887581e-06,-4.529953e-06,1.0,9.208918e-06,9.931624e-06,-9.2200935e-06,1.0,8.940697e-07,-9.920448e-06,-1.013279e-06,1.0,99,0.302,0,1,0.151,False,-0.26285692154971585,1.0502874705711984
0.3155080389988143,15:01:17.025813,15:00:01.930891,0,,0.12032749,0.0018308163,0.029505312,0.35526177,0.69955504,-0.62000954,0.1279651,0.6206367,0.7735858,0.9259667,-0.35416502,0.13096988,,0.045017093,-0.03143589,0.08312178,0.1559588,0.9708217,0.18215966,-0.213312,-0.14696229,0.9658674,0.96445584,-0.18949243,0.18416777,,0.05733264,1.3212017,0.43254733,0.9967338,0.0790269,-0.016628044,0.041470334,-0.67755306,-0.7343038,-0.06929614,0.73121583,-0.67861736,,-0.0748985,0.29462022,-0.05033958,-0.42827183,-0.6706392,0.60566187,0.7379288,0.12730542,0.6627627,-0.52157867,0.7307779,0.44036266,,0.00086323766,0.5045788,-0.33160865,-0.2517287,-0.91473955,-0.31604463,0.68661284,-0.39894268,0.6077891,-0.68205243,-0.064002305,0.7284972,,1.2345715227392786,0.3252197267993426,0.20177661253,2.7773433014525253,-0.7198010807643402,-0.8986234090037979,-0.41848749743602376,,-1.229845210220253,0.16413896450876772,0.13877302966000002,4.537690377005107,-0.9576852268559721,-0.9279545142126254,0.8751975063474682,,0.0238237442897226,0.039426987802551904,0.09203306007999999,-0.11742376536589094,,-2.232194e-05,4.887581e-06,-4.529953e-06,1.0,9.208918e-06,9.931624e-06,-9.2200935e-06,1.0,8.940697e-07,-9.920448e-06,-1.013279e-06,1.0,116,0.355,0,1,0.151,False,-0.2632143878608417,1.0499495091657423
0.34612652799114585,15:01:17.076353,15:00:01.930891,0,,0.11935334,0.0022990406,0.030276686,0.36008474,0.69766605,-0.6193554,0.12027797,0.62363106,0.7724102,0.92513376,-0.3526279,0.14064619,,0.045018226,-0.031436693,0.083121896,0.15594983,0.97082245,0.18216318,-0.21330798,-0.14696833,0.9658674,0.96445817,-0.18948376,0.18416438,,0.05733264,1.3212017,0.43254733,0.9967338,0.0790269,-0.016628044,0.041470334,-0.67755306,-0.7343038,-0.06929614,0.73121583,-0.67861736,,-0.07399014,0.29555893,-0.050578207,-0.43299383,-0.66888624,0.6042413,0.7317625,0.13058719,0.66893244,-0.52634585,0.7318047,0.43292242,,0.00086220575,0.50457835,-0.33160946,-0.25172067,-0.9147407,-0.31604767,0.6866184,-0.39893848,0.6077856,-0.6820498,-0.06401195,0.7284988,,1.2417922779766786,0.3247486400940149,0.20164698353000002,2.777762681339494,-0.7243100852565998,-0.8991939126691254,-0.41914087370056063,,-1.2298529329531274,0.1641312417758935,0.13877302966000002,4.537690377005107,-0.9576852268559721,-0.9279545142126254,0.8751975063474682,,0.0238237442897226,0.039426987802551904,0.09203306007999999,-0.11742376536589094,,-2.232194e-05,4.887581e-06,-4.529953e-06,1.0,9.208918e-06,9.931624e-06,-9.2200935e-06,1.0,8.940697e-07,-9.920448e-06,-1.013279e-06,1.0,124,0.38,0,1,0.151,False,-0.2649421416979525,1.0505288715750958
0.3967074230022263,15:01:17.101007,15:00:01.930891,0,,0.11869221,0.0026746094,0.030844122,0.36414218,0.69533837,-0.6196007,0.11631405,0.62611467,0.77100676,0.92405176,-0.35282445,0.14711717,,0.04501573,-0.03143693,0.083120346,0.15597215,0.9708338,0.18208325,-0.21330222,-0.14688568,0.9658813,0.96445584,-0.18948938,0.18417081,,0.05733264,1.3212017,0.43254733,0.9967338,0.0790269,-0.016628044,0.041470334,-0.67755306,-0.7343038,-0.06929614,0.73121583,-0.67861736,,-0.07337728,0.29626748,-0.050728124,-0.43694222,-0.6665565,0.60397345,0.7280161,0.13228782,0.67267567,-0.52827466,0.7336228,0.42746168,,0.00086489104,0.50457734,-0.3316088,-0.25174302,-0.9147609,-0.3159714,0.68661547,-0.39890394,0.60781157,-0.6820445,-0.06393853,0.72851026,,1.2470128453996543,0.3247486400940149,0.2015601321,2.778601441113432,-0.7255398137544887,-0.9007231924802148,-0.4175074330392179,,-1.2298297647545047,0.1641312417758935,0.13877302966000002,4.537690377005107,-0.9576852268559721,-0.928036192952766,0.8753608504136026,,0.0238237442897226,0.039426987802551904,0.09203306007999999,-0.11742376536589094,,-2.232194e-05,4.887581e-06,-4.529953e-06,1.0,9.208918e-06,9.931624e-06,-9.2200935e-06,1.0,8.940697e-07,-9.920448e-06,-1.013279e-06,1.0,141,0.433,0,1,0.151,False,-0.26381016504605226,1.0492253061540504
0.4213657669897657,15:01:17.150373,15:00:02.026663,0,,0.11781895,0.0032436997,0.031622767,0.37043124,0.69267005,-0.6188612,0.10983285,0.6289209,0.7696721,0.92234355,-0.35308194,0.15689388,,0.045154616,-0.031387903,0.08313793,0.15599927,0.97086203,0.18191062,-0.21323803,-0.14672132,0.96592045,0.96446556,-0.18947314,0.18413618,,0.057369377,1.3212038,0.43253306,0.9967349,0.07900901,-0.016647426,0.041444026,-0.67755514,-0.73430336,-0.06929614,0.73121583,-0.67861736,,-0.072603635,0.29728493,-0.05089954,-0.4430561,-0.6638665,0.60248035,0.7219621,0.13419919,0.678794,-0.53148097,0.7357118,0.41982868,,0.00068506674,0.50460166,-0.33158895,-0.25177932,-0.9148182,-0.31577653,0.6866545,-0.39879656,0.60783786,-0.68199176,-0.06378836,0.7285728,,1.2539478595207079,0.32502665847748696,0.20143179939000003,2.781327410378731,-0.7278626342505012,-0.9033214188251066,-0.4184874974360233,,-1.2298143192887563,0.16411579631014506,0.13877302966000002,4.537690377005107,-0.9576852268559721,-0.9281178716929067,0.875524194479737,,0.0238237442897226,0.039426987802551904,0.09203306007999999,-0.11742376536589094,,1.5370548e-05,-4.172325e-06,2.861023e-06,1.0000001,-8.706003e-06,-9.37283e-06,8.694828e-06,1.0,-9.23872e-07,9.380281e-06,8.34465e-07,1.0,149,0.458,0,1,0.151,False,-0.2636314318904893,1.049804668563404
0.4707302349997917,15:01:17.181522,15:00:02.026663,0,,0.117257856,0.0035798103,0.03212431,0.3741314,0.6891801,-0.6205294,0.107985735,0.6321971,0.76724565,0.92106736,-0.35405904,0.16210303,,0.04514453,-0.031392254,0.08313483,0.15607807,0.9708485,0.18191497,-0.21320507,-0.14671716,0.9659283,0.96446013,-0.1895454,0.18409044,,0.057369377,1.3212038,0.43253306,0.9967349,0.07900901,-0.016647426,0.041444026,-0.67755514,-0.73430336,-0.06929614,0.73121583,-0.67861736,,-0.07208515,0.29791266,-0.051027827,-0.44663817,-0.66031784,0.60373396,0.7195485,0.13594697,0.68100536,-0.5317558,0.73857886,0.41441163,,0.0006959004,0.50459856,-0.33159077,-0.25186008,-0.9147962,-0.3157759,0.68665296,-0.3988536,0.6078022,-0.6819635,-0.06374733,0.72860277,,1.2585119946493746,0.325165667669223,0.20135402199000002,2.7819564802091845,-0.727179451751674,-0.9062471918076651,-0.4186508415021577,,-1.2297293692271398,0.16410035084439661,0.13876914079000002,4.537690377005107,-0.9576852268559721,-0.9281178716929067,0.875524194479737,,0.0238237442897226,0.039426987802551904,0.09203306007999999,-0.11742376536589094,,1.5370548e-05,-4.172325e-06,2.861023e-06,1.0000001,-8.706003e-06,-9.37283e-06,8.694828e-06,1.0,-9.23872e-07,9.380281e-06,8.34465e-07,1.0,166,0.511,0,1,0.151,False,-0.2630356547052788,1.0499977893665218
0.5018809869943652,15:01:17.228160,15:00:02.102531,0,,0.11650677,0.003986791,0.0327276,0.36936173,0.6850599,-0.6279054,0.10562512,0.6403579,0.76077926,0.92326355,-0.34732538,0.1641641,,0.045085967,-0.031399705,0.08310503,0.15663952,0.9707429,0.18199602,-0.21319142,-0.14669387,0.9659349,0.96437216,-0.19010353,0.18397593,,0.057369377,1.3212038,0.43253306,0.9967349,0.07900901,-0.016647426,0.041444026,-0.67755514,-0.73430336,-0.06929614,0.73121583,-0.67861736,,-0.07138556,0.2986741,-0.05118423,-0.442053,-0.6567677,0.6109381,0.7198057,0.14667442,0.67850304,-0.53522784,0.739691,0.4079073,,0.0007582673,0.5045794,-0.33157983,-0.2524034,-0.9146237,-0.31584185,0.6864898,-0.39929834,0.60769445,-0.68192685,-0.06343807,0.7286641,,1.2638792939969605,0.32512705400485187,0.20129050378000002,2.769794463487082,-0.7288190897488593,-0.9056452856245731,-0.418160809303755,,-1.2292042233916924,0.16411579631014506,0.13876395563000002,4.537900066948591,-0.9576852268559721,-0.9281995504330472,0.8756875385458713,,0.0238237442897226,0.039426987802551904,0.09203306007999999,-0.11742376536589094,,1.5370548e-05,-4.172325e-06,2.861023e-06,1.0000001,-8.706003e-06,-9.37283e-06,8.694828e-06,1.0,-9.23872e-07,9.380281e-06,8.34465e-07,1.0,174,0.536,0,1,0.151,False,-0.2637505873275314,1.049708108161845
0.5484829909983091,15:01:17.251836,15:00:02.102531,0,,0.11630524,0.0040539354,0.032832623,0.36904028,0.6843905,-0.6288236,0.1036627,0.64204973,0.75962234,0.9236143,-0.34551686,0.16599631,,0.045053683,-0.031404473,0.08308786,0.15697627,0.9706566,0.18216608,-0.21322894,-0.14679185,0.96591175,0.9643091,-0.19046825,0.18392909,,0.057369377,1.3212038,0.43253306,0.9967349,0.07900901,-0.016647426,0.041444026,-0.67755514,-0.73430336,-0.06929614,0.73121583,-0.67861736,,-0.07119321,0.29880837,-0.05121788,-0.44175568,-0.65624887,0.61171013,0.71873283,0.14918639,0.6790924,-0.53691244,0.7396491,0.4057637,,0.00079280534,0.5045679,-0.33157396,-0.25272262,-0.9144806,-0.3160007,0.6863605,-0.39964256,0.6076143,-0.6819388,-0.06333252,0.7286621,,1.2654856224347992,0.32455557177215927,0.20129957781000002,2.7685363238261753,-0.7310052737451064,-0.9075381424717557,-0.41832415336988893,,-1.228910759542472,0.16412351904301928,0.13876136305,4.538109756892076,-0.9576852268559721,-0.9281995504330472,0.8756875385458713,,0.0238237442897226,0.039426987802551904,0.09203306007999999,-0.11742376536589094,,1.5370548e-05,-4.172325e-06,2.861023e-06,1.0000001,-8.706003e-06,-9.37283e-06,8.694828e-06,1.0,-9.23872e-07,9.380281e-06,8.34465e-07,1.0,191,0.589,1,2,0.163,False,-0.26339312101640555,1.0503840309727575
0.5721943249955075,15:01:17.311043,15:00:02.185272,0,,0.11573689,0.0038846284,0.032700956,0.36133897,0.6788868,-0.6391768,0.10598782,0.6511454,0.75151587,0.92639136,-0.33929706,0.16333032,,0.04500801,-0.03140927,0.08306128,0.15726422,0.97061926,0.18211672,-0.21318713,-0.1466963,0.96593547,0.9642714,-0.19073197,0.18385336,,0.057369377,1.3212038,0.43253306,0.9967349,0.07900901,-0.016647426,0.041444026,-0.67755514,-0.73430336,-0.06929614,0.73121583,-0.67861736,,-0.07061575,0.29863068,-0.05128106,-0.43430606,-0.65128106,0.62226295,0.7228012,0.16026528,0.6722153,-0.5375283,0.7417196,0.4011426,,0.0008417412,0.5045507,-0.3315629,-0.2530063,-0.9144214,-0.31594518,0.6863005,-0.3998126,0.6075701,-0.681894,-0.06311426,0.728723,,1.2660879955989888,0.3220225153894136,0.20135661457,2.7546967875561967,-0.7322350022429953,-0.9072704899997529,-0.4184874974360233,,-1.2284860092343897,0.16412351904301928,0.13876136305,4.538109756892076,-0.9578218633557376,-0.9282514900096318,0.8753608504136026,,0.0238237442897226,0.039426987802551904,0.09203306007999999,-0.11742376536589094,,1.5370548e-05,-4.172325e-06,2.861023e-06,1.0000001,-8.706003e-06,-9.37283e-06,8.694828e-06,1.0,-9.23872e-07,9.380281e-06,8.34465e-07,1.0,199,0.613,1,2,0.187,False,-0.2639888982016152,1.049708108161845
0.6313901550020091,15:01:17.338405,15:00:02.185272,0,,0.115350276,0.0036621392,0.032442987,0.3564268,0.67721826,-0.64368904,0.10907385,0.6540657,0.7485324,0.9279349,-0.33700672,0.15925968,,0.04499779,-0.031411715,0.08305597,0.15735193,0.9706049,0.18211745,-0.21315831,-0.14668609,0.96594346,0.96426344,-0.19081286,0.18381104,,0.057369377,1.3212038,0.43253306,0.9967349,0.07900901,-0.016647426,0.041444026,-0.67755514,-0.73430336,-0.06929614,0.73121583,-0.67861736,,-0.07020925,0.29831403,-0.051286887,-0.42954022,-0.64980763,0.62709266,0.7263309,0.1640292,0.66748625,-0.53659916,0.74218893,0.40151823,,0.00085276994,0.5045467,-0.3315619,-0.25309506,-0.91439813,-0.31594142,0.6862933,-0.39987382,0.607538,-0.6818683,-0.06306363,0.7287514,,1.2660416592017434,0.31954351813678755,0.20144216971,2.7465188797603,-0.7325082752425263,-0.9045972919881432,-0.41848749743602354,,-1.228393336439899,0.16411579631014506,0.13876006676000002,4.538109756892076,-0.9578218633557376,-0.9282514900096318,0.8753608504136026,,0.0238237442897226,0.039426987802551904,0.09203306007999999,-0.11742376536589094,,1.5370548e-05,-4.172325e-06,2.861023e-06,1.0000001,-8.706003e-06,-9.37283e-06,8.694828e-06,1.0,-9.23872e-07,9.380281e-06,8.34465e-07,1.0,212,0.654,0,2,0.219,False,-0.2636910096090097,1.050046069567301
0.6587092779955128,15:01:17.374024,15:00:02.283546,0,,0.11464594,0.0033608973,0.03194073,0.34604466,0.67593783,-0.6506623,0.11301836,0.65842664,0.74411094,0.9313861,-0.3310325,0.15145153,,0.045002878,-0.03140644,0.0830614,0.15718639,0.9705969,0.1823026,-0.2132645,-0.14688072,0.96589035,0.9642669,-0.19070347,0.1839062,,0.057369377,1.3212038,0.43253306,0.9967349,0.07900901,-0.016647426,0.041444026,-0.67755514,-0.73430336,-0.06929614,0.73121583,-0.67861736,,-0.069466375,0.29778522,-0.05119969,-0.41947606,-0.64901835,0.6346771,0.7321593,0.1714292,0.65920764,-0.53664005,0.7412066,0.4032744,,0.0008464512,0.5045531,-0.3315603,-0.25292003,-0.91438144,-0.31612968,0.6862713,-0.39987668,0.607561,-0.6819554,-0.06328638,0.72865057,,1.2660493819346177,0.3151878967957249,0.20170661287000002,2.7295339943380537,-0.7345578227390079,-0.8969634754024359,-0.4186508415021577,,-1.2284473955700186,0.1641544099745162,0.13876136305,4.538109756892076,-0.957958499855503,-0.928058393365795,0.8755241944797367,,0.0238237442897226,0.039426987802551904,0.09203306007999999,-0.11742376536589094,,1.5370548e-05,-4.172325e-06,2.861023e-06,1.0000001,-8.706003e-06,-9.37283e-06,8.694828e-06,1.0,-9.23872e-07,9.380281e-06,8.34465e-07,1.0,220,0.679,0,2,0.219,False,-0.26297607698675796,1.0501909101696396
0.694347992000985,15:01:17.399194,15:00:02.283546,0,,0.11428832,0.0032373518,0.031670243,0.34210333,0.6751019,-0.65360767,0.11564124,0.66004163,0.742275,0.93251944,-0.32951882,0.1477327,,0.04500676,-0.03140516,0.08306432,0.15715075,0.97060317,0.18230033,-0.21328002,-0.14688218,0.9658868,0.9642693,-0.1906708,0.1839275,,0.057369377,1.3212038,0.43253306,0.9967349,0.07900901,-0.016647426,0.041444026,-0.67755514,-0.73430336,-0.06929614,0.73121583,-0.67861736,,-0.069088034,0.2975257,-0.051123448,-0.4156441,-0.6483097,0.6379142,0.7350159,0.17368461,0.6554275,-0.5357159,0.74130166,0.404327,,0.00084211025,0.5045555,-0.33156082,-0.2528834,-0.9143916,-0.31612977,0.6862716,-0.3998507,0.60757774,-0.6819686,-0.06330456,0.7286366,,1.2661497774619825,0.3130564225224389,0.20186735283,2.7226142262030644,-0.7345578227390079,-0.8936146470566728,-0.4188141855682921,,-1.2284860092343897,0.1641621327073904,0.13876136305,4.538109756892076,-0.957958499855503,-0.928058393365795,0.8755241944797367,,0.0238237442897226,0.039426987802551904,0.09203306007999999,-0.11742376536589094,,1.5370548e-05,-4.172325e-06,2.861023e-06,1.0000001,-8.706003e-06,-9.37283e-06,8.694828e-06,1.0,-9.23872e-07,9.380281e-06,8.34465e-07,1.0,233,0.72,0,2,0.219,False,-0.26327396557936344,1.0496115477602863
0.7195514499908313,15:01:17.440174,15:00:02.283546,0,,0.113554925,0.0030539185,0.031115025,0.33392686,0.67413574,-0.65881264,0.12024978,0.6627541,0.73911893,0.93489736,-0.32603377,0.14024663,,0.045008607,-0.031400837,0.083066165,0.15713452,0.9706081,0.18228763,-0.21330974,-0.14686677,0.96588254,0.96426535,-0.19065718,0.18396214,,0.057369377,1.3212038,0.43253306,0.9967349,0.07900901,-0.016647426,0.041444026,-0.67755514,-0.73430336,-0.06929614,0.73121583,-0.67861736,,-0.06831225,0.2970411,-0.05091586,-0.40769464,-0.6476312,0.64370716,0.74039006,0.17813015,0.6481452,-0.53442276,0.74083966,0.406877,,0.00083955174,0.5045589,-0.3315581,-0.25286347,-0.91440004,-0.3161212,0.68625623,-0.39983228,0.6076072,-0.6819915,-0.06329847,0.72861576,,1.2665204686399454,0.3089093149689804,0.20224975838000003,2.708355310046117,-0.7349677322383041,-0.885765949252652,-0.4188141855682921,,-1.2285091774330124,0.1641930236388873,0.13876265934,4.538109756892076,-0.957958499855503,-0.928058393365795,0.8755241944797367,,0.0238237442897226,0.039426987802551904,0.09203306007999999,-0.11742376536589094,,1.5370548e-05,-4.172325e-06,2.861023e-06,1.0000001,-8.706003e-06,-9.37283e-06,8.694828e-06,1.0,-9.23872e-07,9.380281e-06,8.34465e-07,1.0,241,0.745,0,2,0.219,False,-0.2637505873275314,1.050046069567301
0.7605009469989454,15:01:17.463348,15:00:02.283546,0,,0.11320841,0.003003493,0.030826867,0.32933074,0.6738259,-0.661438,0.121293575,0.6645215,0.7373594,0.9363917,-0.32306337,0.13711646,,0.045007475,-0.031400032,0.08306599,0.1571435,0.97060746,0.18228406,-0.21331376,-0.14686069,0.96588254,0.964263,-0.19066581,0.18396553,,0.057369377,1.3212038,0.43253306,0.9967349,0.07900901,-0.016647426,0.041444026,-0.67755514,-0.73430336,-0.06929614,0.73121583,-0.67861736,,-0.067943744,0.29681826,-0.05077376,-0.40323487,-0.6475635,0.6465781,0.742464,0.18151493,0.6448252,-0.53492886,0.7400769,0.40759945,,0.000840584,0.5045594,-0.3315573,-0.2528715,-0.9143989,-0.31611812,0.6862507,-0.39983645,0.6076107,-0.68199414,-0.06328883,0.72861415,,1.2666672005645556,0.3069940772161727,0.20248179429000002,2.7008064720806737,-0.7363340972359587,-0.881956371791049,-0.4193042177666948,,-1.228501454700138,0.16420074637176152,0.13876265934,4.538109756892076,-0.957958499855503,-0.928058393365795,0.8755241944797367,,0.0238237442897226,0.039426987802551904,0.09203306007999999,-0.11742376536589094,,1.5370548e-05,-4.172325e-06,2.861023e-06,1.0000001,-8.706003e-06,-9.37283e-06,8.694828e-06,1.0,-9.23872e-07,9.380281e-06,8.34465e-07,1.0,258,0.798,0,2,0.219,False,-0.2632143878608417,1.0501909101696396
0.7836832089960808,15:01:17.518857,15:00:02.283546,0,,0.11220551,0.0029781163,0.029812306,0.31028068,0.6725221,-0.671893,0.12883061,0.6705086,0.7306304,0.94187516,-0.31326094,0.12140432,,0.045008637,-0.03140358,0.083064556,0.1571374,0.97062075,0.1822181,-0.2132898,-0.14680098,0.96589684,0.9642693,-0.19064376,0.18395552,,0.057369377,1.3212038,0.43253306,0.9967349,0.07900901,-0.016647426,0.041444026,-0.67755514,-0.73430336,-0.06929614,0.73121583,-0.67861736,,-0.06686309,0.29612514,-0.050151218,-0.38470128,-0.64706016,0.658269,0.7527481,0.19280763,0.62944067,-0.53420526,0.73765737,0.41289994,,0.0008400371,0.50455624,-0.33155966,-0.25286913,-0.91442186,-0.31605357,0.686269,-0.39979017,0.6076205,-0.68197656,-0.06324932,0.72863394,,1.2666903687631783,0.30175034159457426,0.20334641972000003,2.670820810162387,-0.7361974607361932,-0.8666305078081794,-0.4188141855682921,,-1.228501454700138,0.16416985544026463,0.13876265934,4.538109756892076,-0.957958499855503,-0.9281400721059355,0.875850882612005,,0.0238237442897226,0.039426987802551904,0.09203306007999999,-0.11742376536589094,,1.5370548e-05,-4.172325e-06,2.861023e-06,1.0000001,-8.706003e-06,-9.37283e-06,8.694828e-06,1.0,-9.23872e-07,9.380281e-06,8.34465e-07,1.0,266,0.822,0,2,0.219,False,-0.26333354329788383,1.050335750771978
0.8392125480022514,15:01:17.545613,15:00:02.441146,0,,0.111688375,0.0029819757,0.029192835,0.30031985,0.6711979,-0.67771804,0.13420323,0.67371494,0.7267032,0.9443504,-0.30919546,0.11225292,,0.04500722,-0.03140185,0.083064795,0.15714788,0.9706649,0.1819734,-0.21329987,-0.14655349,0.9659323,0.96426535,-0.1906091,0.18401203,,0.057369377,1.3212038,0.43253306,0.9967349,0.07900901,-0.016647426,0.041444026,-0.67755514,-0.73430336,-0.06929614,0.73121583,-0.67861736,,-0.06629823,0.29570952,-0.049751982,-0.3749828,-0.64607215,0.6648148,0.7588236,0.19803424,0.62045884,-0.53251725,0.73713857,0.41599536,,0.00084120606,0.5045575,-0.33155826,-0.25287777,-0.9144988,-0.3158239,0.68625885,-0.39964464,0.6077277,-0.6819836,-0.06305614,0.7286442,,1.2664973004413227,0.2989856032256019,0.20386752830000002,2.6553037543445317,-0.7345578227390079,-0.859064539977215,-0.4183241533698894,,-1.228493731967264,0.16418530090601308,0.13876265934,4.538109756892076,-0.957958499855503,-0.928385108326357,0.8755241944797367,,0.0238237442897226,0.039426987802551904,0.09203306007999999,-0.11742376536589094,,1.5370548e-05,-4.172325e-06,2.861023e-06,1.0000001,-8.706003e-06,-9.37283e-06,8.694828e-06,1.0,-9.23872e-07,9.380281e-06,8.34465e-07,1.0,283,0.876,0,2,0.219,False,-0.26327396557936344,1.0499012289649627
0.8659532969904831,15:01:17.592149,15:00:02.441146,0,,0.11095649,0.0029263645,0.028349191,0.28421882,0.6680805,-0.6876688,0.13960698,0.6807655,0.7190745,0.9485409,-0.30037796,0.10021749,,0.045009144,-0.031399883,0.083067,0.15712863,0.9706692,0.18196735,-0.21331754,-0.14654762,0.96592927,0.96426463,-0.1905919,0.18403387,,0.057369377,1.3212038,0.43253306,0.9967349,0.07900901,-0.016647426,0.041444026,-0.67755514,-0.73430336,-0.06929614,0.73121583,-0.67861736,,-0.06550128,0.2951034,-0.04925403,-0.3592805,-0.6436851,0.6757122,0.7665305,0.20945078,0.6070925,-0.5323049,0.7360705,0.41815272,,0.000838793,0.50456005,-0.33155775,-0.25285664,-0.9145059,-0.3158204,0.68625265,-0.39962786,0.6077457,-0.68199766,-0.06306005,0.72863066,,1.266064827400366,0.2948693866036402,0.20457011748,2.6303506510698735,-0.7345578227390079,-0.8495081273807692,-0.41848749743602354,,-1.2285169001658867,0.16420074637176152,0.13876265934,4.538109756892076,-0.957958499855503,-0.928385108326357,0.8755241944797367,,0.0238237442897226,0.039426987802551904,0.09203306007999999,-0.11742376536589094,,1.5370548e-05,-4.172325e-06,2.861023e-06,1.0000001,-8.706003e-06,-9.37283e-06,8.694828e-06,1.0,-9.23872e-07,9.380281e-06,8.34465e-07,1.0,287,0.888,0,2,0.219,False,-0.2637505873275314,1.0499977893665218
0.9124626010016073,15:01:17.615832,15:00:02.441146,0,,0.110324234,0.0028250217,0.027661681,0.2712631,0.6661983,-0.6946916,0.14550367,0.68507546,0.7137928,0.9514438,-0.29470587,0.08890134,,0.045009434,-0.031400718,0.08306664,0.15712708,0.97066885,0.1819707,-0.21331158,-0.14655241,0.96592987,0.96426624,-0.19059016,0.1840274,,0.057369377,1.3212038,0.43253306,0.9967349,0.07900901,-0.016647426,0.041444026,-0.67755514,-0.73430336,-0.06929614,0.73121583,-0.67861736,,-0.064815976,0.29457313,-0.048890874,-0.34661207,-0.64227176,0.68362784,0.77345437,0.21663272,0.59568334,-0.53068674,0.735226,0.4216804,,0.00083865627,0.5045593,-0.33155832,-0.25285602,-0.9145052,-0.31582293,0.68625724,-0.3996287,0.60774,-0.6819933,-0.06306505,0.7286343,,1.2657713635511456,0.2914327704746103,0.20508085574,2.611268866212782,-0.7329181847418226,-0.8402269060068531,-0.41979424996509773,,-1.2285169001658867,0.1641930236388873,0.13876265934,4.538109756892076,-0.957958499855503,-0.928385108326357,0.8755241944797367,,0.0238237442897226,0.039426987802551904,0.09203306007999999,-0.11742376536589094,,1.5370548e-05,-4.172325e-06,2.861023e-06,1.0000001,-8.706003e-06,-9.37283e-06,8.694828e-06,1.0,-9.23872e-07,9.380281e-06,8.34465e-07,1.0,308,0.953,0,2,0.219,False,-0.2626781883941529,1.0496115477602863
0.9361581739940448,15:01:17.671642,15:00:02.441146,0,,0.1091741,0.0026365072,0.026350677,0.24215549,0.663122,-0.70825857,0.15895405,0.69300693,0.70318913,0.9571283,-0.28286168,0.06240937,,0.045007706,-0.031401284,0.08306378,0.15714788,0.9706649,0.1819734,-0.21329987,-0.14655349,0.9659323,0.96426535,-0.1906091,0.18401203,,0.057369377,1.3212038,0.43253306,0.9967349,0.07900901,-0.016647426,0.041444026,-0.67755514,-0.73430336,-0.06929614,0.73121583,-0.67861736,,-0.063564524,0.29356194,-0.048191987,-0.3180836,-0.6401692,0.6992898,0.788542,0.2308456,0.5700104,-0.52633107,0.7327303,0.43137205,,0.0008407872,0.50455683,-0.33155724,-0.25287777,-0.9144988,-0.3158239,0.68625885,-0.39964464,0.6077277,-0.6819836,-0.06305614,0.7286442,,1.2649450311336035,0.2851928023122369,0.20606473985,2.568492117741939,-0.7267695422523778,-0.8182867274268065,-0.4199575940312321,,-1.228493731967264,0.16418530090601308,0.13876395563000002,4.538109756892076,-0.957958499855503,-0.928385108326357,0.8755241944797367,,0.0238237442897226,0.039426987802551904,0.09203306007999999,-0.11742376536589094,,1.5370548e-05,-4.172325e-06,2.861023e-06,1.0000001,-8.706003e-06,-9.37283e-06,8.694828e-06,1.0,-9.23872e-07,9.380281e-06,8.34465e-07,1.0,316,0.978,0,2,0.219,False,-0.26309523242380006,1.050046069567301
0.9919842929957667,15:01:17.701331,15:00:02.441146,0,,0.10853812,0.00253357,0.025442302,0.22589464,0.6623364,-0.7143405,0.17250681,0.6945075,0.6984988,0.9587561,-0.28101578,0.04262796,,0.045006886,-0.031401373,0.083063245,0.15715532,0.9706638,0.18197316,-0.213298,-0.1465522,0.96593285,0.96426463,-0.19061597,0.1840091,,0.057369377,1.3212038,0.43253306,0.9967349,0.07900901,-0.016647426,0.041444026,-0.67755514,-0.73430336,-0.06929614,0.73121583,-0.67861736,,-0.062857896,0.2928707,-0.0476791,-0.30203784,-0.6395369,0.70694107,0.79999185,0.23326047,0.5528134,-0.51844597,0.7325176,0.4411708,,0.0008416827,0.5045565,-0.33155704,-0.25288522,-0.91449696,-0.31582338,0.6862579,-0.39964965,0.6077255,-0.6819818,-0.06305151,0.7286462,,1.2641109759831872,0.28145499960111225,0.20674269952000002,2.544587464184703,-0.7163851682702043,-0.8029042959866904,-0.4194675618328294,,-1.2284860092343897,0.16418530090601308,0.13876395563000002,4.538109756892076,-0.957958499855503,-0.928385108326357,0.8755241944797367,,0.0238237442897226,0.039426987802551904,0.09203306007999999,-0.11742376536589094,,1.5370548e-05,-4.172325e-06,2.861023e-06,1.0000001,-8.706003e-06,-9.37283e-06,8.694828e-06,1.0,-9.23872e-07,9.380281e-06,8.34465e-07,1.0,329,1.019,0,2,0.219,False,-0.26333354329788383,1.0497563883626244
1.02168839899241,15:01:17.737545,15:00:02.645585,0,,0.10764937,0.0023907274,0.02404055,0.20369147,0.66426235,-0.71921176,0.19611898,0.6920383,0.69470876,0.95919096,-0.2825574,0.010687739,,0.045007423,-0.03140042,0.08306408,0.1571494,0.97066534,0.18197006,-0.21330583,-0.14654869,0.96593165,0.96426386,-0.19061084,0.18401846,,0.057369377,1.3212038,0.43253306,0.9967349,0.07900901,-0.016647426,0.041444026,-0.67755514,-0.73430336,-0.06929614,0.73121583,-0.67861736,,-0.06185987,0.29180944,-0.0468711,-0.2799984,-0.64132774,0.7143526,0.8178337,0.23033354,0.5273466,-0.50274134,0.73187786,0.46000645,,0.0008409239,0.5045576,-0.33155668,-0.25287837,-0.9144995,-0.31582138,0.6862543,-0.3996438,0.60773337,-0.68198794,-0.06305114,0.7286405,,1.2628907841890598,0.27654334149310544,0.20769547267000002,2.5152308720968697,-0.6979392408018699,-0.7791483114189403,-0.41897752963442647,,-1.228493731967264,0.1641930236388873,0.13876395563000002,4.538109756892076,-0.957958499855503,-0.928385108326357,0.8755241944797367,,0.0238237442897226,0.039426987802551904,0.09203306007999999,-0.11742376536589094,,1.5370548e-05,-4.172325e-06,2.861023e-06,1.0000001,-8.706003e-06,-9.37283e-06,8.694828e-06,1.0,-9.23872e-07,9.380281e-06,8.34465e-07,1.0,338,1.048,0,2,0.219,False,-0.2629164992682367,1.0502874705711984
1.057878849998815,15:01:17.773344,15:00:02.645585,0,,0.107007444,0.002297923,0.022905901,0.19052385,0.66567177,-0.7215137,0.21572253,0.6886214,0.6922891,0.95768714,-0.2875444,-0.0124017,,0.04500664,-0.031400092,0.08306551,0.15715091,0.9706657,0.18196674,-0.21331188,-0.14654388,0.96593106,0.9642623,-0.19061257,0.18402484,,0.057369377,1.3212038,0.43253306,0.9967349,0.07900901,-0.016647426,0.041444026,-0.67755514,-0.73430336,-0.06929614,0.73121583,-0.67861736,,-0.061129298,0.29096144,-0.046196368,-0.26680124,-0.6423266,0.718494,0.83098024,0.2242893,0.5090836,-0.4881485,0.73287845,0.47392005,,0.0008414795,0.5045591,-0.3315571,-0.25287896,-0.91450024,-0.31581885,0.68624973,-0.39964294,0.6077391,-0.68199235,-0.06304614,0.72863686,,1.261894551648285,0.2727205887203643,0.20849398731000002,2.498245986674623,-0.6814062243302514,-0.7636339250163077,-0.4201209380973663,,-1.228493731967264,0.16420074637176152,0.13876265934,4.538109756892076,-0.957958499855503,-0.928385108326357,0.8755241944797367,,0.0238237442897226,0.039426987802551904,0.09203306007999999,-0.11742376536589094,,1.5370548e-05,-4.172325e-06,2.861023e-06,1.0000001,-8.706003e-06,-9.37283e-06,8.694828e-06,1.0,-9.23872e-07,9.380281e-06,8.34465e-07,1.0,351,1.089,0,2,0.219,False,-0.2632143878608417,1.0496115477602863
1.0936806359968614,15:01:17.805917,15:00:02.645585,0,,0.10641377,0.002164498,0.021925196,0.17486279,0.66502684,-0.7260597,0.23047253,0.6892871,0.686852,0.9572385,-0.28744167,-0.032739818,,0.045004264,-0.031402268,0.083066225,0.15716428,0.97064817,0.18204893,-0.21330202,-0.14662507,0.9659209,0.9642623,-0.19063964,0.18399692,,0.057369377,1.3212038,0.43253306,0.9967349,0.07900901,-0.016647426,0.041444026,-0.67755514,-0.73430336,-0.06929614,0.73121583,-0.67861736,,-0.060458988,0.2901943,-0.04565393,-0.25119072,-0.6416936,0.72466034,0.8417104,0.22485903,0.49087888,-0.47794023,0.7332583,0.48363763,,0.00084397156,0.50455904,-0.33155927,-0.25289327,-0.91446996,-0.31589502,0.68625236,-0.3997035,0.60769635,-0.6819844,-0.06310138,0.7286395,,1.2609137645732584,0.2691758543310953,0.20917324327000003,2.478325442043593,-0.6692455758511273,-0.7508434286862129,-0.4201209380973663,,-1.2284782865015154,0.1641930236388873,0.13876006676000002,4.538109756892076,-0.957958499855503,-0.9283034295862165,0.8756875385458709,,0.0238237442897226,0.039426987802551904,0.09203306007999999,-0.11742376536589094,,1.5370548e-05,-4.172325e-06,2.861023e-06,1.0000001,-8.706003e-06,-9.37283e-06,8.694828e-06,1.0,-9.23872e-07,9.380281e-06,8.34465e-07,1.0,364,1.13,0,2,0.219,False,-0.2620824112089424,1.0499977893665218
1.126270127002499,15:01:17.847708,15:00:02.645585,0,,0.10551779,0.002084896,0.020262584,0.1507478,0.6628568,-0.73341405,0.25730115,0.6900138,0.6765182,0.95450056,-0.290692,-0.06653586,,0.044998243,-0.031410046,0.0830667,0.15720126,0.9706244,0.18214358,-0.21326071,-0.14672042,0.9659156,0.96426535,-0.19068721,0.18393132,,0.057369377,1.3212038,0.43253306,0.9967349,0.07900901,-0.016647426,0.041444026,-0.67755514,-0.73430336,-0.06929614,0.73121583,-0.67861736,,-0.059433125,0.28898776,-0.044621836,-0.22700053,-0.63927317,0.7347112,0.859573,0.2231307,0.45972484,-0.4578264,0.7358957,0.49885115,,0.0008507551,0.5045566,-0.33156595,-0.25293493,-0.91442937,-0.31597927,0.68626934,-0.3997875,0.6076219,-0.6819518,-0.06315807,0.72866505,,1.2594464453271557,0.2640711279012329,0.21039305216,2.4493882298427287,-0.6453341883921753,-0.7335044500296931,-0.4219177228248434,,-1.22843195010427,0.1641544099745162,0.13875358531,4.538109756892076,-0.957958499855503,-0.9282217508460759,0.875524194479737,,0.0238237442897226,0.039426987802551904,0.09203306007999999,-0.11742376536589094,,1.5370548e-05,-4.172325e-06,2.861023e-06,1.0000001,-8.706003e-06,-9.37283e-06,8.694828e-06,1.0,-9.23872e-07,9.380281e-06,8.34465e-07,1.0,373,1.158,0,2,0.219,False,-0.2626186106756321,1.0499495091657423
1.167995219992008,15:01:17.877210,15:00:02.774900,0,,0.10471067,0.00189206,0.018795267,0.11465996,0.65265626,-0.748928,0.30989537,0.69277906,0.65116966,0.94383156,-0.3067525,-0.12282123,,0.044995017,-0.03141702,0.083073795,0.15708305,0.97070825,0.1817987,-0.2133039,-0.14639115,0.965956,0.96427506,-0.19051366,0.18406022,,0.057369377,1.3212038,0.43253306,0.9967349,0.07900901,-0.016647426,0.041444026,-0.67755514,-0.73430336,-0.06929614,0.73121583,-0.67861736,,-0.058511116,0.2878398,-0.04380104,-0.19030698,-0.62783146,0.7547257,0.890079,0.21399283,0.40245044,-0.41417694,0.7483547,0.5180953,,0.0008538576,0.50455964,-0.33157542,-0.25281468,-0.9145726,-0.31566077,0.6862761,-0.39948985,0.60781,-0.68198967,-0.06296714,0.72864616,,1.2585892219781167,0.2602869887928629,0.21124082582000003,2.4116440400155144,-0.5913627709848263,-0.7209111550723699,-0.4387421616366741,,-1.228424227371396,0.1641312417758935,0.13874451128,4.538109756892076,-0.9580951363552683,-0.9286004053832229,0.875524194479737,,0.0238237442897226,0.039426987802551904,0.09203306007999999,-0.11742376536589094,,1.5370548e-05,-4.172325e-06,2.861023e-06,1.0000001,-8.706003e-06,-9.37283e-06,8.694828e-06,1.0,-9.23872e-07,9.380281e-06,8.34465e-07,1.0,386,1.199,0,2,0.219,False,-0.2629164992682367,1.0501909101696396
1.197567237992189,15:01:17.923374,15:00:02.774900,0,,0.10344322,0.0013256073,0.017296284,0.10068196,0.6578769,-0.7463654,0.3439926,0.6808933,0.64657044,0.93355894,-0.3218422,-0.15775126,,0.044991024,-0.031429,0.08308655,0.15718165,0.9707414,0.18153621,-0.21321484,-0.14612883,0.9660154,0.9642787,-0.19054605,0.18400761,,0.057369377,1.3212038,0.43253306,0.9967349,0.07900901,-0.016647426,0.041444026,-0.67755514,-0.73430336,-0.06929614,0.73121583,-0.67861736,,-0.057126798,0.28643999,-0.043254707,-0.17563872,-0.63180315,0.7549674,0.9068612,0.1945856,0.37381712,-0.38308463,0.7503074,0.53878105,,0.00085756124,0.5045652,-0.33159208,-0.25292268,-0.91463184,-0.3154025,0.6863069,-0.39939204,0.60783947,-0.68191856,-0.06272654,0.7287335,,1.2584811037178776,0.2527650469733682,0.21209119206000002,2.397804503745536,-0.5597997395390095,-0.6996834152454199,-0.43531193624785414,,-1.2284396728371443,0.1640926281115224,0.13872636322,4.538109756892076,-0.957958499855503,-0.9288751807672004,0.8755241944797365,,0.0238237442897226,0.039426987802551904,0.09203306007999999,-0.11742376536589094,,1.5370548e-05,-4.172325e-06,2.861023e-06,1.0000001,-8.706003e-06,-9.37283e-06,8.694828e-06,1.0,-9.23872e-07,9.380281e-06,8.34465e-07,1.0,399,1.24,0,2,0.219,False,-0.2637505873275314,1.0503840309727575
1.2437305509956786,15:01:17.959548,15:00:02.774900,0,,0.1024209,0.00078077614,0.016487315,0.09379619,0.65030015,-0.75386494,0.3450391,0.6890428,0.63731307,0.93388987,-0.3198905,-0.1597495,,0.044979393,-0.03144402,0.08310121,0.15721118,0.97073364,0.18155181,-0.21317548,-0.14614654,0.9660214,0.96428263,-0.19057171,0.18396056,,0.057369377,1.3212038,0.43253306,0.9967349,0.07900901,-0.016647426,0.041444026,-0.67755514,-0.73430336,-0.06929614,0.73121583,-0.67861736,,-0.05604189,0.28554067,-0.043151718,-0.16880386,-0.6244262,0.7626252,0.9082302,0.20204462,0.36646405,-0.38291407,0.7544998,0.5330168,,0.00086889265,0.50457215,-0.3316121,-0.2529569,-0.9146189,-0.31541258,0.6863249,-0.3994214,0.6077999,-0.6818878,-0.06272834,0.7287621,,1.2585351628479973,0.2463706241535103,0.21256304162000003,2.387110316627825,-0.5625324695343182,-0.7008855642573952,-0.4343318718510486,,-1.2284010591727732,0.16405401444715126,0.13870303,4.538109756892076,-0.957958499855503,-0.9288751807672004,0.8755241944797365,,0.0238237442897226,0.039426987802551904,0.09203306007999999,-0.11742376536589094,,1.5370548e-05,-4.172325e-06,2.861023e-06,1.0000001,-8.706003e-06,-9.37283e-06,8.694828e-06,1.0,-9.23872e-07,9.380281e-06,8.34465e-07,1.0,412,1.281,0,2,0.219,False,-0.26428678679422024,1.0496115477602863
1.279821208998328,15:01:17.997961,15:00:02.774900,0,,0.10166166,0.0003696829,0.015794903,0.08848838,0.64593685,-0.7582451,0.3517088,0.691937,0.630495,0.9319178,-0.322473,-0.1659534,,0.04496084,-0.031464465,0.08312386,0.15726307,0.9707225,0.1815668,-0.21313033,-0.14616051,0.9660292,0.96428406,-0.19061808,0.18390462,,0.057369377,1.3212038,0.43253306,0.9967349,0.07900901,-0.016647426,0.041444026,-0.67755514,-0.73430336,-0.06929614,0.73121583,-0.67861736,,-0.055228855,0.2848019,-0.043017264,-0.1633722,-0.6198781,0.76750284,0.9116936,0.20241854,0.35754943,-0.37699386,0.75814104,0.5320693,,0.00088667625,0.5045843,-0.3316406,-0.25301346,-0.9146003,-0.3154211,0.6863399,-0.39946586,0.6077537,-0.6818517,-0.06271622,0.72879696,,1.2585042719165003,0.24162114343586225,0.21295581749000003,2.380190548492836,-0.5582967380415896,-0.7000105460445344,-0.43449521591718276,,-1.2283392773097794,0.16401540078278012,0.13866673388,4.538109756892076,-0.957958499855503,-0.9288751807672004,0.8755241944797365,,0.0238237442897226,0.039426987802551904,0.09203306007999999,-0.11742376536589094,,1.5370548e-05,-4.172325e-06,2.861023e-06,1.0000001,-8.706003e-06,-9.37283e-06,8.694828e-06,1.0,-9.23872e-07,9.380281e-06,8.34465e-07,1.0,421,1.31,0,2,0.219,False,-0.2632143878608417,1.0498529487641832
1.3183118789893342,15:01:18.029849,15:00:02.774900,0,,0.10107267,0.00011634827,0.0153923035,0.080483794,0.6442263,-0.76058865,0.36128443,0.69232035,0.6246326,0.9289758,-0.32506174,-0.17702845,,0.044949196,-0.031476952,0.08313185,0.15731494,0.97071123,0.18158177,-0.21308514,-0.14617448,0.9660371,0.9642856,-0.19066441,0.18384862,,0.057369377,1.3212038,0.43253306,0.9967349,0.07900901,-0.016647426,0.041444026,-0.67755514,-0.73430336,-0.06929614,0.73121583,-0.67861736,,-0.054609016,0.28437135,-0.042957284,-0.15518221,-0.61796755,0.7707364,0.9166086,0.20090681,0.3456373,-0.3684388,0.76010036,0.53525716,,0.0008985955,0.5045868,-0.33165497,-0.25307003,-0.9145817,-0.3154296,0.68635494,-0.3995103,0.6077075,-0.68181556,-0.06270411,0.72883177,,1.2591066450806898,0.238586109416292,0.21317489050000002,2.3711738809230014,-0.5487321830580089,-0.6950679158413562,-0.43400518371877994,,-1.2282774954467857,0.16397678711840902,0.13865117840000002,4.538109756892076,-0.957958499855503,-0.9288751807672004,0.8755241944797365,,0.0238237442897226,0.039426987802551904,0.09203306007999999,-0.11742376536589094,,1.5370548e-05,-4.172325e-06,2.861023e-06,1.0000001,-8.706003e-06,-9.37283e-06,8.694828e-06,1.0,-9.23872e-07,9.380281e-06,8.34465e-07,1.0,434,1.351,0,2,0.219,False,-0.262797343831195,1.0499977893665218
1.3501795629999833,15:01:18.068413,15:00:02.961161,0,,0.10082233,0.000107720494,0.01538007,0.076925226,0.64491296,-0.76037496,0.36307842,0.69215053,0.6237801,0.9285778,-0.32406017,-0.18091023,,0.04491937,-0.031481363,0.08312613,0.15754263,0.9706774,0.1815653,-0.2130459,-0.14612263,0.9660536,0.9642571,-0.19087632,0.18377817,,0.057369377,1.3212038,0.43253306,0.9967349,0.07900901,-0.016647426,0.041444026,-0.67755514,-0.73430336,-0.06929614,0.73121583,-0.67861736,,-0.054358482,0.2843715,-0.042968452,-0.15160769,-0.61873144,0.7708349,0.91776335,0.20147543,0.34222522,-0.3670498,0.759328,0.5373038,,0.0009291986,0.50458485,-0.3316548,-0.25329524,-0.9145274,-0.31540632,0.6863117,-0.39965874,0.6076587,-0.6817754,-0.06255001,0.72888255,,1.259932977498232,0.23788334072473757,0.2132137792,2.366560702166342,-0.5464093625619963,-0.6911628296542155,-0.4336784955865115,,-1.228045813460559,0.16399995531703168,0.13864080808,4.538109756892076,-0.957958499855503,-0.9288751807672004,0.8755241944797365,,0.0238237442897226,0.039426987802551904,0.09203306007999999,-0.11742376536589094,,1.5370548e-05,-4.172325e-06,2.861023e-06,1.0000001,-8.706003e-06,-9.37283e-06,8.694828e-06,1.0,-9.23872e-07,9.380281e-06,8.34465e-07,1.0,447,1.392,0,2,0.219,False,-0.2630356547052788,1.0497563883626244
1.3887728809932014,15:01:18.106891,15:00:02.961161,0,,0.100552306,0.0003079921,0.015384972,0.07562412,0.6455842,-0.75993574,0.36112684,0.69264895,0.6243595,0.92944527,-0.32164988,-0.18075693,,0.044863597,-0.03148503,0.08310807,0.15787838,0.97059214,0.18172927,-0.21303636,-0.14622405,0.9660404,0.9642044,-0.19123179,0.18368566,,0.057369377,1.3212038,0.43253306,0.9967349,0.07900901,-0.016647426,0.041444026,-0.67755514,-0.73430336,-0.06929614,0.73121583,-0.67861736,,-0.0540902,0.28452858,-0.042840406,-0.15037507,-0.6195939,0.7703835,0.9171309,0.20352484,0.34270772,-0.3691318,0.75807714,0.5376437,,0.0009868771,0.5045771,-0.33164665,-0.2536203,-0.9143862,-0.31555447,0.68621475,-0.399997,0.6075457,-0.6817522,-0.0624522,0.72891265,,1.2612999012169697,0.2376671042042593,0.21339007464,2.3636250429575587,-0.5475024545601199,-0.68822951792113,-0.4341685277849141,,-1.2275824494881054,0.16405401444715126,0.13863043776,4.538109756892076,-0.9580951363552683,-0.9286820841233635,0.875034162281334,,0.0238237442897226,0.039426987802551904,0.09203306007999999,-0.11742376536589094,,1.5370548e-05,-4.172325e-06,2.861023e-06,1.0000001,-8.706003e-06,-9.37283e-06,8.694828e-06,1.0,-9.23872e-07,9.380281e-06,8.34465e-07,1.0,456,1.42,0,2,0.219,False,-0.2637505873275314,1.0499012289649627
1.4272084120020736,15:01:18.145143,15:00:02.961161,0,,0.10056336,0.0004489869,0.015454099,0.07637767,0.6445896,-0.7607042,0.36127338,0.6932001,0.62366265,0.92932665,-0.32245612,-0.17992814,,0.04484126,-0.031490274,0.08309573,0.15789945,0.97059864,0.18167602,-0.21292022,-0.1461901,0.96607107,0.9642265,-0.19122453,0.18357658,,0.057369377,1.3212038,0.43253306,0.9967349,0.07900901,-0.016647426,0.041444026,-0.67755514,-0.73430336,-0.06929614,0.73121583,-0.67861736,,-0.05410708,0.2846748,-0.04278454,-0.15111713,-0.61853963,0.77108514,0.9171005,0.20337784,0.34287632,-0.36890423,0.75897706,0.5365291,,0.0010110588,0.5045678,-0.33164406,-0.2536575,-0.91439754,-0.3154917,0.686288,-0.399975,0.60747737,-0.6816646,-0.062427003,0.72899675,,1.2618018788537941,0.23827720010132303,0.21341859302000002,2.3644638027314966,-0.5466826355615272,-0.6900415277052763,-0.43449521591718254,,-1.2273739357005014,0.16402312351565437,0.13862914147000002,4.537900066948591,-0.9582317728550338,-0.9285706662196671,0.875034162281334,,0.0238237442897226,0.039426987802551904,0.09203306007999999,-0.11742376536589094,,1.5370548e-05,-4.172325e-06,2.861023e-06,1.0000001,-8.706003e-06,-9.37283e-06,8.694828e-06,1.0,-9.23872e-07,9.380281e-06,8.34465e-07,1.0,469,1.461,0,2,0.219,False,-0.2626186106756321,1.049418426957168
1.4654970400006277,15:01:18.177216,15:00:02.961161,0,,0.10051401,0.00039868057,0.015432835,0.075014524,0.6452565,-0.7602743,0.3594494,0.69366974,0.62419415,0.93014467,-0.32010385,-0.17990184,,0.044830374,-0.031491227,0.08309919,0.15790941,0.9706326,0.18148585,-0.21281305,-0.14602017,0.96612036,0.96424854,-0.19118202,0.18350527,,0.057369377,1.3212038,0.43253306,0.9967349,0.07900901,-0.016647426,0.041444026,-0.67755514,-0.73430336,-0.06929614,0.73121583,-0.67861736,,-0.054056067,0.2846278,-0.042809222,-0.14981903,-0.6193931,0.77065325,0.91652334,0.2053657,0.34323445,-0.37086278,0.7577447,0.53692055,,0.0010214574,0.5045721,-0.33164626,-0.25368264,-0.9144563,-0.31530106,0.6863585,-0.3998598,0.60747355,-0.68158424,-0.06230407,0.72908235,,1.2617169287921777,0.23789878619048602,0.21342248189000002,2.3623669032966514,-0.5487321830580089,-0.6881252229294084,-0.4330251193219741,,-1.2273121538375076,0.16403856898140282,0.13862136373,4.537690377005107,-0.9582317728550338,-0.9285706662196671,0.875034162281334,,0.0238237442897226,0.039426987802551904,0.09203306007999999,-0.11742376536589094,,1.5370548e-05,-4.172325e-06,2.861023e-06,1.0000001,-8.706003e-06,-9.37283e-06,8.694828e-06,1.0,-9.23872e-07,9.380281e-06,8.34465e-07,1.0,482,1.502,0,2,0.219,False,-0.26351227645344677,1.0498529487641832
1.4975724089890718,15:01:18.219786,15:00:02.961161,0,,0.1003814,0.0001847893,0.015244842,0.0738662,0.6452577,-0.7603858,0.36095098,0.693476,0.6235425,0.92965496,-0.32052076,-0.18168204,,0.04480815,-0.031494357,0.08308524,0.15810864,0.97060066,0.18148328,-0.21275562,-0.1459913,0.9661374,0.9642286,-0.19136627,0.18341812,,0.057369377,1.3212038,0.43253306,0.9967349,0.07900901,-0.016647426,0.041444026,-0.67755514,-0.73430336,-0.06929614,0.73121583,-0.67861736,,-0.053908363,0.28435266,-0.04284321,-0.14863904,-0.61936057,0.7709079,0.91726714,0.20493048,0.3415033,-0.3694962,0.75788915,0.5376584,,0.0010454864,0.50456244,-0.33164102,-0.25388306,-0.9144047,-0.3152894,0.68633646,-0.3999965,0.60740846,-0.68153185,-0.06218389,0.72914165,,1.2611995056896046,0.23650097154025138,0.21345748172,2.361108763635744,-0.5483222735587124,-0.6868259018376864,-0.4336784955865115,,-1.2271036400499036,0.1640308462485286,0.13862136373,4.537690377005107,-0.9582317728550338,-0.9285706662196671,0.875034162281334,,0.0238237442897226,0.039426987802551904,0.09203306007999999,-0.11742376536589094,,1.5370548e-05,-4.172325e-06,2.861023e-06,1.0000001,-8.706003e-06,-9.37283e-06,8.694828e-06,1.0,-9.23872e-07,9.380281e-06,8.34465e-07,1.0,491,1.531,0,2,0.219,False,-0.26273776611267374,1.049708108161845
1.5401378519891296,15:01:18.252567,15:00:02.961161,0,,0.100331604,6.3315034e-05,0.0151595175,0.07170642,0.64370435,-0.7619076,0.36206177,0.6949721,0.6212286,0.9293921,-0.32040372,-0.18322688,,0.044816837,-0.03149403,0.083091795,0.15802687,0.97061354,0.18148568,-0.21277654,-0.14600502,0.96613073,0.96423733,-0.1912905,0.183451,,0.057369377,1.3212038,0.43253306,0.9967349,0.07900901,-0.016647426,0.041444026,-0.67755514,-0.73430336,-0.06929614,0.73121583,-0.67861736,,-0.053851623,0.2842104,-0.042875852,-0.14646792,-0.6178252,0.7725537,0.9179676,0.20613454,0.33888638,-0.36862254,0.7588152,0.5369514,,0.0010360583,0.5045667,-0.33164442,-0.25380117,-0.91442543,-0.3152952,0.6863473,-0.39994115,0.60743266,-0.6815514,-0.062234886,0.729119,,1.2608597054431387,0.23586770744456498,0.21345359285,2.3588021742574146,-0.5475024545601199,-0.6874944092598649,-0.43400518371877994,,-1.22718859011152,0.1640308462485286,0.13862006744000002,4.537690377005107,-0.9582317728550338,-0.9285706662196671,0.875034162281334,,0.0238237442897226,0.039426987802551904,0.09203306007999999,-0.11742376536589094,,1.5370548e-05,-4.172325e-06,2.861023e-06,1.0000001,-8.706003e-06,-9.37283e-06,8.694828e-06,1.0,-9.23872e-07,9.380281e-06,8.34465e-07,1.0,504,1.572,0,2,0.219,False,-0.26351227645344677,1.0498529487641832
1.5729261629894609,15:01:18.296571,15:00:03.193254,0,,0.10032518,-0.000106826425,0.015046909,0.07086116,0.6383395,-0.76648635,0.36741006,0.6976894,0.6150115,0.92735577,-0.3251953,-0.18509343,,0.04472489,-0.03151431,0.08305448,0.15794548,0.97061664,0.18153942,-0.21288696,-0.14605202,0.96609926,0.96422637,-0.1912384,0.18356329,,0.057356786,1.3212026,0.43254533,0.996735,0.079007514,-0.01664905,0.04144182,-0.6775553,-0.7343033,-0.06929614,0.73121583,-0.67861736,,-0.053822033,0.2840036,-0.042915724,-0.14547545,-0.6121007,0.7772835,0.9202116,0.20484632,0.33353955,-0.36338344,0.76378703,0.5334621,,0.0011474288,0.5045315,-0.33163235,-0.25370678,-0.91443044,-0.3153567,0.6862969,-0.3999195,0.6075039,-0.68163735,-0.062300462,0.72903305,,1.2605276279295472,0.2352112751502559,0.21345229656000003,2.359011864200899,-0.5421736310692676,-0.6943717484483829,-0.4341685277849142,,-1.2272812629060106,0.1640308462485286,0.13862006744000002,4.537690377005107,-0.9582317728550338,-0.9285706662196671,0.875034162281334,,0.0238237442897226,0.039426987802551904,0.09203306007999999,-0.11742376536589094,,1.9222498e-06,4.708767e-06,-4.2915344e-06,1.0,-1.020357e-05,-1.0989606e-05,1.019612e-05,1.0,-1.1026859e-06,1.0997057e-05,9.834766e-07,1.0,517,1.613,0,2,0.219,False,-0.2635718541719685,1.0495632675595068
1.616925510999863,15:01:18.327756,15:00:03.193254,0,,0.10036997,-0.00017409027,0.014931053,0.0679855,0.6289413,-0.7744745,0.37723938,0.7024341,0.6035533,0.9236171,-0.33319533,-0.1895062,,0.044727437,-0.031513654,0.08305788,0.15791726,0.9706365,0.18145765,-0.21290061,-0.14597332,0.9661082,0.9642279,-0.1911976,0.18359724,,0.057356786,1.3212026,0.43254533,0.996735,0.079007514,-0.01664905,0.04144182,-0.6775553,-0.7343033,-0.06929614,0.73121583,-0.67861736,,-0.053857267,0.28387076,-0.042883005,-0.14233515,-0.60210633,0.7856263,0.924417,0.20286271,0.322955,-0.35382754,0.7722142,0.52772284,,0.0011444027,0.5045343,-0.33163363,-0.2536776,-0.9144644,-0.31528157,0.6862962,-0.39984894,0.60755104,-0.68164885,-0.06225447,0.72902626,,1.2601955504159554,0.23525761154750124,0.21344322253000003,2.3581731044269607,-0.5317892570870942,-0.7053715500736684,-0.4343318718510485,,-1.2273121538375076,0.16403856898140282,0.13861877115000001,4.537690377005107,-0.9582317728550338,-0.9286523449598076,0.8751975063474684,,0.0238237442897226,0.039426987802551904,0.09203306007999999,-0.11742376536589094,,1.9222498e-06,4.708767e-06,-4.2915344e-06,1.0,-1.020357e-05,-1.0989606e-05,1.019612e-05,1.0,-1.1026859e-06,1.0997057e-05,9.834766e-07,1.0,526,1.642,0,2,0.219,False,-0.26196325577190027,1.0492253061540504
1.6481093920010608,15:01:18.361681,15:00:03.193254,0,,0.100413874,-0.00028117,0.014854461,0.06075505,0.61453795,-0.7865442,0.38554397,0.7123959,0.58638537,0.92068714,-0.33887345,-0.19364986,,0.044743575,-0.03151294,0.08306706,0.15777445,0.9706287,0.18162371,-0.21293083,-0.14615965,0.9660733,0.9642446,-0.191095,0.18361643,,0.057356786,1.3212026,0.43254533,0.996735,0.079007514,-0.01664905,0.04144182,-0.6775553,-0.7343033,-0.06929614,0.73121583,-0.67861736,,-0.053894658,0.28373915,-0.04290618,-0.13491462,-0.58732074,0.7980303,0.92842245,0.20644088,0.3088915,-0.34616446,0.78258324,0.5174299,,0.0011272626,0.5045397,-0.3316383,-0.25353554,-0.914448,-0.31544346,0.68631953,-0.39985344,0.6075218,-0.68167824,-0.062466655,0.7289806,,1.2597630773749988,0.23528850247899813,0.21338488948000003,2.3520920960659097,-0.522088065603748,-0.7207966653290458,-0.43465855998331693,,-1.2274588857621178,0.1640308462485286,0.13861877115000001,4.537690377005107,-0.9582317728550338,-0.9284889874795266,0.8748708182151996,,0.0238237442897226,0.039426987802551904,0.09203306007999999,-0.11742376536589094,,1.9222498e-06,4.708767e-06,-4.2915344e-06,1.0,-1.020357e-05,-1.0989606e-05,1.019612e-05,1.0,-1.1026859e-06,1.0997057e-05,9.834766e-07,1.0,539,1.683,0,2,0.219,False,-0.26232072208302704,1.0495632675595068
1.6820366449974244,15:01:18.401470,15:00:03.193254,0,,0.10041873,-0.0005277544,0.014843449,0.05520779,0.60456854,-0.79463756,0.39152652,0.71900547,0.5742282,0.9185093,-0.34282368,-0.19700995,,0.044759154,-0.031513236,0.083075404,0.1576375,0.97064894,0.18163428,-0.21295321,-0.1461917,0.9660635,0.96426207,-0.1909675,0.18365738,,0.057356786,1.3212026,0.43254533,0.996735,0.079007514,-0.01664905,0.04144182,-0.6775553,-0.7343033,-0.06929614,0.73121583,-0.67861736,,-0.053898018,0.28356168,-0.04307779,-0.12922616,-0.5770845,0.80639577,0.9312794,0.208707,0.29859686,-0.34061605,0.7895663,0.51045644,,0.0011108821,0.504544,-0.33164337,-0.2534003,-0.9144805,-0.31545797,0.6863464,-0.39976454,0.6075499,-0.6817015,-0.06256011,0.72895086,,1.2592610997381743,0.23474791117780242,0.21321248291000003,2.3472692273657656,-0.5155295136150068,-0.7308004128944863,-0.4341685277849143,,-1.2275978949538537,0.16401540078278012,0.13861877115000001,4.537690377005107,-0.9582317728550338,-0.9284889874795266,0.8748708182151996,,0.0238237442897226,0.039426987802551904,0.09203306007999999,-0.11742376536589094,,1.9222498e-06,4.708767e-06,-4.2915344e-06,1.0,-1.020357e-05,-1.0989606e-05,1.019612e-05,1.0,-1.1026859e-06,1.0997057e-05,9.834766e-07,1.0,552,1.723,0,2,0.219,False,-0.26160578946077395,1.0499495091657423
1.721829235990299,15:01:18.441582,15:00:03.320158,0,,0.10059683,-0.00092606246,0.014926448,0.0549262,0.60306674,-0.79579747,0.39493126,0.7188868,0.57204103,0.9170674,-0.34570545,-0.19868429,,0.044753738,-0.031507753,0.08307397,0.15768388,0.97063047,0.1816925,-0.2129795,-0.14623564,0.9660511,0.9642488,-0.19102748,0.18366536,,0.057356786,1.3212026,0.43254533,0.996735,0.079007514,-0.01664905,0.04144182,-0.6775553,-0.7343033,-0.06929614,0.73121583,-0.67861736,,-0.054081183,0.28333792,-0.043414876,-0.12883891,-0.57535744,0.8076908,0.93258697,0.20662594,0.29595146,-0.3371677,0.79137194,0.5099494,,0.0011157567,0.50454646,-0.33163777,-0.25344115,-0.9144495,-0.31551486,0.68631405,-0.3998343,0.6075406,-0.6817189,-0.06256649,0.728934,,1.2580100170125499,0.23423821080810361,0.21285989203000003,2.3483176770831884,-0.5130700566192289,-0.7332960076018651,-0.4341685277849142,,-1.2275592812894827,0.16406173718002548,0.13862006744000002,4.537690377005107,-0.9582317728550338,-0.928407308739386,0.8750341622813338,,0.0238237442897226,0.039426987802551904,0.09203306007999999,-0.11742376536589094,,1.9222498e-06,4.708767e-06,-4.2915344e-06,1.0,-1.020357e-05,-1.0989606e-05,1.019612e-05,1.0,-1.1026859e-06,1.0997057e-05,9.834766e-07,1.0,561,1.752,0,2,0.219,False,-0.2599376133421849,1.0493218665556094
1.761940237993258,15:01:18.478074,15:00:03.320158,0,,0.10081512,-0.0013314933,0.014952347,0.057415627,0.6048199,-0.79428977,0.39674032,0.71625936,0.5740814,0.9161335,-0.34808815,-0.1988321,,0.044752114,-0.031510554,0.083079696,0.15767643,0.9706169,0.18177196,-0.21298143,-0.14631578,0.9660385,0.9642495,-0.19103557,0.18365276,,0.057356786,1.3212026,0.43254533,0.996735,0.079007514,-0.01664905,0.04144182,-0.6775553,-0.7343033,-0.06929614,0.73121583,-0.67861736,,-0.05429984,0.28306547,-0.043715984,-0.13125041,-0.5769086,0.80619466,0.93300265,0.202991,0.29715434,-0.33508113,0.79118335,0.5116146,,0.0011169509,0.5045502,-0.33164304,-0.2534337,-0.9144257,-0.31559005,0.686315,-0.3998789,0.60751015,-0.6817207,-0.06263067,0.72892684,,1.2564191340404598,0.23362811491103988,0.21255007872,2.352301786009394,-0.5130700566192289,-0.7332143288617246,-0.43400518371877983,,-1.227567004022357,0.16406173718002548,0.13861358599,4.537690377005107,-0.9582317728550338,-0.9283256299992454,0.8751975063474682,,0.0238237442897226,0.039426987802551904,0.09203306007999999,-0.11742376536589094,,1.9222498e-06,4.708767e-06,-4.2915344e-06,1.0,-1.020357e-05,-1.0989606e-05,1.019612e-05,1.0,-1.1026859e-06,1.0997057e-05,9.834766e-07,1.0,574,1.793,0,2,0.219,False,-0.25737577144578117,1.04927358635483
1.798392133001471,15:01:18.512985,15:00:03.320158,0,,0.10127754,-0.0019581914,0.014977708,0.06220439,0.61048377,-0.7895822,0.3999616,0.70956576,0.58012676,0.9144187,-0.35188913,-0.20003206,,0.04474213,-0.03151726,0.08307707,0.15775211,0.9706025,0.1817829,-0.21293649,-0.1463212,0.9660476,0.96424705,-0.19110434,0.18359417,,0.057356786,1.3212026,0.43254533,0.996735,0.079007514,-0.01664905,0.04144182,-0.6775553,-0.7343033,-0.06929614,0.73121583,-0.67861736,,-0.054761264,0.28262627,-0.04416477,-0.13589516,-0.58223486,0.8015828,0.93368375,0.19530441,0.30015132,-0.33131123,0.789214,0.51708233,,0.0011279195,0.5045463,-0.33164707,-0.2535132,-0.9144021,-0.3155944,0.6863225,-0.39993757,0.60746306,-0.68168354,-0.062599644,0.7289642,,1.2534922182811286,0.23304890994547303,0.21205878481,2.3600603139183214,-0.512796783619698,-0.7304967300240572,-0.4317183667929001,,-1.2274820539607405,0.1640308462485286,0.13860840083,4.537690377005107,-0.9582317728550338,-0.9283256299992454,0.8751975063474682,,0.0238237442897226,0.039426987802551904,0.09203306007999999,-0.11742376536589094,,1.9222498e-06,4.708767e-06,-4.2915344e-06,1.0,-1.020357e-05,-1.0989606e-05,1.019612e-05,1.0,-1.1026859e-06,1.0997057e-05,9.834766e-07,1.0,587,1.834,0,2,0.219,False,-0.25350321974191337,1.04927358635483
1.8333163770003011,15:01:18.552631,15:00:03.320158,0,,0.10188866,-0.0026189834,0.015081033,0.06509757,0.61511993,-0.78574145,0.4051279,0.7033067,0.5841498,0.9119396,-0.3563527,-0.20341875,,0.044731632,-0.03151869,0.08308041,0.15781619,0.97060907,0.1816919,-0.21293926,-0.14621794,0.96606266,0.964236,-0.1911497,0.1836051,,0.057356786,1.3212026,0.43254533,0.996735,0.079007514,-0.01664905,0.04144182,-0.6775553,-0.7343033,-0.06929614,0.73121583,-0.67861736,,-0.055377048,0.2822113,-0.044683825,-0.13859423,-0.5864849,0.79801446,0.93525857,0.18749695,0.3002271,-0.32570395,0.78795964,0.522529,,0.0011379928,0.50455016,-0.33164963,-0.25357455,-0.91441494,-0.31550795,0.6863009,-0.3999257,0.6074953,-0.6816825,-0.062488023,0.72897476,,1.2501868886109606,0.23306435541122147,0.21144952851,2.366560702166342,-0.5099274171246237,-0.7289159264749351,-0.42812479733794584,,-1.2274202720977467,0.16405401444715126,0.13860062309,4.537690377005107,-0.9582317728550338,-0.928407308739386,0.8750341622813338,,0.0238237442897226,0.039426987802551904,0.09203306007999999,-0.11742376536589094,,1.9222498e-06,4.708767e-06,-4.2915344e-06,1.0,-1.020357e-05,-1.0989606e-05,1.019612e-05,1.0,-1.1026859e-06,1.0997057e-05,9.834766e-07,1.0,600,1.875,0,2,0.219,False,0.05028356699683467,1.049514987358727
1.8729894389980473,15:01:18.590964,15:00:03.320158,0,,0.1023276,-0.0030147433,0.015135363,0.06443247,0.61778843,-0.78370005,0.40723234,0.7006879,0.58583117,0.9110491,-0.35689467,-0.20643651,,0.044730157,-0.03152042,0.08308351,0.15781619,0.9706239,0.18161261,-0.21293926,-0.14613904,0.9660746,0.964236,-0.19113474,0.18362072,,0.057356786,1.3212026,0.43254533,0.996735,0.079007514,-0.01664905,0.04144182,-0.6775553,-0.7343033,-0.06929614,0.73121583,-0.67861736,,-0.055817943,0.28195295,-0.044985663,-0.13786544,-0.5890953,0.79621595,0.9360966,0.18514787,0.29907098,-0.323599,0.78656656,0.5259246,,0.0011392457,0.50455225,-0.33165267,-0.25357455,-0.9144407,-0.31543323,0.6863009,-0.3998761,0.607528,-0.6816825,-0.062428482,0.7289799,,1.2478469005500705,0.2333192055960709,0.21108138215000002,2.367818841827249,-0.5089709616262656,-0.7273271683367337,-0.4201209380973663,,-1.2274202720977467,0.16405401444715126,0.13859673422000002,4.537690377005107,-0.9582317728550338,-0.9284889874795266,0.8748708182151996,,0.0238237442897226,0.039426987802551904,0.09203306007999999,-0.11742376536589094,,1.9222498e-06,4.708767e-06,-4.2915344e-06,1.0,-1.020357e-05,-1.0989606e-05,1.019612e-05,1.0,-1.1026859e-06,1.0997057e-05,9.834766e-07,1.0,609,1.904,0,2,0.219,False,0.3611005245210652,1.0491770259532711
1.9113220599974738,15:01:18.629230,15:00:03.512746,0,,0.10283135,-0.003336221,0.015147641,0.0628348,0.620359,-0.78179693,0.411133,0.6977004,0.5866717,0.9094073,-0.35828605,-0.21121028,,0.044731118,-0.031524025,0.08308822,0.15767722,0.97062254,0.18174075,-0.21299416,-0.14628205,0.96604085,0.9642465,-0.19103238,0.18367156,,0.057356786,1.3212026,0.43254533,0.996735,0.079007514,-0.01664905,0.04144182,-0.6775553,-0.7343033,-0.06929614,0.73121583,-0.67861736,,-0.05632028,0.2817112,-0.045201257,-0.13615158,-0.5915393,0.7946974,0.93767804,0.1819358,0.2960731,-0.3197228,0.7854811,0.5299026,,0.0011381214,0.5045543,-0.33165815,-0.2534326,-0.9144356,-0.31556198,0.686306,-0.3998603,0.60753256,-0.6817301,-0.06260355,0.72892034,,1.245383348763193,0.23402969702049956,0.21077027255000003,2.368657601601187,-0.505691685631895,-0.7259172610184196,-0.39104569432546443,,-1.2274357175634951,0.16403856898140282,0.13859284535000002,4.537690377005107,-0.9583684093547993,-0.9283775695758302,0.8748708182151996,,0.0238237442897226,0.039426987802551904,0.09203306007999999,-0.11742376536589094,,1.9222498e-06,4.708767e-06,-4.2915344e-06,1.0,-1.020357e-05,-1.0989606e-05,1.019612e-05,1.0,-1.1026859e-06,1.0997057e-05,9.834766e-07,1.0,622,1.945,0,2,0.219,False,0.5020614065418298,1.0491287457524916
1.9495824030018412,15:01:18.660916,15:00:03.512746,0,,0.10313399,-0.0034758598,0.015155762,0.061903335,0.6199702,-0.7821796,0.41298872,0.697535,0.585564,0.90863,-0.3592798,-0.212861,,0.04473068,-0.031524204,0.08309114,0.1576713,0.9706241,0.18173765,-0.21300203,-0.1462785,0.96603966,0.9642458,-0.19102725,0.18368092,,0.057356786,1.3212026,0.43254533,0.996735,0.079007514,-0.01664905,0.04144182,-0.6775553,-0.7343033,-0.06929614,0.73121583,-0.67861736,,-0.056622252,0.28160322,-0.045292392,-0.1351657,-0.5910721,0.7952132,0.93844336,0.181125,0.2941391,-0.3178904,0.78602004,0.5302058,,0.0011381983,0.5045568,-0.33165982,-0.25342575,-0.91443825,-0.31555998,0.6863024,-0.39985442,0.6075404,-0.6817363,-0.06260319,0.7289146,,1.2440164250444552,0.23462434745181482,0.21061731033000003,2.3690769814881563,-0.5040520476347098,-0.727580990823339,-0.3518431184532378,,-1.2274434402963694,0.16404629171427704,0.13859025277,4.537690377005107,-0.9583684093547993,-0.9283775695758302,0.8748708182151996,,0.0238237442897226,0.039426987802551904,0.09203306007999999,-0.11742376536589094,,1.9222498e-06,4.708767e-06,-4.2915344e-06,1.0,-1.020357e-05,-1.0989606e-05,1.019612e-05,1.0,-1.1026859e-06,1.0997057e-05,9.834766e-07,1.0,631,1.973,0,2,0.219,False,0.5640222338037044,1.048983905150153
1.9812674979912117,15:01:18.693838,15:00:03.512746,0,,0.103337474,-0.003574416,0.015234962,0.06028731,0.61786073,-0.7839728,0.4124542,0.69979644,0.58323777,0.9089814,-0.35851482,-0.21265051,,0.0447288,-0.031525783,0.0830909,0.15768465,0.97060657,0.18181984,-0.21299225,-0.1463597,0.9660295,0.9642458,-0.1910543,0.18365291,,0.057356786,1.3212026,0.43254533,0.996735,0.079007514,-0.01664905,0.04144182,-0.6775553,-0.7343033,-0.06929614,0.73121583,-0.67861736,,-0.056831155,0.28158087,-0.045407493,-0.13358152,-0.58903605,0.7969897,0.9384278,0.18335728,0.29280263,-0.31860515,0.7870303,0.52827466,,0.001140269,0.50455606,-0.331661,-0.25344005,-0.91440797,-0.31563616,0.68630505,-0.39991495,0.6074977,-0.68172836,-0.062658444,0.7289173,,1.2432055380926617,0.23511087962289098,0.21046175553000002,2.367818841827249,-0.5045985936337716,-0.7304841475543163,-0.28438201913978023,,-1.2274279948306208,0.16403856898140282,0.13858895648000003,4.537690377005107,-0.9583684093547993,-0.9282958908356896,0.8750341622813338,,0.0238237442897226,0.039426987802551904,0.09203306007999999,-0.11742376536589094,,1.9222498e-06,4.708767e-06,-4.2915344e-06,1.0,-1.020357e-05,-1.0989606e-05,1.019612e-05,1.0,-1.1026859e-06,1.0997057e-05,9.834766e-07,1.0,644,2.014,0,2,0.219,False,0.6645298449486874,1.0490321853509326
2.0141668579890393,15:01:18.736783,15:00:03.512746,0,,0.1035288,-0.003665641,0.015386701,0.056946587,0.61847556,-0.7837379,0.41060716,0.7010386,0.58304936,0.9100324,-0.35501117,-0.2140288,,0.044726938,-0.031527452,0.083090544,0.15769799,0.9706187,0.18174346,-0.21298242,-0.14628306,0.96604323,0.96424574,-0.19105127,0.18365616,,0.057356786,1.3212026,0.43254533,0.996735,0.079007514,-0.01664905,0.04144182,-0.6775553,-0.7343033,-0.06929614,0.73121583,-0.67861736,,-0.057033744,0.28161687,-0.045567553,-0.13033068,-0.5899312,0.7968658,0.93812186,0.18671302,0.29166004,-0.3208446,0.7855695,0.5290929,,0.0011423398,0.5045553,-0.33166215,-0.25345433,-0.9144293,-0.31556296,0.68630767,-0.3998762,0.6075202,-0.6817204,-0.06259463,0.7289302,,1.2425799967298494,0.2357132527870805,0.21026083058000003,2.364254112788012,-0.5061015951311915,-0.7289318356530934,-0.1971562878240749,,-1.2274125493648724,0.1640308462485286,0.13858766019000002,4.537690377005107,-0.9583684093547993,-0.9283775695758302,0.8748708182151996,,0.0238237442897226,0.039426987802551904,0.09203306007999999,-0.11742376536589094,,1.9222498e-06,4.708767e-06,-4.2915344e-06,1.0,-1.020357e-05,-1.0989606e-05,1.019612e-05,1.0,-1.1026859e-06,1.0997057e-05,9.834766e-07,1.0,657,2.055,0,2,0.219,False,0.7399552365963156,1.049418426957168
2.057116148993373,15:01:18.776241,15:00:03.512746,0,,0.103872135,-0.0038225204,0.01550214,0.05075459,0.6192004,-0.78359085,0.40713805,0.7036172,0.5823755,0.9119555,-0.34858805,-0.21638834,,0.04472728,-0.03152793,0.08309209,0.15769057,0.97061986,0.18174367,-0.21298435,-0.14628434,0.96604264,0.9642465,-0.1910444,0.1836591,,0.057356786,1.3212026,0.43254533,0.996735,0.079007514,-0.01664905,0.04144182,-0.6775553,-0.7343033,-0.06929614,0.73121583,-0.67861736,,-0.057384804,0.28157243,-0.045742486,-0.12430316,-0.5911722,0.7969091,0.93750536,0.19309594,0.2894782,-0.32501137,0.78308964,0.5302247,,0.0011418627,0.5045563,-0.33166337,-0.2534469,-0.91443115,-0.31556347,0.6863086,-0.3998712,0.6075224,-0.68172216,-0.06259927,0.72892815,,1.2410431728878788,0.2365395852046225,0.21002879467000002,2.3577537245399918,-0.509380871125562,-0.7265845209249415,-0.08869582791091357,,-1.2274202720977467,0.1640308462485286,0.1385863639,4.537690377005107,-0.9583684093547993,-0.9283775695758302,0.8748708182151996,,0.0238237442897226,0.039426987802551904,0.09203306007999999,-0.11742376536589094,,1.9222498e-06,4.708767e-06,-4.2915344e-06,1.0,-1.020357e-05,-1.0989606e-05,1.019612e-05,1.0,-1.1026859e-06,1.0997057e-05,9.834766e-07,1.0,666,2.084,0,2,0.219,False,0.8419522907043242,1.048983905150153
2.096593276000931,15:01:18.803288,15:00:03.512746,0,,0.104334384,-0.004008785,0.0155450255,0.046647258,0.61882854,-0.7841397,0.4031838,0.7065472,0.58157873,0.91392946,-0.34328157,-0.21654326,,0.044727907,-0.03152927,0.083093345,0.15768161,0.9706207,0.18174721,-0.21298027,-0.14629038,0.96604264,0.96424896,-0.19103575,0.18365571,,0.057356786,1.3212026,0.43254533,0.996735,0.079007514,-0.01664905,0.04144182,-0.6775553,-0.7343033,-0.06929614,0.73121583,-0.67861736,,-0.05784854,0.28144813,-0.04588285,-0.12035654,-0.5912318,0.7974705,0.9364685,0.19897576,0.28885195,-0.32945576,0.7815712,0.529722,,0.0011412493,0.50455654,-0.3316652,-0.25343886,-0.91443235,-0.31556654,0.6863142,-0.399867,0.6075189,-0.68171954,-0.0626089,0.72892976,,1.2388113030872279,0.23746631314952946,0.20982009198,2.3539793055572704,-0.5138898756178215,-0.7272367033304095,0.005880386380834102,,-1.2274279948306208,0.16402312351565437,0.13858506761,4.537690377005107,-0.9583684093547993,-0.9283775695758302,0.8748708182151996,,0.0238237442897226,0.039426987802551904,0.09203306007999999,-0.11742376536589094,,1.9222498e-06,4.708767e-06,-4.2915344e-06,1.0,-1.020357e-05,-1.0989606e-05,1.019612e-05,1.0,-1.1026859e-06,1.0997057e-05,9.834766e-07,1.0,679,2.125,0,2,0.219,False,0.8975978798029693,1.0485976635439174
2.1236301439930685,15:01:18.842221,15:00:03.512746,0,,0.10495349,-0.004248962,0.015559584,0.042019673,0.6202182,-0.78330296,0.399094,0.70831347,0.5822508,0.91594684,-0.33707762,-0.21776237,,0.04472816,-0.031527452,0.08309454,0.15767722,0.97062254,0.18174075,-0.21299416,-0.14628205,0.96604085,0.9642465,-0.19103238,0.18367156,,0.057356786,1.3212026,0.43254533,0.996735,0.079007514,-0.01664905,0.04144182,-0.6775553,-0.7343033,-0.06929614,0.73121583,-0.67861736,,-0.05846624,0.28125694,-0.046034776,-0.11589444,-0.5931161,0.7967319,0.9354011,0.20460266,0.28837922,-0.33405584,0.77868545,0.5310891,,0.0011406273,0.50455844,-0.33166423,-0.2534326,-0.9144356,-0.31556198,0.686306,-0.3998603,0.60753256,-0.6817301,-0.06260355,0.72892034,,1.2357762690676577,0.2386787822107827,0.20957638946,2.350204886574549,-0.5188087896093774,-0.7261660934423987,0.14962316457900005,,-1.2274357175634951,0.16403856898140282,0.13858506761,4.537690377005107,-0.9583684093547993,-0.9283775695758302,0.8748708182151996,,0.0238237442897226,0.039426987802551904,0.09203306007999999,-0.11742376536589094,,1.9222498e-06,4.708767e-06,-4.2915344e-06,1.0,-1.020357e-05,-1.0989606e-05,1.019612e-05,1.0,-1.1026859e-06,1.0997057e-05,9.834766e-07,1.0,692,2.166,0,2,0.219,False,0.924109964544829,1.0489356249493738
2.162535179988481,15:01:18.886208,15:00:03.512746,0,,0.10616813,-0.004760802,0.015477002,0.033010505,0.622381,-0.78201807,0.39431378,0.71086526,0.5823977,0.91838294,-0.32758588,-0.22194743,,0.044727698,-0.031528972,0.08309215,0.15780266,0.97062355,0.18162614,-0.21291718,-0.14615944,0.9660764,0.9642431,-0.1911208,0.18359804,,0.057356786,1.3212026,0.43254533,0.996735,0.079007514,-0.01664905,0.04144182,-0.6775553,-0.7343033,-0.06929614,0.73121583,-0.67861736,,-0.059669163,0.28077337,-0.046286345,-0.107096404,-0.59603494,0.79578435,0.93442506,0.21310617,0.28536913,-0.33967653,0.7741629,0.53412706,,0.0011415646,0.5045557,-0.33166432,-0.25356472,-0.91443974,-0.3154439,0.6863202,-0.3998744,0.6075073,-0.68166673,-0.062453102,0.7289925,,1.2295131327066615,0.24081025648406867,0.20915250263000001,2.3437044983265287,-0.5253673415981185,-0.7249019710719985,0.29597944783531394,,-1.2274279948306208,0.16402312351565437,0.13858506761,4.537690377005107,-0.9582317728550338,-0.9284889874795266,0.8748708182151996,,0.0238237442897226,0.039426987802551904,0.09203306007999999,-0.11742376536589094,,1.9222498e-06,4.708767e-06,-4.2915344e-06,1.0,-1.020357e-05,-1.0989606e-05,1.019612e-05,1.0,-1.1026859e-06,1.0997057e-05,9.834766e-07,1.0,701,2.195,0,2,0.219,False,0.9296506923672849,1.048983905150153
2.2065679939987604,15:01:18.915460,15:00:03.512746,0,,0.10697979,-0.0051246583,0.015405342,0.031232022,0.6208537,-0.783304,0.39495647,0.71224153,0.58027685,0.9181689,-0.32749435,-0.22296561,,0.04472799,-0.031529896,0.083091795,0.15780114,0.97062325,0.18162951,-0.21291128,-0.14616422,0.9660769,0.9642446,-0.19111903,0.18359166,,0.057356786,1.3212026,0.43254533,0.996735,0.079007514,-0.01664905,0.04144182,-0.6775553,-0.7343033,-0.06929614,0.73121583,-0.67861736,,-0.06047163,0.2804233,-0.046459068,-0.10530811,-0.59452325,0.79715264,0.9348171,0.21420799,0.28325248,-0.33915666,0.77502066,0.53321266,,0.0011414282,0.5045549,-0.33166492,-0.25356412,-0.9144391,-0.31544644,0.6863248,-0.39987522,0.60750157,-0.6816624,-0.062458098,0.72899616,,1.225404638817574,0.24213856653843527,0.2088582448,2.3449626379874355,-0.5263237970964766,-0.7302479512566655,0.392515790920673,,-1.2274279948306208,0.16401540078278012,0.13858506761,4.537690377005107,-0.9582317728550338,-0.9284889874795266,0.8748708182151996,,0.0238237442897226,0.039426987802551904,0.09203306007999999,-0.11742376536589094,,1.9222498e-06,4.708767e-06,-4.2915344e-06,1.0,-1.020357e-05,-1.0989606e-05,1.019612e-05,1.0,-1.1026859e-06,1.0997057e-05,9.834766e-07,1.0,714,2.235,0,2,0.219,False,0.9522306476867568,1.0491287457524916
2.235799517002306,15:01:18.953968,15:00:03.831056,0,,0.108098134,-0.005661994,0.015283868,0.041143432,0.61741525,-0.7855606,0.4058501,0.7081161,0.5778036,0.9130132,-0.34259284,-0.22144382,,0.04472755,-0.031530045,0.083094776,0.15779522,0.9706248,0.18162635,-0.21291915,-0.14616069,0.9660758,0.9642438,-0.19111392,0.18360108,,0.057356786,1.3212026,0.43254533,0.996735,0.079007514,-0.01664905,0.04144182,-0.6775553,-0.7343033,-0.06929614,0.73121583,-0.67861736,,-0.061575398,0.2798998,-0.046707675,-0.114803776,-0.58988184,0.7992869,0.9379622,0.20063601,0.2827935,-0.32718047,0.7821666,0.53025305,,0.0011415052,0.50455743,-0.33166656,-0.25355726,-0.91444165,-0.3154444,0.68632114,-0.39986935,0.6075095,-0.6816685,-0.06245774,0.72899044,,1.220099121332982,0.24380667683926777,0.20841491362000003,2.362576593240136,-0.5185355166098464,-0.746236863103948,0.5111035829341596,,-1.2274357175634951,0.16402312351565437,0.13858247503,4.537690377005107,-0.9582317728550338,-0.9284889874795266,0.8748708182151996,,0.0238237442897226,0.039426987802551904,0.09203306007999999,-0.11742376536589094,,1.9222498e-06,4.708767e-06,-4.2915344e-06,1.0,-1.020357e-05,-1.0989606e-05,1.019612e-05,1.0,-1.1026859e-06,1.0997057e-05,9.834766e-07,1.0,727,2.276,0,2,0.219,False,0.9960798485182369,1.0495632675595068
2.27430847499636,15:01:18.996000,15:00:03.831056,0,,0.109227836,-0.0062261224,0.015103027,0.06816721,0.6072475,-0.79158306,0.43168825,0.69735515,0.57213724,0.8994435,-0.3807183,-0.21460494,,0.04472921,-0.031529896,0.08309579,0.15778038,0.9706272,0.18162684,-0.21292293,-0.1461632,0.9660745,0.96424544,-0.19110014,0.18360701,,0.057356786,1.3212026,0.43254533,0.996735,0.079007514,-0.01664905,0.04144182,-0.6775553,-0.7343033,-0.06929614,0.73121583,-0.67861736,,-0.06268569,0.2793142,-0.046934575,-0.14072335,-0.5766803,0.80475885,0.9442398,0.16621785,0.28422323,-0.29767123,0.7998822,0.5211338,,0.0011397159,0.5045581,-0.331667,-0.2535424,-0.9144454,-0.31544548,0.6863231,-0.3998593,0.60751384,-0.6816721,-0.062467013,0.7289863,,1.21528785875234,0.24544389620860338,0.20794436035000002,2.401788612671742,-0.49571722114901795,-0.7788107175852865,0.6122135598712788,,-1.2274511630292435,0.16402312351565437,0.13858247503,4.537690377005107,-0.9582317728550338,-0.9284889874795266,0.8748708182151996,,0.0238237442897226,0.039426987802551904,0.09203306007999999,-0.11742376536589094,,1.9222498e-06,4.708767e-06,-4.2915344e-06,1.0,-1.020357e-05,-1.0989606e-05,1.019612e-05,1.0,-1.1026859e-06,1.0997057e-05,9.834766e-07,1.0,736,2.305,0,2,0.219,False,1.031826479630857,1.0494667071579475
2.3163342779880622,15:01:19.023130,15:00:03.831056,0,,0.10977137,-0.0065068156,0.014933243,0.087085515,0.59727895,-0.7972916,0.4535829,0.68878794,0.5655384,0.8869492,-0.41088822,-0.21093218,,0.044730604,-0.031528853,0.08309716,0.15776701,0.9706298,0.1816239,-0.21293274,-0.1461609,0.9660727,0.9642455,-0.1910881,0.18361941,,0.057356786,1.3212026,0.43254533,0.996735,0.079007514,-0.01664905,0.04144182,-0.6775553,-0.7343033,-0.06929614,0.73121583,-0.67861736,,-0.063213274,0.27896607,-0.04699386,-0.15863928,-0.5643171,0.8101727,0.949075,0.13906087,0.282699,-0.2721952,0.81376183,0.51351875,,0.0011380629,0.5045595,-0.33166686,-0.2535281,-0.9144499,-0.315444,0.68632054,-0.3998484,0.607524,-0.68168,-0.062471293,0.7289785,,1.2131486617461797,0.24630111955764228,0.20773825024000003,2.428419235494277,-0.47399201768631294,-0.8023253548229974,0.6535396086032513,,-1.2274666084949921,0.1640308462485286,0.13858247503,4.537690377005107,-0.9582317728550338,-0.9284889874795266,0.8748708182151996,,0.0238237442897226,0.039426987802551904,0.09203306007999999,-0.11742376536589094,,1.9222498e-06,4.708767e-06,-4.2915344e-06,1.0,-1.020357e-05,-1.0989606e-05,1.019612e-05,1.0,-1.1026859e-06,1.0997057e-05,9.834766e-07,1.0,749,2.346,0,2,0.219,False,1.0404056710978855,1.0489356249493738
2.3434812060004333,15:01:19.062718,15:00:03.831056,0,,0.11077707,-0.0070747286,0.014450908,0.13833356,0.5749625,-0.8064006,0.51330817,0.65470856,0.5548615,0.846982,-0.4906882,-0.20456491,,0.04473088,-0.031529717,0.08309674,0.15776548,0.97062945,0.18162726,-0.21292672,-0.14616568,0.9660733,0.96424705,-0.19108637,0.18361303,,0.057356786,1.3212026,0.43254533,0.996735,0.079007514,-0.01664905,0.04144182,-0.6775553,-0.7343033,-0.06929614,0.73121583,-0.67861736,,-0.06417591,0.27816668,-0.047023796,-0.20668499,-0.53562564,0.81877136,0.95801985,0.059153493,0.2805331,-0.1986939,0.8423812,0.50091386,,0.0011379266,0.50455874,-0.33166742,-0.2535275,-0.91444916,-0.31544653,0.68632513,-0.39984924,0.60751826,-0.6816756,-0.06247629,0.7289822,,1.2095189772952943,0.24813912998170773,0.20738825194000002,2.496778157070232,-0.40936295329725964,-0.8501252988629711,0.7257376858346027,,-1.2274666084949921,0.16402312351565437,0.13858247503,4.537690377005107,-0.9582317728550338,-0.9284889874795266,0.8748708182151996,,0.0238237442897226,0.039426987802551904,0.09203306007999999,-0.11742376536589094,,1.9222498e-06,4.708767e-06,-4.2915344e-06,1.0,-1.020357e-05,-1.0989606e-05,1.019612e-05,1.0,-1.1026859e-06,1.0997057e-05,9.834766e-07,1.0,758,2.375,0,2,0.219,False,1.0448144222684426,1.04927358635483
2.3830516210000496,15:01:19.095395,15:00:03.983266,0,,0.11166296,-0.007600412,0.013889015,0.20895624,0.530264,-0.82167953,0.5775658,0.61111444,0.5412548,0.78914833,-0.58767277,-0.17856634,,0.044730477,-0.031532995,0.08309466,0.15782987,0.9705838,0.18181522,-0.21301484,-0.14632311,0.96603006,0.964217,-0.19119775,0.18365449,,0.057356786,1.3212026,0.43254533,0.996735,0.079007514,-0.01664905,0.04144182,-0.6775553,-0.7343033,-0.06929614,0.73121583,-0.67861736,,-0.06501289,0.27734572,-0.04697496,-0.2726304,-0.48322994,0.83196247,0.9559646,-0.0384056,0.29095817,-0.108647674,0.8746507,0.47242126,,0.0011389826,0.50455534,-0.33166915,-0.25357676,-0.91437155,-0.3156319,0.6862447,-0.40001476,0.6075001,-0.6817382,-0.06255283,0.7289171,,1.2066306752003344,0.25028604972074214,0.20714325313,2.583799483616309,-0.330387056432835,-0.9158317070417517,0.7773544107330348,,-1.2274511630292435,0.1640076780499059,0.13858247503,4.537900066948591,-0.9582317728550338,-0.9284889874795266,0.8748708182151996,,0.0238237442897226,0.039426987802551904,0.09203306007999999,-0.11742376536589094,,1.9222498e-06,4.708767e-06,-4.2915344e-06,1.0,-1.020357e-05,-1.0989606e-05,1.019612e-05,1.0,-1.1026859e-06,1.0997057e-05,9.834766e-07,1.0,771,2.416,0,2,0.219,False,1.0456485103277364,1.0491770259532711
2.415742186989519,15:01:19.135296,15:00:03.983266,0,,0.11243068,-0.008068427,0.013323218,0.27186567,0.46445054,-0.8428372,0.639313,0.5674547,0.51891613,0.719283,-0.67991257,-0.14265788,,0.04473058,-0.03153258,0.083094954,0.15788543,0.97054195,0.18199033,-0.21313056,-0.14646387,0.9659832,0.96418226,-0.1913024,0.18372762,,0.057356786,1.3212026,0.43254533,0.996735,0.079007514,-0.01664905,0.04144182,-0.6775553,-0.7343033,-0.06929614,0.73121583,-0.67861736,,-0.06573189,0.27656856,-0.04688773,-0.32992172,-0.41016456,0.85024506,0.9439241,-0.13130943,0.3029275,-0.012604912,0.9025092,0.43048605,,0.0011387947,0.5045558,-0.33166894,-0.2536135,-0.9143005,-0.31580818,0.68614805,-0.40016687,0.60750914,-0.6818218,-0.06261864,0.72883326,,1.2039972232902236,0.25309712448695987,0.20699158720000002,2.6605460029316452,-0.24266642358342222,-0.9874436799549946,0.809533191761488,,-1.2274511630292435,0.16402312351565437,0.13858247503,4.538109756892076,-0.9582317728550338,-0.9284889874795266,0.8748708182151996,,0.0238237442897226,0.039426987802551904,0.09203306007999999,-0.11742376536589094,,1.9222498e-06,4.708767e-06,-4.2915344e-06,1.0,-1.020357e-05,-1.0989606e-05,1.019612e-05,1.0,-1.1026859e-06,1.0997057e-05,9.834766e-07,1.0,780,2.444,0,2,0.219,False,1.0470783755722417,1.048983905150153
2.4556512519920943,15:01:19.163548,15:00:03.983266,0,,0.112757675,-0.008304536,0.013010189,0.29562575,0.43092433,-0.8525899,0.6721613,0.54035604,0.50617623,0.6788259,-0.7227169,-0.12990761,,0.04473225,-0.03153243,0.08309597,0.15787058,0.9705443,0.18199076,-0.21313441,-0.1464664,0.96598196,0.9641839,-0.19128866,0.18373355,,0.057356786,1.3212026,0.43254533,0.996735,0.079007514,-0.01664905,0.04144182,-0.6775553,-0.7343033,-0.06929614,0.73121583,-0.67861736,,-0.06603231,0.2761601,-0.04682803,-0.3504617,-0.37326574,0.85898155,0.9357129,-0.17893572,0.30401227,0.040225103,0.9103047,0.41197968,,0.0011370054,0.5045565,-0.33166936,-0.25359863,-0.91430426,-0.31580922,0.68615,-0.40015683,0.6075135,-0.6818254,-0.06262792,0.7288291,,1.2027075269002283,0.2546957301919243,0.20696177253000003,2.690951044736901,-0.19238419166974016,-1.016111978754053,0.8198238679279475,,-1.2274666084949921,0.16402312351565437,0.13858247503,4.538109756892076,-0.9582317728550338,-0.9284889874795266,0.8748708182151996,,0.0238237442897226,0.039426987802551904,0.09203306007999999,-0.11742376536589094,,1.9222498e-06,4.708767e-06,-4.2915344e-06,1.0,-1.020357e-05,-1.0989606e-05,1.019612e-05,1.0,-1.1026859e-06,1.0997057e-05,9.834766e-07,1.0,793,2.485,0,2,0.219,False,1.0468400646981575,1.0491287457524916
2.4838847899955,15:01:19.203851,15:00:03.983266,0,,0.1132742,-0.008865729,0.012319729,0.33419922,0.34958726,-0.87527114,0.74476963,0.47117427,0.47255987,0.5776062,-0.8098048,-0.102895975,,0.044733085,-0.03153234,0.083096445,0.15786314,0.97053057,0.18207026,-0.21313626,-0.14654653,0.9659694,0.96418476,-0.19129677,0.18372089,,0.057356786,1.3212026,0.43254533,0.996735,0.079007514,-0.01664905,0.04144182,-0.6775553,-0.7343033,-0.06929614,0.73121583,-0.67861736,,-0.06649076,0.2752436,-0.04673661,-0.38102165,-0.28507406,0.87951994,0.90984493,-0.28468964,0.30188403,0.1643309,0.91525114,0.3678461,,0.0011361107,0.5045568,-0.3316696,-0.25359118,-0.91428035,-0.31588444,0.686151,-0.4002014,0.607483,-0.6818272,-0.06269208,0.72882193,,1.1995798200861674,0.25936026084795594,0.20699029091,2.7595196562563404,-0.03825821993432332,-1.0869032607491582,0.8319113288218842,,-1.2274743312278662,0.16402312351565437,0.13858247503,4.538109756892076,-0.9582317728550338,-0.928407308739386,0.8747074741490657,,0.0238237442897226,0.039426987802551904,0.09203306007999999,-0.11742376536589094,,1.9222498e-06,4.708767e-06,-4.2915344e-06,1.0,-1.020357e-05,-1.0989606e-05,1.019612e-05,1.0,-1.1026859e-06,1.0997057e-05,9.834766e-07,1.0,806,2.526,0,2,0.219,False,1.0465421761055524,1.0493218665556094
2.5241264939977555,15:01:19.248345,15:00:04.139601,0,,0.11394103,-0.009366214,0.01160486,0.36884028,0.22723779,-0.9012878,0.8202396,0.37654153,0.43060812,0.43722278,-0.8980979,-0.04750578,,0.044734016,-0.031532876,0.08309537,0.15797526,0.9705344,0.18195273,-0.21306917,-0.14642164,0.9660031,0.96418124,-0.19137317,0.18365988,,0.057356786,1.3212026,0.43254533,0.996735,0.079007514,-0.01664905,0.04144182,-0.6775553,-0.7343033,-0.06929614,0.73121583,-0.67861736,,-0.06709723,0.27434212,-0.04657636,-0.4045464,-0.15584172,0.9011412,0.857781,-0.4063326,0.31481043,0.31710246,0.9003373,0.29805845,,0.0011353953,0.50455546,-0.33166954,-0.25370902,-0.91428894,-0.31576484,0.68616253,-0.4002046,0.60746795,-0.68177176,-0.06254592,0.7288863,,1.1973633957512648,0.264040236969736,0.20717436409,2.805651443822936,0.08567108535293116,-1.150958830118138,0.8384450914672555,,-1.2274820539607405,0.16401540078278012,0.13858247503,4.538109756892076,-0.9580951363552683,-0.9285187266430824,0.8747074741490657,,0.0238237442897226,0.039426987802551904,0.09203306007999999,-0.11742376536589094,,1.9222498e-06,4.708767e-06,-4.2915344e-06,1.0,-1.020357e-05,-1.0989606e-05,1.019612e-05,1.0,-1.1026859e-06,1.0997057e-05,9.834766e-07,1.0,815,2.555,0,2,0.219,False,1.0467209092611154,1.0490321853509326
2.5686727239954052,15:01:19.269900,15:00:04.139601,0,,0.1141891,-0.009407878,0.011366487,0.37967068,0.16979578,-0.9094061,0.84041554,0.34761488,0.41577098,0.38671926,-0.9221353,-0.01071988,,0.044734336,-0.031534724,0.08309156,0.15809919,0.97054994,0.18176217,-0.21298635,-0.14622492,0.9660512,0.9641792,-0.1914448,0.18359572,,0.057356786,1.3212026,0.43254533,0.996735,0.079007514,-0.01664905,0.04144182,-0.6775553,-0.7343033,-0.06929614,0.73121583,-0.67861736,,-0.06732541,0.2741259,-0.04643046,-0.4113657,-0.09659499,0.9063375,0.83436257,-0.44017953,0.33178475,0.36690247,0.89269894,0.26167,,0.001135779,0.50455123,-0.3316692,-0.25384054,-0.91431814,-0.31557462,0.6861812,-0.4001699,0.6074697,-0.68170404,-0.06234093,0.72896725,,1.1963980541419867,0.2666659661469723,0.20736751130000003,2.8278785778322955,0.14046232175887277,-1.1919618661940776,0.8407319083931355,,-1.2274743312278662,0.16399223258415746,0.13858377132000002,4.538109756892076,-0.957958499855503,-0.9287118232869193,0.8745441300829315,,0.0238237442897226,0.039426987802551904,0.09203306007999999,-0.11742376536589094,,1.9222498e-06,4.708767e-06,-4.2915344e-06,1.0,-1.020357e-05,-1.0989606e-05,1.019612e-05,1.0,-1.1026859e-06,1.0997057e-05,9.834766e-07,1.0,828,2.596,0,2,0.219,False,1.0472571087278046,1.0489356249493738
2.590249064989621,15:01:19.314359,15:00:04.139601,0,,0.11471836,-0.009164393,0.011016652,0.40660936,0.05283694,-0.9120729,0.86357427,0.30359837,0.4025759,0.2981747,-0.9513341,0.07781732,,0.044734336,-0.031541847,0.08308953,0.15821704,0.9705639,0.1815849,-0.21287951,-0.14604734,0.9661016,0.9641835,-0.19150949,0.1835059,,0.057356786,1.3212026,0.43254533,0.996735,0.079007514,-0.01664905,0.04144182,-0.6775553,-0.7343033,-0.06929614,0.73121583,-0.67861736,,-0.06782569,0.27400774,-0.045986008,-0.43121642,0.022427695,0.90196973,0.7844491,-0.48457003,0.38708076,0.44574884,0.8744649,0.19136116,,0.0011368709,0.5045459,-0.33167428,-0.25396964,-0.91434443,-0.31539446,0.68621814,-0.4001386,0.6074486,-0.68161875,-0.06215591,0.7290628,,1.1949152894301358,0.2723035611451562,0.20785491634000003,2.876107264833736,0.22640668011133483,-1.2727436425775405,0.8461222625755664,,-1.2274666084949921,0.16393817345403788,0.13858117874,4.538109756892076,-0.9578218633557376,-0.9289049199307562,0.8747074741490655,,0.0238237442897226,0.039426987802551904,0.09203306007999999,-0.11742376536589094,,1.9222498e-06,4.708767e-06,-4.2915344e-06,1.0,-1.020357e-05,-1.0989606e-05,1.019612e-05,1.0,-1.1026859e-06,1.0997057e-05,9.834766e-07,1.0,837,2.625,0,2,0.219,False,1.0466613315425946,1.049418426957168
2.6346885839884635,15:01:19.345030,15:00:04.139601,0,,0.115067914,-0.008773595,0.010747552,0.434083,-0.044899624,-0.8997532,0.8710849,0.27562758,0.4064977,0.22974518,-0.96021545,0.15875664,,0.04473564,-0.031551294,0.083091855,0.15831105,0.97050685,0.18180801,-0.21277246,-0.1462729,0.96609104,0.9641917,-0.19162667,0.18334043,,0.057356786,1.3212026,0.43254533,0.996735,0.079007514,-0.01664905,0.04144182,-0.6775553,-0.7343033,-0.06929614,0.73121583,-0.67861736,,-0.06815364,0.27405992,-0.045499135,-0.45316553,0.12062993,0.8832267,0.73835045,-0.50436777,0.44771838,0.49947932,0.85502136,0.13949493,,0.0011363962,0.50454295,-0.3316836,-0.25407583,-0.91424686,-0.31559184,0.6862626,-0.4003411,0.6072649,-0.6815344,-0.062287554,0.7291304,,1.1940194524167256,0.27695264633543937,0.20839287669000003,2.924126261891692,0.2883030145050794,-1.3388165923188666,0.8511859286257292,,-1.2274820539607405,0.16387639159104408,0.13857469729000002,4.538109756892076,-0.9576852268559721,-0.9286896228738907,0.8745441300829313,,0.0238237442897226,0.039426987802551904,0.09203306007999999,-0.11742376536589094,,1.9222498e-06,4.708767e-06,-4.2915344e-06,1.0,-1.020357e-05,-1.0989606e-05,1.019612e-05,1.0,-1.1026859e-06,1.0997057e-05,9.834766e-07,1.0,850,2.666,0,2,0.219,False,1.047435841883368,1.049370146756389
2.6653844519896666,15:01:19.386709,15:00:04.275793,0,,0.11553239,-0.007984713,0.010410383,0.48479086,-0.15418525,-0.8609324,0.86145365,0.25439182,0.43952504,0.15124595,-0.95473135,0.2561503,,0.044681966,-0.031592093,0.0831154,0.15827009,0.9703561,0.18264587,-0.21265644,-0.14713778,0.96598524,0.964224,-0.1917274,0.18306488,,0.057356786,1.3212026,0.43254533,0.996735,0.079007514,-0.01664905,0.04144182,-0.6775553,-0.7343033,-0.06929614,0.73121583,-0.67861736,,-0.0685917,0.27432904,-0.044669993,-0.49742967,0.22918254,0.8366834,0.6718026,-0.50843984,0.53867453,0.5488579,0.8300387,0.098947644,,0.0011910342,0.5045517,-0.33172876,-0.25405318,-0.9139843,-0.31636947,0.68635494,-0.40083292,0.6068359,-0.68144983,-0.062973164,0.72915053,,1.1926988650952333,0.28303815984032826,0.20923028003000002,3.0050665800767185,0.3476032554032805,-1.4044878554329128,0.8557595624774891,,-1.2274820539607405,0.1637837187965534,0.13856821584,4.538109756892076,-0.9576852268559721,-0.9279545142126254,0.8745441300829311,,0.0238237442897226,0.039426987802551904,0.09203306007999999,-0.11742376536589094,,1.9222498e-06,4.708767e-06,-4.2915344e-06,1.0,-1.020357e-05,-1.0989606e-05,1.019612e-05,1.0,-1.1026859e-06,1.0997057e-05,9.834766e-07,1.0,863,2.707,0,2,0.219,False,1.047793308194494,1.0493218665556094
2.7070683289930457,15:01:19.420777,15:00:04.275793,0,,0.11611436,-0.0070974827,0.010163143,0.523786,-0.18659556,-0.83116204,0.84486145,0.23851731,0.47887218,0.1088911,-0.95304334,0.28257942,,0.04466953,-0.031597327,0.08311558,0.15813386,0.9703345,0.18287872,-0.21269438,-0.1473878,0.9659388,0.9642379,-0.19164492,0.18307766,,0.057372745,1.3212022,0.43254507,0.99673563,0.078996725,-0.016660742,0.04142595,-0.67755663,-0.73430306,-0.06929614,0.73121583,-0.67861736,,-0.06916775,0.27472314,-0.043824404,-0.5328695,0.26139808,0.80481124,0.62738913,-0.5161758,0.5830484,0.5678318,0.8156185,0.111056045,,0.001189561,0.5045496,-0.33173376,-0.25391686,-0.9139493,-0.31657994,0.68637294,-0.40087417,0.60678834,-0.6814825,-0.06321812,0.7290988,,1.1912701595135018,0.28842090465366277,0.20994323953000002,3.064828213969808,0.3735641903587142,-1.405972680761357,0.860496540395383,,-1.2274897766936146,0.16374510513218227,0.13856691955,4.538109756892076,-0.9578218633557376,-0.9277614175687884,0.8743807860167967,,0.0238237442897226,0.039426987802551904,0.09203306007999999,-0.11742376536589094,,1.782924e-05,6.0796738e-06,-4.053116e-06,1.0,-2.1014363e-05,-2.2631139e-05,2.0999461e-05,1.0,-2.1755695e-06,2.263859e-05,2.115965e-06,1.0,872,2.735,0,2,0.219,False,1.0471379532907625,1.0497563883626244
2.7410960879933555,15:01:19.456231,15:00:04.275793,0,,0.11640529,-0.0066882223,0.00989531,0.5381647,-0.2030783,-0.81800854,0.83953524,0.21501756,0.4989469,0.07456085,-0.9552627,0.28620625,,0.044672176,-0.031596046,0.083114445,0.15811901,0.9703219,0.18295844,-0.21269822,-0.1474692,0.9659256,0.9642396,-0.19164613,0.183068,,0.057372745,1.3212022,0.43254507,0.99673563,0.078996725,-0.016660742,0.04142595,-0.67755663,-0.73430306,-0.06929614,0.73121583,-0.67861736,,-0.0694374,0.27479243,-0.043328065,-0.5444523,0.27806285,0.79136133,0.59798664,-0.5329255,0.59866714,0.5882037,0.79916924,0.12387465,,0.0011869362,0.5045489,-0.33173218,-0.25390196,-0.91392726,-0.31665567,0.6863749,-0.4009137,0.60676,-0.68148607,-0.06328694,0.7290895,,1.190073135917997,0.29128603855000007,0.21045397779000002,3.095652635662033,0.40061821731227143,-1.397158861920116,0.8634367335858001,,-1.2275052221593632,0.16374510513218227,0.13856951213000002,4.538109756892076,-0.9578218633557376,-0.927679738828648,0.8745441300829309,,0.0238237442897226,0.039426987802551904,0.09203306007999999,-0.11742376536589094,,1.782924e-05,6.0796738e-06,-4.053116e-06,1.0,-2.1014363e-05,-2.2631139e-05,2.0999461e-05,1.0,-2.1755695e-06,2.263859e-05,2.115965e-06,1.0,885,2.776,0,2,0.219,False,1.0476741527574522,1.0494667071579475
2.7765848549897783,15:01:19.495203,15:00:04.275793,0,,0.11667451,-0.006186053,0.009386286,0.55638987,-0.22284155,-0.8004823,0.8295418,0.20445722,0.5196706,0.047860175,-0.95317316,0.29861432,,0.044675305,-0.03159542,0.08311528,0.15821035,0.97032964,0.18283825,-0.21264279,-0.1473433,0.9659569,0.9642368,-0.1917036,0.18302238,,0.057372745,1.3212022,0.43254507,0.99673563,0.078996725,-0.016660742,0.04142595,-0.67755663,-0.73430306,-0.06929614,0.73121583,-0.67861736,,-0.06966641,0.27475187,-0.042600274,-0.56046623,0.2976224,0.7728509,0.57068384,-0.53747714,0.6208368,0.6001646,0.78901154,0.1313895,,0.0011836735,0.5045494,-0.33173218,-0.25399807,-0.9139423,-0.31653515,0.68638474,-0.40090102,0.6067573,-0.68144035,-0.06314972,0.7291441,,1.188497698411655,0.2934329582890345,0.21118378906000002,3.128783646732588,0.4171512337838897,-1.3968367211836281,0.8652335183132771,,-1.22753611309086,0.16374510513218227,0.13856951213000002,4.538109756892076,-0.9576852268559721,-0.9277911567323445,0.8745441300829309,,0.0238237442897226,0.039426987802551904,0.09203306007999999,-0.11742376536589094,,1.782924e-05,6.0796738e-06,-4.053116e-06,1.0,-2.1014363e-05,-2.2631139e-05,2.0999461e-05,1.0,-2.1755695e-06,2.263859e-05,2.115965e-06,1.0,894,2.805,0,2,0.219,False,1.0470187978537204,1.0496115477602863
2.8155263209919212,15:01:19.527378,15:00:04.417252,0,,0.11683668,-0.005659908,0.008779243,0.57700604,-0.25819084,-0.7748558,0.81658614,0.20077747,0.5411797,0.015845925,-0.9450005,0.32668483,,0.04467669,-0.031594377,0.08311665,0.15819699,0.9703324,0.18283539,-0.21265262,-0.14734101,0.96595514,0.96423674,-0.19169162,0.18303478,,0.057372745,1.3212022,0.43254507,0.99673563,0.078996725,-0.016660742,0.04142595,-0.67755663,-0.73430306,-0.06929614,0.73121583,-0.67861736,,-0.06978095,0.2746631,-0.041793674,-0.5784326,0.33221653,0.7450154,0.53735334,-0.53196734,0.6544174,0.6137321,0.77887285,0.12918957,,0.0011820204,0.5045508,-0.33173203,-0.25398377,-0.91394675,-0.31653368,0.6863821,-0.40089014,0.6067674,-0.68144834,-0.06315398,0.7291363,,1.1869840427683072,0.2951628504528608,0.21202897014000002,3.1686247359946473,0.43587043425175503,-1.4103040417069455,0.8675203352391571,,-1.2275515585566086,0.16375282786505652,0.13856951213000002,4.538109756892076,-0.9576852268559721,-0.9277911567323445,0.8745441300829309,,0.0238237442897226,0.039426987802551904,0.09203306007999999,-0.11742376536589094,,1.782924e-05,6.0796738e-06,-4.053116e-06,1.0,-2.1014363e-05,-2.2631139e-05,2.0999461e-05,1.0,-2.1755695e-06,2.263859e-05,2.115965e-06,1.0,907,2.846,0,2,0.219,False,1.0471975310092834,1.049370146756389
