AlexandreBanks6/ExpertPlaybackApp/resources/Motions/P_18/PC1/Data_PC1_8.csv
Task Time,PC1 Time,PC2 Time,Gaze Calib,s_T_psm1,Tx,Ty,Tz,R00,R01,R02,R10,R11,R12,R20,R21,R22,s_T_psm3,Tx,Ty,Tz,R00,R01,R02,R10,R11,R12,R20,R21,R22,cart_T_ecm,Tx,Ty,Tz,R00,R01,R02,R10,R11,R12,R20,R21,R22,ecm_T_psm1,Tx,Ty,Tz,R00,R01,R02,R10,R11,R12,R20,R21,R22,ecm_T_psm3,Tx,Ty,Tz,R00,R01,R02,R10,R11,R12,R20,R21,R22,psm1_joints,q1,q2,q3,q4,q5,q6,jaw,psm3_joints,q1,q2,q3,q4,q5,q6,jaw,ecm_joints,q1,q2,q3,q4,ecmi_T_ecm,Tx,Ty,Tz,R00,R01,R02,R10,R11,R12,R20,R21,R22,Sample #,Task Duration (s),Collisions (binary),Collisions (increments),Cumulative Collision Time (s),Clutch Press,MTMR Angle,MTML Angle
""
lci_T_si,,,,,-0.066164754,0.026516598,0.23978148,0.99478984,-0.005419439,0.101802684,0.07109325,-0.6788334,-0.7308426,0.07306782,0.7342723,-0.6749113
rci_T_si,,,,,-0.07567082,0.03074627,0.2479851,0.9944939,-0.021734206,0.10251589,0.062365826,-0.66341096,-0.74565166,0.08421631,0.7479395,-0.6584027
ecm_T_lc,,,,,-4.4061628e-05,-0.00034663224,-0.01840835,-0.99912,0.030754527,0.028518902,-0.031987965,-0.99852574,-0.043852776,0.027128186,-0.04472645,0.9986309
ecm_T_rc,,,,,-0.0043358393,0.01870579,-0.007592615,-0.99555075,-0.052743673,-0.078081585,0.04863213,-0.9973746,0.053654674,-0.08070653,0.04961868,0.9955021
cart_T_ecmi,,,,,0.057354428,1.3212025,0.4325391,0.9967344,0.0790177,-0.016638013,0.041456804,-0.67755413,-0.73430353,-0.06929614,0.73121583,-0.67861736
ecmac_T_ecmrep_psm1,,,,,-0.0033900698,-0.29259828,-0.274185,0.99793226,0.043159027,0.047628522,-0.040498573,0.99763834,-0.055476554,-0.049910355,0.053432956,0.99732333
ecmac_T_ecmrep_psm3,,,,,-0.030876445,-0.5082754,-0.4984752,0.99144465,-0.07732987,0.105155215,0.05830459,0.98314613,0.17327517,-0.116782285,-0.16566171,0.97924364
""
0,14:59:26.982715,14:58:11.853490,0,,0.12701043,0.0019969791,0.031362087,0.69687486,0.46178108,-0.54874724,0.48438573,0.26120657,0.83495,0.52890056,-0.84766114,-0.041651964,,0.047639243,-0.030717788,0.08311206,0.1051926,0.9062658,0.4094102,-0.23407823,-0.37756175,0.89590985,0.96651024,-0.19007707,0.17242026,,0.057383,1.3212013,0.43253922,0.9967365,0.07898252,-0.01667614,0.041405052,-0.67755824,-0.7343027,-0.06929614,0.73121583,-0.67861736,,-0.08174867,0.2956866,-0.05113776,-0.73799866,-0.39336446,0.54829043,0.67424405,-0.4628887,0.57543814,0.027440527,0.79435414,0.6068348,,-0.0018463124,0.50448495,-0.33108816,-0.19956307,-0.8241103,-0.5301101,0.68660265,-0.50357926,0.52438986,-0.6991076,-0.25932616,0.6663322,,1.2249876112423659,0.37727866910449,0.19783070577000003,3.16086620808572,-0.11641429780015526,-0.8852168277373959,-0.42044762622963483,,-1.2460243355917535,0.16262530886541973,0.14046987327000002,4.538109756892076,-0.9968999022886535,-0.6921891192010496,0.8760142266781399,,0.0238237442897226,0.039426987802551904,0.09203306007999999,-0.11742376536589094,,2.8423965e-05,3.1590462e-06,3.5762787e-07,1.0,-3.523752e-05,-3.7960708e-05,3.523007e-05,1.0,-3.6358833e-06,3.796816e-05,3.5464764e-06,1.0,33,0.099,0,0,0.0,False,-0.2635718541719685,1.0503840309727575
0.12700102500093635,14:59:27.004533,14:58:11.853490,0,,0.12696482,0.0019061416,0.031679243,0.69543916,0.46620813,-0.5468219,0.4806849,0.26383016,0.8362629,0.5341407,-0.8444192,-0.04062152,,0.04763913,-0.030718146,0.08311182,0.10513974,0.906378,0.40917534,-0.23396781,-0.3773606,0.8960234,0.9665427,-0.18994153,0.1723876,,0.057383,1.3212013,0.43253922,0.9967365,0.07898252,-0.01667614,0.041405052,-0.67755824,-0.7343027,-0.06929614,0.73121583,-0.67861736,,-0.081728265,0.29585692,-0.051423233,-0.7369763,-0.39804223,0.5462859,0.67558956,-0.45900217,0.57697123,0.021087507,0.79427916,0.6071869,,-0.0018461191,0.50448453,-0.33108833,-0.19952807,-0.82426167,-0.5298879,0.6866943,-0.5033827,0.5244586,-0.69902754,-0.25922683,0.6664548,,1.225813943659908,0.3773018373031126,0.19754552197000003,3.1585596187073905,-0.12269957678936552,-0.8838488262138262,-0.42159103469257475,,-1.2460243355917535,0.1626098633996713,0.14046987327000002,4.537900066948591,-0.9968999022886535,-0.6922707979411903,0.8758508826120055,,0.0238237442897226,0.039426987802551904,0.09203306007999999,-0.11742376536589094,,2.8423965e-05,3.1590462e-06,3.5762787e-07,1.0,-3.523752e-05,-3.7960708e-05,3.523007e-05,1.0,-3.6358833e-06,3.796816e-05,3.5464764e-06,1.0,41,0.123,0,0,0.0,False,-0.26249945523859,1.0502391903704191
0.1487825009971857,14:59:27.027937,14:58:11.853490,0,,0.1269222,0.0018059015,0.032184303,0.6913328,0.4781509,-0.54169226,0.47407734,0.2655868,0.83947253,0.54526097,-0.83715916,-0.043071777,,0.047637694,-0.030715106,0.083109796,0.10522118,0.90649617,0.40889257,-0.23381254,-0.37709728,0.8961747,0.96657145,-0.1899008,0.17227143,,0.057383,1.3212013,0.43253922,0.9967365,0.07898252,-0.01667614,0.041405052,-0.67755824,-0.7343027,-0.06929614,0.73121583,-0.67861736,,-0.0817258,0.29615685,-0.051843915,-0.73375356,-0.41053003,0.54136014,0.6793631,-0.45324576,0.57709104,0.008455965,0.7912227,0.6114696,,-0.001844797,0.5044846,-0.33108464,-0.19963013,-0.8244141,-0.52961236,0.6867824,-0.50323665,0.5244834,-0.69891185,-0.25902578,0.6666543,,1.2271113627827777,0.3774717374263456,0.19712293143,3.152478610346339,-0.13499686176825518,-0.8765982920459274,-0.4217543787587089,,-1.2460166128588792,0.1626175861325455,0.14047116956000003,4.537690377005107,-0.9967632657888881,-0.6923822158448867,0.8758508826120055,,0.0238237442897226,0.039426987802551904,0.09203306007999999,-0.11742376536589094,,2.8423965e-05,3.1590462e-06,3.5762787e-07,1.0,-3.523752e-05,-3.7960708e-05,3.523007e-05,1.0,-3.6358833e-06,3.796816e-05,3.5464764e-06,1.0,52,0.157,0,0,0.0,False,-0.2636910096090097,1.0501909101696396
0.17218846500327345,14:59:27.056285,14:58:11.853490,0,,0.12693731,0.001787439,0.0326387,0.6869989,0.4930966,-0.5337491,0.4617668,0.27090368,0.84461975,0.5610738,-0.82672065,-0.041585207,,0.04763916,-0.030719576,0.08310801,0.10521324,0.90655655,0.40876058,-0.233782,-0.3769741,0.8962345,0.9665797,-0.18985659,0.17227381,,0.057383,1.3212013,0.43253922,0.9967365,0.07898252,-0.01667614,0.041405052,-0.67755824,-0.7343027,-0.06929614,0.73121583,-0.67861736,,-0.08177705,0.29647276,-0.052167397,-0.73066425,-0.42627323,0.53331125,0.6826393,-0.4429212,0.58122665,-0.011546501,0.78874075,0.6146175,,-0.0018455003,0.5044806,-0.33108762,-0.19962692,-0.82449365,-0.52948964,0.686806,-0.50314784,0.5245376,-0.69888955,-0.25894484,0.66670907,,1.2282466045152887,0.3776261920838301,0.19680015522000002,3.1466072919287726,-0.1546725177344786,-0.8707639564312131,-0.42093765842803765,,-1.2460166128588792,0.16257897246817438,0.14047116956000003,4.537690377005107,-0.9967632657888881,-0.6925455733251678,0.8758508826120053,,0.0238237442897226,0.039426987802551904,0.09203306007999999,-0.11742376536589094,,2.8423965e-05,3.1590462e-06,3.5762787e-07,1.0,-3.523752e-05,-3.7960708e-05,3.523007e-05,1.0,-3.6358833e-06,3.796816e-05,3.5464764e-06,1.0,60,0.18,0,0,0.0,False,-0.2632143878608417,1.0507219923782136
0.20055778299865779,14:59:27.084386,14:58:11.853490,0,,0.12698132,0.0017914027,0.03297046,0.6827484,0.5057256,-0.5273483,0.44941413,0.27840093,0.84883434,0.5760915,-0.81653816,-0.037202507,,0.04763975,-0.030721335,0.08310735,0.10521006,0.9065875,0.40869293,-0.23376983,-0.3769102,0.89626455,0.9665829,-0.18983607,0.1722779,,0.057383,1.3212013,0.43253922,0.9967365,0.07898252,-0.01667614,0.041405052,-0.67755824,-0.7343027,-0.06929614,0.73121583,-0.67861736,,-0.08184738,0.29671338,-0.052389156,-0.7275945,-0.43969202,0.52657115,0.68530524,-0.43114796,0.5869141,-0.031031385,0.7878974,0.61502415,,-0.0018457816,0.50447905,-0.33108878,-0.19962564,-0.8245342,-0.52942705,0.68681544,-0.50310373,0.52456754,-0.6988806,-0.25890157,0.66673523,,1.2289725414054657,0.37768025121394966,0.19658367479000002,3.1413650433416596,-0.17393826420140568,-0.8685310241332103,-0.42208106689097746,,-1.2460166128588792,0.16256352700242593,0.14047116956000003,4.537690377005107,-0.9967632657888881,-0.6926272520653084,0.8760142266781397,,0.0238237442897226,0.039426987802551904,0.09203306007999999,-0.11742376536589094,,2.8423965e-05,3.1590462e-06,3.5762787e-07,1.0,-3.523752e-05,-3.7960708e-05,3.523007e-05,1.0,-3.6358833e-06,3.796816e-05,3.5464764e-06,1.0,68,0.205,0,0,0.0,False,-0.2635718541719685,1.0502391903704191
0.22866939700907096,14:59:27.110957,14:58:11.853490,0,,0.12697157,0.0017196238,0.033428907,0.67598206,0.5184171,-0.52372885,0.44037613,0.28565672,0.8511574,0.59086126,-0.806005,-0.03519982,,0.04764451,-0.030722735,0.08310926,0.10516944,0.9066223,0.40862623,-0.23376673,-0.37685204,0.8962899,0.9665881,-0.18978553,0.17230466,,0.057383,1.3212013,0.43253922,0.9967365,0.07898252,-0.01667614,0.041405052,-0.67755824,-0.7343027,-0.06929614,0.73121583,-0.67861736,,-0.08187404,0.29699707,-0.0527555,-0.7220053,-0.4532005,0.52279794,0.69021577,-0.41928998,0.58974415,-0.048068408,0.7866418,0.6155357,,-0.0018505544,0.50447917,-0.33109114,-0.19958666,-0.8245817,-0.52936774,0.68682826,-0.50303763,0.5246142,-0.6988792,-0.25887874,0.6667456,,1.2300382785421087,0.37774203307694343,0.19622589875000002,3.132558065715309,-0.1906079171727894,-0.8651478823998173,-0.42289778722164906,,-1.2460552265232505,0.1625480815366775,0.14047116956000003,4.537690377005107,-0.9967632657888881,-0.6927089308054489,0.8761775707442738,,0.0238237442897226,0.039426987802551904,0.09203306007999999,-0.11742376536589094,,2.8423965e-05,3.1590462e-06,3.5762787e-07,1.0,-3.523752e-05,-3.7960708e-05,3.523007e-05,1.0,-3.6358833e-06,3.796816e-05,3.5464764e-06,1.0,76,0.23,0,0,0.0,False,-0.26404847592013647,1.0503840309727575
0.2552451439987635,14:59:27.137567,14:58:12.026144,0,,0.12692215,0.0016212761,0.033862293,0.66924053,0.531706,-0.5190431,0.43547687,0.2853302,0.8537836,0.6020606,-0.797418,-0.04059124,,0.047645643,-0.03072357,0.08310938,0.10516038,0.9066885,0.40848157,-0.23376241,-0.3767114,0.89635015,0.9665901,-0.18974812,0.17233446,,0.057383,1.3212013,0.43253922,0.9967365,0.07898252,-0.01667614,0.041405052,-0.67755824,-0.7343027,-0.06929614,0.73121583,-0.67861736,,-0.081859075,0.29724675,-0.053126145,-0.7161662,-0.46713084,0.5185506,0.695376,-0.41408116,0.5873577,-0.059650864,0.7812334,0.6213825,,-0.0018515933,0.5044787,-0.33109197,-0.1995785,-0.82466817,-0.5292361,0.6868337,-0.50294685,0.52469414,-0.6988762,-0.2587795,0.66678727,,1.2311194611445002,0.37778064674131456,0.19586423384,3.1235413981454747,-0.20181211015355555,-0.8549497906748834,-0.4217543787587089,,-1.2460629492561246,0.16254035880380324,0.14047116956000003,4.537690377005107,-0.9967632657888881,-0.69287228828573,0.8758508826120055,,0.0238237442897226,0.039426987802551904,0.09203306007999999,-0.11742376536589094,,2.8423965e-05,3.1590462e-06,3.5762787e-07,1.0,-3.523752e-05,-3.7960708e-05,3.523007e-05,1.0,-3.6358833e-06,3.796816e-05,3.5464764e-06,1.0,87,0.262,0,0,0.0,False,-0.26285692154971585,1.0500943497680806
0.2818028769979719,14:59:27.167058,14:58:12.026144,0,,0.12688395,0.0015725046,0.03417167,0.6657452,0.5422186,-0.5126229,0.4292552,0.28363892,0.8574898,0.6103468,-0.79091585,-0.043918997,,0.047646224,-0.030725328,0.08310872,0.1051572,0.9067194,0.4084139,-0.23375016,-0.37664753,0.8963802,0.9665934,-0.18972765,0.17233849,,0.057383,1.3212013,0.43253922,0.9967365,0.07898252,-0.01667614,0.041405052,-0.67755824,-0.7343027,-0.06929614,0.73121583,-0.67861736,,-0.081845544,0.29743987,-0.0533753,-0.7133275,-0.47812426,0.5124071,0.69732314,-0.41115463,0.587105,-0.07003056,0.7761115,0.62669504,,-0.0018518745,0.50447714,-0.33109316,-0.19957721,-0.82470864,-0.5291735,0.6868431,-0.5029028,0.524724,-0.69886726,-0.25873622,0.66681343,,1.2319766844935391,0.37775747854269187,0.19562571648000002,3.1191379093323,-0.21205984763596358,-0.8461850541969489,-0.42224441095711174,,-1.2460629492561246,0.1625249133380548,0.14047116956000003,4.537690377005107,-0.9967632657888881,-0.6929539670258704,0.8760142266781397,,0.0238237442897226,0.039426987802551904,0.09203306007999999,-0.11742376536589094,,2.8423965e-05,3.1590462e-06,3.5762787e-07,1.0,-3.523752e-05,-3.7960708e-05,3.523007e-05,1.0,-3.6358833e-06,3.796816e-05,3.5464764e-06,1.0,95,0.287,0,0,0.0,False,-0.264644253105347,1.0506254319766548
0.31134338899573777,14:59:27.192302,14:58:12.026144,0,,0.12677838,0.0014945716,0.034590244,0.66299707,0.54912484,-0.5088189,0.423922,0.2848138,0.8597506,0.6170292,-0.7857118,-0.043955564,,0.04764653,-0.030726193,0.083108366,0.1051556,0.9068181,0.4081949,-0.23374406,-0.3764325,0.89647204,0.9665951,-0.1896822,0.17237926,,0.057383,1.3212013,0.43253922,0.9967365,0.07898252,-0.01667614,0.041405052,-0.67755824,-0.7343027,-0.06929614,0.73121583,-0.67861736,,-0.08177349,0.29769617,-0.053723924,-0.7111079,-0.48542625,0.5086127,0.69867253,-0.40698752,0.5884028,-0.07862718,0.77377164,0.628566,,-0.0018520151,0.5044763,-0.33109373,-0.19957657,-0.8248369,-0.52897376,0.68684787,-0.5027736,0.52484167,-0.6988628,-0.2585784,0.6668793,,1.2333590536780252,0.3777497558098177,0.19528997737,3.115363490349578,-0.22053131062142087,-0.8414824701515661,-0.4220810668909777,,-1.2460629492561246,0.16251719060518058,0.14047116956000003,4.537690377005107,-0.9967632657888881,-0.6931990032462922,0.8758508826120053,,0.0238237442897226,0.039426987802551904,0.09203306007999999,-0.11742376536589094,,2.8423965e-05,3.1590462e-06,3.5762787e-07,1.0,-3.523752e-05,-3.7960708e-05,3.523007e-05,1.0,-3.6358833e-06,3.796816e-05,3.5464764e-06,1.0,103,0.312,0,0,0.0,False,-0.2641080536386573,1.050335750771978
0.33659618299861904,14:59:27.219828,14:58:12.026144,0,,0.12671027,0.0014533103,0.035081446,0.6599403,0.5601787,-0.50067806,0.41168597,0.28783146,0.8646778,0.628485,-0.776758,-0.040666223,,0.047647983,-0.030727504,0.083110094,0.10513904,0.9067851,0.4082725,-0.23374164,-0.37651268,0.89643896,0.9665975,-0.18968105,0.17236707,,0.057383,1.3212013,0.43253922,0.9967365,0.07898252,-0.01667614,0.041405052,-0.67755824,-0.7343027,-0.06929614,0.73121583,-0.67861736,,-0.081744656,0.29802805,-0.05409359,-0.7089445,-0.49716604,0.5002236,0.6987648,-0.3990848,0.59368265,-0.0955272,0.7704267,0.6303311,,-0.0018535123,0.5044769,-0.3310958,-0.19956085,-0.8247951,-0.5290448,0.68685395,-0.502807,0.5248017,-0.69886136,-0.25864664,0.6668544,,1.2348881547871218,0.3777729240084403,0.19494127536000003,3.112008451253826,-0.23733760009257007,-0.8361092994912436,-0.4214276906264406,,-1.246078394721873,0.16250946787230636,0.14046987327000002,4.537690377005107,-0.9967632657888881,-0.6931173245061516,0.8756875385458709,,0.0238237442897226,0.039426987802551904,0.09203306007999999,-0.11742376536589094,,2.8423965e-05,3.1590462e-06,3.5762787e-07,1.0,-3.523752e-05,-3.7960708e-05,3.523007e-05,1.0,-3.6358833e-06,3.796816e-05,3.5464764e-06,1.0,118,0.357,0,0,0.0,False,-0.26458467538682573,1.0502874705711984
0.3640756840031827,14:59:27.255178,14:58:12.026144,0,,0.12662902,0.0014320314,0.035635054,0.65273464,0.572343,-0.49634752,0.3988416,0.29740906,0.86745214,0.64409846,-0.76418024,-0.034145087,,0.04764969,-0.030730097,0.08310956,0.10512677,0.90684885,0.40813422,-0.23372513,-0.3763813,0.8964985,0.9666028,-0.1896372,0.17238548,,0.057383,1.3212013,0.43253922,0.9967365,0.07898252,-0.01667614,0.041405052,-0.67755824,-0.7343027,-0.06929614,0.73121583,-0.67861736,,-0.081707776,0.29841968,-0.054492086,-0.7029754,-0.5103176,0.4953802,0.7017015,-0.3841198,0.6000558,-0.1159337,0.7694335,0.62811744,,-0.0018548323,0.5044749,-0.3310978,-0.19955139,-0.8248789,-0.5289179,0.6868688,-0.502715,0.5248704,-0.69884944,-0.25855857,0.666901,,1.2366334924166966,0.37781153767281145,0.19457183271000003,3.1034111635709607,-0.2574231655580898,-0.8343513621330303,-0.4211010024941719,,-1.2460861174547473,0.1624862996736837,0.14046987327000002,4.537690377005107,-0.9967632657888881,-0.6932806819864328,0.8760142266781394,,0.0238237442897226,0.039426987802551904,0.09203306007999999,-0.11742376536589094,,2.8423965e-05,3.1590462e-06,3.5762787e-07,1.0,-3.523752e-05,-3.7960708e-05,3.523007e-05,1.0,-3.6358833e-06,3.796816e-05,3.5464764e-06,1.0,122,0.369,0,0,0.0,False,-0.2636314318904893,1.050432311173537
0.39946934100589715,14:59:27.278697,14:58:12.180578,0,,0.12651569,0.0014443696,0.036155075,0.63928974,0.5920481,-0.49070108,0.3899274,0.30041602,0.8704635,0.6627708,-0.7478163,-0.03880298,,0.04764831,-0.03073117,0.08310819,0.10514017,0.9068793,0.40806296,-0.23371533,-0.37631047,0.89653075,0.96660364,-0.18963198,0.17238611,,0.057383,1.3212013,0.43253922,0.9967365,0.07898252,-0.01667614,0.041405052,-0.67755824,-0.7343027,-0.06929614,0.73121583,-0.67861736,,-0.08163627,0.2988119,-0.054844875,-0.69104034,-0.5312719,0.49011573,0.7099249,-0.3713682,0.59840816,-0.13590406,0.76146954,0.63379353,,-0.0018531763,0.5044734,-0.33109796,-0.19956583,-0.82491785,-0.52885157,0.6868721,-0.50268036,0.5248992,-0.698842,-0.25850147,0.6669309,,1.2383788300462713,0.37780381493993725,0.19425424166000002,3.0864262781487137,-0.2766889120250169,-0.8207650849554894,-0.4219177228248433,,-1.246070671988999,0.16247857694080947,0.14046987327000002,4.537690377005107,-0.9967632657888881,-0.6933623607265734,0.876177570744274,,0.0238237442897226,0.039426987802551904,0.09203306007999999,-0.11742376536589094,,2.8423965e-05,3.1590462e-06,3.5762787e-07,1.0,-3.523752e-05,-3.7960708e-05,3.523007e-05,1.0,-3.6358833e-06,3.796816e-05,3.5464764e-06,1.0,134,0.406,0,0,0.0,False,-0.2637505873275314,1.0505288715750958
0.42298804099846166,14:59:27.308763,14:58:12.180578,0,,0.12643364,0.0014509261,0.036495626,0.6311516,0.60439056,-0.48616832,0.38336644,0.30180883,0.8728926,0.674298,-0.7373084,-0.041216016,,0.047649145,-0.03073105,0.08310872,0.10513268,0.9069467,0.407915,-0.2337172,-0.37616515,0.89659125,0.9666041,-0.18959779,0.1724217,,0.057383,1.3212013,0.43253922,0.9967365,0.07898252,-0.01667614,0.041405052,-0.67755824,-0.7343027,-0.06929614,0.73121583,-0.67861736,,-0.08158166,0.2990682,-0.055077422,-0.68383116,-0.5444161,0.48578393,0.71426594,-0.36353043,0.598055,-0.14899354,0.7559476,0.63745135,,-0.0018540747,0.50447375,-0.33109817,-0.19955829,-0.82500565,-0.52871746,0.6868728,-0.5025902,0.52498466,-0.6988435,-0.25839663,0.66696995,,1.2395526854431533,0.3777652012755661,0.19404813155000003,3.076361160861457,-0.28939610650320285,-0.8117917584941118,-0.4217543787587089,,-1.246078394721873,0.16247857694080947,0.14046987327000002,4.537690377005107,-0.9967632657888881,-0.6935257182068546,0.8758508826120055,,0.0238237442897226,0.039426987802551904,0.09203306007999999,-0.11742376536589094,,2.8423965e-05,3.1590462e-06,3.5762787e-07,1.0,-3.523752e-05,-3.7960708e-05,3.523007e-05,1.0,-3.6358833e-06,3.796816e-05,3.5464764e-06,1.0,142,0.43,0,0,0.0,False,-0.2644655199497832,1.0509151131813312
0.45305345600354485,14:59:27.334929,14:58:12.180578,0,,0.12628993,0.0014218837,0.0370349,0.6188129,0.6192043,-0.48338023,0.37566632,0.30715045,0.87437594,0.6898879,-0.722665,-0.042545587,,0.04764945,-0.030731974,0.08310825,0.10513109,0.9069455,0.40791818,-0.23371106,-0.37616974,0.8965909,0.9666058,-0.18959455,0.172416,,0.057383,1.3212013,0.43253922,0.9967365,0.07898252,-0.01667614,0.041405052,-0.67755824,-0.7343027,-0.06929614,0.73121583,-0.67861736,,-0.08148134,0.29944783,-0.055475056,-0.672756,-0.5603631,0.48310712,0.72102153,-0.35013247,0.5979425,-0.16591345,0.75060004,0.6395876,,-0.0018542153,0.5044729,-0.33109877,-0.19955765,-0.8250043,-0.52871984,0.68687755,-0.5025895,0.52497905,-0.69883907,-0.2584022,0.66697246,,1.241367527668596,0.3777188648783208,0.19368905922000001,3.060844105043602,-0.30565584997529033,-0.8026986437014063,-0.4212643465603064,,-1.246078394721873,0.16247085420793522,0.14046987327000002,4.537690377005107,-0.9967632657888881,-0.6935257182068546,0.8758508826120055,,0.0238237442897226,0.039426987802551904,0.09203306007999999,-0.11742376536589094,,2.8423965e-05,3.1590462e-06,3.5762787e-07,1.0,-3.523752e-05,-3.7960708e-05,3.523007e-05,1.0,-3.6358833e-06,3.796816e-05,3.5464764e-06,1.0,150,0.455,0,0,0.0,False,-0.2636910096090097,1.0506254319766548
0.4792212080064928,14:59:27.358704,14:58:12.180578,0,,0.12620679,0.0014070272,0.037389606,0.61083704,0.63092184,-0.4783468,0.36888704,0.307796,0.8770313,0.7005714,-0.71217924,-0.044725776,,0.047650278,-0.030731885,0.08310884,0.105123594,0.90697956,0.40784433,-0.23371294,-0.37609768,0.8966207,0.96660614,-0.18957445,0.172436,,0.057383,1.3212013,0.43253922,0.9967365,0.07898252,-0.01667614,0.041405052,-0.67755824,-0.7343027,-0.06929614,0.73121583,-0.67861736,,-0.081426695,0.29969978,-0.055732936,-0.66564083,-0.5728808,0.47825706,0.7245915,-0.3427863,0.5978835,-0.17857602,0.7445167,0.64327717,,-0.0018551135,0.50447327,-0.331099,-0.1995501,-0.82504886,-0.52865314,0.6868782,-0.50254226,0.52502346,-0.69884056,-0.25835183,0.66699046,,1.2425182148668557,0.3776725284810754,0.19346091218000003,3.051198367643314,-0.31795313495417993,-0.7933244622898528,-0.4212643465603063,,-1.2460861174547473,0.16247085420793522,0.14046987327000002,4.537690377005107,-0.9967632657888881,-0.6936073969469951,0.8760142266781397,,0.0238237442897226,0.039426987802551904,0.09203306007999999,-0.11742376536589094,,2.8423965e-05,3.1590462e-06,3.5762787e-07,1.0,-3.523752e-05,-3.7960708e-05,3.523007e-05,1.0,-3.6358833e-06,3.796816e-05,3.5464764e-06,1.0,165,0.5,0,0,0.0,False,-0.26381016504605226,1.0509151131813312
0.502975030001835,14:59:27.397752,14:58:12.298415,0,,0.12599614,0.0014127791,0.037977368,0.5938807,0.6523853,-0.47084936,0.35781968,0.30999708,0.880833,0.7206045,-0.691589,-0.049335092,,0.04764969,-0.030730097,0.08310956,0.10512677,0.9069821,0.40783796,-0.23372513,-0.37608838,0.8966214,0.9666028,-0.18958089,0.17244738,,0.057383,1.3212013,0.43253922,0.9967365,0.07898252,-0.01667614,0.041405052,-0.67755824,-0.7343027,-0.06929614,0.73121583,-0.67861736,,-0.081263594,0.3001424,-0.056141995,-0.6503087,-0.5959228,0.4711418,0.73253345,-0.32762834,0.59670293,-0.2012295,0.73316824,0.649593,,-0.0018548323,0.5044749,-0.3310978,-0.19955139,-0.8250516,-0.5286484,0.6868688,-0.5025435,0.5250346,-0.69884944,-0.25834066,0.66698545,,1.2447037482702612,0.37736361916610645,0.19311739533000002,3.030439063238346,-0.33995161141641583,-0.7757128947552913,-0.42159103469257464,,-1.2460861174547473,0.1624862996736837,0.14046987327000002,4.537690377005107,-0.9967632657888881,-0.6936073969469951,0.8760142266781397,,0.0238237442897226,0.039426987802551904,0.09203306007999999,-0.11742376536589094,,2.8423965e-05,3.1590462e-06,3.5762787e-07,1.0,-3.523752e-05,-3.7960708e-05,3.523007e-05,1.0,-3.6358833e-06,3.796816e-05,3.5464764e-06,1.0,169,0.512,0,0,0.0,False,-0.2641080536386573,1.0506737121774343
0.5420445269992342,14:59:27.420345,14:58:12.298415,0,,0.12582347,0.001449585,0.038356185,0.5763503,0.67375904,-0.46245965,0.34532025,0.31210375,0.8850678,0.7406579,-0.66980594,-0.05278167,,0.04764969,-0.030730097,0.08310956,0.10512677,0.9069821,0.40783796,-0.23372513,-0.37608838,0.8966214,0.9666028,-0.18958089,0.17244738,,0.057383,1.3212013,0.43253922,0.9967365,0.07898252,-0.01667614,0.041405052,-0.67755824,-0.7343027,-0.06929614,0.73121583,-0.67861736,,-0.081121765,0.30045262,-0.056383517,-0.6344026,-0.61897033,0.4630433,0.73954195,-0.311665,0.5966093,-0.22496906,0.7209304,0.6554756,,-0.0018548323,0.5044749,-0.3310978,-0.19955139,-0.8250516,-0.5286484,0.6868688,-0.5025435,0.5250346,-0.69884944,-0.25834066,0.66698545,,1.246178790249238,0.3767149096046716,0.19294887763000002,3.009260378946409,-0.36399963537513336,-0.7579002759878135,-0.4220810668909776,,-1.2460861174547473,0.1624862996736837,0.14046987327000002,4.537690377005107,-0.9967632657888881,-0.6936073969469951,0.8760142266781397,,0.0238237442897226,0.039426987802551904,0.09203306007999999,-0.11742376536589094,,2.8423965e-05,3.1590462e-06,3.5762787e-07,1.0,-3.523752e-05,-3.7960708e-05,3.523007e-05,1.0,-3.6358833e-06,3.796816e-05,3.5464764e-06,1.0,181,0.549,0,0,0.0,False,-0.26351227645344677,1.0507702725789931
0.5646164579957258,14:59:27.448983,14:58:12.298415,0,,0.12568715,0.0014508963,0.03857015,0.5628266,0.6856886,-0.46158135,0.33968523,0.31721967,0.8854296,0.75355184,-0.6551358,-0.054378748,,0.04768604,-0.03073036,0.08311492,0.1051283,0.90700614,0.4077842,-0.2337172,-0.37603652,0.8966452,0.9666046,-0.18956903,0.17245078,,0.05734079,1.3212017,0.4325433,0.9967341,0.07902243,-0.016632887,0.041463763,-0.6775536,-0.73430365,-0.06929614,0.73121583,-0.67861736,,-0.08097017,0.3006143,-0.05653613,-0.6219557,-0.6320628,0.4622421,0.7458066,-0.29825854,0.595663,-0.23862877,0.7152192,0.65690017,,-0.0018548323,0.5044749,-0.3310978,-0.19955139,-0.8250516,-0.5286484,0.6868688,-0.5025435,0.5250346,-0.69884944,-0.25834066,0.66698545,,1.2471364091256418,0.37600441818024294,0.19285165588000003,2.992904563354616,-0.37779992185144284,-0.7491791086588324,-0.4219177228248433,,-1.2460861174547473,0.1624862996736837,0.14046987327000002,4.537690377005107,-0.9967632657888881,-0.6936073969469951,0.8760142266781397,,0.0238237442897226,0.039426987802551904,0.09203306007999999,-0.11742376536589094,,-1.3925135e-05,2.6226044e-06,-1.9073486e-06,1.0,4.7311187e-06,5.1110983e-06,-4.7422945e-06,1.0,4.172325e-07,-5.0999224e-06,-5.364418e-07,1.0,189,0.574,0,0,0.0,False,-0.2636910096090097,1.0505288715750958
0.5932720970013179,14:59:27.478881,14:58:12.298415,0,,0.12538302,0.0014530122,0.038873866,0.5445784,0.70730615,-0.45072427,0.32531393,0.31719595,0.8908184,0.7730494,-0.6317475,-0.057358593,,0.047659434,-0.030749045,0.08310521,0.10517087,0.90698284,0.4078249,-0.2337184,-0.376069,0.89663124,0.9665997,-0.18961568,0.172427,,0.05734079,1.3212017,0.4325433,0.9967341,0.07902243,-0.016632887,0.041463763,-0.6775536,-0.73430365,-0.06929614,0.73121583,-0.67861736,,-0.08069122,0.3008541,-0.056758475,-0.60528433,-0.655476,0.4516438,0.7511712,-0.2826086,0.59655195,-0.26338705,0.7003454,0.6634332,,-0.0018252018,0.5044618,-0.33110794,-0.19959255,-0.82501894,-0.5286838,0.6868568,-0.5025954,0.5250005,-0.69884944,-0.25834385,0.6669842,,1.24844927371426,0.3746606626601279,0.19272332317000002,2.9725646388366176,-0.4022578553094566,-0.7294803401175947,-0.42159103469257464,,-1.2461015629204957,0.1624862996736837,0.14046857698,4.537690377005107,-0.9967632657888881,-0.6936073969469951,0.8760142266781397,,0.0238237442897226,0.039426987802551904,0.09203306007999999,-0.11742376536589094,,-1.3925135e-05,2.6226044e-06,-1.9073486e-06,1.0,4.7311187e-06,5.1110983e-06,-4.7422945e-06,1.0,4.172325e-07,-5.0999224e-06,-5.364418e-07,1.0,197,0.598,0,0,0.0,False,-0.2631548101423209,1.0502391903704191
0.6231654720031656,14:59:27.500019,14:58:12.298415,0,,0.12511827,0.0013865829,0.03901036,0.5305829,0.71638983,-0.45306432,0.32338247,0.32299566,0.8894366,0.78352135,-0.61843306,-0.060292006,,0.047663607,-0.030748628,0.08310783,0.105133444,0.90698683,0.40782586,-0.23372751,-0.37607476,0.89662653,0.9666015,-0.18958557,0.17244971,,0.05734079,1.3212017,0.4325433,0.9967341,0.07902243,-0.016632887,0.041463763,-0.6775536,-0.73430365,-0.06929614,0.73121583,-0.67861736,,-0.080438025,0.3009233,-0.056914154,-0.59216356,-0.6656067,0.45421368,0.7582737,-0.26951832,0.5936168,-0.2726964,0.6959365,0.664311,,-0.0018296933,0.50446355,-0.3311091,-0.19955485,-0.825026,-0.52868706,0.68686014,-0.5025734,0.52501726,-0.6988569,-0.25836432,0.66696846,,1.2493528334605444,0.3734481935988746,0.19263258287,2.954950683583917,-0.4116857737932721,-0.7219558622428227,-0.42208106689097735,,-1.246140176584867,0.1624862996736837,0.14046857698,4.537690377005107,-0.9967632657888881,-0.6936073969469951,0.8760142266781397,,0.0238237442897226,0.039426987802551904,0.09203306007999999,-0.11742376536589094,,-1.3925135e-05,2.6226044e-06,-1.9073486e-06,1.0,4.7311187e-06,5.1110983e-06,-4.7422945e-06,1.0,4.172325e-07,-5.0999224e-06,-5.364418e-07,1.0,208,0.631,0,0,0.0,False,-0.26458467538682573,1.0503840309727575
0.6442990729992744,14:59:27.536747,14:58:12.298415,0,,0.12444545,0.0012480617,0.03923337,0.5002014,0.73674226,-0.45498273,0.3169733,0.3331799,0.8879859,0.805808,-0.58838934,-0.06687072,,0.047664985,-0.030747615,0.08310926,0.10512005,0.9069896,0.407823,-0.23373732,-0.3760724,0.8966249,0.9666006,-0.18957672,0.17246446,,0.05734079,1.3212017,0.4325433,0.9967341,0.07902243,-0.016632887,0.041463763,-0.6775536,-0.73430365,-0.06929614,0.73121583,-0.67861736,,-0.079784796,0.3010301,-0.057203095,-0.5636397,-0.68831486,0.45665407,0.771848,-0.24196343,0.58796626,-0.2942123,0.68386865,0.6676547,,-0.0018313493,0.50446504,-0.331109,-0.1995404,-0.8250302,-0.5286859,0.6868568,-0.50256515,0.52502954,-0.69886434,-0.25836694,0.66695964,,1.2514611395352075,0.37024325945607145,0.19251073161,2.9169968038132184,-0.43395752325503884,-0.7022428478776354,-0.4220810668909777,,-1.2461556220506154,0.16249402240655791,0.14046857698,4.537690377005107,-0.9967632657888881,-0.6936073969469951,0.8760142266781397,,0.0238237442897226,0.039426987802551904,0.09203306007999999,-0.11742376536589094,,-1.3925135e-05,2.6226044e-06,-1.9073486e-06,1.0,4.7311187e-06,5.1110983e-06,-4.7422945e-06,1.0,4.172325e-07,-5.0999224e-06,-5.364418e-07,1.0,216,0.656,0,0,0.0,False,-0.26351227645344677,1.0505771517758753
0.6810391699982574,14:59:27.560106,14:58:12.456156,0,,0.124088354,0.001168415,0.03931211,0.48732924,0.7439936,-0.45714736,0.31475353,0.33866408,0.8866999,0.8145185,-0.5760037,-0.06913376,,0.047665283,-0.030748479,0.0831089,0.10511847,0.9069884,0.4078262,-0.23373115,-0.3760771,0.89662457,0.96660227,-0.18957354,0.17245871,,0.05734079,1.3212017,0.4325433,0.9967341,0.07902243,-0.016632887,0.041463763,-0.6775536,-0.73430365,-0.06929614,0.73121583,-0.67861736,,-0.07943491,0.30105385,-0.05733379,-0.55149746,-0.6965441,0.45899543,0.77740866,-0.22965363,0.58557236,-0.30246702,0.6797687,0.6681528,,-0.0018314898,0.5044642,-0.33110955,-0.19953977,-0.8250288,-0.5286883,0.6868615,-0.50256455,0.52502394,-0.6988599,-0.25837252,0.66696215,,1.2525345994047248,0.3685597036894905,0.19246147259000002,2.9006409882214252,-0.44270225924002704,-0.6949487445607831,-0.42175437875870914,,-1.2461556220506154,0.1624862996736837,0.14046857698,4.537690377005107,-0.9967632657888881,-0.6936073969469951,0.8760142266781397,,0.0238237442897226,0.039426987802551904,0.09203306007999999,-0.11742376536589094,,-1.3925135e-05,2.6226044e-06,-1.9073486e-06,1.0,4.7311187e-06,5.1110983e-06,-4.7422945e-06,1.0,4.172325e-07,-5.0999224e-06,-5.364418e-07,1.0,228,0.692,0,0,0.0,False,-0.2641080536386573,1.0502874705711984
0.7043991079990519,14:59:27.593104,14:58:12.456156,0,,0.12315587,0.0010080636,0.039477214,0.457199,0.76232344,-0.4580741,0.30615383,0.34867454,0.8858305,0.8350084,-0.5452422,-0.0739747,,0.04766901,-0.030747347,0.08310872,0.10521059,0.90709436,0.4075667,-0.23367712,-0.37581483,0.89674854,0.9666053,-0.18958649,0.17242739,,0.05734079,1.3212017,0.4325433,0.9967341,0.07902243,-0.016632887,0.041463763,-0.6775536,-0.73430365,-0.06929614,0.73121583,-0.67861736,,-0.07851816,0.3011192,-0.05761271,-0.5230754,-0.717293,0.4603073,0.7881622,-0.20157687,0.58152145,-0.32433397,0.6669764,0.6707831,,-0.0018352752,0.50446403,-0.33110863,-0.19963722,-0.82516223,-0.5284433,0.68687546,-0.5024626,0.5251032,-0.6988183,-0.25814456,0.66709393,,1.2553842878353136,0.3642040823484279,0.19240313954000002,2.862477418507242,-0.46606710069991736,-0.6736092783047594,-0.421754378758709,,-1.2461865129821121,0.1624862996736837,0.14046987327000002,4.537690377005107,-0.9966266292891226,-0.6938821723309727,0.8760142266781397,,0.0238237442897226,0.039426987802551904,0.09203306007999999,-0.11742376536589094,,-1.3925135e-05,2.6226044e-06,-1.9073486e-06,1.0,4.7311187e-06,5.1110983e-06,-4.7422945e-06,1.0,4.172325e-07,-5.0999224e-06,-5.364418e-07,1.0,236,0.717,0,0,0.0,False,-0.26458467538682573,1.0505288715750958
0.7373106270097196,14:59:27.622049,14:58:12.456156,0,,0.122632444,0.0009293407,0.03953342,0.4404099,0.76942235,-0.46263203,0.3045866,0.35668695,0.8831768,0.8445509,-0.52987146,-0.07726738,,0.04766901,-0.030747347,0.08310872,0.10521059,0.90709436,0.4075667,-0.23367712,-0.37581483,0.89674854,0.9666053,-0.18958649,0.17242739,,0.05734079,1.3212017,0.4325433,0.9967341,0.07902243,-0.016632887,0.041463763,-0.6775536,-0.73430365,-0.06929614,0.73121583,-0.67861736,,-0.07800069,0.30113718,-0.05773611,-0.5070966,-0.7256146,0.46511984,0.7950076,-0.18535897,0.57758546,-0.33289033,0.6626654,0.67086405,,-0.0018352752,0.50446403,-0.33110863,-0.19963722,-0.82516223,-0.5284433,0.68687546,-0.5024626,0.5251032,-0.6988183,-0.25814456,0.66709393,,1.2569211116772843,0.3619104306847832,0.19239147293000003,2.8406696643848517,-0.47494847318467104,-0.6648152185018212,-0.42224441095711207,,-1.2461865129821121,0.1624862996736837,0.14046987327000002,4.537690377005107,-0.9966266292891226,-0.6938821723309727,0.8760142266781397,,0.0238237442897226,0.039426987802551904,0.09203306007999999,-0.11742376536589094,,-1.3925135e-05,2.6226044e-06,-1.9073486e-06,1.0,4.7311187e-06,5.1110983e-06,-4.7422945e-06,1.0,4.172325e-07,-5.0999224e-06,-5.364418e-07,1.0,244,0.742,0,0,0.0,False,-0.2632143878608417,1.0506737121774343
0.7662818740063813,14:59:27.643435,14:58:12.456156,0,,0.12179668,0.0008148104,0.0396135,0.4182547,0.7809481,-0.46387824,0.2992155,0.363733,0.8821385,0.8576323,-0.50775826,-0.081538856,,0.047668166,-0.030747406,0.08310819,0.10521807,0.90709347,0.4075665,-0.23367524,-0.37581372,0.8967495,0.96660495,-0.18959251,0.17242289,,0.05734079,1.3212017,0.4325433,0.9967341,0.07902243,-0.016632887,0.041463763,-0.6775536,-0.73430365,-0.06929614,0.73121583,-0.67861736,,-0.07717369,0.30116656,-0.057918437,-0.48604158,-0.73888415,0.4667052,0.80212903,-0.16518018,0.5738506,-0.34691864,0.65327305,0.67296493,,-0.0018343768,0.50446373,-0.3311084,-0.19964476,-0.8251608,-0.5284426,0.6868748,-0.50246704,0.5250999,-0.69881684,-0.25814047,0.6670971,,1.2594696135257784,0.35821124163802964,0.19239536180000003,2.8117324521839873,-0.48997848815886946,-0.647903560907203,-0.42044762622963494,,-1.246178790249238,0.1624862996736837,0.14046987327000002,4.537690377005107,-0.9966266292891226,-0.6938821723309727,0.8760142266781397,,0.0238237442897226,0.039426987802551904,0.09203306007999999,-0.11742376536589094,,-1.3925135e-05,2.6226044e-06,-1.9073486e-06,1.0,4.7311187e-06,5.1110983e-06,-4.7422945e-06,1.0,4.172325e-07,-5.0999224e-06,-5.364418e-07,1.0,255,0.774,0,0,0.0,False,-0.2636314318904893,1.0503840309727575
0.7877282170084072,14:59:27.676747,14:58:12.456156,0,,0.120912835,0.0007158965,0.039688006,0.38905865,0.79277235,-0.46919653,0.29581264,0.37483865,0.87863004,0.87242675,-0.480633,-0.08867794,,0.047666363,-0.030747257,0.08310592,0.10535513,0.9071282,0.40745395,-0.2336103,-0.37569106,0.8968178,0.96660566,-0.18966985,0.17233345,,0.05734079,1.3212017,0.4325433,0.9967341,0.07902243,-0.016632887,0.041463763,-0.6775536,-0.73430365,-0.06929614,0.73121583,-0.67861736,,-0.07629835,0.30120546,-0.05808811,-0.45810956,-0.75286096,0.47258443,0.8122633,-0.13859983,0.5665848,-0.3610595,0.64342093,0.6750152,,-0.0018323319,0.5044622,-0.33110705,-0.19978745,-0.8251994,-0.52832836,0.6868847,-0.5024774,0.52507704,-0.69876635,-0.25799686,0.6672055,,1.2620103926413984,0.35451977532415035,0.19241999131,2.773778572413288,-0.5039154111349443,-0.6291061693773768,-0.42289778722164884,,-1.2461633447834897,0.1624862996736837,0.14046987327000002,4.537690377005107,-0.9964899927893571,-0.6939935902346691,0.8760142266781397,,0.0238237442897226,0.039426987802551904,0.09203306007999999,-0.11742376536589094,,-1.3925135e-05,2.6226044e-06,-1.9073486e-06,1.0,4.7311187e-06,5.1110983e-06,-4.7422945e-06,1.0,4.172325e-07,-5.0999224e-06,-5.364418e-07,1.0,263,0.799,0,0,0.0,False,-0.26422720907569985,1.0510116735828905
0.8210399899980985,14:59:27.702805,14:58:12.604307,0,,0.11999032,0.0006095469,0.039688155,0.36740977,0.8011146,-0.47246745,0.29300922,0.38242614,0.8762965,0.88269806,-0.46039733,-0.09422696,,0.04766833,-0.030748002,0.0831067,0.105338566,0.9072283,0.40723532,-0.23360786,-0.37547827,0.8969076,0.96660817,-0.18961231,0.17238322,,0.05734079,1.3212017,0.4325433,0.9967341,0.07902243,-0.016632887,0.041463763,-0.6775536,-0.73430365,-0.06929614,0.73121583,-0.67861736,,-0.075378515,0.30118766,-0.058214374,-0.43734154,-0.7628088,0.47629315,0.81907904,-0.11922066,0.5611559,-0.3712707,0.6355385,0.6769408,,-0.0018342691,0.50446206,-0.33110812,-0.19977173,-0.8253303,-0.5281299,0.6868908,-0.50233924,0.52520126,-0.69876486,-0.25784716,0.66726494,,1.2646979036816284,0.3505811815582958,0.19248869468000002,2.744631670268939,-0.5145730581166488,-0.6129011287961241,-0.4225710990893803,,-1.246178790249238,0.16247857694080947,0.14046987327000002,4.537690377005107,-0.9964899927893571,-0.6942386264550909,0.8765042588765426,,0.0238237442897226,0.039426987802551904,0.09203306007999999,-0.11742376536589094,,-1.3925135e-05,2.6226044e-06,-1.9073486e-06,1.0,4.7311187e-06,5.1110983e-06,-4.7422945e-06,1.0,4.172325e-07,-5.0999224e-06,-5.364418e-07,1.0,271,0.824,0,0,0.0,False,-0.26249945523859,1.0507219923782136
0.8470222330070101,14:59:27.728717,14:58:12.604307,0,,0.11935988,0.000550583,0.039668366,0.3497142,0.8062635,-0.4771154,0.2917725,0.39021257,0.8732713,0.8902634,-0.44460464,-0.09878278,,0.047669157,-0.030747913,0.08310717,0.10533108,0.90722907,0.40723544,-0.23360965,-0.3754794,0.8969066,0.9666085,-0.1896063,0.17238778,,0.05734079,1.3212017,0.4325433,0.9967341,0.07902243,-0.016632887,0.041463763,-0.6775536,-0.73430365,-0.06929614,0.73121583,-0.67861736,,-0.07474837,0.3011705,-0.05827707,-0.42030242,-0.76921976,0.48129702,0.8247719,-0.102735534,0.5560546,-0.3782819,0.6306713,0.6776108,,-0.0018351674,0.5044624,-0.33110833,-0.19976419,-0.8253317,-0.52813053,0.68689144,-0.50233483,0.5252046,-0.69876635,-0.25785124,0.6672618,,1.2664200731125805,0.3479631751139337,0.19255999063,2.721146396598672,-0.5212682466051554,-0.6022142121460037,-0.4219177228248435,,-1.2461865129821121,0.16247857694080947,0.14046987327000002,4.537690377005107,-0.9964899927893571,-0.6942386264550909,0.8765042588765426,,0.0238237442897226,0.039426987802551904,0.09203306007999999,-0.11742376536589094,,-1.3925135e-05,2.6226044e-06,-1.9073486e-06,1.0,4.7311187e-06,5.1110983e-06,-4.7422945e-06,1.0,4.172325e-07,-5.0999224e-06,-5.364418e-07,1.0,279,0.848,0,0,0.0,False,-0.26351227645344677,1.0511565141852286
0.8729954690061277,14:59:27.752400,14:58:12.604307,0,,0.11873987,0.00047460198,0.039613232,0.33811155,0.8108886,-0.47764027,0.29072735,0.39270884,0.87250066,0.8950745,-0.43386573,-0.102968216,,0.047669455,-0.030748807,0.083106756,0.10532949,0.9072611,0.4071646,-0.23360357,-0.3754108,0.89693695,0.96661013,-0.18958898,0.17239752,,0.05734079,1.3212017,0.4325433,0.9967341,0.07902243,-0.016632887,0.041463763,-0.6775536,-0.73430365,-0.06929614,0.73121583,-0.67861736,,-0.074125744,0.3011154,-0.05832743,-0.40911773,-0.7746925,0.4821558,0.8282355,-0.09351302,0.55252266,-0.3829473,0.62538534,0.6798857,,-0.001835308,0.5044616,-0.33110893,-0.19976355,-0.8253735,-0.5280655,0.68689615,-0.5022913,0.52524,-0.6987619,-0.25780234,0.6672854,,1.2681422425435325,0.34525249587508094,0.19263906432000003,2.705000270950364,-0.5263237970964766,-0.5910673780571476,-0.4225710990893804,,-1.2461865129821121,0.16247085420793522,0.14046987327000002,4.537690377005107,-0.9964899927893571,-0.6943203051952315,0.8763409148104082,,0.0238237442897226,0.039426987802551904,0.09203306007999999,-0.11742376536589094,,-1.3925135e-05,2.6226044e-06,-1.9073486e-06,1.0,4.7311187e-06,5.1110983e-06,-4.7422945e-06,1.0,4.172325e-07,-5.0999224e-06,-5.364418e-07,1.0,287,0.873,0,0,0.0,False,-0.2636314318904893,1.0508668329805522
0.8966891919990303,14:59:27.773410,14:58:12.604307,0,,0.11775181,0.0003886968,0.03951381,0.3139525,0.81602496,-0.48532152,0.29144797,0.40365615,0.86724836,0.9035995,-0.41372088,-0.11110008,,0.04766999,-0.030747823,0.08310771,0.1053236,0.90726316,0.4071615,-0.23361152,-0.37540728,0.89693636,0.9666089,-0.18958618,0.17240775,,0.05734079,1.3212017,0.4325433,0.9967341,0.07902243,-0.016632887,0.041463763,-0.6775536,-0.73430365,-0.06929614,0.73121583,-0.67861736,,-0.07313269,0.30104336,-0.05837417,-0.3857171,-0.7814458,0.49047402,0.836353,-0.07170297,0.5434817,-0.38953307,0.6198396,0.6812216,,-0.0018360658,0.5044628,-0.33110857,-0.19975665,-0.8253763,-0.5280637,0.6868921,-0.5022875,0.52524894,-0.69876784,-0.25780085,0.6672797,,1.27080658538514,0.3412057838489873,0.19279202654000002,2.6722886397667787,-0.5320625300866252,-0.5764230198047493,-0.4219177228248433,,-1.2461942357149864,0.16247857694080947,0.14046987327000002,4.537690377005107,-0.9964899927893571,-0.6943203051952315,0.8763409148104082,,0.0238237442897226,0.039426987802551904,0.09203306007999999,-0.11742376536589094,,-1.3925135e-05,2.6226044e-06,-1.9073486e-06,1.0,4.7311187e-06,5.1110983e-06,-4.7422945e-06,1.0,4.172325e-07,-5.0999224e-06,-5.364418e-07,1.0,299,0.91,1,1,0.025,False,-0.2630356547052788,1.0512047943860081
0.9176582799991593,14:59:27.811316,14:58:12.604307,0,,0.116690904,0.00028897822,0.039344057,0.29507545,0.81830674,-0.49325904,0.29345924,0.41367579,0.8618317,0.9092922,-0.39905688,-0.11807421,,0.04766999,-0.030747823,0.08310771,0.1053236,0.90726316,0.4071615,-0.23361152,-0.37540728,0.89693636,0.9666089,-0.18958618,0.17240775,,0.05734079,1.3212017,0.4325433,0.9967341,0.07902243,-0.016632887,0.041463763,-0.6775536,-0.73430365,-0.06929614,0.73121583,-0.67861736,,-0.07206138,0.3009152,-0.0583867,-0.36735904,-0.7849143,0.49895573,0.84298724,-0.05433272,0.53518265,-0.3929629,0.6172175,0.6816324,,-0.0018360658,0.5044628,-0.33110857,-0.19975665,-0.8253763,-0.5280637,0.6868921,-0.5022875,0.52524894,-0.69876784,-0.25780085,0.6672797,,1.2737026102129743,0.3367420442476855,0.19298906262,2.645658016944244,-0.5352051695812303,-0.5653658190451132,-0.4219177228248433,,-1.2461942357149864,0.16247857694080947,0.14046987327000002,4.537690377005107,-0.9964899927893571,-0.6943203051952315,0.8763409148104082,,0.0238237442897226,0.039426987802551904,0.09203306007999999,-0.11742376536589094,,-1.3925135e-05,2.6226044e-06,-1.9073486e-06,1.0,4.7311187e-06,5.1110983e-06,-4.7422945e-06,1.0,4.172325e-07,-5.0999224e-06,-5.364418e-07,1.0,307,0.934,0,1,0.028,False,-0.2634526987349264,1.0511565141852286
0.9556086840020726,14:59:27.834131,14:58:12.604307,0,,0.11563809,0.0002117157,0.03916852,0.27860162,0.821658,-0.49725163,0.29458624,0.41968355,0.85853624,0.9141117,-0.38567322,-0.12512475,,0.047669157,-0.030747913,0.08310717,0.10533108,0.9072623,0.4071614,-0.23360965,-0.37540615,0.8969373,0.9666085,-0.1895922,0.17240322,,0.05734079,1.3212017,0.4325433,0.9967341,0.07902243,-0.016632887,0.041463763,-0.6775536,-0.73430365,-0.06929614,0.73121583,-0.67861736,,-0.070997745,0.3007978,-0.058378503,-0.35132477,-0.7893369,0.5035059,0.8482382,-0.04070728,0.52804816,-0.39631152,0.6126093,0.6838472,,-0.0018351674,0.5044624,-0.33110833,-0.19976419,-0.82537484,-0.5280631,0.68689144,-0.5022919,0.5252456,-0.69876635,-0.25779676,0.6672829,,1.276660416903802,0.332355531975126,0.19321072821000002,2.6219630533304925,-0.5383478090758353,-0.5516948986009791,-0.420610970295769,,-1.2461865129821121,0.16247857694080947,0.14046987327000002,4.537690377005107,-0.9964899927893571,-0.6943203051952315,0.8763409148104082,,0.0238237442897226,0.039426987802551904,0.09203306007999999,-0.11742376536589094,,-1.3925135e-05,2.6226044e-06,-1.9073486e-06,1.0,4.7311187e-06,5.1110983e-06,-4.7422945e-06,1.0,4.172325e-07,-5.0999224e-06,-5.364418e-07,1.0,315,0.959,0,1,0.028,False,-0.26255903295711036,1.051494475590685
0.9784219069988467,14:59:27.862484,14:58:12.604307,0,,0.11489265,0.0001681745,0.03898786,0.27040526,0.82230824,-0.50068957,0.29785314,0.42309466,0.8557303,0.9155133,-0.38052607,-0.1305202,,0.04767029,-0.030748747,0.08310735,0.105321996,0.9072951,0.40709063,-0.23360533,-0.37533867,0.89696664,0.96661055,-0.18956889,0.17241758,,0.05734079,1.3212017,0.4325433,0.9967341,0.07902243,-0.016632887,0.041463763,-0.6775536,-0.73430365,-0.06929614,0.73121583,-0.67861736,,-0.07024016,0.30068144,-0.05832604,-0.34327438,-0.7904039,0.50737005,0.8519853,-0.034673836,0.5224163,-0.39532742,0.611604,0.68531513,,-0.0018362063,0.50446194,-0.33110917,-0.19975601,-0.825418,-0.5279987,0.68689686,-0.502244,0.5252844,-0.6987634,-0.25775194,0.66730326,,1.278892286704453,0.3290502023049579,0.19341683832,2.608752586890968,-0.5373913535774772,-0.5443069499127977,-0.4214276906264405,,-1.2461942357149864,0.16247085420793522,0.14046987327000002,4.537690377005107,-0.9964899927893571,-0.6944019839353719,0.8765042588765424,,0.0238237442897226,0.039426987802551904,0.09203306007999999,-0.11742376536589094,,-1.3925135e-05,2.6226044e-06,-1.9073486e-06,1.0,4.7311187e-06,5.1110983e-06,-4.7422945e-06,1.0,4.172325e-07,-5.0999224e-06,-5.364418e-07,1.0,323,0.983,0,1,0.028,False,-0.2639888982016152,1.0509151131813312
1.0067692110023927,14:59:27.885664,14:58:12.604307,0,,0.11366935,8.536875e-05,0.038685575,0.2574229,0.8223623,-0.50739896,0.30436963,0.4293598,0.8502995,0.9171111,-0.3733235,-0.1397751,,0.047669478,-0.03074842,0.08310872,0.1053236,0.9073297,0.40701333,-0.23361152,-0.37526077,0.8969977,0.9666089,-0.18955804,0.1724388,,0.05734079,1.3212017,0.4325433,0.9967341,0.07902243,-0.016632887,0.041463763,-0.6775536,-0.73430365,-0.06929614,0.73121583,-0.67861736,,-0.06899645,0.3004785,-0.05824419,-0.330477,-0.7910476,0.51480937,0.85839,-0.025156297,0.5123806,-0.39236674,0.61123717,0.68734086,,-0.0018356255,0.50446343,-0.33110958,-0.19975665,-0.8254625,-0.5279289,0.6868921,-0.50220174,0.525331,-0.69876784,-0.25769183,0.6673218,,1.2822207845732438,0.3241308214640769,0.19372017018,2.589461112090391,-0.5342487140828721,-0.5347811081570122,-0.42289778722164884,,-1.2461942357149864,0.16247857694080947,0.14046857698,4.537690377005107,-0.9964899927893571,-0.6944836626755124,0.8766676029426765,,0.0238237442897226,0.039426987802551904,0.09203306007999999,-0.11742376536589094,,-1.3925135e-05,2.6226044e-06,-1.9073486e-06,1.0,4.7311187e-06,5.1110983e-06,-4.7422945e-06,1.0,4.172325e-07,-5.0999224e-06,-5.364418e-07,1.0,331,1.008,0,1,0.028,False,-0.26476340854238867,1.0507702725789931
1.029901695001172,14:59:27.913276,14:58:12.824813,0,,0.11287141,6.994605e-05,0.038481995,0.24831663,0.82202345,-0.51246095,0.30957317,0.4339444,0.84608316,0.9178799,-0.3687408,-0.14672086,,0.047669478,-0.03074842,0.08310872,0.1053236,0.9073297,0.40701333,-0.23361152,-0.37526077,0.8969977,0.9666089,-0.18955804,0.1724388,,0.05734079,1.3212017,0.4325433,0.9967341,0.07902243,-0.016632887,0.041463763,-0.6775536,-0.73430365,-0.06929614,0.73121583,-0.67861736,,-0.068184786,0.30036795,-0.05815836,-0.32147396,-0.79108655,0.52041954,0.86306137,-0.018667877,0.504754,-0.38958898,0.6114193,0.6887575,,-0.0018356255,0.50446343,-0.33110958,-0.19975665,-0.8254625,-0.5279289,0.6868921,-0.50220174,0.525331,-0.69876784,-0.25769183,0.6673218,,1.284560772634134,0.32097994645139327,0.19395479867,2.575831265763897,-0.5308328015887361,-0.5285818943339609,-0.42093765842803776,,-1.2461942357149864,0.16247857694080947,0.14046857698,4.537690377005107,-0.9964899927893571,-0.6944836626755124,0.8765042588765424,,0.0238237442897226,0.039426987802551904,0.09203306007999999,-0.11742376536589094,,-1.3925135e-05,2.6226044e-06,-1.9073486e-06,1.0,4.7311187e-06,5.1110983e-06,-4.7422945e-06,1.0,4.172325e-07,-5.0999224e-06,-5.364418e-07,1.0,344,1.049,0,1,0.028,False,-0.2636910096090097,1.0512530745867876
1.0575102290022187,14:59:27.944516,14:58:12.824813,0,,0.111732446,-1.4156103e-05,0.038165852,0.23811561,0.8220948,-0.5171664,0.3202996,0.4362245,0.84090203,0.91690195,-0.36588016,-0.15944493,,0.047668673,-0.030748092,0.08311015,0.10532518,0.90736413,0.406936,-0.2336176,-0.37518284,0.8970287,0.9666072,-0.18954714,0.17245999,,0.05734079,1.3212017,0.4325433,0.9967341,0.07902243,-0.016632887,0.041463763,-0.6775536,-0.73430365,-0.06929614,0.73121583,-0.67861736,,-0.067024045,0.30014902,-0.0580635,-0.3112542,-0.79139143,0.52613723,0.8703213,-0.015033673,0.49225488,-0.38165656,0.6111248,0.69344413,,-0.0018350446,0.5044649,-0.33111,-0.1997573,-0.825507,-0.5278591,0.6868874,-0.5021594,0.52537763,-0.6987723,-0.25763175,0.66734034,,1.2878274886399308,0.3163231385282359,0.19425553795000003,2.560104520002558,-0.5222247021035133,-0.5182036506168958,-0.4220810668909776,,-1.2461942357149864,0.1624862996736837,0.14046728069,4.537690377005107,-0.9964899927893571,-0.6945653414156531,0.8765042588765424,,0.0238237442897226,0.039426987802551904,0.09203306007999999,-0.11742376536589094,,-1.3925135e-05,2.6226044e-06,-1.9073486e-06,1.0,4.7311187e-06,5.1110983e-06,-4.7422945e-06,1.0,4.172325e-07,-5.0999224e-06,-5.364418e-07,1.0,348,1.061,0,1,0.028,False,-0.2632143878608417,1.0513013547875674
1.088805138002499,14:59:27.975946,14:58:12.824813,0,,0.1104162,-1.7002225e-05,0.037837908,0.21610394,0.8200184,-0.5299706,0.32899973,0.44989505,0.83027315,0.91927063,-0.35378557,-0.17256182,,0.047667846,-0.030748181,0.08310962,0.10533267,0.9073966,0.40686175,-0.23361582,-0.37510842,0.8970603,0.96660686,-0.1895391,0.17247093,,0.05734079,1.3212017,0.4325433,0.9967341,0.07902243,-0.016632887,0.041463763,-0.6775536,-0.73430365,-0.06929614,0.73121583,-0.67861736,,-0.06568583,0.29998788,-0.05791085,-0.28952312,-0.7903199,0.5399729,0.8793222,0.003239015,0.4762164,-0.3781123,0.6126858,0.69400805,,-0.0018341463,0.50446457,-0.33110976,-0.19976483,-0.8255487,-0.527791,0.6868867,-0.5021209,0.5254153,-0.6987708,-0.25757313,0.66736454,,1.2916116277483007,0.31138831222160646,0.19466386930000001,2.5301188580842706,-0.5156661501147722,-0.5094212879500066,-0.42224441095711185,,-1.2461865129821121,0.1624862996736837,0.14046728069,4.537690377005107,-0.9964899927893571,-0.6946470201557936,0.876340914810408,,0.0238237442897226,0.039426987802551904,0.09203306007999999,-0.11742376536589094,,-1.3925135e-05,2.6226044e-06,-1.9073486e-06,1.0,4.7311187e-06,5.1110983e-06,-4.7422945e-06,1.0,4.172325e-07,-5.0999224e-06,-5.364418e-07,1.0,365,1.114,0,1,0.028,False,-0.2635718541719685,1.0508668329805522
1.1202340260060737,14:59:28.016747,14:58:12.824813,0,,0.10933018,0.00011575222,0.037435636,0.1910989,0.8140577,-0.54844433,0.33893642,0.4696493,0.81520027,0.9211968,-0.34167174,-0.18616441,,0.04766813,-0.030749045,0.08310926,0.10533108,0.9073953,0.40686494,-0.23360965,-0.37511307,0.8970599,0.9666085,-0.1895359,0.17246518,,0.05734079,1.3212017,0.4325433,0.9967341,0.07902243,-0.016632887,0.041463763,-0.6775536,-0.73430365,-0.06929614,0.73121583,-0.67861736,,-0.06457154,0.29985216,-0.05759654,-0.26477608,-0.7853932,0.55950975,0.88902944,0.025931785,0.4571151,-0.3735242,0.6184538,0.6913715,,-0.0018342868,0.5044638,-0.33111036,-0.19976419,-0.82554734,-0.5277934,0.68689144,-0.5021203,0.5254097,-0.69876635,-0.25757873,0.66736704,,1.2946157708363741,0.30773545957209825,0.19517720014,2.498245986674623,-0.5063748681307223,-0.5076863290253393,-0.42289778722164917,,-1.2461865129821121,0.16247857694080947,0.14046728069,4.537690377005107,-0.9964899927893571,-0.6946470201557936,0.876340914810408,,0.0238237442897226,0.039426987802551904,0.09203306007999999,-0.11742376536589094,,-1.3925135e-05,2.6226044e-06,-1.9073486e-06,1.0,4.7311187e-06,5.1110983e-06,-4.7422945e-06,1.0,4.172325e-07,-5.0999224e-06,-5.364418e-07,1.0,373,1.139,0,1,0.028,False,-0.26351227645344677,1.0511565141852286
1.1609510620037327,14:59:28.040188,14:58:12.824813,0,,0.1087748,0.00020705163,0.03723879,0.18436973,0.81279176,-0.55260944,0.34363374,0.473457,0.81102043,0.92082775,-0.339423,-0.19201168,,0.047669135,-0.03075134,0.083108485,0.105379224,0.9073797,0.40688732,-0.23370183,-0.37510866,0.89703774,0.966581,-0.18961947,0.17252758,,0.05734079,1.3212017,0.4325433,0.9967341,0.07902243,-0.016632887,0.041463763,-0.6775536,-0.73430365,-0.06929614,0.73121583,-0.67861736,,-0.06400247,0.29980525,-0.057424836,-0.25805062,-0.78432006,0.56413823,0.8923867,0.030250331,0.45025647,-0.37021056,0.6196184,0.69211066,,-0.0018349021,0.5044618,-0.33111194,-0.1997973,-0.82552177,-0.5278208,0.6868139,-0.5021865,0.52544785,-0.6988331,-0.2575316,0.6673153,,1.2963765539316974,0.3058665582165359,0.19545201362000003,2.4890196291613043,-0.5017292271386973,-0.5046952023193509,-0.42077431436190327,,-1.2461865129821121,0.16247085420793522,0.14046728069,4.537900066948591,-0.9964899927893571,-0.6948103776360748,0.8766676029426768,,0.0238237442897226,0.039426987802551904,0.09203306007999999,-0.11742376536589094,,-1.3925135e-05,2.6226044e-06,-1.9073486e-06,1.0,4.7311187e-06,5.1110983e-06,-4.7422945e-06,1.0,4.172325e-07,-5.0999224e-06,-5.364418e-07,1.0,390,1.192,0,1,0.028,False,-0.26351227645344677,1.0511565141852286
1.1844784999993863,14:59:28.089708,14:58:12.966901,0,,0.10748518,0.00038799644,0.03673394,0.16374086,0.8082357,-0.56563586,0.3563624,0.4861959,0.7978842,0.9198885,-0.33221772,-0.2084148,,0.04767201,-0.030751996,0.08310813,0.10541397,0.90730035,0.40705514,-0.23380378,-0.37524843,0.89695275,0.96655256,-0.18972236,0.17257369,,0.05734079,1.3212017,0.4325433,0.9967341,0.07902243,-0.016632887,0.041463763,-0.6775536,-0.73430365,-0.06929614,0.73121583,-0.67861736,,-0.06267715,0.29964036,-0.05701604,-0.23744428,-0.7803846,0.5784635,0.90167093,0.04448697,0.43012834,-0.36139962,0.6237153,0.693087,,-0.0018376134,0.5044607,-0.3311124,-0.19981596,-0.8254142,-0.52798206,0.68673295,-0.50233024,0.52541614,-0.6989073,-0.25759614,0.6672127,,1.3001993067044384,0.30149549140972487,0.19610015862000002,2.462598696282254,-0.48861212316121505,-0.4991372517862355,-0.42289778722164906,,-1.2462019584478607,0.16247085420793522,0.14046857698,4.538109756892076,-0.9964899927893571,-0.6948103776360748,0.8769942910749453,,0.0238237442897226,0.039426987802551904,0.09203306007999999,-0.11742376536589094,,-1.3925135e-05,2.6226044e-06,-1.9073486e-06,1.0,4.7311187e-06,5.1110983e-06,-4.7422945e-06,1.0,4.172325e-07,-5.0999224e-06,-5.364418e-07,1.0,394,1.204,0,1,0.028,False,-0.26333354329788383,1.0512047943860081
1.2340004690049682,14:59:28.109892,14:58:12.966901,0,,0.10692188,0.00040647388,0.03652443,0.15323986,0.8060103,-0.5717211,0.3618279,0.49261147,0.7914635,0.9195642,-0.32814848,-0.21614945,,0.04766921,-0.03075134,0.083106875,0.105438024,0.90729934,0.40705135,-0.23380432,-0.37524033,0.89695597,0.96654975,-0.18974367,0.17256585,,0.05734079,1.3212017,0.4325433,0.9967341,0.07902243,-0.016632887,0.041463763,-0.6775536,-0.73430365,-0.06929614,0.73121583,-0.67861736,,-0.062098987,0.29953477,-0.056889072,-0.22696449,-0.7785067,0.5851619,0.9058128,0.051972058,0.42047837,-0.3577573,0.62548083,0.69338554,,-0.0018347779,0.50446045,-0.33111113,-0.19983922,-0.8254113,-0.5279777,0.6867262,-0.50234413,0.5254117,-0.69890726,-0.25757825,0.66721964,,1.301728407813535,0.2994412444651811,0.19633737969,2.4495979197862137,-0.48287339017106656,-0.4966290746091157,-0.42485791601526024,,-1.246178790249238,0.16247857694080947,0.14046857698,4.538109756892076,-0.9964899927893571,-0.6948103776360748,0.8769942910749453,,0.0238237442897226,0.039426987802551904,0.09203306007999999,-0.11742376536589094,,-1.3925135e-05,2.6226044e-06,-1.9073486e-06,1.0,4.7311187e-06,5.1110983e-06,-4.7422945e-06,1.0,4.172325e-07,-5.0999224e-06,-5.364418e-07,1.0,411,1.258,0,1,0.028,False,-0.26434636451274196,1.0515427557914643
1.2541838239994831,14:59:28.160253,14:58:12.966901,0,,0.10550969,0.0005066991,0.03609155,0.13384001,0.800325,-0.58443713,0.37095866,0.5064068,0.7784226,0.91895413,-0.3209862,-0.22911009,,0.047670886,-0.030751191,0.08310789,0.10542304,0.90730083,0.40705177,-0.23380798,-0.37524262,0.89695406,0.96655047,-0.1897316,0.17257488,,0.05734079,1.3212017,0.4325433,0.9967341,0.07902243,-0.016632887,0.041463763,-0.6775536,-0.73430365,-0.06929614,0.73121583,-0.67861736,,-0.06065704,0.299374,-0.056594748,-0.20760053,-0.77344483,0.5989033,0.9127937,0.0669698,0.40289295,-0.35172388,0.6303159,0.6920926,,-0.0018365745,0.5044611,-0.33111158,-0.19982414,-0.8254141,-0.527979,0.6867276,-0.50233525,0.5254184,-0.69891024,-0.25758645,0.6672134,,1.3059836336272326,0.2944214680969352,0.19692719164000003,2.4244351265680706,-0.47289892568818936,-0.4925107705578702,-0.42485791601526035,,-1.2461942357149864,0.16247857694080947,0.14046857698,4.538109756892076,-0.9964899927893571,-0.6948103776360748,0.8769942910749453,,0.0238237442897226,0.039426987802551904,0.09203306007999999,-0.11742376536589094,,-1.3925135e-05,2.6226044e-06,-1.9073486e-06,1.0,4.7311187e-06,5.1110983e-06,-4.7422945e-06,1.0,4.172325e-07,-5.0999224e-06,-5.364418e-07,1.0,419,1.282,0,1,0.028,False,-0.2630356547052788,1.0508668329805522
1.3045468220079783,14:59:28.187232,14:58:13.090893,0,,0.10466166,0.0005865246,0.035814956,0.12738371,0.798129,-0.5888663,0.37821153,0.5097585,0.7727239,0.91691303,-0.3211485,-0.2369267,,0.04767201,-0.030751996,0.08310813,0.10541397,0.9073669,0.40690687,-0.23380378,-0.3751019,0.897014,0.96655256,-0.18969418,0.17260471,,0.05734079,1.3212017,0.4325433,0.9967341,0.07902243,-0.016632887,0.041463763,-0.6775536,-0.73430365,-0.06929614,0.73121583,-0.67861736,,-0.059789848,0.2992789,-0.056392297,-0.20102014,-0.77125126,0.6039556,0.91667587,0.06928298,0.39358008,-0.34539297,0.632749,0.6930601,,-0.0018376134,0.5044607,-0.3311124,-0.19981596,-0.8255004,-0.5278472,0.68673295,-0.5022444,0.5254982,-0.6989073,-0.25748715,0.6672548,,1.3086865901332112,0.29141732500886186,0.19730441203000001,2.4156281489417206,-0.46511064520155926,-0.48930517847212035,-0.424041195684589,,-1.2462019584478607,0.16247085420793522,0.14046857698,4.538109756892076,-0.9964899927893571,-0.6949737351163559,0.8766676029426768,,0.0238237442897226,0.039426987802551904,0.09203306007999999,-0.11742376536589094,,-1.3925135e-05,2.6226044e-06,-1.9073486e-06,1.0,4.7311187e-06,5.1110983e-06,-4.7422945e-06,1.0,4.172325e-07,-5.0999224e-06,-5.364418e-07,1.0,432,1.323,0,1,0.028,False,-0.2631548101423209,1.0514461953899055
1.3315057200088631,14:59:28.225370,14:58:13.090893,0,,0.103853315,0.0006354898,0.035544917,0.11795911,0.7983123,-0.5905787,0.38442028,0.5116475,0.7683995,0.91559094,-0.31767026,-0.24653408,,0.047669828,-0.030752711,0.08310807,0.105428934,0.9073985,0.40683243,-0.23380008,-0.37502635,0.89704657,0.9665518,-0.18969212,0.17261115,,0.05734079,1.3212017,0.4325433,0.9967341,0.07902243,-0.016632887,0.041463763,-0.6775536,-0.73430365,-0.06929614,0.73121583,-0.67861736,,-0.058962677,0.29916495,-0.0562147,-0.19153562,-0.77171594,0.6064393,0.9205401,0.07308996,0.3837497,-0.34047037,0.63175344,0.6963961,,-0.0018353765,0.5044607,-0.33111295,-0.19983104,-0.8255407,-0.52777845,0.68673164,-0.5022103,0.52553254,-0.69890434,-0.25742444,0.6672821,,1.3110960827899691,0.288498131982405,0.19765570662,2.4036758221631027,-0.45814218371352183,-0.4815104994374451,-0.42485791601526024,,-1.2461865129821121,0.16247085420793522,0.14046728069,4.538109756892076,-0.9964899927893571,-0.6950554138564964,0.8765042588765424,,0.0238237442897226,0.039426987802551904,0.09203306007999999,-0.11742376536589094,,-1.3925135e-05,2.6226044e-06,-1.9073486e-06,1.0,4.7311187e-06,5.1110983e-06,-4.7422945e-06,1.0,4.172325e-07,-5.0999224e-06,-5.364418e-07,1.0,440,1.348,0,1,0.028,False,-0.26255903295711036,1.0513013547875674
1.3696300640003756,14:59:28.245440,14:58:13.090893,0,,0.10338354,0.0006889999,0.035315618,0.11112763,0.8006825,-0.58869195,0.3897052,0.50980884,0.76695806,0.9142104,-0.31464663,-0.25537637,,0.047670662,-0.030752651,0.08310866,0.10542145,0.90739936,0.40683264,-0.2338019,-0.37502748,0.8970456,0.9665522,-0.18968609,0.17261568,,0.05734079,1.3212017,0.4325433,0.9967341,0.07902243,-0.016632887,0.041463763,-0.6775536,-0.73430365,-0.06929614,0.73121583,-0.67861736,,-0.058476254,0.29906347,-0.056043763,-0.18462898,-0.7743151,0.6052671,0.9235732,0.073879026,0.37623724,-0.33604273,0.62847275,0.7014964,,-0.0018362749,0.50446105,-0.3311132,-0.1998235,-0.8255421,-0.5277791,0.6867323,-0.5022059,0.5255359,-0.6989058,-0.25742856,0.66727895,,1.3123703337142163,0.2868222989486983,0.19792274236000001,2.3957076043106906,-0.4521301777238424,-0.4727725375966137,-0.4465826768111194,,-1.2461942357149864,0.16247085420793522,0.14046728069,4.538109756892076,-0.9964899927893571,-0.6950554138564964,0.8765042588765424,,0.0238237442897226,0.039426987802551904,0.09203306007999999,-0.11742376536589094,,-1.3925135e-05,2.6226044e-06,-1.9073486e-06,1.0,4.7311187e-06,5.1110983e-06,-4.7422945e-06,1.0,4.172325e-07,-5.0999224e-06,-5.364418e-07,1.0,457,1.401,0,1,0.028,False,-0.2629164992682367,1.0510116735828905
1.3896717750030803,14:59:28.297545,14:58:13.090893,0,,0.10230364,0.0008147061,0.034680918,0.09486345,0.800332,-0.5920048,0.40509945,0.51218534,0.75733775,0.9093379,-0.31166458,-0.27562657,,0.047670133,-0.030753605,0.08310771,0.10542735,0.9073973,0.40683562,-0.23379394,-0.37503096,0.8970462,0.9665534,-0.18968895,0.1726054,,0.05734079,1.3212017,0.4325433,0.9967341,0.07902243,-0.016632887,0.041463763,-0.6775536,-0.73430365,-0.06929614,0.73121583,-0.67861736,,-0.057349503,0.298754,-0.055575233,-0.1680665,-0.7742094,0.61020774,0.9315742,0.0776926,0.35515246,-0.322371,0.628143,0.708176,,-0.0018355171,0.50445986,-0.33111355,-0.1998304,-0.82553935,-0.52778083,0.68673635,-0.5022097,0.52552694,-0.69889987,-0.25743002,0.6672846,,1.315559822391271,0.2822118274227863,0.19876014570000003,2.3747386099622383,-0.43491397875339693,-0.46304268008145927,-0.4331884633881087,,-1.2461865129821121,0.162463131475061,0.14046728069,4.538109756892076,-0.9964899927893571,-0.6950554138564964,0.8765042588765424,,0.0238237442897226,0.039426987802551904,0.09203306007999999,-0.11742376536589094,,-1.3925135e-05,2.6226044e-06,-1.9073486e-06,1.0,4.7311187e-06,5.1110983e-06,-4.7422945e-06,1.0,4.172325e-07,-5.0999224e-06,-5.364418e-07,1.0,465,1.426,0,1,0.028,False,-0.2629164992682367,1.0516875963938028
1.4417800619994523,14:59:28.326242,14:58:13.090893,0,,0.10178142,0.000958398,0.034366593,0.08913955,0.7974361,-0.5967827,0.40452442,0.5185407,0.7533097,0.9101727,-0.308563,-0.27636003,,0.047670133,-0.030753605,0.08310771,0.10542735,0.90743047,0.40676153,-0.23379394,-0.37495774,0.89707685,0.9665534,-0.18967485,0.17262092,,0.05734079,1.3212017,0.4325433,0.9967341,0.07902243,-0.016632887,0.041463763,-0.6775536,-0.73430365,-0.06929614,0.73121583,-0.67861736,,-0.056804247,0.2986559,-0.055283308,-0.16242597,-0.7715859,0.615039,0.9321266,0.08447483,0.35214213,-0.32366323,0.63049126,0.7054948,,-0.0018355171,0.50445986,-0.33111355,-0.1998304,-0.82558244,-0.5277134,0.68673635,-0.5021668,0.525568,-0.69889987,-0.25737554,0.66730565,,1.3163089274800708,0.2809684674300361,0.19903366289000002,2.3701254312055786,-0.4350506152531624,-0.46309461965804394,-0.4343318718510487,,-1.2461865129821121,0.162463131475061,0.14046728069,4.538109756892076,-0.9964899927893571,-0.695137092596637,0.8766676029426768,,0.0238237442897226,0.039426987802551904,0.09203306007999999,-0.11742376536589094,,-1.3925135e-05,2.6226044e-06,-1.9073486e-06,1.0,4.7311187e-06,5.1110983e-06,-4.7422945e-06,1.0,4.172325e-07,-5.0999224e-06,-5.364418e-07,1.0,478,1.467,0,1,0.028,False,-0.2631548101423209,1.0511565141852286
1.4705318470078055,14:59:28.365973,14:58:13.254710,0,,0.101109885,0.0011403561,0.033876494,0.07708536,0.7945015,-0.6023497,0.407925,0.5261342,0.7461769,0.9097555,-0.30323297,-0.28353995,,0.047667347,-0.030752532,0.083108425,0.1054455,0.9074314,0.40675473,-0.23380247,-0.37494612,0.89707947,0.9665494,-0.18969329,0.17262325,,0.05734079,1.3212017,0.4325433,0.9967341,0.07902243,-0.016632887,0.041463763,-0.6775536,-0.73430365,-0.06929614,0.73121583,-0.67861736,,-0.05609623,0.29846552,-0.05485118,-0.15038536,-0.76910436,0.62117845,0.9348771,0.09372462,0.3423748,-0.32154167,0.6322137,0.7049233,,-0.001832999,0.50446147,-0.3311129,-0.19984676,-0.8255824,-0.52770734,0.68672556,-0.5021768,0.5255725,-0.69890577,-0.25735617,0.6673069,,1.3176990193974312,0.2785512520404038,0.19962477113000002,2.3560762049921156,-0.43040497426113744,-0.46092028035346116,-0.43286177525584,,-1.2461710675163638,0.16247857694080947,0.14046598440000002,4.538109756892076,-0.9964899927893571,-0.695137092596637,0.8766676029426768,,0.0238237442897226,0.039426987802551904,0.09203306007999999,-0.11742376536589094,,-1.3925135e-05,2.6226044e-06,-1.9073486e-06,1.0,4.7311187e-06,5.1110983e-06,-4.7422945e-06,1.0,4.172325e-07,-5.0999224e-06,-5.364418e-07,1.0,486,1.491,0,1,0.028,False,-0.2626781883941529,1.0513013547875674
1.5102344549959525,14:59:28.391889,14:58:13.254710,0,,0.100633875,0.0012781024,0.033449396,0.066061944,0.7943651,-0.6038376,0.41357714,0.5289314,0.7410705,0.9080694,-0.2986901,-0.29358912,,0.04766909,-0.030754738,0.083109856,0.10542735,0.90743047,0.40676153,-0.23379394,-0.37495774,0.89707685,0.9665534,-0.18967485,0.17262092,,0.05734079,1.3212017,0.4325433,0.9967341,0.07902243,-0.016632887,0.041463763,-0.6775536,-0.73430365,-0.06929614,0.73121583,-0.67861736,,-0.055588026,0.2982788,-0.05448396,-0.13927671,-0.7693376,0.6234755,0.9381908,0.09894563,0.3316742,-0.31685957,0.6311335,0.7080046,,-0.0018346366,0.5044613,-0.33111554,-0.1998304,-0.82558244,-0.5277134,0.68673635,-0.5021668,0.525568,-0.69889987,-0.25737554,0.66730565,,1.31855624274647,0.2768676962738229,0.20009402811000002,2.344333568156982,-0.42316323977356907,-0.45539040562969285,-0.43351515152037723,,-1.2461865129821121,0.162463131475061,0.14046468811,4.538109756892076,-0.9964899927893571,-0.695137092596637,0.8766676029426768,,0.0238237442897226,0.039426987802551904,0.09203306007999999,-0.11742376536589094,,-1.3925135e-05,2.6226044e-06,-1.9073486e-06,1.0,4.7311187e-06,5.1110983e-06,-4.7422945e-06,1.0,4.172325e-07,-5.0999224e-06,-5.364418e-07,1.0,499,1.532,0,1,0.028,False,-0.26255903295711036,1.0516393161930233
1.5361710270080948,14:59:28.436741,14:58:13.254710,0,,0.100044504,0.0014696717,0.03288181,0.053215228,0.79371107,-0.6059628,0.4198746,0.5327892,0.73473865,0.90602064,-0.2935278,-0.30490673,,0.047667406,-0.030760966,0.08310932,0.10567109,0.9075288,0.4064789,-0.23363894,-0.37466574,0.8972392,0.9665643,-0.18978156,0.17244262,,0.05734079,1.3212017,0.4325433,0.9967341,0.07902243,-0.016632887,0.041463763,-0.6775536,-0.73430365,-0.06929614,0.73121583,-0.67861736,,-0.054955762,0.29803392,-0.053987514,-0.12632328,-0.76910675,0.626512,0.9417935,0.1053744,0.31925106,-0.31155646,0.6303738,0.71102846,,-0.0018321825,0.504458,-0.33112058,-0.20008999,-0.8256998,-0.5274313,0.68678164,-0.50212836,0.5255455,-0.6987811,-0.25707376,0.66754633,,1.3195370298214966,0.2747516674662854,0.20072143247000002,2.330703721830488,-0.4149650497876426,-0.4496603113501126,-0.43351515152037723,,-1.246178790249238,0.1624245178106899,0.14045950295,4.538109756892076,-0.9962167197898263,-0.6954416071441704,0.8771576351410797,,0.0238237442897226,0.039426987802551904,0.09203306007999999,-0.11742376536589094,,-1.3925135e-05,2.6226044e-06,-1.9073486e-06,1.0,4.7311187e-06,5.1110983e-06,-4.7422945e-06,1.0,4.172325e-07,-5.0999224e-06,-5.364418e-07,1.0,507,1.557,0,1,0.028,False,-0.2622015666459845,1.051494475590685
1.5810228629998164,14:59:28.458260,14:58:13.254710,0,,0.09976262,0.0015851259,0.03262897,0.048672635,0.7928033,-0.607531,0.42092144,0.5353214,0.73229504,0.90579045,-0.29136568,-0.30765253,,0.047666848,-0.030767314,0.08311361,0.10565724,0.90772367,0.40604714,-0.23361635,-0.3742457,0.89742047,0.96657133,-0.18967818,0.17251721,,0.05734079,1.3212017,0.4325433,0.9967341,0.07902243,-0.016632887,0.041463763,-0.6775536,-0.73430365,-0.06929614,0.73121583,-0.67861736,,-0.0546549,0.29794666,-0.053745437,-0.12177941,-0.7683806,0.62830013,0.942616,0.10873366,0.31567726,-0.31087765,0.6306887,0.7110463,,-0.0018314414,0.5044586,-0.3311282,-0.20007989,-0.82595414,-0.52703685,0.6868012,-0.5018639,0.5257725,-0.69876474,-0.25677302,0.6676792,,1.320062175656944,0.27377088039125885,0.20103254207000001,2.325461473243375,-0.41332541179045734,-0.4483836065099716,-0.43351515152037723,,-1.2461865129821121,0.16239362687919298,0.14045302150000002,4.538109756892076,-0.9962167197898263,-0.6959316795850137,0.8763409148104082,,0.0238237442897226,0.039426987802551904,0.09203306007999999,-0.11742376536589094,,-1.3925135e-05,2.6226044e-06,-1.9073486e-06,1.0,4.7311187e-06,5.1110983e-06,-4.7422945e-06,1.0,4.172325e-07,-5.0999224e-06,-5.364418e-07,1.0,520,1.598,0,1,0.028,False,-0.26297607698675796,1.0511565141852286
1.6025307060044724,14:59:28.500402,14:58:13.403247,0,,0.09907274,0.0018688887,0.03191574,0.034871645,0.7890648,-0.6133194,0.4216791,0.5447725,0.72485137,0.9060744,-0.28390086,-0.3137352,,0.047665395,-0.030788384,0.083120465,0.10563181,0.9079357,0.40557945,-0.23351857,-0.373807,0.8976286,0.9665977,-0.18952854,0.17253387,,0.05734079,1.3212017,0.4325433,0.9967341,0.07902243,-0.016632887,0.041463763,-0.6775536,-0.73430365,-0.06929614,0.73121583,-0.67861736,,-0.053911064,0.29766545,-0.053087592,-0.10804691,-0.7652726,0.6345736,0.94416565,0.12085374,0.3065054,-0.3112508,0.63225955,0.7094863,,-0.0018284055,0.50445414,-0.3311498,-0.20006967,-0.82623345,-0.52660275,0.6868767,-0.50155365,0.52596986,-0.6986934,-0.25648054,0.6678662,,1.320958012670354,0.2712069330770163,0.20186994541000003,2.309525037538551,-0.41100259129444483,-0.44668384630662616,-0.4335151515203771,,-1.2461865129821121,0.16227006315320538,0.14043746602,4.538109756892076,-0.9962167197898263,-0.6965034307659977,0.8769942910749453,,0.0238237442897226,0.039426987802551904,0.09203306007999999,-0.11742376536589094,,-1.3925135e-05,2.6226044e-06,-1.9073486e-06,1.0,4.7311187e-06,5.1110983e-06,-4.7422945e-06,1.0,4.172325e-07,-5.0999224e-06,-5.364418e-07,1.0,528,1.622,0,1,0.028,False,-0.2636910096090097,1.051108233984449
1.6446905229968252,14:59:28.523224,14:58:13.403247,0,,0.0988244,0.0019734055,0.031626537,0.031926483,0.7879003,-0.6149746,0.42441455,0.5463744,0.72204375,0.90490496,-0.28405657,-0.31695268,,0.04766401,-0.030799232,0.08312374,0.10574121,0.90799475,0.40541875,-0.23340845,-0.37365046,0.8977225,0.96661234,-0.18955444,0.17242327,,0.05734079,1.3212017,0.4325433,0.9967341,0.07902243,-0.016632887,0.041463763,-0.6775536,-0.73430365,-0.06929614,0.73121583,-0.67861736,,-0.053640723,0.2975423,-0.052826855,-0.10502472,-0.7641035,0.636487,0.94537055,0.1219095,0.30234513,-0.30861676,0.6334698,0.7095574,,-0.001826198,0.50445175,-0.3311607,-0.20019218,-0.8263066,-0.52644134,0.68692565,-0.5015075,0.52594995,-0.69861025,-0.256335,0.6680091,,1.3212978129168198,0.27026475966636093,0.20218883275000002,2.3065893783297677,-0.4078599517998397,-0.44663273840714585,-0.4336784955865114,,-1.2461865129821121,0.16220055855733737,0.14042839199,4.538109756892076,-0.9960800832900608,-0.6966965274098348,0.8768309470088109,,0.0238237442897226,0.039426987802551904,0.09203306007999999,-0.11742376536589094,,-1.3925135e-05,2.6226044e-06,-1.9073486e-06,1.0,4.7311187e-06,5.1110983e-06,-4.7422945e-06,1.0,4.172325e-07,-5.0999224e-06,-5.364418e-07,1.0,545,1.675,0,1,0.028,False,-0.2621419889274632,1.0510116735828905
1.6675110590003897,14:59:28.578345,14:58:13.403247,0,,0.0983153,0.0022222996,0.030886948,0.028576948,0.7845869,-0.61936,0.43358326,0.5485595,0.7149041,0.9006602,-0.28897396,-0.32450768,,0.047604986,-0.030841433,0.08313942,0.10568779,0.9081916,0.4049914,-0.23318222,-0.37328166,0.8979347,0.96667266,-0.1893375,0.17232284,,0.05735105,1.3212007,0.43254218,0.99673486,0.07900914,-0.016647294,0.041444205,-0.67755514,-0.73430336,-0.06929614,0.73121583,-0.67861736,,-0.053081967,0.29720733,-0.052167613,-0.10136192,-0.7604032,0.6414926,0.94878507,0.12005241,0.29222304,-0.29922006,0.6382589,0.70929044,,-0.0017734291,0.504453,-0.33120468,-0.20017464,-0.8265818,-0.5260159,0.68710065,-0.5011618,0.52605087,-0.6984431,-0.2561238,0.66826475,,1.3217920678207702,0.26822595818756567,0.20295882901,2.3044924788949226,-0.39829539681625886,-0.44936790977718044,-0.4335151515203771,,-1.246140176584867,0.16193798563961376,0.14039987361,4.538109756892076,-0.9960800832900608,-0.6973499573309593,0.8771576351410797,,0.0238237442897226,0.039426987802551904,0.09203306007999999,-0.11742376536589094,,-3.6507845e-06,3.2186508e-06,-7.1525574e-07,1.0,-8.579344e-06,-9.23872e-06,8.564442e-06,1.0,-9.23872e-07,9.2461705e-06,8.34465e-07,1.0,553,1.7,0,1,0.028,False,-0.26327396557936344,1.0508668329805522
1.7226059840031667,14:59:28.598742,14:58:13.403247,0,,0.09816331,0.0023153871,0.030597895,0.02743391,0.78301764,-0.6213942,0.4374075,0.5495545,0.7118036,0.89884484,-0.2913301,-0.3274215,,0.047605567,-0.030856542,0.08313793,0.10579517,0.9083084,0.40470135,-0.23303366,-0.3730051,0.89808816,0.9666968,-0.18932238,0.1722042,,0.05735105,1.3212007,0.43254218,0.99673486,0.07900914,-0.016647294,0.041444205,-0.67755514,-0.73430336,-0.06929614,0.73121583,-0.67861736,,-0.05290764,0.2970707,-0.051910207,-0.10008724,-0.7586536,0.64376026,0.9501611,0.119120575,0.28810453,-0.29525664,0.6405115,0.70892066,,-0.0017720438,0.5044441,-0.33121693,-0.20030087,-0.8267311,-0.52573305,0.6871771,-0.5010307,0.52607584,-0.6983317,-0.2558983,0.6684676,,1.3218075132865186,0.26758497135900505,0.20324790168,2.3040730990079537,-0.3943329383230611,-0.45121049040198713,-0.4336784955865114,,-1.2461324538519927,0.1618298673793746,0.14039339216000002,4.538109756892076,-0.9959434467902953,-0.6977064114550773,0.876667602942677,,0.0238237442897226,0.039426987802551904,0.09203306007999999,-0.11742376536589094,,-3.6507845e-06,3.2186508e-06,-7.1525574e-07,1.0,-8.579344e-06,-9.23872e-06,8.564442e-06,1.0,-9.23872e-07,9.2461705e-06,8.34465e-07,1.0,566,1.741,0,1,0.028,False,-0.26339312101640555,1.051108233984449
1.743027771008201,14:59:28.640512,14:58:13.403247,0,,0.09784068,0.0025622547,0.029878646,0.02230951,0.77919096,-0.62638944,0.45141858,0.55118746,0.7017218,0.8920334,-0.298419,-0.33944473,,0.04761348,-0.030885927,0.08313358,0.1057326,0.9084378,0.40442717,-0.23285401,-0.3727802,0.89822817,0.96674687,-0.18914448,0.17211834,,0.05735105,1.3212007,0.43254218,0.99673486,0.07900914,-0.016647294,0.041444205,-0.67755514,-0.73430336,-0.06929614,0.73121583,-0.67861736,,-0.052529305,0.29673788,-0.05125564,-0.09447072,-0.75427794,0.64972305,0.9551422,0.11532985,0.2727681,-0.28067544,0.6463465,0.7095474,,-0.0017758429,0.5044244,-0.33124024,-0.20026669,-0.8269076,-0.52546847,0.68732,-0.50078917,0.52611923,-0.6982009,-0.25580084,0.6686415,,1.321853849683764,0.26641883869499716,0.20394789828,2.3019761995731085,-0.3787563773498009,-0.45549922118890124,-0.43384183965264567,,-1.246147899317741,0.16159818539314785,0.14038691071,4.538109756892076,-0.9959434467902953,-0.6981148051557801,0.8768309470088109,,0.0238237442897226,0.039426987802551904,0.09203306007999999,-0.11742376536589094,,-3.6507845e-06,3.2186508e-06,-7.1525574e-07,1.0,-8.579344e-06,-9.23872e-06,8.564442e-06,1.0,-9.23872e-07,9.2461705e-06,8.34465e-07,1.0,574,1.766,0,1,0.028,False,-0.26404847592013647,1.0511565141852286
1.7848008450091584,14:59:28.670303,14:58:13.568607,0,,0.09772272,0.0027156025,0.029480994,0.023425087,0.77774864,-0.62813884,0.46159953,0.54891175,0.69686556,0.8867791,-0.3062728,-0.34615022,,0.047612287,-0.030890636,0.08313352,0.10562954,0.908589,0.40411422,-0.2326127,-0.37253606,0.89839196,0.9668163,-0.1888988,0.17199844,,0.05735105,1.3212007,0.43254218,0.99673486,0.07900914,-0.016647294,0.041444205,-0.67755514,-0.73430336,-0.06929614,0.73121583,-0.67861736,,-0.052380394,0.29656184,-0.050878298,-0.09518899,-0.7522085,0.6520134,0.9582518,0.10816038,0.26467884,-0.26961568,0.6499875,0.71050936,,-0.0017740973,0.5044222,-0.33124417,-0.2002023,-0.8271165,-0.5251641,0.68751687,-0.50048417,0.5261522,-0.69802547,-0.25572234,0.66885465,,1.3218229587522672,0.2660404247841601,0.20432771125000002,2.30575061855583,-0.3680987303680966,-0.4586356633476639,-0.43384183965264567,,-1.246140176584867,0.1615441262630283,0.14038431813000002,4.537690377005107,-0.9959434467902953,-0.6981148051557801,0.8768309470088109,,0.0238237442897226,0.039426987802551904,0.09203306007999999,-0.11742376536589094,,-3.6507845e-06,3.2186508e-06,-7.1525574e-07,1.0,-8.579344e-06,-9.23872e-06,8.564442e-06,1.0,-9.23872e-07,9.2461705e-06,8.34465e-07,1.0,587,1.806,0,1,0.028,False,-0.2634526987349264,1.051397915189126
1.8145709469972644,14:59:28.706394,14:58:13.568607,0,,0.09761995,0.0028737783,0.02910313,0.024392799,0.7749025,-0.6316099,0.47149554,0.5481977,0.69077575,0.881531,-0.3146513,-0.35199118,,0.047611326,-0.030894123,0.0831359,0.10562637,0.9086195,0.40404645,-0.23260042,-0.372472,0.8984217,0.9668196,-0.1888784,0.1720024,,0.05735105,1.3212007,0.43254218,0.99673486,0.07900914,-0.016647294,0.041444205,-0.67755514,-0.73430336,-0.06929614,0.73121583,-0.67861736,,-0.052248225,0.29640254,-0.05051018,-0.09575965,-0.7487017,0.6559542,0.9611792,0.101765774,0.2564728,-0.2587753,0.65504926,0.70989144,,-0.0017730562,0.50442266,-0.33124837,-0.20020103,-0.82715666,-0.52510136,0.68752635,-0.50044,0.5261819,-0.6980165,-0.25567886,0.6688806,,1.3217997905536445,0.2657701291335623,0.20469456132000002,2.3093153475950667,-0.35757771988615766,-0.4639476923266659,-0.4344952159171829,,-1.246140176584867,0.16152868079727983,0.14038042926000002,4.537690377005107,-0.9959434467902953,-0.6981964838959207,0.8769942910749453,,0.0238237442897226,0.039426987802551904,0.09203306007999999,-0.11742376536589094,,-3.6507845e-06,3.2186508e-06,-7.1525574e-07,1.0,-8.579344e-06,-9.23872e-06,8.564442e-06,1.0,-9.23872e-07,9.2461705e-06,8.34465e-07,1.0,595,1.831,0,1,0.028,False,-0.2636314318904893,1.0510116735828905
1.8506681349972496,14:59:28.728859,14:58:13.568607,0,,0.0975744,0.0029877722,0.028869689,0.026660413,0.77286917,-0.63400507,0.47764757,0.5472967,0.68725467,0.87814695,-0.32115358,-0.35456806,,0.047610804,-0.03089469,0.083136976,0.10562637,0.90868556,0.403898,-0.23260042,-0.3723252,0.8984825,0.9668196,-0.18885031,0.17203328,,0.05735105,1.3212007,0.43254218,0.99673486,0.07900914,-0.016647294,0.041444205,-0.67755514,-0.73430336,-0.06929614,0.73121583,-0.67861736,,-0.05218448,0.29631424,-0.05026995,-0.09776543,-0.7461542,0.65855587,0.9628115,0.09655472,0.2523315,-0.25186488,0.6587345,0.70896614,,-0.0017726158,0.5044234,-0.3312494,-0.20020103,-0.82724243,-0.52496624,0.68752635,-0.50035405,0.5262636,-0.6980165,-0.25556958,0.6689223,,1.3217688996221475,0.26569290180482,0.20492918981000002,2.313299456521273,-0.3512924408969474,-0.46825612849529563,-0.4341685277849143,,-1.246140176584867,0.16152868079727983,0.14037913297000001,4.537690377005107,-0.9959434467902953,-0.6983598413762018,0.8769942910749453,,0.0238237442897226,0.039426987802551904,0.09203306007999999,-0.11742376536589094,,-3.6507845e-06,3.2186508e-06,-7.1525574e-07,1.0,-8.579344e-06,-9.23872e-06,8.564442e-06,1.0,-9.23872e-07,9.2461705e-06,8.34465e-07,1.0,612,1.884,0,1,0.028,False,-0.26285692154971585,1.0512047943860081
1.8731409780011745,14:59:28.788044,14:58:13.568607,0,,0.097495735,0.0032743812,0.028230637,0.025249926,0.7662195,-0.64208263,0.4928483,0.5492656,0.6748391,0.86974883,-0.33348906,-0.36376128,,0.04760977,-0.030895792,0.08313906,0.10562637,0.9087515,0.40374961,-0.23260042,-0.37217844,0.8985433,0.9668196,-0.18882221,0.17206407,,0.05735105,1.3212007,0.43254218,0.99673486,0.07900914,-0.016647294,0.041444205,-0.67755514,-0.73430336,-0.06929614,0.73121583,-0.67861736,,-0.05205583,0.29605225,-0.04962842,-0.095727436,-0.73854715,0.6673712,0.9672369,0.089359194,0.23762949,-0.23513635,0.6682537,0.70579594,,-0.0017717349,0.50442475,-0.33125138,-0.20020103,-0.82732815,-0.5248311,0.68752635,-0.5002681,0.5263453,-0.6980165,-0.2554603,0.6689641,,1.3213595947798136,0.2656542881404489,0.20554752014000002,2.3160254257865716,-0.33434951492603276,-0.4793765501290133,-0.43465855998331704,,-1.246140176584867,0.16152868079727983,0.14037654039000003,4.537690377005107,-0.9959434467902953,-0.698523198856483,0.8766676029426768,,0.0238237442897226,0.039426987802551904,0.09203306007999999,-0.11742376536589094,,-3.6507845e-06,3.2186508e-06,-7.1525574e-07,1.0,-8.579344e-06,-9.23872e-06,8.564442e-06,1.0,-9.23872e-07,9.2461705e-06,8.34465e-07,1.0,633,1.95,0,1,0.028,False,-0.2626781883941529,1.0514461953899055
1.9323372500075493,14:59:28.846287,14:58:13.748019,0,,0.097539485,0.0034469515,0.02772215,0.033006467,0.7622849,-0.64639956,0.5063946,0.5448355,0.6683702,0.8616699,-0.34939384,-0.368034,,0.04761017,-0.030898653,0.08314097,0.10561573,0.9087827,0.40368196,-0.23259005,-0.3721155,0.8985721,0.9668232,-0.1887957,0.17207256,,0.05735105,1.3212007,0.43254218,0.99673486,0.07900914,-0.016647294,0.041444205,-0.67755514,-0.73430336,-0.06929614,0.73121583,-0.67861736,,-0.05205933,0.2957994,-0.049152736,-0.10284863,-0.7333461,0.672031,0.9702113,0.07502317,0.23035078,-0.21934474,0.67570335,0.7037847,,-0.001772032,0.50442487,-0.3312548,-0.20019223,-0.8273697,-0.52476895,0.6875364,-0.50021946,0.52637833,-0.69800913,-0.25542092,0.66898686,,1.320618212423888,0.26570834727056847,0.20598307358,2.3279777525651895,-0.32109577444878507,-0.4890405844255983,-0.4343318718510485,,-1.246147899317741,0.1615132353315314,0.14037394781,4.537690377005107,-0.9959434467902953,-0.6986048775966235,0.8765042588765424,,0.0238237442897226,0.039426987802551904,0.09203306007999999,-0.11742376536589094,,-3.6507845e-06,3.2186508e-06,-7.1525574e-07,1.0,-8.579344e-06,-9.23872e-06,8.564442e-06,1.0,-9.23872e-07,9.2461705e-06,8.34465e-07,1.0,641,1.974,0,1,0.028,False,-0.26249945523859,1.05105995378367
1.9905726209981367,14:59:28.877307,14:58:13.748019,0,,0.097639225,0.003445685,0.027549893,0.045655273,0.76088214,-0.647282,0.5156628,0.53700393,0.6676216,0.8555743,-0.36425975,-0.36784172,,0.047607988,-0.030899398,0.08314097,0.10563069,0.9087482,0.40375584,-0.23258641,-0.3721866,0.8985436,0.96682245,-0.18882187,0.17204815,,0.05735105,1.3212007,0.43254218,0.99673486,0.07900914,-0.016647294,0.041444205,-0.67755514,-0.73430336,-0.06929614,0.73121583,-0.67861736,,-0.052145015,0.29566768,-0.049030527,-0.11499405,-0.7307433,0.67289716,0.9713963,0.058955334,0.23002923,-0.2077632,0.6801018,0.7030619,,-0.0017697959,0.50442487,-0.33125538,-0.20020731,-0.82732403,-0.5248352,0.68753505,-0.5002713,0.5263308,-0.69800615,-0.25546736,0.66897225,,1.3201548484514345,0.2658164655308076,0.20606473985,2.3437044983265287,-0.3131708574623895,-0.49542114409985016,-0.4341685277849141,,-1.2461324538519927,0.1615132353315314,0.14037265152,4.537690377005107,-0.9959434467902953,-0.698523198856483,0.8766676029426768,,0.0238237442897226,0.039426987802551904,0.09203306007999999,-0.11742376536589094,,-3.6507845e-06,3.2186508e-06,-7.1525574e-07,1.0,-8.579344e-06,-9.23872e-06,8.564442e-06,1.0,-9.23872e-07,9.2461705e-06,8.34465e-07,1.0,654,2.015,0,1,0.028,False,-0.26112916771260597,1.0505771517758753
2.0215684450085973,14:59:28.919414,14:58:13.748019,0,,0.09777825,0.0033862293,0.027427912,0.048292443,0.7623195,-0.6453967,0.5214319,0.53187394,0.6672472,0.85192513,-0.3687535,-0.3718124,,0.04760714,-0.03090071,0.08314341,0.10574531,0.9088506,0.4034952,-0.23252693,-0.3719204,0.89866924,0.9668242,-0.18885353,0.17200333,,0.05735105,1.3212007,0.43254218,0.99673486,0.07900914,-0.016647294,0.041444205,-0.67755514,-0.73430336,-0.06929614,0.73121583,-0.67861736,,-0.05227373,0.29553017,-0.04898298,-0.11734613,-0.73180515,0.67133534,0.9725517,0.052091584,0.22678097,-0.2009304,0.6795202,0.7056056,,-0.0017691234,0.5044265,-0.33125773,-0.20032738,-0.827452,-0.5245876,0.68754685,-0.5001827,0.5263997,-0.6979601,-0.25522628,0.6691123,,1.319382575164012,0.2660172565855375,0.20606992501000002,2.3483176770831884,-0.307432124472241,-0.4947098992058228,-0.43318846338810857,,-1.246140176584867,0.1615132353315314,0.14036876265,4.537690377005107,-0.9958068102905301,-0.6987979742404604,0.8763409148104082,,0.0238237442897226,0.039426987802551904,0.09203306007999999,-0.11742376536589094,,-3.6507845e-06,3.2186508e-06,-7.1525574e-07,1.0,-8.579344e-06,-9.23872e-06,8.564442e-06,1.0,-9.23872e-07,9.2461705e-06,8.34465e-07,1.0,662,2.04,0,1,0.028,False,-0.25761408231986493,1.05105995378367
2.063702633007779,14:59:28.941107,14:58:13.748019,0,,0.09785356,0.0033212304,0.027397484,0.0434872,0.7606123,-0.64774823,0.5234928,0.53487766,0.6632202,0.85091954,-0.36793324,-0.37491488,,0.047606632,-0.030901276,0.08314443,0.10574531,0.9088506,0.4034952,-0.23252693,-0.3719204,0.89866924,0.9668242,-0.18885353,0.17200333,,0.05735105,1.3212007,0.43254218,0.99673486,0.07900914,-0.016647294,0.041444205,-0.67755514,-0.73430336,-0.06929614,0.73121583,-0.67861736,,-0.05234621,0.295459,-0.049005467,-0.11248111,-0.7301762,0.6739367,0.9735235,0.05484919,0.22190893,-0.1989975,0.6810538,0.7046742,,-0.001768683,0.50442713,-0.33125874,-0.20032738,-0.827452,-0.5245876,0.68754685,-0.5001827,0.5263997,-0.6979601,-0.25522628,0.6691123,,1.318926933924433,0.2661485430443993,0.20602585115000002,2.3441238782134977,-0.30442612147740133,-0.4965893419061601,-0.43204505492516865,,-1.246140176584867,0.1615132353315314,0.14036746636000003,4.537690377005107,-0.9958068102905301,-0.6987979742404604,0.8763409148104082,,0.0238237442897226,0.039426987802551904,0.09203306007999999,-0.11742376536589094,,-3.6507845e-06,3.2186508e-06,-7.1525574e-07,1.0,-8.579344e-06,-9.23872e-06,8.564442e-06,1.0,-9.23872e-07,9.2461705e-06,8.34465e-07,1.0,675,2.081,0,1,0.028,False,-0.2561246393568388,1.0513496349883464
2.0853995210054563,14:59:28.988254,14:58:13.884561,0,,0.09813807,0.0029071867,0.027478307,0.020019721,0.7552843,-0.6550914,0.5334692,0.5460863,0.6459104,0.8455825,-0.36240217,-0.39198864,,0.04760243,-0.030907027,0.08314705,0.105763,0.90887743,0.40343007,-0.23250309,-0.37185746,0.89870137,0.96682805,-0.18884811,0.17198804,,0.05735105,1.3212007,0.43254218,0.99673486,0.07900914,-0.016647294,0.041444205,-0.67755514,-0.73430336,-0.06929614,0.73121583,-0.67861736,,-0.052635238,0.29521653,-0.0493469,-0.08868755,-0.72533387,0.68266046,0.9779,0.06686806,0.19809148,-0.18933064,0.6851419,0.7033736,,-0.0017642077,0.5044272,-0.33126485,-0.20034808,-0.8274865,-0.5245252,0.68755895,-0.5001512,0.52641374,-0.6979422,-0.255176,0.6691501,,1.3175059510755756,0.26661962974972697,0.20559807545000003,2.32336457380853,-0.289122833503672,-0.5003285219251192,-0.4289415176686173,,-1.2461170083862443,0.16149006713290873,0.14036098491000001,4.537690377005107,-0.9958068102905301,-0.698879652980601,0.8765042588765424,,0.0238237442897226,0.039426987802551904,0.09203306007999999,-0.11742376536589094,,-3.6507845e-06,3.2186508e-06,-7.1525574e-07,1.0,-8.579344e-06,-9.23872e-06,8.564442e-06,1.0,-9.23872e-07,9.2461705e-06,8.34465e-07,1.0,683,2.106,0,1,0.028,False,-0.0827534784606323,1.0507702725789931
2.1325247430067975,14:59:29.008487,14:58:13.884561,0,,0.09830222,0.0026559234,0.027564824,0.012161873,0.75647306,-0.65391177,0.5394586,0.54566187,0.641278,0.84192425,-0.36055762,-0.4014498,,0.047598697,-0.030909471,0.08315021,0.10577797,0.90887594,0.40342972,-0.23249945,-0.3718552,0.8987033,0.9668273,-0.18886021,0.17197907,,0.05735105,1.3212007,0.43254218,0.99673486,0.07900914,-0.016647294,0.041444205,-0.67755514,-0.73430336,-0.06929614,0.73121583,-0.67861736,,-0.05280514,0.29509705,-0.049580183,-0.08057787,-0.7266648,0.6822503,0.97982633,0.0678432,0.18798317,-0.1828868,0.68363416,0.7065386,,-0.0017606505,0.5044293,-0.3312684,-0.20036316,-0.8274837,-0.5245239,0.6875576,-0.5001601,0.5264071,-0.6979392,-0.2551678,0.6691564,,1.3168186278497696,0.2668435890030795,0.20531678052000002,2.317283565447479,-0.28092464351774554,-0.4973755048103181,-0.42665470074273737,,-1.2461015629204957,0.16149006713290873,0.14035579975,4.537690377005107,-0.9958068102905301,-0.698879652980601,0.8765042588765424,,0.0238237442897226,0.039426987802551904,0.09203306007999999,-0.11742376536589094,,-3.6507845e-06,3.2186508e-06,-7.1525574e-07,1.0,-8.579344e-06,-9.23872e-06,8.564442e-06,1.0,-9.23872e-07,9.2461705e-06,8.34465e-07,1.0,696,2.147,0,1,0.028,False,0.15621275052723194,1.0512047943860081
2.152779462005128,14:59:29.048580,14:58:13.884561,0,,0.09864928,0.002226144,0.027754724,0.005107696,0.7581782,-0.6520274,0.5455166,0.5443557,0.63725066,0.83808434,-0.35894683,-0.41081855,,0.047591023,-0.03091579,0.08315718,0.10580633,0.90887153,0.40343213,-0.23248604,-0.37185523,0.8987067,0.9668274,-0.1888812,0.17195529,,0.05735105,1.3212007,0.43254218,0.99673486,0.07900914,-0.016647294,0.041444205,-0.67755514,-0.73430336,-0.06929614,0.73121583,-0.67861736,,-0.053165168,0.29491913,-0.05000438,-0.073255,-0.72848964,0.68112886,0.98162013,0.068013065,0.17831485,-0.17622618,0.6816723,0.7101178,,-0.0017532363,0.50443333,-0.33127713,-0.20039268,-0.8274767,-0.5245237,0.6875596,-0.5001772,0.5263882,-0.6979288,-0.25515693,0.6691714,,1.3153667540694154,0.26729150750978453,0.20480733855000002,2.3124606967473347,-0.2731363630311155,-0.4945783064252711,-0.407053412806624,,-1.246070671988999,0.1614823444000345,0.14034413314000002,4.537690377005107,-0.9958068102905301,-0.698879652980601,0.8765042588765424,,0.0238237442897226,0.039426987802551904,0.09203306007999999,-0.11742376536589094,,-3.6507845e-06,3.2186508e-06,-7.1525574e-07,1.0,-8.579344e-06,-9.23872e-06,8.564442e-06,1.0,-9.23872e-07,9.2461705e-06,8.34465e-07,1.0,704,2.171,0,1,0.028,False,0.5805252618340306,1.0506737121774343
2.1928574250050588,14:59:29.070923,14:58:13.884561,0,,0.09878619,0.002071008,0.027803391,0.0015357705,0.7572229,-0.6531548,0.5460452,0.54654956,0.6349159,0.83775437,-0.35762718,-0.4126386,,0.047588132,-0.030918144,0.08316076,0.10581383,0.90890366,0.40335768,-0.23248425,-0.37178066,0.8987381,0.96682703,-0.1888732,0.17196622,,0.05735105,1.3212007,0.43254218,0.99673486,0.07900914,-0.016647294,0.041444205,-0.67755514,-0.73430336,-0.06929614,0.73121583,-0.67861736,,-0.053305145,0.2948398,-0.050143294,-0.06966944,-0.727648,0.6824035,0.9819566,0.070532136,0.1754606,-0.17580493,0.6823149,0.7096048,,-0.0017505771,0.5044357,-0.33128092,-0.20040022,-0.8275181,-0.5244554,0.6875589,-0.50013864,0.5264258,-0.6979273,-0.25509816,0.66919535,,1.31462537171349,0.2674150712357721,0.20463233940000003,2.3093153475950667,-0.2721799075327574,-0.4956032679715678,-0.391372382457733,,-1.2460629492561246,0.1614823444000345,0.14033894798000002,4.537690377005107,-0.9958068102905301,-0.6989613317207416,0.876667602942677,,0.0238237442897226,0.039426987802551904,0.09203306007999999,-0.11742376536589094,,-3.6507845e-06,3.2186508e-06,-7.1525574e-07,1.0,-8.579344e-06,-9.23872e-06,8.564442e-06,1.0,-9.23872e-07,9.2461705e-06,8.34465e-07,1.0,717,2.212,0,1,0.028,False,0.6551165654223641,1.0507219923782136
2.215168522001477,14:59:29.113075,14:58:13.884561,0,,0.09902316,0.0017040521,0.027866572,-0.006445488,0.75539464,-0.6552384,0.55133164,0.54934716,0.62789404,0.8342612,-0.3572067,-0.420014,,0.047586396,-0.030929439,0.08316827,0.10579526,0.9089288,0.4033062,-0.23244327,-0.37174097,0.898765,0.9668389,-0.18883085,0.1719459,,0.05735105,1.3212007,0.43254218,0.99673486,0.07900914,-0.016647294,0.041444205,-0.67755514,-0.73430336,-0.06929614,0.73121583,-0.67861736,,-0.053545482,0.29461965,-0.050440907,-0.06144818,-0.7258661,0.6850858,0.9835278,0.072865665,0.16541974,-0.1699918,0.6839656,0.709432,,-0.0017484915,0.50443673,-0.33129436,-0.20038824,-0.82755286,-0.52440524,0.68759257,-0.5000871,0.5264307,-0.69789755,-0.25508663,0.66923076,,1.3133356753234944,0.26743823943439476,0.20429011884,2.3032343392340158,-0.2652114460447199,-0.49761003775376,-0.3217878102845301,,-1.246070671988999,0.16142828526991493,0.14032728137,4.537690377005107,-0.9958068102905301,-0.6990430104608822,0.8765042588765426,,0.0238237442897226,0.039426987802551904,0.09203306007999999,-0.11742376536589094,,-3.6507845e-06,3.2186508e-06,-7.1525574e-07,1.0,-8.579344e-06,-9.23872e-06,8.564442e-06,1.0,-9.23872e-07,9.2461705e-06,8.34465e-07,1.0,725,2.237,0,1,0.028,False,0.726788560803167,1.0510116735828905
2.257368899008725,14:59:29.136682,14:58:14.035682,0,,0.09909769,0.0015453696,0.027936637,-0.009632339,0.7539169,-0.65689915,0.55340266,0.55117375,0.6244621,0.83285815,-0.3575148,-0.42252886,,0.047584154,-0.030935906,0.08317155,0.105796404,0.9089559,0.40324458,-0.23241702,-0.37168503,0.898795,0.96684504,-0.18881018,0.17193383,,0.05735105,1.3212007,0.43254218,0.99673486,0.07900914,-0.016647294,0.041444205,-0.67755514,-0.73430336,-0.06929614,0.73121583,-0.67861736,,-0.053624976,0.29455715,-0.05060034,-0.05816474,-0.724373,0.6869502,0.98412174,0.0739838,0.16134074,-0.16769406,0.685427,0.708568,,-0.0017459522,0.5044367,-0.3313015,-0.20039323,-0.8275888,-0.5243466,0.68761075,-0.5000462,0.52644587,-0.6978782,-0.25505015,0.66926485,,1.3129881523441542,0.2674227939686463,0.20411382340000003,2.3007180599122012,-0.2623420795496456,-0.4993780625504009,-0.2830752666107059,,-1.2460629492561246,0.16139739433841802,0.14032079992000002,4.537690377005107,-0.9958068102905301,-0.6991246892010228,0.8763409148104084,,0.0238237442897226,0.039426987802551904,0.09203306007999999,-0.11742376536589094,,-3.6507845e-06,3.2186508e-06,-7.1525574e-07,1.0,-8.579344e-06,-9.23872e-06,8.564442e-06,1.0,-9.23872e-07,9.2461705e-06,8.34465e-07,1.0,738,2.278,0,1,0.028,False,0.789523898405815,1.0504805913743163
2.2809686530090403,14:59:29.180536,14:58:14.035682,0,,0.099251345,0.0012041479,0.028188467,-0.015401122,0.75284225,-0.65802073,0.5538337,0.55434525,0.6212644,0.8324848,-0.354866,-0.42548713,,0.04757745,-0.030956648,0.08318436,0.10590696,0.90897584,0.40317065,-0.23228055,-0.3716191,0.8988575,0.9668658,-0.18884394,0.17178035,,0.05735105,1.3212007,0.43254218,0.99673486,0.07900914,-0.016647294,0.041444205,-0.67755514,-0.73430336,-0.06929614,0.73121583,-0.67861736,,-0.053797375,0.29449642,-0.051012713,-0.05238564,-0.7235208,0.688312,0.98449117,0.07814447,0.1570688,-0.16743033,0.6858652,0.7082062,,-0.0017385582,0.5044384,-0.33132562,-0.20052075,-0.8276118,-0.5242615,0.68767774,-0.50004536,0.52635914,-0.6977756,-0.254977,0.6693997,,1.312401224645713,0.2674073485028979,0.20367308480000001,2.2952661213816037,-0.26097571455199126,-0.4998388116662406,-0.19584953529500082,,-1.2460552265232505,0.16130472154392733,0.1402974667,4.537690377005107,-0.9956701737907646,-0.6992361071047191,0.8760142266781394,,0.0238237442897226,0.039426987802551904,0.09203306007999999,-0.11742376536589094,,-3.6507845e-06,3.2186508e-06,-7.1525574e-07,1.0,-8.579344e-06,-9.23872e-06,8.564442e-06,1.0,-9.23872e-07,9.2461705e-06,8.34465e-07,1.0,746,2.302,0,1,0.028,False,0.8132358303771858,1.0507702725789931
2.3248187720018905,14:59:29.200803,14:58:14.035682,0,,0.09935553,0.0009764731,0.02833873,-0.018247984,0.75287116,-0.65791494,0.55528396,0.5548438,0.6195224,0.8314606,-0.35402465,-0.42818218,,0.047573455,-0.030970685,0.08319092,0.10602231,0.9090324,0.40301278,-0.23216245,-0.37146586,0.89895135,0.9668815,-0.18887334,0.17165944,,0.05735105,1.3212007,0.43254218,0.99673486,0.07900914,-0.016647294,0.041444205,-0.67755514,-0.73430336,-0.06929614,0.73121583,-0.67861736,,-0.053912643,0.29444292,-0.051275603,-0.049469776,-0.72361785,0.6884257,0.9849136,0.07909479,0.15391327,-0.16582528,0.68565387,0.7087882,,-0.0017338265,0.5044376,-0.3313409,-0.20065019,-0.8276817,-0.52410156,0.6877305,-0.5000034,0.52633005,-0.6976864,-0.25483242,0.66954774,,1.3119996425362535,0.26739190303714944,0.20338919729000002,2.292959532003274,-0.2589261670555097,-0.4993864329780323,-0.1465196273224485,,-1.2460475037903762,0.1612352169480593,0.14028320751,4.537690377005107,-0.9955335372909991,-0.6994292037485561,0.876177570744274,,0.0238237442897226,0.039426987802551904,0.09203306007999999,-0.11742376536589094,,-3.6507845e-06,3.2186508e-06,-7.1525574e-07,1.0,-8.579344e-06,-9.23872e-06,8.564442e-06,1.0,-9.23872e-07,9.2461705e-06,8.34465e-07,1.0,759,2.343,0,1,0.028,False,0.8143082293105648,1.0506737121774343
2.345089196009212,14:59:29.243049,14:58:14.035682,0,,0.099627204,0.00041374564,0.028728813,-0.021941297,0.7590019,-0.6507186,0.5556744,0.55033785,0.6231807,0.8311104,-0.34791434,-0.43383318,,0.047570467,-0.031005941,0.08320415,0.10609575,0.90906936,0.40291,-0.23194411,-0.37139395,0.8990375,0.96692586,-0.18883663,0.17144987,,0.05735105,1.3212007,0.43254218,0.99673486,0.07900914,-0.016647294,0.041444205,-0.67755514,-0.73430336,-0.06929614,0.73121583,-0.67861736,,-0.054213163,0.2943234,-0.05193748,-0.045761272,-0.7302051,0.6816938,0.985148,0.080067195,0.1518968,-0.16549712,0.67852026,0.71569616,,-0.0017284212,0.5044317,-0.33137783,-0.20075375,-0.82773125,-0.52398366,0.6878647,-0.4999426,0.5262124,-0.69752425,-0.25479078,0.6697325,,1.3108644008037424,0.26727606204403603,0.20268142295000002,2.289814182851006,-0.2585162575562133,-0.4896742016518325,-0.02809517937509598,,-1.2460552265232505,0.16103442589332947,0.14025468913000003,4.537690377005107,-0.9953969007912337,-0.6996223003923931,0.8760142266781399,,0.0238237442897226,0.039426987802551904,0.09203306007999999,-0.11742376536589094,,-3.6507845e-06,3.2186508e-06,-7.1525574e-07,1.0,-8.579344e-06,-9.23872e-06,8.564442e-06,1.0,-9.23872e-07,9.2461705e-06,8.34465e-07,1.0,767,2.368,0,1,0.028,False,0.8405820031783406,1.0502874705711984
2.3873244910064386,14:59:29.262095,14:58:14.035682,0,,0.099793196,3.9562583e-05,0.028966814,-0.025057085,0.7629131,-0.6460153,0.5560814,0.5476513,0.6251811,0.83075,-0.34357196,-0.43796444,,0.047568664,-0.031023704,0.08321023,0.10631191,0.90922374,0.40250444,-0.2317439,-0.3709941,0.8992541,0.96695006,-0.18887939,0.1712659,,0.05735105,1.3212007,0.43254218,0.99673486,0.07900914,-0.016647294,0.041444205,-0.67755514,-0.73430336,-0.06929614,0.73121583,-0.67861736,,-0.05439667,0.29422933,-0.052363712,-0.042627685,-0.7344434,0.6773299,0.985352,0.08113868,0.14999345,-0.16511935,0.6738022,0.72022647,,-0.0017253505,0.5044283,-0.3313961,-0.20099318,-0.82792467,-0.52358615,0.68794864,-0.49980548,0.52623296,-0.6973725,-0.25443116,0.67002714,,1.3100998502491943,0.26712160738655155,0.20222901774000002,2.287088213585707,-0.2579697115571516,-0.48317718035467033,0.031198716631647305,,-1.2460629492561246,0.16093403036596457,0.14023913365000001,4.537690377005107,-0.9951236277917028,-0.7000901724202077,0.875524194479737,,0.0238237442897226,0.039426987802551904,0.09203306007999999,-0.11742376536589094,,-3.6507845e-06,3.2186508e-06,-7.1525574e-07,1.0,-8.579344e-06,-9.23872e-06,8.564442e-06,1.0,-9.23872e-07,9.2461705e-06,8.34465e-07,1.0,780,2.409,0,1,0.028,False,0.8704900178758987,1.0509151131813312
2.4063834130065516,14:59:29.309307,14:58:14.184145,0,,0.100295804,-0.0012145191,0.029699385,-0.034383878,0.7739401,-0.6323247,0.55699867,0.54016477,0.6308521,0.82980126,-0.33051297,-0.44965672,,0.047561765,-0.031069301,0.08322972,0.10626876,0.90938056,0.40216163,-0.23154655,-0.37070107,0.89942575,0.9670021,-0.18870002,0.17116994,,0.05735105,1.3212007,0.43254218,0.99673486,0.07900914,-0.016647294,0.041444205,-0.67755514,-0.73430336,-0.06929614,0.73121583,-0.67861736,,-0.05495299,0.29386997,-0.053750563,-0.033257235,-0.74645793,0.664601,0.9858502,0.084811576,0.1445904,-0.16429651,0.66000575,0.7330751,,-0.0017157095,0.5044233,-0.331445,-0.20098044,-0.82813627,-0.52325636,0.68809867,-0.49953336,0.5262952,-0.69722813,-0.25427696,0.6702359,,1.3074895665377064,0.2662489385717642,0.20077458036,2.2789103057898106,-0.2571498925585589,-0.46432446888325446,0.21757429609085988,,-1.2460552265232505,0.16068690291398938,0.14020024495000002,4.537690377005107,-0.9951236277917028,-0.700580244861051,0.8765042588765424,,0.0238237442897226,0.039426987802551904,0.09203306007999999,-0.11742376536589094,,-3.6507845e-06,3.2186508e-06,-7.1525574e-07,1.0,-8.579344e-06,-9.23872e-06,8.564442e-06,1.0,-9.23872e-07,9.2461705e-06,8.34465e-07,1.0,788,2.433,0,1,0.028,False,0.9219651666780719,1.0505288715750958
2.453584511997178,14:59:29.330915,14:58:14.184145,0,,0.10049017,-0.001813367,0.030054927,-0.04045228,0.77756774,-0.6274968,0.55729246,0.538813,0.631748,0.8293302,-0.32414365,-0.45512897,,0.04756011,-0.03108605,0.08323401,0.10625571,0.90936357,0.40220323,-0.23146531,-0.37076044,0.89942217,0.967023,-0.18866487,0.17109072,,0.05735105,1.3212007,0.43254218,0.99673486,0.07900914,-0.016647294,0.041444205,-0.67755514,-0.73430336,-0.06929614,0.73121583,-0.67861736,,-0.0551736,0.29370522,-0.05441914,-0.02717134,-0.7505784,0.66022253,0.9860725,0.08828541,0.14094949,-0.16408166,0.65485704,0.73772585,,-0.0017126631,0.5044189,-0.33146152,-0.20097975,-0.82811713,-0.5232868,0.68815917,-0.49953026,0.52621907,-0.6971686,-0.25434527,0.6702719,,1.3064161066681892,0.2657006245376943,0.20008495408000002,2.2732486773157285,-0.2564667100597317,-0.45704039934824264,0.28487205133818305,,-1.2460475037903762,0.16058650738662444,0.14018857834,4.537690377005107,-0.9951236277917028,-0.700580244861051,0.8765042588765424,,0.0238237442897226,0.039426987802551904,0.09203306007999999,-0.11742376536589094,,-3.6507845e-06,3.2186508e-06,-7.1525574e-07,1.0,-8.579344e-06,-9.23872e-06,8.564442e-06,1.0,-9.23872e-07,9.2461705e-06,8.34465e-07,1.0,801,2.474,0,1,0.028,False,0.9590820853166755,1.05014262996886
