AlexandreBanks6/ExpertPlaybackApp/resources/Motions/P_18/PC1/Data_PC1_5.csv
Task Time,PC1 Time,PC2 Time,Gaze Calib,s_T_psm1,Tx,Ty,Tz,R00,R01,R02,R10,R11,R12,R20,R21,R22,s_T_psm3,Tx,Ty,Tz,R00,R01,R02,R10,R11,R12,R20,R21,R22,cart_T_ecm,Tx,Ty,Tz,R00,R01,R02,R10,R11,R12,R20,R21,R22,ecm_T_psm1,Tx,Ty,Tz,R00,R01,R02,R10,R11,R12,R20,R21,R22,ecm_T_psm3,Tx,Ty,Tz,R00,R01,R02,R10,R11,R12,R20,R21,R22,psm1_joints,q1,q2,q3,q4,q5,q6,jaw,psm3_joints,q1,q2,q3,q4,q5,q6,jaw,ecm_joints,q1,q2,q3,q4,ecmi_T_ecm,Tx,Ty,Tz,R00,R01,R02,R10,R11,R12,R20,R21,R22,Sample #,Task Duration (s),Collisions (binary),Collisions (increments),Cumulative Collision Time (s),Clutch Press,MTMR Angle,MTML Angle
""
lci_T_si,,,,,-0.061933145,0.041470908,0.22871655,0.9965997,-0.04256333,0.070550956,0.023269607,-0.675999,-0.736535,0.07904176,0.7356723,-0.67270994
rci_T_si,,,,,-0.06965578,0.045405455,0.23502894,0.9935603,-0.07420648,0.085622914,0.015257377,-0.66118264,-0.7500698,0.11227242,0.746546,-0.65579265
ecm_T_lc,,,,,-4.4061628e-05,-0.00034663224,-0.01840835,-0.99912,0.030754527,0.028518902,-0.031987965,-0.99852574,-0.043852776,0.027128186,-0.04472645,0.9986309
ecm_T_rc,,,,,-0.0043358393,0.01870579,-0.007592615,-0.99555075,-0.052743673,-0.078081585,0.04863213,-0.9973746,0.053654674,-0.08070653,0.04961868,0.9955021
cart_T_ecmi,,,,,0.057416808,1.3231583,0.43427226,0.9967625,0.07866208,-0.016636588,0.041257214,-0.6780042,-0.7338993,-0.06900972,0.73083687,-0.67905456
ecmac_T_ecmrep_psm1,,,,,-0.0033900698,-0.29259828,-0.274185,0.99793226,0.043159027,0.047628522,-0.040498573,0.99763834,-0.055476554,-0.049910355,0.053432956,0.99732333
ecmac_T_ecmrep_psm3,,,,,-0.030876445,-0.5082754,-0.4984752,0.99144465,-0.07732987,0.105155215,0.05830459,0.98314613,0.17327517,-0.116782285,-0.16566171,0.97924364
""
0,14:36:41.227966,14:35:26.089625,0,,0.084613785,-0.013634145,0.043177634,-0.9015059,0.046813596,-0.4302273,-0.33825028,0.54389995,0.7679581,0.26995152,0.8378431,-0.47449434,,0.06475754,-0.0017725751,0.014976144,0.7194096,0.49476555,0.4875006,0.1305082,-0.78564286,0.60475856,0.6822151,-0.37144625,-0.62976986,,0.057383586,1.3231573,0.43427283,0.9967606,0.07869367,-0.016602393,0.041303657,-0.67800057,-0.73390007,-0.06900972,0.73083687,-0.67905456,,-0.04378153,0.28536907,-0.0832876,0.8751396,-0.06854827,0.4789904,-0.023165775,0.9828437,0.18297972,-0.48331565,-0.17122898,0.8585375,,-0.015287949,0.44870517,-0.28520936,-0.7905663,-0.39169338,-0.47072408,0.5605481,-0.7723626,-0.29873377,-0.24655762,-0.50003237,0.8301668,,1.3396393034931031,0.15210694669072594,0.1747528549,0.6590554923718601,-0.128438309779514,0.32755243257808986,0.8732373775538569,,-1.2055726607965656,0.06816856308077975,0.20556955707000002,4.538109756892076,-0.2791483690207948,-0.24839692028740779,-0.15550355095983381,,0.0238237442897226,0.038864119118783735,0.08941844392,-0.11709667966849292,,-3.3192337e-05,-1.5497208e-06,8.34465e-07,1.0,3.1635165e-05,3.4049153e-05,-3.163889e-05,1.0,3.2484531e-06,-3.4056604e-05,-3.1590462e-06,1.0,35,0.106,0,0,0.0,False,1.0482699299426623,0.009945704175426506
0.12318989699997474,14:36:41.257720,14:35:26.089625,0,,0.08461417,-0.013634905,0.04317859,-0.9015059,0.046813596,-0.4302273,-0.33825028,0.54389995,0.7679581,0.26995152,0.8378431,-0.47449434,,0.06447825,-0.0022467598,0.015945494,0.708691,0.5110185,0.4864331,0.123683885,-0.76877993,0.6274391,0.69459295,-0.38449645,-0.6080321,,0.057383586,1.3231573,0.43427283,0.9967606,0.07869367,-0.016602393,0.041303657,-0.67800057,-0.73390007,-0.06900972,0.73083687,-0.67905456,,-0.043781996,0.28536925,-0.083288796,0.8751396,-0.06854827,0.4789904,-0.023165775,0.9828437,0.18297972,-0.48331565,-0.17122898,0.8585375,,-0.015067292,0.4493343,-0.28610262,-0.78059214,-0.40789658,-0.47359934,0.5690886,-0.77715635,-0.26863772,-0.25848433,-0.47921646,0.8387714,,1.3396393034931031,0.15210694669072594,0.17475155861000002,0.6590554923718601,-0.128438309779514,0.32755243257808986,0.8732373775538569,,-1.2053950379404583,0.06745807165635109,0.20451308072000002,4.538109756892076,-0.29718438698983296,-0.2754275932113075,-0.15566689502596814,,0.0238237442897226,0.038864119118783735,0.08941844392,-0.11709667966849292,,-3.3192337e-05,-1.5497208e-06,8.34465e-07,1.0,3.1635165e-05,3.4049153e-05,-3.163889e-05,1.0,3.2484531e-06,-3.4056604e-05,-3.1590462e-06,1.0,43,0.129,0,0,0.0,False,1.0484486630982253,0.010380225982441704
0.15295243199216202,14:36:41.286348,14:35:26.089625,0,,0.084614635,-0.013634235,0.043180674,-0.9015065,0.046782516,-0.43022949,-0.33824965,0.54395413,0.76791996,0.26995033,0.8378097,-0.47455406,,0.064142555,-0.0027732626,0.016928554,0.70032066,0.52518266,0.4834606,0.11853513,-0.75343466,0.64675015,0.70391786,-0.3956254,-0.58989835,,0.057383586,1.3231573,0.43427283,0.9967606,0.07869367,-0.016602393,0.041303657,-0.67800057,-0.73390007,-0.06900972,0.73083687,-0.67905456,,-0.043782525,0.2853712,-0.08328969,0.87514025,-0.06851375,0.47899413,-0.023166196,0.9828567,0.1829101,-0.48331442,-0.17116848,0.85855025,,-0.014787847,0.44995615,-0.28704685,-0.7727843,-0.42209312,-0.47396392,0.57555556,-0.78080046,-0.24307713,-0.26747003,-0.46063876,0.8463284,,1.3396470262259772,0.15211466942360016,0.17475026232000002,0.6590554923718601,-0.128438309779514,0.3274707538379493,0.8734007216199912,,-1.2051479104884832,0.06660084830731217,0.20339697503,4.538109756892076,-0.3111213099659079,-0.29951154025527643,-0.1556668950259682,,0.0238237442897226,0.038864119118783735,0.08941844392,-0.11709667966849292,,-3.3192337e-05,-1.5497208e-06,8.34465e-07,1.0,3.1635165e-05,3.4049153e-05,-3.163889e-05,1.0,3.2484531e-06,-3.4056604e-05,-3.1590462e-06,1.0,54,0.163,0,0,0.0,False,1.0484486630982253,0.010138824978544125
0.181562165991636,14:36:41.309526,14:35:26.089625,0,,0.08458969,-0.013599664,0.04319346,-0.90150017,0.04663192,-0.430259,-0.33837095,0.54388124,0.76791817,0.2698193,0.8378655,-0.47453016,,0.06378299,-0.0033248793,0.017924964,0.6930162,0.5398374,0.4778118,0.114171416,-0.7365986,0.666624,0.711824,-0.40742865,-0.5721087,,0.057449564,1.3231585,0.43428612,0.9967639,0.07863924,-0.016661314,0.041223634,-0.6780069,-0.7338987,-0.06900972,0.73083687,-0.67905456,,-0.043811284,0.28539217,-0.083262675,0.8751065,-0.06832511,0.4790827,-0.023395214,0.9828521,0.18290533,-0.4833645,-0.1712699,0.85850185,,-0.014541251,0.4505649,-0.28800967,-0.76594305,-0.4368988,-0.47164682,0.58110553,-0.78431815,-0.21716689,-0.2750412,-0.44041404,0.8546273,,1.3396470262259772,0.15212239215647438,0.17474637345000002,0.6588458024283755,-0.128438309779514,0.3274707538379493,0.8734007216199912,,-1.2048390011735142,0.06565867489665678,0.20225105467,4.538109756892076,-0.3232819584450321,-0.32528895626772064,-0.15550355095983381,,0.0238237442897226,0.038864119118783735,0.08941844392,-0.11709667966849292,,3.170967e-05,1.2636185e-05,-1.013279e-05,1.0,-2.2880733e-05,-2.4624169e-05,2.2880733e-05,1.0,-2.3245811e-06,2.4620444e-05,2.3841858e-06,1.0,62,0.188,0,0,0.0,False,1.048091196787099,0.010428506183220776
0.2047602660022676,14:36:41.336276,14:35:26.089625,0,,0.08459173,-0.013602704,0.043195397,-0.9014826,0.046438523,-0.43031698,-0.3385271,0.5438393,0.76787907,0.2696824,0.8379034,-0.47454095,,0.063535124,-0.0036910605,0.01856172,0.68812835,0.5499492,0.4733234,0.111283675,-0.7246034,0.680122,0.7170043,-0.41533804,-0.55982053,,0.057449564,1.3231585,0.43428612,0.9967639,0.07863924,-0.016661314,0.041223634,-0.6780069,-0.7338987,-0.06900972,0.73083687,-0.67905456,,-0.043813523,0.28539148,-0.08326611,0.8750901,-0.06813535,0.47913975,-0.023602035,0.9828535,0.18287143,-0.48338416,-0.17133765,0.85847723,,-0.014328049,0.45095888,-0.28864235,-0.76136756,-0.4471199,-0.46947122,0.58471376,-0.78636914,-0.19933231,-0.28005224,-0.42627144,0.86015314,,1.3396393034931031,0.15212239215647438,0.17474248458000002,0.6586361124848911,-0.128438309779514,0.3274707538379493,0.8734007216199912,,-1.2045687055229164,0.06500996533522192,0.20150698421000002,4.538109756892076,-0.3313435119311931,-0.34321892199180043,-0.15517686282756527,,0.0238237442897226,0.038864119118783735,0.08941844392,-0.11709667966849292,,3.170967e-05,1.2636185e-05,-1.013279e-05,1.0,-2.2880733e-05,-2.4624169e-05,2.2880733e-05,1.0,-2.3245811e-06,2.4620444e-05,2.3841858e-06,1.0,70,0.211,0,0,0.0,False,1.047912463631536,0.010138824978544125
0.2315056799998274,14:36:41.357457,14:35:26.089625,0,,0.08459498,-0.013606891,0.04319769,-0.90148646,0.046429865,-0.43030977,-0.33852255,0.54384744,0.76787525,0.2696752,0.8378986,-0.47455353,,0.06325781,-0.004084168,0.0192281,0.68325305,0.560978,0.4674065,0.10844433,-0.7109848,0.69479537,0.7220838,-0.4240333,-0.5466174,,0.057449564,1.3231585,0.43428612,0.9967639,0.07863924,-0.016661314,0.041223634,-0.6780069,-0.7338987,-0.06900972,0.73083687,-0.67905456,,-0.043817025,0.28539026,-0.083270535,0.8750945,-0.068126194,0.47913304,-0.023604136,0.9828556,0.18285957,-0.48337615,-0.17132893,0.8584835,,-0.01408638,0.45136848,-0.28931266,-0.7567985,-0.45830396,-0.4660617,0.58825815,-0.7883976,-0.17994857,-0.28497082,-0.41034943,0.8662592,,1.3396238580273545,0.15212239215647438,0.17473729942000002,0.6586361124848911,-0.128438309779514,0.3274707538379493,0.8734007216199912,,-1.204213459810702,0.06429947391079327,0.20071754360000002,4.538109756892076,-0.3394050654173541,-0.36319085621939434,-0.1550135187614311,,0.0238237442897226,0.038864119118783735,0.08941844392,-0.11709667966849292,,3.170967e-05,1.2636185e-05,-1.013279e-05,1.0,-2.2880733e-05,-2.4624169e-05,2.2880733e-05,1.0,-2.3245811e-06,2.4620444e-05,2.3841858e-06,1.0,78,0.236,0,0,0.0,False,1.0483295076611832,0.010428506183220776
0.25269425500300713,14:36:41.385885,14:35:26.089625,0,,0.08459623,-0.013611928,0.04320383,-0.9014287,0.04651744,-0.43042123,-0.33859798,0.54377675,0.76789206,0.26977342,0.8379396,-0.47442526,,0.06281255,-0.0046761166,0.02020055,0.6783844,0.5764923,0.4554679,0.10574542,-0.6900897,0.71595687,0.72705734,-0.4375303,-0.5291075,,0.057449564,1.3231585,0.43428612,0.9967639,0.07863924,-0.016661314,0.041223634,-0.6780069,-0.7338987,-0.06900972,0.73083687,-0.67905456,,-0.043818735,0.2853913,-0.08327831,0.8750295,-0.068218045,0.47923866,-0.023584599,0.9828363,0.18296602,-0.48349473,-0.17140332,0.85840183,,-0.013691983,0.45196217,-0.29030582,-0.752237,-0.4740527,-0.45761716,0.591781,-0.79146826,-0.15288302,-0.28971487,-0.38581342,0.8759071,,1.3396238580273545,0.15212239215647438,0.17472952168000003,0.6586361124848911,-0.12857494627927946,0.3275821717416457,0.8734007216199912,,-1.2036497003108837,0.06323373677415028,0.19953403083000001,4.538109756892076,-0.3476032554032805,-0.39326121506086203,-0.15534020689369954,,0.0238237442897226,0.038864119118783735,0.08941844392,-0.11709667966849292,,3.170967e-05,1.2636185e-05,-1.013279e-05,1.0,-2.2880733e-05,-2.4624169e-05,2.2880733e-05,1.0,-2.3245811e-06,2.4620444e-05,2.3841858e-06,1.0,85,0.257,0,0,0.0,False,1.0485678185352674,0.009849143773867475
0.28111147199524567,14:36:41.404848,14:35:26.089625,0,,0.08459866,-0.0136157125,0.04320678,-0.90141094,0.046324052,-0.43047917,-0.33875415,0.54373485,0.76785284,0.26963657,0.8379775,-0.47443607,,0.062478874,-0.0050863903,0.020867348,0.6766395,0.5857475,0.44616,0.10488346,-0.67643213,0.7289987,0.7288061,-0.44647455,-0.51913595,,0.057449564,1.3231585,0.43428612,0.9967639,0.07863924,-0.016661314,0.041223634,-0.6780069,-0.7338987,-0.06900972,0.73083687,-0.67905456,,-0.04382144,0.28539082,-0.08328295,0.875013,-0.06802829,0.4792957,-0.023791412,0.9828376,0.18293208,-0.4835144,-0.17147107,0.8583772,,-0.013393062,0.45237058,-0.29099,-0.7506073,-0.48345622,-0.4503984,0.5930672,-0.79346997,-0.13666268,-0.29130718,-0.36969656,0.8823064,,1.3396161352944804,0.15212239215647438,0.17472433652000002,0.6584264225414065,-0.12857494627927946,0.3275821717416457,0.8734007216199912,,-1.2032326727356755,0.06252324534972163,0.19870310894,4.538109756892076,-0.35074589489788566,-0.412588505633515,-0.15534020689369954,,0.0238237442897226,0.038864119118783735,0.08941844392,-0.11709667966849292,,3.170967e-05,1.2636185e-05,-1.013279e-05,1.0,-2.2880733e-05,-2.4624169e-05,2.2880733e-05,1.0,-2.3245811e-06,2.4620444e-05,2.3841858e-06,1.0,93,0.281,0,0,0.0,False,1.0475549973204097,0.010959588391795005
0.30006894399411976,14:36:41.430812,14:35:26.309318,0,,0.084602244,-0.013623476,0.04321134,-0.90137285,0.045937546,-0.43060037,-0.33906937,0.5436553,0.7677701,0.26936764,0.8380505,-0.47446012,,0.062007155,-0.0056569707,0.021843255,0.67424333,0.5987488,0.4323144,0.103696555,-0.6563449,0.74730086,0.73119277,-0.459033,-0.5046243,,0.057449564,1.3231585,0.43428612,0.9967639,0.07863924,-0.016661314,0.041223634,-0.6780069,-0.7338987,-0.06900972,0.73083687,-0.67905456,,-0.043825503,0.28538883,-0.08329149,0.8749771,-0.06764876,0.47941497,-0.024203558,0.9828411,0.18285942,-0.48355895,-0.17160136,0.85832614,,-0.012974468,0.45298117,-0.29196593,-0.7483676,-0.4967387,-0.4395413,0.5948193,-0.79582655,-0.113358356,-0.29348916,-0.34628138,0.89104056,,1.3396006898287318,0.15211466942360016,0.17471526249000002,0.6580070426544374,-0.12857494627927946,0.3275821717416457,0.8734007216199912,,-1.2027229723659767,0.06160424013768891,0.1975027444,4.538109756892076,-0.35498162639061426,-0.4403358293526207,-0.15534020689369954,,0.0238237442897226,0.038864119118783735,0.08941844392,-0.11709667966849292,,3.170967e-05,1.2636185e-05,-1.013279e-05,1.0,-2.2880733e-05,-2.4624169e-05,2.2880733e-05,1.0,-2.3245811e-06,2.4620444e-05,2.3841858e-06,1.0,101,0.305,0,0,0.0,False,1.0482103522241415,0.010235385380103157
0.3260408810019726,14:36:41.456425,14:35:26.309318,0,,0.084605165,-0.013624966,0.04321763,-0.901376,0.04594133,-0.43059346,-0.3390658,0.5436422,0.7677809,0.26936164,0.83805865,-0.47444892,,0.06169305,-0.0060525965,0.022588193,0.6707845,0.6089134,0.42340598,0.101772636,-0.6410683,0.76070625,0.73463625,-0.4671787,-0.49198928,,0.057449564,1.3231585,0.43428612,0.9967639,0.07863924,-0.016661314,0.041223634,-0.6780069,-0.7338987,-0.06900972,0.73083687,-0.67905456,,-0.043828774,0.28539234,-0.0832967,0.8749806,-0.06765339,0.47940788,-0.024205456,0.98283815,0.18287483,-0.4835525,-0.17161623,0.8583268,,-0.012703742,0.45346147,-0.29267737,-0.74511766,-0.5072518,-0.43300727,0.59724176,-0.79644835,-0.094722494,-0.29681975,-0.32918942,0.8963997,,1.3396084125616061,0.1521301148893486,0.17470878104,0.6580070426544374,-0.12857494627927946,0.3275821717416457,0.8734007216199912,,-1.202460399448253,0.06102503517212208,0.19662515607000003,4.538109756892076,-0.3605837228809973,-0.46076138978407954,-0.155013518761431,,0.0238237442897226,0.038864119118783735,0.08941844392,-0.11709667966849292,,3.170967e-05,1.2636185e-05,-1.013279e-05,1.0,-2.2880733e-05,-2.4624169e-05,2.2880733e-05,1.0,-2.3245811e-06,2.4620444e-05,2.3841858e-06,1.0,109,0.33,0,0,0.0,False,1.0482103522241415,0.009849143773867475
0.35165329900337383,14:36:41.480014,14:35:26.309318,0,,0.084609315,-0.013628289,0.04322025,-0.9013824,0.0459324,-0.43058103,-0.33905834,0.543646,0.76778156,0.26934966,0.83805674,-0.47445917,,0.061412197,-0.0064073484,0.023300648,0.6673219,0.6192219,0.41381824,0.099829376,-0.62498844,0.7742245,0.7380484,-0.4753458,-0.478885,,0.057449564,1.3231585,0.43428612,0.9967639,0.07863924,-0.016661314,0.041223634,-0.6780069,-0.7338987,-0.06900972,0.73083687,-0.67905456,,-0.04383316,0.28539196,-0.08330066,0.87498784,-0.06764425,0.479396,-0.024209028,0.9828394,0.1828677,-0.48353922,-0.17161274,0.85833496,,-0.012466113,0.4539302,-0.2933378,-0.7418595,-0.51796985,-0.4258541,0.5996281,-0.7967053,-0.07554336,-0.30015102,-0.31139663,0.90163267,,1.3395929670958577,0.15213783762222285,0.17470359588,0.6580070426544374,-0.12857494627927946,0.3275821717416457,0.8734007216199912,,-1.2023059447907685,0.060561671199668606,0.19580201192000002,4.538109756892076,-0.3660491828716149,-0.48178844056007814,-0.155013518761431,,0.0238237442897226,0.038864119118783735,0.08941844392,-0.11709667966849292,,3.170967e-05,1.2636185e-05,-1.013279e-05,1.0,-2.2880733e-05,-2.4624169e-05,2.2880733e-05,1.0,-2.3245811e-06,2.4620444e-05,2.3841858e-06,1.0,124,0.376,0,0,0.0,False,1.0484486630982253,0.010235385380103157
0.37522851799440105,14:36:41.520055,14:35:26.393002,0,,0.084616624,-0.013633102,0.043224037,-0.9013202,0.045812834,-0.4307239,-0.3392743,0.54353225,0.7677668,0.26928586,0.83813715,-0.4743534,,0.060852684,-0.0070931893,0.02485776,0.6590913,0.6426063,0.3907117,0.09511423,-0.58657265,0.80429214,0.746024,-0.49293965,-0.4477259,,0.057449564,1.3231585,0.43428612,0.9967639,0.07863924,-0.016661314,0.041223634,-0.6780069,-0.7338987,-0.06900972,0.73083687,-0.67905456,,-0.043840803,0.28539133,-0.08330632,0.8749214,-0.06753273,0.47953302,-0.02440385,0.9828218,0.18293649,-0.4836497,-0.1717575,0.85824376,,-0.012007801,0.45499253,-0.29470506,-0.7340938,-0.5425293,-0.40837273,0.60513675,-0.7955202,-0.030937657,-0.30808416,-0.2698325,0.9122908,,1.3395620761643607,0.15216100582084552,0.17469581814000001,0.6577973527109529,-0.1287115827790449,0.3276935896453421,0.8734007216199912,,-1.2022364401949006,0.05992068437110797,0.19405720558000003,4.538109756892076,-0.37861974085003547,-0.5302650075810715,-0.15517686282756538,,0.0238237442897226,0.038864119118783735,0.08941844392,-0.11709667966849292,,3.170967e-05,1.2636185e-05,-1.013279e-05,1.0,-2.2880733e-05,-2.4624169e-05,2.2880733e-05,1.0,-2.3245811e-06,2.4620444e-05,2.3841858e-06,1.0,132,0.401,0,0,0.0,False,1.0477337304759726,0.011007868592574521
0.41528131600352935,14:36:41.541604,14:35:26.393002,0,,0.08462051,-0.013632938,0.043227762,-0.90130794,0.045587774,-0.43077347,-0.33942398,0.5435354,0.7676983,0.26913825,0.8381473,-0.47441912,,0.060476728,-0.0075122695,0.025985181,0.6519579,0.660722,0.37201765,0.09091148,-0.5551967,0.8267356,0.7527854,-0.5051761,-0.4220321,,0.057449564,1.3231585,0.43428612,0.9967639,0.07863924,-0.016661314,0.041223634,-0.6780069,-0.7338987,-0.06900972,0.73083687,-0.67905456,,-0.043844864,0.28539413,-0.08330852,0.8749111,-0.067308456,0.4795833,-0.024614025,0.9828341,0.18284234,-0.48365763,-0.17177527,0.8582357,,-0.0117110815,0.45579672,-0.29562876,-0.7273393,-0.56182027,-0.3941262,0.60972357,-0.79260063,0.004625948,-0.31498364,-0.2369434,0.9190447,,1.3395620761643607,0.15218417401946818,0.17469192927000002,0.6575876627674684,-0.1287115827790449,0.3276119109052016,0.873890753818394,,-1.20229049932502,0.059797120645120376,0.19283739669000002,4.538109756892076,-0.3892773878317398,-0.5682129717130118,-0.15566689502596798,,0.0238237442897226,0.038864119118783735,0.08941844392,-0.11709667966849292,,3.170967e-05,1.2636185e-05,-1.013279e-05,1.0,-2.2880733e-05,-2.4624169e-05,2.2880733e-05,1.0,-2.3245811e-06,2.4620444e-05,2.3841858e-06,1.0,140,0.424,0,0,0.0,False,1.047793308194494,0.010380225982441704
0.43683893099660054,14:36:41.570174,14:35:26.393002,0,,0.08462155,-0.013633996,0.043228418,-0.90123475,0.045481753,-0.43093768,-0.3396526,0.5434182,0.76768017,0.26909482,0.83822906,-0.4742994,,0.060230847,-0.007768033,0.026723266,0.6468083,0.67369896,0.3574473,0.08785552,-0.5313893,0.84255975,0.7575753,-0.51357085,-0.40289515,,0.057449564,1.3231585,0.43428612,0.9967639,0.07863924,-0.016661314,0.041223634,-0.6780069,-0.7338987,-0.06900972,0.73083687,-0.67905456,,-0.043845963,0.2853939,-0.08330969,0.8748323,-0.067210644,0.47974077,-0.024802735,0.982815,0.18291934,-0.48379058,-0.17192262,0.8581313,,-0.011518566,0.4563325,-0.2962174,-0.72245264,-0.5757818,-0.3828022,0.6129456,-0.7895265,0.030749166,-0.3199373,-0.21242212,0.92331845,,1.3395543534314867,0.1521918967523424,0.17469063298,0.6573779728239838,-0.12884821927881035,0.32772332880889804,0.873890753818394,,-1.2023059447907685,0.059804843377994604,0.19204795608000003,4.538109756892076,-0.3969290318186045,-0.5962786399650483,-0.15534020689369965,,0.0238237442897226,0.038864119118783735,0.08941844392,-0.11709667966849292,,3.170967e-05,1.2636185e-05,-1.013279e-05,1.0,-2.2880733e-05,-2.4624169e-05,2.2880733e-05,1.0,-2.3245811e-06,2.4620444e-05,2.3841858e-06,1.0,148,0.449,0,0,0.0,False,1.047912463631536,0.009414621966852277
0.46539595899230335,14:36:41.594439,14:35:26.393002,0,,0.0846267,-0.013633996,0.04322973,-0.9012462,0.04543708,-0.43091848,-0.33963928,0.54347575,0.7676453,0.26907325,0.8381942,-0.47437322,,0.059876923,-0.008133827,0.027861118,0.63623804,0.69450086,0.3359607,0.08159298,-0.49359953,0.8658534,0.76716596,-0.52347684,-0.37071317,,0.057449564,1.3231585,0.43428612,0.9967639,0.07863924,-0.016661314,0.041223634,-0.6780069,-0.7338987,-0.06900972,0.73083687,-0.67905456,,-0.04385117,0.2853948,-0.0833103,0.8748452,-0.067162365,0.47972396,-0.024809258,0.98282933,0.1828414,-0.48376685,-0.17185953,0.8581573,,-0.011248985,0.45716956,-0.29710087,-0.7123993,-0.59847796,-0.3664852,0.6193577,-0.78174055,0.07264808,-0.32997462,-0.17523101,0.92758334,,1.339538907965738,0.1522150649509651,0.17468804040000002,0.6573779728239838,-0.12884821927881035,0.32764165006875745,0.8737274097522597,,-1.2022982220578944,0.05990523890535952,0.19086444331000002,4.538109756892076,-0.4125055927918647,-0.6395269359399414,-0.15550355095983381,,0.0238237442897226,0.038864119118783735,0.08941844392,-0.11709667966849292,,3.170967e-05,1.2636185e-05,-1.013279e-05,1.0,-2.2880733e-05,-2.4624169e-05,2.2880733e-05,1.0,-2.3245811e-06,2.4620444e-05,2.3841858e-06,1.0,156,0.473,0,0,0.0,False,1.047912463631536,0.011007868592574521
0.48955672000010964,14:36:41.621678,14:35:26.491749,0,,0.08462922,-0.013635218,0.04323122,-0.9012507,0.04539728,-0.4309133,-0.3396341,0.54353803,0.76760346,0.2690649,0.838156,-0.47444555,,0.05964244,-0.008361144,0.02856028,0.63045007,0.70694226,0.32057023,0.07817733,-0.46871144,0.87988526,0.77228296,-0.52966225,-0.350766,,0.057449564,1.3231585,0.43428612,0.9967639,0.07863924,-0.016661314,0.041223634,-0.6780069,-0.7338987,-0.06900972,0.73083687,-0.67905456,,-0.0438538,0.285395,-0.083312035,0.8748503,-0.06711863,0.4797209,-0.024811782,0.9828444,0.18275994,-0.48375762,-0.17179032,0.85817635,,-0.011066266,0.45768473,-0.29764557,-0.70688236,-0.6122098,-0.35428306,0.6227601,-0.7761659,0.09867316,-0.3353911,-0.15088303,0.9299178,,1.339531185232864,0.15222278768383932,0.17468544782,0.6573779728239838,-0.12884821927881035,0.3275599713286169,0.8735640656861254,,-1.2022596083935233,0.059982466234101764,0.1901268543,4.538109756892076,-0.42097705577732203,-0.6674958479507833,-0.1550135187614311,,0.0238237442897226,0.038864119118783735,0.08941844392,-0.11709667966849292,,3.170967e-05,1.2636185e-05,-1.013279e-05,1.0,-2.2880733e-05,-2.4624169e-05,2.2880733e-05,1.0,-2.3245811e-06,2.4620444e-05,2.3841858e-06,1.0,167,0.507,0,0,0.0,False,1.0480316190685781,0.01071818738789787
0.5169110540009569,14:36:41.652126,14:35:26.491749,0,,0.08462967,-0.013634533,0.043233305,-0.90125126,0.04540133,-0.4309117,-0.33963344,0.54352945,0.76760983,0.26906368,0.8381612,-0.47443685,,0.05929098,-0.00870621,0.029555023,0.6224976,0.72238994,0.3010804,0.073542416,-0.43699902,0.8964505,0.7791586,-0.53589606,-0.32515717,,0.057449564,1.3231585,0.43428612,0.9967639,0.07863924,-0.016661314,0.041223634,-0.6780069,-0.7338987,-0.06900972,0.73083687,-0.67905456,,-0.043854326,0.285397,-0.083312936,0.8748509,-0.06712323,0.47971904,-0.024812208,0.98284245,0.18277061,-0.48375636,-0.17179993,0.85817516,,-0.010786855,0.4584091,-0.29843885,-0.69929194,-0.62946546,-0.33876833,0.627331,-0.76759934,0.13132793,-0.34270474,-0.12068333,0.9316593,,1.339531185232864,0.15223051041671354,0.17468285524000002,0.6573779728239838,-0.12884821927881035,0.3275599713286169,0.8735640656861254,,-1.2021283219346615,0.06000563443272444,0.18906260021000001,4.538109756892076,-0.4325911582573845,-0.702540239513194,-0.15485017469529683,,0.0238237442897226,0.038864119118783735,0.08941844392,-0.11709667966849292,,3.170967e-05,1.2636185e-05,-1.013279e-05,1.0,-2.2880733e-05,-2.4624169e-05,2.2880733e-05,1.0,-2.3245811e-06,2.4620444e-05,2.3841858e-06,1.0,175,0.532,0,0,0.0,False,1.0486869739723095,0.010042264576985094
0.5473320919991238,14:36:41.674543,14:35:26.491749,0,,0.08463122,-0.013637885,0.043233484,-0.9012724,0.04558202,-0.4308482,-0.3394734,0.5435883,0.7676389,0.26919454,0.83811325,-0.47444725,,0.058964845,-0.009015439,0.030413032,0.61486423,0.73422414,0.2878484,0.06912622,-0.4137684,0.907754,0.7855974,-0.5382476,-0.30516556,,0.057449564,1.3231585,0.43428612,0.9967639,0.07863924,-0.016661314,0.041223634,-0.6780069,-0.7338987,-0.06900972,0.73083687,-0.67905456,,-0.043855995,0.28539482,-0.08331542,0.8748713,-0.06729923,0.4796572,-0.024607085,0.9828454,0.18278214,-0.48373,-0.17171381,0.8582072,,-0.010522118,0.459031,-0.29913265,-0.691993,-0.64283574,-0.32849336,0.6315969,-0.7594893,0.15576024,-0.34961542,-0.0996904,0.9315744,,1.3395234624999897,0.15222278768383932,0.17468155895,0.6575876627674684,-0.12884821927881035,0.3275599713286169,0.8735640656861254,,-1.201842580818315,0.059982466234101764,0.18813704915,4.538109756892076,-0.44379535123815056,-0.7277090422691235,-0.15517686282756515,,0.0238237442897226,0.038864119118783735,0.08941844392,-0.11709667966849292,,3.170967e-05,1.2636185e-05,-1.013279e-05,1.0,-2.2880733e-05,-2.4624169e-05,2.2880733e-05,1.0,-2.3245811e-06,2.4620444e-05,2.3841858e-06,1.0,183,0.555,0,0,0.0,False,1.0479720413500573,0.010525066584779807
0.5697808749973774,14:36:41.705540,14:35:26.582368,0,,0.08463524,-0.01364015,0.043233722,-0.9011858,0.04527801,-0.43106157,-0.3398529,0.54342866,0.7675841,0.26900586,0.8382333,-0.47434232,,0.058646772,-0.009287892,0.031134903,0.60614777,0.7442503,0.28049296,0.064097285,-0.3972289,0.91547847,0.792765,-0.53693634,-0.2884838,,0.057449564,1.3231585,0.43428612,0.9967639,0.07863924,-0.016661314,0.041223634,-0.6780069,-0.7338987,-0.06900972,0.73083687,-0.67905456,,-0.0438601,0.2853934,-0.08331698,0.8747808,-0.0670071,0.47986317,-0.025005102,0.98282766,0.18282382,-0.48387328,-0.17192979,0.8580832,,-0.010255072,0.45955348,-0.29972607,-0.68364143,-0.65423346,-0.32343933,0.63631654,-0.7513545,0.17483611,-0.35740122,-0.086284585,0.9299566,,1.339500294301367,0.15223823314958776,0.17467896637000002,0.6571682828804993,-0.1289848557785758,0.3276713892323133,0.8735640656861254,,-1.2012170394555028,0.05992068437110797,0.18735149741,4.538109756892076,-0.4567758187158674,-0.745221828026317,-0.1548501746952966,,0.0238237442897226,0.038864119118783735,0.08941844392,-0.11709667966849292,,3.170967e-05,1.2636185e-05,-1.013279e-05,1.0,-2.2880733e-05,-2.4624169e-05,2.2880733e-05,1.0,-2.3245811e-06,2.4620444e-05,2.3841858e-06,1.0,191,0.58,0,0,0.0,False,1.048091196787099,0.01071818738789787
0.6007668469974305,14:36:41.725566,14:35:26.582368,0,,0.08463901,-0.013642877,0.043235183,-0.90117216,0.045080017,-0.43111065,-0.3400038,0.5433862,0.76754737,0.26886058,0.8382715,-0.4743571,,0.05842071,-0.009447483,0.031543016,0.59965223,0.7504922,0.2778102,0.06033486,-0.38856018,0.91944593,0.797983,-0.5345862,-0.27828178,,0.057449564,1.3231585,0.43428612,0.9967639,0.07863924,-0.016661314,0.041223634,-0.6780069,-0.7338987,-0.06900972,0.73083687,-0.67905456,,-0.043864038,0.28539255,-0.08331977,0.87476903,-0.06681279,0.47991163,-0.025214411,0.98282886,0.1827885,-0.4838836,-0.17199841,0.85806364,,-0.010057778,0.45985186,-0.30006543,-0.6774047,-0.6613483,-0.32208893,0.63972044,-0.74578786,0.18589862,-0.36315373,-0.08011826,0.9282782,,1.3394848488356186,0.15224595588246198,0.17467507750000003,0.6569585929370148,-0.1289848557785758,0.3276713892323133,0.8735640656861254,,-1.2005142707639485,0.05988979343961107,0.18689779591000003,4.538109756892076,-0.46661364669897915,-0.7541889169094115,-0.15387011029849096,,0.0238237442897226,0.038864119118783735,0.08941844392,-0.11709667966849292,,3.170967e-05,1.2636185e-05,-1.013279e-05,1.0,-2.2880733e-05,-2.4624169e-05,2.2880733e-05,1.0,-2.3245811e-06,2.4620444e-05,2.3841858e-06,1.0,199,0.604,0,0,0.0,False,1.048091196787099,0.01066990718711791
0.6208011359994998,14:36:41.753684,14:35:26.582368,0,,0.08464675,-0.013647288,0.043237388,-0.9011317,0.04514522,-0.43118846,-0.34005904,0.5433227,0.7675678,0.26892647,0.83830917,-0.47425324,,0.058194205,-0.0095821,0.031915665,0.5883578,0.7577063,0.28234053,0.053840518,-0.38510683,0.9213002,0.8068061,-0.5268528,-0.26737595,,0.057449564,1.3231585,0.43428612,0.9967639,0.07863924,-0.016661314,0.041223634,-0.6780069,-0.7338987,-0.06900972,0.73083687,-0.67905456,,-0.04387201,0.28539106,-0.08332404,0.8747235,-0.066881895,0.479985,-0.025204504,0.9828122,0.1828793,-0.48396644,-0.1720666,0.85800326,,-0.00985859,0.46013233,-0.30036533,-0.6665398,-0.66953427,-0.32779354,0.64544874,-0.7383305,0.19561176,-0.37298873,-0.08119091,0.9242767,,1.3394462351712475,0.15226912408108464,0.17466859605,0.6569585929370148,-0.12912149227834124,0.32778280713600977,0.8735640656861254,,-1.1994253654286828,0.059882070706736845,0.18651150149,4.538109756892076,-0.4834199361701283,-0.7571469777434263,-0.155013518761431,,0.0238237442897226,0.038864119118783735,0.08941844392,-0.11709667966849292,,3.170967e-05,1.2636185e-05,-1.013279e-05,1.0,-2.2880733e-05,-2.4624169e-05,2.2880733e-05,1.0,-2.3245811e-06,2.4620444e-05,2.3841858e-06,1.0,214,0.65,0,0,0.0,False,1.0485678185352674,0.01066990718711791
0.648892925994005,14:36:41.801489,14:35:26.665999,0,,0.0846587,-0.013653785,0.04324317,-0.90107816,0.045016512,-0.43131378,-0.34026453,0.5432081,0.76755786,0.2688459,0.83839035,-0.4741554,,0.057395793,-0.009812338,0.03232783,0.5609916,0.77305114,0.29610834,0.037970573,-0.38134864,0.9236512,0.8269501,-0.5069172,-0.24328664,,0.057449564,1.3231585,0.43428612,0.9967639,0.07863924,-0.016661314,0.041223634,-0.6780069,-0.7338987,-0.06900972,0.73083687,-0.67905456,,-0.04388445,0.2853907,-0.08333199,0.87466687,-0.066761315,0.48010498,-0.025404323,0.9827948,0.18294539,-0.48405835,-0.172213,0.857922,,-0.009088257,0.4604702,-0.30075628,-0.6400832,-0.6869989,-0.3439855,0.65820295,-0.7212701,0.21572736,-0.39631093,-0.088328816,0.9138576,,1.3393998987740021,0.15230773774545578,0.17465692944000002,0.6567489029935303,-0.12925812877810666,0.32789422503970617,0.8735640656861254,,-1.194343807197443,0.05988979343961107,0.18594891163000002,4.538109756892076,-0.5259138875971804,-0.7593331214972328,-0.1543601424968939,,0.0238237442897226,0.038864119118783735,0.08941844392,-0.11709667966849292,,3.170967e-05,1.2636185e-05,-1.013279e-05,1.0,-2.2880733e-05,-2.4624169e-05,2.2880733e-05,1.0,-2.3245811e-06,2.4620444e-05,2.3841858e-06,1.0,222,0.675,0,0,0.0,False,1.047912463631536,0.010283665580882229
0.6967044619959779,14:36:41.820146,14:35:26.665999,0,,0.08467046,-0.01365976,0.04324743,-0.9010999,0.044954196,-0.4312749,-0.3402392,0.5432774,0.76751995,0.26880518,0.83834875,-0.47425205,,0.056841932,-0.0098848175,0.03218186,0.5603827,0.7722448,0.29934776,0.037121326,-0.3844843,0.922385,0.82740146,-0.50577635,-0.24412507,,0.057449564,1.3231585,0.43428612,0.9967639,0.07863924,-0.016661314,0.041223634,-0.6780069,-0.7338987,-0.06900972,0.73083687,-0.67905456,,-0.043896604,0.2853896,-0.08333859,0.87469137,-0.0666947,0.48006958,-0.025416514,0.9828125,0.18284847,-0.4840134,-0.17213768,0.8579625,,-0.008518802,0.46037778,-0.30073395,-0.6394551,-0.68605906,-0.34701607,0.6582417,-0.7217572,0.21397303,-0.39725947,-0.09159429,0.91312397,,1.3393535623767567,0.1523386286769527,0.17464655912000002,0.6567489029935303,-0.12925812877810666,0.32781254629956563,0.8737274097522597,,-1.1909535274656586,0.059882070706736845,0.18585557875000003,4.538109756892076,-0.5302862555896743,-0.7555227123585257,-0.15452348656302828,,0.0238237442897226,0.038864119118783735,0.08941844392,-0.11709667966849292,,3.170967e-05,1.2636185e-05,-1.013279e-05,1.0,-2.2880733e-05,-2.4624169e-05,2.2880733e-05,1.0,-2.3245811e-06,2.4620444e-05,2.3841858e-06,1.0,230,0.699,0,0,0.0,False,1.047793308194494,0.010959588391795005
0.7153736619948177,14:36:41.841886,14:35:26.665999,0,,0.084679306,-0.013663769,0.04324931,-0.90111715,0.044931725,-0.4312412,-0.34021908,0.54328454,0.7675239,0.26877284,0.83834535,-0.47427636,,0.05626087,-0.009946762,0.03196788,0.5629569,0.76930475,0.30207542,0.038189292,-0.389316,0.9203123,0.82560337,-0.5065601,-0.24854735,,0.057449564,1.3231585,0.43428612,0.9967639,0.07863924,-0.016661314,0.041223634,-0.6780069,-0.7338987,-0.06900972,0.73083687,-0.67905456,,-0.043905664,0.2853881,-0.083342254,0.87471086,-0.066671856,0.48003724,-0.025426181,0.98281515,0.18283303,-0.4839777,-0.17213155,0.8579839,,-0.007916575,0.4602357,-0.30066767,-0.6419192,-0.6826794,-0.34912544,0.6569128,-0.72447586,0.20880686,-0.39548108,-0.095307834,0.9135158,,1.3393149487123857,0.15236179687557536,0.17464007767,0.6567489029935303,-0.12925812877810666,0.32781254629956563,0.8737274097522597,,-1.1874551294736349,0.059882070706736845,0.18579724570000003,4.537900066948591,-0.5304228920894398,-0.749857140125271,-0.1548501746952966,,0.0238237442897226,0.038864119118783735,0.08941844392,-0.11709667966849292,,3.170967e-05,1.2636185e-05,-1.013279e-05,1.0,-2.2880733e-05,-2.4624169e-05,2.2880733e-05,1.0,-2.3245811e-06,2.4620444e-05,2.3841858e-06,1.0,234,0.711,0,0,0.0,False,1.048508240816746,0.01144239039958972
0.7371214479935588,14:36:41.867309,14:35:26.665999,0,,0.08468945,-0.013667166,0.043256313,-0.9011356,0.044882126,-0.43120787,-0.34019768,0.5433371,0.7674961,0.2687381,0.8383139,-0.47435164,,0.055163875,-0.01007217,0.03158468,0.56759167,0.7645117,0.30555087,0.039721906,-0.39612138,0.9173386,0.82235134,-0.50853664,-0.25520307,,0.057449564,1.3231585,0.43428612,0.9967639,0.07863924,-0.016661314,0.041223634,-0.6780069,-0.7338987,-0.06900972,0.73083687,-0.67905456,,-0.043916244,0.2853908,-0.083348915,0.8747317,-0.066619,0.48000664,-0.025436712,0.9828287,0.18275864,-0.4839395,-0.17207457,0.85801685,,-0.0067809764,0.459981,-0.30056027,-0.64632297,-0.67718744,-0.35168704,0.6543128,-0.7289721,0.20118263,-0.39260837,-0.10008438,0.9142438,,1.339291780513763,0.15240041053994646,0.17462970735000002,0.6567489029935303,-0.12925812877810666,0.32773086755942504,0.8735640656861253,,-1.1808676383319214,0.059874347973862624,0.18567409815000002,4.537900066948591,-0.531106074588267,-0.7418672852539978,-0.15599358315823686,,0.0238237442897226,0.038864119118783735,0.08941844392,-0.11709667966849292,,3.170967e-05,1.2636185e-05,-1.013279e-05,1.0,-2.2880733e-05,-2.4624169e-05,2.2880733e-05,1.0,-2.3245811e-06,2.4620444e-05,2.3841858e-06,1.0,250,0.76,0,0,0.0,False,1.048508240816746,0.011345829998030688
0.7625014709919924,14:36:41.906866,14:35:26.754454,0,,0.08469858,-0.013673395,0.043268412,-0.9011476,0.044841476,-0.4311869,-0.34018376,0.54338616,0.7674676,0.26871538,0.8382843,-0.4744168,,0.0536544,-0.010242416,0.03105992,0.5745061,0.75861305,0.30732512,0.042146295,-0.40239346,0.9144962,0.8174144,-0.5124311,-0.26315022,,0.057449564,1.3231585,0.43428612,0.9967639,0.07863924,-0.016661314,0.041223634,-0.6780069,-0.7338987,-0.06900972,0.73083687,-0.67905456,,-0.043926165,0.2853953,-0.08336119,0.8747453,-0.06657529,0.47998792,-0.025443671,0.982841,0.1826914,-0.48391455,-0.17202109,0.85804164,,-0.0052188146,0.45963392,-0.3004118,-0.65289557,-0.67045456,-0.35244575,0.6504296,-0.73470885,0.19272837,-0.38816062,-0.10340965,0.91577166,,1.3392840577808887,0.15243130147144338,0.17461415187,0.6567489029935303,-0.12925812877810666,0.32764918881928445,0.8737274097522596,,-1.1718320408690786,0.059882070706736845,0.18551206190000002,4.537900066948591,-0.5312427110880324,-0.7342414232573695,-0.15534020689369954,,0.0238237442897226,0.038864119118783735,0.08941844392,-0.11709667966849292,,3.170967e-05,1.2636185e-05,-1.013279e-05,1.0,-2.2880733e-05,-2.4624169e-05,2.2880733e-05,1.0,-2.3245811e-06,2.4620444e-05,2.3841858e-06,1.0,261,0.794,0,0,0.0,False,1.0485678185352674,0.011394110198810203
0.8020931189967087,14:36:41.937384,14:35:26.754454,0,,0.08470654,-0.013677329,0.04327765,-0.9011597,0.04480082,-0.431166,-0.34016985,0.5434351,0.7674391,0.2686926,0.83825475,-0.47448188,,0.052639727,-0.010374231,0.030769229,0.57843125,0.75413907,0.31095243,0.043405354,-0.40910938,0.9114525,0.8145755,-0.5137155,-0.26937532,,0.057449564,1.3231585,0.43428612,0.9967639,0.07863924,-0.016661314,0.041223634,-0.6780069,-0.7338987,-0.06900972,0.73083687,-0.67905456,,-0.04393469,0.28539923,-0.08336989,0.8747589,-0.06653158,0.47996917,-0.02545063,0.98285335,0.18262413,-0.48388958,-0.1719676,0.85806644,,-0.0041733794,0.45944512,-0.30035833,-0.65661365,-0.66535366,-0.35519433,0.6481356,-0.7386067,0.18541953,-0.38571846,-0.108465105,0.91621864,,1.3392763350480146,0.15246219240294026,0.17460248526000002,0.6567489029935303,-0.12925812877810666,0.3275675100791439,0.8738907538183939,,-1.1658392001586804,0.059882070706736845,0.18535521081000003,4.537900066948591,-0.5321991665863905,-0.7263554475392657,-0.15550355095983392,,0.0238237442897226,0.038864119118783735,0.08941844392,-0.11709667966849292,,3.170967e-05,1.2636185e-05,-1.013279e-05,1.0,-2.2880733e-05,-2.4624169e-05,2.2880733e-05,1.0,-2.3245811e-06,2.4620444e-05,2.3841858e-06,1.0,269,0.817,0,0,0.0,False,1.0481507745056202,0.011152709194912624
0.8326219470036449,14:36:41.965941,14:35:26.837733,0,,0.08470935,-0.013681263,0.04328555,-0.9011603,0.04473445,-0.43117166,-0.34016922,0.5435519,0.76735663,0.26869145,0.83818257,-0.4746101,,0.051802296,-0.010459064,0.030548692,0.575105,0.7510872,0.3242255,0.040675253,-0.42208785,0.90564203,0.8170678,-0.50765127,-0.27329546,,0.057449564,1.3231585,0.43428612,0.9967639,0.07863924,-0.016661314,0.041223634,-0.6780069,-0.7338987,-0.06900972,0.73083687,-0.67905456,,-0.04393801,0.2854023,-0.083377965,0.87475955,-0.06645778,0.47997817,-0.02545106,0.9828812,0.18247424,-0.48388836,-0.17183705,0.85809326,,-0.0033143598,0.4593179,-0.3003033,-0.65333813,-0.6618778,-0.3675147,0.6493234,-0.7395073,0.17750521,-0.38926658,-0.122664966,0.9129211,,1.3392840577808887,0.15246991513581448,0.17459341123000002,0.6567489029935303,-0.12925812877810666,0.3274041525988628,0.8742174419506624,,-1.1605336826740882,0.059967020768353314,0.18526317422000002,4.537900066948591,-0.5423102675690331,-0.7112495084939234,-0.15550355095983392,,0.0238237442897226,0.038864119118783735,0.08941844392,-0.11709667966849292,,3.170967e-05,1.2636185e-05,-1.013279e-05,1.0,-2.2880733e-05,-2.4624169e-05,2.2880733e-05,1.0,-2.3245811e-06,2.4620444e-05,2.3841858e-06,1.0,277,0.842,0,0,0.0,False,1.0486869739723095,0.01071818738789787
0.8611198059952585,14:36:41.987586,14:35:26.837733,0,,0.08471187,-0.013681978,0.043290883,-0.90116334,0.044703003,-0.43116838,-0.34016564,0.5436016,0.767323,0.26868543,0.838152,-0.4746674,,0.051298447,-0.010494797,0.030487657,0.56753516,0.75111485,0.3372391,0.035829395,-0.43173686,0.9012878,0.82256913,-0.49942943,-0.27193788,,0.057449564,1.3231585,0.43428612,0.9967639,0.07863924,-0.016661314,0.041223634,-0.6780069,-0.7338987,-0.06900972,0.73083687,-0.67905456,,-0.043940816,0.28540567,-0.08338198,0.8747631,-0.06642319,0.47997653,-0.025452968,0.98289317,0.18240938,-0.48388186,-0.17178181,0.858108,,-0.0028057292,0.45931044,-0.30029324,-0.64597654,-0.66193354,-0.3802082,0.65256304,-0.7372788,0.17487557,-0.39607546,-0.13514431,0.9082182,,1.339291780513763,0.15248536060156295,0.17458822607000002,0.6567489029935303,-0.12925812877810666,0.32732247385872226,0.8740540978845283,,-1.1571665711409262,0.06015236635733471,0.18518798940000003,4.537900066948591,-0.5561105540453426,-0.6997512640001631,-0.15599358315823686,,0.0238237442897226,0.038864119118783735,0.08941844392,-0.11709667966849292,,3.170967e-05,1.2636185e-05,-1.013279e-05,1.0,-2.2880733e-05,-2.4624169e-05,2.2880733e-05,1.0,-2.3245811e-06,2.4620444e-05,2.3841858e-06,1.0,285,0.866,0,0,0.0,False,1.0482699299426623,0.011007868592574521
0.8828196519898484,14:36:42.021110,14:35:26.837733,0,,0.08471388,-0.013684869,0.043293,-0.90116525,0.044663455,-0.43116847,-0.34016338,0.5436684,0.76727676,0.26868185,0.83811086,-0.47474214,,0.050620046,-0.010490043,0.030425668,0.5535877,0.75226355,0.35726753,0.027077317,-0.44503242,0.89510506,0.8323505,-0.48584527,-0.26673377,,0.057449564,1.3231585,0.43428612,0.9967639,0.07863924,-0.016661314,0.041223634,-0.6780069,-0.7338987,-0.06900972,0.73083687,-0.67905456,,-0.04394303,0.28540522,-0.08338539,0.8747653,-0.066379406,0.47997862,-0.025454016,0.98290914,0.18232316,-0.48387787,-0.17170735,0.85812515,,-0.0021270867,0.45934412,-0.30024424,-0.6323923,-0.6633317,-0.40008876,0.65831584,-0.7324127,0.1737581,-0.40828934,-0.15350148,0.89985394,,1.3392840577808887,0.15248536060156295,0.17458433720000002,0.6567489029935303,-0.12925812877810666,0.3272407951185817,0.873890753818394,,-1.1524865950191463,0.060677512192781974,0.18511539716000003,4.537900066948591,-0.5797486685047639,-0.6835797587860235,-0.15599358315823664,,0.0238237442897226,0.038864119118783735,0.08941844392,-0.11709667966849292,,3.170967e-05,1.2636185e-05,-1.013279e-05,1.0,-2.2880733e-05,-2.4624169e-05,2.2880733e-05,1.0,-2.3245811e-06,2.4620444e-05,2.3841858e-06,1.0,293,0.891,0,0,0.0,False,1.0480316190685781,0.011780351805045886
0.9163450460036984,14:36:42.042421,14:35:26.837733,0,,0.08471377,-0.013687283,0.04329458,-0.90116274,0.044734165,-0.43116638,-0.34016627,0.5435474,0.7673611,0.26868665,0.8381855,-0.47460768,,0.050154295,-0.010464562,0.030345201,0.5479322,0.7526818,0.36502093,0.023403108,-0.4499773,0.89273334,0.83619523,-0.48061466,-0.26417214,,0.057449564,1.3231585,0.43428612,0.9967639,0.07863924,-0.016661314,0.041223634,-0.6780069,-0.7338987,-0.06900972,0.73083687,-0.67905456,,-0.04394308,0.28540474,-0.083388254,0.8747624,-0.06645779,0.479973,-0.02545254,0.98288023,0.18247898,-0.4838831,-0.17184229,0.85809517,,-0.0016592486,0.45934576,-0.30017227,-0.6268622,-0.66386014,-0.40783995,0.6604818,-0.73044884,0.17380543,-0.4132887,-0.16041881,0.8963583,,1.3392840577808887,0.15247763786868873,0.17458174462,0.6567489029935303,-0.12925812877810666,0.3274041525988628,0.873890753818394,,-1.1494438382667018,0.06113315343236122,0.18508298991000002,4.537690377005107,-0.5904063154864682,-0.6770944882814979,-0.15583023909210225,,0.0238237442897226,0.038864119118783735,0.08941844392,-0.11709667966849292,,3.170967e-05,1.2636185e-05,-1.013279e-05,1.0,-2.2880733e-05,-2.4624169e-05,2.2880733e-05,1.0,-2.3245811e-06,2.4620444e-05,2.3841858e-06,1.0,308,0.937,0,0,0.0,False,1.0483295076611832,0.011104428994133553
0.9376572479959577,14:36:42.077739,14:35:26.927190,0,,0.08471714,-0.013689041,0.043295294,-0.9011692,0.044725236,-0.43115398,-0.34015882,0.5435512,0.7673618,0.26867467,0.8381836,-0.47461784,,0.048907503,-0.010435937,0.030064225,0.53930575,0.7509202,0.38114056,0.016776025,-0.4620925,0.8866731,0.84194285,-0.47179383,-0.2618066,,0.057449564,1.3231585,0.43428612,0.9967639,0.07863924,-0.016661314,0.041223634,-0.6780069,-0.7338987,-0.06900972,0.73083687,-0.67905456,,-0.043946527,0.285404,-0.08338982,0.8747696,-0.06644866,0.4799611,-0.025456112,0.9828815,0.18247186,-0.48386988,-0.17183879,0.85810333,,-0.00039733597,0.4592743,-0.29998064,-0.6183339,-0.6620018,-0.4235763,0.6631747,-0.7287154,0.17080165,-0.42173758,-0.17529263,0.8896122,,1.3392686123151403,0.15248536060156295,0.17457915204000002,0.6567489029935303,-0.12925812877810666,0.3274041525988628,0.8735640656861254,,-1.1412500186871497,0.06214483143888463,0.18500521251000002,4.537690377005107,-0.6107651539515188,-0.661228329291996,-0.15599358315823664,,0.0238237442897226,0.038864119118783735,0.08941844392,-0.11709667966849292,,3.170967e-05,1.2636185e-05,-1.013279e-05,1.0,-2.2880733e-05,-2.4624169e-05,2.2880733e-05,1.0,-2.3245811e-06,2.4620444e-05,2.3841858e-06,1.0,316,0.962,0,0,0.0,False,1.0485678185352674,0.011683791403487298
0.972909267002251,14:36:42.106356,14:35:26.927190,0,,0.084716246,-0.013689458,0.04329878,-0.90116525,0.044733893,-0.43116114,-0.34016338,0.543543,0.7673656,0.26868185,0.8381884,-0.4746052,,0.04818841,-0.010439916,0.02985537,0.53654045,0.7494562,0.3878654,0.014250934,-0.46760592,0.8838222,0.84375423,-0.46867883,-0.26156992,,0.057449564,1.3231585,0.43428612,0.9967639,0.07863924,-0.016661314,0.041223634,-0.6780069,-0.7338987,-0.06900972,0.73083687,-0.67905456,,-0.043945823,0.2854063,-0.08339257,0.8747653,-0.066457815,0.47996777,-0.025454016,0.98287934,0.18248372,-0.48387787,-0.17184752,0.8580971,,0.0003366847,0.4591827,-0.29986414,-0.6155648,-0.66041166,-0.43004233,0.6638112,-0.72861516,0.16874422,-0.42477602,-0.1815939,0.8868985,,1.3392840577808887,0.15248536060156295,0.17457655946000003,0.6567489029935303,-0.12925812877810666,0.3274041525988628,0.8735640656861254,,-1.1369407337433324,0.06253096808259585,0.18498706445000002,4.537690377005107,-0.6186900709379144,-0.6546027333973226,-0.1556668950259681,,0.0238237442897226,0.038864119118783735,0.08941844392,-0.11709667966849292,,3.170967e-05,1.2636185e-05,-1.013279e-05,1.0,-2.2880733e-05,-2.4624169e-05,2.2880733e-05,1.0,-2.3245811e-06,2.4620444e-05,2.3841858e-06,1.0,324,0.985,0,0,0.0,False,1.0484486630982253,0.011780351805045886
1.0015921299927868,14:36:42.136460,14:35:27.006537,0,,0.084716186,-0.013690427,0.043301523,-0.90116334,0.044738226,-0.43116474,-0.34016564,0.5435389,0.7673675,0.26868543,0.8381908,-0.47459894,,0.04623477,-0.010494603,0.02921474,0.5358811,0.7432215,0.40056604,0.011309862,-0.48071593,0.8768035,0.8442176,-0.465332,-0.2660123,,0.057449564,1.3231585,0.43428612,0.9967639,0.07863924,-0.016661314,0.041223634,-0.6780069,-0.7338987,-0.06900972,0.73083687,-0.67905456,,-0.043945935,0.28540763,-0.08339514,0.8747631,-0.0664624,0.4799711,-0.025452968,0.98287827,0.18248965,-0.48388186,-0.1718519,0.858094,,0.002341497,0.45884928,-0.29954854,-0.61472046,-0.6535032,-0.4416473,0.6628221,-0.7315154,0.15985002,-0.42753428,-0.19447051,0.8828339,,1.339291780513763,0.15248536060156295,0.17457396688000001,0.6567489029935303,-0.12925812877810666,0.3274041525988628,0.8735640656861254,,-1.1247465385349318,0.06335730050013788,0.1849546572,4.537690377005107,-0.6324903574142238,-0.6377953707944258,-0.15534020689369976,,0.0238237442897226,0.038864119118783735,0.08941844392,-0.11709667966849292,,3.170967e-05,1.2636185e-05,-1.013279e-05,1.0,-2.2880733e-05,-2.4624169e-05,2.2880733e-05,1.0,-2.3245811e-06,2.4620444e-05,2.3841858e-06,1.0,332,1.01,0,0,0.0,False,1.0481507745056202,0.011683791403487298
1.0316965520032682,14:36:42.156635,14:35:27.006537,0,,0.08471703,-0.013690978,0.043300718,-0.90116525,0.044698674,-0.4311648,-0.34016338,0.5436057,0.76732117,0.26868185,0.83814955,-0.47467372,,0.045223195,-0.010551764,0.028873324,0.53698975,0.73903376,0.4067813,0.010676235,-0.48811847,0.87271214,0.8435211,-0.46429452,-0.2700047,,0.057449564,1.3231585,0.43428612,0.9967639,0.07863924,-0.016661314,0.041223634,-0.6780069,-0.7338987,-0.06900972,0.73083687,-0.67905456,,-0.043946754,0.28540665,-0.08339496,0.8747653,-0.06641861,0.4799732,-0.025454016,0.98289424,0.18240343,-0.48387787,-0.17177744,0.85811114,,0.003382827,0.45865384,-0.2994051,-0.61570174,-0.64885736,-0.44709674,0.6617706,-0.73380077,0.15361041,-0.42775115,-0.20129727,0.8811971,,1.3392840577808887,0.15248536060156295,0.17457396688000001,0.6567489029935303,-0.12925812877810666,0.3273224738587222,0.8737274097522597,,-1.1184756794410615,0.06362759615073574,0.18493650914,4.537690377005107,-0.6376825444053106,-0.6284974085652468,-0.15599358315823642,,0.0238237442897226,0.038864119118783735,0.08941844392,-0.11709667966849292,,3.170967e-05,1.2636185e-05,-1.013279e-05,1.0,-2.2880733e-05,-2.4624169e-05,2.2880733e-05,1.0,-2.3245811e-06,2.4620444e-05,2.3841858e-06,1.0,340,1.034,0,0,0.0,False,1.0481507745056202,0.011587231001928266
1.0518701919936575,14:36:42.186031,14:35:27.006537,0,,0.08471659,-0.013691187,0.043302506,-0.90116334,0.044667784,-0.43117204,-0.34016564,0.5436643,0.7672787,0.26868543,0.83811325,-0.4747359,,0.044271044,-0.0106339585,0.02853465,0.53913474,0.7353351,0.41062868,0.0107937455,-0.49354804,0.8696516,0.8421503,-0.46442708,-0.2740259,,0.057449564,1.3231585,0.43428612,0.9967639,0.07863924,-0.016661314,0.041223634,-0.6780069,-0.7338987,-0.06900972,0.73083687,-0.67905456,,-0.0439464,0.2854078,-0.08339634,0.8747631,-0.06638399,0.47998196,-0.025452968,0.98290807,0.18232909,-0.48388186,-0.17171173,0.85812205,,0.0043669394,0.45844096,-0.29928583,-0.6177055,-0.6447407,-0.45027688,0.66038686,-0.73616517,0.14815553,-0.42700005,-0.20584045,0.8805116,,1.339291780513763,0.15248536060156295,0.17457267059,0.6567489029935303,-0.12925812877810666,0.3272407951185817,0.873890753818394,,-1.1125832342580282,0.0637125462123522,0.18492354624000001,4.537690377005107,-0.6410984568994466,-0.6216280239658084,-0.1550135187614312,,0.0238237442897226,0.038864119118783735,0.08941844392,-0.11709667966849292,,3.170967e-05,1.2636185e-05,-1.013279e-05,1.0,-2.2880733e-05,-2.4624169e-05,2.2880733e-05,1.0,-2.3245811e-06,2.4620444e-05,2.3841858e-06,1.0,377,1.149,0,0,0.0,False,1.0486869739723095,0.01071818738789787
1.0812675369961653,14:36:42.292860,14:35:27.092901,0,,0.08471787,-0.013691068,0.043303788,-0.90116584,0.044737943,-0.4311595,-0.34016275,0.54353446,0.7673719,0.26868066,0.83819366,-0.47459656,,0.03946132,-0.011015577,0.027003944,0.5402982,0.7207261,0.43431735,0.0057418644,-0.5192848,0.854582,0.84145385,-0.4592354,-0.28470698,,0.057449564,1.3231585,0.43428612,0.9967639,0.07863924,-0.016661314,0.041223634,-0.6780069,-0.7338987,-0.06900972,0.73083687,-0.67905456,,-0.043947745,0.28540882,-0.08339706,0.87476593,-0.06646241,0.4799659,-0.025454447,0.9828773,0.18249439,-0.48387665,-0.17185715,0.8580959,,0.009317906,0.4575365,-0.2987454,-0.61838764,-0.62869376,-0.4715303,0.6571225,-0.7427459,0.12852465,-0.43102983,-0.2303751,0.8724337,,1.339291780513763,0.15249308333443717,0.17457137430000003,0.6567489029935303,-0.12925812877810666,0.3274041525988628,0.873890753818394,,-1.0826344761717857,0.06448481949977465,0.18486780577000003,4.537690377005107,-0.671295123347609,-0.5882650420538591,-0.1555035509598337,,0.0238237442897226,0.038864119118783735,0.08941844392,-0.11709667966849292,,3.170967e-05,1.2636185e-05,-1.013279e-05,1.0,-2.2880733e-05,-2.4624169e-05,2.2880733e-05,1.0,-2.3245811e-06,2.4620444e-05,2.3841858e-06,1.0,385,1.174,0,0,0.0,False,1.0485678185352674,0.010428506183220776
1.1880723039939767,14:36:42.320119,14:35:27.192090,0,,0.08471608,-0.013692379,0.043306977,-0.9011595,0.044746883,-0.43117192,-0.3401702,0.54353076,0.7673712,0.2686926,0.83819556,-0.47458634,,0.038538143,-0.010947151,0.026884913,0.5383523,0.7185194,0.4403482,0.0029099286,-0.5241141,0.8516432,0.8427148,-0.45720267,-0.28424883,,0.057449564,1.3231585,0.43428612,0.9967639,0.07863924,-0.016661314,0.041223634,-0.6780069,-0.7338987,-0.06900972,0.73083687,-0.67905456,,-0.043946162,0.28541028,-0.08340028,0.8747587,-0.066471554,0.47997782,-0.025450874,0.9828761,0.18250151,-0.48388988,-0.17186065,0.8580877,,0.010239832,0.4575835,-0.29860774,-0.61635333,-0.62631613,-0.47732246,0.65703183,-0.74313956,0.12669954,-0.43407115,-0.23552436,0.8695462,,1.3393072259795114,0.15248536060156295,0.17456878172,0.6567489029935303,-0.12925812877810666,0.3274041525988628,0.8735640656861254,,-1.0771667812968346,0.06564322943090833,0.18477965805000002,4.537690377005107,-0.6797665863330662,-0.5811937745443997,-0.15550355095983392,,0.0238237442897226,0.038864119118783735,0.08941844392,-0.11709667966849292,,3.170967e-05,1.2636185e-05,-1.013279e-05,1.0,-2.2880733e-05,-2.4624169e-05,2.2880733e-05,1.0,-2.3245811e-06,2.4620444e-05,2.3841858e-06,1.0,393,1.198,0,0,0.0,False,1.0482103522241415,0.010573346785559767
1.2153407559962943,14:36:42.344605,14:35:27.192090,0,,0.08471809,-0.013695687,0.043305278,-0.90116274,0.044734165,-0.43116638,-0.34016627,0.5435474,0.7673611,0.26868665,0.8381855,-0.47460768,,0.037703976,-0.010772465,0.026838481,0.5372258,0.7166376,0.44476828,0.00023570657,-0.52745515,0.8495829,0.8434384,-0.4563129,-0.28353143,,0.057449564,1.3231585,0.43428612,0.9967639,0.07863924,-0.016661314,0.041223634,-0.6780069,-0.7338987,-0.06900972,0.73083687,-0.67905456,,-0.043948203,0.28540674,-0.08340142,0.8747624,-0.06645779,0.479973,-0.02545254,0.98288023,0.18247898,-0.4838831,-0.17184229,0.85809517,,0.011057888,0.4577347,-0.29841688,-0.61509216,-0.6242686,-0.48161227,0.65645725,-0.7438107,0.1257359,-0.43672132,-0.23881868,0.8673178,,1.3392840577808887,0.15247763786868873,0.17456748543000003,0.6567489029935303,-0.12925812877810666,0.3274041525988628,0.8735640656861254,,-1.072432746044935,0.0673962897933573,0.18468243630000003,4.537690377005107,-0.6864617748215728,-0.5754892610428535,-0.15599358315823664,,0.0238237442897226,0.038864119118783735,0.08941844392,-0.11709667966849292,,3.170967e-05,1.2636185e-05,-1.013279e-05,1.0,-2.2880733e-05,-2.4624169e-05,2.2880733e-05,1.0,-2.3245811e-06,2.4620444e-05,2.3841858e-06,1.0,401,1.223,0,0,0.0,False,1.048091196787099,0.010863027990235974
1.2397831679991214,14:36:42.373451,14:35:27.192090,0,,0.08472392,-0.013699666,0.043310136,-0.9011716,0.044724964,-0.43114874,-0.3401559,0.5435467,0.76736623,0.26866987,0.83818644,-0.47461545,,0.037247516,-0.010611026,0.026850522,0.53444546,0.71546793,0.44997072,-0.002719462,-0.5309235,0.84741545,0.8451985,-0.45412087,-0.28180397,,0.057449564,1.3231585,0.43428612,0.9967639,0.07863924,-0.016661314,0.041223634,-0.6780069,-0.7338987,-0.06900972,0.73083687,-0.67905456,,-0.04395439,0.2854075,-0.08340729,0.8747725,-0.06644868,0.47995588,-0.025457589,0.9828806,0.1824766,-0.48386464,-0.17184402,0.85810524,,0.011496607,0.45788246,-0.29827458,-0.61226887,-0.623044,-0.48676792,0.656837,-0.74351734,0.1254874,-0.44010457,-0.24289516,0.8644709,,1.3392686123151403,0.15249308333443717,0.17455970769,0.6567489029935303,-0.12925812877810666,0.3274041525988628,0.8735640656861254,,-1.0697220668060823,0.06880182717646616,0.18463317728,4.537690377005107,-0.6931569633100794,-0.5700297837617287,-0.15632027129050519,,0.0238237442897226,0.038864119118783735,0.08941844392,-0.11709667966849292,,3.170967e-05,1.2636185e-05,-1.013279e-05,1.0,-2.2880733e-05,-2.4624169e-05,2.2880733e-05,1.0,-2.3245811e-06,2.4620444e-05,2.3841858e-06,1.0,409,1.247,0,0,0.0,False,1.0483295076611832,0.009945704175426506
1.268657811000594,14:36:42.394919,14:35:27.192090,0,,0.084724426,-0.013707459,0.04331416,-0.901166,0.04475668,-0.43115723,-0.34016237,0.5435015,0.76739544,0.26868063,0.8382141,-0.47456056,,0.036844246,-0.010438098,0.02685976,0.5325318,0.7141195,0.45436004,-0.005144745,-0.53406763,0.8454262,0.8463943,-0.45255384,-0.2807341,,0.057449564,1.3231585,0.43428612,0.9967639,0.07863924,-0.016661314,0.041223634,-0.6780069,-0.7338987,-0.06900972,0.73083687,-0.67905456,,-0.043955363,0.28540513,-0.08341572,0.8747661,-0.066483244,0.47996274,-0.025454205,0.9828695,0.18253672,-0.48387635,-0.17189401,0.8580887,,0.011881918,0.4580269,-0.29812196,-0.61029285,-0.6216073,-0.49106717,0.65688944,-0.7435758,0.12486523,-0.4427628,-0.24637248,0.8621263,,1.339260889582266,0.15246991513581448,0.17455192995000002,0.6567489029935303,-0.12925812877810666,0.3274858313390034,0.8737274097522597,,-1.0675751470670478,0.0701069690322101,0.18460336261000002,4.537690377005107,-0.6980758773016352,-0.5652019518272519,-0.15534020689369954,,0.0238237442897226,0.038864119118783735,0.08941844392,-0.11709667966849292,,3.170967e-05,1.2636185e-05,-1.013279e-05,1.0,-2.2880733e-05,-2.4624169e-05,2.2880733e-05,1.0,-2.3245811e-06,2.4620444e-05,2.3841858e-06,1.0,417,1.272,0,0,0.0,False,1.048508240816746,0.009800863573087959
1.2900930409959983,14:36:42.418157,14:35:27.192090,0,,0.08472288,-0.013712898,0.043322682,-0.9011552,0.04477021,-0.4311785,-0.34017503,0.5434981,0.76739216,0.268701,0.83821553,-0.47454643,,0.03648535,-0.010253159,0.026870131,0.5295109,0.7119715,0.46120986,-0.008167416,-0.5393813,0.84202206,0.8482637,-0.44962686,-0.27979338,,0.057449564,1.3231585,0.43428612,0.9967639,0.07863924,-0.016661314,0.041223634,-0.6780069,-0.7338987,-0.06900972,0.73083687,-0.67905456,,-0.04395441,0.28540766,-0.083425574,0.87475383,-0.06649694,0.47998315,-0.025448104,0.9828681,0.18254505,-0.48389882,-0.17189665,0.85807544,,0.012222142,0.4581728,-0.29796046,-0.6072362,-0.6193362,-0.49768147,0.65735906,-0.74345183,0.12311967,-0.44625467,-0.2523927,0.85857713,,1.3392840577808887,0.15245446967006604,0.17454285592000002,0.6567489029935303,-0.12925812877810666,0.3274858313390034,0.8737274097522597,,-1.065520900122504,0.07147389275094784,0.18459428858000002,4.537690377005107,-0.7043611562908455,-0.5577080447931403,-0.15583023909210225,,0.0238237442897226,0.038864119118783735,0.08941844392,-0.11709667966849292,,3.170967e-05,1.2636185e-05,-1.013279e-05,1.0,-2.2880733e-05,-2.4624169e-05,2.2880733e-05,1.0,-2.3245811e-06,2.4620444e-05,2.3841858e-06,1.0,425,1.297,0,0,0.0,False,1.0484486630982253,0.010090544777765054
1.3133784949895926,14:36:42.449736,14:35:27.322607,0,,0.084776014,-0.013751492,0.043330133,-0.90108234,0.044800635,-0.43132758,-0.3402934,0.54347897,0.7673532,0.2687954,0.8382263,-0.47447404,,0.036125116,-0.010048954,0.026861787,0.525757,0.707429,0.47235963,-0.011831462,-0.54916716,0.83562875,0.8505524,-0.44492635,-0.28035867,,0.057320327,1.3231608,0.4342784,0.9967585,0.078727216,-0.016566088,0.041352965,-0.67799664,-0.73390085,-0.06900972,0.73083687,-0.67905456,,-0.043898184,0.28540042,-0.08346298,0.87472063,-0.0665988,0.48002964,-0.025379466,0.98285824,0.18260774,-0.48396254,-0.17191365,0.8580361,,0.012680017,0.4583337,-0.29777333,-0.60345703,-0.61441386,-0.50826687,0.6579101,-0.7437941,0.11800277,-0.4505484,-0.2631843,0.8530769,,1.339291780513763,0.15246219240294026,0.17452081899000002,0.6567489029935303,-0.1293947652778721,0.32751557050255925,0.873890753818394,,-1.0630727938013749,0.0731033893874092,0.18460077003000003,4.537690377005107,-0.7120128002777102,-0.5446076280143333,-0.15583023909210225,,0.0238237442897226,0.038864119118783735,0.08941844392,-0.11709667966849292,,-9.649247e-05,-4.7683716e-06,-4.4107437e-06,1.0,6.5237284e-05,7.020682e-05,-6.523356e-05,0.99999994,6.6161156e-06,-7.020682e-05,-6.6161156e-06,1.0,458,1.399,0,0,0.0,False,1.047793308194494,0.010380225982441704
1.3449699949997012,14:36:42.540627,14:35:27.405144,0,,0.084805235,-0.013823032,0.043410867,-0.90108913,0.044775665,-0.43131596,-0.34015027,0.54393196,0.7670956,0.2689538,0.83793366,-0.4749008,,0.035523884,-0.009806393,0.02627778,0.5109871,0.6903157,0.5122072,-0.02157855,-0.5853858,0.8104677,0.8593174,-0.4251911,-0.28422868,,0.057320327,1.3231608,0.4342784,0.9967585,0.078727216,-0.016566088,0.041352965,-0.67799664,-0.73390085,-0.06900972,0.73083687,-0.67905456,,-0.043933738,0.2854102,-0.08356851,0.8747246,-0.06654407,0.48002988,-0.02516592,0.9829542,0.18211997,-0.4839664,-0.17138521,0.85813963,,0.013313895,0.4580289,-0.2972569,-0.5888775,-0.5964561,-0.54540205,0.6623984,-0.7428247,0.09715915,-0.46308926,-0.30405858,0.8325243,,1.3392840577808887,0.15241585600569493,0.17440933805000003,0.6569585929370148,-0.1293947652778721,0.3270254980617159,0.8735640656861254,,-1.0580761856317515,0.0739528900035739,0.18519058198000002,4.537690377005107,-0.7364707337357239,-0.49975180750980264,-0.15599358315823664,,0.0238237442897226,0.038864119118783735,0.08941844392,-0.11709667966849292,,-9.649247e-05,-4.7683716e-06,-4.4107437e-06,1.0,6.5237284e-05,7.020682e-05,-6.523356e-05,0.99999994,6.6161156e-06,-7.020682e-05,-6.6161156e-06,1.0,462,1.411,0,0,0.0,False,1.048091196787099,0.010380225982441704
1.435860097000841,14:36:42.559271,14:35:27.405144,0,,0.08480943,-0.01383321,0.04342714,-0.9011052,0.044973433,-0.43126172,-0.33999646,0.54397,0.7671369,0.2690943,0.8378984,-0.47488356,,0.035468347,-0.009787379,0.026044726,0.5083375,0.6891873,0.51634663,-0.023014814,-0.58850896,0.808163,0.8608502,-0.42270303,-0.28329974,,0.057320327,1.3231608,0.4342784,0.9967585,0.078727216,-0.016566088,0.041352965,-0.67799664,-0.73390085,-0.06900972,0.73083687,-0.67905456,,-0.043939065,0.28541508,-0.08358678,0.8747392,-0.066738464,0.47997633,-0.0249581,0.98295206,0.18216011,-0.48395082,-0.17132188,0.8581611,,0.013390157,0.45784548,-0.29712158,-0.5862832,-0.5953286,-0.5494141,0.6633256,-0.74211013,0.096289426,-0.46504962,-0.30798757,0.8299834,,1.339299503246637,0.15241585600569493,0.17438989370000002,0.6571682828804993,-0.1293947652778721,0.3270254980617159,0.8735640656861254,,-1.0572498532142096,0.07370576255159872,0.18541743273000003,4.537690377005107,-0.7407064652284527,-0.4960528162747917,-0.15615692722437102,,0.0238237442897226,0.038864119118783735,0.08941844392,-0.11709667966849292,,-9.649247e-05,-4.7683716e-06,-4.4107437e-06,1.0,6.5237284e-05,7.020682e-05,-6.523356e-05,0.99999994,6.6161156e-06,-7.020682e-05,-6.6161156e-06,1.0,470,1.436,0,0,0.0,False,1.048508240816746,0.010380225982441704
1.454506077003316,14:36:42.580656,14:35:27.405144,0,,0.08481784,-0.013840407,0.043438613,-0.90120983,0.045224015,-0.43101695,-0.3395962,0.54419076,0.7671576,0.2692494,0.83774155,-0.47507223,,0.03539808,-0.009751556,0.025771737,0.50733775,0.6884444,0.5183172,-0.023589581,-0.590152,0.8069474,0.8614243,-0.42162165,-0.28316635,,0.057320327,1.3231608,0.4342784,0.9967585,0.078727216,-0.016566088,0.041352965,-0.67799664,-0.73390085,-0.06900972,0.73083687,-0.67905456,,-0.043948267,0.28541845,-0.08359936,0.8748499,-0.06697339,0.47974184,-0.024570208,0.9829853,0.18203352,-0.48377058,-0.17103936,0.85831904,,0.013483583,0.45763806,-0.29695132,-0.5853013,-0.5945653,-0.5512845,0.66365534,-0.74191076,0.09555147,-0.46581545,-0.3099365,0.8288277,,1.339291780513763,0.15243130147144338,0.17437433822,0.6575876627674684,-0.12925812877810666,0.32683240141787895,0.8734007216199912,,-1.056369461666548,0.0735126942297431,0.18567020928000003,4.537690377005107,-0.7428926492246997,-0.4941067723353679,-0.15615692722437102,,0.0238237442897226,0.038864119118783735,0.08941844392,-0.11709667966849292,,-9.649247e-05,-4.7683716e-06,-4.4107437e-06,1.0,6.5237284e-05,7.020682e-05,-6.523356e-05,0.99999994,6.6161156e-06,-7.020682e-05,-6.6161156e-06,1.0,478,1.46,0,0,0.0,False,1.047912463631536,0.010138824978544125
1.475852738993126,14:36:42.607792,14:35:27.405144,0,,0.08482267,-0.013847187,0.043448627,-0.90121233,0.04518854,-0.4310154,-0.3395933,0.54424894,0.7671176,0.26924464,0.8377057,-0.47513825,,0.035306945,-0.009705765,0.025479376,0.50480616,0.6869771,0.52271706,-0.025068015,-0.5936127,0.80436033,0.8628686,-0.41914946,-0.28243828,,0.057320327,1.3231608,0.4342784,0.9967585,0.078727216,-0.016566088,0.041352965,-0.67799664,-0.73390085,-0.06900972,0.73083687,-0.67905456,,-0.043953802,0.28542107,-0.08361085,0.8748527,-0.06693423,0.4797421,-0.024571685,0.98299927,0.18195798,-0.48376533,-0.17097451,0.8583349,,0.013598797,0.4574216,-0.2967623,-0.5828121,-0.5930731,-0.5555127,0.66447085,-0.7413361,0.094336085,-0.4677698,-0.31414178,0.82613945,,1.339291780513763,0.1524390242043176,0.17436137532,0.6575876627674684,-0.12925812877810666,0.3267507226777383,0.8732373775538569,,-1.055272833598408,0.0733505168393844,0.18595150421,4.537690377005107,-0.7472650172171938,-0.4898879694959579,-0.15599358315823664,,0.0238237442897226,0.038864119118783735,0.08941844392,-0.11709667966849292,,-9.649247e-05,-4.7683716e-06,-4.4107437e-06,1.0,6.5237284e-05,7.020682e-05,-6.523356e-05,0.99999994,6.6161156e-06,-7.020682e-05,-6.6161156e-06,1.0,486,1.485,0,0,0.0,False,1.0479720413500573,0.010863027990235974
1.5030291339935502,14:36:42.638606,14:35:27.497792,0,,0.08482443,-0.013855368,0.043460548,-0.90120596,0.04516226,-0.43103155,-0.33960077,0.5443079,0.76707244,0.26925665,0.8376688,-0.47519645,,0.035152778,-0.009613661,0.025051236,0.49982026,0.6839488,0.5314072,-0.028062016,-0.600433,0.7991826,0.8656743,-0.4143599,-0.28091562,,0.057320327,1.3231608,0.4342784,0.9967585,0.078727216,-0.016566088,0.041352965,-0.67799664,-0.73390085,-0.06900972,0.73083687,-0.67905456,,-0.04395641,0.28542417,-0.08362484,0.8748455,-0.066904165,0.47975948,-0.024568113,0.98301286,0.18188481,-0.4837786,-0.17090788,0.8583407,,0.013786052,0.45711964,-0.29646337,-0.5778993,-0.58998877,-0.5638667,0.6660027,-0.7402575,0.09197415,-0.47167027,-0.32238495,0.8207284,,1.3393072259795114,0.15243130147144338,0.17434711613,0.6575876627674684,-0.12925812877810666,0.32666904393759777,0.8734007216199912,,-1.0535120505030848,0.0732578440448937,0.18637798362000002,4.537690377005107,-0.7554632072031202,-0.4814059629910803,-0.15583023909210225,,0.0238237442897226,0.038864119118783735,0.08941844392,-0.11709667966849292,,-9.649247e-05,-4.7683716e-06,-4.4107437e-06,1.0,6.5237284e-05,7.020682e-05,-6.523356e-05,0.99999994,6.6161156e-06,-7.020682e-05,-6.6161156e-06,1.0,494,1.51,0,0,0.0,False,1.0479720413500573,0.010863027990235974
1.5338332620012807,14:36:42.659595,14:35:27.497792,0,,0.084822476,-0.013860032,0.043468088,-0.90119505,0.04517576,-0.43105283,-0.33961344,0.54430455,0.7670692,0.26927698,0.8376702,-0.4751824,,0.03494101,-0.009514092,0.024616659,0.49580744,0.6788371,0.5416226,-0.030641168,-0.6096156,0.7921047,0.86789167,-0.40932733,-0.2814517,,0.057320327,1.3231608,0.4342784,0.9967585,0.078727216,-0.016566088,0.041352965,-0.67799664,-0.73390085,-0.06900972,0.73083687,-0.67905456,,-0.043954995,0.28542653,-0.0836335,0.8748332,-0.06691784,0.47977993,-0.024562014,0.9830115,0.18189313,-0.48380107,-0.17091052,0.8583275,,0.014030484,0.45682314,-0.29615363,-0.57392776,-0.584672,-0.5733808,0.6671159,-0.7398906,0.08670839,-0.47493502,-0.3327471,0.8146877,,1.339330394178134,0.15241585600569493,0.17433933839000001,0.6575876627674684,-0.12925812877810666,0.32666904393759777,0.8734007216199912,,-1.0514809717571638,0.07326556677776792,0.18679279642000002,4.537690377005107,-0.7627049416906886,-0.4697833022853305,-0.15583023909210247,,0.0238237442897226,0.038864119118783735,0.08941844392,-0.11709667966849292,,-9.649247e-05,-4.7683716e-06,-4.4107437e-06,1.0,6.5237284e-05,7.020682e-05,-6.523356e-05,0.99999994,6.6161156e-06,-7.020682e-05,-6.6161156e-06,1.0,502,1.534,0,0,0.0,False,1.0479720413500573,0.010814747789456902
1.5548106630012626,14:36:42.679472,14:35:27.497792,0,,0.08482449,-0.013862908,0.043470204,-0.901197,0.04520665,-0.43104553,-0.33961117,0.54424596,0.7671118,0.2692734,0.8377066,-0.4751203,,0.034873873,-0.009487746,0.024498522,0.49459147,0.67673665,0.5453501,-0.031424522,-0.61313546,0.78935254,0.86855716,-0.40754426,-0.28198555,,0.057320327,1.3231608,0.4342784,0.9967585,0.078727216,-0.016566088,0.041352965,-0.67799664,-0.73390085,-0.06900972,0.73083687,-0.67905456,,-0.043957207,0.28542608,-0.08363691,0.87483543,-0.06695245,0.4797711,-0.024563063,0.9829977,0.18196748,-0.48379707,-0.17097625,0.85831666,,0.014106471,0.4567434,-0.2960699,-0.57272357,-0.5824798,-0.5768059,0.66744685,-0.73985755,0.08441228,-0.47592264,-0.33664238,0.81250817,,1.3393226714452597,0.15241585600569493,0.17433544952000002,0.6575876627674684,-0.12925812877810666,0.3267507226777383,0.8735640656861254,,-1.0508708758601002,0.07327328951064215,0.18690427736,4.537690377005107,-0.7648911256869357,-0.4653052174015492,-0.15599358315823664,,0.0238237442897226,0.038864119118783735,0.08941844392,-0.11709667966849292,,-9.649247e-05,-4.7683716e-06,-4.4107437e-06,1.0,6.5237284e-05,7.020682e-05,-6.523356e-05,0.99999994,6.6161156e-06,-7.020682e-05,-6.6161156e-06,1.0,531,1.624,0,0,0.0,False,1.0481507745056202,0.01066990718711791
1.5747067999909632,14:36:42.770590,14:35:27.631941,0,,0.08482523,-0.01386407,0.04347244,-0.9012367,0.045514524,-0.43093023,-0.33929437,0.5444636,0.7670976,0.2695399,0.8375485,-0.47524783,,0.034408152,-0.008777125,0.023198366,0.49126026,0.66716796,0.5599555,-0.035633266,-0.62694633,0.7782471,0.8702836,-0.4022748,-0.28422052,,0.057320327,1.3231608,0.4342784,0.9967585,0.078727216,-0.016566088,0.041352965,-0.67799664,-0.73390085,-0.06900972,0.73083687,-0.67905456,,-0.043958094,0.2854269,-0.08363924,0.87487304,-0.06724461,0.4796617,-0.024151588,0.98302716,0.1818633,-0.4837498,-0.17069188,0.8583999,,0.014638146,0.45604134,-0.29479048,-0.5692497,-0.5723937,-0.5901866,0.6672406,-0.74104327,0.07513213,-0.48035896,-0.35102755,0.803763,,1.3393226714452597,0.15241585600569493,0.17433285694000003,0.6580070426544374,-0.12925812877810666,0.3265873651974572,0.8735640656861254,,-1.0464766408546664,0.07534298192093432,0.18825890041,4.537690377005107,-0.7740457711712202,-0.4459151217933669,-0.1556668950259681,,0.0238237442897226,0.038864119118783735,0.08941844392,-0.11709667966849292,,-9.649247e-05,-4.7683716e-06,-4.4107437e-06,1.0,6.5237284e-05,7.020682e-05,-6.523356e-05,0.99999994,6.6161156e-06,-7.020682e-05,-6.6161156e-06,1.0,539,1.649,0,0,0.0,False,1.0478528859130152,0.009462902167631793
1.6658278230024735,14:36:42.799636,14:35:27.631941,0,,0.08482389,-0.013865143,0.04347387,-0.9012322,0.045519114,-0.43093908,-0.33929956,0.5444639,0.767095,0.2695483,0.837548,-0.47524393,,0.034404635,-0.008477313,0.023081064,0.49120843,0.6672703,0.55987895,-0.03670329,-0.6263423,0.77868366,0.87026834,-0.4030453,-0.28317362,,0.057320327,1.3231608,0.4342784,0.9967585,0.078727216,-0.016566088,0.041352965,-0.67799664,-0.73390085,-0.06900972,0.73083687,-0.67905456,,-0.043956865,0.28542724,-0.08364109,0.874868,-0.06724916,0.47967026,-0.024149064,0.98302704,0.18186449,-0.48375905,-0.170691,0.85839486,,0.014629028,0.4560909,-0.2944725,-0.569111,-0.57246864,-0.5902477,0.6666998,-0.741415,0.07625728,-0.48127338,-0.35011917,0.8036122,,1.339330394178134,0.1524081332728207,0.17433156065000002,0.6580070426544374,-0.12925812877810666,0.3265873651974572,0.8735640656861254,,-1.046461195388918,0.07671762837254628,0.18846889939000003,4.537690377005107,-0.774319044170751,-0.4456922859859741,-0.1556668950259681,,0.0238237442897226,0.038864119118783735,0.08941844392,-0.11709667966849292,,-9.649247e-05,-4.7683716e-06,-4.4107437e-06,1.0,6.5237284e-05,7.020682e-05,-6.523356e-05,0.99999994,6.6161156e-06,-7.020682e-05,-6.6161156e-06,1.0,547,1.673,0,0,0.0,False,1.0477337304759726,0.00989742397464699
1.6948463229928166,14:36:42.817623,14:35:27.631941,0,,0.084826015,-0.013865575,0.043474406,-0.9012367,0.045549713,-0.43092647,-0.33929437,0.54440093,0.76714206,0.2695399,0.8375874,-0.47517937,,0.03441947,-0.00813031,0.02297771,0.49230886,0.66817456,0.5578302,-0.03729534,-0.62409294,0.78045946,0.86962116,-0.40503144,-0.28232676,,0.057320327,1.3231608,0.4342784,0.9967585,0.078727216,-0.016566088,0.041352965,-0.67799664,-0.73390085,-0.06900972,0.73083687,-0.67905456,,-0.043959025,0.2854273,-0.08364164,0.87487304,-0.06728379,0.4796562,-0.024151588,0.9830123,0.18194358,-0.4837498,-0.17076199,0.858386,,0.014596566,0.4561737,-0.2941212,-0.57009214,-0.5733525,-0.5884402,0.6657122,-0.7421076,0.078125186,-0.48147926,-0.34719324,0.8047575,,1.3393226714452597,0.15241585600569493,0.17433026436000001,0.6580070426544374,-0.12925812877810666,0.32666904393759777,0.8734007216199912,,-1.0466542637107736,0.07834712500900765,0.18867760208,4.537690377005107,-0.7729526791730965,-0.44737821620392226,-0.15648361535663935,,0.0238237442897226,0.038864119118783735,0.08941844392,-0.11709667966849292,,-9.649247e-05,-4.7683716e-06,-4.4107437e-06,1.0,6.5237284e-05,7.020682e-05,-6.523356e-05,0.99999994,6.6161156e-06,-7.020682e-05,-6.6161156e-06,1.0,555,1.698,0,0,0.0,False,1.047793308194494,0.00960774276997034
1.7128544739971403,14:36:42.842931,14:35:27.719770,0,,0.084828496,-0.013868436,0.043474585,-0.9012207,0.045351937,-0.43098068,-0.3394482,0.54436296,0.76710093,0.26939946,0.83762276,-0.4751967,,0.034467116,-0.007526351,0.022847533,0.4954789,0.67154354,0.5509354,-0.03761971,-0.61707973,0.7860009,0.8678049,-0.41017273,-0.28048676,,0.057320327,1.3231608,0.4342784,0.9967585,0.078727216,-0.016566088,0.041352965,-0.67799664,-0.73390085,-0.06900972,0.73083687,-0.67905456,,-0.043961614,0.28542545,-0.083643705,0.8748586,-0.06708938,0.4797097,-0.024359422,0.9830146,0.18190353,-0.48376545,-0.17082532,0.8583646,,0.014513561,0.45635772,-0.29353535,-0.5730339,-0.576756,-0.58222383,0.6635981,-0.7434339,0.08332837,-0.4809051,-0.33861268,0.80874705,,1.3393072259795114,0.15241585600569493,0.17432767178000003,0.6577973527109529,-0.12925812877810666,0.32666904393759777,0.8734007216199912,,-1.0472489141420889,0.08124314983684185,0.18899130426000002,4.537690377005107,-0.7687169476803679,-0.4541809995642744,-0.15632027129050519,,0.0238237442897226,0.038864119118783735,0.08941844392,-0.11709667966849292,,-9.649247e-05,-4.7683716e-06,-4.4107437e-06,1.0,6.5237284e-05,7.020682e-05,-6.523356e-05,0.99999994,6.6161156e-06,-7.020682e-05,-6.6161156e-06,1.0,563,1.723,0,0,0.0,False,1.047793308194494,0.009414621966852277
1.7381652699987171,14:36:42.871994,14:35:27.719770,0,,0.08483009,-0.0138717,0.04347831,-0.90120083,0.045127578,-0.4310457,-0.33960658,0.5443795,0.7670191,0.2692662,0.83762413,-0.47526973,,0.03451717,-0.007115541,0.02278775,0.49667847,0.6733106,0.54768896,-0.038349837,-0.6133847,0.7888526,0.8670869,-0.41280973,-0.27883375,,0.057320327,1.3231608,0.4342784,0.9967585,0.078727216,-0.016566088,0.041352965,-0.67799664,-0.73390085,-0.06900972,0.73083687,-0.67905456,,-0.0439635,0.28542593,-0.08364852,0.8748398,-0.06686492,0.47977534,-0.024565158,0.98302954,0.18179503,-0.48378906,-0.1708273,0.8583509,,0.014436804,0.45650533,-0.29315174,-0.5740955,-0.5785482,-0.5793931,0.6624685,-0.7440702,0.086573824,-0.48119628,-0.33412805,0.81043726,,1.3393072259795114,0.15241585600569493,0.17432248662000002,0.6575876627674684,-0.12925812877810666,0.3265873651974572,0.8735640656861254,,-1.0477508917789136,0.08322789218551754,0.18919093292000003,4.537690377005107,-0.7669406731834172,-0.4574263645954203,-0.15648361535663935,,0.0238237442897226,0.038864119118783735,0.08941844392,-0.11709667966849292,,-9.649247e-05,-4.7683716e-06,-4.4107437e-06,1.0,6.5237284e-05,7.020682e-05,-6.523356e-05,0.99999994,6.6161156e-06,-7.020682e-05,-6.6161156e-06,1.0,571,1.747,0,0,0.0,False,1.0478528859130152,0.009656022970749412
1.7672285529988585,14:36:42.899457,14:35:27.719770,0,,0.08482982,-0.013877466,0.0434843,-0.90119386,0.045132443,-0.43105984,-0.33961472,0.5443843,0.76701206,0.26927936,0.83762074,-0.47526824,,0.03463611,-0.0065612774,0.022668004,0.4982543,0.6759936,0.5429319,-0.03920901,-0.6079886,0.792977,0.8661438,-0.4163919,-0.27642804,,0.057320327,1.3231608,0.4342784,0.9967585,0.078727216,-0.016566088,0.041352965,-0.67799664,-0.73390085,-0.06900972,0.73083687,-0.67905456,,-0.04396372,0.28542635,-0.08365682,0.8748319,-0.066869445,0.4797891,-0.024561156,0.9830303,0.18179148,-0.48380354,-0.17082117,0.8583439,,0.014286035,0.4566646,-0.29261547,-0.575498,-0.5812935,-0.57523894,0.6610347,-0.74478155,0.091288306,-0.4814927,-0.32771668,0.8128755,,1.3393149487123857,0.15240041053994646,0.17431470888000003,0.6575876627674684,-0.12925812877810666,0.3265873651974572,0.8735640656861254,,-1.0486467287923236,0.08577639403401163,0.18950852397,4.537690377005107,-0.7643445796878738,-0.462402060670572,-0.15713699162117667,,0.0238237442897226,0.038864119118783735,0.08941844392,-0.11709667966849292,,-9.649247e-05,-4.7683716e-06,-4.4107437e-06,1.0,6.5237284e-05,7.020682e-05,-6.523356e-05,0.99999994,6.6161156e-06,-7.020682e-05,-6.6161156e-06,1.0,579,1.772,0,0,0.0,False,1.048091196787099,0.010380225982441704
1.7946871320018545,14:36:42.914643,14:35:27.719770,0,,0.08483137,-0.013880342,0.043488324,-0.90121377,0.04528638,-0.43100217,-0.33945632,0.5444931,0.76700497,0.26941264,0.83754176,-0.47533202,,0.034744397,-0.006215019,0.022560596,0.49861497,0.67735505,0.5409003,-0.039991677,-0.6053625,0.79494464,0.86590046,-0.41800267,-0.27475432,,0.057320327,1.3231608,0.4342784,0.9967585,0.078727216,-0.016566088,0.041352965,-0.67799664,-0.73390085,-0.06900972,0.73083687,-0.67905456,,-0.04396556,0.2854273,-0.08366158,0.87485075,-0.06701553,0.47973442,-0.02435542,0.98304504,0.1817394,-0.4837799,-0.17067899,0.8583855,,0.014161317,0.4567319,-0.29226464,-0.5757693,-0.5826977,-0.5735443,0.6603903,-0.74502105,0.09395886,-0.4820522,-0.32466447,0.8137682,,1.3393149487123857,0.15240041053994646,0.17430952372000003,0.6577973527109529,-0.12925812877810666,0.3265056864573166,0.873400721619991,,-1.0493108838195069,0.08726688147873696,0.18974963391000002,4.537690377005107,-0.7633881241895157,-0.46465220331897705,-0.15648361535663957,,0.0238237442897226,0.038864119118783735,0.08941844392,-0.11709667966849292,,-9.649247e-05,-4.7683716e-06,-4.4107437e-06,1.0,6.5237284e-05,7.020682e-05,-6.523356e-05,0.99999994,6.6161156e-06,-7.020682e-05,-6.6161156e-06,1.0,608,1.862,0,0,0.0,False,1.0476741527574522,0.010235385380103157
1.8098269420006545,14:36:43.005488,14:35:27.799684,0,,0.08482392,-0.01388678,0.04350525,-0.90127915,0.04565695,-0.43082643,-0.33910146,0.54457474,0.767104,0.26964083,0.8374685,-0.47533154,,0.0353799,-0.005404813,0.021612704,0.4980456,0.6794733,0.5387638,-0.041211843,-0.6020544,0.79739076,0.8661709,-0.4193403,-0.27184832,,0.057320327,1.3231608,0.4342784,0.9967585,0.078727216,-0.016566088,0.041352965,-0.67799664,-0.73390085,-0.06900972,0.73083687,-0.67905456,,-0.043959167,0.28543538,-0.08367822,0.87491715,-0.06737907,0.47956237,-0.023945628,0.98304296,0.18180525,-0.48368028,-0.17054795,0.8584677,,0.01355827,0.4562445,-0.29109946,-0.575133,-0.58493394,-0.57190406,0.6600839,-0.7447801,0.09793799,-0.48323005,-0.32117727,0.8144531,,1.3393921760411278,0.15236179687557536,0.17429526453000002,0.6582167325979219,-0.12912149227834124,0.3264759472937607,0.8732373775538568,,-1.0517744356063845,0.08913578283429929,0.19104333133,4.537690377005107,-0.7617484861923306,-0.4676227929661452,-0.1568103034889079,,0.0238237442897226,0.038864119118783735,0.08941844392,-0.11709667966849292,,-9.649247e-05,-4.7683716e-06,-4.4107437e-06,1.0,6.5237284e-05,7.020682e-05,-6.523356e-05,0.99999994,6.6161156e-06,-7.020682e-05,-6.6161156e-06,1.0,616,1.886,0,0,0.0,False,1.0479720413500573,0.010525066584779807
1.900719876997755,14:36:43.034925,14:35:27.799684,0,,0.08482315,-0.01389052,0.043505877,-0.9013293,0.045570258,-0.43073064,-0.33903477,0.54465866,0.7670738,0.26955697,0.8374186,-0.47546703,,0.035627298,-0.005235968,0.02125293,0.497331,0.6797426,0.5390842,-0.04142806,-0.60206294,0.7973732,0.8665711,-0.41889152,-0.2712642,,0.057320327,1.3231608,0.4342784,0.9967585,0.078727216,-0.016566088,0.041352965,-0.67799664,-0.73390085,-0.06900972,0.73083687,-0.67905456,,-0.043958552,0.2854333,-0.083681434,0.8749736,-0.06728722,0.47947228,-0.023960749,0.9830649,0.18168461,-0.4835774,-0.17045775,0.8585436,,0.013334361,0.4559895,-0.290777,-0.5744458,-0.5852441,-0.57227737,0.6604081,-0.74443305,0.09839011,-0.48360443,-0.32141683,0.8141363,,1.3393921760411278,0.1523386286769527,0.17429267195,0.6582167325979219,-0.1289848557785758,0.32636452939006433,0.8732373775538568,,-1.0526239362225491,0.08912033736855084,0.19149055138,4.537690377005107,-0.7617484861923306,-0.4677044717062858,-0.15664695942277373,,0.0238237442897226,0.038864119118783735,0.08941844392,-0.11709667966849292,,-9.649247e-05,-4.7683716e-06,-4.4107437e-06,1.0,6.5237284e-05,7.020682e-05,-6.523356e-05,0.99999994,6.6161156e-06,-7.020682e-05,-6.6161156e-06,1.0,624,1.911,0,0,0.0,False,1.047793308194494,0.009704303171529371
1.9301536569983,14:36:43.059684,14:35:27.931943,0,,0.08482422,-0.013891056,0.04350829,-0.90138507,0.045416772,-0.43063006,-0.33896166,0.54485047,0.7669699,0.26946235,0.8373022,-0.47572565,,0.035787165,-0.0051057916,0.021012902,0.49687997,0.6799874,0.5391913,-0.041632712,-0.6019243,0.7974672,0.8668199,-0.41869336,-0.27077448,,0.057320327,1.3231608,0.4342784,0.9967585,0.078727216,-0.016566088,0.041352965,-0.67799664,-0.73390085,-0.06900972,0.73083687,-0.67905456,,-0.043959755,0.28543466,-0.08368341,0.8750364,-0.067121744,0.47938085,-0.023979248,0.98311263,0.18142352,-0.48346284,-0.17024736,0.85864985,,0.01318871,0.45582882,-0.29054663,-0.5740062,-0.5855174,-0.5724389,0.66057545,-0.7442244,0.09884364,-0.48389766,-0.32140222,0.8139678,,1.3393998987740021,0.1523386286769527,0.17429007937000002,0.6582167325979219,-0.12884821927881035,0.3260897540060868,0.8735640656861253,,-1.053172250256619,0.08920528743016731,0.19179388324000002,4.537690377005107,-0.7617484861923306,-0.4678678291865669,-0.15632027129050519,,0.0238237442897226,0.038864119118783735,0.08941844392,-0.11709667966849292,,-9.649247e-05,-4.7683716e-06,-4.4107437e-06,1.0,6.5237284e-05,7.020682e-05,-6.523356e-05,0.99999994,6.6161156e-06,-7.020682e-05,-6.6161156e-06,1.0,632,1.936,0,0,0.0,False,1.047614575038931,0.009849143773867475
1.954915219990653,14:36:43.080579,14:35:27.931943,0,,0.084825456,-0.013892397,0.04350844,-0.901387,0.04541245,-0.43062648,-0.33895937,0.5448546,0.766968,0.26945874,0.8372997,-0.47573197,,0.035926886,-0.0049517434,0.020784318,0.49744228,0.6808603,0.53756887,-0.04140401,-0.60033786,0.798674,0.86650836,-0.41955167,-0.2704432,,0.057320327,1.3231608,0.4342784,0.9967585,0.078727216,-0.016566088,0.041352965,-0.67799664,-0.73390085,-0.06900972,0.73083687,-0.67905456,,-0.043961037,0.28543386,-0.08368442,0.87503856,-0.06711718,0.47937748,-0.023980297,0.9831137,0.18141758,-0.48345882,-0.170243,0.85865295,,0.01306002,0.4556923,-0.290301,-0.574552,-0.58642685,-0.57095844,0.6603524,-0.744277,0.09993232,-0.4835542,-0.31961745,0.81487423,,1.3393921760411278,0.1523386286769527,0.17428878308,0.6582167325979219,-0.12884821927881035,0.3260897540060868,0.8735640656861253,,-1.053689673359192,0.08946013761501673,0.19208295591000002,4.537690377005107,-0.7605187576944415,-0.46968737772124036,-0.15664695942277396,,0.0238237442897226,0.038864119118783735,0.08941844392,-0.11709667966849292,,-9.649247e-05,-4.7683716e-06,-4.4107437e-06,1.0,6.5237284e-05,7.020682e-05,-6.523356e-05,0.99999994,6.6161156e-06,-7.020682e-05,-6.6161156e-06,1.0,640,1.96,0,0,0.0,False,1.0475549973204097,0.009704303171529371
1.9757860910031013,14:36:43.105262,14:35:27.931943,0,,0.08482708,-0.013894498,0.043509603,-0.9013889,0.045408126,-0.43062288,-0.3389571,0.54485863,0.7669661,0.26945516,0.8372973,-0.47573823,,0.036148995,-0.004660083,0.020476222,0.49845326,0.68170965,0.53555226,-0.04119441,-0.5984435,0.8001052,0.86593723,-0.42087677,-0.27021357,,0.057320327,1.3231608,0.4342784,0.9967585,0.078727216,-0.016566088,0.041352965,-0.67799664,-0.73390085,-0.06900972,0.73083687,-0.67905456,,-0.043962784,0.28543323,-0.08368664,0.87504077,-0.0671126,0.47937414,-0.023981348,0.9831148,0.18141165,-0.48345482,-0.17023863,0.85865605,,0.0128463125,0.45554608,-0.2898982,-0.57551605,-0.5872922,-0.569095,0.6598414,-0.7445731,0.101094946,-0.48310512,-0.31733072,0.8160335,,1.3393844533082535,0.1523386286769527,0.17428619050000002,0.6582167325979219,-0.12884821927881035,0.3260897540060868,0.8735640656861253,,-1.0546318467698474,0.09019379723806804,0.19250813903000003,4.537690377005107,-0.7583325736981945,-0.4715517429205237,-0.15681030348890812,,0.0238237442897226,0.038864119118783735,0.08941844392,-0.11709667966849292,,-9.649247e-05,-4.7683716e-06,-4.4107437e-06,1.0,6.5237284e-05,7.020682e-05,-6.523356e-05,0.99999994,6.6161156e-06,-7.020682e-05,-6.6161156e-06,1.0,648,1.985,0,0,0.0,False,1.047435841883368,0.010476786384000736
2.000499089001096,14:36:43.136459,14:35:27.931943,0,,0.08482529,-0.013895765,0.04351279,-0.9013825,0.045417033,-0.4306353,-0.33896455,0.544855,0.7669655,0.26946712,0.83729935,-0.47572812,,0.03637366,-0.0043213945,0.020228326,0.50135237,0.68219155,0.53222203,-0.040133268,-0.5961157,0.80189484,0.8643119,-0.42339158,-0.27148554,,0.057320327,1.3231608,0.4342784,0.9967585,0.078727216,-0.016566088,0.041352965,-0.67799664,-0.73390085,-0.06900972,0.73083687,-0.67905456,,-0.043961205,0.28543472,-0.08368986,0.87503356,-0.067121714,0.47938603,-0.023977773,0.9831136,0.18141878,-0.48346806,-0.17024212,0.85864794,,0.012620445,0.45547467,-0.28948525,-0.5783188,-0.587712,-0.565811,0.65861654,-0.7456272,0.101312585,-0.4814267,-0.3140615,0.8182871,,1.3393998987740021,0.15233090594407844,0.17428359792,0.6582167325979219,-0.12884821927881035,0.3260897540060868,0.8735640656861253,,-1.0557979794338554,0.09127497984045949,0.19288147055000002,4.537690377005107,-0.7535502962064041,-0.4736544372668061,-0.15713699162117667,,0.0238237442897226,0.038864119118783735,0.08941844392,-0.11709667966849292,,-9.649247e-05,-4.7683716e-06,-4.4107437e-06,1.0,6.5237284e-05,7.020682e-05,-6.523356e-05,0.99999994,6.6161156e-06,-7.020682e-05,-6.6161156e-06,1.0,673,2.062,0,0,0.0,False,1.0478528859130152,0.009462902167631793
2.0316963939985726,14:36:43.205494,14:35:28.024124,0,,0.08482517,-0.013898209,0.0435144,-0.90137994,0.0454173,-0.43064058,-0.33896747,0.5448594,0.76696104,0.2694719,0.83729637,-0.47573054,,0.03692171,-0.003518073,0.019837976,0.5170123,0.6826058,0.516476,-0.032658935,-0.58720535,0.8087789,0.8553546,-0.43501604,-0.28129932,,0.057320327,1.3231608,0.4342784,0.9967585,0.078727216,-0.016566088,0.041352965,-0.67799664,-0.73390085,-0.06900972,0.73083687,-0.67905456,,-0.043961257,0.28543425,-0.08369273,0.8750307,-0.067121685,0.47939125,-0.023976298,0.9831145,0.18141404,-0.4834733,-0.17023687,0.85864604,,0.012050396,0.4554728,-0.288606,-0.59358025,-0.58770496,-0.5497867,0.6527179,-0.7511972,0.09829606,-0.4707673,-0.30050898,0.8295014,,1.3393998987740021,0.15232318321120422,0.17428100534000002,0.6582167325979219,-0.12884821927881035,0.32608975400608675,0.8732373775538568,,-1.0593736047546214,0.0942096183326648,0.19352443039000003,4.537690377005107,-0.7300488182467484,-0.48236343796459846,-0.15648361535663935,,0.0238237442897226,0.038864119118783735,0.08941844392,-0.11709667966849292,,-9.649247e-05,-4.7683716e-06,-4.4107437e-06,1.0,6.5237284e-05,7.020682e-05,-6.523356e-05,0.99999994,6.6161156e-06,-7.020682e-05,-6.6161156e-06,1.0,677,2.075,0,0,0.0,False,1.047793308194494,0.009849143773867475
2.1007316549948882,14:36:43.226158,14:35:28.024124,0,,0.08482647,-0.013898075,0.043515682,-0.9013825,0.045417033,-0.4306353,-0.33896455,0.544855,0.7669655,0.26946712,0.83729935,-0.47572812,,0.03711062,-0.0033093821,0.019779682,0.52001345,0.68323,0.5126234,-0.031247288,-0.5845322,0.81076854,0.8535863,-0.4376285,-0.28261554,,0.057320327,1.3231608,0.4342784,0.9967585,0.078727216,-0.016566088,0.041352965,-0.67799664,-0.73390085,-0.06900972,0.73083687,-0.67905456,,-0.0439626,0.28543526,-0.08369345,0.87503356,-0.067121714,0.47938603,-0.023977773,0.9831136,0.18141878,-0.48346806,-0.17024212,0.85864794,,0.011851948,0.45550346,-0.2884003,-0.5964983,-0.5882839,-0.5459962,0.65153265,-0.7521803,0.098640695,-0.4687163,-0.29689533,0.83196044,,1.3393998987740021,0.15233090594407844,0.17427970905,0.6582167325979219,-0.12884821927881035,0.32608975400608686,0.8729106894215883,,-1.0605706283501262,0.09498189162008724,0.19367220745000002,4.537690377005107,-0.724993267755427,-0.48509736181897656,-0.15632027129050519,,0.0238237442897226,0.038864119118783735,0.08941844392,-0.11709667966849292,,-9.649247e-05,-4.7683716e-06,-4.4107437e-06,1.0,6.5237284e-05,7.020682e-05,-6.523356e-05,0.99999994,6.6161156e-06,-7.020682e-05,-6.6161156e-06,1.0,689,2.112,0,0,0.0,False,1.047793308194494,0.009414621966852277
2.121359789001872,14:36:43.255700,14:35:28.024124,0,,0.084825575,-0.013898969,0.043515354,-0.90137994,0.045382127,-0.43064427,-0.33896747,0.54492205,0.7669165,0.2694719,0.8372575,-0.4757989,,0.037406802,-0.003032444,0.019729674,0.52212554,0.68323135,0.51047015,-0.030385137,-0.58325136,0.81172323,0.8523271,-0.43933195,-0.28377038,,0.057320327,1.3231608,0.4342784,0.9967585,0.078727216,-0.016566088,0.041352965,-0.67799664,-0.73390085,-0.06900972,0.73083687,-0.67905456,,-0.043961722,0.28543442,-0.08369392,0.8750307,-0.06708253,0.47939673,-0.023976298,0.9831293,0.18133374,-0.4834733,-0.17016675,0.8586599,,0.011540798,0.45556197,-0.28814206,-0.59854,-0.588222,-0.54382414,0.65062046,-0.7530016,0.0983953,-0.4673787,-0.2949296,0.83341086,,1.3393998987740021,0.15232318321120422,0.17427970905,0.6582167325979219,-0.12884821927881035,0.3260080752659463,0.8730740334877226,,-1.062354579644072,0.09598584689373643,0.19386924353,4.537690377005107,-0.7204842632631675,-0.4859970754761793,-0.15664695942277373,,0.0238237442897226,0.038864119118783735,0.08941844392,-0.11709667966849292,,-9.649247e-05,-4.7683716e-06,-4.4107437e-06,1.0,6.5237284e-05,7.020682e-05,-6.523356e-05,0.99999994,6.6161156e-06,-7.020682e-05,-6.6161156e-06,1.0,697,2.136,0,0,0.0,False,1.047316686446326,0.009945704175426506
2.1509330669941846,14:36:43.277488,14:35:28.151503,0,,0.084825575,-0.013898969,0.043515354,-0.90137994,0.045346953,-0.43064797,-0.33896747,0.5449847,0.76687205,0.2694719,0.8372186,-0.47586724,,0.037577935,-0.0028655361,0.019654274,0.5249059,0.68235433,0.50878894,-0.02895531,-0.5830981,0.8118856,0.8506675,-0.44089562,-0.28631392,,0.057320327,1.3231608,0.4342784,0.9967585,0.078727216,-0.016566088,0.041352965,-0.67799664,-0.73390085,-0.06900972,0.73083687,-0.67905456,,-0.043961722,0.28543442,-0.08369392,0.8750307,-0.06704337,0.4794022,-0.023976298,0.9831441,0.18125343,-0.4834733,-0.1700966,0.8586738,,0.011364997,0.45555937,-0.28796342,-0.6012512,-0.587212,-0.5419216,0.64956504,-0.75415653,0.096504845,-0.46536252,-0.2939897,0.8348699,,1.3393998987740021,0.15232318321120422,0.17427970905,0.6582167325979219,-0.12884821927881035,0.32592639652580574,0.8732373775538569,,-1.063389425849218,0.09653416092780637,0.19401572430000003,4.537690377005107,-0.7158386222711426,-0.48578302593497014,-0.15681030348890812,,0.0238237442897226,0.038864119118783735,0.08941844392,-0.11709667966849292,,-9.649247e-05,-4.7683716e-06,-4.4107437e-06,1.0,6.5237284e-05,7.020682e-05,-6.523356e-05,0.99999994,6.6161156e-06,-7.020682e-05,-6.6161156e-06,1.0,705,2.161,0,0,0.0,False,1.0476741527574522,0.00926978136451373
2.172725286989589,14:36:43.305926,14:35:28.151503,0,,0.0848234,-0.013899475,0.04351762,-0.90137357,0.045355856,-0.4306604,-0.33897492,0.54498094,0.76687133,0.2694839,0.83722055,-0.47585708,,0.037771136,-0.0026722234,0.019494116,0.53180057,0.6788655,0.50629,-0.025077134,-0.5849515,0.8106805,0.84649813,-0.44381663,-0.29405364,,0.057320327,1.3231608,0.4342784,0.9967585,0.078727216,-0.016566088,0.041352965,-0.67799664,-0.73390085,-0.06900972,0.73083687,-0.67905456,,-0.043959677,0.28543574,-0.08369595,0.8750235,-0.06705248,0.4794141,-0.023972724,0.98314285,0.18126056,-0.48348653,-0.17010011,0.85866565,,0.011173445,0.4554945,-0.28771958,-0.60799557,-0.58331794,-0.5385922,0.6470677,-0.757152,0.089578025,-0.46004862,-0.2940426,0.83779126,,1.3394153442397505,0.15231546047833,0.17427841276000003,0.6582167325979219,-0.12884821927881035,0.32592639652580574,0.8732373775538569,,-1.064625063109094,0.09708247496187632,0.19422183441000002,4.537690377005107,-0.7055908847887344,-0.4830310600530853,-0.15615692722437102,,0.0238237442897226,0.038864119118783735,0.08941844392,-0.11709667966849292,,-9.649247e-05,-4.7683716e-06,-4.4107437e-06,1.0,6.5237284e-05,7.020682e-05,-6.523356e-05,0.99999994,6.6161156e-06,-7.020682e-05,-6.6161156e-06,1.0,713,2.185,0,0,0.0,False,1.0476741527574522,0.009656022970749412
2.201164231999428,14:36:43.336009,14:35:28.151503,0,,0.08482469,-0.013899356,0.0435189,-0.9013761,0.04535559,-0.4306552,-0.33897203,0.54497653,0.76687574,0.26947916,0.8372235,-0.4758547,,0.037871663,-0.0025138538,0.01921171,0.54256386,0.6725202,0.50332975,-0.01881656,-0.5893112,0.807687,0.8398037,-0.44769257,-0.3070845,,0.057320327,1.3231608,0.4342784,0.9967585,0.078727216,-0.016566088,0.041352965,-0.67799664,-0.73390085,-0.06900972,0.73083687,-0.67905456,,-0.043961022,0.28543675,-0.08369667,0.87502635,-0.06705251,0.47940892,-0.023974199,0.98314196,0.1812653,-0.48348132,-0.17010535,0.85866755,,0.011088523,0.4553189,-0.2874423,-0.61852264,-0.5762963,-0.5341463,0.6431131,-0.7618619,0.07727891,-0.45148128,-0.29571772,0.84185255,,1.3394153442397505,0.15232318321120422,0.17427711647000002,0.6582167325979219,-0.12884821927881035,0.32592639652580574,0.8732373775538569,,-1.0653432772663969,0.09738366154397107,0.19447461096000002,4.537690377005107,-0.6906975063143014,-0.4772879674652121,-0.15599358315823664,,0.0238237442897226,0.038864119118783735,0.08941844392,-0.11709667966849292,,-9.649247e-05,-4.7683716e-06,-4.4107437e-06,1.0,6.5237284e-05,7.020682e-05,-6.523356e-05,0.99999994,6.6161156e-06,-7.020682e-05,-6.6161156e-06,1.0,721,2.21,0,0,0.0,False,1.047912463631536,0.009462902167631793
2.231199925998226,14:36:43.356803,14:35:28.227361,0,,0.08482553,-0.013898104,0.043519557,-0.90141803,0.04573369,-0.43052742,-0.33865225,0.5450643,0.7669547,0.26974082,0.8371458,-0.47584307,,0.037862096,-0.0024521332,0.018989682,0.55223525,0.66695875,0.5002021,-0.013069898,-0.5929872,0.80510587,0.83358574,-0.4511453,-0.3187514,,0.057320327,1.3231608,0.4342784,0.9967585,0.078727216,-0.016566088,0.041352965,-0.67799664,-0.73390085,-0.06900972,0.73083687,-0.67905456,,-0.043961857,0.28543806,-0.08369614,0.8750665,-0.06742316,0.47928354,-0.023564164,0.98314065,0.18132618,-0.48342872,-0.16996638,0.8587247,,0.011114697,0.45516053,-0.28727666,-0.6279718,-0.5701483,-0.5297003,0.6394463,-0.76596516,0.06637608,-0.44357616,-0.2970326,0.84558374,,1.3394153442397505,0.15233090594407844,0.17427711647000002,0.6586361124848911,-0.12884821927881035,0.32592639652580574,0.8732373775538569,,-1.0654668409923844,0.09741455247546797,0.19462109173000003,4.537690377005107,-0.6777170388365846,-0.47259874391008705,-0.1568103034889079,,0.0238237442897226,0.038864119118783735,0.08941844392,-0.11709667966849292,,-9.649247e-05,-4.7683716e-06,-4.4107437e-06,1.0,6.5237284e-05,7.020682e-05,-6.523356e-05,0.99999994,6.6161156e-06,-7.020682e-05,-6.6161156e-06,1.0,742,2.275,0,0,0.0,False,1.047316686446326,0.009945704175426506
2.252036086996668,14:36:43.422255,14:35:28.227361,0,,0.08482629,-0.013899922,0.04351777,-0.9014391,0.045914497,-0.43046424,-0.33849213,0.5451229,0.76698375,0.26987162,0.8370977,-0.47585347,,0.037758444,-0.0023027193,0.018108428,0.58044916,0.65008885,0.49037045,0.0041764975,-0.6045702,0.7965409,0.8142857,-0.46030337,-0.35363743,,0.057320327,1.3231608,0.4342784,0.9967585,0.078727216,-0.016566088,0.041352965,-0.67799664,-0.73390085,-0.06900972,0.73083687,-0.67905456,,-0.04396259,0.28543553,-0.08369623,0.87508667,-0.06759929,0.47922197,-0.023359034,0.98314345,0.18133762,-0.48340222,-0.1698803,0.85875666,,0.01129138,0.45449242,-0.2867004,-0.6554629,-0.55159247,-0.51586246,0.62799484,-0.7774999,0.033411533,-0.41951254,-0.30205894,0.8560196,,1.3393998987740021,0.15232318321120422,0.17427711647000002,0.6588458024283755,-0.12884821927881035,0.32592639652580574,0.8732373775538569,,-1.0650807043486732,0.09705158403037942,0.19523294061000002,4.537690377005107,-0.6398687284015576,-0.45829315993626496,-0.1556668950259683,,0.0238237442897226,0.038864119118783735,0.08941844392,-0.11709667966849292,,-9.649247e-05,-4.7683716e-06,-4.4107437e-06,1.0,6.5237284e-05,7.020682e-05,-6.523356e-05,0.99999994,6.6161156e-06,-7.020682e-05,-6.6161156e-06,1.0,750,2.3,0,0,0.0,False,1.047614575038931,0.009559462569191268
2.3174726129946066,14:36:43.442930,14:35:28.307927,0,,0.08482808,-0.013898179,0.043518424,-0.9014441,0.045913976,-0.43045375,-0.3384863,0.545114,0.7669926,0.26986206,0.83710355,-0.47584867,,0.03776305,-0.00225663,0.017810762,0.5840799,0.645182,0.49253494,0.006521225,-0.6105076,0.7919836,0.8116699,-0.45936954,-0.36079264,,0.057320327,1.3231608,0.4342784,0.9967585,0.078727216,-0.016566088,0.041352965,-0.67799664,-0.73390085,-0.06900972,0.73083687,-0.67905456,,-0.043964345,0.28543717,-0.083695285,0.8750923,-0.067599356,0.47921157,-0.023361983,0.9831416,0.1813471,-0.48339176,-0.1698908,0.8587605,,0.01131211,0.45425963,-0.28651032,-0.65899783,-0.54633987,-0.5169474,0.62647057,-0.7790526,0.02473138,-0.416241,-0.3075544,0.85565984,,1.3393998987740021,0.1523386286769527,0.17427711647000002,0.6588458024283755,-0.12884821927881035,0.32592639652580574,0.8732373775538569,,-1.0648490223624465,0.09681217931127846,0.19549219861000003,4.537690377005107,-0.6350864509097672,-0.4510027991663826,-0.156810303488908,,0.0238237442897226,0.038864119118783735,0.08941844392,-0.11709667966849292,,-9.649247e-05,-4.7683716e-06,-4.4107437e-06,1.0,6.5237284e-05,7.020682e-05,-6.523356e-05,0.99999994,6.6161156e-06,-7.020682e-05,-6.6161156e-06,1.0,754,2.312,0,0,0.0,False,1.0477337304759726,0.010090544777765054
2.33816875499906,14:36:43.469637,14:35:28.307927,0,,0.084827244,-0.013897613,0.04351923,-0.90144217,0.045918293,-0.43045732,-0.3384886,0.5451099,0.7669945,0.2698657,0.837106,-0.47584236,,0.0377664,-0.0022072326,0.017370999,0.58870226,0.63879985,0.49534258,0.009586871,-0.61825675,0.78591776,0.808293,-0.45792276,-0.37009335,,0.057320327,1.3231608,0.4342784,0.9967585,0.078727216,-0.016566088,0.041352965,-0.67799664,-0.73390085,-0.06900972,0.73083687,-0.67905456,,-0.04396353,0.28543815,-0.083695464,0.8750902,-0.06760392,0.4792149,-0.023360932,0.9831405,0.18135305,-0.48339579,-0.16989517,0.8587573,,0.01134766,0.4539068,-0.28624555,-0.66350013,-0.53952837,-0.5183403,0.62453,-0.78088623,0.013378366,-0.4119828,-0.31484252,0.8550698,,1.3394076215068762,0.1523386286769527,0.17427711647000002,0.6588458024283755,-0.12884821927881035,0.32592639652580574,0.8732373775538569,,-1.0644397175201126,0.09636426080457343,0.19587330787,4.537690377005107,-0.6290744449200878,-0.4415297286642861,-0.15550355095983381,,0.0238237442897226,0.038864119118783735,0.08941844392,-0.11709667966849292,,-9.649247e-05,-4.7683716e-06,-4.4107437e-06,1.0,6.5237284e-05,7.020682e-05,-6.523356e-05,0.99999994,6.6161156e-06,-7.020682e-05,-6.6161156e-06,1.0,766,2.349,0,0,0.0,False,1.047912463631536,0.009656022970749412
2.3648198149894597,14:36:43.500164,14:35:28.307927,0,,0.084825456,-0.013899371,0.043518543,-0.9014371,0.045918815,-0.43046784,-0.33849445,0.5451188,0.7669856,0.26987523,0.83710015,-0.47584715,,0.03777718,-0.002153946,0.016921699,0.5919629,0.62657934,0.5069301,0.011817515,-0.635653,0.77188444,0.8058785,-0.4509362,-0.38368765,,0.057320327,1.3231608,0.4342784,0.9967585,0.078727216,-0.016566088,0.041352965,-0.67799664,-0.73390085,-0.06900972,0.73083687,-0.67905456,,-0.04396177,0.28543648,-0.08369641,0.87508446,-0.06760386,0.47922534,-0.023357984,0.9831424,0.18134356,-0.48340625,-0.16988467,0.8587535,,0.011376463,0.45354682,-0.28597277,-0.6666783,-0.52669144,-0.5273861,0.6231674,-0.78205955,-0.0067277187,-0.40890396,-0.33313507,0.84959906,,1.3394076215068762,0.15232318321120422,0.17427711647000002,0.6588458024283755,-0.12884821927881035,0.32592639652580574,0.8732373775538569,,-1.0639840762805333,0.09590089683211996,0.19627645406000002,4.537690377005107,-0.6249753499271247,-0.4195518563316044,-0.15615692722437102,,0.0238237442897226,0.038864119118783735,0.08941844392,-0.11709667966849292,,-9.649247e-05,-4.7683716e-06,-4.4107437e-06,1.0,6.5237284e-05,7.020682e-05,-6.523356e-05,0.99999994,6.6161156e-06,-7.020682e-05,-6.6161156e-06,1.0,774,2.374,0,0,0.0,False,1.047793308194494,0.01066990718711791
2.395365339994896,14:36:43.524218,14:35:28.393469,0,,0.08482456,-0.013900235,0.043518275,-0.9014346,0.04591908,-0.43047306,-0.33849734,0.5451233,0.7669811,0.26988003,0.8370972,-0.47584957,,0.037727498,-0.0021394473,0.016578376,0.59954923,0.61696637,0.50979716,0.016709626,-0.64648813,0.7627411,0.8001633,-0.4487822,-0.39791077,,0.057320327,1.3231608,0.4342784,0.9967585,0.078727216,-0.016566088,0.041352965,-0.67799664,-0.73390085,-0.06900972,0.73083687,-0.67905456,,-0.043960895,0.28543568,-0.08369689,0.8750816,-0.06760383,0.47923052,-0.02335651,0.98314327,0.18133882,-0.4834115,-0.16987942,0.8587516,,0.01145803,0.45326585,-0.2857858,-0.67403954,-0.5164965,-0.5281118,0.61976475,-0.7844253,-0.02384544,-0.40194818,-0.34337786,0.84884,,1.3394076215068762,0.15231546047833,0.17427711647000002,0.6588458024283755,-0.12884821927881035,0.32592639652580574,0.8732373775538569,,-1.0636056623696963,0.09553020565415718,0.19652404545000002,4.537690377005107,-0.6147276124447165,-0.40577326053074375,-0.15534020689369965,,0.0238237442897226,0.038864119118783735,0.08941844392,-0.11709667966849292,,-9.649247e-05,-4.7683716e-06,-4.4107437e-06,1.0,6.5237284e-05,7.020682e-05,-6.523356e-05,0.99999994,6.6161156e-06,-7.020682e-05,-6.6161156e-06,1.0,782,2.398,0,0,0.0,False,1.0475549973204097,0.009752583372308443
