AlexandreBanks6/ExpertPlaybackApp/resources/Motions/P_18/PC1/Data_PC1_7.csv
Task Time,PC1 Time,PC2 Time,Gaze Calib,s_T_psm1,Tx,Ty,Tz,R00,R01,R02,R10,R11,R12,R20,R21,R22,s_T_psm3,Tx,Ty,Tz,R00,R01,R02,R10,R11,R12,R20,R21,R22,cart_T_ecm,Tx,Ty,Tz,R00,R01,R02,R10,R11,R12,R20,R21,R22,ecm_T_psm1,Tx,Ty,Tz,R00,R01,R02,R10,R11,R12,R20,R21,R22,ecm_T_psm3,Tx,Ty,Tz,R00,R01,R02,R10,R11,R12,R20,R21,R22,psm1_joints,q1,q2,q3,q4,q5,q6,jaw,psm3_joints,q1,q2,q3,q4,q5,q6,jaw,ecm_joints,q1,q2,q3,q4,ecmi_T_ecm,Tx,Ty,Tz,R00,R01,R02,R10,R11,R12,R20,R21,R22,Sample #,Task Duration (s),Collisions (binary),Collisions (increments),Cumulative Collision Time (s),Clutch Press,MTMR Angle,MTML Angle
""
lci_T_si,,,,,-0.066164754,0.026516598,0.23978148,0.99478984,-0.005419439,0.101802684,0.07109325,-0.6788334,-0.7308426,0.07306782,0.7342723,-0.6749113
rci_T_si,,,,,-0.07567082,0.03074627,0.2479851,0.9944939,-0.021734206,0.10251589,0.062365826,-0.66341096,-0.74565166,0.08421631,0.7479395,-0.6584027
ecm_T_lc,,,,,-4.4061628e-05,-0.00034663224,-0.01840835,-0.99912,0.030754527,0.028518902,-0.031987965,-0.99852574,-0.043852776,0.027128186,-0.04472645,0.9986309
ecm_T_rc,,,,,-0.0043358393,0.01870579,-0.007592615,-0.99555075,-0.052743673,-0.078081585,0.04863213,-0.9973746,0.053654674,-0.08070653,0.04961868,0.9955021
cart_T_ecmi,,,,,0.057354428,1.3212025,0.4325391,0.9967344,0.0790177,-0.016638013,0.041456804,-0.67755413,-0.73430353,-0.06929614,0.73121583,-0.67861736
ecmac_T_ecmrep_psm1,,,,,-0.0033900698,-0.29259828,-0.274185,0.99793226,0.043159027,0.047628522,-0.040498573,0.99763834,-0.055476554,-0.049910355,0.053432956,0.99732333
ecmac_T_ecmrep_psm3,,,,,-0.030876445,-0.5082754,-0.4984752,0.99144465,-0.07732987,0.105155215,0.05830459,0.98314613,0.17327517,-0.116782285,-0.16566171,0.97924364
""
0,14:57:41.266223,14:56:26.133517,0,,0.13291559,0.005356729,0.03242311,0.517908,0.5161192,-0.6821967,0.5783094,0.37639207,0.7238004,0.63034075,-0.76938295,-0.10354018,,0.05598349,-0.029721234,0.08226597,-0.10684114,0.5767406,0.80991066,-0.30764756,-0.79377466,0.5246662,0.9454829,-0.19311103,0.2622406,,0.05736989,1.3212037,0.43254545,0.99673545,0.07899981,-0.0166574,0.041430485,-0.6775562,-0.7343031,-0.06929614,0.73121583,-0.67861736,,-0.0877186,0.2984054,-0.04910228,-0.5679322,-0.4540598,0.6865004,0.82290214,-0.33035293,0.46227595,0.016886473,0.827464,0.5612648,,-0.010062261,0.5028479,-0.33009174,0.020565026,-0.45043102,-0.89257437,0.6679407,-0.65810424,0.34749684,-0.74393034,-0.603333,0.2873273,,1.2114264923152278,0.4122085898946074,0.19899607048,2.9398530076530314,-0.0841680838555113,-0.929480775840675,-0.42208106689097746,,-1.2920054871248863,0.14757370249355617,0.14683854604000002,4.538109756892076,-1.1794462659752818,-0.1685927400977313,0.8760142266781397,,0.0238237442897226,0.039426987802551904,0.09203306007999999,-0.11742376536589094,,1.50203705e-05,5.1259995e-06,-5.364418e-06,1.0,-1.7922372e-05,-1.9304454e-05,1.7914921e-05,1.0,-1.8775463e-06,1.9311905e-05,1.758337e-06,1.0,35,0.106,1,1,0.057,False,-0.26386974276457353,1.0507702725789931
0.12343150500964839,14:57:41.293145,14:56:26.133517,0,,0.13283882,0.005324155,0.03274578,0.5128688,0.522838,-0.68088615,0.57286245,0.3822794,0.72504544,0.6393702,-0.76190746,-0.103455156,,0.055963166,-0.029720757,0.08225942,-0.10692192,0.57643235,0.81011933,-0.30774868,-0.79396427,0.5243199,0.9454409,-0.19325173,0.2622884,,0.05736989,1.3212037,0.43254545,0.99673545,0.07899981,-0.0166574,0.041430485,-0.6775562,-0.7343031,-0.06929614,0.73121583,-0.67861736,,-0.08766771,0.2986216,-0.04935081,-0.5636155,-0.46136767,0.68518424,0.82601184,-0.3212945,0.46311367,0.006480251,0.82698834,0.5621817,,-0.0100414585,0.502846,-0.33008727,0.020661782,-0.45008728,-0.8927455,0.6678682,-0.65826625,0.34732926,-0.74399275,-0.60341275,0.28699803,,1.2124150021231284,0.4122008671617332,0.19874977538000002,2.9335623093484955,-0.09414254833838846,-0.926983101940535,-0.42224441095711196,,-1.2918433097345274,0.14760459342505305,0.14683595346,4.538109756892076,-1.1797195389748127,-0.16820654681005726,0.8763409148104082,,0.0238237442897226,0.039426987802551904,0.09203306007999999,-0.11742376536589094,,1.50203705e-05,5.1259995e-06,-5.364418e-06,1.0,-1.7922372e-05,-1.9304454e-05,1.7914921e-05,1.0,-1.8775463e-06,1.9311905e-05,1.758337e-06,1.0,43,0.131,0,1,0.075,False,-0.26386974276457353,1.0507219923782136
0.15033840300748125,14:57:41.317183,14:56:26.218092,0,,0.13265859,0.005258471,0.03314048,0.50578576,0.53258556,-0.67862606,0.56519896,0.38971704,0.7270974,0.65171385,-0.7513145,-0.10390359,,0.055929862,-0.029720727,0.082244754,-0.10665189,0.57624453,0.81028855,-0.30773118,-0.7940537,0.5241947,0.9454771,-0.19344464,0.2620157,,0.05736989,1.3212037,0.43254545,0.99673545,0.07899981,-0.0166574,0.041430485,-0.6775562,-0.7343031,-0.06929614,0.73121583,-0.67861736,,-0.08751937,0.29887342,-0.049678132,-0.55752033,-0.47194695,0.682962,0.8301256,-0.30909285,0.4640616,-0.0079137795,0.82566804,0.5641008,,-0.010006788,0.5028392,-0.3300785,0.020389173,-0.4498672,-0.8928627,0.6678619,-0.658443,0.34700635,-0.7440059,-0.60338414,0.28702402,,1.2138823213692311,0.41172205772353127,0.19843736949000002,2.924755331722146,-0.10835274431399428,-0.9224200116081955,-0.42093765842803754,,-1.2915730140839297,0.1476432070894242,0.14683076830000003,4.538109756892076,-1.1797195389748127,-0.16796151058963565,0.8765042588765426,,0.0238237442897226,0.039426987802551904,0.09203306007999999,-0.11742376536589094,,1.50203705e-05,5.1259995e-06,-5.364418e-06,1.0,-1.7922372e-05,-1.9304454e-05,1.7914921e-05,1.0,-1.8775463e-06,1.9311905e-05,1.758337e-06,1.0,51,0.155,0,1,0.075,False,-0.2632143878608417,1.0503840309727575
0.174362411009497,14:57:41.338879,14:56:26.218092,0,,0.1324973,0.0051938593,0.03339556,0.5008858,0.5411491,-0.6754784,0.5601232,0.3923,0.72963184,0.65982985,-0.7438135,-0.10661274,,0.05591269,-0.029721115,0.08223337,-0.106501,0.5760463,0.81044924,-0.3077089,-0.7941665,0.524037,0.9455013,-0.19357193,0.26183406,,0.05736989,1.3212037,0.43254545,0.99673545,0.07899981,-0.0166574,0.041430485,-0.6775562,-0.7343031,-0.06929614,0.73121583,-0.67861736,,-0.08737878,0.2990237,-0.049908172,-0.5532705,-0.48108757,0.68003416,0.8328195,-0.30239326,0.46364856,-0.017417809,0.8228688,0.56796443,,-0.009988385,0.50283223,-0.3300724,0.020234862,-0.44964254,-0.8929793,0.667868,-0.6585738,0.34674603,-0.7440046,-0.60340875,0.28697574,,1.214948058505874,0.41117374368946136,0.19822348164000003,2.9186743233610946,-0.1179172992975751,-0.9160092969318354,-0.4217543787587089,,-1.2914185594264451,0.1476509298222984,0.14683076830000003,4.538109756892076,-1.1797195389748127,-0.16771647436921394,0.8760142266781394,,0.0238237442897226,0.039426987802551904,0.09203306007999999,-0.11742376536589094,,1.50203705e-05,5.1259995e-06,-5.364418e-06,1.0,-1.7922372e-05,-1.9304454e-05,1.7914921e-05,1.0,-1.8775463e-06,1.9311905e-05,1.758337e-06,1.0,59,0.18,0,1,0.075,False,-0.26273776611267374,1.0502874705711984
0.19609096900967415,14:57:41.364974,14:56:26.218092,0,,0.13232279,0.005155474,0.03363526,0.4948673,0.550495,-0.6723553,0.55427134,0.39593756,0.7321315,0.66924554,-0.73497534,-0.109187156,,0.055897497,-0.02972183,0.08222479,-0.106372476,0.5758485,0.8106068,-0.30769092,-0.794281,0.52387387,0.94552165,-0.19369054,0.26167297,,0.05736989,1.3212037,0.43254545,0.99673545,0.07899981,-0.0166574,0.041430485,-0.6775562,-0.7343031,-0.06929614,0.73121583,-0.67861736,,-0.08722383,0.29918152,-0.05010932,-0.54800755,-0.49111727,0.6771201,0.83598995,-0.29404736,0.4633108,-0.028434573,0.8199634,0.5717093,,-0.009972223,0.5028271,-0.3300681,0.02010358,-0.44941917,-0.8930948,0.6678725,-0.65869826,0.34650102,-0.74400413,-0.60343933,0.2869125,,1.2160678547726367,0.4105482023266492,0.19804200104000003,2.9113351753391363,-0.1289848557785758,-0.9094348089366423,-0.4214276906264405,,-1.2912795502347092,0.14765865255517263,0.14682947201000002,4.538109756892076,-1.1797195389748127,-0.16747143814879217,0.8751975063474684,,0.0238237442897226,0.039426987802551904,0.09203306007999999,-0.11742376536589094,,1.50203705e-05,5.1259995e-06,-5.364418e-06,1.0,-1.7922372e-05,-1.9304454e-05,1.7914921e-05,1.0,-1.8775463e-06,1.9311905e-05,1.758337e-06,1.0,67,0.204,0,1,0.075,False,-0.2634526987349264,1.0507702725789931
0.22218094000709243,14:57:41.386305,14:56:26.218092,0,,0.13211125,0.005109176,0.033881485,0.4877396,0.55851114,-0.67095107,0.5474636,0.4029733,0.7334139,0.6799953,-0.7250365,-0.1092186,,0.055886813,-0.029723201,0.08221871,-0.10628304,0.5759131,0.8105726,-0.30767357,-0.79423094,0.5239599,0.9455374,-0.19370365,0.26160645,,0.05736989,1.3212037,0.43254545,0.99673545,0.07899981,-0.0166574,0.041430485,-0.6775562,-0.7343031,-0.06929614,0.73121583,-0.67861736,,-0.08703248,0.2993409,-0.050322637,-0.54174286,-0.4999175,0.67571974,0.8395379,-0.2824924,0.46408415,-0.04111811,0.81870663,0.572738,,-0.0099607725,0.5028231,-0.33006582,0.020011468,-0.44948697,-0.8930627,0.66787934,-0.65869534,0.34649327,-0.7440005,-0.603392,0.2870216,,1.2173034920325125,0.4097064244433587,0.19785533528000002,2.902737887656271,-0.14182868675652718,-0.9057408614208453,-0.42159103469257475,,-1.2911946001730927,0.14765865255517263,0.14682817572,4.538109756892076,-1.1797195389748127,-0.1675531168889327,0.8753608504136026,,0.0238237442897226,0.039426987802551904,0.09203306007999999,-0.11742376536589094,,1.50203705e-05,5.1259995e-06,-5.364418e-06,1.0,-1.7922372e-05,-1.9304454e-05,1.7914921e-05,1.0,-1.8775463e-06,1.9311905e-05,1.758337e-06,1.0,71,0.217,0,1,0.075,False,-0.26404847592013647,1.0502874705711984
0.24351316899992526,14:57:41.409326,14:56:26.218092,0,,0.13173446,0.0050254464,0.034264356,0.4768996,0.5699566,-0.66911596,0.53523743,0.41552848,0.73542964,0.6971999,-0.70886225,-0.10689685,,0.055880062,-0.029723737,0.08221406,-0.106223434,0.57584584,0.8106283,-0.30766198,-0.79426897,0.52390915,0.9455478,-0.19374803,0.26153576,,0.05736989,1.3212037,0.43254545,0.99673545,0.07899981,-0.0166574,0.041430485,-0.6775562,-0.7343031,-0.06929614,0.73121583,-0.67861736,,-0.08668722,0.29958352,-0.05066542,-0.532279,-0.51264685,0.6737004,0.8442694,-0.26283422,0.46704105,-0.062355608,0.8173808,0.5727132,,-0.00995347,0.50282,-0.33006364,0.019950058,-0.4494106,-0.8931025,0.66788393,-0.65874064,0.34639844,-0.74399805,-0.6033995,0.2870122,,1.2193577389770562,0.40811554147126844,0.19756496632,2.88973711116023,-0.1635538902192322,-0.9015024068563071,-0.4220810668909776,,-1.291132818310099,0.14765865255517263,0.14682817572,4.538109756892076,-1.1797195389748127,-0.16747143814879223,0.8761775707442739,,0.0238237442897226,0.039426987802551904,0.09203306007999999,-0.11742376536589094,,1.50203705e-05,5.1259995e-06,-5.364418e-06,1.0,-1.7922372e-05,-1.9304454e-05,1.7914921e-05,1.0,-1.8775463e-06,1.9311905e-05,1.758337e-06,1.0,83,0.253,0,1,0.075,False,-0.2641080536386573,1.050335750771978
0.26644694700371474,14:57:41.437235,14:56:26.218092,0,,0.13149497,0.004989907,0.034451872,0.46989343,0.57665294,-0.6683349,0.52945256,0.4217032,0.7361021,0.70631444,-0.69974136,-0.107154906,,0.05587866,-0.029724393,0.082214475,-0.10621598,0.57591194,0.8105823,-0.30766052,-0.7942256,0.5239758,0.94554913,-0.19372952,0.26154476,,0.05736989,1.3212037,0.43254545,0.99673545,0.07899981,-0.0166574,0.041430485,-0.6775562,-0.7343031,-0.06929614,0.73121583,-0.67861736,,-0.08646334,0.29970938,-0.0508322,-0.52600765,-0.5200642,0.67294073,0.84732646,-0.25238433,0.46726874,-0.073170036,0.8159874,0.5734202,,-0.009952061,0.5028203,-0.33006436,0.019942382,-0.4494831,-0.8930662,0.66788447,-0.6587144,0.3464471,-0.7439977,-0.60337406,0.28706646,,1.2205779307711837,0.40714247712911616,0.19743144845000002,2.881349513420849,-0.1746214467002329,-0.8979500322463145,-0.4212643465603062,,-1.2911250955772247,0.14765865255517263,0.14682687943,4.538109756892076,-1.1797195389748127,-0.16755311688893276,0.8763409148104081,,0.0238237442897226,0.039426987802551904,0.09203306007999999,-0.11742376536589094,,1.50203705e-05,5.1259995e-06,-5.364418e-06,1.0,-1.7922372e-05,-1.9304454e-05,1.7914921e-05,1.0,-1.8775463e-06,1.9311905e-05,1.758337e-06,1.0,91,0.278,0,1,0.075,False,-0.262797343831195,1.0506737121774343
0.2944273030007025,14:57:41.458857,14:56:26.349184,0,,0.13095005,0.004913032,0.034754813,0.45363858,0.5913018,-0.666764,0.5219338,0.4301601,0.7365781,0.72235525,-0.682147,-0.11348328,,0.055880614,-0.02972475,0.082217276,-0.10623834,0.57577986,0.8106732,-0.3076649,-0.79431295,0.5238408,0.9455452,-0.19376361,0.2615337,,0.05736989,1.3212037,0.43254545,0.99673545,0.07899981,-0.0166574,0.041430485,-0.6775562,-0.7343031,-0.06929614,0.73121583,-0.67861736,,-0.08594413,0.2999088,-0.05112422,-0.51106495,-0.53608984,0.6718782,0.8547673,-0.23469976,0.46291342,-0.09047352,0.81087834,0.5781789,,-0.0099543035,0.50282216,-0.33006614,0.01996541,-0.4493385,-0.89313847,0.6678828,-0.65876466,0.3463549,-0.74399865,-0.60342693,0.2869529,,1.2230878189553067,0.40497238919145906,0.19721237544000003,2.8618483486767885,-0.19238419166974016,-0.8863244606706996,-0.421754378758709,,-1.2911482637758473,0.14765865255517263,0.14682558314000002,4.538109756892076,-1.1797195389748127,-0.1673897594086517,0.8760142266781398,,0.0238237442897226,0.039426987802551904,0.09203306007999999,-0.11742376536589094,,1.50203705e-05,5.1259995e-06,-5.364418e-06,1.0,-1.7922372e-05,-1.9304454e-05,1.7914921e-05,1.0,-1.8775463e-06,1.9311905e-05,1.758337e-06,1.0,99,0.303,0,1,0.075,False,-0.26428678679422024,1.0505771517758753
0.31606310700590257,14:57:41.486492,14:56:26.349184,0,,0.1305759,0.0048533976,0.03494346,0.4415034,0.60109764,-0.6661504,0.5180511,0.43540755,0.73623586,0.7325966,-0.6701508,-0.11916548,,0.055880614,-0.02972475,0.082217276,-0.10623834,0.575846,0.81062615,-0.3076649,-0.7942701,0.52390563,0.9455452,-0.19374225,0.26154953,,0.05736989,1.3212037,0.43254545,0.99673545,0.07899981,-0.0166574,0.041430485,-0.6775562,-0.7343031,-0.06929614,0.73121583,-0.67861736,,-0.08558606,0.30002695,-0.051316444,-0.4997754,-0.54682374,0.67172045,0.8602525,-0.2229864,0.4585223,-0.100946344,0.8070074,0.58184963,,-0.0099543035,0.50282216,-0.33006614,0.01996541,-0.44941142,-0.89310175,0.6678828,-0.65873635,0.3464087,-0.74399865,-0.60340345,0.2870022,,1.2247327610575165,0.40348962447960796,0.19707107983000002,2.847379742576356,-0.2030418386514445,-0.8777155429225192,-0.42159103469257475,,-1.2911482637758473,0.14765865255517263,0.14682558314000002,4.538109756892076,-1.1797195389748127,-0.16747143814879228,0.8758508826120054,,0.0238237442897226,0.039426987802551904,0.09203306007999999,-0.11742376536589094,,1.50203705e-05,5.1259995e-06,-5.364418e-06,1.0,-1.7922372e-05,-1.9304454e-05,1.7914921e-05,1.0,-1.8775463e-06,1.9311905e-05,1.758337e-06,1.0,107,0.327,0,1,0.075,False,-0.2639888982016152,1.0503840309727575
0.34370011001010425,14:57:41.516604,14:56:26.349184,0,,0.12998037,0.0048002154,0.035259455,0.4280048,0.61687887,-0.66050917,0.5077304,0.44048482,0.74039364,0.74767756,-0.6522528,-0.12467858,,0.055877835,-0.029722009,0.08222026,-0.106345825,0.57583165,0.8106223,-0.3077425,-0.79427785,0.5238485,0.9455079,-0.19375369,0.26167595,,0.05736989,1.3212037,0.43254545,0.99673545,0.07899981,-0.0166574,0.041430485,-0.6775562,-0.7343031,-0.06929614,0.73121583,-0.67861736,,-0.085017495,0.30025512,-0.051602826,-0.4874968,-0.56399405,0.6665265,0.8649104,-0.20746814,0.45704147,-0.11948565,0.79929197,0.5889444,,-0.009952279,0.5028266,-0.33006525,0.020085134,-0.44939488,-0.8931074,0.6678305,-0.6587475,0.34648824,-0.74404234,-0.6034037,0.2868886,,1.2275206676251116,0.4011805273502148,0.19687145117000002,2.8310239269845634,-0.22217094861860617,-0.862525430105723,-0.42142769062644037,,-1.291140541042973,0.14768954348666952,0.14682428685,4.538109756892076,-1.1798561754745784,-0.1674416989852363,0.8760142266781396,,0.0238237442897226,0.039426987802551904,0.09203306007999999,-0.11742376536589094,,1.50203705e-05,5.1259995e-06,-5.364418e-06,1.0,-1.7922372e-05,-1.9304454e-05,1.7914921e-05,1.0,-1.8775463e-06,1.9311905e-05,1.758337e-06,1.0,115,0.352,0,1,0.075,False,-0.26333354329788383,1.0506254319766548
0.37379560399858747,14:57:41.537499,14:56:26.349184,0,,0.12958065,0.004760593,0.035485744,0.41663697,0.6259884,-0.65920573,0.5021791,0.4459743,0.7408933,0.7577796,-0.639723,-0.12854901,,0.05587528,-0.02972177,0.082220495,-0.10632909,0.5757683,0.8106694,-0.3077462,-0.79431576,0.52378863,0.9455086,-0.19378644,0.26164937,,0.05736989,1.3212037,0.43254545,0.99673545,0.07899981,-0.0166574,0.041430485,-0.6775562,-0.7343031,-0.06929614,0.73121583,-0.67861736,,-0.08463698,0.30041584,-0.051807623,-0.4769569,-0.574087,0.66553456,0.8691039,-0.19516098,0.4545004,-0.13103642,0.79519576,0.5920246,,-0.009949809,0.5028273,-0.33006507,0.020068992,-0.4493238,-0.89314353,0.6678264,-0.6587835,0.34642777,-0.74404645,-0.6034173,0.28684917,,1.229397291713548,0.3997209308369864,0.19672497040000003,2.8173940806580693,-0.23378505109866862,-0.8540350531732139,-0.42110100249417204,,-1.2911250955772247,0.14769726621954374,0.14682299056,4.538109756892076,-1.1798561754745784,-0.16736002024509578,0.8758508826120054,,0.0238237442897226,0.039426987802551904,0.09203306007999999,-0.11742376536589094,,1.50203705e-05,5.1259995e-06,-5.364418e-06,1.0,-1.7922372e-05,-1.9304454e-05,1.7914921e-05,1.0,-1.8775463e-06,1.9311905e-05,1.758337e-06,1.0,152,0.465,0,1,0.075,False,-0.26297607698675796,1.0504805913743163
0.3947109510045266,14:57:41.649876,14:56:26.474908,0,,0.12699987,0.00476104,0.03710583,0.35485238,0.6637532,-0.65841585,0.47205058,0.48068488,0.7389927,0.80699944,-0.57303905,-0.142753,,0.055830047,-0.02971736,0.08221543,-0.10636285,0.57473534,0.8113977,-0.30794388,-0.7949461,0.5227151,0.9454403,-0.19426736,0.26153892,,0.05736989,1.3212037,0.43254545,0.99673545,0.07899981,-0.0166574,0.041430485,-0.6775562,-0.7343031,-0.06929614,0.73121583,-0.67861736,,-0.0821936,0.30174476,-0.053052194,-0.4192193,-0.6171332,0.66588426,0.8878035,-0.12525141,0.44285107,-0.18989517,0.776826,0.6004008,,-0.0099051315,0.5028329,-0.33005705,0.0201341,-0.4481713,-0.8937209,0.6676755,-0.6593318,0.34567463,-0.7441801,-0.6036754,0.28595796,,1.2429043515105669,0.3922607708804855,0.19584738207000002,2.741066941229702,-0.29048919850132643,-0.8135141349490385,-0.42110100249417204,,-1.2908084635293815,0.1478131072126571,0.14681002766,4.538109756892076,-1.1802660849738746,-0.16604562165231962,0.8758508826120053,,0.0238237442897226,0.039426987802551904,0.09203306007999999,-0.11742376536589094,,1.50203705e-05,5.1259995e-06,-5.364418e-06,1.0,-1.7922372e-05,-1.9304454e-05,1.7914921e-05,1.0,-1.8775463e-06,1.9311905e-05,1.758337e-06,1.0,160,0.49,0,1,0.075,False,-0.26309523242380006,1.0509151131813312
0.507085471006576,14:57:41.685600,14:56:26.474908,0,,0.12636685,0.004852876,0.037415594,0.3399334,0.6687637,-0.66121125,0.46678835,0.49037924,0.73595965,0.8164276,-0.5588231,-0.14547491,,0.055812933,-0.029711638,0.082212865,-0.106234476,0.5744294,0.8116311,-0.30798194,-0.79511833,0.5224308,0.94544244,-0.19446748,0.2613828,,0.05736989,1.3212037,0.43254545,0.99673545,0.07899981,-0.0166574,0.041430485,-0.6775562,-0.7343031,-0.06929614,0.73121583,-0.67861736,,-0.081587516,0.3020701,-0.053230777,-0.40508658,-0.6232849,0.66889524,0.89191866,-0.10859199,0.4389634,-0.2009626,0.7744183,0.5999086,,-0.009888621,0.50283647,-0.33005023,0.020011848,-0.4478243,-0.8938976,0.6676365,-0.65953594,0.34536043,-0.7442184,-0.60371,0.28578532,,1.2462405721122318,0.3906698879083953,0.19575923435000003,2.72240453625958,-0.3004636629842035,-0.8069325240418704,-0.42159103469257475,,-1.290692622536268,0.14788261180852513,0.14680613879,4.538109756892076,-1.1802660849738746,-0.16563722795161684,0.8753608504136027,,0.0238237442897226,0.039426987802551904,0.09203306007999999,-0.11742376536589094,,1.50203705e-05,5.1259995e-06,-5.364418e-06,1.0,-1.7922372e-05,-1.9304454e-05,1.7914921e-05,1.0,-1.8775463e-06,1.9311905e-05,1.758337e-06,1.0,172,0.527,0,1,0.075,False,-0.2639888982016152,1.0502874705711984
0.5427951880119508,14:57:41.709750,14:56:26.474908,0,,0.12574619,0.004949793,0.03769356,0.32600272,0.6774376,-0.659394,0.45785403,0.49709892,0.7370632,0.82709855,-0.54219097,-0.148112,,0.055794753,-0.029707972,0.082208395,-0.106094874,0.574117,0.81187034,-0.30800372,-0.7952963,0.52214676,0.94545096,-0.19466197,0.26120698,,0.05736989,1.3212037,0.43254545,0.99673545,0.07899981,-0.0166574,0.041430485,-0.6775562,-0.7343031,-0.06929614,0.73121583,-0.67861736,,-0.08099124,0.3023752,-0.0533833,-0.3920291,-0.6332736,0.66729134,0.8943563,-0.09244047,0.43770024,-0.21549928,0.7683875,0.6026116,,-0.009870581,0.5028376,-0.33004415,0.019875824,-0.4474709,-0.8940776,0.6676092,-0.65973717,0.34502873,-0.7442465,-0.6037522,0.2856229,,1.2493682789262928,0.38890138208019787,0.19570997533,2.705000270950364,-0.31426394946051306,-0.7955976370283913,-0.42175437875870914,,-1.2905613360774062,0.1479366709386447,0.14680224992000002,4.538109756892076,-1.1802660849738746,-0.165228834250914,0.876177570744274,,0.0238237442897226,0.039426987802551904,0.09203306007999999,-0.11742376536589094,,1.50203705e-05,5.1259995e-06,-5.364418e-06,1.0,-1.7922372e-05,-1.9304454e-05,1.7914921e-05,1.0,-1.8775463e-06,1.9311905e-05,1.758337e-06,1.0,180,0.551,0,1,0.075,False,-0.26422720907569985,1.0505771517758753
0.566923272999702,14:57:41.737132,14:56:26.474908,0,,0.12537852,0.005001247,0.037833095,0.31008738,0.68518776,-0.6590626,0.45209914,0.5035581,0.7362306,0.8363327,-0.52625763,-0.1536259,,0.05578483,-0.029706363,0.08220464,-0.106014825,0.5740584,0.8119222,-0.30800924,-0.7953223,0.5221041,0.9454582,-0.19472864,0.26113117,,0.05736989,1.3212037,0.43254545,0.99673545,0.07899981,-0.0166574,0.041430485,-0.6775562,-0.7343031,-0.06929614,0.73121583,-0.67861736,,-0.08063599,0.3025336,-0.05346077,-0.3768865,-0.6422852,0.6674026,0.8980523,-0.076919094,0.43311152,-0.22684513,0.7625963,0.6057955,,-0.009860513,0.5028369,-0.3300405,0.019796694,-0.4474017,-0.89411396,0.6675991,-0.65979683,0.3449342,-0.74425775,-0.60373825,0.28562316,,1.2509514391655088,0.3877506948819384,0.19570219759000002,2.6863378659802417,-0.3245116869429211,-0.7854443619680673,-0.4227344431555148,,-1.290484108748664,0.14795983913726737,0.14680095363,4.538109756892076,-1.1802660849738746,-0.16514715551077336,0.8760142266781394,,0.0238237442897226,0.039426987802551904,0.09203306007999999,-0.11742376536589094,,1.50203705e-05,5.1259995e-06,-5.364418e-06,1.0,-1.7922372e-05,-1.9304454e-05,1.7914921e-05,1.0,-1.8775463e-06,1.9311905e-05,1.758337e-06,1.0,188,0.576,0,1,0.075,False,-0.2632143878608417,1.0502874705711984
0.5943222820060328,14:57:41.761081,14:56:26.474908,0,,0.12484627,0.0050151944,0.037951678,0.28938845,0.69551945,-0.6576526,0.44473547,0.5106957,0.73579895,0.84762305,-0.50541323,-0.16153282,,0.055774085,-0.02970687,0.082202494,-0.1059366,0.5739968,0.811976,-0.308008,-0.79535174,0.52205986,0.94546735,-0.19478974,0.26105243,,0.05736989,1.3212037,0.43254545,0.99673545,0.07899981,-0.0166574,0.041430485,-0.6775562,-0.7343031,-0.06929614,0.73121583,-0.67861736,,-0.08011492,0.3026609,-0.05355991,-0.35713556,-0.6542634,0.66662854,0.90242064,-0.057525847,0.4269986,-0.24102117,0.7540757,0.6109653,,-0.009849602,0.50283664,-0.33003947,0.019718355,-0.44732976,-0.8941517,0.6675942,-0.65985304,0.3448361,-0.7442642,-0.6037301,0.28562355,,1.252889845116939,0.38577367526613693,0.19570608646,2.662013832536037,-0.3376287909204033,-0.7705826274660421,-0.42224441095711185,,-1.2904068814199219,0.14797528460301582,0.14679706476,4.538109756892076,-1.1802660849738746,-0.16506547677063294,0.8758508826120053,,0.0238237442897226,0.039426987802551904,0.09203306007999999,-0.11742376536589094,,1.50203705e-05,5.1259995e-06,-5.364418e-06,1.0,-1.7922372e-05,-1.9304454e-05,1.7914921e-05,1.0,-1.8775463e-06,1.9311905e-05,1.758337e-06,1.0,196,0.602,0,1,0.075,False,-0.2626781883941529,1.0503840309727575
0.6182592420082074,14:57:41.786976,14:56:26.474908,0,,0.1244937,0.0049961805,0.03799227,0.26925275,0.70406586,-0.6571104,0.44059363,0.5166664,0.7341205,0.85637623,-0.4871828,-0.17109314,,0.055768162,-0.029708926,0.08220273,-0.10589934,0.57399607,0.8119814,-0.30800074,-0.79534876,0.5220687,0.9454739,-0.1948041,0.2610181,,0.05736989,1.3212037,0.43254545,0.99673545,0.07899981,-0.0166574,0.041430485,-0.6775562,-0.7343031,-0.06929614,0.73121583,-0.67861736,,-0.07976667,0.3026983,-0.053620186,-0.33775172,-0.6642507,0.6668544,0.90712655,-0.04072176,0.4188832,-0.25108796,0.7463999,0.6163133,,-0.0098435525,0.50283676,-0.33004108,0.019679975,-0.4473276,-0.89415365,0.66759706,-0.6598636,0.34481043,-0.74426264,-0.6037202,0.2856485,,1.2538629094590914,0.3843526924172796,0.19571775307000003,2.638947938752739,-0.3463735269053915,-0.7573259761189289,-0.421754378758709,,-1.2903682677555506,0.14797528460301582,0.14679317589000002,4.538109756892076,-1.1802660849738746,-0.16506547677063294,0.8758508826120053,,0.0238237442897226,0.039426987802551904,0.09203306007999999,-0.11742376536589094,,1.50203705e-05,5.1259995e-06,-5.364418e-06,1.0,-1.7922372e-05,-1.9304454e-05,1.7914921e-05,1.0,-1.8775463e-06,1.9311905e-05,1.758337e-06,1.0,204,0.626,0,1,0.075,False,-0.2630356547052788,1.050432311173537
0.6441880450001918,14:57:41.818547,14:56:26.712913,0,,0.12398925,0.0049344003,0.03800285,0.23925045,0.71707517,-0.6546467,0.43143588,0.52550083,0.7332884,0.8698405,-0.45787778,-0.18364573,,0.05575802,-0.02971125,0.08219993,-0.10582481,0.5739947,0.81199205,-0.30798626,-0.7953428,0.5220864,0.9454869,-0.19483265,0.26094943,,0.05736989,1.3212037,0.43254545,0.99673545,0.07899981,-0.0166574,0.041430485,-0.6775562,-0.7343031,-0.06929614,0.73121583,-0.67861736,,-0.079264514,0.30269372,-0.053699065,-0.30889595,-0.6795766,0.66540134,0.9123952,-0.014189914,0.40906444,-0.26854864,0.73346734,0.6244256,,-0.009832938,0.502835,-0.3300413,0.019603215,-0.44732326,-0.89415747,0.6676027,-0.65988463,0.34475908,-0.74425954,-0.6037004,0.28569838,,1.2548977556642376,0.3820127043563896,0.19575664177000002,2.6047684779647615,-0.36222336087818263,-0.7364786614965095,-0.42224441095711196,,-1.2902910404268084,0.14797528460301582,0.14678928702000002,4.538109756892076,-1.1802660849738746,-0.16506547677063294,0.8758508826120053,,0.0238237442897226,0.039426987802551904,0.09203306007999999,-0.11742376536589094,,1.50203705e-05,5.1259995e-06,-5.364418e-06,1.0,-1.7922372e-05,-1.9304454e-05,1.7914921e-05,1.0,-1.8775463e-06,1.9311905e-05,1.758337e-06,1.0,212,0.651,0,1,0.075,False,-0.26351227645344677,1.0507702725789931
0.6757502630061936,14:57:41.837972,14:56:26.712913,0,,0.123673365,0.004889846,0.037992656,0.22127394,0.72564656,-0.6515174,0.4231534,0.5304669,0.73453796,0.8786235,-0.438226,-0.1896813,,0.055751264,-0.029713307,0.082199454,-0.1057801,0.57399386,0.81199855,-0.3079776,-0.7953392,0.52209693,0.9454948,-0.19484982,0.26090825,,0.05736989,1.3212037,0.43254545,0.99673545,0.07899981,-0.0166574,0.041430485,-0.6775562,-0.7343031,-0.06929614,0.73121583,-0.67861736,,-0.07894872,0.30267462,-0.053741235,-0.2916566,-0.68969953,0.66276014,0.91415274,0.002953786,0.4053592,-0.2815337,0.7240897,0.6296292,,-0.009825976,0.5028347,-0.3300426,0.01955716,-0.44732067,-0.8941598,0.6676062,-0.65989727,0.34472826,-0.7442577,-0.6036885,0.2857283,,1.2554151787668104,0.3804140986514251,0.19579812305000002,2.584218863503278,-0.3745206458570723,-0.7223671131568035,-0.4219177228248434,,-1.290244704029563,0.14797528460301582,0.14678539815000002,4.538109756892076,-1.1802660849738746,-0.16506547677063294,0.8758508826120053,,0.0238237442897226,0.039426987802551904,0.09203306007999999,-0.11742376536589094,,1.50203705e-05,5.1259995e-06,-5.364418e-06,1.0,-1.7922372e-05,-1.9304454e-05,1.7914921e-05,1.0,-1.8775463e-06,1.9311905e-05,1.758337e-06,1.0,249,0.764,0,1,0.075,False,-0.26386974276457353,1.0504805913743163
0.6951608670060523,14:57:41.950871,14:56:26.712913,0,,0.12144293,0.004651442,0.03792587,0.11156213,0.7700262,-0.62818277,0.37694228,0.55209994,0.74370694,0.9194937,-0.31975827,-0.22866206,,0.05570762,-0.029729817,0.082202256,-0.105750866,0.57366717,0.81223315,-0.3080224,-0.79553604,0.5217705,0.94548345,-0.19500828,0.2608309,,0.05736989,1.3212037,0.43254545,0.99673545,0.07899981,-0.0166574,0.041430485,-0.6775562,-0.7343031,-0.06929614,0.73121583,-0.67861736,,-0.07671947,0.3025957,-0.053986996,-0.18543926,-0.7434358,0.64258504,0.91862386,0.10103934,0.38199642,-0.34891617,0.6611311,0.6642012,,-0.009781412,0.5028362,-0.33005664,0.019535055,-0.44695562,-0.8943428,0.6675692,-0.66007483,0.3444598,-0.7442914,-0.6037648,0.28547922,,1.2599484229639804,0.37062167336690843,0.19609238088000003,2.45546923820378,-0.4353238882526933,-0.6264743003521972,-0.4211010024941719,,-1.2899589629132167,0.1479675618701416,0.14675687977000001,4.538109756892076,-1.1805393579734056,-0.16467928348295907,0.8758508826120054,,0.0238237442897226,0.039426987802551904,0.09203306007999999,-0.11742376536589094,,1.50203705e-05,5.1259995e-06,-5.364418e-06,1.0,-1.7922372e-05,-1.9304454e-05,1.7914921e-05,1.0,-1.8775463e-06,1.9311905e-05,1.758337e-06,1.0,257,0.789,0,1,0.075,False,-0.26285692154971585,1.0506254319766548
0.8080736350093503,14:57:41.971722,14:56:26.712913,0,,0.12072235,0.004647732,0.038021922,0.08426139,0.7788892,-0.6214754,0.36305073,0.55682534,0.74708736,0.9279517,-0.28857782,-0.23585752,,0.055699155,-0.029731993,0.08220065,-0.10569125,0.5737324,0.81219494,-0.30801082,-0.79548866,0.5218496,0.94549394,-0.19500983,0.2607919,,0.05736989,1.3212037,0.43254545,0.99673545,0.07899981,-0.0166574,0.041430485,-0.6775562,-0.7343031,-0.06929614,0.73121583,-0.67861736,,-0.07600884,0.3027058,-0.054093547,-0.1588657,-0.754768,0.6364644,0.91685367,0.12635896,0.3786988,-0.36625272,0.643707,0.6719377,,-0.009772626,0.5028352,-0.33005738,0.019473648,-0.44702518,-0.8943094,0.66757375,-0.6600635,0.34447265,-0.744289,-0.6037256,0.28556845,,1.2621648472988827,0.3681581215800308,0.19614812135,2.4217091573027716,-0.45008063022736083,-0.6002290659685259,-0.422407755023246,,-1.2898971810502229,0.1479675618701416,0.14675299090000002,4.538109756892076,-1.1805393579734056,-0.1647609622230996,0.8760142266781396,,0.0238237442897226,0.039426987802551904,0.09203306007999999,-0.11742376536589094,,1.50203705e-05,5.1259995e-06,-5.364418e-06,1.0,-1.7922372e-05,-1.9304454e-05,1.7914921e-05,1.0,-1.8775463e-06,1.9311905e-05,1.758337e-06,1.0,265,0.814,0,1,0.075,False,-0.26351227645344677,1.0508668329805522
0.828916858008597,14:57:41.994119,14:56:26.887637,0,,0.12023212,0.004668668,0.038101017,0.06930558,0.7856832,-0.6147346,0.3556337,0.5562716,0.7510569,0.9320524,-0.2706728,-0.24086282,,0.055686772,-0.029735032,0.082197726,-0.105601825,0.5737306,0.81220776,-0.30799338,-0.7954815,0.52187073,0.94550955,-0.19504407,0.26070952,,0.05736989,1.3212037,0.43254545,0.99673545,0.07899981,-0.0166574,0.041430485,-0.6775562,-0.7343031,-0.06929614,0.73121583,-0.67861736,,-0.07552653,0.30280676,-0.05415835,-0.14426625,-0.7629665,0.6301344,0.91563004,0.13855489,0.3773913,-0.37524512,0.6314148,0.6786063,,-0.009759693,0.5028333,-0.33005807,0.019381536,-0.44701996,-0.894314,0.6675806,-0.6600888,0.34441105,-0.7442852,-0.6037019,0.28562832,,1.2639179076613316,0.3666444659366828,0.19618441747,2.4026273724456804,-0.4573223647149292,-0.5812553186501257,-0.42012093809736606,,-1.2898045082557323,0.1479675618701416,0.14674780574000001,4.538109756892076,-1.1805393579734056,-0.1647609622230996,0.8760142266781396,,0.0238237442897226,0.039426987802551904,0.09203306007999999,-0.11742376536589094,,1.50203705e-05,5.1259995e-06,-5.364418e-06,1.0,-1.7922372e-05,-1.9304454e-05,1.7914921e-05,1.0,-1.8775463e-06,1.9311905e-05,1.758337e-06,1.0,273,0.838,0,1,0.075,False,-0.264167631357179,1.0508668329805522
0.8513013880001381,14:57:42.020210,14:56:26.887637,0,,0.1197137,0.004709244,0.03816694,0.04737427,0.7902206,-0.61098856,0.34961158,0.5598681,0.7512119,0.93569636,-0.24919689,-0.24974701,,0.05567973,-0.029736612,0.0821957,-0.10554964,0.573796,0.81216836,-0.30798328,-0.79543465,0.5219481,0.9455187,-0.19504279,0.2606774,,0.05736989,1.3212037,0.43254545,0.99673545,0.07899981,-0.0166574,0.041430485,-0.6775562,-0.7343031,-0.06929614,0.73121583,-0.67861736,,-0.07501511,0.30291334,-0.054201383,-0.12268055,-0.76921046,0.6271082,0.91544867,0.15632217,0.37083295,-0.3832795,0.61957943,0.684995,,-0.009752315,0.50283194,-0.33005813,0.019327804,-0.44708997,-0.89428014,0.66758454,-0.66007537,0.34442902,-0.7442831,-0.6036647,0.28571254,,1.2657404726196486,0.3652620967521966,0.19623886165,2.375787059679661,-0.4621046422067196,-0.5623268038348873,-0.4217543787587089,,-1.2897504491256127,0.1479675618701416,0.14674521316000003,4.538109756892076,-1.1805393579734056,-0.16484264096324003,0.8761775707442737,,0.0238237442897226,0.039426987802551904,0.09203306007999999,-0.11742376536589094,,1.50203705e-05,5.1259995e-06,-5.364418e-06,1.0,-1.7922372e-05,-1.9304454e-05,1.7914921e-05,1.0,-1.8775463e-06,1.9311905e-05,1.758337e-06,1.0,277,0.85,0,1,0.075,False,-0.26381016504605226,1.050432311173537
0.8774188250099542,14:57:42.041976,14:56:26.887637,0,,0.118958734,0.0047980696,0.038265258,0.020948095,0.7981508,-0.60209346,0.3415486,0.5602806,0.7546058,0.93963075,-0.22145182,-0.26087058,,0.055668756,-0.029739026,0.0821923,-0.10546766,0.57386076,0.8121332,-0.30796742,-0.7953855,0.52203244,0.94553304,-0.19505292,0.26061776,,0.05736989,1.3212037,0.43254545,0.99673545,0.07899981,-0.0166574,0.041430485,-0.6775562,-0.7343031,-0.06929614,0.73121583,-0.67861736,,-0.07427061,0.30309063,-0.05424397,-0.09663244,-0.77932835,0.61911994,0.91434586,0.17624749,0.36456612,-0.39323506,0.60131866,0.6955444,,-0.009740789,0.50282973,-0.33005807,0.019243367,-0.44715822,-0.89424783,0.6675908,-0.6600704,0.34442642,-0.7442797,-0.6036196,0.28581673,,1.2686210519817345,0.36332369080076626,0.19633478711000002,2.342656048609106,-0.46770673869710266,-0.5334184052214466,-0.42028428216350044,,-1.2896654990639962,0.1479675618701416,0.14674132429,4.538109756892076,-1.1805393579734056,-0.16492431970338067,0.8763409148104083,,0.0238237442897226,0.039426987802551904,0.09203306007999999,-0.11742376536589094,,1.50203705e-05,5.1259995e-06,-5.364418e-06,1.0,-1.7922372e-05,-1.9304454e-05,1.7914921e-05,1.0,-1.8775463e-06,1.9311905e-05,1.758337e-06,1.0,289,0.887,0,1,0.075,False,-0.26351227645344677,1.0506737121774343
0.8991886870062444,14:57:42.070204,14:56:26.887637,0,,0.11848393,0.004866913,0.03833592,-0.00062805414,0.8007746,-0.5989656,0.33449215,0.5646326,0.754523,0.9423984,-0.19987547,-0.2682075,,0.055665396,-0.029741261,0.08219224,-0.10544715,0.5737909,0.8121852,-0.30795637,-0.7954299,0.5219712,0.9455388,-0.19507715,0.26057833,,0.05736989,1.3212037,0.43254545,0.99673545,0.07899981,-0.0166574,0.041430485,-0.6775562,-0.7343031,-0.06929614,0.73121583,-0.67861736,,-0.07380312,0.30321744,-0.054267358,-0.07532836,-0.7836746,0.6165872,0.9127983,0.1947201,0.35900325,-0.40140364,0.5898629,0.70066893,,-0.00973721,0.50282913,-0.33005986,0.01922113,-0.44708115,-0.8942869,0.6675978,-0.66010135,0.34435356,-0.74427396,-0.6036428,0.2857825,,1.270366389611309,0.36224250819837484,0.19640349048000003,2.3160254257865716,-0.47221574318936216,-0.5159379073157097,-0.4212643465603062,,-1.2896423308653735,0.14795983913726737,0.14673873171000001,4.538109756892076,-1.1805393579734056,-0.16484264096324003,0.8761775707442737,,0.0238237442897226,0.039426987802551904,0.09203306007999999,-0.11742376536589094,,1.50203705e-05,5.1259995e-06,-5.364418e-06,1.0,-1.7922372e-05,-1.9304454e-05,1.7914921e-05,1.0,-1.8775463e-06,1.9311905e-05,1.758337e-06,1.0,293,0.901,0,1,0.075,False,-0.26339312101640555,1.0506737121774343
0.9273924660083139,14:57:42.089965,14:56:26.887637,0,,0.117980994,0.004941255,0.038378596,-0.022945974,0.8038353,-0.5944092,0.3271208,0.56787336,0.7553222,0.94470406,-0.17711209,-0.27598175,,0.05565974,-0.029741798,0.082191706,-0.10540804,0.5737933,0.8121887,-0.30795577,-0.79542327,0.5219816,0.9455434,-0.19509706,0.26054692,,0.05736989,1.3212037,0.43254545,0.99673545,0.07899981,-0.0166574,0.041430485,-0.6775562,-0.7343031,-0.06929614,0.73121583,-0.67861736,,-0.07330537,0.30332938,-0.054269083,-0.05324726,-0.7885484,0.61266315,0.91074395,0.21326482,0.35364333,-0.40952438,0.5768098,0.7068099,,-0.00973151,0.5028294,-0.33005983,0.01918196,-0.44708169,-0.89428747,0.6675953,-0.66011536,0.34433144,-0.7442772,-0.6036271,0.28580734,,1.272150340905255,0.36105320733574425,0.19649941594000003,2.2883463532466144,-0.47645147468209087,-0.4962298830131487,-0.4211010024941719,,-1.2896037172010024,0.1479675618701416,0.14673613913000003,4.538109756892076,-1.1805393579734056,-0.16484264096324003,0.8761775707442737,,0.0238237442897226,0.039426987802551904,0.09203306007999999,-0.11742376536589094,,1.50203705e-05,5.1259995e-06,-5.364418e-06,1.0,-1.7922372e-05,-1.9304454e-05,1.7914921e-05,1.0,-1.8775463e-06,1.9311905e-05,1.758337e-06,1.0,301,0.925,0,1,0.075,False,-0.2635718541719685,1.0507702725789931
0.9471762320026755,14:57:42.119970,14:56:26.887637,0,,0.11728139,0.0050498843,0.038315028,-0.05732038,0.80882996,-0.5852422,0.31954455,0.57023156,0.75678736,0.94583607,-0.14363167,-0.2911432,,0.05565027,-0.029742751,0.082188725,-0.105216786,0.5739542,0.81209975,-0.30789688,-0.7953067,0.52219415,0.9455839,-0.19509932,0.26039827,,0.05736989,1.3212037,0.43254545,0.99673545,0.07899981,-0.0166574,0.041430485,-0.6775562,-0.7343031,-0.06929614,0.73121583,-0.67861736,,-0.0726032,0.3033996,-0.054183602,-0.01905403,-0.7962022,0.60473055,0.90841764,0.23885854,0.34310934,-0.41762945,0.5558855,0.7187329,,-0.009721687,0.50282794,-0.33005878,0.018981524,-0.44725358,-0.89420575,0.66762674,-0.66008633,0.3443263,-0.7442542,-0.60353154,0.286069,,1.2743744879730317,0.3593310379047922,0.19670941492000002,2.246618054493194,-0.47822774917904154,-0.46439695893280614,-0.421754378758709,,-1.2895342126051343,0.14797528460301582,0.14673225026,4.538109756892076,-1.18040272147364,-0.16503573760707707,0.8760142266781394,,0.0238237442897226,0.039426987802551904,0.09203306007999999,-0.11742376536589094,,1.50203705e-05,5.1259995e-06,-5.364418e-06,1.0,-1.7922372e-05,-1.9304454e-05,1.7914921e-05,1.0,-1.8775463e-06,1.9311905e-05,1.758337e-06,1.0,309,0.95,0,1,0.075,False,-0.26309523242380006,1.0503840309727575
0.977180006011622,14:57:42.140711,14:56:27.034113,0,,0.11681989,0.0051072985,0.03820759,-0.079181835,0.8149946,-0.57403314,0.31549972,0.56672835,0.7611037,0.9456163,-0.12084173,-0.3020053,,0.055641025,-0.029746715,0.08218849,-0.105396226,0.5736978,0.8122576,-0.30798224,-0.7954776,0.52188325,0.94553614,-0.19515634,0.26052904,,0.05736989,1.3212037,0.43254545,0.99673545,0.07899981,-0.0166574,0.041430485,-0.6775562,-0.7343031,-0.06929614,0.73121583,-0.67861736,,-0.07213474,0.30338863,-0.054092754,0.0027652243,-0.8041555,0.5944125,0.90678763,0.25260994,0.33752686,-0.4215786,0.5380726,0.72989684,,-0.009712089,0.50282735,-0.33006176,0.019174352,-0.44697377,-0.8943415,0.6675739,-0.6601767,0.34425545,-0.74429655,-0.60363996,0.28572956,,1.2756796298287756,0.35803361878192247,0.19688052520000002,2.220197121614144,-0.4780911126792762,-0.4378811075506792,-0.41881418556829186,,-1.2894647080092665,0.1479675618701416,0.14672836139,4.538109756892076,-1.1806759944731708,-0.16473122305954363,0.8761775707442737,,0.0238237442897226,0.039426987802551904,0.09203306007999999,-0.11742376536589094,,1.50203705e-05,5.1259995e-06,-5.364418e-06,1.0,-1.7922372e-05,-1.9304454e-05,1.7914921e-05,1.0,-1.8775463e-06,1.9311905e-05,1.758337e-06,1.0,330,1.014,0,1,0.075,False,-0.26351227645344677,1.0503840309727575
0.9979059920005966,14:57:42.192415,14:56:27.034113,0,,0.115667135,0.005141273,0.03778413,-0.140635,0.8131981,-0.5647394,0.30306512,0.5783862,0.75737756,0.94253564,-0.06463906,-0.32779336,,0.055605553,-0.029755,0.082182586,-0.10538566,0.57297933,0.8127661,-0.30804464,-0.79592454,0.52116454,0.945517,-0.19544491,0.26038224,,0.05736989,1.3212037,0.43254545,0.99673545,0.07899981,-0.0166574,0.041430485,-0.6775562,-0.7343031,-0.06929614,0.73121583,-0.67861736,,-0.07095198,0.30317372,-0.053839356,0.06429874,-0.80687416,0.5872136,0.8996895,0.30146375,0.3157189,-0.431769,0.50800955,0.7453199,,-0.009675424,0.5028242,-0.33006456,0.0191737,-0.44617692,-0.8947394,0.6675247,-0.66052324,0.34368572,-0.7443407,-0.60385036,0.28516945,,1.2781586270814016,0.3543189842694205,0.19734330073000003,2.1463862615075913,-0.4769980206811526,-0.3926239626008328,-0.4212643465603062,,-1.2892021350915428,0.14797528460301582,0.1467141022,4.538109756892076,-1.1809492674727018,-0.1638549573310264,0.8751975063474684,,0.0238237442897226,0.039426987802551904,0.09203306007999999,-0.11742376536589094,,1.50203705e-05,5.1259995e-06,-5.364418e-06,1.0,-1.7922372e-05,-1.9304454e-05,1.7914921e-05,1.0,-1.8775463e-06,1.9311905e-05,1.758337e-06,1.0,334,1.027,0,1,0.075,False,-0.26333354329788383,1.0506737121774343
1.0496254470053827,14:57:42.220740,14:56:27.034113,0,,0.11495429,0.005123675,0.037382632,-0.17458995,0.8134602,-0.554798,0.29333815,0.5808374,0.75932896,0.9399315,-0.030172259,-0.3400274,,0.055571117,-0.02975804,0.082172275,-0.10512489,0.57272094,0.8129818,-0.30802193,-0.7960602,0.52097064,0.9455534,-0.1956492,0.2600963,,0.05736989,1.3212037,0.43254545,0.99673545,0.07899981,-0.0166574,0.041430485,-0.6775562,-0.7343031,-0.06929614,0.73121583,-0.67861736,,-0.07020936,0.3029131,-0.05361524,0.098377004,-0.8098893,0.5782744,0.89315367,0.3281189,0.30759478,-0.43886048,0.48622766,0.75563496,,-0.009639846,0.5028198,-0.3300607,0.018909555,-0.44588056,-0.8948927,0.6675228,-0.66072077,0.34330943,-0.7443492,-0.6038531,0.2851415,,1.2791857505536735,0.351515632236077,0.19771274338000003,2.104657962754171,-0.47822774917904154,-0.361236710135276,-0.42028428216350044,,-1.288939562173819,0.14800617553451273,0.14670373188000002,4.538109756892076,-1.1809492674727018,-0.16352824237046404,0.8761775707442739,,0.0238237442897226,0.039426987802551904,0.09203306007999999,-0.11742376536589094,,1.50203705e-05,5.1259995e-06,-5.364418e-06,1.0,-1.7922372e-05,-1.9304454e-05,1.7914921e-05,1.0,-1.8775463e-06,1.9311905e-05,1.758337e-06,1.0,351,1.08,0,1,0.075,False,-0.2637505873275314,1.050335750771978
1.0779482460056897,14:57:42.259349,14:56:27.034113,0,,0.11396518,0.0050186515,0.036764205,-0.21830681,0.81104344,-0.5427252,0.28253376,0.5848491,0.760346,0.9340862,0.01265049,-0.3568238,,0.055517316,-0.029766712,0.08216071,-0.10521186,0.5722208,0.81332266,-0.3081818,-0.79635894,0.52041936,0.9454917,-0.19589686,0.26013443,,0.05736989,1.3212037,0.43254545,0.99673545,0.07899981,-0.0166574,0.041430485,-0.6775562,-0.7343031,-0.06929614,0.73121583,-0.67861736,,-0.069173835,0.3024517,-0.0533209,0.14244713,-0.81090415,0.56757665,0.8841112,0.3620627,0.2953945,-0.44503498,0.4597228,0.76850426,,-0.0095843645,0.5028147,-0.33006027,0.019021818,-0.44532138,-0.8951687,0.66740525,-0.6609956,0.3430088,-0.74445176,-0.603965,0.2846365,,1.2804522787450463,0.34728357462100196,0.19820403729000002,2.0509773372221325,-0.47645147468209087,-0.3224175239940323,-0.42077431436190327,,-1.2885302573314852,0.14803706646600961,0.14668688011,4.538109756892076,-1.1814958134717635,-0.16291921327539738,0.8758508826120052,,0.0238237442897226,0.039426987802551904,0.09203306007999999,-0.11742376536589094,,1.50203705e-05,5.1259995e-06,-5.364418e-06,1.0,-1.7922372e-05,-1.9304454e-05,1.7914921e-05,1.0,-1.8775463e-06,1.9311905e-05,1.758337e-06,1.0,355,1.092,1,2,0.078,False,-0.2632143878608417,1.0510116735828905
1.1165568790020188,14:57:42.283023,14:56:27.190413,0,,0.113175765,0.004908338,0.03627202,-0.24745342,0.8107362,-0.5305409,0.27348328,0.58374965,0.76448876,0.9295019,0.0440813,-0.36617374,,0.055479504,-0.02977002,0.082148135,-0.104921274,0.57216096,0.81340224,-0.30815324,-0.79636455,0.5204275,0.9455333,-0.19604853,0.2598688,,0.05736989,1.3212037,0.43254545,0.99673545,0.07899981,-0.0166574,0.041430485,-0.6775562,-0.7343031,-0.06929614,0.73121583,-0.67861736,,-0.068347424,0.30206627,-0.053106226,0.17188859,-0.813101,0.5561664,0.876317,0.38411438,0.2907311,-0.45002526,0.43740472,0.77855915,,-0.00954514,0.5028088,-0.33005533,0.01872697,-0.4452424,-0.8952142,0.6674056,-0.6611172,0.3427737,-0.7444589,-0.60389006,0.28477654,,1.2814562340186955,0.34372339476598446,0.19858514655,2.0140719071688564,-0.4760415651827945,-0.2904069966094589,-0.4197942499650977,,-1.2882367934822647,0.14806795739750653,0.14667650979000002,4.538109756892076,-1.1814958134717635,-0.1628375345352568,0.8760142266781396,,0.0238237442897226,0.039426987802551904,0.09203306007999999,-0.11742376536589094,,1.50203705e-05,5.1259995e-06,-5.364418e-06,1.0,-1.7922372e-05,-1.9304454e-05,1.7914921e-05,1.0,-1.8775463e-06,1.9311905e-05,1.758337e-06,1.0,368,1.133,1,2,0.119,False,-0.26386974276457353,1.0503840309727575
1.1402356020116713,14:57:42.321209,14:56:27.190413,0,,0.11236606,0.0047537386,0.035778493,-0.27480367,0.80489224,-0.52595764,0.2674252,0.5894165,0.7622806,0.92356205,0.06882313,-0.37722242,,0.055444807,-0.029772613,0.08213627,-0.10465303,0.57216793,0.8134319,-0.3081291,-0.7963295,0.5204955,0.9455708,-0.19617051,0.25963983,,0.05736989,1.3212037,0.43254545,0.99673545,0.07899981,-0.0166574,0.041430485,-0.6775562,-0.7343031,-0.06929614,0.73121583,-0.67861736,,-0.06750057,0.3016507,-0.052923918,0.19964011,-0.80926216,0.55248404,0.86948603,0.4062896,0.2809321,-0.45181623,0.42429185,0.7847538,,-0.009509147,0.5028033,-0.33005023,0.01845515,-0.44523782,-0.8952221,0.6674042,-0.6612045,0.34260803,-0.744467,-0.60379785,0.28495094,,1.2826146439498292,0.3399778693219856,0.19892995969000002,1.979892446380879,-0.47221574318936216,-0.269758184532055,-0.4202842821635005,,-1.2879664978316667,0.1480988483290034,0.14666743576000002,4.538109756892076,-1.1814958134717635,-0.1628375345352568,0.8760142266781396,,0.0238237442897226,0.039426987802551904,0.09203306007999999,-0.11742376536589094,,1.50203705e-05,5.1259995e-06,-5.364418e-06,1.0,-1.7922372e-05,-1.9304454e-05,1.7914921e-05,1.0,-1.8775463e-06,1.9311905e-05,1.758337e-06,1.0,377,1.162,1,2,0.148,False,-0.2632143878608417,1.0507702725789931
1.178412647001096,14:57:42.343072,14:56:27.190413,0,,0.11176165,0.004677385,0.035425007,-0.29029754,0.8005589,-0.5242449,0.2632142,0.5935057,0.7605716,0.9200249,0.08280334,-0.38301188,,0.05542568,-0.02977619,0.0821287,-0.10450396,0.57216495,0.81345326,-0.3081001,-0.7963177,0.52053076,0.9455967,-0.1962274,0.25950235,,0.05736989,1.3212037,0.43254545,0.99673545,0.07899981,-0.0166574,0.041430485,-0.6775562,-0.7343031,-0.06929614,0.73121583,-0.67861736,,-0.06686972,0.3013781,-0.05276961,0.21537697,-0.8060672,0.55124253,0.8649568,0.41948974,0.2754598,-0.4532797,0.4174733,0.7875618,,-0.009488917,0.5027983,-0.33004874,0.018301629,-0.445229,-0.8952297,0.6674154,-0.6612464,0.34250525,-0.7444607,-0.6037585,0.28505078,,1.283641767422101,0.33722085368588745,0.19920995833000002,1.9597622118063647,-0.470302832192646,-0.25824943676131495,-0.42126434656030615,,-1.2878120431741824,0.1480988483290034,0.14666225060000002,4.538109756892076,-1.1814958134717635,-0.1628375345352568,0.8760142266781396,,0.0238237442897226,0.039426987802551904,0.09203306007999999,-0.11742376536589094,,1.50203705e-05,5.1259995e-06,-5.364418e-06,1.0,-1.7922372e-05,-1.9304454e-05,1.7914921e-05,1.0,-1.8775463e-06,1.9311905e-05,1.758337e-06,1.0,381,1.174,1,2,0.16,False,-0.26386974276457353,1.0505771517758753
1.2002723890036577,14:57:42.363255,14:56:27.190413,0,,0.11120834,0.004559234,0.035084784,-0.3052026,0.7963455,-0.52219254,0.25896624,0.59709656,0.7592181,0.9163995,0.09648508,-0.38846222,,0.055251144,-0.0298342,0.082124054,-0.10444261,0.5720094,0.8135705,-0.30801883,-0.79642594,0.5204132,0.94563,-0.19624162,0.2593704,,0.057344917,1.3212022,0.43254188,0.996735,0.07900728,-0.016649302,0.04144148,-0.6775554,-0.7343033,-0.06929614,0.73121583,-0.67861736,,-0.06626789,0.30108652,-0.05265636,0.23053128,-0.80297345,0.5496262,0.86030513,0.4321182,0.27046058,-0.45467615,0.41049662,0.790419,,-0.009286052,0.5027988,-0.3300936,0.018228434,-0.44505146,-0.89531946,0.66747457,-0.66128904,0.34230763,-0.7444095,-0.6038427,0.28500625,,1.2847152272916182,0.33447928351553774,0.19947310520000003,1.9402610470623036,-0.4682532846961644,-0.24660707067384974,-0.42044762622963483,,-1.2877193703796916,0.1480988483290034,0.14665836173000002,4.538109756892076,-1.1814958134717635,-0.1628375345352568,0.8760142266781396,,0.0238237442897226,0.039426987802551904,0.09203306007999999,-0.11742376536589094,,-9.678304e-06,1.5497208e-06,-1.4305115e-06,1.0,-1.0438263e-05,-1.12354755e-05,1.0427088e-05,1.0,-1.1324883e-06,1.1246651e-05,1.0430813e-06,1.0,390,1.203,1,2,0.189,False,-0.2639888982016152,1.0504805913743163
1.2204636110109277,14:57:42.390174,14:56:27.190413,0,,0.110300906,0.004389718,0.034682244,-0.32760623,0.79023457,-0.5178835,0.25329173,0.6015256,0.7576345,0.91022944,0.11703017,-0.39722353,,0.05525703,-0.029831726,0.08212596,-0.10448548,0.5720133,0.8135622,-0.30803415,-0.79642594,0.5204042,0.9456203,-0.19623011,0.2594145,,0.057344917,1.3212022,0.43254188,0.996735,0.07900728,-0.016649302,0.04144148,-0.6775554,-0.7343033,-0.06929614,0.73121583,-0.67861736,,-0.06533084,0.3007325,-0.052552298,0.2533694,-0.7985309,0.54603326,0.8532754,0.45041734,0.26276475,-0.45576864,0.3993402,0.7954887,,-0.009292368,0.5028006,-0.3300926,0.018273702,-0.44505683,-0.8953159,0.66746587,-0.66128,0.34234202,-0.7444161,-0.60384864,0.2849762,,1.2866072968458033,0.33047118515381524,0.19976477045000002,1.911114144917955,-0.4636076437041394,-0.22834201956157624,-0.4217543787587091,,-1.287765706776937,0.14810657106187763,0.14666095431,4.538109756892076,-1.1814958134717635,-0.16283753453525684,0.875687538545871,,0.0238237442897226,0.039426987802551904,0.09203306007999999,-0.11742376536589094,,-9.678304e-06,1.5497208e-06,-1.4305115e-06,1.0,-1.0438263e-05,-1.12354755e-05,1.0427088e-05,1.0,-1.1324883e-06,1.1246651e-05,1.0430813e-06,1.0,403,1.244,1,2,0.23,False,-0.26386974276457353,1.0505771517758753
1.2473804680048488,14:57:42.424361,14:56:27.190413,0,,0.10950097,0.004309669,0.034293115,-0.34706634,0.78829986,-0.5080632,0.25294363,0.6003425,0.7586885,0.9030862,0.13480392,-0.40775424,,0.055278227,-0.029826868,0.08213109,-0.10428238,0.57262766,0.813156,-0.30790842,-0.79603183,0.52108127,0.9456837,-0.19603792,0.25932887,,0.057344917,1.3212022,0.43254188,0.996735,0.07900728,-0.016649302,0.04144148,-0.6775554,-0.7343033,-0.06929614,0.73121583,-0.67861736,,-0.064502224,0.3004432,-0.052386675,0.27333784,-0.7980164,0.5370812,0.84901905,0.4626072,0.255267,-0.4521649,0.386218,0.8039792,,-0.009314492,0.50280386,-0.33009186,0.018050857,-0.44573253,-0.8949842,0.66754806,-0.661024,0.3426761,-0.7443479,-0.60363054,0.28561583,,1.288592039194479,0.32711179635352755,0.20007717634000002,1.8876288712476883,-0.45417972522032407,-0.20776901082799473,-0.42028428216350044,,-1.28793560690017,0.14810657106187763,0.14666613947,4.538109756892076,-1.1810859039724673,-0.16358018194704887,0.8761775707442738,,0.0238237442897226,0.039426987802551904,0.09203306007999999,-0.11742376536589094,,-9.678304e-06,1.5497208e-06,-1.4305115e-06,1.0,-1.0438263e-05,-1.12354755e-05,1.0427088e-05,1.0,-1.1324883e-06,1.1246651e-05,1.0430813e-06,1.0,412,1.272,1,2,0.258,False,-0.26351227645344677,1.0505288715750958
1.2815717890043743,14:57:42.455935,14:56:27.366436,0,,0.10850142,0.0042446703,0.033771217,-0.3651896,0.7827597,-0.50390834,0.26007673,0.6055261,0.752129,0.8938662,0.1436148,-0.42470962,,0.05529826,-0.029825646,0.08213961,-0.1044426,0.5728239,0.81299716,-0.30792558,-0.7959237,0.52123624,0.94566035,-0.1959033,0.2595154,,0.057344917,1.3212022,0.43254188,0.996735,0.07900728,-0.016649302,0.04144148,-0.6775554,-0.7343033,-0.06929614,0.73121583,-0.67861736,,-0.06346409,0.30007988,-0.0521298,0.29212084,-0.7932092,0.5343076,0.84831053,0.47288257,0.23822534,-0.4416273,0.38366815,0.8110266,,-0.009335439,0.5028083,-0.33009586,0.018213635,-0.44595566,-0.8948697,0.66754687,-0.6608889,0.34293887,-0.74434495,-0.6036136,0.28565913,,1.291341332097703,0.3228179568754587,0.20050365575,1.8681277065036273,-0.43723679924940945,-0.19838806868643127,-0.4201209380973661,,-1.2880977842905286,0.1480911255961292,0.14667002834,4.538109756892076,-1.1810859039724673,-0.1638252181674706,0.8763409148104081,,0.0238237442897226,0.039426987802551904,0.09203306007999999,-0.11742376536589094,,-9.678304e-06,1.5497208e-06,-1.4305115e-06,1.0,-1.0438263e-05,-1.12354755e-05,1.0427088e-05,1.0,-1.1324883e-06,1.1246651e-05,1.0430813e-06,1.0,425,1.313,1,2,0.299,False,-0.26381016504605226,1.0505771517758753
1.3130986260075588,14:57:42.503482,14:56:27.366436,0,,0.107605234,0.0042131096,0.033421397,-0.39028862,0.76593786,-0.5108951,0.25452334,0.62303686,0.7396234,0.88481224,0.15863189,-0.43811342,,0.055311456,-0.02982362,0.08214927,-0.10456002,0.57282937,0.81297827,-0.3079554,-0.7959297,0.5212095,0.9456377,-0.1958633,0.25962824,,0.057344917,1.3212022,0.43254188,0.996735,0.07900728,-0.016649302,0.04144148,-0.6775554,-0.7343033,-0.06929614,0.73121583,-0.67861736,,-0.0625428,0.2998581,-0.051960863,0.31787544,-0.7776814,0.5423715,0.83943385,0.49678907,0.22034383,-0.44080153,0.38524312,0.81072915,,-0.0093499,0.50281525,-0.33009955,0.018335665,-0.44596544,-0.89486235,0.6675326,-0.6608588,0.3430246,-0.7443548,-0.60363936,0.28557917,,1.2939130021448197,0.3194353998765484,0.20085624663,1.8362548350939798,-0.42808215376512493,-0.1971134430390514,-0.4206109702957691,,-1.2882213480165163,0.1480988483290034,0.14667002834,4.538109756892076,-1.1810859039724673,-0.1638252181674706,0.8763409148104081,,0.0238237442897226,0.039426987802551904,0.09203306007999999,-0.11742376536589094,,-9.678304e-06,1.5497208e-06,-1.4305115e-06,1.0,-1.0438263e-05,-1.12354755e-05,1.0427088e-05,1.0,-1.1324883e-06,1.1246651e-05,1.0430813e-06,1.0,434,1.342,1,2,0.328,False,-0.2634526987349264,1.0504805913743163
1.3606937320000725,14:57:42.533812,14:56:27.366436,0,,0.10707934,0.0042251498,0.033046663,-0.40812114,0.7598037,-0.50609815,0.25961748,0.6280738,0.7335679,0.87523484,0.16799262,-0.45358866,,0.05531229,-0.02982353,0.08214986,-0.10456746,0.57276314,0.81302404,-0.30795684,-0.7959728,0.5211428,0.94563633,-0.19588163,0.25961912,,0.057344917,1.3212022,0.43254188,0.996735,0.07900728,-0.016649302,0.04144148,-0.6775554,-0.7343033,-0.06929614,0.73121583,-0.67861736,,-0.061988734,0.29962605,-0.0517236,0.33640212,-0.77232546,0.53883857,0.8370498,0.5073979,0.2046828,-0.43148732,0.382179,0.81716454,,-0.009350814,0.50281566,-0.33009982,0.018343342,-0.44589278,-0.8948984,0.667532,-0.6608847,0.3429758,-0.7443551,-0.6036647,0.28552487,,1.2953725986580482,0.31736570746625625,0.20115957849000002,1.8186408798412796,-0.4130521387909265,-0.1904199447330473,-0.42159103469257475,,-1.2882290707493904,0.1480988483290034,0.14667002834,4.538109756892076,-1.1810859039724673,-0.16374353942733005,0.8761775707442739,,0.0238237442897226,0.039426987802551904,0.09203306007999999,-0.11742376536589094,,-9.678304e-06,1.5497208e-06,-1.4305115e-06,1.0,-1.0438263e-05,-1.12354755e-05,1.0427088e-05,1.0,-1.1324883e-06,1.1246651e-05,1.0430813e-06,1.0,447,1.383,1,2,0.369,False,-0.2621419889274632,1.0507219923782136
1.3910137250059051,14:57:42.567895,14:56:27.366436,0,,0.10650514,0.0042179525,0.032390803,-0.4353894,0.7515042,-0.49565858,0.26921636,0.63407826,0.72489107,0.85904527,0.18217051,-0.47838837,,0.05530274,-0.029823828,0.08214182,-0.10447801,0.57282776,0.81299,-0.3079395,-0.7959231,0.5212289,0.945652,-0.19589466,0.25955266,,0.057344917,1.3212022,0.43254188,0.996735,0.07900728,-0.016649302,0.04144148,-0.6775554,-0.7343033,-0.06929614,0.73121583,-0.67861736,,-0.061364055,0.29917988,-0.051310536,0.36485055,-0.7651975,0.53043085,0.83352584,0.5222924,0.1801261,-0.414872,0.3764087,0.8283705,,-0.00934035,0.5028103,-0.3300956,0.018251227,-0.44596058,-0.8948665,0.66753876,-0.6608819,0.3429681,-0.7443513,-0.60361767,0.28563407,,1.296569622253553,0.3146627509602776,0.20163920579000003,1.7928490167926832,-0.3880476593338508,-0.17977149985607882,-0.42159103469257475,,-1.2881363979548999,0.1480988483290034,0.14667132463000002,4.538109756892076,-1.1810859039724673,-0.1638252181674706,0.8760142266781398,,0.0238237442897226,0.039426987802551904,0.09203306007999999,-0.11742376536589094,,-9.678304e-06,1.5497208e-06,-1.4305115e-06,1.0,-1.0438263e-05,-1.12354755e-05,1.0427088e-05,1.0,-1.1324883e-06,1.1246651e-05,1.0430813e-06,1.0,456,1.412,1,2,0.398,False,-0.262797343831195,1.0504805913743163
1.4250651059992379,14:57:42.593080,14:56:27.366436,0,,0.10623038,0.0042028874,0.032048285,-0.4484629,0.74474233,-0.49420625,0.2691661,0.6397886,0.7198749,0.852309,0.18981367,-0.48738107,,0.055300742,-0.029822994,0.08214104,-0.10446126,0.57283044,0.8129902,-0.30794322,-0.79591835,0.52123404,0.9456526,-0.19590598,0.25954184,,0.057344917,1.3212022,0.43254188,0.996735,0.07900728,-0.016649302,0.04144148,-0.6775554,-0.7343033,-0.06929614,0.73121583,-0.67861736,,-0.061062824,0.29893762,-0.051101696,0.3784196,-0.7590806,0.5297124,0.8293878,0.53215545,0.17007771,-0.41099203,0.37497625,0.83095026,,-0.009338376,0.50281036,-0.33009443,0.018235086,-0.4459624,-0.89486593,0.6675346,-0.66088957,0.3429614,-0.74435544,-0.6036079,0.28564397,,1.2968321951712765,0.3132572135771688,0.20189846379,1.7785901006357356,-0.38053265184675167,-0.1769148231439201,-0.4215910346925747,,-1.2881209524891513,0.14810657106187763,0.14667132463000002,4.538109756892076,-1.1810859039724673,-0.1638252181674706,0.8760142266781398,,0.0238237442897226,0.039426987802551904,0.09203306007999999,-0.11742376536589094,,-9.678304e-06,1.5497208e-06,-1.4305115e-06,1.0,-1.0438263e-05,-1.12354755e-05,1.0427088e-05,1.0,-1.1324883e-06,1.1246651e-05,1.0430813e-06,1.0,469,1.453,0,2,0.417,False,-0.2636314318904893,1.0504805913743163
1.4502684940089239,14:57:42.636978,14:56:27.520311,0,,0.10559571,0.0040691197,0.031240374,-0.47732902,0.72570425,-0.4954899,0.2648554,0.6564685,0.70632887,0.83785963,0.20591813,-0.5055584,,0.055301994,-0.029823054,0.082142055,-0.104353815,0.57285726,0.8129851,-0.30789354,-0.79589725,0.52129567,0.9456806,-0.19591355,0.25943393,,0.057344917,1.3212022,0.43254188,0.996735,0.07900728,-0.016649302,0.04144148,-0.6775554,-0.7343033,-0.06929614,0.73121583,-0.67861736,,-0.060365442,0.29829797,-0.050679926,0.40835634,-0.7414283,0.5324746,0.8176769,0.55641246,0.14768106,-0.40577042,0.37508565,0.8334633,,-0.009339733,0.502811,-0.33009502,0.018119866,-0.4459903,-0.89485437,0.667565,-0.66089004,0.34290132,-0.744331,-0.6035868,0.28575227,,1.2969712043630126,0.3096275291262833,0.20246105365000003,1.7452493996216962,-0.3676888208688002,-0.17472790136959654,-0.4207743143619034,,-1.2881363979548999,0.14810657106187763,0.14667002834,4.538109756892076,-1.1809492674727018,-0.16385495733102634,0.8761775707442739,,0.0238237442897226,0.039426987802551904,0.09203306007999999,-0.11742376536589094,,-9.678304e-06,1.5497208e-06,-1.4305115e-06,1.0,-1.0438263e-05,-1.12354755e-05,1.0427088e-05,1.0,-1.1324883e-06,1.1246651e-05,1.0430813e-06,1.0,478,1.481,1,3,0.42,False,-0.26351227645344677,1.0505288715750958
1.4941906930034747,14:57:42.666655,14:56:27.520311,0,,0.105105706,0.003958732,0.03051588,-0.49795836,0.7131754,-0.4933743,0.2639974,0.66659045,0.69711006,0.8260405,0.21688226,-0.5202109,,0.055298477,-0.0298176,0.08214301,-0.10432784,0.5728089,0.81302255,-0.30793053,-0.79591715,0.5212434,0.94567144,-0.19597417,0.25942156,,0.057344917,1.3212022,0.43254188,0.996735,0.07900728,-0.016649302,0.04144148,-0.6775554,-0.7343033,-0.06929614,0.73121583,-0.67861736,,-0.059818964,0.29772618,-0.050290503,0.42986435,-0.7298385,0.53155667,0.80975044,0.57205445,0.13060607,-0.39940068,0.3742853,0.83689284,,-0.009337024,0.5028151,-0.3300907,0.01809978,-0.4459326,-0.8948835,0.66753435,-0.66094327,0.3428584,-0.74435896,-0.6035712,0.2857124,,1.2968708088356478,0.30656160417521616,0.20296142159000002,1.7223931957818832,-0.35593808188897236,-0.17148627888542056,-0.42159103469257475,,-1.2881209524891513,0.148152907459123,0.14667002834,4.538109756892076,-1.1809492674727018,-0.1637732785908857,0.8760142266781396,,0.0238237442897226,0.039426987802551904,0.09203306007999999,-0.11742376536589094,,-9.678304e-06,1.5497208e-06,-1.4305115e-06,1.0,-1.0438263e-05,-1.12354755e-05,1.0427088e-05,1.0,-1.1324883e-06,1.1246651e-05,1.0430813e-06,1.0,491,1.522,1,3,0.461,False,-0.26333354329788383,1.0507702725789931
1.5237624000001233,14:57:42.704977,14:56:27.520311,0,,0.10444166,0.003776461,0.029436618,-0.52631366,0.6969171,-0.4871348,0.2684015,0.6797813,0.6825378,0.80681765,0.22848117,-0.544832,,0.055296816,-0.029813338,0.08214593,-0.10444099,0.57246554,0.8132498,-0.30801624,-0.79613435,0.52086085,0.9456311,-0.19609478,0.25947767,,0.057344917,1.3212022,0.43254188,0.996735,0.07900728,-0.016649302,0.04144148,-0.6775554,-0.7343033,-0.06929614,0.73121583,-0.67861736,,-0.059070542,0.29685828,-0.04971991,0.45965096,-0.71458924,0.52733594,0.8005278,0.5904851,0.102384344,-0.3845468,0.375086,0.8434656,,-0.009336265,0.50282,-0.3300885,0.018226406,-0.4455536,-0.8950697,0.6674764,-0.66109604,0.34267658,-0.74440783,-0.6036837,0.28534713,,1.2966931859795405,0.3021055873067886,0.20367567738000003,1.6936656735245033,-0.33352969592744014,-0.16852234265508745,-0.4212643465603061,,-1.2881209524891513,0.14819152112349412,0.14667002834,4.538109756892076,-1.1810859039724673,-0.16333514572662727,0.8756875385458709,,0.0238237442897226,0.039426987802551904,0.09203306007999999,-0.11742376536589094,,-9.678304e-06,1.5497208e-06,-1.4305115e-06,1.0,-1.0438263e-05,-1.12354755e-05,1.0427088e-05,1.0,-1.1324883e-06,1.1246651e-05,1.0430813e-06,1.0,500,1.551,1,3,0.49,False,-0.26351227645344677,1.0507219923782136
1.562188720999984,14:57:42.736653,14:56:27.520311,0,,0.10390577,0.0036550611,0.028637111,-0.55012524,0.68058884,-0.48390174,0.2651427,0.6918359,0.6716117,0.7918722,0.24116758,-0.5610497,,0.055293716,-0.029814113,0.082145214,-0.10441862,0.57233226,0.8133465,-0.30801186,-0.7962177,0.5207361,0.94563484,-0.19614574,0.25942498,,0.057344917,1.3212022,0.43254188,0.996735,0.07900728,-0.016649302,0.04144148,-0.6775554,-0.7343033,-0.06929614,0.73121583,-0.67861736,,-0.058472317,0.2962273,-0.049289633,0.48458627,-0.6993542,0.52543306,0.78887737,0.60892856,0.08293648,-0.37795317,0.3743124,0.8467831,,-0.009333033,0.50281954,-0.33008868,0.018203378,-0.44540605,-0.8951436,0.6674781,-0.6611583,0.34255317,-0.7444069,-0.60372436,0.28526348,,1.2966159586507984,0.29875392123937516,0.20423697095,1.6664059808715153,-0.3202759554501924,-0.16568952971016654,-0.4211010024941719,,-1.2880977842905286,0.14819152112349412,0.14666873205000003,4.538109756892076,-1.1810859039724673,-0.1631717882463461,0.8760142266781396,,0.0238237442897226,0.039426987802551904,0.09203306007999999,-0.11742376536589094,,-9.678304e-06,1.5497208e-06,-1.4305115e-06,1.0,-1.0438263e-05,-1.12354755e-05,1.0427088e-05,1.0,-1.1324883e-06,1.1246651e-05,1.0430813e-06,1.0,513,1.592,0,3,0.522,False,-0.2636314318904893,1.0501909101696396
1.5938577290071407,14:57:42.783466,14:56:27.675598,0,,0.10273822,0.003424123,0.027169764,-0.57726943,0.6622734,-0.47765452,0.27310586,0.7078704,0.6514081,0.7695279,0.24558762,-0.58950293,,0.05527912,-0.029816736,0.082135975,-0.104293756,0.57232666,0.81336653,-0.30798057,-0.7962111,0.5207645,0.9456589,-0.19618851,0.25930527,,0.057344917,1.3212022,0.43254188,0.996735,0.07900728,-0.016649302,0.04144148,-0.6775554,-0.7343033,-0.06929614,0.73121583,-0.67861736,,-0.057190932,0.2950747,-0.0485156,0.51340574,-0.681489,0.5215241,0.7797615,0.62422836,0.048072062,-0.3583107,0.38198394,0.85188127,,-0.009317166,0.50281286,-0.33008566,0.018073672,-0.44539583,-0.8951513,0.6674929,-0.66119045,0.34246224,-0.74439675,-0.6036967,0.28534842,,1.2973650637395981,0.2916103933307175,0.20529863246000002,1.6397753580489804,-0.2924021094980425,-0.16775406080867422,-0.4219177228248433,,-1.2879664978316667,0.1481837983906199,0.14666743576000002,4.538109756892076,-1.1810859039724673,-0.16317178824634615,0.875687538545871,,0.0238237442897226,0.039426987802551904,0.09203306007999999,-0.11742376536589094,,-9.678304e-06,1.5497208e-06,-1.4305115e-06,1.0,-1.0438263e-05,-1.12354755e-05,1.0427088e-05,1.0,-1.1324883e-06,1.1246651e-05,1.0430813e-06,1.0,522,1.62,0,3,0.522,False,-0.2632143878608417,1.0508668329805522
1.640668004998588,14:57:42.806346,14:56:27.675598,0,,0.10225225,0.0031741709,0.026618421,-0.59311944,0.65195084,-0.472408,0.27612054,0.71589005,0.64129454,0.7562849,0.24992272,-0.6046255,,0.05527602,-0.02981748,0.08213526,-0.10427139,0.57245904,0.8132761,-0.30797625,-0.7961243,0.5208999,0.9456628,-0.19615468,0.25931668,,0.057344917,1.3212022,0.43254188,0.996735,0.07900728,-0.016649302,0.04144148,-0.6775554,-0.7343033,-0.06929614,0.73121583,-0.67861736,,-0.05666194,0.29453248,-0.048345942,0.5302536,-0.67156476,0.5175248,0.77317464,0.6334901,0.029855529,-0.34789672,0.38430604,0.8551472,,-0.0093139345,0.5028124,-0.33008584,0.018050643,-0.44554073,-0.8950797,0.6674946,-0.6611408,0.34255484,-0.74439585,-0.6036442,0.28546202,,1.297666250321693,0.2883436773249205,0.20559289029000002,1.6238389223441565,-0.27709882152431325,-0.1676543400410268,-0.420610970295769,,-1.2879433296330443,0.1481837983906199,0.14666613947,4.538109756892076,-1.1810859039724673,-0.16333514572662733,0.8760142266781398,,0.0238237442897226,0.039426987802551904,0.09203306007999999,-0.11742376536589094,,-9.678304e-06,1.5497208e-06,-1.4305115e-06,1.0,-1.0438263e-05,-1.12354755e-05,1.0427088e-05,1.0,-1.1324883e-06,1.1246651e-05,1.0430813e-06,1.0,535,1.661,0,3,0.522,False,-0.26339312101640555,1.0505771517758753
1.6635590530058835,14:57:42.846256,14:56:27.675598,0,,0.10132185,0.002831325,0.025649518,-0.6121591,0.64323556,-0.45990142,0.28367472,0.72154343,0.63158816,0.7380989,0.25616997,-0.62416923,,0.055274613,-0.029818136,0.08213568,-0.10426394,0.57245886,0.8132772,-0.30797482,-0.79612374,0.5209016,0.94566405,-0.19615754,0.25930983,,0.057344917,1.3212022,0.43254188,0.996735,0.07900728,-0.016649302,0.04144148,-0.6775554,-0.7343033,-0.06929614,0.73121583,-0.67861736,,-0.055656414,0.2936503,-0.047981746,0.55066377,-0.6633892,0.50664014,0.7663092,0.64241856,0.0082797,-0.3309677,0.38368368,0.8621179,,-0.009312529,0.5028127,-0.33008656,0.018042967,-0.44554028,-0.89508003,0.66749513,-0.6611429,0.34254968,-0.7443955,-0.6036422,0.285467,,1.2985466418693543,0.28249756853913255,0.20620603546000002,1.6060152771479719,-0.25387061656418836,-0.16119329548570355,-0.42044762622963483,,-1.28793560690017,0.1481837983906199,0.14666484318,4.538109756892076,-1.1810859039724673,-0.16333514572662733,0.8760142266781398,,0.0238237442897226,0.039426987802551904,0.09203306007999999,-0.11742376536589094,,-9.678304e-06,1.5497208e-06,-1.4305115e-06,1.0,-1.0438263e-05,-1.12354755e-05,1.0427088e-05,1.0,-1.1324883e-06,1.1246651e-05,1.0430813e-06,1.0,548,1.702,0,3,0.522,False,-0.2629164992682367,1.0507702725789931
1.7034677250048844,14:57:42.887147,14:56:27.675598,0,,0.100543685,0.0026623458,0.024676621,-0.6284275,0.63255185,-0.45272171,0.28782445,0.7297847,0.62013793,0.722659,0.25940737,-0.6406809,,0.055268854,-0.029819477,0.08213431,-0.10434158,0.57243145,0.8132866,-0.30801865,-0.79614246,0.52084696,0.9456412,-0.1961613,0.25939023,,0.057344917,1.3212022,0.43254188,0.996735,0.07900728,-0.016649302,0.04144148,-0.6775554,-0.7343033,-0.06929614,0.73121583,-0.67861736,,-0.054802746,0.29287544,-0.047480308,0.5681011,-0.653018,0.50082797,0.75893337,0.65105814,-0.011976499,-0.31824726,0.3868989,0.865464,,-0.009306536,0.50281185,-0.33008686,0.018127482,-0.44551063,-0.89509314,0.667467,-0.6611508,0.34258917,-0.7444187,-0.6036554,0.28537863,,1.299017728574682,0.27769402869136495,0.2069267727,1.5898691514996635,-0.2358345985951502,-0.16062653436734609,-0.42028428216350044,,-1.2878892705029246,0.1481837983906199,0.14666354689000002,4.538109756892076,-1.1812225404722327,-0.16330540656307124,0.8761775707442739,,0.0238237442897226,0.039426987802551904,0.09203306007999999,-0.11742376536589094,,-9.678304e-06,1.5497208e-06,-1.4305115e-06,1.0,-1.0438263e-05,-1.12354755e-05,1.0427088e-05,1.0,-1.1324883e-06,1.1246651e-05,1.0430813e-06,1.0,557,1.731,0,3,0.522,False,-0.26273776611267374,1.0507702725789931
1.7442993330041645,14:57:42.910137,14:56:27.824936,0,,0.1003018,0.0026137978,0.024183363,-0.63984483,0.62706333,-0.44428593,0.2914575,0.7329301,0.61470795,0.7110915,0.26382726,-0.6517241,,0.055268854,-0.029819477,0.08213431,-0.10434158,0.5724979,0.8132398,-0.30801865,-0.7960999,0.52091205,0.9456412,-0.1961402,0.25940627,,0.057344917,1.3212022,0.43254188,0.996735,0.07900728,-0.016649302,0.04144148,-0.6775554,-0.7343033,-0.06929614,0.73121583,-0.67861736,,-0.05452219,0.29249895,-0.047190983,0.58039534,-0.64790714,0.49331287,0.753721,0.65674835,-0.024212256,-0.30829513,0.38587293,0.86951494,,-0.009306536,0.50281185,-0.33008686,0.018127482,-0.44558373,-0.8950567,0.667467,-0.66112286,0.34264317,-0.7444187,-0.6036321,0.28542796,,1.298840105718575,0.2752150314387389,0.20746991821000002,1.5747714755687778,-0.21328957613385255,-0.1567121924188821,-0.4197942499650976,,-1.2878892705029246,0.1481837983906199,0.14666354689000002,4.538109756892076,-1.1812225404722327,-0.16338708530321183,0.8766676029426769,,0.0238237442897226,0.039426987802551904,0.09203306007999999,-0.11742376536589094,,-9.678304e-06,1.5497208e-06,-1.4305115e-06,1.0,-1.0438263e-05,-1.12354755e-05,1.0427088e-05,1.0,-1.1324883e-06,1.1246651e-05,1.0430813e-06,1.0,570,1.772,0,3,0.522,False,-0.2629164992682367,1.0507219923782136
1.767348295004922,14:57:42.955741,14:56:27.824936,0,,0.10006704,0.002608344,0.02339071,-0.6604101,0.61756545,-0.4271666,0.30075106,0.7387856,0.6031123,0.688046,0.26983067,-0.67363524,,0.05526434,-0.029818881,0.0821318,-0.104302466,0.5725002,0.8132432,-0.30801803,-0.79609334,0.5209224,0.9456458,-0.19616002,0.2593748,,0.057344917,1.3212022,0.43254188,0.996735,0.07900728,-0.016649302,0.04144148,-0.6775554,-0.7343033,-0.06929614,0.73121583,-0.67861736,,-0.054224968,0.29193452,-0.046665125,0.6027095,-0.6389325,0.47802356,0.7446169,0.66568553,-0.04907616,-0.286857,0.38552308,0.87697494,,-0.009301824,0.5028108,-0.33008486,0.018088313,-0.44558424,-0.89505726,0.66746455,-0.66113687,0.34262103,-0.7444219,-0.6036164,0.2854528,,1.298801492054204,0.27382493952137843,0.20786010150000003,1.5619803890162218,-0.1949802851652835,-0.1561232308874958,-0.42142769062644037,,-1.2878506568385535,0.14819152112349412,0.14666354689000002,4.538109756892076,-1.1812225404722327,-0.16338708530321183,0.8766676029426769,,0.0238237442897226,0.039426987802551904,0.09203306007999999,-0.11742376536589094,,-9.678304e-06,1.5497208e-06,-1.4305115e-06,1.0,-1.0438263e-05,-1.12354755e-05,1.0427088e-05,1.0,-1.1324883e-06,1.1246651e-05,1.0430813e-06,1.0,583,1.813,0,3,0.522,False,-0.2634526987349264,1.0513496349883464
1.8129379260062706,14:57:43.000635,14:56:27.824936,0,,0.09995231,0.0026298463,0.022392154,-0.6800914,0.61208403,-0.40352044,0.31669924,0.74168676,0.59127164,0.66119385,0.27432418,-0.6982615,,0.05524572,-0.029819507,0.08212286,-0.10414969,0.57250327,0.8132606,-0.30800232,-0.7960744,0.52096075,0.94566774,-0.19622815,0.25924316,,0.057344917,1.3212022,0.43254188,0.996735,0.07900728,-0.016649302,0.04144148,-0.6775554,-0.7343033,-0.06929614,0.73121583,-0.67861736,,-0.05403104,0.29123217,-0.045972418,0.6244295,-0.63383394,0.45644525,0.7372662,0.67126113,-0.07646622,-0.2579271,0.38426942,0.8864596,,-0.009282282,0.502806,-0.33008015,0.01793321,-0.44558078,-0.8950621,0.66746515,-0.6611858,0.34252536,-0.74442506,-0.60356534,0.28555244,,1.2979597141709134,0.2717784153097089,0.20858472761000002,1.5485602326332124,-0.1612310697232197,-0.15260553184709819,-0.42110100249417187,,-1.287696202181069,0.14820696658924257,0.14666095431,4.538109756892076,-1.1812225404722327,-0.16338708530321183,0.8766676029426769,,0.0238237442897226,0.039426987802551904,0.09203306007999999,-0.11742376536589094,,-9.678304e-06,1.5497208e-06,-1.4305115e-06,1.0,-1.0438263e-05,-1.12354755e-05,1.0427088e-05,1.0,-1.1324883e-06,1.1246651e-05,1.0430813e-06,1.0,592,1.842,0,3,0.522,False,-0.2635718541719685,1.051108233984449
1.8577979390101973,14:57:43.036559,14:56:27.824936,0,,0.0998459,0.00254035,0.02189076,-0.68827194,0.6085085,-0.39496714,0.3221491,0.7441859,0.5851556,0.6500013,0.2755079,-0.708233,,0.055247307,-0.02981766,0.08212674,-0.104250275,0.5727999,0.8130388,-0.3078629,-0.79592645,0.52126896,0.9457021,-0.19596195,0.25931934,,0.057344917,1.3212022,0.43254188,0.996735,0.07900728,-0.016649302,0.04144148,-0.6775554,-0.7343033,-0.06929614,0.73121583,-0.67861736,,-0.053884782,0.2908136,-0.04570014,0.6334629,-0.6303704,0.4487293,0.73337907,0.6740475,-0.08840264,-0.24673848,0.38508847,0.88928455,,-0.009284551,0.50280994,-0.3300806,0.01801157,-0.44592422,-0.8948895,0.66758096,-0.66093606,0.34278154,-0.7443193,-0.6035852,0.28578603,,1.2973110046094785,0.27026475966636093,0.20890361495,1.5422695343286767,-0.14825060224550288,-0.15216360277928231,-0.42159103469257475,,-1.287727093112566,0.14819924385636835,0.14665965802000003,4.537690377005107,-1.1812225404722327,-0.16338708530321183,0.8766676029426769,,0.0238237442897226,0.039426987802551904,0.09203306007999999,-0.11742376536589094,,-9.678304e-06,1.5497208e-06,-1.4305115e-06,1.0,-1.0438263e-05,-1.12354755e-05,1.0427088e-05,1.0,-1.1324883e-06,1.1246651e-05,1.0430813e-06,1.0,605,1.883,0,3,0.522,False,-0.2631548101423209,1.0508668329805522
1.8937663740071002,14:57:43.069086,14:56:27.955355,0,,0.09958242,0.0023951977,0.021345139,-0.69336104,0.6028608,-0.39472675,0.32486367,0.7504736,0.5755457,0.643206,0.2708286,-0.7161969,,0.055233747,-0.029817838,0.08212131,-0.104142234,0.5726711,0.8131434,-0.3078559,-0.7959962,0.5211667,0.94571626,-0.19605544,0.2591969,,0.057344917,1.3212022,0.43254188,0.996735,0.07900728,-0.016649302,0.04144148,-0.6775554,-0.7343033,-0.06929614,0.73121583,-0.67861736,,-0.053578276,0.29033414,-0.04544642,0.6390708,-0.62438315,0.4491483,0.7306188,0.6753063,-0.100784756,-0.24038437,0.39256477,0.8877546,,-0.009270488,0.50280756,-0.3300775,0.017902525,-0.44577727,-0.8949649,0.6675782,-0.66102844,0.34260875,-0.74432445,-0.6035926,0.28575712,,1.2967240769110375,0.26796338526984204,0.2092600947,1.5378660455155015,-0.1408722312581691,-0.15842520579931077,-0.42224441095711185,,-1.2876189748523268,0.1482146893221168,0.14665706544,4.537690377005107,-1.1812225404722327,-0.16322372782293065,0.8763409148104083,,0.0238237442897226,0.039426987802551904,0.09203306007999999,-0.11742376536589094,,-9.678304e-06,1.5497208e-06,-1.4305115e-06,1.0,-1.0438263e-05,-1.12354755e-05,1.0427088e-05,1.0,-1.1324883e-06,1.1246651e-05,1.0430813e-06,1.0,618,1.924,0,3,0.522,False,-0.2632143878608417,1.0505771517758753
1.9262593980092788,14:57:43.107770,14:56:27.955355,0,,0.099090345,0.0020580143,0.02054882,-0.69977045,0.59186286,-0.40002444,0.3306945,0.76474375,0.5529991,0.6332159,0.25468653,-0.7308711,,0.0552188,-0.029817123,0.08211213,-0.10401182,0.57267463,0.81315756,-0.30784452,-0.79597896,0.5211997,0.94573426,-0.19611508,0.2590859,,0.057344917,1.3212022,0.43254188,0.996735,0.07900728,-0.016649302,0.04144148,-0.6775554,-0.7343033,-0.06929614,0.73121583,-0.67861736,,-0.053023454,0.2895548,-0.04517297,0.6462419,-0.6121685,0.45565465,0.7277592,0.6740509,-0.12657776,-0.22964753,0.4134067,0.8811112,,-0.00925467,0.5028026,-0.33007166,0.01777045,-0.44577518,-0.89496857,0.6675771,-0.6610711,0.3425285,-0.74432856,-0.6035474,0.28584176,,1.2960367536852315,0.2638471686478804,0.20972416652000003,1.533252866758842,-0.12884821927881035,-0.17778639392104165,-0.42191772282484336,,-1.287487688393465,0.14823013478786523,0.14665706544,4.537690377005107,-1.1812225404722327,-0.16322372782293065,0.8763409148104083,,0.0238237442897226,0.039426987802551904,0.09203306007999999,-0.11742376536589094,,-9.678304e-06,1.5497208e-06,-1.4305115e-06,1.0,-1.0438263e-05,-1.12354755e-05,1.0427088e-05,1.0,-1.1324883e-06,1.1246651e-05,1.0430813e-06,1.0,627,1.952,0,3,0.522,False,-0.26381016504605226,1.0508668329805522
1.9649759980093222,14:57:43.138679,14:56:27.955355,0,,0.09874405,0.0018205345,0.020128578,-0.7023654,0.5845255,-0.40621734,0.33423722,0.7746755,0.53680843,0.62846494,0.24126267,-0.7394757,,0.05521456,-0.029817063,0.08211118,-0.10398016,0.5726771,0.8131598,-0.30784532,-0.795973,0.5212083,0.94573754,-0.19613206,0.2590613,,0.057344917,1.3212022,0.43254188,0.996735,0.07900728,-0.016649302,0.04144148,-0.6775554,-0.7343033,-0.06929614,0.73121583,-0.67861736,,-0.05264417,0.28910786,-0.045076568,0.64919865,-0.6038088,0.46255377,0.72690034,0.671571,-0.14355573,-0.2239575,0.4294267,0.8748919,,-0.009250378,0.50280255,-0.33007094,0.017738957,-0.4457761,-0.8949687,0.66757405,-0.661083,0.3425115,-0.7443321,-0.6035337,0.28586164,,1.29585140809625,0.2611982712720214,0.20995101727,1.5317850371544504,-0.12256294028960008,-0.1932031387487879,-0.4219177228248433,,-1.287456797461968,0.14823785752073945,0.14665576915,4.537690377005107,-1.1812225404722327,-0.16322372782293065,0.8763409148104083,,0.0238237442897226,0.039426987802551904,0.09203306007999999,-0.11742376536589094,,-9.678304e-06,1.5497208e-06,-1.4305115e-06,1.0,-1.0438263e-05,-1.12354755e-05,1.0427088e-05,1.0,-1.1324883e-06,1.1246651e-05,1.0430813e-06,1.0,640,1.993,0,3,0.522,False,-0.2623802998015474,1.0512047943860081
1.9958905420062365,14:57:43.179831,14:56:27.955355,0,,0.09840072,0.0016231984,0.019597396,-0.70477426,0.5738159,-0.4171672,0.340008,0.7893019,0.5112699,0.62264574,0.21848974,-0.7513819,,0.055215836,-0.02981754,0.08211017,-0.10386711,0.57276714,0.813111,-0.30778757,-0.79591227,0.5213352,0.9457687,-0.19611573,0.25895962,,0.057344917,1.3212022,0.43254188,0.996735,0.07900728,-0.016649302,0.04144148,-0.6775554,-0.7343033,-0.06929614,0.73121583,-0.67861736,,-0.052259102,0.28860784,-0.044874907,0.6520495,-0.5913538,0.47448093,0.7267847,0.66573536,-0.16905738,-0.21590601,0.4550793,0.8638793,,-0.00925146,0.5028013,-0.3300709,0.017616864,-0.44587395,-0.8949224,0.6676103,-0.6610541,0.34249672,-0.74430245,-0.6034931,0.28602433,,1.2955270533155325,0.25848759203316857,0.21028546009000001,1.5315753472109659,-0.11422811380390821,-0.21952084976786393,-0.4220810668909776,,-1.2874645201948423,0.14823013478786523,0.14665576915,4.537690377005107,-1.1810859039724673,-0.16333514572662716,0.8763409148104083,,0.0238237442897226,0.039426987802551904,0.09203306007999999,-0.11742376536589094,,-9.678304e-06,1.5497208e-06,-1.4305115e-06,1.0,-1.0438263e-05,-1.12354755e-05,1.0427088e-05,1.0,-1.1324883e-06,1.1246651e-05,1.0430813e-06,1.0,653,2.034,1,4,0.547,False,-0.2637505873275314,1.0505771517758753
2.037037287009298,14:57:43.221905,14:56:28.090710,0,,0.098262176,0.0016967207,0.019228667,-0.70100325,0.56058484,-0.44083896,0.34871942,0.80865216,0.4737892,0.6220846,0.17839867,-0.76235485,,0.055210404,-0.029814143,0.08210868,-0.10382247,0.5729114,0.81301504,-0.30780682,-0.7958098,0.5214802,0.9457673,-0.19611013,0.25896892,,0.057344917,1.3212022,0.43254188,0.996735,0.07900728,-0.016649302,0.04144148,-0.6775554,-0.7343033,-0.06929614,0.73121583,-0.67861736,,-0.052091777,0.28839922,-0.044576492,0.6483137,-0.5750164,0.49904457,0.7321301,0.6507356,-0.2013173,-0.20898534,0.4958823,0.8428676,,-0.009246306,0.5028026,-0.33006704,0.017575327,-0.44602874,-0.8948461,0.6675919,-0.6610226,0.34259325,-0.7443199,-0.60341316,0.28614748,,1.2953803213909223,0.25756858682113587,0.21063156952000003,1.539543565063378,-0.10917256331258691,-0.26505443345589663,-0.42355116348618604,,-1.2874259065304712,0.14826102571936214,0.14665576915,4.537690377005107,-1.1810859039724673,-0.16349850320690829,0.8763409148104081,,0.0238237442897226,0.039426987802551904,0.09203306007999999,-0.11742376536589094,,-9.678304e-06,1.5497208e-06,-1.4305115e-06,1.0,-1.0438263e-05,-1.12354755e-05,1.0427088e-05,1.0,-1.1324883e-06,1.1246651e-05,1.0430813e-06,1.0,662,2.063,1,4,0.576,False,-0.26202283349042155,1.0510116735828905
2.079072263004491,14:57:43.252293,14:56:28.090710,0,,0.098197445,0.0018066317,0.019113958,-0.695532,0.5577811,-0.45289668,0.3538841,0.8145274,0.45968583,0.6253009,0.15945324,-0.76391995,,0.05521109,-0.029814053,0.08211237,-0.103957884,0.57282186,0.8130608,-0.30786902,-0.79587233,0.52134806,0.94573224,-0.19611785,0.2590912,,0.057344917,1.3212022,0.43254188,0.996735,0.07900728,-0.016649302,0.04144148,-0.6775554,-0.7343033,-0.06929614,0.73121583,-0.67861736,,-0.05201839,0.28839535,-0.044421494,0.64259076,-0.5707256,0.51122344,0.7376791,0.6411986,-0.21140929,-0.20713903,0.51296854,0.83304065,,-0.009247472,0.5028057,-0.33006886,0.01772045,-0.44593224,-0.8948913,0.667554,-0.66104525,0.34262344,-0.7443505,-0.6034597,0.28596982,,1.2955270533155325,0.2574604685608967,0.21080008722000002,1.5477214728592743,-0.10930919981235236,-0.2843008769655134,-0.4201209380973663,,-1.2874413519962196,0.14826874845223637,0.14665447286000002,4.537690377005107,-1.1812225404722327,-0.16338708530321178,0.8763409148104081,,0.0238237442897226,0.039426987802551904,0.09203306007999999,-0.11742376536589094,,-9.678304e-06,1.5497208e-06,-1.4305115e-06,1.0,-1.0438263e-05,-1.12354755e-05,1.0427088e-05,1.0,-1.1324883e-06,1.1246651e-05,1.0430813e-06,1.0,671,2.091,1,4,0.604,False,-0.26470383082386784,1.0509151131813312
2.10942906299897,14:57:43.281968,14:56:28.090710,0,,0.09799788,0.0020811409,0.018892571,-0.6871417,0.5568634,-0.4666254,0.3599522,0.81884265,0.44713655,0.6310869,0.1392833,-0.7631053,,0.055210553,-0.029815037,0.08211148,-0.103952274,0.57281864,0.81306374,-0.30786088,-0.7958754,0.52134824,0.94573545,-0.1961151,0.2590814,,0.057344917,1.3212022,0.43254188,0.996735,0.07900728,-0.016649302,0.04144148,-0.6775554,-0.7343033,-0.06929614,0.73121583,-0.67861736,,-0.051802482,0.28843507,-0.044080924,0.633751,-0.56821346,0.52487445,0.74553686,0.62959075,-0.21860994,-0.20623899,0.5298575,0.8226278,,-0.009246706,0.5028045,-0.3300692,0.017713562,-0.44592908,-0.894893,0.66755986,-0.6610438,0.34261474,-0.74434537,-0.6034636,0.28597492,,1.2961525946783448,0.25722106384179577,0.21118119648000003,1.559254419750923,-0.11094883780953764,-0.30313851093587524,-0.4193042177666948,,-1.2874336292633453,0.14826102571936214,0.14665447286000002,4.537690377005107,-1.1812225404722327,-0.16338708530321178,0.8763409148104081,,0.0238237442897226,0.039426987802551904,0.09203306007999999,-0.11742376536589094,,-9.678304e-06,1.5497208e-06,-1.4305115e-06,1.0,-1.0438263e-05,-1.12354755e-05,1.0427088e-05,1.0,-1.1324883e-06,1.1246651e-05,1.0430813e-06,1.0,684,2.132,1,4,0.645,False,-0.2636910096090097,1.051108233984449
2.139175326010445,14:57:43.320425,14:56:28.214309,0,,0.09768246,0.002351433,0.018709034,-0.67038447,0.5667591,-0.47892457,0.38005045,0.81661475,0.43439817,0.63729614,0.10919824,-0.7628431,,0.055204257,-0.029811729,0.08210939,-0.10390017,0.5728299,0.8130625,-0.30787873,-0.7958575,0.521365,0.94573534,-0.19615471,0.2590518,,0.057344917,1.3212022,0.43254188,0.996735,0.07900728,-0.016649302,0.04144148,-0.6775554,-0.7343033,-0.06929614,0.73121583,-0.67861736,,-0.05147411,0.2885063,-0.04377541,0.61650246,-0.5756736,0.5371449,0.7628288,0.6056595,-0.22642614,-0.19497937,0.54934186,0.81253093,,-0.0092406375,0.5028055,-0.3300651,0.017664349,-0.44593725,-0.8948899,0.66754204,-0.66107047,0.34259814,-0.74436253,-0.6034284,0.28600448,,1.297635359390196,0.2565800770132351,0.21154804655,1.5854656626864887,-0.10493683181985826,-0.32266139318367837,-0.4197942499650977,,-1.2873872928661,0.14829191665085903,0.14665447286000002,4.537690377005107,-1.1812225404722327,-0.16338708530321178,0.8763409148104081,,0.0238237442897226,0.039426987802551904,0.09203306007999999,-0.11742376536589094,,-9.678304e-06,1.5497208e-06,-1.4305115e-06,1.0,-1.0438263e-05,-1.12354755e-05,1.0427088e-05,1.0,-1.1324883e-06,1.1246651e-05,1.0430813e-06,1.0,697,2.173,0,4,0.649,False,-0.26327396557936344,1.051108233984449
2.1776356440095697,14:57:43.359199,14:56:28.214309,0,,0.09723723,0.0025405884,0.018720105,-0.63650864,0.5755288,-0.51344264,0.40906388,0.81627697,0.4078708,0.6538529,0.04958242,-0.75499547,,0.055204675,-0.029811103,0.08211148,-0.10402812,0.5726074,0.81320286,-0.3079394,-0.79600453,0.5211046,0.9457015,-0.19620761,0.2591352,,0.057344917,1.3212022,0.43254188,0.996735,0.07900728,-0.016649302,0.04144148,-0.6775554,-0.7343033,-0.06929614,0.73121583,-0.67861736,,-0.051031634,0.2886707,-0.043668944,0.581343,-0.5796616,0.57099277,0.7927182,0.56168205,-0.23687798,-0.1834073,0.5903437,0.7860382,,-0.009241382,0.5028075,-0.33006567,0.017801793,-0.4456941,-0.8950083,0.66750467,-0.6611512,0.34251517,-0.74439275,-0.6035196,0.28573322,,1.2997127745333623,0.25549889441084367,0.21175026779000003,1.6326458999705067,-0.10411701282126563,-0.3672730628014794,-0.4201209380973663,,-1.2873950155989742,0.14829963938373325,0.14665447286000002,4.537690377005107,-1.1813591769719982,-0.16311230991923426,0.8763409148104083,,0.0238237442897226,0.039426987802551904,0.09203306007999999,-0.11742376536589094,,-9.678304e-06,1.5497208e-06,-1.4305115e-06,1.0,-1.0438263e-05,-1.12354755e-05,1.0427088e-05,1.0,-1.1324883e-06,1.1246651e-05,1.0430813e-06,1.0,706,2.202,0,4,0.649,False,-0.26422720907569985,1.05105995378367
2.2164059979986632,14:57:43.388913,14:56:28.214309,0,,0.09684372,0.0027241856,0.018862516,-0.6066777,0.5789151,-0.54479295,0.42758995,0.8153787,0.3902874,0.67015594,0.0038306713,-0.7422106,,0.055203833,-0.029811192,0.08211088,-0.10402067,0.5724744,0.8132975,-0.30793798,-0.79608905,0.5209763,0.9457029,-0.19625282,0.25909626,,0.057344917,1.3212022,0.43254188,0.996735,0.07900728,-0.016649302,0.04144148,-0.6775554,-0.7343033,-0.06929614,0.73121583,-0.67861736,,-0.050651193,0.28892338,-0.04365363,0.5502617,-0.5793874,0.6012673,0.81546926,0.52769303,-0.23780239,-0.17950481,0.6211685,0.7628419,,-0.009240469,0.5028071,-0.3300654,0.017794117,-0.44554743,-0.89508146,0.66750526,-0.66120917,0.34240204,-0.74439245,-0.6035643,0.2856396,,1.3017052396149122,0.2548192939179119,0.21184619325,1.670390089797721,-0.10903592681282148,-0.4026311710161593,-0.4204476262296348,,-1.2873872928661,0.14829963938373325,0.14665447286000002,4.537690377005107,-1.1813591769719982,-0.16294895243895324,0.8763409148104084,,0.0238237442897226,0.039426987802551904,0.09203306007999999,-0.11742376536589094,,-9.678304e-06,1.5497208e-06,-1.4305115e-06,1.0,-1.0438263e-05,-1.12354755e-05,1.0427088e-05,1.0,-1.1324883e-06,1.1246651e-05,1.0430813e-06,1.0,719,2.243,0,4,0.649,False,-0.2634526987349264,1.0507219923782136
2.2461066340038087,14:57:43.430369,14:56:28.214309,0,,0.096327014,0.003041789,0.019208685,-0.55954105,0.5901264,-0.58194894,0.4597985,0.80522,0.3744407,0.6895644,-0.05806437,-0.7218931,,0.055197872,-0.029805947,0.08211678,-0.10411335,0.5720069,0.8136145,-0.3080408,-0.7963793,0.5204717,0.94565916,-0.19643834,0.2591151,,0.057344917,1.3212022,0.43254188,0.996735,0.07900728,-0.016649302,0.04144148,-0.6775554,-0.7343033,-0.06929614,0.73121583,-0.67861736,,-0.050164517,0.28942314,-0.04368675,0.5016484,-0.58560324,0.63672423,0.84882706,0.47517893,-0.2317274,-0.16685762,0.65671444,0.7354486,,-0.009235968,0.5028157,-0.3300637,0.017903008,-0.44502932,-0.89533705,0.66743255,-0.6614325,0.3421124,-0.74445504,-0.6037019,0.28518543,,1.3052113603398101,0.2544022663427038,0.21189804485000002,1.7299420337473261,-0.10985574581141411,-0.4435371423255269,-0.4219177228248433,,-1.2873718474003515,0.14836142124672705,0.14665058399000003,4.537690377005107,-1.1814958134717635,-0.16234746209441342,0.8760142266781396,,0.0238237442897226,0.039426987802551904,0.09203306007999999,-0.11742376536589094,,-9.678304e-06,1.5497208e-06,-1.4305115e-06,1.0,-1.0438263e-05,-1.12354755e-05,1.0427088e-05,1.0,-1.1324883e-06,1.1246651e-05,1.0430813e-06,1.0,728,2.272,0,4,0.649,False,-0.26381016504605226,1.0514461953899055
2.2875781990005635,14:57:43.454683,14:56:28.214309,0,,0.09596383,0.0033474714,0.019576162,-0.5195098,0.59423226,-0.6140012,0.48594996,0.7965276,0.35971686,0.7028245,-0.11149746,-0.7025712,,0.05518668,-0.029807407,0.08212054,-0.104170516,0.5717889,0.81376034,-0.3081017,-0.7965136,0.52023005,0.94563305,-0.19652823,0.25914228,,0.057344917,1.3212022,0.43254188,0.996735,0.07900728,-0.016649302,0.04144148,-0.6775554,-0.7343033,-0.06929614,0.73121583,-0.67861736,,-0.049832534,0.289921,-0.043734983,0.46062306,-0.58541465,0.6671702,0.8739952,0.43022993,-0.22590849,-0.15478648,0.6871622,0.70982337,,-0.00922525,0.5028201,-0.33006647,0.017969787,-0.44478747,-0.89545584,0.6673896,-0.661539,0.34199017,-0.74449193,-0.6037634,0.2849588,,1.3083004534895,0.2545567210001883,0.21189415598000003,1.7790094805227048,-0.1087626538132906,-0.4810205611380701,-0.42191772282484324,,-1.2873100655373577,0.14838458944534974,0.14664280625,4.537690377005107,-1.1816324499715292,-0.1620726867104358,0.8766676029426765,,0.0238237442897226,0.039426987802551904,0.09203306007999999,-0.11742376536589094,,-9.678304e-06,1.5497208e-06,-1.4305115e-06,1.0,-1.0438263e-05,-1.12354755e-05,1.0427088e-05,1.0,-1.1324883e-06,1.1246651e-05,1.0430813e-06,1.0,741,2.313,1,5,0.687,False,-0.264167631357179,1.0508185527797727
2.311889879012597,14:57:43.495526,14:56:28.214309,0,,0.09553838,0.0038948208,0.0201689,-0.4610437,0.59439266,-0.65889,0.5176113,0.7832463,0.3443889,0.7207754,-0.18227068,-0.6687752,,0.055180177,-0.029795943,0.08211243,-0.104017794,0.5711074,0.8142582,-0.30810648,-0.79692763,0.51959276,0.9456483,-0.19683135,0.25885653,,0.05738471,1.3212022,0.43254238,0.99673575,0.07899508,-0.016662527,0.04142353,-0.6775568,-0.734303,-0.06929614,0.73121583,-0.67861736,,-0.04949368,0.29074878,-0.04376358,0.40084314,-0.5798853,0.7092657,0.9052396,0.36980394,-0.20925191,-0.14094715,0.72593254,0.6731685,,-0.009256973,0.50281626,-0.33005178,0.017816348,-0.4440452,-0.89582723,0.6673731,-0.661883,0.34135613,-0.7445104,-0.60393274,0.28455147,,1.3125016201730781,0.25549889441084367,0.21185915615000003,1.8469490222116904,-0.11040229181047588,-0.5323663336843758,-0.4227344431555148,,-1.2870552153525083,0.1483768667124755,0.14662206561000002,4.537690377005107,-1.1817690864712944,-0.16122616014547442,0.876830947008811,,0.0238237442897226,0.039426987802551904,0.09203306007999999,-0.11742376536589094,,2.9943883e-05,5.00679e-06,-2.3841858e-06,1.0,-2.266094e-05,-2.4408102e-05,2.2649765e-05,1.0,-2.3543835e-06,2.4415553e-05,2.2947788e-06,1.0,750,2.341,0,5,0.709,False,-0.26381016504605226,1.0512530745867876
2.3527000840113033,14:57:43.530297,14:56:28.429599,0,,0.09528853,0.0043059736,0.020693898,-0.41438937,0.5876412,-0.69495267,0.54011005,0.7733836,0.331902,0.7325043,-0.2378143,-0.63787293,,0.055128664,-0.029806016,0.08211267,-0.103801094,0.5703606,0.8148092,-0.30813512,-0.79736894,0.51889825,0.94566274,-0.19720909,0.2585159,,0.05738471,1.3212022,0.43254238,0.99673575,0.07899508,-0.016662527,0.04142353,-0.6775568,-0.734303,-0.06929614,0.73121583,-0.67861736,,-0.049287498,0.29142642,-0.043836854,0.3533473,-0.56870294,0.7427803,0.9263966,0.32316974,-0.19326326,-0.13013473,0.75639826,0.6410356,,-0.009205091,0.50282013,-0.33005872,0.017604418,-0.44320974,-0.89624506,0.6673344,-0.6622978,0.34062654,-0.7445501,-0.6040917,0.28410974,,1.3158146725761204,0.25658779974610935,0.2117878602,1.8993715080828215,-0.1114953838085994,-0.5759082250912703,-0.42110100249417187,,-1.2867154151060425,0.14842320310972085,0.14659354723,4.537690377005107,-1.1819057229710597,-0.16029795484037235,0.8761775707442739,,0.0238237442897226,0.039426987802551904,0.09203306007999999,-0.11742376536589094,,2.9943883e-05,5.00679e-06,-2.3841858e-06,1.0,-2.266094e-05,-2.4408102e-05,2.2649765e-05,1.0,-2.3543835e-06,2.4415553e-05,2.2947788e-06,1.0,763,2.382,0,5,0.709,False,-0.26458467538682573,1.051108233984449
2.3875026800087653,14:57:43.571286,14:56:28.429599,0,,0.0951063,0.0048307776,0.021435067,-0.3468664,0.5724735,-0.7429386,0.5725466,0.7566442,0.3157214,0.7428824,-0.31585386,-0.5902223,,0.055055834,-0.029812096,0.08209491,-0.10326083,0.57004726,0.8150971,-0.3081,-0.79750395,0.51871157,0.9457333,-0.19756883,0.25798243,,0.05738471,1.3212022,0.43254238,0.99673575,0.07899508,-0.016662527,0.04142353,-0.6775568,-0.734303,-0.06929614,0.73121583,-0.67861736,,-0.04916623,0.29233474,-0.043971773,0.28513265,-0.5473209,0.786854,0.9521477,0.2560095,-0.16695479,-0.11006426,0.7968055,0.594127,,-0.009130385,0.50281435,-0.33005226,0.017059192,-0.44283938,-0.89643866,0.6673204,-0.66261774,0.34003127,-0.7445754,-0.6040124,0.28421202,,1.3199926710610759,0.25858798756053347,0.21161415734000003,1.9744405078502814,-0.10862601731352516,-0.6382001963320678,-0.421754378758709,,-1.2861748238048467,0.1485004304384631,0.14656891772000002,4.537690377005107,-1.1819057229710597,-0.15988956113966957,0.8766676029426769,,0.0238237442897226,0.039426987802551904,0.09203306007999999,-0.11742376536589094,,2.9943883e-05,5.00679e-06,-2.3841858e-06,1.0,-2.266094e-05,-2.4408102e-05,2.2649765e-05,1.0,-2.3543835e-06,2.4415553e-05,2.2947788e-06,1.0,772,2.411,0,5,0.709,False,-0.26386974276457353,1.051108233984449
2.4284825089998776,14:57:43.594094,14:56:28.429599,0,,0.095061034,0.00511007,0.021845207,-0.31601796,0.55841136,-0.7670132,0.586129,0.7506234,0.30498737,0.7460466,-0.35318726,-0.56451166,,0.055024005,-0.02981588,0.08208257,-0.103011124,0.57004803,0.81512815,-0.30806538,-0.7974775,0.51877284,0.9457718,-0.19767329,0.2577611,,0.05738471,1.3212022,0.43254238,0.99673575,0.07899508,-0.016662527,0.04142353,-0.6775568,-0.734303,-0.06929614,0.73121583,-0.67861736,,-0.049154483,0.29282644,-0.04405156,0.25409696,-0.53031236,0.8088285,0.96192056,0.22565031,-0.15424275,-0.100715555,0.81722134,0.5674554,,-0.009097016,0.5028074,-0.33004802,0.016804298,-0.44283,-0.89644814,0.66732806,-0.66269344,0.33986855,-0.7445743,-0.60393625,0.28437677,,1.3221009771357393,0.25990085214915165,0.21150008382000002,2.007990898807805,-0.10657646981704355,-0.672542960943739,-0.421754378758709,,-1.2859199736199973,0.14851587590421156,0.14656113998,4.537690377005107,-1.1819057229710597,-0.1598895611396695,0.8769942910749454,,0.0238237442897226,0.039426987802551904,0.09203306007999999,-0.11742376536589094,,2.9943883e-05,5.00679e-06,-2.3841858e-06,1.0,-2.266094e-05,-2.4408102e-05,2.2649765e-05,1.0,-2.3543835e-06,2.4415553e-05,2.2947788e-06,1.0,785,2.452,0,5,0.709,False,-0.2639888982016152,1.0511565141852286
2.451284916998702,14:57:43.635539,14:56:28.429599,0,,0.09516916,0.005868003,0.022847474,-0.23079723,0.51200426,-0.82739604,0.62182766,0.7316555,0.27930358,0.7483735,-0.45003536,-0.48724264,,0.054955512,-0.029828278,0.08205539,-0.102436244,0.5700257,0.8152162,-0.3080432,-0.79741985,0.51887465,0.94584155,-0.19797027,0.2572772,,0.05738471,1.3212022,0.43254238,0.99673575,0.07899508,-0.016662527,0.04142353,-0.6775568,-0.734303,-0.06929614,0.73121583,-0.67861736,,-0.04934402,0.2940667,-0.044180136,0.16887482,-0.47628546,0.8629215,0.98301685,0.1451887,-0.11224141,-0.07182749,0.86722106,0.49271536,,-0.009024635,0.5027897,-0.33004233,0.01622663,-0.44277677,-0.89648503,0.6673009,-0.6629132,0.33949324,-0.7446115,-0.6037341,0.28470847,,1.326842735120513,0.26415607796284934,0.21122397405,2.099835094054027,-0.09783173383205536,-0.7663348500694465,-0.42093765842803765,,-1.2853639368530532,0.14853132136996,0.14654299192,4.537900066948591,-1.1819057229710597,-0.1600529186199507,0.8763409148104083,,0.0238237442897226,0.039426987802551904,0.09203306007999999,-0.11742376536589094,,2.9943883e-05,5.00679e-06,-2.3841858e-06,1.0,-2.266094e-05,-2.4408102e-05,2.2649765e-05,1.0,-2.3543835e-06,2.4415553e-05,2.2947788e-06,1.0,798,2.493,0,5,0.709,False,-0.26381016504605226,1.0511565141852286
2.4927388210053323,14:57:43.675208,14:56:28.429599,0,,0.09541088,0.006301135,0.023398742,-0.17968777,0.4846419,-0.8560575,0.6462449,0.71425474,0.268715,0.74167377,-0.504938,-0.44154024,,0.054942742,-0.029832004,0.08205187,-0.10230308,0.56967664,0.81547683,-0.30810013,-0.7976122,0.51854503,0.9458374,-0.19819975,0.2571156,,0.05738471,1.3212022,0.43254238,0.99673575,0.07899508,-0.016662527,0.04142353,-0.6775568,-0.734303,-0.06929614,0.73121583,-0.67861736,,-0.04962999,0.29474914,-0.04422939,0.11840254,-0.44459048,0.88787395,0.9918633,0.095076896,-0.084661625,-0.046776544,0.8906737,0.45223033,,-0.009011177,0.502787,-0.3300433,0.016102664,-0.4423812,-0.89668256,0.6672464,-0.6631451,0.3391472,-0.744663,-0.60376936,0.28449884,,1.3291904459142772,0.2673841803042752,0.21103990087000002,2.155822308964395,-0.08457799335480763,-0.8168382544363125,-0.42093765842803754,,-1.2852635413256883,0.14853904410283422,0.14653780676000003,4.538109756892076,-1.1819057229710597,-0.15980788239952892,0.8765042588765423,,0.0238237442897226,0.039426987802551904,0.09203306007999999,-0.11742376536589094,,2.9943883e-05,5.00679e-06,-2.3841858e-06,1.0,-2.266094e-05,-2.4408102e-05,2.2649765e-05,1.0,-2.3543835e-06,2.4415553e-05,2.2947788e-06,1.0,807,2.522,0,5,0.709,False,-0.2641080536386573,1.0506737121774343
2.5324174770066747,14:57:43.705504,14:56:28.611771,0,,0.09574398,0.0067281574,0.023951113,-0.12366357,0.4503039,-0.88427013,0.6745282,0.691728,0.25792256,0.72781795,-0.5645696,-0.3892843,,0.054945588,-0.029834269,0.082057476,-0.10234219,0.56967443,0.81547344,-0.3081008,-0.7976186,0.51853466,0.94583297,-0.19817999,0.25714713,,0.05738471,1.3212022,0.43254238,0.99673575,0.07899508,-0.016662527,0.04142353,-0.6775568,-0.734303,-0.06929614,0.73121583,-0.67861736,,-0.0500071,0.29542273,-0.04427897,0.06359224,-0.4055526,0.91185695,0.9978811,0.038435586,-0.0524971,-0.0137574235,0.91326326,0.40713748,,-0.009014424,0.50279015,-0.3300482,0.016141836,-0.44238076,-0.896682,0.6672489,-0.6631312,0.3391694,-0.74465984,-0.6037849,0.28447393,,1.3314609293792992,0.27114515121402255,0.21083119818,2.2176808422923298,-0.064219154889757,-0.8720735661735654,-0.4211010024941719,,-1.2853021549900594,0.14853132136996,0.14653391789,4.538109756892076,-1.1819057229710597,-0.15980788239952892,0.8765042588765423,,0.0238237442897226,0.039426987802551904,0.09203306007999999,-0.11742376536589094,,2.9943883e-05,5.00679e-06,-2.3841858e-06,1.0,-2.266094e-05,-2.4408102e-05,2.2649765e-05,1.0,-2.3543835e-06,2.4415553e-05,2.2947788e-06,1.0,820,2.563,0,5,0.709,False,-0.26434636451274196,1.0506737121774343
2.562709513003938,14:57:43.753532,14:56:28.611771,0,,0.0963751,0.007570103,0.024960428,-0.032462314,0.3811918,-0.9239258,0.7123419,0.65725476,0.24614081,0.7010816,-0.65016085,-0.29287496,,0.054943502,-0.029830186,0.08206028,-0.102332965,0.5696896,0.8154641,-0.30813396,-0.79760087,0.5185424,0.94582313,-0.19820812,0.25716156,,0.05738471,1.3212022,0.43254238,0.99673575,0.07899508,-0.016662527,0.04142353,-0.6775568,-0.734303,-0.06929614,0.73121583,-0.67861736,,-0.050718747,0.29669455,-0.044323605,-0.025279464,-0.32975248,0.9437289,0.9990004,-0.043148674,0.01168324,0.036868073,0.94308084,0.33051363,,-0.009013201,0.5027949,-0.33004606,0.016137885,-0.44239423,-0.89667547,0.66722244,-0.66314876,0.33918712,-0.7446837,-0.6037558,0.28447354,,1.3353377412821599,0.2784045201157936,0.21050323681000002,2.316235115730056,-0.0321095774448785,-0.9633547294342524,-0.42028428216350044,,-1.2853021549900594,0.1485699350343311,0.14653262160000002,4.538109756892076,-1.1819057229710597,-0.15980788239952892,0.8765042588765423,,0.0238237442897226,0.039426987802551904,0.09203306007999999,-0.11742376536589094,,2.9943883e-05,5.00679e-06,-2.3841858e-06,1.0,-2.266094e-05,-2.4408102e-05,2.2649765e-05,1.0,-2.3543835e-06,2.4415553e-05,2.2947788e-06,1.0,829,2.591,0,5,0.709,False,-0.26428678679422024,1.0512530745867876
2.6107425080117537,14:57:43.775592,14:56:28.611771,0,,0.09664012,0.007882044,0.025351122,-0.0014158303,0.35331485,-0.93550336,0.7271272,0.64258933,0.24158849,0.6865013,-0.67988795,-0.25781468,,0.054942578,-0.029827384,0.08206129,-0.10232745,0.5696987,0.81545836,-0.30815384,-0.79759014,0.518547,0.94581735,-0.19822502,0.2571702,,0.05738471,1.3212022,0.43254238,0.99673575,0.07899508,-0.016662527,0.04142353,-0.6775568,-0.734303,-0.06929614,0.73121583,-0.67861736,,-0.05101483,0.297176,-0.044349905,-0.055100825,-0.29955843,0.9524855,0.9967218,-0.07310031,0.03466969,0.059241395,0.9512734,0.3026043,,-0.009012761,0.50279737,-0.33004415,0.016135516,-0.44240233,-0.89667153,0.6672066,-0.6631593,0.33919773,-0.7446979,-0.60373825,0.2844733,,1.3368359514597594,0.281447276868238,0.21036712636000002,2.350624266461518,-0.01530328797372933,-0.9959269205613822,-0.4227344431555149,,-1.2853021549900594,0.1485931032329538,0.14653262160000002,4.538109756892076,-1.1819057229710597,-0.15980788239952892,0.8765042588765423,,0.0238237442897226,0.039426987802551904,0.09203306007999999,-0.11742376536589094,,2.9943883e-05,5.00679e-06,-2.3841858e-06,1.0,-2.266094e-05,-2.4408102e-05,2.2649765e-05,1.0,-2.3543835e-06,2.4415553e-05,2.2947788e-06,1.0,842,2.632,0,5,0.709,False,-0.26381016504605226,1.051108233984449
