AlexandreBanks6/ExpertPlaybackApp/resources/Motions/P_18/PC1/Data_PC1_4.csv
Task Time,PC1 Time,PC2 Time,Gaze Calib,s_T_psm1,Tx,Ty,Tz,R00,R01,R02,R10,R11,R12,R20,R21,R22,s_T_psm3,Tx,Ty,Tz,R00,R01,R02,R10,R11,R12,R20,R21,R22,cart_T_ecm,Tx,Ty,Tz,R00,R01,R02,R10,R11,R12,R20,R21,R22,ecm_T_psm1,Tx,Ty,Tz,R00,R01,R02,R10,R11,R12,R20,R21,R22,ecm_T_psm3,Tx,Ty,Tz,R00,R01,R02,R10,R11,R12,R20,R21,R22,psm1_joints,q1,q2,q3,q4,q5,q6,jaw,psm3_joints,q1,q2,q3,q4,q5,q6,jaw,ecm_joints,q1,q2,q3,q4,ecmi_T_ecm,Tx,Ty,Tz,R00,R01,R02,R10,R11,R12,R20,R21,R22,Sample #,Task Duration (s),Collisions (binary),Collisions (increments),Cumulative Collision Time (s),Clutch Press,MTMR Angle,MTML Angle
""
lci_T_si,,,,,-0.061933145,0.041470908,0.22871655,0.9965997,-0.04256333,0.070550956,0.023269607,-0.675999,-0.736535,0.07904176,0.7356723,-0.67270994
rci_T_si,,,,,-0.06965578,0.045405455,0.23502894,0.9935603,-0.07420648,0.085622914,0.015257377,-0.66118264,-0.7500698,0.11227242,0.746546,-0.65579265
ecm_T_lc,,,,,-4.4061628e-05,-0.00034663224,-0.01840835,-0.99912,0.030754527,0.028518902,-0.031987965,-0.99852574,-0.043852776,0.027128186,-0.04472645,0.9986309
ecm_T_rc,,,,,-0.0043358393,0.01870579,-0.007592615,-0.99555075,-0.052743673,-0.078081585,0.04863213,-0.9973746,0.053654674,-0.08070653,0.04961868,0.9955021
cart_T_ecmi,,,,,0.057416808,1.3231583,0.43427226,0.9967625,0.07866208,-0.016636588,0.041257214,-0.6780042,-0.7338993,-0.06900972,0.73083687,-0.67905456
ecmac_T_ecmrep_psm1,,,,,-0.0033900698,-0.29259828,-0.274185,0.99793226,0.043159027,0.047628522,-0.040498573,0.99763834,-0.055476554,-0.049910355,0.053432956,0.99732333
ecmac_T_ecmrep_psm3,,,,,-0.030876445,-0.5082754,-0.4984752,0.99144465,-0.07732987,0.105155215,0.05830459,0.98314613,0.17327517,-0.116782285,-0.16566171,0.97924364
""
0,14:33:47.672514,14:32:32.495586,0,,0.087575935,-0.015579551,0.038162038,-0.79007614,0.040168107,-0.6116912,-0.4602868,0.62016344,0.6352428,0.40486497,0.78344345,-0.4714875,,0.038186952,-0.007199917,0.027970254,0.6894272,0.5496823,0.47174084,0.083502054,-0.7072255,0.7020396,0.7195258,-0.4446138,-0.5334801,,0.05738795,1.3231593,0.4342771,0.99676126,0.078682825,-0.016614135,0.04128771,-0.6780018,-0.7338998,-0.06900972,0.73083687,-0.67905456,,-0.04656459,0.28034037,-0.08111254,0.7531452,-0.056633644,0.655412,-0.009294724,0.995272,0.09668141,-0.65778863,-0.07890701,0.74905795,,0.0102371685,0.46044263,-0.29592034,-0.76068854,-0.4453415,-0.47225404,0.5728108,-0.802779,-0.16563088,-0.3053533,-0.39650574,0.8657613,,1.2975195183970825,0.15903423807890532,0.17709265835000002,0.6366186684190159,-0.37178791586176346,0.2793179238369185,0.8706238724957083,,-1.0896158266900846,0.08955281040950741,0.18396688422000002,4.538109756892076,-0.45226681422360787,-0.33388894019410204,-0.16024052887772788,,0.0238237442897226,0.038864119118783735,0.08941844392,-0.11709667966849292,,-2.9049814e-05,5.9604645e-07,-3.5762787e-06,1.0,2.0772219e-05,2.2359192e-05,-2.0772219e-05,1.0,2.1457672e-06,-2.2362918e-05,-2.0563602e-06,1.0,38,0.115,0,0,0.0,False,1.0447548445499213,0.006372969317746335
0.13139408500865102,14:33:47.714080,14:32:32.572050,0,,0.08757704,-0.0155878365,0.03816898,-0.7900438,0.039973147,-0.61174583,-0.46044034,0.6201339,0.63516045,0.40475363,0.7834769,-0.47152764,,0.038117837,-0.0070201494,0.027698815,0.6864634,0.548578,0.47731528,0.08124223,-0.7101561,0.6993413,0.72261155,-0.441294,-0.5320639,,0.05738795,1.3231593,0.4342771,0.99676126,0.078682825,-0.016614135,0.04128771,-0.6780018,-0.7338998,-0.06900972,0.73083687,-0.67905456,,-0.04656631,0.28033975,-0.08112324,0.753113,-0.05644167,0.65546566,-0.0094813,0.9952785,0.09659647,-0.6578229,-0.07896272,0.74902195,,0.010317765,0.46030828,-0.29562673,-0.757868,-0.4443347,-0.47770572,0.5746973,-0.80125827,-0.16645783,-0.30880266,-0.40068924,0.862606,,1.2975195183970825,0.15901879261315688,0.17708228803,0.6364089784755314,-0.37178791586176346,0.2793179238369185,0.8706238724957083,,-1.0886041486835611,0.09006251077920623,0.18427540124000003,4.537900066948591,-0.45800554721375636,-0.32888267327829007,-0.16122059327453364,,0.0238237442897226,0.038864119118783735,0.08941844392,-0.11709667966849292,,-2.9049814e-05,5.9604645e-07,-3.5762787e-06,1.0,2.0772219e-05,2.2359192e-05,-2.0772219e-05,1.0,2.1457672e-06,-2.2362918e-05,-2.0563602e-06,1.0,49,0.149,0,0,0.0,False,1.045886821201821,0.006083288113070129
0.1729947210114915,14:33:47.741558,14:32:32.572050,0,,0.08757962,-0.015593663,0.03817211,-0.790046,0.040165164,-0.6117304,-0.46043614,0.6199382,0.63535446,0.4047541,0.7836219,-0.47128624,,0.03814891,-0.006821636,0.027561665,0.6839476,0.5471525,0.4825345,0.07933438,-0.71329194,0.6963625,0.7252044,-0.43799382,-0.53126234,,0.05738795,1.3231593,0.4342771,0.99676126,0.078682825,-0.016614135,0.04128771,-0.6780018,-0.7338998,-0.06900972,0.73083687,-0.67905456,,-0.04656925,0.28033802,-0.08112947,0.7531153,-0.056647133,0.6554453,-0.009478037,0.9952485,0.096905164,-0.6578203,-0.07919309,0.74899995,,0.010284396,0.46028596,-0.29538682,-0.755472,-0.44299072,-0.48272276,0.5762812,-0.79981685,-0.16790764,-0.31170827,-0.40503356,0.85952646,,1.297504072931334,0.15901106988028266,0.17707580658000002,0.6364089784755314,-0.37178791586176346,0.27964463879748075,0.8712772487602454,,-1.088457416758951,0.09079617040225756,0.18449317796000003,4.537690377005107,-0.4621046422067196,-0.3234981676638834,-0.16138393734066792,,0.0238237442897226,0.038864119118783735,0.08941844392,-0.11709667966849292,,-2.9049814e-05,5.9604645e-07,-3.5762787e-06,1.0,2.0772219e-05,2.2359192e-05,-2.0772219e-05,1.0,2.1457672e-06,-2.2362918e-05,-2.0563602e-06,1.0,57,0.172,0,0,0.0,False,1.0463038652314682,0.005986727711510653
0.2004484200006118,14:33:47.768972,14:32:32.572050,0,,0.087582186,-0.015600994,0.038174108,-0.7900475,0.040253315,-0.6117226,-0.46043053,0.61985433,0.63544035,0.40475744,0.78368366,-0.47118056,,0.038193785,-0.006585229,0.027423322,0.6827548,0.54584295,0.48569655,0.078051716,-0.7154323,0.6943088,0.7264664,-0.4361332,-0.5310688,,0.05738795,1.3231593,0.4342771,0.99676126,0.078682825,-0.016614135,0.04128771,-0.6780018,-0.7338998,-0.06900972,0.73083687,-0.67905456,,-0.046572156,0.28033447,-0.08113604,0.75311685,-0.056741025,0.6554353,-0.00947176,0.9952353,0.09704087,-0.65781856,-0.07929125,0.7489911,,0.010234416,0.46027976,-0.29511383,-0.7543089,-0.44170135,-0.4857139,0.5768714,-0.79912704,-0.16916074,-0.31342858,-0.4077939,0.85759354,,1.2974809047327114,0.15899562441453421,0.17706932513,0.6364089784755314,-0.37178791586176346,0.2798079962777619,0.8719306250247827,,-1.0885037531561963,0.09173062108003872,0.18472132500000002,4.537690377005107,-0.46401755320343574,-0.3195696335480572,-0.16187396953907085,,0.0238237442897226,0.038864119118783735,0.08941844392,-0.11709667966849292,,-2.9049814e-05,5.9604645e-07,-3.5762787e-06,1.0,2.0772219e-05,2.2359192e-05,-2.0772219e-05,1.0,2.1457672e-06,-2.2362918e-05,-2.0563602e-06,1.0,68,0.206,0,0,0.0,False,1.0460059766388632,0.00617984851462916
0.22786486901168246,14:33:47.806914,14:32:32.667896,0,,0.087584466,-0.015617698,0.03818108,-0.790038,0.040037762,-0.61174905,-0.46042788,0.6201027,0.6351999,0.4047792,0.7834983,-0.4714701,,0.038248777,-0.006254334,0.027231038,0.6814884,0.54512084,0.4882793,0.076521814,-0.71662533,0.6932479,0.7278171,-0.4350763,-0.5300855,,0.05738795,1.3231593,0.4342771,0.99676126,0.078682825,-0.016614135,0.04128771,-0.6780018,-0.7338998,-0.06900972,0.73083687,-0.67905456,,-0.046575356,0.28032812,-0.08115284,0.75310636,-0.056508288,0.6554675,-0.009454164,0.99527204,0.096665524,-0.6578309,-0.078996316,0.7490114,,0.010172084,0.46027327,-0.29473233,-0.75306153,-0.44099236,-0.48828685,0.5774233,-0.7987266,-0.16916887,-0.31540555,-0.40934277,0.8561296,,1.2974500138012146,0.15894928801728886,0.17705376965000003,0.6364089784755314,-0.37178791586176346,0.2794812813171996,0.8709505606279768,,-1.0885578122863158,0.09305120840153112,0.18503502718,4.537690377005107,-0.46606710069991736,-0.3166731838905024,-0.16171062547293635,,0.0238237442897226,0.038864119118783735,0.08941844392,-0.11709667966849292,,-2.9049814e-05,5.9604645e-07,-3.5762787e-06,1.0,2.0772219e-05,2.2359192e-05,-2.0772219e-05,1.0,2.1457672e-06,-2.2362918e-05,-2.0563602e-06,1.0,80,0.242,0,0,0.0,False,1.045886821201821,0.006324689116967264
0.2658344500086969,14:33:47.832922,14:32:32.667896,0,,0.087587684,-0.015632048,0.038189456,-0.79003257,0.040075965,-0.6117536,-0.46042514,0.62007916,0.6352248,0.4047929,0.7835149,-0.47143072,,0.038264196,-0.006086681,0.02713263,0.68143755,0.54517907,0.48828536,0.07613739,-0.716356,0.6935686,0.72790515,-0.43544686,-0.5296603,,0.05738795,1.3231593,0.4342771,0.99676126,0.078682825,-0.016614135,0.04128771,-0.6780018,-0.7338998,-0.06900972,0.73083687,-0.67905456,,-0.04657947,0.2803244,-0.081168815,0.75310034,-0.056548037,0.65547097,-0.009442349,0.9952677,0.09671133,-0.6578379,-0.07902252,0.74900246,,0.010152944,0.46027067,-0.29453826,-0.7529888,-0.44103566,-0.48835993,0.5773131,-0.79891706,-0.16864492,-0.31578064,-0.40892434,0.8561913,,1.297426845602592,0.15891839708579197,0.17703821417,0.6364089784755314,-0.37178791586176346,0.2795629600573402,0.8711139046941112,,-1.0885578122863158,0.0937385316273371,0.18518798940000003,4.537690377005107,-0.46620373719968283,-0.31648008724666543,-0.16187396953907074,,0.0238237442897226,0.038864119118783735,0.08941844392,-0.11709667966849292,,-2.9049814e-05,5.9604645e-07,-3.5762787e-06,1.0,2.0772219e-05,2.2359192e-05,-2.0772219e-05,1.0,2.1457672e-06,-2.2362918e-05,-2.0563602e-06,1.0,88,0.267,0,0,0.0,False,1.045886821201821,0.006372969317746335
0.2918200280109886,14:33:47.856194,14:32:32.667896,0,,0.087590456,-0.015654132,0.038198963,-0.7900188,0.040056363,-0.61177266,-0.46042252,0.6201322,0.635175,0.4048227,0.78347385,-0.47147328,,0.03828477,-0.005886946,0.026986301,0.6814169,0.54536074,0.4881111,0.075727224,-0.71586967,0.69411534,0.72796714,-0.4360186,-0.52910435,,0.05738795,1.3231593,0.4342771,0.99676126,0.078682825,-0.016614135,0.04128771,-0.6780018,-0.7338998,-0.06900972,0.73083687,-0.67905456,,-0.046583455,0.28031623,-0.081191264,0.75308526,-0.05652465,0.65549034,-0.009418965,0.9952742,0.09664644,-0.6578555,-0.07895705,0.74899393,,0.010130779,0.4602424,-0.29429242,-0.7529416,-0.44119918,-0.488285,0.57716405,-0.7991871,-0.16787355,-0.31616542,-0.40821955,0.8563856,,1.2973882319382208,0.15885661522279818,0.17701747353000002,0.6364089784755314,-0.37178791586176346,0.27956296005734016,0.8714405928263798,,-1.0885191986219447,0.09450308218188533,0.18539669209,4.537690377005107,-0.4663403736994482,-0.3165320268232502,-0.16154728140680208,,0.0238237442897226,0.038864119118783735,0.08941844392,-0.11709667966849292,,-2.9049814e-05,5.9604645e-07,-3.5762787e-06,1.0,2.0772219e-05,2.2359192e-05,-2.0772219e-05,1.0,2.1457672e-06,-2.2362918e-05,-2.0563602e-06,1.0,99,0.3,0,0,0.0,False,1.0451718885795684,0.0067592109239820175
0.3150533610023558,14:33:47.895018,14:32:32.758590,0,,0.08759385,-0.015680686,0.03820832,-0.79000366,0.039978936,-0.61179715,-0.46041715,0.62025326,0.63506067,0.4048582,0.783382,-0.47159535,,0.038291212,-0.005757544,0.026815176,0.6815676,0.5455766,0.4876593,0.075606614,-0.7153616,0.6946521,0.72783864,-0.43658203,-0.5288165,,0.05738795,1.3231593,0.4342771,0.99676126,0.078682825,-0.016614135,0.04128771,-0.6780018,-0.7338998,-0.06900972,0.73083687,-0.67905456,,-0.04658822,0.28030488,-0.08121681,0.7530687,-0.05643873,0.65551674,-0.009389544,0.9952907,0.09647948,-0.6578749,-0.078810684,0.7489923,,0.010130695,0.46015942,-0.2940944,-0.7530689,-0.4413991,-0.48790786,0.57697487,-0.7994435,-0.16730252,-0.31620756,-0.4075009,0.8567122,,1.2973341728081011,0.1587793878940559,0.17699414031000002,0.6364089784755314,-0.37178791586176346,0.2794812813171996,0.8706238724957085,,-1.088326130300089,0.0948737733598481,0.18559761704000002,4.537690377005107,-0.4663403736994482,-0.31694042052395305,-0.1607305610761307,,0.0238237442897226,0.038864119118783735,0.08941844392,-0.11709667966849292,,-2.9049814e-05,5.9604645e-07,-3.5762787e-06,1.0,2.0772219e-05,2.2359192e-05,-2.0772219e-05,1.0,2.1457672e-06,-2.2362918e-05,-2.0563602e-06,1.0,107,0.324,0,0,0.0,False,1.0443378005202737,0.006083288113070129
0.3539361510047456,14:33:47.916245,14:32:32.758590,0,,0.08759701,-0.015697986,0.03821449,-0.789997,0.040109243,-0.6117974,-0.46041167,0.62014216,0.63517314,0.40487763,0.78346336,-0.47144368,,0.038290545,-0.00571217,0.026702225,0.68175954,0.54572994,0.4872193,0.07546708,-0.71489507,0.69514734,0.72767335,-0.43715423,-0.5285712,,0.05738795,1.3231593,0.4342771,0.99676126,0.078682825,-0.016614135,0.04128771,-0.6780018,-0.7338998,-0.06900972,0.73083687,-0.67905456,,-0.04659227,0.28029755,-0.08123347,0.75306123,-0.05657658,0.65551347,-0.0093716895,0.99527264,0.09666709,-0.6578837,-0.078939505,0.74897105,,0.010138722,0.46008536,-0.2939982,-0.753232,-0.44153282,-0.48753494,0.5767396,-0.7997202,-0.16679007,-0.31624827,-0.40681234,0.8570244,,1.29729555914373,0.15873305149681058,0.17697858483,0.6364089784755314,-0.37178791586176346,0.27972631753762134,0.8701338402973056,,-1.0881485074439818,0.09492010975709345,0.18571428314000002,4.537900066948591,-0.4663403736994482,-0.3176755291852181,-0.16122059327453353,,0.0238237442897226,0.038864119118783735,0.08941844392,-0.11709667966849292,,-2.9049814e-05,5.9604645e-07,-3.5762787e-06,1.0,2.0772219e-05,2.2359192e-05,-2.0772219e-05,1.0,2.1457672e-06,-2.2362918e-05,-2.0563602e-06,1.0,114,0.345,0,0,0.0,False,1.0449931554240055,0.006421249518525851
0.37514198700955603,14:33:47.942187,14:32:32.758590,0,,0.08759968,-0.015724555,0.03822075,-0.78998125,0.04012785,-0.61181635,-0.4604048,0.6201675,0.63515335,0.40491593,0.78344226,-0.4714457,,0.038272116,-0.0056620724,0.026523054,0.6820895,0.54609436,0.48634833,0.075419426,-0.71406204,0.6960082,0.72736895,-0.43805975,-0.5282404,,0.05738795,1.3231593,0.4342771,0.99676126,0.078682825,-0.016614135,0.04128771,-0.6780018,-0.7338998,-0.06900972,0.73083687,-0.67905456,,-0.04659615,0.28028393,-0.08125695,0.75304395,-0.056593258,0.6555318,-0.00933924,0.99527436,0.09665233,-0.6579039,-0.07890562,0.74895686,,0.010170438,0.45995903,-0.29386407,-0.7535259,-0.4418729,-0.48677206,0.57641375,-0.8001261,-0.16596816,-0.3161422,-0.40564343,0.8576174,,1.2972337772807363,0.1586481014351941,0.17695784419000002,0.6364089784755314,-0.37178791586176346,0.2798079962777619,0.8699704962311713,,-1.0877623708002706,0.09489694155847078,0.18588668971000002,4.538109756892076,-0.4663403736994482,-0.318982389027467,-0.16122059327453364,,0.0238237442897226,0.038864119118783735,0.08941844392,-0.11709667966849292,,-2.9049814e-05,5.9604645e-07,-3.5762787e-06,1.0,2.0772219e-05,2.2359192e-05,-2.0772219e-05,1.0,2.1457672e-06,-2.2362918e-05,-2.0563602e-06,1.0,125,0.378,0,0,0.0,False,1.0448144222684426,0.005648766306054487
0.40109706700604875,14:33:47.968560,14:32:32.839297,0,,0.08760315,-0.01574409,0.038226858,-0.789974,0.040054344,-0.61183065,-0.46039793,0.620272,0.63505626,0.4049382,0.78336334,-0.47155777,,0.038210638,-0.0056189485,0.026362896,0.6822405,0.5462226,0.48599237,0.07540348,-0.71373844,0.69634175,0.727229,-0.43842703,-0.5281283,,0.05738795,1.3231593,0.4342771,0.99676126,0.078682825,-0.016614135,0.04128771,-0.6780018,-0.7338998,-0.06900972,0.73083687,-0.67905456,,-0.046600595,0.28027502,-0.08127516,0.7530358,-0.056512445,0.6555482,-0.009318361,0.99528897,0.096504375,-0.6579136,-0.078779876,0.74896157,,0.010243578,0.45985085,-0.29374468,-0.75366074,-0.44199032,-0.4864566,0.576267,-0.8002954,-0.16566125,-0.3160883,-0.40518126,0.8578557,,1.297187440883491,0.15859404230507454,0.17694099242000003,0.6364089784755314,-0.37178791586176346,0.2797263175376213,0.8711139046941112,,-1.087159997636081,0.09491238702421922,0.18602928161,4.538109756892076,-0.46675028319874456,-0.3193832439776429,-0.1607305610761307,,0.0238237442897226,0.038864119118783735,0.08941844392,-0.11709667966849292,,-2.9049814e-05,5.9604645e-07,-3.5762787e-06,1.0,2.0772219e-05,2.2359192e-05,-2.0772219e-05,1.0,2.1457672e-06,-2.2362918e-05,-2.0563602e-06,1.0,136,0.411,0,0,0.0,False,1.0453506217351318,0.005986727711510653
0.4274622509983601,14:33:47.996548,14:32:32.839297,0,,0.08760555,-0.0157523,0.038231656,-0.7899726,0.03994655,-0.61183935,-0.46039513,0.6203917,0.6349412,0.40494382,0.78327394,-0.47170132,,0.03813456,-0.0055852123,0.026260853,0.68303955,0.54650074,0.48455513,0.07580906,-0.7128911,0.6971652,0.7264364,-0.43945765,-0.5283625,,0.05738795,1.3231593,0.4342771,0.99676126,0.078682825,-0.016614135,0.04128771,-0.6780018,-0.7338998,-0.06900972,0.73083687,-0.67905456,,-0.0466035,0.28027287,-0.08128428,0.7530343,-0.05639637,0.6555599,-0.009312324,0.99530673,0.096321,-0.65791535,-0.0786378,0.7489749,,0.010326276,0.45978972,-0.29366255,-0.7544087,-0.44223374,-0.485074,0.5756904,-0.8007907,-0.165272,-0.3153539,-0.40393507,0.8587132,,1.2971719954177425,0.15857859683932607,0.17693191839000003,0.6364089784755314,-0.37178791586176346,0.27956296005734016,0.8701338402973056,,-1.0866271290677596,0.09500505981870992,0.18610835530000003,4.538109756892076,-0.46606710069991736,-0.3205120846771089,-0.16187396953907063,,0.0238237442897226,0.038864119118783735,0.08941844392,-0.11709667966849292,,-2.9049814e-05,5.9604645e-07,-3.5762787e-06,1.0,2.0772219e-05,2.2359192e-05,-2.0772219e-05,1.0,2.1457672e-06,-2.2362918e-05,-2.0563602e-06,1.0,147,0.444,0,0,0.0,False,1.0455293548906948,0.0055039257037163836
0.4554690390068572,14:33:48.032785,14:32:32.839297,0,,0.08761196,-0.015765265,0.038238153,-0.7899799,0.040026877,-0.61182475,-0.46038386,0.62031573,0.63502383,0.40494248,0.78333026,-0.47160918,,0.03781176,-0.0054986514,0.026021779,0.6923049,0.54544103,0.4724488,0.08194867,-0.70991135,0.69950724,0.71693665,-0.44555563,-0.5361733,,0.05738795,1.3231593,0.4342771,0.99676126,0.078682825,-0.016614135,0.04128771,-0.6780018,-0.7338998,-0.06900972,0.73083687,-0.67905456,,-0.046610657,0.2802687,-0.0812978,0.753042,-0.05648191,0.6555437,-0.009305541,0.99529487,0.096444555,-0.65790665,-0.07872699,0.74897325,,0.010662855,0.4596681,-0.29346058,-0.7631667,-0.44082725,-0.4724912,0.56945693,-0.80439967,-0.16929267,-0.30544293,-0.3982619,0.8649232,,1.2971333817533712,0.15856315137357763,0.17691765920000002,0.6364089784755314,-0.37178791586176346,0.27972631753762134,0.8707872165618427,,-1.0851443643559084,0.09551476018840874,0.18621205850000003,4.537900066948591,-0.45281336022266966,-0.3246219646441356,-0.1622006576713394,,0.0238237442897226,0.038864119118783735,0.08941844392,-0.11709667966849292,,-2.9049814e-05,5.9604645e-07,-3.5762787e-06,1.0,2.0772219e-05,2.2359192e-05,-2.0772219e-05,1.0,2.1457672e-06,-2.2362918e-05,-2.0563602e-06,1.0,158,0.477,0,0,0.0,False,1.0455293548906948,0.005697046506834447
0.4917081410094397,14:33:48.067065,14:32:32.931318,0,,0.08761634,-0.015769303,0.038241938,-0.7899892,0.04001902,-0.6118133,-0.46037674,0.620319,0.6350256,0.40493256,0.7833279,-0.47162148,,0.037517846,-0.005382795,0.025823414,0.70133126,0.54066646,0.4645579,0.08776063,-0.7122363,0.69643205,0.7074125,-0.4476596,-0.54696286,,0.05738795,1.3231593,0.4342771,0.99676126,0.078682825,-0.016614135,0.04128771,-0.6780018,-0.7338998,-0.06900972,0.73083687,-0.67905456,,-0.04661536,0.28026867,-0.08130306,0.75305194,-0.056473836,0.65553296,-0.009307816,0.9952956,0.096436694,-0.6578952,-0.078723416,0.7489836,,0.010964462,0.45959246,-0.2932545,-0.771659,-0.43569967,-0.46336612,0.5630686,-0.8067701,-0.17909707,-0.2957974,-0.3991088,0.8678802,,1.2971179362876228,0.15857087410645185,0.17691117775,0.6364089784755314,-0.37178791586176346,0.2797263175376213,0.8711139046941112,,-1.0839087270960326,0.09621752887996317,0.18630020622000001,4.537900066948591,-0.4395596197454219,-0.32113572177809013,-0.16285403393587639,,0.0238237442897226,0.038864119118783735,0.08941844392,-0.11709667966849292,,-2.9049814e-05,5.9604645e-07,-3.5762787e-06,1.0,2.0772219e-05,2.2359192e-05,-2.0772219e-05,1.0,2.1457672e-06,-2.2362918e-05,-2.0563602e-06,1.0,169,0.509,0,0,0.0,False,1.0455293548906948,0.005697046506834447
0.5259900310047669,14:33:48.096737,14:32:32.931318,0,,0.08762112,-0.015774071,0.03824334,-0.79002607,0.04019826,-0.611754,-0.46021467,0.62037235,0.635091,0.4050448,0.7832765,-0.4716105,,0.03723992,-0.0052247085,0.025674224,0.7067962,0.5364796,0.46111667,0.09098381,-0.7153561,0.6928115,0.7015418,-0.44772232,-0.5544219,,0.05738795,1.3231593,0.4342771,0.99676126,0.078682825,-0.016614135,0.04128771,-0.6780018,-0.7338998,-0.06900972,0.73083687,-0.67905456,,-0.04662036,0.28026634,-0.081307225,0.75308895,-0.056648426,0.65547544,-0.009114733,0.99529237,0.09648867,-0.6578556,-0.07863903,0.7490273,,0.011242032,0.45957807,-0.29303715,-0.7767668,-0.43129018,-0.45893592,0.55896384,-0.80786026,-0.18687214,-0.29015997,-0.40168464,0.86859465,,1.297087045356126,0.15857087410645185,0.17690599259,0.6366186684190159,-0.37178791586176346,0.2797263175376213,0.8711139046941112,,-1.082611307973163,0.09715970229061856,0.18638705765000002,4.537900066948591,-0.4320446122583227,-0.3160737190821363,-0.16252734580360784,,0.0238237442897226,0.038864119118783735,0.08941844392,-0.11709667966849292,,-2.9049814e-05,5.9604645e-07,-3.5762787e-06,1.0,2.0772219e-05,2.2359192e-05,-2.0772219e-05,1.0,2.1457672e-06,-2.2362918e-05,-2.0563602e-06,1.0,180,0.542,0,0,0.0,False,1.0455293548906948,0.00449004148734744
0.555661032005446,14:33:48.131608,14:32:32.931318,0,,0.08763093,-0.015782997,0.038244262,-0.790052,0.039441932,-0.6117697,-0.46058846,0.620382,0.6348106,0.40456903,0.7833073,-0.47196758,,0.03692157,-0.004920516,0.025514126,0.7088193,0.5349384,0.45979977,0.091324836,-0.7159454,0.69215757,0.6994532,-0.44862348,-0.5563292,,0.05738795,1.3231593,0.4342771,0.99676126,0.078682825,-0.016614135,0.04128771,-0.6780018,-0.7338998,-0.06900972,0.73083687,-0.67905456,,-0.04663051,0.28026083,-0.08131379,0.753125,-0.055894602,0.6554987,-0.009717181,0.9953304,0.09603657,-0.6578057,-0.07869714,0.74906504,,0.011549062,0.45963234,-0.29268745,-0.77859765,-0.42962632,-0.45739138,0.55709136,-0.8087353,-0.18867004,-0.28885096,-0.40170684,0.8690206,,1.2970407089588807,0.15857859683932607,0.17689691856,0.6359895985885623,-0.371651279361998,0.2795332208937843,0.870950560627977,,-1.0808891385422108,0.09883553532432528,0.18654909390000002,4.537900066948591,-0.43067824726066833,-0.3137573910331969,-0.16318072206814493,,0.0238237442897226,0.038864119118783735,0.08941844392,-0.11709667966849292,,-2.9049814e-05,5.9604645e-07,-3.5762787e-06,1.0,2.0772219e-05,2.2359192e-05,-2.0772219e-05,1.0,2.1457672e-06,-2.2362918e-05,-2.0563602e-06,1.0,191,0.575,0,0,0.0,False,1.0452910440166105,0.005117684097480701
0.5905278450081823,14:33:48.165302,14:32:33.016521,0,,0.08763723,-0.015793294,0.038245484,-0.7898827,0.039415434,-0.6119899,-0.46083927,0.62026393,0.63474405,0.4046139,0.7834022,-0.4717715,,0.03667976,-0.004638929,0.025403619,0.710987,0.5352513,0.4560739,0.09193352,-0.7137487,0.6943422,0.6971697,-0.4517397,-0.5566735,,0.05738795,1.3231593,0.4342771,0.99676126,0.078682825,-0.016614135,0.04128771,-0.6780018,-0.7338998,-0.06900972,0.73083687,-0.67905456,,-0.046637207,0.2802546,-0.08132176,0.7529452,-0.05587683,0.65570676,-0.009857684,0.9953193,0.096136846,-0.6580094,-0.078849524,0.74887,,0.011777156,0.45970824,-0.29238382,-0.7805743,-0.4298092,-0.45383674,0.5551675,-0.81034946,-0.18741065,-0.28721553,-0.39824337,0.87115407,,1.296986649828761,0.15857859683932607,0.17688914082,0.6357799086450778,-0.3719245523615289,0.2797560567011771,0.870950560627977,,-1.0796843922138317,0.10039552736491862,0.18667742661000003,4.537900066948591,-0.42849206326442124,-0.3156217562324802,-0.16301737800201066,,0.0238237442897226,0.038864119118783735,0.08941844392,-0.11709667966849292,,-2.9049814e-05,5.9604645e-07,-3.5762787e-06,1.0,2.0772219e-05,2.2359192e-05,-2.0772219e-05,1.0,2.1457672e-06,-2.2362918e-05,-2.0563602e-06,1.0,202,0.608,0,0,0.0,False,1.0454697771721735,0.004924563294362638
0.6242249450006057,14:33:48.196994,14:32:33.016521,0,,0.08764768,-0.015801445,0.038243905,-0.78991187,0.03938009,-0.61195445,-0.4608124,0.620294,0.6347341,0.40458757,0.78338015,-0.4718308,,0.036471456,-0.004364971,0.025256932,0.71453804,0.53541243,0.4502983,0.09367661,-0.7110816,0.6968412,0.6932963,-0.45573714,-0.55825055,,0.05738795,1.3231593,0.4342771,0.99676126,0.078682825,-0.016614135,0.04128771,-0.6780018,-0.7338998,-0.06900972,0.73083687,-0.67905456,,-0.046647847,0.28024778,-0.08132604,0.75297654,-0.055839434,0.6556739,-0.009858215,0.9953242,0.09608639,-0.6579735,-0.07881457,0.74890524,,0.011976137,0.4597452,-0.2920692,-0.7838595,-0.42979342,-0.44815382,0.5522745,-0.8124654,-0.18679605,-0.28382578,-0.39392582,0.8742227,,1.2969171452328931,0.15858631957220032,0.17688265937000003,0.6357799086450778,-0.3719245523615289,0.2797560567011771,0.8706238724957083,,-1.0787113278716796,0.10183195567952438,0.18683557399000003,4.537900066948591,-0.4237097857726308,-0.318377880499887,-0.16367075426654776,,0.0238237442897226,0.038864119118783735,0.08941844392,-0.11709667966849292,,-2.9049814e-05,5.9604645e-07,-3.5762787e-06,1.0,2.0772219e-05,2.2359192e-05,-2.0772219e-05,1.0,2.1457672e-06,-2.2362918e-05,-2.0563602e-06,1.0,213,0.64,0,0,0.0,False,1.0451718885795684,0.0042486404834503055
0.6559180879994528,14:33:48.234836,14:32:33.108099,0,,0.087657616,-0.015809774,0.038244084,-0.7899383,0.039298687,-0.6119258,-0.4607883,0.6203721,0.63467526,0.40456355,0.78332233,-0.47194734,,0.036224157,-0.004084263,0.02487731,0.72603977,0.5317322,0.4360355,0.10151738,-0.710026,0.69681954,0.68011785,-0.46165335,-0.56948715,,0.05738795,1.3231593,0.4342771,0.99676126,0.078682825,-0.016614135,0.04128771,-0.6780018,-0.7338998,-0.06900972,0.73083687,-0.67905456,,-0.04665806,0.28024212,-0.081331655,0.75300485,-0.055752676,0.6556488,-0.009858997,0.9953363,0.09596072,-0.65794116,-0.078722924,0.7489434,,0.012235948,0.45959067,-0.29163027,-0.79461396,-0.4256509,-0.43290877,0.54345775,-0.816553,-0.19466595,-0.27063322,-0.3899519,0.8801677,,1.2968553633698992,0.15859404230507454,0.17687488163,0.6357799086450778,-0.3719245523615289,0.27967437796103656,0.8704605284295741,,-1.0777691544610242,0.10304442474077763,0.18714668359000003,4.537900066948591,-0.4052638583042964,-0.3196155904151489,-0.16252734580360784,,0.0238237442897226,0.038864119118783735,0.08941844392,-0.11709667966849292,,-2.9049814e-05,5.9604645e-07,-3.5762787e-06,1.0,2.0772219e-05,2.2359192e-05,-2.0772219e-05,1.0,2.1457672e-06,-2.2362918e-05,-2.0563602e-06,1.0,221,0.664,0,0,0.0,False,1.0453506217351318,0.005069403896701186
0.6937584480037913,14:33:48.259365,14:32:33.108099,0,,0.08766213,-0.015814394,0.038244054,-0.7899497,0.039233,-0.61191523,-0.46077698,0.62043923,0.63461787,0.40455416,0.78327245,-0.47203812,,0.036135256,-0.0039988197,0.024649203,0.7332875,0.5282825,0.4280268,0.1068704,-0.7112552,0.6947624,0.67146707,-0.46371716,-0.5780123,,0.05738795,1.3231593,0.4342771,0.99676126,0.078682825,-0.016614135,0.04128771,-0.6780018,-0.7338998,-0.06900972,0.73083687,-0.67905456,,-0.046662726,0.28023887,-0.08133471,0.75301707,-0.055682372,0.6556407,-0.009858003,0.9953465,0.09585509,-0.65792716,-0.07864382,0.74896395,,0.012339511,0.45944878,-0.29143947,-0.8013901,-0.42192924,-0.4239689,0.5378106,-0.8185068,-0.20200577,-0.2617893,-0.38990042,0.88286126,,1.2968244724384024,0.15859404230507454,0.17687099276,0.6357799086450778,-0.3719245523615289,0.27959269922089597,0.8706238724957085,,-1.0775297497419232,0.10328382945987859,0.18731649758000002,4.537900066948591,-0.39296657332540674,-0.3182081781281481,-0.16301737800201066,,0.0238237442897226,0.038864119118783735,0.08941844392,-0.11709667966849292,,-2.9049814e-05,5.9604645e-07,-3.5762787e-06,1.0,2.0772219e-05,2.2359192e-05,-2.0772219e-05,1.0,2.1457672e-06,-2.2362918e-05,-2.0563602e-06,1.0,232,0.697,0,0,0.0,False,1.0448144222684426,0.0042486404834503055
0.7182550090074074,14:33:48.289265,14:32:33.108099,0,,0.08767113,-0.015823513,0.0382417,-0.78981805,0.039389696,-0.6120751,-0.4608671,0.6203665,0.63462347,0.40470847,0.7833222,-0.47182325,,0.03607794,-0.0039224513,0.024312556,0.7426783,0.5236661,0.417376,0.11410384,-0.7131221,0.6916915,0.6598555,-0.46608,-0.58937263,,0.05738795,1.3231593,0.4342771,0.99676126,0.078682825,-0.016614135,0.04128771,-0.6780018,-0.7338998,-0.06900972,0.73083687,-0.67905456,,-0.046671916,0.28023082,-0.08133928,0.7528751,-0.055843715,0.6557901,-0.009808391,0.9953313,0.096017756,-0.65809035,-0.07872162,0.7488124,,0.012423037,0.45920542,-0.29120234,-0.81015444,-0.41696998,-0.41205075,0.53029686,-0.82089025,-0.21195386,-0.24987006,-0.39022458,0.88616574,,1.29674724510966,0.15860176503794876,0.1768658076,0.6357799086450778,-0.3721978253610598,0.2798155350282889,0.8706238724957085,,-1.0774679678789294,0.10328382945987859,0.18757575558000003,4.537900066948591,-0.37643355685378843,-0.3163341413289894,-0.1622006576713393,,0.0238237442897226,0.038864119118783735,0.08941844392,-0.11709667966849292,,-2.9049814e-05,5.9604645e-07,-3.5762787e-06,1.0,2.0772219e-05,2.2359192e-05,-2.0772219e-05,1.0,2.1457672e-06,-2.2362918e-05,-2.0563602e-06,1.0,243,0.729,0,0,0.0,False,1.0454101994536527,0.004731442491245019
0.74816160100454,14:33:48.318552,14:32:33.108099,0,,0.08768222,-0.015831143,0.038243726,-0.7898736,0.039503243,-0.6119962,-0.46069086,0.6204785,0.63464195,0.40480083,0.7832278,-0.4719008,,0.03605792,-0.0038809218,0.023926795,0.7516544,0.52054816,0.40502495,0.121282384,-0.71270156,0.6909032,0.6483102,-0.47019795,-0.5988385,,0.05738795,1.3231593,0.4342771,0.99676126,0.078682825,-0.016614135,0.04128771,-0.6780018,-0.7338998,-0.06900972,0.73083687,-0.67905456,,-0.046683345,0.28022695,-0.081345536,0.7529321,-0.05594861,0.6557157,-0.009619904,0.9953375,0.09597282,-0.65802795,-0.078568935,0.74888325,,0.012477141,0.45889786,-0.2909712,-0.8185095,-0.4135096,-0.39881325,0.5228643,-0.823823,-0.2189262,-0.2380234,-0.38771838,0.89051634,,1.2966854632466662,0.1586172105036972,0.17685673357,0.6359895985885623,-0.3721978253610598,0.27973385628814834,0.8707872165618427,,-1.077491136077552,0.10297492014490961,0.18787908744,4.537900066948591,-0.360173813381701,-0.3180761695090444,-0.1626906898697421,,0.0238237442897226,0.038864119118783735,0.08941844392,-0.11709667966849292,,-2.9049814e-05,5.9604645e-07,-3.5762787e-06,1.0,2.0772219e-05,2.2359192e-05,-2.0772219e-05,1.0,2.1457672e-06,-2.2362918e-05,-2.0563602e-06,1.0,250,0.75,0,0,0.0,False,1.0450527331425268,0.004828002892804051
0.7774427800031845,14:33:48.347606,14:32:33.108099,0,,0.08769596,-0.015846238,0.03824304,-0.78975254,0.03881924,-0.6121961,-0.46116748,0.62050784,0.6342671,0.4044942,0.7832387,-0.47214544,,0.036048524,-0.0038383938,0.023515463,0.7601446,0.5159359,0.39495578,0.12820709,-0.71500266,0.68726575,0.6369795,-0.47178525,-0.60965204,,0.05738795,1.3231593,0.4342771,0.99676126,0.078682825,-0.016614135,0.04128771,-0.6780018,-0.7338998,-0.06900972,0.73083687,-0.67905456,,-0.046697553,0.28021598,-0.0813553,0.75280964,-0.05526534,0.6559142,-0.0101708025,0.9953736,0.09554046,-0.65815973,-0.078594945,0.74876475,,0.012523117,0.45856756,-0.29072648,-0.8263832,-0.40859526,-0.38747996,0.51554936,-0.8257587,-0.2287608,-0.22649437,-0.3888091,0.8930441,,1.2965927904521757,0.15862493323657142,0.17684506696000002,0.6353605287581089,-0.3723344618608252,0.279600237971423,0.8702971843634397,,-1.0775065815433005,0.10261195169982106,0.18821223397000003,4.537900066948591,-0.3444606159086754,-0.3159420189884099,-0.1622006576713393,,0.0238237442897226,0.038864119118783735,0.08941844392,-0.11709667966849292,,-2.9049814e-05,5.9604645e-07,-3.5762787e-06,1.0,2.0772219e-05,2.2359192e-05,-2.0772219e-05,1.0,2.1457672e-06,-2.2362918e-05,-2.0563602e-06,1.0,265,0.795,0,0,0.0,False,1.0450527331425268,0.004731442491245019
0.8065267440106254,14:33:48.380105,14:32:33.238241,0,,0.08770709,-0.015857562,0.038242802,-0.78967696,0.03853297,-0.61231154,-0.4613483,0.6206057,0.63403976,0.40443546,0.78317535,-0.4723009,,0.03602583,-0.0037644096,0.02314645,0.76769465,0.512529,0.3846541,0.13437295,-0.7156636,0.68539745,0.626569,-0.47448874,-0.6182811,,0.05738795,1.3231593,0.4342771,0.99676126,0.078682825,-0.016614135,0.04128771,-0.6780018,-0.7338998,-0.06900972,0.73083687,-0.67905456,,-0.04670904,0.28020793,-0.08136276,0.75273085,-0.054973125,0.65602916,-0.010338086,0.9953975,0.09527306,-0.65824723,-0.07849706,0.74869806,,0.012575645,0.45829093,-0.29047573,-0.8333529,-0.40489933,-0.37627044,0.5087616,-0.82798266,-0.23581004,-0.21606608,-0.38794494,0.895999,,1.2965155631234333,0.15863265596944565,0.17683599293000002,0.6351508388146243,-0.37247109836059067,0.27946661965469777,0.8701338402973056,,-1.0774756906118035,0.10248838797383347,0.18852204728000002,4.537900066948591,-0.3302504199330696,-0.31593109987287793,-0.1622006576713393,,0.0238237442897226,0.038864119118783735,0.08941844392,-0.11709667966849292,,-2.9049814e-05,5.9604645e-07,-3.5762787e-06,1.0,2.0772219e-05,2.2359192e-05,-2.0772219e-05,1.0,2.1457672e-06,-2.2362918e-05,-2.0563602e-06,1.0,272,0.815,0,0,0.0,False,1.0450527331425268,0.004828002892804051
0.8390275550045772,14:33:48.401295,14:32:33.238241,0,,0.087714806,-0.015863359,0.03824739,-0.7896954,0.03856727,-0.6122856,-0.4613341,0.6205607,0.6340941,0.40441567,0.7832093,-0.47226152,,0.03602889,-0.0036873855,0.02290678,0.7710051,0.5104186,0.38081992,0.13707235,-0.7169889,0.6834751,0.621902,-0.47476286,-0.6227664,,0.05738795,1.3231593,0.4342771,0.99676126,0.078682825,-0.016614135,0.04128771,-0.6780018,-0.7338998,-0.06900972,0.73083687,-0.67905456,,-0.046717163,0.28020725,-0.081369676,0.7527507,-0.055010565,0.65600324,-0.010342635,0.9953912,0.095338635,-0.65822446,-0.078551024,0.7487124,,0.012589781,0.45812348,-0.29028824,-0.83639866,-0.40267286,-0.37187606,0.5056956,-0.8286167,-0.24013834,-0.21144553,-0.38890746,0.89668375,,1.2964846721919365,0.1586481014351941,0.17682691890000002,0.6351508388146243,-0.37247109836059067,0.2795482983948383,0.8702971843634398,,-1.0774293542145583,0.10251155617245614,0.18874760174000002,4.537900066948591,-0.32396514094385925,-0.3143586667513872,-0.16252734580360795,,0.0238237442897226,0.038864119118783735,0.08941844392,-0.11709667966849292,,-2.9049814e-05,5.9604645e-07,-3.5762787e-06,1.0,2.0772219e-05,2.2359192e-05,-2.0772219e-05,1.0,2.1457672e-06,-2.2362918e-05,-2.0563602e-06,1.0,283,0.848,0,0,0.0,False,1.0450527331425268,0.0046831622904659476
0.860218633999466,14:33:48.437844,14:32:33.238241,0,,0.08772634,-0.015877098,0.038260415,-0.78966343,0.038686633,-0.61231935,-0.46122342,0.62071544,0.63402313,0.40460426,0.7830808,-0.47231308,,0.03602787,-0.003540028,0.022534013,0.7739332,0.50933564,0.37630376,0.13938454,-0.71666217,0.6833501,0.6177372,-0.47641638,-0.6256421,,0.05738795,1.3231593,0.4342771,0.99676126,0.078682825,-0.016614135,0.04128771,-0.6780018,-0.7338998,-0.06900972,0.73083687,-0.67905456,,-0.04672978,0.28020722,-0.081387885,0.75271344,-0.05511814,0.656037,-0.010129682,0.99540156,0.09525291,-0.65827036,-0.07834359,0.74869376,,0.012615291,0.45787758,-0.28997275,-0.83908296,-0.4014637,-0.36710584,0.5029144,-0.8297365,-0.24210425,-0.20740505,-0.3877684,0.8981196,,1.2964383357946911,0.15866354690094256,0.17680617826000003,0.6353605287581089,-0.3726077348603561,0.2794146800781131,0.8707872165618427,,-1.0771358903653376,0.10265828809706641,0.18911963697000003,4.537900066948591,-0.31863631745300713,-0.3150284216892223,-0.16269068986974206,,0.0238237442897226,0.038864119118783735,0.08941844392,-0.11709667966849292,,-2.9049814e-05,5.9604645e-07,-3.5762787e-06,1.0,2.0772219e-05,2.2359192e-05,-2.0772219e-05,1.0,2.1457672e-06,-2.2362918e-05,-2.0563602e-06,1.0,294,0.882,0,0,0.0,False,1.0455293548906948,0.0046831622904659476
0.8967642700008582,14:33:48.470255,14:32:33.317579,0,,0.087735385,-0.015887916,0.038275942,-0.7897018,0.038723733,-0.6122675,-0.46106428,0.6209081,0.6339503,0.40471074,0.7829262,-0.47247812,,0.036012635,-0.0034402646,0.022316515,0.7746199,0.50929284,0.37494618,0.13983603,-0.7161233,0.68382263,0.6167736,-0.47727168,-0.6259408,,0.05738795,1.3231593,0.4342771,0.99676126,0.078682825,-0.016614135,0.04128771,-0.6780018,-0.7338998,-0.06900972,0.73083687,-0.67905456,,-0.04673994,0.2802111,-0.08140583,0.7527521,-0.05514102,0.65599066,-0.009942739,0.9954198,0.09508197,-0.658229,-0.078095496,0.7487561,,0.012643595,0.45774278,-0.28977647,-0.8397065,-0.40138116,-0.36576787,0.5022282,-0.8301954,-0.24195538,-0.20654246,-0.38687044,0.8987054,,1.2964228903289428,0.158678992366691,0.17678543762,0.6355702187015934,-0.3726077348603561,0.2791696438576914,0.870950560627977,,-1.0767960901188718,0.10281274275455089,0.18934389514000002,4.537900066948591,-0.31767986195464903,-0.3157266682749567,-0.1625273458036079,,0.0238237442897226,0.038864119118783735,0.08941844392,-0.11709667966849292,,-2.9049814e-05,5.9604645e-07,-3.5762787e-06,1.0,2.0772219e-05,2.2359192e-05,-2.0772219e-05,1.0,2.1457672e-06,-2.2362918e-05,-2.0563602e-06,1.0,309,0.926,0,0,0.0,False,1.045588932609216,0.004731442491245019
0.9291791240102611,14:33:48.512710,14:32:33.317579,0,,0.087748796,-0.015909255,0.03831069,-0.7897095,0.038477596,-0.6122731,-0.4610628,0.62115043,0.63371396,0.4046975,0.78274614,-0.47278783,,0.035955444,-0.0033326335,0.022134423,0.77619296,0.50953543,0.37134618,0.14095427,-0.7143041,0.6854937,0.61453736,-0.4797325,-0.626259,,0.05738795,1.3231593,0.4342771,0.99676126,0.078682825,-0.016614135,0.04128771,-0.6780018,-0.7338998,-0.06900972,0.73083687,-0.67905456,,-0.046755742,0.28022173,-0.08144431,0.75276047,-0.054878216,0.6560031,-0.009951322,0.99545664,0.094694436,-0.65821934,-0.077810325,0.7487943,,0.012709442,0.45764756,-0.28959048,-0.84113884,-0.4015278,-0.36229947,0.50067323,-0.8314274,-0.2409457,-0.2044793,-0.38406244,0.9003801,,1.2964306130618168,0.15870216056531367,0.17674266005000003,0.6355702187015934,-0.3726077348603561,0.27876125015698855,0.8707872165618427,,-1.0763790625436638,0.1031293748023941,0.18952407945000002,4.537900066948591,-0.3150837684591057,-0.31825200214589144,-0.16236400173747356,,0.0238237442897226,0.038864119118783735,0.08941844392,-0.11709667966849292,,-2.9049814e-05,5.9604645e-07,-3.5762787e-06,1.0,2.0772219e-05,2.2359192e-05,-2.0772219e-05,1.0,2.1457672e-06,-2.2362918e-05,-2.0563602e-06,1.0,316,0.948,0,0,0.0,False,1.0446952668314005,0.00502112369592167
0.9716332140087616,14:33:48.539645,14:32:33.408745,0,,0.08772131,-0.015876815,0.03832245,-0.78969854,0.038569003,-0.61228144,-0.46091333,0.6213665,0.6336106,0.40488905,0.7825698,-0.47291538,,0.035989776,-0.0032490715,0.022097886,0.7753626,0.5090823,0.37369493,0.14016202,-0.7157086,0.68418986,0.6157656,-0.47811735,-0.6262877,,0.057450555,1.3231614,0.43428224,0.9967645,0.078629695,-0.016671646,0.041209597,-0.67800796,-0.73389846,-0.06900972,0.73083687,-0.67905456,,-0.046779644,0.28024763,-0.08142311,0.7527072,-0.054904927,0.656062,-0.00975314,0.9954771,0.09449999,-0.65828323,-0.07752948,0.74876726,,0.012617889,0.45764413,-0.28949782,-0.8403563,-0.40118948,-0.36448357,0.5014778,-0.8306681,-0.24188948,-0.20572136,-0.38605377,0.8992448,,1.2964306130618168,0.15870216056531367,0.17670247506000003,0.6357799086450778,-0.37274437136012156,0.2784642743599822,0.8699704962311713,,-1.0761551032903112,0.10343056138448886,0.18959537540000002,4.537900066948591,-0.31699667945582183,-0.31579368535259544,-0.1617106254729364,,0.0238237442897226,0.038864119118783735,0.08941844392,-0.11709667966849292,,3.3080578e-05,7.867813e-06,-9.536743e-06,1.0,-3.2439828e-05,-3.491342e-05,3.2439828e-05,0.99999994,-3.2782555e-06,3.491342e-05,3.3080578e-06,1.0,327,0.98,0,0,0.0,False,1.0443378005202737,0.005117684097480701
0.9985541620117147,14:33:48.571236,14:32:33.408745,0,,0.087734945,-0.015909925,0.03836471,-0.7895376,0.03851074,-0.6124927,-0.4610303,0.62152255,0.6333725,0.4050697,0.7824489,-0.4729609,,0.03596846,-0.0031851456,0.022035241,0.7754676,0.50858027,0.37416047,0.14012899,-0.71645224,0.6834179,0.615641,-0.4775377,-0.6268523,,0.057450555,1.3231614,0.43428224,0.9967645,0.078629695,-0.016671646,0.041209597,-0.67800796,-0.73389846,-0.06900972,0.73083687,-0.67905456,,-0.046796445,0.2802557,-0.08147524,0.75253373,-0.054835502,0.6562668,-0.009702939,0.9954959,0.094306625,-0.65848225,-0.07733663,0.74861217,,0.012640018,0.457625,-0.2894106,-0.84044564,-0.40068835,-0.3648287,0.5013414,-0.83047986,-0.24281691,-0.20568897,-0.38697815,0.8988548,,1.2964228903289428,0.15870216056531367,0.17664803088000003,0.6357799086450778,-0.3730176443596524,0.2782787164666722,0.8701338402973056,,-1.075977480434204,0.10366996610358982,0.18966926393000003,4.537900066948591,-0.31699667945582183,-0.31448682551034635,-0.16220065767133923,,0.0238237442897226,0.038864119118783735,0.08941844392,-0.11709667966849292,,3.3080578e-05,7.867813e-06,-9.536743e-06,1.0,-3.2439828e-05,-3.491342e-05,3.2439828e-05,0.99999994,-3.2782555e-06,3.491342e-05,3.3080578e-06,1.0,335,1.004,0,0,0.0,False,1.0438611787721057,0.004924563294362638
1.030151470011333,14:33:48.598424,14:32:33.408745,0,,0.087745205,-0.015936732,0.038403332,-0.7895539,0.038413476,-0.6124776,-0.46088672,0.6218676,0.6331382,0.40520117,0.7821794,-0.47329387,,0.035982423,-0.0031330064,0.021988392,0.7751909,0.5082037,0.37524396,0.13983834,-0.7173042,0.6825833,0.61605537,-0.47665876,-0.627114,,0.057450555,1.3231614,0.43428224,0.9967645,0.078629695,-0.016671646,0.041209597,-0.67800796,-0.73389846,-0.06900972,0.73083687,-0.67905456,,-0.046809487,0.2802655,-0.08152053,0.75254864,-0.054713394,0.65625983,-0.0095086945,0.9955359,0.09390321,-0.658468,-0.076906905,0.74866897,,0.012626559,0.45760912,-0.28934222,-0.84018826,-0.40033215,-0.36581126,0.501586,-0.83010477,-0.24359293,-0.20614359,-0.38814974,0.8982453,,1.2964383357946911,0.15869443783243944,0.17660006815,0.6359895985885623,-0.3730176443596524,0.2777886440258288,0.8691537759004999,,-1.075977480434204,0.10383214349394854,0.18973537472000002,4.537900066948591,-0.3175432254548836,-0.31306100901387396,-0.16252734580360784,,0.0238237442897226,0.038864119118783735,0.08941844392,-0.11709667966849292,,3.3080578e-05,7.867813e-06,-9.536743e-06,1.0,-3.2439828e-05,-3.491342e-05,3.2439828e-05,0.99999994,-3.2782555e-06,3.491342e-05,3.3080578e-06,1.0,343,1.028,0,0,0.0,False,1.043920756490627,0.005262524699818805
1.0573426780028967,14:33:48.621238,14:32:33.490520,0,,0.087752484,-0.015947849,0.038419336,-0.7895859,0.03835452,-0.61244017,-0.46073174,0.62216383,0.63295984,0.40531516,0.78194666,-0.47358078,,0.03601458,-0.0031064972,0.021968424,0.77410764,0.5068185,0.37933147,0.1389282,-0.7206088,0.6792804,0.6176214,-0.4731362,-0.6282401,,0.057450555,1.3231614,0.43428224,0.9967645,0.078629695,-0.016671646,0.041209597,-0.67800796,-0.73389846,-0.06900972,0.73083687,-0.67905456,,-0.046817917,0.2802695,-0.0815391,0.7525804,-0.054632995,0.65623015,-0.009319244,0.99556893,0.09357143,-0.65843445,-0.07653559,0.7487365,,0.012594481,0.45760125,-0.28930992,-0.8391933,-0.39903653,-0.3694922,0.5026092,-0.828562,-0.24671629,-0.2076984,-0.39275286,0.89588314,,1.2964306130618168,0.15870216056531367,0.17657932751000002,0.6361992885320469,-0.3730176443596524,0.27738025032512603,0.8699704962311713,,-1.0760315395643236,0.10387847989119388,0.18977685600000002,4.537900066948591,-0.31959277295136523,-0.30804091211266454,-0.162037313605205,,0.0238237442897226,0.038864119118783735,0.08941844392,-0.11709667966849292,,3.3080578e-05,7.867813e-06,-9.536743e-06,1.0,-3.2439828e-05,-3.491342e-05,3.2439828e-05,0.99999994,-3.2782555e-06,3.491342e-05,3.3080578e-06,1.0,351,1.053,0,0,0.0,False,1.043742023335064,0.004634882089685988
1.0801558630046202,14:33:48.649117,14:32:33.490520,0,,0.087755255,-0.015959904,0.038436294,-0.78962696,0.03839848,-0.6123844,-0.46043605,0.62260664,0.6327396,0.40557092,0.781592,-0.47394708,,0.036087275,-0.0030554906,0.021861732,0.7731745,0.50382364,0.38517892,0.13818927,-0.7265992,0.673021,0.6189546,-0.46713495,-0.631411,,0.057450555,1.3231614,0.43428224,0.9967645,0.078629695,-0.016671646,0.041209597,-0.67800796,-0.73389846,-0.06900972,0.73083687,-0.67905456,,-0.046821922,0.28027362,-0.081559315,0.75261927,-0.054644354,0.65618455,-0.00892998,0.9956118,0.09315281,-0.65839535,-0.07596832,0.74882865,,0.012528674,0.45752618,-0.28921345,-0.8383383,-0.3961706,-0.37448332,0.50349945,-0.8260347,-0.2532882,-0.20899087,-0.40089336,0.89196825,,1.2964383357946911,0.15868671509956522,0.17655858687,0.6366186684190159,-0.3730176443596524,0.2768084991441421,0.8691537759004999,,-1.0761859942218082,0.1038553116925712,0.18991426274,4.537900066948591,-0.3212324109485505,-0.29910777443523523,-0.16203731360520496,,0.0238237442897226,0.038864119118783735,0.08941844392,-0.11709667966849292,,3.3080578e-05,7.867813e-06,-9.536743e-06,1.0,-3.2439828e-05,-3.491342e-05,3.2439828e-05,0.99999994,-3.2782555e-06,3.491342e-05,3.3080578e-06,1.0,359,1.078,0,0,0.0,False,1.0436228678980215,0.004634882089685988
1.108012538010371,14:33:48.673223,14:32:33.490520,0,,0.08775543,-0.015964046,0.0384444,-0.78946376,0.038547836,-0.6125854,-0.46055728,0.6225437,0.6327133,0.40575102,0.78163475,-0.47372237,,0.036133237,-0.0030224994,0.02176702,0.7723783,0.50137424,0.3899429,0.13755733,-0.73139584,0.66793567,0.6200884,-0.46225947,-0.63388205,,0.057450555,1.3231614,0.43428224,0.9967645,0.078629695,-0.016671646,0.041209597,-0.67800796,-0.73389846,-0.06900972,0.73083687,-0.67905456,,-0.046822634,0.28027672,-0.081567846,0.75244343,-0.0547977,0.65637344,-0.0088831475,0.99559826,0.0933014,-0.658597,-0.07603469,0.7486446,,0.0124896625,0.45745572,-0.28913805,-0.8376083,-0.3938316,-0.37856174,0.5042552,-0.8239444,-0.25853893,-0.210093,-0.40744606,0.8887343,,1.2964460585275654,0.15869443783243944,0.17655080913,0.6366186684190159,-0.3732909173591833,0.27694965621139433,0.868663743702097,,-1.076216885153305,0.10379352982957742,0.19002703997,4.537900066948591,-0.3227354124459703,-0.29191962946431366,-0.162037313605205,,0.0238237442897226,0.038864119118783735,0.08941844392,-0.11709667966849292,,3.3080578e-05,7.867813e-06,-9.536743e-06,1.0,-3.2439828e-05,-3.491342e-05,3.2439828e-05,0.99999994,-3.2782555e-06,3.491342e-05,3.3080578e-06,1.0,396,1.192,0,0,0.0,False,1.04409948964619,0.005407365302156908
1.1321423480112571,14:33:48.779585,14:32:33.614822,0,,0.0877603,-0.015974224,0.038455784,-0.789413,0.038682755,-0.6126424,-0.4604608,0.62269115,0.63263845,0.40595928,0.78151065,-0.47374868,,0.036320135,-0.0028135404,0.020884752,0.7741112,0.49141887,0.39907312,0.1391991,-0.7471036,0.6499691,0.617556,-0.4475977,-0.6467463,,0.057450555,1.3231614,0.43428224,0.9967645,0.078629695,-0.016671646,0.041209597,-0.67800796,-0.73389846,-0.06900972,0.73083687,-0.67905456,,-0.046828397,0.28027803,-0.081582755,0.752386,-0.05492126,0.656429,-0.008665752,0.9956067,0.09323166,-0.65866554,-0.07583464,0.7486046,,0.0123734465,0.45678025,-0.2885157,-0.8392121,-0.38412625,-0.3849286,0.5026879,-0.81797683,-0.2796763,-0.20743167,-0.42820668,0.87955165,,1.2964306130618168,0.15869443783243944,0.17653525365000003,0.6368283583625004,-0.37342755385894877,0.27681603789466913,0.869807152165037,,-1.0759929258999525,0.10313709753526833,0.19093185039000002,4.537900066948591,-0.31959277295136523,-0.2688351168451947,-0.162037313605205,,0.0238237442897226,0.038864119118783735,0.08941844392,-0.11709667966849292,,3.3080578e-05,7.867813e-06,-9.536743e-06,1.0,-3.2439828e-05,-3.491342e-05,3.2439828e-05,0.99999994,-3.2782555e-06,3.491342e-05,3.3080578e-06,1.0,404,1.217,0,0,0.0,False,1.0444569559573162,0.00579360690839259
1.2385018080094596,14:33:48.803457,14:32:33.614822,0,,0.08776067,-0.015973493,0.03845787,-0.7894136,0.038686678,-0.6126413,-0.4604622,0.6226831,0.63264537,0.40595645,0.78151685,-0.47374094,,0.03632807,-0.0027815327,0.020700157,0.7758451,0.49029735,0.3970803,0.14067712,-0.7479524,0.6486733,0.61504,-0.44740987,-0.64926887,,0.057450555,1.3231614,0.43428224,0.9967645,0.078629695,-0.016671646,0.041209597,-0.67800796,-0.73389846,-0.06900972,0.73083687,-0.67905456,,-0.04682885,0.28028005,-0.08158362,0.7523867,-0.05492575,0.65642774,-0.008668786,0.9956057,0.09324205,-0.65866464,-0.07584451,0.74860436,,0.012380981,0.456637,-0.288395,-0.84080553,-0.38296404,-0.3826024,0.5010528,-0.81810004,-0.28223825,-0.20491995,-0.42901146,0.8797482,,1.2964383357946911,0.15870216056531367,0.17653395736000002,0.6368283583625004,-0.37342755385894877,0.27681603789466913,0.869807152165037,,-1.0759002531054618,0.10299808834353229,0.19110166438,4.537900066948591,-0.3163134969569946,-0.26783360322758365,-0.16187396953907074,,0.0238237442897226,0.038864119118783735,0.08941844392,-0.11709667966849292,,3.3080578e-05,7.867813e-06,-9.536743e-06,1.0,-3.2439828e-05,-3.491342e-05,3.2439828e-05,0.99999994,-3.2782555e-06,3.491342e-05,3.3080578e-06,1.0,412,1.241,0,0,0.0,False,1.0447548445499213,0.005986727711510653
1.2623808510106755,14:33:48.830079,14:32:33.707282,0,,0.087763056,-0.015974358,0.038460284,-0.78934145,0.03878052,-0.61272824,-0.4605164,0.6226252,0.6326629,0.40603513,0.7815584,-0.47360498,,0.036300153,-0.0027445778,0.020439982,0.77971804,0.48881066,0.39128494,0.14394538,-0.74812794,0.64775324,0.60935986,-0.4487412,-0.6536909,,0.057450555,1.3231614,0.43428224,0.9967645,0.078629695,-0.016671646,0.041209597,-0.67800796,-0.73389846,-0.06900972,0.73083687,-0.67905456,,-0.046831373,0.2802812,-0.08158575,0.752309,-0.05502345,0.65650856,-0.008649169,0.9955954,0.09335437,-0.6587536,-0.075909585,0.7485195,,0.0124310525,0.45643586,-0.2882311,-0.844356,-0.38134554,-0.376349,0.4973323,-0.8191442,-0.28576806,-0.19930772,-0.42846048,0.88130474,,1.2964306130618168,0.15871760603106214,0.17653136478,0.6368283583625004,-0.3735641903587142,0.27692745579836553,0.869807152165037,,-1.0756917393178578,0.10282818822029935,0.19132073739000002,4.537900066948591,-0.30893512596966083,-0.268132658217351,-0.16122059327453353,,0.0238237442897226,0.038864119118783735,0.08941844392,-0.11709667966849292,,3.3080578e-05,7.867813e-06,-9.536743e-06,1.0,-3.2439828e-05,-3.491342e-05,3.2439828e-05,0.99999994,-3.2782555e-06,3.491342e-05,3.3080578e-06,1.0,420,1.266,0,0,0.0,False,1.0449931554240055,0.0059384475107315815
1.288948330009589,14:33:48.853311,14:32:33.707282,0,,0.08776376,-0.015975848,0.03846228,-0.78934145,0.03873048,-0.61273146,-0.4605164,0.6226769,0.63261205,0.40603513,0.7815197,-0.47366878,,0.03624375,-0.002720125,0.02027142,0.7838101,0.48689696,0.38545167,0.1473855,-0.7488141,0.6461849,0.60325706,-0.44967622,-0.65868956,,0.057450555,1.3231614,0.43428224,0.9967645,0.078629695,-0.016671646,0.041209597,-0.67800796,-0.73389846,-0.06900972,0.73083687,-0.67905456,,-0.04683222,0.28028163,-0.08158816,0.752309,-0.05496983,0.6565131,-0.008649169,0.995603,0.09327304,-0.6587536,-0.075848445,0.7485257,,0.012501467,0.45631054,-0.28812367,-0.8480965,-0.3793011,-0.36995,0.49330792,-0.8200504,-0.29011136,-0.1933381,-0.42854172,0.8825941,,1.2964306130618168,0.15871760603106214,0.17652877220000002,0.6368283583625004,-0.3735641903587142,0.276845777058225,0.8699704962311713,,-1.0755063937288762,0.10278957455592823,0.19144518123,4.537900066948591,-0.3010102089832653,-0.267570524979655,-0.16154728140680213,,0.0238237442897226,0.038864119118783735,0.08941844392,-0.11709667966849292,,3.3080578e-05,7.867813e-06,-9.536743e-06,1.0,-3.2439828e-05,-3.491342e-05,3.2439828e-05,0.99999994,-3.2782555e-06,3.491342e-05,3.3080578e-06,1.0,428,1.291,0,0,0.0,False,1.04409948964619,0.005697046506834447
1.3122035569977015,14:33:48.880235,14:32:33.707282,0,,0.087764904,-0.01597865,0.038464844,-0.78931606,0.0383852,-0.61278594,-0.4606671,0.62279373,0.6323873,0.40591362,0.7814436,-0.47389847,,0.036113642,-0.0027014688,0.0200634,0.79108644,0.48165026,0.3770878,0.15356444,-0.75308645,0.63974893,0.592115,-0.44818932,-0.6697208,,0.057450555,1.3231614,0.43428224,0.9967645,0.078629695,-0.016671646,0.041209597,-0.67800796,-0.73389846,-0.06900972,0.73083687,-0.67905456,,-0.046833582,0.28028157,-0.08159187,0.7522843,-0.054617427,0.65657085,-0.008841112,0.9956313,0.09295243,-0.65877926,-0.07573147,0.74851495,,0.012649295,0.4561577,-0.2879999,-0.8547243,-0.37389916,-0.36006364,0.48593393,-0.82025576,-0.3017427,-0.18252295,-0.43287396,0.8827828,,1.2964306130618168,0.15871760603106214,0.17652488333000002,0.6366186684190159,-0.3735641903587142,0.2766007408378033,0.8701338402973056,,-1.0751743162152847,0.10278957455592823,0.19156832878000002,4.537900066948591,-0.2866633765078941,-0.261790154477699,-0.1615472814068022,,0.0238237442897226,0.038864119118783735,0.08941844392,-0.11709667966849292,,3.3080578e-05,7.867813e-06,-9.536743e-06,1.0,-3.2439828e-05,-3.491342e-05,3.2439828e-05,0.99999994,-3.2782555e-06,3.491342e-05,3.3080578e-06,1.0,436,1.315,0,0,0.0,False,1.0446952668314005,0.004828002892804051
1.3391529439977603,14:33:48.906631,14:32:33.707282,0,,0.08776654,-0.01598373,0.03847,-0.789133,0.038381673,-0.61302197,-0.46093327,0.6226487,0.63233614,0.4059675,0.78155935,-0.4736614,,0.03588026,-0.0026871786,0.019793808,0.80293596,0.47355515,0.36199343,0.1638704,-0.7592775,0.6297969,0.573097,-0.4463665,-0.68725294,,0.057450555,1.3231614,0.43428224,0.9967645,0.078629695,-0.016671646,0.041209597,-0.67800796,-0.73389846,-0.06900972,0.73083687,-0.67905456,,-0.046835646,0.28028184,-0.081599005,0.75208974,-0.054624535,0.6567931,-0.008985693,0.99561685,0.09309347,-0.6589995,-0.07591638,0.74830234,,0.012905925,0.4559627,-0.28784665,-0.86545223,-0.36555064,-0.342586,0.47329834,-0.82077664,-0.31986615,-0.16425931,-0.43897426,0.8833575,,1.2964228903289428,0.15872532876393636,0.17651840188,0.6364089784755314,-0.373837463358245,0.2768235766451961,0.8701338402973056,,-1.07467233857846,0.10285907915179625,0.19169795778,4.537900066948591,-0.2624787160494111,-0.25349531556375277,-0.162037313605205,,0.0238237442897226,0.038864119118783735,0.08941844392,-0.11709667966849292,,3.3080578e-05,7.867813e-06,-9.536743e-06,1.0,-3.2439828e-05,-3.491342e-05,3.2439828e-05,0.99999994,-3.2782555e-06,3.491342e-05,3.3080578e-06,1.0,444,1.34,0,0,0.0,False,1.043742023335064,0.0059384475107315815
1.3654880310059525,14:33:48.934445,14:32:33.707282,0,,0.0877708,-0.015983135,0.038472205,-0.7891464,0.038277637,-0.6130112,-0.4609261,0.62274307,0.63224834,0.40594953,0.7814893,-0.47379243,,0.035767294,-0.002673246,0.019661427,0.8082751,0.46827284,0.35694802,0.16861333,-0.7649163,0.6216692,0.56414616,-0.44229335,-0.69721985,,0.057450555,1.3231614,0.43428224,0.9967645,0.078629695,-0.016671646,0.041209597,-0.67800796,-0.73389846,-0.06900972,0.73083687,-0.67905456,,-0.046839982,0.2802838,-0.081599824,0.7521042,-0.05451402,0.6567857,-0.00899378,0.99563134,0.092937656,-0.6589828,-0.07580578,0.7483282,,0.013029771,0.45587018,-0.28776547,-0.8702567,-0.3602558,-0.33595985,0.46732724,-0.81944233,-0.33184257,-0.15575153,-0.44579142,0.88148254,,1.2964151675960685,0.15874849696255902,0.17651580930000002,0.6364089784755314,-0.373837463358245,0.276660219164915,0.869807152165037,,-1.0744097656607365,0.10292086101479005,0.19176795744000003,4.537900066948591,-0.251274523068645,-0.24515233327677888,-0.16187396953907074,,0.0238237442897226,0.038864119118783735,0.08941844392,-0.11709667966849292,,3.3080578e-05,7.867813e-06,-9.536743e-06,1.0,-3.2439828e-05,-3.491342e-05,3.2439828e-05,0.99999994,-3.2782555e-06,3.491342e-05,3.3080578e-06,1.0,473,1.43,0,0,0.0,False,1.0435632901795007,0.00579360690839259
1.3933699059998617,14:33:49.017017,14:32:33.870043,0,,0.08776721,-0.015986368,0.0384959,-0.78844285,0.0428744,-0.6136118,-0.4579927,0.6249985,0.6321546,0.41060978,0.7794474,-0.47313958,,0.035496943,-0.0026453063,0.019233108,0.82678187,0.45401445,0.33211827,0.18587229,-0.77773976,0.6004767,0.5309267,-0.43473157,-0.72740984,,0.057450555,1.3231614,0.43428224,0.9967645,0.078629695,-0.016671646,0.041209597,-0.67800796,-0.73389846,-0.06900972,0.73083687,-0.67905456,,-0.046837665,0.28029895,-0.08161854,0.7512777,-0.058925536,0.6573504,-0.0035949426,0.99562615,0.09335752,-0.6599764,-0.07250056,0.7477799,,0.013337432,0.45555055,-0.28751957,-0.8867623,-0.34582126,-0.3066924,0.44515795,-0.81758696,-0.3652204,-0.12444674,-0.46039024,0.8789504,,1.2963456630002004,0.15878711062693016,0.17650414269,0.641860917006129,-0.37616028385425754,0.2751238164418506,0.8691537759004999,,-1.0743093701333715,0.10297492014490961,0.19201036367000002,4.537900066948591,-0.20960039064018565,-0.22694207895436821,-0.16187396953907068,,0.0238237442897226,0.038864119118783735,0.08941844392,-0.11709667966849292,,3.3080578e-05,7.867813e-06,-9.536743e-06,1.0,-3.2439828e-05,-3.491342e-05,3.2439828e-05,0.99999994,-3.2782555e-06,3.491342e-05,3.3080578e-06,1.0,481,1.454,0,0,0.0,False,1.0434441347424586,0.00584188710917255
1.475925639999332,14:33:49.045235,14:32:33.870043,0,,0.08776909,-0.015988931,0.03849557,-0.78839374,0.042854857,-0.6136764,-0.45789328,0.62530345,0.631925,0.4108151,0.7792039,-0.47336248,,0.03546948,-0.0026421174,0.019165397,0.83023417,0.45116895,0.32734954,0.18924278,-0.78052425,0.5957928,0.5243074,-0.4326989,-0.73339844,,0.057450555,1.3231614,0.43428224,0.9967645,0.078629695,-0.016671646,0.041209597,-0.67800796,-0.73389846,-0.06900972,0.73083687,-0.67905456,,-0.046839606,0.28029695,-0.08162005,0.75122213,-0.058883663,0.6574177,-0.0033776544,0.9956568,0.09303869,-0.66004086,-0.07211325,0.7477605,,0.013371019,0.45549747,-0.28748202,-0.8898123,-0.34297353,-0.3010037,0.44073558,-0.8168803,-0.3721005,-0.118263364,-0.46376264,0.8780308,,1.2963224948015777,0.15878711062693016,0.17650284640000002,0.6420706069496135,-0.37629692035402296,0.27474516190470355,0.8685003996359628,,-1.074463824790856,0.10297492014490961,0.19205184495000002,4.537900066948591,-0.2009922911549629,-0.22277141948798573,-0.16138393734066792,,0.0238237442897226,0.038864119118783735,0.08941844392,-0.11709667966849292,,3.3080578e-05,7.867813e-06,-9.536743e-06,1.0,-3.2439828e-05,-3.491342e-05,3.2439828e-05,0.99999994,-3.2782555e-06,3.491342e-05,3.3080578e-06,1.0,489,1.479,0,0,0.0,False,1.0432654015868956,0.006469529719305367
1.5041479010105832,14:33:49.067072,14:32:33.870043,0,,0.08777289,-0.015992016,0.038493514,-0.78840524,0.042638775,-0.61367667,-0.45788184,0.625525,0.6317139,0.4108057,0.7790378,-0.4736438,,0.03545457,-0.002632983,0.019093037,0.8332293,0.44849947,0.32338375,0.19220664,-0.7833247,0.5911506,0.5184452,-0.43040743,-0.7388937,,0.057450555,1.3231614,0.43428224,0.9967645,0.078629695,-0.016671646,0.041209597,-0.67800796,-0.73389846,-0.06900972,0.73083687,-0.67905456,,-0.046843417,0.2802933,-0.08162069,0.7512345,-0.05865224,0.6574243,-0.0033765917,0.9956894,0.092689045,-0.6600268,-0.07185106,0.74779814,,0.013392121,0.45544183,-0.2874373,-0.8924499,-0.34032434,-0.29616293,0.43681616,-0.8159815,-0.37863675,-0.11280418,-0.46728307,0.87688184,,1.296291603870081,0.15878711062693016,0.17650155011000002,0.6420706069496135,-0.37629692035402296,0.2744184469441413,0.8685003996359628,,-1.0746260021812148,0.10297492014490961,0.19210499284000002,4.537900066948591,-0.1936139201676291,-0.21857814377002222,-0.16105724920839937,,0.0238237442897226,0.038864119118783735,0.08941844392,-0.11709667966849292,,3.3080578e-05,7.867813e-06,-9.536743e-06,1.0,-3.2439828e-05,-3.491342e-05,3.2439828e-05,0.99999994,-3.2782555e-06,3.491342e-05,3.3080578e-06,1.0,497,1.504,0,0,0.0,False,1.0434441347424586,0.006083288113070129
1.5259828830021434,14:33:49.094125,14:32:33.870043,0,,0.08777411,-0.015993342,0.038493752,-0.7884081,0.04253464,-0.6136801,-0.45787895,0.625632,0.6316101,0.4108033,0.7789576,-0.4737778,,0.035476156,-0.0026015267,0.018976212,0.835649,0.44677106,0.3195095,0.19464535,-0.78482896,0.5883508,0.5136184,-0.4294636,-0.7428034,,0.057450555,1.3231614,0.43428224,0.9967645,0.078629695,-0.016671646,0.041209597,-0.67800796,-0.73389846,-0.06900972,0.73083687,-0.67905456,,-0.046844687,0.28029254,-0.08162176,0.7512376,-0.05854069,0.65743065,-0.003376326,0.99570507,0.092520304,-0.6600232,-0.07172443,0.74781346,,0.013379567,0.45535472,-0.28735158,-0.8945754,-0.33858126,-0.29171485,0.43359408,-0.8157083,-0.38290492,-0.10830978,-0.46902314,0.8765194,,1.2962838811372066,0.15878711062693016,0.17650025382,0.6420706069496135,-0.37629692035402296,0.2742550894638602,0.8688270877682314,,-1.0748499614345672,0.10295947467916117,0.19221388120000002,4.537900066948591,-0.18773855067771517,-0.21658977819730163,-0.1610572492083993,,0.0238237442897226,0.038864119118783735,0.08941844392,-0.11709667966849292,,3.3080578e-05,7.867813e-06,-9.536743e-06,1.0,-3.2439828e-05,-3.491342e-05,3.2439828e-05,0.99999994,-3.2782555e-06,3.491342e-05,3.3080578e-06,1.0,505,1.528,0,0,0.0,False,1.0435632901795007,0.006276408916187304
1.553034568001749,14:33:49.117013,14:32:33.870043,0,,0.08777501,-0.015992448,0.03849408,-0.7884116,0.042484537,-0.6136791,-0.4578776,0.6256793,0.63156414,0.41079816,0.7789223,-0.47384033,,0.035511345,-0.0025754198,0.01889956,0.8356702,0.44679305,0.3194233,0.19468832,-0.78479177,0.58838624,0.5135676,-0.4295088,-0.7428125,,0.057450555,1.3231614,0.43428224,0.9967645,0.078629695,-0.016671646,0.041209597,-0.67800796,-0.73389846,-0.06900972,0.73083687,-0.67905456,,-0.046845566,0.28029338,-0.081621274,0.7512414,-0.058487333,0.65743107,-0.0033791147,0.9957122,0.09244328,-0.6600189,-0.07166875,0.7478226,,0.0133500295,0.45529768,-0.28729105,-0.89459497,-0.33860165,-0.29163122,0.4335693,-0.81573117,-0.38288426,-0.10824742,-0.4689687,0.8765563,,1.2962838811372066,0.15879483335980438,0.17650025382,0.6420706069496135,-0.37629692035402296,0.2741734107237196,0.8689904318343656,,-1.0749271887633094,0.10292086101479005,0.19230073263000003,4.537900066948591,-0.18760191417794975,-0.21670119610099808,-0.16138393734066792,,0.0238237442897226,0.038864119118783735,0.08941844392,-0.11709667966849292,,3.3080578e-05,7.867813e-06,-9.536743e-06,1.0,-3.2439828e-05,-3.491342e-05,3.2439828e-05,0.99999994,-3.2782555e-06,3.491342e-05,3.3080578e-06,1.0,513,1.553,0,0,0.0,False,1.0432654015868956,0.006372969317746335
1.575935714005027,14:33:49.146373,14:32:34.010383,0,,0.08777619,-0.015995264,0.038493246,-0.7884139,0.042476717,-0.6136767,-0.45787326,0.6256912,0.63155556,0.41079858,0.77891326,-0.47385484,,0.03552752,-0.0025532618,0.01884085,0.8356703,0.44681767,0.31938875,0.19469014,-0.78474784,0.5884441,0.51356685,-0.4295633,-0.7427814,,0.057450555,1.3231614,0.43428224,0.9967645,0.078629695,-0.016671646,0.041209597,-0.67800796,-0.73389846,-0.06900972,0.73083687,-0.67905456,,-0.046846803,0.2802908,-0.08162268,0.75124377,-0.05847868,0.6574291,-0.003375795,0.9957138,0.09242681,-0.6600162,-0.07165441,0.74782634,,0.013337929,0.45525637,-0.28724256,-0.8945951,-0.33862427,-0.29160464,0.43356958,-0.81575906,-0.38282442,-0.10824549,-0.46890375,0.8765912,,1.2962684356714582,0.15878711062693016,0.17649895753000003,0.6420706069496135,-0.37629692035402296,0.2741734107237196,0.8689904318343656,,-1.0749271887633094,0.10291313828191581,0.19236554713,4.537900066948591,-0.18760191417794975,-0.21678287484113865,-0.16122059327453364,,0.0238237442897226,0.038864119118783735,0.08941844392,-0.11709667966849292,,3.3080578e-05,7.867813e-06,-9.536743e-06,1.0,-3.2439828e-05,-3.491342e-05,3.2439828e-05,0.99999994,-3.2782555e-06,3.491342e-05,3.3080578e-06,1.0,521,1.577,0,0,0.0,False,1.0434441347424586,0.0065660901208643985
1.6052845770027488,14:33:49.168356,14:32:34.010383,0,,0.08777708,-0.015994385,0.038493574,-0.7884174,0.04247675,-0.6136722,-0.45787182,0.62568694,0.6315608,0.41079342,0.77891666,-0.47385377,,0.0355376,-0.0025145933,0.018748045,0.8357048,0.446882,0.3192082,0.19470626,-0.7845894,0.5886501,0.5135045,-0.42978585,-0.7426958,,0.057450555,1.3231614,0.43428224,0.9967645,0.078629695,-0.016671646,0.041209597,-0.67800796,-0.73389846,-0.06900972,0.73083687,-0.67905456,,-0.046847682,0.28029165,-0.081622206,0.7512476,-0.05847902,0.6574247,-0.0033785836,0.99571335,0.092431106,-0.6600118,-0.07165981,0.7478297,,0.013333873,0.45519483,-0.2871625,-0.8946246,-0.33867913,-0.29145035,0.43351984,-0.81587875,-0.38262573,-0.108200796,-0.46865588,0.8767293,,1.2962684356714582,0.15879483335980438,0.17649895753000003,0.6420706069496135,-0.37629692035402296,0.2741734107237196,0.8689904318343656,,-1.0748499614345672,0.10293630648053849,0.19246536146,4.537900066948591,-0.18760191417794975,-0.21702791106156036,-0.16105724920839937,,0.0238237442897226,0.038864119118783735,0.08941844392,-0.11709667966849292,,3.3080578e-05,7.867813e-06,-9.536743e-06,1.0,-3.2439828e-05,-3.491342e-05,3.2439828e-05,0.99999994,-3.2782555e-06,3.491342e-05,3.3080578e-06,1.0,550,1.667,0,0,0.0,False,1.043742023335064,0.006276408916187304
1.6272813380055595,14:33:49.258234,14:32:34.098040,0,,0.08777568,-0.015995428,0.038494974,-0.788411,0.042480614,-0.61368006,-0.45787612,0.62568736,0.6315572,0.41080096,0.7789161,-0.4738481,,0.035391867,-0.002463065,0.018493593,0.8462647,0.4418968,0.29759565,0.20542076,-0.7860447,0.58304036,0.4915671,-0.43227416,-0.7559766,,0.057450555,1.3231614,0.43428224,0.9967645,0.078629695,-0.016671646,0.041209597,-0.67800796,-0.73389846,-0.06900972,0.73083687,-0.67905456,,-0.046846382,0.280292,-0.08162403,0.7512407,-0.058482837,0.65743226,-0.0033760606,0.9957132,0.092432894,-0.6600197,-0.07165888,0.7478228,,0.0134991,0.45502055,-0.2869866,-0.9038216,-0.33337492,-0.268268,0.4187455,-0.8181186,-0.39412466,-0.08808375,-0.46855438,0.87903243,,1.2962761584043323,0.15878711062693016,0.17649766124000002,0.6420706069496135,-0.37629692035402296,0.2741734107237196,0.8689904318343656,,-1.0749966933591775,0.10314482026814255,0.19263517545000003,4.537900066948591,-0.1608211602239234,-0.21632248790726377,-0.16073056107613076,,0.0238237442897226,0.038864119118783735,0.08941844392,-0.11709667966849292,,3.3080578e-05,7.867813e-06,-9.536743e-06,1.0,-3.2439828e-05,-3.491342e-05,3.2439828e-05,0.99999994,-3.2782555e-06,3.491342e-05,3.3080578e-06,1.0,558,1.692,0,0,0.0,False,1.0429079352757693,0.006662650522422986
1.7171452100010356,14:33:49.278446,14:32:34.098040,0,,0.08777821,-0.01599516,0.03849423,-0.7884447,0.042768396,-0.6136168,-0.45771816,0.62562484,0.63173366,0.41091228,0.7789506,-0.4736949,,0.035325244,-0.002449043,0.018426418,0.85117024,0.43778792,0.28957012,0.21058056,-0.79014903,0.57560426,0.48079613,-0.4289593,-0.764741,,0.057450555,1.3231614,0.43428224,0.9967645,0.078629695,-0.016671646,0.041209597,-0.67800796,-0.73389846,-0.06900972,0.73083687,-0.67905456,,-0.046848867,0.2802916,-0.081623174,0.7512744,-0.058773946,0.65736777,-0.0031865072,0.9956923,0.09266458,-0.65998226,-0.07171123,0.74785084,,0.013570602,0.45497823,-0.2869392,-0.9080521,-0.32929313,-0.25885794,0.41147587,-0.8168143,-0.40435377,-0.07828796,-0.47368807,0.87720615,,1.296260712938584,0.15879483335980438,0.17649766124000002,0.6422802968930981,-0.37629692035402296,0.27433676820400077,0.8689904318343656,,-1.0751974844139074,0.10329927492562704,0.19266887899000001,4.537900066948591,-0.14674760074808305,-0.20950249419650918,-0.16089390514226504,,0.0238237442897226,0.038864119118783735,0.08941844392,-0.11709667966849292,,3.3080578e-05,7.867813e-06,-9.536743e-06,1.0,-3.2439828e-05,-3.491342e-05,3.2439828e-05,0.99999994,-3.2782555e-06,3.491342e-05,3.3080578e-06,1.0,566,1.717,0,0,0.0,False,1.0431462461498535,0.006614370321643914
1.7373672260000603,14:33:49.308829,14:32:34.180466,0,,0.08778033,-0.015995607,0.038494796,-0.7884512,0.04271441,-0.6136124,-0.45771393,0.625676,0.63168615,0.4109047,0.7789124,-0.4737641,,0.035271548,-0.0023942068,0.018354297,0.85767287,0.43306687,0.2772188,0.21762623,-0.79418814,0.5673658,0.46587119,-0.4262841,-0.7754004,,0.057450555,1.3231614,0.43428224,0.9967645,0.078629695,-0.016671646,0.041209597,-0.67800796,-0.73389846,-0.06900972,0.73083687,-0.67905456,,-0.046851017,0.28029168,-0.081623755,0.7512813,-0.058716435,0.657365,-0.0031890303,0.9957,0.092581466,-0.6599744,-0.07165108,0.74786353,,0.013626514,0.45495045,-0.2868544,-0.9136134,-0.32454696,-0.24490786,0.4013873,-0.81594974,-0.41607,-0.06479823,-0.47843006,0.87573165,,1.2962529902057098,0.1588025560926786,0.17649636495,0.6422802968930981,-0.37629692035402296,0.2742550894638602,0.8688270877682314,,-1.0756994620507319,0.10364679790496714,0.19271554543000002,4.537900066948591,-0.1293947652778721,-0.20413134907236036,-0.16154728140680216,,0.0238237442897226,0.038864119118783735,0.08941844392,-0.11709667966849292,,3.3080578e-05,7.867813e-06,-9.536743e-06,1.0,-3.2439828e-05,-3.491342e-05,3.2439828e-05,0.99999994,-3.2782555e-06,3.491342e-05,3.3080578e-06,1.0,574,1.741,0,0,0.0,False,1.0433845570239373,0.007242012931776731
1.7677511330111884,14:33:49.331790,14:32:34.180466,0,,0.08778024,-0.01599507,0.038495243,-0.78847545,0.04290971,-0.6135675,-0.4575631,0.6257132,0.6317585,0.41102594,0.77887183,-0.47372583,,0.035285443,-0.002314292,0.0183326,0.86172557,0.43148243,0.2669305,0.2224387,-0.7941276,0.5655815,0.45601535,-0.42800033,-0.78029835,,0.057450555,1.3231614,0.43428224,0.9967645,0.078629695,-0.016671646,0.041209597,-0.67800796,-0.73389846,-0.06900972,0.73083687,-0.67905456,,-0.04685093,0.28029236,-0.081623666,0.751305,-0.05890813,0.6573208,-0.0029972165,0.99569345,0.09265835,-0.65994835,-0.07158481,0.7478929,,0.013608441,0.45497003,-0.28677475,-0.9170592,-0.32281289,-0.23408188,0.39483505,-0.81719387,-0.41988036,-0.055747475,-0.47747886,0.87687296,,1.2962529902057098,0.1588025560926786,0.17649636495,0.6424899868365826,-0.37629692035402296,0.2742550894638602,0.8688270877682314,,-1.0763790625436638,0.10409471641167217,0.19275443413,4.537690377005107,-0.11696084379921703,-0.2047139657122889,-0.16138393734066792,,0.0238237442897226,0.038864119118783735,0.08941844392,-0.11709667966849292,,3.3080578e-05,7.867813e-06,-9.536743e-06,1.0,-3.2439828e-05,-3.491342e-05,3.2439828e-05,0.99999994,-3.2782555e-06,3.491342e-05,3.3080578e-06,1.0,582,1.766,0,0,0.0,False,1.0430866684313322,0.00617984851462916
1.7907048640045105,14:33:49.351480,14:32:34.180466,0,,0.08777758,-0.015996292,0.038495332,-0.78846556,0.04291355,-0.61357987,-0.45756873,0.6257179,0.6317498,0.41103864,0.77886784,-0.47372127,,0.035296723,-0.0022533908,0.018322349,0.86486983,0.43006206,0.25893375,0.22631745,-0.79445493,0.56357944,0.44808528,-0.42882162,-0.7844306,,0.057450555,1.3231614,0.43428224,0.9967645,0.078629695,-0.016671646,0.041209597,-0.67800796,-0.73389846,-0.06900972,0.73083687,-0.67905456,,-0.046848327,0.28029165,-0.08162477,0.75129426,-0.058911603,0.6573327,-0.0029919047,0.9956937,0.09265584,-0.65996057,-0.07157847,0.7478827,,0.013593381,0.45499024,-0.28671727,-0.9197166,-0.32129768,-0.2255863,0.3895809,-0.81788474,-0.42342803,-0.04845715,-0.4773179,0.8773936,,1.296260712938584,0.15878711062693016,0.17649636495,0.6424899868365826,-0.37629692035402296,0.27425508946386024,0.8685003996359628,,-1.076935099310608,0.10444996212388649,0.19277906364000003,4.537480687061622,-0.10698637931633988,-0.20451624118779033,-0.16007718481159364,,0.0238237442897226,0.038864119118783735,0.08941844392,-0.11709667966849292,,3.3080578e-05,7.867813e-06,-9.536743e-06,1.0,-3.2439828e-05,-3.491342e-05,3.2439828e-05,0.99999994,-3.2782555e-06,3.491342e-05,3.3080578e-06,1.0,590,1.79,0,0,0.0,False,1.042669624401685,0.006421249518525851
1.810401554001146,14:33:49.379663,14:32:34.258345,0,,0.087777965,-0.015995547,0.03849742,-0.7884662,0.042967588,-0.61357534,-0.4575702,0.6256583,0.63180774,0.41103584,0.7789128,-0.4736499,,0.035308182,-0.0021661744,0.018290699,0.8704863,0.42526847,0.24779063,0.23294497,-0.79945445,0.55372304,0.43357828,-0.42428666,-0.79497826,,0.057450555,1.3231614,0.43428224,0.9967645,0.078629695,-0.016671646,0.041209597,-0.67800796,-0.73389846,-0.06900972,0.73083687,-0.67905456,,-0.046848785,0.28029367,-0.08162563,0.751295,-0.058969792,0.6573267,-0.0029949583,0.99568516,0.09274755,-0.65995973,-0.07164943,0.74787664,,0.0135781085,0.45500523,-0.28662625,-0.92440605,-0.31658384,-0.21271619,0.3797522,-0.8158961,-0.43600672,-0.03552163,-0.48382667,0.87444264,,1.2962684356714582,0.15879483335980438,0.17649506866,0.6424899868365826,-0.37629692035402296,0.27433676820400077,0.868663743702097,,-1.0778541045226406,0.10496738522645954,0.19282702637000002,4.537480687061622,-0.08908699784706718,-0.19656865429322634,-0.16073056107613076,,0.0238237442897226,0.038864119118783735,0.08941844392,-0.11709667966849292,,3.3080578e-05,7.867813e-06,-9.536743e-06,1.0,-3.2439828e-05,-3.491342e-05,3.2439828e-05,0.99999994,-3.2782555e-06,3.491342e-05,3.3080578e-06,1.0,623,1.893,0,0,0.0,False,1.0433845570239373,0.006228128715408232
1.8385864260053495,14:33:49.478530,14:32:34.342311,0,,0.08777945,-0.015999064,0.038500994,-0.78844184,0.042772293,-0.6136202,-0.457721,0.625621,0.6317354,0.4109146,0.77895343,-0.47368816,,0.035639375,-0.0019357875,0.018236518,0.87100327,0.42396355,0.24820976,0.23322405,-0.80150807,0.5506281,0.43238837,-0.42171037,-0.7969946,,0.057450555,1.3231614,0.43428224,0.9967645,0.078629695,-0.016671646,0.041209597,-0.67800796,-0.73389846,-0.06900972,0.73083687,-0.67905456,,-0.046850566,0.28029385,-0.08163055,0.7512713,-0.058778103,0.6573709,-0.0031867723,0.9956917,0.092670664,-0.6599858,-0.0717157,0.7478473,,0.013236396,0.45503256,-0.28640673,-0.9248253,-0.31537583,-0.21268797,0.37880695,-0.81455004,-0.43933308,-0.034689944,-0.48687404,0.87278306,,1.2962684356714582,0.15879483335980438,0.17648988350000003,0.6422802968930981,-0.37629692035402296,0.27433676820400077,0.868663743702097,,-1.0797461740768255,0.1056778766508882,0.19304091422000003,4.537900066948591,-0.0858077218526966,-0.19270838477069552,-0.16105724920839937,,0.0238237442897226,0.038864119118783735,0.08941844392,-0.11709667966849292,,3.3080578e-05,7.867813e-06,-9.536743e-06,1.0,-3.2439828e-05,-3.491342e-05,3.2439828e-05,0.99999994,-3.2782555e-06,3.491342e-05,3.3080578e-06,1.0,631,1.917,0,0,0.0,False,1.0432058238683743,0.006421249518525851
1.9374531240027864,14:33:49.502298,14:32:34.342311,0,,0.08777989,-0.01599893,0.038504303,-0.78851485,0.043207854,-0.613496,-0.4572685,0.62588745,0.63179916,0.41127822,0.77871525,-0.47376412,,0.03565315,-0.0019202605,0.018183172,0.87096524,0.4240504,0.24819478,0.23317981,-0.80135447,0.5508704,0.43248883,-0.42191494,-0.79683185,,0.057450555,1.3231614,0.43428224,0.9967645,0.078629695,-0.016671646,0.041209597,-0.67800796,-0.73389846,-0.06900972,0.73083687,-0.67905456,,-0.04685116,0.28029636,-0.08163268,0.75134224,-0.05919212,0.6572527,-0.0026113216,0.99569464,0.09265731,-0.6599076,-0.071333654,0.7479529,,0.013226687,0.45499286,-0.28636667,-0.92479384,-0.31545436,-0.21270835,0.3788757,-0.81465954,-0.43907067,-0.034778118,-0.4866399,0.87291014,,1.2962684356714582,0.15879483335980438,0.17648729092,0.6429093667235517,-0.37629692035402296,0.27409173198357906,0.868173711503694,,-1.079730728611077,0.1056469857193913,0.19309795098000002,4.537900066948591,-0.08594435835246203,-0.1930053605677019,-0.1615472814068022,,0.0238237442897226,0.038864119118783735,0.08941844392,-0.11709667966849292,,3.3080578e-05,7.867813e-06,-9.536743e-06,1.0,-3.2439828e-05,-3.491342e-05,3.2439828e-05,0.99999994,-3.2782555e-06,3.491342e-05,3.3080578e-06,1.0,639,1.942,0,0,0.0,False,1.0431462461498535,0.006952331727100081
1.9612110120069701,14:33:49.529066,14:32:34.342311,0,,0.087782025,-0.015997902,0.03850594,-0.7885219,0.043057583,-0.6134975,-0.45726573,0.6260338,0.6316562,0.41126788,0.778606,-0.4739527,,0.03564529,-0.0019169226,0.0181548,0.8709966,0.42408738,0.24802148,0.23320621,-0.8012301,0.55104,0.43241137,-0.42211384,-0.79676855,,0.057450555,1.3231614,0.43428224,0.9967645,0.078629695,-0.016671646,0.041209597,-0.67800796,-0.73389846,-0.06900972,0.73083687,-0.67905456,,-0.04685334,0.28029823,-0.08163292,0.7513498,-0.059031755,0.65725845,-0.0026168975,0.9957165,0.092421934,-0.65989894,-0.07116118,0.74797696,,0.013236982,0.4549712,-0.2863493,-0.9248195,-0.31548163,-0.21255615,0.3788186,-0.8147726,-0.43891013,-0.03471685,-0.48643288,0.8730279,,1.2962684356714582,0.15881027882555282,0.17648599463,0.6429093667235517,-0.37629692035402296,0.27384669576315734,0.8683370555698285,,-1.0796457785494606,0.10562381752076862,0.19312258049000003,4.537900066948591,-0.08594435835246203,-0.19325039678812359,-0.16105724920839937,,0.0238237442897226,0.038864119118783735,0.08941844392,-0.11709667966849292,,3.3080578e-05,7.867813e-06,-9.536743e-06,1.0,-3.2439828e-05,-3.491342e-05,3.2439828e-05,0.99999994,-3.2782555e-06,3.491342e-05,3.3080578e-06,1.0,647,1.966,0,0,0.0,False,1.0435632901795007,0.0065660901208643985
1.9879875190090388,14:33:49.550294,14:32:34.342311,0,,0.087780975,-0.01599969,0.038508385,-0.78851545,0.042961225,-0.61351246,-0.45727003,0.6261374,0.63155043,0.41127542,0.778528,-0.4740743,,0.03562382,-0.0019154176,0.018136382,0.87104696,0.42405602,0.24789831,0.23324403,-0.80122757,0.5510278,0.4322896,-0.42215025,-0.7968154,,0.057450555,1.3231614,0.43428224,0.9967645,0.078629695,-0.016671646,0.041209597,-0.67800796,-0.73389846,-0.06900972,0.73083687,-0.67905456,,-0.046852466,0.2802988,-0.08163595,0.75134295,-0.058928195,0.6572756,-0.002614374,0.9957314,0.09226106,-0.6599068,-0.07103806,0.7479817,,0.013259953,0.4549588,-0.28633824,-0.92486066,-0.31544715,-0.21242842,0.37872675,-0.81479865,-0.43894106,-0.034623675,-0.48641163,0.8730435,,1.2962761584043323,0.1588025560926786,0.17648340205000002,0.6429093667235517,-0.37629692035402296,0.2736833382828763,0.8686637437020971,,-1.0795067693577247,0.10562381752076862,0.19313424710000002,4.537900066948591,-0.08594435835246203,-0.19325039678812359,-0.16105724920839937,,0.0238237442897226,0.038864119118783735,0.08941844392,-0.11709667966849292,,3.3080578e-05,7.867813e-06,-9.536743e-06,1.0,-3.2439828e-05,-3.491342e-05,3.2439828e-05,0.99999994,-3.2782555e-06,3.491342e-05,3.3080578e-06,1.0,655,1.991,0,0,0.0,False,1.0433845570239373,0.00584188710917255
2.009215119003784,14:33:49.581122,14:32:34.431871,0,,0.087781675,-0.016001165,0.038510382,-0.78851545,0.042861003,-0.6135195,-0.45727003,0.6262406,0.6314481,0.41127542,0.7784506,-0.47420144,,0.035619915,-0.0019009933,0.018119633,0.87047124,0.42394245,0.25010508,0.23253477,-0.8020274,0.5501632,0.43382865,-0.42074305,-0.7967231,,0.057450555,1.3231614,0.43428224,0.9967645,0.078629695,-0.016671646,0.041209597,-0.67800796,-0.73389846,-0.06900972,0.73083687,-0.67905456,,-0.046853315,0.28029925,-0.081638366,0.75134295,-0.058820825,0.6572853,-0.002614374,0.9957465,0.0920984,-0.6599068,-0.07091587,0.7479933,,0.013264305,0.4549521,-0.28631726,-0.9243826,-0.3154075,-0.2145574,0.37976393,-0.8139773,-0.43956825,-0.036001727,-0.48781043,0.87220687,,1.2962761584043323,0.1588025560926786,0.17648080947000003,0.6429093667235517,-0.37629692035402296,0.2735199808025951,0.8689904318343656,,-1.0793754828988629,0.10565470845226552,0.19315498774,4.537900066948591,-0.08785726934917822,-0.19160886739623312,-0.16122059327453364,,0.0238237442897226,0.038864119118783735,0.08941844392,-0.11709667966849292,,3.3080578e-05,7.867813e-06,-9.536743e-06,1.0,-3.2439828e-05,-3.491342e-05,3.2439828e-05,0.99999994,-3.2782555e-06,3.491342e-05,3.3080578e-06,1.0,663,2.016,0,0,0.0,False,1.042848357557248,0.0067592109239820175
2.040040489009698,14:33:49.601283,14:32:34.431871,0,,0.08778151,-0.016002074,0.038513154,-0.7885126,0.042915005,-0.61351943,-0.45727286,0.6261852,0.63150096,0.41127774,0.77849215,-0.47413123,,0.03560082,-0.0019003376,0.018106699,0.8712705,0.4240155,0.24718128,0.23348345,-0.80106544,0.551162,0.43170962,-0.42249843,-0.7969452,,0.057450555,1.3231614,0.43428224,0.9967645,0.078629695,-0.016671646,0.041209597,-0.67800796,-0.73389846,-0.06900972,0.73083687,-0.67905456,,-0.046853315,0.28030065,-0.081640914,0.75133985,-0.058878664,0.6572836,-0.0026146388,0.9957384,0.09218582,-0.6599103,-0.070981435,0.747984,,0.013284459,0.45494372,-0.28630975,-0.925045,-0.31538606,-0.2117152,0.3783212,-0.8150112,-0.43889615,-0.03412853,-0.48609507,0.8732393,,1.2962838811372066,0.1588025560926786,0.17647821689,0.6429093667235517,-0.37629692035402296,0.2736016595427357,0.8691537759004999,,-1.0793754828988629,0.1056778766508882,0.1931601729,4.537900066948591,-0.08539781235340027,-0.19353271092262816,-0.16171062547293646,,0.0238237442897226,0.038864119118783735,0.08941844392,-0.11709667966849292,,3.3080578e-05,7.867813e-06,-9.536743e-06,1.0,-3.2439828e-05,-3.491342e-05,3.2439828e-05,0.99999994,-3.2782555e-06,3.491342e-05,3.3080578e-06,1.0,692,2.106,0,0,0.0,False,1.0429675129942906,0.006469529719305367
2.060207773000002,14:33:49.691485,14:32:34.517295,0,,0.08777855,-0.016027823,0.038528398,-0.78848755,0.04276905,-0.61356187,-0.4572917,0.6263487,0.63132536,0.41130477,0.77836883,-0.4743102,,0.03566259,-0.0017755479,0.018062115,0.880402,0.4249171,0.21056493,0.24495131,-0.7876638,0.5653182,0.40606776,-0.44612917,-0.7975447,,0.057383772,1.3231581,0.43427074,0.99676055,0.07869398,-0.016602064,0.041304108,-0.6780005,-0.73390007,-0.06900972,0.73083687,-0.67905456,,-0.046798464,0.28030315,-0.08168291,0.75135875,-0.058780532,0.6572708,-0.0025553682,0.99575824,0.09197305,-0.659889,-0.07078432,0.7480215,,0.013273976,0.45497426,-0.28618816,-0.9325471,-0.31496653,-0.17649926,0.3608644,-0.82871103,-0.42780238,-0.011523456,-0.46263817,0.8864723,,1.2962761584043323,0.15879483335980438,0.17646914286,0.6429093667235517,-0.37629692035402296,0.27335662332231403,0.86801036743756,,-1.0814374525762807,0.10638836807531685,0.19323665401,4.537900066948591,-0.053698144407818095,-0.21970837954076014,-0.1610572492083993,,0.0238237442897226,0.038864119118783735,0.08941844392,-0.11709667966849292,,-3.2827258e-05,-3.5762787e-06,1.66893e-06,1.0,3.1944364e-05,3.437698e-05,-3.1951815e-05,1.0,3.2484531e-06,-3.438443e-05,-3.1888485e-06,1.0,700,2.13,0,0,0.0,False,1.0429079352757693,0.006710930723202946
2.1503811990114627,14:33:49.719755,14:32:34.517295,0,,0.08778399,-0.016025051,0.038533464,-0.78852934,0.043014675,-0.613491,-0.4571339,0.6263131,0.6314749,0.41140008,0.77838385,-0.4742028,,0.03573534,-0.0017292649,0.01806742,0.88247126,0.42491603,0.20171916,0.24772018,-0.78441054,0.56862545,0.39984873,-0.4518257,-0.79748,,0.057383772,1.3231581,0.43427074,0.99676055,0.07869398,-0.016602064,0.041304108,-0.6780005,-0.73390007,-0.06900972,0.73083687,-0.67905456,,-0.046804048,0.2803087,-0.08168402,0.7514013,-0.05902768,0.6572,-0.0023774814,0.995742,0.09215275,-0.6598412,-0.07080618,0.74806154,,0.013197583,0.4549929,-0.28615236,-0.93421596,-0.3146713,-0.16799542,0.35665682,-0.83197105,-0.4249942,-0.006033843,-0.45695308,0.88947034,,1.2962761584043323,0.15883344702417548,0.17646525399000001,0.6431190566670362,-0.37629692035402296,0.27343830206245456,0.8681737115036943,,-1.0822251713294517,0.10661232732866936,0.1932638761,4.537900066948591,-0.04577322742142255,-0.22600726047487146,-0.16105724920839937,,0.0238237442897226,0.038864119118783735,0.08941844392,-0.11709667966849292,,-3.2827258e-05,-3.5762787e-06,1.66893e-06,1.0,3.1944364e-05,3.437698e-05,-3.1951815e-05,1.0,3.2484531e-06,-3.438443e-05,-3.1888485e-06,1.0,708,2.155,0,0,0.0,False,1.042848357557248,0.005262524699818805
2.1786501050082734,14:33:49.741406,14:32:34.609736,0,,0.08778857,-0.01602669,0.03853558,-0.78854215,0.04300696,-0.613475,-0.45712537,0.62631226,0.6314819,0.411385,0.778385,-0.47421402,,0.035920314,-0.0016240627,0.01809597,0.8843549,0.4254433,0.19213095,0.25038436,-0.7796663,0.57395834,0.3939848,-0.4594763,-0.796026,,0.057383772,1.3231581,0.43427074,0.99676055,0.07869398,-0.016602064,0.041304108,-0.6780005,-0.73390007,-0.06900972,0.73083687,-0.67905456,,-0.04680877,0.28030908,-0.0816864,0.75141513,-0.059020065,0.65718484,-0.0023825276,0.9957424,0.09214918,-0.65982544,-0.07080805,0.74807525,,0.013002868,0.4550469,-0.28607976,-0.9357269,-0.31482932,-0.15905264,0.35272452,-0.83622783,-0.41989103,-0.00081023714,-0.44900507,0.8935288,,1.296260712938584,0.15884889248992393,0.17646136512000002,0.6431190566670362,-0.37629692035402296,0.27343830206245456,0.8681737115036943,,-1.0836693223769316,0.10704480036962592,0.19332091286000003,4.537900066948591,-0.037575037435496124,-0.2347343032001708,-0.16187396953907077,,0.0238237442897226,0.038864119118783735,0.08941844392,-0.11709667966849292,,-3.2827258e-05,-3.5762787e-06,1.66893e-06,1.0,3.1944364e-05,3.437698e-05,-3.1951815e-05,1.0,3.2484531e-06,-3.438443e-05,-3.1888485e-06,1.0,716,2.179,0,0,0.0,False,1.0430866684313322,0.006083288113070129
2.2003134260012303,14:33:49.771350,14:32:34.609736,0,,0.08778991,-0.016027644,0.038541123,-0.788567,0.04315612,-0.61343265,-0.45697594,0.626393,0.63150996,0.41150334,0.7783118,-0.47423148,,0.036111943,-0.0015160292,0.018142343,0.88427734,0.42612335,0.19097725,0.2504438,-0.7779661,0.57623494,0.39412102,-0.46172243,-0.7946577,,0.057383772,1.3231581,0.43427074,0.99676055,0.07869398,-0.016602064,0.041304108,-0.6780005,-0.73390007,-0.06900972,0.73083687,-0.67905456,,-0.04681042,0.28031245,-0.08169078,0.75143933,-0.059162624,0.65714437,-0.0021937513,0.99574226,0.09215509,-0.6597985,-0.07069057,0.7481101,,0.012799597,0.45511675,-0.28601384,-0.935668,-0.3154214,-0.15822381,0.35288066,-0.8373895,-0.4174374,-0.00082626694,-0.44641694,0.8948247,,1.2962684356714582,0.15885661522279818,0.17645617996000001,0.6433287466105208,-0.37629692035402296,0.27335662332231403,0.8683370555698284,,-1.0848354550409396,0.10745410521195983,0.1933675793,4.537900066948591,-0.0364819454373726,-0.23742257871283456,-0.16187396953907068,,0.0238237442897226,0.038864119118783735,0.08941844392,-0.11709667966849292,,-3.2827258e-05,-3.5762787e-06,1.66893e-06,1.0,3.1944364e-05,3.437698e-05,-3.1951815e-05,1.0,3.2484531e-06,-3.438443e-05,-3.1888485e-06,1.0,724,2.204,0,0,0.0,False,1.0430866684313322,0.006035007912290169
2.23026516000391,14:33:49.799731,14:32:34.609736,0,,0.087791026,-0.016032457,0.038547263,-0.7885876,0.04335143,-0.61339235,-0.45682648,0.6264343,0.6315771,0.41162974,0.7782676,-0.4741943,,0.036418162,-0.0013341457,0.018226683,0.8837079,0.42673886,0.19223478,0.24994229,-0.7775315,0.57703865,0.39571345,-0.4618861,-0.7937708,,0.057383772,1.3231581,0.43427074,0.99676055,0.07869398,-0.016602064,0.041304108,-0.6780005,-0.73390007,-0.06900972,0.73083687,-0.67905456,,-0.046811998,0.2803136,-0.08169841,0.751459,-0.05935402,0.6571046,-0.0019991333,0.99573594,0.09222762,-0.65977675,-0.07061892,0.7481361,,0.012473039,0.4552417,-0.28590566,-0.935218,-0.31605086,-0.15962209,0.35406658,-0.83738947,-0.4164322,-0.0020521008,-0.4459717,0.8950447,,1.2962684356714582,0.15884889248992393,0.17644840222000002,0.6435384365540052,-0.37629692035402296,0.27335662332231403,0.8683370555698284,,-1.086642574533508,0.10815687390351426,0.19343757896000002,4.537900066948591,-0.03634530893760716,-0.23753399661653096,-0.16187396953907068,,0.0238237442897226,0.038864119118783735,0.08941844392,-0.11709667966849292,,-3.2827258e-05,-3.5762787e-06,1.66893e-06,1.0,3.1944364e-05,3.437698e-05,-3.1951815e-05,1.0,3.2484531e-06,-3.438443e-05,-3.1888485e-06,1.0,732,2.229,0,0,0.0,False,1.043027090712811,0.005359085101377836
2.2586545800004387,14:33:49.824791,14:32:34.695603,0,,0.08779207,-0.016038746,0.038555667,-0.78858125,0.04325508,-0.6134074,-0.45683074,0.6265379,0.6314712,0.41163728,0.7781896,-0.47431582,,0.036726035,-0.0011305213,0.0182994,0.8831323,0.4273725,0.19346815,0.24943234,-0.777048,0.57791,0.39731687,-0.46211383,-0.79283667,,0.057383772,1.3231581,0.43427074,0.99676055,0.07869398,-0.016602064,0.041304108,-0.6780005,-0.73390007,-0.06900972,0.73083687,-0.67905456,,-0.046813667,0.28031546,-0.08170868,0.7514521,-0.059250478,0.65712184,-0.00199661,0.99575084,0.09206675,-0.6597846,-0.07049577,0.74814075,,0.012144231,0.45536742,-0.28577292,-0.9347623,-0.31669602,-0.16100639,0.3552585,-0.8374222,-0.41534978,-0.0032907054,-0.4454522,0.8952997,,1.2962761584043323,0.1588411697570497,0.17643803190000001,0.6435384365540052,-0.37629692035402296,0.27319326584203285,0.8683370555698285,,-1.0884496940260766,0.10894459265668516,0.19352702297000002,4.537900066948591,-0.03620867243784172,-0.23764541452022742,-0.16187396953907068,,0.0238237442897226,0.038864119118783735,0.08941844392,-0.11709667966849292,,-3.2827258e-05,-3.5762787e-06,1.66893e-06,1.0,3.1944364e-05,3.437698e-05,-3.1951815e-05,1.0,3.2484531e-06,-3.438443e-05,-3.1888485e-06,1.0,761,2.319,0,0,0.0,False,1.0431462461498535,0.0055039257037163836
2.2836712429998443,14:33:49.901496,14:32:34.695603,0,,0.087804355,-0.016065463,0.038595304,-0.7886266,0.042948313,-0.61337066,-0.4565318,0.6273302,0.6309006,0.41188195,0.7775681,-0.47512197,,0.037244197,-0.0007852018,0.01833868,0.883858,0.4280346,0.18862979,0.2508391,-0.7741077,0.58123755,0.39480957,-0.46641576,-0.79156905,,0.057383772,1.3231581,0.43427074,0.99676055,0.07869398,-0.016602064,0.041304108,-0.6780005,-0.73390007,-0.06900972,0.73083687,-0.67905456,,-0.04682877,0.280326,-0.081754446,0.75149584,-0.058886766,0.65710455,-0.0016132039,0.99584156,0.091087796,-0.65973586,-0.069512144,0.74827576,,0.011598713,0.45550895,-0.28550524,-0.9353508,-0.31716943,-0.1565967,0.35372064,-0.83972526,-0.41199905,-0.00082470715,-0.4407551,0.897627,,1.2962838811372066,0.1588411697570497,0.17638877288000002,0.6439578164409743,-0.37629692035402296,0.27204976348006504,0.8680103674375599,,-1.0916391827031313,0.1101879526494353,0.19375257743000002,4.537900066948591,-0.029923393448631458,-0.24219888690927882,-0.16171062547293644,,0.0238237442897226,0.038864119118783735,0.08941844392,-0.11709667966849292,,-3.2827258e-05,-3.5762787e-06,1.66893e-06,1.0,3.1944364e-05,3.437698e-05,-3.1951815e-05,1.0,3.2484531e-06,-3.438443e-05,-3.1888485e-06,1.0,765,2.331,0,0,0.0,False,1.0430866684313322,0.006517809920084883
2.3604208510078024,14:33:49.929368,14:32:34.802834,0,,0.087814525,-0.01608713,0.03862427,-0.7886266,0.042798012,-0.61338115,-0.4565318,0.6274848,0.6307469,0.41188195,0.77745163,-0.47531253,,0.037381604,-0.0007376075,0.018307328,0.88470227,0.42795157,0.18482198,0.2523882,-0.7730828,0.58193064,0.39192086,-0.46818846,-0.791958,,0.057383772,1.3231581,0.43427074,0.99676055,0.07869398,-0.016602064,0.041304108,-0.6780005,-0.73390007,-0.06900972,0.73083687,-0.67905456,,-0.04684107,0.28033227,-0.08178941,0.75149584,-0.05872575,0.657119,-0.0016132039,0.99586385,0.090843774,-0.65973586,-0.069328785,0.7482928,,0.01146165,0.45548874,-0.2854511,-0.93603104,-0.31699654,-0.15283695,0.35191208,-0.84072316,-0.41151237,0.001954433,-0.43897352,0.8984979,,1.2962838811372066,0.1588411697570497,0.17635118047,0.6439578164409743,-0.37629692035402296,0.27180472725964333,0.8685003996359628,,-1.0925118515179186,0.1102497345124291,0.19383294741,4.537690377005107,-0.025687661955902802,-0.24426430334147836,-0.16122059327453367,,0.0238237442897226,0.038864119118783735,0.08941844392,-0.11709667966849292,,-3.2827258e-05,-3.5762787e-06,1.66893e-06,1.0,3.1944364e-05,3.437698e-05,-3.1951815e-05,1.0,3.2484531e-06,-3.438443e-05,-3.1888485e-06,1.0,777,2.368,0,0,0.0,False,1.0427887798387272,0.006807491124761977
2.388276041005156,14:33:49.953484,14:32:34.802834,0,,0.08782363,-0.01611057,0.038655743,-0.7886202,0.042801857,-0.613389,-0.45653608,0.6274852,0.6307434,0.4118895,0.77745104,-0.47530687,,0.03744472,-0.0007326901,0.018235981,0.8867323,0.4270122,0.17710538,0.2555122,-0.7719904,0.5820175,0.38525227,-0.4708411,-0.7936556,,0.057383772,1.3231581,0.43427074,0.99676055,0.07869398,-0.016602064,0.041304108,-0.6780005,-0.73390007,-0.06900972,0.73083687,-0.67905456,,-0.046852496,0.28033912,-0.08182741,0.7514889,-0.05872954,0.6571265,-0.0016106807,0.9958637,0.09084556,-0.6597437,-0.06932785,0.74828595,,0.011405597,0.45542216,-0.28541207,-0.9376456,-0.31589383,-0.1450236,0.34750122,-0.8423353,-0.4119638,0.0079783285,-0.4366719,0.8995854,,1.296291603870081,0.15883344702417548,0.17631099548,0.6439578164409743,-0.37629692035402296,0.27180472725964333,0.8685003996359628,,-1.093106501949234,0.11014933898506418,0.19391331739,4.537480687061622,-0.017489471969976376,-0.24702879803651664,-0.16122059327453359,,0.0238237442897226,0.038864119118783735,0.08941844392,-0.11709667966849292,,-3.2827258e-05,-3.5762787e-06,1.66893e-06,1.0,3.1944364e-05,3.437698e-05,-3.1951815e-05,1.0,3.2484531e-06,-3.438443e-05,-3.1888485e-06,1.0,785,2.392,0,0,0.0,False,1.042193002653517,0.006372969317746335
2.4123102160083363,14:33:49.981322,14:32:34.802834,0,,0.08783029,-0.016124785,0.038674697,-0.7886202,0.04260145,-0.6134031,-0.45653608,0.6276912,0.6305383,0.4118895,0.77729577,-0.47556084,,0.03745167,-0.0007495284,0.018176079,0.88890964,0.42504898,0.17080057,0.2585563,-0.7733364,0.5788778,0.37813774,-0.47040844,-0.79732525,,0.057383772,1.3231581,0.43427074,0.99676055,0.07869398,-0.016602064,0.041304108,-0.6780005,-0.73390007,-0.06900972,0.73083687,-0.67905456,,-0.046860553,0.2803432,-0.08185032,0.7514889,-0.058514845,0.6571457,-0.0016106807,0.9958933,0.090520196,-0.6597437,-0.06908337,0.74830854,,0.011405876,0.45536155,-0.2853965,-0.93935657,-0.31388056,-0.13816015,0.34264976,-0.8423919,-0.415893,0.014155724,-0.43801236,0.8988575,,1.296291603870081,0.15883344702417548,0.17628636597000003,0.6439578164409743,-0.37629692035402296,0.2714780122990811,0.8678470233714257,,-1.0934308567299513,0.11002577525907659,0.19396128012000002,4.537480687061622,-0.009154645484284511,-0.2457390948880827,-0.16203731360520504,,0.0238237442897226,0.038864119118783735,0.08941844392,-0.11709667966849292,,-3.2827258e-05,-3.5762787e-06,1.66893e-06,1.0,3.1944364e-05,3.437698e-05,-3.1951815e-05,1.0,3.2484531e-06,-3.438443e-05,-3.1888485e-06,1.0,793,2.417,0,0,0.0,False,1.04237173580908,0.00617984851462916
2.4402289900026517,14:33:50.002337,14:32:34.802834,0,,0.087838195,-0.016138822,0.038695022,-0.78862375,0.042401083,-0.6134124,-0.4565347,0.627893,0.63033843,0.41188437,0.7771437,-0.47581372,,0.037440103,-0.00076933205,0.018121898,0.89125776,0.42256728,0.16460924,0.26189607,-0.7759315,0.5738823,0.3702294,-0.46836662,-0.8022237,,0.057383772,1.3231581,0.43427074,0.99676055,0.07869398,-0.016602064,0.041304108,-0.6780005,-0.73390007,-0.06900972,0.73083687,-0.67905456,,-0.046869915,0.28034836,-0.08187395,0.75149274,-0.0583005,0.65716034,-0.0016134675,0.99592245,0.09019912,-0.65973943,-0.06884429,0.7483344,,0.011424223,0.45530662,-0.28538594,-0.9411833,-0.31140962,-0.13114093,0.33724397,-0.84162784,-0.42181644,0.020985842,-0.4412331,0.8971471,,1.296291603870081,0.1588411697570497,0.17626044017,0.6439578164409743,-0.37629692035402296,0.27115129733851884,0.8675203352391571,,-1.0937088751134234,0.10992537973171167,0.19399887253000003,4.537480687061622,0.0,-0.24234082199704815,-0.1608939051422651,,0.0238237442897226,0.038864119118783735,0.08941844392,-0.11709667966849292,,-3.2827258e-05,-3.5762787e-06,1.66893e-06,1.0,3.1944364e-05,3.437698e-05,-3.1951815e-05,1.0,3.2484531e-06,-3.438443e-05,-3.1888485e-06,1.0,797,2.429,0,0,0.0,False,1.0416568031868279,0.005214244499039733
2.4612610440090066,14:33:50.029147,14:32:34.890224,0,,0.08785561,-0.016175896,0.038747504,-0.7886403,0.042474616,-0.61338603,-0.45598817,0.62881535,0.6298143,0.41245764,0.77639353,-0.4765412,,0.03744707,-0.0007766336,0.018044591,0.8943632,0.41865867,0.15760422,0.26645705,-0.78156143,0.5640589,0.3593256,-0.46247885,-0.8105543,,0.057383772,1.3231581,0.43427074,0.99676055,0.07869398,-0.016602064,0.041304108,-0.6780005,-0.73390007,-0.06900972,0.73083687,-0.67905456,,-0.046891123,0.28036118,-0.08193575,0.75150037,-0.05830568,0.65715116,-0.0008212979,0.99600357,0.08930954,-0.65973216,-0.06765587,0.74844915,,0.011425421,0.4552358,-0.28535333,-0.9435674,-0.30765462,-0.12259345,0.32978526,-0.8389038,-0.43299204,0.030367902,-0.4489867,0.89302224,,1.2962838811372066,0.1588411697570497,0.17619432938000001,0.6447965762149124,-0.37643355685378843,0.26995585539996625,0.866213582710083,,-1.0942185754831224,0.10985587513584365,0.1940675759,4.537480687061622,0.012707194478185961,-0.23391657680848602,-0.1625273458036078,,0.0238237442897226,0.038864119118783735,0.08941844392,-0.11709667966849292,,-3.2827258e-05,-3.5762787e-06,1.66893e-06,1.0,3.1944364e-05,3.437698e-05,-3.1951815e-05,1.0,3.2484531e-06,-3.438443e-05,-3.1888485e-06,1.0,826,2.519,0,0,0.0,False,1.0399290493497175,0.006276408916187304
2.488007549007307,14:33:50.101893,14:32:34.890224,0,,0.08787514,-0.0162227,0.0388173,-0.7883866,0.042751808,-0.6136929,-0.45577556,0.6294202,0.6293639,0.4131771,0.7758881,-0.4767412,,0.037545595,-0.0007303953,0.01803124,0.8958773,0.41775125,0.15128663,0.26883292,-0.78077555,0.5640199,0.353741,-0.4646219,-0.81178427,,0.057383772,1.3231581,0.43427074,0.99676055,0.07869398,-0.016602064,0.041304108,-0.6780005,-0.73390007,-0.06900972,0.73083687,-0.67905456,,-0.046915617,0.28037995,-0.0820163,0.7512196,-0.058536988,0.6574516,-0.00015360839,0.99604416,0.0888595,-0.6600524,-0.06685398,0.74823886,,0.01132527,0.45523524,-0.2853087,-0.9447158,-0.30660868,-0.11620338,0.32599455,-0.84023595,-0.4332795,0.035209008,-0.44720766,0.8937369,,1.296291603870081,0.15885661522279818,0.17611007053000002,0.6454256460453659,-0.37698010285285016,0.26925802465278403,0.86458014204874,,-1.0950603533664127,0.11001032979332814,0.19412331637000002,4.537480687061622,0.019812292465988864,-0.23595308575423407,-0.16187396953907077,,0.0238237442897226,0.038864119118783735,0.08941844392,-0.11709667966849292,,-3.2827258e-05,-3.5762787e-06,1.66893e-06,1.0,3.1944364e-05,3.437698e-05,-3.1951815e-05,1.0,3.2484531e-06,-3.438443e-05,-3.1888485e-06,1.0,830,2.532,0,0,0.0,False,1.0392141167274653,0.005697046506834447
2.560818747006124,14:33:50.127297,14:32:34.979965,0,,0.08788599,-0.016238317,0.038845465,-0.78841794,0.042600542,-0.613663,-0.45562333,0.6298006,0.6290935,0.41328505,0.7755876,-0.47713628,,0.037578695,-0.0007234067,0.01802051,0.8972412,0.41642734,0.14678681,0.27095845,-0.781775,0.56161326,0.3486254,-0.46412933,-0.81427526,,0.057383772,1.3231581,0.43427074,0.99676055,0.07869398,-0.016602064,0.041304108,-0.6780005,-0.73390007,-0.06900972,0.73083687,-0.67905456,,-0.04692835,0.28038973,-0.08204625,0.7512509,-0.058358286,0.65743166,2.9567733e-05,0.9960863,0.08838588,-0.6600167,-0.06638054,0.7483125,,0.011292917,0.4552254,-0.2852979,-0.9457409,-0.30526322,-0.11130406,0.3224997,-0.84014785,-0.43605676,0.039600223,-0.44829223,0.8930095,,1.296299326602955,0.15887978342142084,0.17607636699,0.6456353359888505,-0.37698010285285016,0.2686862734718001,0.8650701742471429,,-1.0955082718731177,0.11004122072482504,0.19414535330000002,4.537480687061622,0.025960934955433685,-0.23484098591003086,-0.16203731360520499,,0.0238237442897226,0.038864119118783735,0.08941844392,-0.11709667966849292,,-3.2827258e-05,-3.5762787e-06,1.66893e-06,1.0,3.1944364e-05,3.437698e-05,-3.1951815e-05,1.0,3.2484531e-06,-3.438443e-05,-3.1888485e-06,1.0,842,2.569,0,0,0.0,False,1.0393332721645074,0.00584188710917255
2.5861930009996286,14:33:50.160994,14:32:34.979965,0,,0.087893575,-0.016250148,0.03886588,-0.78842205,0.04235391,-0.6136749,-0.45562342,0.63004535,0.6288484,0.4132771,0.7754025,-0.47744417,,0.037534397,-0.00074735284,0.01799053,0.90045345,0.41332865,0.13543539,0.2760046,-0.7836447,0.55652726,0.3361619,-0.46374613,-0.81971616,,0.057383772,1.3231581,0.43427074,0.99676055,0.07869398,-0.016602064,0.041304108,-0.6780005,-0.73390007,-0.06900972,0.73083687,-0.67905456,,-0.04693732,0.28039646,-0.08206834,0.7512554,-0.058094665,0.65744984,2.3725377e-05,0.99612105,0.08799378,-0.6600116,-0.066090204,0.7483427,,0.0113417115,0.4551932,-0.2853025,-0.9481179,-0.30207682,-0.099105865,0.3139326,-0.84036696,-0.44184807,0.05018677,-0.45003664,0.89159876,,1.2963070493358293,0.15889522888716928,0.17605173748000003,0.6456353359888505,-0.37698010285285016,0.2682778797710973,0.8649068301810087,,-1.0959021312497033,0.11004122072482504,0.19415572362000003,4.537480687061622,0.040171130931039495,-0.23311481325154707,-0.16187396953907074,,0.0238237442897226,0.038864119118783735,0.08941844392,-0.11709667966849292,,-3.2827258e-05,-3.5762787e-06,1.66893e-06,1.0,3.1944364e-05,3.437698e-05,-3.1951815e-05,1.0,3.2484531e-06,-3.438443e-05,-3.1888485e-06,1.0,850,2.593,0,0,0.0,False,1.0395715830385917,0.005648766306054487
