AlexandreBanks6/ExpertPlaybackApp/resources/Motions/P_18/PC1/Data_PC1_3.csv
Task Time,PC1 Time,PC2 Time,Gaze Calib,s_T_psm1,Tx,Ty,Tz,R00,R01,R02,R10,R11,R12,R20,R21,R22,s_T_psm3,Tx,Ty,Tz,R00,R01,R02,R10,R11,R12,R20,R21,R22,cart_T_ecm,Tx,Ty,Tz,R00,R01,R02,R10,R11,R12,R20,R21,R22,ecm_T_psm1,Tx,Ty,Tz,R00,R01,R02,R10,R11,R12,R20,R21,R22,ecm_T_psm3,Tx,Ty,Tz,R00,R01,R02,R10,R11,R12,R20,R21,R22,psm1_joints,q1,q2,q3,q4,q5,q6,jaw,psm3_joints,q1,q2,q3,q4,q5,q6,jaw,ecm_joints,q1,q2,q3,q4,ecmi_T_ecm,Tx,Ty,Tz,R00,R01,R02,R10,R11,R12,R20,R21,R22,Sample #,Task Duration (s),Collisions (binary),Collisions (increments),Cumulative Collision Time (s),Clutch Press,MTMR Angle,MTML Angle
""
lci_T_si,,,,,-0.06157159,0.04152868,0.22879153,0.9963892,-0.044589914,0.07225141,0.02304879,-0.6769711,-0.73564863,0.08171462,0.7346577,-0.6734989
rci_T_si,,,,,-0.0697916,0.045884646,0.23612434,0.99452025,-0.07259439,0.0752301,0.0089150695,-0.65808904,-0.75288737,0.1041635,0.7494324,-0.65383565
ecm_T_lc,,,,,-4.4061628e-05,-0.00034663224,-0.01840835,-0.99912,0.030754527,0.028518902,-0.031987965,-0.99852574,-0.043852776,0.027128186,-0.04472645,0.9986309
ecm_T_rc,,,,,-0.0043358393,0.01870579,-0.007592615,-0.99555075,-0.052743673,-0.078081585,0.04863213,-0.9973746,0.053654674,-0.08070653,0.04961868,0.9955021
cart_T_ecmi,,,,,0.05739347,1.32317,0.43427047,0.99676204,0.07867292,-0.016614562,0.041293304,-0.67813617,-0.7337753,-0.068995185,0.7307133,-0.679189
ecmac_T_ecmrep_psm1,,,,,-0.0033900698,-0.29259828,-0.274185,0.99793226,0.043159027,0.047628522,-0.040498573,0.99763834,-0.055476554,-0.049910355,0.053432956,0.99732333
ecmac_T_ecmrep_psm3,,,,,-0.030876445,-0.5082754,-0.4984752,0.99144465,-0.07732987,0.105155215,0.05830459,0.98314613,0.17327517,-0.116782285,-0.16566171,0.97924364
""
0,14:25:08.576079,14:23:53.377520,0,,0.07979348,-0.014691964,0.03389989,-0.9778173,0.019138819,-0.20858312,-0.15157561,0.62262326,0.76770115,0.14456157,0.78228754,-0.6059107,,0.03257794,0.0040750764,0.0065776706,0.6192052,0.49859634,0.60661894,0.010593563,-0.7777714,0.6284578,0.7851577,-0.38271803,-0.48688215,,0.05740855,1.3231691,0.43426552,0.9967616,0.07867917,-0.01660781,0.04130248,-0.67813545,-0.73377544,-0.068995185,0.7307133,-0.679189,,-0.03903902,0.27785128,-0.077754065,0.96312433,-0.03552769,0.26670077,0.013103389,0.99626106,0.08539406,-0.26873747,-0.07875042,0.95998883,,0.016579151,0.44831455,-0.275175,-0.6927676,-0.39601603,-0.60269755,0.6005764,-0.77946484,-0.1781645,-0.39922553,-0.4853925,0.7778259,,1.3282714407022445,0.10807964657477201,0.18277040855,0.7332857323653816,0.12187975779077288,0.2644940172289969,0.8727473453554541,,-1.0294789057984983,0.1142501101412774,0.20685029159,4.537480687061622,-0.6238822579290011,-0.20252432086615585,-0.15909712041478796,,0.0238237442897226,0.038641589639154456,0.08941130016,-0.11709667966849292,,1.5333295e-05,-1.847744e-06,3.695488e-06,1.0,6.2547624e-06,6.724149e-06,-6.2547624e-06,1.0,5.9604645e-07,-6.724149e-06,-6.2584877e-07,0.9999999,33,0.099,0,0,0.0,False,1.0471975310092834,0.004393481085788409
0.12148064401117153,14:25:08.605808,14:23:53.454932,0,,0.07979481,-0.014717102,0.033919945,-0.97780645,0.019137044,-0.20863423,-0.15161,0.62265986,0.7676647,0.14459896,0.78225845,-0.60593945,,0.03253462,0.0040821843,0.006548822,0.6218489,0.49772003,0.6046311,0.01228565,-0.77816767,0.62793636,0.7830409,-0.38305318,-0.49001762,,0.05740855,1.3231691,0.43426552,0.9967616,0.07867917,-0.01660781,0.04130248,-0.67813545,-0.73377544,-0.068995185,0.7307133,-0.679189,,-0.03904227,0.27784872,-0.077785976,0.9631104,-0.035523117,0.26675186,0.013107018,0.99626493,0.08534873,-0.26878735,-0.078703925,0.9599787,,0.01662443,0.4482988,-0.2751535,-0.6953129,-0.3950826,-0.60037464,0.5992802,-0.7798408,-0.18086329,-0.3967407,-0.48554918,0.7789986,,1.3282714407022445,0.10801014197890399,0.18274059388000002,0.7332857323653816,0.12187975779077288,0.2644940172289969,0.8727473453554541,,-1.0293707875382592,0.11430416927139697,0.20685029159,4.537480687061622,-0.6201930724353342,-0.20185706095963396,-0.15958715261319079,,0.0238237442897226,0.038641589639154456,0.08941130016,-0.11709667966849292,,1.5333295e-05,-1.847744e-06,3.695488e-06,1.0,6.2547624e-06,6.724149e-06,-6.2547624e-06,1.0,5.9604645e-07,-6.724149e-06,-6.2584877e-07,0.9999999,44,0.133,0,0,0.0,False,1.0476741527574522,0.004538321688126956
0.1512540550029371,14:25:08.635183,14:23:53.454932,0,,0.079867,-0.014764786,0.033944085,-0.9778189,0.019020796,-0.20858613,-0.15161797,0.62279534,0.7675533,0.14450593,0.7821535,-0.6060971,,0.03253825,0.0041008536,0.006549597,0.62200046,0.4952133,0.60653037,0.012337208,-0.780709,0.62477297,0.78291976,-0.381126,-0.49171102,,0.05737979,1.3231696,0.4342655,0.9967615,0.07868101,-0.016605815,0.041305188,-0.6781352,-0.7337755,-0.068995185,0.7307133,-0.679189,,-0.039088994,0.27783546,-0.07783293,0.96312773,-0.03539855,0.2667056,0.0130356755,0.9962822,0.08515729,-0.26872852,-0.07854066,0.9600085,,0.016647652,0.4483111,-0.2751378,-0.6954557,-0.39258564,-0.60184544,0.59918207,-0.77915,-0.18413602,-0.39663875,-0.48867345,0.7770946,,1.3282791634351188,0.10794063738303597,0.18271466808000003,0.7332857323653816,0.12201639429053832,0.2643825993253005,0.8727473453554541,,-1.029224055613649,0.11437367386726499,0.20684899530000003,4.537480687061622,-0.6201930724353342,-0.19769144521246523,-0.15942380854705662,,0.0238237442897226,0.038641589639154456,0.08941130016,-0.11709667966849292,,-1.3306737e-05,-4.4703484e-06,3.8146973e-06,1.0,8.098781e-06,8.713454e-06,-8.095056e-06,1.0,8.046627e-07,-8.709729e-06,-8.34465e-07,1.0,52,0.157,0,0,0.0,False,1.047316686446326,0.0033795968694199097
0.18062222500157077,14:25:08.651957,14:23:53.454932,0,,0.07986538,-0.01477164,0.033951595,-0.9778209,0.019219134,-0.20855914,-0.15146607,0.6228499,0.767539,0.14465249,0.7821052,-0.60612446,,0.03251081,0.0041086916,0.0065366626,0.62320244,0.49576467,0.6048438,0.013082027,-0.7798979,0.62577,0.78195107,-0.38206863,-0.49252003,,0.05737979,1.3231696,0.4342655,0.9967615,0.07868101,-0.016605815,0.041305188,-0.6781352,-0.7337755,-0.068995185,0.7307133,-0.679189,,-0.03908801,0.27783626,-0.07784315,0.96312785,-0.035592087,0.26667956,0.013246491,0.99628204,0.085127234,-0.2687179,-0.07845584,0.9600184,,0.016675532,0.4483074,-0.27512404,-0.69661045,-0.3931027,-0.60017014,0.59857523,-0.7796203,-0.1841193,-0.395527,-0.4875064,0.77839315,,1.3282946089008671,0.10791746918441329,0.18270559405000003,0.7334954223088662,0.12201639429053832,0.2643825993253005,0.8727473453554541,,-1.0291391055520325,0.11442773299738455,0.20684899530000003,4.537480687061622,-0.6185534344381489,-0.19894678131668175,-0.15958715261319079,,0.0238237442897226,0.038641589639154456,0.08941130016,-0.11709667966849292,,-1.3306737e-05,-4.4703484e-06,3.8146973e-06,1.0,8.098781e-06,8.713454e-06,-8.095056e-06,1.0,8.046627e-07,-8.709729e-06,-8.34465e-07,1.0,60,0.181,0,0,0.0,False,1.047435841883368,0.004007239479552727
0.19740201000240631,14:25:08.676740,14:23:53.454932,0,,0.07986548,-0.014776453,0.03395839,-0.9778446,0.01916842,-0.20845239,-0.15139823,0.6229304,0.767487,0.14456284,0.7820423,-0.60622704,,0.03248305,0.004117945,0.0065243244,0.6244032,0.4967074,0.6028285,0.013822496,-0.7786722,0.6272787,0.7809799,-0.38334203,-0.49307138,,0.05737979,1.3231696,0.4342655,0.9967615,0.07868101,-0.016605815,0.041305188,-0.6781352,-0.7337755,-0.068995185,0.7307133,-0.679189,,-0.039088625,0.27783793,-0.07785129,0.96315855,-0.035535358,0.26657623,0.013227774,0.9962918,0.08501561,-0.26860878,-0.0783573,0.960057,,0.01670358,0.4483049,-0.27510932,-0.6977634,-0.39400765,-0.59823424,0.597964,-0.78021514,-0.18358469,-0.39441764,-0.48582122,0.780008,,1.3283100543666158,0.10790202371866485,0.18269781631,0.7334954223088662,0.12215303079030376,0.26427118142160405,0.8727473453554541,,-1.029054155490416,0.11448951486037835,0.20684899530000003,4.537480687061622,-0.6169137964409637,-0.20085554734202266,-0.15975049667932506,,0.0238237442897226,0.038641589639154456,0.08941130016,-0.11709667966849292,,-1.3306737e-05,-4.4703484e-06,3.8146973e-06,1.0,8.098781e-06,8.713454e-06,-8.095056e-06,1.0,8.046627e-07,-8.709729e-06,-8.34465e-07,1.0,67,0.203,0,0,0.0,False,1.0471975310092834,0.022546836578865026
0.22215762200357858,14:25:08.692051,14:23:53.454932,0,,0.07986007,-0.014783442,0.033968136,-0.97772247,0.020125631,-0.20893428,-0.15129979,0.62236255,0.767967,0.1454887,0.7824703,-0.60545284,,0.032452516,0.004125813,0.0065183043,0.6248834,0.49733433,0.60181314,0.014073819,-0.7778963,0.628235,0.7805911,-0.38410372,-0.49309412,,0.05737979,1.3231696,0.4342655,0.9967615,0.07868101,-0.016605815,0.041305188,-0.6781352,-0.7337755,-0.068995185,0.7307133,-0.679189,,-0.039083973,0.27784032,-0.07786336,0.96299386,-0.036532998,0.26703593,0.013969096,0.9962046,0.08591423,-0.26916113,-0.07900462,0.95984924,,0.016733851,0.4483075,-0.27509898,-0.69822097,-0.39461488,-0.5972994,0.5976969,-0.7805574,-0.18299863,-0.39401248,-0.48477748,0.7808617,,1.3283254998323641,0.10789430098579063,0.18268744599000003,0.7341244921393199,0.12146984829147656,0.2652366646407889,0.8725840012893197,,-1.0289228690315542,0.11455129672337215,0.20684769901000002,4.537480687061622,-0.6163672504419018,-0.2020363276180735,-0.15958715261319079,,0.0238237442897226,0.038641589639154456,0.08941130016,-0.11709667966849292,,-1.3306737e-05,-4.4703484e-06,3.8146973e-06,1.0,8.098781e-06,8.713454e-06,-8.095056e-06,1.0,8.046627e-07,-8.709729e-06,-8.34465e-07,1.0,75,0.226,0,0,0.0,False,1.0470187978537204,0.08955975526075344
0.23748860599880572,14:25:08.718662,14:23:53.454932,0,,0.07985764,-0.014790729,0.033980027,-0.97762907,0.020974252,-0.20928743,-0.15111837,0.6220583,0.76824915,0.14630243,0.78268987,-0.60497266,,0.032427266,0.0041287336,0.006512463,0.6250725,0.49805248,0.6010225,0.014152855,-0.7770872,0.62923384,0.7804384,-0.38481045,-0.4927848,,0.05737979,1.3231696,0.4342655,0.9967615,0.07868101,-0.016605815,0.041305188,-0.6781352,-0.7337755,-0.068995185,0.7307133,-0.679189,,-0.03908241,0.277844,-0.07787692,0.9628665,-0.03740214,0.26737466,0.014685726,0.9961469,0.08646158,-0.2695783,-0.079324365,0.95970577,,0.016759247,0.4483071,-0.27509305,-0.69839954,-0.39532056,-0.5966236,0.59758204,-0.7808474,-0.18213491,-0.3938703,-0.4837345,0.7815799,,1.3283409452981125,0.10789430098579063,0.18267448309,0.7347535619697733,0.1209233022924148,0.26584569373585576,0.8725840012893197,,-1.0287993053055664,0.11458218765486905,0.20684769901000002,4.537480687061622,-0.6162306139421364,-0.2032912478837377,-0.15599358315823664,,0.0238237442897226,0.038641589639154456,0.08941130016,-0.11709667966849292,,-1.3306737e-05,-4.4703484e-06,3.8146973e-06,1.0,8.098781e-06,8.713454e-06,-8.095056e-06,1.0,8.046627e-07,-8.709729e-06,-8.34465e-07,1.0,79,0.239,0,0,0.0,False,1.0470783755722417,0.21431579407487433
0.26404593500774354,14:25:08.738784,14:23:53.454932,0,,0.07985812,-0.014798537,0.03399779,-0.9776156,0.020802561,-0.2093678,-0.15129793,0.62199336,0.76826644,0.14620727,0.7827461,-0.60492295,,0.032401353,0.0041314904,0.006507039,0.625173,0.49768782,0.60121995,0.014171183,-0.777426,0.62881476,0.78035754,-0.3845979,-0.49307874,,0.05737979,1.3231696,0.4342655,0.9967615,0.07868101,-0.016605815,0.041305188,-0.6781352,-0.7337755,-0.068995185,0.7307133,-0.679189,,-0.039084066,0.27785164,-0.07789471,0.96285117,-0.03723598,0.267453,0.01449336,0.9961455,0.08651054,-0.26964343,-0.079420485,0.95967954,,0.01678527,0.44830713,-0.2750875,-0.6984927,-0.39495337,-0.5967577,0.5975094,-0.7807894,-0.18262114,-0.39381525,-0.48412788,0.781364,,1.3283795589624836,0.1078865782529164,0.18265633503,0.7345438720262888,0.1209233022924148,0.26584569373585576,0.8725840012893197,,-1.0286680188467048,0.11461307858636595,0.20684769901000002,4.537480687061622,-0.6162306139421364,-0.20271949670275374,-0.14602959512404567,,0.0238237442897226,0.038641589639154456,0.08941130016,-0.11709667966849292,,-1.3306737e-05,-4.4703484e-06,3.8146973e-06,1.0,8.098781e-06,8.713454e-06,-8.095056e-06,1.0,8.046627e-07,-8.709729e-06,-8.34465e-07,1.0,87,0.263,0,0,0.0,False,1.0471975310092834,0.39077992792379534
0.28423136900528334,14:25:08.764281,14:23:53.454932,0,,0.07985988,-0.014812604,0.03402047,-0.9775807,0.020893373,-0.20952141,-0.15139157,0.6218432,0.76836956,0.14634329,0.7828629,-0.60473883,,0.03237035,0.004133472,0.00649029,0.6262962,0.49541762,0.60192555,0.014880329,-0.7795663,0.62614286,0.7794431,-0.38319397,-0.4956116,,0.05737979,1.3231696,0.4342655,0.9967615,0.07868101,-0.016605815,0.041305188,-0.6781352,-0.7337755,-0.068995185,0.7307133,-0.679189,,-0.039087474,0.27785856,-0.0779203,0.96280617,-0.037337977,0.26760086,0.014528149,0.996127,0.086717136,-0.2698023,-0.079604045,0.9596197,,0.016817534,0.4482976,-0.27507675,-0.6995719,-0.392673,-0.5969984,0.5969409,-0.7803749,-0.18621655,-0.39276034,-0.48664463,0.7803309,,1.3284104498939806,0.10787113278716795,0.18263040923,0.7345438720262888,0.12078666579264935,0.2660387903796928,0.8727473453554541,,-1.0285521778535913,0.11463624678498863,0.20684899530000003,4.537480687061622,-0.6147276124447165,-0.19928940545540247,-0.12136464113776957,,0.0238237442897226,0.038641589639154456,0.08941130016,-0.11709667966849292,,-1.3306737e-05,-4.4703484e-06,3.8146973e-06,1.0,8.098781e-06,8.713454e-06,-8.095056e-06,1.0,8.046627e-07,-8.709729e-06,-8.34465e-07,1.0,98,0.297,0,0,0.0,False,1.0469592201351996,0.6509619299242968
0.3097201900091022,14:25:08.790186,14:23:53.646605,0,,0.0798615,-0.014822796,0.0340396,-0.9776015,0.020854104,-0.20942792,-0.15132901,0.62191236,0.76832587,0.14626855,0.7828091,-0.6048266,,0.032347634,0.0041340534,0.0064656734,0.62865514,0.4952414,0.59960693,0.016449362,-0.7793114,0.62642086,0.7775101,-0.3839395,-0.49806476,,0.05737979,1.3231696,0.4342655,0.9967615,0.07868101,-0.016605815,0.041305188,-0.6781352,-0.7337755,-0.068995185,0.7307133,-0.679189,,-0.039090425,0.27786553,-0.077940695,0.962833,-0.03729355,0.26751038,0.014516638,0.9961355,0.08662217,-0.26970702,-0.07951933,0.9596535,,0.016842457,0.44827968,-0.27506343,-0.7018434,-0.39244434,-0.59447736,0.59577614,-0.7808639,-0.18788932,-0.3904698,-0.48604432,0.7818531,,1.3284490635583517,0.10785568732141951,0.18260966859000002,0.7345438720262888,0.1209233022924148,0.26592737247599635,0.8727473453554541,,-1.028536732387843,0.11464396951786285,0.20684899530000003,4.537480687061622,-0.6113116999505807,-0.1997061695837366,-0.09963988034191029,,0.0238237442897226,0.038641589639154456,0.08941130016,-0.11709667966849292,,-1.3306737e-05,-4.4703484e-06,3.8146973e-06,1.0,8.098781e-06,8.713454e-06,-8.095056e-06,1.0,8.046627e-07,-8.709729e-06,-8.34465e-07,1.0,106,0.32,0,0,0.0,False,1.0471379532907625,0.7499363415221869
0.3356336650031153,14:25:08.814566,14:23:53.646605,0,,0.07986145,-0.014830694,0.03405039,-0.97754264,0.02099188,-0.20968932,-0.1514925,0.6216895,0.768474,0.14649338,0.78298235,-0.6045478,,0.032323383,0.004132891,0.006431937,0.6316477,0.49633235,0.5955462,0.01846221,-0.7776059,0.62848085,0.7750356,-0.38598323,-0.5003365,,0.05737979,1.3231696,0.4342655,0.9967615,0.07868101,-0.016605815,0.041305188,-0.6781352,-0.7337755,-0.068995185,0.7307133,-0.679189,,-0.039091207,0.277868,-0.07795383,0.9627569,-0.037447922,0.26776272,0.014568148,0.99610794,0.0869299,-0.2699759,-0.07979155,0.95955527,,0.016869932,0.4482532,-0.2750469,-0.70472443,-0.39345762,-0.59038514,0.5942906,-0.78189695,-0.1882971,-0.3875334,-0.4835579,0.78485006,,1.328456786291226,0.10784796458854527,0.18259670569000003,0.7345438720262888,0.12065002929288392,0.26623188702352973,0.8722573131570511,,-1.028536732387843,0.11463624678498863,0.20685158788000002,4.537480687061622,-0.6069393319580865,-0.2024547551006164,-0.05390354182431212,,0.0238237442897226,0.038641589639154456,0.08941130016,-0.11709667966849292,,-1.3306737e-05,-4.4703484e-06,3.8146973e-06,1.0,8.098781e-06,8.713454e-06,-8.095056e-06,1.0,8.046627e-07,-8.709729e-06,-8.34465e-07,1.0,113,0.341,0,0,0.0,False,1.0475549973204097,0.8284399479895868
0.35996845200133976,14:25:08.836902,14:23:53.646605,0,,0.07985368,-0.014838859,0.034061447,-0.9773053,0.021359615,-0.21075554,-0.15229657,0.62068444,0.7691272,0.14724094,0.7837694,-0.6033452,,0.032315068,0.0041312966,0.0064157248,0.63301015,0.49930698,0.5915999,0.019189894,-0.7740853,0.63279045,0.7739056,-0.38921005,-0.49958563,,0.05737979,1.3231696,0.4342655,0.9967615,0.07868101,-0.016605815,0.041305188,-0.6781352,-0.7337755,-0.068995185,0.7307133,-0.679189,,-0.039084304,0.27787057,-0.07796777,0.96245307,-0.037891243,0.26879048,0.014560904,0.9959905,0.08826625,-0.27105728,-0.081038296,0.95914584,,0.016879918,0.44823956,-0.2750399,-0.70602113,-0.39636427,-0.5868812,0.59351677,-0.78326976,-0.1850037,-0.38635743,-0.47894034,0.7882538,,1.3284645090241,0.10784024185567105,0.18258503908,0.7343341820828043,0.11955693729476038,0.2675316239538039,0.872093969090917,,-1.028544455120717,0.11462852405211439,0.20685418046,4.537690377005107,-0.6050264209613704,-0.20818022149953502,-0.018457879473173566,,0.0238237442897226,0.038641589639154456,0.08941130016,-0.11709667966849292,,-1.3306737e-05,-4.4703484e-06,3.8146973e-06,1.0,8.098781e-06,8.713454e-06,-8.095056e-06,1.0,8.046627e-07,-8.709729e-06,-8.34465e-07,1.0,124,0.374,0,0,0.0,False,1.0471379532907625,0.9200274888682194
0.3823484590102453,14:25:08.869140,14:23:53.646605,0,,0.079854354,-0.014845803,0.034081295,-0.97729355,0.022049407,-0.21073894,-0.15188138,0.6206007,0.76927686,0.14774682,0.7838166,-0.6031602,,0.032315,0.004137451,0.0063841343,0.6338414,0.50736177,0.58380556,0.019761235,-0.76517075,0.64352405,0.7732105,-0.3963553,-0.49502316,,0.05737979,1.3231696,0.4342655,0.9967615,0.07868101,-0.016605815,0.041305188,-0.6781352,-0.7337755,-0.068995185,0.7307133,-0.679189,,-0.039086226,0.27788028,-0.07798632,0.9624312,-0.038585138,0.2687701,0.015213739,0.9959597,0.0885034,-0.2710991,-0.08108943,0.9591297,,0.016882628,0.44821557,-0.2750186,-0.70682156,-0.4043442,-0.5804387,0.59310365,-0.78593314,-0.17474875,-0.38552734,-0.4677765,0.7953325,,1.3285108454213455,0.10784796458854527,0.18256559473000003,0.7349632519132578,0.11942030079499495,0.26780639933778144,0.8724206572231854,,-1.0285521778535913,0.11461307858636595,0.20687880997000002,4.537690377005107,-0.6037966924634813,-0.22216990231515216,0.05063666050162652,,0.0238237442897226,0.038641589639154456,0.08941130016,-0.11709667966849292,,-1.3306737e-05,-4.4703484e-06,3.8146973e-06,1.0,8.098781e-06,8.713454e-06,-8.095056e-06,1.0,8.046627e-07,-8.709729e-06,-8.34465e-07,1.0,135,0.406,0,0,0.0,False,1.0471975310092834,1.0113253485421754
0.4145725030102767,14:25:08.901107,14:23:53.646605,0,,0.079842545,-0.014851451,0.034100905,-0.97707045,0.023037743,-0.21166553,-0.15219286,0.6196501,0.76998127,0.14889719,0.7845398,-0.6019357,,0.032315135,0.0041504297,0.006315589,0.6353259,0.5193896,0.57148516,0.02078706,-0.75126565,0.6596725,0.7719643,-0.40722746,-0.48809534,,0.05737979,1.3231696,0.4342655,0.9967615,0.07868101,-0.016605815,0.041305188,-0.6781352,-0.7337755,-0.068995185,0.7307133,-0.679189,,-0.03907563,0.27789086,-0.07800454,0.9621394,-0.039642666,0.2696593,0.015837375,0.9958258,0.08988909,-0.27209714,-0.08221514,0.9587512,,0.016888259,0.44816333,-0.2749727,-0.70825106,-0.4162866,-0.5701631,0.5923644,-0.78978634,-0.1591917,-0.38403764,-0.45049196,0.80596036,,1.3285726272843392,0.10784796458854527,0.18255003925000002,0.7353826318002269,0.11832720879687143,0.2691878150081962,0.872747345355454,,-1.0285521778535913,0.11457446492199483,0.20693455044000003,4.537690377005107,-0.6016105084672343,-0.24355548640802993,0.15844374415025086,,0.0238237442897226,0.038641589639154456,0.08941130016,-0.11709667966849292,,-1.3306737e-05,-4.4703484e-06,3.8146973e-06,1.0,8.098781e-06,8.713454e-06,-8.095056e-06,1.0,8.046627e-07,-8.709729e-06,-8.34465e-07,1.0,146,0.439,0,0,0.0,False,1.0477337304759726,1.0488390645478147
0.44650967200868763,14:25:08.933886,14:23:53.778023,0,,0.0798419,-0.014853343,0.034115,-0.9770655,0.023113333,-0.21168022,-0.15219972,0.61943424,0.77015364,0.14892279,0.78470814,-0.60171,,0.032322057,0.0041646753,0.0062161684,0.63687253,0.5269552,0.56277126,0.021687597,-0.7419094,0.67014927,0.770664,-0.4145944,-0.4839303,,0.05737979,1.3231696,0.4342655,0.9967615,0.07868101,-0.016605815,0.041305188,-0.6781352,-0.7337755,-0.068995185,0.7307133,-0.679189,,-0.03907576,0.27789986,-0.07801558,0.96213293,-0.039734464,0.26966894,0.015851302,0.9958001,0.09017176,-0.27211928,-0.08248262,0.95872194,,0.016890116,0.44808444,-0.2749102,-0.709727,-0.42379373,-0.562749,0.5915083,-0.7923573,-0.14929101,-0.3826297,-0.43882656,0.8130349,,1.3286189636815846,0.10785568732141951,0.18253837264000003,0.7353826318002269,0.11832720879687143,0.26943285122861793,0.8725840012893198,,-1.028544455120717,0.11448951486037835,0.20702010558000003,4.537900066948591,-0.5994243244709873,-0.25783502010867865,0.2513865177806557,,0.0238237442897226,0.038641589639154456,0.08941130016,-0.11709667966849292,,-1.3306737e-05,-4.4703484e-06,3.8146973e-06,1.0,8.098781e-06,8.713454e-06,-8.095056e-06,1.0,8.046627e-07,-8.709729e-06,-8.34465e-07,1.0,157,0.472,0,0,0.0,False,1.047316686446326,1.049708108161845
0.47931402100948617,14:25:08.968327,14:23:53.778023,0,,0.07982782,-0.014860675,0.034128204,-0.9766749,0.024542412,-0.21331565,-0.15296976,0.61764175,0.77143955,0.15068564,0.7860765,-0.5994809,,0.032336652,0.0041792486,0.0060554743,0.63848716,0.53395915,0.5542758,0.023095518,-0.7331511,0.67967343,0.7692859,-0.4211614,-0.48043975,,0.05737979,1.3231696,0.4342655,0.9967615,0.07868101,-0.016605815,0.041305188,-0.6781352,-0.7337755,-0.068995185,0.7307133,-0.679189,,-0.039062645,0.27790466,-0.07803079,0.96162647,-0.04129509,0.27123654,0.016606204,0.99555594,0.092696235,-0.27385905,-0.08463494,0.9580387,,0.016890401,0.44795227,-0.2748165,-0.71130234,-0.43077627,-0.55541044,0.5908311,-0.7944723,-0.14047228,-0.38074607,-0.428072,0.819626,,1.328634409147333,0.10786341005429373,0.18252670603,0.735802011687196,0.11641429780015526,0.2719728467620545,0.8725840012893197,,-1.028505841456346,0.11428872380564851,0.20716140119,4.537690377005107,-0.5969648674752094,-0.27086717229419016,0.3639305793471743,,0.0238237442897226,0.038641589639154456,0.08941130016,-0.11709667966849292,,-1.3306737e-05,-4.4703484e-06,3.8146973e-06,1.0,8.098781e-06,8.713454e-06,-8.095056e-06,1.0,8.046627e-07,-8.709729e-06,-8.34465e-07,1.0,168,0.506,0,0,0.0,False,1.0467209092611154,1.049804668563404
0.5137725290114759,14:25:09.001340,14:23:53.778023,0,,0.079821266,-0.0148680955,0.034142867,-0.97646856,0.025094677,-0.21419458,-0.15352708,0.61662644,0.7721408,0.15145467,0.78685576,-0.5982636,,0.032369956,0.004197428,0.005814016,0.6396526,0.53789043,0.5491068,0.024279803,-0.72814745,0.68499035,0.7682805,-0.42482358,-0.47882152,,0.05737979,1.3231696,0.4342655,0.9967615,0.07868101,-0.016605815,0.041305188,-0.6781352,-0.7337755,-0.068995185,0.7307133,-0.679189,,-0.03905711,0.27791035,-0.078046605,0.96136147,-0.041922573,0.27207842,0.016783712,0.99542373,0.09407402,-0.27477714,-0.08587264,0.9576656,,0.016879832,0.44775036,-0.27467915,-0.71245164,-0.43470466,-0.550858,0.5904173,-0.79559505,-0.13577892,-0.3792362,-0.421972,0.8234801,,1.3286575773459557,0.10786341005429373,0.18251244684,0.735802011687196,0.11545784230179718,0.27332452326891343,0.872747345355454,,-1.0284286141276038,0.11394892355918264,0.20738436307000002,4.537480687061622,-0.5951885929782587,-0.27835983181264523,0.4681440935408443,,0.0238237442897226,0.038641589639154456,0.08941130016,-0.11709667966849292,,-1.3306737e-05,-4.4703484e-06,3.8146973e-06,1.0,8.098781e-06,8.713454e-06,-8.095056e-06,1.0,8.046627e-07,-8.709729e-06,-8.34465e-07,1.0,179,0.539,0,0,0.0,False,1.047316686446326,1.0501909101696396
0.5467614710069029,14:25:09.032203,14:23:53.778023,0,,0.079824805,-0.014872983,0.034149513,-0.9764416,0.025150785,-0.2143103,-0.15360036,0.61654574,0.7721906,0.1515533,0.7869171,-0.5981578,,0.032421865,0.004253963,0.005433917,0.6417212,0.5424878,0.5421261,0.025909811,-0.72180235,0.69161403,0.7665002,-0.4297769,-0.47725183,,0.05737979,1.3231696,0.4342655,0.9967615,0.07868101,-0.016605815,0.041305188,-0.6781352,-0.7337755,-0.068995185,0.7307133,-0.679189,,-0.039061155,0.2779118,-0.07805448,0.961327,-0.041984607,0.27219042,0.01680524,0.9954127,0.09418655,-0.27489617,-0.08596986,0.9576227,,0.016861517,0.44744658,-0.27443883,-0.7144549,-0.4392709,-0.5446056,0.58945006,-0.7972355,-0.13024679,-0.37696528,-0.4140733,0.828517,,1.3286498546130816,0.10787113278716795,0.18250337281,0.735802011687196,0.11532120580203174,0.27343594117260983,0.872747345355454,,-1.0283282186002387,0.11355506418259718,0.20774473169000002,4.537480687061622,-0.5921825899834189,-0.28791707608619543,0.593102304133568,,0.0238237442897226,0.038641589639154456,0.08941130016,-0.11709667966849292,,-1.3306737e-05,-4.4703484e-06,3.8146973e-06,1.0,8.098781e-06,8.713454e-06,-8.095056e-06,1.0,8.046627e-07,-8.709729e-06,-8.34465e-07,1.0,190,0.571,0,0,0.0,False,1.047435841883368,1.05105995378367
0.5776433120045112,14:25:09.062570,14:23:53.902635,0,,0.07982593,-0.014878362,0.034156963,-0.9764394,0.025154572,-0.21432029,-0.15360592,0.61654603,0.77218926,0.15156241,0.7869168,-0.598156,,0.032419525,0.0042600427,0.005274594,0.64238966,0.544212,0.5396005,0.026464254,-0.719424,0.69406676,0.765921,-0.43158114,-0.4765529,,0.05737979,1.3231696,0.4342655,0.9967615,0.07868101,-0.016605815,0.041305188,-0.6781352,-0.7337755,-0.068995185,0.7307133,-0.679189,,-0.03906285,0.27791354,-0.07806341,0.9613241,-0.041988358,0.27220023,0.016808048,0.9954126,0.09418713,-0.2749063,-0.0859692,0.95761985,,0.01687913,0.44731346,-0.27435285,-0.71510404,-0.44098863,-0.54236084,0.5891481,-0.7978055,-0.12810487,-0.37620565,-0.41113916,0.83032155,,1.3286575773459557,0.10786341005429373,0.18249429878,0.735802011687196,0.11532120580203174,0.27343594117260983,0.872747345355454,,-1.0281428730112574,0.11333110492924468,0.20788602730000003,4.537480687061622,-0.5913627709848263,-0.29152601815343415,0.6460257815610744,,0.0238237442897226,0.038641589639154456,0.08941130016,-0.11709667966849292,,-1.3306737e-05,-4.4703484e-06,3.8146973e-06,1.0,8.098781e-06,8.713454e-06,-8.095056e-06,1.0,8.046627e-07,-8.709729e-06,-8.34465e-07,1.0,194,0.583,0,0,0.0,False,1.047435841883368,1.0510116735828905
0.608010499010561,14:25:09.082412,14:23:53.902635,0,,0.079828456,-0.014882699,0.034162924,-0.9764394,0.025154572,-0.21432029,-0.15360592,0.61654603,0.77218926,0.15156241,0.7869168,-0.598156,,0.032411806,0.004267046,0.0050595403,0.64347476,0.5470384,0.5354336,0.027333975,-0.7154608,0.69811803,0.7649791,-0.43458563,-0.4753339,,0.05737979,1.3231696,0.4342655,0.9967615,0.07868101,-0.016605815,0.041305188,-0.6781352,-0.7337755,-0.068995185,0.7307133,-0.679189,,-0.039065823,0.2779149,-0.07807048,0.9613241,-0.041988358,0.27220023,0.016808048,0.9954126,0.09418713,-0.2749063,-0.0859692,0.95761985,,0.016907506,0.44713372,-0.2742378,-0.71615523,-0.44380477,-0.5386641,0.58864117,-0.79874796,-0.124512255,-0.3749977,-0.40624994,0.8332693,,1.3286575773459557,0.10786341005429373,0.18248652104000002,0.735802011687196,0.11532120580203174,0.27343594117260983,0.872747345355454,,-1.0278803000935337,0.11302991834714993,0.20807398935000002,4.537480687061622,-0.5899964059871718,-0.29745924285869163,0.6958457217320295,,0.0238237442897226,0.038641589639154456,0.08941130016,-0.11709667966849292,,-1.3306737e-05,-4.4703484e-06,3.8146973e-06,1.0,8.098781e-06,8.713454e-06,-8.095056e-06,1.0,8.046627e-07,-8.709729e-06,-8.34465e-07,1.0,201,0.604,0,0,0.0,False,1.047316686446326,1.050963393382111
0.6278521320055006,14:25:09.105777,14:23:53.902635,0,,0.07983143,-0.0148861855,0.034171,-0.9764396,0.025158666,-0.21431892,-0.15360394,0.61653805,0.77219605,0.1515632,0.78692293,-0.5981477,,0.03236237,0.0042575095,0.0047032237,0.6440298,0.55055904,0.5311405,0.027916431,-0.7107526,0.7028879,0.76449084,-0.4378531,-0.47311565,,0.05737979,1.3231696,0.4342655,0.9967615,0.07868101,-0.016605815,0.041305188,-0.6781352,-0.7337755,-0.068995185,0.7307133,-0.679189,,-0.03906932,0.27791837,-0.07807833,0.96132433,-0.041993048,0.2721987,0.01680999,0.9954116,0.09419777,-0.2749054,-0.085978955,0.95761925,,0.016992548,0.4468299,-0.27406472,-0.716703,-0.44734183,-0.5349973,0.58844525,-0.7996293,-0.11968816,-0.37425798,-0.40059748,0.83633286,,1.32866530007883,0.10787113278716795,0.18247744701000002,0.735802011687196,0.11532120580203174,0.27343594117260983,0.872747345355454,,-1.0271775314019793,0.11245843611445731,0.20837991379,4.537480687061622,-0.5898597694874064,-0.3045950324144764,0.7538328652096988,,0.0238237442897226,0.038641589639154456,0.08941130016,-0.11709667966849292,,-1.3306737e-05,-4.4703484e-06,3.8146973e-06,1.0,8.098781e-06,8.713454e-06,-8.095056e-06,1.0,8.046627e-07,-8.709729e-06,-8.34465e-07,1.0,212,0.637,0,0,0.0,False,1.0471975310092834,1.0516875963938028
0.6511385100020561,14:25:09.130774,14:23:53.902635,0,,0.07983652,-0.014893979,0.03418009,-0.9764406,0.025154723,-0.21431461,-0.15360215,0.616542,0.7721933,0.15155825,0.7869201,-0.59815276,,0.032291427,0.0042148028,0.0045337677,0.6441585,0.552199,0.52927864,0.02812472,-0.70859647,0.70505315,0.76437473,-0.4392801,-0.4719791,,0.05737979,1.3231696,0.4342655,0.9967615,0.07868101,-0.016605815,0.041305188,-0.6781352,-0.7337755,-0.068995185,0.7307133,-0.679189,,-0.039075147,0.27791962,-0.07808993,0.9613257,-0.041988827,0.27219456,0.016807616,0.9954122,0.09419216,-0.2749008,-0.0859744,0.957621,,0.017083028,0.4466722,-0.2740145,-0.7168355,-0.44899598,-0.53343177,0.588434,-0.79997694,-0.11739814,-0.37402183,-0.39804453,0.8376564,,1.3286575773459557,0.10787113278716795,0.18246448411000002,0.735802011687196,0.11532120580203174,0.27343594117260983,0.872747345355454,,-1.0265751582377898,0.11205685400499764,0.20850306134000002,4.537480687061622,-0.5902696789867028,-0.3079363220097123,0.7851949259074803,,0.0238237442897226,0.038641589639154456,0.08941130016,-0.11709667966849292,,-1.3306737e-05,-4.4703484e-06,3.8146973e-06,1.0,8.098781e-06,8.713454e-06,-8.095056e-06,1.0,8.046627e-07,-8.709729e-06,-8.34465e-07,1.0,223,0.67,0,0,0.0,False,1.0474954196018889,1.0512530745867876
0.6762173950119177,14:25:09.162331,14:23:54.008533,0,,0.07984475,-0.014913157,0.034203306,-0.9764381,0.025154417,-0.21432595,-0.15360971,0.61655015,0.7721852,0.15156657,0.7869136,-0.5981592,,0.032160193,0.004185492,0.0041912794,0.64481664,0.5547768,0.5257699,0.028683603,-0.7049561,0.7086706,0.76379883,-0.4418815,-0.47048068,,0.05737979,1.3231696,0.4342655,0.9967615,0.07868101,-0.016605815,0.041305188,-0.6781352,-0.7337755,-0.068995185,0.7307133,-0.679189,,-0.039085235,0.27792335,-0.07811924,0.9613225,-0.041987892,0.27220592,0.016808482,0.99541306,0.094182104,-0.27491182,-0.08596401,0.9576188,,0.017249383,0.44638053,-0.27386406,-0.71747506,-0.4515802,-0.5303818,0.5881383,-0.80070466,-0.1138655,-0.37325978,-0.39363348,0.8400773,,1.3286575773459557,0.10785568732141951,0.18243337315000002,0.735802011687196,0.11532120580203174,0.27343594117260983,0.872747345355454,,-1.02547853016965,0.11150081723805347,0.20877268966,4.537480687061622,-0.5904063154864682,-0.3134607371757148,0.8275010390362587,,0.0238237442897226,0.038641589639154456,0.08941130016,-0.11709667966849292,,-1.3306737e-05,-4.4703484e-06,3.8146973e-06,1.0,8.098781e-06,8.713454e-06,-8.095056e-06,1.0,8.046627e-07,-8.709729e-06,-8.34465e-07,1.0,234,0.702,0,0,0.0,False,1.0467209092611154,1.052122118200818
0.7077726090064971,14:25:09.192578,14:23:54.008533,0,,0.07985358,-0.014928296,0.034224167,-0.9764381,0.025171919,-0.21432388,-0.15360971,0.61648715,0.7722356,0.15156657,0.78696245,-0.5980949,,0.031822458,0.0039870087,0.0037462115,0.6455994,0.5581019,0.52127105,0.030327052,-0.7007793,0.71273327,0.76307374,-0.4443315,-0.4693485,,0.05737979,1.3231696,0.4342655,0.9967615,0.07868101,-0.016605815,0.041305188,-0.6781352,-0.7337755,-0.068995185,0.7307133,-0.679189,,-0.03909564,0.2779281,-0.07814394,0.9613225,-0.042010125,0.27220246,0.016808482,0.9954054,0.094263405,-0.27491182,-0.086042225,0.95761174,,0.017643953,0.44594207,-0.27380392,-0.7183082,-0.4549626,-0.5263481,0.58824223,-0.8011273,-0.110300146,-0.37148938,-0.38884968,0.8430846,,1.3286575773459557,0.10785568732141951,0.18240615106000002,0.735802011687196,0.11532120580203174,0.2735176199127504,0.8729106894215883,,-1.02313854210876,0.1101879526494353,0.20903065137000001,4.536641927287684,-0.5912261344850608,-0.319734922665484,0.8627833573212631,,0.0238237442897226,0.038641589639154456,0.08941130016,-0.11709667966849292,,-1.3306737e-05,-4.4703484e-06,3.8146973e-06,1.0,8.098781e-06,8.713454e-06,-8.095056e-06,1.0,8.046627e-07,-8.709729e-06,-8.34465e-07,1.0,245,0.735,0,0,0.0,False,1.047316686446326,1.0519289973977002
0.7380218129983405,14:25:09.232492,14:23:54.008533,0,,0.07986358,-0.014947951,0.03424968,-0.9764369,0.025171772,-0.21432957,-0.1536135,0.61649126,0.7722315,0.15157072,0.7869592,-0.59809804,,0.031469822,0.0037998054,0.0034053326,0.6471331,0.55787456,0.51961,0.031548977,-0.7005782,0.7128778,0.7617239,-0.4449336,-0.47096792,,0.05737979,1.3231696,0.4342655,0.9967615,0.07868101,-0.016605815,0.041305188,-0.6781352,-0.7337755,-0.068995185,0.7307133,-0.679189,,-0.03910762,0.27793315,-0.07817506,0.96132094,-0.04200966,0.27220815,0.016808914,0.99540585,0.094258375,-0.27491733,-0.086037025,0.9576106,,0.018042121,0.4456004,-0.27378657,-0.71979153,-0.45469326,-0.5245514,0.58750623,-0.801514,-0.11140761,-0.36977902,-0.38836747,0.84405816,,1.3286575773459557,0.10784796458854527,0.18237244752,0.735802011687196,0.11532120580203174,0.2735176199127504,0.8729106894215883,,-1.0208989495752347,0.10913766097854077,0.20919268762,4.536641927287684,-0.5912261344850608,-0.3207150675471707,0.8763409148104081,,0.0238237442897226,0.038641589639154456,0.08941130016,-0.11709667966849292,,-1.3306737e-05,-4.4703484e-06,3.8146973e-06,1.0,8.098781e-06,8.713454e-06,-8.095056e-06,1.0,8.046627e-07,-8.709729e-06,-8.34465e-07,1.0,256,0.768,0,0,0.0,False,1.047316686446326,1.0521703984015973
0.7779374220117461,14:25:09.263415,14:23:54.008533,0,,0.07987708,-0.014973462,0.034285024,-0.9764905,0.025059557,-0.21409823,-0.15346694,0.6166525,0.7721319,0.15137348,0.7868364,-0.5983096,,0.030970104,0.0035389606,0.0031220913,0.6526358,0.55724907,0.51336145,0.035424054,-0.699252,0.713997,0.7568432,-0.4477945,-0.4760971,,0.05737979,1.3231696,0.4342655,0.9967615,0.07868101,-0.016605815,0.041305188,-0.6781352,-0.7337755,-0.068995185,0.7307133,-0.679189,,-0.039123807,0.27794135,-0.07821695,0.9613897,-0.041885596,0.2719842,0.016765853,0.99542785,0.0940333,-0.27467927,-0.0858426,0.9576964,,0.018586256,0.44528952,-0.27385932,-0.7250702,-0.4538932,-0.51793265,0.58457845,-0.8032227,-0.11446094,-0.36406222,-0.38576445,0.847729,,1.3286730228117043,0.10783251912279683,0.18232707737,0.735802011687196,0.11559447880156261,0.27329478410535757,0.8729106894215883,,-1.018188270336382,0.10802558744465245,0.20921861342000003,4.536641927287684,-0.5857606744944432,-0.3233748514119352,0.8781376995378853,,0.0238237442897226,0.038641589639154456,0.08941130016,-0.11709667966849292,,-1.3306737e-05,-4.4703484e-06,3.8146973e-06,1.0,8.098781e-06,8.713454e-06,-8.095056e-06,1.0,8.046627e-07,-8.709729e-06,-8.34465e-07,1.0,267,0.801,0,0,0.0,False,1.0470783755722417,1.0518807171969207
0.8088602670031833,14:25:09.295352,14:23:54.008533,0,,0.07987573,-0.014990404,0.034309074,-0.9762631,0.02580418,-0.2150446,-0.1539323,0.61580265,0.77271736,0.15236439,0.78747773,-0.5972133,,0.030474342,0.0032972638,0.002874732,0.6588943,0.5539809,0.5088844,0.039571643,-0.7010857,0.7119782,0.7511939,-0.44898093,-0.4838635,,0.05737979,1.3231696,0.4342655,0.9967615,0.07868101,-0.016605815,0.041305188,-0.6781352,-0.7337755,-0.068995185,0.7307133,-0.679189,,-0.039124284,0.2779473,-0.07824577,0.96109605,-0.042692084,0.27289525,0.017167876,0.9953059,0.095244266,-0.27568042,-0.086853854,0.9573175,,0.019121397,0.44501856,-0.27393383,-0.7310439,-0.45039058,-0.5125653,0.58103436,-0.80474895,-0.12156548,-0.35773444,-0.38668776,0.8499992,,1.3286807455445784,0.10783251912279683,0.18229855899000003,0.7360117016306805,0.11450138680343909,0.2745128422954912,0.8719306250247826,,-1.0156011548235169,0.1070679685682486,0.20921602084000002,4.536851617231169,-0.5790654860059367,-0.3216465995606904,0.8794444520669593,,0.0238237442897226,0.038641589639154456,0.08941130016,-0.11709667966849292,,-1.3306737e-05,-4.4703484e-06,3.8146973e-06,1.0,8.098781e-06,8.713454e-06,-8.095056e-06,1.0,8.046627e-07,-8.709729e-06,-8.34465e-07,1.0,278,0.833,0,0,0.0,False,1.0469592201351996,1.0516875963938028
0.8407862010062672,14:25:09.326249,14:23:54.165413,0,,0.07988089,-0.015004948,0.03433861,-0.97626376,0.026036028,-0.21501383,-0.15377593,0.61576575,0.77277786,0.15251824,0.7874989,-0.5971461,,0.029929869,0.0030070338,0.0025820136,0.6680052,0.54876125,0.5026231,0.046450257,-0.7048579,0.7078261,0.74270546,-0.44948447,-0.49633902,,0.05737979,1.3231696,0.4342655,0.9967615,0.07868101,-0.016605815,0.041305188,-0.6781352,-0.7337755,-0.068995185,0.7307133,-0.679189,,-0.03913145,0.27795887,-0.0782762,0.9610947,-0.0429259,0.27286336,0.01738705,0.99529344,0.0953344,-0.27567145,-0.0868811,0.9573176,,0.019713158,0.4446905,-0.27402636,-0.7397796,-0.44486815,-0.50479555,0.57606936,-0.8064172,-0.13354915,-0.34766403,-0.38959417,0.8528459,,1.3287270819418238,0.10783251912279683,0.18226615174000002,0.736221391574165,0.11450138680343909,0.27459452103563176,0.8717672809586483,,-1.0128750301189156,0.10587866770561803,0.20920694681000002,4.5364322373442,-0.567724656525405,-0.3170905784837384,0.879117763934691,,0.0238237442897226,0.038641589639154456,0.08941130016,-0.11709667966849292,,-1.3306737e-05,-4.4703484e-06,3.8146973e-06,1.0,8.098781e-06,8.713454e-06,-8.095056e-06,1.0,8.046627e-07,-8.709729e-06,-8.34465e-07,1.0,289,0.866,0,0,0.0,False,1.0471975310092834,1.0519289973977002
0.8716806800075574,14:25:09.363455,14:23:54.165413,0,,0.0798835,-0.015014291,0.034366235,-0.97625655,0.02603262,-0.2150469,-0.15378648,0.61585695,0.7727031,0.15255362,0.7874278,-0.597231,,0.029687949,0.002823526,0.0024284124,0.6729445,0.5448734,0.50025845,0.050137907,-0.70835006,0.7040784,0.7379918,-0.44872367,-0.5039993,,0.05737979,1.3231696,0.4342655,0.9967615,0.07868101,-0.016605815,0.041305188,-0.6781352,-0.7337755,-0.068995185,0.7307133,-0.679189,,-0.039135788,0.2779726,-0.07830168,0.9610853,-0.042915586,0.27289787,0.017405573,0.9953039,0.09522173,-0.27570283,-0.086766265,0.95731896,,0.019982683,0.4444972,-0.27410257,-0.7445012,-0.44081384,-0.5013992,0.5732612,-0.8070285,-0.14169204,-0.34218365,-0.3929226,0.8535351,,1.3287888638048175,0.10784024185567105,0.18223892965000002,0.736221391574165,0.11450138680343909,0.2744311635553507,0.8724206572231855,,-1.011654838324788,0.10507550348669868,0.20919916907000002,4.5364322373442,-0.5613027410364293,-0.312852486101165,0.8787910758024224,,0.0238237442897226,0.038641589639154456,0.08941130016,-0.11709667966849292,,-1.3306737e-05,-4.4703484e-06,3.8146973e-06,1.0,8.098781e-06,8.713454e-06,-8.095056e-06,1.0,8.046627e-07,-8.709729e-06,-8.34465e-07,1.0,297,0.89,0,0,0.0,False,1.0465421761055524,1.0523635192047154
0.9088971500023035,14:25:09.383509,14:23:54.165413,0,,0.07988288,-0.0150168985,0.034376428,-0.9762523,0.0260484,-0.21506414,-0.15379363,0.61584157,0.77271396,0.1525734,0.7874393,-0.59721065,,0.029624104,0.0026834253,0.0023573637,0.6744883,0.5433396,0.4998473,0.051546693,-0.71004343,0.7022686,0.73648375,-0.44790643,-0.50692356,,0.05737979,1.3231696,0.4342655,0.9967615,0.07868101,-0.016605815,0.041305188,-0.6781352,-0.7337755,-0.068995185,0.7307133,-0.679189,,-0.039135773,0.27797827,-0.07831058,0.96107984,-0.042932484,0.27291447,0.017415054,0.9953016,0.09524417,-0.27572128,-0.08678444,0.957312,,0.02006398,0.4443742,-0.27418628,-0.74599355,-0.43924084,-0.50056076,0.572482,-0.8069847,-0.14505175,-0.34023225,-0.39476967,0.8534629,,1.3288197547363145,0.10784024185567105,0.18222985562000002,0.736221391574165,0.11450138680343909,0.2744311635553506,0.872747345355454,,-1.0112532562153285,0.10439590299376693,0.20919009504000002,4.5364322373442,-0.5592531935399478,-0.3110115688305671,0.8792811080008254,,0.0238237442897226,0.038641589639154456,0.08941130016,-0.11709667966849292,,-1.3306737e-05,-4.4703484e-06,3.8146973e-06,1.0,8.098781e-06,8.713454e-06,-8.095056e-06,1.0,8.046627e-07,-8.709729e-06,-8.34465e-07,1.0,304,0.91,0,0,0.0,False,1.0472571087278046,1.0515427557914643
0.9289393720100634,14:25:09.408022,14:23:54.165413,0,,0.0798841,-0.015019864,0.03438221,-0.9762513,0.026017215,-0.2150727,-0.15379542,0.6159638,0.772616,0.15257834,0.7873446,-0.5973342,,0.029585928,0.0024370644,0.0022287369,0.6784214,0.5422406,0.49570084,0.055012256,-0.7103231,0.70172274,0.73261046,-0.448794,-0.51172847,,0.05737979,1.3231696,0.4342655,0.9967615,0.07868101,-0.016605815,0.041305188,-0.6781352,-0.7337755,-0.068995185,0.7307133,-0.679189,,-0.039137382,0.27798042,-0.07831662,0.96107846,-0.042892125,0.27292562,0.017417423,0.99531657,0.09508719,-0.2757259,-0.086632594,0.9573244,,0.020133821,0.44414544,-0.27433285,-0.74978274,-0.43804097,-0.4959294,0.57040805,-0.80774784,-0.1489233,-0.33535138,-0.39454222,0.8554975,,1.3288274774691886,0.10784024185567105,0.18222337417,0.736221391574165,0.11450138680343909,0.2742678060750695,0.8724206572231854,,-1.0109906832976048,0.10313709753526833,0.20918231730000003,4.5364322373442,-0.5532411875502683,-0.31174834084604097,0.879117763934691,,0.0238237442897226,0.038641589639154456,0.08941130016,-0.11709667966849292,,-1.3306737e-05,-4.4703484e-06,3.8146973e-06,1.0,8.098781e-06,8.713454e-06,-8.095056e-06,1.0,8.046627e-07,-8.709729e-06,-8.34465e-07,1.0,315,0.943,0,0,0.0,False,1.0467209092611154,1.0515427557914643
0.953467104001902,14:25:09.435407,14:23:54.165413,0,,0.07988577,-0.01502277,0.034386143,-0.9762513,0.026017215,-0.2150727,-0.15379542,0.6159638,0.772616,0.15257834,0.7873446,-0.5973342,,0.029606022,0.0022761319,0.0021748543,0.67949027,0.5410743,0.49551132,0.056260765,-0.7118115,0.70011365,0.7315242,-0.44784245,-0.5141104,,0.05737979,1.3231696,0.4342655,0.9967615,0.07868101,-0.016605815,0.041305188,-0.6781352,-0.7337755,-0.068995185,0.7307133,-0.679189,,-0.039139364,0.2779813,-0.07832133,0.96107846,-0.042892125,0.27292562,0.017417423,0.99531657,0.09508719,-0.2757259,-0.086632594,0.9573244,,0.020131791,0.44401622,-0.27444467,-0.7508331,-0.4368618,-0.4953801,0.56996924,-0.80753225,-0.15174557,-0.33374357,-0.396287,0.85531974,,1.3288274774691886,0.10784024185567105,0.18221818901000003,0.736221391574165,0.11450138680343909,0.2742678060750695,0.8724206572231854,,-1.0109906832976048,0.10230304238485208,0.2091693544,4.5364322373442,-0.5514649130533176,-0.3103380176891748,0.8792811080008252,,0.0238237442897226,0.038641589639154456,0.08941130016,-0.11709667966849292,,-1.3306737e-05,-4.4703484e-06,3.8146973e-06,1.0,8.098781e-06,8.713454e-06,-8.095056e-06,1.0,8.046627e-07,-8.709729e-06,-8.34465e-07,1.0,319,0.955,0,0,0.0,False,1.0469592201351996,1.0518324369961412
0.9808531950111501,14:25:09.456272,14:23:54.319537,0,,0.07988796,-0.015023977,0.03438945,-0.97625256,0.026017366,-0.21506703,-0.15379164,0.61595976,0.7726201,0.15257418,0.78734773,-0.59733105,,0.029611632,0.0021045152,0.0021238327,0.68127185,0.54079765,0.4933624,0.058018208,-0.71173394,0.70004904,0.7297277,-0.44829953,-0.5162606,,0.05737979,1.3231696,0.4342655,0.9967615,0.07868101,-0.016605815,0.041305188,-0.6781352,-0.7337755,-0.068995185,0.7307133,-0.679189,,-0.03914175,0.27798286,-0.07832432,0.9610801,-0.04289259,0.27291995,0.017416988,0.9953161,0.09509222,-0.2757204,-0.086637795,0.9573255,,0.020144677,0.44388586,-0.2745669,-0.75256,-0.4365482,-0.49303052,0.56908774,-0.8078505,-0.15335155,-0.3313496,-0.39598387,0.85639024,,1.3288274774691886,0.10784796458854527,0.18221430014,0.736221391574165,0.11450138680343909,0.2742678060750695,0.8724206572231854,,-1.010959792366108,0.10144581903581316,0.20914213231000003,4.5364322373442,-0.5485955465582434,-0.31120757634426954,0.8792811080008252,,0.0238237442897226,0.038641589639154456,0.08941130016,-0.11709667966849292,,-1.3306737e-05,-4.4703484e-06,3.8146973e-06,1.0,8.098781e-06,8.713454e-06,-8.095056e-06,1.0,8.046627e-07,-8.709729e-06,-8.34465e-07,1.0,326,0.976,0,0,0.0,False,1.0471975310092834,1.052025557799259
1.0017196320113726,14:25:09.474865,14:23:54.319537,0,,0.07988699,-0.015025765,0.034391925,-0.9762503,0.026038727,-0.21507488,-0.1537972,0.6158969,0.7726691,0.15258327,0.78739625,-0.5972648,,0.029587172,0.0019321684,0.0020629168,0.6828246,0.5402838,0.4917762,0.059572667,-0.71206325,0.6995835,0.7281494,-0.44839633,-0.51840067,,0.05737979,1.3231696,0.4342655,0.9967615,0.07868101,-0.016605815,0.041305188,-0.6781352,-0.7337755,-0.068995185,0.7307133,-0.679189,,-0.03914097,0.27798346,-0.07832737,0.96107715,-0.04291864,0.27292627,0.017419793,0.9953082,0.0951741,-0.2757305,-0.086715326,0.95731556,,0.02018842,0.44375047,-0.2746842,-0.7540657,-0.43600312,-0.49120894,0.56832016,-0.80803406,-0.15521984,-0.32923722,-0.39620987,0.8571001,,1.328835200202063,0.10784024185567105,0.18221170756000002,0.736221391574165,0.11450138680343909,0.27434948481521004,0.8722573131570511,,-1.0107512785785038,0.10059631841964846,0.20912009538,4.5364322373442,-0.546272726062231,-0.31146810590429735,0.8794444520669595,,0.0238237442897226,0.038641589639154456,0.08941130016,-0.11709667966849292,,-1.3306737e-05,-4.4703484e-06,3.8146973e-06,1.0,8.098781e-06,8.713454e-06,-8.095056e-06,1.0,8.046627e-07,-8.709729e-06,-8.34465e-07,1.0,342,1.025,0,0,0.0,False,1.0472571087278046,1.0513496349883464
1.0203102530067554,14:25:09.517057,14:23:54.319537,0,,0.07988953,-0.015030786,0.03439398,-0.9762511,0.02601312,-0.21507403,-0.1537974,0.61597186,0.7726093,0.15257755,0.78733844,-0.5973425,,0.02937045,0.0015156362,0.0019379854,0.6844538,0.5388669,0.49106556,0.061970532,-0.71412766,0.697267,0.72641766,-0.44681537,-0.52218145,,0.05737979,1.3231696,0.4342655,0.9967615,0.07868101,-0.016605815,0.041305188,-0.6781352,-0.7337755,-0.068995185,0.7307133,-0.679189,,-0.039143793,0.2779815,-0.07833228,0.9610783,-0.042887434,0.27292714,0.01741549,0.99531764,0.09507655,-0.2757268,-0.08662285,0.95732504,,0.020448308,0.44346198,-0.27497625,-0.7556978,-0.43459272,-0.48994896,0.5678338,-0.8075365,-0.15952945,-0.3263213,-0.39876562,0.85703,,1.3288197547363145,0.10783251912279683,0.18220652240000001,0.736221391574165,0.11450138680343909,0.2742678060750695,0.8724206572231854,,-1.0093302957296466,0.09867335793396656,0.20903194766000002,4.536012857457231,-0.5447697245648111,-0.3097532681998978,0.8792811080008252,,0.0238237442897226,0.038641589639154456,0.08941130016,-0.11709667966849292,,-1.3306737e-05,-4.4703484e-06,3.8146973e-06,1.0,8.098781e-06,8.713454e-06,-8.095056e-06,1.0,8.046627e-07,-8.709729e-06,-8.34465e-07,1.0,350,1.05,0,0,0.0,False,1.0469592201351996,1.0514461953899055
1.062462347006658,14:25:09.543225,14:23:54.319537,0,,0.07989125,-0.015032291,0.034398958,-0.97625816,0.026225397,-0.21501608,-0.15362829,0.6159501,0.7726603,0.15270251,0.78734845,-0.5972974,,0.029208913,0.0013305936,0.0019031763,0.6852995,0.5386876,0.49008176,0.0630306,-0.7142952,0.69700027,0.72552854,-0.44676375,-0.52346015,,0.05737979,1.3231696,0.4342655,0.9967615,0.07868101,-0.016605815,0.041305188,-0.6781352,-0.7337755,-0.068995185,0.7307133,-0.679189,,-0.039145816,0.27798405,-0.078336656,0.96108526,-0.043100603,0.2728689,0.01762238,0.99530756,0.09514365,-0.27568924,-0.086632565,0.957335,,0.020626457,0.44335967,-0.27511534,-0.7565316,-0.4344069,-0.48882568,0.5674973,-0.80755377,-0.16063547,-0.32497185,-0.39893308,0.8574647,,1.3288274774691886,0.10784024185567105,0.18220133724,0.7364310815176496,0.11450138680343909,0.2743494848152101,0.8725840012893198,,-1.008449904181985,0.09794742104378945,0.20896324429000002,4.5358031675137465,-0.5442231785657493,-0.3099539035942619,0.8794444520669595,,0.0238237442897226,0.038641589639154456,0.08941130016,-0.11709667966849292,,-1.3306737e-05,-4.4703484e-06,3.8146973e-06,1.0,8.098781e-06,8.713454e-06,-8.095056e-06,1.0,8.046627e-07,-8.709729e-06,-8.34465e-07,1.0,358,1.074,0,0,0.0,False,1.0471975310092834,1.0518807171969207
1.0886132300074678,14:25:09.566137,14:23:54.427819,0,,0.07989474,-0.0150348395,0.034402415,-0.97626054,0.02620404,-0.21500827,-0.15362272,0.6160129,0.7726113,0.1526934,0.78729993,-0.59736353,,0.02903831,0.0011483524,0.0018463731,0.68625575,0.53839844,0.48906034,0.06395367,-0.7144368,0.6967711,0.7245433,-0.44688585,-0.5247191,,0.05737979,1.3231696,0.4342655,0.9967615,0.07868101,-0.016605815,0.041305188,-0.6781352,-0.7337755,-0.068995185,0.7307133,-0.679189,,-0.039149567,0.2779848,-0.07834066,0.96108824,-0.043074556,0.2728626,0.017619573,0.99531543,0.09506178,-0.2756791,-0.086555034,0.9573449,,0.02081555,0.4432411,-0.27524075,-0.7574549,-0.43409693,-0.48766997,0.56699604,-0.8076931,-0.16170119,-0.3236937,-0.3989883,0.8579223,,1.3288197547363145,0.10784796458854527,0.18219615208,0.7364310815176496,0.11450138680343909,0.2742678060750695,0.8724206572231854,,-1.0074691171069585,0.09719059322211546,0.20891268898,4.5358031675137465,-0.5436766325666875,-0.31031789646890706,0.8796077961330939,,0.0238237442897226,0.038641589639154456,0.08941130016,-0.11709667966849292,,-1.3306737e-05,-4.4703484e-06,3.8146973e-06,1.0,8.098781e-06,8.713454e-06,-8.095056e-06,1.0,8.046627e-07,-8.709729e-06,-8.34465e-07,1.0,362,1.086,0,0,0.0,False,1.0467804869796362,1.052122118200818
1.1115653590095462,14:25:09.588203,14:23:54.427819,0,,0.07989591,-0.015039191,0.034407213,-0.9762523,0.026013268,-0.2150684,-0.15379363,0.61596775,0.77261335,0.1525734,0.7873417,-0.5973393,,0.028766066,0.00083693303,0.0017377138,0.68970543,0.5372193,0.48549122,0.06539506,-0.71395886,0.69712716,0.72113097,-0.4490636,-0.52755296,,0.05737979,1.3231696,0.4342655,0.9967615,0.07868101,-0.016605815,0.041305188,-0.6781352,-0.7337755,-0.068995185,0.7307133,-0.679189,,-0.03915114,0.2779853,-0.078347035,0.96107984,-0.0428879,0.27292147,0.017415054,0.99531716,0.09508158,-0.27572128,-0.08662805,0.9573262,,0.021120695,0.4430261,-0.27544948,-0.760652,-0.43274906,-0.4838768,0.564364,-0.8091721,-0.16350481,-0.32078302,-0.39745292,0.85972637,,1.3288197547363145,0.10784024185567105,0.18218967063000002,0.736221391574165,0.11450138680343909,0.2742678060750695,0.8724206572231854,,-1.0059554614636104,0.09590861956499419,0.20883102271,4.537270997118139,-0.5403973565723169,-0.3129102474174806,0.8797711401992282,,0.0238237442897226,0.038641589639154456,0.08941130016,-0.11709667966849292,,-1.3306737e-05,-4.4703484e-06,3.8146973e-06,1.0,8.098781e-06,8.713454e-06,-8.095056e-06,1.0,8.046627e-07,-8.709729e-06,-8.34465e-07,1.0,370,1.111,0,0,0.0,False,1.0470187978537204,1.0519772775984795
1.133615564001957,14:25:09.608123,14:23:54.427819,0,,0.07989578,-0.015042439,0.034411684,-0.9762501,0.026017059,-0.21507837,-0.15379919,0.61596805,0.77261204,0.1525825,0.78734136,-0.59733737,,0.028620616,0.00069626607,0.0016114712,0.6961692,0.5342745,0.47947794,0.066862255,-0.71326387,0.69769907,0.7147572,-0.4536575,-0.5322753,,0.05737979,1.3231696,0.4342655,0.9967615,0.07868101,-0.016605815,0.041305188,-0.6781352,-0.7337755,-0.068995185,0.7307133,-0.679189,,-0.03915135,0.27798635,-0.078352444,0.9610769,-0.04289166,0.2729313,0.01741786,0.99531704,0.095082164,-0.2757314,-0.086627394,0.9573233,,0.021288466,0.44286567,-0.2755043,-0.7665483,-0.4294276,-0.47748893,0.5588318,-0.81239176,-0.16651307,-0.31640276,-0.39447632,0.8627153,,1.3288274774691886,0.10783251912279683,0.18218448547000002,0.736221391574165,0.11450138680343909,0.2742678060750695,0.8724206572231854,,-1.0053144746350497,0.09533713733230158,0.20883102271,4.54062603621389,-0.532335803086156,-0.31654346909050923,0.8794444520669595,,0.0238237442897226,0.038641589639154456,0.08941130016,-0.11709667966849292,,-1.3306737e-05,-4.4703484e-06,3.8146973e-06,1.0,8.098781e-06,8.713454e-06,-8.095056e-06,1.0,8.046627e-07,-8.709729e-06,-8.34465e-07,1.0,378,1.136,0,0,0.0,False,1.0473762641648467,1.0519772775984795
1.1535692949983058,14:25:09.638179,14:23:54.427819,0,,0.07990324,-0.015047401,0.03441678,-0.9762557,0.026005529,-0.21505414,-0.15378626,0.6159713,0.772612,0.15255934,0.7873392,-0.59734625,,0.028199755,0.00027805008,0.0013822317,0.6957198,0.52795625,0.4870688,0.069434136,-0.72432625,0.6859521,0.71494955,-0.44341117,-0.5405865,,0.05737979,1.3231696,0.4342655,0.9967615,0.07868101,-0.016605815,0.041305188,-0.6781352,-0.7337755,-0.068995185,0.7307133,-0.679189,,-0.03915923,0.27798662,-0.078359105,0.9610842,-0.042879917,0.27290753,0.017409878,0.9953178,0.09507539,-0.27570653,-0.08662417,0.95733076,,0.0217613,0.44251248,-0.27574146,-0.7663224,-0.42330936,-0.48327968,0.5603403,-0.80836415,-0.18046105,-0.31427512,-0.4090924,0.8566648,,1.3288043092705661,0.10784796458854527,0.18217541144000002,0.736221391574165,0.11450138680343909,0.2742678060750695,0.8724206572231854,,-1.0026810227249392,0.09339873138087122,0.20881805981,4.538319446835561,-0.5345219870824031,-0.3005486818469085,0.880424516463765,,0.0238237442897226,0.038641589639154456,0.08941130016,-0.11709667966849292,,-1.3306737e-05,-4.4703484e-06,3.8146973e-06,1.0,8.098781e-06,8.713454e-06,-8.095056e-06,1.0,8.046627e-07,-8.709729e-06,-8.34465e-07,1.0,386,1.16,0,0,0.0,False,1.0464825983870312,1.0519289973977002
1.1836218000098597,14:25:09.657218,14:23:54.427819,0,,0.079905786,-0.015049994,0.034423992,-0.976249,0.025819011,-0.21510723,-0.15395138,0.615914,0.77262473,0.15243593,0.7873901,-0.5973105,,0.028015397,3.6844984e-05,0.0012488365,0.6964525,0.52846295,0.48546967,0.07059139,-0.72368777,0.6865077,0.71412235,-0.4438499,-0.54131925,,0.05737979,1.3231696,0.4342655,0.9967615,0.07868101,-0.016605815,0.041305188,-0.6781352,-0.7337755,-0.068995185,0.7307133,-0.679189,,-0.03916223,0.27799007,-0.07836575,0.9610776,-0.042698417,0.2729592,0.017206855,0.99531794,0.09511085,-0.27574226,-0.08671214,0.95731246,,0.02197622,0.4423005,-0.27587867,-0.7670578,-0.42381847,-0.48166412,0.5601196,-0.8084836,-0.18061098,-0.31287125,-0.40832856,0.85754263,,1.3288120320034402,0.10785568732141951,0.18216763370000003,0.7360117016306805,0.11450138680343909,0.2742678060750695,0.8724206572231854,,-1.001437662732189,0.0922248759839891,0.20881805981,4.538109756892076,-0.5345219870824031,-0.3021005779095792,0.8799344842653624,,0.0238237442897226,0.038641589639154456,0.08941130016,-0.11709667966849292,,-1.3306737e-05,-4.4703484e-06,3.8146973e-06,1.0,8.098781e-06,8.713454e-06,-8.095056e-06,1.0,8.046627e-07,-8.709729e-06,-8.34465e-07,1.0,394,1.185,0,0,0.0,False,1.0468400646981575,1.0523152390039359
1.2026450900011696,14:25:09.685808,14:23:54.427819,0,,0.07990878,-0.015054196,0.034428164,-0.97625,0.025832634,-0.21510078,-0.1539496,0.6158547,0.7726724,0.15243101,0.78743607,-0.59725124,,0.027830534,-0.00029343925,0.0011114478,0.6948992,0.5280985,0.4880849,0.070139885,-0.7252765,0.68487537,0.71567833,-0.44168505,-0.541035,,0.05737979,1.3231696,0.4342655,0.9967615,0.07868101,-0.016605815,0.041305188,-0.6781352,-0.7337755,-0.068995185,0.7307133,-0.679189,,-0.03916558,0.2779902,-0.078371465,0.96107894,-0.04271649,0.27295154,0.017204484,0.9953108,0.09518653,-0.27573767,-0.086785786,0.95730716,,0.022199009,0.44204047,-0.2760906,-0.76563555,-0.42354706,-0.48415917,0.5614203,-0.80737907,-0.18151118,-0.31402144,-0.4107882,0.855946,,1.3288043092705661,0.10785568732141951,0.18216115225,0.7360117016306805,0.11450138680343909,0.2743494848152101,0.8725840012893198,,-1.0000861844791997,0.09067260667626997,0.20880898578,4.538109756892076,-0.53821117257607,-0.30097090553300876,0.8797711401992281,,0.0238237442897226,0.038641589639154456,0.08941130016,-0.11709667966849292,,-1.3306737e-05,-4.4703484e-06,3.8146973e-06,1.0,8.098781e-06,8.713454e-06,-8.095056e-06,1.0,8.046627e-07,-8.709729e-06,-8.34465e-07,1.0,427,1.287,0,0,0.0,False,1.0469592201351996,1.0520738380000385
1.2312533610092942,14:25:09.785655,14:23:54.604638,0,,0.07981224,-0.015014604,0.03444341,-0.97578627,0.026711062,-0.21708916,-0.15528682,0.61436963,0.77358645,0.15403625,0.78856593,-0.59534556,,0.027540676,-0.0016732663,0.000667274,0.695636,0.5261931,0.4890927,0.07495049,-0.73025686,0.6790489,0.71447396,-0.43571287,-0.5474314,,0.05745148,1.3231691,0.43426216,0.996764,0.07864073,-0.016649395,0.04124599,-0.6781399,-0.73377454,-0.068995185,0.7307133,-0.679189,,-0.03913239,0.2780272,-0.07835978,0.9604751,-0.043668,0.2749194,0.017415809,0.99511075,0.097217746,-0.27782053,-0.088587284,0.95653963,,0.02257235,0.44099978,-0.27705443,-0.7666136,-0.42190912,-0.4840416,0.5627348,-0.8045034,-0.19001018,-0.30924606,-0.41805142,0.8541662,,1.3287734183390691,0.10785568732141951,0.18213781903,0.735802011687196,0.11231520280719205,0.27629552875463387,0.8725840012893197,,-0.997375505240347,0.0838148198839586,0.20872213435000003,4.537270997118139,-0.5387577185751317,-0.2985649441548497,0.8794444520669595,,0.0238237442897226,0.038641589639154456,0.08941130016,-0.11709667966849292,,5.8360398e-05,-8.940697e-07,5.2452087e-06,1.0000001,-3.2246113e-05,-3.4686178e-05,3.2242388e-05,1.0,-3.2484531e-06,3.4686178e-05,3.2782555e-06,1.0,435,1.312,0,0,0.0,False,1.0470783755722417,1.0515427557914643
1.3311010710021947,14:25:09.808622,14:23:54.604638,0,,0.0798151,-0.015022039,0.03445202,-0.975785,0.026710922,-0.21709484,-0.1552906,0.6143737,0.77358246,0.15404043,0.7885627,-0.5953487,,0.027565531,-0.0018928051,0.00062453747,0.6956166,0.5267293,0.4885428,0.07577726,-0.7300323,0.6791985,0.7144057,-0.43544114,-0.54773676,,0.05745148,1.3231691,0.43426216,0.996764,0.07864073,-0.016649395,0.04124599,-0.6781399,-0.73377454,-0.068995185,0.7307133,-0.679189,,-0.039135948,0.27802837,-0.07837091,0.96047354,-0.043667544,0.27492505,0.017416256,0.9951112,0.09721272,-0.27782604,-0.088582076,0.9565385,,0.022569051,0.44085017,-0.27722248,-0.76665217,-0.42248547,-0.48347753,0.5630926,-0.8042251,-0.1901282,-0.30849835,-0.4180048,0.85445935,,1.3287734183390691,0.10784796458854527,0.18212615242000002,0.735802011687196,0.11231520280719205,0.27629552875463387,0.8725840012893197,,-0.9973137233773531,0.08270274635007027,0.20869102339,4.537061307174653,-0.5386210820753663,-0.29965650694023277,0.8794444520669595,,0.0238237442897226,0.038641589639154456,0.08941130016,-0.11709667966849292,,5.8360398e-05,-8.940697e-07,5.2452087e-06,1.0000001,-3.2246113e-05,-3.4686178e-05,3.2242388e-05,1.0,-3.2484531e-06,3.4686178e-05,3.2782555e-06,1.0,443,1.336,0,0,0.0,False,1.0470783755722417,1.0515427557914643
1.3540464460093062,14:25:09.829742,14:23:54.604638,0,,0.07981101,-0.015022814,0.034454852,-0.9757793,0.026722506,-0.21711902,-0.15530354,0.6143704,0.77358246,0.15406355,0.7885649,-0.59533983,,0.027580358,-0.0021028817,0.00057917833,0.6956969,0.527087,0.48804244,0.076426744,-0.7298626,0.67930824,0.7142583,-0.43529293,-0.5480466,,0.05745148,1.3231691,0.43426216,0.996764,0.07864073,-0.016649395,0.04124599,-0.6781399,-0.73377454,-0.068995185,0.7307133,-0.679189,,-0.039132033,0.27802995,-0.078373656,0.9604662,-0.043679334,0.27494878,0.017424222,0.99511045,0.09721951,-0.2778509,-0.08858528,0.956531,,0.022575231,0.44070426,-0.27738088,-0.7667679,-0.42286822,-0.48295906,0.5632815,-0.8040578,-0.19027628,-0.3078652,-0.41793963,0.8547195,,1.3287965865376918,0.10783251912279683,0.18212485613,0.735802011687196,0.11231520280719205,0.27629552875463387,0.8725840012893197,,-0.9972056051171141,0.08164473194630152,0.2086638013,4.537061307174653,-0.5384844455756008,-0.3007480697256161,0.879117763934691,,0.0238237442897226,0.038641589639154456,0.08941130016,-0.11709667966849292,,5.8360398e-05,-8.940697e-07,5.2452087e-06,1.0000001,-3.2246113e-05,-3.4686178e-05,3.2242388e-05,1.0,-3.2484531e-06,3.4686178e-05,3.2782555e-06,1.0,447,1.349,0,0,0.0,False,1.047316686446326,1.0513496349883464
1.3751831330009736,14:25:09.849701,14:23:54.604638,0,,0.07981534,-0.015026987,0.034460157,-0.97578853,0.0269092,-0.21705425,-0.15513083,0.61441946,0.77357817,0.1541787,0.7885204,-0.59536904,,0.027509503,-0.002275154,0.00053215027,0.6958938,0.5271189,0.48772702,0.076936126,-0.72996145,0.6791445,0.7140118,-0.43508834,-0.54853016,,0.05745148,1.3231691,0.43426216,0.996764,0.07864073,-0.016649395,0.04124599,-0.6781399,-0.73377454,-0.068995185,0.7307133,-0.679189,,-0.039136782,0.27803093,-0.07838005,0.960476,-0.04386164,0.27488542,0.017626429,0.9951093,0.09719454,-0.27780414,-0.08850777,0.95655173,,0.022663616,0.4405866,-0.27750438,-0.7669786,-0.42291245,-0.48258558,0.5633007,-0.80393606,-0.19073309,-0.30730456,-0.41812903,0.85482866,,1.3287888638048175,0.10784024185567105,0.18211707839000002,0.7360117016306805,0.11231520280719205,0.27629552875463387,0.8725840012893197,,-0.9966959047474152,0.08084156772738217,0.20863528292000003,4.537061307174653,-0.5386210820753663,-0.3012084030029035,0.8792811080008253,,0.0238237442897226,0.038641589639154456,0.08941130016,-0.11709667966849292,,5.8360398e-05,-8.940697e-07,5.2452087e-06,1.0000001,-3.2246113e-05,-3.4686178e-05,3.2242388e-05,1.0,-3.2484531e-06,3.4686178e-05,3.2782555e-06,1.0,459,1.385,0,0,0.0,False,1.0469592201351996,1.0519289973977002
1.3951434530026745,14:25:09.885134,14:23:54.604638,0,,0.07982476,-0.015029088,0.034456402,-0.9757998,0.02686422,-0.21700934,-0.15510693,0.6144973,0.7735211,0.15413168,0.78846127,-0.5954595,,0.027372308,-0.0023262799,0.0005428791,0.6960161,0.52686435,0.48782763,0.076947,-0.73021865,0.6788666,0.7138914,-0.434965,-0.5487846,,0.05745148,1.3231691,0.43426216,0.996764,0.07864073,-0.016649395,0.04124599,-0.6781399,-0.73377454,-0.068995185,0.7307133,-0.679189,,-0.039146073,0.27802664,-0.078378454,0.96049047,-0.043810926,0.27484304,0.017608587,0.9951199,0.09708904,-0.27775535,-0.0884135,0.9565746,,0.022802645,0.44058728,-0.2775515,-0.7670889,-0.42265204,-0.4826385,0.5631878,-0.8039274,-0.19110271,-0.30723637,-0.41840887,0.85471624,,1.328734804674698,0.10786341005429373,0.1821157821,0.7360117016306805,0.11231520280719205,0.2762138500144934,0.8724206572231855,,-0.9959931360558608,0.08074889493289147,0.20858343132,4.537061307174653,-0.539167628074428,-0.30084441012825847,0.879117763934691,,0.0238237442897226,0.038641589639154456,0.08941130016,-0.11709667966849292,,5.8360398e-05,-8.940697e-07,5.2452087e-06,1.0000001,-3.2246113e-05,-3.4686178e-05,3.2242388e-05,1.0,-3.2484531e-06,3.4686178e-05,3.2782555e-06,1.0,467,1.41,0,0,0.0,False,1.0473762641648467,1.0518324369961412
1.4305725910089677,14:25:09.909360,14:23:54.753535,0,,0.0798202,-0.015030026,0.03446102,-0.97579306,0.026897477,-0.21703568,-0.15512165,0.6144269,0.77357405,0.15415972,0.788515,-0.59538114,,0.027254857,-0.002332881,0.0005490184,0.6963989,0.5270491,0.48708105,0.07705665,-0.7297027,0.67940867,0.7135061,-0.43560648,-0.54877687,,0.05745148,1.3231691,0.43426216,0.996764,0.07864073,-0.016649395,0.04124599,-0.6781399,-0.73377454,-0.068995185,0.7307133,-0.679189,,-0.03914178,0.2780294,-0.078382544,0.96048176,-0.043849394,0.27486736,0.01761891,0.9951106,0.09718272,-0.2777848,-0.08849937,0.9565581,,0.022919063,0.44060394,-0.27755827,-0.7674391,-0.42281216,-0.48194093,0.56286484,-0.80424166,-0.19073156,-0.30695334,-0.41764244,0.8551926,,1.3287656956061948,0.10784796458854527,0.18211318952000002,0.7360117016306805,0.11231520280719205,0.27629552875463387,0.8725840012893197,,-0.9954293765560424,0.08084156772738217,0.20855232036000002,4.537061307174653,-0.539167628074428,-0.30149784004938296,0.8792811080008253,,0.0238237442897226,0.038641589639154456,0.08941130016,-0.11709667966849292,,5.8360398e-05,-8.940697e-07,5.2452087e-06,1.0000001,-3.2246113e-05,-3.4686178e-05,3.2242388e-05,1.0,-3.2484531e-06,3.4686178e-05,3.2782555e-06,1.0,504,1.525,0,0,0.0,False,1.0470783755722417,1.0516875963938028
1.4548061250097817,14:25:10.019618,14:23:54.753535,0,,0.07981913,-0.015035912,0.03446397,-0.9757962,0.027087573,-0.21699786,-0.1549658,0.6144886,0.77355635,0.15429643,0.7884603,-0.595418,,0.026520252,-0.002308026,0.0006799698,0.6996997,0.53454757,0.47400367,0.07815367,-0.71675164,0.6929351,0.71014965,-0.44780117,-0.54328775,,0.05745148,1.3231691,0.43426216,0.996764,0.07864073,-0.016649395,0.04124599,-0.6781399,-0.73377454,-0.068995185,0.7307133,-0.679189,,-0.03914107,0.27802753,-0.0783889,0.96048373,-0.04403412,0.2748308,0.017825259,0.99511075,0.09714325,-0.27776468,-0.08840558,0.95657265,,0.023632921,0.44082022,-0.27759042,-0.77046716,-0.43005532,-0.47056642,0.56012696,-0.80913967,-0.17762555,-0.30436513,-0.40043157,0.8643011,,1.3287656956061948,0.10782479638992261,0.18210800436000002,0.736221391574165,0.11231520280719205,0.27629552875463387,0.8725840012893197,,-0.9921086014201259,0.08187641393252826,0.20828917349,4.537061307174653,-0.5375279900772427,-0.319415639142274,0.8792811080008252,,0.0238237442897226,0.038641589639154456,0.08941130016,-0.11709667966849292,,5.8360398e-05,-8.940697e-07,5.2452087e-06,1.0000001,-3.2246113e-05,-3.4686178e-05,3.2242388e-05,1.0,-3.2484531e-06,3.4686178e-05,3.2782555e-06,1.0,512,1.549,0,0,0.0,False,1.047435841883368,1.0515427557914643
1.5650553510058671,14:25:10.041817,14:23:54.753535,0,,0.07981767,-0.015040085,0.034463227,-0.97579354,0.027083198,-0.21701056,-0.15497532,0.61450493,0.77354145,0.15430398,0.78844786,-0.59543264,,0.026394725,-0.0023362488,0.0006970167,0.7007498,0.53883934,0.46754897,0.07877329,-0.7098093,0.69997543,0.70904475,-0.45367706,-0.53984493,,0.05745148,1.3231691,0.43426216,0.996764,0.07864073,-0.016649395,0.04124599,-0.6781399,-0.73377454,-0.068995185,0.7307133,-0.679189,,-0.039139736,0.27802417,-0.07839153,0.96048033,-0.044028528,0.27484366,0.017824242,0.99511284,0.09712255,-0.2777766,-0.08838542,0.95657104,,0.023757966,0.44083637,-0.2776212,-0.7714481,-0.4342735,-0.46505314,0.5593597,-0.8112329,-0.17034614,-0.30328962,-0.3915452,0.8687392,,1.3287579728733208,0.10780162819129993,0.18210670807,0.736221391574165,0.11231520280719205,0.27629552875463387,0.8725840012893197,,-0.9915448419203075,0.08189958213115092,0.20823472931000003,4.537061307174653,-0.5364348980791193,-0.3293733225274478,0.8794444520669595,,0.0238237442897226,0.038641589639154456,0.08941130016,-0.11709667966849292,,5.8360398e-05,-8.940697e-07,5.2452087e-06,1.0000001,-3.2246113e-05,-3.4686178e-05,3.2242388e-05,1.0,-3.2484531e-06,3.4686178e-05,3.2782555e-06,1.0,520,1.574,0,0,0.0,False,1.0468996424166788,1.0519772775984795
1.5872633090039017,14:25:10.070236,14:23:54.753535,0,,0.079816625,-0.015044242,0.0344674,-0.9757899,0.027086873,-0.21702619,-0.15498465,0.61450934,0.7735361,0.15431724,0.7884442,-0.5954339,,0.02621144,-0.0023745298,0.00077050924,0.7012257,0.5448812,0.45976865,0.07889217,-0.7002355,0.7095395,0.708561,-0.46127498,-0.53401005,,0.05745148,1.3231691,0.43426216,0.996764,0.07864073,-0.016649395,0.04124599,-0.6781399,-0.73377454,-0.068995185,0.7307133,-0.679189,,-0.039139047,0.27802438,-0.078397475,0.96047574,-0.04403185,0.27485913,0.017827494,0.9951132,0.09711811,-0.27779222,-0.08837954,0.95656705,,0.023935508,0.440903,-0.27768824,-0.7718815,-0.44026285,-0.4586584,0.5589454,-0.81370234,-0.15958874,-0.3029504,-0.37954858,0.8741647,,1.3287656956061948,0.10778618272555149,0.18210152291,0.736221391574165,0.11231520280719205,0.27629552875463387,0.8725840012893197,,-0.9907107867698912,0.08200770039139006,0.20811935950000002,4.537061307174653,-0.5365715345788846,-0.3428205754870847,0.8784643876701539,,0.0238237442897226,0.038641589639154456,0.08941130016,-0.11709667966849292,,5.8360398e-05,-8.940697e-07,5.2452087e-06,1.0000001,-3.2246113e-05,-3.4686178e-05,3.2242388e-05,1.0,-3.2484531e-06,3.4686178e-05,3.2782555e-06,1.0,528,1.598,0,0,0.0,False,1.047316686446326,1.0520738380000385
1.615661536998232,14:25:10.091056,14:23:54.753535,0,,0.07981933,-0.0150422305,0.034471124,-0.97579265,0.02710897,-0.21701124,-0.15497515,0.61442983,0.7736011,0.1543097,0.78850543,-0.59535486,,0.02610036,-0.0023980737,0.0008623004,0.7012103,0.5458831,0.45860213,0.07871899,-0.69858813,0.7111806,0.70859545,-0.46258622,-0.5328286,,0.05745148,1.3231691,0.43426216,0.996764,0.07864073,-0.016649395,0.04124599,-0.6781399,-0.73377454,-0.068995185,0.7307133,-0.679189,,-0.039141867,0.27802843,-0.07839838,0.9604792,-0.04405989,0.27484265,0.017828511,0.9951032,0.097220086,-0.27778032,-0.088477835,0.95656145,,0.024038456,0.44098374,-0.2777531,-0.7718562,-0.44125566,-0.45774612,0.55889016,-0.8141259,-0.15760952,-0.3031169,-0.3774817,0.87500155,,1.3287734183390691,0.10780935092417415,0.18209893033000002,0.736221391574165,0.11231520280719205,0.27637720749477446,0.872747345355454,,-0.9902397000645635,0.08213898685025188,0.20800787856000003,4.537061307174653,-0.5371180805779463,-0.3449886235567971,0.8791177639346909,,0.0238237442897226,0.038641589639154456,0.08941130016,-0.11709667966849292,,5.8360398e-05,-8.940697e-07,5.2452087e-06,1.0000001,-3.2246113e-05,-3.4686178e-05,3.2242388e-05,1.0,-3.2484531e-06,3.4686178e-05,3.2782555e-06,1.0,536,1.623,0,0,0.0,False,1.0471975310092834,1.0522186786023768
1.6365037549985573,14:25:10.122669,14:23:54.977152,0,,0.07982505,-0.015044972,0.034475207,-0.9757903,0.026910838,-0.21704617,-0.15513116,0.61438,0.7736094,0.15416728,0.78855103,-0.5953314,,0.025909215,-0.0024203062,0.0009815693,0.7026501,0.54686356,0.45521775,0.07943845,-0.6960598,0.7135758,0.7070872,-0.46523213,-0.5325286,,0.05745148,1.3231691,0.43426216,0.996764,0.07864073,-0.016649395,0.04124599,-0.6781399,-0.73377454,-0.068995185,0.7307133,-0.679189,,-0.03914788,0.27802947,-0.07840281,0.9604783,-0.043866254,0.27487662,0.017617892,0.9951047,0.09724331,-0.27779672,-0.08855734,0.9565493,,0.024218027,0.4410986,-0.27782935,-0.7731915,-0.44216388,-0.45460528,0.5577787,-0.8152489,-0.15573105,-0.3017578,-0.3739791,0.87697315,,1.3287579728733208,0.10782479638992261,0.18209244888,0.7360117016306805,0.11231520280719205,0.27637720749477446,0.872747345355454,,-0.9894905949757637,0.08240928250084974,0.2078471386,4.537061307174653,-0.5356150790805265,-0.3483378677411123,0.8787910758024224,,0.0238237442897226,0.038641589639154456,0.08941130016,-0.11709667966849292,,5.8360398e-05,-8.940697e-07,5.2452087e-06,1.0000001,-3.2246113e-05,-3.4686178e-05,3.2242388e-05,1.0,-3.2484531e-06,3.4686178e-05,3.2782555e-06,1.0,544,1.648,0,0,0.0,False,1.0470783755722417,1.0526049202086123
1.6681080999987898,14:25:10.149579,14:23:54.977152,0,,0.07982756,-0.015051588,0.03447613,-0.97579104,0.026898697,-0.2170446,-0.1551333,0.61439985,0.7735932,0.15416081,0.7885359,-0.59535295,,0.02573651,-0.002456203,0.001101613,0.7036257,0.5496649,0.45031065,0.07989189,-0.6909089,0.71851385,0.7060654,-0.46958834,-0.53005505,,0.05745148,1.3231691,0.43426216,0.996764,0.07864073,-0.016649395,0.04124599,-0.6781399,-0.73377454,-0.068995185,0.7307133,-0.679189,,-0.039150674,0.2780256,-0.0784081,0.96047926,-0.043852653,0.27487555,0.017611716,0.9951074,0.097216405,-0.2777939,-0.08853331,0.9565523,,0.02438028,0.44120502,-0.2779181,-0.7740935,-0.444914,-0.45036736,0.5570087,-0.81675136,-0.15052752,-0.30086634,-0.36738092,0.8800629,,1.328734804674698,0.10780935092417415,0.18208726372000003,0.7360117016306805,0.11231520280719205,0.27637720749477446,0.872747345355454,,-0.9887955490170836,0.08259462808983113,0.20768769493000003,4.537061307174653,-0.5347952600819339,-0.3553773168942548,0.8787910758024224,,0.0238237442897226,0.038641589639154456,0.08941130016,-0.11709667966849292,,5.8360398e-05,-8.940697e-07,5.2452087e-06,1.0000001,-3.2246113e-05,-3.4686178e-05,3.2242388e-05,1.0,-3.2484531e-06,3.4686178e-05,3.2782555e-06,1.0,552,1.672,0,0,0.0,False,1.047435841883368,1.0519772775984795
1.6950214270036668,14:25:10.171848,14:23:54.977152,0,,0.07982827,-0.015056238,0.03448257,-0.9757887,0.026902508,-0.21705456,-0.15513887,0.6144002,0.7735919,0.15416989,0.7885357,-0.5953511,,0.025620766,-0.0024921298,0.0012108684,0.7039389,0.552028,0.4469176,0.07996562,-0.6868273,0.72240835,0.70574474,-0.47279304,-0.52762777,,0.05745148,1.3231691,0.43426216,0.996764,0.07864073,-0.016649395,0.04124599,-0.6781399,-0.73377454,-0.068995185,0.7307133,-0.679189,,-0.039151877,0.27802712,-0.078415856,0.9604763,-0.04385643,0.27488536,0.01761452,0.99510735,0.09721699,-0.27780402,-0.08853264,0.95654947,,0.0244871,0.44129503,-0.27800235,-0.7743783,-0.4472598,-0.4475454,0.5567318,-0.81774795,-0.1460751,-0.30064583,-0.36228016,0.8822501,,1.3287425274075721,0.10780162819129993,0.18207948598,0.7360117016306805,0.11231520280719205,0.27637720749477446,0.872747345355454,,-0.98833218504463,0.08270274635007027,0.20755288077000003,4.537061307174653,-0.5347952600819339,-0.3609314712238129,0.8787910758024222,,0.0238237442897226,0.038641589639154456,0.08941130016,-0.11709667966849292,,5.8360398e-05,-8.940697e-07,5.2452087e-06,1.0000001,-3.2246113e-05,-3.4686178e-05,3.2242388e-05,1.0,-3.2484531e-06,3.4686178e-05,3.2782555e-06,1.0,577,1.75,0,0,0.0,False,1.047316686446326,1.0522186786023768
1.7172916270064889,14:25:10.241883,14:23:54.977152,0,,0.079840556,-0.015063509,0.034492463,-0.97579795,0.026869532,-0.21701694,-0.15511662,0.6144622,0.773547,0.15413351,0.7884884,-0.5954231,,0.025286086,-0.0026578903,0.0015324354,0.70604956,0.55872875,0.43510512,0.081195,-0.6742326,0.73404205,0.7034923,-0.48294157,-0.52140766,,0.05745148,1.3231691,0.43426216,0.996764,0.07864073,-0.016649395,0.04124599,-0.6781399,-0.73377454,-0.068995185,0.7307133,-0.679189,,-0.039164905,0.2780292,-0.07842716,0.9604882,-0.04381887,0.27484974,0.0176033,0.9951157,0.09713337,-0.27776355,-0.08845719,0.9565682,,0.024800237,0.44152933,-0.27830234,-0.7763453,-0.45388624,-0.43735024,0.55515444,-0.820972,-0.13344839,-0.2984819,-0.34639898,0.88933474,,1.3287116364760754,0.10783251912279683,0.18206393050000003,0.7360117016306805,0.11231520280719205,0.27629552875463387,0.8725840012893197,,-0.9870347659217603,0.08274908274731563,0.20712769765000003,4.537061307174653,-0.5327457125854522,-0.3782033791461066,0.878627731736288,,0.0238237442897226,0.038641589639154456,0.08941130016,-0.11709667966849292,,5.8360398e-05,-8.940697e-07,5.2452087e-06,1.0000001,-3.2246113e-05,-3.4686178e-05,3.2242388e-05,1.0,-3.2484531e-06,3.4686178e-05,3.2782555e-06,1.0,581,1.762,0,0,0.0,False,1.0476741527574522,1.0517841567953616
1.7873058640107047,14:25:10.262187,14:23:54.977152,0,,0.07983908,-0.0150669515,0.03449565,-0.9757944,0.026873197,-0.21703257,-0.15512595,0.61446667,0.7735416,0.15414678,0.7884848,-0.59542435,,0.025219612,-0.0027234256,0.0016450286,0.7058825,0.56029147,0.43336308,0.08107278,-0.67169714,0.73637635,0.7036741,-0.48466104,-0.51956373,,0.05745148,1.3231691,0.43426216,0.996764,0.07864073,-0.016649395,0.04124599,-0.6781399,-0.73377454,-0.068995185,0.7307133,-0.679189,,-0.03916372,0.2780292,-0.07843193,0.9604836,-0.04382219,0.2748652,0.017606553,0.99511606,0.09712893,-0.27777916,-0.08845131,0.9565642,,0.024860159,0.44160125,-0.2784147,-0.776188,-0.45546433,-0.43598667,0.5552698,-0.8213706,-0.13048278,-0.2986764,-0.3433694,0.8904436,,1.3287193592089495,0.10781707365704837,0.18206004163000003,0.7360117016306805,0.11231520280719205,0.27629552875463387,0.8725840012893197,,-0.9867721930040367,0.08267185541857337,0.20699158720000002,4.537061307174653,-0.5332922585845141,-0.38167828705806783,0.8783010436040195,,0.0238237442897226,0.038641589639154456,0.08941130016,-0.11709667966849292,,5.8360398e-05,-8.940697e-07,5.2452087e-06,1.0000001,-3.2246113e-05,-3.4686178e-05,3.2242388e-05,1.0,-3.2484531e-06,3.4686178e-05,3.2782555e-06,1.0,593,1.799,0,0,0.0,False,1.047316686446326,1.0523635192047154
1.8076246620039456,14:25:10.293176,14:23:55.136510,0,,0.07983485,-0.015073255,0.034497887,-0.975787,0.026876451,-0.21706517,-0.15514657,0.61448354,0.7735241,0.15417254,0.7884716,-0.5954352,,0.025148943,-0.0028116107,0.0017562509,0.70574653,0.5606643,0.43310228,0.081237376,-0.6713358,0.73668766,0.7037915,-0.48473048,-0.5193399,,0.05745148,1.3231691,0.43426216,0.996764,0.07864073,-0.016649395,0.04124599,-0.6781399,-0.73377454,-0.068995185,0.7307133,-0.679189,,-0.039159838,0.27802658,-0.07843831,0.9604742,-0.043824155,0.27489766,0.017611148,0.9951179,0.09710941,-0.27781132,-0.088429816,0.95655686,,0.024926145,0.44166118,-0.27854583,-0.7760776,-0.45585552,-0.4357744,0.5554697,-0.82129574,-0.13010266,-0.2985916,-0.34302923,0.8906032,,1.3287270819418238,0.10777845999267725,0.18205615276,0.7360117016306805,0.11231520280719205,0.27629552875463387,0.8725840012893197,,-0.9864787291548162,0.08248650982959199,0.20684769901000002,4.536851617231169,-0.5337021680838104,-0.3821608207483843,0.8783010436040195,,0.0238237442897226,0.038641589639154456,0.08941130016,-0.11709667966849292,,5.8360398e-05,-8.940697e-07,5.2452087e-06,1.0000001,-3.2246113e-05,-3.4686178e-05,3.2242388e-05,1.0,-3.2484531e-06,3.4686178e-05,3.2782555e-06,1.0,601,1.824,0,0,0.0,False,1.0468996424166788,1.0521703984015973
1.8386220540123759,14:25:10.320843,14:23:55.136510,0,,0.079835236,-0.01507552,0.034497768,-0.97578686,0.026872361,-0.21706656,-0.15514854,0.6144915,0.7735174,0.15417176,0.78846544,-0.59544355,,0.025090791,-0.0028961003,0.0019134879,0.7068064,0.56161416,0.4301331,0.082024395,-0.66900474,0.7387183,0.70263565,-0.4868492,-0.5189229,,0.05745148,1.3231691,0.43426216,0.996764,0.07864073,-0.016649395,0.04124599,-0.6781399,-0.73377454,-0.068995185,0.7307133,-0.679189,,-0.039160304,0.27802494,-0.07843986,0.960474,-0.043819472,0.2748992,0.017609237,0.995119,0.09709877,-0.2778122,-0.08842007,0.9565575,,0.024974875,0.44176084,-0.27869728,-0.7770761,-0.45677015,-0.4330286,0.5547414,-0.82206213,-0.1283583,-0.29734617,-0.33996305,0.89219415,,1.3287193592089495,0.10777073725980303,0.18205485647000003,0.7360117016306805,0.11231520280719205,0.27629552875463387,0.8725840012893197,,-0.9863783336274513,0.0823938370351013,0.20665584809,4.536851617231169,-0.5320625300866252,-0.3854581253561147,0.877974355471751,,0.0238237442897226,0.038641589639154456,0.08941130016,-0.11709667966849292,,5.8360398e-05,-8.940697e-07,5.2452087e-06,1.0000001,-3.2246113e-05,-3.4686178e-05,3.2242388e-05,1.0,-3.2484531e-06,3.4686178e-05,3.2782555e-06,1.0,609,1.848,0,0,0.0,False,1.0472571087278046,1.0522186786023768
1.8662516949989367,14:25:10.341580,14:23:55.136510,0,,0.07983796,-0.015074059,0.034497708,-0.97578347,0.026678177,-0.21710576,-0.15530635,0.6144379,0.77352834,0.15403426,0.7885139,-0.59541494,,0.025072955,-0.0029513538,0.0020261407,0.7071193,0.56281763,0.4280406,0.08229089,-0.66674036,0.7407331,0.7022896,-0.48856258,-0.5177798,,0.05745148,1.3231691,0.43426216,0.996764,0.07864073,-0.016649395,0.04124599,-0.6781399,-0.73377454,-0.068995185,0.7307133,-0.679189,,-0.039162967,0.27802587,-0.07843858,0.9604717,-0.043630064,0.2749373,0.017400976,0.9951198,0.09712759,-0.27783322,-0.08850412,0.9565436,,0.02498575,0.44183186,-0.27880165,-0.7773731,-0.45797133,-0.4312231,0.55453926,-0.8225464,-0.12610927,-0.2969466,-0.33716407,0.89338857,,1.3287116364760754,0.10778618272555149,0.18205485647000003,0.735802011687196,0.11231520280719205,0.27629552875463387,0.8725840012893197,,-0.986401501826074,0.08232433243923327,0.20652751538000003,4.536851617231169,-0.5315159840875633,-0.3885991953955391,0.8781376995378851,,0.0238237442897226,0.038641589639154456,0.08941130016,-0.11709667966849292,,5.8360398e-05,-8.940697e-07,5.2452087e-06,1.0000001,-3.2246113e-05,-3.4686178e-05,3.2242388e-05,1.0,-3.2484531e-06,3.4686178e-05,3.2782555e-06,1.0,613,1.861,0,0,0.0,False,1.0471379532907625,1.0519289973977002
1.8870271000050707,14:25:10.371425,14:23:55.136510,0,,0.07983796,-0.015074059,0.034497708,-0.97578347,0.026695905,-0.21710354,-0.15530635,0.61437464,0.7735786,0.15403426,0.78856254,-0.5953505,,0.025059171,-0.0030790567,0.0022562146,0.70719266,0.56487757,0.42519662,0.0825018,-0.66321445,0.74386835,0.70219094,-0.49097848,-0.5156238,,0.05745148,1.3231691,0.43426216,0.996764,0.07864073,-0.016649395,0.04124599,-0.6781399,-0.73377454,-0.068995185,0.7307133,-0.679189,,-0.039162967,0.27802587,-0.07843858,0.9604717,-0.04365252,0.27493373,0.017400976,0.9951119,0.097208865,-0.27783322,-0.08858225,0.9565364,,0.024986617,0.4419668,-0.27902803,-0.7774525,-0.46005103,-0.42885974,0.5545513,-0.8231077,-0.122337826,-0.2967161,-0.33293658,0.89504904,,1.3287116364760754,0.10778618272555149,0.18205485647000003,0.735802011687196,0.11231520280719205,0.27637720749477446,0.8724206572231854,,-0.9865173428191873,0.08208492772013232,0.20626825738000001,4.536851617231169,-0.5312427110880324,-0.3935593981310845,0.8781376995378851,,0.0238237442897226,0.038641589639154456,0.08941130016,-0.11709667966849292,,5.8360398e-05,-8.940697e-07,5.2452087e-06,1.0000001,-3.2246113e-05,-3.4686178e-05,3.2242388e-05,1.0,-3.2484531e-06,3.4686178e-05,3.2782555e-06,1.0,625,1.897,0,0,0.0,False,1.0468996424166788,1.0519772775984795
1.9168711350066587,14:25:10.392527,14:23:55.136510,0,,0.07983523,-0.015075341,0.034497917,-0.97577983,0.026699588,-0.21711917,-0.1553157,0.61437905,0.77357316,0.15404755,0.788559,-0.5953519,,0.025079578,-0.00315848,0.0024088025,0.70527834,0.5657434,0.42722028,0.08126998,-0.6631746,0.7440394,0.7042569,-0.49003446,-0.51370066,,0.05745148,1.3231691,0.43426216,0.996764,0.07864073,-0.016649395,0.04124599,-0.6781399,-0.73377454,-0.068995185,0.7307133,-0.679189,,-0.039160296,0.27802515,-0.078439824,0.9604671,-0.04365585,0.2749492,0.017404228,0.99511224,0.097204424,-0.27784887,-0.08857638,0.9565324,,0.024957482,0.44205517,-0.27917412,-0.7756617,-0.4610064,-0.43107083,0.5559432,-0.82238716,-0.120857365,-0.2987911,-0.3333953,0.89418757,,1.3287193592089495,0.10777073725980303,0.18205485647000003,0.735802011687196,0.11231520280719205,0.27637720749477446,0.8724206572231854,,-0.9866177383465522,0.08189958213115092,0.20611788774000003,4.536851617231169,-0.5342487140828721,-0.39364024519412066,0.877974355471751,,0.0238237442897226,0.038641589639154456,0.08941130016,-0.11709667966849292,,5.8360398e-05,-8.940697e-07,5.2452087e-06,1.0000001,-3.2246113e-05,-3.4686178e-05,3.2242388e-05,1.0,-3.2484531e-06,3.4686178e-05,3.2782555e-06,1.0,654,1.988,0,0,0.0,False,1.0451718885795684,1.0518807171969207
1.9379722230078187,14:25:10.482650,14:23:55.294746,0,,0.07983917,-0.015084252,0.034454167,-0.9757727,0.027896643,-0.21700121,-0.15521625,0.6107471,0.7764637,0.15419358,0.791334,-0.5916203,,0.025745906,-0.0036696047,0.003538072,0.6441908,0.5951087,0.48048323,0.0411492,-0.65424883,0.7551591,0.7637572,-0.46669477,-0.4459494,,0.05745148,1.3231691,0.43426216,0.996764,0.07864073,-0.016649395,0.04124599,-0.6781399,-0.73377454,-0.068995185,0.7307133,-0.679189,,-0.03916236,0.27798712,-0.07841623,0.96045625,-0.045123063,0.27475035,0.017578684,0.9946391,0.10190199,-0.27787557,-0.09304266,0.9561005,,0.02422465,0.4426835,-0.2801982,-0.7178153,-0.4931429,-0.4914787,0.59444904,-0.80159026,-0.06390109,-0.3624522,-0.33802822,0.8685421,,1.328526290887094,0.10770123266393501,0.18208207856000003,0.7360117016306805,0.1121785663074266,0.281307671066764,0.8529827133532062,,-0.9872432797093644,0.079907117049601,0.20548270564,4.537061307174653,-0.6282546259214952,-0.40429930066124375,0.877484323273348,,0.0238237442897226,0.038641589639154456,0.08941130016,-0.11709667966849292,,5.8360398e-05,-8.940697e-07,5.2452087e-06,1.0000001,-3.2246113e-05,-3.4686178e-05,3.2242388e-05,1.0,-3.2484531e-06,3.4686178e-05,3.2782555e-06,1.0,662,2.012,0,0,0.0,False,1.0199109359266507,1.0505288715750958
2.0280829730036203,14:25:10.505362,14:23:55.294746,0,,0.07983582,-0.015085742,0.03441292,-0.9758846,0.027913785,-0.21649511,-0.15508664,0.6092881,0.777635,0.15361463,0.79245734,-0.59026575,,0.025909908,-0.0038421303,0.0038995147,0.62717134,0.6063506,0.48887134,0.030701518,-0.6464158,0.76236737,0.77827597,-0.4631257,-0.42402944,,0.05745148,1.3231691,0.43426216,0.996764,0.07864073,-0.016649395,0.04124599,-0.6781399,-0.73377454,-0.068995185,0.7307133,-0.679189,,-0.039157,0.27795604,-0.07838939,0.96060175,-0.04525006,0.2742203,0.01724625,0.99446064,0.10368534,-0.27739304,-0.094871044,0.95606095,,0.024039669,0.44288626,-0.2805328,-0.7015522,-0.50525963,-0.50253075,0.6037794,-0.79601437,-0.04256224,-0.3785167,-0.33327734,0.863511,,1.3284104498939806,0.10760855986944431,0.18211448581000003,0.735802011687196,0.11272511230648836,0.2832306829160547,0.8469389829062379,,-0.9874440707640942,0.07931246661828571,0.20525196602,4.537061307174653,-0.6528491958792744,-0.41462856932817727,0.8768309470088111,,0.0238237442897226,0.038641589639154456,0.08941130016,-0.11709667966849292,,5.8360398e-05,-8.940697e-07,5.2452087e-06,1.0000001,-3.2246113e-05,-3.4686178e-05,3.2242388e-05,1.0,-3.2484531e-06,3.4686178e-05,3.2782555e-06,1.0,670,2.037,0,0,0.0,False,1.0203875576748187,1.0502874705711984
2.0507942830008687,14:25:10.534638,14:23:55.294746,0,,0.07979673,-0.015058696,0.034301817,-0.9758565,0.027359635,-0.21669224,-0.1556391,0.6089441,0.777794,0.15323359,0.79274094,-0.5899839,,0.026124679,-0.0041834265,0.0046798587,0.60535145,0.6212078,0.49764517,0.016305506,-0.63476205,0.7725356,0.79579127,-0.45954102,-0.39438337,,0.05745148,1.3231691,0.43426216,0.996764,0.07864073,-0.016649395,0.04124599,-0.6781399,-0.73377454,-0.068995185,0.7307133,-0.679189,,-0.03911142,0.27789393,-0.078296274,0.96057254,-0.044723824,0.2744087,0.01659015,0.9944387,0.104002014,-0.27753398,-0.095349,0.9559725,,0.023776073,0.44335696,-0.2812259,-0.6805152,-0.52126247,-0.51496065,0.61429894,-0.78896344,-0.013171392,-0.39941937,-0.3253031,0.85711265,,1.3282405497707477,0.10742321428046293,0.18222726304000003,0.7351729418567423,0.11272511230648836,0.28372075535689806,0.8469389829062379,,-0.9880387211954096,0.07850157966649214,0.20462845053000003,4.53873882672253,-0.6838656813260294,-0.4311562201410574,0.8778110114056168,,0.0238237442897226,0.038641589639154456,0.08941130016,-0.11709667966849292,,5.8360398e-05,-8.940697e-07,5.2452087e-06,1.0000001,-3.2246113e-05,-3.4686178e-05,3.2242388e-05,1.0,-3.2484531e-06,3.4686178e-05,3.2782555e-06,1.0,678,2.061,0,0,0.0,False,1.0237834876305176,1.0500943497680806
2.080084261004231,14:25:10.555621,14:23:55.294746,0,,0.07975121,-0.015025318,0.03419,-0.97564816,0.027776191,-0.21757549,-0.15622394,0.6082858,0.7781918,0.15396325,0.7932317,-0.5891337,,0.02635999,-0.0045259595,0.005002737,0.5962349,0.63194615,0.49512434,0.01156944,-0.6234387,0.7817866,0.80272675,-0.46039993,-0.3790273,,0.05745148,1.3231691,0.43426216,0.996764,0.07864073,-0.016649395,0.04124599,-0.6781399,-0.73377454,-0.068995185,0.7307133,-0.679189,,-0.03905916,0.2778357,-0.07819846,0.9603066,-0.04518835,0.2752622,0.016720109,0.99434173,0.10490445,-0.27844515,-0.09613802,0.95562845,,0.023537423,0.44343275,-0.2816888,-0.6717877,-0.53271407,-0.5147009,0.6190065,-0.78537035,0.00492881,-0.4068565,-0.3152921,0.85735565,,1.3280783723803888,0.10727648235585266,0.18234522543,0.7351729418567423,0.11176865680813029,0.2848273956433352,0.847592359170775,,-0.9889268354759454,0.07705742861901216,0.20432771125000002,4.539158206609499,-0.6956164203058572,-0.4470580473470205,0.8766676029426765,,0.0238237442897226,0.038641589639154456,0.08941130016,-0.11709667966849292,,5.8360398e-05,-8.940697e-07,5.2452087e-06,1.0000001,-3.2246113e-05,-3.4686178e-05,3.2242388e-05,1.0,-3.2484531e-06,3.4686178e-05,3.2782555e-06,1.0,686,2.086,0,0,0.0,False,1.0290859045788898,1.049514987358727
2.1010514549998334,14:25:10.583346,14:23:55.294746,0,,0.079681955,-0.014949918,0.03400588,-0.97552115,0.027780922,-0.21814385,-0.15674563,0.60791993,0.77837276,0.15423788,0.793512,-0.5886842,,0.026709817,-0.0050344616,0.005332768,0.58453816,0.6506779,0.4846996,0.0070225,-0.60142183,0.79890084,0.8113359,-0.46358398,-0.35612345,,0.05745148,1.3231691,0.43426216,0.996764,0.07864073,-0.016649395,0.04124599,-0.6781399,-0.73377454,-0.068995185,0.7307133,-0.679189,,-0.038978036,0.27775374,-0.07802215,0.96014684,-0.04522056,0.27581355,0.016562223,0.99429595,0.105362676,-0.27900487,-0.096595556,0.95541906,,0.023197424,0.4434172,-0.28230038,-0.6606809,-0.5526998,-0.5079604,0.6255646,-0.77941287,0.034417607,-0.41493347,-0.29502296,0.86069256,,1.3278775813256591,0.1070988594997455,0.18255003925000002,0.7349632519132578,0.11122211080906853,0.2855181034785426,0.8503692082950577,,-0.9902088091330666,0.07466338142800256,0.20400363875000002,4.5385291367790455,-0.709826616281463,-0.4763099554328739,0.876830947008811,,0.0238237442897226,0.038641589639154456,0.08941130016,-0.11709667966849292,,5.8360398e-05,-8.940697e-07,5.2452087e-06,1.0000001,-3.2246113e-05,-3.4686178e-05,3.2242388e-05,1.0,-3.2484531e-06,3.4686178e-05,3.2782555e-06,1.0,694,2.11,0,0,0.0,False,1.039452427601549,1.0460870931033857
2.1287883250042796,14:25:10.604706,14:23:55.457196,0,,0.079622045,-0.014870316,0.033850133,-0.9755187,0.02874166,-0.21803032,-0.15617882,0.60744596,0.77885664,0.15482724,0.79384077,-0.588086,,0.02698192,-0.005329624,0.0056594014,0.57733965,0.66587555,0.47253457,0.0038873553,-0.5809639,0.81392,0.81649494,-0.46807122,-0.3380021,,0.05745148,1.3231691,0.43426216,0.996764,0.07864073,-0.016649395,0.04124599,-0.6781399,-0.73377454,-0.068995185,0.7307133,-0.679189,,-0.038907506,0.27769527,-0.07786158,0.96013564,-0.04621332,0.275688,0.017379755,0.9942005,0.10612861,-0.2789937,-0.09710647,0.95537055,,0.022918208,0.4435153,-0.28272498,-0.6538054,-0.56892914,-0.4988569,0.6293126,-0.77491117,0.058978025,-0.42012408,-0.27537677,0.8646753,,1.32776946306542,0.10699846397238058,0.18273281614000003,0.735802011687196,0.11108547430930309,0.28652798752378517,0.8541261218161461,,-0.9914521691258168,0.07341229870237818,0.20370678834000003,4.5385291367790455,-0.718161442767155,-0.5026750318044604,0.8768309470088111,,0.0238237442897226,0.038641589639154456,0.08941130016,-0.11709667966849292,,5.8360398e-05,-8.940697e-07,5.2452087e-06,1.0000001,-3.2246113e-05,-3.4686178e-05,3.2242388e-05,1.0,-3.2484531e-06,3.4686178e-05,3.2782555e-06,1.0,719,2.188,0,0,0.0,False,1.0438016010535844,1.0363827727467145
2.1501382069982355,14:25:10.676012,14:23:55.457196,0,,0.07935539,-0.014506176,0.03326884,-0.97556716,0.03240502,-0.21729864,-0.15413281,0.60387284,0.7820363,0.1565626,0.7964215,-0.58412373,,0.028104655,-0.0058997422,0.007416904,0.56511575,0.71659166,0.4088286,-0.0015470982,-0.4946214,0.8691072,0.82501024,-0.4917785,-0.2784098,,0.05745148,1.3231691,0.43426216,0.996764,0.07864073,-0.016649395,0.04124599,-0.6781399,-0.73377454,-0.068995185,0.7307133,-0.679189,,-0.038598843,0.2775233,-0.07721602,0.96017206,-0.05013017,0.27487567,0.02004549,0.9935975,0.111185156,-0.2786895,-0.10124686,0.9550294,,0.021675076,0.44459525,-0.28412595,-0.64209706,-0.6236346,-0.4458602,0.6354117,-0.75832134,0.14560491,-0.42890954,-0.18981229,0.88318056,,1.3277154039353003,0.10670500012316005,0.18346651628000002,0.7385279809524947,0.11108547430930309,0.292163820593484,0.8670303030407542,,-0.9984257969112416,0.0721226023123827,0.2021823513,4.539158206609499,-0.7273160882514395,-0.6071099062493703,0.8673569911730227,,0.0238237442897226,0.038641589639154456,0.08941130016,-0.11709667966849292,,5.8360398e-05,-8.940697e-07,5.2452087e-06,1.0000001,-3.2246113e-05,-3.4686178e-05,3.2242388e-05,1.0,-3.2484531e-06,3.4686178e-05,3.2782555e-06,1.0,727,2.213,0,0,0.0,False,1.047316686446326,1.0074146522790395
2.2214575040125055,14:25:10.705329,14:23:55.457196,0,,0.07924041,-0.014309958,0.033002943,-0.975587,0.032448698,-0.21720287,-0.15422714,0.60287076,0.7827905,0.15634577,0.79717857,-0.58314836,,0.028617881,-0.005939573,0.0084943175,0.5639253,0.7299933,0.38613254,-0.0021682978,-0.46626088,0.88464457,0.82582295,-0.49971053,-0.26135358,,0.05745148,1.3231691,0.43426216,0.996764,0.07864073,-0.016649395,0.04124599,-0.6781399,-0.73377454,-0.068995185,0.7307133,-0.679189,,-0.038463555,0.27746484,-0.07689868,0.9601993,-0.050248507,0.27475885,0.019823031,0.993464,0.11241139,-0.27861154,-0.102490775,0.9549195,,0.021062478,0.44543412,-0.28471476,-0.640948,-0.6383581,-0.42624474,0.63594544,-0.75258994,0.17082657,-0.42983603,-0.16157746,0.88833195,,1.327738572133923,0.10670500012316005,0.18381651458,0.7383182910090103,0.11122211080906853,0.2933592625320366,0.8693171199666341,,-1.002364390677096,0.07304160752441541,0.20127235572000002,4.539158206609499,-0.7248566312556616,-0.6390915261474922,0.8609865725937857,,0.0238237442897226,0.038641589639154456,0.08941130016,-0.11709667966849292,,5.8360398e-05,-8.940697e-07,5.2452087e-06,1.0000001,-3.2246113e-05,-3.4686178e-05,3.2242388e-05,1.0,-3.2484531e-06,3.4686178e-05,3.2782555e-06,1.0,731,2.225,0,0,0.0,False,1.0469592201351996,0.999158737945752
2.2507746080082143,14:25:10.724821,14:23:55.457196,0,,0.079178475,-0.014181331,0.03282717,-0.9757685,0.03304491,-0.21629566,-0.15314583,0.6028877,0.7829897,0.15627578,0.79714125,-0.5832181,,0.029011883,-0.005937159,0.009306848,0.56390285,0.7385145,0.36960807,-0.002221346,-0.44619545,0.8949328,0.8258382,-0.505476,-0.2499705,,0.05745148,1.3231691,0.43426216,0.996764,0.07864073,-0.016649395,0.04124599,-0.6781399,-0.73377454,-0.068995185,0.7307133,-0.679189,,-0.0383882,0.2774253,-0.07668883,0.96042365,-0.05084108,0.27386418,0.02051352,0.9934415,0.11248629,-0.27778697,-0.102416575,0.95516765,,0.020591062,0.44608217,-0.28513098,-0.6409231,-0.6478071,-0.41178086,0.6359347,-0.7485465,0.1877904,-0.42988908,-0.14150655,0.89172375,,1.3277231266681746,0.10673589105465695,0.18404336533,0.7391570507829484,0.11190529330789573,0.2935372816748195,0.8704605284295741,,-1.00546120655966,0.07389883087345434,0.20059309976000003,4.539158206609499,-0.7217139917610564,-0.6612570355662448,0.8570663150065629,,0.0238237442897226,0.038641589639154456,0.08941130016,-0.11709667966849292,,5.8360398e-05,-8.940697e-07,5.2452087e-06,1.0000001,-3.2246113e-05,-3.4686178e-05,3.2242388e-05,1.0,-3.2484531e-06,3.4686178e-05,3.2782555e-06,1.0,739,2.25,0,0,0.0,False,1.0471975310092834,1.0035522362166827
2.270253494003555,14:25:10.743085,14:23:55.457196,0,,0.07912962,-0.014055461,0.032652408,-0.97595,0.033145823,-0.21545985,-0.152368,0.6031328,0.78295267,0.15590249,0.7969518,-0.5835771,,0.029457346,-0.0059120953,0.010117114,0.5647307,0.7467858,0.35126957,-0.0017616153,-0.4245475,0.905404,0.8252734,-0.51192814,-0.23843959,,0.05745148,1.3231691,0.43426216,0.996764,0.07864073,-0.016649395,0.04124599,-0.6781399,-0.73377454,-0.068995185,0.7307133,-0.679189,,-0.038326055,0.27738443,-0.07648089,0.96065205,-0.050923295,0.27304664,0.020775234,0.99346966,0.112189524,-0.27697662,-0.10210249,0.9554366,,0.020067038,0.44673327,-0.2855274,-0.6417244,-0.65706384,-0.3955463,0.63557774,-0.7442677,0.20519882,-0.42922106,-0.11971931,0.8952299,,1.3276536220723065,0.10680539565052496,0.18426373463,0.7395764306699174,0.11258847580672293,0.29330690711689966,0.8707872165618425,,-1.008905545421564,0.07482555881836127,0.19992810299000002,4.539158206609499,-0.7170683507690315,-0.6848931781460799,0.8529827133532063,,0.0238237442897226,0.038641589639154456,0.08941130016,-0.11709667966849292,,5.8360398e-05,-8.940697e-07,5.2452087e-06,1.0000001,-3.2246113e-05,-3.4686178e-05,3.2242388e-05,1.0,-3.2484531e-06,3.4686178e-05,3.2782555e-06,1.0,743,2.262,0,0,0.0,False,1.047912463631536,1.010842546534381
2.288531256999704,14:25:10.773436,14:23:55.457196,0,,0.07906267,-0.013861716,0.03237295,-0.9762568,0.03261892,-0.21414655,-0.15156463,0.6034388,0.7828728,0.15476078,0.7967417,-0.58416736,,0.030233473,-0.0059318095,0.01139307,0.56416446,0.757759,0.32790264,-0.0017917752,-0.3960142,0.91824263,0.8256606,-0.51862717,-0.22205955,,0.05745148,1.3231691,0.43426216,0.996764,0.07864073,-0.016649395,0.04124599,-0.6781399,-0.73377454,-0.068995185,0.7307133,-0.679189,,-0.038238112,0.27731383,-0.07615317,0.96104497,-0.050375644,0.27176255,0.020495277,0.9935318,0.111689135,-0.27563116,-0.10176843,0.9558612,,0.019172426,0.4477195,-0.28620398,-0.6411985,-0.66951376,-0.37498778,0.635965,-0.7370905,0.22857392,-0.42943332,-0.09191785,0.89840865,,1.3274837219490736,0.10692123664363834,0.18460854777000002,0.7395764306699174,0.11381820430461188,0.2928758971646159,0.8719306250247826,,-1.0146435359471129,0.07591446415362693,0.19889495986000003,4.539158206609499,-0.7118761637779447,-0.7158360065125076,0.8502058642289234,,0.0238237442897226,0.038641589639154456,0.08941130016,-0.11709667966849292,,5.8360398e-05,-8.940697e-07,5.2452087e-06,1.0000001,-3.2246113e-05,-3.4686178e-05,3.2242388e-05,1.0,-3.2484531e-06,3.4686178e-05,3.2782555e-06,1.0,755,2.299,0,0,0.0,False,1.0477337304759726,1.020015784682478
2.3188812080043135,14:25:10.796454,14:23:55.457196,0,,0.079048365,-0.013755932,0.03220454,-0.9766632,0.03134877,-0.21247639,-0.15079096,0.6043844,0.78229254,0.15294129,0.7960757,-0.5855529,,0.030796185,-0.00598979,0.012205005,0.56523776,0.7639534,0.31125832,-0.0006940663,-0.3768751,0.9262638,0.82492775,-0.5237751,-0.21249393,,0.05745148,1.3231691,0.43426216,0.996764,0.07864073,-0.016649395,0.04124599,-0.6781399,-0.73377454,-0.068995185,0.7307133,-0.679189,,-0.038211506,0.27726346,-0.07596208,0.96157026,-0.049039844,0.27014384,0.019701688,0.99370724,0.11026233,-0.27385113,-0.10070269,0.9564855,,0.018538412,0.44831577,-0.2866749,-0.64227647,-0.6766433,-0.3600483,0.6357529,-0.73269147,0.24286087,-0.4281345,-0.072917946,0.90076846,,1.327290653627218,0.1070061867052548,0.18480299127000002,0.7391570507829484,0.11559447880156261,0.29150914315670295,0.872093969090917,,-1.018736584370452,0.07633149172883505,0.19822737051000003,4.539158206609499,-0.7061374307877962,-0.7366062702754482,0.849879176096655,,0.0238237442897226,0.038641589639154456,0.08941130016,-0.11709667966849292,,5.8360398e-05,-8.940697e-07,5.2452087e-06,1.0000001,-3.2246113e-05,-3.4686178e-05,3.2242388e-05,1.0,-3.2484531e-06,3.4686178e-05,3.2782555e-06,1.0,784,2.389,0,0,0.0,False,1.0474954196018889,1.0295752644368108
2.3418958930124063,14:25:10.877328,14:23:55.686218,0,,0.079178356,-0.013404012,0.03151521,-0.9777461,0.027531337,-0.20797694,-0.14906538,0.6063993,0.781063,0.14762077,0.79468346,-0.5888006,,0.03340918,-0.006387299,0.015322387,0.5744221,0.7771808,0.25696135,0.0080809295,-0.319288,0.9476234,0.81851935,-0.5422592,-0.18968666,,0.0574321,1.32317,0.43426156,0.99676317,0.07865412,-0.01663491,0.041265666,-0.6781383,-0.73377484,-0.068995185,0.7307133,-0.679189,,-0.038277138,0.27700192,-0.07522778,0.96298504,-0.04509794,0.26575562,0.017026125,0.99411297,0.107002616,-0.26901668,-0.09851713,0.9580837,,0.015686281,0.45046422,-0.2886408,-0.65144116,-0.69242156,-0.31012392,0.6335022,-0.7213544,0.2798621,-0.41749182,-0.014150504,0.9085705,,1.3254758114017753,0.10792519191728753,0.18550428416,0.7376892211785566,0.11914702779546407,0.28885731388101765,0.8729106894215883,,-1.0372248068713454,0.07667901470817516,0.19568534582000002,4.538948516666014,-0.6740278533429177,-0.7992181957467981,0.8572296590726977,,0.0238237442897226,0.038641589639154456,0.08941130016,-0.11709667966849292,,3.9115548e-05,-3.4570694e-06,5.364418e-06,1.0,-1.8827617e-05,-2.0261854e-05,1.8831342e-05,1.0,-1.9073486e-06,2.0261854e-05,1.8775463e-06,1.0,788,2.401,0,0,0.0,False,1.0481507745056202,1.0496115477602863
2.422773804006283,14:25:10.904298,14:23:55.686218,0,,0.07931049,-0.013294548,0.031297386,-0.9781931,0.02594483,-0.20607032,-0.14835149,0.607112,0.78064513,0.1453615,0.7941925,-0.5900239,,0.034581564,-0.006477734,0.016407311,0.5760915,0.779624,0.24557061,0.01069814,-0.3076004,0.95145553,0.8173152,-0.5454982,-0.18554667,,0.0574321,1.32317,0.43426156,0.99676317,0.07865412,-0.01663491,0.041265666,-0.6781383,-0.73377484,-0.068995185,0.7307133,-0.679189,,-0.038394075,0.27691633,-0.074991345,0.96357065,-0.043463726,0.26389873,0.015871318,0.9942605,0.10580244,-0.26698267,-0.09775971,0.95873004,,0.014422985,0.45120198,-0.2892885,-0.65318245,-0.6954372,-0.29953265,0.6335726,-0.71858263,0.2867487,-0.41465467,-0.002476462,0.90997547,,1.324564528922617,0.10853528781435126,0.18569224621000002,0.7370601513481031,0.12037675629335302,0.28785455274774985,0.8729106894215883,,-1.0451637762660482,0.07667901470817516,0.19488812747,4.53873882672253,-0.663233569861448,-0.8121041471458432,0.86114991665992,,0.0238237442897226,0.038641589639154456,0.08941130016,-0.11709667966849292,,3.9115548e-05,-3.4570694e-06,5.364418e-06,1.0,-1.8827617e-05,-2.0261854e-05,1.8831342e-05,1.0,-1.9073486e-06,2.0261854e-05,1.8775463e-06,1.0,796,2.426,0,0,0.0,False,1.0480316190685781,1.0492253061540504
