AlexandreBanks6/ExpertPlaybackApp/resources/Motions/P_03/PC1/Data_PC1_5.csv
Task Time,PC1 Time,PC2 Time,Gaze Calib,s_T_psm1,Tx,Ty,Tz,R00,R01,R02,R10,R11,R12,R20,R21,R22,s_T_psm3,Tx,Ty,Tz,R00,R01,R02,R10,R11,R12,R20,R21,R22,cart_T_ecm,Tx,Ty,Tz,R00,R01,R02,R10,R11,R12,R20,R21,R22,ecm_T_psm1,Tx,Ty,Tz,R00,R01,R02,R10,R11,R12,R20,R21,R22,ecm_T_psm3,Tx,Ty,Tz,R00,R01,R02,R10,R11,R12,R20,R21,R22,psm1_joints,q1,q2,q3,q4,q5,q6,jaw,psm3_joints,q1,q2,q3,q4,q5,q6,jaw,ecm_joints,q1,q2,q3,q4,ecmi_T_ecm,Tx,Ty,Tz,R00,R01,R02,R10,R11,R12,R20,R21,R22,Sample #,Task Duration (s),Collisions (binary),Collisions (increments),Cumulative Collision Time (s),Clutch Press,MTMR Angle,MTML Angle
""
lci_T_si,,,,,-0.058161814,0.028812556,0.22338274,0.99118906,-0.064254425,0.115825556,0.028569233,-0.75016135,-0.6606374,0.12933673,0.65812564,-0.741716
rci_T_si,,,,,-0.067850515,0.03317108,0.23398167,0.98941356,-0.079541974,0.12138337,0.022701237,-0.7412876,-0.67080355,0.14333703,0.66645765,-0.73163426
ecm_T_lc,,,,,-4.4061628e-05,-0.00034663224,-0.01840835,-0.99912,0.030754527,0.028518902,-0.031987965,-0.99852574,-0.043852776,0.027128186,-0.04472645,0.9986309
ecm_T_rc,,,,,-0.0043358393,0.01870579,-0.007592615,-0.99555075,-0.052743673,-0.078081585,0.04863213,-0.9973746,0.053654674,-0.08070653,0.04961868,0.9955021
cart_T_ecmi,,,,,0.106117226,1.3403053,0.44034997,0.9953694,0.013090626,-0.0952285,-0.052853465,-0.75295,-0.65595186,-0.08028912,0.65794754,-0.7487715
ecmac_T_ecmrep_psm1,,,,,0.006928962,-0.26080152,-0.2999526,0.99741316,0.06053514,0.03876121,-0.0592658,0.9976933,-0.033100393,-0.040675536,0.030717555,0.99870014
ecmac_T_ecmrep_psm3,,,,,-0.019041438,-0.46633056,-0.5465172,0.99408877,-0.01321918,0.10776258,-0.016145537,0.96352404,0.2671344,-0.107363135,-0.2672952,0.95761496
""
0,16:06:45.212077,16:06:35.205396,0,,0.12453559,-0.005136013,0.024476945,0.92284507,-0.10863951,-0.36953256,0.3845367,0.20481515,0.9001013,-0.022100776,-0.9727528,0.23078847,,0.03608631,-0.028050862,0.025745451,-0.17599122,0.14964609,0.9729506,0.72744983,-0.64612174,0.23096177,0.6632072,0.7484201,0.004851721,,0.1061206,1.3403041,0.44034845,0.9953697,0.013095164,-0.095224544,-0.052847467,-0.7529499,-0.6559524,-0.08028912,0.65794754,-0.7487715,,-0.09498986,0.252336,-0.089167856,-0.88424236,0.20985922,0.41722247,0.26849934,-0.5025269,0.8218119,0.38213032,0.8387048,0.3880085,,-0.0059483224,0.39841428,-0.37250242,0.1116607,-0.20649976,-0.97205436,0.95218563,0.30215985,0.045188595,0.28438437,-0.930622,0.23036547,,1.1975332958744977,0.5215393191950038,0.20598696245000003,3.8687794572894747,0.3816257438448752,-1.2179875780646268,-0.41326048731972653,,-0.7980517697566124,-0.32941317075004645,0.1856676167,3.3856538275011303,-0.6152741584437783,1.0019154249657887,0.7218174282473799,,-0.055632369907319255,-0.0618370153981591,0.08432137115999999,-0.06574422517700301,,3.542751e-06,-1.1920929e-07,1.66893e-06,1.0,4.5076013e-06,3.963709e-06,-4.515052e-06,1.0,4.7683716e-07,-3.963709e-06,-5.066395e-07,1.0,34,0.102,0,0,0.0,False,-0.26106958999408425,0.8830931352719338
0.13098495203303173,16:06:45.237019,16:06:35.279071,0,,0.12456496,-0.0052070767,0.02479735,0.92367923,-0.09875831,-0.3702205,0.38300908,0.21028581,0.8994911,-0.010980159,-0.9726391,0.23206186,,0.034954242,-0.027361892,0.025229871,-0.18536791,0.1671362,0.9683512,0.7229693,-0.64422166,0.24958722,0.6655479,0.74635375,-0.0014163256,,0.1061206,1.3403041,0.44034845,0.9953697,0.013095164,-0.095224544,-0.052847467,-0.7529499,-0.6559524,-0.08028912,0.65794754,-0.7487715,,-0.09505289,0.25249887,-0.08944727,-0.8861727,0.20046663,0.41774523,0.27484706,-0.49841478,0.8222176,0.3730376,0.84344286,0.38658392,,-0.004783284,0.39841065,-0.37168708,0.12084754,-0.22376806,-0.96712136,0.95265317,0.2999811,0.049631417,0.2790122,-0.92732906,0.24942532,,1.1980043825798254,0.5220567422975768,0.20566288995,3.863746898645846,0.37151464286223257,-1.2204425681495055,-0.41179039072451784,,-0.7914024967519051,-0.32525834046371366,0.18578169022000002,3.374330570552966,-0.6208762549341614,0.9980706487828641,0.7139769130729345,,-0.055632369907319255,-0.0618370153981591,0.08432137115999999,-0.06574422517700301,,3.542751e-06,-1.1920929e-07,1.66893e-06,1.0,4.5076013e-06,3.963709e-06,-4.515052e-06,1.0,4.7683716e-07,-3.963709e-06,-5.066395e-07,1.0,42,0.125,0,0,0.0,False,-0.26005676877922745,0.8795686806150331
0.15592141402885318,16:06:45.264007,16:06:35.279071,0,,0.12459543,-0.0052206963,0.024989963,0.9241193,-0.09207834,-0.37084335,0.38207442,0.21065173,0.8998028,-0.0047335923,-0.9732149,0.22984806,,0.034307167,-0.027001344,0.024951935,-0.19125491,0.1775034,0.9653568,0.7202611,-0.64277685,0.26088652,0.6668173,0.745205,-0.0049145967,,0.1061206,1.3403041,0.44034845,0.9953697,0.013095164,-0.095224544,-0.052847467,-0.7529499,-0.6559524,-0.08028912,0.65794754,-0.7487715,,-0.095101245,0.25261828,-0.0895943,-0.8872347,0.19391304,0.4185837,0.27835605,-0.49854007,0.8209602,0.36787564,0.8448997,0.38834518,,-0.004118466,0.39840606,-0.37125823,0.12663135,-0.23401341,-0.96395135,0.9528282,0.29891667,0.052603718,0.27583113,-0.9251414,0.26082683,,1.1982824009632975,0.5225046608042819,0.20548918709000003,3.8610209293805466,0.3659125463718495,-1.2186515112627312,-0.4114637025922494,,-0.7876569713079062,-0.32307280706030816,0.18583354182000003,3.3672011124744916,-0.6244288039280628,0.9957400749099751,0.7103833436179805,,-0.055632369907319255,-0.0618370153981591,0.08432137115999999,-0.06574422517700301,,3.542751e-06,-1.1920929e-07,1.66893e-06,1.0,4.5076013e-06,3.963709e-06,-4.515052e-06,1.0,4.7683716e-07,-3.963709e-06,-5.066395e-07,1.0,53,0.159,0,0,0.0,False,-0.2602950796533112,0.8787479172017822
0.18291455000871792,16:06:45.293212,16:06:35.279071,0,,0.12469019,-0.005211331,0.02529946,0.92527694,-0.076885715,-0.3714174,0.3791842,0.21084973,0.9009783,0.0090408325,-0.97449017,0.22424811,,0.033290796,-0.026489235,0.024519682,-0.20134598,0.19478686,0.95995706,0.71557283,-0.6399876,0.27994883,0.66889095,0.743286,-0.010525271,,0.1061206,1.3403041,0.44034845,0.9953697,0.013095164,-0.095224544,-0.052847467,-0.7529499,-0.6559524,-0.08028912,0.65794754,-0.7487715,,-0.09522193,0.25283325,-0.089804254,-0.8898275,0.17895497,0.41974053,0.28547984,-0.4992711,0.8180646,0.35596102,0.84776384,0.39317712,,-0.0030740479,0.39837497,-0.3706334,0.13655473,-0.2510971,-0.9582813,0.9530172,0.29733214,0.057895068,0.27039054,-0.9211644,0.27990195,,1.1987225967371284,0.5233232704889497,0.20522344764000003,3.8557786807934336,0.3530687153938981,-1.213895740125107,-0.4101569500631752,,-0.7817954170563698,-0.31996826844486986,0.18591391180000003,3.3550390957523897,-0.6308507194170385,0.9915019825274016,0.7064630860307577,,-0.055632369907319255,-0.0618370153981591,0.08432137115999999,-0.06574422517700301,,3.542751e-06,-1.1920929e-07,1.66893e-06,1.0,4.5076013e-06,3.963709e-06,-4.515052e-06,1.0,4.7683716e-07,-3.963709e-06,-5.066395e-07,1.0,61,0.184,0,0,0.0,False,-0.26053339052739544,0.8772029507768395
0.21208987099817023,16:06:45.323129,16:06:35.279071,0,,0.12479778,-0.005154468,0.025550693,0.9267592,-0.061626405,-0.37056625,0.37479377,0.21847221,0.90099925,0.025433034,-0.9738953,0.2255682,,0.03263484,-0.026227497,0.024233818,-0.20747267,0.20845786,0.9557721,0.713273,-0.6364112,0.29363647,0.66947496,0.742648,-0.016649395,,0.1061206,1.3403041,0.44034845,0.9953697,0.013095164,-0.095224544,-0.052847467,-0.7529499,-0.6559524,-0.08028912,0.65794754,-0.7487715,,-0.095346496,0.25304416,-0.08993815,-0.89309156,0.16434841,0.4187804,0.29325366,-0.49325007,0.8189668,0.34115934,0.8542213,0.39232174,,-0.0023987356,0.39831415,-0.37028596,0.14263175,-0.2646986,-0.95372474,0.9528304,0.29752946,0.0599211,0.26790017,-0.9172845,0.29465,,1.19925546530545,0.5240492073791267,0.20502641156,3.850326742262836,0.3370822449213416,-1.2162154485390513,-0.4134238313858608,,-0.7779803870165029,-0.31830788087691164,0.18596057824,3.347070877899978,-0.6341299954114091,0.985926459461919,0.703686236906475,,-0.055632369907319255,-0.0618370153981591,0.08432137115999999,-0.06574422517700301,,3.542751e-06,-1.1920929e-07,1.66893e-06,1.0,4.5076013e-06,3.963709e-06,-4.515052e-06,1.0,4.7683716e-07,-3.963709e-06,-5.066395e-07,1.0,73,0.22,0,0,0.0,False,-0.2602355019347904,0.8759959457573534
0.24203241104260087,16:06:45.354183,16:06:35.279071,0,,0.124886796,-0.005089633,0.025771469,0.9284963,-0.04443592,-0.36867318,0.36884442,0.22530288,0.9017719,0.04299201,-0.97327495,0.22558272,,0.032212626,-0.026142545,0.024044335,-0.21137597,0.22490709,0.95117646,0.7120308,-0.63123894,0.307489,0.66957617,0.74226296,-0.026712075,,0.1061206,1.3403041,0.44034845,0.9953697,0.013095164,-0.095224544,-0.052847467,-0.7529499,-0.6559524,-0.08028912,0.65794754,-0.7487715,,-0.09544928,0.25324053,-0.09004654,-0.89683414,0.14775977,0.41695994,0.3006582,-0.4878004,0.81954587,0.32448912,0.86035913,0.39305088,,-0.0019627702,0.39822784,-0.37013143,0.14652428,-0.2811054,-0.94842523,0.9525923,0.29853648,0.058684316,0.26664305,-0.9120613,0.31152168,,1.1999196203326332,0.5245820759474483,0.20485270870000002,3.8455038735626923,0.31904622695230345,-1.2168638883975493,-0.41179039072451795,,-0.77547049883238,-0.3177055077127221,0.18598391146,3.3418286293128645,-0.6363161794076562,0.9742321537978689,0.7018894521789979,,-0.055632369907319255,-0.0618370153981591,0.08432137115999999,-0.06574422517700301,,3.542751e-06,-1.1920929e-07,1.66893e-06,1.0,4.5076013e-06,3.963709e-06,-4.515052e-06,1.0,4.7683716e-07,-3.963709e-06,-5.066395e-07,1.0,80,0.241,0,0,0.0,False,-0.2608312791200009,0.8771546705760604
0.2730313980136998,16:06:45.375562,16:06:35.279071,0,,0.12487081,-0.0050381273,0.025860399,0.92884856,-0.037527718,-0.3685535,0.36704022,0.22807452,0.9018113,0.050214678,-0.9729202,0.22562078,,0.03200559,-0.02615612,0.023943245,-0.21359766,0.2446141,0.94580114,0.71040744,-0.62567705,0.32225677,0.67059463,0.74073756,-0.040132523,,0.1061206,1.3403041,0.44034845,0.9953697,0.013095164,-0.095224544,-0.052847467,-0.7529499,-0.6559524,-0.08028912,0.65794754,-0.7487715,,-0.095437214,0.25333846,-0.09007937,-0.89796346,0.1410862,0.41684082,0.3041803,-0.48551974,0.81960046,0.31801876,0.8627661,0.39306334,,-0.0017477457,0.3981504,-0.3700991,0.14866701,-0.3006646,-0.9420716,0.9528158,0.29850775,0.055093005,0.26465115,-0.9058112,0.33085623,,1.2005219934968228,0.5247519760706812,0.20479307936000002,3.8427779042973933,0.31180449246473513,-1.217166323752322,-0.4132604873197264,,-0.774165356976636,-0.31779045777433856,0.18600335581000002,3.339522039934535,-0.6391855459027305,0.9563156022206345,0.7025428284435351,,-0.055632369907319255,-0.0618370153981591,0.08432137115999999,-0.06574422517700301,,3.542751e-06,-1.1920929e-07,1.66893e-06,1.0,4.5076013e-06,3.963709e-06,-4.515052e-06,1.0,4.7683716e-07,-3.963709e-06,-5.066395e-07,1.0,88,0.266,0,0,0.0,False,-0.260652545964438,0.8785547963986646
0.2944634539890103,16:06:45.404168,16:06:35.432364,0,,0.12479207,-0.0049593225,0.0259794,0.9294223,-0.025301695,-0.36814895,0.36365163,0.23231152,0.9021025,0.06270048,-0.9723122,0.2251164,,0.031945046,-0.026182465,0.023918271,-0.21496725,0.25868288,0.9417388,0.70876074,-0.62208694,0.33266506,0.6718982,0.7389797,-0.049615964,,0.1061206,1.3403041,0.44034845,0.9953697,0.013095164,-0.095224544,-0.052847467,-0.7529499,-0.6559524,-0.08028912,0.65794754,-0.7487715,,-0.095363356,0.25347692,-0.09012346,-0.8999018,0.12922475,0.41650653,0.31006938,-0.48199132,0.81947625,0.30664915,0.8665941,0.39367622,,-0.0016850401,0.39812037,-0.3701113,0.1499367,-0.31456712,-0.9373188,0.95320505,0.29772022,0.052562088,0.26252446,-0.901338,0.34448618,,1.2017576307566986,0.5247596988035554,0.20470493164000003,3.8381647255407336,0.29882402498701827,-1.2170365016391538,-0.41113701445998085,,-0.7737714976000505,-0.31801441702769107,0.18601113355,3.338683280160597,-0.6419182758980392,0.9426166059671532,0.7017261081128637,,-0.055632369907319255,-0.0618370153981591,0.08432137115999999,-0.06574422517700301,,3.542751e-06,-1.1920929e-07,1.66893e-06,1.0,4.5076013e-06,3.963709e-06,-4.515052e-06,1.0,4.7683716e-07,-3.963709e-06,-5.066395e-07,1.0,96,0.29,0,0,0.0,False,-0.26148663402373185,0.8792789994103565
0.32306545303435996,16:06:45.428354,16:06:35.432364,0,,0.124745965,-0.0048896894,0.02603887,0.9298667,-0.013529621,-0.36764756,0.36027515,0.23584262,0.90254104,0.07449587,-0.9716971,0.2241765,,0.031930227,-0.026202776,0.02390927,-0.21438026,0.27259022,0.93794215,0.70792186,-0.61825097,0.34148553,0.67296934,0.7371976,-0.060431764,,0.1061206,1.3403041,0.44034845,0.9953697,0.013095164,-0.095224544,-0.052847467,-0.7529499,-0.6559524,-0.08028912,0.65794754,-0.7487715,,-0.09531736,0.2535685,-0.09012609,-0.90164965,0.11775801,0.41612607,0.31550324,-0.47897983,0.8191679,0.2957796,0.8698916,0.39471897,,-0.0016693051,0.39810348,-0.3701247,0.1492689,-0.32830918,-0.9327014,0.95365185,0.2970493,0.04806098,0.26127946,-0.8966464,0.35743287,,1.202699804167354,0.5246593032761905,0.20466474665,3.8339709266710433,0.2865267400081286,-1.2165653029029215,-0.41391386358426363,,-0.7736093202096919,-0.31816114895230135,0.18601631871000002,3.339941419821504,-0.6431480043959281,0.9275286552927302,0.7031962047080721,,-0.055632369907319255,-0.0618370153981591,0.08432137115999999,-0.06574422517700301,,3.542751e-06,-1.1920929e-07,1.66893e-06,1.0,4.5076013e-06,3.963709e-06,-4.515052e-06,1.0,4.7683716e-07,-3.963709e-06,-5.066395e-07,1.0,104,0.314,0,0,0.0,False,-0.2607717014014801,0.8808722460360787
0.3472610720200464,16:06:45.449439,16:06:35.432364,0,,0.12462035,-0.004807532,0.02612251,0.9301949,-0.0033767372,-0.36705014,0.3568397,0.24270532,0.9020863,0.08603889,-0.97009414,0.22696817,,0.031932097,-0.026208319,0.02390188,-0.21281463,0.29231635,0.9323416,0.7077803,-0.6117133,0.3533467,0.67361474,0.7350905,-0.07671427,,0.1061206,1.3403041,0.44034845,0.9953697,0.013095164,-0.095224544,-0.052847467,-0.7529499,-0.6559524,-0.08028912,0.65794754,-0.7487715,,-0.095193565,0.2536857,-0.0901475,-0.9032647,0.10807343,0.4152506,0.32072386,-0.4728364,0.8207082,0.28504235,0.8744975,0.3924347,,-0.0016704849,0.39809418,-0.37012568,0.1476554,-0.3478475,-0.925851,0.95401096,0.29701567,0.040555894,0.26088497,-0.8892603,0.3757063,,1.2041053415504628,0.5244585122214607,0.20460511731000003,3.8297771278013526,0.2740928185294736,-1.2195765508291778,-0.412933799187458,,-0.7735320928809496,-0.31818431715092405,0.18602280016000003,3.342038319256349,-0.6431480043959281,0.9054753954547784,0.7038495809726093,,-0.055632369907319255,-0.0618370153981591,0.08432137115999999,-0.06574422517700301,,3.542751e-06,-1.1920929e-07,1.66893e-06,1.0,4.5076013e-06,3.963709e-06,-4.515052e-06,1.0,4.7683716e-07,-3.963709e-06,-5.066395e-07,1.0,119,0.36,0,0,0.0,False,-0.2608908568385213,0.8824172124610214
0.36831960000563413,16:06:45.489404,16:06:35.432364,0,,0.12451993,-0.0047008023,0.026223302,0.9305266,0.017280675,-0.365816,0.3504365,0.24810791,0.9031261,0.10636844,-0.9685782,0.22481522,,0.031891845,-0.026174761,0.023854852,-0.21133587,0.31284878,0.9259927,0.7072288,-0.6049906,0.36580566,0.67465883,0.7321967,-0.09339948,,0.1061206,1.3403041,0.44034845,0.9953697,0.013095164,-0.095224544,-0.052847467,-0.7529499,-0.6559524,-0.08028912,0.65794754,-0.7487715,,-0.09509437,0.25383264,-0.09016214,-0.905892,0.08785096,0.41429687,0.32965782,-0.46784574,0.8200281,0.26586726,0.8794331,0.39485696,,-0.0016267038,0.39807403,-0.37007433,0.14609855,-0.36812392,-0.91822654,0.95451057,0.29633784,0.033067625,0.25993228,-0.88128805,0.3946727,,1.205796620049918,0.5241496029064917,0.20453122878000002,3.8228573596663638,0.25250425156653394,-1.2178998763725528,-0.41391386358426374,,-0.7731536789701126,-0.31799124882906843,0.18605650370000001,3.3441352186911946,-0.6435579138952244,0.8828579231863696,0.7059730538323549,,-0.055632369907319255,-0.0618370153981591,0.08432137115999999,-0.06574422517700301,,3.542751e-06,-1.1920929e-07,1.66893e-06,1.0,4.5076013e-06,3.963709e-06,-4.515052e-06,1.0,4.7683716e-07,-3.963709e-06,-5.066395e-07,1.0,127,0.385,0,0,0.0,False,-0.2611887454311268,0.8830931352719338
0.40830693300813437,16:06:45.520366,16:06:35.567544,0,,0.12454371,-0.004631102,0.026336014,0.9305413,0.03987647,-0.36400896,0.34312022,0.25227877,0.9047785,0.12791108,-0.96683264,0.22107333,,0.031831175,-0.026143752,0.023804426,-0.2109671,0.31913462,0.9239295,0.70536137,-0.6046696,0.3699189,0.6767261,0.72974503,-0.09753986,,0.1061206,1.3403041,0.44034845,0.9953697,0.013095164,-0.095224544,-0.052847467,-0.7529499,-0.6559524,-0.08028912,0.65794754,-0.7487715,,-0.095122464,0.25395998,-0.09019559,-0.9083833,0.0655867,0.41296268,0.3387323,-0.46361467,0.81873184,0.24515349,0.88360614,0.3989235,,-0.0015622645,0.39805126,-0.37002414,0.14557338,-0.37418082,-0.9158587,0.95530665,0.2939049,0.03176651,0.25728893,-0.8795502,0.40024215,,1.2068082980564414,0.524026039180504,0.20444178477000002,3.816147281474859,0.22995922910523628,-1.2147081679287879,-0.41097367039384647,,-0.7726594240661622,-0.3178831305688293,0.18609539240000003,3.345603048295586,-0.6460173708910025,0.8762871777381462,0.7077698385598319,,-0.055632369907319255,-0.0618370153981591,0.08432137115999999,-0.06574422517700301,,3.542751e-06,-1.1920929e-07,1.66893e-06,1.0,4.5076013e-06,3.963709e-06,-4.515052e-06,1.0,4.7683716e-07,-3.963709e-06,-5.066395e-07,1.0,139,0.42,0,0,0.0,False,-0.26106958999408425,0.884493261094538
0.4391940840287134,16:06:45.556087,16:06:35.567544,0,,0.124617994,-0.004584104,0.026482373,0.93035865,0.0640803,-0.36100718,0.333502,0.26120895,0.90584016,0.15234476,-0.9631529,0.22164702,,0.031770892,-0.026138283,0.023733914,-0.2111438,0.31933677,0.9238193,0.705029,-0.60487056,0.3702238,0.6770172,0.72949004,-0.09742703,,0.1061206,1.3403041,0.44034845,0.9953697,0.013095164,-0.095224544,-0.052847467,-0.7529499,-0.6559524,-0.08028912,0.65794754,-0.7487715,,-0.095205456,0.2540931,-0.09026296,-0.91111475,0.041928504,0.4100146,0.34804794,-0.4545629,0.8198995,0.22075458,0.88972723,0.39956582,,-0.0014962544,0.39799833,-0.36998585,0.14572793,-0.3743585,-0.9157615,0.9554015,0.29356825,0.032026794,0.256849,-0.87958705,0.40044376,,1.2076577986726063,0.523917920920265,0.20431604464000003,3.8096468932268386,0.20386165765003716,-1.2156439656410043,-0.4119537347906522,,-0.7721728918950861,-0.3178599623702066,0.18613816997000002,3.3453933583521014,-0.6465639168900642,0.8767328493529319,0.7094032792211747,,-0.055632369907319255,-0.0618370153981591,0.08432137115999999,-0.06574422517700301,,3.542751e-06,-1.1920929e-07,1.66893e-06,1.0,4.5076013e-06,3.963709e-06,-4.515052e-06,1.0,4.7683716e-07,-3.963709e-06,-5.066395e-07,1.0,147,0.445,0,0,0.0,False,-0.26136747858668974,0.8894661217748219
0.47498389304382727,16:06:45.582411,16:06:35.567544,0,,0.12463264,-0.0045990795,0.026681244,0.92882776,0.08642487,-0.36029068,0.32704753,0.2657464,0.9068731,0.17412233,-0.9601612,0.21856758,,0.031726,-0.026143305,0.023677707,-0.21198305,0.31987986,0.92343915,0.7050917,-0.6042218,0.3711624,0.67668957,0.72978956,-0.0974599,,0.1061206,1.3403041,0.44034845,0.9953697,0.013095164,-0.095224544,-0.052847467,-0.7529499,-0.6559524,-0.08028912,0.65794754,-0.7487715,,-0.09523874,0.25421578,-0.090417355,-0.91202444,0.01983245,0.4096561,0.35792023,-0.4492221,0.81859183,0.20026125,0.8932,0.4026031,,-0.0014466821,0.39795104,-0.36996323,0.14659138,-0.37493154,-0.9153892,0.955218,0.29411215,0.03250509,0.25703987,-0.8791612,0.40125567,,1.208584526617513,0.523748020797032,0.20411641598000002,3.8016786753744265,0.1817265446880358,-1.213276583349172,-0.4142405517165322,,-0.7718330916486201,-0.31789085330170347,0.18617057722000002,3.3441352186911946,-0.6467005533898296,0.8770893034770499,0.7131601927422633,,-0.055632369907319255,-0.0618370153981591,0.08432137115999999,-0.06574422517700301,,3.542751e-06,-1.1920929e-07,1.66893e-06,1.0,4.5076013e-06,3.963709e-06,-4.515052e-06,1.0,4.7683716e-07,-3.963709e-06,-5.066395e-07,1.0,162,0.491,0,0,0.0,False,-0.261427056305211,0.8916870110106774
0.5013005410437472,16:06:45.620118,16:06:35.567544,0,,0.124559805,-0.0046176016,0.026970178,0.92608935,0.11306702,-0.35996392,0.32079166,0.2662779,0.9089493,0.19862261,-0.9572419,0.21032614,,0.031744413,-0.026137285,0.023648024,-0.2119032,0.3212257,0.9229902,0.7052696,-0.603523,0.37196064,0.67652917,0.7297766,-0.09866226,,0.1061206,1.3403041,0.44034845,0.9953697,0.013095164,-0.095224544,-0.052847467,-0.7529499,-0.6559524,-0.08028912,0.65794754,-0.7487715,,-0.095193386,0.25439647,-0.09065062,-0.9119598,-0.0068391575,0.41022244,0.3697723,-0.44690016,0.814585,0.1777574,0.8945577,0.41008392,,-0.0014625596,0.3979272,-0.36994237,0.14652374,-0.3762782,-0.91484725,0.95516455,0.29435045,0.03191422,0.25727707,-0.8785058,0.40253693,,1.2101445186581063,0.5235163388108053,0.20383512105,3.7914038681436852,0.15713197473025653,-1.2054731717049005,-0.4132604873197264,,-0.7718639825801171,-0.317875407835955,0.18620428076,3.3441352186911946,-0.6464272803902987,0.8755596078274082,0.717080450329486,,-0.055632369907319255,-0.0618370153981591,0.08432137115999999,-0.06574422517700301,,3.542751e-06,-1.1920929e-07,1.66893e-06,1.0,4.5076013e-06,3.963709e-06,-4.515052e-06,1.0,4.7683716e-07,-3.963709e-06,-5.066395e-07,1.0,170,0.516,0,0,0.0,False,-0.2611887454311268,0.8930871368332816
0.5390004270011559,16:06:45.646557,16:06:35.567544,0,,0.12450862,-0.004607536,0.027125165,0.9241814,0.12671278,-0.36032248,0.31735328,0.27021256,0.90899515,0.21254493,-0.95442605,0.20951262,,0.031780448,-0.026124828,0.02365148,-0.21265066,0.3212534,0.9228086,0.70519567,-0.60326636,0.37251678,0.67637163,0.72997665,-0.098261535,,0.1061206,1.3403041,0.44034845,0.9953697,0.013095164,-0.095224544,-0.052847467,-0.7529499,-0.6559524,-0.08028912,0.65794754,-0.7487715,,-0.09515546,0.25450823,-0.090763815,-0.91156465,-0.020329127,0.41065392,0.37659392,-0.44211245,0.81407225,0.16500583,0.89672923,0.4106699,,-0.0014988803,0.39793366,-0.36993212,0.1472826,-0.37632537,-0.914706,0.95505047,0.29465026,0.032554675,0.2572672,-0.8783851,0.40280658,,1.2111175830002587,0.5233927750848177,0.20369641802000002,3.785322859782634,0.1431950517541816,-1.2049718179665603,-0.4134238313858609,,-0.7720956645663438,-0.31784451690445814,0.18621853995,3.3432964589172562,-0.6465639168900642,0.8757527044712452,0.7172437943956202,,-0.055632369907319255,-0.0618370153981591,0.08432137115999999,-0.06574422517700301,,3.542751e-06,-1.1920929e-07,1.66893e-06,1.0,4.5076013e-06,3.963709e-06,-4.515052e-06,1.0,4.7683716e-07,-3.963709e-06,-5.066395e-07,1.0,178,0.54,0,0,0.0,False,-0.2623802998015474,0.8932802576363992
0.5654635269893333,16:06:45.676933,16:06:35.700186,0,,0.1243857,-0.004618481,0.027408078,0.92030305,0.1471807,-0.36246365,0.31396848,0.27485394,0.908779,0.23337927,-0.95015424,0.20673874,,0.03184023,-0.026115634,0.023665607,-0.21293254,0.32110906,0.92279387,0.7051699,-0.60322964,0.37262505,0.6763099,0.7300706,-0.09798925,,0.1061206,1.3403041,0.44034845,0.9953697,0.013095164,-0.095224544,-0.052847467,-0.7529499,-0.6559524,-0.08028912,0.65794754,-0.7487715,,-0.09505924,0.25469056,-0.090993516,-0.90981895,-0.04066655,0.4130081,0.38810658,-0.43583137,0.81204945,0.14697863,0.8991091,0.4123106,,-0.0015597373,0.39794576,-0.36992928,0.14756896,-0.37618992,-0.9147155,0.9550065,0.29476076,0.0328444,0.25726652,-0.8784061,0.40276134,,1.212777970568217,0.5231842612972136,0.20343197486000003,3.7744189827214387,0.12324612278842728,-1.2029985835514811,-0.4152206161133378,,-0.7724586330114324,-0.31783679417158395,0.18623150285,3.3430867689737718,-0.6465639168900642,0.8756710257311047,0.7174071384617545,,-0.055632369907319255,-0.0618370153981591,0.08432137115999999,-0.06574422517700301,,3.542751e-06,-1.1920929e-07,1.66893e-06,1.0,4.5076013e-06,3.963709e-06,-4.515052e-06,1.0,4.7683716e-07,-3.963709e-06,-5.066395e-07,1.0,186,0.564,0,0,0.0,False,-0.26148663402373185,0.8928940160301635
0.5958063500002027,16:06:45.697602,16:06:35.700186,0,,0.12426248,-0.004619658,0.027610928,0.9171895,0.15938228,-0.3651855,0.3136783,0.2763356,0.90842974,0.24570131,-0.9477532,0.20345718,,0.03187558,-0.026111372,0.023676455,-0.21300824,0.32084543,0.9228681,0.7051478,-0.6033269,0.3725093,0.6763091,0.7301061,-0.09772987,,0.1061206,1.3403041,0.44034845,0.9953697,0.013095164,-0.095224544,-0.052847467,-0.7529499,-0.6559524,-0.08028912,0.65794754,-0.7487715,,-0.0949549,0.25482628,-0.09115793,-0.90783817,-0.052878384,0.41597325,0.39618328,-0.433136,0.80958754,0.1373633,0.89977616,0.4141669,,-0.0015959258,0.3979545,-0.3699299,0.14764465,-0.37592933,-0.9148105,0.9550005,0.29476246,0.033002328,0.25724524,-0.8785171,0.4025328,,1.214052221492464,0.5230838657698487,0.20324790168,3.7662410749255417,0.11231520280719205,-1.2004560929867312,-0.41195373479065234,,-0.7726748695319107,-0.31783679417158395,0.18623668801,3.3430867689737718,-0.6465639168900642,0.8757527044712452,0.7175704825278887,,-0.055632369907319255,-0.0618370153981591,0.08432137115999999,-0.06574422517700301,,3.542751e-06,-1.1920929e-07,1.66893e-06,1.0,4.5076013e-06,3.963709e-06,-4.515052e-06,1.0,4.7683716e-07,-3.963709e-06,-5.066395e-07,1.0,194,0.588,0,0,0.0,False,-0.26160578946077395,0.8930871368332816
0.6164910820079967,16:06:45.721791,16:06:35.700186,0,,0.12408222,-0.0045816973,0.02786909,0.91407347,0.175864,-0.36543304,0.3100482,0.27780163,0.90922856,0.26141843,-0.9444035,0.19940472,,0.031899706,-0.026112415,0.023681343,-0.21305163,0.32071686,0.92290276,0.70514977,-0.60335773,0.3724556,0.6762933,0.7301371,-0.09760711,,0.1061206,1.3403041,0.44034845,0.9953697,0.013095164,-0.095224544,-0.052847467,-0.7529499,-0.6559524,-0.08028912,0.65794754,-0.7487715,,-0.09479572,0.25502825,-0.09134354,-0.9064169,-0.06942535,0.4166396,0.40407175,-0.42981976,0.8074534,0.1230222,0.9002417,0.41764873,,-0.0016203654,0.39795625,-0.36993244,0.14768922,-0.3758036,-0.91485494,0.9549914,0.2947835,0.033077635,0.25725344,-0.8785638,0.40242553,,1.2159442910466491,0.5229294111123642,0.20303531012,3.7584825470166146,0.09632873233463551,-1.1959147872288685,-0.4139138635842635,,-0.7728138787236467,-0.3178599623702066,0.18624187317000002,3.3430867689737718,-0.6465639168900642,0.8757527044712452,0.7175704825278887,,-0.055632369907319255,-0.0618370153981591,0.08432137115999999,-0.06574422517700301,,3.542751e-06,-1.1920929e-07,1.66893e-06,1.0,4.5076013e-06,3.963709e-06,-4.515052e-06,1.0,4.7683716e-07,-3.963709e-06,-5.066395e-07,1.0,205,0.622,0,0,0.0,False,-0.26196325577190027,0.8939079002465324
0.6406272079912014,16:06:45.755525,16:06:35.700186,0,,0.12394886,-0.004522413,0.02806969,0.9094251,0.19645327,-0.3665404,0.3064259,0.27933216,0.9099873,0.28115642,-0.93988276,0.19383323,,0.031906843,-0.026113518,0.023683608,-0.21053818,0.3195797,0.9238736,0.7049681,-0.60510015,0.36996448,0.6772692,0.7291931,-0.09789683,,0.1061206,1.3403041,0.44034845,0.9953697,0.013095164,-0.095224544,-0.052847467,-0.7529499,-0.6559524,-0.08028912,0.65794754,-0.7487715,,-0.094676346,0.2552072,-0.09146709,-0.90382844,-0.090149485,0.4182908,0.4146723,-0.4256736,0.80426913,0.1055509,0.90037495,0.42211843,,-0.0016276574,0.39795706,-0.36993426,0.14510366,-0.374573,-0.9157729,0.9555392,0.29317793,0.031487834,0.2566899,-0.8796259,0.40046036,,1.2177591332720918,0.5226513927288922,0.20288105161000003,3.747368980011935,0.07610653036935033,-1.1902065311803525,-0.414730583914935,,-0.7727520968606529,-0.31784451690445814,0.18624187317000002,3.346441808069524,-0.6464272803902987,0.8753962503471271,0.7182238587924258,,-0.055632369907319255,-0.0618370153981591,0.08432137115999999,-0.06574422517700301,,3.542751e-06,-1.1920929e-07,1.66893e-06,1.0,4.5076013e-06,3.963709e-06,-4.515052e-06,1.0,4.7683716e-07,-3.963709e-06,-5.066395e-07,1.0,213,0.647,0,0,0.0,False,-0.2621419889274632,0.8931836972348406
0.6743827890022658,16:06:45.781590,16:06:35.700186,0,,0.12379792,-0.0044691265,0.028248578,0.90538424,0.21323521,-0.36716446,0.30221942,0.28374827,0.91002774,0.29823217,-0.93488914,0.19245732,,0.0318723,-0.026116706,0.02366662,-0.21134402,0.3204614,0.923384,0.7051865,-0.6041629,0.37107834,0.67679065,0.72958326,-0.09829886,,0.1061206,1.3403041,0.44034845,0.9953697,0.013095164,-0.095224544,-0.052847467,-0.7529499,-0.6559524,-0.08028912,0.65794754,-0.7487715,,-0.09453808,0.25536716,-0.091580756,-0.9016541,-0.10690819,0.41903514,0.42304918,-0.41906893,0.8033745,0.08971729,0.90163845,0.42308265,,-0.0015917651,0.39794362,-0.36992964,0.14594515,-0.3754939,-0.9152619,0.95530283,0.29391947,0.031747013,0.25709248,-0.8789856,0.4016065,,1.2193886299085532,0.5223270379481747,0.20275271890000002,3.739610452103007,0.059573513897732036,-1.188731739633748,-0.4147305839149349,,-0.7725667512716715,-0.31784451690445814,0.18624187317000002,3.345183668408617,-0.6462906438905333,0.87520315370329,0.7182238587924258,,-0.055632369907319255,-0.0618370153981591,0.08432137115999999,-0.06574422517700301,,3.542751e-06,-1.1920929e-07,1.66893e-06,1.0,4.5076013e-06,3.963709e-06,-4.515052e-06,1.0,4.7683716e-07,-3.963709e-06,-5.066395e-07,1.0,221,0.671,0,0,0.0,False,-0.2616653671792948,0.8929905764317225
0.7004869400407188,16:06:45.811355,16:06:35.700186,0,,0.12360984,-0.004475206,0.028374285,0.9006665,0.22180039,-0.3736365,0.30640212,0.28550407,0.9080778,0.30808672,-0.93235826,0.1891838,,0.031863533,-0.026118897,0.023660898,-0.2113206,0.32043725,0.92339766,0.7051983,-0.60417,0.37104434,0.6767857,0.7295879,-0.09829823,,0.1061206,1.3403041,0.44034845,0.9953697,0.013095164,-0.095224544,-0.052847467,-0.7529499,-0.6559524,-0.08028912,0.65794754,-0.7487715,,-0.09436289,0.25544745,-0.091699414,-0.89751124,-0.11549901,0.4255979,0.43277854,-0.4160786,0.7997383,0.0847132,0.9019637,0.4234207,,-0.0015825214,0.39793825,-0.3699289,0.14592212,-0.3754702,-0.9152753,0.9553027,0.29392174,0.0317292,0.25710595,-0.87899494,0.40157735,,1.2207401081615425,0.521956346770212,0.20262438619000003,3.7284968850983273,0.053014961908990896,-1.1874676172633478,-0.41244376698905494,,-0.7725049694086777,-0.3178522396373324,0.18624316946000002,3.345183668408617,-0.6462906438905333,0.8752848324434306,0.7180605147262915,,-0.055632369907319255,-0.0618370153981591,0.08432137115999999,-0.06574422517700301,,3.542751e-06,-1.1920929e-07,1.66893e-06,1.0,4.5076013e-06,3.963709e-06,-4.515052e-06,1.0,4.7683716e-07,-3.963709e-06,-5.066395e-07,1.0,233,0.707,0,0,0.0,False,-0.2618441003348577,0.8926043348254873
0.7302438209881075,16:06:45.838705,16:06:35.700186,0,,0.12347196,-0.004480295,0.028416455,0.90050536,0.22299373,-0.37331432,0.30614567,0.28456125,0.9084602,0.30881166,-0.93236184,0.18798032,,0.03186375,-0.026120238,0.02366072,-0.21131885,0.32028386,0.9234513,0.70520365,-0.6042266,0.37094197,0.6767807,0.7296084,-0.098180935,,0.1061206,1.3403041,0.44034845,0.9953697,0.013095164,-0.095224544,-0.052847467,-0.7529499,-0.6559524,-0.08028912,0.65794754,-0.7487715,,-0.0942301,0.2554722,-0.09175008,-0.8974354,-0.1167577,0.42541423,0.43307653,-0.41678032,0.79921144,0.083990194,0.9014776,0.42459846,,-0.0015827119,0.39793742,-0.36992997,0.14592075,-0.3753186,-0.9153377,0.955301,0.29392263,0.031773638,0.25711322,-0.87905943,0.40143162,,1.2214969359832164,0.5216551601881172,0.20257512717,3.728077505211359,0.05164859691133649,-1.1857816870453997,-0.41391386358426385,,-0.7725126921415519,-0.31786768510308083,0.18624316946000002,3.345183668408617,-0.6462906438905333,0.8754481899237119,0.717733826594023,,-0.055632369907319255,-0.0618370153981591,0.08432137115999999,-0.06574422517700301,,3.542751e-06,-1.1920929e-07,1.66893e-06,1.0,4.5076013e-06,3.963709e-06,-4.515052e-06,1.0,4.7683716e-07,-3.963709e-06,-5.066395e-07,1.0,248,0.753,0,0,0.0,False,-0.2616653671792948,0.8913007694044417
0.7575920320232399,16:06:45.888411,16:06:35.895256,0,,0.12336673,-0.004461825,0.028434768,0.8951677,0.24562874,-0.37194228,0.30043656,0.2839127,0.91056657,0.32926044,-0.92685497,0.18035352,,0.031879697,-0.026125975,0.023663044,-0.20980667,0.31995007,0.92391175,0.70534325,-0.60486317,0.36963677,0.67710567,0.7292273,-0.09877031,,0.1061206,1.3403041,0.44034845,0.9953697,0.013095164,-0.095224544,-0.052847467,-0.7529499,-0.6559524,-0.08028912,0.65794754,-0.7487715,,-0.09412578,0.25549835,-0.09176363,-0.8943891,-0.13977137,0.42489067,0.4426117,-0.4135861,0.795639,0.06452131,0.89967245,0.43177137,,-0.0015987381,0.3979352,-0.3699355,0.1443851,-0.37494728,-0.91573334,0.9555321,0.29329854,0.030569063,0.25712144,-0.87942624,0.40062207,,1.2227480187088409,0.5206743731130906,0.20255309024,3.718641457754555,0.030196666448162338,-1.1777638100213668,-0.4142405517165322,,-0.7725358603401746,-0.317875407835955,0.18624446575000003,3.347070877899978,-0.645880734391237,0.8747872212520602,0.7164270740649489,,-0.055632369907319255,-0.0618370153981591,0.08432137115999999,-0.06574422517700301,,3.542751e-06,-1.1920929e-07,1.66893e-06,1.0,4.5076013e-06,3.963709e-06,-4.515052e-06,1.0,4.7683716e-07,-3.963709e-06,-5.066395e-07,1.0,256,0.778,0,0,0.0,False,-0.261427056305211,0.8897075227787195
0.8072637050063349,16:06:45.915371,16:06:35.895256,0,,0.123423144,-0.0044241846,0.028467834,0.88778,0.2693757,-0.37320673,0.2938363,0.29240918,0.91003144,0.35426942,-0.9175694,0.18044263,,0.031883746,-0.026129626,0.023658097,-0.20915498,0.31992304,0.9240688,0.7056747,-0.60479766,0.3691111,0.67696184,0.7292935,-0.0992652,,0.1061206,1.3403041,0.44034845,0.9953697,0.013095164,-0.095224544,-0.052847467,-0.7529499,-0.6559524,-0.08028912,0.65794754,-0.7487715,,-0.09418176,0.25554836,-0.09175611,-0.88977975,-0.163505,0.4260964,0.4545571,-0.40108427,0.79530454,0.040864307,0.90133095,0.431199,,-0.0016023162,0.39792883,-0.36993602,0.14374477,-0.37492663,-0.9158425,0.955526,0.29339075,0.029865239,0.25750244,-0.8794043,0.40042552,,1.2233503918730304,0.5200642772160269,0.20255309024,3.7068988209194216,0.005055550491321297,-1.178417709437631,-0.4121170788567867,,-0.7725281376073003,-0.317875407835955,0.18624705833000002,3.347699947730431,-0.6453341883921753,0.874423228377415,0.7152836656020088,,-0.055632369907319255,-0.0618370153981591,0.08432137115999999,-0.06574422517700301,,3.542751e-06,-1.1920929e-07,1.66893e-06,1.0,4.5076013e-06,3.963709e-06,-4.515052e-06,1.0,4.7683716e-07,-3.963709e-06,-5.066395e-07,1.0,264,0.802,0,0,0.0,False,-0.2622611443645053,0.8898040831802785
0.8342484210152179,16:06:45.940139,16:06:35.895256,0,,0.12338723,-0.0044350475,0.02844727,0.88541275,0.2742854,-0.3752485,0.2922434,0.29927355,0.9083111,0.36143845,-0.91389436,0.18482244,,0.031894952,-0.026139386,0.023655236,-0.20757665,0.31954816,0.9245544,0.7059205,-0.60535985,0.36771685,0.6771913,0.7289914,-0.09991706,,0.1061206,1.3403041,0.44034845,0.9953697,0.013095164,-0.095224544,-0.052847467,-0.7529499,-0.6559524,-0.08028912,0.65794754,-0.7487715,,-0.094145134,0.25552654,-0.09175252,-0.8881873,-0.168166,0.42760205,0.45820305,-0.39353916,0.79697984,0.03425323,0.90379596,0.42659065,,-0.00161314,0.39792055,-0.3699426,0.1421503,-0.37452182,-0.9162569,0.95572394,0.29287547,0.028559877,0.25765288,-0.87974846,0.3995718,,1.223682469386622,0.519585467777825,0.20255827540000002,3.7031244019367002,-0.0023228204960124878,-1.1835094512971405,-0.41440389578266634,,-0.7725204148744261,-0.31790629876745197,0.18624965091,3.349587157221792,-0.6447876423931135,0.8738141992823484,0.7149569774697404,,-0.055632369907319255,-0.0618370153981591,0.08432137115999999,-0.06574422517700301,,3.542751e-06,-1.1920929e-07,1.66893e-06,1.0,4.5076013e-06,3.963709e-06,-4.515052e-06,1.0,4.7683716e-07,-3.963709e-06,-5.066395e-07,1.0,276,0.838,0,0,0.0,False,-0.2621419889274632,0.8886453583615714
0.8589881040388718,16:06:45.977605,16:06:36.020738,0,,0.12326616,-0.0044778064,0.028368384,0.8803968,0.28597096,-0.37831447,0.2942482,0.29620928,0.90866834,0.371913,-0.9113071,0.17663515,,0.03189428,-0.026161559,0.023638606,-0.20825706,0.31977552,0.92432266,0.70619917,-0.6046773,0.36830425,0.67669165,0.729458,-0.09989691,,0.1061206,1.3403041,0.44034845,0.9953697,0.013095164,-0.095224544,-0.052847467,-0.7529499,-0.6559524,-0.08028912,0.65794754,-0.7487715,,-0.094021305,0.255442,-0.09173741,-0.8839741,-0.18023871,0.4313976,0.46673805,-0.3940821,0.79174167,0.027303567,0.9012288,0.4324826,,-0.0016108335,0.397895,-0.36995327,0.14286803,-0.37479484,-0.9160336,0.95549023,0.29360455,0.02889363,0.25812244,-0.8793891,0.4000595,,1.2243002880165599,0.5185583443055531,0.20258031233,3.693688354479897,-0.010930919981235236,-1.1768168383248283,-0.4134238313858607,,-0.7724972466758034,-0.31803758522631376,0.18626002123000002,3.3485387075043693,-0.6446510058933481,0.8740294963392141,0.7146302893374717,,-0.055632369907319255,-0.0618370153981591,0.08432137115999999,-0.06574422517700301,,3.542751e-06,-1.1920929e-07,1.66893e-06,1.0,4.5076013e-06,3.963709e-06,-4.515052e-06,1.0,4.7683716e-07,-3.963709e-06,-5.066395e-07,1.0,291,0.884,0,0,0.0,False,-0.2611887454311268,0.886521029527275
0.8965119710192084,16:06:46.019400,16:06:36.020738,0,,0.1232487,-0.004514858,0.028328404,0.87289315,0.30607247,-0.37996954,0.29290748,0.29409572,0.9097874,0.39020824,-0.9054432,0.16706309,,0.031821553,-0.026218258,0.023578525,-0.208256,0.31968117,0.92435557,0.70639104,-0.60450846,0.36821347,0.6764916,0.72963923,-0.099927425,,0.10609923,1.3403057,0.4403396,0.9953723,0.013132545,-0.09519198,-0.05279805,-0.75294924,-0.65595716,-0.08028912,0.65794754,-0.7487715,,-0.0939892,0.25539178,-0.09174452,-0.87826204,-0.20089796,0.4339306,0.47802773,-0.39173967,0.78614855,0.012052187,0.8978753,0.44008487,,-0.0015147568,0.39782906,-0.3699803,0.14283817,-0.37470016,-0.916077,0.9554203,0.2938428,0.028783115,0.25839758,-0.8793499,0.3999681,,1.224956720310869,0.5175775572305267,0.20260234926,3.6815263377577945,-0.02801048245191529,-1.168035360991631,-0.4109736703938467,,-0.7725358603401746,-0.3182692672125405,0.18628594703,3.348329017560885,-0.6446510058933481,0.8741928538194952,0.7120167842793232,,-0.055632369907319255,-0.0618370153981591,0.08432137115999999,-0.06574422517700301,,-1.7099082e-05,-7.3313713e-06,9.298325e-06,1.0,4.1682273e-05,3.663078e-05,-4.1689724e-05,1.0,4.4703484e-06,-3.663078e-05,-4.5001507e-06,1.0,299,0.909,0,0,0.0,False,-0.26112916771260597,0.8860382275194807
0.9383021719986573,16:06:46.040887,16:06:36.020738,0,,0.12323192,-0.0045072213,0.028324172,0.86810297,0.3158566,-0.38292503,0.29219618,0.29845208,0.9085967,0.40127102,-0.9006448,0.16679496,,0.03184691,-0.026237004,0.02356422,-0.20861337,0.31965563,0.9242838,0.7064173,-0.6043366,0.368445,0.6763541,0.7297927,-0.099737585,,0.10609923,1.3403057,0.4403396,0.9953723,0.013132545,-0.09519198,-0.05279805,-0.75294924,-0.65595716,-0.08028912,0.65794754,-0.7487715,,-0.09397156,0.2553946,-0.0917383,-0.8745381,-0.21069558,0.43679565,0.48494822,-0.38530168,0.785091,0.0028828955,0.89841527,0.43913743,,-0.0015386224,0.3978053,-0.36998832,0.14320569,-0.3746895,-0.91602397,0.95534366,0.2940637,0.029069189,0.25847748,-0.87928057,0.40006882,,1.2253196887559576,0.5171373614566959,0.20261142329,3.6739774997923518,-0.03812158343455788,-1.1687750975335576,-0.41522061611333794,,-0.7726362558675395,-0.31840827640427655,0.18630668767000003,3.3479096376739164,-0.6447876423931135,0.8743042717231917,0.7120167842793232,,-0.055632369907319255,-0.0618370153981591,0.08432137115999999,-0.06574422517700301,,-1.7099082e-05,-7.3313713e-06,9.298325e-06,1.0,4.1682273e-05,3.663078e-05,-4.1689724e-05,1.0,4.4703484e-06,-3.663078e-05,-4.5001507e-06,1.0,307,0.933,0,0,0.0,False,-0.2608908568385213,0.8860382275194807
0.9597934050252661,16:06:46.072854,16:06:36.118329,0,,0.12322511,-0.004468024,0.02834621,0.8588831,0.3383219,-0.38452289,0.28619194,0.3056018,0.908131,0.42475146,-0.89002573,0.16565114,,0.031899083,-0.026276998,0.0235551,-0.20858696,0.31967634,0.92428267,0.70667213,-0.6040647,0.36840224,0.676096,0.7300088,-0.099906355,,0.10609923,1.3403057,0.4403396,0.9953723,0.013132545,-0.09519198,-0.05279805,-0.75294924,-0.65595716,-0.08028912,0.65794754,-0.7487715,,-0.09396367,0.25543845,-0.09172912,-0.8679274,-0.2333804,0.43844682,0.49630937,-0.37289888,0.78397924,-0.019469064,0.8980423,0.43947804,,-0.0015894239,0.39777306,-0.3700163,0.14319883,-0.37473118,-0.916008,0.9552496,0.29438552,0.028902793,0.2588287,-0.8791551,0.4001175,,1.2261074075091285,0.5163341972377765,0.20262827506000003,3.6616057931267645,-0.0621696073932754,-1.1676249417547546,-0.41228042292292066,,-0.7728679378537663,-0.3186708493220002,0.18632872460000002,3.3479096376739164,-0.6446510058933481,0.8739478175990736,0.7115267520809204,,-0.055632369907319255,-0.0618370153981591,0.08432137115999999,-0.06574422517700301,,-1.7099082e-05,-7.3313713e-06,9.298325e-06,1.0,4.1682273e-05,3.663078e-05,-4.1689724e-05,1.0,4.4703484e-06,-3.663078e-05,-4.5001507e-06,1.0,319,0.969,0,0,0.0,False,-0.26255903295711036,0.8858451067163631
0.991755360038951,16:06:46.101554,16:06:36.118329,0,,0.12320551,-0.0044189617,0.028385267,0.84786534,0.36096486,-0.38836646,0.28219822,0.31289095,0.9068978,0.4488746,-0.8785236,0.16342562,,0.031911302,-0.026302792,0.023542643,-0.20951423,0.32162285,0.9233971,0.70814824,-0.6012881,0.37010634,0.6742623,0.7314447,-0.10177827,,0.10609923,1.3403057,0.4403396,0.9953723,0.013132545,-0.09519198,-0.05279805,-0.75294924,-0.65595716,-0.08028912,0.65794754,-0.7487715,,-0.09394382,0.25550106,-0.091727346,-0.8594304,-0.2563088,0.44236326,0.50959307,-0.35979918,0.78157496,-0.041162625,0.89713454,0.43983552,,-0.0016002835,0.39774832,-0.3700318,0.14426436,-0.37682045,-0.91498315,0.95449895,0.29687488,0.028231839,0.26099718,-0.8774233,0.40250316,,1.2269569081252931,0.5155850921489767,0.20264123796000003,3.6465081171958786,-0.08567108535293116,-1.166021991449191,-0.41179039072451795,,-0.7729683333811311,-0.3187712448493651,0.18633131718,3.3458127382390708,-0.6428747313963974,0.8724177061108795,0.7115267520809204,,-0.055632369907319255,-0.0618370153981591,0.08432137115999999,-0.06574422517700301,,-1.7099082e-05,-7.3313713e-06,9.298325e-06,1.0,4.1682273e-05,3.663078e-05,-4.1689724e-05,1.0,4.4703484e-06,-3.663078e-05,-4.5001507e-06,1.0,331,1.006,0,0,0.0,False,-0.26059296824591627,0.8863761889249369
1.0204471130273305,16:06:46.139728,16:06:36.118329,0,,0.12308079,-0.0043715388,0.028425008,0.8323868,0.38505256,-0.39858064,0.2856887,0.31814468,0.90397245,0.4748832,-0.8663247,0.15481415,,0.031955376,-0.026326142,0.023537695,-0.20699312,0.32043597,0.92437786,0.7094009,-0.6014943,0.36736223,0.67372406,0.731796,-0.10281241,,0.10609923,1.3403057,0.4403396,0.9953723,0.013132545,-0.09519198,-0.05279805,-0.75294924,-0.65595716,-0.08028912,0.65794754,-0.7487715,,-0.09381975,0.25556305,-0.09173961,-0.84608316,-0.28089297,0.4530369,0.5296895,-0.3477391,0.77363205,-0.059769183,0.89452595,0.44300222,,-0.0016435409,0.39772874,-0.37004787,0.14178601,-0.3756658,-0.9158449,0.95447564,0.2971646,0.025874153,0.26243663,-0.87782025,0.40069765,,1.2281925453851692,0.5146197505396987,0.20264383054000001,3.622603463638643,-0.10684974281657443,-1.1605139549564867,-0.41309714325359237,,-0.7731150653057415,-0.3188407494452331,0.18633909492000003,3.348329017560885,-0.6408251838999157,0.8719716186575417,0.7121801283454576,,-0.055632369907319255,-0.0618370153981591,0.08432137115999999,-0.06574422517700301,,-1.7099082e-05,-7.3313713e-06,9.298325e-06,1.0,4.1682273e-05,3.663078e-05,-4.1689724e-05,1.0,4.4703484e-06,-3.663078e-05,-4.5001507e-06,1.0,339,1.031,0,0,0.0,False,-0.26106958999408425,0.8861347879210393
1.0586291050422005,16:06:46.161943,16:06:36.118329,0,,0.12299538,-0.004359752,0.028437063,0.827677,0.39564338,-0.39801595,0.28440925,0.31568724,0.90523654,0.48379934,-0.862443,0.14876238,,0.03197908,-0.026335113,0.023536503,-0.20542078,0.32007492,0.92485356,0.7103132,-0.6013235,0.36587593,0.6732439,0.7320943,-0.10382915,,0.10609923,1.3403057,0.4403396,0.9953723,0.013132545,-0.09519198,-0.05279805,-0.75294924,-0.65595716,-0.08028912,0.65794754,-0.7487715,,-0.093735084,0.25557998,-0.091750674,-0.8422942,-0.29194522,0.45310977,0.5347457,-0.34696123,0.77049655,-0.067731254,0.8912833,0.44835988,,-0.0016669703,0.39772135,-0.37005422,0.14025134,-0.37533322,-0.9162175,0.95440376,0.29753554,0.024209779,0.26352054,-0.8778369,0.3999492,,1.2288567004123525,0.5140868819713772,0.20264123796000003,3.616312765334107,-0.1158677518010935,-1.1537321244935068,-0.41228042292292066,,-0.7732000153673579,-0.3188407494452331,0.18634039121,3.349796847165276,-0.6393221824024958,0.8713177728978649,0.7116900961470547,,-0.055632369907319255,-0.0618370153981591,0.08432137115999999,-0.06574422517700301,,-1.7099082e-05,-7.3313713e-06,9.298325e-06,1.0,4.1682273e-05,3.663078e-05,-4.1689724e-05,1.0,4.4703484e-06,-3.663078e-05,-4.5001507e-06,1.0,347,1.055,0,0,0.0,False,-0.26190367805337944,0.8853623047085684
1.0808517250115983,16:06:46.192011,16:06:36.118329,0,,0.122811705,-0.0043521896,0.028435394,0.82147324,0.406565,-0.3998579,0.28391474,0.31651545,0.9051026,0.49454418,-0.85704315,0.14457902,,0.031986877,-0.02633483,0.0235371,-0.20518628,0.320189,0.9248661,0.7104758,-0.60120237,0.36575922,0.67314374,0.7321439,-0.10412813,,0.10609923,1.3403057,0.4403396,0.9953723,0.013132545,-0.09519198,-0.05279805,-0.75294924,-0.65595716,-0.08028912,0.65794754,-0.7487715,,-0.09355194,0.25558472,-0.0917661,-0.8371215,-0.30320224,0.45529774,0.54161465,-0.34273133,0.76758635,-0.0766891,0.88915896,0.45112655,,-0.0016747874,0.39772135,-0.37005398,0.14002465,-0.37545234,-0.9162034,0.95438206,0.29763067,0.02389303,0.26371953,-0.8777537,0.4000006,,1.2299996648777376,0.5131678767593445,0.20263864538,3.607505787707757,-0.12652539878279787,-1.1494521799727762,-0.4122804229229209,,-0.773238629031729,-0.31883302671235886,0.18634168750000002,3.3500065371087615,-0.639048909402965,0.8710132583503316,0.7115267520809205,,-0.055632369907319255,-0.0618370153981591,0.08432137115999999,-0.06574422517700301,,-1.7099082e-05,-7.3313713e-06,9.298325e-06,1.0,4.1682273e-05,3.663078e-05,-4.1689724e-05,1.0,4.4703484e-06,-3.663078e-05,-4.5001507e-06,1.0,355,1.081,0,0,0.0,False,-0.26243987752006825,0.8848312224999941
1.1109133349964395,16:06:46.220410,16:06:36.258958,0,,0.12272,-0.0043165535,0.028489307,0.8118601,0.42669266,-0.3985176,0.27532473,0.3221154,0.90578043,0.5148585,-0.84508884,0.14403352,,0.032009933,-0.026344322,0.02353704,-0.20251873,0.31921968,0.92578876,0.7112541,-0.6018803,0.3631221,0.6731297,0.7320102,-0.105154335,,0.10609923,1.3403057,0.4403396,0.9953723,0.013132545,-0.09519198,-0.05279805,-0.75294924,-0.65595716,-0.08028912,0.65794754,-0.7487715,,-0.09346287,0.25564748,-0.09179274,-0.8300435,-0.32380536,0.45406818,0.5489334,-0.33057415,0.76771927,-0.09848842,0.88649356,0.45213848,,-0.0016976597,0.39771467,-0.3700613,0.13736042,-0.37446845,-0.917009,0.95455605,0.29724768,0.021601027,0.2644899,-0.8783036,0.3982812,,1.2311271838773745,0.5122025351500664,0.20263734909000003,3.597860050307469,-0.15016351324221905,-1.1465126306614077,-0.41293379918745776,,-0.7732772426961002,-0.31882530397948466,0.18634168750000002,3.352942196317544,-0.6375459079055451,0.8703594125906547,0.7107100317502489,,-0.055632369907319255,-0.0618370153981591,0.08432137115999999,-0.06574422517700301,,-1.7099082e-05,-7.3313713e-06,9.298325e-06,1.0,4.1682273e-05,3.663078e-05,-4.1689724e-05,1.0,4.4703484e-06,-3.663078e-05,-4.5001507e-06,1.0,363,1.105,0,0,0.0,False,-0.2611887454311268,0.885458865110127
1.13930205401266,16:06:46.237201,16:06:36.258958,0,,0.1226698,-0.0042911917,0.028536543,0.80336654,0.44149843,-0.39960122,0.2694954,0.32883993,0.90511703,0.5310125,-0.8348314,0.1451971,,0.032009043,-0.026343934,0.023536742,-0.20282927,0.3192488,0.9257107,0.7112905,-0.60169685,0.36335492,0.67299783,0.7321483,-0.10503693,,0.10609923,1.3403057,0.4403396,0.9953723,0.013132545,-0.09519198,-0.05279805,-0.75294924,-0.65595716,-0.08028912,0.65794754,-0.7487715,,-0.09341519,0.25569808,-0.09181644,-0.82349324,-0.33888572,0.45498943,0.5554955,-0.3187189,0.76801234,-0.115254685,0.8851976,0.45071238,,-0.0016967511,0.39771467,-0.37006086,0.1376807,-0.37451103,-0.91694355,0.9544857,0.297457,0.021826109,0.26457718,-0.87821454,0.39841953,,1.2318685662333,0.5115152119242604,0.20263605280000002,3.589053072681119,-0.1683361677110226,-1.146559580175366,-0.41326048731972653,,-0.7732849654289744,-0.31882530397948466,0.18634168750000002,3.3525228164305756,-0.6375459079055451,0.8705227700709359,0.7107100317502489,,-0.055632369907319255,-0.0618370153981591,0.08432137115999999,-0.06574422517700301,,-1.7099082e-05,-7.3313713e-06,9.298325e-06,1.0,4.1682273e-05,3.663078e-05,-4.1689724e-05,1.0,4.4703484e-06,-3.663078e-05,-4.5001507e-06,1.0,371,1.13,0,0,0.0,False,-0.26196325577190027,0.885651985913245
1.156097993021831,16:06:46.262983,16:06:36.258958,0,,0.1225256,-0.00428237,0.028572991,0.7931887,0.45781773,-0.40156478,0.26274642,0.33759642,0.9038768,0.5493776,-0.8224546,0.14748761,,0.03201097,-0.026344977,0.023535967,-0.20283015,0.31901273,0.9257919,0.711295,-0.6017842,0.36320138,0.67299277,0.7321794,-0.10485221,,0.10609923,1.3403057,0.4403396,0.9953723,0.013132545,-0.09519198,-0.05279805,-0.75294924,-0.65595716,-0.08028912,0.65794754,-0.7487715,,-0.093274534,0.25572932,-0.09185436,-0.815538,-0.35549682,0.45663968,0.56286645,-0.30393654,0.7686377,-0.13445878,0.8838804,0.44796905,,-0.0016985966,0.39771333,-0.3700613,0.13768195,-0.37427762,-0.9170387,0.95448375,0.29745787,0.021900225,0.26458362,-0.8783138,0.3981965,,1.2330578670959305,0.5103568019931267,0.20263086764000002,3.5785685755068926,-0.18965146167443137,-1.1475561037303508,-0.414077207650398,,-0.7732926881618486,-0.31883302671235886,0.18634298379000003,3.3525228164305756,-0.6375459079055451,0.8707678062913576,0.7112000639486518,,-0.055632369907319255,-0.0618370153981591,0.08432137115999999,-0.06574422517700301,,-1.7099082e-05,-7.3313713e-06,9.298325e-06,1.0,4.1682273e-05,3.663078e-05,-4.1689724e-05,1.0,4.4703484e-06,-3.663078e-05,-4.5001507e-06,1.0,396,1.207,0,0,0.0,False,-0.26160578946077395,0.8850243433031117
1.1818725659977645,16:06:46.339349,16:06:36.372189,0,,0.12207875,-0.0042863935,0.028619021,0.77035826,0.49109375,-0.406663,0.26091754,0.33914647,0.9038263,0.5817817,-0.8023756,0.13312921,,0.03201119,-0.026346333,0.023535788,-0.20282836,0.31908584,0.92576706,0.7113004,-0.6017504,0.3632468,0.6729876,0.73217523,-0.10491384,,0.10609923,1.3403057,0.4403396,0.9953723,0.013132545,-0.09519198,-0.05279805,-0.75294924,-0.65595716,-0.08028912,0.65794754,-0.7487715,,-0.09283518,0.2557579,-0.09194365,-0.79587245,-0.39019144,0.4629662,0.5833376,-0.28932983,0.75895023,-0.16218597,0.8740932,0.45788297,,-0.0016987864,0.3977125,-0.37006238,0.13768056,-0.37435046,-0.9170092,0.9544819,0.29746574,0.021872373,0.2645909,-0.87828004,0.398266,,1.235760823601909,0.5078469138090037,0.20260364555000002,3.549631363306028,-0.22217094861860617,-1.1315752001287351,-0.412933799187458,,-0.7732926881618486,-0.3188407494452331,0.18634298379000003,3.3525228164305756,-0.6375459079055451,0.8706861275512171,0.7110367198825176,,-0.055632369907319255,-0.0618370153981591,0.08432137115999999,-0.06574422517700301,,-1.7099082e-05,-7.3313713e-06,9.298325e-06,1.0,4.1682273e-05,3.663078e-05,-4.1689724e-05,1.0,4.4703484e-06,-3.663078e-05,-4.5001507e-06,1.0,404,1.231,0,0,0.0,False,-0.26190367805337944,0.8853140245077888
1.258246599987615,16:06:46.363402,16:06:36.372189,0,,0.121977895,-0.0042667016,0.028688267,0.76129705,0.50332654,-0.40876517,0.2557554,0.34620744,0.9026239,0.595832,-0.7917088,0.1348382,,0.03201097,-0.026344977,0.023535967,-0.20283015,0.31901273,0.9257919,0.711295,-0.6017842,0.36320138,0.67299277,0.7321794,-0.10485221,,0.10609923,1.3403057,0.4403396,0.9953723,0.013132545,-0.09519198,-0.05279805,-0.75294924,-0.65595716,-0.08028912,0.65794754,-0.7487715,,-0.092739604,0.25581917,-0.09199328,-0.7885204,-0.4027266,0.4648084,0.58897936,-0.2769468,0.7592126,-0.17702791,0.8724172,0.45557585,,-0.0016985966,0.39771333,-0.3700613,0.13768195,-0.37427762,-0.9170387,0.95448375,0.29745787,0.021900225,0.26458362,-0.8783138,0.3981965,,1.236656660615319,0.5071286996517009,0.2025842012,3.540614695736194,-0.23856732859045904,-1.1320087587689196,-0.41440389578266634,,-0.7732926881618486,-0.31883302671235886,0.18634298379000003,3.3525228164305756,-0.6375459079055451,0.8707678062913576,0.7108733758163833,,-0.055632369907319255,-0.0618370153981591,0.08432137115999999,-0.06574422517700301,,-1.7099082e-05,-7.3313713e-06,9.298325e-06,1.0,4.1682273e-05,3.663078e-05,-4.1689724e-05,1.0,4.4703484e-06,-3.663078e-05,-4.5001507e-06,1.0,412,1.256,0,0,0.0,False,-0.2622015666459845,0.8846863818976556
1.2823098950320855,16:06:46.392766,16:06:36.372189,0,,0.12182909,-0.0042371377,0.02881588,0.7501457,0.5191978,-0.40952998,0.2461452,0.35556862,0.90165615,0.61375386,-0.77717733,0.13893014,,0.032010876,-0.0263514,0.023531854,-0.20297249,0.31902483,0.9257565,0.711341,-0.6016685,0.36330277,0.67290115,0.73226917,-0.10481333,,0.10609923,1.3403057,0.4403396,0.9953723,0.013132545,-0.09519198,-0.05279805,-0.75294924,-0.65595716,-0.08028912,0.65794754,-0.7487715,,-0.09260079,0.2559271,-0.09208488,-0.7797837,-0.41903567,0.46513057,0.5939361,-0.2602672,0.7612496,-0.19793251,0.86986786,0.45183253,,-0.0016980893,0.39770657,-0.37006477,0.13783114,-0.3742985,-0.91700774,0.9544397,0.29759267,0.02198784,0.26466477,-0.8782592,0.3982629,,1.2380158616011827,0.5062096944396681,0.20253753476000003,3.5311786482793903,-0.261522260551053,-1.1330568060619368,-0.41113701445998085,,-0.7732849654289744,-0.31887164037673,0.18634557637000002,3.352313126487091,-0.6375459079055451,0.8708494850314982,0.710710031750249,,-0.055632369907319255,-0.0618370153981591,0.08432137115999999,-0.06574422517700301,,-1.7099082e-05,-7.3313713e-06,9.298325e-06,1.0,4.1682273e-05,3.663078e-05,-4.1689724e-05,1.0,4.4703484e-06,-3.663078e-05,-4.5001507e-06,1.0,420,1.282,0,0,0.0,False,-0.2618441003348577,0.8841070194883023
1.3116571070277132,16:06:46.413943,16:06:36.372189,0,,0.121684775,-0.004226662,0.028874144,0.7448662,0.52610654,-0.41034868,0.24504961,0.3563239,0.9016564,0.62058425,-0.7721692,0.13649136,,0.032013454,-0.026356526,0.023530662,-0.20296805,0.31900814,0.92576325,0.71136165,-0.6016546,0.3632855,0.6728807,0.7322879,-0.104813516,,0.10609923,1.3403057,0.4403396,0.9953723,0.013132545,-0.09519198,-0.05279805,-0.75294924,-0.65595716,-0.08028912,0.65794754,-0.7487715,,-0.09246181,0.2559742,-0.092137724,-0.77523035,-0.426279,0.46615893,0.5977263,-0.25634924,0.75961065,-0.20430657,0.86750865,0.45352787,,-0.001700504,0.39770272,-0.37006846,0.13782823,-0.37428358,-0.9170143,0.9544323,0.2976171,0.021978404,0.264693,-0.8782573,0.39824837,,1.238919421347467,0.5056922713370952,0.20250123864000003,3.5248879499748544,-0.26903726803815226,-1.1295425410431315,-0.4140772076503978,,-0.7732926881618486,-0.3189025313082269,0.18634687266000002,3.352313126487091,-0.6375459079055451,0.8708494850314982,0.710710031750249,,-0.055632369907319255,-0.0618370153981591,0.08432137115999999,-0.06574422517700301,,-1.7099082e-05,-7.3313713e-06,9.298325e-06,1.0,4.1682273e-05,3.663078e-05,-4.1689724e-05,1.0,4.4703484e-06,-3.663078e-05,-4.5001507e-06,1.0,428,1.306,0,0,0.0,False,-0.26106958999408425,0.88343109667739
1.3328406669897959,16:06:46.443441,16:06:36.372189,0,,0.121434644,-0.004236132,0.029012874,0.7366512,0.5371948,-0.41081193,0.24383605,0.3556216,0.90226245,0.6307842,-0.76482356,0.13098156,,0.03201595,-0.026363991,0.023527503,-0.20311396,0.31892863,0.9257586,0.71141136,-0.6015693,0.36332935,0.6727841,0.73239255,-0.104702406,,0.10609923,1.3403057,0.4403396,0.9953723,0.013132545,-0.09519198,-0.05279805,-0.75294924,-0.65595716,-0.08028912,0.65794754,-0.7487715,,-0.09222642,0.25606084,-0.09227553,-0.76806885,-0.4379934,0.46715304,0.6036994,-0.25194347,0.7563541,-0.21358196,0.86295205,0.4579263,,-0.001702651,0.39769605,-0.37007323,0.13798134,-0.37421417,-0.91701955,0.9543861,0.29775646,0.022096343,0.26477975,-0.87823963,0.39822966,,1.240433076990815,0.50489682985105,0.20238846141000003,3.5148228326875977,-0.2801048245191529,-1.121906229426111,-0.41309714325359215,,-0.7733004108947228,-0.31894886770547226,0.18634946524,3.352103436543606,-0.6375459079055451,0.8710128425117794,0.7097299673534433,,-0.055632369907319255,-0.0618370153981591,0.08432137115999999,-0.06574422517700301,,-1.7099082e-05,-7.3313713e-06,9.298325e-06,1.0,4.1682273e-05,3.663078e-05,-4.1689724e-05,1.0,4.4703484e-06,-3.663078e-05,-4.5001507e-06,1.0,436,1.331,0,0,0.0,False,-0.2622611443645053,0.8823689322602419
1.3623437749920413,16:06:46.464728,16:06:36.372189,0,,0.121282324,-0.0042542815,0.02915132,0.7302509,0.54397446,-0.4133099,0.24348411,0.35802412,0.901407,0.6383172,-0.75888777,0.12899819,,0.032017194,-0.026369475,0.023525655,-0.20295021,0.3188319,0.92582786,0.7114151,-0.6016731,0.36315006,0.67282957,0.7323494,-0.10471214,,0.10609923,1.3403057,0.4403396,0.9953723,0.013132545,-0.09519198,-0.05279805,-0.75294924,-0.65595716,-0.08028912,0.65794754,-0.7487715,,-0.092088826,0.25614074,-0.09240737,-0.76240623,-0.44506136,0.46974158,0.608514,-0.24618246,0.7543904,-0.22010788,0.8609963,0.4585171,,-0.0017036713,0.39769155,-0.37007695,0.1378143,-0.37411305,-0.91708595,0.9544142,0.2976743,0.021991484,0.26476562,-0.87831056,0.39808255,,1.2413906958672187,0.5044798022758419,0.2022730916,3.506854614835185,-0.28775646850601755,-1.1193423701254368,-0.4134238313858607,,-0.7732926881618486,-0.31897975863696915,0.18635076153000002,3.352313126487091,-0.6375459079055451,0.8710128425117794,0.7097299673534433,,-0.055632369907319255,-0.0618370153981591,0.08432137115999999,-0.06574422517700301,,-1.7099082e-05,-7.3313713e-06,9.298325e-06,1.0,4.1682273e-05,3.663078e-05,-4.1689724e-05,1.0,4.4703484e-06,-3.663078e-05,-4.5001507e-06,1.0,457,1.395,0,0,0.0,False,-0.26243987752006825,0.881548168846991
1.383634191006422,16:06:46.529112,16:06:36.561651,0,,0.12094812,-0.0042453855,0.02975884,0.70057607,0.5800863,-0.41556332,0.22765532,0.37023848,0.90060914,0.6762884,-0.7255504,0.12732038,,0.03204412,-0.026409857,0.023513496,-0.19936946,0.31797025,0.9269015,0.71268886,-0.60214394,0.35985726,0.672552,0.73233706,-0.10656476,,0.10609923,1.3403057,0.4403396,0.9953723,0.013132545,-0.09519198,-0.05279805,-0.75294924,-0.65595716,-0.08028912,0.65794754,-0.7487715,,-0.09180991,0.25655636,-0.09288728,-0.7375341,-0.48290607,0.4720648,0.6223782,-0.21477051,0.7526746,-0.26208553,0.848926,0.4589508,,-0.0017290666,0.39765853,-0.37010464,0.1342578,-0.37324888,-0.91796523,0.95454216,0.2974922,0.018645685,0.266128,-0.87873983,0.3962224,,1.2444102844210405,0.5033213923447082,0.20189716750000003,3.4785464724647746,-0.33393960542673645,-1.1094538903238373,-0.4127704551213238,,-0.7732849654289744,-0.3191187678287052,0.18635465040000002,3.356087545469812,-0.6353597239092981,0.86972022849348,0.7071164622952949,,-0.055632369907319255,-0.0618370153981591,0.08432137115999999,-0.06574422517700301,,-1.7099082e-05,-7.3313713e-06,9.298325e-06,1.0,4.1682273e-05,3.663078e-05,-4.1689724e-05,1.0,4.4703484e-06,-3.663078e-05,-4.5001507e-06,1.0,465,1.42,0,0,0.0,False,-0.2622015666459845,0.8808722460360787
1.448019823001232,16:06:46.560510,16:06:36.561651,0,,0.120783225,-0.0042791963,0.029999062,0.6912741,0.59109086,-0.41563377,0.22332278,0.37227488,0.90085435,0.68721676,-0.71555793,0.12533984,,0.03205508,-0.026427709,0.02350837,-0.19849746,0.31774265,0.9271667,0.71313643,-0.602113,0.35902143,0.6723355,0.73246133,-0.10707596,,0.10609923,1.3403057,0.4403396,0.9953723,0.013132545,-0.09519198,-0.05279805,-0.75294924,-0.65595716,-0.08028912,0.65794754,-0.7487715,,-0.09167004,0.25669312,-0.09310584,-0.7296023,-0.4945563,0.4723289,0.62653446,-0.20655765,0.75152415,-0.27410787,0.84424406,0.46056148,,-0.0017393718,0.3976442,-0.37011704,0.13340302,-0.373033,-0.91817755,0.95451534,0.29763234,0.01776187,0.26665357,-0.87878406,0.39577073,,1.245591862550797,0.5028580283722547,0.20171309432,3.469320114951455,-0.3474666189035151,-1.104304387148012,-0.41440389578266634,,-0.7733004108947228,-0.31919599515744745,0.18635724298000003,3.3569263052437504,-0.6346765414104709,0.8694081751954196,0.706626430096892,,-0.055632369907319255,-0.0618370153981591,0.08432137115999999,-0.06574422517700301,,-1.7099082e-05,-7.3313713e-06,9.298325e-06,1.0,4.1682273e-05,3.663078e-05,-4.1689724e-05,1.0,4.4703484e-06,-3.663078e-05,-4.5001507e-06,1.0,473,1.444,0,0,0.0,False,-0.262797343831195,0.8808239658352992
1.4794095529941842,16:06:46.584220,16:06:36.561651,0,,0.12065935,-0.0043183416,0.030172631,0.68586713,0.598599,-0.41384214,0.22000448,0.37151068,0.90198565,0.69367445,-0.7096894,0.12311241,,0.032064963,-0.02644486,0.02350223,-0.1975138,0.3174284,0.9274844,0.71347064,-0.6022847,0.3580681,0.6722706,0.7324564,-0.107516326,,0.10609923,1.3403057,0.4403396,0.9953723,0.013132545,-0.09519198,-0.05279805,-0.75294924,-0.65595716,-0.08028912,0.65794754,-0.7487715,,-0.09156544,0.25678107,-0.09327417,-0.7250637,-0.5025901,0.4708353,0.6284293,-0.20318635,0.7508608,-0.2817079,0.84030855,0.46316537,,-0.0017485261,0.39762944,-0.37012836,0.13242522,-0.3727178,-0.9184471,0.95455223,0.29756555,0.016875023,0.26700857,-0.8789404,0.39518377,,1.2464336404340874,0.5025182281257888,0.20156790984000003,3.464287556307827,-0.35607471838873783,-1.09908199149823,-0.41375051951812947,,-0.7733004108947228,-0.31927322248618967,0.18636113185000003,3.357974754961173,-0.6341299954114091,0.8691258610609149,0.7059730538323549,,-0.055632369907319255,-0.0618370153981591,0.08432137115999999,-0.06574422517700301,,-1.7099082e-05,-7.3313713e-06,9.298325e-06,1.0,4.1682273e-05,3.663078e-05,-4.1689724e-05,1.0,4.4703484e-06,-3.663078e-05,-4.5001507e-06,1.0,485,1.482,0,0,0.0,False,-0.26255903295711036,0.8806308450321811
1.503061768016778,16:06:46.613964,16:06:36.561651,0,,0.12043622,-0.004380971,0.030384138,0.68007416,0.60430944,-0.41510126,0.2196321,0.372258,0.9017682,0.6994718,-0.70443887,0.120437205,,0.03207799,-0.02646152,0.023495972,-0.19597246,0.31753454,0.9277749,0.71392256,-0.60239863,0.356974,0.6722419,0.7323166,-0.10864154,,0.10609923,1.3403057,0.4403396,0.9953723,0.013132545,-0.09519198,-0.05279805,-0.75294924,-0.65595716,-0.08028912,0.65794754,-0.7487715,,-0.09136745,0.25687727,-0.093497746,-0.71985245,-0.50866556,0.47230476,0.6320606,-0.19910963,0.7489024,-0.28690043,0.83762443,0.46483698,,-0.0017608098,0.39761463,-0.37013912,0.13088754,-0.3728105,-0.9186298,0.9546363,0.2973795,0.015331302,0.267466,-0.878964,0.3948217,,1.247692445892586,0.5020239732218384,0.20136309602000002,3.456948408285869,-0.3624966338777135,-1.0948254949061849,-0.4140772076503978,,-0.7733004108947228,-0.3193350043491835,0.18636502072000002,3.359652274509049,-0.6333101764128165,0.8680489599380337,0.7067897741630262,,-0.055632369907319255,-0.0618370153981591,0.08432137115999999,-0.06574422517700301,,-1.7099082e-05,-7.3313713e-06,9.298325e-06,1.0,4.1682273e-05,3.663078e-05,-4.1689724e-05,1.0,4.4703484e-06,-3.663078e-05,-4.5001507e-06,1.0,493,1.507,0,0,0.0,False,-0.26255903295711036,0.8798100816189303
1.5328677599900402,16:06:46.643134,16:06:36.561651,0,,0.12023814,-0.0044083,0.03061463,0.67163044,0.6159011,-0.41179866,0.21466807,0.3702038,0.903807,0.709105,-0.6954244,0.11642572,,0.032081205,-0.026479252,0.023488462,-0.19641308,0.3174708,0.92770356,0.71405536,-0.6020936,0.3572229,0.67197216,0.7325951,-0.10843268,,0.10609923,1.3403057,0.4403396,0.9953723,0.013132545,-0.09519198,-0.05279805,-0.75294924,-0.65595716,-0.08028912,0.65794754,-0.7487715,,-0.09119325,0.25701234,-0.093708746,-0.71270806,-0.52113336,0.46953946,0.6348774,-0.19458261,0.7477087,-0.2982917,0.830998,0.46953636,,-0.0017631971,0.39759892,-0.37015045,0.13134821,-0.37277374,-0.918579,0.9545069,0.29777828,0.015642483,0.26770177,-0.8788446,0.39492774,,1.249036201412701,0.501491104653517,0.20118939316,3.4489801904334563,-0.37547710135543033,-1.085711011377555,-0.4140772076503978,,-0.7733081336275971,-0.3194431226094226,0.18637020588000003,3.359023204678596,-0.6333101764128165,0.8683756748985959,0.7064630860307577,,-0.055632369907319255,-0.0618370153981591,0.08432137115999999,-0.06574422517700301,,-1.7099082e-05,-7.3313713e-06,9.298325e-06,1.0,4.1682273e-05,3.663078e-05,-4.1689724e-05,1.0,4.4703484e-06,-3.663078e-05,-4.5001507e-06,1.0,501,1.531,0,0,0.0,False,-0.2630356547052788,0.879230719209577
1.5620349920354784,16:06:46.672046,16:06:36.709099,0,,0.12003894,-0.004421063,0.030853167,0.66174704,0.6249972,-0.41408846,0.21138544,0.37437218,0.9028632,0.71931005,-0.6849992,0.11562431,,0.032093965,-0.0265005,0.023481727,-0.19639587,0.31686407,0.92791456,0.71414167,-0.6022402,0.35680306,0.67188555,0.73273724,-0.10800839,,0.10609923,1.3403057,0.4403396,0.9953723,0.013132545,-0.09519198,-0.05279805,-0.75294924,-0.65595716,-0.08028912,0.65794754,-0.7487715,,-0.091017514,0.25716358,-0.09391607,-0.7040525,-0.53075933,0.47180995,0.63932496,-0.18449852,0.7464743,-0.30914995,0.82719696,0.46922433,,-0.0017751198,0.3975813,-0.3701649,0.13133758,-0.37217993,-0.9188213,0.954475,0.29787338,0.015776671,0.26782066,-0.879064,0.39435843,,1.250372234199942,0.5010354634139378,0.20101828288,3.4384956932592305,-0.38791102283408546,-1.0823513175728474,-0.4152206161133376,,-0.7733467472919682,-0.31957440906828444,0.18637798362000002,3.359023204678596,-0.6333101764128165,0.8689474260795799,0.7053196775678178,,-0.055632369907319255,-0.0618370153981591,0.08432137115999999,-0.06574422517700301,,-1.7099082e-05,-7.3313713e-06,9.298325e-06,1.0,4.1682273e-05,3.663078e-05,-4.1689724e-05,1.0,4.4703484e-06,-3.663078e-05,-4.5001507e-06,1.0,518,1.584,1,1,0.013,False,-0.2626186106756321,0.8787961974025618
1.5908916560001671,16:06:46.715321,16:06:36.709099,0,,0.11979322,-0.004377052,0.031139508,0.65158445,0.6360366,-0.4133943,0.20517625,0.37688023,0.90325207,0.73030144,-0.67336375,0.11506963,,0.032115746,-0.026534684,0.023469508,-0.19683781,0.31700096,0.92777425,0.7143404,-0.6017852,0.3571728,0.67154485,0.73305184,-0.10799256,,0.10609923,1.3403057,0.4403396,0.9953723,0.013132545,-0.09519198,-0.05279805,-0.75294924,-0.65595716,-0.08028912,0.65794754,-0.7487715,,-0.09079535,0.25738907,-0.09412608,-0.6954189,-0.54255223,0.47120017,0.64213604,-0.1748317,0.7463881,-0.3225738,0.821627,0.46997362,,-0.0017954449,0.39755177,-0.37018737,0.13180496,-0.37234762,-0.9186864,0.95431834,0.2983636,0.015989045,0.26814908,-0.87882674,0.394664,,1.2522179673568816,0.5006724949688491,0.20085235776000002,3.4288499558589423,-0.4030776743080493,-1.0766815869540705,-0.4152206161133378,,-0.7734316973535846,-0.31979064558876275,0.18639224281000003,3.3583941348481416,-0.6333101764128165,0.8689474260795798,0.7049929894355492,,-0.055632369907319255,-0.0618370153981591,0.08432137115999999,-0.06574422517700301,,-1.7099082e-05,-7.3313713e-06,9.298325e-06,1.0,4.1682273e-05,3.663078e-05,-4.1689724e-05,1.0,4.4703484e-06,-3.663078e-05,-4.5001507e-06,1.0,526,1.609,0,1,0.025,False,-0.26243987752006825,0.8778788735877523
1.634226044989191,16:06:46.738116,16:06:36.709099,0,,0.11968963,-0.004359491,0.03127928,0.64755315,0.6419779,-0.41053513,0.2013054,0.37548912,0.90470123,0.7349496,-0.66848505,0.11391547,,0.03213042,-0.026558511,0.02346605,-0.1969792,0.3169174,0.9277727,0.7144544,-0.6016334,0.35720035,0.67138207,0.73321253,-0.10791378,,0.10609923,1.3403057,0.4403396,0.9953723,0.013132545,-0.09519198,-0.05279805,-0.75294924,-0.65595716,-0.08028912,0.65794754,-0.7487715,,-0.09070345,0.2574962,-0.094229296,-0.69212997,-0.5489919,0.4685766,0.64240307,-0.17258798,0.74668044,-0.32905084,0.81781495,0.47212738,,-0.0018095294,0.39753553,-0.37020564,0.13195857,-0.37227955,-0.91869193,0.9542477,0.29858506,0.016070744,0.26832485,-0.87878036,0.39464778,,1.2530520225072979,0.5005412085099874,0.20077069149000001,3.4257046067066743,-0.4103194087956176,-1.0718382616799877,-0.4148939279810695,,-0.7734934792165784,-0.319937377513373,0.18639742797000003,3.3581844449046576,-0.6333101764128165,0.8690291048197204,0.7038495809726093,,-0.055632369907319255,-0.0618370153981591,0.08432137115999999,-0.06574422517700301,,-1.7099082e-05,-7.3313713e-06,9.298325e-06,1.0,4.1682273e-05,3.663078e-05,-4.1689724e-05,1.0,4.4703484e-06,-3.663078e-05,-4.5001507e-06,1.0,535,1.637,0,1,0.025,False,-0.2623802998015474,0.8775409121822961
1.6570214140228927,16:06:46.770504,16:06:36.709099,0,,0.119516164,-0.004305385,0.03154461,0.6373593,0.6525143,-0.40987554,0.19721493,0.37606686,0.9053619,0.74490213,-0.65787446,0.111004055,,0.032139778,-0.026572399,0.023464859,-0.19697268,0.31685618,0.92779505,0.7145088,-0.60160035,0.35714734,0.6713261,0.7332661,-0.10789773,,0.10609923,1.3403057,0.4403396,0.9953723,0.013132545,-0.09519198,-0.05279805,-0.75294924,-0.65595716,-0.08028912,0.65794754,-0.7487715,,-0.09055038,0.25771493,-0.09440859,-0.68320733,-0.5603462,0.4682306,0.6460834,-0.16503829,0.7452104,-0.34029987,0.81164926,0.47478575,,-0.0018186189,0.39752674,-0.37021667,0.13195631,-0.37222347,-0.918715,0.9542268,0.29865262,0.016055824,0.26840028,-0.87878114,0.39459473,,1.2544575598904066,0.5004485357154966,0.20062809959000003,3.415220109532448,-0.4228899667740382,-1.0642015342244149,-0.41440389578266634,,-0.7735320928809496,-0.32002232757498944,0.18640002055000002,3.3581844449046576,-0.6333101764128165,0.8690291048197203,0.7035228928403408,,-0.055632369907319255,-0.0618370153981591,0.08432137115999999,-0.06574422517700301,,-1.7099082e-05,-7.3313713e-06,9.298325e-06,1.0,4.1682273e-05,3.663078e-05,-4.1689724e-05,1.0,4.4703484e-06,-3.663078e-05,-4.5001507e-06,1.0,543,1.661,0,1,0.025,False,-0.2622015666459845,0.8776857527846342
1.6893781690159813,16:06:46.797289,16:06:36.842720,0,,0.1194516,-0.0042899027,0.031676427,0.632246,0.6568717,-0.41083363,0.19576158,0.37761968,0.90503097,0.74962807,-0.6526277,0.110158235,,0.032146364,-0.026575826,0.023467243,-0.1969805,0.316815,0.9278075,0.71452063,-0.6016,0.3571242,0.67131126,0.73328424,-0.107867375,,0.10609923,1.3403057,0.4403396,0.9953723,0.013132545,-0.09519198,-0.05279805,-0.75294924,-0.65595716,-0.08028912,0.65794754,-0.7487715,,-0.0904967,0.25781512,-0.094502725,-0.67866117,-0.56501466,0.4692307,0.64819324,-0.16036619,0.7443979,-0.345347,0.8093461,0.475073,,-0.0018253473,0.3975265,-0.3702206,0.13196525,-0.37218398,-0.9187297,0.95422065,0.29867157,0.016069151,0.26841775,-0.87879145,0.3945599,,1.2549981511916024,0.5004485357154966,0.20055032219000002,3.4097681710018506,-0.42849206326442124,-1.0618387261566569,-0.4148939279810693,,-0.7735707065453207,-0.32004549577361213,0.18640002055000002,3.3581844449046576,-0.6333101764128165,0.8690291048197204,0.7038495809726093,,-0.055632369907319255,-0.0618370153981591,0.08432137115999999,-0.06574422517700301,,-1.7099082e-05,-7.3313713e-06,9.298325e-06,1.0,4.1682273e-05,3.663078e-05,-4.1689724e-05,1.0,4.4703484e-06,-3.663078e-05,-4.5001507e-06,1.0,556,1.702,0,1,0.025,False,-0.26160578946077395,0.8768649893713834
1.7161903690430336,16:06:46.839553,16:06:36.842720,0,,0.11930294,-0.004290618,0.0319338,0.62705576,0.6624288,-0.40986437,0.19278972,0.37781796,0.90558594,0.75474036,-0.6468706,0.1092034,,0.032168645,-0.02658964,0.02346617,-0.19428776,0.31661195,0.9284444,0.71528685,-0.6019693,0.35496166,0.67128,0.7330688,-0.10951313,,0.10609923,1.3403057,0.4403396,0.9953723,0.013132545,-0.09519198,-0.05279805,-0.75294924,-0.65595716,-0.08028912,0.65794754,-0.7487715,,-0.09037188,0.25798792,-0.09470987,-0.6741919,-0.5710257,0.46839607,0.6494393,-0.1563549,0.7441651,-0.3517014,0.8059049,0.47625974,,-0.0018473155,0.39751682,-0.37023118,0.12927751,-0.3719597,-0.91920257,0.9543718,0.29831517,0.013509105,0.2691872,-0.87900746,0.3935533,,1.2561488383898618,0.5004717039141193,0.20036365643,3.4045259224147375,-0.43559716125222414,-1.0575152124869729,-0.4139138635842634,,-0.7736015974768176,-0.3200609412393606,0.18640002055000002,3.361120104113441,-0.6318071749153966,0.867558471658638,0.7030328606419379,,-0.055632369907319255,-0.0618370153981591,0.08432137115999999,-0.06574422517700301,,-1.7099082e-05,-7.3313713e-06,9.298325e-06,1.0,4.1682273e-05,3.663078e-05,-4.1689724e-05,1.0,4.4703484e-06,-3.663078e-05,-4.5001507e-06,1.0,564,1.728,0,1,0.025,False,-0.26136747858668974,0.8767684289698243
1.7583232310134917,16:06:46.865827,16:06:36.842720,0,,0.11923756,-0.004304379,0.03203927,0.62653065,0.6621942,-0.41104496,0.19328178,0.3789062,0.9050262,0.75505054,-0.6464742,0.10940614,,0.032170232,-0.026590146,0.023465991,-0.1943985,0.3166237,0.9284172,0.71539927,-0.6017957,0.3550293,0.67112803,0.7332063,-0.10952422,,0.10609923,1.3403057,0.4403396,0.9953723,0.013132545,-0.09519198,-0.05279805,-0.75294924,-0.65595716,-0.08028912,0.65794754,-0.7487715,,-0.09031734,0.25804874,-0.09480427,-0.6736592,-0.57074237,0.46950656,0.6500128,-0.15528268,0.74388885,-0.35166267,0.80631286,0.47559747,,-0.0018488795,0.3975163,-0.37023148,0.12939967,-0.3719848,-0.9191752,0.95430726,0.2985203,0.013536077,0.26935723,-0.8789272,0.39361623,,1.2565890341636927,0.5005489312428616,0.20026773097000003,3.4032677827538302,-0.43559716125222414,-1.0578419274475352,-0.4139138635842634,,-0.7736170429425661,-0.3200609412393606,0.18640002055000002,3.3609104141699566,-0.6316705384156313,0.8676104112352228,0.7023794843774008,,-0.055632369907319255,-0.0618370153981591,0.08432137115999999,-0.06574422517700301,,-1.7099082e-05,-7.3313713e-06,9.298325e-06,1.0,4.1682273e-05,3.663078e-05,-4.1689724e-05,1.0,4.4703484e-06,-3.663078e-05,-4.5001507e-06,1.0,577,1.768,1,2,0.043,False,-0.2630356547052788,0.8771063903752809
1.7847341030137613,16:06:46.907303,16:06:36.842720,0,,0.11917019,-0.004287176,0.032312915,0.62133646,0.6670083,-0.41114554,0.18879412,0.3818221,0.90474796,0.7604588,-0.63977486,0.11131269,,0.03216861,-0.026592575,0.023464799,-0.1947039,0.3165785,0.9283686,0.71544987,-0.60163,0.35520807,0.67098564,0.7333617,-0.10935641,,0.10609923,1.3403057,0.4403396,0.9953723,0.013132545,-0.09519198,-0.05279805,-0.75294924,-0.65595716,-0.08028912,0.65794754,-0.7487715,,-0.090273246,0.25824562,-0.095001794,-0.6693311,-0.5758856,0.4694163,0.65033615,-0.14862555,0.7449653,-0.35924757,0.80390686,0.47399893,,-0.0018471354,0.3975142,-0.37023303,0.12971558,-0.3719547,-0.91914284,0.9542347,0.29874134,0.013774637,0.2694624,-0.87886477,0.3936835,,1.2574385347798573,0.5008655632907048,0.20009143553000003,3.39907398388414,-0.44365871473838514,-1.0569041041991452,-0.4134238313858607,,-0.7736170429425661,-0.320076386705109,0.18640002055000002,3.3604910342829872,-0.6316705384156313,0.8678554474556444,0.7025428284435351,,-0.055632369907319255,-0.0618370153981591,0.08432137115999999,-0.06574422517700301,,-1.7099082e-05,-7.3313713e-06,9.298325e-06,1.0,4.1682273e-05,3.663078e-05,-4.1689724e-05,1.0,4.4703484e-06,-3.663078e-05,-4.5001507e-06,1.0,590,1.809,1,2,0.084,False,-0.260652545964438,0.8769132695721629
1.826205883990042,16:06:46.939604,16:06:36.842720,0,,0.11913963,-0.0042897016,0.03261499,0.6163568,0.6713664,-0.41154742,0.18154652,0.3873957,0.9038615,0.7662539,-0.6318162,0.116889715,,0.03216947,-0.026597984,0.023464262,-0.19469668,0.31656852,0.92837346,0.7154711,-0.60161364,0.35519302,0.6709651,0.7333795,-0.10936348,,0.10609923,1.3403057,0.4403396,0.9953723,0.013132545,-0.09519198,-0.05279805,-0.75294924,-0.65595716,-0.08028912,0.65794754,-0.7487715,,-0.09026979,0.25844696,-0.09522906,-0.6654666,-0.5804787,0.4692533,0.6488769,-0.13915402,0.74806076,-0.36893487,0.80229706,0.4692616,,-0.0018478915,0.3975109,-0.37023738,0.12970994,-0.37194642,-0.919147,0.95422727,0.29876566,0.013760537,0.26949137,-0.87886006,0.39367428,,1.2581644716700344,0.5012208090029191,0.19989310316000003,3.39676739450581,-0.4539064522207932,-1.0595743913408895,-0.4142405517165322,,-0.7736170429425661,-0.3201072776366059,0.18640002055000002,3.3604910342829872,-0.6316705384156313,0.8678554474556444,0.7025428284435351,,-0.055632369907319255,-0.0618370153981591,0.08432137115999999,-0.06574422517700301,,-1.7099082e-05,-7.3313713e-06,9.298325e-06,1.0,4.1682273e-05,3.663078e-05,-4.1689724e-05,1.0,4.4703484e-06,-3.663078e-05,-4.5001507e-06,1.0,603,1.85,1,2,0.125,False,-0.2616653671792948,0.8769132695721629
1.858510349993594,16:06:46.980269,16:06:36.842720,0,,0.11907983,-0.0042416677,0.03307368,0.60684323,0.6790279,-0.4131128,0.17678002,0.3914292,0.9030683,0.77491283,-0.621051,0.117497474,,0.032169454,-0.026601963,0.023462057,-0.19468865,0.31656775,0.9283754,0.7154879,-0.601599,0.35518414,0.6709495,0.73339176,-0.10937594,,0.10609923,1.3403057,0.4403396,0.9953723,0.013132545,-0.09519198,-0.05279805,-0.75294924,-0.65595716,-0.08028912,0.65794754,-0.7487715,,-0.09024715,0.2587911,-0.09554105,-0.65715826,-0.58872086,0.4706918,0.65118605,-0.12893914,0.74788463,-0.37960467,0.7979865,0.46810025,,-0.0018476503,0.39750698,-0.3702397,0.12970309,-0.37194684,-0.9191478,0.95422184,0.29878375,0.0137451785,0.26951396,-0.8788537,0.393673,,1.259284267936797,0.5020548641533353,0.19960791936000002,3.3875410369924905,-0.46497400870179384,-1.0564304104315998,-0.4135871754519953,,-0.7736093202096919,-0.3201304458352286,0.18640131684000003,3.3604910342829872,-0.6316705384156313,0.8678554474556445,0.7028695165758037,,-0.055632369907319255,-0.0618370153981591,0.08432137115999999,-0.06574422517700301,,-1.7099082e-05,-7.3313713e-06,9.298325e-06,1.0,4.1682273e-05,3.663078e-05,-4.1689724e-05,1.0,4.4703484e-06,-3.663078e-05,-4.5001507e-06,1.0,616,1.891,1,2,0.166,False,-0.26202283349042155,0.8769615497729424
1.8991730330162682,16:06:47.020626,16:06:37.068347,0,,0.1190311,-0.0041378587,0.033641472,0.5910569,0.6928482,-0.4130531,0.17054129,0.39316034,0.9035158,0.7883954,-0.604472,0.11422083,,0.032172475,-0.026605777,0.023462713,-0.19468853,0.31654677,0.92838264,0.71550214,-0.60159147,0.3551681,0.6709343,0.733407,-0.10936698,,0.10609923,1.3403057,0.4403396,0.9953723,0.013132545,-0.09519198,-0.05279805,-0.75294924,-0.65595716,-0.08028912,0.65794754,-0.7487715,,-0.090240754,0.25924984,-0.09589464,-0.6431625,-0.6037727,0.470957,0.6556583,-0.11652608,0.746012,-0.39554292,0.7885938,0.47081378,,-0.0018506816,0.3975054,-0.37024322,0.12970412,-0.37192732,-0.91915554,0.95421606,0.2988023,0.013744172,0.26953393,-0.87885565,0.3936549,,1.2605816870596667,0.5031669376872238,0.19929940234000001,3.3718142912311517,-0.48164366167317757,-1.0461045757862588,-0.41424055171653196,,-0.7736247656754403,-0.3201536140338513,0.18640131684000003,3.3604910342829872,-0.6316705384156313,0.8678554474556445,0.7030328606419379,,-0.055632369907319255,-0.0618370153981591,0.08432137115999999,-0.06574422517700301,,-1.7099082e-05,-7.3313713e-06,9.298325e-06,1.0,4.1682273e-05,3.663078e-05,-4.1689724e-05,1.0,4.4703484e-06,-3.663078e-05,-4.5001507e-06,1.0,625,1.92,1,2,0.195,False,-0.2618441003348577,0.8765753081667067
1.93951635499252,16:06:47.061081,16:06:37.068347,0,,0.11899105,-0.004048802,0.034125134,0.5755243,0.70678645,-0.41136897,0.16138908,0.3949726,0.9044061,0.8017015,-0.5868982,0.113248646,,0.032176577,-0.026616372,0.023462713,-0.19467941,0.31651327,0.9283959,0.7155429,-0.60156345,0.3551333,0.67089355,0.7334444,-0.10936687,,0.10609923,1.3403057,0.4403396,0.9953723,0.013132545,-0.09519198,-0.05279805,-0.75294924,-0.65595716,-0.08028912,0.65794754,-0.7487715,,-0.0902367,0.2596411,-0.09619527,-0.6296317,-0.61902314,0.46944034,0.65785545,-0.10338422,0.7460147,-0.41326767,0.7785384,0.47232172,,-0.0018546577,0.39749965,-0.37025216,0.12969811,-0.3718974,-0.9191685,0.95420104,0.2988512,0.0137255415,0.2695901,-0.87885165,0.39362532,,1.2617092060593036,0.5039314882417719,0.19905958869,3.3581844449046576,-0.5006361351405738,-1.036825071423139,-0.41358717545199486,,-0.7736402111411887,-0.32021539589684506,0.18640131684000003,3.3604910342829872,-0.6316705384156313,0.8678554474556444,0.7031962047080722,,-0.055632369907319255,-0.0618370153981591,0.08432137115999999,-0.06574422517700301,,-1.7099082e-05,-7.3313713e-06,9.298325e-06,1.0,4.1682273e-05,3.663078e-05,-4.1689724e-05,1.0,4.4703484e-06,-3.663078e-05,-4.5001507e-06,1.0,634,1.948,1,2,0.223,False,-0.26106958999408425,0.8771546705760604
1.979987130034715,16:06:47.088608,16:06:37.068347,0,,0.1189497,-0.003987089,0.03438197,0.5618136,0.7176997,-0.41142726,0.15568751,0.39672083,0.90464044,0.8124818,-0.57229346,0.11114621,,0.03217722,-0.026620395,0.023462236,-0.19467402,0.31642994,0.9284255,0.7155589,-0.6015802,0.3550729,0.67087805,0.7334666,-0.10931226,,0.10609923,1.3403057,0.4403396,0.9953723,0.013132545,-0.09519198,-0.05279805,-0.75294924,-0.65595716,-0.08028912,0.65794754,-0.7487715,,-0.09021348,0.25985956,-0.09634765,-0.6174163,-0.63101256,0.46970227,0.660905,-0.09228255,0.74477416,-0.42661652,0.7702643,0.4740161,,-0.0018552245,0.39749718,-0.3702554,0.1296939,-0.37181613,-0.91920197,0.95419544,0.2988683,0.013739379,0.26961184,-0.87888026,0.39354664,,1.2623347474221156,0.5041168338307533,0.19896107065000002,3.345183668408617,-0.5153928771152414,-1.0288758748309534,-0.4132604873197263,,-0.7736402111411887,-0.32023856409546775,0.18640131684000003,3.3604910342829872,-0.6316705384156313,0.8679371261957849,0.7030328606419379,,-0.055632369907319255,-0.0618370153981591,0.08432137115999999,-0.06574422517700301,,-1.7099082e-05,-7.3313713e-06,9.298325e-06,1.0,4.1682273e-05,3.663078e-05,-4.1689724e-05,1.0,4.4703484e-06,-3.663078e-05,-4.5001507e-06,1.0,643,1.977,1,2,0.252,False,-0.2607717014014801,0.8776374725838547
2.0074949900154024,16:06:47.109002,16:06:37.068347,0,,0.11892961,-0.003970146,0.034521654,0.5526236,0.7262277,-0.40890127,0.15042174,0.3956563,0.9059965,0.819744,-0.5621828,0.10940847,,0.03217884,-0.026623003,0.023462474,-0.19467305,0.31641823,0.9284297,0.71556866,-0.6015744,0.355063,0.6708679,0.7334764,-0.10930866,,0.10609923,1.3403057,0.4403396,0.9953723,0.013132545,-0.09519198,-0.05279805,-0.75294924,-0.65595716,-0.08028912,0.65794754,-0.7487715,,-0.09020454,0.25996608,-0.09644134,-0.60934514,-0.6404572,0.46745384,0.6619048,-0.08628175,0.74460554,-0.43655527,0.76313174,0.47649708,,-0.0018568345,0.39749596,-0.3702577,0.1296937,-0.3718053,-0.9192064,0.9541916,0.2988806,0.013737115,0.26962543,-0.8788806,0.39353645,,1.2626436567370847,0.5040318837691369,0.19890792276000002,3.336796070669236,-0.5271436160950693,-1.0213359036165754,-0.41326048731972653,,-0.7736479338740629,-0.3202540095612162,0.18640131684000003,3.3604910342829872,-0.6316705384156313,0.8679371261957849,0.7030328606419379,,-0.055632369907319255,-0.0618370153981591,0.08432137115999999,-0.06574422517700301,,-1.7099082e-05,-7.3313713e-06,9.298325e-06,1.0,4.1682273e-05,3.663078e-05,-4.1689724e-05,1.0,4.4703484e-06,-3.663078e-05,-4.5001507e-06,1.0,656,2.018,1,2,0.293,False,-0.26101001227556386,0.8776374725838547
2.0279069370008074,16:06:47.150501,16:06:37.068347,0,,0.11886586,-0.0039432496,0.034753516,0.5329778,0.74163413,-0.40732443,0.14027074,0.3972916,0.9069089,0.83442116,-0.5404981,0.10771808,,0.03219715,-0.026651949,0.023481667,-0.19468611,0.31634176,0.928453,0.7155796,-0.6015862,0.35502094,0.67085266,0.73349977,-0.109247275,,0.10608371,1.340307,0.44035184,0.9953724,0.013133847,-0.095190845,-0.05279633,-0.75294924,-0.6559573,-0.08028912,0.65794754,-0.7487715,,-0.09014333,0.26013502,-0.096592724,-0.59192973,-0.65754324,0.4661074,0.6642897,-0.07050886,0.74414223,-0.456441,0.75011027,0.47853547,,-0.0018600227,0.3974894,-0.37028307,0.12970638,-0.37173042,-0.9192349,0.95418507,0.2989002,0.01376537,0.26964247,-0.87890565,0.3934689,,1.262929397853431,0.5036766380569225,0.19881977504,3.3204402550774432,-0.5492787290570706,-1.0103105748698433,-0.41179039072451795,,-0.7736633793398113,-0.32026173229409044,0.18640390942,3.3604910342829872,-0.6316705384156313,0.867937126195785,0.7027061725096694,,-0.055632369907319255,-0.0618370153981591,0.08432137115999999,-0.06574422517700301,,-3.3594668e-05,-4.7683716e-07,7.1525574e-07,1.0,4.2978674e-05,3.7763268e-05,-4.29824e-05,1.0000001,4.5895576e-06,-3.7766993e-05,-4.61936e-06,1.0,665,2.047,1,2,0.322,False,-0.2617249448978165,0.8774926319815166
2.0694091970217414,16:06:47.181333,16:06:37.068347,0,,0.118856505,-0.003981374,0.034868255,0.52231866,0.7501833,-0.4054725,0.13398632,0.39738506,0.9078178,0.84215844,-0.5284979,0.10704735,,0.03220042,-0.026651591,0.023480296,-0.19453427,0.31631717,0.92849326,0.71555877,-0.6016819,0.35490087,0.67091894,0.73343194,-0.10929582,,0.10608371,1.340307,0.44035184,0.9953724,0.013133847,-0.095190845,-0.05279633,-0.75294924,-0.6559573,-0.08028912,0.65794754,-0.7487715,,-0.09014716,0.26018402,-0.09670362,-0.58252144,-0.667085,0.46439898,0.6648572,-0.062380314,0.7443612,-0.46758282,0.74236536,0.47985414,,-0.0018631641,0.39748818,-0.37028196,0.12954965,-0.37169918,-0.9192696,0.95421946,0.29879537,0.013659545,0.26959625,-0.8789545,0.39339143,,1.262929397853431,0.5033059468789598,0.19876662715,3.3118429673945777,-0.5622591965347875,-1.003728132285571,-0.4139138635842634,,-0.7736711020726856,-0.32026173229409044,0.18640650200000003,3.3607007242264717,-0.6316705384156313,0.8678554474556445,0.7028695165758037,,-0.055632369907319255,-0.0618370153981591,0.08432137115999999,-0.06574422517700301,,-3.3594668e-05,-4.7683716e-07,7.1525574e-07,1.0,4.2978674e-05,3.7763268e-05,-4.29824e-05,1.0000001,4.5895576e-06,-3.7766993e-05,-4.61936e-06,1.0,674,2.075,1,2,0.35,False,-0.2608908568385213,0.8772995111783986
2.1002304580179043,16:06:47.207192,16:06:37.068347,0,,0.118882984,-0.0039668083,0.03506513,0.50290257,0.7665503,-0.39936134,0.12070173,0.3952307,0.9106175,0.8558739,-0.50615543,0.10623863,,0.032201786,-0.026650712,0.02347821,-0.19484852,0.316491,0.9283681,0.7155971,-0.6014421,0.35522985,0.67078686,0.73355365,-0.10928998,,0.10608371,1.340307,0.44035184,0.9953724,0.013133847,-0.095190845,-0.05279633,-0.75294924,-0.6559573,-0.08028912,0.65794754,-0.7487715,,-0.0901897,0.26032716,-0.096835405,-0.56549466,-0.6854794,0.45862162,0.6642768,-0.0489699,0.7458809,-0.48882735,0.72644335,0.48304027,,-0.0018643548,0.3974867,-0.37028012,0.12987362,-0.37188512,-0.9191487,0.95415026,0.29900783,0.013841486,0.2696852,-0.8788036,0.39366752,,1.2629216751205568,0.5029738693653681,0.19874459022000002,3.297164671350661,-0.5868537664925667,-0.9896354576504762,-0.4140772076503978,,-0.773686547538434,-0.32026173229409044,0.18640909458000002,3.3602813443395028,-0.6316705384156313,0.8678554474556445,0.7028695165758037,,-0.055632369907319255,-0.0618370153981591,0.08432137115999999,-0.06574422517700301,,-3.3594668e-05,-4.7683716e-07,7.1525574e-07,1.0,4.2978674e-05,3.7763268e-05,-4.29824e-05,1.0000001,4.5895576e-06,-3.7766993e-05,-4.61936e-06,1.0,687,2.116,1,2,0.391,False,-0.2603546573718325,0.8779271537885318
2.126032366999425,16:06:47.249649,16:06:37.270546,0,,0.11887451,-0.003891699,0.035407916,0.46238118,0.79149085,-0.39968187,0.100638,0.40100288,0.91053224,0.8809515,-0.46123618,0.10576221,,0.032205544,-0.026655689,0.023477554,-0.1948466,0.3163917,0.9284023,0.7156167,-0.6014595,0.35516095,0.67076653,0.73358214,-0.10922286,,0.10608371,1.340307,0.44035184,0.9953724,0.013133847,-0.095190845,-0.05279633,-0.75294924,-0.6559573,-0.08028912,0.65794754,-0.7487715,,-0.09020566,0.2606133,-0.09703809,-0.5290456,-0.71375936,0.4589753,0.6663498,-0.0145207755,0.7454979,-0.5254414,0.70024043,0.4832956,,-0.0018679989,0.39748332,-0.37028396,0.12987323,-0.37178844,-0.91918784,0.95414263,0.2990313,0.013861376,0.26971245,-0.8788365,0.39357534,,1.2629139523876824,0.5024023871326755,0.19874588651000002,3.2615173809582916,-0.6300309004184459,-0.96937460952813,-0.41228042292292066,,-0.7737019930041825,-0.3202926232255873,0.18641039087000003,3.3602813443395028,-0.6316705384156313,0.8678554474556444,0.7030328606419379,,-0.055632369907319255,-0.0618370153981591,0.08432137115999999,-0.06574422517700301,,-3.3594668e-05,-4.7683716e-07,7.1525574e-07,1.0,4.2978674e-05,3.7763268e-05,-4.29824e-05,1.0000001,4.5895576e-06,-3.7766993e-05,-4.61936e-06,1.0,696,2.145,0,2,0.397,False,-0.26232072208302704,0.8778305933869723
2.1685513970442116,16:06:47.280931,16:06:37.270546,0,,0.118747346,-0.0038498268,0.03558846,0.42971674,0.8079918,-0.40310347,0.095267564,0.40336227,0.91006774,0.89792407,-0.4294741,0.09635612,,0.032206487,-0.02666226,0.023473918,-0.19483493,0.31646177,0.9283809,0.715644,-0.6014076,0.35519367,0.6707407,0.7335944,-0.10929877,,0.10608371,1.340307,0.44035184,0.9953724,0.013133847,-0.095190845,-0.05279633,-0.75294924,-0.6559573,-0.08028912,0.65794754,-0.7487715,,-0.090092055,0.26076588,-0.09715779,-0.49852997,-0.73276466,0.46316716,0.6738346,0.008565104,0.73883253,-0.54535747,0.68042827,0.48949224,,-0.0018685594,0.3974768,-0.37028772,0.12986356,-0.3718598,-0.91916037,0.95413345,0.2990627,0.01381454,0.2697495,-0.8787956,0.39364123,,1.2629216751205568,0.5016687275096241,0.19875107167000003,3.2246119509050155,-0.655172016375287,-0.9456882443825065,-0.41375051951812947,,-0.7736942702713083,-0.32033123688995846,0.18641298345,3.3602813443395028,-0.6316705384156313,0.8678554474556445,0.7041762691048778,,-0.055632369907319255,-0.0618370153981591,0.08432137115999999,-0.06574422517700301,,-3.3594668e-05,-4.7683716e-07,7.1525574e-07,1.0,4.2978674e-05,3.7763268e-05,-4.29824e-05,1.0000001,4.5895576e-06,-3.7766993e-05,-4.61936e-06,1.0,705,2.173,0,2,0.397,False,-0.26112916771260597,0.8778788735877523
2.1998141650110483,16:06:47.310156,16:06:37.270546,0,,0.118576005,-0.0038197786,0.035770908,0.3931745,0.8288378,-0.3980471,0.08816415,0.3969333,0.9136035,0.9152272,-0.3942991,0.08299029,,0.0322098,-0.026668534,0.023471415,-0.19482857,0.31636667,0.9284146,0.71566975,-0.60141855,0.35512337,0.6707151,0.7336265,-0.10924058,,0.10608371,1.340307,0.44035184,0.9953724,0.013133847,-0.095190845,-0.05279633,-0.75294924,-0.6559573,-0.08028912,0.65794754,-0.7487715,,-0.08993567,0.26091105,-0.09729203,-0.46432886,-0.7570753,0.45960388,0.6802646,0.027436804,0.7324529,-0.56713206,0.65275127,0.50227183,,-0.0018715842,0.3974712,-0.37029174,0.12985913,-0.3717677,-0.9191982,0.9541241,0.29909208,0.013826126,0.2697848,-0.8788246,0.39355236,,1.262898506921934,0.5007651677633399,0.19876273828000002,3.18539993147341,-0.6814062243302514,-0.9107373360094604,-0.4134238313858607,,-0.7737019930041825,-0.3203775732872038,0.18641557603000003,3.3602813443395028,-0.6316705384156313,0.867937126195785,0.7040129250387436,,-0.055632369907319255,-0.0618370153981591,0.08432137115999999,-0.06574422517700301,,-3.3594668e-05,-4.7683716e-07,7.1525574e-07,1.0,4.2978674e-05,3.7763268e-05,-4.29824e-05,1.0000001,4.5895576e-06,-3.7766993e-05,-4.61936e-06,1.0,718,2.214,0,2,0.397,False,-0.2607121236829584,0.8774443517807371
2.2290626050089486,16:06:47.344004,16:06:37.270546,0,,0.118238024,-0.00379432,0.03603457,0.33525705,0.855664,-0.3942606,0.075959235,0.3925676,0.9165813,0.9390596,-0.33723807,0.06661552,,0.03221569,-0.026679918,0.02346772,-0.19481763,0.316179,0.92848086,0.7157158,-0.6014445,0.35498655,0.6706692,0.7336862,-0.10912238,,0.10608371,1.340307,0.44035184,0.9953724,0.013133847,-0.095190845,-0.05279633,-0.75294924,-0.6559573,-0.08028912,0.65794754,-0.7487715,,-0.089621335,0.26110768,-0.09750867,-0.409879,-0.7890953,0.45752355,0.68733937,0.0625471,0.72363836,-0.59963644,0.6110781,0.5167395,,-0.0018770207,0.39746174,-0.37029946,0.1298517,-0.37158555,-0.9192729,0.95410717,0.29914483,0.013852839,0.26984823,-0.8788837,0.39337692,,1.2628444477918146,0.4991588393255012,0.19878218263000003,3.119976669106238,-0.7226704472594145,-0.8581396613805304,-0.41440389578266656,,-0.7737174384699309,-0.32043935515019756,0.18641946490000003,3.3602813443395028,-0.6316705384156313,0.8681004836760661,0.7030328606419379,,-0.055632369907319255,-0.0618370153981591,0.08432137115999999,-0.06574422517700301,,-3.3594668e-05,-4.7683716e-07,7.1525574e-07,1.0,4.2978674e-05,3.7763268e-05,-4.29824e-05,1.0000001,4.5895576e-06,-3.7766993e-05,-4.61936e-06,1.0,727,2.243,1,3,0.419,False,-0.2608908568385213,0.8773477913791781
2.2629054629942402,16:06:47.374429,16:06:37.270546,0,,0.118040234,-0.0038017705,0.036155358,0.30470353,0.86815315,-0.3917469,0.06960213,0.38990986,0.918219,0.9499007,-0.30705106,0.058381587,,0.032223955,-0.026691064,0.023465037,-0.19481196,0.31612957,0.92849886,0.71576023,-0.6014172,0.35494325,0.67062336,0.7337299,-0.10910973,,0.10608371,1.340307,0.44035184,0.9953724,0.013133847,-0.095190845,-0.05279633,-0.75294924,-0.6559573,-0.08028912,0.65794754,-0.7487715,,-0.08943619,0.26118368,-0.09762576,-0.38099545,-0.80437124,0.4558831,0.6899674,0.0808662,0.71930915,-0.6154571,0.588598,0.52418023,,-0.0018849211,0.3974532,-0.37030745,0.12984951,-0.37154025,-0.91929156,0.95409,0.2992001,0.013840264,0.2699099,-0.878884,0.39333382,,1.2626977158672041,0.4982552795792169,0.19878866408,3.0843293787138686,-0.7431659222242306,-0.8288484498444207,-0.4147305839149349,,-0.7737483294014279,-0.3205088597460656,0.18642335377000002,3.3602813443395028,-0.6316705384156313,0.8681004836760661,0.7030328606419379,,-0.055632369907319255,-0.0618370153981591,0.08432137115999999,-0.06574422517700301,,-3.3594668e-05,-4.7683716e-07,7.1525574e-07,1.0,4.2978674e-05,3.7763268e-05,-4.29824e-05,1.0000001,4.5895576e-06,-3.7766993e-05,-4.61936e-06,1.0,740,2.284,1,3,0.46,False,-0.26101001227556386,0.8773477913791781
2.2933349669910967,16:06:47.421832,16:06:37.460856,0,,0.11752903,-0.0038289875,0.036416188,0.23549125,0.8909391,-0.3882925,0.051656604,0.38748974,0.9204258,0.9705027,-0.23681009,0.045227587,,0.032238636,-0.026714444,0.023458838,-0.19510773,0.31629118,0.92838174,0.7158942,-0.6010849,0.35523573,0.6703943,0.7339325,-0.109154776,,0.10608371,1.340307,0.44035184,0.9953724,0.013133847,-0.095190845,-0.05279633,-0.75294924,-0.6559573,-0.08028912,0.65794754,-0.7487715,,-0.088953726,0.26133963,-0.09789595,-0.3154949,-0.83339053,0.45378762,0.69063646,0.1262861,0.7120907,-0.65075666,0.5380632,0.53572726,,-0.001898788,0.39743483,-0.3703239,0.13016239,-0.37172186,-0.9191739,0.95398474,0.29952997,0.013959379,0.2701311,-0.87869483,0.39360455,,1.2623656383536126,0.4961778644360505,0.19881329359000002,3.001711540980966,-0.7897589686442458,-0.7639826391776962,-0.412933799187458,,-0.7738101112644217,-0.32065559167067587,0.18643113151000001,3.359861964452534,-0.6316705384156313,0.8680188049359255,0.7031962047080722,,-0.055632369907319255,-0.0618370153981591,0.08432137115999999,-0.06574422517700301,,-3.3594668e-05,-4.7683716e-07,7.1525574e-07,1.0,4.2978674e-05,3.7763268e-05,-4.29824e-05,1.0000001,4.5895576e-06,-3.7766993e-05,-4.61936e-06,1.0,749,2.313,1,3,0.489,False,-0.26106958999408425,0.8779271537885318
2.34073504403932,16:06:47.444955,16:06:37.460856,0,,0.11732568,-0.0038651899,0.036513492,0.20930418,0.89913267,-0.384385,0.04092154,0.38469353,0.92213696,0.97699404,-0.20873676,0.04372409,,0.03225805,-0.02673778,0.023457646,-0.19525954,0.3163322,0.92833585,0.71600497,-0.6008843,0.35535187,0.67023176,0.734079,-0.109167084,,0.10608371,1.340307,0.44035184,0.9953724,0.013133847,-0.095190845,-0.05279633,-0.75294924,-0.6559573,-0.08028912,0.65794754,-0.7487715,,-0.08876323,0.26137856,-0.09801564,-0.29090658,-0.8442253,0.45017448,0.68709326,0.1430869,0.71234053,-0.66578996,0.51653636,0.53843653,,-0.0019177942,0.3974204,-0.37034273,0.13032638,-0.3717772,-0.91912824,0.9539135,0.29975432,0.014011391,0.27030355,-0.87859493,0.39370918,,1.2621494018331343,0.49526658195689205,0.19882755278000003,2.9708871192887414,-0.8101178071092964,-0.7373348864896402,-0.41571064831174054,,-0.7739027840589123,-0.32080232359528615,0.18643631667000002,3.359652274509049,-0.6316705384156313,0.867937126195785,0.7033595487742065,,-0.055632369907319255,-0.0618370153981591,0.08432137115999999,-0.06574422517700301,,-3.3594668e-05,-4.7683716e-07,7.1525574e-07,1.0,4.2978674e-05,3.7763268e-05,-4.29824e-05,1.0000001,4.5895576e-06,-3.7766993e-05,-4.61936e-06,1.0,758,2.341,1,3,0.517,False,-0.26136747858668974,0.8775409121822961
2.363839370023925,16:06:47.477594,16:06:37.460856,0,,0.11685118,-0.0039210916,0.036634013,0.16077238,0.9116414,-0.3782352,0.030107379,0.37851226,0.92510664,0.9865322,-0.1601193,0.03340715,,0.032292258,-0.026762083,0.023465157,-0.19423878,0.31549767,0.9288339,0.7158624,-0.6017861,0.35411105,0.6706807,0.7336993,-0.10896273,,0.10608371,1.340307,0.44035184,0.9953724,0.013133847,-0.095190845,-0.05279633,-0.75294924,-0.6559573,-0.08028912,0.65794754,-0.7487715,,-0.08830708,0.26141888,-0.09819758,-0.24440524,-0.86142474,0.44521177,0.68557084,0.17119408,0.7075911,-0.6857541,0.47816318,0.5487269,,-0.0019522805,0.39741185,-0.3703663,0.12927254,-0.37090445,-0.9196296,0.9541461,0.2990361,0.013517475,0.26998872,-0.8792083,0.39255416,,1.2618868289154106,0.49369114445055023,0.1988379231,2.9067219965824767,-0.8374451070623845,-0.6814813435525847,-0.41326048731972653,,-0.7740417932506484,-0.32095677825277064,0.18644020554000001,3.361120104113441,-0.6318071749153966,0.8679668653593409,0.7038495809726093,,-0.055632369907319255,-0.0618370153981591,0.08432137115999999,-0.06574422517700301,,-3.3594668e-05,-4.7683716e-07,7.1525574e-07,1.0,4.2978674e-05,3.7763268e-05,-4.29824e-05,1.0000001,4.5895576e-06,-3.7766993e-05,-4.61936e-06,1.0,767,2.37,1,3,0.546,False,-0.26148663402373185,0.8771546705760604
2.3965004730271176,16:06:47.506678,16:06:37.460856,0,,0.116435215,-0.0039626285,0.036666468,0.12351276,0.9178872,-0.37713042,0.02830401,0.37662733,0.9259325,0.9919393,-0.12503883,0.02053842,,0.032329384,-0.026797578,0.023464322,-0.19360009,0.3161399,0.9287488,0.71658874,-0.6010126,0.35395548,0.67008936,0.7340568,-0.11018623,,0.10608371,1.340307,0.44035184,0.9953724,0.013133847,-0.095190845,-0.05279633,-0.75294924,-0.6559573,-0.08028912,0.65794754,-0.7487715,,-0.087900154,0.26141053,-0.098298304,-0.20802544,-0.8708726,0.445316,0.6879231,0.19338463,0.69954574,-0.69533247,0.45186645,0.5588644,,-0.0019888468,0.3973902,-0.37039515,0.12867941,-0.37158245,-0.919439,0.9539576,0.29968515,0.012395545,0.27093625,-0.8787009,0.39303723,,1.261693760593555,0.4925636254509135,0.19883921939000002,2.851573541446047,-0.8508354840393977,-0.6369107480524239,-0.4122804229229209,,-0.7742116933738813,-0.321142123841752,0.18644539070000002,3.3615394840004096,-0.6308507194170385,0.8666968675926225,0.7028695165758037,,-0.055632369907319255,-0.0618370153981591,0.08432137115999999,-0.06574422517700301,,-3.3594668e-05,-4.7683716e-07,7.1525574e-07,1.0,4.2978674e-05,3.7763268e-05,-4.29824e-05,1.0000001,4.5895576e-06,-3.7766993e-05,-4.61936e-06,1.0,780,2.411,1,3,0.587,False,-0.26106958999408425,0.8768167091706038
2.4255860880366527,16:06:47.545133,16:06:37.460856,0,,0.115926035,-0.004031159,0.03669758,0.081082724,0.92634887,-0.36783567,0.023118675,0.3672037,0.9298534,0.9964393,-0.08389893,0.008357972,,0.032397375,-0.026853234,0.023461461,-0.19142675,0.3156199,0.929376,0.71747506,-0.60114366,0.35193166,0.6697652,0.7341733,-0.11137445,,0.10608371,1.340307,0.44035184,0.9953724,0.013133847,-0.095190845,-0.05279633,-0.75294924,-0.6559573,-0.08028912,0.65794754,-0.7487715,,-0.087402664,0.26138145,-0.098427095,-0.16669662,-0.8836473,0.43746954,0.68716943,0.21406864,0.69424266,-0.70711416,0.4163436,0.5715309,,-0.0020557854,0.3973541,-0.37043923,0.12653293,-0.37107298,-0.91994256,0.9539592,0.29975936,0.010299193,0.27193964,-0.8788909,0.3919179,,1.2615315832031964,0.4912584835951695,0.19883921939000002,2.790763457835535,-0.8664120450126579,-0.5793674786938632,-0.41309714325359215,,-0.774474266291605,-0.3214355876909725,0.18645964989000002,3.3638460733787396,-0.6294843544193841,0.8655826885556583,0.7028695165758037,,-0.055632369907319255,-0.0618370153981591,0.08432137115999999,-0.06574422517700301,,-3.3594668e-05,-4.7683716e-07,7.1525574e-07,1.0,4.2978674e-05,3.7763268e-05,-4.29824e-05,1.0000001,4.5895576e-06,-3.7766993e-05,-4.61936e-06,1.0,789,2.44,1,3,0.616,False,-0.2617249448978165,0.8766718685682657
2.4640367130050436,16:06:47.577256,16:06:37.602338,0,,0.11557836,-0.0040827245,0.036732897,0.053436115,0.93157834,-0.3595916,0.016282856,0.35924548,0.9331012,0.99843854,-0.055716485,0.0040279627,,0.032449745,-0.026894838,0.023457527,-0.19191445,0.31542963,0.92933995,0.7176988,-0.60076773,0.3521174,0.66938585,0.73456264,-0.11108752,,0.10608371,1.340307,0.44035184,0.9953724,0.013133847,-0.095190845,-0.05279633,-0.75294924,-0.6559573,-0.08028912,0.65794754,-0.7487715,,-0.087064594,0.2613675,-0.098528564,-0.1399564,-0.8919533,0.42992038,0.68349254,0.22712673,0.6937229,-0.7164148,0.3909383,0.5778556,,-0.0021072174,0.3973255,-0.37047127,0.12704895,-0.37092036,-0.91993296,0.95378566,0.30029923,0.01064249,0.27230763,-0.878771,0.39193124,,1.2614698013402026,0.4903935375132564,0.19883921939000002,2.7500836087995366,-0.8791192394908438,-0.5388661585382286,-0.4129337991874582,,-0.7747445619422028,-0.3217136060744446,0.18647909424000003,3.3632170035482862,-0.6294843544193841,0.8657460460359395,0.7028695165758037,,-0.055632369907319255,-0.0618370153981591,0.08432137115999999,-0.06574422517700301,,-3.3594668e-05,-4.7683716e-07,7.1525574e-07,1.0,4.2978674e-05,3.7763268e-05,-4.29824e-05,1.0000001,4.5895576e-06,-3.7766993e-05,-4.61936e-06,1.0,798,2.468,1,3,0.644,False,-0.26136747858668974,0.8760442259581329
