AlexandreBanks6/ExpertPlaybackApp/resources/Motions/P_03/PC1/Data_PC1_1.csv
Task Time,PC1 Time,PC2 Time,Gaze Calib,s_T_psm1,Tx,Ty,Tz,R00,R01,R02,R10,R11,R12,R20,R21,R22,s_T_psm3,Tx,Ty,Tz,R00,R01,R02,R10,R11,R12,R20,R21,R22,cart_T_ecm,Tx,Ty,Tz,R00,R01,R02,R10,R11,R12,R20,R21,R22,ecm_T_psm1,Tx,Ty,Tz,R00,R01,R02,R10,R11,R12,R20,R21,R22,ecm_T_psm3,Tx,Ty,Tz,R00,R01,R02,R10,R11,R12,R20,R21,R22,psm1_joints,q1,q2,q3,q4,q5,q6,jaw,psm3_joints,q1,q2,q3,q4,q5,q6,jaw,ecm_joints,q1,q2,q3,q4,ecmi_T_ecm,Tx,Ty,Tz,R00,R01,R02,R10,R11,R12,R20,R21,R22,Sample #,Task Duration (s),Collisions (binary),Collisions (increments),Cumulative Collision Time (s),Clutch Press,MTMR Angle,MTML Angle
""
lci_T_si,,,,,-0.058161814,0.028812556,0.22338274,0.99118906,-0.064254425,0.115825556,0.028569233,-0.75016135,-0.6606374,0.12933673,0.65812564,-0.741716
rci_T_si,,,,,-0.067850515,0.03317108,0.23398167,0.98941356,-0.079541974,0.12138337,0.022701237,-0.7412876,-0.67080355,0.14333703,0.66645765,-0.73163426
ecm_T_lc,,,,,-4.4061628e-05,-0.00034663224,-0.01840835,-0.99912,0.030754527,0.028518902,-0.031987965,-0.99852574,-0.043852776,0.027128186,-0.04472645,0.9986309
ecm_T_rc,,,,,-0.0043358393,0.01870579,-0.007592615,-0.99555075,-0.052743673,-0.078081585,0.04863213,-0.9973746,0.053654674,-0.08070653,0.04961868,0.9955021
cart_T_ecmi,,,,,0.106117226,1.3403053,0.44034997,0.9953694,0.013090626,-0.0952285,-0.052853465,-0.75295,-0.65595186,-0.08028912,0.65794754,-0.7487715
ecmac_T_ecmrep_psm1,,,,,0.006928962,-0.26080152,-0.2999526,0.99741316,0.06053514,0.03876121,-0.0592658,0.9976933,-0.033100393,-0.040675536,0.030717555,0.99870014
ecmac_T_ecmrep_psm3,,,,,-0.019041438,-0.46633056,-0.5465172,0.99408877,-0.01321918,0.10776258,-0.016145537,0.96352404,0.2671344,-0.107363135,-0.2672952,0.95761496
""
0,16:00:41.901298,NaN,0,,0.12981321,-0.008087769,0.031217054,0.70616823,-0.082856804,-0.703179,0.7021133,0.21021774,0.68032765,0.0914509,-0.9741372,0.20662397,,0.056888044,-0.02763924,0.041981816,-0.65596807,0.02868338,0.75424325,0.50406367,-0.72713685,0.4660385,0.5618057,0.68589306,0.46252036,,0.10622659,1.3403009,0.440352,0.9953648,0.013025605,-0.09528514,-0.052939422,-0.75295115,-0.65594363,-0.08028912,0.65794754,-0.7487715,,-0.10115103,0.2546779,-0.095453426,-0.65411127,0.18482037,0.7334711,0.5802209,-0.49950004,0.6433066,0.48526502,0.8463694,0.21949197,,-0.028160986,0.410914,-0.3796424,0.6007729,-0.07990057,-0.7954167,0.7893321,0.21685612,0.5743938,0.1265966,-0.9729282,0.19334938,,1.1823581257766467,0.5535191560271675,0.20017699067000003,3.4416410424114985,0.4996796796422157,-1.3910306625904636,-0.4224077550232461,,-0.9733809742001315,-0.3396535145412682,0.18347429402,-3.473513913821146,-0.8744735984988189,1.3962355661927597,0.558636706179235,,-0.05614942369822258,-0.06207917983187331,0.08431779928,-0.06639839657179906,,0.00010892749,6.0796738e-06,-8.940697e-06,1.0,-6.466359e-05,-5.6814402e-05,6.4659864e-05,1.0000001,-6.943941e-06,5.6814402e-05,6.943941e-06,1.0,35,0.106,1,1,0.082,False,-0.26333354329788383,0.7325554692415821
0.12539203697815537,16:00:41.926724,NaN,0,,0.12986572,-0.008001529,0.031089738,0.7054767,-0.08074475,-0.7041183,0.7025535,0.21058157,0.67976046,0.093387246,-0.97423595,0.20528792,,0.056888044,-0.02763924,0.041981816,-0.65596807,0.02868338,0.75424325,0.50406367,-0.72713685,0.4660385,0.5618057,0.68589306,0.46252036,,0.10622659,1.3403009,0.440352,0.9953648,0.013025605,-0.09528514,-0.052939422,-0.75295115,-0.65594363,-0.08028912,0.65794754,-0.7487715,,-0.10118514,0.25465602,-0.09529608,-0.65356094,0.18276043,0.73447716,0.5818499,-0.49929982,0.6419894,0.4840546,0.8469347,0.21998373,,-0.028160986,0.410914,-0.3796424,0.6007729,-0.07990057,-0.7954167,0.7893321,0.21685612,0.5743938,0.1265966,-0.9729282,0.19334938,,1.1822345620506591,0.5534805423627964,0.20032995289000002,3.439963522863622,0.4981766781447959,-1.390703531791349,-0.4225710990893803,,-0.9733809742001315,-0.3396535145412682,0.18347429402,-3.473513913821146,-0.8744735984988189,1.3962355661927597,0.558636706179235,,-0.05614942369822258,-0.06207917983187331,0.08431779928,-0.06639839657179906,,0.00010892749,6.0796738e-06,-8.940697e-06,1.0,-6.466359e-05,-5.6814402e-05,6.4659864e-05,1.0000001,-6.943941e-06,5.6814402e-05,6.943941e-06,1.0,47,0.143,1,1,0.119,False,-0.2630356547052788,0.7325071890408026
0.1508014039718546,16:00:41.967914,NaN,0,,0.1298946,-0.007931799,0.031002,0.705589,-0.08029246,-0.70405746,0.7023717,0.2109083,0.679847,0.09390494,-0.97420263,0.20520978,,0.05688808,-0.027638748,0.041981936,-0.655865,0.028645743,0.75433433,0.5041077,-0.727184,0.4659172,0.5618865,0.6858446,0.46249413,,0.10622659,1.3403009,0.440352,0.9953648,0.013025605,-0.09528514,-0.052939422,-0.75295115,-0.65594363,-0.08028912,0.65794754,-0.7487715,,-0.10120059,0.2546486,-0.095181614,-0.6537325,0.18233408,0.7344305,0.5820634,-0.4990362,0.64200085,0.48356605,0.8471819,0.22010617,,-0.028161038,0.41091433,-0.37964204,0.60066295,-0.079858474,-0.79550403,0.7894157,0.21679352,0.57430255,0.1265972,-0.97294563,0.19326137,,1.1821805029205394,0.5534805423627964,0.20044273012000002,3.439963522863622,0.4976301321457341,-1.3906662538772663,-0.4224077550232461,,-0.9733732514672572,-0.3396535145412682,0.18347429402,-3.4733042238776615,-0.8744735984988189,1.3961538874526191,0.5588000502453694,,-0.05614942369822258,-0.06207917983187331,0.08431779928,-0.06639839657179906,,0.00010892749,6.0796738e-06,-8.940697e-06,1.0,-6.466359e-05,-5.6814402e-05,6.4659864e-05,1.0000001,-6.943941e-06,5.6814402e-05,6.943941e-06,1.0,55,0.167,1,1,0.143,False,-0.26249945523859,0.7322657880369055
0.19200654496671632,16:00:41.997238,NaN,0,,0.1299202,-0.007893674,0.030933395,0.705833,-0.078978926,-0.7039615,0.70198053,0.21124372,0.6801469,0.094990164,-0.9742373,0.20454448,,0.05688882,-0.02763863,0.041980922,-0.655865,0.028584126,0.75433666,0.5041077,-0.72722214,0.4658578,0.5618865,0.6858069,0.46255016,,0.10622659,1.3403009,0.440352,0.9953648,0.013025605,-0.09528514,-0.052939422,-0.75295115,-0.65594363,-0.08028912,0.65794754,-0.7487715,,-0.10121695,0.25463063,-0.09510273,-0.6541013,0.18105917,0.7344175,0.58250344,-0.49881294,0.6417752,0.48253623,0.8475867,0.22080661,,-0.028161684,0.41091347,-0.37964135,0.60066295,-0.0797935,-0.79551053,0.7894157,0.21674661,0.57432026,0.1265972,-0.9729614,0.1931819,,1.182087830126049,0.5534033150340542,0.20051791494,3.439963522863622,0.4964004036478451,-1.3900718864447013,-0.4219177228248432,,-0.9733732514672572,-0.3396535145412682,0.18347559031000002,-3.4733042238776615,-0.8744735984988189,1.3962355661927597,0.5589633943115035,,-0.05614942369822258,-0.06207917983187331,0.08431779928,-0.06639839657179906,,0.00010892749,6.0796738e-06,-8.940697e-06,1.0,-6.466359e-05,-5.6814402e-05,6.4659864e-05,1.0000001,-6.943941e-06,5.6814402e-05,6.943941e-06,1.0,63,0.192,1,1,0.168,False,-0.2632143878608417,0.7311553434189779
0.221331425011158,16:00:42.019153,NaN,0,,0.12993951,-0.00784976,0.030856594,0.7060735,-0.07782508,-0.7038487,0.7015951,0.21168813,0.68040633,0.096043706,-0.97423375,0.20406912,,0.056889877,-0.02763857,0.041981637,-0.6558675,0.028515741,0.75433713,0.5041084,-0.72726166,0.46579537,0.56188303,0.68576777,0.46261233,,0.10622659,1.3403009,0.440352,0.9953648,0.013025605,-0.09528514,-0.052939422,-0.75295115,-0.65594363,-0.08028912,0.65794754,-0.7487715,,-0.1012259,0.25461143,-0.09501467,-0.6544635,0.17994802,0.7343679,0.5829265,-0.49848306,0.64164734,0.48153314,0.8480173,0.22134252,,-0.0281628,0.410914,-0.37964165,0.6006657,-0.07972165,-0.79551566,0.7894133,0.21669836,0.57434183,0.12659946,-0.97297806,0.19309661,,1.1820337709959292,0.5533029195066892,0.20060217379000003,3.439963522863622,0.49517067514995616,-1.3896408764924173,-0.42240775502324623,,-0.9733809742001315,-0.3396535145412682,0.18347559031000002,-3.4733042238776615,-0.8744735984988189,1.3963989236730407,0.5563498892533552,,-0.05614942369822258,-0.06207917983187331,0.08431779928,-0.06639839657179906,,0.00010892749,6.0796738e-06,-8.940697e-06,1.0,-6.466359e-05,-5.6814402e-05,6.4659864e-05,1.0000001,-6.943941e-06,5.6814402e-05,6.943941e-06,1.0,76,0.233,1,1,0.209,False,-0.2626781883941529,0.7305759810096242
0.24324738298309967,16:00:42.052596,NaN,0,,0.12997691,-0.007741712,0.030695423,0.7065555,-0.075774126,-0.70358884,0.7008149,0.212856,0.6808459,0.098172635,-0.974141,0.20349826,,0.05689203,-0.027638108,0.041983187,-0.65576947,0.028341308,0.754429,0.5041538,-0.7273878,0.4655491,0.5619568,0.6856411,0.46271035,,0.10622659,1.3403009,0.440352,0.9953648,0.013025605,-0.09528514,-0.052939422,-0.75295115,-0.65594363,-0.08028912,0.65794754,-0.7487715,,-0.101240315,0.25458294,-0.09481965,-0.65519136,0.17799504,0.7341948,0.58378035,-0.4975589,0.6415884,0.4795047,0.84897166,0.2220863,,-0.028165083,0.41091543,-0.37964195,0.6005612,-0.07953584,-0.7956131,0.78949195,0.21653931,0.5742937,0.12660459,-0.97302866,0.19283801,,1.1819797118658097,0.5531407421163305,0.20078883955000001,3.439963522863622,0.49271121815417823,-1.389105571548412,-0.42224441095711174,,-0.9733886969330057,-0.3396535145412682,0.18347559031000002,-3.473094533934177,-0.8744735984988189,1.3963989236730407,0.5566765773856237,,-0.05614942369822258,-0.06207917983187331,0.08431779928,-0.06639839657179906,,0.00010892749,6.0796738e-06,-8.940697e-06,1.0,-6.466359e-05,-5.6814402e-05,6.4659864e-05,1.0000001,-6.943941e-06,5.6814402e-05,6.943941e-06,1.0,84,0.257,1,1,0.233,False,-0.2637505873275314,0.7305277008088447
0.2766896229586564,16:00:42.080922,NaN,0,,0.13001892,-0.0076108724,0.03049831,0.7070841,-0.07316513,-0.70333385,0.6999488,0.21380255,0.68144,0.100516886,-0.97413313,0.20238829,,0.056897357,-0.027637526,0.041986883,-0.6556787,0.028208181,0.7545128,0.5042012,-0.72748035,0.46535313,0.5620201,0.6855484,0.46277088,,0.10622659,1.3403009,0.440352,0.9953648,0.013025605,-0.09528514,-0.052939422,-0.75295115,-0.65594363,-0.08028912,0.65794754,-0.7487715,,-0.10125433,0.25454715,-0.09458246,-0.65599144,0.17547803,0.7340863,0.5847154,-0.49685642,0.6412812,0.47726625,0.84990656,0.22332886,,-0.028170714,0.4109185,-0.37964317,0.600465,-0.0793944,-0.7956999,0.7895632,0.21642318,0.5742395,0.12661651,-0.97306603,0.19264144,,1.18192565273569,0.5529399510616007,0.20101698659000003,3.439963522863622,0.48997848815886946,-1.3880207158364515,-0.42208106689097735,,-0.9734273105973767,-0.3396535145412682,0.18347559031000002,-3.4728848439906925,-0.8744735984988189,1.3963989236730407,0.5566765773856237,,-0.05614942369822258,-0.06207917983187331,0.08431779928,-0.06639839657179906,,0.00010892749,6.0796738e-06,-8.940697e-06,1.0,-6.466359e-05,-5.6814402e-05,6.4659864e-05,1.0000001,-6.943941e-06,5.6814402e-05,6.943941e-06,1.0,92,0.282,1,1,0.258,False,-0.26243987752006825,0.7305277008088447
0.304990008007735,16:00:42.103750,NaN,0,,0.1300448,-0.0075336173,0.030360252,0.7072059,-0.07310918,-0.7032172,0.69975203,0.21451059,0.6814196,0.101029515,-0.9739816,0.20286149,,0.056899473,-0.027637482,0.041988373,-0.65568364,0.028194651,0.754509,0.5042026,-0.72748333,0.465347,0.5620131,0.6855458,0.46278322,,0.10622659,1.3403009,0.440352,0.9953648,0.013025605,-0.09528514,-0.052939422,-0.75295115,-0.65594363,-0.08028912,0.65794754,-0.7487715,,-0.101261765,0.25451145,-0.09442635,-0.65617305,0.17546473,0.73392713,0.58491445,-0.49623063,0.6415842,0.47677255,0.8502748,0.2229813,,-0.028172946,0.4109196,-0.3796438,0.6004705,-0.07938067,-0.7956971,0.7895583,0.21642052,0.57424724,0.12662105,-0.97306776,0.1926298,,1.181848425406948,0.5527932191369904,0.20117254139000001,3.439963522863622,0.4892953056600422,-1.388607128679937,-0.4220810668909776,,-0.9734427560631252,-0.3396535145412682,0.18347559031000002,-3.4728848439906925,-0.8744735984988189,1.3963989236730407,0.5566765773856237,,-0.05614942369822258,-0.06207917983187331,0.08431779928,-0.06639839657179906,,0.00010892749,6.0796738e-06,-8.940697e-06,1.0,-6.466359e-05,-5.6814402e-05,6.4659864e-05,1.0000001,-6.943941e-06,5.6814402e-05,6.943941e-06,1.0,105,0.323,1,1,0.299,False,-0.2631548101423209,0.7303828602065061
0.3278188109979965,16:00:42.138439,NaN,0,,0.13012995,-0.0073236153,0.030051753,0.70791364,-0.06964946,-0.7028562,0.6985607,0.2159459,0.6821881,0.104264855,-0.9739181,0.20152543,,0.056899607,-0.027638793,0.041988194,-0.65568143,0.028191369,0.75451106,0.504209,-0.7274791,0.46534657,0.56200993,0.68555045,0.4627803,,0.10622659,1.3403009,0.440352,0.9953648,0.013025605,-0.09528514,-0.052939422,-0.75295115,-0.65594363,-0.08028912,0.65794754,-0.7487715,,-0.10130258,0.25445926,-0.09404934,-0.6572552,0.17213647,0.733747,0.5862079,-0.49512994,0.6412539,0.4736833,0.85159576,0.22451895,,-0.028173054,0.41091877,-0.37964484,0.6004685,-0.07937784,-0.7956989,0.7895586,0.21642686,0.5742444,0.12662832,-0.97306657,0.19263098,,1.1816708025508407,0.5525692598836379,0.20153809517000001,3.439963522863622,0.48560612016637533,-1.387395777563226,-0.4220810668909776,,-0.9734350333302509,-0.3396612372741424,0.18347559031000002,-3.4728848439906925,-0.8744735984988189,1.3963989236730407,0.5566765773856237,,-0.05614942369822258,-0.06207917983187331,0.08431779928,-0.06639839657179906,,0.00010892749,6.0796738e-06,-8.940697e-06,1.0,-6.466359e-05,-5.6814402e-05,6.4659864e-05,1.0000001,-6.943941e-06,5.6814402e-05,6.943941e-06,1.0,109,0.335,1,1,0.311,False,-0.2630356547052788,0.7303828602065061
0.36253355199005455,16:00:42.168493,NaN,0,,0.1301853,-0.0071713626,0.029829338,0.7080486,-0.06760258,-0.70292014,0.6981355,0.2166824,0.68238986,0.10617909,-0.9738987,0.20061746,,0.05690144,-0.027638137,0.041987956,-0.6555809,0.02808528,0.7546024,0.5042537,-0.72756577,0.4651627,0.56208724,0.6854629,0.4628161,,0.10622659,1.3403009,0.440352,0.9953648,0.013025605,-0.09528514,-0.052939422,-0.75295115,-0.65594363,-0.08028912,0.65794754,-0.7487715,,-0.101325944,0.25442228,-0.0937777,-0.65759164,0.17016011,0.7339065,0.5871805,-0.49457446,0.6407926,0.47200873,0.8523155,0.22531332,,-0.028174868,0.4109188,-0.3796441,0.6003613,-0.07926383,-0.79579115,0.7896397,0.21631606,0.5741746,0.12663113,-0.97310054,0.19245766,,1.18157812975635,0.5524225279590276,0.20180383462,3.4395441429766533,0.48355657266989377,-1.386786332629607,-0.42224441095711196,,-0.9734350333302509,-0.3396612372741424,0.18347688660000003,-3.4726751540472076,-0.8744735984988189,1.3963989236730407,0.5566765773856237,,-0.05614942369822258,-0.06207917983187331,0.08431779928,-0.06639839657179906,,0.00010892749,6.0796738e-06,-8.940697e-06,1.0,-6.466359e-05,-5.6814402e-05,6.4659864e-05,1.0000001,-6.943941e-06,5.6814402e-05,6.943941e-06,1.0,126,0.388,1,1,0.364,False,-0.26249945523859,0.7297069373955942
0.39258071198128164,16:00:42.203873,NaN,0,,0.13025154,-0.006959565,0.029515013,0.70851004,-0.06488315,-0.7027114,0.69713914,0.21899,0.6826718,0.109592915,-0.9735674,0.20038924,,0.056902632,-0.027639434,0.04198855,-0.6555811,0.0281985,0.75459796,0.5042608,-0.72748697,0.4652781,0.5620804,0.68554175,0.46270743,,0.10622659,1.3403009,0.440352,0.9953648,0.013025605,-0.09528514,-0.052939422,-0.75295115,-0.65594363,-0.08028912,0.65794754,-0.7487715,,-0.101347305,0.25436753,-0.09339744,-0.6584296,0.16761185,0.7337416,0.5887386,-0.4926473,0.6408475,0.46888945,0.85393494,0.22569399,,-0.028176092,0.4109185,-0.37964547,0.60036206,-0.079384126,-0.7957786,0.78963757,0.21641485,0.5741403,0.12664068,-0.9730687,0.19261196,,1.181508625160482,0.5521367868426813,0.20217198098000003,3.4391247630896835,0.4797307506764614,-1.3868521021915892,-0.4220810668909777,,-0.9734427560631252,-0.33966896000701663,0.18347688660000003,-3.4726751540472076,-0.8744735984988189,1.3962355661927597,0.5560232011210866,,-0.05614942369822258,-0.06207917983187331,0.08431779928,-0.06639839657179906,,0.00010892749,6.0796738e-06,-8.940697e-06,1.0,-6.466359e-05,-5.6814402e-05,6.4659864e-05,1.0000001,-6.943941e-06,5.6814402e-05,6.943941e-06,1.0,134,0.413,1,1,0.389,False,-0.2629164992682367,0.7293206957893581
0.4279475269722752,16:00:42.233932,NaN,0,,0.13028912,-0.0068194717,0.02930881,0.7087356,-0.062817045,-0.7026717,0.69653714,0.22034717,0.6828495,0.111937165,-0.97339666,0.19992228,,0.056902453,-0.027640626,0.041986585,-0.65557647,0.028140347,0.75460416,0.5042666,-0.72751933,0.4652213,0.56208074,0.68550986,0.46275437,,0.10622659,1.3403009,0.440352,0.9953648,0.013025605,-0.09528514,-0.052939422,-0.75295115,-0.65594363,-0.08028912,0.65794754,-0.7487715,,-0.1013554,0.25433245,-0.09314791,-0.6589079,0.16565183,0.7337574,0.5898695,-0.4915307,0.64066494,0.46679157,0.85496026,0.2261605,,-0.02817573,0.41091624,-0.3796455,0.60035735,-0.07932316,-0.7957882,0.78964037,0.21637563,0.5741512,0.12664568,-0.9730824,0.19253947,,1.1815009024276077,0.5519359957879515,0.20241309092,3.438705383202715,0.4771346571809181,-1.3866137730445902,-0.4219177228248433,,-0.9734350333302509,-0.3396766827398908,0.18347818289,-3.4726751540472076,-0.8744735984988189,1.3963172449329002,0.5558598570549522,,-0.05614942369822258,-0.06207917983187331,0.08431779928,-0.06639839657179906,,0.00010892749,6.0796738e-06,-8.940697e-06,1.0,-6.466359e-05,-5.6814402e-05,6.4659864e-05,1.0000001,-6.943941e-06,5.6814402e-05,6.943941e-06,1.0,147,0.454,0,1,0.421,False,-0.26309523242380006,0.7289827343839019
0.4579509479808621,16:00:42.279931,NaN,0,,0.13031003,-0.006688781,0.029063419,0.7096473,-0.06078989,-0.70192933,0.69525504,0.22177628,0.68369293,0.114109635,-0.9732008,0.19964743,,0.056904037,-0.027641132,0.041989148,-0.65537304,0.027924862,0.7547888,0.5043623,-0.7276883,0.46485317,0.56223214,0.68533933,0.46282312,,0.10622659,1.3403009,0.440352,0.9953648,0.013025605,-0.09528514,-0.052939422,-0.75295115,-0.65594363,-0.08028912,0.65794754,-0.7487715,,-0.10134422,0.25426412,-0.09287786,-0.6601059,0.16373393,0.7331108,0.5903807,-0.4903439,0.64110327,0.46444675,0.85601056,0.22701353,,-0.028177528,0.41091806,-0.3796472,0.6001408,-0.07909228,-0.7959745,0.7898029,0.21616039,0.57400876,0.12665848,-0.97314906,0.19219398,,1.1814854569618594,0.5515189682127434,0.2026749415,3.439334453033169,0.47412865418607836,-1.3860411901865017,-0.4217543787587089,,-0.9734350333302509,-0.33968440547276507,0.18347688660000003,-3.4722557741602387,-0.8744735984988189,1.3963172449329002,0.5552064807904151,,-0.05614942369822258,-0.06207917983187331,0.08431779928,-0.06639839657179906,,0.00010892749,6.0796738e-06,-8.940697e-06,1.0,-6.466359e-05,-5.6814402e-05,6.4659864e-05,1.0000001,-6.943941e-06,5.6814402e-05,6.943941e-06,1.0,155,0.478,0,1,0.421,False,-0.26190367805337944,0.7284033719745486
0.5040229170117527,16:00:42.302127,NaN,0,,0.13031179,-0.0066325963,0.028929636,0.71030897,-0.059871107,-0.7013388,0.6944107,0.22257319,0.68429184,0.11512992,-0.97307587,0.19967093,,0.05690431,-0.027643785,0.04198885,-0.6553686,0.02797994,0.7547906,0.5043752,-0.7276419,0.46491176,0.5622256,0.6853863,0.4627614,,0.10622659,1.3403009,0.440352,0.9953648,0.013025605,-0.09528514,-0.052939422,-0.75295115,-0.65594363,-0.08028912,0.65794754,-0.7487715,,-0.10132974,0.25421572,-0.09274181,-0.66091937,0.16287318,0.7325694,0.5904412,-0.48967123,0.64156157,0.4632113,0.85655963,0.22746617,,-0.028177742,0.41091642,-0.3796493,0.6001369,-0.079151616,-0.7959716,0.78980356,0.21621995,0.57398546,0.12667306,-0.973131,0.19227579,,1.181477734228985,0.5512177816306486,0.20280716308000002,3.439963522863622,0.4724890161888931,-1.3857659989639721,-0.421754378758709,,-0.9734350333302509,-0.3396998509385135,0.18347688660000003,-3.4722557741602387,-0.8744735984988189,1.3962355661927597,0.5547164485920123,,-0.05614942369822258,-0.06207917983187331,0.08431779928,-0.06639839657179906,,0.00010892749,6.0796738e-06,-8.940697e-06,1.0,-6.466359e-05,-5.6814402e-05,6.4659864e-05,1.0000001,-6.943941e-06,5.6814402e-05,6.943941e-06,1.0,172,0.532,0,1,0.421,False,-0.26309523242380006,0.7284033719745486
0.5262130780029111,16:00:42.353306,NaN,0,,0.13028896,-0.006522648,0.028603002,0.71150464,-0.057702415,-0.70030797,0.6927408,0.22464511,0.6853066,0.11777693,-0.9727307,0.19980885,,0.0569065,-0.027642846,0.04199046,-0.65516734,0.027767677,0.7549732,0.50446427,-0.72781503,0.464544,0.56238025,0.6852111,0.46283296,,0.10622659,1.3403009,0.440352,0.9953648,0.013025605,-0.09528514,-0.052939422,-0.75295115,-0.65594363,-0.08028912,0.65794754,-0.7487715,,-0.101269595,0.25407743,-0.092431076,-0.6624716,0.16085203,0.7316133,0.5909842,-0.48790845,0.642404,0.4602923,0.85794634,0.22816448,,-0.028180078,0.41091818,-0.37964925,0.5999223,-0.078923516,-0.7961559,0.7899657,0.21599838,0.57384574,0.12667848,-0.9731987,0.19192912,,1.1815395160919788,0.5503296673501128,0.20310919865000002,3.44080228263756,0.46838992119592987,-1.3855272539784207,-0.42159103469257475,,-0.9734350333302509,-0.3396998509385135,0.18347688660000003,-3.47183639427327,-0.8744735984988189,1.3962355661927597,0.5547164485920123,,-0.05614942369822258,-0.06207917983187331,0.08431779928,-0.06639839657179906,,0.00010892749,6.0796738e-06,-8.940697e-06,1.0,-6.466359e-05,-5.6814402e-05,6.4659864e-05,1.0000001,-6.943941e-06,5.6814402e-05,6.943941e-06,1.0,180,0.556,0,1,0.421,False,-0.2631548101423209,0.7268584055496059
0.5773788309888914,16:00:42.375903,NaN,0,,0.13023569,-0.0064946413,0.028391778,0.71232295,-0.056952678,-0.699537,0.6916393,0.22637108,0.685851,0.11929387,-0.97237474,0.20064008,,0.05690875,-0.027644113,0.04199177,-0.6551701,0.0276892,0.7549737,0.5044721,-0.7278517,0.46447802,0.56237006,0.6851753,0.4628983,,0.10622659,1.3403009,0.440352,0.9953648,0.013025605,-0.09528514,-0.052939422,-0.75295115,-0.65594363,-0.08028912,0.65794754,-0.7487715,,-0.101195835,0.25395617,-0.09226347,-0.6635047,0.16021177,0.73081714,0.5911884,-0.48639268,0.64336497,0.45853874,0.8589263,0.2280085,,-0.028182417,0.41091844,-0.37965092,0.5999258,-0.078841925,-0.79616135,0.7899611,0.2159552,0.5738683,0.1266903,-0.9732149,0.19183916,,1.1816553570850923,0.5495187803983193,0.20327253119000002,3.4414313524680136,0.46565719120062105,-1.3860759730692713,-0.4225710990893805,,-0.9734504787959994,-0.3397075736713877,0.18347688660000003,-3.47183639427327,-0.8744735984988189,1.3963172449329002,0.5542264163936094,,-0.05614942369822258,-0.06207917983187331,0.08431779928,-0.06639839657179906,,0.00010892749,6.0796738e-06,-8.940697e-06,1.0,-6.466359e-05,-5.6814402e-05,6.4659864e-05,1.0000001,-6.943941e-06,5.6814402e-05,6.943941e-06,1.0,197,0.61,0,1,0.421,False,-0.262797343831195,0.7265687243449288
0.5999184440006502,16:00:42.430698,NaN,0,,0.13002765,-0.0065620467,0.027958348,0.71555305,-0.05756022,-0.69618267,0.68839574,0.22747892,0.68874156,0.1187228,-0.97208035,0.2023975,,0.056905847,-0.027654141,0.04198897,-0.6551593,0.027748931,0.75498086,0.5044128,-0.7278953,0.4644741,0.56243575,0.68512654,0.4628905,,0.10622659,1.3403009,0.440352,0.9953648,0.013025605,-0.09528514,-0.052939422,-0.75295115,-0.65594363,-0.08028912,0.65794754,-0.7487715,,-0.10095628,0.25361502,-0.092014626,-0.6669166,0.16087613,0.7275583,0.58839995,-0.4853741,0.6466819,0.45717365,0.85937816,0.22904454,,-0.028179185,0.41091114,-0.37965822,0.59991,-0.07889686,-0.79616785,0.78998655,0.21588656,0.57385904,0.12660626,-0.9732257,0.19183998,,1.1819410982014384,0.5472791878647941,0.20352660403000003,3.4460445312246732,0.46224127870648507,-1.3855775302007967,-0.42093765842803754,,-0.9734273105973767,-0.33976935553438153,0.18347688660000003,-3.47183639427327,-0.8746102349985843,1.396346984096456,0.552756319798401,,-0.05614942369822258,-0.06207917983187331,0.08431779928,-0.06639839657179906,,0.00010892749,6.0796738e-06,-8.940697e-06,1.0,-6.466359e-05,-5.6814402e-05,6.4659864e-05,1.0000001,-6.943941e-06,5.6814402e-05,6.943941e-06,1.0,205,0.634,0,1,0.421,False,-0.2616653671792948,0.724975477719207
0.6547623769729398,16:00:42.461185,NaN,0,,0.129922,-0.0065848604,0.02771601,0.7173503,-0.05238498,-0.6947402,0.6856924,0.22973889,0.6906854,0.12342727,-0.9718416,0.2007233,,0.05691061,-0.027661398,0.041989148,-0.65505046,0.027547851,0.75508267,0.5044974,-0.7279974,0.464222,0.5624867,0.68502617,0.4629773,,0.10622659,1.3403009,0.440352,0.9953648,0.013025605,-0.09528514,-0.052939422,-0.75295115,-0.65594363,-0.08028912,0.65794754,-0.7487715,,-0.10083176,0.25343528,-0.09186429,-0.6693292,0.15589371,0.72642654,0.5895612,-0.48354745,0.6469926,0.45212376,0.861324,0.23174356,,-0.02818388,0.41090727,-0.37966442,0.5997964,-0.07868697,-0.7962742,0.7900647,0.21576431,0.57379746,0.12665717,-0.9732698,0.19158246,,1.182195948386288,0.5459122641460563,0.20366012190000002,3.447092980942096,0.45527281721844753,-1.3832440454580421,-0.4211010024941719,,-0.9734427560631252,-0.33981569193162686,0.18347818289,-3.4716267043297857,-0.8746102349985843,1.3964286628365965,0.550959535070924,,-0.05614942369822258,-0.06207917983187331,0.08431779928,-0.06639839657179906,,0.00010892749,6.0796738e-06,-8.940697e-06,1.0,-6.466359e-05,-5.6814402e-05,6.4659864e-05,1.0000001,-6.943941e-06,5.6814402e-05,6.943941e-06,1.0,222,0.687,0,1,0.421,False,-0.2631548101423209,0.724009873703618
0.6852778099710122,16:00:42.504302,NaN,0,,0.12987466,-0.006545894,0.027546749,0.71741396,-0.03748785,-0.6956374,0.6824372,0.23847264,0.69094914,0.13998827,-0.9704254,0.19666673,,0.056913752,-0.027669713,0.041989625,-0.6548338,0.027435798,0.75527465,0.5046316,-0.7280651,0.4639701,0.5626186,0.6849588,0.46291667,,0.10622659,1.3403009,0.440352,0.9953648,0.013025605,-0.09528514,-0.052939422,-0.75295115,-0.65594363,-0.08028912,0.65794754,-0.7487715,,-0.10076675,0.25335035,-0.09171949,-0.6711107,0.14166239,0.7276965,0.5982905,-0.4761502,0.6444606,0.43778867,0.8678783,0.23479424,,-0.02818697,0.41090322,-0.37967172,0.599568,-0.07856893,-0.7964579,0.790229,0.21568093,0.5736025,0.12671344,-0.97329783,0.19140284,,1.1826979260231125,0.5447229632834258,0.20374308446000003,3.4422701122419515,0.43764670874870576,-1.381122946902288,-0.4220810668909779,,-0.9734427560631252,-0.33986975106174644,0.18347818289,-3.471207324442816,-0.8746102349985843,1.3962653053563154,0.5499794706741183,,-0.05614942369822258,-0.06207917983187331,0.08431779928,-0.06639839657179906,,0.00010892749,6.0796738e-06,-8.940697e-06,1.0,-6.466359e-05,-5.6814402e-05,6.4659864e-05,1.0000001,-6.943941e-06,5.6814402e-05,6.943941e-06,1.0,230,0.712,0,1,0.421,False,-0.2636910096090097,0.7231408300895876
0.7283664459828287,16:00:42.534455,NaN,0,,0.12991326,-0.0064194202,0.027529523,0.7174612,-0.026037216,-0.69611144,0.678542,0.25217143,0.6899207,0.15757579,-0.96733224,0.19859058,,0.05693065,-0.027666003,0.042001903,-0.65321296,0.025978088,0.7567285,0.505358,-0.7292796,0.46126413,0.56384945,0.6837225,0.46324664,,0.10622659,1.3403009,0.440352,0.9953648,0.013025605,-0.09528514,-0.052939422,-0.75295115,-0.65594363,-0.08028912,0.65794754,-0.7487715,,-0.100793615,0.2534323,-0.09161779,-0.67301685,0.13109553,0.7279164,0.6072366,-0.4639464,0.6449941,0.42227006,0.8761094,0.23263773,,-0.028204884,0.41091427,-0.37967414,0.59784114,-0.07699941,-0.79790795,0.7915269,0.21411768,0.5723974,0.12677193,-0.9737683,0.18895547,,1.1831844581941886,0.5444758358314506,0.20377419542000003,3.437656933485292,0.41974732727943304,-1.3847415605694025,-0.42224441095711174,,-0.9734350333302509,-0.33989291926036913,0.18347818289,-3.467852285347064,-0.8746102349985843,1.395938590395753,0.5489994062773125,,-0.05614942369822258,-0.06207917983187331,0.08431779928,-0.06639839657179906,,0.00010892749,6.0796738e-06,-8.940697e-06,1.0,-6.466359e-05,-5.6814402e-05,6.4659864e-05,1.0000001,-6.943941e-06,5.6814402e-05,6.943941e-06,1.0,243,0.753,0,1,0.421,False,-0.26297607698675796,0.7222717864755572
0.7585331019945443,16:00:42.572089,NaN,0,,0.12988055,-0.0062780604,0.027562901,0.7185396,-0.016977549,-0.69527847,0.6744756,0.26087776,0.6906705,0.16965678,-0.9652226,0.19890195,,0.056941353,-0.027669668,0.0420084,-0.65229195,0.024999417,0.7575553,0.5057919,-0.73002756,0.45960242,0.56452614,0.68296033,0.46354663,,0.10622659,1.3403009,0.440352,0.9953648,0.013025605,-0.09528514,-0.052939422,-0.75295115,-0.65594363,-0.08028912,0.65794754,-0.7487715,,-0.100752965,0.2535594,-0.09155177,-0.6754741,0.122597344,0.72712076,0.6123513,-0.45609576,0.6457573,0.41080484,0.8814457,0.23300822,,-0.028216064,0.4109172,-0.37968022,0.5968617,-0.07595211,-0.7987411,0.79225564,0.21316066,0.57174605,0.12683487,-0.9740605,0.18740092,,1.1839953451459821,0.5444294994342053,0.20378456574,3.436189103880901,0.40676685980171623,-1.3846934171963747,-0.422407755023246,,-0.9734350333302509,-0.33993925565761446,0.18347818289,-3.465965075855703,-0.8746102349985843,1.395938590395753,0.5489994062773125,,-0.05614942369822258,-0.06207917983187331,0.08431779928,-0.06639839657179906,,0.00010892749,6.0796738e-06,-8.940697e-06,1.0,-6.466359e-05,-5.6814402e-05,6.4659864e-05,1.0000001,-6.943941e-06,5.6814402e-05,6.943941e-06,1.0,247,0.765,0,1,0.421,False,-0.26232072208302704,0.7220303854716601
0.796155045973137,16:00:42.595668,NaN,0,,0.12985499,-0.0062307417,0.027576998,0.7188504,-0.012585811,-0.69505054,0.6732504,0.26167044,0.6915655,0.1731703,-0.9650752,0.19657539,,0.056938253,-0.027682558,0.04200375,-0.6524689,0.025010929,0.7574025,0.50576115,-0.72992784,0.45979464,0.5643492,0.6830665,0.4636058,,0.10622659,1.3403009,0.440352,0.9953648,0.013025605,-0.09528514,-0.052939422,-0.75295115,-0.65594363,-0.08028912,0.65794754,-0.7487715,,-0.100725114,0.25360394,-0.091533534,-0.6761893,0.11828569,0.7271702,0.61380726,-0.45541546,0.6448546,0.40744162,0.8823861,0.23534246,,-0.02821246,0.41090688,-0.3796891,0.59705347,-0.0759736,-0.7985958,0.79210204,0.21330146,0.5719063,0.12689187,-0.974028,0.18753122,,1.1843351453924482,0.5444063312355826,0.20378586203000001,3.4357697239939315,0.4029410378082839,-1.3820637883337183,-0.4214276906264405,,-0.9734195878645026,-0.3400087602534825,0.18347818289,-3.466384455742672,-0.8746102349985843,1.3961836266161747,0.5488360622111783,,-0.05614942369822258,-0.06207917983187331,0.08431779928,-0.06639839657179906,,0.00010892749,6.0796738e-06,-8.940697e-06,1.0,-6.466359e-05,-5.6814402e-05,6.4659864e-05,1.0000001,-6.943941e-06,5.6814402e-05,6.943941e-06,1.0,268,0.831,0,1,0.421,False,-0.2630356547052788,0.7216441438654244
0.819705587986391,16:00:42.653862,NaN,0,,0.12986544,-0.0060549453,0.027639493,0.7210108,0.0037489012,-0.6929134,0.6653049,0.27576488,0.6937748,0.19368204,-0.9612178,0.19633533,,0.056943804,-0.027706176,0.042001307,-0.65212196,0.024697084,0.75771165,0.50601465,-0.7300662,0.45929575,0.564523,0.68293005,0.46359512,,0.10622659,1.3403009,0.440352,0.9953648,0.013025605,-0.09528514,-0.052939422,-0.75295115,-0.65594363,-0.08028912,0.65794754,-0.7487715,,-0.100727186,0.25377604,-0.091460794,-0.68077034,0.1028326,0.72524285,0.62172014,-0.44241098,0.64632547,0.38731873,0.8908973,0.23724717,,-0.028217549,0.41089234,-0.37970796,0.5966904,-0.075647935,-0.798898,0.79235274,0.21313871,0.57161963,0.12703423,-0.97408897,0.18711767,,1.1851923687414871,0.5442750447767207,0.20377160284,3.43430189438954,0.38053265184675167,-1.381025466297164,-0.4212643465603062,,-0.9734118651316284,-0.34015549217809277,0.18347947918000002,-3.4657553859122183,-0.8746102349985843,1.3961019478760344,0.5476926537482383,,-0.05614942369822258,-0.06207917983187331,0.08431779928,-0.06639839657179906,,0.00010892749,6.0796738e-06,-8.940697e-06,1.0,-6.466359e-05,-5.6814402e-05,6.4659864e-05,1.0000001,-6.943941e-06,5.6814402e-05,6.943941e-06,1.0,276,0.855,0,1,0.421,False,-0.26285692154971585,0.7214510230623068
0.877956218959298,16:00:42.685475,NaN,0,,0.12989052,-0.0059682205,0.027685657,0.72187084,0.009471081,-0.6919627,0.6609851,0.28668267,0.6934782,0.20494172,-0.9579788,0.2006877,,0.056947075,-0.027726889,0.0419994,-0.65198576,0.02459963,0.757832,0.50616175,-0.73004705,0.45916402,0.56454843,0.68295395,0.463529,,0.10622659,1.3403009,0.440352,0.9953648,0.013025605,-0.09528514,-0.052939422,-0.75295115,-0.65594363,-0.08028912,0.65794754,-0.7487715,,-0.10074935,0.25387126,-0.09143382,-0.6829581,0.09772258,0.7238912,0.6260952,-0.43216002,0.64903206,0.37626192,0.89648646,0.23396356,,-0.02822044,0.41087994,-0.37972474,0.5965511,-0.07555307,-0.79901093,0.79243857,0.21317658,0.57148653,0.12715285,-0.974088,0.1870419,,1.1855553371865757,0.5442595993109723,0.20375345478,3.4332534446721175,0.36837200336762743,-1.3853213736526402,-0.42093765842803754,,-0.9734118651316284,-0.34027905590408036,0.18347947918000002,-3.4655456959687343,-0.8746102349985843,1.3960202691358938,0.5475293096821041,,-0.05614942369822258,-0.06207917983187331,0.08431779928,-0.06639839657179906,,0.00010892749,6.0796738e-06,-8.940697e-06,1.0,-6.466359e-05,-5.6814402e-05,6.4659864e-05,1.0000001,-6.943941e-06,5.6814402e-05,6.943941e-06,1.0,293,0.909,0,1,0.421,False,-0.2639888982016152,0.7205819794482764
0.9095064380089752,16:00:42.726849,NaN,0,,0.12977855,-0.0058725104,0.027754843,0.7215063,0.013019189,-0.69228524,0.66015583,0.28865665,0.6934492,0.20886073,-0.95734423,0.1996728,,0.0570013,-0.027714953,0.041987896,-0.6518964,0.024420127,0.7579146,0.5062022,-0.7301722,0.45892018,0.56461513,0.68282664,0.46363512,,0.10618482,1.3403025,0.4403478,0.99536616,0.013045141,-0.09526812,-0.052913595,-0.7529508,-0.6559461,-0.08028912,0.65794754,-0.7487715,,-0.10059881,0.25399154,-0.091441214,-0.68302596,0.094291486,0.7242822,0.62810373,-0.4302769,0.6483421,0.37277505,0.89775884,0.23466545,,-0.028233783,0.41087672,-0.37971243,0.59643847,-0.075349666,-0.7991142,0.7925208,0.21301843,0.57143146,0.1271689,-0.9741384,0.18676858,,1.1859260283645383,0.544352272105463,0.20372882527000002,3.4317856150677253,0.3645461813741951,-1.3844886770730764,-0.42159103469257464,,-0.9733964196658799,-0.3403640059656968,0.18348077547000002,-3.46533600602525,-0.8746102349985843,1.3961836266161747,0.546875933417567,,-0.056155968682917556,-0.06207917983187331,0.08431779928,-0.06639839657179906,,6.760284e-05,1.5497208e-06,-2.861023e-06,1.0,-4.52362e-05,-3.9748847e-05,4.522875e-05,1.0,-4.8577785e-06,3.9748847e-05,4.827976e-06,1.0,301,0.933,0,1,0.421,False,-0.2631548101423209,0.719712935834246
0.950907921011094,16:00:42.762242,NaN,0,,0.12979668,-0.0058413073,0.027781084,0.72210616,0.0149188265,-0.6916211,0.65905774,0.28901967,0.6943419,0.2102508,-0.9572069,0.19887047,,0.057002388,-0.027725548,0.041986525,-0.6518788,0.024331875,0.7579326,0.50625396,-0.73017603,0.4588571,0.56458914,0.6828257,0.46366817,,0.10618482,1.3403025,0.4403478,0.99536616,0.013045141,-0.09526812,-0.052913595,-0.7529508,-0.6559461,-0.08028912,0.65794754,-0.7487715,,-0.10061668,0.25403225,-0.09143751,-0.6838306,0.09242156,0.7237637,0.62822527,-0.4299183,0.64846224,0.37109116,0.898125,0.23592974,,-0.028234644,0.41087008,-0.37972084,0.5964226,-0.07526163,-0.7991344,0.7925234,0.2130226,0.57142633,0.1272272,-0.9741443,0.1866981,,1.1859646420289096,0.5445067267629475,0.20372493640000003,3.432414684898179,0.36290654337700984,-1.3831516622287192,-0.42159103469257464,,-0.9733964196658799,-0.3404257878286906,0.18348077547000002,-3.46533600602525,-0.8746102349985843,1.3962653053563154,0.5463859012191641,,-0.056155968682917556,-0.06207917983187331,0.08431779928,-0.06639839657179906,,6.760284e-05,1.5497208e-06,-2.861023e-06,1.0,-4.52362e-05,-3.9748847e-05,4.522875e-05,1.0,-4.8577785e-06,3.9748847e-05,4.827976e-06,1.0,318,0.986,0,1,0.421,False,-0.26351227645344677,0.7197612160350255
0.9863212229683995,16:00:42.805453,NaN,0,,0.12984128,-0.0057921708,0.0277967,0.7228883,0.020261414,-0.6906675,0.6565245,0.29149944,0.6957038,0.21542504,-0.9563564,0.19741933,,0.057007402,-0.02774179,0.041986763,-0.65165067,0.024130747,0.75813514,0.506426,-0.7302566,0.45853895,0.5646981,0.68274665,0.46365187,,0.10618482,1.3403025,0.4403478,0.99536616,0.013045141,-0.09526812,-0.052913595,-0.7529508,-0.6559461,-0.08028912,0.65794754,-0.7487715,,-0.10065848,0.25407907,-0.09141091,-0.6852632,0.08723615,0.72305197,0.6298296,-0.42751792,0.64849293,0.36568972,0.8997879,0.23801841,,-0.028239498,0.4108616,-0.37973475,0.59618443,-0.07505372,-0.79933167,0.79268634,0.21292967,0.5712349,0.12732811,-0.97418064,0.18643941,,1.1859723647617837,0.5445839540916898,0.20373141785,3.4326243748416636,0.3571678103868613,-1.3812491874382484,-0.4219177228248432,,-0.9734041423987541,-0.34052618335605556,0.18348077547000002,-3.4649166261382804,-0.8746102349985843,1.3961836266161747,0.5458958690207611,,-0.056155968682917556,-0.06207917983187331,0.08431779928,-0.06639839657179906,,6.760284e-05,1.5497208e-06,-2.861023e-06,1.0,-4.52362e-05,-3.9748847e-05,4.522875e-05,1.0,-4.8577785e-06,3.9748847e-05,4.827976e-06,1.0,331,1.027,0,1,0.421,False,-0.2637505873275314,0.7187473318186566
1.0295375349815004,16:00:42.846332,NaN,0,,0.1299095,-0.0057050064,0.027810588,0.7240524,0.026564926,-0.68923306,0.65234566,0.29819816,0.6967949,0.22403827,-0.9541342,0.19858153,,0.057005186,-0.02775383,0.04198283,-0.6519359,0.024424609,0.75788045,0.5063465,-0.729966,0.45908904,0.56444013,0.68304694,0.46352375,,0.10618482,1.3403025,0.4403478,0.99536616,0.013045141,-0.09526812,-0.052913595,-0.7529508,-0.6559461,-0.08028912,0.65794754,-0.7487715,,-0.10072061,0.25415283,-0.09135482,-0.6875081,0.08130689,0.7216106,0.6325286,-0.42107397,0.6500802,0.35670742,0.90337473,0.23806281,,-0.028236842,0.41085234,-0.37974322,0.59649134,-0.07537492,-0.7990724,0.79244703,0.21331182,0.57142437,0.12738052,-0.9740722,0.1869693,,1.186018701159029,0.5446766268861805,0.20375475107000002,3.432834064785148,0.3476032554032805,-1.3818628444139769,-0.4207743143619035,,-0.9734041423987541,-0.3405879652190493,0.18348077547000002,-3.4655456959687343,-0.8746102349985843,1.3961836266161747,0.5449158046239555,,-0.056155968682917556,-0.06207917983187331,0.08431779928,-0.06639839657179906,,6.760284e-05,1.5497208e-06,-2.861023e-06,1.0,-4.52362e-05,-3.9748847e-05,4.522875e-05,1.0,-4.8577785e-06,3.9748847e-05,4.827976e-06,1.0,344,1.068,0,1,0.421,False,-0.2630356547052788,0.7176851674015086
1.070399707998149,16:00:42.894264,NaN,0,,0.1299555,-0.0055911317,0.02781345,0.7228172,0.034633324,-0.69017065,0.6504878,0.30299622,0.69646186,0.23323977,-0.9523623,0.19648224,,0.0570046,-0.027768016,0.04197967,-0.65180326,0.024301931,0.75799847,0.50645936,-0.73000103,0.45890898,0.5644921,0.6830139,0.46350914,,0.10618482,1.3403025,0.4403478,0.99536616,0.013045141,-0.09526812,-0.052913595,-0.7529508,-0.6559461,-0.08028912,0.65794754,-0.7487715,,-0.10075758,0.25423896,-0.09127543,-0.6872401,0.07351554,0.72270083,0.6373439,-0.41634163,0.648423,0.34855962,0.9062313,0.23927201,,-0.028235847,0.41084245,-0.37975383,0.59635365,-0.075249545,-0.79918694,0.7925385,0.21327533,0.5713111,0.12745596,-0.9740899,0.1868257,,1.1862889968096269,0.5448079133450423,0.2038027138,3.4294790256893957,0.3387218829185269,-1.3808282649243924,-0.4207743143619034,,-0.9733809742001315,-0.3406729152806658,0.18348077547000002,-3.46533600602525,-0.8746102349985843,1.3961836266161747,0.5434457080287469,,-0.056155968682917556,-0.06207917983187331,0.08431779928,-0.06639839657179906,,6.760284e-05,1.5497208e-06,-2.861023e-06,1.0,-4.52362e-05,-3.9748847e-05,4.522875e-05,1.0,-4.8577785e-06,3.9748847e-05,4.827976e-06,1.0,353,1.097,0,1,0.421,False,-0.2626781883941529,0.7115053017017381
1.1183491389965639,16:00:42.920363,NaN,0,,0.13002536,-0.0054473802,0.02781953,0.72376,0.041949682,-0.68877524,0.64563257,0.31116486,0.6973773,0.24357738,-0.9494297,0.19812459,,0.057007838,-0.027778074,0.04197985,-0.65168715,0.02428595,0.7580988,0.5065554,-0.7299795,0.45883715,0.5645399,0.68303746,0.46341613,,0.10618482,1.3403025,0.4403478,0.99536616,0.013045141,-0.09526812,-0.052913595,-0.7529508,-0.6559461,-0.08028912,0.65794754,-0.7487715,,-0.1008162,0.25434935,-0.091175616,-0.68947065,0.06663329,0.7212422,0.64070237,-0.40833336,0.65020335,0.33783242,0.91039765,0.23884174,,-0.028238993,0.41083726,-0.3797625,0.596233,-0.075235836,-0.7992783,0.7926192,0.21330771,0.57118696,0.12751849,-0.9740839,0.18681446,,1.1865052333301052,0.5449855362011494,0.20386363943000002,3.429269335745911,0.3273810534379953,-1.3818721001753,-0.4214276906264405,,-0.9733886969330057,-0.3407346971436596,0.18348077547000002,-3.4651263160817645,-0.8746102349985843,1.3960202691358936,0.5390354182431214,,-0.056155968682917556,-0.06207917983187331,0.08431779928,-0.06639839657179906,,6.760284e-05,1.5497208e-06,-2.861023e-06,1.0,-4.52362e-05,-3.9748847e-05,4.522875e-05,1.0,-4.8577785e-06,3.9748847e-05,4.827976e-06,1.0,366,1.138,0,1,0.421,False,-0.26243987752006825,0.7031528269668916
1.1444565230049193,16:00:42.964039,NaN,0,,0.13009688,-0.0052336827,0.027807638,0.7252146,0.044918656,-0.6870558,0.64110357,0.319859,0.69762206,0.25109717,-0.9463998,0.20316887,,0.057010785,-0.027796611,0.04197824,-0.6516588,0.02398542,0.75813276,0.50664645,-0.7300719,0.4585895,0.5644909,0.6829493,0.46360564,,0.10618482,1.3403025,0.4403478,0.99536616,0.013045141,-0.09526812,-0.052913595,-0.7529508,-0.6559461,-0.08028912,0.65794754,-0.7487715,,-0.10086938,0.2544994,-0.09101569,-0.69193494,0.06410064,0.7191086,0.64240646,-0.39986533,0.6537749,0.32945397,0.9143297,0.23550214,,-0.028241608,0.4108262,-0.37977752,0.596208,-0.074928,-0.7993259,0.79262125,0.2132087,0.5712211,0.12762278,-0.97412926,0.18650626,,1.1868218653779483,0.5454489001736029,0.20399067585000003,3.430317785463334,0.318909590452538,-1.3857457838446763,-0.4214276906264405,,-0.9733964196658799,-0.3408428154038987,0.18348077547000002,-3.4651263160817645,-0.8746102349985843,1.3963469840964557,0.5285813980105277,,-0.056155968682917556,-0.06207917983187331,0.08431779928,-0.06639839657179906,,6.760284e-05,1.5497208e-06,-2.861023e-06,1.0,-4.52362e-05,-3.9748847e-05,4.522875e-05,1.0,-4.8577785e-06,3.9748847e-05,4.827976e-06,1.0,379,1.179,0,1,0.421,False,-0.26255903295711036,0.6995800921092119
1.1881218599737622,16:00:42.997911,NaN,0,,0.13015908,-0.00509914,0.027839914,0.7254432,0.048288636,-0.68658584,0.6397926,0.32047722,0.6985412,0.2537667,-0.94602466,0.20159324,,0.057016492,-0.027830124,0.0419755,-0.6513995,0.023562353,0.7583689,0.50690174,-0.73020846,0.45808974,0.564561,0.68281806,0.46371365,,0.10618482,1.3403025,0.4403478,0.99536616,0.013045141,-0.09526812,-0.052913595,-0.7529508,-0.6559461,-0.08028912,0.65794754,-0.7487715,,-0.10092342,0.2546206,-0.09094218,-0.6925006,0.06076973,0.71885324,0.64323145,-0.39915973,0.6533948,0.32664388,0.9148653,0.23732935,,-0.028246736,0.41080642,-0.37980482,0.5959412,-0.07449397,-0.7995654,0.7927907,0.2130599,0.57104146,0.12781617,-0.9741951,0.1860293,,1.1869531518368102,0.5460281051391698,0.20405030519000003,3.430317785463334,0.3164501334567601,-1.3836585828380001,-0.42093765842803765,,-0.9733964196658799,-0.3410436064586286,0.18348077547000002,-3.464706936194796,-0.8746102349985843,1.396510341576737,0.5259678929523792,,-0.056155968682917556,-0.06207917983187331,0.08431779928,-0.06639839657179906,,6.760284e-05,1.5497208e-06,-2.861023e-06,1.0,-4.52362e-05,-3.9748847e-05,4.522875e-05,1.0,-4.8577785e-06,3.9748847e-05,4.827976e-06,1.0,392,1.22,0,1,0.421,False,-0.2617249448978165,0.6986144880936225
1.2219975399784744,16:00:43.037797,NaN,0,,0.13024127,-0.004894763,0.027889118,0.7262232,0.049124554,-0.6857013,0.6384937,0.32150173,0.69925857,0.2548049,-0.9456339,0.20211628,,0.057023257,-0.027885288,0.04196924,-0.65120584,0.023503084,0.758537,0.50721663,-0.7300048,0.4580657,0.56450164,0.68303776,0.4634623,,0.10618482,1.3403025,0.4403478,0.99536616,0.013045141,-0.09526812,-0.052913595,-0.7529508,-0.6559461,-0.08028912,0.65794754,-0.7487715,,-0.10099332,0.25480485,-0.0908321,-0.69346887,0.05998566,0.7179851,0.6429675,-0.3981398,0.6542763,0.32510564,0.91536134,0.23752874,,-0.0282524,0.41077247,-0.37984893,0.5957502,-0.07445563,-0.7997112,0.7928845,0.21335644,0.5708004,0.12812424,-0.97413313,0.18614185,,1.18715394289154,0.547001169481322,0.20414752694000002,3.4313662351807563,0.3157669509579329,-1.383101493319518,-0.42093765842803765,,-0.9733964196658799,-0.341367961239346,0.18348077547000002,-3.4644972462513115,-0.8746102349985843,1.3962653053563154,0.5251511726217077,,-0.056155968682917556,-0.06207917983187331,0.08431779928,-0.06639839657179906,,6.760284e-05,1.5497208e-06,-2.861023e-06,1.0,-4.52362e-05,-3.9748847e-05,4.522875e-05,1.0,-4.8577785e-06,3.9748847e-05,4.827976e-06,1.0,401,1.249,0,1,0.421,False,-0.2629164992682367,0.6992421307037553
1.261878611985594,16:00:43.068385,NaN,0,,0.13033272,-0.004749447,0.02796401,0.72670466,0.056115266,-0.684654,0.63560194,0.32315943,0.70112646,0.26059622,-0.9446794,0.1991744,,0.05702723,-0.02793184,0.041964352,-0.6511286,0.023387875,0.7586069,0.5074426,-0.7298574,0.45805037,0.5643877,0.6831993,0.463363,,0.10618482,1.3403025,0.4403478,0.99536616,0.013045141,-0.09526812,-0.052913595,-0.7529508,-0.6559461,-0.08028912,0.65794754,-0.7487715,,-0.10107933,0.25496262,-0.09077925,-0.6946856,0.0530899,0.7173516,0.6447219,-0.39627993,0.6536787,0.31897578,0.91659355,0.24106173,,-0.028255489,0.41074437,-0.37988642,0.5956807,-0.07435605,-0.79977226,0.7928955,0.21357891,0.570702,0.12837934,-0.974092,0.18618141,,1.1872697838846535,0.5476730472413796,0.20417604532000003,3.4313662351807563,0.30989158146801893,-1.3793723470823993,-0.4197942499650976,,-0.9733964196658799,-0.34163825688994387,0.18347947918000002,-3.4644972462513115,-0.8746102349985843,1.3962653053563154,0.5251511726217077,,-0.056155968682917556,-0.06207917983187331,0.08431779928,-0.06639839657179906,,6.760284e-05,1.5497208e-06,-2.861023e-06,1.0,-4.52362e-05,-3.9748847e-05,4.522875e-05,1.0,-4.8577785e-06,3.9748847e-05,4.827976e-06,1.0,414,1.289,0,1,0.421,False,-0.26351227645344677,0.6994352515068738
1.2924779749591835,16:00:43.107721,NaN,0,,0.1304469,-0.0046061054,0.02803585,0.7247025,0.058557212,-0.6865691,0.6355109,0.3283139,0.69881034,0.26633048,-0.9427518,0.20071608,,0.057031218,-0.02796729,0.04196173,-0.6509679,0.023192149,0.75875074,0.5076605,-0.7298291,0.45785394,0.564377,0.6832361,0.46332163,,0.10618482,1.3403025,0.4403478,0.99536616,0.013045141,-0.09526812,-0.052913595,-0.7529508,-0.6559461,-0.08028912,0.65794754,-0.7487715,,-0.10118779,0.25511688,-0.0907228,-0.693211,0.050899826,0.71893513,0.6485138,-0.39117208,0.653004,0.31446514,0.9189089,0.23815556,,-0.028258892,0.41072378,-0.37991548,0.5955194,-0.07416446,-0.7999102,0.7929844,0.21364023,0.57055545,0.12857805,-0.97409314,0.18603815,,1.187292952083276,0.5484684887274247,0.20421363773,3.42780150614152,0.30565584997529033,-1.3825343700191959,-0.4212643465603063,,-0.9733964196658799,-0.34184677067754793,0.18347818289,-3.464287556307827,-0.8746102349985843,1.3962653053563154,0.5251511726217077,,-0.056155968682917556,-0.06207917983187331,0.08431779928,-0.06639839657179906,,6.760284e-05,1.5497208e-06,-2.861023e-06,1.0,-4.52362e-05,-3.9748847e-05,4.522875e-05,1.0,-4.8577785e-06,3.9748847e-05,4.827976e-06,1.0,427,1.33,0,1,0.421,False,-0.2636314318904893,0.6993386911053148
1.3318150109844282,16:00:43.151063,NaN,0,,0.13052443,-0.0045057535,0.028127655,0.7239472,0.06460593,-0.68682325,0.6333815,0.33227378,0.6988721,0.2733646,-0.9409678,0.19962841,,0.057035618,-0.027985051,0.041962862,-0.6507373,0.022987507,0.7589547,0.50783867,-0.7299052,0.45753497,0.5644826,0.6831618,0.46330264,,0.10618482,1.3403025,0.4403478,0.99536616,0.013045141,-0.09526812,-0.052913595,-0.7529508,-0.6559461,-0.08028912,0.65794754,-0.7487715,,-0.101265,0.25525278,-0.090714045,-0.69324946,0.04504708,0.71928847,0.65166974,-0.38704932,0.6523185,0.30778515,0.920958,0.23896593,,-0.028263194,0.41071537,-0.37993118,0.595279,-0.073953494,-0.8001086,0.7931474,0.21355385,0.57036126,0.12868607,-0.9741281,0.18578014,,1.1874165158092638,0.5489859118299977,0.20419808225000002,3.425914296650159,0.2989606614867837,-1.3818122596662237,-0.4225710990893802,,-0.9734041423987541,-0.3419548889377871,0.18347688660000003,-3.4638681764208576,-0.8746102349985843,1.3961836266161747,0.5249878285555736,,-0.056155968682917556,-0.06207917983187331,0.08431779928,-0.06639839657179906,,6.760284e-05,1.5497208e-06,-2.861023e-06,1.0,-4.52362e-05,-3.9748847e-05,4.522875e-05,1.0,-4.8577785e-06,3.9748847e-05,4.827976e-06,1.0,436,1.359,0,1,0.421,False,-0.26309523242380006,0.6992421307037553
1.3751109449658543,16:00:43.178775,NaN,0,,0.13055812,-0.004480399,0.02815722,0.7247873,0.07096489,-0.685308,0.6299382,0.334592,0.70087534,0.2790361,-0.9396874,0.19780451,,0.05703782,-0.027984068,0.04196453,-0.6505353,0.022773653,0.7591344,0.50792575,-0.7300761,0.4571656,0.56463724,0.6829863,0.46337292,,0.10618482,1.3403025,0.4403478,0.99536616,0.013045141,-0.09526812,-0.052913595,-0.7529508,-0.6559461,-0.08028912,0.65794754,-0.7487715,,-0.10129907,0.2552914,-0.09071486,-0.69485503,0.038801767,0.7181023,0.65293497,-0.38448057,0.65257233,0.30141732,0.92231727,0.24182323,,-0.02826554,0.41071713,-0.37993112,0.5950636,-0.07372381,-0.80029,0.79330844,0.21333328,0.5702198,0.1286897,-0.9741939,0.18543258,,1.1874396840078865,0.5489550208985008,0.20417863790000002,3.4265433664806126,0.29226547299827715,-1.3791298595498782,-0.4212643465603063,,-0.9734041423987541,-0.3419548889377871,0.18347688660000003,-3.4634487965338887,-0.8746102349985843,1.3961836266161747,0.5249878285555736,,-0.056155968682917556,-0.06207917983187331,0.08431779928,-0.06639839657179906,,6.760284e-05,1.5497208e-06,-2.861023e-06,1.0,-4.52362e-05,-3.9748847e-05,4.522875e-05,1.0,-4.8577785e-06,3.9748847e-05,4.827976e-06,1.0,449,1.4,0,1,0.421,False,-0.2622015666459845,0.6994352515068738
1.40284483297728,16:00:43.219270,NaN,0,,0.13064031,-0.0044356585,0.028278634,0.7240758,0.08076054,-0.6849756,0.6235195,0.34790838,0.7001309,0.29485172,-0.93404365,0.20155622,,0.057038,-0.02798289,0.041966498,-0.6505399,0.022708185,0.7591323,0.5079199,-0.7301191,0.4571033,0.56463706,0.6829425,0.46343777,,0.10618482,1.3403025,0.4403478,0.99536616,0.013045141,-0.09526812,-0.052913595,-0.7529508,-0.6559461,-0.08028912,0.65794754,-0.7487715,,-0.10138789,0.25540605,-0.09076446,-0.69604945,0.02962263,0.7173825,0.65882283,-0.37084255,0.6545443,0.28542528,0.9282232,0.23860869,,-0.0282659,0.4107194,-0.3799311,0.59506834,-0.07365443,-0.80029285,0.7933057,0.21327898,0.57024395,0.12868465,-0.97421104,0.18534605,,1.1875786931996224,0.5489627436313751,0.20408271244,3.424027087158798,0.27532254702736253,-1.3834467198027267,-0.42093765842803754,,-0.9734118651316284,-0.34194716620491283,0.18347559031000002,-3.4634487965338887,-0.8746102349985843,1.3962653053563154,0.5248244844894392,,-0.056155968682917556,-0.06207917983187331,0.08431779928,-0.06639839657179906,,6.760284e-05,1.5497208e-06,-2.861023e-06,1.0,-4.52362e-05,-3.9748847e-05,4.522875e-05,1.0,-4.8577785e-06,3.9748847e-05,4.827976e-06,1.0,462,1.441,0,1,0.421,False,-0.26243987752006825,0.698662768294402
1.4433522569597699,16:00:43.260657,NaN,0,,0.13060397,-0.0044957623,0.028514698,0.7243316,0.085986525,-0.6840685,0.62025225,0.35197178,0.7010016,0.30104947,-0.93205273,0.20161092,,0.057044655,-0.02798231,0.041971147,-0.6501384,0.022325493,0.7594876,0.5081014,-0.7304219,0.45641726,0.5649361,0.68263125,0.46353173,,0.10618482,1.3403025,0.4403478,0.99536616,0.013045141,-0.09526812,-0.052913595,-0.7529508,-0.6559461,-0.08028912,0.65794754,-0.7487715,,-0.10137737,0.2555204,-0.090982355,-0.6971075,0.02457672,0.7165453,0.660573,-0.36650303,0.65522426,0.27871928,0.9300922,0.23925729,,-0.028272929,0.41072315,-0.3799327,0.594641,-0.07324366,-0.80064815,0.79362303,0.21288815,0.5699483,0.1287034,-0.97432745,0.18471988,,1.1879957207748306,0.5491094755559853,0.20384160250000002,3.4238173972153136,0.26835408553932505,-1.3827468098627835,-0.42012093809736606,,-0.9734273105973767,-0.3419548889377871,0.18347559031000002,-3.4626100367599504,-0.8746102349985843,1.3961836266161747,0.5249878285555736,,-0.056155968682917556,-0.06207917983187331,0.08431779928,-0.06639839657179906,,6.760284e-05,1.5497208e-06,-2.861023e-06,1.0,-4.52362e-05,-3.9748847e-05,4.522875e-05,1.0,-4.8577785e-06,3.9748847e-05,4.827976e-06,1.0,471,1.47,0,1,0.421,False,-0.262797343831195,0.6987110484951815
1.484729713993147,16:00:43.297942,NaN,0,,0.13062468,-0.0045489296,0.028775409,0.7227393,0.1016375,-0.68360615,0.6148627,0.35709828,0.7031535,0.31558126,-0.9285207,0.19559583,,0.057046816,-0.027981773,0.041972697,-0.65003973,0.022025596,0.7595808,0.50814545,-0.73062044,0.45605034,0.5650101,0.68242854,0.46374014,,0.10618482,1.3403025,0.4403478,0.99536616,0.013045141,-0.09526812,-0.052913595,-0.7529508,-0.6559461,-0.08028912,0.65794754,-0.7487715,,-0.10142515,0.25565636,-0.09120697,-0.6972331,0.009126328,0.7167864,0.6663602,-0.3603534,0.65277064,0.26425382,0.9327712,0.24516891,,-0.028275216,0.41072458,-0.37993297,0.594536,-0.07292566,-0.80075514,0.79370105,0.2126369,0.5699335,0.12870732,-0.9744062,0.18430147,,1.1883355210212965,0.5491480892203564,0.20357586305000003,3.4204623581195612,0.25305079756559573,-1.3768839826001698,-0.42159103469257475,,-0.9734350333302509,-0.3419548889377871,0.18347559031000002,-3.4624003468164664,-0.8746102349985843,1.3964286628365965,0.5248244844894392,,-0.056155968682917556,-0.06207917983187331,0.08431779928,-0.06639839657179906,,6.760284e-05,1.5497208e-06,-2.861023e-06,1.0,-4.52362e-05,-3.9748847e-05,4.522875e-05,1.0,-4.8577785e-06,3.9748847e-05,4.827976e-06,1.0,484,1.511,0,1,0.421,False,-0.2631548101423209,0.6982765266881663
1.522034807014279,16:00:43.328233,NaN,0,,0.13069649,-0.0045142546,0.028977647,0.7218685,0.11172773,-0.6829513,0.6066581,0.37267554,0.7021959,0.3329739,-0.9212111,0.20124216,,0.057046946,-0.027983129,0.041972518,-0.6500375,0.022022307,0.7595828,0.5081519,-0.7306162,0.45604998,0.5650068,0.6824331,0.4637373,,0.10618482,1.3403025,0.4403478,0.99536616,0.013045141,-0.09526812,-0.052913595,-0.7529508,-0.6559461,-0.08028912,0.65794754,-0.7487715,,-0.10151158,0.25581798,-0.09132392,-0.69854885,-0.00031480077,0.7155623,0.6719873,-0.3439222,0.65585864,0.2458913,0.9389981,0.24045801,,-0.028275322,0.41072375,-0.37993404,0.59453404,-0.07292281,-0.8007569,0.79370135,0.21264327,0.5699307,0.1287146,-0.974405,0.1843026,,1.1886212621376426,0.5492407620148472,0.20341123422000001,3.418365458684716,0.23392168759843407,-1.3826036272593576,-0.421754378758709,,-0.9734350333302509,-0.3419626116706613,0.18347559031000002,-3.4624003468164664,-0.8746102349985843,1.3964286628365965,0.5244977963571706,,-0.056155968682917556,-0.06207917983187331,0.08431779928,-0.06639839657179906,,6.760284e-05,1.5497208e-06,-2.861023e-06,1.0,-4.52362e-05,-3.9748847e-05,4.522875e-05,1.0,-4.8577785e-06,3.9748847e-05,4.827976e-06,1.0,497,1.552,0,1,0.421,False,-0.2623802998015474,0.6976488840780335
1.5522948720026761,16:00:43.370880,NaN,0,,0.1307105,-0.0045610145,0.029232174,0.72028047,0.12106748,-0.68303615,0.6013837,0.38177443,0.70184475,0.34573627,-0.91629195,0.20217665,,0.05704829,-0.027979314,0.04197532,-0.6496454,0.021675594,0.75992817,0.50820816,-0.7310402,0.4553073,0.5654071,0.68199015,0.46390122,,0.10618482,1.3403025,0.4403478,0.99536616,0.013045141,-0.09526812,-0.052913595,-0.7529508,-0.6559461,-0.08028912,0.65794754,-0.7487715,,-0.10155164,0.25595453,-0.09154051,-0.6985134,-0.0093085915,0.7155364,0.67666954,-0.33389202,0.65622747,0.23280334,0.9425654,0.23952688,,-0.02827694,0.41072798,-0.37993214,0.59410864,-0.072535485,-0.8011077,0.7940426,0.21207505,0.56966704,0.12857388,-0.97455776,0.18359189,,1.1889687851169828,0.5493257120764636,0.20316105025000003,3.415639489419417,0.22025803762189,-1.383877005391081,-0.42110100249417215,,-0.9734195878645026,-0.3419548889377871,0.18347559031000002,-3.461561587042528,-0.8747468714983497,1.3964584020001525,0.5243344522910365,,-0.056155968682917556,-0.06207917983187331,0.08431779928,-0.06639839657179906,,6.760284e-05,1.5497208e-06,-2.861023e-06,1.0,-4.52362e-05,-3.9748847e-05,4.522875e-05,1.0,-4.8577785e-06,3.9748847e-05,4.827976e-06,1.0,506,1.58,0,1,0.421,False,-0.2629164992682367,0.6979385652827106
1.5949604699853808,16:00:43.402400,NaN,0,,0.130693,-0.0046318844,0.029438764,0.7176848,0.13116789,-0.6839029,0.59978783,0.382553,0.7027858,0.35381198,-0.9145754,0.19587958,,0.057050917,-0.027980775,0.04197365,-0.6497492,0.021765921,0.7598368,0.5081727,-0.7309537,0.45548564,0.56531954,0.6820799,0.4638758,,0.10618482,1.3403025,0.4403478,0.99536616,0.013045141,-0.09526812,-0.052913595,-0.7529508,-0.6559461,-0.08028912,0.65794754,-0.7487715,,-0.10155808,0.25604105,-0.09174171,-0.6967744,-0.019428616,0.7170271,0.6809233,-0.33217406,0.65268975,0.22549696,0.94301796,0.2446798,,-0.028279398,0.4107256,-0.37993243,0.5942199,-0.072633974,-0.8010162,0.79395765,0.21218888,0.569743,0.12858404,-0.97452563,0.18375517,,1.1892776944319519,0.5493643257408347,0.20294068095,3.4116553804932113,0.2124697571352599,-1.3784246510219311,-0.42093765842803765,,-0.9734350333302509,-0.3419626116706613,0.18347818289,-3.4617712769860125,-0.8747468714983497,1.3964584020001525,0.5243344522910365,,-0.056155968682917556,-0.06207917983187331,0.08431779928,-0.06639839657179906,,6.760284e-05,1.5497208e-06,-2.861023e-06,1.0,-4.52362e-05,-3.9748847e-05,4.522875e-05,1.0,-4.8577785e-06,3.9748847e-05,4.827976e-06,1.0,519,1.621,0,1,0.421,False,-0.26273776611267374,0.6975523236764745
1.626490936963819,16:00:43.448832,NaN,0,,0.13071407,-0.0046407953,0.02964212,0.71657825,0.14057297,-0.68319434,0.59358245,0.3914805,0.70313793,0.3662994,-0.9093857,0.19708477,,0.05705224,-0.027980685,0.041974604,-0.6494387,0.021454707,0.7601111,0.5083075,-0.7312019,0.45493653,0.5655552,0.6818237,0.46396524,,0.10618482,1.3403025,0.4403478,0.99536616,0.013045141,-0.09526812,-0.052913595,-0.7529508,-0.6559461,-0.08028912,0.65794754,-0.7487715,,-0.10159767,0.2561712,-0.0918946,-0.6972659,-0.028524652,0.71624476,0.68473107,-0.32208875,0.65376,0.21204609,0.94627964,0.24411322,,-0.028280796,0.4107263,-0.3799328,0.5938891,-0.072299644,-0.80129176,0.79420394,0.21186744,0.56951934,0.12859158,-0.9746204,0.18324643,,1.1896174946784177,0.5494106621380801,0.20275660777,3.409977860945335,0.19853283415918496,-1.3793118358659804,-0.42159103469257464,,-0.9734195878645026,-0.3419703344035355,0.18347818289,-3.461142207155559,-0.8747468714983497,1.3964584020001525,0.5243344522910365,,-0.056155968682917556,-0.06207917983187331,0.08431779928,-0.06639839657179906,,6.760284e-05,1.5497208e-06,-2.861023e-06,1.0,-4.52362e-05,-3.9748847e-05,4.522875e-05,1.0,-4.8577785e-06,3.9748847e-05,4.827976e-06,1.0,532,1.662,0,1,0.421,False,-0.2626781883941529,0.6978420048811511
1.6728753499919549,16:00:43.481839,NaN,0,,0.13076408,-0.004615806,0.02982296,0.7135455,0.15170643,-0.68398666,0.58741504,0.40252665,0.70207983,0.38183284,-0.90274996,0.19810641,,0.057053484,-0.027979493,0.041977227,-0.64944583,0.021506585,0.7601035,0.5083024,-0.73117185,0.45499054,0.5655516,0.68185425,0.4639247,,0.10618482,1.3403025,0.4403478,0.99536616,0.013045141,-0.09526812,-0.052913595,-0.7529508,-0.6559461,-0.08028912,0.65794754,-0.7487715,,-0.101661325,0.25631127,-0.092004865,-0.69611067,-0.03929819,0.71685815,0.69061804,-0.30946532,0.65366507,0.19615488,0.95009834,0.24256213,,-0.028282272,0.4107291,-0.37993306,0.5938966,-0.072354235,-0.8012813,0.7941988,0.21190485,0.5695126,0.12858874,-0.97460824,0.18331324,,1.1899341267262609,0.5494569985353254,0.20261271958000002,3.4057840620756443,0.18199981768756668,-1.3812675514052795,-0.4201209380973663,,-0.9734350333302509,-0.3419626116706613,0.18347688660000003,-3.461142207155559,-0.8747468714983497,1.396376723260012,0.5241711082249021,,-0.056155968682917556,-0.06207917983187331,0.08431779928,-0.06639839657179906,,6.760284e-05,1.5497208e-06,-2.861023e-06,1.0,-4.52362e-05,-3.9748847e-05,4.522875e-05,1.0,-4.8577785e-06,3.9748847e-05,4.827976e-06,1.0,541,1.691,0,1,0.421,False,-0.262797343831195,0.6972626424717978
1.7058984529576264,16:00:43.511975,NaN,0,,0.13075314,-0.004614182,0.029989392,0.71141464,0.15863022,-0.68463516,0.58431005,0.4077689,0.7016455,0.39047503,-0.8992002,0.1974035,,0.057053976,-0.027982563,0.04197699,-0.6492319,0.021295846,0.7602922,0.50840676,-0.73132634,0.45462537,0.56570333,0.6816951,0.4639735,,0.10618482,1.3403025,0.4403478,0.99536616,0.013045141,-0.09526812,-0.052913595,-0.7529508,-0.6559461,-0.08028912,0.65794754,-0.7487715,,-0.101665035,0.25642443,-0.09212735,-0.6950019,-0.04607506,0.7175301,0.69413537,-0.3032071,0.6528717,0.18747912,0.9518101,0.24271186,,-0.02828271,0.4107273,-0.37993556,0.59366953,-0.0721292,-0.8014698,0.7943652,0.21170636,0.56935424,0.1286092,-0.974668,0.18298055,,1.1903588770343432,0.5495573940626903,0.20247012768000003,3.4028484028668613,0.1729818087030476,-1.3810200201535445,-0.4212643465603061,,-0.9734195878645026,-0.34198577986928397,0.18347688660000003,-3.4607228272685897,-0.8747468714983497,1.3963767232600117,0.5235177319603649,,-0.056155968682917556,-0.06207917983187331,0.08431779928,-0.06639839657179906,,6.760284e-05,1.5497208e-06,-2.861023e-06,1.0,-4.52362e-05,-3.9748847e-05,4.522875e-05,1.0,-4.8577785e-06,3.9748847e-05,4.827976e-06,1.0,554,1.732,0,1,0.421,False,-0.2631548101423209,0.6963453186569879
1.736025089980103,16:00:43.552664,NaN,0,,0.13073581,-0.0046003684,0.030285701,0.7061381,0.17380716,-0.6864108,0.5797401,0.41465908,0.70139813,0.4065345,-0.89322394,0.19204356,,0.05705786,-0.027988687,0.04197842,-0.6491247,0.021220759,0.7603859,0.50848347,-0.73135614,0.4544918,0.5657575,0.68166554,0.46395093,,0.10618482,1.3403025,0.4403478,0.99536616,0.013045141,-0.09526812,-0.052913595,-0.7529508,-0.6559461,-0.08028912,0.65794754,-0.7487715,,-0.10167291,0.25663394,-0.092337884,-0.69153947,-0.06113201,0.7197472,0.7015611,-0.29410776,0.649086,0.1720033,0.9538152,0.24627496,,-0.028286645,0.41072512,-0.37994143,0.5935573,-0.072051585,-0.8015599,0.79444224,0.2116718,0.56925964,0.12865157,-0.9746813,0.18288018,,1.1911465957875143,0.5497736305831686,0.20222512887000002,3.3957189447883875,0.15685870173072564,-1.37702072641311,-0.420610970295769,,-0.9734350333302509,-0.3420243935336551,0.18347688660000003,-3.4605131373251052,-0.8747468714983497,1.3962950445198714,0.521720947232888,,-0.056155968682917556,-0.06207917983187331,0.08431779928,-0.06639839657179906,,6.760284e-05,1.5497208e-06,-2.861023e-06,1.0,-4.52362e-05,-3.9748847e-05,4.522875e-05,1.0,-4.8577785e-06,3.9748847e-05,4.827976e-06,1.0,567,1.773,0,1,0.421,False,-0.26333354329788383,0.6961521978538703
1.7767605769913644,16:00:43.597024,NaN,0,,0.13073838,-0.0045588687,0.03052722,0.7010915,0.18468475,-0.68873936,0.57322043,0.42853248,0.69841135,0.42413306,-0.88444984,0.19457534,,0.057061877,-0.027993709,0.04197973,-0.6488112,0.02086955,0.76066303,0.50864935,-0.7315915,0.45392686,0.565968,0.68142366,0.46404958,,0.10618482,1.3403025,0.4403478,0.99536616,0.013045141,-0.09526812,-0.052913595,-0.7529508,-0.6559461,-0.08028912,0.65794754,-0.7487715,,-0.101693526,0.2568271,-0.092487335,-0.68859464,-0.07161816,0.7216012,0.7085789,-0.27795354,0.6485814,0.1541214,0.957921,0.24214444,,-0.028290708,0.4107234,-0.37994626,0.5932255,-0.07167876,-0.80183893,0.79468244,0.21137227,0.56903565,0.12869875,-0.97477376,0.18235326,,1.1918570872119427,0.5498431351790366,0.20204235198,3.3894282464838517,0.13827613776262573,-1.38122575292371,-0.42077431436190316,,-0.9734427560631252,-0.3420630071980262,0.18347818289,-3.4598840674946523,-0.8747468714983497,1.3962950445198714,0.521720947232888,,-0.05614942369822258,-0.06207917983187331,0.08431779928,-0.06639839657179906,,6.760284e-05,1.5497208e-06,-2.861023e-06,1.0,-4.52362e-05,-3.9748847e-05,4.522875e-05,1.0,-4.8577785e-06,3.9748847e-05,4.827976e-06,1.0,580,1.814,0,1,0.421,False,-0.2620824112089424,0.6935450670117795
1.8210997499991208,16:00:43.633976,NaN,0,,0.1306389,-0.00458885,0.030759856,0.7000539,0.18852742,-0.6887537,0.5697488,0.43398166,0.69788706,0.43047732,-0.88097525,0.19639726,,0.057072237,-0.027995795,0.041983604,-0.648604,0.020481132,0.76085025,0.50886136,-0.7317167,0.4534873,0.56601477,0.6813011,0.46417236,,0.10618482,1.3403025,0.4403478,0.99536616,0.013045141,-0.09526812,-0.052913595,-0.7529508,-0.6559461,-0.08028912,0.65794754,-0.7487715,,-0.10161763,0.2569615,-0.09269004,-0.6883973,-0.07531259,0.7214134,0.710278,-0.27158886,0.6494188,0.14701842,0.9594621,0.2404539,,-0.028301343,0.41072488,-0.3799497,0.5930129,-0.0712801,-0.80203164,0.7948141,0.21123397,0.5689031,0.12886487,-0.974833,0.18191892,,1.192691142362359,0.549889471576282,0.20182198268,3.3881701068229444,0.13089776677529194,-1.3824785939966133,-0.420610970295769,,-0.9734890924603705,-0.3420784526637747,0.18347947918000002,-3.459464687607683,-0.8746102349985843,1.396346984096456,0.5197608184392766,,-0.05614942369822258,-0.06207917983187331,0.08431779928,-0.06639839657179906,,6.760284e-05,1.5497208e-06,-2.861023e-06,1.0,-4.52362e-05,-3.9748847e-05,4.522875e-05,1.0,-4.8577785e-06,3.9748847e-05,4.827976e-06,1.0,589,1.842,0,1,0.421,False,-0.26273776611267374,0.6906482549650121
1.8580700739985332,16:00:43.662051,NaN,0,,0.1305997,-0.004600741,0.030853346,0.6962247,0.19453269,-0.6909616,0.5705579,0.43413568,0.6971299,0.43558562,-0.87959266,0.19126374,,0.05709587,-0.027997628,0.04198426,-0.64720184,0.019104056,0.76207924,0.51068616,-0.73134226,0.45203778,0.5659765,0.681743,0.46356982,,0.10618482,1.3403025,0.4403478,0.99536616,0.013045141,-0.09526812,-0.052913595,-0.7529508,-0.6559461,-0.08028912,0.65794754,-0.7487715,,-0.101587914,0.25701562,-0.092771314,-0.6849824,-0.081385784,0.7239996,0.7143172,-0.27055258,0.6454086,0.14335288,0.9592589,0.24345902,,-0.02832492,0.4107226,-0.37995076,0.59160125,-0.06994941,-0.8031905,0.79559815,0.21191113,0.56755376,0.13050497,-0.9747824,0.18101852,,1.1930772790060702,0.5498585806447851,0.20172994609000003,3.382718168292347,0.12666203528256328,-1.3789429602418837,-0.4204476262296346,,-0.9734890924603705,-0.3420784526637747,0.18348077547000002,-3.456948408285869,-0.872970597001399,1.3950916479922395,0.5195974743731422,,-0.05614942369822258,-0.06207917983187331,0.08431779928,-0.06639839657179906,,6.760284e-05,1.5497208e-06,-2.861023e-06,1.0,-4.52362e-05,-3.9748847e-05,4.522875e-05,1.0,-4.8577785e-06,3.9748847e-05,4.827976e-06,1.0,602,1.883,0,1,0.421,False,-0.26255903295711036,0.6901654529572174
1.8861144600086845,16:00:43.703831,NaN,0,,0.13044831,-0.004615031,0.031020865,0.6896852,0.19866869,-0.69632226,0.5731279,0.4379545,0.6926185,0.44255906,-0.8767706,0.18818812,,0.057141356,-0.027999043,0.041998565,-0.644094,0.0142375715,0.7648137,0.51364195,-0.7328495,0.4462102,0.5668463,0.6802418,0.46471095,,0.10618482,1.3403025,0.4403478,0.99536616,0.013045141,-0.09526812,-0.052913595,-0.7529508,-0.6559461,-0.08028912,0.65794754,-0.7487715,,-0.10145348,0.2571179,-0.09292183,-0.67890275,-0.08544195,0.7292398,0.72091746,-0.26583368,0.6400082,0.13917296,0.96022505,0.2420718,,-0.028371444,0.4107306,-0.37995765,0.58840185,-0.06495821,-0.8059551,0.79760206,0.2102391,0.5653587,0.1327186,-0.9754896,0.17551588,,1.1941507388755874,0.5497427396516718,0.20156790984000003,3.373701500722513,0.12174312129100744,-1.3795876038968244,-0.4206109702957692,,-0.973504537926119,-0.3421016208623973,0.18347947918000002,-3.4510770898683014,-0.870784413005152,1.395677644997173,0.5164939371165911,,-0.05614942369822258,-0.06207917983187331,0.08431779928,-0.06639839657179906,,6.760284e-05,1.5497208e-06,-2.861023e-06,1.0,-4.52362e-05,-3.9748847e-05,4.522875e-05,1.0,-4.8577785e-06,3.9748847e-05,4.827976e-06,1.0,615,1.924,0,1,0.421,False,-0.26434636451274196,0.6910827767720273
1.9279118099948391,16:00:43.744367,NaN,0,,0.1303883,-0.004599072,0.031087264,0.6873728,0.20335999,-0.6972539,0.5714901,0.4410286,0.69202095,0.44823822,-0.8741503,0.18693283,,0.057145245,-0.028008252,0.04199463,-0.64450115,0.014489017,0.76446587,0.5135152,-0.7325694,0.44681567,0.5664983,0.6805382,0.46470147,,0.10618482,1.3403025,0.4403478,0.99536616,0.013045141,-0.09526812,-0.052913595,-0.7529508,-0.6559461,-0.08028912,0.65794754,-0.7487715,,-0.101398505,0.25717443,-0.09296704,-0.67723674,-0.090090245,0.73022884,0.7235279,-0.26180226,0.6387229,0.13363285,0.9609076,0.24248491,,-0.0283749,0.41072226,-0.37996346,0.58883846,-0.06523672,-0.8056137,0.79727095,0.21061586,0.5656854,0.13277157,-0.9753897,0.17603005,,1.194683607443909,0.549580562261313,0.20151216937000002,3.370765841513729,0.11573111530132807,-1.3788508318813506,-0.4220810668909776,,-0.9735431515904901,-0.3421479572596427,0.18348336805,-3.4519158496422397,-0.870784413005152,1.3958410024774541,0.5161672489843225,,-0.05614942369822258,-0.06207917983187331,0.08431779928,-0.06639839657179906,,6.760284e-05,1.5497208e-06,-2.861023e-06,1.0,-4.52362e-05,-3.9748847e-05,4.522875e-05,1.0,-4.8577785e-06,3.9748847e-05,4.827976e-06,1.0,624,1.953,0,1,0.421,False,-0.26243987752006825,0.6919035401852778
1.9684471189975739,16:00:43.781624,NaN,0,,0.13031967,-0.004572116,0.031141445,0.68137884,0.20908314,-0.70143193,0.57094646,0.4478063,0.68810594,0.45797697,-0.869341,0.18575042,,0.05716962,-0.028022438,0.041994154,-0.6441956,0.01410519,0.7647305,0.5137331,-0.73274606,0.44627506,0.5666481,0.68035597,0.46478558,,0.10618482,1.3403025,0.4403478,0.99536616,0.013045141,-0.09526812,-0.052913595,-0.7529508,-0.6559461,-0.08028912,0.65794754,-0.7487715,,-0.10133303,0.2572309,-0.09299696,-0.67218745,-0.095665455,0.73417443,0.7296831,-0.25355923,0.6350357,0.12540573,0.9625777,0.24024479,,-0.028399007,0.41071275,-0.3799746,0.58851916,-0.064837046,-0.80587924,0.7974863,0.21039987,0.56546223,0.13289398,-0.975463,0.17553101,,1.1953400397382181,0.5492562074805956,0.2014693918,3.3630073136048018,0.10657646981704355,-1.3807788874498552,-0.42159103469257464,,-0.9736358243849809,-0.3422483527870076,0.18349503466000003,-3.4512867798117868,-0.870784413005152,1.3957593237373134,0.5173106574472623,,-0.05614942369822258,-0.06207917983187331,0.08431779928,-0.06639839657179906,,6.760284e-05,1.5497208e-06,-2.861023e-06,1.0,-4.52362e-05,-3.9748847e-05,4.522875e-05,1.0,-4.8577785e-06,3.9748847e-05,4.827976e-06,1.0,637,1.994,0,1,0.421,False,-0.26285692154971585,0.6942209898226919
2.005688826960977,16:00:43.813648,NaN,0,,0.130255,-0.0045646504,0.031160757,0.67732245,0.21550925,-0.7034129,0.5694511,0.45178187,0.686745,0.46578908,-0.8657072,0.18328007,,0.057207085,-0.028048813,0.041992784,-0.644142,0.01374539,0.76478225,0.5138603,-0.7328409,0.44597292,0.5665939,0.68026125,0.4649904,,0.10618482,1.3403025,0.4403478,0.99536616,0.013045141,-0.09526812,-0.052913595,-0.7529508,-0.6559461,-0.08028912,0.65794754,-0.7487715,,-0.10126992,0.2572495,-0.09301381,-0.66896695,-0.10205506,0.73625267,0.73383576,-0.24818127,0.6323695,0.11818761,0.9633228,0.24091671,,-0.028435957,0.41069523,-0.37999532,0.5884691,-0.06446957,-0.8059453,0.7975001,0.21029864,0.5654804,0.13303293,-0.97550917,0.17516874,,1.1958420173750426,0.5488160117067648,0.20144346600000002,3.357974754961173,0.09851491633088257,-1.379841064201465,-0.4211010024941717,,-0.97374394264522,-0.3423487483143725,0.18350410869000003,-3.4510770898683014,-0.870784413005152,1.3958410024774541,0.5191074421747395,,-0.05613633372883262,-0.06207917983187331,0.08431779928,-0.06639839657179906,,6.760284e-05,1.5497208e-06,-2.861023e-06,1.0,-4.52362e-05,-3.9748847e-05,4.522875e-05,1.0,-4.8577785e-06,3.9748847e-05,4.827976e-06,1.0,646,2.023,0,1,0.421,False,-0.26422720907569985,0.69436583042503
2.0377186029800214,16:00:43.845866,NaN,0,,0.13004144,-0.0045670792,0.031132355,0.66902745,0.22466539,-0.7084683,0.5690828,0.45828456,0.6827301,0.47806594,-0.8599424,0.17875178,,0.0572594,-0.028050229,0.042001188,-0.6436472,0.0131375715,0.7652094,0.5141968,-0.73313683,0.44509783,0.5668508,0.6799543,0.46512628,,0.10614994,1.3403034,0.44034773,0.99536747,0.013063587,-0.09525205,-0.05288921,-0.7529505,-0.6559484,-0.08028912,0.65794754,-0.7487715,,-0.101023994,0.2572283,-0.09302367,-0.66185844,-0.111156344,0.74134177,0.7418182,-0.23950723,0.62637216,0.10793147,0.9645105,0.24097767,,-0.028455429,0.41069898,-0.3800014,0.5879342,-0.06382307,-0.806387,0.7978631,0.20993337,0.5651039,0.13322087,-0.97563034,0.17434908,,1.1964134996077354,0.5478043337002414,0.20139031811000002,3.3474902577869465,0.08662754085128925,-1.3796224404361817,-0.4214276906264405,,-0.9738211699739622,-0.3423796392458694,0.18350670127000002,-3.450028640150879,-0.8706477765053866,1.3957295845737578,0.5191074421747395,,-0.05612978874413764,-0.06207917983187331,0.08431779928,-0.06639839657179906,,3.284216e-05,4.172325e-07,-1.1920929e-07,1.0,-2.6889145e-05,-2.3629516e-05,2.688542e-05,1.0000001,-2.8908253e-06,2.3625791e-05,2.8908253e-06,1.0,659,2.064,0,1,0.421,False,-0.2630356547052788,0.6963453186569879
2.0699250010075048,16:00:43.883769,NaN,0,,0.12992388,-0.004671946,0.031113312,0.6639859,0.2311579,-0.7111178,0.5690262,0.46078134,0.68109477,0.48511016,-0.856882,0.1744174,,0.057261087,-0.028053269,0.04199952,-0.6437167,0.013044868,0.7651526,0.5143804,-0.73292196,0.44523942,0.56660527,0.6801876,0.46508414,,0.10614994,1.3403034,0.44034773,0.99536747,0.013063587,-0.09525205,-0.05288921,-0.7529505,-0.6559484,-0.08028912,0.65794754,-0.7487715,,-0.10091383,0.25713804,-0.09309362,-0.6574787,-0.117677495,0.74422693,0.74652046,-0.23560952,0.6222502,0.1021221,0.96469694,0.2427569,,-0.028456936,0.41069585,-0.3800031,0.58802253,-0.06375269,-0.8063282,0.79775125,0.21024987,0.5651442,0.13350093,-0.9755668,0.17449045,,1.1968073589843207,0.5467849329608437,0.20131772587000002,3.3411995594824107,0.0793858063637209,-1.377637871067018,-0.42077431436190316,,-0.9738288927068365,-0.34238736197874364,0.18350670127000002,-3.450238330094364,-0.8703745035058557,1.3957517849867864,0.5209042269022165,,-0.05612978874413764,-0.06207917983187331,0.08431779928,-0.06639839657179906,,3.284216e-05,4.172325e-07,-1.1920929e-07,1.0,-2.6889145e-05,-2.3629516e-05,2.688542e-05,1.0000001,-2.8908253e-06,2.3625791e-05,2.8908253e-06,1.0,672,2.105,0,1,0.421,False,-0.26351227645344677,0.7023320635536412
2.107863492972683,16:00:43.926636,NaN,0,,0.12964441,-0.0048555434,0.031106517,0.65914583,0.23609407,-0.71399313,0.56671214,0.46816134,0.67798424,0.49433202,-0.851519,0.17478928,,0.05726587,-0.028055191,0.041999042,-0.6433559,0.012284175,0.7654685,0.5148397,-0.73306453,0.4444733,0.5665979,0.6800482,0.4652971,,0.10614994,1.3403034,0.44034773,0.99536747,0.013063587,-0.09525205,-0.05288921,-0.7529505,-0.6559484,-0.08028912,0.65794754,-0.7487715,,-0.10065013,0.25699797,-0.0932443,-0.6536687,-0.12247303,0.74680495,0.75101644,-0.22654736,0.62020206,0.09322865,0.96626943,0.24006617,,-0.028461644,0.4106941,-0.38000435,0.58765924,-0.06298152,-0.80665356,0.79794985,0.2101175,0.564913,0.13391295,-0.9756454,0.17373359,,1.1978653733880895,0.5449546452696525,0.20116217107,3.3353282410648446,0.06818161338295478,-1.3799366265835904,-0.4211010024941719,,-0.9738211699739622,-0.34239508471161784,0.18350670127000002,-3.44960926026391,-0.8699645940065593,1.3959892824566813,0.5282547098782591,,-0.05612978874413764,-0.06207917983187331,0.08431779928,-0.06639839657179906,,3.284216e-05,4.172325e-07,-1.1920929e-07,1.0,-2.6889145e-05,-2.3629516e-05,2.688542e-05,1.0000001,-2.8908253e-06,2.3625791e-05,2.8908253e-06,1.0,681,2.133,0,1,0.421,False,-0.2629164992682367,0.7023803437544207
2.1506943489657715,16:00:43.962520,NaN,0,,0.12947746,-0.004933521,0.03108792,0.65389603,0.2403447,-0.717394,0.56739575,0.4714556,0.67512363,0.5004818,-0.84850705,0.17191237,,0.057269916,-0.028053656,0.042000532,-0.64304924,0.012086533,0.76572925,0.5149654,-0.73324186,0.4440349,0.5668317,0.6798605,0.46528658,,0.10614994,1.3403034,0.44034773,0.99536747,0.013063587,-0.09525205,-0.05288921,-0.7529505,-0.6559484,-0.08028912,0.65794754,-0.7487715,,-0.100488834,0.25692797,-0.09330244,-0.64894503,-0.1267011,0.7502114,0.7556652,-0.22208917,0.6161546,0.088546365,0.96675915,0.23986728,,-0.028465815,0.4106958,-0.38000363,0.5873325,-0.06276688,-0.8069082,0.7981903,0.20988189,0.56466085,0.13391341,-0.97571,0.17337036,,1.198568142079644,0.5439429672631291,0.20110124544000002,3.32861816287334,0.06203297089350997,-1.379660187845404,-0.4211010024941717,,-0.9738211699739622,-0.34239508471161784,0.18350799756000002,-3.4489801904334563,-0.8699645940065593,1.3958259249764,0.5262945810846478,,-0.05612978874413764,-0.06207917983187331,0.08431779928,-0.06639839657179906,,3.284216e-05,4.172325e-07,-1.1920929e-07,1.0,-2.6889145e-05,-2.3629516e-05,2.688542e-05,1.0000001,-2.8908253e-06,2.3625791e-05,2.8908253e-06,1.0,694,2.174,0,1,0.421,False,-0.26339312101640555,0.7013664595380518
2.1866113289725035,16:00:43.995132,NaN,0,,0.12927932,-0.004953906,0.031118527,0.65124935,0.24429035,-0.718468,0.5649414,0.47605565,0.6739528,0.50667095,-0.84480375,0.1720212,,0.057272125,-0.028052762,0.0420022,-0.64284474,0.01187133,0.7659043,0.5150491,-0.73340845,0.4436627,0.56698763,0.67968464,0.46535355,,0.10614994,1.3403034,0.44034773,0.99536747,0.013063587,-0.09525205,-0.05288921,-0.7529505,-0.6559484,-0.08028912,0.65794754,-0.7487715,,-0.10029638,0.25693372,-0.09336197,-0.6470563,-0.13058485,0.7511763,0.75801486,-0.21619934,0.61536276,0.082046755,0.9675771,0.23887838,,-0.028468166,0.41069752,-0.38000363,0.58711463,-0.06253585,-0.8070847,0.7983505,0.20966333,0.56451553,0.13391359,-0.9757718,0.17302194,,1.1996570474149095,0.5431166348455871,0.20103383836000002,3.325472813721072,0.0543813269066453,-1.3799550844496493,-0.4211010024941719,,-0.9738211699739622,-0.34239508471161784,0.18350799756000002,-3.4485608105464873,-0.8699645940065593,1.3958259249764,0.5262945810846478,,-0.05612978874413764,-0.06207917983187331,0.08431779928,-0.06639839657179906,,3.284216e-05,4.172325e-07,-1.1920929e-07,1.0,-2.6889145e-05,-2.3629516e-05,2.688542e-05,1.0000001,-2.8908253e-06,2.3625791e-05,2.8908253e-06,1.0,707,2.215,0,1,0.421,False,-0.2631548101423209,0.7030562665653326
2.219175931997597,16:00:44.035059,NaN,0,,0.1289117,-0.0049376413,0.031195,0.6481166,0.24554166,-0.72087026,0.5646139,0.480282,0.6712232,0.51103425,-0.8420443,0.17264254,,0.057275623,-0.028054237,0.04200095,-0.64269257,0.011510048,0.7660376,0.5154186,-0.7332803,0.4434453,0.56682444,0.67982906,0.46534133,,0.10614994,1.3403034,0.44034773,0.99536747,0.013063587,-0.09525205,-0.05288921,-0.7529505,-0.6559484,-0.08028912,0.65794754,-0.7487715,,-0.09993682,0.25699764,-0.093450725,-0.6443565,-0.13173912,0.75329244,0.7607111,-0.21121733,0.6137637,0.07825172,0.9685205,0.23631468,,-0.02847153,0.4106954,-0.38000414,0.58697325,-0.062189464,-0.80721426,0.7983862,0.2098806,0.5643842,0.13431986,-0.9757472,0.17284551,,1.2017576307566986,0.5422285205650512,0.20093272774,3.3208596349644117,0.049189139915558566,-1.3809486434781815,-0.4197942499650975,,-0.9738211699739622,-0.34239508471161784,0.18350799756000002,-3.4483511206030033,-0.8695546845072629,1.395818386225873,0.5272746454814534,,-0.05612978874413764,-0.06207917983187331,0.08431779928,-0.06639839657179906,,3.284216e-05,4.172325e-07,-1.1920929e-07,1.0,-2.6889145e-05,-2.3629516e-05,2.688542e-05,1.0000001,-2.8908253e-06,2.3625791e-05,2.8908253e-06,1.0,716,2.244,0,1,0.421,False,-0.2637505873275314,0.7006422565263599
2.259140665002633,16:00:44.067222,NaN,0,,0.12859516,-0.004879676,0.031242475,0.6467038,0.247511,-0.7214654,0.5644187,0.4809311,0.6709225,0.51303583,-0.84109676,0.17132008,,0.05727765,-0.028052434,0.04200262,-0.64259493,0.011399016,0.76612115,0.5154546,-0.7333691,0.4432565,0.56690234,0.67973506,0.46538365,,0.10614994,1.3403034,0.44034773,0.99536747,0.013063587,-0.09525205,-0.05288921,-0.7529505,-0.6559484,-0.08028912,0.65794754,-0.7487715,,-0.09962214,0.2570729,-0.0934843,-0.6431456,-0.13372736,0.75397664,0.7619147,-0.21010223,0.6126525,0.076483764,0.9684906,0.23701516,,-0.028473713,0.41069764,-0.3800034,0.586869,-0.062069964,-0.80729926,0.7984637,0.20976357,0.5643181,0.13431478,-0.97577995,0.17266436,,1.2036419775780094,0.5416261474008618,0.20088865388000002,3.3183433556425976,0.04645640992024975,-1.378720285404253,-0.4197942499650975,,-0.9738288927068365,-0.34238736197874364,0.18350799756000002,-3.448141430659519,-0.8695546845072629,1.395818386225873,0.5256412048201106,,-0.05612978874413764,-0.06207917983187331,0.08431779928,-0.06639839657179906,,3.284216e-05,4.172325e-07,-1.1920929e-07,1.0,-2.6889145e-05,-2.3629516e-05,2.688542e-05,1.0000001,-2.8908253e-06,2.3625791e-05,2.8908253e-06,1.0,729,2.285,0,1,0.421,False,-0.2626186106756321,0.6991938505029762
2.291301423974801,16:00:44.115521,NaN,0,,0.1280444,-0.0047813877,0.03128536,0.642533,0.24897769,-0.72468,0.56477106,0.4852873,0.66748047,0.5178658,-0.8381566,0.17119779,,0.05728229,-0.028051123,0.042006075,-0.64197356,0.0108258575,0.7666502,0.51570994,-0.7338243,0.44220486,0.56737393,0.679253,0.46551293,,0.10614994,1.3403034,0.44034773,0.99536747,0.013063587,-0.09525205,-0.05288921,-0.7529505,-0.6559484,-0.08028912,0.65794754,-0.7487715,,-0.09907129,0.25717518,-0.09351526,-0.639403,-0.13510124,0.75690913,0.76542914,-0.2049029,0.6100271,0.07267746,0.96941346,0.23442595,,-0.028478641,0.4107009,-0.3800038,0.5862073,-0.061453376,-0.80782706,0.79894924,0.20916374,0.56385344,0.13431743,-0.97594774,0.17171143,,1.2068700799194352,0.54039823287386,0.20084198744,3.3118429673945777,0.040717676930101254,-1.378778100377156,-0.4201209380973663,,-0.973813447241088,-0.34239508471161784,0.18350799756000002,-3.4468832909986116,-0.8695546845072629,1.3957367074857325,0.5238444200926335,,-0.05612978874413764,-0.06207917983187331,0.08431779928,-0.06639839657179906,,3.284216e-05,4.172325e-07,-1.1920929e-07,1.0,-2.6889145e-05,-2.3629516e-05,2.688542e-05,1.0000001,-2.8908253e-06,2.3625791e-05,2.8908253e-06,1.0,742,2.326,0,1,0.421,False,-0.2634526987349264,0.6978902850819311
2.339571785007138,16:00:44.145589,NaN,0,,0.12777302,-0.0047423765,0.031298384,0.6405331,0.25242695,-0.725257,0.56193954,0.48961863,0.6667068,0.52339405,-0.83459836,0.17176825,,0.057282105,-0.028050229,0.042006135,-0.64208066,0.010930121,0.766559,0.5156625,-0.733747,0.44238847,0.5672958,0.6793349,0.46548858,,0.10614994,1.3403034,0.44034773,0.99536747,0.013063587,-0.09525205,-0.05288921,-0.7529505,-0.6559484,-0.08028912,0.65794754,-0.7487715,,-0.0987999,0.25721315,-0.09353083,-0.6381276,-0.13850036,0.75737095,0.76705444,-0.19930883,0.6098389,0.06648781,0.9700998,0.23342179,,-0.028478473,0.41070142,-0.3800031,0.5863211,-0.06156499,-0.8077359,0.7988665,0.2092651,0.56393296,0.1343124,-0.975919,0.17187876,,1.2084609628915255,0.5395255640590727,0.20081865422000003,3.3093266880727636,0.03333930594276747,-1.3786424028676696,-0.4201209380973663,,-0.9738211699739622,-0.34238736197874364,0.18350799756000002,-3.447092980942096,-0.8695546845072629,1.3957367074857325,0.523517731960365,,-0.05612978874413764,-0.06207917983187331,0.08431779928,-0.06639839657179906,,3.284216e-05,4.172325e-07,-1.1920929e-07,1.0,-2.6889145e-05,-2.3629516e-05,2.688542e-05,1.0000001,-2.8908253e-06,2.3625791e-05,2.8908253e-06,1.0,764,2.395,0,1,0.421,False,-0.26422720907569985,0.698759328695961
2.369610265013762,16:00:44.217653,NaN,0,,0.12707293,-0.0047529787,0.031320557,0.6284668,0.26761112,-0.7303516,0.5519428,0.50817513,0.66114867,0.5480772,-0.81862235,0.17166519,,0.057289224,-0.02804923,0.042008936,-0.641535,0.010327134,0.7670241,0.51608896,-0.73396057,0.44153604,0.5675254,0.6791135,0.46553174,,0.10614994,1.3403034,0.44034773,0.99536747,0.013063587,-0.09525205,-0.05288921,-0.7529505,-0.6559484,-0.08028912,0.65794754,-0.7487715,,-0.09810751,0.2572211,-0.093636945,-0.6291108,-0.15353145,0.7620024,0.77627295,-0.17485079,0.6056629,0.040248416,0.9725509,0.22918282,,-0.028485809,0.41070375,-0.38000342,0.5857537,-0.06094327,-0.80819464,0.7992373,0.20901398,0.5635006,0.13458242,-0.9760118,0.17113884,,1.212330052061512,0.5363437981148922,0.20070069183000003,3.295696841746269,0.0028693664950742498,-1.3800967646686286,-0.4191408737005604,,-0.9738211699739622,-0.34238736197874364,0.18350799756000002,-3.4460445312246732,-0.8692814115077322,1.3955955504184803,0.5220476353651564,,-0.05612978874413764,-0.06207917983187331,0.08431779928,-0.06639839657179906,,3.284216e-05,4.172325e-07,-1.1920929e-07,1.0,-2.6889145e-05,-2.3629516e-05,2.688542e-05,1.0000001,-2.8908253e-06,2.3625791e-05,2.8908253e-06,1.0,773,2.424,0,1,0.421,False,-0.26351227645344677,0.6949934730351632
2.44171121600084,16:00:44.245061,NaN,0,,0.12683958,-0.004775487,0.03132315,0.6255388,0.27031374,-0.7318684,0.55220187,0.50928426,0.660078,0.55115724,-0.81704354,0.16930938,,0.057289224,-0.02804923,0.042008936,-0.641535,0.010264486,0.767025,0.51608896,-0.7339967,0.44147614,0.5675254,0.67907554,0.4655872,,0.10614994,1.3403034,0.44034773,0.99536747,0.013063587,-0.09525205,-0.05288921,-0.7529505,-0.6559484,-0.08028912,0.65794754,-0.7487715,,-0.09787779,0.25720647,-0.09368144,-0.626455,-0.15626742,0.76363254,0.7785399,-0.17297164,0.60328805,0.037812505,0.9724512,0.23001936,,-0.028485809,0.41070375,-0.38000342,0.5857537,-0.060877256,-0.80819964,0.7992373,0.20896795,0.5635177,0.13458242,-0.9760258,0.17105912,,1.21349618472552,0.535509742964476,0.20065532168000003,3.2917127328200633,-0.0006831824988272023,-1.378261722794349,-0.42093765842803776,,-0.9738211699739622,-0.34238736197874364,0.18350799756000002,-3.4460445312246732,-0.8692814115077322,1.3956772291586208,0.5215576031667537,,-0.05612978874413764,-0.06207917983187331,0.08431779928,-0.06639839657179906,,3.284216e-05,4.172325e-07,-1.1920929e-07,1.0,-2.6889145e-05,-2.3629516e-05,2.688542e-05,1.0000001,-2.8908253e-06,2.3625791e-05,2.8908253e-06,1.0,786,2.465,0,1,0.421,False,-0.26273776611267374,0.69436583042503
2.4691390019725077,16:00:44.287704,NaN,0,,0.12637529,-0.0047279745,0.031391338,0.6206742,0.2784346,-0.7329648,0.5458766,0.5175989,0.6588706,0.56283414,-0.8090523,0.1692694,,0.057293642,-0.028050765,0.042010546,-0.6411011,0.009770099,0.76739407,0.5163763,-0.7342354,0.44074228,0.5677541,0.67882454,0.46567422,,0.10614994,1.3403034,0.44034773,0.99536747,0.013063587,-0.09525205,-0.05288921,-0.7529505,-0.6559484,-0.08028912,0.65794754,-0.7487715,,-0.09741906,0.2572881,-0.09375469,-0.62315243,-0.16438401,0.7646299,0.7817187,-0.16145426,0.60236907,0.024432926,0.9730932,0.22911267,,-0.028490337,0.410704,-0.3800054,0.58529913,-0.060360968,-0.8085676,0.79954547,0.20867014,0.5631907,0.13472918,-0.97612154,0.17039579,,1.2162223094301212,0.5339497509238826,0.20057624799,3.2862607942894657,-0.016123106972321975,-1.3770248445561917,-0.4211010024941717,,-0.973813447241088,-0.3424028074444921,0.18350799756000002,-3.4452057714507354,-0.8691447750079667,1.3956474899950648,0.5197608184392767,,-0.05612978874413764,-0.06207917983187331,0.08431779928,-0.06639839657179906,,3.284216e-05,4.172325e-07,-1.1920929e-07,1.0,-2.6889145e-05,-2.3629516e-05,2.688542e-05,1.0000001,-2.8908253e-06,2.3625791e-05,2.8908253e-06,1.0,799,2.506,0,1,0.421,False,-0.26255903295711036,0.692338061992293
2.511753647995647,16:00:44.327831,NaN,0,,0.12582847,-0.004531309,0.03161563,0.61191475,0.2915481,-0.73522776,0.5314891,0.53684044,0.6552266,0.5857301,-0.79170835,0.17354596,,0.057296496,-0.028050572,0.042010903,-0.6411061,0.009693943,0.76739085,0.51637757,-0.73427427,0.44067615,0.5677474,0.67878366,0.46574205,,0.10614994,1.3403034,0.44034773,0.99536747,0.013063587,-0.09525205,-0.05288921,-0.7529505,-0.6559484,-0.08028912,0.65794754,-0.7487715,,-0.09688043,0.2575852,-0.09385275,-0.6176063,-0.17742592,0.7662131,0.78648156,-0.1355666,0.6025516,-0.0030353605,0.9747521,0.223269,,-0.028493213,0.4107042,-0.38000533,0.5853046,-0.060281232,-0.80856955,0.79954076,0.20862131,0.56321555,0.1347335,-0.9761369,0.17030431,,1.220099121332982,0.5324669862120315,0.20046865592000002,3.2778731965500842,-0.04577322742142255,-1.379719464960313,-0.4199575940312319,,-0.9738288927068365,-0.3424028074444921,0.18350929385,-3.4452057714507354,-0.8691447750079667,1.3957291687352056,0.5179640337117994,,-0.05612978874413764,-0.06207917983187331,0.08431779928,-0.06639839657179906,,3.284216e-05,4.172325e-07,-1.1920929e-07,1.0,-2.6889145e-05,-2.3629516e-05,2.688542e-05,1.0000001,-2.8908253e-06,2.3625791e-05,2.8908253e-06,1.0,808,2.535,0,1,0.421,False,-0.26392932048309437,0.6919518203860573
2.551922314974945,16:00:44.367053,NaN,0,,0.12551683,-0.004409164,0.03177984,0.6067164,0.29996556,-0.7361492,0.5253323,0.5437183,0.65452015,0.5965913,-0.7838311,0.17230122,,0.05729949,-0.028049096,0.04201168,-0.64079607,0.009377237,0.7676537,0.5165011,-0.73452103,0.44011992,0.56798494,0.67852116,0.46583492,,0.10614994,1.3403034,0.44034773,0.99536747,0.013063587,-0.09525205,-0.05288921,-0.7529505,-0.6559484,-0.08028912,0.65794754,-0.7487715,,-0.09657587,0.25778642,-0.09392862,-0.6138871,-0.18593979,0.7671825,0.78923684,-0.12518951,0.6011928,-0.015742445,0.9745532,0.22360276,,-0.028496273,0.41070536,-0.38000432,0.5849743,-0.059940904,-0.80883384,0.799783,0.20829561,0.5629921,0.1347303,-0.97622746,0.16978729,,1.2223541593322553,0.5319109494450873,0.20038828594000002,3.2724212580194867,-0.059436877397966596,-1.377317299785711,-0.42159103469257486,,-0.9738211699739622,-0.3424028074444921,0.18351059014,-3.4445767016202815,-0.8691447750079667,1.3957291687352056,0.5176373455795309,,-0.05612978874413764,-0.06207917983187331,0.08431779928,-0.06639839657179906,,3.284216e-05,4.172325e-07,-1.1920929e-07,1.0,-2.6889145e-05,-2.3629516e-05,2.688542e-05,1.0000001,-2.8908253e-06,2.3625791e-05,2.8908253e-06,1.0,821,2.576,0,1,0.421,False,-0.2632143878608417,0.6920483807876163
2.5911390080000274,16:00:44.395784,NaN,0,,0.12526938,-0.00428994,0.031999186,0.6008068,0.3075798,-0.7378521,0.51687473,0.554645,0.652081,0.6098129,-0.77315176,0.17425427,,0.057302073,-0.028051242,0.042013466,-0.64046437,0.009053148,0.7679344,0.51674664,-0.7346405,0.43963206,0.56813586,0.6783962,0.46583292,,0.10614994,1.3403034,0.44034773,0.99536747,0.013063587,-0.09525205,-0.05288921,-0.7529505,-0.6559484,-0.08028912,0.65794754,-0.7487715,,-0.09634017,0.25802252,-0.09403941,-0.60985065,-0.19358552,0.7685095,0.7918779,-0.10993051,0.6007034,-0.03180485,0.9749051,0.22033729,,-0.02849898,0.41070563,-0.380007,0.5846285,-0.059606187,-0.8091085,0.8000111,0.20815316,0.56272066,0.13487685,-0.9762783,0.16937788,,1.224369792612428,0.5315325355342503,0.20027550871000002,3.266969319488889,-0.07624316686911577,-1.3787234645570552,-0.4225710990893803,,-0.973813447241088,-0.34241825291024053,0.18350929385,-3.443947631789828,-0.8690081385082012,1.395617750831509,0.5176373455795309,,-0.05612978874413764,-0.06207917983187331,0.08431779928,-0.06639839657179906,,3.284216e-05,4.172325e-07,-1.1920929e-07,1.0,-2.6889145e-05,-2.3629516e-05,2.688542e-05,1.0000001,-2.8908253e-06,2.3625791e-05,2.8908253e-06,1.0,830,2.604,0,1,0.421,False,-0.26339312101640555,0.6915172985790421
2.619878595985938,16:00:44.429269,NaN,0,,0.12508091,-0.004183188,0.032265797,0.5941682,0.3161667,-0.73959625,0.50789535,0.56553036,0.64978313,0.6237039,-0.76171786,0.17544058,,0.057302207,-0.028052568,0.042013288,-0.64046216,0.009049833,0.7679363,0.5167531,-0.7346362,0.43963164,0.5681325,0.6784009,0.46583027,,0.10614994,1.3403034,0.44034773,0.99536747,0.013063587,-0.09525205,-0.05288921,-0.7529505,-0.6559484,-0.08028912,0.65794754,-0.7487715,,-0.09616819,0.25828105,-0.09418626,-0.6051906,-0.202267,0.7699561,0.7945839,-0.09419592,0.599803,-0.048793618,0.9747898,0.21772458,,-0.028499085,0.4107048,-0.38000804,0.5846265,-0.059603322,-0.80911016,0.80001134,0.20815955,0.562718,0.13488415,-0.9762771,0.16937892,,1.2261151302420028,0.5313780808767659,0.20012902794,3.2610980010713226,-0.09373263883909215,-1.3795725398099172,-0.41979424996509795,,-0.973813447241088,-0.3424259756431148,0.18350929385,-3.443947631789828,-0.8690081385082012,1.395617750831509,0.5179640337117994,,-0.05612978874413764,-0.06207917983187331,0.08431779928,-0.06639839657179906,,3.284216e-05,4.172325e-07,-1.1920929e-07,1.0,-2.6889145e-05,-2.3629516e-05,2.688542e-05,1.0000001,-2.8908253e-06,2.3625791e-05,2.8908253e-06,1.0,843,2.645,0,1,0.421,False,-0.26392932048309437,0.691275897575145
2.65335751400562,16:00:44.467624,NaN,0,,0.124802135,-0.004097916,0.032595232,0.5890077,0.3237087,-0.74046093,0.50174594,0.57178414,0.64908725,0.63349897,-0.7538407,0.17436568,,0.05730437,-0.02805543,0.04201311,-0.64033794,0.008809287,0.7680426,0.51691645,-0.73466355,0.43939367,0.5681238,0.6783744,0.46587935,,0.10614994,1.3403034,0.44034773,0.99536747,0.013063587,-0.09525205,-0.05288921,-0.7529505,-0.6559484,-0.08028912,0.65794754,-0.7487715,,-0.09591375,0.25856608,-0.094404295,-0.6014142,-0.20996061,0.77085507,0.7966276,-0.08427954,0.5985662,-0.060708,0.9740706,0.21794732,,-0.0285012,0.410703,-0.38001034,0.5845019,-0.059361137,-0.809218,0.80007714,0.20814179,0.56263095,0.13503367,-0.97629565,0.16915277,,1.228323831844031,0.531347189945269,0.19990865864000001,3.2558557524842096,-0.10602992381798179,-1.3771410513103115,-0.4206109702957692,,-0.973813447241088,-0.3424414211088632,0.18350929385,-3.4437379418463436,-0.8688715020084359,1.3956696904080939,0.5173106574472623,,-0.05612978874413764,-0.06207917983187331,0.08431779928,-0.06639839657179906,,3.284216e-05,4.172325e-07,-1.1920929e-07,1.0,-2.6889145e-05,-2.3629516e-05,2.688542e-05,1.0000001,-2.8908253e-06,2.3625791e-05,2.8908253e-06,1.0,852,2.674,0,1,0.421,False,-0.26232072208302704,0.6911793371735864
2.69171894795727,16:00:44.496130,NaN,0,,0.124657094,-0.00399141,0.032836214,0.5827811,0.33161005,-0.74188995,0.49394846,0.5803832,0.6474339,0.645276,-0.7437676,0.17443813,,0.057307377,-0.028055176,0.042014062,-0.6401156,0.008592974,0.76823044,0.5171082,-0.7347102,0.43909007,0.5681999,0.6783267,0.465856,,0.10614994,1.3403034,0.44034773,0.99536747,0.013063587,-0.09525205,-0.05288921,-0.7529505,-0.6559484,-0.08028912,0.65794754,-0.7487715,,-0.09578264,0.25880715,-0.09452736,-0.5968837,-0.21802068,0.7721378,0.7987859,-0.07115122,0.59739316,-0.07530551,0.97334707,0.21662085,,-0.028504279,0.41070372,-0.38001052,0.584272,-0.059141107,-0.80940014,0.80022234,0.20809422,0.562442,0.13516805,-0.9763192,0.16890967,,1.2297834283572593,0.531347189945269,0.19978939996000003,3.250403813953612,-0.1209233022924148,-1.3768399171277834,-0.42110100249417215,,-0.973813447241088,-0.3424414211088632,0.18350929385,-3.4433185619593742,-0.8687348655086704,1.3955582725043973,0.5169839693149938,,-0.05612978874413764,-0.06207917983187331,0.08431779928,-0.06639839657179906,,3.284216e-05,4.172325e-07,-1.1920929e-07,1.0,-2.6889145e-05,-2.3629516e-05,2.688542e-05,1.0000001,-2.8908253e-06,2.3625791e-05,2.8908253e-06,1.0,865,2.715,0,1,0.421,False,-0.26202283349042155,0.690213733157997
2.7202225159853697,16:00:44.531150,NaN,0,,0.12456339,-0.003802769,0.03316717,0.568108,0.34810212,-0.74570626,0.47872573,0.59725285,0.64351463,0.669384,-0.72257465,0.17265874,,0.05730751,-0.028056517,0.042013943,-0.6401133,0.008275919,0.76823574,0.51711464,-0.7348852,0.43878955,0.56819654,0.67814106,0.46613026,,0.10614994,1.3403034,0.44034773,0.99536747,0.013063587,-0.09525205,-0.05288921,-0.7529505,-0.6559484,-0.08028912,0.65794754,-0.7487715,,-0.095704004,0.25916946,-0.094655596,-0.58563805,-0.23494372,0.77577674,0.8037535,-0.04443446,0.5933009,-0.10492109,0.9709928,0.21485934,,-0.028504385,0.4107029,-0.38001156,0.58427,-0.058807682,-0.8094259,0.8002226,0.2078709,0.5625242,0.13517535,-0.9763869,0.16851197,,1.2313665885964753,0.5313085762808978,0.19968051160000003,3.2380321072880247,-0.15111996874057715,-1.3762301100121994,-0.4201209380973665,,-0.973813447241088,-0.3424491438417374,0.18350929385,-3.4433185619593742,-0.8687348655086704,1.3959666662051,0.5161672489843223,,-0.05612978874413764,-0.06207917983187331,0.08431779928,-0.06639839657179906,,3.284216e-05,4.172325e-07,-1.1920929e-07,1.0,-2.6889145e-05,-2.3629516e-05,2.688542e-05,1.0000001,-2.8908253e-06,2.3625791e-05,2.8908253e-06,1.0,878,2.756,0,1,0.421,False,-0.26309523242380006,0.6901654529572174
2.7552441600128077,16:00:44.579015,NaN,0,,0.1245253,-0.0036828667,0.033493713,0.54758483,0.36229298,-0.7542508,0.46586272,0.6167769,0.634475,0.69507027,-0.6988063,0.1689589,,0.057311714,-0.028060883,0.042013705,-0.6398669,0.007986378,0.7684441,0.51743495,-0.73483616,0.438494,0.5681826,0.67819774,0.46606493,,0.10614994,1.3403034,0.44034773,0.99536747,0.013063587,-0.09525205,-0.05288921,-0.7529505,-0.6559484,-0.08028912,0.65794754,-0.7487715,,-0.0956856,0.25947785,-0.094819926,-0.5685373,-0.24960057,0.7838781,0.8115363,-0.014018384,0.5841338,-0.13481142,0.9682474,0.21052991,,-0.028508509,0.41070014,-0.38001508,0.5840225,-0.058524515,-0.80962497,0.80035394,0.20796707,0.56230175,0.1354669,-0.97638345,0.16829777,,1.2323705438701247,0.5311541216234134,0.19954699373,3.2193697023179024,-0.18186318118780123,-1.3782784234071712,-0.4184874974360233,,-0.973813447241088,-0.3424723120403601,0.18350929385,-3.4428991820724053,-0.8684615925091395,1.395825509137848,0.5156772167859196,,-0.05612978874413764,-0.06207917983187331,0.08431779928,-0.06639839657179906,,3.284216e-05,4.172325e-07,-1.1920929e-07,1.0,-2.6889145e-05,-2.3629516e-05,2.688542e-05,1.0000001,-2.8908253e-06,2.3625791e-05,2.8908253e-06,1.0,887,2.785,0,1,0.421,False,-0.26273776611267374,0.6904551341618941
2.8030890169902705,16:00:44.605282,NaN,0,,0.12448575,-0.003703922,0.0337127,0.53799176,0.3682323,-0.7582674,0.45913604,0.62638813,0.6299463,0.70693624,-0.68705386,0.16792303,,0.057313267,-0.028063983,0.042014122,-0.6396522,0.0077673085,0.7686251,0.51753587,-0.73498666,0.4381224,0.5683323,0.67803705,0.4661161,,0.10614994,1.3403034,0.44034773,0.99536747,0.013063587,-0.09525205,-0.05288921,-0.7529505,-0.6559484,-0.08028912,0.65794754,-0.7487715,,-0.095667325,0.2596096,-0.09499955,-0.56058764,-0.2557812,0.7876023,0.81455123,0.0009910424,0.5800908,-0.14915688,0.9667342,0.20779134,,-0.028510064,0.41069883,-0.3800179,0.5837949,-0.05829109,-0.8098059,0.80051684,0.20776998,0.5621427,0.13548544,-0.97643936,0.16795805,,1.2328261851097038,0.5309533305686835,0.19938625377000002,3.2109821045785214,-0.19675655966223426,-1.3799375789880166,-0.41963090589896357,,-0.9738057245082138,-0.3424954802389828,0.18350929385,-3.442479802185436,-0.8684615925091395,1.395825509137848,0.5156772167859196,,-0.05612978874413764,-0.06207917983187331,0.08431779928,-0.06639839657179906,,3.284216e-05,4.172325e-07,-1.1920929e-07,1.0,-2.6889145e-05,-2.3629516e-05,2.688542e-05,1.0000001,-2.8908253e-06,2.3625791e-05,2.8908253e-06,1.0,900,2.825,0,1,0.421,False,-0.26339312101640555,0.6902620133587765
2.829359900963027,16:00:44.650133,NaN,0,,0.1244643,-0.003771089,0.033959374,0.53056085,0.37729418,-0.75904816,0.45155692,0.6320308,0.62978864,0.71735734,-0.67689466,0.16496097,,0.057315566,-0.028064862,0.042015493,-0.63954973,0.0076493137,0.7687115,0.517584,-0.7350661,0.43793213,0.5684037,0.67795223,0.46615225,,0.10614994,1.3403034,0.44034773,0.99536747,0.013063587,-0.09525205,-0.05288921,-0.7529505,-0.6559484,-0.08028912,0.65794754,-0.7487715,,-0.095673084,0.25972584,-0.0952282,-0.5547243,-0.26523352,0.7886268,0.81596076,0.011987948,0.57798296,-0.16275448,0.96410966,0.20977014,,-0.028512461,0.4106994,-0.38001928,0.58368623,-0.058165517,-0.8098933,0.80059457,0.20766608,0.56207037,0.13549426,-0.9764689,0.16777883,,1.2331196489589245,0.5307757077125763,0.19917755108000001,3.2053204761044394,-0.21083011913807462,-1.3769561238819035,-0.42028428216350067,,-0.973813447241088,-0.342503202971857,0.18350929385,-3.4422701122419515,-0.8684615925091395,1.395825509137848,0.5156772167859196,,-0.05612978874413764,-0.06207917983187331,0.08431779928,-0.06639839657179906,,3.284216e-05,4.172325e-07,-1.1920929e-07,1.0,-2.6889145e-05,-2.3629516e-05,2.688542e-05,1.0000001,-2.8908253e-06,2.3625791e-05,2.8908253e-06,1.0,909,2.854,0,1,0.421,False,-0.26285692154971585,0.6891515687408489
2.874210137000773,16:00:44.681375,NaN,0,,0.124487564,-0.0037764087,0.03416337,0.52344024,0.38636437,-0.75942916,0.44216454,0.6387118,0.6297127,0.72835493,-0.66540956,0.16349088,,0.05731875,-0.028065532,0.042016447,-0.6392195,0.007202819,0.76899046,0.51782227,-0.73526037,0.43732408,0.5685582,0.67774653,0.46626306,,0.10614994,1.3403034,0.44034773,0.99536747,0.013063587,-0.09525205,-0.05288921,-0.7529505,-0.6559484,-0.08028912,0.65794754,-0.7487715,,-0.095714614,0.25985909,-0.09537892,-0.5493625,-0.2747296,0.78912896,0.8164157,0.024645017,0.5769385,-0.17795019,0.9612056,0.21075453,,-0.028515708,0.4106996,-0.38002023,0.5833417,-0.057701237,-0.8101747,0.8008222,0.207426,0.5618347,0.13563274,-0.9765475,0.16720867,,1.2332972718150315,0.5307216485824567,0.19904921837000003,3.2007072973477797,-0.2269532261103966,-1.374917119904842,-0.4199575940312319,,-0.9738057245082138,-0.34251092570473124,0.18350929385,-3.4416410424114985,-0.868324956009374,1.3958774487144325,0.5156772167859196,,-0.05612978874413764,-0.06207917983187331,0.08431779928,-0.06639839657179906,,3.284216e-05,4.172325e-07,-1.1920929e-07,1.0,-2.6889145e-05,-2.3629516e-05,2.688542e-05,1.0000001,-2.8908253e-06,2.3625791e-05,2.8908253e-06,1.0,922,2.895,0,1,0.421,False,-0.262797343831195,0.6891032885400694
