AlexandreBanks6/ExpertPlaybackApp/resources/Motions/P_03/PC1/Data_PC1_2.csv
Task Time,PC1 Time,PC2 Time,Gaze Calib,s_T_psm1,Tx,Ty,Tz,R00,R01,R02,R10,R11,R12,R20,R21,R22,s_T_psm3,Tx,Ty,Tz,R00,R01,R02,R10,R11,R12,R20,R21,R22,cart_T_ecm,Tx,Ty,Tz,R00,R01,R02,R10,R11,R12,R20,R21,R22,ecm_T_psm1,Tx,Ty,Tz,R00,R01,R02,R10,R11,R12,R20,R21,R22,ecm_T_psm3,Tx,Ty,Tz,R00,R01,R02,R10,R11,R12,R20,R21,R22,psm1_joints,q1,q2,q3,q4,q5,q6,jaw,psm3_joints,q1,q2,q3,q4,q5,q6,jaw,ecm_joints,q1,q2,q3,q4,ecmi_T_ecm,Tx,Ty,Tz,R00,R01,R02,R10,R11,R12,R20,R21,R22,Sample #,Task Duration (s),Collisions (binary),Collisions (increments),Cumulative Collision Time (s),Clutch Press,MTMR Angle,MTML Angle
""
lci_T_si,,,,,-0.058161814,0.028812556,0.22338274,0.99118906,-0.064254425,0.115825556,0.028569233,-0.75016135,-0.6606374,0.12933673,0.65812564,-0.741716
rci_T_si,,,,,-0.067850515,0.03317108,0.23398167,0.98941356,-0.079541974,0.12138337,0.022701237,-0.7412876,-0.67080355,0.14333703,0.66645765,-0.73163426
ecm_T_lc,,,,,-4.4061628e-05,-0.00034663224,-0.01840835,-0.99912,0.030754527,0.028518902,-0.031987965,-0.99852574,-0.043852776,0.027128186,-0.04472645,0.9986309
ecm_T_rc,,,,,-0.0043358393,0.01870579,-0.007592615,-0.99555075,-0.052743673,-0.078081585,0.04863213,-0.9973746,0.053654674,-0.08070653,0.04961868,0.9955021
cart_T_ecmi,,,,,0.106117226,1.3403053,0.44034997,0.9953694,0.013090626,-0.0952285,-0.052853465,-0.75295,-0.65595186,-0.08028912,0.65794754,-0.7487715
ecmac_T_ecmrep_psm1,,,,,0.006928962,-0.26080152,-0.2999526,0.99741316,0.06053514,0.03876121,-0.0592658,0.9976933,-0.033100393,-0.040675536,0.030717555,0.99870014
ecmac_T_ecmrep_psm3,,,,,-0.019041438,-0.46633056,-0.5465172,0.99408877,-0.01321918,0.10776258,-0.016145537,0.96352404,0.2671344,-0.107363135,-0.2672952,0.95761496
""
0,16:01:57.819649,NaN,0,,0.13296846,0.0069251806,0.030908123,0.4545245,0.32699102,-0.8285434,0.72027814,0.41230989,0.55785334,0.5240296,-0.85033965,-0.0481195,,0.06988352,-0.035146736,0.04351884,0.544744,0.4111784,0.7308804,0.36318612,-0.9012457,0.23633048,0.7558769,0.13670605,-0.6402825,,0.10610695,1.3403056,0.44034743,0.99537057,0.013107417,-0.09521387,-0.05283127,-0.7529497,-0.65595394,-0.08028912,0.65794754,-0.7487715,,-0.102973506,0.2655767,-0.08484229,-0.44108665,-0.21724816,0.87077314,0.88487583,-0.26721624,0.3815629,0.14979088,0.9388284,0.31010315,,-0.041052736,0.4074098,-0.38644588,-0.6107335,-0.4124157,-0.675957,0.7901756,-0.37268057,-0.48655075,-0.051254876,-0.8312776,0.5534894,,1.2111021375345103,0.5935846941786442,0.20940009402,3.074054571483127,0.16232416172134326,-1.2892621449422723,-0.4021530908225954,,-1.018358170459615,-0.35385562029696704,0.18611483675,-1.9937319826508577,-0.22845622760781642,-0.0425730948934388,0.6886585828221213,,-0.05570436473896402,-0.06207917983187331,0.08431779928,-0.06574422517700301,,-1.0039657e-05,-1.9073486e-06,2.861023e-06,1.0,1.6696751e-05,1.4677644e-05,-1.6700476e-05,1.0000001,1.758337e-06,-1.4677644e-05,-1.8179417e-06,1.0,36,0.107,0,0,0.0,False,-0.2629164992682367,0.7957542520618932
0.12202326999977231,16:01:57.846761,NaN,0,,0.13286075,0.007065356,0.031015858,0.45414662,0.32641488,-0.8289776,0.7175783,0.4174664,0.55749756,0.52804583,-0.848042,-0.044637278,,0.06900623,-0.035317533,0.04414797,0.53120756,0.41851994,0.7366542,0.36370772,-0.89792854,0.24787304,0.76520276,0.13625479,-0.62920547,,0.10610695,1.3403056,0.44034743,0.99537057,0.013107417,-0.09521387,-0.05283127,-0.7529497,-0.65595394,-0.08028912,0.65794754,-0.7487715,,-0.10286506,0.26575303,-0.08484053,-0.441278,-0.21647426,0.87086886,0.8855795,-0.26185414,0.38364223,0.14499193,0.94051653,0.30725566,,-0.040230613,0.4079315,-0.3869424,-0.59804684,-0.4197245,-0.68276745,0.79950213,-0.3719586,-0.47163874,-0.056002893,-0.82793605,0.5580193,,1.2121678746711533,0.5938704352949906,0.20938972370000003,3.073635191596158,0.1578151572290837,-1.2916295808906917,-0.3952926400449558,,-1.0156166002892653,-0.354612448118641,0.18510373055,-1.99708702174661,-0.24703879157591632,-0.04767658754558493,0.6834315727058244,,-0.05570436473896402,-0.06207917983187331,0.08431779928,-0.06574422517700301,,-1.0039657e-05,-1.9073486e-06,2.861023e-06,1.0,1.6696751e-05,1.4677644e-05,-1.6700476e-05,1.0000001,1.758337e-06,-1.4677644e-05,-1.8179417e-06,1.0,44,0.132,0,0,0.0,False,-0.2626781883941529,0.7896709467636818
0.14912523794919252,16:01:57.880184,NaN,0,,0.13276331,0.0071267486,0.031049088,0.45290676,0.32881513,-0.8287073,0.71663433,0.41869837,0.55778784,0.5303875,-0.846506,-0.046008855,,0.06728362,-0.035668947,0.045273364,0.50438666,0.43333194,0.74687177,0.36523414,-0.8908382,0.27020627,0.78243095,0.13649464,-0.6075946,,0.10610695,1.3403056,0.44034743,0.99537057,0.013107417,-0.09521387,-0.05283127,-0.7529497,-0.65595394,-0.08028912,0.65794754,-0.7487715,,-0.10276643,0.26582092,-0.08483543,-0.4403277,-0.21889664,0.87074435,0.8864575,-0.25991255,0.3829342,0.14249438,0.9404944,0.30848926,,-0.038606793,0.40885353,-0.38787538,-0.57280797,-0.4345723,-0.6950093,0.8171596,-0.36931324,-0.44255844,-0.06435248,-0.8214345,0.5666605,,1.212878366095582,0.5938009306991225,0.20938713112000001,3.072167361991766,0.15521906373354036,-1.2898393556810221,-0.39692608070629853,,-1.0097704915034773,-0.35628828115234773,0.18321244344,-2.0044261697685686,-0.28338410051352353,-0.05716354168966614,0.6715074558780221,,-0.05570436473896402,-0.06207917983187331,0.08431779928,-0.06574422517700301,,-1.0039657e-05,-1.9073486e-06,2.861023e-06,1.0,1.6696751e-05,1.4677644e-05,-1.6700476e-05,1.0000001,1.758337e-06,-1.4677644e-05,-1.8179417e-06,1.0,56,0.169,0,0,0.0,False,-0.2622015666459845,0.8035273643873859
0.18253828096203506,16:01:57.908257,NaN,0,,0.13268667,0.0071497783,0.031041741,0.4515936,0.33477178,-0.8270373,0.7138076,0.4205648,0.5600039,0.5352962,-0.84323967,-0.049038306,,0.066231,-0.035900697,0.045770407,0.49330235,0.43890384,0.75101,0.36646864,-0.8878739,0.27817392,0.7888938,0.1379978,-0.59883475,,0.106154256,1.3403021,0.4403547,0.9953681,0.013072795,-0.09524403,-0.05287704,-0.7529503,-0.6559496,-0.08028912,0.65794754,-0.7487715,,-0.10272798,0.26582852,-0.08481385,-0.4396444,-0.2249339,0.86955017,0.88768446,-0.25633126,0.38250569,0.1368544,0.9400527,0.31236494,,-0.03764246,0.40923685,-0.3883562,-0.5623011,-0.44031847,-0.6999551,0.82421905,-0.36694297,-0.4312955,-0.06693625,-0.8194343,0.5692513,,1.2130791571503117,0.5934920213841536,0.20937935338000002,3.071118912274344,0.14920705774386098,-1.285753755319785,-0.3995395857644469,,-1.0064806072990578,-0.3572767909602485,0.18224929997000003,-2.007990898807805,-0.29882402498701827,-0.05952052801769342,0.6670971660923964,,-0.05570436473896402,-0.06207917983187331,0.08431779928,-0.06574422517700301,,3.6641955e-05,5.9604645e-06,-4.887581e-06,1.0,-1.7736107e-05,-1.5579164e-05,1.7732382e-05,1.0,-1.9073486e-06,1.558289e-05,1.9073486e-06,1.0,63,0.189,0,0,0.0,False,-0.262797343831195,0.8143421293619846
0.21061827696394175,16:01:57.933456,NaN,0,,0.13268486,0.007147692,0.031047016,0.4497953,0.33853906,-0.82648355,0.7112518,0.4239192,0.56072605,0.54018986,-0.84004986,-0.050109655,,0.064867206,-0.036219552,0.046513796,0.4765132,0.44458377,0.7584723,0.36591595,-0.8847344,0.28870505,0.79940015,0.13996536,-0.584268,,0.106154256,1.3403021,0.4403547,0.9953681,0.013072795,-0.09524403,-0.05287704,-0.7529503,-0.6559496,-0.08028912,0.65794754,-0.7487715,,-0.10272681,0.26583052,-0.08481931,-0.43849158,-0.22869305,0.86915165,0.8890867,-0.2517084,0.38231885,0.1313391,0.9403948,0.31369996,,-0.03634389,0.40981948,-0.3890551,-0.54646355,-0.44617596,-0.7087345,0.8342671,-0.3641058,-0.41403556,-0.07332162,-0.8175292,0.57120043,,1.2130791571503117,0.5932371711993042,0.20936639048000003,3.069651082669952,0.14333168825394704,-1.2845566500270238,-0.39823283323537273,,-1.0013836036020696,-0.3588290602679676,0.18086615854000002,-2.0109265580165885,-0.32314532194526663,-0.06149636477726048,0.6630135644390395,,-0.05570436473896402,-0.06207917983187331,0.08431779928,-0.06574422517700301,,3.6641955e-05,5.9604645e-06,-4.887581e-06,1.0,-1.7736107e-05,-1.5579164e-05,1.7732382e-05,1.0,-1.9073486e-06,1.558289e-05,1.9073486e-06,1.0,75,0.226,0,0,0.0,False,-0.26249945523859,0.8405582783852306
0.23581589997047558,16:01:57.970539,NaN,0,,0.13269188,0.0071443096,0.031095505,0.445768,0.3482746,-0.8246183,0.7050272,0.4310272,0.5631629,0.5515682,-0.8324183,-0.053404927,,0.06307867,-0.03663957,0.047472954,0.4482351,0.45551988,0.7691468,0.36189303,-0.87923115,0.30981612,0.8173852,0.13947842,-0.55895174,,0.106154256,1.3403021,0.4403547,0.9953681,0.013072795,-0.09524403,-0.05287704,-0.7529503,-0.6559496,-0.08028912,0.65794754,-0.7487715,,-0.10273832,0.26586062,-0.084856376,-0.4359861,-0.23847611,0.8677818,0.8921382,-0.24132797,0.3819035,0.11834516,0.94068587,0.3179693,,-0.034639545,0.41056916,-0.3899653,-0.5197824,-0.4570844,-0.7217341,0.8498688,-0.3625856,-0.3824326,-0.08688643,-0.812161,0.57692736,,1.2130714344174376,0.5927892526925992,0.20931324259000003,3.066505733517684,0.12966803827740297,-1.2805209100496104,-0.4003563060951185,,-0.9941010665016757,-0.3610840982672412,0.17910190785000002,-2.0134428373384026,-0.36372636237560246,-0.06924461744970449,0.6633402525713081,,-0.05570436473896402,-0.06207917983187331,0.08431779928,-0.06574422517700301,,3.6641955e-05,5.9604645e-06,-4.887581e-06,1.0,-1.7736107e-05,-1.5579164e-05,1.7732382e-05,1.0,-1.9073486e-06,1.558289e-05,1.9073486e-06,1.0,86,0.26,0,0,0.0,False,-0.26255903295711036,0.8718438484903199
0.2728777150041424,16:01:58.003962,NaN,0,,0.1326119,0.007149048,0.031233907,0.44324574,0.3540374,-0.82352316,0.69941676,0.43802482,0.56475717,0.5606686,-0.8263122,-0.053467095,,0.061742958,-0.036960438,0.048146665,0.42453116,0.46540564,0.77664065,0.35949048,-0.87390804,0.32718712,0.8309872,0.14029378,-0.53831005,,0.106154256,1.3403021,0.4403547,0.9953681,0.013072795,-0.09524403,-0.05287704,-0.7529503,-0.6559496,-0.08028912,0.65794754,-0.7487715,,-0.10267076,0.26595733,-0.084964365,-0.43472573,-0.24418822,0.86682504,0.89411014,-0.23205015,0.38304013,0.10761299,0.9415545,0.31920934,,-0.033363,0.41108885,-0.39062965,-0.49730113,-0.4670555,-0.73112977,0.86217487,-0.3599574,-0.35649005,-0.096674934,-0.8076446,0.5816907,,1.2136506393830044,0.5925498479734982,0.20919009504000002,3.0646185240263235,0.1186004817964023,-1.2790921826832726,-0.40215309082259554,,-0.9883244623117559,-0.36293755415705503,0.17783672881,-2.01700756637764,-0.3963824858195427,-0.07545059200276576,0.6675871982907993,,-0.05570436473896402,-0.06207917983187331,0.08431779928,-0.06574422517700301,,3.6641955e-05,5.9604645e-06,-4.887581e-06,1.0,-1.7736107e-05,-1.5579164e-05,1.7732382e-05,1.0,-1.9073486e-06,1.558289e-05,1.9073486e-06,1.0,98,0.296,0,0,0.0,False,-0.2620824112089424,0.8843001402914203
0.3062778969760984,16:01:58.037977,NaN,0,,0.13245988,0.007178776,0.031341493,0.44224373,0.35792118,-0.8223823,0.6958466,0.44158968,0.5663888,0.56587803,-0.8227339,-0.05376801,,0.06046065,-0.03728117,0.0487386,0.4005206,0.47062528,0.7861901,0.35591874,-0.87054914,0.33980286,0.84433705,0.14372173,-0.51617724,,0.106154256,1.3403021,0.4403547,0.9953681,0.013072795,-0.09524403,-0.05287704,-0.7529503,-0.6559496,-0.08028912,0.65794754,-0.7487715,,-0.10252697,0.26605186,-0.08504152,-0.43447113,-0.24808086,0.8658468,0.89497304,-0.22701031,0.38404372,0.101282254,0.9417655,0.3206551,,-0.032132696,0.41153425,-0.39125055,-0.47448137,-0.47258097,-0.7426538,0.87369484,-0.35571992,-0.33184436,-0.10735343,-0.8063067,0.58167404,,1.214631426458031,0.5923104432543972,0.20910065103000003,3.063779764252385,0.11204192980766116,-1.2769295941713263,-0.39872286543377544,,-0.9824165716629741,-0.3648682373756112,0.17668173442000001,-2.0197335356429384,-0.42958515526254476,-0.07631017053260768,0.6747743372007076,,-0.05570436473896402,-0.06207917983187331,0.08431779928,-0.06574422517700301,,3.6641955e-05,5.9604645e-06,-4.887581e-06,1.0,-1.7736107e-05,-1.5579164e-05,1.7732382e-05,1.0,-1.9073486e-06,1.558289e-05,1.9073486e-06,1.0,106,0.32,0,0,0.0,False,-0.262797343831195,0.8843001402914203
0.34033677499974146,16:01:58.066908,NaN,0,,0.13230842,0.007247232,0.031451643,0.43940705,0.3657111,-0.82047343,0.68973213,0.4477992,0.56898654,0.5754919,-0.8159236,-0.055476576,,0.05920315,-0.03759764,0.04924494,0.37289044,0.47716352,0.795781,0.35264227,-0.8661639,0.35412362,0.8582517,0.14857674,-0.4912523,,0.106154256,1.3403021,0.4403547,0.9953681,0.013072795,-0.09524403,-0.05287704,-0.7529503,-0.6559496,-0.08028912,0.65794754,-0.7487715,,-0.10238093,0.26617682,-0.08509464,-0.4329835,-0.25592992,0.8643062,0.89691776,-0.2178447,0.38481456,0.08979896,0.9418299,0.32387123,,-0.030919863,0.41190645,-0.39182356,-0.44810638,-0.47955188,-0.75447375,0.8861331,-0.34984025,-0.30394077,-0.11818992,-0.80476195,0.5817124,,1.2157048863275481,0.5919551975421828,0.20903065137000001,3.0614731748740556,0.10015455432806786,-1.272953748359577,-0.40394987555007256,,-0.9761148216376069,-0.36696109798452603,0.17563562839000002,-2.024346714399598,-0.4663403736994482,-0.07696828199098121,0.681471443912213,,-0.05570436473896402,-0.06207917983187331,0.08431779928,-0.06574422517700301,,3.6641955e-05,5.9604645e-06,-4.887581e-06,1.0,-1.7736107e-05,-1.5579164e-05,1.7732382e-05,1.0,-1.9073486e-06,1.558289e-05,1.9073486e-06,1.0,114,0.345,0,0,0.0,False,-0.26160578946077395,0.8786996370010027
0.36927507899235934,16:01:58.087955,NaN,0,,0.13213935,0.007293232,0.0315547,0.43863684,0.3685031,-0.8196358,0.6850148,0.4532472,0.57037,0.58168066,-0.8116481,-0.053619236,,0.05835531,-0.037807718,0.049587667,0.3459531,0.48112595,0.8055025,0.34836033,-0.86301285,0.36586052,0.871184,0.1540345,-0.46616715,,0.106154256,1.3403021,0.4403547,0.9953681,0.013072795,-0.09524403,-0.05287704,-0.7529503,-0.6559496,-0.08028912,0.65794754,-0.7487715,,-0.10221852,0.26628038,-0.08515959,-0.43313566,-0.25865212,0.8634191,0.89759004,-0.21094105,0.38708654,0.08200978,0.9426574,0.32352966,,-0.03010228,0.41216022,-0.39220777,-0.42232803,-0.48399565,-0.76641196,0.8971635,-0.34386846,-0.27722225,-0.12937053,-0.8046755,0.5794485,,1.216801514395688,0.5916385654943397,0.20895287397,3.0610537949870866,0.09209300084190686,-1.2725876762921708,-0.40068299422738696,,-0.9714116773172041,-0.3685983173538616,0.17497711307000002,-2.0285405132692884,-0.5007727716403392,-0.07551823954530625,0.6845749811687644,,-0.05570436473896402,-0.06207917983187331,0.08431779928,-0.06574422517700301,,3.6641955e-05,5.9604645e-06,-4.887581e-06,1.0,-1.7736107e-05,-1.5579164e-05,1.7732382e-05,1.0,-1.9073486e-06,1.558289e-05,1.9073486e-06,1.0,133,0.402,0,0,0.0,False,-0.2622015666459845,0.8775409121822961
0.39032480597961694,16:01:58.137681,NaN,0,,0.131589,0.0073561296,0.031810105,0.43558055,0.37831378,-0.8167912,0.67671525,0.4607234,0.574274,0.5935705,-0.8028777,-0.055328608,,0.056374535,-0.038340554,0.05008155,0.27657378,0.50466883,0.8178117,0.33726138,-0.8478515,0.40914863,0.8998676,0.16265655,-0.40469882,,0.106154256,1.3403021,0.4403547,0.9953681,0.013072795,-0.09524403,-0.05287704,-0.7529503,-0.6559496,-0.08028912,0.65794754,-0.7487715,,-0.10168964,0.2664994,-0.085370265,-0.43180254,-0.26858142,0.86105204,0.89944875,-0.19952236,0.38882232,0.06736868,0.9423666,0.3277295,,-0.028165644,0.4124685,-0.39298603,-0.35553917,-0.5083355,-0.78433853,0.9215704,-0.33061698,-0.20347087,-0.15588419,-0.79516506,0.5860142,,1.2200759531343592,0.5905728283576968,0.20871306032000003,3.0579084458348187,0.07651643986864665,-1.265685225820759,-0.4023164348887298,,-0.959024413786948,-0.3730697796880376,0.17375341531000002,-2.0413315998218446,-0.5876735854911594,-0.08682526537578783,0.6899653353511955,,-0.05570436473896402,-0.06207917983187331,0.08431779928,-0.06574422517700301,,3.6641955e-05,5.9604645e-06,-4.887581e-06,1.0,-1.7736107e-05,-1.5579164e-05,1.7732382e-05,1.0,-1.9073486e-06,1.558289e-05,1.9073486e-06,1.0,137,0.414,0,0,0.0,False,-0.2620824112089424,0.8606428419094856
0.4400214239722118,16:01:58.159407,NaN,0,,0.13133876,0.0073787495,0.031900555,0.43372998,0.38178647,-0.81615996,0.67401475,0.46366245,0.5750839,0.59798187,-0.79953504,-0.05622548,,0.055544894,-0.03862019,0.05002594,0.2589742,0.51217985,0.81890416,0.33722866,-0.84242135,0.42024168,0.9051017,0.16732621,-0.3908871,,0.106154256,1.3403021,0.4403547,0.9953681,0.013072795,-0.09524403,-0.05287704,-0.7529503,-0.6559496,-0.08028912,0.65794754,-0.7487715,,-0.101447366,0.2665773,-0.08545119,-0.43056655,-0.27209416,0.860568,0.9004196,-0.19510366,0.3888176,0.062104955,0.9422841,0.32900402,,-0.027331578,0.4123438,-0.3932276,-0.33845007,-0.51627,-0.7867127,0.92742324,-0.32444188,-0.18607411,-0.15917806,-0.79259247,0.58860815,,1.221520104181839,0.5900476825222495,0.20862102373000002,3.055811546399973,0.07077770687849815,-1.2632109998493042,-0.4023164348887298,,-0.9534794915832548,-0.375147194831204,0.17339823185000003,-2.0476222981263805,-0.6103552444522224,-0.08825950595647909,0.6899653353511955,,-0.05570436473896402,-0.06207917983187331,0.08431779928,-0.06574422517700301,,3.6641955e-05,5.9604645e-06,-4.887581e-06,1.0,-1.7736107e-05,-1.5579164e-05,1.7732382e-05,1.0,-1.9073486e-06,1.558289e-05,1.9073486e-06,1.0,145,0.439,0,0,0.0,False,-0.2621419889274632,0.8533525315917871
0.46176641498459503,16:01:58.189202,NaN,0,,0.13096121,0.007419117,0.031996995,0.43428144,0.38377178,-0.8149347,0.6704109,0.4665379,0.57696784,0.60162175,-0.79690754,-0.054676056,,0.054026857,-0.03929153,0.049479127,0.24981254,0.5133845,0.82099324,0.34381467,-0.83965635,0.42043874,0.90519893,0.17723861,-0.3862658,,0.106154256,1.3403021,0.4403547,0.9953681,0.013072795,-0.09524403,-0.05287704,-0.7529503,-0.6559496,-0.08028912,0.65794754,-0.7487715,,-0.1010778,0.26667252,-0.0855397,-0.43171862,-0.27407175,0.85936236,0.90019995,-0.19121112,0.3912523,0.05708844,0.9425089,0.32926878,,-0.025765942,0.4116527,-0.39358166,-0.32939517,-0.51834196,-0.78918976,0.9315695,-0.31462854,-0.18217333,-0.15387353,-0.7951921,0.5865087,,1.2236593011879993,0.5892831319677012,0.20851861682000003,3.056021236343458,0.06517561038811509,-1.2611749067421085,-0.4023164348887296,,-0.9426753882922148,-0.3794950934393924,0.17298341905,-2.056219585809246,-0.6268882609238408,-0.07861684039581862,0.6862084218301072,,-0.05570436473896402,-0.06207917983187331,0.08431779928,-0.06574422517700301,,3.6641955e-05,5.9604645e-06,-4.887581e-06,1.0,-1.7736107e-05,-1.5579164e-05,1.7732382e-05,1.0,-1.9073486e-06,1.558289e-05,1.9073486e-06,1.0,157,0.476,0,0,0.0,False,-0.2622015666459845,0.847848588702929
0.49151695595355704,16:01:58.216114,NaN,0,,0.13064313,0.0074663833,0.032039195,0.43628082,0.38650388,-0.8125721,0.6667639,0.46753272,0.58037865,0.6042226,-0.7950018,-0.053731307,,0.05337347,-0.039647907,0.049156666,0.24896838,0.51383126,0.8209701,0.3481405,-0.8384845,0.41921586,0.90377706,0.18144147,-0.38764167,,0.106154256,1.3403021,0.4403547,0.9953681,0.013072795,-0.09524403,-0.05287704,-0.7529503,-0.6559496,-0.08028912,0.65794754,-0.7487715,,-0.10076199,0.2667363,-0.08557673,-0.43422005,-0.27687493,0.8572008,0.89924765,-0.18919668,0.3944088,0.05297764,0.942096,0.3311321,,-0.025083993,0.41124633,-0.39374802,-0.32847548,-0.5191567,-0.7890375,0.93261284,-0.31046298,-0.1839729,-0.14945616,-0.7962971,0.5861517,,1.2254355297490709,0.5885571950775241,0.20847065409,3.0579084458348187,0.06052996939609012,-1.2577134129769925,-0.4018264026903269,,-0.9378255120472018,-0.3817346859729175,0.17285767892,-2.0599940047919674,-0.6305774464175076,-0.07446505463404732,0.6835949167719586,,-0.05570436473896402,-0.06207917983187331,0.08431779928,-0.06574422517700301,,3.6641955e-05,5.9604645e-06,-4.887581e-06,1.0,-1.7736107e-05,-1.5579164e-05,1.7732382e-05,1.0,-1.9073486e-06,1.558289e-05,1.9073486e-06,1.0,165,0.5,0,0,0.0,False,-0.2626781883941529,0.8461587816756477
0.5184856959967874,16:01:58.240270,NaN,0,,0.1303562,0.007526286,0.03206116,0.43512923,0.391677,-0.81071043,0.662915,0.46993488,0.58284235,0.609267,-0.7910439,-0.05516617,,0.052700154,-0.040137827,0.048772693,0.24889961,0.51835597,0.8181417,0.35539833,-0.83468086,0.4207135,0.90096664,0.18605077,-0.39197463,,0.106154256,1.3403021,0.4403547,0.9953681,0.013072795,-0.09524403,-0.05287704,-0.7529503,-0.6559496,-0.08028912,0.65794754,-0.7487715,,-0.100474276,0.26679575,-0.08558674,-0.4338242,-0.28217262,0.85567236,0.8997935,-0.18476364,0.39526457,0.0465643,0.94140375,0.33405203,,-0.024375623,0.41072085,-0.39399886,-0.32823887,-0.5240948,-0.78586507,0.93389344,-0.30493167,-0.18670765,-0.14178264,-0.7951989,0.5895391,,1.2270573036526582,0.5877694763243532,0.20844991345000002,3.0566503061739114,0.053424871408287215,-1.253308220567168,-0.40198974675646126,,-0.9327207856173394,-0.38483150185548154,0.17275397572,-2.0662847030965033,-0.6326269939139892,-0.07352889473986603,0.6788579388540645,,-0.05570436473896402,-0.06207917983187331,0.08431779928,-0.06574422517700301,,3.6641955e-05,5.9604645e-06,-4.887581e-06,1.0,-1.7736107e-05,-1.5579164e-05,1.7732382e-05,1.0,-1.9073486e-06,1.558289e-05,1.9073486e-06,1.0,176,0.533,0,0,0.0,False,-0.26106958999408425,0.8398340753735387
0.54259342700243,16:01:58.271413,NaN,0,,0.1301561,0.0075809583,0.03206867,0.42992875,0.39731312,-0.8107424,0.65726876,0.47791308,0.5827496,0.61899835,-0.7834165,-0.05567296,,0.052464765,-0.0404519,0.04859948,0.25192377,0.5208224,0.81564593,0.36100888,-0.83256704,0.42012462,0.8978902,0.18861602,-0.39776492,,0.106154256,1.3403021,0.4403547,0.9953681,0.013072795,-0.09524403,-0.05287704,-0.7529503,-0.6559496,-0.08028912,0.65794754,-0.7487715,,-0.10027196,0.26684153,-0.08557939,-0.42996296,-0.2878163,0.85574156,0.9021668,-0.1737369,0.39485517,0.035028137,0.9417947,0.33435872,,-0.024123255,0.41043118,-0.3941898,-0.33104488,-0.5267915,-0.7828793,0.93386674,-0.3018508,-0.19177844,-0.13528547,-0.7945922,0.59187925,,1.228184822652295,0.5868968075095659,0.20844732087,3.0518274374737673,0.040990949929632134,-1.2521538527462555,-0.40231643488873003,,-0.9309677252548905,-0.3867467396082892,0.17271638331000003,-2.0700591220792246,-0.6292110814198533,-0.07353726516749728,0.6688939508198736,,-0.05570436473896402,-0.06207917983187331,0.08431779928,-0.06574422517700301,,3.6641955e-05,5.9604645e-06,-4.887581e-06,1.0,-1.7736107e-05,-1.5579164e-05,1.7732382e-05,1.0,-1.9073486e-06,1.558289e-05,1.9073486e-06,1.0,184,0.558,0,0,0.0,False,-0.2608312791200009,0.8371303841298894
0.5737815139582381,16:01:58.299154,NaN,0,,0.13004473,0.00759653,0.03205794,0.4266118,0.3963654,-0.8129553,0.65347135,0.4863413,0.580041,0.62528193,-0.77869546,-0.05153455,,0.0524293,-0.040859357,0.04848671,0.2582267,0.52240086,0.81265986,0.37163424,-0.830174,0.41557083,0.8917438,0.1947008,-0.40851516,,0.106154256,1.3403021,0.4403547,0.9953681,0.013072795,-0.09524403,-0.05287704,-0.7529503,-0.6559496,-0.08028912,0.65794754,-0.7487715,,-0.100159205,0.266846,-0.08557428,-0.42752236,-0.28663024,0.8573609,0.9035869,-0.16432324,0.3956369,0.027482826,0.9438437,0.3292472,,-0.024074314,0.41013032,-0.3944849,-0.33690533,-0.5289061,-0.7789436,0.9334963,-0.29553926,-0.20307936,-0.12279852,-0.79555947,0.59330064,,1.228740859419239,0.5862635434138794,0.20844732087,3.048891778264984,0.0327927599437057,-1.2571488383645708,-0.4023164348887298,,-0.9308596069946513,-0.3892334595937895,0.17269953154,-2.0778176499881518,-0.6189633439374452,-0.07054026306519089,0.665627069497188,,-0.05570436473896402,-0.06207917983187331,0.08431779928,-0.06574422517700301,,3.6641955e-05,5.9604645e-06,-4.887581e-06,1.0,-1.7736107e-05,-1.5579164e-05,1.7732382e-05,1.0,-1.9073486e-06,1.558289e-05,1.9073486e-06,1.0,192,0.582,0,0,0.0,False,-0.2613079008681689,0.8407996793891281
0.6015106449485756,16:01:58.328898,NaN,0,,0.12987635,0.0075848773,0.03200859,0.4232139,0.39899546,-0.8134447,0.6479527,0.49425286,0.5795443,0.63328284,-0.77234495,-0.049355537,,0.05271168,-0.041202217,0.04859364,0.26137024,0.5173665,0.8148725,0.37645513,-0.83200324,0.40749502,0.8888009,0.20025584,-0.4122262,,0.106154256,1.3403021,0.4403547,0.9953681,0.013072795,-0.09524403,-0.05287704,-0.7529503,-0.6559496,-0.08028912,0.65794754,-0.7487715,,-0.09998855,0.2668044,-0.085565716,-0.4252882,-0.28918138,0.85761535,0.90488845,-0.15420066,0.39673546,0.017516347,0.94477314,0.32725662,,-0.02436139,0.41002575,-0.39482456,-0.33983395,-0.52434564,-0.78075254,0.9331738,-0.29130828,-0.21053779,-0.11704509,-0.80012566,0.5883021,,1.2294359053779194,0.5851591926128653,0.20844991345000002,3.0461658089996853,0.021725203462705032,-1.258660545643293,-0.40068299422738707,,-0.9331378131925475,-0.3913726565999497,0.17270860557,-2.080753309196935,-0.6124047919487041,-0.06461665630322153,0.6648103491665165,,-0.05570436473896402,-0.06207917983187331,0.08431779928,-0.06574422517700301,,3.6641955e-05,5.9604645e-06,-4.887581e-06,1.0,-1.7736107e-05,-1.5579164e-05,1.7732382e-05,1.0,-1.9073486e-06,1.558289e-05,1.9073486e-06,1.0,200,0.607,0,0,0.0,False,-0.26232072208302704,0.8412342011961429
0.6312690529739484,16:01:58.351130,NaN,0,,0.12974504,0.0075144395,0.03192064,0.4232371,0.39855704,-0.8136475,0.64821464,0.49422538,0.5792748,0.6329992,-0.7725889,-0.049176037,,0.052996784,-0.041377142,0.048734903,0.26242927,0.51633346,0.81518745,0.37714228,-0.83248293,0.40587667,0.8881973,0.20092772,-0.413199,,0.106154256,1.3403021,0.4403547,0.9953681,0.013072795,-0.09524403,-0.05287704,-0.7529503,-0.6559496,-0.08028912,0.65794754,-0.7487715,,-0.099855915,0.2666933,-0.08556365,-0.4252656,-0.28872663,0.85777974,0.9048915,-0.15438451,0.396657,0.01790246,0.9448822,0.32692072,,-0.024655767,0.41003582,-0.3950369,-0.3408444,-0.52336884,-0.7809675,0.932922,-0.29089457,-0.21221893,-0.11611043,-0.80091536,0.58741206,,1.2297757056243852,0.5843328601953233,0.20844991345000002,3.045956119056201,0.02131529396340871,-1.258653006892766,-0.40149971455805833,,-0.9351766146713428,-0.3923534436749762,0.17272545734000003,-2.0805436192534508,-0.6100819714526916,-0.06528557956395217,0.6664437898278592,,-0.05570436473896402,-0.06207917983187331,0.08431779928,-0.06574422517700301,,3.6641955e-05,5.9604645e-06,-4.887581e-06,1.0,-1.7736107e-05,-1.5579164e-05,1.7732382e-05,1.0,-1.9073486e-06,1.558289e-05,1.9073486e-06,1.0,212,0.644,0,0,0.0,False,-0.26112916771260597,0.8411859209953634
0.653501984954346,16:01:58.380786,NaN,0,,0.12954836,0.0074468777,0.031823725,0.41980058,0.4050355,-0.8122274,0.6457809,0.4955275,0.58087844,0.63775736,-0.76837415,-0.053541467,,0.0534366,-0.041529566,0.048998058,0.25971854,0.51467305,0.81710327,0.37744462,-0.8329325,0.4046716,0.8888654,0.20331055,-0.41058862,,0.106154256,1.3403021,0.4403547,0.9953681,0.013072795,-0.09524403,-0.05287704,-0.7529503,-0.6559496,-0.08028912,0.65794754,-0.7487715,,-0.09965737,0.26657835,-0.08556081,-0.4224645,-0.29542965,0.856881,0.906295,-0.1505945,0.3949059,0.0123746665,0.9434207,0.33136722,,-0.025114885,0.41014966,-0.39528623,-0.33820355,-0.5219132,-0.78308684,0.93386114,-0.28894863,-0.21074173,-0.116282985,-0.80256796,0.5851179,,1.2304089697200715,0.5830354410724535,0.20844861716000002,3.0426010799604484,0.014483468975136688,-1.2533271479283665,-0.40084633829352123,,-0.9385051125401336,-0.39337284441437387,0.17274749427000002,-2.0818017589143576,-0.6103552444522224,-0.06473602879599713,0.6657904135633221,,-0.05570436473896402,-0.06207917983187331,0.08431779928,-0.06574422517700301,,3.6641955e-05,5.9604645e-06,-4.887581e-06,1.0,-1.7736107e-05,-1.5579164e-05,1.7732382e-05,1.0,-1.9073486e-06,1.558289e-05,1.9073486e-06,1.0,223,0.676,0,0,0.0,False,-0.26095043455704303,0.8444206944475874
0.6831487320014276,16:01:58.411975,NaN,0,,0.1293948,0.0074069723,0.031784177,0.41905633,0.4039382,-0.8131577,0.6466069,0.49595577,0.5795926,0.6374098,-0.76867545,-0.053355858,,0.053756908,-0.041597426,0.049181342,0.26054117,0.5116339,0.81874835,0.3738467,-0.8353432,0.40303892,0.8901443,0.20107815,-0.40891397,,0.106154256,1.3403021,0.4403547,0.9953681,0.013072795,-0.09524403,-0.05287704,-0.7529503,-0.6559496,-0.08028912,0.65794754,-0.7487715,,-0.09950453,0.2665224,-0.08557654,-0.42162988,-0.2942798,0.85768735,0.9066735,-0.15047877,0.39408037,0.013093835,0.9437985,0.33026204,,-0.02544896,0.4102473,-0.3954264,-0.33909675,-0.51867133,-0.7848525,0.9330664,-0.29184988,-0.21026325,-0.12000158,-0.8036191,0.5829202,,1.2310190656171354,0.5824176224425156,0.20843046910000002,3.041342940299541,0.01462010547490213,-1.2539286382729065,-0.40019296202898436,,-0.9408528233338977,-0.39368175372934283,0.17277082749000003,-2.0771885801576984,-0.6096720619533953,-0.06643662067644715,0.6680772304892021,,-0.05570436473896402,-0.06207917983187331,0.08431779928,-0.06574422517700301,,3.6641955e-05,5.9604645e-06,-4.887581e-06,1.0,-1.7736107e-05,-1.5579164e-05,1.7732382e-05,1.0,-1.9073486e-06,1.558289e-05,1.9073486e-06,1.0,231,0.701,0,0,0.0,False,-0.26112916771260597,0.8444689746483669
0.7143452320015058,16:01:58.447903,NaN,0,,0.1292732,0.007423334,0.03179753,0.41923338,0.40316823,-0.8134484,0.64673257,0.49620053,0.5792428,0.6371658,-0.7689216,-0.052718237,,0.053851455,-0.04156226,0.049208224,0.2600973,0.5119612,0.8186849,0.3735273,-0.83520466,0.4036218,0.89040816,0.20082022,-0.40846598,,0.106154256,1.3403021,0.4403547,0.9953681,0.013072795,-0.09524403,-0.05287704,-0.7529503,-0.6559496,-0.08028912,0.65794754,-0.7487715,,-0.099383675,0.26654366,-0.08558979,-0.42177427,-0.2934743,0.85789233,0.90660214,-0.15046225,0.39425072,0.013377967,0.94405186,0.32952553,,-0.025545796,0.41028085,-0.39540645,-0.33867383,-0.51897687,-0.78483313,0.9331654,-0.29202643,-0.20957793,-0.12042592,-0.80335766,0.583193,,1.231698666110067,0.5822091086549116,0.20841491362000003,3.0411332503560566,0.014756741974667567,-1.2541217349167435,-0.4003563060951185,,-0.9414706419638358,-0.3934886854074872,0.17280582732000002,-2.0771885801576984,-0.6096720619533953,-0.06709005059757159,0.6693839830182763,,-0.05570436473896402,-0.06207917983187331,0.08431779928,-0.06574422517700301,,3.6641955e-05,5.9604645e-06,-4.887581e-06,1.0,-1.7736107e-05,-1.5579164e-05,1.7732382e-05,1.0,-1.9073486e-06,1.558289e-05,1.9073486e-06,1.0,239,0.726,0,0,0.0,False,-0.2607717014014801,0.8491038739231946
0.7502628350048326,16:01:58.468273,NaN,0,,0.12921268,0.007448934,0.031821728,0.4166702,0.40274692,-0.81497264,0.6482041,0.49692005,0.57697684,0.63735175,-0.7686777,-0.05401045,,0.053802438,-0.04153417,0.049161077,0.26035178,0.511981,0.8185916,0.37356812,-0.835214,0.4035646,0.89031655,0.20073096,-0.4087093,,0.106154256,1.3403021,0.4403547,0.9953681,0.013072795,-0.09524403,-0.05287704,-0.7529503,-0.6559496,-0.08028912,0.65794754,-0.7487715,,-0.099323705,0.26657897,-0.08559763,-0.41912994,-0.29302096,0.8593421,0.9078195,-0.14976524,0.39170665,0.013921317,0.9443035,0.32878125,,-0.025493216,0.4102585,-0.39536008,-0.33892003,-0.51898885,-0.78471893,0.93308765,-0.29210928,-0.20980841,-0.12033545,-0.8033198,0.5832638,,1.232115693685275,0.5822322768535342,0.20840583959000003,3.0379879012037887,0.01530328797372933,-1.254567406531529,-0.4003563060951185,,-0.9410381689228792,-0.3933187852842543,0.17281879022000002,-2.0771885801576984,-0.6096720619533953,-0.06676333563700941,0.6723241762086934,,-0.05570436473896402,-0.06207917983187331,0.08431779928,-0.06574422517700301,,3.6641955e-05,5.9604645e-06,-4.887581e-06,1.0,-1.7736107e-05,-1.5579164e-05,1.7732382e-05,1.0,-1.9073486e-06,1.558289e-05,1.9073486e-06,1.0,247,0.75,0,0,0.0,False,-0.260652545964438,0.8516627245645063
0.770627568999771,16:01:58.491433,NaN,0,,0.1291697,0.0074840114,0.031850547,0.4172044,0.40247244,-0.81483495,0.6478886,0.4970386,0.5772289,0.637323,-0.7687449,-0.053390637,,0.05371795,-0.041517586,0.049093544,0.26090744,0.5119198,0.818453,0.37378013,-0.8352581,0.40327683,0.89006495,0.20070352,-0.40927052,,0.106154256,1.3403021,0.4403547,0.9953681,0.013072795,-0.09524403,-0.05287704,-0.7529503,-0.6559496,-0.08028912,0.65794754,-0.7487715,,-0.09928082,0.26662436,-0.08560045,-0.41968265,-0.29273316,0.8591704,0.9075661,-0.14972228,0.3923099,0.013794831,0.9443996,0.32851052,,-0.025403446,0.41021562,-0.39531448,-0.3394543,-0.5189251,-0.78453016,0.9329359,-0.29215047,-0.21042514,-0.12000597,-0.80334604,0.5832955,,1.2324709393974895,0.5823172269151508,0.20840195072000003,3.038407281090758,0.01530328797372933,-1.254567406531529,-0.4003563060951185,,-0.9402967865669536,-0.39321066702401514,0.17282656796,-2.0771885801576984,-0.6095354254536298,-0.06622132361958134,0.6752643693991104,,-0.05570436473896402,-0.06207917983187331,0.08431779928,-0.06574422517700301,,3.6641955e-05,5.9604645e-06,-4.887581e-06,1.0,-1.7736107e-05,-1.5579164e-05,1.7732382e-05,1.0,-1.9073486e-06,1.558289e-05,1.9073486e-06,1.0,255,0.775,0,0,0.0,False,-0.2607717014014801,0.8523869275761982
0.7937804609537125,16:01:58.517333,NaN,0,,0.12913576,0.007514544,0.03186643,0.41751742,0.40233505,-0.8147425,0.6476965,0.49710023,0.5773915,0.6373134,-0.7687769,-0.053043023,,0.053569764,-0.041526288,0.048971593,0.26285687,0.51170236,0.81796503,0.3746562,-0.835384,0.40220183,0.88912255,0.20073417,-0.41129893,,0.106154256,1.3403021,0.4403547,0.9953681,0.013072795,-0.09524403,-0.05287704,-0.7529503,-0.6559496,-0.08028912,0.65794754,-0.7487715,,-0.09924612,0.26665768,-0.085595734,-0.42000768,-0.29258904,0.85906065,0.907417,-0.14969806,0.3926639,0.013710573,0.94444805,0.3283746,,-0.025245335,0.4101182,-0.39526537,-0.34132484,-0.51870984,-0.7838606,0.9324196,-0.29217106,-0.21267296,-0.11870583,-0.8034776,0.58338046,,1.2327489577809616,0.5823712860452703,0.20840583959000003,3.038616971034242,0.01530328797372933,-1.2544857277913886,-0.4005196501612527,,-0.939107485704323,-0.3932261124897636,0.17283564199,-2.0771885801576984,-0.60803242395621,-0.06532327331658724,0.6773878422588561,,-0.05570436473896402,-0.06207917983187331,0.08431779928,-0.06574422517700301,,3.6641955e-05,5.9604645e-06,-4.887581e-06,1.0,-1.7736107e-05,-1.5579164e-05,1.7732382e-05,1.0,-1.9073486e-06,1.558289e-05,1.9073486e-06,1.0,270,0.82,0,0,0.0,False,-0.2611887454311268,0.8495383957302098
0.8197027129936032,16:01:58.562142,NaN,0,,0.12915015,0.0075079426,0.031849116,0.41748428,0.402192,-0.81483006,0.6478366,0.49706078,0.5772681,0.6371927,-0.76887715,-0.05303973,,0.05344308,-0.041546136,0.048836768,0.26477206,0.5108821,0.81786007,0.37555552,-0.83579564,0.4005042,0.8881744,0.20110954,-0.4131599,,0.106154256,1.3403021,0.4403547,0.9953681,0.013072795,-0.09524403,-0.05287704,-0.7529503,-0.6559496,-0.08028912,0.65794754,-0.7487715,,-0.09925939,0.26664114,-0.08558572,-0.4199531,-0.29244128,0.85913765,0.90743953,-0.14979452,0.39257497,0.0138889775,0.9444785,0.32827947,,-0.025107432,0.41000238,-0.39521855,-0.343161,-0.5179205,-0.78358084,0.93191284,-0.29199386,-0.21512337,-0.11738398,-0.804051,0.5828576,,1.2326331167878481,0.5823403951137733,0.20841620991,3.038616971034242,0.01543992447349477,-1.2546788244352256,-0.4003563060951185,,-0.9380340258348059,-0.3933187852842543,0.17286416037000002,-2.0771885801576984,-0.606802695458321,-0.0637123147653571,0.674447649068439,,-0.05570436473896402,-0.06207917983187331,0.08431779928,-0.06574422517700301,,3.6641955e-05,5.9604645e-06,-4.887581e-06,1.0,-1.7736107e-05,-1.5579164e-05,1.7732382e-05,1.0,-1.9073486e-06,1.558289e-05,1.9073486e-06,1.0,278,0.844,0,0,0.0,False,-0.260652545964438,0.8458691004709711
0.8644874459714629,16:01:58.591709,NaN,0,,0.12917784,0.007483341,0.031802237,0.417355,0.4018641,-0.81505805,0.6479222,0.49730015,0.57696587,0.6371903,-0.7688939,-0.052826002,,0.053443726,-0.041544825,0.04881203,0.26482797,0.5104553,0.8181084,0.37558362,-0.8360044,0.40004212,0.88814586,0.20132576,-0.41311598,,0.106154256,1.3403021,0.4403547,0.9953681,0.013072795,-0.09524403,-0.05287704,-0.7529503,-0.6559496,-0.08028912,0.65794754,-0.7487715,,-0.09928469,0.26659137,-0.08556445,-0.4198178,-0.2920954,0.8593214,0.90750146,-0.14962815,0.39249527,0.013932604,0.9446119,0.32789356,,-0.02510598,0.40998176,-0.39520487,-0.34321457,-0.51751167,-0.7838274,0.93189824,-0.29188088,-0.21533985,-0.117343344,-0.80435514,0.582446,,1.232355098404376,0.5821859404562889,0.20843824684,3.038616971034242,0.01530328797372933,-1.2553025151927941,-0.39872286543377555,,-0.9379490757731894,-0.3933187852842543,0.17288490101,-2.0771885801576984,-0.606802695458321,-0.06314056358437317,0.6708540796134849,,-0.05570436473896402,-0.06207917983187331,0.08431779928,-0.06574422517700301,,3.6641955e-05,5.9604645e-06,-4.887581e-06,1.0,-1.7736107e-05,-1.5579164e-05,1.7732382e-05,1.0,-1.9073486e-06,1.558289e-05,1.9073486e-06,1.0,290,0.881,0,0,0.0,False,-0.2607121236829584,0.8458691004709711
0.8940774489892647,16:01:58.621222,NaN,0,,0.12920877,0.0074681863,0.031736195,0.41713327,0.40205228,-0.81507874,0.64760375,0.4977404,0.5769438,0.63765913,-0.7685106,-0.052746534,,0.053486697,-0.041535616,0.04881352,0.26477277,0.5107138,0.8179649,0.37552154,-0.8358859,0.4003479,0.88818854,0.20116223,-0.41310382,,0.106154256,1.3403021,0.4403547,0.9953681,0.013072795,-0.09524403,-0.05287704,-0.7529503,-0.6559496,-0.08028912,0.65794754,-0.7487715,,-0.09931077,0.2665357,-0.08552241,-0.41966403,-0.2922815,0.8593332,0.9075813,-0.14904489,0.39253247,0.01334925,0.9446466,0.327818,,-0.025149014,0.40998435,-0.39519617,-0.34316257,-0.51775646,-0.78368855,0.93190765,-0.29198125,-0.21516284,-0.11742039,-0.8041612,0.5826982,,1.2320539118222813,0.5819774266686848,0.20848102441000002,3.038616971034242,0.014483468975136688,-1.2556141526523024,-0.40019296202898413,,-0.9381962032251646,-0.3932724488870089,0.17290823423,-2.0771885801576984,-0.6066660589585556,-0.06357869644863187,0.670854079613485,,-0.05570436473896402,-0.06207917983187331,0.08431779928,-0.06574422517700301,,3.6641955e-05,5.9604645e-06,-4.887581e-06,1.0,-1.7736107e-05,-1.5579164e-05,1.7732382e-05,1.0,-1.9073486e-06,1.558289e-05,1.9073486e-06,1.0,298,0.906,0,0,0.0,False,-0.26059296824591627,0.8497315165333279
0.9235751350061037,16:01:58.646980,NaN,0,,0.12923881,0.0074720904,0.03168723,0.4171941,0.40223157,-0.81495917,0.647451,0.49774557,0.57711077,0.6377744,-0.76841336,-0.052768722,,0.0535318,-0.041533515,0.0488078,0.2647362,0.5108914,0.8178659,0.37549222,-0.8358014,0.40055156,0.88821185,0.20106173,-0.41310266,,0.106154256,1.3403021,0.4403547,0.9953681,0.013072795,-0.09524403,-0.05287704,-0.7529503,-0.6559496,-0.08028912,0.65794754,-0.7487715,,-0.09933596,0.2665056,-0.08548026,-0.41974664,-0.29246774,0.8592295,0.90754575,-0.14897582,0.39264092,0.013169629,0.9445998,0.32795995,,-0.025193485,0.409977,-0.3951899,-0.34312785,-0.5179257,-0.7835919,0.93191564,-0.2920385,-0.21505065,-0.11745874,-0.8040314,0.5828696,,1.231837675301803,0.5819001993399425,0.20852380198000003,3.038826660977727,0.014210195975605806,-1.2556363530653312,-0.40002961796284975,,-0.9384278852113913,-0.3932724488870089,0.17293804890000003,-2.0771885801576984,-0.6065294224587902,-0.06393515057274998,0.6739576168700362,,-0.05570436473896402,-0.06207917983187331,0.08431779928,-0.06574422517700301,,3.6641955e-05,5.9604645e-06,-4.887581e-06,1.0,-1.7736107e-05,-1.5579164e-05,1.7732382e-05,1.0,-1.9073486e-06,1.558289e-05,1.9073486e-06,1.0,317,0.963,0,0,0.0,False,-0.26005676877922745,0.8540767346034794
0.9493395449826494,16:01:58.703696,NaN,0,,0.12929326,0.007505335,0.03159502,0.41569045,0.40426755,-0.81472003,0.64696187,0.4981721,0.57729113,0.6392508,-0.7670673,-0.054460317,,0.053566493,-0.041529924,0.048772097,0.2646955,0.5105276,0.8181061,0.37547177,-0.8359797,0.4001987,0.88823265,0.20124497,-0.41296875,,0.106154256,1.3403021,0.4403547,0.9953681,0.013072795,-0.09524403,-0.05287704,-0.7529503,-0.6559496,-0.08028912,0.65794754,-0.7487715,,-0.099379286,0.2664681,-0.08538386,-0.4184223,-0.2945748,0.85915565,0.90817875,-0.14775752,0.39163637,0.011580507,0.9441363,0.3293516,,-0.025225045,0.40994546,-0.39516753,-0.34308887,-0.51757705,-0.7838393,0.93192625,-0.2919433,-0.21513385,-0.11748829,-0.8042904,0.5825062,,1.2315055977882114,0.5817689128810808,0.20862102373000002,3.0375685213168198,0.012433921478655081,-1.2544329565376993,-0.3998662738967156,,-0.9384896670743851,-0.3932724488870089,0.17298730792000003,-2.0771885801576984,-0.6065294224587902,-0.06352675687204719,0.6795113151186017,,-0.05570436473896402,-0.06207917983187331,0.08431779928,-0.06574422517700301,,3.6641955e-05,5.9604645e-06,-4.887581e-06,1.0,-1.7736107e-05,-1.5579164e-05,1.7732382e-05,1.0,-1.9073486e-06,1.558289e-05,1.9073486e-06,1.0,325,0.988,0,0,0.0,False,-0.2602355019347904,0.8587116338783072
1.0060414939653128,16:01:58.729498,NaN,0,,0.12929335,0.007522993,0.031558156,0.41569477,0.404177,-0.81476283,0.6470041,0.49818188,0.57723534,0.6392053,-0.7671087,-0.054412663,,0.053562157,-0.041520774,0.048732042,0.26471636,0.51103413,0.81778306,0.37565047,-0.83569354,0.4006284,0.8881508,0.20114774,-0.41319197,,0.106154256,1.3403021,0.4403547,0.9953681,0.013072795,-0.09524403,-0.05287704,-0.7529503,-0.6559496,-0.08028912,0.65794754,-0.7487715,,-0.099374734,0.2664564,-0.08534498,-0.41841924,-0.2944805,0.8591895,0.9081794,-0.14777797,0.39162722,0.011642692,0.94416255,0.32927427,,-0.0252174,0.4099161,-0.3951395,-0.34310442,-0.5180763,-0.7835026,0.9319452,-0.2919211,-0.21508177,-0.117292166,-0.803977,0.5829782,,1.2314978750553371,0.581707131018087,0.20865991243,3.0375685213168198,0.012433921478655081,-1.25451463527784,-0.3997029298305812,,-0.9383274896840264,-0.39323383522263783,0.17301841888000002,-2.077398270101183,-0.6065294224587902,-0.06385347183260941,0.6826148523751528,,-0.05570436473896402,-0.06207917983187331,0.08431779928,-0.06574422517700301,,3.6641955e-05,5.9604645e-06,-4.887581e-06,1.0,-1.7736107e-05,-1.5579164e-05,1.7732382e-05,1.0,-1.9073486e-06,1.558289e-05,1.9073486e-06,1.0,333,1.012,0,0,0.0,False,-0.26041423509035333,0.8620912479328693
1.0318498159758747,16:01:58.751420,NaN,0,,0.12929419,0.0075324997,0.03153348,0.41569343,0.40409946,-0.814802,0.64703846,0.49819687,0.577184,0.6391715,-0.76713985,-0.054370746,,0.053559683,-0.041514188,0.0487113,0.2646557,0.51093763,0.8178631,0.37561536,-0.8357421,0.40056002,0.8881837,0.20119146,-0.4130999,,0.106154256,1.3403021,0.4403547,0.9953681,0.013072795,-0.09524403,-0.05287704,-0.7529503,-0.6559496,-0.08028912,0.65794754,-0.7487715,,-0.09937263,0.26644683,-0.08532038,-0.4184122,-0.29439956,0.8592206,0.908182,-0.14778773,0.39161745,0.011690267,0.9441863,0.32920456,,-0.025213229,0.4099018,-0.3951234,-0.34304646,-0.5179833,-0.7835895,0.9319604,-0.2919007,-0.21504378,-0.11734121,-0.80404437,0.58287543,,1.2314824295895888,0.5816607946208416,0.20868454194000002,3.0375685213168198,0.012433921478655081,-1.2545963140179806,-0.39953958576444704,,-0.9382348168895357,-0.3932029442911409,0.17303527065000002,-2.077398270101183,-0.6066660589585556,-0.06366037518877243,0.6847383252348986,,-0.05570436473896402,-0.06207917983187331,0.08431779928,-0.06574422517700301,,3.6641955e-05,5.9604645e-06,-4.887581e-06,1.0,-1.7736107e-05,-1.5579164e-05,1.7732382e-05,1.0,-1.9073486e-06,1.558289e-05,1.9073486e-06,1.0,362,1.102,0,0,0.0,False,-0.2604738128088746,0.8651811807827543
1.053788914985489,16:01:58.834618,NaN,0,,0.12932594,0.007552646,0.031581342,0.41232857,0.40966335,-0.8137326,0.64477366,0.49979886,0.5783323,0.6436241,-0.7631364,-0.058058843,,0.053591292,-0.04147367,0.04864371,0.26615658,0.5085645,0.81885445,0.37573028,-0.83703953,0.39773312,0.88768655,0.20180912,-0.4138667,,0.106154256,1.3403021,0.4403547,0.9953681,0.013072795,-0.09524403,-0.05287704,-0.7529503,-0.6559496,-0.08028912,0.65794754,-0.7487715,,-0.09940681,0.2664939,-0.08533833,-0.415642,-0.30015218,0.8585746,0.909505,-0.14391676,0.38998538,0.0065083033,0.94297224,0.33280778,,-0.025239358,0.40986192,-0.39505312,-0.3445006,-0.51565886,-0.7844841,0.93147457,-0.29184377,-0.217215,-0.11693796,-0.80555767,0.5808635,,1.231420647726595,0.5817148537509612,0.20866639388000002,3.0346328621080363,0.007241734487568344,-1.25085250611836,-0.3992128976321787,,-0.9382348168895357,-0.39294037137341725,0.17310397402000002,-2.0769788902142134,-0.6050264209613704,-0.060995131766241856,0.6865351099623757,,-0.05570436473896402,-0.06207917983187331,0.08431779928,-0.06574422517700301,,3.6641955e-05,5.9604645e-06,-4.887581e-06,1.0,-1.7736107e-05,-1.5579164e-05,1.7732382e-05,1.0,-1.9073486e-06,1.558289e-05,1.9073486e-06,1.0,370,1.127,0,0,0.0,False,-0.261427056305211,0.8637327747593706
1.136991281004157,16:01:58.865261,NaN,0,,0.12933493,0.0075546578,0.03163898,0.41046485,0.41144964,-0.81377363,0.64263076,0.5026225,0.5782704,0.6469499,-0.7603157,-0.0581014,,0.05358871,-0.0414712,0.048618734,0.26789492,0.5066549,0.81947106,0.3764116,-0.838,0.39505732,0.8868746,0.20262459,-0.41520673,,0.106154256,1.3403021,0.4403547,0.9953681,0.013072795,-0.09524403,-0.05287704,-0.7529503,-0.6559496,-0.08028912,0.65794754,-0.7487715,,-0.09942065,0.26653412,-0.08537828,-0.4142533,-0.3019533,0.85861427,0.91015846,-0.13993238,0.38991094,0.0024130482,0.9429969,0.3327928,,-0.025234686,0.40984198,-0.39503843,-0.34617004,-0.51381636,-0.784958,0.93098783,-0.2914824,-0.21977186,-0.11587907,-0.8068648,0.5792592,,1.2314438159252177,0.5817380219495839,0.20862620889000003,3.0331650325036446,0.00314263949460513,-1.2508587973532304,-0.4016630586241927,,-0.9382193714237872,-0.39288631224329773,0.17311304805000002,-2.0769788902142134,-0.6029768734648887,-0.058664142054800666,0.6889852709543899,,-0.05570436473896402,-0.06207917983187331,0.08431779928,-0.06574422517700301,,3.6641955e-05,5.9604645e-06,-4.887581e-06,1.0,-1.7736107e-05,-1.5579164e-05,1.7732382e-05,1.0,-1.9073486e-06,1.558289e-05,1.9073486e-06,1.0,378,1.152,0,0,0.0,False,-0.26101001227556386,0.8653743015858724
1.167620591004379,16:01:58.894244,NaN,0,,0.12933972,0.007550858,0.03168556,0.40906525,0.41290683,-0.81374025,0.6407863,0.50491154,0.57832307,0.6496602,-0.75800556,-0.058043286,,0.053588707,-0.041469768,0.048585057,0.27012146,0.5051267,0.81968355,0.3774704,-0.8387367,0.3924752,0.8857485,0.20339032,-0.4172312,,0.106154256,1.3403021,0.4403547,0.9953681,0.013072795,-0.09524403,-0.05287704,-0.7529503,-0.6559496,-0.08028912,0.65794754,-0.7487715,,-0.09942984,0.26656264,-0.08541449,-0.4132477,-0.3034245,0.8585802,0.9106181,-0.13668655,0.389989,-0.0009758559,0.94300073,0.33278924,,-0.025231827,0.40981382,-0.39502013,-0.3483028,-0.5123518,-0.78497183,0.93038505,-0.29107988,-0.22283658,-0.11431878,-0.80794066,0.5780684,,1.231459261390966,0.5817302992167096,0.20858991277000002,3.032116582786222,-0.0002732729995308809,-1.2508504269255991,-0.40002961796284997,,-0.9382193714237872,-0.39283225311317815,0.17312730724000003,-2.0771885801576984,-0.6002441434695799,-0.05664520564141992,0.6906187116157327,,-0.05570436473896402,-0.06207917983187331,0.08431779928,-0.06574422517700301,,3.6641955e-05,5.9604645e-06,-4.887581e-06,1.0,-1.7736107e-05,-1.5579164e-05,1.7732382e-05,1.0,-1.9073486e-06,1.558289e-05,1.9073486e-06,1.0,386,1.176,0,0,0.0,False,-0.2612483231496481,0.86556742238899
1.1965722399763763,16:01:58.923672,NaN,0,,0.12933256,0.0074966624,0.031758666,0.40739834,0.41247982,-0.8147924,0.6407189,0.50667036,0.57685757,0.65077317,-0.75706375,-0.057867035,,0.053594552,-0.04146661,0.04856801,0.27039155,0.5048127,0.81978804,0.37775373,-0.8388516,0.3919568,0.8855452,0.20369616,-0.41751325,,0.106154256,1.3403021,0.4403547,0.9953681,0.013072795,-0.09524403,-0.05287704,-0.7529503,-0.6559496,-0.08028912,0.65794754,-0.7487715,,-0.09943343,0.26657173,-0.085505255,-0.41169608,-0.30294558,0.8594942,0.91131896,-0.13475098,0.38902438,-0.00203554,0.94343317,0.3315565,,-0.025236232,0.40980035,-0.39500856,-0.34855738,-0.51206386,-0.78504676,0.93033344,-0.29085124,-0.22335003,-0.11396233,-0.80820554,0.57776845,,1.2314515386580918,0.5817302992167096,0.20849917247000002,3.030439063238346,-0.0013663649976544045,-1.2521644096798226,-0.40149971455805833,,-0.938211648690913,-0.3928168076474297,0.17314286272,-2.077398270101183,-0.5998342339702836,-0.05608099321096292,0.6904553675495984,,-0.05570436473896402,-0.06207917983187331,0.08431779928,-0.06574422517700301,,3.6641955e-05,5.9604645e-06,-4.887581e-06,1.0,-1.7736107e-05,-1.5579164e-05,1.7732382e-05,1.0,-1.9073486e-06,1.558289e-05,1.9073486e-06,1.0,394,1.201,0,0,0.0,False,-0.26196325577190027,0.8660502243967847
1.2260062439600006,16:01:58.947889,NaN,0,,0.12933812,0.007459797,0.03186205,0.4056337,0.41599834,-0.8138835,0.63914794,0.50744677,0.57791686,0.65341496,-0.75461453,-0.06004706,,0.05359916,-0.041464597,0.048558712,0.27039516,0.5049539,0.8196998,0.37775174,-0.83878493,0.3921014,0.8855451,0.2036207,-0.4175506,,0.106154256,1.3403021,0.4403547,0.9953681,0.013072795,-0.09524403,-0.05287704,-0.7529503,-0.6559496,-0.08028912,0.65794754,-0.7487715,,-0.09945099,0.26661396,-0.08560518,-0.41030043,-0.30659476,0.8588674,0.9119354,-0.1325337,0.3883409,-0.0052344077,0.942568,0.33397326,,-0.02524005,0.40979305,-0.39500198,-0.34856096,-0.5121988,-0.7849571,0.93033195,-0.29089317,-0.22330171,-0.1139638,-0.80810493,0.5779089,,1.231459261390966,0.5818152492783261,0.20839935814000002,3.0289712336339543,-0.004509004492259535,-1.249601797894805,-0.4011730264257898,,-0.9382039259580388,-0.39280908491455546,0.17315323304000002,-2.077398270101183,-0.5998342339702836,-0.05624435069124406,0.691435431946404,,-0.05570436473896402,-0.06207917983187331,0.08431779928,-0.06574422517700301,,3.6641955e-05,5.9604645e-06,-4.887581e-06,1.0,-1.7736107e-05,-1.5579164e-05,1.7732382e-05,1.0,-1.9073486e-06,1.558289e-05,1.9073486e-06,1.0,406,1.238,0,0,0.0,False,-0.26101001227556386,0.8648914995780776
1.2502320049679838,16:01:58.977109,NaN,0,,0.12933451,0.007411398,0.03195697,0.40569362,0.4184544,-0.8125935,0.63741136,0.5076507,0.5796531,0.655072,-0.753118,-0.06077698,,0.053604998,-0.04146546,0.048556387,0.27038142,0.5049391,0.8197135,0.37774858,-0.8387912,0.39209098,0.8855506,0.20363154,-0.41753358,,0.106154256,1.3403021,0.4403547,0.9953681,0.013072795,-0.09524403,-0.05287704,-0.7529503,-0.6559496,-0.08028912,0.65794754,-0.7487715,,-0.09945959,0.266642,-0.08570768,-0.41064265,-0.3091497,0.8577873,0.9117646,-0.13137943,0.38913324,-0.007604824,0.9418948,0.33582178,,-0.025245659,0.40979013,-0.39500132,-0.3485477,-0.51218486,-0.7849721,0.9303362,-0.29088593,-0.2232935,-0.11396978,-0.8081164,0.5778917,,1.2314747068567145,0.5818538629426973,0.20829695123000003,3.029390613520923,-0.006831824988272023,-1.2476260147918252,-0.40133637049192417,,-0.9382270941566615,-0.3928168076474297,0.17315841820000002,-2.077398270101183,-0.5998342339702836,-0.0562443506912441,0.6904553675495985,,-0.05570436473896402,-0.06207917983187331,0.08431779928,-0.06574422517700301,,3.6641955e-05,5.9604645e-06,-4.887581e-06,1.0,-1.7736107e-05,-1.5579164e-05,1.7732382e-05,1.0,-1.9073486e-06,1.558289e-05,1.9073486e-06,1.0,414,1.262,0,0,0.0,False,-0.26095043455704303,0.8626706103422226
1.2794396189856343,16:01:59.004558,NaN,0,,0.12932503,0.007375963,0.032025516,0.40514424,0.41964906,-0.81225145,0.63663614,0.50813806,0.5800779,0.65616494,-0.7521239,-0.061294585,,0.053609073,-0.04146515,0.04855454,0.2703713,0.5048647,0.81976265,0.37774345,-0.8388269,0.3920196,0.8855558,0.20366918,-0.417504,,0.106154256,1.3403021,0.4403547,0.9953681,0.013072795,-0.09524403,-0.05287704,-0.7529503,-0.6559496,-0.08028912,0.65794754,-0.7487715,,-0.09945899,0.26666188,-0.08578282,-0.41025454,-0.31038553,0.8575267,0.91192675,-0.13035169,0.38909903,-0.008990648,0.9416312,0.33652624,,-0.025249556,0.40978834,-0.39499995,-0.348538,-0.5121136,-0.7850229,0.93033886,-0.29086593,-0.22330825,-0.11397722,-0.80816877,0.57781696,,1.2315210432539598,0.58187703114132,0.20822176641,3.0289712336339543,-0.008198189985926425,-1.2468385507154234,-0.4010096823596554,,-0.9382425396224099,-0.3928168076474297,0.17316230707000002,-2.077398270101183,-0.5998342339702836,-0.05616267195110353,0.6886585828221213,,-0.05570436473896402,-0.06207917983187331,0.08431779928,-0.06574422517700301,,3.6641955e-05,5.9604645e-06,-4.887581e-06,1.0,-1.7736107e-05,-1.5579164e-05,1.7732382e-05,1.0,-1.9073486e-06,1.558289e-05,1.9073486e-06,1.0,447,1.365,0,0,0.0,False,-0.26196325577190027,0.8620912479328693
1.306902315991465,16:01:59.104249,NaN,0,,0.12931953,0.0073408484,0.032162398,0.40206972,0.42197257,-0.81257534,0.6318177,0.51444876,0.5797838,0.6626813,-0.746513,-0.05976543,,0.053699046,-0.04146766,0.04855287,0.271244,0.5040112,0.8199995,0.37852967,-0.839149,0.3905692,0.8849532,0.20445453,-0.41839737,,0.10612374,1.3403051,0.44034776,0.99536926,0.013089175,-0.09522976,-0.052855384,-0.75295,-0.6559517,-0.08028912,0.65794754,-0.7487715,,-0.09944153,0.26673356,-0.085914545,-0.40817,-0.3127042,0.857679,0.91274077,-0.12191753,0.3899236,-0.017364629,0.9419937,0.33518094,,-0.025310088,0.409786,-0.39500386,-0.34937742,-0.5113107,-0.7851731,0.9301472,-0.29029575,-0.22484355,-0.11296751,-0.8088818,0.57701695,,1.2315673796512052,0.5817998038125777,0.20808306338000002,3.026874334199109,-0.016669652971383734,-1.2482618721805825,-0.40264312302099836,,-0.9381807577594161,-0.3928476985789266,0.17318434400000002,-2.0778176499881518,-0.5986045054723946,-0.05479674962029504,0.6907820556818669,,-0.05570436473896402,-0.06207917983187331,0.08431779928,-0.06574422517700301,,6.6682696e-06,-1.1324883e-06,1.1920929e-06,1.0,-1.4491379e-06,-1.270324e-06,1.4416873e-06,1.0000001,-1.4901161e-07,1.2665987e-06,1.4901161e-07,1.0,455,1.389,0,0,0.0,False,-0.26196325577190027,0.865663982790549
1.4066178890061565,16:01:59.131115,NaN,0,,0.12932107,0.0073477626,0.0321725,0.40237796,0.422162,-0.81232435,0.63126105,0.51469254,0.5801736,0.66302454,-0.7462378,-0.05939348,,0.053709842,-0.041467883,0.048542976,0.27123028,0.5039293,0.8200544,0.3785265,-0.8391872,0.39049023,0.88495874,0.20449951,-0.41836366,,0.10612374,1.3403051,0.44034776,0.99536926,0.013089175,-0.09522976,-0.052855384,-0.75295,-0.6559517,-0.08028912,0.65794754,-0.7487715,,-0.0994434,0.26674545,-0.085917175,-0.4085501,-0.31289744,0.85742754,0.91255933,-0.12155232,0.39046192,-0.017952224,0.9419768,0.3351977,,-0.025319997,0.4097765,-0.39499864,-0.3493642,-0.5112326,-0.78522986,0.9301514,-0.29027015,-0.22485904,-0.11297351,-0.80894035,0.57693374,,1.231590547849828,0.5818306947440746,0.20808047080000003,3.027293714086078,-0.017216198970445497,-1.2482245942664996,-0.4018264026903271,,-0.9382039259580388,-0.3928554213118008,0.17319860319000002,-2.0778176499881518,-0.5986045054723946,-0.054715070880154426,0.690292023483464,,-0.05570436473896402,-0.06207917983187331,0.08431779928,-0.06574422517700301,,6.6682696e-06,-1.1324883e-06,1.1920929e-06,1.0,-1.4491379e-06,-1.270324e-06,1.4416873e-06,1.0000001,-1.4901161e-07,1.2665987e-06,1.4901161e-07,1.0,463,1.414,0,0,0.0,False,-0.26202283349042155,0.8662916254006823
1.4334867879515514,16:01:59.156554,NaN,0,,0.12933214,0.007369712,0.032194972,0.40039557,0.4252355,-0.8117005,0.62968737,0.51584893,0.5808562,0.6657156,-0.7436899,-0.06122181,,0.053715546,-0.04146578,0.048528016,0.2716691,0.5038175,0.8199778,0.37924287,-0.83912295,0.38993284,0.88451725,0.205038,-0.41903296,,0.10612374,1.3403051,0.44034776,0.99536926,0.013089175,-0.09522976,-0.052855384,-0.75295,-0.6559517,-0.08028912,0.65794754,-0.7487715,,-0.099454656,0.2667768,-0.08591772,-0.40694278,-0.31608364,0.8570232,0.91320723,-0.11898685,0.38973662,-0.021214884,0.94124025,0.33707073,,-0.025324427,0.4097643,-0.39498904,-0.34977078,-0.5111677,-0.78509104,0.93010217,-0.2897668,-0.22571032,-0.11211747,-0.8091618,0.57679015,,1.2316059933155763,0.5818461402098231,0.20808047080000003,3.025616194538202,-0.020495474964816067,-1.24620399449891,-0.40345984335166984,,-0.9382270941566615,-0.3928476985789266,0.1732102698,-2.078446719818605,-0.5977846864738019,-0.05407671846008401,0.6919254641448069,,-0.05570436473896402,-0.06207917983187331,0.08431779928,-0.06574422517700301,,6.6682696e-06,-1.1324883e-06,1.1920929e-06,1.0,-1.4491379e-06,-1.270324e-06,1.4416873e-06,1.0000001,-1.4901161e-07,1.2665987e-06,1.4901161e-07,1.0,475,1.451,0,0,0.0,False,-0.2621419889274632,0.8676917512232865
1.4588603290030733,16:01:59.195034,NaN,0,,0.12932113,0.0073747337,0.032201022,0.4000349,0.4244417,-0.8122936,0.6297351,0.51665103,0.58009106,0.66588724,-0.74358654,-0.060607344,,0.05373103,-0.041466586,0.0485093,0.27221674,0.5028351,0.82039905,0.3794624,-0.83959866,0.38869333,0.8842548,0.20550174,-0.4193598,,0.10612374,1.3403051,0.44034776,0.99536926,0.013089175,-0.09522976,-0.052855384,-0.75295,-0.6559517,-0.08028912,0.65794754,-0.7487715,,-0.09944387,0.2667846,-0.08592009,-0.40659606,-0.31524152,0.85749775,0.9133585,-0.11832272,0.3895844,-0.021351708,0.94160634,0.33603808,,-0.02533825,0.4097466,-0.39497972,-0.3502962,-0.51022375,-0.7854707,0.9299455,-0.28953353,-0.22665323,-0.111776255,-0.80984074,0.57590276,,1.2316832206443187,0.5818461402098231,0.20807787822,3.025196814651233,-0.02063211146458151,-1.2472360789571817,-0.4031331552194013,,-0.9382734305539068,-0.3928476985789266,0.17323101044000003,-2.078446719818605,-0.5971015039749749,-0.05291855443561426,0.6933955607400153,,-0.05570436473896402,-0.06207917983187331,0.08431779928,-0.06574422517700301,,6.6682696e-06,-1.1324883e-06,1.1920929e-06,1.0,-1.4491379e-06,-1.270324e-06,1.4416873e-06,1.0000001,-1.4901161e-07,1.2665987e-06,1.4901161e-07,1.0,483,1.475,0,0,0.0,False,-0.2621419889274632,0.868705635439655
1.49736669997219,16:01:59.217871,NaN,0,,0.12931627,0.0073761046,0.032203138,0.4002215,0.42453563,-0.8121526,0.62955856,0.5166324,0.5802994,0.6659422,-0.74354595,-0.060502604,,0.05374005,-0.041467883,0.04849392,0.27277938,0.50300294,0.82010925,0.37968943,-0.8395283,0.38862354,0.88398385,0.2053783,-0.41999093,,0.10612374,1.3403051,0.44034776,0.99536926,0.013089175,-0.09522976,-0.052855384,-0.75295,-0.6559517,-0.08028912,0.65794754,-0.7487715,,-0.09943912,0.26678705,-0.08592131,-0.40680006,-0.31533983,0.85736483,0.91326445,-0.11830934,0.3898088,-0.021487977,0.9415751,0.3361169,,-0.025345912,0.40973204,-0.3949727,-0.35083595,-0.5103811,-0.7851275,0.9297843,-0.28961688,-0.22720739,-0.111423805,-0.80971175,0.5761524,,1.2317141115758155,0.5818384174769488,0.20807658193000003,3.0254065045947174,-0.020768747964346947,-1.2471246610534852,-0.4031331552194013,,-0.9382965987525295,-0.3928476985789266,0.17324526963,-2.078446719818605,-0.5964183214761476,-0.0531489289935341,0.6940489370045525,,-0.05570436473896402,-0.06207917983187331,0.08431779928,-0.06574422517700301,,6.6682696e-06,-1.1324883e-06,1.1920929e-06,1.0,-1.4491379e-06,-1.270324e-06,1.4416873e-06,1.0000001,-1.4901161e-07,1.2665987e-06,1.4901161e-07,1.0,491,1.5,0,0,0.0,False,-0.26190367805337944,0.8702988820653772
1.5202160169719718,16:01:59.242164,NaN,0,,0.12930934,0.007380992,0.032208085,0.40020904,0.4247824,-0.8120297,0.62935877,0.5166888,0.58046573,0.66613835,-0.74336576,-0.060557023,,0.053764857,-0.04146739,0.048473954,0.27285096,0.50312185,0.8200125,0.37971777,-0.8394732,0.38871473,0.8839495,0.2053121,-0.42009544,,0.10612374,1.3403051,0.44034776,0.99536926,0.013089175,-0.09522976,-0.052855384,-0.75295,-0.6559517,-0.08028912,0.65794754,-0.7487715,,-0.09943229,0.266794,-0.08592249,-0.40682068,-0.3155964,0.85726064,0.91324866,-0.11814674,0.38989514,-0.021766957,0.94150954,0.33628255,,-0.025368933,0.40971324,-0.39496133,-0.35090464,-0.51049453,-0.7850231,0.9297637,-0.28965503,-0.22724311,-0.11137953,-0.80962664,0.57628053,,1.2317681707059351,0.5818384174769488,0.20807528564000002,3.0254065045947174,-0.021042020963877826,-1.2469018252460924,-0.4031331552194013,,-0.9383661033483975,-0.3928554213118008,0.17327508430000002,-2.078446719818605,-0.5962816849763821,-0.05334202563737114,0.6942122810706868,,-0.05570436473896402,-0.06207917983187331,0.08431779928,-0.06574422517700301,,6.6682696e-06,-1.1324883e-06,1.1920929e-06,1.0,-1.4491379e-06,-1.270324e-06,1.4416873e-06,1.0000001,-1.4901161e-07,1.2665987e-06,1.4901161e-07,1.0,520,1.59,0,0,0.0,False,-0.26178452261633733,0.8734853753168212
1.5444966259528883,16:01:59.328557,NaN,0,,0.12930284,0.0073794127,0.032224804,0.40042123,0.42473602,-0.8119493,0.6292419,0.51668316,0.5805975,0.66612124,-0.74339616,-0.060370773,,0.053842764,-0.041457884,0.048399985,0.27277455,0.50314194,0.8200256,0.37985268,-0.8394239,0.38868943,0.88391525,0.2054643,-0.42009333,,0.10612374,1.3403051,0.44034776,0.99536926,0.013089175,-0.09522976,-0.052855384,-0.75295,-0.6559517,-0.08028912,0.65794754,-0.7487715,,-0.09942743,0.26680407,-0.0859366,-0.40703908,-0.3155481,0.85717475,0.91315037,-0.118171334,0.39011782,-0.021807453,0.94152266,0.3362432,,-0.025440343,0.40964848,-0.39491293,-0.3508269,-0.510528,-0.7850361,0.92980874,-0.28950098,-0.2272552,-0.111248575,-0.8096606,0.5762581,,1.2318222298360546,0.5818693084084456,0.20806102645000002,3.025616194538202,-0.021042020963877826,-1.2469018252460924,-0.4031331552194013,,-0.9385360034716305,-0.3928476985789266,0.17338008379000003,-2.07865640976209,-0.5961450484766166,-0.053290086060786404,0.6991126030547152,,-0.05570436473896402,-0.06207917983187331,0.08431779928,-0.06574422517700301,,6.6682696e-06,-1.1324883e-06,1.1920929e-06,1.0,-1.4491379e-06,-1.270324e-06,1.4416873e-06,1.0000001,-1.4901161e-07,1.2665987e-06,1.4901161e-07,1.0,528,1.614,0,0,0.0,False,-0.2607121236829584,0.8776374725838547
1.6309256899985485,16:01:59.356208,NaN,0,,0.12931082,0.0073927194,0.032246083,0.3995927,0.42790705,-0.8106916,0.6272887,0.5172439,0.58220947,0.6684569,-0.74118435,-0.06173432,,0.053869247,-0.04145638,0.048372626,0.27274573,0.5033837,0.81988686,0.3798418,-0.8393087,0.3889489,0.8839288,0.20534313,-0.42012405,,0.10612374,1.3403051,0.44034776,0.99536926,0.013089175,-0.09522976,-0.052855384,-0.75295,-0.6559517,-0.08028912,0.65794754,-0.7487715,,-0.099436186,0.26682824,-0.08594241,-0.40657592,-0.31884816,0.8561728,0.9132769,-0.11627284,0.390392,-0.024926145,0.9406468,0.3384704,,-0.025464412,0.40962368,-0.39489686,-0.35079923,-0.51075965,-0.78489774,0.9298171,-0.28956535,-0.22713889,-0.111265816,-0.8094915,0.57649237,,1.231829952568929,0.5818538629426973,0.20805584129000002,3.025196814651233,-0.02418466045848296,-1.2445025709413557,-0.4031331552194013,,-0.9385823398688757,-0.3928554213118008,0.1734176762,-2.07865640976209,-0.5961450484766166,-0.05361680102134865,0.7023794843774007,,-0.05570436473896402,-0.06207917983187331,0.08431779928,-0.06574422517700301,,6.6682696e-06,-1.1324883e-06,1.1920929e-06,1.0,-1.4491379e-06,-1.270324e-06,1.4416873e-06,1.0000001,-1.4901161e-07,1.2665987e-06,1.4901161e-07,1.0,536,1.639,0,0,0.0,False,-0.2608908568385213,0.8871969523381877
1.6585751909879036,16:01:59.377851,NaN,0,,0.12932649,0.007408127,0.032285422,0.39926907,0.4308469,-0.8092928,0.62389165,0.5191339,0.5841741,0.67182106,-0.7381537,-0.06152764,,0.053883817,-0.041455142,0.048355937,0.27265242,0.50364655,0.81975645,0.3799877,-0.8391397,0.38917077,0.8838949,0.20538895,-0.420173,,0.10612374,1.3403051,0.44034776,0.99536926,0.013089175,-0.09522976,-0.052855384,-0.75295,-0.6559517,-0.08028912,0.65794754,-0.7487715,,-0.09945402,0.26686606,-0.085959174,-0.40681833,-0.3218867,0.8549198,0.913026,-0.11283968,0.39198312,-0.029705273,0.94002986,0.33979616,,-0.025477517,0.40960887,-0.39488682,-0.35070482,-0.5110271,-0.78476584,0.9298694,-0.28946087,-0.22705796,-0.11112623,-0.8093601,0.5767037,,1.2318222298360546,0.5818461402098231,0.20804028581000003,3.025616194538202,-0.028966937950273376,-1.2430533065161977,-0.4021530908225954,,-0.9386055080674984,-0.39286314404467504,0.17343971313,-2.0788660997055746,-0.5961450484766166,-0.05378015850162979,0.7082598707582348,,-0.05570436473896402,-0.06207917983187331,0.08431779928,-0.06574422517700301,,6.6682696e-06,-1.1324883e-06,1.1920929e-06,1.0,-1.4491379e-06,-1.270324e-06,1.4416873e-06,1.0000001,-1.4901161e-07,1.2665987e-06,1.4901161e-07,1.0,544,1.664,0,0,0.0,False,-0.2608908568385213,0.891880131813795
1.6802005709614605,16:01:59.406964,NaN,0,,0.129329,0.0074108094,0.03232819,0.39880309,0.43190956,-0.808956,0.6216488,0.52119166,0.5847328,0.6741728,-0.7360798,-0.06064315,,0.053912185,-0.041451402,0.048326135,0.2727312,0.50331134,0.8199361,0.3800121,-0.8393018,0.3887973,0.8838601,0.2055484,-0.42016822,,0.10612374,1.3403051,0.44034776,0.99536926,0.013089175,-0.09522976,-0.052855384,-0.75295,-0.6559517,-0.08028912,0.65794754,-0.7487715,,-0.09946007,0.2668968,-0.0859885,-0.4067394,-0.32296348,0.85455114,0.9129485,-0.10992348,0.39299098,-0.032986492,0.9400061,0.33955923,,-0.02550328,0.409583,-0.3948675,-0.3507806,-0.5107052,-0.78494155,0.92984575,-0.2893801,-0.22725762,-0.11108483,-0.8095921,0.5763859,,1.2318608435004257,0.5818461402098231,0.20801176743000002,3.025616194538202,-0.03224621394464395,-1.2432380327324033,-0.4016630586241925,,-0.938659567197618,-0.3928554213118008,0.17347989812,-2.0788660997055746,-0.5960084119768512,-0.05340150396448283,0.7157736978004118,,-0.05570436473896402,-0.06207917983187331,0.08431779928,-0.06574422517700301,,6.6682696e-06,-1.1324883e-06,1.1920929e-06,1.0,-1.4491379e-06,-1.270324e-06,1.4416873e-06,1.0000001,-1.4901161e-07,1.2665987e-06,1.4901161e-07,1.0,552,1.688,0,0,0.0,False,-0.2612483231496481,0.8954528666714752
1.709320695954375,16:01:59.430215,NaN,0,,0.12930617,0.0073814094,0.032385886,0.39834136,0.43094325,-0.8096986,0.62113,0.5228186,0.58383083,0.6749235,-0.7354921,-0.059411496,,0.05395293,-0.04144659,0.04828292,0.27257532,0.50312495,0.82010233,0.37994462,-0.8393887,0.3886757,0.8839372,0.20565003,-0.4199563,,0.10612374,1.3403051,0.44034776,0.99536926,0.013089175,-0.09522976,-0.052855384,-0.75295,-0.6559517,-0.08028912,0.65794754,-0.7487715,,-0.099444814,0.2669139,-0.08605322,-0.40638793,-0.32192814,0.85510886,0.9130701,-0.10832292,0.39315283,-0.03393908,0.9405469,0.3379641,,-0.025540236,0.40954515,-0.39484003,-0.35063118,-0.5105272,-0.78512406,0.92988986,-0.28932244,-0.22715062,-0.11118744,-0.809725,0.5761795,,1.2319766844935391,0.5818384174769488,0.20794695293,3.025196814651233,-0.03320266944300203,-1.2448267908706048,-0.40149971455805833,,-0.9387213490606118,-0.3928554213118008,0.17353952746,-2.0788660997055746,-0.5961450484766166,-0.053208407320645815,0.7195306113215,,-0.05570436473896402,-0.06207917983187331,0.08431779928,-0.06574422517700301,,6.6682696e-06,-1.1324883e-06,1.1920929e-06,1.0,-1.4491379e-06,-1.270324e-06,1.4416873e-06,1.0000001,-1.4901161e-07,1.2665987e-06,1.4901161e-07,1.0,560,1.713,0,0,0.0,False,-0.2611887454311268,0.896080509281608
1.732587143953424,16:01:59.460993,NaN,0,,0.12928538,0.007346496,0.032493055,0.3976332,0.434969,-0.807892,0.61846,0.5233608,0.58617485,0.6777869,-0.7327315,-0.060905278,,0.05398281,-0.041443937,0.048250914,0.2726556,0.5035898,0.81979024,0.37997356,-0.83917034,0.38911867,0.88390005,0.20540321,-0.42015532,,0.10612374,1.3403051,0.44034776,0.99536926,0.013089175,-0.09522976,-0.052855384,-0.75295,-0.6559517,-0.08028912,0.65794754,-0.7487715,,-0.09943637,0.26696014,-0.08615774,-0.4061472,-0.32612687,0.8536309,0.91302097,-0.10607027,0.3938805,-0.037910145,0.9393563,0.34084082,,-0.025567304,0.4095167,-0.39482048,-0.35070828,-0.5109715,-0.7848005,0.9298664,-0.2894597,-0.22707191,-0.11114087,-0.8093956,0.5766511,,1.2321234164181494,0.5818384174769488,0.20784324973,3.0249871247077484,-0.037165127936199804,-1.2415956716634087,-0.40149971455805833,,-0.9387754081907314,-0.3928554213118008,0.17358360132000003,-2.0788660997055746,-0.5960084119768512,-0.053809897665185694,0.7205106757183057,,-0.05570436473896402,-0.06207917983187331,0.08431779928,-0.06574422517700301,,6.6682696e-06,-1.1324883e-06,1.1920929e-06,1.0,-1.4491379e-06,-1.270324e-06,1.4416873e-06,1.0000001,-1.4901161e-07,1.2665987e-06,1.4901161e-07,1.0,568,1.737,0,0,0.0,False,-0.2608908568385213,0.8957908280769313
1.7633544609998353,16:01:59.487046,NaN,0,,0.12925938,0.0073061734,0.032583,0.39743805,0.4367124,-0.807047,0.6171896,0.523618,0.58728313,0.67905825,-0.73150975,-0.061428636,,0.054023094,-0.041439064,0.048214436,0.27251545,0.5034875,0.8198996,0.3800918,-0.83917594,0.38899118,0.8838924,0.20563096,-0.42005992,,0.10612374,1.3403051,0.44034776,0.99536926,0.013089175,-0.09522976,-0.052855384,-0.75295,-0.6559517,-0.08028912,0.65794754,-0.7487715,,-0.099421665,0.26699084,-0.08625384,-0.40616542,-0.32794583,0.85292506,0.9129361,-0.105060466,0.39434758,-0.039715942,0.9388364,0.3420655,,-0.025604382,0.40948474,-0.3947964,-0.35056916,-0.51088893,-0.7849164,0.92993087,-0.28925914,-0.2270634,-0.11104006,-0.8095194,0.5764967,,1.2322701483427596,0.5818538629426973,0.20774732427000003,3.0249871247077484,-0.03894140243315053,-1.240147238915355,-0.4018264026903269,,-0.9388680809852221,-0.3928554213118008,0.17363545292000002,-2.079075789649059,-0.5960084119768512,-0.05356486144476398,0.72067401978444,,-0.05570436473896402,-0.06207917983187331,0.08431779928,-0.06574422517700301,,6.6682696e-06,-1.1324883e-06,1.1920929e-06,1.0,-1.4491379e-06,-1.270324e-06,1.4416873e-06,1.0000001,-1.4901161e-07,1.2665987e-06,1.4901161e-07,1.0,597,1.827,0,0,0.0,False,-0.26136747858668974,0.8957425478761518
1.7893807749496773,16:01:59.567496,NaN,0,,0.1291177,0.007211596,0.03325954,0.38019764,0.46048138,-0.8021261,0.59751487,0.53969985,0.5930432,0.70599276,-0.704756,-0.0699518,,0.054083113,-0.04143422,0.04814565,0.27313164,0.50243044,0.82034296,0.3803302,-0.83968884,0.38764882,0.8835996,0.206122,-0.42043507,,0.10612374,1.3403051,0.44034776,0.99536926,0.013089175,-0.09522976,-0.052855384,-0.75295,-0.6559517,-0.08028912,0.65794754,-0.7487715,,-0.09934814,0.26737607,-0.08683085,-0.392969,-0.35264823,0.8492435,0.91651374,-0.07519664,0.39287147,-0.07468517,0.9327297,0.3527569,,-0.025658369,0.4094235,-0.3947553,-0.35116047,-0.5098725,-0.7853129,0.92975247,-0.28901556,-0.22810172,-0.11066487,-0.8102469,0.575546,,1.233482617404013,0.5817457446824581,0.20718473441000002,3.0113572783812543,-0.07419361937263416,-1.2270020591285258,-0.3987228654337758,,-0.9389839219783355,-0.3928476985789266,0.17372230435000002,-2.079075789649059,-0.5951885929782587,-0.052354757843709576,0.7221441163796486,,-0.05570436473896402,-0.06207917983187331,0.08431779928,-0.06574422517700301,,6.6682696e-06,-1.1324883e-06,1.1920929e-06,1.0,-1.4491379e-06,-1.270324e-06,1.4416873e-06,1.0000001,-1.4901161e-07,1.2665987e-06,1.4901161e-07,1.0,605,1.852,0,0,0.0,False,-0.2613079008681689,0.8970461132971974
1.869870064954739,16:01:59.594413,NaN,0,,0.12901638,0.0071937144,0.033595085,0.37085313,0.4705267,-0.80066985,0.5848621,0.5513707,0.59491754,0.72139055,-0.6889085,-0.070715666,,0.05408307,-0.041440375,0.048128128,0.27454466,0.50245273,0.81985754,0.3810878,-0.8396572,0.38697276,0.88283485,0.20619634,-0.42200208,,0.10612374,1.3403051,0.44034776,0.99536926,0.013089175,-0.09522976,-0.052855384,-0.75295,-0.6559517,-0.08028912,0.65794754,-0.7487715,,-0.09927858,0.26758865,-0.087101296,-0.38604304,-0.3631064,0.8480121,0.91751844,-0.055914447,0.3937429,-0.095554434,0.93006843,0.3547422,,-0.025656773,0.40940532,-0.3947517,-0.3525106,-0.5099014,-0.784689,0.92937046,-0.28893748,-0.22975132,-0.109575525,-0.81025654,0.5757409,,1.234278058890058,0.581537230894854,0.20692806899000002,3.004437510246265,-0.09537227683627744,-1.2235359911393355,-0.4021530908225954,,-0.9389993674440839,-0.3928554213118008,0.17372748951000003,-2.0792854795925435,-0.5934123184813078,-0.052251294529092385,0.7223074604457829,,-0.05570436473896402,-0.06207917983187331,0.08431779928,-0.06574422517700301,,6.6682696e-06,-1.1324883e-06,1.1920929e-06,1.0,-1.4491379e-06,-1.270324e-06,1.4416873e-06,1.0000001,-1.4901161e-07,1.2665987e-06,1.4901161e-07,1.0,613,1.877,0,0,0.0,False,-0.26112916771260597,0.8970461132971974
1.8967652869760059,16:01:59.617899,NaN,0,,0.12890379,0.007142961,0.033782482,0.36691168,0.47617748,-0.7991435,0.5805907,0.5539887,0.59666675,0.7268358,-0.6828995,-0.07319927,,0.05408295,-0.041439824,0.048125684,0.27458033,0.5018823,0.8201949,0.38128394,-0.8398843,0.3862862,0.8827391,0.20666048,-0.42197534,,0.10612374,1.3403051,0.44034776,0.99536926,0.013089175,-0.09522976,-0.052855384,-0.75295,-0.6559517,-0.08028912,0.65794754,-0.7487715,,-0.09918731,0.26767725,-0.0872862,-0.38294545,-0.36904272,0.84685314,0.9180249,-0.04994288,0.393365,-0.1028742,0.9280696,0.3579158,,-0.025656449,0.40940353,-0.39475,-0.3525399,-0.5093703,-0.7850207,0.9293851,-0.2886099,-0.23010351,-0.10935684,-0.8107072,0.5751477,,1.2349267684514929,0.5813518853058727,0.20674788468000002,3.0010824711505126,-0.10288728432337665,-1.2192866174592651,-0.4029698111532669,,-0.9389993674440839,-0.3928554213118008,0.1737287858,-2.079495169536028,-0.5932756819815425,-0.051382567551101974,0.7216540841812457,,-0.05570436473896402,-0.06207917983187331,0.08431779928,-0.06574422517700301,,6.6682696e-06,-1.1324883e-06,1.1920929e-06,1.0,-1.4491379e-06,-1.270324e-06,1.4416873e-06,1.0000001,-1.4901161e-07,1.2665987e-06,1.4901161e-07,1.0,621,1.901,0,0,0.0,False,-0.2607717014014801,0.8972875143010945
1.9202594889793545,16:01:59.641009,NaN,0,,0.1287065,0.0070774257,0.034031212,0.35995728,0.48682913,-0.79588175,0.57476354,0.55624557,0.60019827,0.73489976,-0.67348963,-0.07958698,,0.054085966,-0.041438244,0.04812318,0.27457383,0.50134605,0.8205249,0.38127682,-0.8401375,0.38574207,0.8827442,0.20693237,-0.42183146,,0.10612374,1.3403051,0.44034776,0.99536926,0.013089175,-0.09522976,-0.052855384,-0.75295,-0.6559517,-0.08028912,0.65794754,-0.7487715,,-0.099018514,0.2677963,-0.08753604,-0.37720934,-0.38027352,0.84445554,0.91914517,-0.041957863,0.39167804,-0.11351324,0.9239218,0.36535347,,-0.025659258,0.40940195,-0.3947473,-0.35253382,-0.5088568,-0.7853564,0.9293864,-0.28846323,-0.23028226,-0.109365754,-0.8110818,0.57461756,,1.2360156737867585,0.5809425804635387,0.20650547845000003,2.9947917728459768,-0.11395484080437733,-1.2098533735591521,-0.4021530908225954,,-0.9390070901769582,-0.3928476985789266,0.17373267467,-2.079495169536028,-0.5932756819815425,-0.05072913762997751,0.7219807723135143,,-0.05570436473896402,-0.06207917983187331,0.08431779928,-0.06574422517700301,,6.6682696e-06,-1.1324883e-06,1.1920929e-06,1.0,-1.4491379e-06,-1.270324e-06,1.4416873e-06,1.0000001,-1.4901161e-07,1.2665987e-06,1.4901161e-07,1.0,629,1.926,0,0,0.0,False,-0.2618441003348577,0.8976254757065507
1.943364575970918,16:01:59.669156,NaN,0,,0.12854677,0.0070554167,0.034200817,0.3538288,0.49695492,-0.79236394,0.5685325,0.5584161,0.6041047,0.74268174,-0.66423434,-0.0849513,,0.05408633,-0.041438647,0.048121035,0.27468926,0.5015026,0.8203906,0.38132364,-0.8400657,0.38585228,0.8826881,0.20684479,-0.42199188,,0.10612374,1.3403051,0.44034776,0.99536926,0.013089175,-0.09522976,-0.052855384,-0.75295,-0.6559517,-0.08028912,0.65794754,-0.7487715,,-0.09887661,0.2678943,-0.087694235,-0.37230018,-0.3909753,0.84174275,0.9197758,-0.03413993,0.39095652,-0.12411731,0.9197678,0.3723199,,-0.025659434,0.40939987,-0.3947465,-0.3526445,-0.50900596,-0.78521,0.92935294,-0.28851417,-0.23035339,-0.10929296,-0.8109701,0.5747891,,1.2369115108001687,0.5805101074225821,0.20635640510000003,2.9895495242588637,-0.125022397285378,-1.2009918808400233,-0.4024797789548642,,-0.9390070901769582,-0.3928476985789266,0.17373397096,-2.079495169536028,-0.593139045481777,-0.05092223427381452,0.7224708045119171,,-0.05570436473896402,-0.06207917983187331,0.08431779928,-0.06574422517700301,,6.6682696e-06,-1.1324883e-06,1.1920929e-06,1.0,-1.4491379e-06,-1.270324e-06,1.4416873e-06,1.0000001,-1.4901161e-07,1.2665987e-06,1.4901161e-07,1.0,637,1.95,0,0,0.0,False,-0.26148663402373185,0.8967564320925203
1.9715232659946196,16:01:59.693361,NaN,0,,0.12828659,0.0070324987,0.034428835,0.3436645,0.5072345,-0.7903212,0.5579957,0.5666105,0.606295,0.7553381,-0.6493579,-0.08831072,,0.054086864,-0.041439705,0.048118055,0.27469575,0.5013687,0.8204702,0.38133073,-0.84012765,0.3857103,0.882683,0.20691751,-0.42196688,,0.10612374,1.3403051,0.44034776,0.99536926,0.013089175,-0.09522976,-0.052855384,-0.75295,-0.6559517,-0.08028912,0.65794754,-0.7487715,,-0.09864018,0.26803103,-0.087907836,-0.364152,-0.40185326,0.8401829,0.9205036,-0.018083818,0.3903153,-0.14165576,0.9155255,0.37649265,,-0.025659703,0.40939677,-0.39474595,-0.35265058,-0.5088782,-0.7852901,0.9293517,-0.28847277,-0.2304103,-0.10928405,-0.811065,0.5746569,,1.2383170481832775,0.5796760522721659,0.20616066531000002,2.980952236575998,-0.14346832475371246,-1.1942000165952031,-0.40133637049192394,,-0.9389993674440839,-0.3928554213118008,0.17373656354000003,-2.079495169536028,-0.593139045481777,-0.05075887679353332,0.7218174282473799,,-0.05570436473896402,-0.06207917983187331,0.08431779928,-0.06574422517700301,,6.6682696e-06,-1.1324883e-06,1.1920929e-06,1.0,-1.4491379e-06,-1.270324e-06,1.4416873e-06,1.0000001,-1.4901161e-07,1.2665987e-06,1.4901161e-07,1.0,645,1.975,0,0,0.0,False,-0.2612483231496481,0.8963701904862846
1.9956661149626598,16:01:59.722354,NaN,0,,0.12800859,0.0070480406,0.034704536,0.3308572,0.5235113,-0.7851555,0.54122317,0.5763097,0.6123274,0.77305305,-0.6275373,-0.09266023,,0.05408837,-0.041440807,0.04811591,0.2746972,0.501298,0.8205129,0.38133526,-0.84016,0.3856354,0.8826806,0.20695749,-0.42195228,,0.10612374,1.3403051,0.44034776,0.99536926,0.013089175,-0.09522976,-0.052855384,-0.75295,-0.6559517,-0.08028912,0.65794754,-0.7487715,,-0.09838725,0.26822832,-0.08813285,-0.35431558,-0.4191815,0.8359111,0.92002255,0.0037484854,0.39184743,-0.1673886,0.90789473,0.38432828,,-0.025661001,0.40939417,-0.3947457,-0.35265186,-0.5088109,-0.7853331,0.9293518,-0.28844935,-0.23043914,-0.10927888,-0.81111556,0.5745865,,1.2399233766211162,0.5786643742656425,0.20596362923000003,2.9708871192887414,-0.17079562470680054,-1.1823713145939108,-0.3985595213676414,,-0.9389993674440839,-0.39286314404467504,0.17373915612000002,-2.079495169536028,-0.593139045481777,-0.05067719805339284,0.7216540841812458,,-0.05570436473896402,-0.06207917983187331,0.08431779928,-0.06574422517700301,,6.6682696e-06,-1.1324883e-06,1.1920929e-06,1.0,-1.4491379e-06,-1.270324e-06,1.4416873e-06,1.0000001,-1.4901161e-07,1.2665987e-06,1.4901161e-07,1.0,666,2.04,0,0,0.0,False,-0.26232072208302704,0.8955011468722547
2.024699311994482,16:01:59.778195,NaN,0,,0.12746389,0.007002279,0.03511077,0.30714032,0.5475753,-0.7783481,0.51972175,0.5886328,0.61919373,0.79721653,-0.5947039,-0.10379392,,0.054092184,-0.041449778,0.048108816,0.27482274,0.5014294,0.82039064,0.38141373,-0.84009373,0.3857022,0.8826076,0.20690846,-0.42212898,,0.10612374,1.3403051,0.44034776,0.99536926,0.013089175,-0.09522976,-0.052855384,-0.75295,-0.6559517,-0.08028912,0.65794754,-0.7487715,,-0.09788583,0.26846838,-0.088526264,-0.33458677,-0.44500887,0.8306737,0.9203931,0.034919325,0.3894318,-0.20230718,0.89484507,0.39789957,,-0.025664115,0.4093833,-0.39474973,-0.35277152,-0.5089382,-0.7851969,0.9293192,-0.28846803,-0.23054722,-0.109169915,-0.8110291,0.5747293,,1.242634055859969,0.5768109183758287,0.20563048270000003,2.9505471947707425,-0.20755084314370403,-1.1618746323558786,-0.40198974675646126,,-0.9389993674440839,-0.3929172031747946,0.17374563757000003,-2.079495169536028,-0.5930024089820115,-0.0508702946972298,0.7201839875860372,,-0.05570436473896402,-0.06207917983187331,0.08431779928,-0.06574422517700301,,6.6682696e-06,-1.1324883e-06,1.1920929e-06,1.0,-1.4491379e-06,-1.270324e-06,1.4416873e-06,1.0000001,-1.4901161e-07,1.2665987e-06,1.4901161e-07,1.0,674,2.065,0,0,0.0,False,-0.26190367805337944,0.8941493012504296
2.0805531849619,16:01:59.805944,NaN,0,,0.12710297,0.0069405437,0.035406172,0.2917807,0.56154835,-0.77429134,0.5050914,0.5969827,0.6232933,0.81224793,-0.5729529,-0.109445214,,0.05409298,-0.04145094,0.048107684,0.2748242,0.5011577,0.8205561,0.3814183,-0.84022045,0.3854215,0.8826052,0.2070519,-0.42206368,,0.10612374,1.3403051,0.44034776,0.99536926,0.013089175,-0.09522976,-0.052855384,-0.75295,-0.6559517,-0.08028912,0.65794754,-0.7487715,,-0.09755838,0.26862186,-0.088827185,-0.32181078,-0.46014932,0.82746625,0.91969573,0.055709284,0.38865945,-0.22493894,0.886092,0.40526953,,-0.025664799,0.40938166,-0.39475012,-0.3527728,-0.5086785,-0.78536457,0.9293193,-0.28838807,-0.23064674,-0.10916475,-0.8112204,0.5744602,,1.2443793934895437,0.5755830038488269,0.20537252099000003,2.9373367283312173,-0.231735503602187,-1.1495864287544033,-0.4018264026903269,,-0.9389993674440839,-0.3929249259076688,0.17374693386,-2.079495169536028,-0.5930024089820115,-0.05054357973666758,0.7192039231892317,,-0.05570436473896402,-0.06207917983187331,0.08431779928,-0.06574422517700301,,6.6682696e-06,-1.1324883e-06,1.1920929e-06,1.0,-1.4491379e-06,-1.270324e-06,1.4416873e-06,1.0000001,-1.4901161e-07,1.2665987e-06,1.4901161e-07,1.0,682,2.09,1,1,0.003,False,-0.2616653671792948,0.8963219102855051
2.1082825579796918,16:01:59.832411,NaN,0,,0.12672976,0.006837189,0.035753936,0.2789231,0.57429147,-0.7696693,0.49165714,0.60306996,0.6281562,0.8249092,-0.55362076,-0.114144385,,0.054091077,-0.041460775,0.048098862,0.2758332,0.50097835,0.8203271,0.38166106,-0.8403588,0.3848791,0.88218534,0.20692441,-0.42300284,,0.10612374,1.3403051,0.44034776,0.99536926,0.013089175,-0.09522976,-0.052855384,-0.75295,-0.6559517,-0.08028912,0.65794754,-0.7487715,,-0.09722659,0.26877972,-0.08919583,-0.31121606,-0.4740325,0.8236733,0.9182862,0.07319963,0.38909164,-0.24473467,0.8774594,0.4125166,,-0.025662055,0.40936923,-0.39475417,-0.3537447,-0.5084875,-0.78505105,0.9290034,-0.28855366,-0.2317099,-0.10870774,-0.8112812,0.574461,,1.2462405721122318,0.5744709303149386,0.20503807817000003,2.926013471383053,-0.25332407056512657,-1.136964803118943,-0.40394987555007233,,-0.9389993674440839,-0.39295581683916575,0.17374693386,-2.0792854795925435,-0.591909316983888,-0.050536456824692724,0.7200206435199029,,-0.05570436473896402,-0.06207917983187331,0.08431779928,-0.06574422517700301,,6.6682696e-06,-1.1324883e-06,1.1920929e-06,1.0,-1.4491379e-06,-1.270324e-06,1.4416873e-06,1.0000001,-1.4901161e-07,1.2665987e-06,1.4901161e-07,1.0,699,2.143,1,1,0.056,False,-0.26154621174225356,0.8957908280769313
2.1347355030011386,16:01:59.879362,NaN,0,,0.12609102,0.0066942424,0.0362899,0.25970864,0.592652,-0.7624399,0.47091734,0.6115673,0.635785,0.84308267,-0.5241651,-0.120260745,,0.054091692,-0.041473426,0.048097193,0.27579975,0.50050807,0.8206254,0.3820537,-0.8404833,0.3842171,0.8820259,0.20755595,-0.42302606,,0.10612374,1.3403051,0.44034776,0.99536926,0.013089175,-0.09522976,-0.052855384,-0.75295,-0.6559517,-0.08028912,0.65794754,-0.7487715,,-0.09665088,0.26903525,-0.08976059,-0.29536933,-0.49419844,0.8176337,0.9151858,0.09927493,0.39061418,-0.27421147,0.8636622,0.4229606,,-0.025662398,0.4093613,-0.39476418,-0.35370165,-0.5080716,-0.7853397,0.9290686,-0.28803822,-0.23208943,-0.108289815,-0.81172484,0.5739129,,1.24934511072767,0.5727487608839865,0.20455196942,2.9092382759042907,-0.28461382901141247,-1.118229438604129,-0.4005196501612529,,-0.9390070901769582,-0.3930407669007822,0.17374693386,-2.079704859479513,-0.5917726804841226,-0.049667729846702424,0.7206740197844401,,-0.05570436473896402,-0.06207917983187331,0.08431779928,-0.06574422517700301,,6.6682696e-06,-1.1324883e-06,1.1920929e-06,1.0,-1.4491379e-06,-1.270324e-06,1.4416873e-06,1.0000001,-1.4901161e-07,1.2665987e-06,1.4901161e-07,1.0,707,2.167,1,1,0.08,False,-0.2617249448978165,0.8931836972348406
2.181716480990872,16:01:59.906924,NaN,0,,0.12579997,0.006603271,0.0365026,0.25437647,0.5964001,-0.7613141,0.46530992,0.61462754,0.63696146,0.84780854,-0.51627505,-0.121164024,,0.054094076,-0.041483514,0.04809612,0.27580634,0.5005424,0.82060224,0.38208726,-0.84046006,0.38423467,0.88200927,0.20756727,-0.4230551,,0.10612374,1.3403051,0.44034776,0.99536926,0.013089175,-0.09522976,-0.052855384,-0.75295,-0.6559517,-0.08028912,0.65794754,-0.7487715,,-0.096387796,0.26911137,-0.090012036,-0.2909321,-0.49837676,0.8166879,0.9142215,0.106841244,0.39087585,-0.28205937,0.860352,0.4245432,,-0.025664587,0.40935513,-0.3947723,-0.3537071,-0.508107,-0.7853143,0.9290709,-0.2880194,-0.23210363,-0.108252265,-0.81170934,0.57394195,,1.2507583708436532,0.5720228239938094,0.20432122980000003,2.9039960273171777,-0.2932219284966352,-1.1138238303557524,-0.40149971455805855,,-0.9390148129098324,-0.393102548763776,0.17374823015000002,-2.079704859479513,-0.5917726804841226,-0.049749408586842944,0.7185505469246943,,-0.05570436473896402,-0.06207917983187331,0.08431779928,-0.06574422517700301,,6.6682696e-06,-1.1324883e-06,1.1920929e-06,1.0,-1.4491379e-06,-1.270324e-06,1.4416873e-06,1.0000001,-1.4901161e-07,1.2665987e-06,1.4901161e-07,1.0,716,2.196,1,1,0.109,False,-0.2604738128088746,0.8928457358293844
2.209221600962337,16:01:59.943261,NaN,0,,0.1252257,0.0064442605,0.03696555,0.24374571,0.60791355,-0.7556646,0.45193982,0.6181988,0.6431025,0.8581016,-0.49826843,-0.124057025,,0.054095477,-0.041493632,0.04809445,0.27581793,0.50058055,0.82057506,0.3821234,-0.84043497,0.38425362,0.8819899,0.20757686,-0.42309064,,0.10612374,1.3403051,0.44034776,0.99536926,0.013089175,-0.09522976,-0.052855384,-0.75295,-0.6559517,-0.08028912,0.65794754,-0.7487715,,-0.09587092,0.2693058,-0.09052624,-0.28233442,-0.5111193,0.8118155,0.9112638,0.12157975,0.39346737,-0.29980907,0.85086745,0.43143836,,-0.025665745,0.40934846,-0.3947801,-0.3537174,-0.5081461,-0.7852844,0.9290718,-0.28800142,-0.23212233,-0.108210966,-0.8116913,0.5739753,,1.253646672938613,0.5706867912065686,0.20385715798,2.893930910029921,-0.31248767496356233,-1.1000741956979307,-0.4018264026903269,,-0.9390148129098324,-0.3931643306267698,0.17374952644000002,-2.079704859479513,-0.5917726804841226,-0.04983108732698359,0.7180605147262916,,-0.05570436473896402,-0.06207917983187331,0.08431779928,-0.06574422517700301,,6.6682696e-06,-1.1324883e-06,1.1920929e-06,1.0,-1.4491379e-06,-1.270324e-06,1.4416873e-06,1.0000001,-1.4901161e-07,1.2665987e-06,1.4901161e-07,1.0,729,2.237,1,1,0.15,False,-0.26136747858668974,0.8931836972348406
2.2456007519504055,16:01:59.973485,NaN,0,,0.12477331,0.00637877,0.037294775,0.23316285,0.61821055,-0.75063336,0.4368075,0.62306947,0.6488327,0.868812,-0.479166,-0.12476231,,0.054095566,-0.041504182,0.048090994,0.27594995,0.50077903,0.8204095,0.3822088,-0.84033644,0.38438413,0.88191164,0.20749694,-0.423293,,0.10612374,1.3403051,0.44034776,0.99536926,0.013089175,-0.09522976,-0.052855384,-0.75295,-0.6559517,-0.08028912,0.65794754,-0.7487715,,-0.09545592,0.26947933,-0.09086534,-0.27395955,-0.52264875,0.8073317,0.9072826,0.13801846,0.39722696,-0.31903684,0.8413021,0.4363786,,-0.025665432,0.4093401,-0.39478746,-0.35384306,-0.50833803,-0.7851035,0.92903763,-0.2880355,-0.2322167,-0.10809312,-0.811559,0.57418454,,1.2559248791365094,0.5694665994124412,0.20357715934,2.8847045525166015,-0.3333930594276747,-1.0884997320217957,-0.4029698111532667,,-0.9390070901769582,-0.3932261124897636,0.17375082273,-2.079704859479513,-0.5916360439843571,-0.05010586271096111,0.7183872028585601,,-0.05570436473896402,-0.06207917983187331,0.08431779928,-0.06574422517700301,,6.6682696e-06,-1.1324883e-06,1.1920929e-06,1.0,-1.4491379e-06,-1.270324e-06,1.4416873e-06,1.0000001,-1.4901161e-07,1.2665987e-06,1.4901161e-07,1.0,738,2.266,1,1,0.179,False,-0.2618441003348577,0.8923146536208102
2.275852041959297,16:02:00.005023,NaN,0,,0.12427716,0.006306261,0.037542373,0.2226047,0.6233958,-0.7495495,0.42172104,0.6316117,0.6505523,0.8789759,-0.46091682,-0.12229934,,0.054099813,-0.041513003,0.04809147,0.27594507,0.50074244,0.8204335,0.3822327,-0.8403474,0.38433635,0.8819028,0.20754074,-0.4232899,,0.10612374,1.3403051,0.44034776,0.99536926,0.013089175,-0.09522976,-0.052855384,-0.75295,-0.6559517,-0.08028912,0.65794754,-0.7487715,,-0.0949908,0.26959288,-0.09115434,-0.26555735,-0.52873856,0.80617297,0.90296763,0.15660702,0.40015465,-0.33782953,0.83421206,0.4358456,,-0.025669616,0.4093357,-0.39479512,-0.35383767,-0.5083052,-0.7851272,0.9290426,-0.2880006,-0.23224016,-0.10806824,-0.8115919,0.57414263,,1.2582571444645252,0.5678602709746025,0.20335160488,2.875268505059798,-0.35429844389178705,-1.0829694951160627,-0.403623187417804,,-0.9390302583755809,-0.39328017161988316,0.17375211902,-2.079704859479513,-0.5916360439843571,-0.05010586271096111,0.7183872028585601,,-0.05570436473896402,-0.06207917983187331,0.08431779928,-0.06574422517700301,,6.6682696e-06,-1.1324883e-06,1.1920929e-06,1.0,-1.4491379e-06,-1.270324e-06,1.4416873e-06,1.0000001,-1.4901161e-07,1.2665987e-06,1.4901161e-07,1.0,747,2.293,1,1,0.206,False,-0.2607121236829584,0.8905282861919703
2.307368209993001,16:02:00.039909,NaN,0,,0.123721704,0.0061943233,0.03763011,0.21205074,0.62245333,-0.753383,0.4180811,0.63902444,0.64564407,0.88331354,-0.45188457,-0.12473038,,0.054102205,-0.04151932,0.048092425,0.27594224,0.5004488,0.82061356,0.3822501,-0.8404805,0.38402787,0.88189614,0.2077101,-0.42322072,,0.10612374,1.3403051,0.44034776,0.99536926,0.013089175,-0.09522976,-0.052855384,-0.75295,-0.6559517,-0.08028912,0.65794754,-0.7487715,,-0.09445576,0.26956975,-0.09135917,-0.25574613,-0.52801836,0.8098089,0.90320504,0.16816868,0.39489233,-0.3446949,0.8324157,0.43390036,,-0.025672017,0.40933314,-0.394801,-0.35383448,-0.5080257,-0.7853095,0.9290459,-0.2878999,-0.23235162,-0.108049944,-0.8118026,0.5738481,,1.2606203007240377,0.5660145378176628,0.20317530944,2.862896798394211,-0.36276990687724436,-1.0812073457157398,-0.40198974675646126,,-0.9390457038413292,-0.3933187852842543,0.17375211902,-2.079704859479513,-0.5916360439843571,-0.04977914775039889,0.7161003859326802,,-0.05570436473896402,-0.06207917983187331,0.08431779928,-0.06574422517700301,,6.6682696e-06,-1.1324883e-06,1.1920929e-06,1.0,-1.4491379e-06,-1.270324e-06,1.4416873e-06,1.0000001,-1.4901161e-07,1.2665987e-06,1.4901161e-07,1.0,760,2.335,1,1,0.248,False,-0.2617249448978165,0.8881625563537767
2.3422745499992743,16:02:00.074480,NaN,0,,0.12304133,0.006101206,0.03769225,0.19826473,0.63218486,-0.7490215,0.40540493,0.6428672,0.6498991,0.89237773,-0.43250906,-0.12883294,,0.054104157,-0.04151932,0.048093796,0.2759322,0.50044125,0.82062167,0.38224497,-0.8404842,0.38402504,0.8819015,0.20771357,-0.42320785,,0.10612374,1.3403051,0.44034776,0.99536926,0.013089175,-0.09522976,-0.052855384,-0.75295,-0.6559517,-0.08028912,0.65794754,-0.7487715,,-0.09379297,0.26954353,-0.09154743,-0.24385235,-0.539091,0.8061743,0.89993846,0.18403108,0.3952763,-0.36145103,0.82189626,0.44027227,,-0.025674079,0.40933415,-0.3948016,-0.35382488,-0.50801843,-0.78531855,0.9290487,-0.28789818,-0.23234263,-0.108057454,-0.8118078,0.5738394,,1.2634236527573814,0.5633579177089295,0.20305475447000002,2.8486378822372633,-0.38244556284346787,-1.0664700274257042,-0.4042765636823411,,-0.9390611493070777,-0.3933187852842543,0.17375211902,-2.079704859479513,-0.5916360439843571,-0.04977914775039889,0.714793633403606,,-0.05570436473896402,-0.06207917983187331,0.08431779928,-0.06574422517700301,,6.6682696e-06,-1.1324883e-06,1.1920929e-06,1.0,-1.4491379e-06,-1.270324e-06,1.4416873e-06,1.0000001,-1.4901161e-07,1.2665987e-06,1.4901161e-07,1.0,769,2.363,1,1,0.276,False,-0.2618441003348577,0.886714150330393
2.37682635395322,16:02:00.104797,NaN,0,,0.122597665,0.0060361326,0.03767702,0.18212946,0.6343073,-0.7513206,0.39789057,0.6512018,0.6462349,0.8991729,-0.41664177,-0.13378187,,0.054098938,-0.041524805,0.048081577,0.27693382,0.5001468,0.8204637,0.38302222,-0.84054893,0.38310775,0.88125014,0.20816031,-0.42434376,,0.10612374,1.3403051,0.44034776,0.99536926,0.013089175,-0.09522976,-0.052855384,-0.75295,-0.6559517,-0.08028912,0.65794754,-0.7487715,,-0.09335617,0.2694857,-0.09163213,-0.22902012,-0.5419455,0.8086067,0.89896876,0.20086801,0.38923922,-0.3733697,0.8160558,0.4411893,,-0.025667781,0.40932125,-0.39480028,-0.35477495,-0.5077625,-0.7850554,0.9288061,-0.28752476,-0.23377058,-0.10702294,-0.81210023,0.5736195,,1.2649527538664778,0.5614349572232477,0.20302105093000003,2.831652996815017,-0.3965191223193082,-1.06038478019425,-0.40264312302099836,,-0.9390534265742034,-0.39333423075000273,0.17375211902,-2.0801242393664814,-0.5902696789867028,-0.04909639450427068,0.7125068164777261,,-0.05570436473896402,-0.06207917983187331,0.08431779928,-0.06574422517700301,,6.6682696e-06,-1.1324883e-06,1.1920929e-06,1.0,-1.4491379e-06,-1.270324e-06,1.4416873e-06,1.0000001,-1.4901161e-07,1.2665987e-06,1.4901161e-07,1.0,782,2.405,1,1,0.318,False,-0.2608908568385213,0.886617589928834
2.4071364749688655,16:02:00.145590,NaN,0,,0.12225737,0.005891584,0.037630692,0.16969918,0.6429423,-0.74687815,0.38651386,0.6537275,0.65057486,0.90653694,-0.39908093,-0.13756916,,0.054064397,-0.041552514,0.04805535,0.27699655,0.49964052,0.82075083,0.38304394,-0.8407869,0.38256356,0.8812209,0.20841491,-0.42427936,,0.10611069,1.3403064,0.44035587,0.99537003,0.013100428,-0.09521996,-0.05284051,-0.75294983,-0.6559531,-0.08028912,0.65794754,-0.7487715,,-0.09301392,0.26934314,-0.09172972,-0.2182266,-0.5518828,0.8048618,0.89551663,0.21452957,0.38990638,-0.3878493,0.8058551,0.4474042,,-0.025617855,0.40928364,-0.3948061,-0.3548445,-0.5072663,-0.78534466,0.9287834,-0.28739226,-0.23402372,-0.106989644,-0.81245714,0.57312006,,1.2661806683934795,0.5591490282924771,0.20300290287000003,2.8194909800929144,-0.41387195778951913,-1.0469698150860693,-0.4021530908225954,,-0.9390534265742034,-0.39337284441437387,0.17375211902,-2.0801242393664814,-0.5902696789867028,-0.04844296458314619,0.7125068164777261,,-0.05570436473896402,-0.06207917983187331,0.08431779928,-0.06574422517700301,,-7.0370734e-06,2.861023e-06,-4.529953e-06,1.0,9.741634e-06,8.560717e-06,-9.749085e-06,1.0,1.0728836e-06,-8.564442e-06,-1.0430813e-06,1.0,791,2.434,1,1,0.347,False,-0.2613079008681689,0.8833345362758309
2.447958557982929,16:02:00.174996,NaN,0,,0.12208243,0.0058281645,0.037582144,0.1624265,0.6454119,-0.7463651,0.38306546,0.6558363,0.650492,0.90932864,-0.39156395,-0.14070988,,0.054071866,-0.04155843,0.04805827,0.27719286,0.49977505,0.8206027,0.3831346,-0.84072435,0.38261014,0.8811197,0.20834456,-0.42452395,,0.10611069,1.3403064,0.44035587,0.99537003,0.013100428,-0.09521996,-0.05284051,-0.75294983,-0.6559531,-0.08028912,0.65794754,-0.7487715,,-0.09284089,0.26926377,-0.09175706,-0.21152207,-0.55483335,0.8046231,0.89485186,0.22114255,0.38773206,-0.3930631,0.80203235,0.44971713,,-0.025625492,0.40928257,-0.39481243,-0.35503238,-0.5073949,-0.7851767,0.92872727,-0.28743142,-0.23419829,-0.10685342,-0.81236297,0.57327896,,1.2665590823043165,0.5581219048202053,0.20300031029,2.8119421421274717,-0.4202938732784948,-1.0418965310926187,-0.4021530908225954,,-0.9391152084371973,-0.39340373534587075,0.17375211902,-2.0801242393664814,-0.5899964059871718,-0.04866580039053903,0.7090765910889061,,-0.05570436473896402,-0.06207917983187331,0.08431779928,-0.06574422517700301,,-7.0370734e-06,2.861023e-06,-4.529953e-06,1.0,9.741634e-06,8.560717e-06,-9.749085e-06,1.0,1.0728836e-06,-8.564442e-06,-1.0430813e-06,1.0,804,2.475,1,1,0.388,False,-0.26017592421626956,0.8814998886462115
2.47736504097702,16:02:00.211717,NaN,0,,0.12176053,0.005741261,0.037563607,0.14067042,0.6514184,-0.7455639,0.36917746,0.66422755,0.6500077,0.9186511,-0.36668235,-0.14705186,,0.054085538,-0.04156755,0.04806441,0.27725318,0.49945503,0.82077724,0.38317928,-0.84086955,0.3822461,0.8810813,0.20852593,-0.4245146,,0.10611069,1.3403064,0.44035587,0.99537003,0.013100428,-0.09521996,-0.05284051,-0.75294983,-0.6559531,-0.08028912,0.65794754,-0.7487715,,-0.09252643,0.26918742,-0.09183952,-0.19183175,-0.5623364,0.80434966,0.8908728,0.244079,0.38310724,-0.41176,0.79006535,0.45414805,,-0.025639541,0.40928212,-0.39482293,-0.35508966,-0.5070901,-0.7853477,0.9287123,-0.2873245,-0.23438883,-0.10679338,-0.8125911,0.57296675,,1.2671151190712606,0.5562066670673976,0.20300160658000002,2.79055376789205,-0.44201907674119983,-1.0294902025140242,-0.40084633829352123,,-0.9392156039645622,-0.39345779447599033,0.17375341531000002,-2.0801242393664814,-0.5898597694874064,-0.04836882459353266,0.7064630860307578,,-0.05570436473896402,-0.06207917983187331,0.08431779928,-0.06574422517700301,,-7.0370734e-06,2.861023e-06,-4.529953e-06,1.0,9.741634e-06,8.560717e-06,-9.749085e-06,1.0,1.0728836e-06,-8.564442e-06,-1.0430813e-06,1.0,813,2.503,1,1,0.416,False,-0.2617249448978165,0.8794721202134745
2.5140877889934927,16:02:00.246246,NaN,0,,0.12150864,0.005716704,0.03762062,0.120428056,0.65100175,-0.74946207,0.3519526,0.6779188,0.64541125,0.9282383,-0.34150085,-0.14748138,,0.054094844,-0.04157506,0.048070073,0.2772168,0.4996674,0.8206602,0.38318312,-0.8407657,0.38247067,0.88109106,0.2084359,-0.42453852,,0.10611069,1.3403064,0.44035587,0.99537003,0.013100428,-0.09521996,-0.05284051,-0.75294983,-0.6559531,-0.08028912,0.65794754,-0.7487715,,-0.09228327,0.26920792,-0.09192759,-0.17392987,-0.5630717,0.8078976,0.8846004,0.2711478,0.37942192,-0.4327014,0.7806594,0.45093277,,-0.025649225,0.40928245,-0.39483196,-0.3550543,-0.5072951,-0.7852313,0.9287255,-0.28736562,-0.23428611,-0.106796294,-0.8124486,0.5731682,,1.2675862057765883,0.5548320206157856,0.20300938432,2.771262293091474,-0.46593046420015194,-1.0258377449544196,-0.40068299422738707,,-0.9392851085604302,-0.39350413087323566,0.17375341531000002,-2.0801242393664814,-0.5898597694874064,-0.048695539554094946,0.705483021633952,,-0.05570436473896402,-0.06207917983187331,0.08431779928,-0.06574422517700301,,-7.0370734e-06,2.861023e-06,-4.529953e-06,1.0,9.741634e-06,8.560717e-06,-9.749085e-06,1.0,1.0728836e-06,-8.564442e-06,-1.0430813e-06,1.0,822,2.531,1,1,0.444,False,-0.2611887454311268,0.8793755598119155
2.5486147539922968,16:02:00.275776,NaN,0,,0.121105924,0.0056613013,0.037615314,0.101682924,0.65432847,-0.7493427,0.3353934,0.6865995,0.64505243,0.9365745,-0.31691554,-0.14964202,,0.054104153,-0.04158257,0.048075736,0.27718037,0.49961174,0.8207064,0.38318694,-0.84078676,0.38242054,0.8811008,0.20848455,-0.4244943,,0.10611069,1.3403064,0.44035587,0.99537003,0.013100428,-0.09521996,-0.05284051,-0.75294983,-0.6559531,-0.08028912,0.65794754,-0.7487715,,-0.09188726,0.26916388,-0.09200827,-0.15735199,-0.56786484,0.80794173,0.87797725,0.29410267,0.377703,-0.4521021,0.7687868,0.45229477,,-0.02565891,0.40928277,-0.39484096,-0.35501888,-0.50724345,-0.78528064,0.92873865,-0.28733018,-0.23427728,-0.10679921,-0.8124933,0.57310426,,1.2686364974474829,0.5528318328013615,0.20302753238000001,2.7523901981778667,-0.48874875966098047,-1.015480507791314,-0.4018264026903269,,-0.9393546131562982,-0.39355046727048104,0.17375341531000002,-2.0801242393664814,-0.5898597694874064,-0.048695539554094946,0.705483021633952,,-0.05570436473896402,-0.06207917983187331,0.08431779928,-0.06574422517700301,,-7.0370734e-06,2.861023e-06,-4.529953e-06,1.0,9.741634e-06,8.560717e-06,-9.749085e-06,1.0,1.0728836e-06,-8.564442e-06,-1.0430813e-06,1.0,835,2.573,1,1,0.486,False,-0.260652545964438,0.8771063903752809
2.5781441449653357,16:02:00.306177,NaN,0,,0.12084557,0.005612619,0.037574872,0.090912685,0.6559115,-0.74934286,0.3301364,0.6900587,0.64407235,0.93954504,-0.30593976,-0.1538052,,0.054111566,-0.04158841,0.04807949,0.2771829,0.49993092,0.8205111,0.38338503,-0.8405913,0.38265157,0.8810139,0.20850728,-0.4246636,,0.10611069,1.3403064,0.44035587,0.99537003,0.013100428,-0.09521996,-0.05284051,-0.75294983,-0.6559531,-0.08028912,0.65794754,-0.7487715,,-0.091628976,0.269101,-0.092041835,-0.14733215,-0.5701345,0.80823255,0.8760989,0.30404246,0.37417772,-0.45906866,0.76322,0.45469898,,-0.025666555,0.40928245,-0.39484763,-0.35501593,-0.5075654,-0.78507394,0.92876446,-0.28723648,-0.23428988,-0.10658442,-0.8123254,0.57338226,,1.2693238206732889,0.5516348092058567,0.20303401383000003,2.7404378713992488,-0.4972202226464378,-1.0084909190219955,-0.40198974675646126,,-0.9394163950192921,-0.3935890809348521,0.17375341531000002,-2.0803339293099663,-0.5897231329876409,-0.04897031493807247,0.701889452178998,,-0.05570436473896402,-0.06207917983187331,0.08431779928,-0.06574422517700301,,-7.0370734e-06,2.861023e-06,-4.529953e-06,1.0,9.741634e-06,8.560717e-06,-9.749085e-06,1.0,1.0728836e-06,-8.564442e-06,-1.0430813e-06,1.0,844,2.601,1,1,0.514,False,-0.26154621174225356,0.8719404088918785
