AlexandreBanks6/ExpertPlaybackApp/resources/Motions/P_03/PC1/Data_PC1_4.csv
Task Time,PC1 Time,PC2 Time,Gaze Calib,s_T_psm1,Tx,Ty,Tz,R00,R01,R02,R10,R11,R12,R20,R21,R22,s_T_psm3,Tx,Ty,Tz,R00,R01,R02,R10,R11,R12,R20,R21,R22,cart_T_ecm,Tx,Ty,Tz,R00,R01,R02,R10,R11,R12,R20,R21,R22,ecm_T_psm1,Tx,Ty,Tz,R00,R01,R02,R10,R11,R12,R20,R21,R22,ecm_T_psm3,Tx,Ty,Tz,R00,R01,R02,R10,R11,R12,R20,R21,R22,psm1_joints,q1,q2,q3,q4,q5,q6,jaw,psm3_joints,q1,q2,q3,q4,q5,q6,jaw,ecm_joints,q1,q2,q3,q4,ecmi_T_ecm,Tx,Ty,Tz,R00,R01,R02,R10,R11,R12,R20,R21,R22,Sample #,Task Duration (s),Collisions (binary),Collisions (increments),Cumulative Collision Time (s),Clutch Press,MTMR Angle,MTML Angle
""
lci_T_si,,,,,-0.058161814,0.028812556,0.22338274,0.99118906,-0.064254425,0.115825556,0.028569233,-0.75016135,-0.6606374,0.12933673,0.65812564,-0.741716
rci_T_si,,,,,-0.067850515,0.03317108,0.23398167,0.98941356,-0.079541974,0.12138337,0.022701237,-0.7412876,-0.67080355,0.14333703,0.66645765,-0.73163426
ecm_T_lc,,,,,-4.4061628e-05,-0.00034663224,-0.01840835,-0.99912,0.030754527,0.028518902,-0.031987965,-0.99852574,-0.043852776,0.027128186,-0.04472645,0.9986309
ecm_T_rc,,,,,-0.0043358393,0.01870579,-0.007592615,-0.99555075,-0.052743673,-0.078081585,0.04863213,-0.9973746,0.053654674,-0.08070653,0.04961868,0.9955021
cart_T_ecmi,,,,,0.106117226,1.3403053,0.44034997,0.9953694,0.013090626,-0.0952285,-0.052853465,-0.75295,-0.65595186,-0.08028912,0.65794754,-0.7487715
ecmac_T_ecmrep_psm1,,,,,0.006928962,-0.26080152,-0.2999526,0.99741316,0.06053514,0.03876121,-0.0592658,0.9976933,-0.033100393,-0.040675536,0.030717555,0.99870014
ecmac_T_ecmrep_psm3,,,,,-0.019041438,-0.46633056,-0.5465172,0.99408877,-0.01321918,0.10776258,-0.016145537,0.96352404,0.2671344,-0.107363135,-0.2672952,0.95761496
""
0,16:05:09.669318,16:04:59.666402,0,,0.118814185,-0.008279122,0.030055061,0.9324835,0.22786295,-0.28027278,0.2491227,0.15615499,0.95579994,0.26155737,-0.9610901,0.08884603,,0.060314998,-0.019144304,0.011964858,-0.11725528,0.807087,0.5786723,0.8717318,-0.19549257,0.44929522,0.47574648,0.5571293,-0.680641,,0.10612258,1.3403033,0.4403487,0.99537,0.0130993575,-0.09522089,-0.052841924,-0.75294983,-0.65595293,-0.08028912,0.65794754,-0.7487715,,-0.09005057,0.25376782,-0.0960423,-0.92949474,-0.12913677,0.34548992,0.35905007,-0.5311345,0.7674498,0.08439563,0.8373887,0.5400533,,-0.029003548,0.3892156,-0.3570034,0.06768739,-0.84965867,-0.522971,0.86004335,0.31537935,-0.40107524,0.50571126,-0.42262992,0.75209045,,1.2374366566356159,0.5008964542222017,0.19847107303000003,3.800839915600488,0.03169966794558218,-1.0574514416328709,-0.4135871754519951,,-0.8868400296115716,-0.2945913682201681,0.20930416856000003,3.3370057606127204,-0.3242384139433902,0.11296230125100563,0.8010393003225054,,-0.055632369907319255,-0.0618370153981591,0.08432137115999999,-0.06574422517700301,,5.5395067e-06,8.34465e-07,1.9073486e-06,1.0,8.676201e-06,7.6256692e-06,-8.683652e-06,1.0,8.940697e-07,-7.6293945e-06,-9.536743e-07,1.0,35,0.106,1,1,0.082,False,-0.26136747858668974,0.9755979999653761
0.12739627703558654,16:05:09.699648,16:04:59.666402,0,,0.11868488,-0.008172967,0.030198753,0.92961407,0.24155796,-0.2783291,0.2452462,0.15824711,0.9564582,0.27508485,-0.95739627,0.0878675,,0.0603405,-0.019149192,0.0119665265,-0.11725183,0.8069689,0.5788376,0.8717402,-0.19557753,0.44924194,0.475732,0.5572705,-0.68053555,,0.10612258,1.3403033,0.4403487,0.99537,0.0130993575,-0.09522089,-0.052841924,-0.75294983,-0.65595293,-0.08028912,0.65794754,-0.7487715,,-0.089926526,0.2539432,-0.09609224,-0.92814434,-0.14289783,0.34369794,0.3652832,-0.52711993,0.7672762,0.07152793,0.8376902,0.54144156,,-0.029029053,0.38921255,-0.35700756,0.06768511,-0.8495522,-0.5231441,0.8600348,0.31546658,-0.40102482,0.505726,-0.42277876,0.7519969,,1.2390738760049516,0.5007960586948368,0.19840885111,3.794549217295953,0.017489471969976376,-1.055011998544186,-0.4148939279810693,,-0.8869481478718108,-0.29462998188453926,0.20931324259000003,3.3370057606127204,-0.3242384139433902,0.11304397999114617,0.8008759562563711,,-0.055632369907319255,-0.0618370153981591,0.08432137115999999,-0.06574422517700301,,5.5395067e-06,8.34465e-07,1.9073486e-06,1.0,8.676201e-06,7.6256692e-06,-8.683652e-06,1.0,8.940697e-07,-7.6293945e-06,-9.536743e-07,1.0,52,0.159,1,1,0.135,False,-0.2602355019347904,0.9755014395638171
0.15775585902156308,16:05:09.745902,16:04:59.748645,0,,0.11852194,-0.008019224,0.030330747,0.9237318,0.26388758,-0.27763733,0.23948275,0.16781199,0.9562883,0.29894352,-0.9498434,0.09181669,,0.06037201,-0.019159503,0.011956394,-0.116995975,0.8072294,0.57852614,0.8717992,-0.19553891,0.44914442,0.47568697,0.55690676,-0.6808647,,0.10612258,1.3403033,0.4403487,0.99537,0.0130993575,-0.09522089,-0.052841924,-0.75294983,-0.65595293,-0.08028912,0.65794754,-0.7487715,,-0.08976432,0.25414595,-0.09610578,-0.9248626,-0.16498725,0.34264892,0.37707224,-0.51499104,0.76980567,0.04945301,0.84116787,0.5385081,,-0.02905948,0.38919613,-0.35701022,0.06743347,-0.8497811,-0.5228048,0.86000615,0.3151537,-0.40133232,0.5058085,-0.42255208,0.7520688,,1.2413366367370993,0.5003326947223833,0.19838422160000002,3.7825968905173344,-0.007105097987802903,-1.0573367506773441,-0.41456723984880084,,-0.8870562661320499,-0.2946994864804073,0.20933527952000003,3.3372154505562053,-0.32410177744362473,0.11244248964660637,0.8015293325209083,,-0.055632369907319255,-0.0618370153981591,0.08432137115999999,-0.06574422517700301,,5.5395067e-06,8.34465e-07,1.9073486e-06,1.0,8.676201e-06,7.6256692e-06,-8.683652e-06,1.0,8.940697e-07,-7.6293945e-06,-9.536743e-07,1.0,60,0.183,0,1,0.144,False,-0.2613079008681689,0.9755979999653761
0.20399062300566584,16:05:09.770783,16:04:59.748645,0,,0.11848391,-0.007986367,0.03034681,0.92079353,0.27359033,-0.2780059,0.23827694,0.16973954,0.95624924,0.30880913,-0.9467507,0.091104716,,0.06038229,-0.019162707,0.011954129,-0.116990484,0.8071573,0.5786279,0.87180674,-0.19559103,0.44910693,0.47567442,0.556993,-0.68080294,,0.10612258,1.3403033,0.4403487,0.99537,0.0130993575,-0.09522089,-0.052841924,-0.75294983,-0.65595293,-0.08028912,0.65794754,-0.7487715,,-0.0897254,0.25418112,-0.09610013,-0.9229108,-0.1747438,0.34307474,0.38281906,-0.51149726,0.76929843,0.041051652,0.8413294,0.5389616,,-0.029069498,0.38919175,-0.35701144,0.06742899,-0.84971607,-0.5229111,0.85999876,0.3152069,-0.40130633,0.5058216,-0.42264318,0.7520088,,1.2419158417026661,0.5000392308731628,0.19838940676000003,3.7767255720997683,-0.016123106972321975,-1.0565174682446252,-0.4129337991874579,,-0.887094879796421,-0.29472265467902997,0.20934176097,3.3372154505562053,-0.32410177744362473,0.11252416838674696,0.801365988454774,,-0.055632369907319255,-0.0618370153981591,0.08432137115999999,-0.06574422517700301,,5.5395067e-06,8.34465e-07,1.9073486e-06,1.0,8.676201e-06,7.6256692e-06,-8.683652e-06,1.0,8.940697e-07,-7.6293945e-06,-9.536743e-07,1.0,68,0.208,0,1,0.144,False,-0.2604738128088746,0.9758394009692735
0.22888927499298006,16:05:09.796590,16:04:59.748645,0,,0.11849902,-0.007947259,0.030364364,0.91540635,0.2916863,-0.27739865,0.23427127,0.17434359,0.9564107,0.32733455,-0.9404911,0.09126145,,0.060402878,-0.019164942,0.011955023,-0.11699096,0.80710167,0.5787054,0.87180984,-0.19563013,0.44908395,0.47566867,0.5570599,-0.6807523,,0.10612258,1.3403033,0.4403487,0.99537,0.0130993575,-0.09522089,-0.052841924,-0.75294983,-0.65595293,-0.08028912,0.65794754,-0.7487715,,-0.089738876,0.25422186,-0.09608512,-0.91951174,-0.19290443,0.34247056,0.39232135,-0.50390387,0.7695225,0.024127958,0.84194344,0.5390261,,-0.02909006,0.38918975,-0.3570131,0.06742993,-0.84966594,-0.5229924,0.8599954,0.31524876,-0.4012806,0.5058272,-0.4227127,0.751966,,1.2425413830654783,0.4995604214349609,0.19840496224,3.7672895246429645,-0.034295761441125554,-1.0560743453177404,-0.41326048731972664,,-0.8871875525909116,-0.29474582287765266,0.209350835,3.3372154505562053,-0.32410177744362473,0.11252416838674696,0.801365988454774,,-0.055632369907319255,-0.0618370153981591,0.08432137115999999,-0.06574422517700301,,5.5395067e-06,8.34465e-07,1.9073486e-06,1.0,8.676201e-06,7.6256692e-06,-8.683652e-06,1.0,8.940697e-07,-7.6293945e-06,-9.536743e-07,1.0,89,0.274,0,1,0.144,False,-0.2604738128088746,0.9761290821739501
0.2546995099983178,16:05:09.862886,16:04:59.900017,0,,0.11855814,-0.007848762,0.03040886,0.9015005,0.3290325,-0.28112987,0.23065197,0.18436363,0.95541084,0.36619133,-0.9261466,0.090311855,,0.06045546,-0.01918251,0.011957586,-0.11679542,0.80698687,0.5789049,0.87181604,-0.19588959,0.44895884,0.4757054,0.557135,-0.68066514,,0.10612258,1.3403033,0.4403487,0.99537,0.0130993575,-0.09522089,-0.052841924,-0.75294983,-0.65595293,-0.08028912,0.65794754,-0.7487715,,-0.08979378,0.2543246,-0.09604501,-0.9094188,-0.23046924,0.346181,0.4157949,-0.48689017,0.7681488,-0.008482541,0.84250927,0.53861505,,-0.029142499,0.38917896,-0.35702774,0.0672319,-0.84955543,-0.52319735,0.86001474,0.3151904,-0.40128508,0.5058207,-0.42297825,0.75182104,,1.2436148429349956,0.4987881481475384,0.19845162868000002,3.74296549119876,-0.06941134188084375,-1.0549656794951294,-0.41375051951812947,,-0.8874192345771384,-0.294861663870766,0.20937157564000003,3.3374251404996897,-0.32410177744362473,0.11244248964660637,0.801365988454774,,-0.055632369907319255,-0.0618370153981591,0.08432137115999999,-0.06574422517700301,,5.5395067e-06,8.34465e-07,1.9073486e-06,1.0,8.676201e-06,7.6256692e-06,-8.683652e-06,1.0,8.940697e-07,-7.6293945e-06,-9.536743e-07,1.0,97,0.298,0,1,0.144,False,-0.2611887454311268,0.9758394009692735
0.3209626750322059,16:05:09.886427,16:04:59.900017,0,,0.11857184,-0.0077869147,0.030454546,0.89743763,0.3415936,-0.27914035,0.2268908,0.1852414,0.95614135,0.37832013,-0.92141163,0.08873814,,0.06047825,-0.019193046,0.011962652,-0.11660901,0.80694914,0.578995,0.87180716,-0.19609843,0.44888481,0.4757673,0.5571161,-0.68063736,,0.10612258,1.3403033,0.4403487,0.99537,0.0130993575,-0.09522089,-0.052841924,-0.75294983,-0.65595293,-0.08028912,0.65794754,-0.7487715,,-0.089806564,0.2544011,-0.096035674,-0.9067506,-0.2432916,0.34440172,0.42117423,-0.48307246,0.7676284,-0.020386554,0.8411006,0.5404944,,-0.029165532,0.38917613,-0.35703856,0.067041,-0.84951425,-0.5232887,0.8600487,0.31507108,-0.40130585,0.50578815,-0.42314985,0.7517463,,1.244147711503317,0.4986645844215508,0.19846329529,3.7373038627246773,-0.08198189985926427,-1.0519846402275685,-0.4134238313858608,,-0.8875273528373776,-0.2949234457337598,0.20937676080000003,3.337634830443174,-0.32410177744362473,0.1123608109064658,0.801365988454774,,-0.055632369907319255,-0.0618370153981591,0.08432137115999999,-0.06574422517700301,,5.5395067e-06,8.34465e-07,1.9073486e-06,1.0,8.676201e-06,7.6256692e-06,-8.683652e-06,1.0,8.940697e-07,-7.6293945e-06,-9.536743e-07,1.0,114,0.351,0,1,0.144,False,-0.2620824112089424,0.9759842415716118
0.3445397590403445,16:05:09.934219,16:04:59.900017,0,,0.11836887,-0.007547654,0.030590296,0.88958937,0.35922158,-0.28211766,0.22645979,0.18952182,0.9554044,0.39666933,-0.9138061,0.08724731,,0.06049314,-0.019206531,0.011961997,-0.11652026,0.80706257,0.5788549,0.8718985,-0.19598424,0.44875735,0.47562167,0.55699205,-0.6808405,,0.10612258,1.3403033,0.4403487,0.99537,0.0130993575,-0.09522089,-0.052841924,-0.75294983,-0.65595293,-0.08028912,0.65794754,-0.7487715,,-0.08959822,0.2546697,-0.095999576,-0.9006116,-0.26113176,0.34743202,0.4332066,-0.47481266,0.7660842,-0.03508379,0.84045416,0.54074574,,-0.029180177,0.38916755,-0.35704932,0.06696408,-0.8496177,-0.5231306,0.8599633,0.3150138,-0.4015339,0.50594366,-0.42298472,0.7517346,,1.2464722540984585,0.49863369349005393,0.19849959141,3.7232546365112142,-0.09851491633088257,-1.0489579526182937,-0.4142405517165322,,-0.8875891347003714,-0.2949929503296278,0.20938194596,3.337634830443174,-0.32396514094385925,0.11208603552248822,0.8016926765870426,,-0.055632369907319255,-0.0618370153981591,0.08432137115999999,-0.06574422517700301,,5.5395067e-06,8.34465e-07,1.9073486e-06,1.0,8.676201e-06,7.6256692e-06,-8.683652e-06,1.0,8.940697e-07,-7.6293945e-06,-9.536743e-07,1.0,122,0.376,1,2,0.156,False,-0.26101001227556386,0.9757428405677144
0.39233341603539884,16:05:09.965471,16:04:59.900017,0,,0.11815527,-0.007390566,0.030668408,0.8877897,0.3630582,-0.28287432,0.22673991,0.18984571,0.9552736,0.40052238,-0.91222113,0.086223185,,0.0604942,-0.01920671,0.011962533,-0.11617567,0.8070784,0.5789019,0.87184095,-0.19635198,0.44870844,0.47581148,0.55683947,-0.6808328,,0.10612258,1.3403033,0.4403487,0.99537,0.0130993575,-0.09522089,-0.052841924,-0.75294983,-0.65595293,-0.08028912,0.65794754,-0.7487715,,-0.08938068,0.25483876,-0.09597726,-0.8991428,-0.26505604,0.34826353,0.4360077,-0.47351205,0.7652997,-0.037940316,0.8399593,0.54132146,,-0.029181274,0.38916785,-0.3570497,0.066605166,-0.84961694,-0.52317756,0.8600698,0.31469485,-0.4015558,0.5058099,-0.42322356,0.7516902,,1.2481944235294107,0.4986491389558024,0.19852033205000003,3.719270527585009,-0.10234073832431491,-1.0467367174563398,-0.4121170788567865,,-0.8875891347003714,-0.2949929503296278,0.20938194596,3.3380542103301427,-0.32396514094385925,0.11200435678234766,0.8015293325209083,,-0.055632369907319255,-0.0618370153981591,0.08432137115999999,-0.06574422517700301,,5.5395067e-06,8.34465e-07,1.9073486e-06,1.0,8.676201e-06,7.6256692e-06,-8.683652e-06,1.0,8.940697e-07,-7.6293945e-06,-9.536743e-07,1.0,135,0.417,1,2,0.197,False,-0.26136747858668974,0.9761290821739501
0.42356160801136866,16:05:10.005129,16:04:59.900017,0,,0.11793121,-0.007191539,0.030763894,0.8848155,0.37042415,-0.28264314,0.22425535,0.19316885,0.9551939,0.40842474,-0.9085548,0.08784914,,0.06049484,-0.019206472,0.01196146,-0.11617567,0.8070784,0.5789019,0.87184095,-0.19635198,0.44870844,0.47581148,0.55683947,-0.6808328,,0.10612258,1.3403033,0.4403487,0.99537,0.0130993575,-0.09522089,-0.052841924,-0.75294983,-0.65595293,-0.08028912,0.65794754,-0.7487715,,-0.089151,0.25505057,-0.095940955,-0.8970823,-0.2724333,0.34788415,0.4394878,-0.46859664,0.76633394,-0.045757536,0.84035546,0.5401009,,-0.029181823,0.38916698,-0.35704896,0.066605166,-0.84961694,-0.52317756,0.8600698,0.31469485,-0.4015558,0.5058099,-0.42322356,0.7516902,,1.2502795614054512,0.49861052529143124,0.19855922075000002,3.7144476588848643,-0.1114953838085994,-1.046296089560768,-0.41375051951812947,,-0.8875891347003714,-0.2949929503296278,0.20938324225000002,3.3380542103301427,-0.32396514094385925,0.11200435678234766,0.8015293325209083,,-0.055632369907319255,-0.0618370153981591,0.08432137115999999,-0.06574422517700301,,5.5395067e-06,8.34465e-07,1.9073486e-06,1.0,8.676201e-06,7.6256692e-06,-8.683652e-06,1.0,8.940697e-07,-7.6293945e-06,-9.536743e-07,1.0,160,0.495,0,2,0.215,False,-0.2607717014014801,0.9762256425755091
0.46324470202671364,16:05:10.075885,16:05:00.054271,0,,0.11790379,-0.0070149004,0.030818954,0.8731921,0.39592728,-0.2842129,0.21936429,0.20146826,0.95461506,0.43521804,-0.8959086,0.089068115,,0.060500458,-0.01921133,0.011959732,-0.1156937,0.80730355,0.57868457,0.8719169,-0.1965256,0.4484846,0.4757896,0.55645174,-0.681165,,0.10612258,1.3403033,0.4403487,0.99537,0.0130993575,-0.09522089,-0.052841924,-0.75294983,-0.65595293,-0.08028912,0.65794754,-0.7487715,,-0.08911477,0.25521836,-0.09586665,-0.8882903,-0.2982231,0.3492898,0.4539037,-0.45398283,0.76672745,-0.070084274,0.8396205,0.5386331,,-0.02918723,0.38916263,-0.35705206,0.06612608,-0.8498065,-0.5229305,0.8600519,0.31425643,-0.40193737,0.50590324,-0.4231688,0.7516582,,1.251615594192692,0.49820894318197156,0.19864996105000002,3.697882153349587,-0.13745631876403308,-1.045301336673167,-0.41391386358426363,,-0.8876045801661198,-0.29500839579537624,0.20938583483000003,3.3384735902171125,-0.3236918679443284,0.11153648475453318,0.8016926765870426,,-0.055632369907319255,-0.0618370153981591,0.08432137115999999,-0.06574422517700301,,5.5395067e-06,8.34465e-07,1.9073486e-06,1.0,8.676201e-06,7.6256692e-06,-8.683652e-06,1.0,8.940697e-07,-7.6293945e-06,-9.536743e-07,1.0,168,0.519,1,3,0.227,False,-0.2618441003348577,0.9762739227762887
0.5339945800369605,16:05:10.105526,16:05:00.054271,0,,0.11796211,-0.007015988,0.030789733,0.86892694,0.40472513,-0.2848915,0.21798515,0.20383126,0.9544293,0.44435138,-0.8914316,0.088890314,,0.060502797,-0.019211419,0.011961162,-0.115349956,0.80731493,0.5787373,0.8718584,-0.1968967,0.44843566,0.4759803,0.5563041,-0.68115234,,0.10612258,1.3403033,0.4403487,0.99537,0.0130993575,-0.09522089,-0.052841924,-0.75294983,-0.65595293,-0.08028912,0.65794754,-0.7487715,,-0.089170195,0.25519782,-0.09583904,-0.8849699,-0.3071692,0.34996477,0.45903146,-0.44923466,0.7664713,-0.0782201,0.8389489,0.5385595,,-0.029189676,0.38916355,-0.35705277,0.06576794,-0.84980154,-0.5229837,0.8601588,0.31394044,-0.40195554,0.5057682,-0.42341325,0.7516115,,1.251476585000956,0.49791547933275104,0.19868755346000003,3.6922205248755047,-0.14606441824925584,-1.044897986691678,-0.4134238313858609,,-0.8876123028989941,-0.29500839579537624,0.20938583483000003,3.338892970104081,-0.3236918679443284,0.11145480601439262,0.8015293325209083,,-0.055632369907319255,-0.0618370153981591,0.08432137115999999,-0.06574422517700301,,5.5395067e-06,8.34465e-07,1.9073486e-06,1.0,8.676201e-06,7.6256692e-06,-8.683652e-06,1.0,8.940697e-07,-7.6293945e-06,-9.536743e-07,1.0,181,0.56,0,3,0.243,False,-0.26202283349042155,0.9761290821739501
0.5636400910443626,16:05:10.147615,16:05:00.054271,0,,0.11800479,-0.007044956,0.03073889,0.8637897,0.41359925,-0.2877546,0.22004603,0.20409936,0.9538989,0.45326245,-0.8872875,0.08528796,,0.060503796,-0.019213848,0.011959195,-0.11528038,0.8073294,0.578731,0.8719259,-0.19686958,0.44831637,0.4758736,0.55629265,-0.68123627,,0.10612258,1.3403033,0.4403487,0.99537,0.0130993575,-0.09522089,-0.052841924,-0.75294983,-0.65595293,-0.08028912,0.65794754,-0.7487715,,-0.08921036,0.25514212,-0.09581597,-0.88049376,-0.3163261,0.3530843,0.4665566,-0.44626072,0.7636598,-0.083997875,0.8371315,0.5405138,,-0.029190483,0.3891606,-0.35705385,0.06570705,-0.84981525,-0.52296907,0.86009604,0.31394327,-0.40208763,0.5058828,-0.42338362,0.751551,,1.2512217348161065,0.4974984517575429,0.198721257,3.683832927136124,-0.15248633373823153,-1.0421117074221629,-0.4140772076503978,,-0.8876123028989941,-0.2950161185282505,0.20938713112000001,3.338892970104081,-0.323555231444563,0.11142506685083675,0.801365988454774,,-0.055632369907319255,-0.0618370153981591,0.08432137115999999,-0.06574422517700301,,5.5395067e-06,8.34465e-07,1.9073486e-06,1.0,8.676201e-06,7.6256692e-06,-8.683652e-06,1.0,8.940697e-07,-7.6293945e-06,-9.536743e-07,1.0,189,0.585,1,4,0.255,False,-0.26196325577190027,0.9759359613708323
0.6057175520109013,16:05:10.169326,16:05:00.054271,0,,0.118067086,-0.007035956,0.030755341,0.8564683,0.42809704,-0.28843465,0.21982552,0.20308706,0.9541658,0.46705294,-0.88061833,0.079830885,,0.06050872,-0.019216485,0.01195997,-0.11527641,0.8073142,0.5787529,0.8719312,-0.19687872,0.4483021,0.4758648,0.5563114,-0.6812271,,0.10612258,1.3403033,0.4403487,0.99537,0.0130993575,-0.09522089,-0.052841924,-0.75294983,-0.65595293,-0.08028912,0.65794754,-0.7487715,,-0.08927296,0.25515977,-0.0958147,-0.87445885,-0.3313907,0.35426247,0.47567803,-0.44254345,0.7601879,-0.09514269,0.833268,0.5446213,,-0.029195428,0.38915956,-0.35705635,0.065703794,-0.84980166,-0.52299154,0.8600909,0.31395587,-0.40208867,0.5058919,-0.4234015,0.7515348,,1.2512062893503582,0.49722815610694504,0.19873551619000002,3.673348429961898,-0.16437370921782485,-1.036012214366759,-0.41375051951812925,,-0.8876354710976166,-0.29503156399399894,0.20938842741000002,3.338892970104081,-0.323555231444563,0.11142506685083675,0.801365988454774,,-0.055632369907319255,-0.0618370153981591,0.08432137115999999,-0.06574422517700301,,5.5395067e-06,8.34465e-07,1.9073486e-06,1.0,8.676201e-06,7.6256692e-06,-8.683652e-06,1.0,8.940697e-07,-7.6293945e-06,-9.536743e-07,1.0,202,0.626,1,4,0.296,False,-0.2602950796533112,0.9762256425755091
0.6274385520373471,16:05:10.205247,16:05:00.252939,0,,0.11816421,-0.0069911256,0.030834645,0.848338,0.44526717,-0.2864603,0.21320826,0.20793968,0.95462215,0.48462838,-0.87091804,0.08146843,,0.060518816,-0.019219883,0.0119616985,-0.1150364,0.8073801,0.57870877,0.87196934,-0.19700043,0.44817448,0.47585297,0.5561727,-0.68134856,,0.10612258,1.3403033,0.4403487,0.99537,0.0130993575,-0.09522089,-0.052841924,-0.75294983,-0.65595293,-0.08028912,0.65794754,-0.7487715,,-0.089372896,0.25524616,-0.09583155,-0.8684569,-0.34891632,0.35219318,0.48261234,-0.43245077,0.76162434,-0.11343695,0.8314107,0.54395616,,-0.029205602,0.38915852,-0.35705978,0.06546529,-0.8498543,-0.5229359,0.8600813,0.3137699,-0.4022543,0.5059391,-0.42343375,0.7514849,,1.251407080405088,0.49707370144946056,0.19873810877000003,3.6649608322225165,-0.18336618268522106,-1.034982262757836,-0.4132604873197263,,-0.887681807494862,-0.2950470094597474,0.20939101999,3.3391026600475655,-0.3234185949447975,0.11123197020699976,0.8020193647193111,,-0.055632369907319255,-0.0618370153981591,0.08432137115999999,-0.06574422517700301,,5.5395067e-06,8.34465e-07,1.9073486e-06,1.0,8.676201e-06,7.6256692e-06,-8.683652e-06,1.0,8.940697e-07,-7.6293945e-06,-9.536743e-07,1.0,210,0.65,1,4,0.32,False,-0.2611887454311268,0.9762256425755091
0.6633646929985844,16:05:10.236743,16:05:00.252939,0,,0.118227445,-0.0069284216,0.030928463,0.84141123,0.46073654,-0.2823981,0.20576689,0.21005324,0.95579165,0.4996868,-0.8623221,0.08193675,,0.060540985,-0.019225784,0.011967361,-0.11485978,0.8076287,0.5783969,0.87194914,-0.19699128,0.4482177,0.47593257,0.555815,-0.68158484,,0.10612258,1.3403033,0.4403487,0.99537,0.0130993575,-0.09522089,-0.052841924,-0.75294983,-0.65595293,-0.08028912,0.65794754,-0.7487715,,-0.08943904,0.25535557,-0.095851116,-0.86349255,-0.36487052,0.34820986,0.48724234,-0.42512566,0.7627995,-0.1302901,0.8283343,0.54487324,,-0.02922811,0.3891586,-0.35706696,0.065282725,-0.85007155,-0.52260554,0.86012554,0.31344816,-0.40241063,0.50588757,-0.4232359,0.751631,,1.251816385247422,0.49699647412071835,0.19873810877000003,3.658879823861465,-0.20085565465519745,-1.031910758483951,-0.41309714325359215,,-0.8877899257551012,-0.2950856231241185,0.20939620515000001,3.339312349991051,-0.3234185949447975,0.11066021902601582,0.8020193647193111,,-0.055632369907319255,-0.0618370153981591,0.08432137115999999,-0.06574422517700301,,5.5395067e-06,8.34465e-07,1.9073486e-06,1.0,8.676201e-06,7.6256692e-06,-8.683652e-06,1.0,8.940697e-07,-7.6293945e-06,-9.536743e-07,1.0,223,0.691,0,4,0.32,False,-0.2612483231496481,0.9759359613708323
0.6948243670049123,16:05:10.278161,16:05:00.252939,0,,0.118258305,-0.0068503097,0.031034678,0.8327841,0.47888935,-0.27773246,0.20028841,0.20706499,0.9576058,0.5160959,-0.85310555,0.07652438,,0.060572285,-0.019230582,0.011974037,-0.11486057,0.8075832,0.5784601,0.8719541,-0.19701995,0.44819537,0.47592324,0.5558708,-0.68154585,,0.10612258,1.3403033,0.4403487,0.99537,0.0130993575,-0.09522089,-0.052841924,-0.75294983,-0.65595293,-0.08028912,0.65794754,-0.7487715,,-0.08947294,0.2554848,-0.095873356,-0.85680497,-0.38394466,0.3441972,0.49423555,-0.42116216,0.76049566,-0.1470254,0.82171094,0.5506129,,-0.029259816,0.38915944,-0.35707337,0.06528427,-0.8500308,-0.52267164,0.8601201,0.31348506,-0.40239343,0.50589657,-0.42329046,0.75159425,,1.2524110356787372,0.4968960785933534,0.19873810877000003,3.6496534663481466,-0.21848176312493928,-1.0224385733155463,-0.41375051951812947,,-0.8879443804125857,-0.29512423678848965,0.20940527918000001,3.339312349991051,-0.3234185949447975,0.11057854028587526,0.8018560206531768,,-0.055632369907319255,-0.0618370153981591,0.08432137115999999,-0.06574422517700301,,5.5395067e-06,8.34465e-07,1.9073486e-06,1.0,8.676201e-06,7.6256692e-06,-8.683652e-06,1.0,8.940697e-07,-7.6293945e-06,-9.536743e-07,1.0,231,0.716,0,4,0.32,False,-0.26005676877922745,0.9761773623747296
0.736266793042887,16:05:10.305363,16:05:00.252939,0,,0.118328884,-0.006771803,0.031158566,0.8230642,0.49705487,-0.27477527,0.19320235,0.20991251,0.95844126,0.5340767,-0.84194607,0.07673922,,0.060596064,-0.019237675,0.011978805,-0.11485383,0.80751157,0.57856154,0.871966,-0.19706774,0.4481513,0.47590312,0.55595803,-0.68148875,,0.10612258,1.3403033,0.4403487,0.99537,0.0130993575,-0.09522089,-0.052841924,-0.75294983,-0.65595293,-0.08028912,0.65794754,-0.7487715,,-0.089547805,0.2556261,-0.09590359,-0.8492973,-0.4027449,0.34130737,0.5010976,-0.41157326,0.7612546,-0.16611843,0.8175598,0.5513626,,-0.029283848,0.3891581,-0.3570811,0.06527914,-0.8499663,-0.52277714,0.8601084,0.31354123,-0.40237477,0.5059172,-0.42337835,0.7515308,,1.2528743996511906,0.4968574649289823,0.19873551619000002,3.6402174188913428,-0.23843069209069356,-1.0185867278772345,-0.4121170788567865,,-0.8880602214056991,-0.295170573185735,0.20941176063000003,3.339312349991051,-0.3234185949447975,0.11057854028587526,0.8018560206531768,,-0.055632369907319255,-0.0618370153981591,0.08432137115999999,-0.06574422517700301,,5.5395067e-06,8.34465e-07,1.9073486e-06,1.0,8.676201e-06,7.6256692e-06,-8.683652e-06,1.0,8.940697e-07,-7.6293945e-06,-9.536743e-07,1.0,244,0.757,0,4,0.32,False,-0.2608908568385213,0.9761290821739501
0.7634613160043955,16:05:10.346608,16:05:00.252939,0,,0.11840628,-0.00667163,0.031342328,0.8118935,0.51779747,-0.2696561,0.1815346,0.21508145,0.95957553,0.55486387,-0.8280252,0.08062506,,0.060623884,-0.019247852,0.011985302,-0.11449776,0.8073973,0.5787916,0.8719255,-0.19752567,0.44802856,0.4760632,0.5559615,-0.681374,,0.10612258,1.3403033,0.4403487,0.99537,0.0130993575,-0.09522089,-0.052841924,-0.75294983,-0.65595293,-0.08028912,0.65794754,-0.7487715,,-0.089633025,0.25582373,-0.09596254,-0.84095633,-0.42416576,0.33596995,0.50645846,-0.3984126,0.7647008,-0.19050524,0.8132348,0.5498699,,-0.029312022,0.38915634,-0.3570922,0.06491115,-0.8498482,-0.5230149,0.8601972,0.31332064,-0.40235674,0.50581354,-0.42377853,0.751375,,1.2535848910756193,0.4968651876618565,0.19871607184,3.6316201312084773,-0.2638450810470655,-1.0164040718016076,-0.41228042292292066,,-0.8881915078645609,-0.2952323550487288,0.20941824208,3.3397317298780194,-0.3234185949447975,0.11057854028587526,0.8018560206531768,,-0.055632369907319255,-0.0618370153981591,0.08432137115999999,-0.06574422517700301,,5.5395067e-06,8.34465e-07,1.9073486e-06,1.0,8.676201e-06,7.6256692e-06,-8.683652e-06,1.0,8.940697e-07,-7.6293945e-06,-9.536743e-07,1.0,252,0.781,0,4,0.32,False,-0.2612483231496481,0.975791120768494
0.8046995050390251,16:05:10.367727,16:05:00.252939,0,,0.11836267,-0.0066364557,0.031392694,0.81063956,0.51989806,-0.26938668,0.18072958,0.21544483,0.959646,0.55695605,-0.8266133,0.080687135,,0.060632583,-0.019254304,0.01198554,-0.11442256,0.8073868,0.578821,0.87200046,-0.1975141,0.44788772,0.47594404,0.5559807,-0.68144166,,0.10612258,1.3403033,0.4403487,0.99537,0.0130993575,-0.09522089,-0.052841924,-0.75294983,-0.65595293,-0.08028912,0.65794754,-0.7487715,,-0.08959141,0.2558837,-0.0959812,-0.83995914,-0.4263478,0.33570248,0.50727147,-0.39719686,0.7647943,-0.19272837,0.8126883,0.5499032,,-0.029320644,0.3891526,-0.35709757,0.064845644,-0.84983957,-0.523037,0.8601271,0.3133438,-0.40248862,0.50594115,-0.42377868,0.751289,,1.25402508684945,0.49690380132622763,0.19870051636000002,3.630152301604086,-0.26630453804284343,-1.0156237306371805,-0.414077207650398,,-0.888230121528932,-0.2952632459802257,0.20942083466000003,3.3397317298780194,-0.3232819584450321,0.11054880112231945,0.8016926765870426,,-0.055632369907319255,-0.0618370153981591,0.08432137115999999,-0.06574422517700301,,5.5395067e-06,8.34465e-07,1.9073486e-06,1.0,8.676201e-06,7.6256692e-06,-8.683652e-06,1.0,8.940697e-07,-7.6293945e-06,-9.536743e-07,1.0,269,0.835,0,4,0.32,False,-0.2596993024681016,0.976418763378627
0.8258262960007414,16:05:10.427253,16:05:00.252939,0,,0.11826046,-0.006458901,0.03167069,0.8002812,0.5375943,-0.26559755,0.17786527,0.21017614,0.96134806,0.5726375,-0.8165895,0.072580665,,0.060640376,-0.019265689,0.011984229,-0.11399132,0.8074449,0.5788252,0.87202895,-0.19782548,0.44769466,0.47599515,0.5557857,-0.681565,,0.10612258,1.3403033,0.4403487,0.99537,0.0130993575,-0.09522089,-0.052841924,-0.75294983,-0.65595293,-0.08028912,0.65794754,-0.7487715,,-0.089500524,0.2562022,-0.09607895,-0.831283,-0.44521886,0.33278936,0.5157122,-0.3943774,0.76059675,-0.20738742,0.80389464,0.55744404,,-0.029328182,0.38914505,-0.35710642,0.06441137,-0.8498777,-0.5230288,0.86015165,0.31301382,-0.4026928,0.50595486,-0.42394605,0.75118536,,1.2556931971502825,0.49732082890143575,0.19862273896000002,3.6173612150515297,-0.28201773551586906,-1.0019122055705458,-0.41326048731972653,,-0.8882532897275547,-0.29531730511034526,0.20942342724000002,3.3401511097649883,-0.32314532194526663,0.11035570447848249,0.8015293325209083,,-0.055632369907319255,-0.0618370153981591,0.08432137115999999,-0.06574422517700301,,5.5395067e-06,8.34465e-07,1.9073486e-06,1.0,8.676201e-06,7.6256692e-06,-8.683652e-06,1.0,8.940697e-07,-7.6293945e-06,-9.536743e-07,1.0,277,0.859,0,4,0.32,False,-0.26059296824591627,0.976322202977068
0.8853579790447839,16:05:10.447596,16:05:00.252939,0,,0.11823836,-0.006405741,0.031781286,0.7981243,0.54198706,-0.2631488,0.17529792,0.20897382,0.96208143,0.5764269,-0.8139901,0.07177782,,0.06064176,-0.019267105,0.011983216,-0.11381583,0.80747515,0.5788175,0.8720033,-0.19799057,0.44767177,0.4760842,0.55568296,-0.68158656,,0.10612258,1.3403033,0.4403487,0.99537,0.0130993575,-0.09522089,-0.052841924,-0.75294983,-0.65595293,-0.08028912,0.65794754,-0.7487715,,-0.08948417,0.25631595,-0.096127294,-0.82967734,-0.4499048,0.33048624,0.51636374,-0.39352474,0.76059633,-0.21214141,0.80170065,0.5588131,,-0.029329455,0.38914335,-0.35710707,0.06422917,-0.84989744,-0.5230191,0.86020124,0.31283948,-0.40272233,0.5058937,-0.42403513,0.7511763,,1.2562260657186042,0.4975525108876625,0.19857996139000003,3.615683695503653,-0.2869366495074249,-0.9988813059191614,-0.41391386358426363,,-0.8882532897275547,-0.29532502784321946,0.20942472353000002,3.340360799708473,-0.32314532194526663,0.1102740257383419,0.8016926765870426,,-0.055632369907319255,-0.0618370153981591,0.08432137115999999,-0.06574422517700301,,5.5395067e-06,8.34465e-07,1.9073486e-06,1.0,8.676201e-06,7.6256692e-06,-8.683652e-06,1.0,8.940697e-07,-7.6293945e-06,-9.536743e-07,1.0,290,0.9,0,4,0.32,False,-0.26101001227556386,0.9760325217723913
0.9057074540178291,16:05:10.486319,16:05:00.252939,0,,0.11825634,-0.006279364,0.03208369,0.78650415,0.5593353,-0.26183003,0.17201379,0.20878068,0.96271586,0.5931461,-0.8022186,0.06799349,,0.06064325,-0.019268177,0.011980772,-0.113812566,0.80747414,0.5788195,0.87200683,-0.19799007,0.44766498,0.4760784,0.55568457,-0.6815893,,0.10612258,1.3403033,0.4403487,0.99537,0.0130993575,-0.09522089,-0.052841924,-0.75294983,-0.65595293,-0.08028912,0.65794754,-0.7487715,,-0.0895188,0.25661284,-0.096262954,-0.8198728,-0.4681862,0.32956067,0.52519333,-0.38577327,0.75851893,-0.22799242,0.7949721,0.56217325,,-0.029330729,0.3891406,-0.35710675,0.06422638,-0.8498966,-0.52302074,0.86019784,0.31284118,-0.4027283,0.50589985,-0.42403555,0.7511719,,1.2571759618621337,0.498154884051852,0.19846718416000003,3.602263539120644,-0.30346966597904323,-0.9902187852401876,-0.41244376698905505,,-0.8882532897275547,-0.2953327505760937,0.20942731611,3.340360799708473,-0.32314532194526663,0.1102740257383419,0.8016926765870426,,-0.055632369907319255,-0.0618370153981591,0.08432137115999999,-0.06574422517700301,,5.5395067e-06,8.34465e-07,1.9073486e-06,1.0,8.676201e-06,7.6256692e-06,-8.683652e-06,1.0,8.940697e-07,-7.6293945e-06,-9.536743e-07,1.0,298,0.925,0,4,0.32,False,-0.2604738128088746,0.9756462801661556
0.9444326719967648,16:05:10.516700,16:05:00.252939,0,,0.11830252,-0.006192766,0.032307178,0.7783663,0.5704396,-0.2621912,0.16794707,0.21321255,0.9624626,0.6049293,-0.79318285,0.0701538,,0.060647465,-0.019270249,0.0119793415,-0.11374454,0.80762166,0.578627,0.87207294,-0.19786026,0.44759366,0.47597367,0.55551636,-0.6817996,,0.10612258,1.3403033,0.4403487,0.99537,0.0130993575,-0.09522089,-0.052841924,-0.75294983,-0.65595293,-0.08028912,0.65794754,-0.7487715,,-0.0895776,0.25682715,-0.09636384,-0.8131518,-0.47966278,0.32970867,0.5301195,-0.376431,0.7597849,-0.24032797,0.7926054,0.5603741,,-0.029334782,0.38913798,-0.35710764,0.06416689,-0.85003054,-0.52281034,0.8601362,0.31275123,-0.40292978,0.5060122,-0.42383334,0.75121033,,1.2577165531633294,0.49865686168867657,0.19838551789000003,3.5940856313247473,-0.3161768604572292,-0.9891682965724444,-0.4134238313858607,,-0.8882687351933031,-0.2953404733089679,0.20942990869000003,3.340360799708473,-0.32300868544550126,0.10999925035436436,0.8013659884547739,,-0.055632369907319255,-0.0618370153981591,0.08432137115999999,-0.06574422517700301,,5.5395067e-06,8.34465e-07,1.9073486e-06,1.0,8.676201e-06,7.6256692e-06,-8.683652e-06,1.0,8.940697e-07,-7.6293945e-06,-9.536743e-07,1.0,311,0.966,0,4,0.32,False,-0.26005676877922745,0.9758394009692735
0.9747842200449668,16:05:10.549081,16:05:00.595201,0,,0.118357025,-0.006139837,0.032538205,0.77540195,0.57652104,-0.2576333,0.16206965,0.21263039,0.96359843,0.61031544,-0.7889308,0.07143739,,0.060661077,-0.019275956,0.01197654,-0.113325626,0.8077638,0.5785108,0.8720884,-0.19811033,0.4474529,0.47604528,0.5552205,-0.6819906,,0.10612258,1.3403033,0.4403487,0.99537,0.0130993575,-0.09522089,-0.052841924,-0.75294983,-0.65595293,-0.08028912,0.65794754,-0.7487715,,-0.08964797,0.25702164,-0.0964918,-0.8111452,-0.48612285,0.3251585,0.5293964,-0.37401,0.7614827,-0.24856162,0.78981084,0.56072813,,-0.029348046,0.38913158,-0.35711065,0.06374326,-0.8501445,-0.5226769,0.8601726,0.31235927,-0.40315598,0.5060038,-0.42389387,0.75118184,,1.2581413034714117,0.4993287394487341,0.19826625921000002,3.593456561494294,-0.3242384139433902,-0.9865968985212432,-0.4127704551213236,,-0.8883150715905485,-0.29537136424046484,0.20943768643000002,3.340780179595442,-0.3228720489457358,0.10964279623024625,0.8012026443886398,,-0.055632369907319255,-0.0618370153981591,0.08432137115999999,-0.06574422517700301,,5.5395067e-06,8.34465e-07,1.9073486e-06,1.0,8.676201e-06,7.6256692e-06,-8.683652e-06,1.0,8.940697e-07,-7.6293945e-06,-9.536743e-07,1.0,319,0.99,0,4,0.32,False,-0.2599376133421849,0.9760325217723913
1.0071898520109244,16:05:10.579183,16:05:00.595201,0,,0.118410945,-0.006071709,0.03275627,0.7722656,0.58010286,-0.25901008,0.16322124,0.21284026,0.96335757,0.61397433,-0.78624403,0.06968403,,0.06067063,-0.019283377,0.011972487,-0.11324623,0.80789864,0.5783381,0.87216747,-0.19798546,0.44735396,0.4759192,0.5550689,-0.68220186,,0.10612258,1.3403033,0.4403487,0.99537,0.0130993575,-0.09522089,-0.052841924,-0.75294983,-0.65595293,-0.08028912,0.65794754,-0.7487715,,-0.08971542,0.25721866,-0.09660015,-0.8082635,-0.48990035,0.3266616,0.5327136,-0.37205237,0.7601271,-0.25085133,0.78840005,0.5616929,,-0.029357143,0.3891236,-0.35711464,0.06367412,-0.8502671,-0.52248585,0.8600984,0.31228212,-0.40337396,0.5061386,-0.4237048,0.7511977,,1.2583807081905127,0.5002400219278926,0.19814959311000002,3.58863369279415,-0.3260146884403409,-0.9840049634112218,-0.412933799187458,,-0.8883459625220453,-0.2954099779048359,0.20944416788000003,3.340780179595442,-0.3227354124459703,0.10936802084626868,0.8015293325209083,,-0.055632369907319255,-0.0618370153981591,0.08432137115999999,-0.06574422517700301,,5.5395067e-06,8.34465e-07,1.9073486e-06,1.0,8.676201e-06,7.6256692e-06,-8.683652e-06,1.0,8.940697e-07,-7.6293945e-06,-9.536743e-07,1.0,328,1.019,0,4,0.32,False,-0.2604738128088746,0.9758394009692735
1.037287543003913,16:05:10.603530,16:05:00.595201,0,,0.11851532,-0.0059845075,0.03299454,0.76629704,0.5876081,-0.25981766,0.16441698,0.21157736,0.9634325,0.6210923,-0.78099406,0.06551826,,0.060680263,-0.01928676,0.011971295,-0.11324071,0.8078737,0.57837397,0.872175,-0.1980009,0.4473325,0.47590673,0.5550996,-0.6821856,,0.10612258,1.3403033,0.4403487,0.99537,0.0130993575,-0.09522089,-0.052841924,-0.75294983,-0.65595293,-0.08028912,0.65794754,-0.7487715,,-0.08983326,0.2574433,-0.09670464,-0.80287147,-0.49791577,0.32783723,0.5383936,-0.3694659,0.75738186,-0.2559877,0.7845858,0.5647083,,-0.029366612,0.3891201,-0.35711664,0.06366961,-0.85024476,-0.52252275,0.86009115,0.31230256,-0.40337372,0.50615156,-0.42373455,0.7511722,,1.2584579355192549,0.5012980363316614,0.19804070475000002,3.5802460950547688,-0.3307969659321313,-0.9779816895381925,-0.41391386358426363,,-0.8883845761864164,-0.2954331461034586,0.20944935304,3.340780179595442,-0.3227354124459703,0.10936802084626868,0.8015293325209083,,-0.055632369907319255,-0.0618370153981591,0.08432137115999999,-0.06574422517700301,,5.5395067e-06,8.34465e-07,1.9073486e-06,1.0,8.676201e-06,7.6256692e-06,-8.683652e-06,1.0,8.940697e-07,-7.6293945e-06,-9.536743e-07,1.0,341,1.06,0,4,0.32,False,-0.2617249448978165,0.975791120768494
1.0616401880397461,16:05:10.649327,16:05:00.595201,0,,0.11874856,-0.0058411956,0.03330125,0.75797105,0.59947073,-0.25712734,0.16186391,0.20900458,0.9644259,0.6318858,-0.77262664,0.061386734,,0.06085715,-0.0192668,0.011993706,-0.11303082,0.80769545,0.57866395,0.87211037,-0.19840351,0.44728023,0.47607523,0.5552153,-0.68197393,,0.10607596,1.3403088,0.44035426,0.99537164,0.013123305,-0.09520003,-0.052810267,-0.7529494,-0.655956,-0.08028912,0.65794754,-0.7487715,,-0.09003768,0.25775468,-0.096804634,-0.79576474,-0.5106437,0.3255787,0.54375625,-0.36577192,0.755341,-0.26662257,0.7781092,0.5687341,,-0.029499602,0.38913706,-0.35710093,0.063415706,-0.8500716,-0.5228353,0.8601865,0.31219214,-0.40325576,0.5060213,-0.42416313,0.751018,,1.2584579355192549,0.5027190191805186,0.19794996445000002,3.571648807371903,-0.34063479391524304,-0.9695512067713472,-0.4127704551213236,,-0.8885004171795299,-0.29547948250070394,0.20946101965000002,3.3411995594824107,-0.3227354124459703,0.10944969958640924,0.8016926765870425,,-0.055632369907319255,-0.0618370153981591,0.08432137115999999,-0.06574422517700301,,-4.1604042e-05,-4.172325e-07,-1.4305115e-06,1.0,3.2495707e-05,2.8550625e-05,-3.2499433e-05,1.0,3.4868717e-06,-2.8550625e-05,-3.4868717e-06,1.0,350,1.089,0,4,0.32,False,-0.2607717014014801,0.9758394009692735
1.1074187460471876,16:05:10.682643,16:05:00.709436,0,,0.11891277,-0.005735852,0.033558264,0.7525201,0.6071631,-0.255081,0.15829583,0.20921159,0.96497315,0.63926196,-0.76653993,0.061324447,,0.06086193,-0.019274235,0.011993468,-0.11284399,0.8076656,0.57874215,0.8720975,-0.19860992,0.44721362,0.476143,0.55518496,-0.6819513,,0.10607596,1.3403088,0.44035426,0.99537164,0.013123305,-0.09520003,-0.052810267,-0.7529494,-0.655956,-0.08028912,0.65794754,-0.7487715,,-0.09021516,0.25800526,-0.0969037,-0.79128325,-0.5188035,0.3235951,0.5460839,-0.3615353,0.75570136,-0.27506945,0.7746839,0.5693871,,-0.029504264,0.38913268,-0.357107,0.0632239,-0.8500372,-0.52291447,0.86022353,0.3120636,-0.4032763,0.5059824,-0.42432663,0.7509519,,1.2584270445877581,0.5039314882417719,0.19785533528000002,3.5670356286152436,-0.34842307440187315,-0.9661408209057116,-0.4127704551213234,,-0.8885158626452783,-0.2955180961650751,0.20946231594000003,3.341409249425896,-0.3227354124459703,0.10944969958640924,0.8016926765870425,,-0.055632369907319255,-0.0618370153981591,0.08432137115999999,-0.06574422517700301,,-4.1604042e-05,-4.172325e-07,-1.4305115e-06,1.0,3.2495707e-05,2.8550625e-05,-3.2499433e-05,1.0,3.4868717e-06,-2.8550625e-05,-3.4868717e-06,1.0,363,1.13,0,4,0.32,False,-0.26154621174225356,0.9759359613708323
1.1407446709927171,16:05:10.712298,16:05:00.709436,0,,0.11899832,-0.0056972876,0.033728614,0.74615073,0.61510384,-0.2547667,0.15662785,0.2097449,0.96512955,0.64709085,-0.76003575,0.06015879,,0.060858894,-0.019280598,0.011990249,-0.11282836,0.80767477,0.5787324,0.87211394,-0.1985978,0.44718707,0.4761167,0.5551759,-0.681977,,0.10607596,1.3403088,0.44035426,0.99537164,0.013123305,-0.09520003,-0.052810267,-0.7529494,-0.655956,-0.08028912,0.65794754,-0.7487715,,-0.09031213,0.25814828,-0.09699299,-0.7857808,-0.5272212,0.3233982,0.5501235,-0.3567768,0.7550327,-0.28268826,0.77119917,0.57038516,,-0.029500911,0.389127,-0.357111,0.063210405,-0.85004574,-0.52290225,0.8602081,0.31206128,-0.40331107,0.5060104,-0.42431125,0.7509417,,1.2584270445877581,0.5044411886114708,0.19777885417000002,3.560325550423739,-0.35607471838873783,-0.96251513798321,-0.4147305839149349,,-0.8884926944466556,-0.295548987096572,0.20946231594000003,3.341409249425896,-0.3227354124459703,0.10944969958640924,0.8016926765870425,,-0.055632369907319255,-0.0618370153981591,0.08432137115999999,-0.06574422517700301,,-4.1604042e-05,-4.172325e-07,-1.4305115e-06,1.0,3.2495707e-05,2.8550625e-05,-3.2499433e-05,1.0,3.4868717e-06,-2.8550625e-05,-3.4868717e-06,1.0,372,1.158,0,4,0.32,False,-0.26136747858668974,0.9761290821739501
1.1703649760456756,16:05:10.747693,16:05:00.709436,0,,0.11905247,-0.005708039,0.03388332,0.7418787,0.6205117,-0.25412783,0.15431854,0.21081913,0.96526754,0.65253484,-0.75532806,0.06064567,,0.060858194,-0.01928705,0.01198858,-0.11246914,0.80769444,0.5787748,0.8720705,-0.19895677,0.4471122,0.47628126,0.5550188,-0.68199,,0.10607596,1.3403088,0.44035426,0.99537164,0.013123305,-0.09520003,-0.052810267,-0.7529494,-0.655956,-0.08028912,0.65794754,-0.7487715,,-0.090380415,0.2582443,-0.09710747,-0.7822005,-0.5329227,0.32273167,0.5520817,-0.35282278,0.7554614,-0.28873545,0.76909655,0.570195,,-0.0295,0.38912225,-0.35711572,0.06283891,-0.85004836,-0.5229427,0.860299,0.31174263,-0.4033636,0.5059021,-0.42454016,0.7508853,,1.2584424900535065,0.5047346524606913,0.19767644726000003,3.5565511314410174,-0.36222336087818263,-0.9610135181429151,-0.4148939279810693,,-0.8884772489809072,-0.2955798780280689,0.20946231594000003,3.3418286293128645,-0.3227354124459703,0.10936802084626865,0.8018560206531768,,-0.055632369907319255,-0.0618370153981591,0.08432137115999999,-0.06574422517700301,,-4.1604042e-05,-4.172325e-07,-1.4305115e-06,1.0,3.2495707e-05,2.8550625e-05,-3.2499433e-05,1.0,3.4868717e-06,-2.8550625e-05,-3.4868717e-06,1.0,385,1.199,0,4,0.32,False,-0.2611887454311268,0.9759359613708323
1.2057819470064715,16:05:10.780107,16:05:00.709436,0,,0.11908895,-0.005721122,0.03402947,0.73486483,0.6286108,-0.2546015,0.15437466,0.21051008,0.96532595,0.6604105,-0.74868816,0.057654828,,0.060859,-0.019298047,0.011988223,-0.11244627,0.80768746,0.57878894,0.8720957,-0.19895333,0.44706458,0.47624055,0.5550301,-0.6820092,,0.10607596,1.3403088,0.44035426,0.99537164,0.013123305,-0.09520003,-0.052810267,-0.7529494,-0.655956,-0.08028912,0.65794754,-0.7487715,,-0.090430565,0.25833285,-0.09721927,-0.7759269,-0.5415756,0.3234707,0.5574295,-0.34859654,0.7534937,-0.2953131,0.76496816,0.57237566,,-0.029500663,0.38911632,-0.35712498,0.06281936,-0.8500424,-0.5229547,0.86027503,0.31175464,-0.4034054,0.50594527,-0.42454317,0.7508545,,1.2584579355192549,0.5048813843853015,0.19758052180000002,3.548163533701637,-0.36919182236622006,-0.9559846349755223,-0.41456723984880095,,-0.8884772489809072,-0.2956339371581885,0.20946101965000002,3.3418286293128645,-0.3227354124459703,0.10936802084626865,0.8018560206531768,,-0.055632369907319255,-0.0618370153981591,0.08432137115999999,-0.06574422517700301,,-4.1604042e-05,-4.172325e-07,-1.4305115e-06,1.0,3.2495707e-05,2.8550625e-05,-3.2499433e-05,1.0,3.4868717e-06,-2.8550625e-05,-3.4868717e-06,1.0,394,1.228,0,4,0.32,False,-0.26196325577190027,0.9756945603669349
1.238221606996376,16:05:10.818038,16:05:00.837403,0,,0.11912243,-0.005708836,0.03418915,0.72452396,0.640626,-0.2542894,0.15196788,0.2113815,0.9655174,0.67228764,-0.73818433,0.055796325,,0.06085906,-0.019304365,0.011986911,-0.11226013,0.8077189,0.5787812,0.87208104,-0.19911359,0.44702175,0.47631115,0.55492693,-0.6820439,,0.10607596,1.3403088,0.44035426,0.99537164,0.013123305,-0.09520003,-0.052810267,-0.7529494,-0.655956,-0.08028912,0.65794754,-0.7487715,,-0.09047695,0.25844932,-0.097324446,-0.7668961,-0.55436593,0.32333994,0.56365037,-0.34090325,0.752385,-0.306869,0.75925183,0.57390594,,-0.029500555,0.389112,-0.35712975,0.06262804,-0.8500633,-0.5229436,0.8603136,0.31158227,-0.4034563,0.50590336,-0.42462784,0.7508349,,1.2586355583753621,0.5049045525839242,0.19750792956000002,3.537259656640441,-0.3816257438448752,-0.9502562577067382,-0.4145672398488005,,-0.888469526248033,-0.29566482808968536,0.20946101965000002,3.342038319256349,-0.3227354124459703,0.10928634210612809,0.8016926765870425,,-0.055632369907319255,-0.0618370153981591,0.08432137115999999,-0.06574422517700301,,-4.1604042e-05,-4.172325e-07,-1.4305115e-06,1.0,3.2495707e-05,2.8550625e-05,-3.2499433e-05,1.0,3.4868717e-06,-2.8550625e-05,-3.4868717e-06,1.0,403,1.257,0,4,0.32,False,-0.2611887454311268,0.975791120768494
1.2761455950094387,16:05:10.849580,16:05:00.837403,0,,0.11912188,-0.005716972,0.034291103,0.7217283,0.6446309,-0.252109,0.14718124,0.2129738,0.96590894,0.6763473,-0.7342296,0.058831602,,0.06086237,-0.019305855,0.01198858,-0.112086356,0.8077401,0.5787853,0.8720536,-0.1992855,0.4469986,0.4764022,0.55483437,-0.6820556,,0.10607596,1.3403088,0.44035426,0.99537164,0.013123305,-0.09520003,-0.052810267,-0.7529494,-0.655956,-0.08028912,0.65794754,-0.7487715,,-0.09048606,0.25851184,-0.09740484,-0.76485425,-0.55856705,0.32093748,0.5628422,-0.3370705,0.7547133,-0.3133794,0.75788283,0.5721949,,-0.029503973,0.38911238,-0.35713175,0.062447414,-0.8500749,-0.5229465,0.8603642,0.31141388,-0.40347838,0.50583965,-0.42472827,0.750821,,1.2589135767588342,0.5048891071181758,0.19744700393000003,3.536630586809988,-0.38859420533291267,-0.9506181713886223,-0.41456723984880073,,-0.8884849717137814,-0.29567255082255955,0.20946101965000002,3.3422480091998334,-0.3227354124459703,0.10920466336598753,0.8015293325209083,,-0.055632369907319255,-0.0618370153981591,0.08432137115999999,-0.06574422517700301,,-4.1604042e-05,-4.172325e-07,-1.4305115e-06,1.0,3.2495707e-05,2.8550625e-05,-3.2499433e-05,1.0,3.4868717e-06,-2.8550625e-05,-3.4868717e-06,1.0,416,1.298,0,4,0.32,False,-0.26232072208302704,0.976322202977068
1.3076822450384498,16:05:10.881977,16:05:00.837403,0,,0.119079486,-0.005701959,0.03445275,0.7142104,0.65358984,-0.25044698,0.14432988,0.21260318,0.96642077,0.68488854,-0.7263746,0.057510823,,0.060862754,-0.019304827,0.011989415,-0.111980736,0.8076136,0.57898223,0.8719603,-0.1995869,0.44704634,0.47659796,0.5549101,-0.68185717,,0.10607596,1.3403088,0.44035426,0.99537164,0.013123305,-0.09520003,-0.052810267,-0.7529494,-0.655956,-0.08028912,0.65794754,-0.7487715,,-0.090457045,0.25863174,-0.097518586,-0.7583669,-0.568186,0.3194439,0.56648666,-0.33207372,0.75420153,-0.32244778,0.7529221,0.57370347,,-0.02950444,0.38911363,-0.3571313,0.062326416,-0.84995234,-0.52316004,0.86047643,0.3113357,-0.40329936,0.50566363,-0.42503068,0.7507684,,1.259492781724401,0.5048427707209304,0.19736144879000003,3.529081748844545,-0.39856866981578976,-0.9452617415835627,-0.4148939279810693,,-0.8884849717137814,-0.29567255082255955,0.20946101965000002,3.342457699143318,-0.3228720489457358,0.10939776000982457,0.8013659884547739,,-0.055632369907319255,-0.0618370153981591,0.08432137115999999,-0.06574422517700301,,-4.1604042e-05,-4.172325e-07,-1.4305115e-06,1.0,3.2495707e-05,2.8550625e-05,-3.2499433e-05,1.0,3.4868717e-06,-2.8550625e-05,-3.4868717e-06,1.0,425,1.326,0,4,0.32,False,-0.2612483231496481,0.975356598961479
1.3400920840213075,16:05:10.913047,16:05:00.837403,0,,0.119051054,-0.00567542,0.03455864,0.70704764,0.6613008,-0.25052866,0.1428049,0.21345219,0.9664601,0.6925967,-0.71911013,0.056483805,,0.060861185,-0.01930876,0.011986792,-0.11167036,0.80782527,0.5787469,0.8720628,-0.19958319,0.44684798,0.4764833,0.55460334,-0.68218684,,0.10607596,1.3403088,0.44035426,0.99537164,0.013123305,-0.09520003,-0.052810267,-0.7529494,-0.655956,-0.08028912,0.65794754,-0.7487715,,-0.09043608,0.25872263,-0.09758203,-0.7520547,-0.57641786,0.3196188,0.57055193,-0.32656989,0.75354004,-0.32997608,0.7490624,0.57447475,,-0.029502617,0.3891095,-0.35713342,0.062025942,-0.85013705,-0.5228955,0.86040574,0.31105787,-0.40366447,0.5058209,-0.42486465,0.75075644,,1.2601337685529617,0.5047269297278171,0.19729793058000003,3.5173391120094117,-0.4118224102930375,-0.939273250593303,-0.41309714325359215,,-0.888469526248033,-0.2956802735554338,0.20946101965000002,3.342667389086803,-0.3225987759462049,0.1090115667221506,0.8010393003225054,,-0.055632369907319255,-0.0618370153981591,0.08432137115999999,-0.06574422517700301,,-4.1604042e-05,-4.172325e-07,-1.4305115e-06,1.0,3.2495707e-05,2.8550625e-05,-3.2499433e-05,1.0,3.4868717e-06,-2.8550625e-05,-3.4868717e-06,1.0,438,1.367,0,4,0.32,False,-0.2604738128088746,0.9757428405677144
1.3711561800446361,16:05:10.953271,16:05:00.837403,0,,0.1189726,-0.005633734,0.034822717,0.6932686,0.6760438,-0.24968615,0.136464,0.21704847,0.9665753,0.70764124,-0.7041695,0.058217198,,0.060861714,-0.019308865,0.01198709,-0.11149813,0.80780876,0.57880306,0.87203294,-0.19978526,0.44681585,0.47657815,0.5545545,-0.68216026,,0.10607596,1.3403088,0.44035426,0.99537164,0.013123305,-0.09520003,-0.052810267,-0.7529494,-0.655956,-0.08028912,0.65794754,-0.7487715,,-0.09037823,0.2589312,-0.097757466,-0.7401982,-0.5920949,0.31863815,0.5759963,-0.31387964,0.75478995,-0.34689325,0.7422285,0.5733776,,-0.029503163,0.38910964,-0.35713363,0.06184656,-0.8501145,-0.5229534,0.8604585,0.3109146,-0.4036624,0.5057531,-0.42501456,0.7507173,,1.2609369327718811,0.5046265342004521,0.1972045977,3.5083224444395773,-0.425622696769347,-0.9361879163340208,-0.41309714325359237,,-0.888469526248033,-0.2956802735554338,0.20946101965000002,3.3428770790302873,-0.3225987759462049,0.1090115667221506,0.8010393003225054,,-0.055632369907319255,-0.0618370153981591,0.08432137115999999,-0.06574422517700301,,-4.1604042e-05,-4.172325e-07,-1.4305115e-06,1.0,3.2495707e-05,2.8550625e-05,-3.2499433e-05,1.0,3.4868717e-06,-2.8550625e-05,-3.4868717e-06,1.0,447,1.396,0,4,0.32,False,-0.2608908568385213,0.9746323959497869
1.411363164021168,16:05:10.983560,16:05:01.018591,0,,0.11887516,-0.00559029,0.035055593,0.6807482,0.68831956,-0.2505948,0.13371217,0.21958849,0.96638614,0.72021025,-0.6913732,0.057447672,,0.060865015,-0.01931037,0.011988699,-0.111324355,0.8080189,0.5785431,0.8720054,-0.19981118,0.44685805,0.47666925,0.554239,-0.682353,,0.10607596,1.3403088,0.44035426,0.99537164,0.013123305,-0.09520003,-0.052810267,-0.7529494,-0.655956,-0.08028912,0.65794754,-0.7487715,,-0.09029863,0.2591201,-0.09791107,-0.72909135,-0.6052155,0.31959355,0.58243006,-0.30341002,0.75413364,-0.35944548,0.73597324,0.5737093,,-0.02950658,0.38911003,-0.35713562,0.06166595,-0.85029674,-0.52267843,0.860509,0.3106143,-0.40378594,0.50568926,-0.42486966,0.7508423,,1.2619099971140333,0.5045261386730873,0.19709570934,3.4946925981130827,-0.4396962562451874,-0.9301026691025662,-0.415383960179472,,-0.8884849717137814,-0.29568799628830805,0.20946101965000002,3.3430867689737718,-0.3225987759462049,0.10860317302144776,0.7998958918595654,,-0.055632369907319255,-0.0618370153981591,0.08432137115999999,-0.06574422517700301,,-4.1604042e-05,-4.172325e-07,-1.4305115e-06,1.0,3.2495707e-05,2.8550625e-05,-3.2499433e-05,1.0,3.4868717e-06,-2.8550625e-05,-3.4868717e-06,1.0,460,1.437,0,4,0.32,False,-0.26112916771260597,0.9750186375560228
1.4416369930258952,16:05:11.021805,16:05:01.018591,0,,0.11875309,-0.005537674,0.03539197,0.6619403,0.70664215,-0.24998352,0.12802374,0.22202203,0.9666004,0.7385424,-0.67183566,0.05649829,,0.06086575,-0.019311965,0.011988759,-0.11114888,0.80819046,0.5783372,0.8719791,-0.19986679,0.44688454,0.4767582,0.5539687,-0.68251026,,0.10607596,1.3403088,0.44035426,0.99537164,0.013123305,-0.09520003,-0.052810267,-0.7529494,-0.655956,-0.08028912,0.65794754,-0.7487715,,-0.090202995,0.25938544,-0.0981375,-0.71248037,-0.6249441,0.31908718,0.5905751,-0.28849334,0.7536529,-0.37893638,0.72540784,0.5746222,,-0.0295073,0.3891092,-0.35713702,0.06148379,-0.8504441,-0.52246016,0.8605582,0.31034076,-0.40389124,0.5056276,-0.42477465,0.7509376,,1.2631919707711545,0.5043407930841058,0.19694274712,3.4754011233125066,-0.46155809620765786,-0.9199536060843517,-0.41505727204720344,,-0.8884849717137814,-0.29569571902118225,0.20946101965000002,3.3432964589172562,-0.3225987759462049,0.10827645806088548,0.8002225799918341,,-0.055632369907319255,-0.0618370153981591,0.08432137115999999,-0.06574422517700301,,-4.1604042e-05,-4.172325e-07,-1.4305115e-06,1.0,3.2495707e-05,2.8550625e-05,-3.2499433e-05,1.0,3.4868717e-06,-2.8550625e-05,-3.4868717e-06,1.0,469,1.465,0,4,0.32,False,-0.26059296824591627,0.9751151979575816
1.4799161290284246,16:05:11.055690,16:05:01.018591,0,,0.1186419,-0.0054993033,0.035759702,0.64281625,0.7247019,-0.24818173,0.12192011,0.22306624,0.967149,0.7562556,-0.6519575,0.055034846,,0.060866274,-0.019312054,0.011989057,-0.11097667,0.8082212,0.57832736,0.8719492,-0.20003241,0.4468688,0.47685316,0.55386406,-0.682529,,0.10607596,1.3403088,0.44035426,0.99537164,0.013123305,-0.09520003,-0.052810267,-0.7529494,-0.655956,-0.08028912,0.65794754,-0.7487715,,-0.090122044,0.25966132,-0.09839519,-0.6955334,-0.6445509,0.3174703,0.59799707,-0.27437538,0.75307214,-0.3982873,0.7136332,0.5762768,,-0.029507846,0.38910937,-0.35713723,0.061304424,-0.85046417,-0.5224486,0.8606109,0.31016448,-0.40391445,0.50555974,-0.4248632,0.7509332,,1.2643889943666593,0.5042403975567409,0.19676126652000003,3.4561096485119305,-0.4832832996703629,-0.9082007074268819,-0.41456723984880073,,-0.8884849717137814,-0.29569571902118225,0.20946101965000002,3.3435061488607407,-0.3225987759462049,0.10819477932074495,0.8003859240579683,,-0.055632369907319255,-0.0618370153981591,0.08432137115999999,-0.06574422517700301,,-4.1604042e-05,-4.172325e-07,-1.4305115e-06,1.0,3.2495707e-05,2.8550625e-05,-3.2499433e-05,1.0,3.4868717e-06,-2.8550625e-05,-3.4868717e-06,1.0,482,1.506,0,4,0.32,False,-0.2612483231496481,0.974825516752905
1.5137793500325643,16:05:11.093248,16:05:01.018591,0,,0.11854209,-0.005463645,0.035993174,0.62839967,0.73725146,-0.2481406,0.12036979,0.22299182,0.96736026,0.7685212,-0.63775754,0.051385075,,0.060863137,-0.019313902,0.011986792,-0.11079861,0.80826414,0.5783016,0.8719248,-0.20018736,0.44684693,0.47693905,0.5537455,-0.68256503,,0.10607596,1.3403088,0.44035426,0.99537164,0.013123305,-0.09520003,-0.052810267,-0.7529494,-0.655956,-0.08028912,0.65794754,-0.7487715,,-0.09004074,0.25984487,-0.098554716,-0.6824226,-0.6582725,0.31776837,0.60511845,-0.26489684,0.7507738,-0.41003793,0.70463246,0.5791044,,-0.029504517,0.38910678,-0.3571378,0.061119933,-0.8504952,-0.52241963,0.8606583,0.30998072,-0.4039545,0.5055014,-0.4249351,0.75093174,,1.265199881318453,0.5041245565636275,0.19665108187000002,3.439753832920138,-0.496673676647376,-0.8976901465653353,-0.41440389578266656,,-0.8884618035151587,-0.2957034417540565,0.20946101965000002,3.3437158388042256,-0.3225987759462049,0.10811310058060436,0.8005492681241027,,-0.055632369907319255,-0.0618370153981591,0.08432137115999999,-0.06574422517700301,,-4.1604042e-05,-4.172325e-07,-1.4305115e-06,1.0,3.2495707e-05,2.8550625e-05,-3.2499433e-05,1.0,3.4868717e-06,-2.8550625e-05,-3.4868717e-06,1.0,491,1.535,0,4,0.32,False,-0.26095043455704303,0.9748737969536843
1.5512581600341946,16:05:11.131264,16:05:01.166761,0,,0.11846295,-0.005382724,0.036347345,0.59742165,0.76318616,-0.24623978,0.11312109,0.22378772,0.96805114,0.7939086,-0.6061896,0.047363102,,0.06086495,-0.019313931,0.011987925,-0.110627264,0.8082431,0.5783637,0.8718941,-0.20039284,0.44681475,0.477035,0.55370176,-0.6825335,,0.10607596,1.3403088,0.44035426,0.99537164,0.013123305,-0.09520003,-0.052810267,-0.7529494,-0.655956,-0.08028912,0.65794754,-0.7487715,,-0.08998709,0.26014304,-0.09877023,-0.6544722,-0.6867508,0.31629023,0.6168702,-0.243111,0.7485774,-0.43719253,0.6850331,0.58274555,,-0.029506411,0.38910753,-0.3571383,0.06094135,-0.8504686,-0.5224838,0.8607115,0.30984047,-0.40394872,0.5054323,-0.42509064,0.7508902,,1.2660339364688693,0.5037770335842875,0.19655645270000002,3.4078809615104895,-0.5275535255943656,-0.8776554609587994,-0.4122804229229209,,-0.888469526248033,-0.2957034417540565,0.20946101965000002,3.34392552874771,-0.3225987759462049,0.10811310058060436,0.8005492681241027,,-0.055632369907319255,-0.0618370153981591,0.08432137115999999,-0.06574422517700301,,-4.1604042e-05,-4.172325e-07,-1.4305115e-06,1.0,3.2495707e-05,2.8550625e-05,-3.2499433e-05,1.0,3.4868717e-06,-2.8550625e-05,-3.4868717e-06,1.0,504,1.576,0,4,0.32,False,-0.2616653671792948,0.9750186375560228
1.5893332150299102,16:05:11.164692,16:05:01.166761,0,,0.11841424,-0.0053474903,0.036623016,0.5705527,0.7834269,-0.24639747,0.10348627,0.22904931,0.96789837,0.8147148,-0.5777358,0.049610764,,0.060866255,-0.019315243,0.011989415,-0.110389255,0.80828494,0.5783506,0.8719271,-0.2005357,0.44668642,0.47702995,0.553589,-0.68262863,,0.10607596,1.3403088,0.44035426,0.99537164,0.013123305,-0.09520003,-0.052810267,-0.7529494,-0.655956,-0.08028912,0.65794754,-0.7487715,,-0.08996029,0.26035458,-0.098955,-0.6303847,-0.70894974,0.31623635,0.6237695,-0.22010724,0.7499763,-0.46208957,0.67003214,0.58097345,,-0.02950783,0.3891081,-0.35714018,0.060704328,-0.8504993,-0.5224615,0.86070526,0.3096679,-0.4040944,0.5054715,-0.42515507,0.7508274,,1.266505023174197,0.5032750559474628,0.19649293449000002,3.3825084783488624,-0.5562471905451081,-0.8659377610226513,-0.4140772076503978,,-0.8884772489809072,-0.2957034417540565,0.20945972336000002,3.3441352186911946,-0.3224621394464394,0.1080016826769079,0.8005492681241027,,-0.055632369907319255,-0.0618370153981591,0.08432137115999999,-0.06574422517700301,,-4.1604042e-05,-4.172325e-07,-1.4305115e-06,1.0,3.2495707e-05,2.8550625e-05,-3.2499433e-05,1.0,3.4868717e-06,-2.8550625e-05,-3.4868717e-06,1.0,513,1.605,0,4,0.32,False,-0.2607121236829584,0.9751151979575816
1.6228053990053013,16:05:11.200798,16:05:01.166761,0,,0.11827341,-0.005329527,0.036959395,0.5285077,0.81178683,-0.24835747,0.09206936,0.23601772,0.9673775,0.843921,-0.5341326,0.049996495,,0.060868062,-0.019315273,0.011990488,-0.110217914,0.80826396,0.5784127,0.8718963,-0.20074117,0.44665414,0.47712573,0.5535452,-0.6825971,,0.10607596,1.3403088,0.44035426,0.99537164,0.013123305,-0.09520003,-0.052810267,-0.7529494,-0.655956,-0.08028912,0.65794754,-0.7487715,,-0.08984875,0.2605943,-0.0992068,-0.59210914,-0.7404149,0.3181077,0.6350199,-0.18566231,0.74985284,-0.49614158,0.64599943,0.58011055,,-0.029509725,0.38910887,-0.3571407,0.060525745,-0.85047257,-0.52252567,0.8607584,0.3095276,-0.40408865,0.50540245,-0.42531058,0.75078577,,1.2670378917425185,0.5021089232834549,0.19642682370000003,3.340360799708473,-0.596554957975913,-0.844831218012448,-0.41505727204720344,,-0.8884849717137814,-0.2957034417540565,0.20945972336000002,3.3443449086346786,-0.3224621394464394,0.1080016826769079,0.8005492681241027,,-0.055632369907319255,-0.0618370153981591,0.08432137115999999,-0.06574422517700301,,-4.1604042e-05,-4.172325e-07,-1.4305115e-06,1.0,3.2495707e-05,2.8550625e-05,-3.2499433e-05,1.0,3.4868717e-06,-2.8550625e-05,-3.4868717e-06,1.0,526,1.646,0,4,0.32,False,-0.26160578946077395,0.9749703573552433
1.6589150840300135,16:05:11.233227,16:05:01.166761,0,,0.11810446,-0.0053539947,0.03709252,0.50482213,0.8276585,-0.24522586,0.089656115,0.23227362,0.9685097,0.8585548,-0.51091117,0.043052167,,0.06086859,-0.019315362,0.011990845,-0.1100457,0.8082473,0.57846874,0.8718661,-0.20094323,0.44662213,0.47722057,0.55349624,-0.6825705,,0.10607596,1.3403088,0.44035426,0.99537164,0.013123305,-0.09520003,-0.052810267,-0.7529494,-0.655956,-0.08028912,0.65794754,-0.7487715,,-0.08969466,0.26066595,-0.09934091,-0.57007104,-0.7585199,0.3157001,0.64310783,-0.1728364,0.746016,-0.51130354,0.62831134,0.5863391,,-0.02951027,0.38910902,-0.3571409,0.060346387,-0.8504498,-0.5225835,0.86081094,0.30938426,-0.40408653,0.5053344,-0.4254604,0.75074667,,1.267408582920481,0.5010817998111831,0.196387935,3.3137301768859384,-0.6152741584437783,-0.8231960234750744,-0.4147305839149349,,-0.8884849717137814,-0.2957034417540565,0.20945972336000002,3.344554598578163,-0.3224621394464394,0.1080016826769079,0.8005492681241027,,-0.055632369907319255,-0.0618370153981591,0.08432137115999999,-0.06574422517700301,,-4.1604042e-05,-4.172325e-07,-1.4305115e-06,1.0,3.2495707e-05,2.8550625e-05,-3.2499433e-05,1.0,3.4868717e-06,-2.8550625e-05,-3.4868717e-06,1.0,535,1.674,0,4,0.32,False,-0.2607121236829584,0.9749703573552433
1.6913192990468815,16:05:11.264393,16:05:01.166761,0,,0.11788349,-0.005371578,0.03725095,0.4775529,0.8444132,-0.24271223,0.0863837,0.22978395,0.9694005,0.874346,-0.48390648,0.03679043,,0.06086688,-0.019318208,0.011988759,-0.10980181,0.8082539,0.5785058,0.8719045,-0.20111191,0.44647127,0.4772066,0.5534252,-0.6826379,,0.10607596,1.3403088,0.44035426,0.99537164,0.013123305,-0.09520003,-0.052810267,-0.7529494,-0.655956,-0.08028912,0.65794754,-0.7487715,,-0.0894906,0.2607598,-0.09949515,-0.54464406,-0.77773744,0.31382695,0.6513432,-0.15653881,0.74246055,-0.5283132,0.60878575,0.5918319,,-0.029508367,0.38910595,-0.35714236,0.06010421,-0.85044867,-0.52261317,0.8607993,0.30923715,-0.4042238,0.505383,-0.4255695,0.75065213,,1.2679414514888028,0.49991566714717517,0.19634515743000003,3.2829057551937133,-0.6364528159074216,-0.7996369854113059,-0.41456723984880073,,-0.888469526248033,-0.2957111644869307,0.20945972336000002,3.3447642885216484,-0.32232550294667406,0.1079719435133521,0.8003859240579683,,-0.055632369907319255,-0.0618370153981591,0.08432137115999999,-0.06574422517700301,,-4.1604042e-05,-4.172325e-07,-1.4305115e-06,1.0,3.2495707e-05,2.8550625e-05,-3.2499433e-05,1.0,3.4868717e-06,-2.8550625e-05,-3.4868717e-06,1.0,548,1.715,0,4,0.32,False,-0.26053339052739544,0.9755014395638171
1.7224941400345415,16:05:11.302031,16:05:01.319301,0,,0.117562264,-0.0053756163,0.037461355,0.44332385,0.8640217,-0.23860058,0.07850045,0.22774109,0.9705523,0.89291745,-0.4489993,0.033136904,,0.06086838,-0.019319668,0.0119892955,-0.10979941,0.80834305,0.5783817,0.8719074,-0.20104188,0.44649708,0.47720185,0.55332047,-0.6827261,,0.10607596,1.3403088,0.44035426,0.99537164,0.013123305,-0.09520003,-0.052810267,-0.7529494,-0.655956,-0.08028912,0.65794754,-0.7487715,,-0.08919053,0.26089874,-0.09969039,-0.5129132,-0.8004515,0.31015706,0.6580456,-0.13459949,0.7408502,-0.5512677,0.58408934,0.59577143,,-0.029509889,0.38910556,-0.35714385,0.0601022,-0.85052925,-0.5224823,0.8607965,0.3091759,-0.40427664,0.505388,-0.425453,0.7507148,,1.2688759021665839,0.49838656603807874,0.19630756502000002,3.245580945253468,-0.6652831173579294,-0.7713087620630676,-0.4147305839149349,,-0.8884772489809072,-0.29571888721980494,0.20945972336000002,3.3447642885216484,-0.32232550294667406,0.10780858603307097,0.8007126121902368,,-0.055632369907319255,-0.0618370153981591,0.08432137115999999,-0.06574422517700301,,-4.1604042e-05,-4.172325e-07,-1.4305115e-06,1.0,3.2495707e-05,2.8550625e-05,-3.2499433e-05,1.0,3.4868717e-06,-2.8550625e-05,-3.4868717e-06,1.0,557,1.744,0,4,0.32,False,-0.260652545964438,0.975356598961479
1.760147508000955,16:05:11.329177,16:05:01.319301,0,,0.11729404,-0.005342424,0.037614837,0.41866076,0.87633836,-0.23823076,0.07385823,0.22860177,0.97071433,0.9051343,-0.42399538,0.03098178,,0.060870394,-0.019321233,0.01199019,-0.1096248,0.80836815,0.57837975,0.8718802,-0.2012104,0.44647446,0.47729182,0.55322254,-0.6827426,,0.10607596,1.3403088,0.44035426,0.99537164,0.013123305,-0.09520003,-0.052810267,-0.7529494,-0.655956,-0.08028912,0.65794754,-0.7487715,,-0.08893514,0.26102692,-0.09981269,-0.48986596,-0.8148225,0.3099929,0.66285974,-0.11716226,0.73952013,-0.5662582,0.56774753,0.5975068,,-0.029511956,0.38910535,-0.35714558,0.059920825,-0.8505443,-0.52247864,0.86084616,0.3090043,-0.40430212,0.505325,-0.42554763,0.7507036,,1.2697254027827485,0.4974057789630522,0.19629330583000001,3.217272802883057,-0.6842755908253257,-0.7520644514027993,-0.41440389578266634,,-0.8884849717137814,-0.29572660995267913,0.20945972336000002,3.3449739784651324,-0.32232550294667406,0.10772690729293039,0.8008759562563712,,-0.055632369907319255,-0.0618370153981591,0.08432137115999999,-0.06574422517700301,,-4.1604042e-05,-4.172325e-07,-1.4305115e-06,1.0,3.2495707e-05,2.8550625e-05,-3.2499433e-05,1.0,3.4868717e-06,-2.8550625e-05,-3.4868717e-06,1.0,566,1.773,0,4,0.32,False,-0.2604738128088746,0.9750669177568021
1.7872528670122847,16:05:11.366329,16:05:01.319301,0,,0.116936505,-0.0052825212,0.03782542,0.38638,0.8919309,-0.23488218,0.06466192,0.22783794,0.9715498,0.92007023,-0.39057535,0.030357987,,0.06087105,-0.019322425,0.0119898915,-0.10938588,0.8084143,0.5783606,0.87191355,-0.20134993,0.4463464,0.47728568,0.5531044,-0.6828425,,0.10607596,1.3403088,0.44035426,0.99537164,0.013123305,-0.09520003,-0.052810267,-0.7529494,-0.655956,-0.08028912,0.65794754,-0.7487715,,-0.088594,0.26121333,-0.09996961,-0.45985177,-0.83331704,0.30678838,0.6661427,-0.09527122,0.7397143,-0.5871884,0.5445238,0.5989187,,-0.029512575,0.38910443,-0.3571464,0.05968298,-0.8505787,-0.5224498,0.8608391,0.30882853,-0.40445137,0.50536513,-0.42560637,0.75064325,,1.2708992581796306,0.4961701417031763,0.19629200954,3.181206132603719,-0.7109197082795867,-0.7251105208130012,-0.41603733644400953,,-0.8884849717137814,-0.29572660995267913,0.20945972336000002,3.345183668408617,-0.3221888664469086,0.10761548938923401,0.8012026443886396,,-0.055632369907319255,-0.0618370153981591,0.08432137115999999,-0.06574422517700301,,-4.1604042e-05,-4.172325e-07,-1.4305115e-06,1.0,3.2495707e-05,2.8550625e-05,-3.2499433e-05,1.0,3.4868717e-06,-2.8550625e-05,-3.4868717e-06,1.0,579,1.814,0,4,0.32,False,-0.260652545964438,0.975356598961479
1.8243763890350237,16:05:11.397172,16:05:01.319301,0,,0.11666663,-0.0052356645,0.037955865,0.36162955,0.90204114,-0.23568118,0.06046042,0.22956772,0.97141314,0.93035936,-0.36554107,0.028480679,,0.06086966,-0.01932384,0.011988342,-0.10897299,0.8083578,0.57851744,0.8719177,-0.20175762,0.44615394,0.47737235,0.5530384,-0.6828354,,0.10607596,1.3403088,0.44035426,0.99537164,0.013123305,-0.09520003,-0.052810267,-0.7529494,-0.655956,-0.08028912,0.65794754,-0.7487715,,-0.08833386,0.26133612,-0.10006606,-0.43651292,-0.84543157,0.30773687,0.6699866,-0.077167444,0.73835164,-0.6004785,0.5284796,0.6001124,,-0.029511042,0.3891025,-0.3571469,0.059264194,-0.8505128,-0.52260476,0.86088324,0.30856928,-0.40455535,0.50533926,-0.42592606,0.75047934,,1.2715865814054366,0.49530519562126313,0.19629978728000003,3.1514301606289163,-0.7279992707502667,-0.7053024135608281,-0.4127704551213238,,-0.888469526248033,-0.29572660995267913,0.20945972336000002,3.345603048295586,-0.32205222994714316,0.10766742896581874,0.8008759562563711,,-0.055632369907319255,-0.0618370153981591,0.08432137115999999,-0.06574422517700301,,-4.1604042e-05,-4.172325e-07,-1.4305115e-06,1.0,3.2495707e-05,2.8550625e-05,-3.2499433e-05,1.0,3.4868717e-06,-2.8550625e-05,-3.4868717e-06,1.0,588,1.842,0,4,0.32,False,-0.2602355019347904,0.9752117583591406
1.8552839560434222,16:05:11.427462,16:05:01.450010,0,,0.11640924,-0.0052012876,0.038054004,0.33654335,0.9112753,-0.23730904,0.05798775,0.23147573,0.97111106,0.9398808,-0.340582,0.025058746,,0.060872577,-0.019326314,0.011989117,-0.108904734,0.80845815,0.57839006,0.8719835,-0.20166497,0.4460672,0.47726765,0.5529256,-0.68299997,,0.10607596,1.3403088,0.44035426,0.99537164,0.013123305,-0.09520003,-0.052810267,-0.7529494,-0.655956,-0.08028912,0.65794754,-0.7487715,,-0.08808425,0.2614279,-0.10014562,-0.41263723,-0.8566555,0.30963182,0.67459404,-0.058981225,0.7358288,-0.61208934,0.5125062,0.6022326,,-0.029513987,0.38910165,-0.3571493,0.059204455,-0.85060406,-0.522463,0.86082155,0.3085116,-0.40473056,0.5054514,-0.42578557,0.7504836,,1.272011331713519,0.49444797227222426,0.19631534276,3.119976669106238,-0.7430292857244651,-0.6843884976993221,-0.41440389578266634,,-0.8884849717137814,-0.2957343326855534,0.20945972336000002,3.345603048295586,-0.3219155934473777,0.1074743323219817,0.8010393003225055,,-0.055632369907319255,-0.0618370153981591,0.08432137115999999,-0.06574422517700301,,-4.1604042e-05,-4.172325e-07,-1.4305115e-06,1.0,3.2495707e-05,2.8550625e-05,-3.2499433e-05,1.0,3.4868717e-06,-2.8550625e-05,-3.4868717e-06,1.0,601,1.883,0,4,0.32,False,-0.2612483231496481,0.9756462801661556
1.8855552400345914,16:05:11.470941,16:05:01.450010,0,,0.11610466,-0.0051936805,0.038186207,0.29977012,0.9249384,-0.23372337,0.04946348,0.2295919,0.97202945,0.9527283,-0.3029462,0.02307409,,0.06087395,-0.0193277,0.011988044,-0.108729236,0.80848753,0.578382,0.8719568,-0.20183013,0.44604492,0.47735667,0.5528223,-0.6830213,,0.10607596,1.3403088,0.44035426,0.99537164,0.013123305,-0.09520003,-0.052810267,-0.7529494,-0.655956,-0.08028912,0.65794754,-0.7487715,,-0.08779287,0.26152286,-0.10027364,-0.3779249,-0.8736943,0.30631855,0.6769757,-0.03508106,0.7351688,-0.6315668,0.48520884,0.6047278,,-0.029515255,0.38909996,-0.35714993,0.059022292,-0.8506229,-0.52245295,0.8608705,0.30833688,-0.40475962,0.50538933,-0.42587447,0.75047493,,1.2721271727066323,0.49316599861510296,0.19634904630000002,3.076151470917972,-0.7684436746808371,-0.6501060967484543,-0.4140772076503978,,-0.8884849717137814,-0.2957420554184276,0.20946101965000002,3.3458127382390708,-0.3219155934473777,0.10739265358184116,0.8005492681241025,,-0.055632369907319255,-0.0618370153981591,0.08432137115999999,-0.06574422517700301,,-4.1604042e-05,-4.172325e-07,-1.4305115e-06,1.0,3.2495707e-05,2.8550625e-05,-3.2499433e-05,1.0,3.4868717e-06,-2.8550625e-05,-3.4868717e-06,1.0,610,1.912,0,4,0.32,False,-0.26112916771260597,0.9754048791622585
1.9290568560245447,16:05:11.503056,16:05:01.450010,0,,0.11584775,-0.005183637,0.03827305,0.26879716,0.9338284,-0.23603456,0.04443717,0.2327696,0.97151625,0.9621712,-0.27162954,0.021071047,,0.06087609,-0.019328997,0.011987507,-0.108726844,0.8084821,0.57839,0.8719597,-0.20183302,0.44603786,0.4773518,0.552829,-0.6830192,,0.10607596,1.3403088,0.44035426,0.99537164,0.013123305,-0.09520003,-0.052810267,-0.7529494,-0.655956,-0.08028912,0.65794754,-0.7487715,,-0.08754465,0.26158905,-0.100361094,-0.34839708,-0.8850383,0.3087502,0.67964846,-0.0116788475,0.733445,-0.6455211,0.4653717,0.6055838,,-0.029517328,0.38909867,-0.35715067,0.05902028,-0.85061806,-0.522461,0.8608677,0.30834165,-0.40476197,0.50539434,-0.4258806,0.750468,,1.2720576681107643,0.49220837973869913,0.19638274984,3.037149141429851,-0.7867529656494061,-0.6243945039545796,-0.4140772076503978,,-0.8884926944466556,-0.2957497781513018,0.20946231594000003,3.3458127382390708,-0.3219155934473777,0.10739265358184116,0.8005492681241025,,-0.055632369907319255,-0.0618370153981591,0.08432137115999999,-0.06574422517700301,,-4.1604042e-05,-4.172325e-07,-1.4305115e-06,1.0,3.2495707e-05,2.8550625e-05,-3.2499433e-05,1.0,3.4868717e-06,-2.8550625e-05,-3.4868717e-06,1.0,623,1.953,0,4,0.32,False,-0.26160578946077395,0.9750669177568021
1.9611715060309507,16:05:11.544687,16:05:01.450010,0,,0.11546163,-0.005187802,0.03831376,0.22969264,0.9440435,-0.23669165,0.04291269,0.233134,0.9714974,0.97231674,-0.23330292,0.013037682,,0.060880795,-0.019335926,0.011986792,-0.10847656,0.8086098,0.5782585,0.8720058,-0.20190468,0.44591522,0.47732455,0.5526162,-0.6832106,,0.10607596,1.3403088,0.44035426,0.99537164,0.013123305,-0.09520003,-0.052810267,-0.7529494,-0.655956,-0.08028912,0.65794754,-0.7487715,,-0.08716515,0.26161385,-0.10043938,-0.31058192,-0.8985379,0.31011063,0.6853961,0.014354339,0.728029,-0.658613,0.43866125,0.6113961,,-0.029521888,0.3890942,-0.35715616,0.05877278,-0.8507264,-0.52231246,0.86084807,0.3081126,-0.4049781,0.5054566,-0.42582998,0.75045484,,1.2719341043847767,0.49087234695145826,0.19642941628000002,2.984097585728266,-0.804105801119617,-0.5850056994817003,-0.41424055171653196,,-0.8885081399124041,-0.2957806690827987,0.20946361223,3.3460224281825552,-0.3217789569476122,0.10711787819786359,0.8008759562563711,,-0.055632369907319255,-0.0618370153981591,0.08432137115999999,-0.06574422517700301,,-4.1604042e-05,-4.172325e-07,-1.4305115e-06,1.0,3.2495707e-05,2.8550625e-05,-3.2499433e-05,1.0,3.4868717e-06,-2.8550625e-05,-3.4868717e-06,1.0,632,1.982,0,4,0.32,False,-0.2604738128088746,0.975791120768494
2.0027827260200866,16:05:11.570827,16:05:01.450010,0,,0.115152046,-0.005193457,0.038333133,0.20127875,0.9509989,-0.23470771,0.040655345,0.23129454,0.9720341,0.9786899,-0.20519194,0.007891417,,0.060882583,-0.019340456,0.011985421,-0.10829453,0.80858994,0.57832044,0.87198615,-0.20210528,0.4458629,0.47740188,0.55257195,-0.6831924,,0.10607596,1.3403088,0.44035426,0.99537164,0.013123305,-0.09520003,-0.052810267,-0.7529494,-0.655956,-0.08028912,0.65794754,-0.7487715,,-0.08685988,0.2616231,-0.100493975,-0.28310692,-0.90807134,0.30863714,0.6880499,0.03189023,0.7249623,-0.66815996,0.4175996,0.6157701,,-0.029523503,0.38909054,-0.35715926,0.058585033,-0.85070086,-0.5223752,0.8608901,0.30797437,-0.4049939,0.5054068,-0.42598107,0.7504026,,1.2719186589190283,0.48985294621206066,0.19646960127000002,2.945095256240145,-0.8168129955978031,-0.5534890407415275,-0.414077207650398,,-0.8885081399124041,-0.2958038372814214,0.20946490852000002,3.3462321181260397,-0.3217789569476122,0.10711787819786359,0.8008759562563711,,-0.055632369907319255,-0.0618370153981591,0.08432137115999999,-0.06574422517700301,,-4.1604042e-05,-4.172325e-07,-1.4305115e-06,1.0,3.2495707e-05,2.8550625e-05,-3.2499433e-05,1.0,3.4868717e-06,-2.8550625e-05,-3.4868717e-06,1.0,645,2.023,0,4,0.32,False,-0.259580147031059,0.9760325217723913
2.0289369980455376,16:05:11.606185,16:05:01.628588,0,,0.114842996,-0.0051988885,0.038356468,0.17380068,0.95735294,-0.23079947,0.0371345,0.22782853,0.9729931,0.98408043,-0.17767748,0.004045874,,0.06088472,-0.019341692,0.011984885,-0.10829212,0.8086317,0.5782623,0.87198913,-0.20207179,0.44587237,0.47739705,0.55252296,-0.6832352,,0.10607596,1.3403088,0.44035426,0.99537164,0.013123305,-0.09520003,-0.052810267,-0.7529494,-0.655956,-0.08028912,0.65794754,-0.7487715,,-0.08655548,0.26163518,-0.100551255,-0.25657353,-0.91708267,0.30517113,0.6891066,0.047822,0.72308034,-0.67771834,0.3958187,0.61969787,,-0.029525578,0.3890893,-0.35716,0.05858302,-0.8507387,-0.5223138,0.8608873,0.30794606,-0.40502137,0.50541186,-0.42592594,0.7504305,,1.2719263816519024,0.488903050068531,0.19650848997000003,2.9071413764694456,-0.829520190075989,-0.520828879639387,-0.41326048731972664,,-0.8885158626452783,-0.2958115600142956,0.20946620481000003,3.3462321181260397,-0.3217789569476122,0.107036199457723,0.8010393003225055,,-0.055632369907319255,-0.0618370153981591,0.08432137115999999,-0.06574422517700301,,-4.1604042e-05,-4.172325e-07,-1.4305115e-06,1.0,3.2495707e-05,2.8550625e-05,-3.2499433e-05,1.0,3.4868717e-06,-2.8550625e-05,-3.4868717e-06,1.0,654,2.051,0,4,0.32,False,-0.26136747858668974,0.9753083187606992
2.064299955032766,16:05:11.635573,16:05:01.628588,0,,0.11445318,-0.0051857457,0.038391784,0.13920361,0.9621252,-0.23438704,0.03365931,0.2319577,0.97214353,0.9896916,-0.14321522,-9.524822e-05,,0.06088888,-0.019344479,0.011985183,-0.10811509,0.808604,0.5783343,0.87196434,-0.20227966,0.44582635,0.47748226,0.55248743,-0.6832044,,0.10607596,1.3403088,0.44035426,0.99537164,0.013123305,-0.09520003,-0.052810267,-0.7529494,-0.655956,-0.08028912,0.65794754,-0.7487715,,-0.08617048,0.2616692,-0.10061445,-0.2229869,-0.9245408,0.3090326,0.69035494,0.07404949,0.71967125,-0.6882492,0.37381944,0.6217493,,-0.029529717,0.3890878,-0.35716242,0.058399633,-0.850706,-0.52238756,0.86093396,0.3078122,-0.40502393,0.50535357,-0.42608795,0.7503778,,1.271941827117651,0.4879685993907499,0.19655256383000003,2.8578642397505827,-0.843183840052533,-0.4870620782508089,-0.414730583914935,,-0.8885313081110268,-0.2958270054800441,0.2094675011,3.346441808069524,-0.3217789569476122,0.107036199457723,0.8010393003225055,,-0.055632369907319255,-0.0618370153981591,0.08432137115999999,-0.06574422517700301,,-4.1604042e-05,-4.172325e-07,-1.4305115e-06,1.0,3.2495707e-05,2.8550625e-05,-3.2499433e-05,1.0,3.4868717e-06,-2.8550625e-05,-3.4868717e-06,1.0,667,2.092,0,4,0.32,False,-0.2620824112089424,0.9758394009692735
2.0936818650225177,16:05:11.676164,16:05:01.628588,0,,0.113977015,-0.005190365,0.0383908,0.099359475,0.9674999,-0.23253277,0.02988547,0.23068227,0.9725702,0.99460274,-0.10358347,-0.0059937537,,0.060893167,-0.019348398,0.011984944,-0.10787131,0.8086391,0.57833064,0.8720032,-0.20242512,0.44568443,0.4774666,0.55238277,-0.6833001,,0.10607596,1.3403088,0.44035426,0.99537164,0.013123305,-0.09520003,-0.052810267,-0.7529494,-0.655956,-0.08028912,0.65794754,-0.7487715,,-0.08569793,0.26166576,-0.10067307,-0.18415157,-0.9334778,0.3077457,0.69091845,0.09975337,0.7160174,-0.69908506,0.34448293,0.6265873,,-0.029533928,0.38908526,-0.3571655,0.05815769,-0.8507306,-0.52237445,0.8609211,0.30764577,-0.40517774,0.5054034,-0.426159,0.75030386,,1.271910936186154,0.4868256349253646,0.19661089688000002,2.7995704354618844,-0.857120763028608,-0.44041223633305104,-0.4150572720472038,,-0.8885467535767752,-0.29584245094579253,0.20946879739000002,3.3466514980130087,-0.3216423204478468,0.1069247815540266,0.8010393003225055,,-0.055632369907319255,-0.0618370153981591,0.08432137115999999,-0.06574422517700301,,-4.1604042e-05,-4.172325e-07,-1.4305115e-06,1.0,3.2495707e-05,2.8550625e-05,-3.2499433e-05,1.0,3.4868717e-06,-2.8550625e-05,-3.4868717e-06,1.0,676,2.121,0,4,0.32,False,-0.2612483231496481,0.9755979999653761
2.134237517020665,16:05:11.715439,16:05:01.628588,0,,0.11350709,-0.005204916,0.038407996,0.060794555,0.9709287,-0.23151904,0.025505662,0.23036131,0.9727709,0.9978244,-0.065044284,-0.010759532,,0.060892183,-0.019352883,0.011982977,-0.10745179,0.8086747,0.578359,0.8720139,-0.20275909,0.44551146,0.47754145,0.55220824,-0.6833888,,0.10607596,1.3403088,0.44035426,0.99537164,0.013123305,-0.09520003,-0.052810267,-0.7529494,-0.655956,-0.08028912,0.65794754,-0.7487715,,-0.085233964,0.26166716,-0.10075092,-0.14648485,-0.94031125,0.3071757,0.6898956,0.12543137,0.71295935,-0.7089332,0.3163569,0.6303428,,-0.029532738,0.38908136,-0.3571684,0.05773324,-0.8507479,-0.52239347,0.86095786,0.30732363,-0.40534395,0.50538933,-0.42635697,0.75020087,,1.2718954907204056,0.4858989069804577,0.19664071155,2.7419057010036405,-0.8694180480074976,-0.3949360517793691,-0.41571064831174076,,-0.8885313081110268,-0.295857896411541,0.20946879739000002,3.347070877899978,-0.3215056839480814,0.10681336365033015,0.8010393003225055,,-0.055632369907319255,-0.0618370153981591,0.08432137115999999,-0.06574422517700301,,-4.1604042e-05,-4.172325e-07,-1.4305115e-06,1.0,3.2495707e-05,2.8550625e-05,-3.2499433e-05,1.0,3.4868717e-06,-2.8550625e-05,-3.4868717e-06,1.0,689,2.162,1,5,0.346,False,-0.26101001227556386,0.9753083187606992
2.173544518998824,16:05:11.749260,16:05:01.628588,0,,0.11304915,-0.0052231476,0.03846045,0.023645632,0.97304535,-0.22939771,0.018693268,0.22899146,0.9732491,0.99954563,-0.027301326,-0.012774885,,0.06089515,-0.01936026,0.0119816065,-0.10743634,0.8087597,0.578243,0.8720312,-0.20268734,0.44551033,0.4775134,0.55210996,-0.6834878,,0.10607596,1.3403088,0.44035426,0.99537164,0.013123305,-0.09520003,-0.052810267,-0.7529494,-0.655956,-0.08028912,0.65794754,-0.7487715,,-0.08478528,0.26168957,-0.10085575,-0.11028257,-0.9458536,0.30528468,0.6860615,0.14979939,0.7119549,-0.7191366,0.28796026,0.6323935,,-0.029535504,0.38907623,-0.35717398,0.057720058,-0.85082495,-0.52226937,0.86094135,0.3072691,-0.40542033,0.50541896,-0.4262424,0.750246,,1.2719263816519024,0.4852038610217775,0.19664589671000002,2.6854991062063034,-0.8819886059859181,-0.349155352678154,-0.41522061611333794,,-0.888539030843901,-0.2958965100759121,0.20947009368000002,3.347070877899978,-0.3215056839480814,0.10665000617004905,0.8010393003225054,,-0.055632369907319255,-0.0618370153981591,0.08432137115999999,-0.06574422517700301,,-4.1604042e-05,-4.172325e-07,-1.4305115e-06,1.0,3.2495707e-05,2.8550625e-05,-3.2499433e-05,1.0,3.4868717e-06,-2.8550625e-05,-3.4868717e-06,1.0,698,2.19,1,5,0.374,False,-0.26160578946077395,0.9747772365521254
2.2073187550413422,16:05:11.780115,16:05:01.820182,0,,0.112670325,-0.005219698,0.038492694,-0.0041633844,0.9738129,-0.22731224,0.01413846,0.2273489,0.9737109,0.9998914,0.00084005296,-0.014714718,,0.060912643,-0.019353889,0.011973202,-0.10719755,0.8087676,0.5782762,0.872073,-0.20284556,0.4453564,0.47749063,0.5520403,-0.68355995,,0.106126025,1.3403059,0.44035342,0.99536854,0.013078829,-0.095238775,-0.052869063,-0.7529502,-0.65595037,-0.08028912,0.65794754,-0.7487715,,-0.08445408,0.26171526,-0.10091758,-0.08305419,-0.949212,0.30347747,0.6829607,0.16755295,0.71097875,-0.7257181,0.26631293,0.63435847,,-0.029598998,0.38906822,-0.35716203,0.057541393,-0.8508283,-0.5222836,0.86092424,0.30716398,-0.4055364,0.50546855,-0.4263115,0.75017333,,1.2720267771792675,0.4848022789123178,0.19664719300000003,2.642093287905007,-0.8896402499727828,-0.3132665674001303,-0.4134238313858609,,-0.8885467535767752,-0.29591967827453475,0.20947268626,3.3472805678434625,-0.32136904744831596,0.10662026700649319,0.8008759562563712,,-0.055632369907319255,-0.0618370153981591,0.08432137115999999,-0.06574422517700301,,8.441508e-06,1.9073486e-06,-3.695488e-06,1.0,-1.1734664e-05,-1.0307878e-05,1.1730939e-05,1.0,-1.2516975e-06,1.0307878e-05,1.2516975e-06,1.0,707,2.219,1,5,0.403,False,-0.26178452261633733,0.9745841157490076
2.238203824032098,16:05:11.808728,16:05:01.820182,0,,0.11242496,-0.0052251965,0.03850113,-0.022314869,0.97340095,-0.22801834,0.012460947,0.22832832,0.97350454,0.9996733,0.018882275,-0.01722464,,0.060911644,-0.019357301,0.011973381,-0.10701791,0.8087529,0.57833016,0.87205017,-0.20304327,0.44531107,0.47757265,0.55198914,-0.68354386,,0.106126025,1.3403059,0.44035342,0.99536854,0.013078829,-0.095238775,-0.052869063,-0.7529502,-0.65595037,-0.08028912,0.65794754,-0.7487715,,-0.08421161,0.26171717,-0.10095645,-0.06514235,-0.95031935,0.30438405,0.6815961,0.18041284,0.70913893,-0.7288232,0.25366196,0.6359814,,-0.029597988,0.38906673,-0.35716513,0.057355657,-0.8508073,-0.5223383,0.8609689,0.3070209,-0.40554985,0.50541353,-0.42645642,0.75012803,,1.272150340905255,0.48456287419321686,0.19664460042,2.6131560757041425,-0.8927828894673879,-0.2914277729419398,-0.414730583914935,,-0.888539030843901,-0.2959351237402832,0.20947138997000003,3.3474902577869465,-0.32136904744831596,0.10662026700649321,0.8005492681241025,,-0.055632369907319255,-0.0618370153981591,0.08432137115999999,-0.06574422517700301,,8.441508e-06,1.9073486e-06,-3.695488e-06,1.0,-1.1734664e-05,-1.0307878e-05,1.1730939e-05,1.0,-1.2516975e-06,1.0307878e-05,1.2516975e-06,1.0,720,2.26,1,5,0.444,False,-0.26017592421626956,0.9745358355482281
2.266818800009787,16:05:11.848989,16:05:01.820182,0,,0.111893706,-0.0052370727,0.038544193,-0.06067416,0.9710643,-0.23098153,0.005567044,0.23173356,0.9727635,0.9981421,0.057735696,-0.019466251,,0.06091014,-0.019361727,0.011971116,-0.1067706,0.8087581,0.57836854,0.8720914,-0.20321165,0.44515353,0.4775527,0.5519196,-0.683614,,0.106126025,1.3403059,0.44035342,0.99536854,0.013078829,-0.095238775,-0.052869063,-0.7529502,-0.65595037,-0.08028912,0.65794754,-0.7487715,,-0.08368882,0.26173803,-0.101058796,-0.027457926,-0.95116276,0.30746624,0.67551404,0.20906734,0.7070867,-0.73683566,0.2271129,0.63678324,,-0.029596252,0.38906267,-0.35716784,0.05711054,-0.8508049,-0.52236897,0.8609534,0.30687526,-0.40569305,0.5054678,-0.426566,0.7500292,,1.2725055866174693,0.4841612920837572,0.19663293381000002,2.551297542376208,-0.9012543524528451,-0.24604917630655687,-0.41375051951812936,,-0.8885235853781525,-0.29595056920603163,0.20947138997000003,3.347699947730431,-0.3212324109485505,0.10659052784293738,0.8000592359256997,,-0.055632369907319255,-0.0618370153981591,0.08432137115999999,-0.06574422517700301,,8.441508e-06,1.9073486e-06,-3.695488e-06,1.0,-1.1734664e-05,-1.0307878e-05,1.1730939e-05,1.0,-1.2516975e-06,1.0307878e-05,1.2516975e-06,1.0,729,2.289,1,5,0.473,False,-0.26112916771260597,0.9750669177568021
2.3070774429943413,16:05:11.880119,16:05:01.820182,0,,0.111487314,-0.0052557364,0.038585916,-0.09056026,0.9689553,-0.23005272,-0.0019755661,0.23082674,0.97299296,0.995889,0.08856894,-0.018989563,,0.06090999,-0.01936648,0.011970043,-0.1065877,0.808884,0.5782262,0.872072,-0.20329979,0.4451512,0.47762895,0.55170256,-0.6837359,,0.106126025,1.3403059,0.44035342,0.99536854,0.013078829,-0.095238775,-0.052869063,-0.7529502,-0.65595037,-0.08028912,0.65794754,-0.7487715,,-0.08329042,0.2617528,-0.10114993,0.001825472,-0.9518625,0.30651987,0.66845554,0.22913636,0.7075759,-0.74374986,0.20360324,0.63669604,,-0.029595967,0.38905933,-0.3571714,0.05692201,-0.850911,-0.5222168,0.8609946,0.3066345,-0.40578762,0.50541884,-0.42652756,0.75008404,,1.2727295458708219,0.4839605010290273,0.19661867462000002,2.5022300956008294,-0.908632723440179,-0.2063809685690386,-0.4152206161133377,,-0.8885158626452783,-0.2959737374046543,0.20947138997000003,3.3479096376739164,-0.3212324109485505,0.10634549162251569,0.8008759562563711,,-0.055632369907319255,-0.0618370153981591,0.08432137115999999,-0.06574422517700301,,8.441508e-06,1.9073486e-06,-3.695488e-06,1.0,-1.1734664e-05,-1.0307878e-05,1.1730939e-05,1.0,-1.2516975e-06,1.0307878e-05,1.2516975e-06,1.0,738,2.317,1,5,0.501,False,-0.26106958999408425,0.9746806761505664
2.3382319360389374,16:05:11.907095,16:05:01.820182,0,,0.11107773,-0.0052908957,0.038557574,-0.121147916,0.96629316,-0.22715738,-0.0033887029,0.22843906,0.97355247,0.99262863,0.11871359,-0.024400502,,0.060911488,-0.01936794,0.011970639,-0.106585294,0.80887866,0.5782342,0.8720749,-0.20330271,0.44514415,0.47762415,0.55170935,-0.6837337,,0.106126025,1.3403059,0.44035342,0.99536854,0.013078829,-0.095238775,-0.052869063,-0.7529502,-0.65595037,-0.08028912,0.65794754,-0.7487715,,-0.08288398,0.26170826,-0.101201005,0.03237577,-0.95206857,0.3041666,0.6652565,0.24764709,0.704347,-0.74591255,0.17954502,0.6413876,,-0.02959749,0.38905895,-0.35717288,0.05692,-0.8509062,-0.52222484,0.8609918,0.30663925,-0.40578997,0.50542384,-0.42653373,0.7500771,,1.2729612278570486,0.4837828781729202,0.1965953414,2.450226989616667,-0.908632723440179,-0.16260116385369722,-0.41424055171653207,,-0.8885235853781525,-0.2959814601375286,0.20947138997000003,3.3479096376739164,-0.3212324109485505,0.10634549162251569,0.8008759562563711,,-0.055632369907319255,-0.0618370153981591,0.08432137115999999,-0.06574422517700301,,8.441508e-06,1.9073486e-06,-3.695488e-06,1.0,-1.1734664e-05,-1.0307878e-05,1.1730939e-05,1.0,-1.2516975e-06,1.0307878e-05,1.2516975e-06,1.0,751,2.358,0,5,0.511,False,-0.26101001227556386,0.9753083187606992
2.365192013035994,16:05:11.939867,16:05:01.820182,0,,0.11064004,-0.005342886,0.03852804,-0.15379253,0.9616717,-0.22701323,-0.0063363314,0.228782,0.9734572,0.9880829,0.15114886,-0.029091567,,0.060912628,-0.01937265,0.011970282,-0.10640327,0.80881107,0.5783621,0.8720548,-0.20353968,0.44507527,0.47770143,0.5517209,-0.6836704,,0.106126025,1.3403059,0.44035342,0.99536854,0.013078829,-0.095238775,-0.052869063,-0.7529502,-0.65595037,-0.08028912,0.65794754,-0.7487715,,-0.082450815,0.2616505,-0.10126574,0.06496165,-0.9503169,0.30443022,0.66006,0.2697217,0.7011213,-0.74839884,0.1553962,0.6447877,,-0.029598553,0.3890562,-0.35717675,0.056732252,-0.8508376,-0.522357,0.8610336,0.3065341,-0.4057807,0.5053737,-0.42674604,0.74999017,,1.2732315235076466,0.4836361462483099,0.19656423044000002,2.395917294254175,-0.908632723440179,-0.12069997016158884,-0.41309714325359204,,-0.8885235853781525,-0.2960046283361512,0.20947138997000003,3.3481193276174004,-0.3212324109485505,0.10642717036265623,0.8005492681241025,,-0.055632369907319255,-0.0618370153981591,0.08432137115999999,-0.06574422517700301,,8.441508e-06,1.9073486e-06,-3.695488e-06,1.0,-1.1734664e-05,-1.0307878e-05,1.1730939e-05,1.0,-1.2516975e-06,1.0307878e-05,1.2516975e-06,1.0,760,2.387,0,5,0.511,False,-0.26136747858668974,0.9747772365521254
2.3979839860112406,16:05:11.972737,16:05:02.015499,0,,0.110029116,-0.0054500103,0.038486734,-0.20039034,0.9537246,-0.22417131,-0.013280183,0.22614732,0.9740027,0.9796261,0.19815774,-0.03265217,,0.060915057,-0.019377254,0.011970758,-0.1062221,0.80873924,0.5784959,0.8720341,-0.20378,0.44500604,0.47777966,0.55173767,-0.6836022,,0.106126025,1.3403059,0.44035342,0.99536854,0.013078829,-0.095238775,-0.052869063,-0.7529502,-0.65595037,-0.08028912,0.65794754,-0.7487715,,-0.081848934,0.26154423,-0.10137914,0.11143452,-0.9467836,0.30196548,0.6492938,0.29939875,0.69912654,-0.75232965,0.11815748,0.6481041,,-0.029600965,0.38905406,-0.35718086,0.05654529,-0.85076505,-0.52249545,0.861076,0.30643204,-0.40576786,0.50532246,-0.426964,0.74990064,,1.2735713237541124,0.48352030525519657,0.19649941594000003,2.3189610849953546,-0.9087693599399445,-0.057532564869378244,-0.41375051951812936,,-0.8885313081110268,-0.2960277965347739,0.20947138997000003,3.348329017560885,-0.3212324109485505,0.10650884910279682,0.8005492681241025,,-0.055632369907319255,-0.0618370153981591,0.08432137115999999,-0.06574422517700301,,8.441508e-06,1.9073486e-06,-3.695488e-06,1.0,-1.1734664e-05,-1.0307878e-05,1.1730939e-05,1.0,-1.2516975e-06,1.0307878e-05,1.2516975e-06,1.0,773,2.428,0,5,0.511,False,-0.2613079008681689,0.9752117583591406
2.4308334430097602,16:05:12.009466,16:05:02.015499,0,,0.10961667,-0.0055486485,0.03842731,-0.23404674,0.94658095,-0.22182502,-0.01707533,0.22412483,0.974411,0.9720754,0.23184541,-0.036292493,,0.060913313,-0.019384943,0.011969209,-0.10596822,0.80878955,0.5784721,0.87208223,-0.20391114,0.44485152,0.47774813,0.5516154,-0.683723,,0.106126025,1.3403059,0.44035342,0.99536854,0.013078829,-0.095238775,-0.052869063,-0.7529502,-0.65595037,-0.08028912,0.65794754,-0.7487715,,-0.08144188,0.26143178,-0.10145009,0.14522389,-0.9428237,0.29998916,0.64145035,0.32056844,0.6969773,-0.75329375,0.09121039,0.65132874,,-0.029599022,0.38904896,-0.35718676,0.056294564,-0.8508035,-0.5224599,0.86105347,0.30625662,-0.405948,0.5053888,-0.42701328,0.74982786,,1.2737721148088421,0.4835125825223223,0.19644237918000002,2.2625544901980175,-0.9057633569451047,-0.01154826584734614,-0.41391386358426363,,-0.8885158626452783,-0.2960586874662708,0.20947009368000002,3.3485387075043693,-0.32109577444878507,0.10639743119910042,0.8005492681241025,,-0.055632369907319255,-0.0618370153981591,0.08432137115999999,-0.06574422517700301,,8.441508e-06,1.9073486e-06,-3.695488e-06,1.0,-1.1734664e-05,-1.0307878e-05,1.1730939e-05,1.0,-1.2516975e-06,1.0307878e-05,1.2516975e-06,1.0,782,2.457,0,5,0.511,False,-0.26136747858668974,0.9759842415716118
2.4675793609931134,16:05:12.047688,16:05:02.015499,0,,0.10909762,-0.00569766,0.03834565,-0.27687508,0.9355806,-0.21915485,-0.023933083,0.22128609,0.9749154,0.9606078,0.27517483,-0.038877368,,0.06091713,-0.019394062,0.011969507,-0.10595037,0.8090582,0.57809967,0.8721024,-0.20369709,0.4449101,0.4777153,0.5513005,-0.6839998,,0.106126025,1.3403059,0.44035342,0.99536854,0.013078829,-0.095238775,-0.052869063,-0.7529502,-0.65595037,-0.08028912,0.65794754,-0.7487715,,-0.080930956,0.26126727,-0.10155097,0.18822636,-0.9359497,0.29760554,0.6287181,0.3476237,0.6956086,-0.7545094,0.056178097,0.6538804,,-0.02960276,0.3890443,-0.35719463,0.056279372,-0.8510464,-0.5220658,0.86103415,0.30607414,-0.4061266,0.5054234,-0.42665997,0.75000566,,1.2740810241238112,0.48355119618669345,0.19635812033000002,2.190001769752372,-0.9015276254523761,0.04740033660545445,-0.4139138635842636,,-0.8885313081110268,-0.29610502386351617,0.20947009368000002,3.3485387075043693,-0.32109577444878507,0.10590735875825702,0.8012026443886398,,-0.055632369907319255,-0.0618370153981591,0.08432137115999999,-0.06574422517700301,,8.441508e-06,1.9073486e-06,-3.695488e-06,1.0,-1.1734664e-05,-1.0307878e-05,1.1730939e-05,1.0,-1.2516975e-06,1.0307878e-05,1.2516975e-06,1.0,795,2.498,0,5,0.511,False,-0.2607717014014801,0.9750669177568021
2.5057922590058297,16:05:12.079879,16:05:02.015499,0,,0.1087169,-0.0058184043,0.03826128,-0.30904052,0.9260933,-0.21643668,-0.02777028,0.2186928,0.97539866,0.95064336,0.30744818,-0.041867107,,0.060920093,-0.019401439,0.011968136,-0.1059349,0.8090487,0.5781157,0.8721196,-0.20369817,0.44487578,0.4776873,0.5513139,-0.6840086,,0.106126025,1.3403059,0.44035342,0.99536854,0.013078829,-0.095238775,-0.052869063,-0.7529502,-0.65595037,-0.08028912,0.65794754,-0.7487715,,-0.08055493,0.26112166,-0.10161462,0.22074504,-0.9295825,0.29520842,0.6192182,0.36742282,0.69395196,-0.7535519,0.029611964,0.6567211,,-0.029605526,0.38903916,-0.3572002,0.05626619,-0.8510381,-0.5220807,0.86101764,0.30608582,-0.40615278,0.505453,-0.42666802,0.7499811,,1.2744362698360254,0.48360525531681303,0.19628682438000003,2.1361114542768496,-0.8952423464631658,0.0912823571197563,-0.4142405517165321,,-0.888539030843901,-0.29614363752788725,0.20947138997000003,3.3485387075043693,-0.32109577444878507,0.10590735875825702,0.8008759562563712,,-0.055632369907319255,-0.0618370153981591,0.08432137115999999,-0.06574422517700301,,8.441508e-06,1.9073486e-06,-3.695488e-06,1.0,-1.1734664e-05,-1.0307878e-05,1.1730939e-05,1.0,-1.2516975e-06,1.0307878e-05,1.2516975e-06,1.0,804,2.526,1,6,0.521,False,-0.2617249448978165,0.975453159363038
2.5379464119905606,16:05:12.118016,16:05:02.015499,0,,0.108201236,-0.0059915483,0.038138434,-0.35431477,0.909956,-0.2155011,-0.03355667,0.21793078,0.97538733,0.93452394,0.35282564,-0.046681076,,0.06092397,-0.019416489,0.011964202,-0.10573003,0.8089741,0.5782576,0.8721245,-0.20393188,0.44475913,0.47772375,0.551337,-0.68396443,,0.106126025,1.3403059,0.44035342,0.99536854,0.013078829,-0.095238775,-0.052869063,-0.7529502,-0.65595037,-0.08028912,0.65794754,-0.7487715,,-0.08004563,0.26091158,-0.101700954,0.2666712,-0.9176253,0.2947036,0.6041532,0.39739904,0.69070464,-0.75092304,-0.0061449334,0.6603612,,-0.029608903,0.38902783,-0.35721102,0.056058902,-0.8509634,-0.5222247,0.86103535,0.3059928,-0.4061853,0.50544584,-0.42688364,0.7498632,,1.2751004248632087,0.48380604637154284,0.19617404715000003,2.060623074622421,-0.8840381534823997,0.14904097719177029,-0.41407720765039796,,-0.888539030843901,-0.2962208648566295,0.20947398255000002,3.348748397447854,-0.32109577444878507,0.10598903749839757,0.8007126121902369,,-0.055632369907319255,-0.0618370153981591,0.08432137115999999,-0.06574422517700301,,8.441508e-06,1.9073486e-06,-3.695488e-06,1.0,-1.1734664e-05,-1.0307878e-05,1.1730939e-05,1.0,-1.2516975e-06,1.0307878e-05,1.2516975e-06,1.0,813,2.555,1,6,0.55,False,-0.26101001227556386,0.9757428405677144
2.5761271270457655,16:05:12.150084,16:05:02.015499,0,,0.10784694,-0.00610964,0.03802617,-0.3889889,0.89650595,-0.21204774,-0.034412116,0.21587515,0.9758146,0.92059946,0.38687804,-0.05312243,,0.06092828,-0.019429766,0.011959434,-0.105528414,0.8090421,0.57819927,0.87212574,-0.20405702,0.4446993,0.4777661,0.5511909,-0.68405265,,0.106126025,1.3403059,0.44035342,0.99536854,0.013078829,-0.095238775,-0.052869063,-0.7529502,-0.65595037,-0.08028912,0.65794754,-0.7487715,,-0.07969317,0.26074913,-0.10173919,0.3022649,-0.90743804,0.29187682,0.59419984,0.41879764,0.68668413,-0.7453606,-0.034127343,0.6657874,,-0.029612659,0.3890166,-0.35721987,0.055854414,-0.8510175,-0.5221585,0.8610565,0.30579856,-0.4062868,0.5054325,-0.42691505,0.7498543,,1.2758031935547631,0.4840840647550149,0.19607682540000002,2.0056843094294754,-0.8699645940065593,0.1918812953045128,-0.4139138635842636,,-0.888539030843901,-0.29629036945249754,0.20947787142000002,3.3489580873913387,-0.32109577444878507,0.10582568001811644,0.8010393003225055,,-0.055632369907319255,-0.0618370153981591,0.08432137115999999,-0.06574422517700301,,8.441508e-06,1.9073486e-06,-3.695488e-06,1.0,-1.1734664e-05,-1.0307878e-05,1.1730939e-05,1.0,-1.2516975e-06,1.0307878e-05,1.2516975e-06,1.0,826,2.596,1,6,0.591,False,-0.2617249448978165,0.9763704831778475
2.6081924840109423,16:05:12.180227,16:05:02.015499,0,,0.10753677,-0.0061990246,0.037942156,-0.41946715,0.88313454,-0.2100488,-0.03754911,0.21431181,0.97604346,0.9069935,0.41730526,-0.056735903,,0.06094148,-0.019449659,0.011953771,-0.10548703,0.8090533,0.57819116,0.8721725,-0.20403121,0.44461948,0.47768986,0.55118406,-0.6841115,,0.106126025,1.3403059,0.44035342,0.99536854,0.013078829,-0.095238775,-0.052869063,-0.7529502,-0.65595037,-0.08028912,0.65794754,-0.7487715,,-0.07938478,0.26062688,-0.10177383,0.33348474,-0.89697,0.29022893,0.5827669,0.4381223,0.68442065,-0.7410605,-0.059108,0.6688315,,-0.029625133,0.38900065,-0.3572337,0.055819217,-0.8510283,-0.5221446,0.8610116,0.30580488,-0.40637714,0.50551283,-0.4268889,0.7498151,,1.2765677441093115,0.4844470332001035,0.19599515913,1.9566168626540967,-0.8582138550267315,0.22926463116744383,-0.4134238313858608,,-0.888577644508272,-0.2963984877127367,0.20948564916,3.3489580873913387,-0.32109577444878507,0.10574400127797591,0.8012026443886398,,-0.055632369907319255,-0.0618370153981591,0.08432137115999999,-0.06574422517700301,,8.441508e-06,1.9073486e-06,-3.695488e-06,1.0,-1.1734664e-05,-1.0307878e-05,1.1730939e-05,1.0,-1.2516975e-06,1.0307878e-05,1.2516975e-06,1.0,835,2.625,1,6,0.62,False,-0.26160578946077395,0.9762256425755091
2.638343006023206,16:05:12.217660,16:05:02.249460,0,,0.10715468,-0.0063088313,0.03781034,-0.4627366,0.86146665,-0.20916423,-0.04011014,0.21535769,0.9757112,0.88558793,0.45988697,-0.0651004,,0.06095709,-0.01945857,0.011951923,-0.10547109,0.8090584,0.5781868,0.8721921,-0.20401876,0.4445867,0.47765753,0.551181,-0.6841364,,0.106126025,1.3403059,0.44035342,0.99536854,0.013078829,-0.095238775,-0.052869063,-0.7529502,-0.65595037,-0.08028912,0.65794754,-0.7487715,,-0.07900235,0.26045746,-0.101795465,0.37814027,-0.87913215,0.29006314,0.5665308,0.46756327,0.67854804,-0.7321562,-0.092256635,0.67485994,,-0.029640442,0.3889933,-0.3572399,0.055805903,-0.85103333,-0.5221378,0.8609926,0.30580825,-0.4064148,0.5055466,-0.4268765,0.7497994,,1.277749322239068,0.4851034654944126,0.19587719674,1.889516080739049,-0.8374451070623845,0.2760385271152263,-0.41309714325359215,,-0.8886394263712659,-0.29645254684285627,0.20949342690000003,3.3489580873913387,-0.32109577444878507,0.10566232253783532,0.801365988454774,,-0.055632369907319255,-0.0618370153981591,0.08432137115999999,-0.06574422517700301,,8.441508e-06,1.9073486e-06,-3.695488e-06,1.0,-1.1734664e-05,-1.0307878e-05,1.1730939e-05,1.0,-1.2516975e-06,1.0307878e-05,1.2516975e-06,1.0,844,2.653,1,6,0.648,False,-0.2604738128088746,0.9762739227762887
2.675771320005879,16:05:12.243651,16:05:02.249460,0,,0.1068934,-0.006395571,0.037669584,-0.49792737,0.84265286,-0.20494917,-0.039945364,0.21379289,0.97606206,0.86629826,0.49419475,-0.072793305,,0.060970653,-0.019467719,0.011948824,-0.10528123,0.80900776,0.57829237,0.872182,-0.20423785,0.44450587,0.4777179,0.5511744,-0.6840996,,0.106126025,1.3403059,0.44035342,0.99536854,0.013078829,-0.095238775,-0.052869063,-0.7529502,-0.65595037,-0.08028912,0.65794754,-0.7487715,,-0.078737274,0.26029894,-0.101780854,0.4148008,-0.8636027,0.2865845,0.5537247,0.48950383,0.6736282,-0.72203135,-0.120732605,0.68124473,,-0.029653596,0.38898492,-0.3572457,0.05561169,-0.8509801,-0.52224535,0.8610244,0.30569524,-0.4064326,0.50551397,-0.42706358,0.7497148,,1.2787378320469684,0.48560544313123716,0.19578775273000001,1.8377226646983715,-0.8166763590980376,0.31366440416726576,-0.4122804229229208,,-0.8886857627685112,-0.29650660597297585,0.20950120464000002,3.349167777334823,-0.32109577444878507,0.10566232253783532,0.801365988454774,,-0.055632369907319255,-0.0618370153981591,0.08432137115999999,-0.06574422517700301,,8.441508e-06,1.9073486e-06,-3.695488e-06,1.0,-1.1734664e-05,-1.0307878e-05,1.1730939e-05,1.0,-1.2516975e-06,1.0307878e-05,1.2516975e-06,1.0,857,2.694,1,6,0.689,False,-0.26196325577190027,0.9758394009692735
