AlexandreBanks6/ExpertPlaybackApp/resources/Motions/P_03/PC1/Data_PC1_3.csv
Task Time,PC1 Time,PC2 Time,Gaze Calib,s_T_psm1,Tx,Ty,Tz,R00,R01,R02,R10,R11,R12,R20,R21,R22,s_T_psm3,Tx,Ty,Tz,R00,R01,R02,R10,R11,R12,R20,R21,R22,cart_T_ecm,Tx,Ty,Tz,R00,R01,R02,R10,R11,R12,R20,R21,R22,ecm_T_psm1,Tx,Ty,Tz,R00,R01,R02,R10,R11,R12,R20,R21,R22,ecm_T_psm3,Tx,Ty,Tz,R00,R01,R02,R10,R11,R12,R20,R21,R22,psm1_joints,q1,q2,q3,q4,q5,q6,jaw,psm3_joints,q1,q2,q3,q4,q5,q6,jaw,ecm_joints,q1,q2,q3,q4,ecmi_T_ecm,Tx,Ty,Tz,R00,R01,R02,R10,R11,R12,R20,R21,R22,Sample #,Task Duration (s),Collisions (binary),Collisions (increments),Cumulative Collision Time (s),Clutch Press,MTMR Angle,MTML Angle
""
lci_T_si,,,,,-0.058161814,0.028812556,0.22338274,0.99118906,-0.064254425,0.115825556,0.028569233,-0.75016135,-0.6606374,0.12933673,0.65812564,-0.741716
rci_T_si,,,,,-0.067850515,0.03317108,0.23398167,0.98941356,-0.079541974,0.12138337,0.022701237,-0.7412876,-0.67080355,0.14333703,0.66645765,-0.73163426
ecm_T_lc,,,,,-4.4061628e-05,-0.00034663224,-0.01840835,-0.99912,0.030754527,0.028518902,-0.031987965,-0.99852574,-0.043852776,0.027128186,-0.04472645,0.9986309
ecm_T_rc,,,,,-0.0043358393,0.01870579,-0.007592615,-0.99555075,-0.052743673,-0.078081585,0.04863213,-0.9973746,0.053654674,-0.08070653,0.04961868,0.9955021
cart_T_ecmi,,,,,0.106117226,1.3403053,0.44034997,0.9953694,0.013090626,-0.0952285,-0.052853465,-0.75295,-0.65595186,-0.08028912,0.65794754,-0.7487715
ecmac_T_ecmrep_psm1,,,,,0.006928962,-0.26080152,-0.2999526,0.99741316,0.06053514,0.03876121,-0.0592658,0.9976933,-0.033100393,-0.040675536,0.030717555,0.99870014
ecmac_T_ecmrep_psm3,,,,,-0.019041438,-0.46633056,-0.5465172,0.99408877,-0.01321918,0.10776258,-0.016145537,0.96352404,0.2671344,-0.107363135,-0.2672952,0.95761496
""
0,16:03:45.601408,16:03:35.582056,0,,0.12268153,-0.00074040145,0.03387986,0.67878604,0.51803696,-0.520468,0.507856,0.18076867,0.8422619,0.5304071,-0.8360385,-0.14038497,,0.06479846,-0.04529065,0.019729793,0.6495043,0.5226686,0.5522333,0.59544134,-0.80129707,0.05807537,0.47285706,0.29110232,-0.8316643,,0.106075004,1.3403084,0.44035286,0.9953717,0.013123866,-0.09519954,-0.052809525,-0.7529494,-0.65595603,-0.08028912,0.65794754,-0.7487715,,-0.093593255,0.26191384,-0.09335933,-0.68102515,-0.42639595,0.5953077,0.73165756,-0.42920756,0.5295829,0.029698541,0.79622066,0.60427696,,-0.033827472,0.38224828,-0.38330188,-0.69329756,-0.5376235,-0.47989526,0.657115,-0.19821835,-0.72726154,0.29586887,-0.81955504,0.49070477,,1.2454991897563064,0.5460512733377924,0.20065791426000001,3.3474902577869465,-0.0009564554983580831,-0.9358301878659523,-0.40721675687275805,,-0.9255772577086817,-0.4108107752443728,0.20149791018000002,-2.179517272578146,-0.017489471969976376,0.006011938918945137,0.8208039323247532,,-0.055632369907319255,-0.0618370153981591,0.08432137115999999,-0.06574422517700301,,-4.2423606e-05,-9.536743e-07,-1.1920929e-07,1.0,3.30545e-05,2.9046088e-05,-3.30545e-05,1.0,3.516674e-06,-2.9046088e-05,-3.5464764e-06,1.0,33,0.099,0,0,0.0,False,-0.26243987752006825,0.9945721188717032
0.12059298000531271,16:03:45.624158,16:03:35.656411,0,,0.1226297,-0.00075636804,0.0340562,0.6759856,0.52278477,-0.5193643,0.50518036,0.1843549,0.8430933,0.53650373,-0.83229154,-0.13947937,,0.06480093,-0.045310035,0.019727051,0.649535,0.5225792,0.5522817,0.59544605,-0.8013055,0.057909757,0.47280878,0.29123956,-0.83164376,,0.106075004,1.3403084,0.44035286,0.9953717,0.013123866,-0.09519954,-0.052809525,-0.7529494,-0.65595603,-0.08028912,0.65794754,-0.7487715,,-0.093558624,0.2620207,-0.093505695,-0.6789926,-0.43116006,0.594197,0.7337816,-0.4240399,0.53080577,0.023100987,0.796424,0.6042973,,-0.03382951,0.38223588,-0.3833171,-0.69332415,-0.53754604,-0.47994366,0.6570736,-0.19809787,-0.72733176,0.2958985,-0.819635,0.49055335,,1.246078394721873,0.5460976097350377,0.20050884091,3.3443449086346786,-0.007651643986864665,-0.9353531137334018,-0.40738010093889254,,-0.9255772577086817,-0.4109111707717377,0.20150050276000003,-2.179517272578146,-0.017489471969976376,0.006093617659085726,0.820640588258619,,-0.055632369907319255,-0.0618370153981591,0.08432137115999999,-0.06574422517700301,,-4.2423606e-05,-9.536743e-07,-1.1920929e-07,1.0,3.30545e-05,2.9046088e-05,-3.30545e-05,1.0,3.516674e-06,-2.9046088e-05,-3.5464764e-06,1.0,41,0.123,0,0,0.0,False,-0.2622015666459845,0.9944272782693651
0.1433405689895153,16:03:45.651994,16:03:35.656411,0,,0.12255606,-0.00077126175,0.034313932,0.6682408,0.5327198,-0.5192915,0.5036359,0.18980509,0.8428079,0.5475446,-0.8247324,-0.14146134,,0.06480298,-0.04532872,0.019725561,0.64963686,0.5225961,0.55214596,0.59545624,-0.801304,0.057825416,0.47265616,0.29121324,-0.83173966,,0.106075004,1.3403084,0.44035286,0.9953717,0.013123866,-0.09519954,-0.052809525,-0.7529494,-0.65595603,-0.08028912,0.65794754,-0.7487715,,-0.09350943,0.26218313,-0.09371371,-0.6723982,-0.44126537,0.5942773,0.7400747,-0.41493586,0.5292614,0.013042221,0.79568404,0.60557145,,-0.03383124,0.382225,-0.3833324,-0.69341266,-0.53756064,-0.47979936,0.6569398,-0.19812103,-0.7274463,0.2959882,-0.8196198,0.4905246,,1.246935618070912,0.54617483706378,0.20029754564000002,3.334908861177875,-0.0178993814692727,-0.9328776402462908,-0.4083601653356981,,-0.9255849804415559,-0.41100384356622843,0.20150179905,-2.179517272578146,-0.017352835470210937,0.0059821997553893,0.820640588258619,,-0.055632369907319255,-0.0618370153981591,0.08432137115999999,-0.06574422517700301,,-4.2423606e-05,-9.536743e-07,-1.1920929e-07,1.0,3.30545e-05,2.9046088e-05,-3.30545e-05,1.0,3.516674e-06,-2.9046088e-05,-3.5464764e-06,1.0,49,0.147,0,0,0.0,False,-0.26196325577190027,0.9942341574662472
0.17117106000659987,16:03:45.672609,16:03:35.656411,0,,0.12249355,-0.00078781694,0.03447582,0.664694,0.5371661,-0.51926315,0.50202036,0.19360936,0.84290636,0.553315,-0.8209555,-0.14097732,,0.064803675,-0.04532866,0.019724548,0.64963686,0.522551,0.5521887,0.59545624,-0.8013087,0.05775991,0.47265616,0.29128116,-0.83171594,,0.106075004,1.3403084,0.44035286,0.9953717,0.013123866,-0.09519954,-0.052809525,-0.7529494,-0.65595603,-0.08028912,0.65794754,-0.7487715,,-0.09346294,0.26227984,-0.093851104,-0.66951257,-0.4457156,0.5942142,0.74276483,-0.40958625,0.5296598,0.007304322,0.7959753,0.605285,,-0.03383184,0.38222405,-0.38333178,-0.69341266,-0.5375215,-0.47984326,0.6569398,-0.1980616,-0.72746253,0.2959882,-0.8196598,0.49045765,,1.2475302685022274,0.5461825597966542,0.20015884261000003,3.330715062308185,-0.023774750959186637,-0.9326606798352162,-0.40378653148393817,,-0.9255849804415559,-0.41100384356622843,0.20150309534000002,-2.179517272578146,-0.017352835470210937,0.006063878495529834,0.8204772441924847,,-0.055632369907319255,-0.0618370153981591,0.08432137115999999,-0.06574422517700301,,-4.2423606e-05,-9.536743e-07,-1.1920929e-07,1.0,3.30545e-05,2.9046088e-05,-3.30545e-05,1.0,3.516674e-06,-2.9046088e-05,-3.5464764e-06,1.0,56,0.169,0,0,0.0,False,-0.26202283349042155,0.994330717867806
0.19177963503170758,16:03:45.696710,16:03:35.656411,0,,0.12241314,-0.0008057356,0.03470792,0.6581119,0.54600775,-0.5184245,0.4998798,0.19804159,0.8431488,0.56303537,-0.81403625,-0.14260477,,0.06480467,-0.045325592,0.019725382,0.6496305,0.52259874,0.55215096,0.5954527,-0.8013055,0.057840943,0.47266924,0.29120457,-0.8317353,,0.106075004,1.3403084,0.44035286,0.9953717,0.013123866,-0.09519954,-0.052809525,-0.7529494,-0.65595603,-0.08028912,0.65794754,-0.7487715,,-0.09340501,0.26242277,-0.09404309,-0.66400295,-0.4547586,0.5935442,0.74772716,-0.40166444,0.52874357,-0.0020450854,0.7948964,0.6067417,,-0.033832934,0.38222623,-0.38332954,-0.6934074,-0.5375625,-0.4798049,0.65694976,-0.19812943,-0.72743505,0.2959783,-0.81961656,0.49053594,,1.2483566009197693,0.5461825597966542,0.19996569540000003,3.3229565343992573,-0.03333930594276747,-0.9299255084651814,-0.4064000365420867,,-0.9255927031744302,-0.41098839810047993,0.20150309534000002,-2.179517272578146,-0.017352835470210937,0.0059821997553893,0.8203139001263504,,-0.055632369907319255,-0.0618370153981591,0.08432137115999999,-0.06574422517700301,,-4.2423606e-05,-9.536743e-07,-1.1920929e-07,1.0,3.30545e-05,2.9046088e-05,-3.30545e-05,1.0,3.516674e-06,-2.9046088e-05,-3.5464764e-06,1.0,68,0.205,0,0,0.0,False,-0.2620824112089424,0.9946686792732624
0.21584102499764413,16:03:45.726430,16:03:35.656411,0,,0.12233566,-0.0008417368,0.034859672,0.6553048,0.5489386,-0.5188852,0.49965963,0.20016095,0.8427788,0.5664943,-0.811543,-0.14311606,,0.06480404,-0.045322552,0.019723594,0.6496274,0.5226098,0.55214417,0.59545475,-0.80130285,0.057856202,0.4726709,0.2911919,-0.8317388,,0.106075004,1.3403084,0.44035286,0.9953717,0.013123866,-0.09519954,-0.052809525,-0.7529494,-0.65595603,-0.08028912,0.65794754,-0.7487715,,-0.09334428,0.2624983,-0.09418779,-0.66153824,-0.4577228,0.5940177,0.7498943,-0.39842305,0.5281265,-0.0050652158,0.7948263,0.6068158,,-0.033832185,0.38222632,-0.38332605,-0.6934045,-0.53757244,-0.479798,0.6569525,-0.19813982,-0.72742975,0.29597908,-0.8196075,0.4905506,,1.2491906560701855,0.54617483706378,0.19975958529,3.318553045586082,-0.0364819454373726,-0.9297315801442401,-0.40721675687275827,,-0.9255849804415559,-0.4109729526347315,0.20150439163000003,-2.179517272578146,-0.017352835470210937,0.0059821997553893,0.8203139001263504,,-0.055632369907319255,-0.0618370153981591,0.08432137115999999,-0.06574422517700301,,-4.2423606e-05,-9.536743e-07,-1.1920929e-07,1.0,3.30545e-05,2.9046088e-05,-3.30545e-05,1.0,3.516674e-06,-2.9046088e-05,-3.5464764e-06,1.0,76,0.229,0,0,0.0,False,-0.26190367805337944,0.9945721188717032
0.24561300402274355,16:03:45.752880,16:03:35.765499,0,,0.122205436,-0.00089336187,0.035032526,0.6510627,0.5507096,-0.52233696,0.5025867,0.20291045,0.84037745,0.56879157,-0.80965805,-0.14467192,,0.06480412,-0.045324072,0.019723535,0.6496298,0.52260625,0.55214465,0.59545517,-0.80130315,0.057848513,0.47266728,0.2911973,-0.831739,,0.106075004,1.3403084,0.44035286,0.9953717,0.013123866,-0.09519954,-0.052809525,-0.7529494,-0.65595603,-0.08028912,0.65794754,-0.7487715,,-0.09323429,0.26257652,-0.09436465,-0.6572991,-0.45943215,0.5973943,0.7536112,-0.39512298,0.52530754,-0.005298974,0.7954872,0.6059472,,-0.03383225,0.3822255,-0.38332734,-0.6934065,-0.53756946,-0.47979835,0.65694934,-0.19813511,-0.72743386,0.29598135,-0.8196106,0.4905441,,1.2497312473713813,0.5461825597966542,0.19964291919000002,3.313310796998969,-0.036891854936668925,-0.9294790051732914,-0.407053412806624,,-0.9255849804415559,-0.41098067536760574,0.20150439163000003,-2.179517272578146,-0.017352835470210937,0.0059821997553893,0.8203139001263504,,-0.055632369907319255,-0.0618370153981591,0.08432137115999999,-0.06574422517700301,,-4.2423606e-05,-9.536743e-07,-1.1920929e-07,1.0,3.30545e-05,2.9046088e-05,-3.30545e-05,1.0,3.516674e-06,-2.9046088e-05,-3.5464764e-06,1.0,83,0.251,0,0,0.0,False,-0.2623802998015474,0.9945721188717032
0.272063386044465,16:03:45.769480,16:03:35.765499,0,,0.12213336,-0.00090833753,0.03512694,0.6441714,0.55495906,-0.526368,0.50665385,0.20595604,0.83718824,0.5730139,-0.8059792,-0.14850119,,0.06480429,-0.045327097,0.019723475,0.6496345,0.5225995,0.5521455,0.5954559,-0.80130374,0.057833076,0.47265983,0.2912079,-0.83173954,,0.106075004,1.3403084,0.44035286,0.9953717,0.013123866,-0.09519954,-0.052809525,-0.7529494,-0.65595603,-0.08028912,0.65794754,-0.7487715,,-0.09317223,0.26262903,-0.09445255,-0.6505098,-0.4637378,0.6014851,0.75947005,-0.39040053,0.5203774,-0.0064985906,0.7953205,0.6061543,,-0.03383238,0.3822239,-0.38332987,-0.69341063,-0.5375636,-0.47979903,0.65694296,-0.19812572,-0.7274422,0.2959859,-0.81961673,0.4905311,,1.2502100568095833,0.5461671143309058,0.19955477147000003,3.3040844394856506,-0.03825821993432332,-0.9285281836166083,-0.40672672467435544,,-0.9255849804415559,-0.4109961208333542,0.20150439163000003,-2.179517272578146,-0.017352835470210937,0.0059821997553893,0.8203139001263504,,-0.055632369907319255,-0.0618370153981591,0.08432137115999999,-0.06574422517700301,,-4.2423606e-05,-9.536743e-07,-1.1920929e-07,1.0,3.30545e-05,2.9046088e-05,-3.30545e-05,1.0,3.516674e-06,-2.9046088e-05,-3.5464764e-06,1.0,91,0.274,0,0,0.0,False,-0.2613079008681689,0.9946203990724829
0.2886694100452587,16:03:45.796714,16:03:35.765499,0,,0.122067586,-0.0009133145,0.0352052,0.6373566,0.5591057,-0.5302614,0.5104785,0.20912102,0.8340746,0.5772246,-0.80228996,-0.15212682,,0.06480545,-0.045327023,0.01972419,0.6496329,0.5225953,0.55215144,0.5954531,-0.80130583,0.057833225,0.47266552,0.29120994,-0.8317356,,0.106075004,1.3403084,0.44035286,0.9953717,0.013123866,-0.09519954,-0.052809525,-0.7529494,-0.65595603,-0.08028912,0.65794754,-0.7487715,,-0.09311421,0.2626781,-0.09452115,-0.6438144,-0.46793285,0.605427,0.76514155,-0.38558263,0.5156399,-0.007842686,0.79521376,0.6062785,,-0.033833597,0.38222447,-0.38333017,-0.6934095,-0.5375595,-0.47980523,0.6569466,-0.19812474,-0.7274392,0.29598057,-0.81961966,0.49052945,,1.2506579753162883,0.5461439461322831,0.19948606810000002,3.2950677719158152,-0.03976122143174317,-0.9277109803766505,-0.40591000434368407,,-0.9255927031744302,-0.4109961208333542,0.20150439163000003,-2.179517272578146,-0.017352835470210937,0.0059821997553893,0.8203139001263504,,-0.055632369907319255,-0.0618370153981591,0.08432137115999999,-0.06574422517700301,,-4.2423606e-05,-9.536743e-07,-1.1920929e-07,1.0,3.30545e-05,2.9046088e-05,-3.30545e-05,1.0,3.516674e-06,-2.9046088e-05,-3.5464764e-06,1.0,99,0.299,0,0,0.0,False,-0.2622015666459845,0.9945238386709241
0.31539448600960895,16:03:45.815981,16:03:35.765499,0,,0.12202564,-0.0009170696,0.035302624,0.62874246,0.5659554,-0.5332703,0.5138916,0.21227252,0.8311775,0.5836079,-0.79663974,-0.15737498,,0.06480553,-0.045328543,0.01972419,0.64963526,0.5225919,0.55215186,0.59545344,-0.80130607,0.057825565,0.4726618,0.29121524,-0.83173573,,0.106075004,1.3403084,0.44035286,0.9953717,0.013123866,-0.09519954,-0.052809525,-0.7529494,-0.65595603,-0.08028912,0.65794754,-0.7487715,,-0.09308147,0.26274088,-0.0946002,-0.6355565,-0.47498623,0.608651,0.77197206,-0.3794594,0.50997025,-0.011270521,0.7939765,0.607844,,-0.033833664,0.38222367,-0.38333145,-0.6934115,-0.5375566,-0.4798056,0.6569434,-0.19812004,-0.72744334,0.29598287,-0.8196227,0.49052295,,1.251028666494251,0.5461516688651573,0.19940699441,3.28416389485462,-0.043313770425644625,-0.9250591511009651,-0.4060733484098181,,-0.9255927031744302,-0.41100384356622843,0.20150439163000003,-2.179517272578146,-0.017352835470210937,0.0059821997553893,0.8203139001263504,,-0.055632369907319255,-0.0618370153981591,0.08432137115999999,-0.06574422517700301,,-4.2423606e-05,-9.536743e-07,-1.1920929e-07,1.0,3.30545e-05,2.9046088e-05,-3.30545e-05,1.0,3.516674e-06,-2.9046088e-05,-3.5464764e-06,1.0,107,0.323,0,0,0.0,False,-0.2626781883941529,0.9947169594740419
0.3351383419940248,16:03:45.842162,16:03:35.765499,0,,0.12198533,-0.00091730803,0.035492018,0.61655515,0.5790068,-0.53348905,0.51401734,0.21723142,0.8298174,0.5963605,-0.7858509,-0.16368446,,0.06480429,-0.045327097,0.019723475,0.6496345,0.5225995,0.5521455,0.5954559,-0.80130374,0.057833076,0.47265983,0.2912079,-0.83173954,,0.106075004,1.3403084,0.44035286,0.9953717,0.013123866,-0.09519954,-0.052809525,-0.7529494,-0.65595603,-0.08028912,0.65794754,-0.7487715,,-0.09305819,0.26286814,-0.094744265,-0.62457085,-0.48850995,0.60931873,0.78065836,-0.36855087,0.5047205,-0.02199607,0.79090345,0.6115455,,-0.03383238,0.3822239,-0.38332987,-0.69341063,-0.5375636,-0.47979903,0.65694296,-0.19812572,-0.7274422,0.2959859,-0.81961673,0.4905311,,1.2515924259940694,0.5461130552007862,0.19926440251000002,3.2699049786976726,-0.054244690406879854,-0.9193311896707335,-0.4062366924759525,,-0.9255849804415559,-0.4109961208333542,0.20150439163000003,-2.179517272578146,-0.017352835470210937,0.0059821997553893,0.8203139001263504,,-0.055632369907319255,-0.0618370153981591,0.08432137115999999,-0.06574422517700301,,-4.2423606e-05,-9.536743e-07,-1.1920929e-07,1.0,3.30545e-05,2.9046088e-05,-3.30545e-05,1.0,3.516674e-06,-2.9046088e-05,-3.5464764e-06,1.0,118,0.357,0,0,0.0,False,-0.26285692154971585,0.994330717867806
0.3613323860336095,16:03:45.873958,16:03:35.765499,0,,0.121936396,-0.00092507154,0.035670444,0.60396266,0.59126526,-0.53444755,0.5137644,0.22383311,0.8282181,0.60932356,-0.77479297,-0.1685842,,0.06480421,-0.045325577,0.019723475,0.6496321,0.5226029,0.55214506,0.59545547,-0.80130345,0.057840794,0.47266352,0.2912026,-0.83173925,,0.106075004,1.3403084,0.44035286,0.9953717,0.013123866,-0.09519954,-0.052809525,-0.7529494,-0.65595603,-0.08028912,0.65794754,-0.7487715,,-0.09302595,0.26298246,-0.094886325,-0.6132311,-0.5011411,0.61057776,0.7892065,-0.35624462,0.5002428,-0.03317719,0.78863645,0.6139641,,-0.033832315,0.3822247,-0.3833286,-0.69340855,-0.53756654,-0.47979867,0.6569461,-0.19813041,-0.72743803,0.29598364,-0.81961364,0.49053758,,1.2521484627610135,0.5459663232761759,0.19912569948000003,3.255436372597241,-0.06572215638717686,-0.9151178463890894,-0.4077067890711611,,-0.9255849804415559,-0.41098839810047993,0.20150439163000003,-2.179517272578146,-0.017352835470210937,0.0059821997553893,0.8203139001263504,,-0.055632369907319255,-0.0618370153981591,0.08432137115999999,-0.06574422517700301,,-4.2423606e-05,-9.536743e-07,-1.1920929e-07,1.0,3.30545e-05,2.9046088e-05,-3.30545e-05,1.0,3.516674e-06,-2.9046088e-05,-3.5464764e-06,1.0,122,0.369,0,0,0.0,False,-0.26160578946077395,0.9951032010802774
0.3931165109970607,16:03:45.899076,16:03:35.932880,0,,0.121872425,-0.00092472136,0.0358593,0.58706766,0.60883904,-0.5335413,0.514114,0.22870192,0.8266695,0.6253305,-0.759612,-0.1787492,,0.06480437,-0.045328602,0.019723475,0.64963686,0.5225961,0.55214596,0.59545624,-0.801304,0.057825416,0.47265616,0.29121324,-0.83173966,,0.106075004,1.3403084,0.44035286,0.9953717,0.013123866,-0.09519954,-0.052809525,-0.7529494,-0.65595603,-0.08028912,0.65794754,-0.7487715,,-0.09297907,0.26310983,-0.09503243,-0.59784055,-0.5195504,0.61045396,0.8002535,-0.34245488,0.492259,-0.046700414,0.78281033,0.62050545,,-0.033832442,0.3822231,-0.38333115,-0.69341266,-0.53756064,-0.47979936,0.6569398,-0.19812103,-0.7274463,0.2959882,-0.8196198,0.4905246,,1.2528203405210712,0.5457191958242007,0.19898181129000003,3.235725517909695,-0.07993235236278266,-0.9050006017271917,-0.40738010093889254,,-0.9255849804415559,-0.41100384356622843,0.20150439163000003,-2.179517272578146,-0.017352835470210937,0.0059821997553893,0.8203139001263504,,-0.055632369907319255,-0.0618370153981591,0.08432137115999999,-0.06574422517700301,,-4.2423606e-05,-9.536743e-07,-1.1920929e-07,1.0,3.30545e-05,2.9046088e-05,-3.30545e-05,1.0,3.516674e-06,-2.9046088e-05,-3.5464764e-06,1.0,134,0.405,0,0,0.0,False,-0.26148663402373185,0.9946686792732624
0.4180745980120264,16:03:45.927851,16:03:35.932880,0,,0.121800706,-0.0009265691,0.03596951,0.5751365,0.61836976,-0.5355713,0.51654404,0.23315653,0.8239056,0.63435024,-0.7505044,-0.18531838,,0.06480623,-0.045328453,0.019723058,0.64963526,0.5225919,0.55215186,0.59545344,-0.80130607,0.057825565,0.4726618,0.29121524,-0.83173573,,0.106075004,1.3403084,0.44035286,0.9953717,0.013123866,-0.09519954,-0.052809525,-0.7529494,-0.65595603,-0.08028912,0.65794754,-0.7487715,,-0.09291775,0.26318267,-0.0951231,-0.58659875,-0.52946913,0.612833,0.8081342,-0.33304554,0.48579812,-0.053113807,0.7802199,0.6232462,,-0.033834264,0.3822227,-0.3833308,-0.6934115,-0.5375566,-0.4798056,0.6569434,-0.19812004,-0.72744334,0.29598287,-0.8196227,0.49052295,,1.2533145954250215,0.5455415729680936,0.19889884873000002,3.2220956715832014,-0.08635426785175836,-0.9005807476548655,-0.40721675687275805,,-0.9255927031744302,-0.41100384356622843,0.20150568792,-2.179517272578146,-0.017352835470210937,0.0059821997553893,0.8203139001263504,,-0.055632369907319255,-0.0618370153981591,0.08432137115999999,-0.06574422517700301,,-4.2423606e-05,-9.536743e-07,-1.1920929e-07,1.0,3.30545e-05,2.9046088e-05,-3.30545e-05,1.0,3.516674e-06,-2.9046088e-05,-3.5464764e-06,1.0,142,0.43,0,0,0.0,False,-0.26309523242380006,0.9943789980685855
0.4470226860139519,16:03:45.953733,16:03:35.932880,0,,0.12165417,-0.000937134,0.036158487,0.5592792,0.6327882,-0.5355236,0.51782954,0.23778516,0.8217732,0.6473479,-0.7369106,-0.19468814,,0.06480576,-0.045328453,0.01972127,0.64963686,0.5225961,0.55214596,0.59545624,-0.801304,0.057825416,0.47265616,0.29121324,-0.83173966,,0.106075004,1.3403084,0.44035286,0.9953717,0.013123866,-0.09519954,-0.052809525,-0.7529494,-0.65595603,-0.08028912,0.65794754,-0.7487715,,-0.09278975,0.26330215,-0.09528632,-0.5718995,-0.544624,0.61344576,0.81784844,-0.3204968,0.47791818,-0.06367831,0.7750268,0.6287118,,-0.033833645,0.3822212,-0.38332987,-0.69341266,-0.53756064,-0.47979936,0.6569398,-0.19812103,-0.7274463,0.2959882,-0.8196198,0.4905246,,1.2543108279657964,0.5451708817901308,0.19874329393,3.2038526465000476,-0.09742182433275903,-0.891637576195596,-0.4068900687404896,,-0.9255849804415559,-0.41100384356622843,0.20150698421000002,-2.179517272578146,-0.017352835470210937,0.0059821997553893,0.8203139001263504,,-0.055632369907319255,-0.0618370153981591,0.08432137115999999,-0.06574422517700301,,-4.2423606e-05,-9.536743e-07,-1.1920929e-07,1.0,3.30545e-05,2.9046088e-05,-3.30545e-05,1.0,3.516674e-06,-2.9046088e-05,-3.5464764e-06,1.0,150,0.454,0,0,0.0,False,-0.26190367805337944,0.9948135198756005
0.47291731700534,16:03:45.968855,16:03:35.932880,0,,0.12160066,-0.00093755126,0.036233112,0.55457044,0.637893,-0.5343631,0.5173842,0.23862731,0.8218095,0.6517402,-0.7322222,-0.19770011,,0.06480496,-0.04532917,0.019720674,0.64971185,0.52265817,0.5519989,0.59546477,-0.80129707,0.057833284,0.47254223,0.29112098,-0.83183676,,0.106075004,1.3403084,0.44035286,0.9953717,0.013123866,-0.09519954,-0.052809525,-0.7529494,-0.65595603,-0.08028912,0.65794754,-0.7487715,,-0.09274324,0.2633521,-0.09534776,-0.56764644,-0.55004096,0.6125622,0.8204793,-0.31672713,0.47591776,-0.06775921,0.7727476,0.63108623,,-0.033832785,0.3822204,-0.38333023,-0.69347775,-0.53761464,-0.47964472,0.65684056,-0.19820154,-0.727514,0.29605588,-0.8195649,0.49057546,,1.2546969646095076,0.5450550407970175,0.19868496088,3.1986103979129346,-0.10165755582548769,-0.8878569062204447,-0.4068900687404896,,-0.9255849804415559,-0.41100384356622843,0.20150698421000002,-2.179517272578146,-0.017216198970445497,0.0058707818516928745,0.8203139001263504,,-0.055632369907319255,-0.0618370153981591,0.08432137115999999,-0.06574422517700301,,-4.2423606e-05,-9.536743e-07,-1.1920929e-07,1.0,3.30545e-05,2.9046088e-05,-3.30545e-05,1.0,3.516674e-06,-2.9046088e-05,-3.5464764e-06,1.0,165,0.501,0,0,0.0,False,-0.2622015666459845,0.9953446020841747
0.48804369498975575,16:03:46.017680,16:03:35.932880,0,,0.12123524,-0.000911437,0.036563084,0.53503716,0.658261,-0.52955395,0.5150747,0.24268165,0.82207286,0.6696515,-0.7125995,-0.20920986,,0.06480496,-0.04532917,0.019720674,0.64971185,0.52265817,0.5519989,0.59546477,-0.80129707,0.057833284,0.47254223,0.29112098,-0.83183676,,0.106075004,1.3403084,0.44035286,0.9953717,0.013123866,-0.09519954,-0.052809525,-0.7529494,-0.65595603,-0.08028912,0.65794754,-0.7487715,,-0.092407465,0.26359385,-0.09561593,-0.550013,-0.5716811,0.60882384,0.83084285,-0.30055645,0.46836522,-0.0847696,0.7634439,0.64028704,,-0.033832785,0.3822204,-0.38333023,-0.69347775,-0.53761464,-0.47964472,0.65684056,-0.19820154,-0.727514,0.29605588,-0.8195649,0.49057546,,1.2571296254648883,0.5443213811739661,0.19843348062000002,3.176592953847059,-0.11955693729476038,-0.872035979734105,-0.4070534128066239,,-0.9255849804415559,-0.41100384356622843,0.20150698421000002,-2.179517272578146,-0.017216198970445497,0.0058707818516928745,0.820640588258619,,-0.055632369907319255,-0.0618370153981591,0.08432137115999999,-0.06574422517700301,,-4.2423606e-05,-9.536743e-07,-1.1920929e-07,1.0,3.30545e-05,2.9046088e-05,-3.30545e-05,1.0,3.516674e-06,-2.9046088e-05,-3.5464764e-06,1.0,173,0.524,0,0,0.0,False,-0.2617249448978165,0.9949100802771598
0.536852243996691,16:03:46.048817,16:03:36.071913,0,,0.12096803,-0.0008918196,0.036668435,0.5261274,0.662909,-0.5326737,0.51662403,0.24838793,0.819392,0.67549205,-0.7062968,-0.21179098,,0.06480496,-0.04532917,0.019720674,0.64971185,0.52265817,0.5519989,0.59546477,-0.80129707,0.057833284,0.47254223,0.29112098,-0.83183676,,0.106075004,1.3403084,0.44035286,0.9953717,0.013123866,-0.09519954,-0.052809525,-0.7529494,-0.65595603,-0.08028912,0.65794754,-0.7487715,,-0.09214989,0.26367956,-0.095711775,-0.5415598,-0.57640535,0.6119394,0.8359294,-0.2921008,0.4646495,-0.08907847,0.76317364,0.64002424,,-0.033832785,0.3822204,-0.38333023,-0.69347775,-0.53761464,-0.47964472,0.65684056,-0.19820154,-0.727514,0.29605588,-0.8195649,0.49057546,,1.2586818947726075,0.5437498989412735,0.19834533290000003,3.165689076785864,-0.12447585128631626,-0.8703936186651101,-0.4068900687404895,,-0.9255849804415559,-0.41100384356622843,0.20150698421000002,-2.179517272578146,-0.017216198970445497,0.0058707818516928745,0.8209672763908875,,-0.055632369907319255,-0.0618370153981591,0.08432137115999999,-0.06574422517700301,,-4.2423606e-05,-9.536743e-07,-1.1920929e-07,1.0,3.30545e-05,2.9046088e-05,-3.30545e-05,1.0,3.516674e-06,-2.9046088e-05,-3.5464764e-06,1.0,181,0.549,0,0,0.0,False,-0.26255903295711036,0.9946203990724829
0.5679853429901414,16:03:46.068706,16:03:36.071913,0,,0.12077117,-0.000877738,0.036735967,0.5191994,0.66732305,-0.5339585,0.5177556,0.25147837,0.8177334,0.67997134,-0.70102674,-0.2149429,,0.06480496,-0.04532917,0.019720674,0.64971185,0.52265817,0.5519989,0.59546477,-0.80129707,0.057833284,0.47254223,0.29112098,-0.83183676,,0.106075004,1.3403084,0.44035286,0.9953717,0.013123866,-0.09519954,-0.052809525,-0.7529494,-0.65595603,-0.08028912,0.65794754,-0.7487715,,-0.091959275,0.26373568,-0.09577527,-0.53498703,-0.5810115,0.6133633,0.8397888,-0.28627527,0.4613039,-0.0924321,0.76188725,0.64108044,,-0.033832785,0.3822204,-0.38333023,-0.69347775,-0.53761464,-0.47964472,0.65684056,-0.19820154,-0.727514,0.29605588,-0.8195649,0.49057546,,1.2598016910393701,0.5432865349688201,0.19828829614000001,3.157301479046483,-0.1283016732797486,-0.867518953582032,-0.40672672467435533,,-0.9255849804415559,-0.41100384356622843,0.20150698421000002,-2.179517272578146,-0.017216198970445497,0.0058707818516928745,0.8209672763908875,,-0.055632369907319255,-0.0618370153981591,0.08432137115999999,-0.06574422517700301,,-4.2423606e-05,-9.536743e-07,-1.1920929e-07,1.0,3.30545e-05,2.9046088e-05,-3.30545e-05,1.0,3.516674e-06,-2.9046088e-05,-3.5464764e-06,1.0,189,0.573,0,0,0.0,False,-0.26196325577190027,0.99486180007638
0.587883178028278,16:03:46.097847,16:03:36.071913,0,,0.12049088,-0.0008678362,0.03680925,0.5118976,0.6725793,-0.53441334,0.5179302,0.25467867,0.8166317,0.68535316,-0.69482064,-0.21797979,,0.06480496,-0.04532917,0.019720674,0.64971185,0.5225679,0.5520843,0.59546477,-0.80130655,0.057702392,0.47254223,0.29125687,-0.83178926,,0.106075004,1.3403084,0.44035286,0.9953717,0.013123866,-0.09519954,-0.052809525,-0.7529494,-0.65595603,-0.08028912,0.65794754,-0.7487715,,-0.09168664,0.26379266,-0.09585559,-0.528198,-0.5865279,0.6139967,0.8435474,-0.27973995,0.45844668,-0.09713234,0.76008594,0.64252216,,-0.033832785,0.3822204,-0.38333023,-0.69347775,-0.5375363,-0.47973254,0.65684056,-0.1980827,-0.7275464,0.29605588,-0.81964505,0.4904416,,1.261346237614215,0.5425219844142718,0.19821829648000003,3.148494501420133,-0.1337671332703662,-0.8636339886151589,-0.4075434450050267,,-0.9255849804415559,-0.41100384356622843,0.20150698421000002,-2.179517272578146,-0.017216198970445497,0.006034139331973998,0.820640588258619,,-0.055632369907319255,-0.0618370153981591,0.08432137115999999,-0.06574422517700301,,-4.2423606e-05,-9.536743e-07,-1.1920929e-07,1.0,3.30545e-05,2.9046088e-05,-3.30545e-05,1.0,3.516674e-06,-2.9046088e-05,-3.5464764e-06,1.0,204,0.619,0,0,0.0,False,-0.2621419889274632,0.9948135198756005
0.6170354140340351,16:03:46.146584,16:03:36.071913,0,,0.12008475,-0.0008923039,0.0368848,0.4992548,0.68259764,-0.53367114,0.5167321,0.2598432,0.81576324,0.69550884,-0.6830388,-0.22299215,,0.06480415,-0.04532993,0.019720078,0.64978695,0.5226751,0.55189466,0.5954733,-0.8012949,0.057775766,0.47242832,0.29109663,-0.83191,,0.106075004,1.3403084,0.44035286,0.9953717,0.013123866,-0.09519954,-0.052809525,-0.7529494,-0.65595603,-0.08028912,0.65794754,-0.7487715,,-0.09129195,0.26382592,-0.09597542,-0.5166345,-0.5971112,0.6136342,0.8495079,-0.26800734,0.4544319,-0.10688791,0.7560623,0.64571255,,-0.03383192,0.38221955,-0.3833306,-0.6935429,-0.5376295,-0.47953397,0.65674126,-0.19822265,-0.7275979,0.29612356,-0.8195501,0.4905594,,1.2634004845587588,0.5410392197024207,0.19811977844000003,3.1340258953197013,-0.1449713262511323,-0.8562946527951449,-0.4075434450050267,,-0.9255849804415559,-0.41100384356622843,0.20150698421000002,-2.179517272578146,-0.017079562470680057,0.005841042688136983,0.8204772441924847,,-0.055632369907319255,-0.0618370153981591,0.08432137115999999,-0.06574422517700301,,-4.2423606e-05,-9.536743e-07,-1.1920929e-07,1.0,3.30545e-05,2.9046088e-05,-3.30545e-05,1.0,3.516674e-06,-2.9046088e-05,-3.5464764e-06,1.0,212,0.644,0,0,0.0,False,-0.261427056305211,0.9951032010802774
0.6657460120040923,16:03:46.166827,16:03:36.071913,0,,0.11997056,-0.0009069368,0.036909774,0.4943358,0.6875193,-0.53192955,0.515365,0.26098382,0.81626374,0.7000221,-0.67764634,-0.22530982,,0.06480415,-0.04532993,0.019720078,0.64978695,0.52272016,0.551852,0.5954733,-0.80129015,0.05784124,0.47242832,0.29102865,-0.83193374,,0.106075004,1.3403084,0.44035286,0.9953717,0.013123866,-0.09519954,-0.052809525,-0.7529494,-0.65595603,-0.08028912,0.65794754,-0.7487715,,-0.091181904,0.26383203,-0.09601703,-0.5122558,-0.60238516,0.61214876,0.8515383,-0.26354307,0.45324114,-0.111698195,0.75344354,0.64795554,,-0.03383192,0.38221955,-0.3833306,-0.6935429,-0.53766865,-0.47949007,0.65674126,-0.19828208,-0.7275817,0.29612356,-0.81951,0.49062634,,1.2639487985928286,0.5405063511340992,0.19808737119000003,3.128783646732588,-0.1503001497419845,-0.8521943907714062,-0.4070534128066239,,-0.9255849804415559,-0.41100384356622843,0.20150698421000002,-2.179517272578146,-0.017079562470680057,0.005759363947996449,0.8203139001263504,,-0.055632369907319255,-0.0618370153981591,0.08432137115999999,-0.06574422517700301,,-4.2423606e-05,-9.536743e-07,-1.1920929e-07,1.0,3.30545e-05,2.9046088e-05,-3.30545e-05,1.0,3.516674e-06,-2.9046088e-05,-3.5464764e-06,1.0,220,0.667,0,0,0.0,False,-0.2616653671792948,0.9949100802771598
0.685985675023403,16:03:46.186354,16:03:36.071913,0,,0.11988185,-0.00092545897,0.036938444,0.48628205,0.69348973,-0.5316027,0.51550406,0.26354203,0.8153535,0.70553887,-0.67053527,-0.22934109,,0.06480345,-0.045329973,0.01972121,0.64978695,0.5226751,0.55189466,0.5954733,-0.8012949,0.057775766,0.47242832,0.29109663,-0.83191,,0.106075004,1.3403084,0.44035286,0.9953717,0.013123866,-0.09519954,-0.052809525,-0.7529494,-0.65595603,-0.08028912,0.65794754,-0.7487715,,-0.091097794,0.26383772,-0.09606093,-0.50473475,-0.60874104,0.61210877,0.8553624,-0.25687516,0.4498558,-0.11661014,0.7506327,0.65034807,,-0.033831317,0.3822205,-0.38333124,-0.6935429,-0.5376295,-0.47953397,0.65674126,-0.19822265,-0.7275979,0.29612356,-0.8195501,0.4905594,,1.2643272125036655,0.5400429871616458,0.19805237136,3.119976669106238,-0.15562897323283667,-0.8478490925272458,-0.4070534128066239,,-0.9255849804415559,-0.41100384356622843,0.20150568792,-2.179517272578146,-0.017079562470680057,0.005841042688136983,0.8204772441924847,,-0.055632369907319255,-0.0618370153981591,0.08432137115999999,-0.06574422517700301,,-4.2423606e-05,-9.536743e-07,-1.1920929e-07,1.0,3.30545e-05,2.9046088e-05,-3.30545e-05,1.0,3.516674e-06,-2.9046088e-05,-3.5464764e-06,1.0,228,0.692,0,0,0.0,False,-0.2618441003348577,0.9947169594740419
0.7055441430420615,16:03:46.216645,16:03:36.242690,0,,0.11983466,-0.00095403194,0.03700702,0.4744419,0.70338506,-0.5292959,0.51412106,0.26666418,0.81521153,0.71455187,-0.6588928,-0.23510855,,0.06476913,-0.045345396,0.019717395,0.64982086,0.5225776,0.55194694,0.59543264,-0.8013324,0.05767545,0.47243288,0.2911685,-0.83188224,,0.10611699,1.3403047,0.44034794,0.9953711,0.0131152775,-0.09520702,-0.05282088,-0.75294954,-0.65595496,-0.08028912,0.65794754,-0.7487715,,-0.09110008,0.26386338,-0.096137665,-0.49387547,-0.61934674,0.61032504,0.8604207,-0.24674165,0.4458641,-0.12555186,0.74533767,0.6547584,,-0.033838626,0.38221204,-0.38334602,-0.6935689,-0.5375459,-0.47959,0.656728,-0.1981685,-0.7276246,0.296092,-0.819618,0.490465,,1.26468245821588,0.5395410095248211,0.19800181605000003,3.107604962440651,-0.16505689171665208,-0.8401612571721927,-0.4070534128066239,,-0.9255927031744302,-0.41100384356622843,0.20150568792,-2.179517272578146,-0.017079562470680057,0.005922721428277572,0.820640588258619,,-0.055632369907319255,-0.0618370153981591,0.08432137115999999,-0.06574422517700301,,-4.4703484e-08,-8.940697e-07,2.026558e-06,1.0,2.4508685e-05,2.1539629e-05,-2.4516135e-05,1.0,2.592802e-06,-2.1539629e-05,-2.6524067e-06,1.0,236,0.717,0,0,0.0,False,-0.26160578946077395,0.994765239674821
0.7358341829967685,16:03:46.238938,16:03:36.242690,0,,0.11978568,-0.0009576529,0.037078306,0.45968962,0.7132932,-0.5290538,0.5144603,0.27170315,0.8133315,0.72388935,-0.64605737,-0.24206212,,0.064769045,-0.04534392,0.019717455,0.6498185,0.5225809,0.5519465,0.5954323,-0.8013321,0.05768317,0.47243655,0.29116315,-0.831882,,0.10611699,1.3403047,0.44034794,0.9953711,0.0131152775,-0.09520702,-0.05282088,-0.75294954,-0.65595496,-0.08028912,0.65794754,-0.7487715,,-0.09105803,0.26390874,-0.09619825,-0.4800245,-0.6299236,0.6105512,0.8669715,-0.23439312,0.4397957,-0.1339287,0.74044317,0.65864027,,-0.033838563,0.38221285,-0.38334477,-0.69356686,-0.53754884,-0.47958964,0.6567312,-0.1981732,-0.7276204,0.29608974,-0.8196149,0.49047148,,1.2648832492706097,0.5392166547441037,0.19795385332,3.0918782166793113,-0.1736649912018748,-0.8331419292393182,-0.4070534128066239,,-0.9255927031744302,-0.4109961208333542,0.20150568792,-2.179517272578146,-0.017079562470680057,0.005922721428277572,0.820640588258619,,-0.055632369907319255,-0.0618370153981591,0.08432137115999999,-0.06574422517700301,,-4.4703484e-08,-8.940697e-07,2.026558e-06,1.0,2.4508685e-05,2.1539629e-05,-2.4516135e-05,1.0,2.592802e-06,-2.1539629e-05,-2.6524067e-06,1.0,251,0.763,0,0,0.0,False,-0.26101001227556386,0.9952963218833952
0.7580781319993548,16:03:46.278567,16:03:36.242690,0,,0.11972126,-0.0009591654,0.037238017,0.43348548,0.7305551,-0.5276165,0.51393294,0.28052413,0.81066597,0.7402454,-0.6225716,-0.25385326,,0.06477021,-0.04534386,0.01971823,0.6498169,0.52257675,0.5519524,0.5954294,-0.80133414,0.05768332,0.47244233,0.29116514,-0.83187807,,0.10611699,1.3403047,0.44034794,0.9953711,0.0131152775,-0.09520702,-0.05282088,-0.75294954,-0.65595496,-0.08028912,0.65794754,-0.7487715,,-0.09100828,0.2640151,-0.09632421,-0.45548964,-0.64844644,0.609956,0.8776164,-0.21209247,0.42989093,-0.14939415,0.7311183,0.66569316,,-0.033839785,0.3822134,-0.38334507,-0.6935657,-0.5375448,-0.47959587,0.6567348,-0.19817221,-0.72761744,0.29608437,-0.8196178,0.4904698,,1.2651612676540818,0.5388073499017698,0.19785144641000002,3.0644088340828386,-0.18937818867490044,-0.8201655128339486,-0.40672672467435533,,-0.9256004259073044,-0.4109961208333542,0.20150568792,-2.179517272578146,-0.017079562470680057,0.005922721428277572,0.820640588258619,,-0.055632369907319255,-0.0618370153981591,0.08432137115999999,-0.06574422517700301,,-4.4703484e-08,-8.940697e-07,2.026558e-06,1.0,2.4508685e-05,2.1539629e-05,-2.4516135e-05,1.0,2.592802e-06,-2.1539629e-05,-2.6524067e-06,1.0,259,0.786,0,0,0.0,False,-0.2608908568385213,0.9950066406787184
0.7977099730051123,16:03:46.306477,16:03:36.242690,0,,0.11967966,-0.00096802413,0.03738801,0.41887042,0.74254024,-0.5226674,0.5101017,0.2837757,0.811953,0.75122815,-0.6067168,-0.2599059,,0.06477021,-0.04534386,0.01971823,0.6498169,0.52257675,0.5519524,0.5954294,-0.80133414,0.05768332,0.47244233,0.29116514,-0.83187807,,0.10611699,1.3403047,0.44034794,0.9953711,0.0131152775,-0.09520702,-0.05282088,-0.75294954,-0.65595496,-0.08028912,0.65794754,-0.7487715,,-0.09098091,0.2641095,-0.09644525,-0.44224745,-0.6614926,0.6056771,0.88218725,-0.19903873,0.426766,-0.16174935,0.7230568,0.67158467,,-0.033839785,0.3822134,-0.38334507,-0.6935657,-0.5375448,-0.47959587,0.6567348,-0.19817221,-0.72761744,0.29608437,-0.8196178,0.4904698,,1.2654006723731828,0.5385524997169204,0.19775033579,3.0499402279824066,-0.20194874665332097,-0.8094249932530344,-0.40607334840981824,,-0.9256004259073044,-0.4109961208333542,0.20150568792,-2.179517272578146,-0.017079562470680057,0.005922721428277572,0.820640588258619,,-0.055632369907319255,-0.0618370153981591,0.08432137115999999,-0.06574422517700301,,-4.4703484e-08,-8.940697e-07,2.026558e-06,1.0,2.4508685e-05,2.1539629e-05,-2.4516135e-05,1.0,2.592802e-06,-2.1539629e-05,-2.6524067e-06,1.0,267,0.811,0,0,0.0,False,-0.2617249448978165,0.9945721188717032
0.8256466580205597,16:03:46.331486,16:03:36.242690,0,,0.11959392,-0.0009974763,0.037557974,0.40083274,0.7537349,-0.52078456,0.5086366,0.28970644,0.8107768,0.7619854,-0.5898761,-0.26725343,,0.06477012,-0.04534234,0.01971823,0.64981455,0.5226703,0.5518666,0.59542906,-0.8013244,0.05782196,0.472446,0.2910239,-0.83192533,,0.10611699,1.3403047,0.44034794,0.9953711,0.0131152775,-0.09520702,-0.05282088,-0.75294954,-0.65595496,-0.08028912,0.65794754,-0.7487715,,-0.090913095,0.26420212,-0.09659992,-0.425401,-0.6736306,0.604364,0.888362,-0.1833382,0.42095143,-0.17276277,0.7159671,0.67642003,,-0.03383972,0.38221422,-0.3833438,-0.6935637,-0.5376261,-0.4795077,0.656738,-0.19829577,-0.7275809,0.2960821,-0.8195346,0.4906102,,1.265786809016894,0.5382435904019515,0.19761552163,3.0312778230122843,-0.2131529396340871,-0.7997986527090843,-0.4064000365420868,,-0.9256004259073044,-0.41098839810047993,0.20150568792,-2.179517272578146,-0.017079562470680057,0.005759363947996449,0.820640588258619,,-0.055632369907319255,-0.0618370153981591,0.08432137115999999,-0.06574422517700301,,-4.4703484e-08,-8.940697e-07,2.026558e-06,1.0,2.4508685e-05,2.1539629e-05,-2.4516135e-05,1.0,2.592802e-06,-2.1539629e-05,-2.6524067e-06,1.0,275,0.835,0,0,0.0,False,-0.2621419889274632,0.9942824376670267
0.850647218991071,16:03:46.358181,16:03:36.242690,0,,0.11952883,-0.0010180101,0.03766845,0.39133927,0.75999033,-0.5189104,0.506841,0.2926474,0.81084514,0.7680923,-0.5803207,-0.27066988,,0.064769045,-0.04534392,0.019717455,0.6498185,0.522626,0.55190384,0.5954323,-0.80132735,0.057748646,0.47243655,0.29109523,-0.8319058,,0.10611699,1.3403047,0.44034794,0.9953711,0.0131152775,-0.09520702,-0.05282088,-0.75294954,-0.65595496,-0.08028912,0.65794754,-0.7487715,,-0.09085983,0.26426134,-0.09670254,-0.41665426,-0.68045527,0.60280997,0.891153,-0.17474346,0.4187017,-0.17957067,0.7116497,0.6791973,,-0.033838563,0.38221285,-0.38334477,-0.69356686,-0.537588,-0.47954574,0.6567312,-0.19823262,-0.72760427,0.29608974,-0.81957483,0.49053842,,1.2661034410647372,0.5380273538814732,0.19752607762000002,3.021632085611996,-0.22012140112212455,-0.7940346608804264,-0.4062366924759524,,-0.9255927031744302,-0.4109961208333542,0.20150568792,-2.179517272578146,-0.017079562470680057,0.005841042688136983,0.8204772441924847,,-0.055632369907319255,-0.0618370153981591,0.08432137115999999,-0.06574422517700301,,-4.4703484e-08,-8.940697e-07,2.026558e-06,1.0,2.4508685e-05,2.1539629e-05,-2.4516135e-05,1.0,2.592802e-06,-2.1539629e-05,-2.6524067e-06,1.0,283,0.86,0,0,0.0,False,-0.26154621174225356,0.9940893168639089
0.8773679310106672,16:03:46.389903,16:03:36.424122,0,,0.119413435,-0.0010517165,0.037845895,0.37857267,0.76882493,-0.5153549,0.50319517,0.29636332,0.81176573,0.77683806,-0.56663644,-0.27467394,,0.06477021,-0.04534386,0.01971823,0.6498169,0.52257675,0.5519524,0.5954294,-0.80133414,0.05768332,0.47244233,0.29116514,-0.83187807,,0.10611699,1.3403047,0.44034794,0.9953711,0.0131152775,-0.09520702,-0.05282088,-0.75294954,-0.65595496,-0.08028912,0.65794754,-0.7487715,,-0.09076356,0.26435587,-0.096869044,-0.40503547,-0.69014484,0.5997052,0.894354,-0.16280176,0.41668522,-0.1899401,0.70512104,0.68317425,,-0.033839785,0.3822134,-0.38334507,-0.6935657,-0.5375448,-0.47959587,0.6567348,-0.19817221,-0.72761744,0.29608437,-0.8196178,0.4904698,,1.2666903687631783,0.5376721081692588,0.19738089314,3.00884099905944,-0.23077904810382893,-0.785425743132246,-0.4064000365420868,,-0.9256004259073044,-0.4109961208333542,0.20150568792,-2.179517272578146,-0.017079562470680057,0.005922721428277572,0.8203139001263504,,-0.055632369907319255,-0.0618370153981591,0.08432137115999999,-0.06574422517700301,,-4.4703484e-08,-8.940697e-07,2.026558e-06,1.0,2.4508685e-05,2.1539629e-05,-2.4516135e-05,1.0,2.592802e-06,-2.1539629e-05,-2.6524067e-06,1.0,294,0.894,0,0,0.0,False,-0.26059296824591627,0.993799635659232
0.9089706290396862,16:03:46.412656,16:03:36.424122,0,,0.119277224,-0.0010804757,0.038011745,0.36262253,0.7770959,-0.5144186,0.501415,0.30259627,0.81056684,0.7855494,-0.5518671,-0.2799194,,0.06477012,-0.04534234,0.01971823,0.64981455,0.522535,0.5519947,0.59542906,-0.80133855,0.05762559,0.472446,0.29122776,-0.83185405,,0.10611699,1.3403047,0.44034794,0.9953711,0.0131152775,-0.09520702,-0.05282088,-0.75294954,-0.65595496,-0.08028912,0.65794754,-0.7487715,,-0.0906452,0.26444632,-0.09702621,-0.39010602,-0.69917303,0.5991447,0.8989168,-0.14826679,0.41226888,-0.19941403,0.6994098,0.6863381,,-0.03383972,0.38221422,-0.3833438,-0.6935637,-0.53750855,-0.47963944,0.656738,-0.19811748,-0.7276295,0.2960821,-0.8196548,0.49040937,,1.2673236328588646,0.5372936942584218,0.19724478269,2.9922754935241627,-0.24048023958717518,-0.7777601081902219,-0.4068900687404895,,-0.9256004259073044,-0.41098839810047993,0.20150568792,-2.179517272578146,-0.017079562470680057,0.006004400168418134,0.820150556060216,,-0.055632369907319255,-0.0618370153981591,0.08432137115999999,-0.06574422517700301,,-4.4703484e-08,-8.940697e-07,2.026558e-06,1.0,2.4508685e-05,2.1539629e-05,-2.4516135e-05,1.0,2.592802e-06,-2.1539629e-05,-2.6524067e-06,1.0,302,0.917,0,0,0.0,False,-0.26160578946077395,0.9938479158600115
0.9318384419893846,16:03:46.436010,16:03:36.424122,0,,0.11918427,-0.0011008307,0.038127914,0.35013574,0.7829741,-0.5141557,0.5004583,0.30762202,0.80926526,0.7917995,-0.5406663,-0.2841366,,0.06476931,-0.0453431,0.019717634,0.6498895,0.5225971,0.55184764,0.59543765,-0.8013317,0.05763349,0.47233212,0.29113546,-0.831951,,0.10611699,1.3403047,0.44034794,0.9953711,0.0131152775,-0.09520702,-0.05282088,-0.75294954,-0.65595496,-0.08028912,0.65794754,-0.7487715,,-0.09056476,0.2645095,-0.09713614,-0.37833366,-0.70560485,0.5991539,0.902429,-0.1370221,0.408469,-0.2061204,0.6952314,0.68859833,,-0.033838857,0.3822134,-0.38334414,-0.6936288,-0.53756255,-0.47948477,0.65663874,-0.19819802,-0.72769713,0.2961498,-0.8195999,0.49046025,,1.2677252149683245,0.5370388440735724,0.19715015352,2.979274717028122,-0.24731206457544722,-0.7721892130054008,-0.4068900687404895,,-0.9256004259073044,-0.41098839810047993,0.20150568792,-2.179517272578146,-0.016942925970914614,0.005892982264721708,0.820150556060216,,-0.055632369907319255,-0.0618370153981591,0.08432137115999999,-0.06574422517700301,,-4.4703484e-08,-8.940697e-07,2.026558e-06,1.0,2.4508685e-05,2.1539629e-05,-2.4516135e-05,1.0,2.592802e-06,-2.1539629e-05,-2.6524067e-06,1.0,310,0.942,0,0,0.0,False,-0.26178452261633733,0.9932685534506578
0.9551980349933729,16:03:46.467398,16:03:36.424122,0,,0.11906548,-0.0011284724,0.038332388,0.32865816,0.7924204,-0.5138614,0.4988839,0.31632426,0.80687916,0.8019343,-0.52154475,-0.29136333,,0.06476823,-0.045344636,0.019716859,0.6498935,0.52255285,0.55188483,0.59544075,-0.8013346,0.057560205,0.47232267,0.29120678,-0.8319314,,0.10611699,1.3403047,0.44034794,0.9953711,0.0131152775,-0.09520702,-0.05282088,-0.75294954,-0.65595496,-0.08028912,0.65794754,-0.7487715,,-0.09046702,0.26462674,-0.097318865,-0.35802507,-0.7159906,0.59931254,0.9081087,-0.117734134,0.40184233,-0.21715577,0.6881106,0.6923491,,-0.033837702,0.38221204,-0.38334513,-0.69363195,-0.5375245,-0.4795228,0.65663195,-0.19813487,-0.72772044,0.2961574,-0.81964016,0.49038845,,1.2682194698722749,0.5367917166215972,0.19699200614,2.9570475830187624,-0.25837962105644785,-0.7629193265855689,-0.40672672467435544,,-0.9255927031744302,-0.4109961208333542,0.20150568792,-2.179517272578146,-0.016942925970914614,0.005974661004862242,0.8193338357295448,,-0.055632369907319255,-0.0618370153981591,0.08432137115999999,-0.06574422517700301,,-4.4703484e-08,-8.940697e-07,2.026558e-06,1.0,2.4508685e-05,2.1539629e-05,-2.4516135e-05,1.0,2.592802e-06,-2.1539629e-05,-2.6524067e-06,1.0,318,0.966,0,0,0.0,False,-0.26273776611267374,0.9933168336514373
0.9865844910382293,16:03:46.490313,16:03:36.424122,0,,0.11899266,-0.0011590272,0.03844811,0.3164068,0.797777,-0.5132624,0.4985315,0.32047987,0.80545586,0.8070645,-0.5107293,-0.29631507,,0.064768314,-0.045346156,0.019716859,0.64989585,0.5225043,0.551928,0.5954411,-0.80133957,0.05748707,0.47231895,0.29128006,-0.83190787,,0.10611699,1.3403047,0.44034794,0.9953711,0.0131152775,-0.09520702,-0.05282088,-0.75294954,-0.65595496,-0.08028912,0.65794754,-0.7487715,,-0.09040732,0.26468205,-0.09743291,-0.34634015,-0.7219387,0.59904337,0.91131455,-0.10739188,0.39745784,-0.22260782,0.68357253,0.6951074,,-0.033837765,0.38221124,-0.3833464,-0.693634,-0.5374824,-0.47956705,0.6566287,-0.19807072,-0.72774076,0.29615968,-0.81968325,0.490315,,1.2684820427899983,0.5366295392312385,0.19689089552000003,2.9442564964662066,-0.2638450810470655,-0.7568290356349009,-0.4067267246743552,,-0.9255927031744302,-0.41100384356622843,0.20150568792,-2.179517272578146,-0.016942925970914614,0.006056339745002831,0.8191704916634104,,-0.055632369907319255,-0.0618370153981591,0.08432137115999999,-0.06574422517700301,,-4.4703484e-08,-8.940697e-07,2.026558e-06,1.0,2.4508685e-05,2.1539629e-05,-2.4516135e-05,1.0,2.592802e-06,-2.1539629e-05,-2.6524067e-06,1.0,326,0.991,0,0,0.0,False,-0.2622611443645053,0.99307543264754
1.0094976320397109,16:03:46.513156,16:03:36.424122,0,,0.11890353,-0.0012316257,0.038629606,0.3066412,0.8044635,-0.50873315,0.49615294,0.3210294,0.8067047,0.8122828,-0.49977845,-0.3006962,,0.06476751,-0.04534687,0.019716263,0.6499708,0.52252126,0.5518236,0.59544957,-0.80133736,0.057429492,0.47220504,0.29125568,-0.83198106,,0.10611699,1.3403047,0.44034794,0.9953711,0.0131152775,-0.09520702,-0.05282088,-0.75294954,-0.65595496,-0.08028912,0.65794754,-0.7487715,,-0.090340555,0.2647505,-0.09762528,-0.33729044,-0.7295024,0.59503067,0.913077,-0.099628925,0.39542943,-0.22918443,0.67668337,0.6996957,,-0.0338369,0.3822104,-0.38334677,-0.69369906,-0.5374972,-0.47945628,0.6565295,-0.19809183,-0.7278246,0.29622734,-0.8196684,0.4902989,,1.2688527339679612,0.5364287481765087,0.19671460008000002,2.934401069122434,-0.2705402695355721,-0.7476940150474509,-0.4068900687404896,,-0.9255927031744302,-0.41100384356622843,0.20150568792,-2.179517272578146,-0.016806289471149174,0.006026600581446939,0.8190071475972762,,-0.055632369907319255,-0.0618370153981591,0.08432137115999999,-0.06574422517700301,,-4.4703484e-08,-8.940697e-07,2.026558e-06,1.0,2.4508685e-05,2.1539629e-05,-2.4516135e-05,1.0,2.592802e-06,-2.1539629e-05,-2.6524067e-06,1.0,334,1.016,0,0,0.0,False,-0.2616653671792948,0.9932685534506578
1.0322803790331818,16:03:46.538018,16:03:36.424122,0,,0.11883256,-0.0012828037,0.038828745,0.29445764,0.8116334,-0.50452507,0.49306017,0.3232164,0.8077271,0.8186491,-0.48660275,-0.30501074,,0.06476867,-0.045346856,0.019716978,0.6499693,0.5225171,0.5518296,0.5954468,-0.80133945,0.05742964,0.47221076,0.29125765,-0.8319771,,0.10611699,1.3403047,0.44034794,0.9953711,0.0131152775,-0.09520702,-0.05282088,-0.75294954,-0.65595496,-0.08028912,0.65794754,-0.7487715,,-0.09029167,0.26484665,-0.09781417,-0.3259971,-0.737614,0.59131336,0.91508615,-0.08915847,0.39327863,-0.23736723,0.6693104,0.7040458,,-0.033838123,0.38221097,-0.38334706,-0.6936979,-0.53749317,-0.4794625,0.65653306,-0.19809085,-0.72782165,0.296222,-0.81967133,0.49029726,,1.2691616432829302,0.5363437981148922,0.19654478609,2.9222390524003314,-0.27873845952149856,-0.738313542401027,-0.40672672467435533,,-0.9256004259073044,-0.41100384356622843,0.20150568792,-2.179517272578146,-0.016806289471149174,0.006026600581446939,0.8190071475972762,,-0.055632369907319255,-0.0618370153981591,0.08432137115999999,-0.06574422517700301,,-4.4703484e-08,-8.940697e-07,2.026558e-06,1.0,2.4508685e-05,2.1539629e-05,-2.4516135e-05,1.0,2.592802e-06,-2.1539629e-05,-2.6524067e-06,1.0,346,1.052,0,0,0.0,False,-0.26196325577190027,0.9932202732498787
1.0572058529942296,16:03:46.569635,16:03:36.579928,0,,0.11875518,-0.0013293847,0.039100096,0.28147635,0.81991565,-0.49850678,0.48664826,0.32576814,0.8105854,0.8270093,-0.47075826,-0.30731463,,0.06476859,-0.045345336,0.019717038,0.6499669,0.5225204,0.5518291,0.59544647,-0.8013392,0.05743736,0.47221446,0.29125232,-0.83197695,,0.10611699,1.3403047,0.44034794,0.9953711,0.0131152775,-0.09520702,-0.05282088,-0.75294954,-0.65595496,-0.08028912,0.65794754,-0.7487715,,-0.09024245,0.2649948,-0.0980538,-0.3143482,-0.7470372,0.585765,0.9159812,-0.07662464,0.3938364,-0.24932641,0.6603515,0.7083588,,-0.03383806,0.3822118,-0.38334578,-0.6936959,-0.5374961,-0.47946215,0.6565363,-0.19809555,-0.7278175,0.29621974,-0.8196683,0.49030375,,1.2695863935910126,0.5363129071833953,0.19633349082,2.9098673457347446,-0.29076247150085727,-0.7276103007341959,-0.4068900687404896,,-0.9256004259073044,-0.4109961208333542,0.20150568792,-2.179517272578146,-0.016806289471149174,0.006026600581446939,0.8190071475972762,,-0.055632369907319255,-0.0618370153981591,0.08432137115999999,-0.06574422517700301,,-4.4703484e-08,-8.940697e-07,2.026558e-06,1.0,2.4508685e-05,2.1539629e-05,-2.4516135e-05,1.0,2.592802e-06,-2.1539629e-05,-2.6524067e-06,1.0,350,1.065,0,0,0.0,False,-0.26190367805337944,0.992737471242084
1.0888244209927507,16:03:46.594524,16:03:36.579928,0,,0.1186495,-0.0013662502,0.03937526,0.2627891,0.829195,-0.4933326,0.4795574,0.33142716,0.8125152,0.8372375,-0.45010152,-0.3105513,,0.06476743,-0.045345366,0.019716263,0.64996845,0.5225698,0.5517805,0.59544927,-0.8013324,0.057502627,0.47220874,0.29118246,-0.8320046,,0.10611699,1.3403047,0.44034794,0.9953711,0.0131152775,-0.09520702,-0.05282088,-0.75294954,-0.65595496,-0.08028912,0.65794754,-0.7487715,,-0.090164706,0.26515272,-0.098293096,-0.2972515,-0.7576317,0.5810643,0.9176376,-0.058556117,0.39308074,-0.26378557,0.6500502,0.71263725,,-0.033836838,0.3822112,-0.38334548,-0.69369704,-0.53753936,-0.47941202,0.65653265,-0.19815597,-0.7278043,0.29622507,-0.8196253,0.49037233,,1.270049757563466,0.5361584525259108,0.19613126958000002,2.891624320651591,-0.3053825769757594,-0.7155252275583975,-0.4068900687404896,,-0.9255927031744302,-0.4109961208333542,0.20150568792,-2.179517272578146,-0.016806289471149174,0.005944921841306405,0.818843803531142,,-0.055632369907319255,-0.0618370153981591,0.08432137115999999,-0.06574422517700301,,-4.4703484e-08,-8.940697e-07,2.026558e-06,1.0,2.4508685e-05,2.1539629e-05,-2.4516135e-05,1.0,2.592802e-06,-2.1539629e-05,-2.6524067e-06,1.0,362,1.102,0,0,0.0,False,-0.26101001227556386,0.9933168336514373
1.1137050589895807,16:03:46.631109,16:03:36.579928,0,,0.11852135,-0.0014369041,0.039618596,0.24757047,0.83704406,-0.4879199,0.47503707,0.33404365,0.8140975,0.84442204,-0.43332666,-0.3149277,,0.06476751,-0.04534687,0.019716263,0.6499708,0.5226114,0.55173826,0.59544957,-0.80132806,0.057560414,0.47220504,0.2911198,-0.8320286,,0.10611699,1.3403047,0.44034794,0.9953711,0.0131152775,-0.09520702,-0.05282088,-0.75294954,-0.65595496,-0.08028912,0.65794754,-0.7487715,,-0.09006449,0.26526427,-0.09853421,-0.28312865,-0.76670176,0.5762001,0.9191447,-0.04534805,0.39130113,-0.2738817,0.6403999,0.71754915,,-0.0338369,0.3822104,-0.38334677,-0.69369906,-0.53757554,-0.47936848,0.6565295,-0.19821072,-0.72779226,0.29622734,-0.81958836,0.4904328,,1.270567180666039,0.5359267705396841,0.19591867802000001,2.8763169547772205,-0.3156303144581674,-0.7034933414748407,-0.4064000365420867,,-0.9255927031744302,-0.41100384356622843,0.20150568792,-2.179517272578146,-0.016806289471149174,0.005863243101165816,0.8186804594650077,,-0.055632369907319255,-0.0618370153981591,0.08432137115999999,-0.06574422517700301,,-4.4703484e-08,-8.940697e-07,2.026558e-06,1.0,2.4508685e-05,2.1539629e-05,-2.4516135e-05,1.0,2.592802e-06,-2.1539629e-05,-2.6524067e-06,1.0,383,1.167,1,1,0.021,False,-0.2622015666459845,0.9923512296358483
1.1502961000078358,16:03:46.690405,16:03:36.579928,0,,0.1182324,-0.0015577376,0.040151104,0.20087597,0.85276085,-0.48212817,0.46618932,0.34964165,0.8126613,0.8615778,-0.38800722,-0.32731348,,0.06476859,-0.045345336,0.019717038,0.6499669,0.5225204,0.5518291,0.59544647,-0.8013392,0.05743736,0.47221446,0.29125232,-0.83197695,,0.10611699,1.3403047,0.44034794,0.9953711,0.0131152775,-0.09520702,-0.05282088,-0.75294954,-0.65595496,-0.08028912,0.65794754,-0.7487715,,-0.08983407,0.26553336,-0.099040315,-0.23897044,-0.7850865,0.57143,0.92419744,-0.0033455743,0.3819003,-0.29791304,0.6193771,0.72637445,,-0.03383806,0.3822118,-0.38334578,-0.6936959,-0.5374961,-0.47946215,0.6565363,-0.19809555,-0.7278175,0.29621974,-0.8196683,0.49030375,,1.2715093540766944,0.5355329111630986,0.19548312458000003,2.828507647662749,-0.339678338416885,-0.6779212423940095,-0.40721675687275827,,-0.9256004259073044,-0.4109961208333542,0.20150568792,-2.179517272578146,-0.016806289471149174,0.006026600581446995,0.8186804594650077,,-0.055632369907319255,-0.0618370153981591,0.08432137115999999,-0.06574422517700301,,-4.4703484e-08,-8.940697e-07,2.026558e-06,1.0,2.4508685e-05,2.1539629e-05,-2.4516135e-05,1.0,2.592802e-06,-2.1539629e-05,-2.6524067e-06,1.0,400,1.22,1,1,0.074,False,-0.26255903295711036,0.992640910840525
1.2095923580345698,16:03:46.743685,16:03:36.764842,0,,0.118057474,-0.0016841441,0.04064195,0.16276293,0.8666573,-0.47160688,0.45528543,0.35808116,0.81516457,0.8753419,-0.3473944,-0.33629417,,0.064764194,-0.045348376,0.019713938,0.65026826,0.5227725,0.55123496,0.5954832,-0.8013096,0.05746889,0.471753,0.29088098,-0.8323685,,0.10611699,1.3403047,0.44034794,0.9953711,0.0131152775,-0.09520702,-0.05282088,-0.75294954,-0.65595496,-0.08028912,0.65794754,-0.7487715,,-0.08971365,0.2657702,-0.09950609,-0.20319547,-0.8018099,0.56197196,0.925436,0.030196287,0.37769872,-0.31981203,0.59681576,0.735888,,-0.03383339,0.38220796,-0.38334697,-0.6939572,-0.5377159,-0.47883713,0.65613544,-0.19841887,-0.7280908,0.2964957,-0.81944585,0.49050868,,1.2718800452546573,0.5354170701699853,0.19508386726000002,2.790134388005081,-0.3616768148791209,-0.6512433347038455,-0.40787013313729537,,-0.9255927031744302,-0.4109961208333542,0.20150568792,-2.179517272578146,-0.016259743472087414,0.005580928966661264,0.8183537713327391,,-0.055632369907319255,-0.0618370153981591,0.08432137115999999,-0.06574422517700301,,-4.4703484e-08,-8.940697e-07,2.026558e-06,1.0,2.4508685e-05,2.1539629e-05,-2.4516135e-05,1.0,2.592802e-06,-2.1539629e-05,-2.6524067e-06,1.0,413,1.261,1,1,0.115,False,-0.26190367805337944,0.9915304662225977
1.2628732330049388,16:03:46.782372,16:03:36.764842,0,,0.1179335,-0.0018569604,0.041066095,0.13694777,0.87493634,-0.46446884,0.4491659,0.363065,0.81635404,0.8828903,-0.32042158,-0.3432708,,0.06475948,-0.04535775,0.019710064,0.6512332,0.5229255,0.54994917,0.59557843,-0.8012968,0.05665627,0.4702995,0.29064143,-0.83327425,,0.10611699,1.3403047,0.44034794,0.9953711,0.0131152775,-0.09520702,-0.05282088,-0.75294954,-0.65595496,-0.08028912,0.65794754,-0.7487715,,-0.08964154,0.26592773,-0.0999478,-0.17870791,-0.81202185,0.5555934,0.9260185,0.052014504,0.37387732,-0.33249545,0.58130455,0.7426519,,-0.03382827,0.3822002,-0.38335326,-0.69479567,-0.537848,-0.47747087,0.6548612,-0.19862983,-0.7291797,0.2973479,-0.81930804,0.49022293,,1.272080836309387,0.5354556838343564,0.19468201736000001,2.763713455126031,-0.3742473728575414,-0.6326616560694374,-0.4075434450050266,,-0.9256313168388013,-0.4109961208333542,0.20150568792,-2.179517272578146,-0.014483468975136688,0.005275998580575675,0.8167203306713962,,-0.055632369907319255,-0.0618370153981591,0.08432137115999999,-0.06574422517700301,,-4.4703484e-08,-8.940697e-07,2.026558e-06,1.0,2.4508685e-05,2.1539629e-05,-2.4516135e-05,1.0,2.592802e-06,-2.1539629e-05,-2.6524067e-06,1.0,426,1.302,1,1,0.156,False,-0.2617249448978165,0.9918684276280536
1.3015458789886907,16:03:46.827139,16:03:36.764842,0,,0.117765024,-0.0020777434,0.0416701,0.105415545,0.883194,-0.4570073,0.43574068,0.37207496,0.8195672,0.89387786,-0.2855319,-0.3456212,,0.06476018,-0.04535769,0.019708991,0.6512332,0.5227458,0.55011994,0.59557843,-0.80131525,0.056394458,0.4702995,0.2909137,-0.83317924,,0.10611699,1.3403047,0.44034794,0.9953711,0.0131152775,-0.09520702,-0.05282088,-0.75294954,-0.65595496,-0.08028912,0.65794754,-0.7487715,,-0.089544915,0.2661708,-0.10055898,-0.14942035,-0.82259566,0.5486437,0.9235151,0.08213678,0.37466446,-0.3532612,0.56266326,0.7474066,,-0.03382887,0.38219926,-0.38335264,-0.69479567,-0.537692,-0.4776466,0.6548612,-0.19839159,-0.72924453,0.2973479,-0.8194682,0.48995525,,1.2724051910901044,0.5354865747658533,0.19414016814,2.7320502736598677,-0.3952893938214192,-0.6121544705544255,-0.4068900687404896,,-0.9256313168388013,-0.4109961208333542,0.20150698421000002,-2.179517272578146,-0.014483468975136688,0.005602713541137921,0.8173737069359333,,-0.055632369907319255,-0.0618370153981591,0.08432137115999999,-0.06574422517700301,,-4.4703484e-08,-8.940697e-07,2.026558e-06,1.0,2.4508685e-05,2.1539629e-05,-2.4516135e-05,1.0,2.592802e-06,-2.1539629e-05,-2.6524067e-06,1.0,435,1.331,1,1,0.185,False,-0.2611887454311268,0.9911925048171413
1.346325138991233,16:03:46.853154,16:03:36.879294,0,,0.117688835,-0.0021776035,0.04190637,0.09732026,0.88635737,-0.45265782,0.43117654,0.37236917,0.8218444,0.89700365,-0.2751577,-0.3459375,,0.06476134,-0.04535766,0.019709706,0.65123165,0.52278644,0.55008316,0.59557563,-0.8013126,0.056460112,0.4703052,0.29084757,-0.8331991,,0.10611699,1.3403047,0.44034794,0.9953711,0.0131152775,-0.09520702,-0.05282088,-0.75294954,-0.65595496,-0.08028912,0.65794754,-0.7487715,,-0.08949795,0.2662559,-0.10080827,-0.14201595,-0.8266299,0.5445314,0.9222505,0.089327656,0.3761311,-0.3595629,0.555611,0.7496739,,-0.03383009,0.38219982,-0.38335294,-0.6947946,-0.53772694,-0.4776089,0.6548648,-0.19845016,-0.72922534,0.29734254,-0.81943107,0.49002054,,1.2726600412749538,0.5354788520329791,0.19391331739,2.7238723658639716,-0.4017113093103949,-0.604059073175774,-0.4064000365420868,,-0.9256390395716755,-0.4109961208333542,0.20150698421000002,-2.179517272578146,-0.014483468975136688,0.0055210348009973875,0.8172103628697991,,-0.055632369907319255,-0.0618370153981591,0.08432137115999999,-0.06574422517700301,,-4.4703484e-08,-8.940697e-07,2.026558e-06,1.0,2.4508685e-05,2.1539629e-05,-2.4516135e-05,1.0,2.592802e-06,-2.1539629e-05,-2.6524067e-06,1.0,444,1.36,1,1,0.214,False,-0.2611887454311268,0.9916270266241562
1.3723264370346442,16:03:46.880494,16:03:36.879294,0,,0.117557004,-0.002317652,0.042236432,0.08365831,0.88915855,-0.4498868,0.42704308,0.3759222,0.82238483,0.90035295,-0.26092046,-0.3482601,,0.06476053,-0.04535836,0.01970911,0.6513064,0.52289313,0.54989326,0.5955839,-0.8013013,0.056533426,0.47019115,0.29068705,-0.8333194,,0.10611699,1.3403047,0.44034794,0.9953711,0.0131152775,-0.09520702,-0.05282088,-0.75294954,-0.65595496,-0.08028912,0.65794754,-0.7487715,,-0.08940719,0.2663744,-0.1011599,-0.12906982,-0.8303899,0.5420273,0.9214624,0.101528734,0.37496528,-0.36639872,0.5478545,0.75206876,,-0.033829227,0.38219902,-0.3833533,-0.69485945,-0.5378196,-0.4774101,0.6547653,-0.1985905,-0.7292765,0.2974101,-0.81933624,0.4901381,,1.2731311279802815,0.5355174656973501,0.19358665231000002,2.709403759763539,-0.40840649779890154,-0.5948423738481834,-0.40607334840981824,,-0.9256390395716755,-0.4109961208333542,0.20150698421000002,-2.179517272578146,-0.014346832475371248,0.005327938157160428,0.8173737069359334,,-0.055632369907319255,-0.0618370153981591,0.08432137115999999,-0.06574422517700301,,-4.4703484e-08,-8.940697e-07,2.026558e-06,1.0,2.4508685e-05,2.1539629e-05,-2.4516135e-05,1.0,2.592802e-06,-2.1539629e-05,-2.6524067e-06,1.0,457,1.401,1,1,0.255,False,-0.2622015666459845,0.9913856256202589
1.3996590920141898,16:03:46.917941,16:03:36.879294,0,,0.11734529,-0.0024753213,0.04270719,0.06335276,0.8924346,-0.44670635,0.41960776,0.38229975,0.8232718,0.90549207,-0.23959813,-0.35025287,,0.06476177,-0.04535985,0.019709826,0.65130717,0.52288556,0.5498996,0.59558153,-0.8013036,0.056525916,0.4701932,0.29069433,-0.8333158,,0.10611699,1.3403047,0.44034794,0.9953711,0.0131152775,-0.09520702,-0.05282088,-0.75294954,-0.65595496,-0.08028912,0.65794754,-0.7487715,,-0.0892509,0.26657465,-0.10163613,-0.109943785,-0.83502555,0.5391147,0.91944325,0.12058467,0.3742772,-0.37754,0.5368349,0.7545011,,-0.033830512,0.38219878,-0.38335487,-0.69486034,-0.53781265,-0.47741666,0.6547657,-0.19858482,-0.7292777,0.29740703,-0.8193422,0.49012998,,1.2739883513293204,0.5356101384918409,0.19315239516000002,2.6878056955846334,-0.4193374177801367,-0.5820900407658632,-0.40721675687275805,,-0.9256467623045498,-0.41100384356622843,0.20150698421000002,-2.179517272578146,-0.014346832475371248,0.005327938157160428,0.8173737069359334,,-0.055632369907319255,-0.0618370153981591,0.08432137115999999,-0.06574422517700301,,-4.4703484e-08,-8.940697e-07,2.026558e-06,1.0,2.4508685e-05,2.1539629e-05,-2.4516135e-05,1.0,2.592802e-06,-2.1539629e-05,-2.6524067e-06,1.0,466,1.429,1,1,0.283,False,-0.26202283349042155,0.9910959444155825
1.437099251023028,16:03:46.947495,16:03:36.990446,0,,0.11718331,-0.0025442466,0.042992666,0.051742475,0.896474,-0.4400644,0.4131222,0.38196832,0.8266985,0.9092045,-0.2245759,-0.35058945,,0.06476295,-0.04535982,0.0197106,0.6514158,0.52274305,0.5499064,0.5954107,-0.80143076,0.056522995,0.47025883,0.29060024,-0.83331156,,0.10611699,1.3403047,0.44034794,0.9953711,0.0131152775,-0.09520702,-0.05282088,-0.75294954,-0.65595496,-0.08028912,0.65794754,-0.7487715,,-0.08912068,0.26671585,-0.10191106,-0.09925159,-0.8403893,0.5328179,0.91715604,0.13043745,0.37657785,-0.3859714,0.52605313,0.757822,,-0.03383175,0.38219935,-0.3833552,-0.6949725,-0.53766143,-0.47742373,0.65472686,-0.19871892,-0.729276,0.29723042,-0.81940895,0.49012557,,1.2747297336852461,0.5355869702932182,0.19291128522,2.6754339889190466,-0.42780888076559404,-0.5693012614465647,-0.40721675687275805,,-0.925654485037424,-0.41100384356622843,0.20150698421000002,-2.179307582634662,-0.014346832475371248,0.005327938157160428,0.8173737069359334,,-0.055632369907319255,-0.0618370153981591,0.08432137115999999,-0.06574422517700301,,-4.4703484e-08,-8.940697e-07,2.026558e-06,1.0,2.4508685e-05,2.1539629e-05,-2.4516135e-05,1.0,2.592802e-06,-2.1539629e-05,-2.6524067e-06,1.0,475,1.458,1,1,0.312,False,-0.26232072208302704,0.9911925048171413
1.4666729960008524,16:03:46.974791,16:03:36.990446,0,,0.117043436,-0.0026011392,0.04317327,0.04102195,0.8963749,-0.4413943,0.41110802,0.3874968,0.8251282,0.91066325,-0.2153092,-0.35261115,,0.06476195,-0.04536286,0.019709766,0.65142214,0.5226956,0.54994404,0.59541416,-0.8014338,0.056441933,0.4702457,0.29067695,-0.8332922,,0.10611699,1.3403047,0.44034794,0.9953711,0.0131152775,-0.09520702,-0.05282088,-0.75294954,-0.65595496,-0.08028912,0.65794754,-0.7487715,,-0.0890022,0.2667954,-0.10209827,-0.088893026,-0.84067535,0.53419375,0.9166608,0.14076135,0.37405783,-0.38965505,0.52292556,0.75810146,,-0.033830654,0.38219717,-0.38335744,-0.6949777,-0.5376206,-0.4774621,0.65471685,-0.19865094,-0.72930354,0.2972403,-0.81945217,0.49004725,,1.275316661383687,0.5355406338959728,0.19274017494,2.6634816621404283,-0.43122479325973007,-0.5653723114921863,-0.40656338060822095,,-0.9256467623045498,-0.4110192890319769,0.20150698421000002,-2.179307582634662,-0.014346832475371248,0.005409616897300962,0.8172103628697991,,-0.055632369907319255,-0.0618370153981591,0.08432137115999999,-0.06574422517700301,,-4.4703484e-08,-8.940697e-07,2.026558e-06,1.0,2.4508685e-05,2.1539629e-05,-2.4516135e-05,1.0,2.592802e-06,-2.1539629e-05,-2.6524067e-06,1.0,488,1.499,1,1,0.353,False,-0.26202283349042155,0.991047664214803
1.4939624770195223,16:03:47.017658,16:03:36.990446,0,,0.11673841,-0.002625145,0.043562844,0.023300812,0.89880335,-0.43773183,0.4006831,0.39274943,0.8277687,0.9159204,-0.19467956,-0.35098413,,0.06476393,-0.045373276,0.019707263,0.65154886,0.5225783,0.54990524,0.59524864,-0.8015563,0.056450397,0.47027975,0.2905502,-0.83331716,,0.10611699,1.3403047,0.44034794,0.9953711,0.0131152775,-0.09520702,-0.05282088,-0.75294954,-0.65595496,-0.08028912,0.65794754,-0.7487715,,-0.08873559,0.26704004,-0.10243657,-0.072578326,-0.8444964,0.5306205,0.9125053,0.15852001,0.3771013,-0.4025747,0.5115634,0.7591024,,-0.03383232,0.3821896,-0.3833651,-0.69510525,-0.5374918,-0.4774214,0.654652,-0.19881271,-0.72931767,0.29708484,-0.81949747,0.49006587,,1.2768766534242804,0.5354942974987275,0.19245758372000002,2.6439804973963676,-0.44406862423768145,-0.5523669876003652,-0.40738010093889243,,-0.9256467623045498,-0.41107334816209645,0.20150957679000003,-2.179097892691177,-0.014346832475371248,0.005327938157160372,0.8170470188036647,,-0.055632369907319255,-0.0618370153981591,0.08432137115999999,-0.06574422517700301,,-4.4703484e-08,-8.940697e-07,2.026558e-06,1.0,2.4508685e-05,2.1539629e-05,-2.4516135e-05,1.0,2.592802e-06,-2.1539629e-05,-2.6524067e-06,1.0,497,1.528,1,1,0.382,False,-0.2622015666459845,0.9909993840140234
1.536803288036026,16:03:47.046909,16:03:36.990446,0,,0.11655031,-0.0026181042,0.043714568,0.009047665,0.8998264,-0.436154,0.39614534,0.39725935,0.82780075,0.9181433,-0.18027014,-0.35286787,,0.064766124,-0.045379177,0.019706786,0.65155685,0.52251554,0.54995555,0.59524715,-0.8015641,0.056354254,0.47027063,0.29064155,-0.8332905,,0.10611699,1.3403047,0.44034794,0.9953711,0.0131152775,-0.09520702,-0.05282088,-0.75294954,-0.65595496,-0.08028912,0.65794754,-0.7487715,,-0.08856166,0.26714757,-0.102565594,-0.0589774,-0.84643084,0.52922255,0.91066116,0.17154744,0.37585598,-0.40892285,0.50410944,0.76069427,,-0.033834398,0.382186,-0.38336983,-0.69511235,-0.53743696,-0.47747287,0.6546428,-0.19873337,-0.7293475,0.2970885,-0.81955266,0.48997128,,1.277687540376074,0.5353784565056141,0.19235776939000002,2.6280440616915435,-0.4502172667271263,-0.5432692449269982,-0.40672672467435533,,-0.925654485037424,-0.41110423909359334,0.20151087308,-2.179097892691177,-0.014346832475371248,0.005409616897300934,0.8168836747375305,,-0.055632369907319255,-0.0618370153981591,0.08432137115999999,-0.06574422517700301,,-4.4703484e-08,-8.940697e-07,2.026558e-06,1.0,2.4508685e-05,2.1539629e-05,-2.4516135e-05,1.0,2.592802e-06,-2.1539629e-05,-2.6524067e-06,1.0,506,1.556,1,1,0.41,False,-0.26232072208302704,0.9906131424077878
1.5660325200296938,16:03:47.076883,16:03:36.990446,0,,0.116370484,-0.0026312843,0.043813273,-0.007309336,0.9010495,-0.43365437,0.3938633,0.4012046,0.82698655,0.91914,-0.16475588,-0.35782298,,0.06476324,-0.04538454,0.01970452,0.6516418,0.5225755,0.5497978,0.59526205,-0.8015541,0.056338787,0.47013402,0.29056108,-0.8333956,,0.10611699,1.3403047,0.44034794,0.9953711,0.0131152775,-0.09520702,-0.05282088,-0.75294954,-0.65595496,-0.08028912,0.65794754,-0.7487715,,-0.08839284,0.26720443,-0.10266815,-0.04300204,-0.8487058,0.5271141,0.90966445,0.18489979,0.3719175,-0.4131118,0.49549016,0.7640864,,-0.033831283,0.3821816,-0.3833734,-0.69518554,-0.53748995,-0.47730657,0.65452653,-0.19880204,-0.7294332,0.2971735,-0.8195012,0.49000573,,1.2782976362731377,0.5351776654508843,0.19227610312,2.6095913466649057,-0.4540430887205586,-0.5320633483495827,-0.4062366924759525,,-0.9256390395716755,-0.411127407292216,0.20151087308,-2.179097892691177,-0.014210195975605806,0.005298198993604536,0.8168836747375305,,-0.055632369907319255,-0.0618370153981591,0.08432137115999999,-0.06574422517700301,,-4.4703484e-08,-8.940697e-07,2.026558e-06,1.0,2.4508685e-05,2.1539629e-05,-2.4516135e-05,1.0,2.592802e-06,-2.1539629e-05,-2.6524067e-06,1.0,519,1.597,1,1,0.451,False,-0.26190367805337944,0.9908062632109056
1.595992015034426,16:03:47.117981,16:03:37.137937,0,,0.11610931,-0.0026806518,0.043883845,-0.03302763,0.9028216,-0.4287449,0.39232576,0.4062582,0.82524836,0.91923326,-0.14095172,-0.36761793,,0.06476581,-0.045388922,0.019705951,0.65164584,0.5225568,0.54981095,0.5952575,-0.8015591,0.056316018,0.4701343,0.29058105,-0.83338845,,0.10611699,1.3403047,0.44034794,0.9953711,0.0131152775,-0.09520702,-0.05282088,-0.75294954,-0.65595496,-0.08028912,0.65794754,-0.7487715,,-0.0881436,0.2672157,-0.10278382,-0.017592741,-0.852171,0.52296764,0.9086235,0.20464714,0.36403695,-0.41724554,0.48158506,0.77070224,,-0.033833914,0.38218036,-0.38337782,-0.6951895,-0.53747296,-0.47732005,0.65452415,-0.19878599,-0.7294397,0.2971696,-0.8195163,0.48998296,,1.278961791300321,0.5346756878140597,0.19218406653000003,2.5804444445205568,-0.4575956377144601,-0.5134841647464878,-0.40721675687275827,,-0.925654485037424,-0.41115057549083867,0.20151087308,-2.179097892691177,-0.014210195975605806,0.005298198993604536,0.8168836747375305,,-0.055632369907319255,-0.0618370153981591,0.08432137115999999,-0.06574422517700301,,-4.4703484e-08,-8.940697e-07,2.026558e-06,1.0,2.4508685e-05,2.1539629e-05,-2.4516135e-05,1.0,2.592802e-06,-2.1539629e-05,-2.6524067e-06,1.0,528,1.626,1,1,0.48,False,-0.2620824112089424,0.9905165820062287
1.6371624460443854,16:03:47.143288,16:03:37.137937,0,,0.11597559,-0.0027259663,0.043906525,-0.04783085,0.9031193,-0.42671692,0.39212507,0.4098875,0.82354736,0.9186676,-0.12793553,-0.3737411,,0.064765885,-0.045390442,0.019705892,0.65164816,0.52250856,0.54985404,0.5952579,-0.80156404,0.056242853,0.47013053,0.29065448,-0.833365,,0.10611699,1.3403047,0.44034794,0.9953711,0.0131152775,-0.09520702,-0.05282088,-0.75294954,-0.65595496,-0.08028912,0.65794754,-0.7487715,,-0.088016376,0.2671976,-0.102846555,-0.002858984,-0.8533313,0.5213611,0.90811425,0.2160868,0.3586572,-0.4187127,0.47448087,0.77430457,,-0.033833977,0.38217956,-0.3833791,-0.6951915,-0.53743106,-0.47736427,0.6545209,-0.1987217,-0.72946006,0.29717183,-0.8195594,0.48990953,,1.2792089187522961,0.5343590557662165,0.19212962235000003,2.5632498691548258,-0.45868872971258356,-0.5036081601014546,-0.40607334840981824,,-0.925654485037424,-0.4111582982237129,0.20151087308,-2.179097892691177,-0.014210195975605806,0.005379877733745125,0.8163936425391277,,-0.055632369907319255,-0.0618370153981591,0.08432137115999999,-0.06574422517700301,,-4.4703484e-08,-8.940697e-07,2.026558e-06,1.0,2.4508685e-05,2.1539629e-05,-2.4516135e-05,1.0,2.592802e-06,-2.1539629e-05,-2.6524067e-06,1.0,537,1.655,1,1,0.509,False,-0.26196325577190027,0.9908545434116851
1.6624268040177412,16:03:47.176516,16:03:37.137937,0,,0.11577816,-0.0027818084,0.04393144,-0.068401955,0.9035403,-0.42300794,0.38971353,0.41451266,0.82237625,0.9183924,-0.10859989,-0.38047552,,0.064765885,-0.045390442,0.019705892,0.65164816,0.52250856,0.54985404,0.5952579,-0.80156404,0.056242853,0.47013053,0.29065448,-0.833365,,0.10611699,1.3403047,0.44034794,0.9953711,0.0131152775,-0.09520702,-0.05282088,-0.75294954,-0.65595496,-0.08028912,0.65794754,-0.7487715,,-0.087826915,0.2671733,-0.10292549,0.017403135,-0.85509396,0.5181809,0.90617186,0.23251352,0.3532563,-0.42255136,0.4634132,0.77890855,,-0.033833977,0.38217956,-0.3833791,-0.6951915,-0.53743106,-0.47736427,0.6545209,-0.1987217,-0.72946006,0.29717183,-0.8195594,0.48990953,,1.2795487189987622,0.5338416326636435,0.19207388188000002,2.5403936653150128,-0.46224127870648507,-0.48943962846595007,-0.40705341280662377,,-0.925654485037424,-0.4111582982237129,0.20151087308,-2.179097892691177,-0.014210195975605806,0.005379877733745098,0.8160669544068591,,-0.055632369907319255,-0.0618370153981591,0.08432137115999999,-0.06574422517700301,,-4.4703484e-08,-8.940697e-07,2.026558e-06,1.0,2.4508685e-05,2.1539629e-05,-2.4516135e-05,1.0,2.592802e-06,-2.1539629e-05,-2.6524067e-06,1.0,550,1.696,1,1,0.55,False,-0.26148663402373185,0.990082060199214
1.6956790059921332,16:03:47.216547,16:03:37.137937,0,,0.11548951,-0.002857834,0.043936655,-0.09376012,0.9043092,-0.41645363,0.387865,0.41842577,0.82126784,0.9169351,-0.084525675,-0.38998163,,0.06476542,-0.045390427,0.019704044,0.6516498,0.52251273,0.54984814,0.5952607,-0.80156195,0.056242645,0.4701249,0.29065248,-0.83336896,,0.10611699,1.3403047,0.44034794,0.9953711,0.0131152775,-0.09520702,-0.05282088,-0.75294954,-0.65595496,-0.08028912,0.65794754,-0.7487715,,-0.087546706,0.26712093,-0.10301421,0.04256734,-0.8576763,0.512425,0.9038574,0.2515998,0.3460338,-0.425711,0.44842938,0.785927,,-0.03383336,0.382178,-0.38337818,-0.69519264,-0.5374351,-0.47735807,0.65451735,-0.19872269,-0.72946304,0.2971772,-0.8195565,0.48991114,,1.280197428560197,0.5330461911775983,0.19200777109000003,2.5112467631706634,-0.46483737220202836,-0.4693533654647943,-0.4057466602775496,,-0.9256467623045498,-0.4111582982237129,0.20151216937000002,-2.179097892691177,-0.014210195975605806,0.005379877733745098,0.8160669544068591,,-0.055632369907319255,-0.0618370153981591,0.08432137115999999,-0.06574422517700301,,-4.4703484e-08,-8.940697e-07,2.026558e-06,1.0,2.4508685e-05,2.1539629e-05,-2.4516135e-05,1.0,2.592802e-06,-2.1539629e-05,-2.6524067e-06,1.0,559,1.724,1,1,0.578,False,-0.2623802998015474,0.9902751810023316
1.7357349750236608,16:03:47.238595,16:03:37.267133,0,,0.11522743,-0.0028914958,0.043962374,-0.11511041,0.9032185,-0.41345567,0.3846748,0.42427853,0.8197641,0.9158466,-0.06468269,-0.3962844,,0.06476586,-0.045392618,0.019704163,0.65172523,0.52256685,0.5497072,0.59526646,-0.8015576,0.05624309,0.47001278,0.29056728,-0.8334619,,0.10611699,1.3403047,0.44034794,0.9953711,0.0131152775,-0.09520702,-0.05282088,-0.75294954,-0.65595496,-0.08028912,0.65794754,-0.7487715,,-0.087291375,0.26711366,-0.10308655,0.06361391,-0.8578863,0.5098866,0.90079284,0.2692782,0.34067798,-0.42956433,0.43763036,0.7899077,,-0.03383378,0.38217697,-0.38338012,-0.6952584,-0.5374818,-0.47720975,0.65441823,-0.1987978,-0.7295315,0.29724163,-0.81950766,0.48995373,,1.2809388109161226,0.5324669862120315,0.19195980836,2.4865033498394897,-0.468116648196399,-0.4550809546761204,-0.40460325181460954,,-0.925654485037424,-0.4111660209565871,0.20151216937000002,-2.179097892691177,-0.014073559475840366,0.005268459830048672,0.8160669544068591,,-0.055632369907319255,-0.0618370153981591,0.08432137115999999,-0.06574422517700301,,-4.4703484e-08,-8.940697e-07,2.026558e-06,1.0,2.4508685e-05,2.1539629e-05,-2.4516135e-05,1.0,2.592802e-06,-2.1539629e-05,-2.6524067e-06,1.0,568,1.753,1,1,0.607,False,-0.2620824112089424,0.9903234612031109
1.7577813460375182,16:03:47.269538,16:03:37.267133,0,,0.114914745,-0.0028959885,0.044020697,-0.13674508,0.9006003,-0.41257662,0.376436,0.43248835,0.81929845,0.9162952,-0.043273717,-0.39815915,,0.06476586,-0.045392618,0.019704163,0.65172523,0.52256685,0.5497072,0.59526646,-0.8015576,0.05624309,0.47001278,0.29056728,-0.8334619,,0.10611699,1.3403047,0.44034794,0.9953711,0.0131152775,-0.09520702,-0.05282088,-0.75294954,-0.65595496,-0.08028912,0.65794754,-0.7487715,,-0.08698639,0.26714996,-0.10316932,0.08441093,-0.8565328,0.5091427,0.89502627,0.28975618,0.3390713,-0.43795294,0.42707476,0.791078,,-0.03383378,0.38217697,-0.38338012,-0.6952584,-0.5374818,-0.47720975,0.65441823,-0.1987978,-0.7295315,0.29724163,-0.81950766,0.48995373,,1.2819273207240232,0.531795108451974,0.19192351224,2.461130866677862,-0.4763148381823254,-0.4421066174635118,-0.40411321961620694,,-0.925654485037424,-0.4111660209565871,0.20151216937000002,-2.179097892691177,-0.014073559475840366,0.005268459830048672,0.8160669544068591,,-0.055632369907319255,-0.0618370153981591,0.08432137115999999,-0.06574422517700301,,-4.4703484e-08,-8.940697e-07,2.026558e-06,1.0,2.4508685e-05,2.1539629e-05,-2.4516135e-05,1.0,2.592802e-06,-2.1539629e-05,-2.6524067e-06,1.0,577,1.782,1,1,0.636,False,-0.262797343831195,0.9893578571875219
1.7887283450108953,16:03:47.297296,16:03:37.267133,0,,0.11469802,-0.0029077232,0.044047877,-0.15441346,0.89786,-0.41231483,0.3721277,0.4394404,0.81756544,0.9152472,-0.027190745,-0.4019742,,0.06476586,-0.045392618,0.019704163,0.65172523,0.5225219,0.54974985,0.59526646,-0.8015622,0.056177646,0.47001278,0.29063535,-0.83343816,,0.10611699,1.3403047,0.44034794,0.9953711,0.0131152775,-0.09520702,-0.05282088,-0.75294954,-0.65595496,-0.08028912,0.65794754,-0.7487715,,-0.0867745,0.26715985,-0.10322274,0.101710014,-0.8546864,0.5090837,0.8911567,0.30572143,0.33522263,-0.44214803,0.41957784,0.7927544,,-0.03383378,0.38217697,-0.38338012,-0.6952584,-0.5374428,-0.47725365,0.65441823,-0.19873823,-0.72954774,0.29724163,-0.81954765,0.4898868,,1.2825605848197097,0.53138580360964,0.19189499386000003,2.4403715622728948,-0.48000402367599226,-0.43248235611232294,-0.40672672467435533,,-0.925654485037424,-0.4111660209565871,0.20151216937000002,-2.179097892691177,-0.014073559475840366,0.005350138570189261,0.8162302984729934,,-0.055632369907319255,-0.0618370153981591,0.08432137115999999,-0.06574422517700301,,-4.4703484e-08,-8.940697e-07,2.026558e-06,1.0,2.4508685e-05,2.1539629e-05,-2.4516135e-05,1.0,2.592802e-06,-2.1539629e-05,-2.6524067e-06,1.0,581,1.794,1,1,0.648,False,-0.26160578946077395,0.9893095769867424
1.8164826040156186,16:03:47.319836,16:03:37.267133,0,,0.1144619,-0.0029285252,0.0440744,-0.17410828,0.8956197,-0.40933025,0.3690706,0.44472954,0.81608987,0.91294754,-0.008983821,-0.40797812,,0.0648702,-0.0453559,0.01971519,0.65163213,0.52253574,0.5498471,0.5953622,-0.8014957,0.05611199,0.4700206,0.29079387,-0.83337843,,0.10611699,1.3403047,0.44034794,0.9953711,0.0131152775,-0.09520702,-0.05282088,-0.75294954,-0.65595496,-0.08028912,0.65794754,-0.7487715,,-0.08654401,0.26716262,-0.10328402,0.12123011,-0.85365456,0.5065344,0.8873738,0.3218839,0.33008862,-0.44482693,0.40946868,0.79653275,,-0.033939034,0.38219687,-0.3833504,-0.6951672,-0.53747076,-0.47735494,0.6544809,-0.19856954,-0.7295375,0.2973169,-0.8195702,0.48980337,,1.2832865217098868,0.5309996669659288,0.19185221629000002,2.417095978546112,-0.48178029817294304,-0.41910882730374727,-0.40656338060822117,,-0.925654485037424,-0.4111891891552098,0.20151216937000002,-2.179097892691177,-0.014073559475840366,0.005513496050470412,0.8152502340761878,,-0.055632369907319255,-0.0618370153981591,0.08432137115999999,-0.06574422517700301,,-4.4703484e-08,-8.940697e-07,2.026558e-06,1.0,2.4508685e-05,2.1539629e-05,-2.4516135e-05,1.0,2.592802e-06,-2.1539629e-05,-2.6524067e-06,1.0,590,1.823,1,1,0.677,False,-0.262797343831195,0.9893095769867424
1.838984446018003,16:03:47.348346,16:03:37.267133,0,,0.11417146,-0.0029656664,0.04410875,-0.19924724,0.8924834,-0.4046895,0.3661866,0.45086268,0.81402117,0.90895975,0.013999611,-0.41664863,,0.064863496,-0.045360208,0.019710243,0.6516673,0.5225001,0.5498392,0.59533644,-0.8015174,0.056074083,0.47000444,0.29079765,-0.8333861,,0.10612688,1.3403065,0.44034585,0.99536884,0.013083019,-0.095235124,-0.052863523,-0.75295013,-0.6559509,-0.08028912,0.65794754,-0.7487715,,-0.08626582,0.2671636,-0.10336629,0.14633457,-0.85206646,0.5025624,0.88258463,0.34191334,0.3227067,-0.44680035,0.39633068,0.8020545,,-0.033940367,0.38219336,-0.38335168,-0.6951713,-0.53746486,-0.47735563,0.6544745,-0.19856015,-0.7295458,0.2973214,-0.8195763,0.48979035,,1.2841437450589257,0.530559471192098,0.19176277228000002,2.3873200065713096,-0.4823268441720048,-0.40159229899958415,-0.4044399077484754,,-0.925654485037424,-0.41120463462095824,0.20151476195,-2.179097892691177,-0.014073559475840366,0.005513496050470412,0.8152502340761878,,-0.055632369907319255,-0.0618370153981591,0.08432137115999999,-0.06574422517700301,,9.875745e-06,-3.4570694e-06,1.4305115e-06,1.0,-7.5660646e-06,-6.6421926e-06,7.5660646e-06,1.0,-8.046627e-07,6.649643e-06,8.046627e-07,1.0,599,1.851,1,1,0.705,False,-0.2618441003348577,0.9888750551797272
1.8674724849988706,16:03:47.371575,16:03:37.407372,0,,0.113894746,-0.0030161738,0.04418719,-0.21974197,0.8910026,-0.39727503,0.35961816,0.4525326,0.81602037,0.9068562,0.03644651,-0.41986126,,0.064858705,-0.04536958,0.019708157,0.65212834,0.5219435,0.5498214,0.5946774,-0.8020107,0.056014955,0.47019917,0.2904374,-0.833402,,0.10612688,1.3403065,0.44034585,0.99536884,0.013083019,-0.095235124,-0.052863523,-0.75295013,-0.6559509,-0.08028912,0.65794754,-0.7487715,,-0.08600193,0.26717934,-0.10349037,0.16635573,-0.85244715,0.49564058,0.8763356,0.35824808,0.32201585,-0.4520638,0.3807783,0.80662644,,-0.033935323,0.38218716,-0.38335884,-0.69564074,-0.53687465,-0.4773359,0.6542707,-0.19907604,-0.7295879,0.29667112,-0.819838,0.48974678,,1.2849932456750903,0.5300806617538961,0.19167073569,2.362576593240136,-0.4868358486642643,-0.3820698325903331,-0.40738010093889254,,-0.9256235941059271,-0.41125097101820357,0.20151346566000003,-2.178259132917239,-0.014073559475840366,0.005513496050470412,0.8152502340761878,,-0.055632369907319255,-0.0618370153981591,0.08432137115999999,-0.06574422517700301,,9.875745e-06,-3.4570694e-06,1.4305115e-06,1.0,-7.5660646e-06,-6.6421926e-06,7.5660646e-06,1.0,-8.046627e-07,6.649643e-06,8.046627e-07,1.0,621,1.921,1,1,0.775,False,-0.26232072208302704,0.9884888135734915
1.8907590070157312,16:03:47.449059,16:03:37.407372,0,,0.113190874,-0.0032262653,0.044457346,-0.25444114,0.8876911,-0.38374987,0.34876633,0.45433414,0.81972116,0.90200984,0.07473174,-0.42519808,,0.06484788,-0.045397133,0.019701123,0.65218675,0.52187955,0.5498126,0.5947113,-0.8019999,0.05580905,0.4700753,0.29058194,-0.8334214,,0.10612688,1.3403065,0.44034585,0.99536884,0.013083019,-0.095235124,-0.052863523,-0.75295013,-0.6559509,-0.08028912,0.65794754,-0.7487715,,-0.08534335,0.26720646,-0.10391237,0.20038773,-0.8523983,0.48297203,0.8650903,0.3853349,0.32114765,-0.45985165,0.35346034,0.8146178,,-0.033923656,0.38216794,-0.38337934,-0.6956887,-0.5368234,-0.4773236,0.65417707,-0.19894159,-0.72970855,0.29676512,-0.8199042,0.489579,,1.2876498657838236,0.5287060153022841,0.19130907078,2.3189610849953546,-0.49271121815417823,-0.34648597769839506,-0.4042765636823411,,-0.9255463667771848,-0.4113899802099396,0.20151216937000002,-2.178259132917239,-0.014073559475840366,0.005595174790610946,0.8147602018777849,,-0.055632369907319255,-0.0618370153981591,0.08432137115999999,-0.06574422517700301,,9.875745e-06,-3.4570694e-06,1.4305115e-06,1.0,-7.5660646e-06,-6.6421926e-06,7.5660646e-06,1.0,-8.046627e-07,6.649643e-06,8.046627e-07,1.0,630,1.949,1,1,0.803,False,-0.2618441003348577,0.9884888135734915
1.9682464490178972,16:03:47.471280,16:03:37.407372,0,,0.11293258,-0.0032859296,0.044517636,-0.26264957,0.8866044,-0.38071972,0.34618297,0.45489067,0.82050717,0.9006511,0.083707124,-0.4264043,,0.06484994,-0.04541363,0.019701362,0.6522112,0.5218378,0.54982334,0.5947122,-0.80200505,0.055724412,0.47004023,0.2906426,-0.83342004,,0.10612688,1.3403065,0.44034585,0.99536884,0.013083019,-0.095235124,-0.052863523,-0.75295013,-0.6559509,-0.08028912,0.65794754,-0.7487715,,-0.085096866,0.2672032,-0.10402703,0.20845579,-0.8520681,0.48013133,0.86227536,0.3917847,0.3209142,-0.4615489,0.347109,0.8163872,,-0.033925578,0.38215965,-0.38339365,-0.69571006,-0.5367869,-0.47733352,0.65414554,-0.1988889,-0.72975117,0.29678455,-0.81994087,0.4895058,,1.2887387711190892,0.5280881966723462,0.19121314532000003,2.3080572079341595,-0.4938043101523018,-0.3376717966751891,-0.407706789071161,,-0.925554089510059,-0.4114749302715561,0.20151216937000002,-2.178259132917239,-0.014073559475840366,0.005595174790610946,0.8147602018777849,,-0.055632369907319255,-0.0618370153981591,0.08432137115999999,-0.06574422517700301,,9.875745e-06,-3.4570694e-06,1.4305115e-06,1.0,-7.5660646e-06,-6.6421926e-06,7.5660646e-06,1.0,-8.046627e-07,6.649643e-06,8.046627e-07,1.0,639,1.978,1,1,0.832,False,-0.26154621174225356,0.988440533372712
1.9904685729998164,16:03:47.499699,16:03:37.531893,0,,0.11257674,-0.0033444539,0.044581145,-0.2745042,0.8836476,-0.37922803,0.34259894,0.4583725,0.8200737,0.898484,0.095190555,-0.428562,,0.06485043,-0.045422673,0.019701123,0.6522254,0.5218173,0.54982597,0.5947143,-0.8020068,0.05567822,0.47001803,0.29067463,-0.8334214,,0.10612688,1.3403065,0.44034585,0.99536884,0.013083019,-0.095235124,-0.052863523,-0.75295013,-0.6559509,-0.08028912,0.65794754,-0.7487715,,-0.08475372,0.26720306,-0.10415485,0.22013736,-0.84987277,0.47880664,0.8581808,0.40208858,0.31914026,-0.4637513,0.34064797,0.81785923,,-0.033925958,0.38215482,-0.38340127,-0.69572234,-0.5367692,-0.47733554,0.6541264,-0.19886069,-0.729776,0.29679805,-0.8199593,0.48946676,,1.2902678722281857,0.5272773097205526,0.19111073841,2.29233046217282,-0.49503403865019074,-0.32833780404758406,-0.4077067890711611,,-0.925554089510059,-0.41152126666880146,0.20151216937000002,-2.178259132917239,-0.014073559475840366,0.005595174790610946,0.8147602018777849,,-0.055632369907319255,-0.0618370153981591,0.08432137115999999,-0.06574422517700301,,9.875745e-06,-3.4570694e-06,1.4305115e-06,1.0,-7.5660646e-06,-6.6421926e-06,7.5660646e-06,1.0,-8.046627e-07,6.649643e-06,8.046627e-07,1.0,652,2.019,1,1,0.873,False,-0.2602950796533112,0.9886819343766093
2.0188400220358744,16:03:47.539395,16:03:37.531893,0,,0.1120688,-0.0034037828,0.044652432,-0.29287016,0.87757576,-0.37958872,0.3342433,0.46591514,0.81927085,0.89582837,0.113065004,-0.4297765,,0.06485039,-0.045434758,0.019701898,0.6522443,0.5218349,0.5497868,0.5947169,-0.8020045,0.055682033,0.4699884,0.29064927,-0.833447,,0.10612688,1.3403065,0.44034585,0.99536884,0.013083019,-0.095235124,-0.052863523,-0.75295013,-0.6559509,-0.08028912,0.65794754,-0.7487715,,-0.0842603,0.26720777,-0.10430687,0.23795308,-0.8448296,0.47920898,0.8502351,0.41970003,0.31772974,-0.46955153,0.3318355,0.8181727,,-0.033925865,0.38214934,-0.38341206,-0.6957387,-0.53678465,-0.4772944,0.65410084,-0.19888268,-0.72979295,0.29681605,-0.81994385,0.48948166,,1.2923375646384778,0.5261034543236704,0.19100833150000002,2.267796738785131,-0.4996796796422157,-0.3161366850874277,-0.4055833162114153,,-0.925554089510059,-0.4115830485317952,0.20151087308,-2.178259132917239,-0.014073559475840366,0.005513496050470357,0.8142701696793821,,-0.055632369907319255,-0.0618370153981591,0.08432137115999999,-0.06574422517700301,,9.875745e-06,-3.4570694e-06,1.4305115e-06,1.0,-7.5660646e-06,-6.6421926e-06,7.5660646e-06,1.0,-8.046627e-07,6.649643e-06,8.046627e-07,1.0,661,2.048,1,1,0.902,False,-0.26112916771260597,0.9883439729711534
2.058580488024745,16:03:47.570252,16:03:37.531893,0,,0.11176308,-0.003459543,0.044673532,-0.31079206,0.8723376,-0.37740573,0.32883176,0.47123304,0.81841886,0.8917835,0.13025503,-0.4333078,,0.06485089,-0.045443743,0.01970166,0.65225846,0.5218144,0.54978937,0.59471893,-0.80200624,0.05563581,0.4699661,0.29068127,-0.8334483,,0.10612688,1.3403065,0.44034585,0.99536884,0.013083019,-0.095235124,-0.052863523,-0.75295013,-0.6559509,-0.08028912,0.65794754,-0.7487715,,-0.08396297,0.2671811,-0.10439575,0.2556817,-0.84072864,0.47728625,0.8435332,0.43520364,0.31472135,-0.47231197,0.32213834,0.82045615,,-0.03392625,0.3821445,-0.3834197,-0.69575095,-0.53676695,-0.4772964,0.6540817,-0.19885448,-0.7298178,0.29682955,-0.81996226,0.48944262,,1.2933955790422467,0.5254547447622356,0.19094481329000002,2.244940534945318,-0.5011826811396356,-0.3033943857869479,-0.40476659588074404,,-0.925554089510059,-0.4116293849290406,0.20151087308,-2.178259132917239,-0.014073559475840366,0.005513496050470357,0.8142701696793821,,-0.055632369907319255,-0.0618370153981591,0.08432137115999999,-0.06574422517700301,,9.875745e-06,-3.4570694e-06,1.4305115e-06,1.0,-7.5660646e-06,-6.6421926e-06,7.5660646e-06,1.0,-8.046627e-07,6.649643e-06,8.046627e-07,1.0,670,2.076,1,1,0.93,False,-0.2607717014014801,0.9876197699594613
2.0894314240431413,16:03:47.592920,16:03:37.531893,0,,0.11161158,-0.0035062358,0.044670016,-0.32277232,0.86938995,-0.37413743,0.32682568,0.47335845,0.81799567,0.88825834,0.14174859,-0.436926,,0.0648503,-0.045454323,0.019700646,0.6522766,0.5218397,0.5497439,0.59472406,-0.8020016,0.055647224,0.46993443,0.2906486,-0.8334776,,0.10612688,1.3403065,0.44034585,0.99536884,0.013083019,-0.095235124,-0.052863523,-0.75295013,-0.6559509,-0.08028912,0.65794754,-0.7487715,,-0.08381589,0.26714438,-0.10444226,0.26773182,-0.83864975,0.47432715,0.83969325,0.44451055,0.3119705,-0.4724774,0.3147649,0.82321817,,-0.03392547,0.3821383,-0.3834283,-0.6957663,-0.53678936,-0.4772487,0.6540557,-0.19888215,-0.72983354,0.29685065,-0.81994087,0.48946568,,1.2938434975489517,0.5251381127143925,0.19090462830000002,2.2300525489579166,-0.500362862141043,-0.29377137195141556,-0.40623669247595234,,-0.9255463667771848,-0.4116834440591602,0.20151087308,-2.178259132917239,-0.014073559475840366,0.005431817310329795,0.8134534493487107,,-0.055632369907319255,-0.0618370153981591,0.08432137115999999,-0.06574422517700301,,9.875745e-06,-3.4570694e-06,1.4305115e-06,1.0,-7.5660646e-06,-6.6421926e-06,7.5660646e-06,1.0,-8.046627e-07,6.649643e-06,8.046627e-07,1.0,679,2.105,1,1,0.959,False,-0.26095043455704303,0.9874266491563435
2.1120618450222537,16:03:47.622177,16:03:37.531893,0,,0.11136382,-0.0036183447,0.044632435,-0.34845072,0.8607367,-0.3710984,0.32226354,0.48178834,0.8148782,0.88018644,0.16435339,-0.44526362,,0.06485212,-0.04546629,0.019701064,0.652294,0.52180815,0.5497533,0.594724,-0.80200595,0.055585742,0.4699105,0.29069325,-0.8334755,,0.10612688,1.3403065,0.44034585,0.99536884,0.013083019,-0.095235124,-0.052863523,-0.75295013,-0.6559509,-0.08028912,0.65794754,-0.7487715,,-0.08357534,0.26703644,-0.10451879,0.2935849,-0.8313915,0.4718009,0.83092153,0.46596336,0.3040519,-0.47262812,0.30276445,0.8276209,,-0.0339272,0.38213244,-0.38343877,-0.6957816,-0.5367617,-0.47725764,0.6540338,-0.19884357,-0.7298637,0.29686332,-0.81996834,0.48941198,,1.2943223069871537,0.5245589077488256,0.19083722122000002,2.198389367491753,-0.4985865876440922,-0.27823062675023214,-0.4070534128066239,,-0.925554089510059,-0.41174522592215396,0.20151087308,-2.178259132917239,-0.014073559475840366,0.005431817310329795,0.8134534493487107,,-0.055632369907319255,-0.0618370153981591,0.08432137115999999,-0.06574422517700301,,9.875745e-06,-3.4570694e-06,1.4305115e-06,1.0,-7.5660646e-06,-6.6421926e-06,7.5660646e-06,1.0,-8.046627e-07,6.649643e-06,8.046627e-07,1.0,697,2.162,1,1,1.016,False,-0.26154621174225356,0.9876680501602408
2.141360045003239,16:03:47.682260,16:03:37.693195,0,,0.111068964,-0.0037354901,0.044555813,-0.3789407,0.8507279,-0.36423296,0.31509048,0.4886791,0.8135791,0.87012744,0.19353183,-0.45323676,,0.064854175,-0.0454828,0.019701302,0.65231836,0.5217215,0.5498066,0.5947249,-0.8020157,0.055435598,0.4698755,0.29082203,-0.8334504,,0.10612688,1.3403065,0.44034585,0.99536884,0.013083019,-0.095235124,-0.052863523,-0.75295013,-0.6559509,-0.08028912,0.65794754,-0.7487715,,-0.08328498,0.2668986,-0.104575604,0.32418638,-0.8234884,0.46558565,0.8188874,0.4907002,0.29771915,-0.47363126,0.28474575,0.83342266,,-0.033929117,0.38212416,-0.38345304,-0.6958029,-0.53668624,-0.4773114,0.65400225,-0.19873126,-0.7299226,0.29688272,-0.820045,0.4892718,,1.2948628982883492,0.5238252481257742,0.19079573994000001,2.16022579777757,-0.4973568591462032,-0.2555465532427369,-0.40705341280662394,,-0.9255618122429332,-0.4118301759837704,0.20151087308,-2.178259132917239,-0.014073559475840366,0.005513496050470357,0.8132901052825763,,-0.055632369907319255,-0.0618370153981591,0.08432137115999999,-0.06574422517700301,,9.875745e-06,-3.4570694e-06,1.4305115e-06,1.0,-7.5660646e-06,-6.6421926e-06,7.5660646e-06,1.0,-8.046627e-07,6.649643e-06,8.046627e-07,1.0,706,2.191,1,1,1.045,False,-0.2607717014014801,0.9875232095579025
2.2014485760009848,16:03:47.711683,16:03:37.693195,0,,0.11082612,-0.0037843287,0.044484675,-0.39571497,0.8452909,-0.3590163,0.31114814,0.49120656,0.8135743,0.86405814,0.21023618,-0.45738852,,0.064853504,-0.04549186,0.019700348,0.6523341,0.5217053,0.54980326,0.59472966,-0.80201536,0.055389225,0.46984756,0.29085207,-0.8334556,,0.10612688,1.3403065,0.44034585,0.99536884,0.013083019,-0.095235124,-0.052863523,-0.75295013,-0.6559509,-0.08028912,0.65794754,-0.7487715,,-0.08304139,0.26681492,-0.10458463,0.34106952,-0.81936616,0.46077183,0.8119096,0.50381243,0.29491654,-0.4737872,0.27351806,0.8370864,,-0.033928275,0.38211876,-0.38346037,-0.6958163,-0.53667265,-0.47730717,0.6539795,-0.19870402,-0.72995037,0.29690155,-0.8200605,0.4892344,,1.295612003377149,0.5231765385643394,0.19079833252000003,2.138627733598664,-0.49599049414854884,-0.24106009291285363,-0.4072167568727582,,-0.925554089510059,-0.4118765123810158,0.20151087308,-2.178259132917239,-0.014073559475840366,0.005513496050470357,0.8132901052825763,,-0.055632369907319255,-0.0618370153981591,0.08432137115999999,-0.06574422517700301,,9.875745e-06,-3.4570694e-06,1.4305115e-06,1.0,-7.5660646e-06,-6.6421926e-06,7.5660646e-06,1.0,-8.046627e-07,6.649643e-06,8.046627e-07,1.0,720,2.236,1,1,1.09,False,-0.2611887454311268,0.9873300887547847
2.230868446000386,16:03:47.752799,16:03:37.693195,0,,0.11044506,-0.0038187578,0.044376582,-0.4158427,0.8376043,-0.35425076,0.3048315,0.49537003,0.81344116,0.85682696,0.23027673,-0.4613243,,0.06485292,-0.04550244,0.019699335,0.6523522,0.5216856,0.54980034,0.5947348,-0.8020153,0.055335045,0.46981585,0.29088748,-0.83346117,,0.10612688,1.3403065,0.44034585,0.99536884,0.013083019,-0.095235124,-0.052863523,-0.75295013,-0.6559509,-0.08028912,0.65794754,-0.7487715,,-0.08265617,0.26671726,-0.104573235,0.3611989,-0.8131763,0.45637673,0.8023978,0.5203821,0.2921647,-0.47507173,0.2606661,0.8404523,,-0.0339275,0.38211256,-0.383469,-0.6958317,-0.5366561,-0.4773033,0.6539535,-0.19867207,-0.7299824,0.29692265,-0.820079,0.48919043,,1.2969712043630126,0.5221416923591933,0.19083462864000003,2.111787420832645,-0.49530731164972164,-0.22421961078139604,-0.407706789071161,,-0.9255463667771848,-0.4119305715111353,0.20151087308,-2.178259132917239,-0.014073559475840366,0.005513496050470357,0.8132901052825763,,-0.055632369907319255,-0.0618370153981591,0.08432137115999999,-0.06574422517700301,,9.875745e-06,-3.4570694e-06,1.4305115e-06,1.0,-7.5660646e-06,-6.6421926e-06,7.5660646e-06,1.0,-8.046627e-07,6.649643e-06,8.046627e-07,1.0,734,2.281,1,1,1.135,False,-0.26053339052739544,0.9871369679516666
2.271985750005115,16:03:47.794516,16:03:37.825118,0,,0.10993761,-0.0038062185,0.044198215,-0.4394837,0.82709026,-0.35039333,0.2986408,0.50243354,0.8114028,0.8471527,0.25195646,-0.46781424,,0.06485614,-0.045518905,0.019700408,0.6523751,0.5217743,0.5496891,0.594733,-0.802009,0.05544722,0.46978652,0.29074588,-0.8335271,,0.10612688,1.3403065,0.44034585,0.99536884,0.013083019,-0.095235124,-0.052863523,-0.75295013,-0.6559509,-0.08028912,0.65794754,-0.7487715,,-0.08213552,0.26660722,-0.10449376,0.38504246,-0.8040958,0.45295942,0.7913405,0.540204,0.28628635,-0.47489214,0.24821271,0.84431505,,-0.033930637,0.38210484,-0.3834836,-0.695852,-0.53673244,-0.47718793,0.6539256,-0.19879727,-0.72997326,0.2969367,-0.81999874,0.48931655,,1.299496538012884,0.5205508093871031,0.19097592425,2.0711075717966474,-0.4907983071574621,-0.20331110082106862,-0.4059100043436839,,-0.9255618122429332,-0.41201552157275184,0.20151087308,-2.178259132917239,-0.014073559475840366,0.005268459830048672,0.8131267612164421,,-0.055632369907319255,-0.0618370153981591,0.08432137115999999,-0.06574422517700301,,9.875745e-06,-3.4570694e-06,1.4305115e-06,1.0,-7.5660646e-06,-6.6421926e-06,7.5660646e-06,1.0,-8.046627e-07,6.649643e-06,8.046627e-07,1.0,743,2.31,1,1,1.164,False,-0.26106958999408425,0.9862679243376367
2.313669994007796,16:03:47.831478,16:03:37.825118,0,,0.1094843,-0.0037553608,0.043937474,-0.46628672,0.81509596,-0.34379506,0.29412854,0.50936747,0.8087234,0.83430505,0.275977,-0.4772543,,0.064857654,-0.045533866,0.019698918,0.6523987,0.52178514,0.5496508,0.5947363,-0.80200726,0.055435628,0.4697495,0.2907312,-0.8335531,,0.10612688,1.3403065,0.44034585,0.99536884,0.013083019,-0.095235124,-0.052863523,-0.75295013,-0.6559509,-0.08028912,0.65794754,-0.7487715,,-0.081658386,0.26647007,-0.10432176,0.412438,-0.79376227,0.44703063,0.77939516,0.5615063,0.27794588,-0.47163343,0.23377806,0.850241,,-0.03393187,0.38209584,-0.38349566,-0.69587237,-0.536742,-0.47714746,0.65389365,-0.19880988,-0.72999847,0.29695916,-0.81998944,0.48931843,,1.3009329663274898,0.5197013087709383,0.19111981244,2.0446866389175966,-0.4851962106670791,-0.18794962227832474,-0.4059100043436838,,-0.9255618122429332,-0.41209274890149405,0.20151216937000002,-2.178259132917239,-0.014073559475840366,0.005105102349767521,0.8126367290180392,,-0.055632369907319255,-0.0618370153981591,0.08432137115999999,-0.06574422517700301,,9.875745e-06,-3.4570694e-06,1.4305115e-06,1.0,-7.5660646e-06,-6.6421926e-06,7.5660646e-06,1.0,-8.046627e-07,6.649643e-06,8.046627e-07,1.0,757,2.355,1,1,1.209,False,-0.26041423509035333,0.9858816827314008
2.3506550469901413,16:03:47.879782,16:03:37.825118,0,,0.10900277,-0.00352069,0.043494344,-0.4932794,0.8022763,-0.33619612,0.28879708,0.51561075,0.80668586,0.82053125,0.30082902,-0.48603526,,0.064857826,-0.0455669,0.01969546,0.6524539,0.52180827,0.5495633,0.5947492,-0.8020004,0.055396765,0.46965647,0.29070854,-0.8336134,,0.10612688,1.3403065,0.44034585,0.99536884,0.013083019,-0.095235124,-0.052863523,-0.75295013,-0.6559509,-0.08028912,0.65794754,-0.7487715,,-0.08112266,0.26634634,-0.10389632,0.44003928,-0.7827369,0.44010037,0.76622087,0.5828578,0.27052245,-0.46826383,0.21817358,0.85622966,,-0.03393142,0.38207608,-0.3835224,-0.6959196,-0.5367632,-0.47705472,0.6538161,-0.19882764,-0.7300631,0.29701933,-0.81997126,0.48931247,,1.3031571133952664,0.5185660670384273,0.19155666217000003,2.0086199686382584,-0.4776812031799798,-0.16753201643594523,-0.4064000365420868,,-0.925554089510059,-0.41227037175760123,0.20151346566000003,-2.178259132917239,-0.014073559475840366,0.005023423609627015,0.8106766002244279,,-0.055632369907319255,-0.0618370153981591,0.08432137115999999,-0.06574422517700301,,9.875745e-06,-3.4570694e-06,1.4305115e-06,1.0,-7.5660646e-06,-6.6421926e-06,7.5660646e-06,1.0,-8.046627e-07,6.649643e-06,8.046627e-07,1.0,771,2.4,1,1,1.254,False,-0.2608312791200009,0.9854471609243856
2.398940551036503,16:03:47.921088,16:03:37.959396,0,,0.1086404,-0.003326878,0.043053,-0.52081394,0.7858508,-0.33345333,0.28131995,0.5267872,0.8020938,0.805985,0.3239345,-0.49543375,,0.0648613,-0.045596883,0.019694269,0.65238965,0.5218742,0.549577,0.5949212,-0.8018832,0.055245787,0.46952796,0.29091325,-0.83361435,,0.10612688,1.3403065,0.44034585,0.99536884,0.013083019,-0.095235124,-0.052863523,-0.75295013,-0.6559509,-0.08028912,0.65794754,-0.7487715,,-0.08070864,0.2661934,-0.10348541,0.46807837,-0.76758933,0.4378462,0.7509399,0.60669005,0.26079953,-0.46582386,0.20672157,0.860392,,-0.03393449,0.3820596,-0.38354748,-0.69584626,-0.5368475,-0.4770668,0.6537982,-0.1985977,-0.73014164,0.29723036,-0.8199718,0.4891834,,1.3046012644427465,0.5176470618263946,0.19197666013000003,1.9717145385849826,-0.471532560690535,-0.15294292446854926,-0.4044399077484755,,-0.925554089510059,-0.4124171036822115,0.20151476195,-2.1784688228607236,-0.014073559475840366,0.005023423609626987,0.8103499120921593,,-0.055632369907319255,-0.0618370153981591,0.08432137115999999,-0.06574422517700301,,9.875745e-06,-3.4570694e-06,1.4305115e-06,1.0,-7.5660646e-06,-6.6421926e-06,7.5660646e-06,1.0,-8.046627e-07,6.649643e-06,8.046627e-07,1.0,780,2.429,1,1,1.283,False,-0.2608312791200009,0.9850126391173704
