AlexandreBanks6/ExpertPlaybackApp/resources/Motions/P_13/PC1/Data_PC1_2.csv
Task Time,PC1 Time,PC2 Time,Gaze Calib,s_T_psm1,Tx,Ty,Tz,R00,R01,R02,R10,R11,R12,R20,R21,R22,s_T_psm3,Tx,Ty,Tz,R00,R01,R02,R10,R11,R12,R20,R21,R22,cart_T_ecm,Tx,Ty,Tz,R00,R01,R02,R10,R11,R12,R20,R21,R22,ecm_T_psm1,Tx,Ty,Tz,R00,R01,R02,R10,R11,R12,R20,R21,R22,ecm_T_psm3,Tx,Ty,Tz,R00,R01,R02,R10,R11,R12,R20,R21,R22,psm1_joints,q1,q2,q3,q4,q5,q6,jaw,psm3_joints,q1,q2,q3,q4,q5,q6,jaw,ecm_joints,q1,q2,q3,q4,ecmi_T_ecm,Tx,Ty,Tz,R00,R01,R02,R10,R11,R12,R20,R21,R22,Sample #,Task Duration (s),Collisions (binary),Collisions (increments),Cumulative Collision Time (s),Clutch Press,MTMR Angle,MTML Angle
""
lci_T_si,,,,,-0.060449902,0.028989637,0.2531565,0.99598145,-0.006817275,0.089299574,0.061369892,-0.674251,-0.7359479,0.065227486,0.7384708,-0.67112315
rci_T_si,,,,,-0.070302054,0.033551246,0.263737,0.9935428,-0.022055382,0.11129344,0.070708275,-0.6467685,-0.7594016,0.088729985,0.7623674,-0.6410327
ecm_T_lc,,,,,-4.4061628e-05,-0.00034663224,-0.01840835,-0.99912,0.030754527,0.028518902,-0.031987965,-0.99852574,-0.043852776,0.027128186,-0.04472645,0.9986309
ecm_T_rc,,,,,-0.0043358393,0.01870579,-0.007592615,-0.99555075,-0.052743673,-0.078081585,0.04863213,-0.9973746,0.053654674,-0.08070653,0.04961868,0.9955021
cart_T_ecmi,,,,,0.05789456,1.3372948,0.4464937,0.99692506,0.077136,-0.013802834,0.042921547,-0.6848879,-0.7273832,-0.065560825,0.72455406,-0.6860927
ecmac_T_ecmrep_psm1,,,,,-0.0025980123,-0.29326126,-0.2805022,0.9974786,0.061531033,0.035360787,-0.060258932,0.9975341,-0.035980776,-0.037487525,0.033759248,0.99872667
ecmac_T_ecmrep_psm3,,,,,-0.0114122145,-0.5209516,-0.5025674,0.9999053,0.010122195,-0.009323479,-0.0077519584,0.9740634,0.22614253,0.011370718,-0.22604884,0.9740496
""
0,13:58:53.007262,13:57:25.969556,0,,0.1257897,0.00519678,0.01865901,-0.4851677,-0.5563274,-0.6746201,-0.5304606,-0.42607176,0.73285365,-0.695143,0.71341616,-0.08839345,,0.020520732,0.008641373,0.043580472,-0.7170909,-0.65963507,0.22508271,-0.09838314,0.41550505,0.9042545,-0.6900011,0.62628835,-0.36285186,,0.057879247,1.3372922,0.4464892,0.9969239,0.077153385,-0.013784369,0.042946853,-0.6848859,-0.72738355,-0.065560825,0.72455406,-0.6860927,,-0.08348045,0.28511715,-0.03351867,0.5160442,0.501969,0.6940645,-0.8556477,0.26466593,0.44476843,0.03956472,-0.82339483,0.5660879,,0.027256388,0.48837867,-0.27374005,0.7965801,0.58587027,-0.14905119,-0.5835194,0.8095953,0.06372217,0.15800406,0.036214452,0.98677415,,1.1293570100608439,0.38470793812949394,0.19026944620000003,-0.2547732813336971,0.10562001431868547,0.9531542499911801,-0.4126071110551893,,-1.0341588819202783,0.26743051670152057,0.17036620954,1.2176695018146328,0.32300868544550126,0.4808647558224629,0.8627833573212631,,0.026284658535034606,0.02909900195387546,0.07078751784,-0.11578833687890082,,-1.5079975e-05,-2.6226044e-06,5.2452087e-06,1.0,1.7419457e-05,1.8391758e-05,-1.7415732e-05,1.0,1.6987324e-06,-1.8391758e-05,-1.6391277e-06,1.0,35,0.104,0,0,0.0,False,-0.2607121236829584,1.0359965311404788
0.12650406290777028,13:58:53.040727,13:57:26.049853,0,,0.12560089,0.005407989,0.018769875,-0.482548,-0.55725497,-0.6757324,-0.52460456,-0.4339187,0.7324648,-0.7013826,0.7079417,-0.08295196,,0.020522065,0.008642536,0.043581724,-0.7172766,-0.6593026,0.22546455,-0.09806131,0.41587043,0.9041216,-0.6898537,0.62639594,-0.3629462,,0.057879247,1.3372922,0.4464892,0.9969239,0.077153385,-0.013784369,0.042946853,-0.6848859,-0.72738355,-0.065560825,0.72455406,-0.6860927,,-0.08329448,0.28534663,-0.033445865,0.5139399,0.5030688,0.6948291,-0.85646963,0.25538665,0.448595,0.04822405,-0.82565093,0.56211656,,0.027254947,0.48838016,-0.27373946,0.796755,0.5855379,-0.14942157,-0.5832248,0.80982196,0.06353981,0.15820985,0.036520697,0.9867299,,1.1309556157658083,0.38448397887614144,0.19034851989,-0.257918630485965,0.11409147730414278,0.9560477887788694,-0.41260711105518943,,-1.0341666046531526,0.267445962167269,0.17036620954,1.218088881701602,0.32300868544550126,0.4806197196020412,0.860986572593786,,0.026284658535034606,0.02909900195387546,0.07078751784,-0.11578833687890082,,-1.5079975e-05,-2.6226044e-06,5.2452087e-06,1.0,1.7419457e-05,1.8391758e-05,-1.7415732e-05,1.0,1.6987324e-06,-1.8391758e-05,-1.6391277e-06,1.0,43,0.128,0,0,0.0,False,-0.26095043455704303,1.0366724539513914
0.15994997299276292,13:58:53.061851,13:57:26.049853,0,,0.12545836,0.005511418,0.018818453,-0.48331234,-0.55508536,-0.67697084,-0.52179223,-0.43826723,0.73188436,-0.7029524,0.7069668,-0.07781932,,0.020521462,0.008641925,0.04358065,-0.7174411,-0.65914094,0.22541401,-0.097988114,0.41585332,0.9041373,-0.68969315,0.62657744,-0.36293826,,0.057879247,1.3372922,0.4464892,0.9969239,0.077153385,-0.013784369,0.042946853,-0.6848859,-0.72738355,-0.065560825,0.72455406,-0.6860927,,-0.083153084,0.28545636,-0.03340926,0.514859,0.5008728,0.6957346,-0.85573745,0.25169048,0.45206782,0.05131871,-0.8281174,0.5582007,,0.027255666,0.488379,-0.27373958,0.79689956,0.5853538,-0.14937203,-0.58303267,0.80995876,0.06355912,0.15818976,0.036438532,0.9867362,,1.1319595710394574,0.38421368322554356,0.19039000117000002,-0.2572895606555114,0.1172341167987479,0.959774439984675,-0.4121170788567866,,-1.0341666046531526,0.267445962167269,0.17036620954,1.2182985716450865,0.3228720489457358,0.4807311375057376,0.8613132607260544,,0.026284658535034606,0.02909900195387546,0.07078751784,-0.11578833687890082,,-1.5079975e-05,-2.6226044e-06,5.2452087e-06,1.0,1.7419457e-05,1.8391758e-05,-1.7415732e-05,1.0,1.6987324e-06,-1.8391758e-05,-1.6391277e-06,1.0,51,0.152,0,0,0.0,False,-0.26160578946077395,1.0360930915420377
0.18109417287632823,13:58:53.081015,13:57:26.049853,0,,0.12529968,0.0055930465,0.018859163,-0.4806351,-0.55587274,-0.6782297,-0.5206639,-0.44144315,0.73077846,-0.7056196,0.70436734,-0.077249825,,0.020521462,0.008641925,0.04358065,-0.7174411,-0.65914094,0.22541401,-0.097988114,0.41585332,0.9041373,-0.68969315,0.62657744,-0.36293826,,0.057879247,1.3372922,0.4464892,0.9969239,0.077153385,-0.013784369,0.042946853,-0.6848859,-0.72738355,-0.065560825,0.72455406,-0.6860927,,-0.08299556,0.2855462,-0.03338461,0.5123765,0.50175273,0.6969322,-0.8570561,0.24766248,0.4517944,0.054085117,-0.82879883,0.55692667,,0.027255666,0.488379,-0.27373958,0.79689956,0.5853538,-0.14937203,-0.58303267,0.80995876,0.06355912,0.15818976,0.036438532,0.9867362,,1.1329249126487355,0.38381982384895813,0.19042111213000001,-0.2606445997512638,0.12010348329382216,0.9600483836915481,-0.4127704551213238,,-1.0341666046531526,0.267445962167269,0.17036620954,1.2182985716450865,0.3228720489457358,0.4807311375057376,0.8613132607260544,,0.026284658535034606,0.02909900195387546,0.07078751784,-0.11578833687890082,,-1.5079975e-05,-2.6226044e-06,5.2452087e-06,1.0,1.7419457e-05,1.8391758e-05,-1.7415732e-05,1.0,1.6987324e-06,-1.8391758e-05,-1.6391277e-06,1.0,58,0.174,0,0,0.0,False,-0.26148663402373185,1.0364793331482736
0.20025184890255332,13:58:53.105391,13:57:26.049853,0,,0.12507287,0.0056651086,0.018892765,-0.47553745,-0.55780536,-0.68023336,-0.52086306,-0.44460967,0.72871387,-0.7089188,0.7008391,-0.079111665,,0.020522371,0.008641686,0.04357916,-0.71763194,-0.6588394,0.22568749,-0.097675174,0.41608196,0.90406597,-0.68953884,0.62674266,-0.36294597,,0.057879247,1.3372922,0.4464892,0.9969239,0.077153385,-0.013784369,0.042946853,-0.6848859,-0.72738355,-0.065560825,0.72455406,-0.6860927,,-0.08276979,0.2856266,-0.0333662,0.50749004,0.5038332,0.6990036,-0.85980844,0.24298625,0.4490959,0.05642117,-0.82892084,0.55651313,,0.027254952,0.48837745,-0.27373904,0.79707843,0.5850406,-0.14964426,-0.5827353,0.8101779,0.06349236,0.15838408,0.036594607,0.9866992,,1.1341142135113662,0.3831402233560264,0.19044963051000002,-0.2669352980557995,0.12269957678936552,0.9588299096628623,-0.41375051951812936,,-1.0341666046531526,0.267445962167269,0.17036750583000002,1.2187179515320554,0.3228720489457358,0.48064945876559706,0.8614766047921887,,0.026284658535034606,0.02909900195387546,0.07078751784,-0.11578833687890082,,-1.5079975e-05,-2.6226044e-06,5.2452087e-06,1.0,1.7419457e-05,1.8391758e-05,-1.7415732e-05,1.0,1.6987324e-06,-1.8391758e-05,-1.6391277e-06,1.0,66,0.198,0,0,0.0,False,-0.26160578946077395,1.0367207341521705
0.22459513088688254,13:58:53.123912,13:57:26.049853,0,,0.1249544,0.0056888163,0.018914163,-0.47500658,-0.56013674,-0.6786868,-0.51814675,-0.4453448,0.73020005,-0.7112614,0.69850904,-0.078691304,,0.020524025,0.008640137,0.043578625,-0.71772283,-0.6587006,0.22580409,-0.09752004,0.41616654,0.9040438,-0.68946636,0.62683254,-0.3629287,,0.057879247,1.3372922,0.4464892,0.9969239,0.077153385,-0.013784369,0.042946853,-0.6848859,-0.72738355,-0.065560825,0.72455406,-0.6860927,,-0.08265241,0.28566214,-0.033369526,0.5071626,0.5062885,0.6974655,-0.8597571,0.24083655,0.4503504,0.06003206,-0.82805175,0.5574284,,0.027253339,0.48837614,-0.27374005,0.79716384,0.584894,-0.14976273,-0.5825918,0.8102817,0.063485876,0.1584825,0.03664189,0.98668164,,1.1346856957440588,0.38263052298632755,0.19045481567000003,-0.2675643678862531,0.12666203528256328,0.9569056502979152,-0.41326048731972653,,-1.0341743273860267,0.26743823943439476,0.17036750583000002,1.2189276414755401,0.3228720489457358,0.480649458765597,0.8618032929244573,,0.026284658535034606,0.02909900195387546,0.07078751784,-0.11578833687890082,,-1.5079975e-05,-2.6226044e-06,5.2452087e-06,1.0,1.7419457e-05,1.8391758e-05,-1.7415732e-05,1.0,1.6987324e-06,-1.8391758e-05,-1.6391277e-06,1.0,74,0.222,0,0,0.0,False,-0.26136747858668974,1.0368172945537295
0.24314928194507957,13:58:53.154014,13:57:26.180289,0,,0.124848045,0.005696714,0.018924475,-0.47317928,-0.562407,-0.67808545,-0.516392,-0.44654262,0.73071134,-0.71375126,0.69591516,-0.07912779,,0.020524971,0.008641195,0.043579638,-0.7177177,-0.65868676,0.22586054,-0.09751448,0.4162353,0.9040128,-0.68947244,0.6268013,-0.36297095,,0.057879247,1.3372922,0.4464892,0.9969239,0.077153385,-0.013784369,0.042946853,-0.6848859,-0.72738355,-0.065560825,0.72455406,-0.6860927,,-0.082546756,0.2856785,-0.033376556,0.50553036,0.50868946,0.6969032,-0.8604985,0.23817995,0.45034727,0.063098565,-0.82734835,0.5581337,,0.027252294,0.48837742,-0.2737395,0.79715973,0.5848864,-0.14981419,-0.58259517,0.8102837,0.063428685,0.15849057,0.03671823,0.9866775,,1.1351258915178895,0.3821208226166287,0.19045611196,-0.26966126732109835,0.13007794777669932,0.9552637050674726,-0.41358717545199486,,-1.034182050118901,0.267445962167269,0.17036750583000002,1.2189276414755401,0.3228720489457358,0.48056778002545647,0.8619666369905916,,0.026284658535034606,0.02909900195387546,0.07078751784,-0.11578833687890082,,-1.5079975e-05,-2.6226044e-06,5.2452087e-06,1.0,1.7419457e-05,1.8391758e-05,-1.7415732e-05,1.0,1.6987324e-06,-1.8391758e-05,-1.6391277e-06,1.0,85,0.256,0,0,0.0,False,-0.2599376133421849,1.0362862123451555
0.2732239819597453,13:58:53.186667,13:57:26.180289,0,,0.12468444,0.0056509823,0.018890843,-0.46902654,-0.5617352,-0.68151873,-0.51833385,-0.44970706,0.72738814,-0.71508324,0.69441855,-0.08024186,,0.020524308,0.00863969,0.043578386,-0.71781814,-0.65854055,0.22596768,-0.09736352,0.4163177,0.9039911,-0.68938917,0.6269003,-0.36295822,,0.057879247,1.3372922,0.4464892,0.9969239,0.077153385,-0.013784369,0.042946853,-0.6848859,-0.72738355,-0.065560825,0.72455406,-0.6860927,,-0.08238237,0.28562823,-0.033397563,0.50142825,0.50804526,0.7003283,-0.8629189,0.23493348,0.4474117,0.062774844,-0.8286714,0.55620414,,0.027253067,0.4883757,-0.27374032,0.79725313,0.5847312,-0.1499227,-0.58244306,0.8103938,0.06341933,0.15857969,0.03676017,0.9866616,,1.135550641825972,0.3812790447333383,0.19044574164000003,-0.2746938259647269,0.13035122077623018,0.9566744440628909,-0.412933799187458,,-1.0341743273860267,0.26743823943439476,0.17036750583000002,1.2191373314190246,0.3228720489457358,0.4805677800254564,0.86229332512286,,0.026284658535034606,0.02909900195387546,0.07078751784,-0.11578833687890082,,-1.5079975e-05,-2.6226044e-06,5.2452087e-06,1.0,1.7419457e-05,1.8391758e-05,-1.7415732e-05,1.0,1.6987324e-06,-1.8391758e-05,-1.6391277e-06,1.0,93,0.28,0,0,0.0,False,-0.2602950796533112,1.0369138549552883
0.3058480138424784,13:58:53.210965,13:57:26.180289,0,,0.12464839,0.005635962,0.018899828,-0.46846735,-0.5647197,-0.67943364,-0.5156797,-0.44966096,0.72930074,-0.71736515,0.69202363,-0.08056301,,0.020525753,0.008639183,0.043578565,-0.7179086,-0.65840256,0.2260822,-0.09720491,0.41639605,0.903972,-0.68931735,0.6269931,-0.36293426,,0.057879247,1.3372922,0.4464892,0.9969239,0.077153385,-0.013784369,0.042946853,-0.6848859,-0.72738355,-0.065560825,0.72455406,-0.6860927,,-0.082347274,0.28562605,-0.033416796,0.50106746,0.5111727,0.6983079,-0.8628648,0.23327772,0.44838142,0.06630067,-0.8272146,0.5579608,,0.027251601,0.48837546,-0.2737407,0.7973384,0.5845849,-0.15003987,-0.5822986,0.8104975,0.06342037,0.15868153,0.036800504,0.98664373,,1.1356278691547141,0.38094696721974664,0.19043277874000003,-0.27511320585169596,0.13417704276966252,0.9542081726805156,-0.4122804229229208,,-1.034182050118901,0.26743823943439476,0.17036750583000002,1.2193470213625093,0.3228720489457358,0.4805677800254564,0.86229332512286,,0.026284658535034606,0.02909900195387546,0.07078751784,-0.11578833687890082,,-1.5079975e-05,-2.6226044e-06,5.2452087e-06,1.0,1.7419457e-05,1.8391758e-05,-1.7415732e-05,1.0,1.6987324e-06,-1.8391758e-05,-1.6391277e-06,1.0,101,0.304,0,0,0.0,False,-0.26053339052739544,1.036431052947494
0.3301910508889705,13:58:53.232008,13:57:26.180289,0,,0.12462904,0.0056368113,0.018932253,-0.46473113,-0.5667007,-0.68034935,-0.51354325,-0.45342827,0.7284753,-0.7213171,0.68793386,-0.08030307,,0.020526052,0.008638706,0.043578327,-0.71800387,-0.6582609,0.226192,-0.09704836,0.41647333,0.90395325,-0.6892401,0.6270905,-0.36291263,,0.057879247,1.3372922,0.4464892,0.9969239,0.077153385,-0.013784369,0.042946853,-0.6848859,-0.72738355,-0.065560825,0.72455406,-0.6860927,,-0.08232996,0.2856514,-0.03343883,0.49762905,0.5133237,0.6991881,-0.8645011,0.2277843,0.44805366,0.07073249,-0.82741344,0.55712104,,0.02725133,0.48837498,-0.273741,0.79742765,0.58443433,-0.15015206,-0.5821498,0.8106044,0.06341996,0.15877871,0.03683816,0.9866267,,1.1357128192163306,0.3807616216307652,0.19041592697,-0.2790973147779019,0.13868604726192205,0.9546153188655617,-0.412933799187458,,-1.034182050118901,0.26743823943439476,0.17036750583000002,1.2195567113059935,0.3228720489457358,0.4805677800254564,0.86229332512286,,0.026284658535034606,0.02909900195387546,0.07078751784,-0.11578833687890082,,-1.5079975e-05,-2.6226044e-06,5.2452087e-06,1.0,1.7419457e-05,1.8391758e-05,-1.7415732e-05,1.0,1.6987324e-06,-1.8391758e-05,-1.6391277e-06,1.0,109,0.328,0,0,0.0,False,-0.259580147031059,1.0369138549552883
0.351223403820768,13:58:53.259833,13:57:26.180289,0,,0.1246489,0.005664766,0.01903294,-0.4598796,-0.5724462,-0.6788344,-0.50556874,-0.4596768,0.7301353,-0.7300075,0.67897177,-0.07801494,,0.020523824,0.008639272,0.04357797,-0.71810865,-0.6581129,0.22629029,-0.09689261,0.4165423,0.9039382,-0.68915296,0.6272,-0.36288887,,0.057879247,1.3372922,0.4464892,0.9969239,0.077153385,-0.013784369,0.042946853,-0.6848859,-0.72738355,-0.065560825,0.72455406,-0.6860927,,-0.08235543,0.28574434,-0.03348383,0.49349412,0.51948076,0.69756955,-0.8658059,0.21713036,0.4508154,0.08272641,-0.8264346,0.5569221,,0.027253594,0.4883752,-0.27374053,0.797525,0.58427554,-0.150253,-0.5819916,0.81071764,0.06342425,0.15887,0.03686356,0.98661107,,1.1357900465450728,0.3806380579047776,0.19038092714000002,-0.28371049353456146,0.1507100592412808,0.9537952047557385,-0.41130035852611513,,-1.0341666046531526,0.267445962167269,0.17036750583000002,1.2197664012494782,0.3228720489457358,0.4805677800254564,0.86229332512286,,0.026284658535034606,0.02909900195387546,0.07078751784,-0.11578833687890082,,-1.5079975e-05,-2.6226044e-06,5.2452087e-06,1.0,1.7419457e-05,1.8391758e-05,-1.7415732e-05,1.0,1.6987324e-06,-1.8391758e-05,-1.6391277e-06,1.0,128,0.387,0,0,0.0,False,-0.2594014138754961,1.0373483767623035
0.3790696158539504,13:58:53.322443,13:57:26.328343,0,,0.12460219,0.005654365,0.019188926,-0.4555881,-0.57437164,-0.68010056,-0.50383383,-0.46347472,0.7289326,-0.73388755,0.6747506,-0.078234345,,0.020528063,0.008637246,0.04357797,-0.7182847,-0.6578025,0.22663356,-0.096576616,0.41685367,0.9038285,-0.6890137,0.62731874,-0.36294797,,0.057879247,1.3372922,0.4464892,0.9969239,0.077153385,-0.013784369,0.042946853,-0.6848859,-0.72738355,-0.065560825,0.72455406,-0.6860927,,-0.0823187,0.285855,-0.03359797,0.4894887,0.52158374,0.6988213,-0.8676745,0.21151699,0.4498905,0.08684299,-0.82656574,0.55610013,,0.027249323,0.48837385,-0.273742,0.7976912,0.5839621,-0.15058897,-0.5817077,0.81093204,0.06328758,0.15907498,0.03711483,0.9865686,,1.1363151923805201,0.38069983976777144,0.19026944620000003,-0.2885333622347055,0.15453588123471315,0.9537792955775802,-0.4116270466583838,,-1.0341897728517753,0.26743823943439476,0.17036750583000002,1.2201857811364474,0.3228720489457358,0.48040442254517535,0.8626200132551286,,0.026284658535034606,0.02909900195387546,0.07078751784,-0.11578833687890082,,-1.5079975e-05,-2.6226044e-06,5.2452087e-06,1.0,1.7419457e-05,1.8391758e-05,-1.7415732e-05,1.0,1.6987324e-06,-1.8391758e-05,-1.6391277e-06,1.0,136,0.411,0,0,0.0,False,-0.2612483231496481,1.0373483767623035
0.44168497482314706,13:58:53.344586,13:57:26.328343,0,,0.12457887,0.0056841224,0.019264534,-0.45165575,-0.57933134,-0.6785148,-0.5010361,-0.46456057,0.7301688,-0.73822075,0.6697452,-0.080444485,,0.020529509,0.008636769,0.043578148,-0.7183751,-0.6576459,0.22680178,-0.09641793,0.4170057,0.90377533,-0.6889418,0.6273819,-0.36297536,,0.057879247,1.3372922,0.4464892,0.9969239,0.077153385,-0.013784369,0.042946853,-0.6848859,-0.72738355,-0.065560825,0.72455406,-0.6860927,,-0.08229949,0.28593186,-0.03362741,0.48589215,0.5268201,0.6974019,-0.8691599,0.20722668,0.44901913,0.09203202,-0.8243286,0.55858076,,0.027247857,0.4883736,-0.27374235,0.7977763,0.5838033,-0.1507538,-0.5815632,0.8110408,0.06322225,0.15917684,0.037235644,0.98654765,,1.1366086562297406,0.38067667156914875,0.19024481669,-0.292727161104396,0.15959143172603446,0.9499018693612342,-0.4121170788567867,,-1.0341974955846494,0.26743823943439476,0.17036750583000002,1.2203954710799318,0.3228720489457358,0.4803227438050347,0.8627833573212629,,0.026284658535034606,0.02909900195387546,0.07078751784,-0.11578833687890082,,-1.5079975e-05,-2.6226044e-06,5.2452087e-06,1.0,1.7419457e-05,1.8391758e-05,-1.7415732e-05,1.0,1.6987324e-06,-1.8391758e-05,-1.6391277e-06,1.0,144,0.435,0,0,0.0,False,-0.2611887454311268,1.0373483767623035
0.4638115088455379,13:58:53.372749,13:57:26.328343,0,,0.12453436,0.005716279,0.019367516,-0.4501703,-0.57993317,-0.67898774,-0.49706304,-0.4689417,0.73008364,-0.7418052,0.6661616,-0.07715967,,0.020528443,0.00863738,0.043578148,-0.7184748,-0.6575014,0.22690475,-0.09626001,0.41707563,0.9037599,-0.6888598,0.6274869,-0.36294943,,0.057879247,1.3372922,0.4464892,0.9969239,0.077153385,-0.013784369,0.042946853,-0.6848859,-0.72738355,-0.065560825,0.72455406,-0.6860927,,-0.08226078,0.2860314,-0.033674482,0.48471555,0.5275505,0.6976685,-0.86922526,0.2016562,0.45142242,0.09745894,-0.8252425,0.5563061,,0.027248928,0.48837402,-0.27374193,0.7978694,0.5836487,-0.15085967,-0.58140916,0.8111508,0.063227855,0.1592728,0.037263628,0.9865311,,1.137095188400817,0.3806380579047776,0.19020333541,-0.29419499070878763,0.1649202552168866,0.9517641553677565,-0.4127704551213237,,-1.0341897728517753,0.267445962167269,0.17036750583000002,1.2206051610234163,0.3228720489457358,0.4803227438050347,0.8627833573212629,,0.026284658535034606,0.02909900195387546,0.07078751784,-0.11578833687890082,,-1.5079975e-05,-2.6226044e-06,5.2452087e-06,1.0,1.7419457e-05,1.8391758e-05,-1.7415732e-05,1.0,1.6987324e-06,-1.8391758e-05,-1.6391277e-06,1.0,152,0.46,0,0,0.0,False,-0.26112916771260597,1.037396656963083
0.49199065286666155,13:58:53.393749,13:57:26.328343,0,,0.12450597,0.005756885,0.019464657,-0.44554922,-0.58239865,-0.6799248,-0.49284875,-0.47446668,0.72937065,-0.7473861,0.66007054,-0.07563621,,0.020528443,0.00863738,0.043578148,-0.7184748,-0.65751994,0.22685105,-0.09626001,0.41700178,0.90379393,-0.6888598,0.6275165,-0.36289817,,0.057879247,1.3372922,0.4464892,0.9969239,0.077153385,-0.013784369,0.042946853,-0.6848859,-0.72738355,-0.065560825,0.72455406,-0.6860927,,-0.082237616,0.2861317,-0.03371046,0.48053882,0.530272,0.69849414,-0.8707165,0.19351633,0.45211086,0.10457172,-0.82544714,0.5547087,,0.027248928,0.48837402,-0.27374193,0.7978694,0.583661,-0.150812,-0.58140916,0.8111456,0.063294105,0.1592728,0.03718305,0.9865341,,1.1374658795787795,0.38059944424040654,0.19017481703000003,-0.2990178594089317,0.17188871670492406,0.9525344627503434,-0.4122804229229209,,-1.0341897728517753,0.267445962167269,0.17036750583000002,1.2206051610234163,0.3228720489457358,0.48040442254517535,0.8626200132551286,,0.026284658535034606,0.02909900195387546,0.07078751784,-0.11578833687890082,,-1.5079975e-05,-2.6226044e-06,5.2452087e-06,1.0,1.7419457e-05,1.8391758e-05,-1.7415732e-05,1.0,1.6987324e-06,-1.8391758e-05,-1.6391277e-06,1.0,171,0.518,0,0,0.0,False,-0.2604738128088746,1.0377828985693187
0.512971956981346,13:58:53.449161,13:57:26.466012,0,,0.124413,0.0058492273,0.019652456,-0.43603477,-0.5917649,-0.67800295,-0.48155704,-0.48303086,0.7312893,-0.7602476,0.6453646,-0.07435039,,0.020529725,0.0086338185,0.04357618,-0.7187604,-0.6570926,0.2271845,-0.09579705,0.4172453,0.90373075,-0.6886264,0.6278024,-0.3628469,,0.057879247,1.3372922,0.4464892,0.9969239,0.077153385,-0.013784369,0.042946853,-0.6848859,-0.72738355,-0.065560825,0.72455406,-0.6860927,,-0.08215454,0.28633606,-0.033771865,0.47207916,0.54034925,0.6965371,-0.8730629,0.17715903,0.454286,0.12207528,-0.8225797,0.555392,,0.027247818,0.4883705,-0.27374408,0.7981365,0.58320796,-0.15115105,-0.58096427,0.8114657,0.063277274,0.15955769,0.037309453,0.98648334,,1.13830765746207,0.38023647579531794,0.19013722462000002,-0.30866359680921984,0.18937818867490044,0.9488095285553342,-0.4134238313858609,,-1.0341897728517753,0.26743051670152057,0.17036750583000002,1.22123423085387,0.3228720489457358,0.48040442254517535,0.8626200132551286,,0.026284658535034606,0.02909900195387546,0.07078751784,-0.11578833687890082,,-1.5079975e-05,-2.6226044e-06,5.2452087e-06,1.0,1.7419457e-05,1.8391758e-05,-1.7415732e-05,1.0,1.6987324e-06,-1.8391758e-05,-1.6391277e-06,1.0,179,0.543,0,0,0.0,False,-0.2607121236829584,1.0375414975654216
0.5684009559918195,13:58:53.473326,13:57:26.466012,0,,0.1243915,0.0058710873,0.019706622,-0.4332457,-0.59447235,-0.6774223,-0.47604287,-0.48728904,0.7320742,-0.76529825,0.6396499,-0.07187846,,0.02053067,0.008634847,0.043577194,-0.71875536,-0.6570971,0.22718716,-0.095791504,0.4172402,0.9037337,-0.6886325,0.6278009,-0.36283794,,0.057879247,1.3372922,0.4464892,0.9969239,0.077153385,-0.013784369,0.042946853,-0.6848859,-0.72738355,-0.065560825,0.72455406,-0.6860927,,-0.08213599,0.28639165,-0.033792812,0.46972498,0.5433154,0.695821,-0.87323344,0.17015214,0.45663077,0.1296991,-0.822105,0.5543659,,0.027246773,0.4883718,-0.27374354,0.7981324,0.58321255,-0.15115473,-0.58096766,0.8114625,0.06328627,0.15956575,0.037305184,0.9864822,,1.1384698348524287,0.38001251654196544,0.19012815059000002,-0.31117987613103415,0.19716646916153055,0.948993007255883,-0.4121170788567867,,-1.0341974955846494,0.26743823943439476,0.17036750583000002,1.22123423085387,0.3228720489457358,0.48040442254517535,0.8626200132551286,,0.026284658535034606,0.02909900195387546,0.07078751784,-0.11578833687890082,,-1.5079975e-05,-2.6226044e-06,5.2452087e-06,1.0,1.7419457e-05,1.8391758e-05,-1.7415732e-05,1.0,1.6987324e-06,-1.8391758e-05,-1.6391277e-06,1.0,187,0.566,0,0,0.0,False,-0.2602950796533112,1.0367207341521705
0.5925444129388779,13:58:53.495491,13:57:26.466012,0,,0.124360636,0.005886644,0.019762918,-0.4268422,-0.59962267,-0.67694795,-0.47097653,-0.49163422,0.73244584,-0.77200186,0.6314653,-0.072557956,,0.0205324,0.008633923,0.043577075,-0.7189404,-0.6568171,0.2274114,-0.09547615,0.41739526,0.90369546,-0.68848306,0.62799096,-0.36279267,,0.057879247,1.3372922,0.4464892,0.9969239,0.077153385,-0.013784369,0.042946853,-0.6848859,-0.72738355,-0.065560825,0.72455406,-0.6860927,,-0.082108356,0.28644493,-0.03382044,0.46385714,0.54887044,0.69539756,-0.87504923,0.1613274,0.45635763,0.13829453,-0.82019186,0.55512154,,0.02724504,0.4883711,-0.2737442,0.79830617,0.5829152,-0.151384,-0.5806741,0.8116726,0.06328646,0.15976489,0.037382785,0.98644704,,1.1386011213112905,0.37971132995987067,0.19011518769000002,-0.31768026437905444,0.20591120514651876,0.9465996283474646,-0.4134238313858607,,-1.0342052183175237,0.26743823943439476,0.17036750583000002,1.221653610740839,0.3228720489457358,0.48040442254517535,0.8629467013873973,,0.026284658535034606,0.02909900195387546,0.07078751784,-0.11578833687890082,,-1.5079975e-05,-2.6226044e-06,5.2452087e-06,1.0,1.7419457e-05,1.8391758e-05,-1.7415732e-05,1.0,1.6987324e-06,-1.8391758e-05,-1.6391277e-06,1.0,195,0.591,0,0,0.0,False,-0.2602950796533112,1.0371069757584064
0.6147329388186336,13:58:53.519046,13:57:26.466012,0,,0.12427711,0.0058482885,0.019786924,-0.4229391,-0.6018964,-0.6773797,-0.4674837,-0.4954418,0.7321178,-0.7762612,0.62630516,-0.07183513,,0.020531043,0.008634951,0.043577373,-0.718945,-0.6567957,0.22745827,-0.09547481,0.41746184,0.9036649,-0.68847847,0.62796885,-0.36283958,,0.057879247,1.3372922,0.4464892,0.9969239,0.077153385,-0.013784369,0.042946853,-0.6848859,-0.72738355,-0.065560825,0.72455406,-0.6860927,,-0.08202729,0.2864399,-0.03386971,0.46029976,0.55137897,0.6957768,-0.87601507,0.15501992,0.4566907,0.14395039,-0.8197256,0.55437195,,0.02724638,0.48837197,-0.2737435,0.7983102,0.5828989,-0.15142533,-0.5806689,0.811681,0.0632263,0.1597636,0.03745379,0.98644453,,1.1387710214345235,0.3790857885970585,0.19008148415,-0.3216643733052604,0.21205984763596358,0.9463231896092783,-0.41309714325359204,,-1.0341974955846494,0.267445962167269,0.17036750583000002,1.221653610740839,0.3228720489457358,0.4803227438050347,0.8627833573212629,,0.026284658535034606,0.02909900195387546,0.07078751784,-0.11578833687890082,,-1.5079975e-05,-2.6226044e-06,5.2452087e-06,1.0,1.7419457e-05,1.8391758e-05,-1.7415732e-05,1.0,1.6987324e-06,-1.8391758e-05,-1.6391277e-06,1.0,203,0.615,0,0,0.0,False,-0.26041423509035333,1.036865574754509
0.638286859029904,13:58:53.548923,13:57:26.466012,0,,0.12423234,0.0057654977,0.019824088,-0.41683397,-0.6072848,-0.6763539,-0.46350783,-0.498068,0.7328633,-0.781927,0.6189776,-0.073869646,,0.020535283,0.008649405,0.043572128,-0.7190725,-0.65662855,0.22753799,-0.0953259,0.41752815,0.90364987,-0.6883659,0.6280997,-0.36282676,,0.05787258,1.3372941,0.4464917,0.99692327,0.077164136,-0.013772952,0.0429625,-0.6848847,-0.72738373,-0.065560825,0.72455406,-0.6860927,,-0.08198264,0.28641298,-0.033956174,0.45465016,0.55716234,0.6948837,-0.87777156,0.14799425,0.45564768,0.15103094,-0.8171094,0.5563469,,0.027247876,0.48837405,-0.27372405,0.79843104,0.58270925,-0.15151836,-0.58048064,0.81181616,0.063220225,0.15984407,0.037476484,0.98643064,,1.1389486442906307,0.3783289607753845,0.19003741029000001,-0.3281647615532806,0.2198481281225937,0.9423410525626587,-0.41130035852611535,,-1.0342052183175237,0.26743823943439476,0.17036750583000002,1.2218633006843234,0.3228720489457358,0.4803227438050347,0.8627833573212629,,0.026284658535034606,0.02909900195387546,0.07078751784,-0.11578833687890082,,-2.180785e-05,-2.682209e-06,2.1457672e-06,1.0,2.8185546e-05,2.976507e-05,-2.8178096e-05,0.99999994,2.682209e-06,-2.976507e-05,-2.6524067e-06,0.99999994,218,0.661,0,0,0.0,False,-0.2604738128088746,1.0372518163607447
0.6681503979489207,13:58:53.586398,13:57:26.587957,0,,0.124115616,0.005723819,0.019872457,-0.41485515,-0.6086265,-0.67636454,-0.4590802,-0.5017862,0.7331138,-0.78558296,0.61464155,-0.0712398,,0.02053529,0.008656558,0.043576896,-0.71743363,-0.6587996,0.22643322,-0.09742612,0.4167356,0.90379167,-0.6897805,0.62635016,-0.36316442,,0.05787258,1.3372941,0.4464917,0.99692327,0.077164136,-0.013772952,0.0429625,-0.6848847,-0.72738373,-0.065560825,0.72455406,-0.6860927,,-0.08187004,0.28642496,-0.03402603,0.45299515,0.55869174,0.6947366,-0.8776027,0.14232977,0.45777252,0.15687205,-0.81707144,0.5547841,,0.027247462,0.4883815,-0.2737198,0.79692495,0.58506227,-0.15037555,-0.5828487,0.81012726,0.06309678,0.15873887,0.037362795,0.9866134,,1.1393270582014676,0.3776416375495785,0.18998685498,-0.3298422811011568,0.22613340711180394,0.942851662062322,-0.4121170788567866,,-1.034212941050398,0.26743051670152057,0.17036880212000002,1.2187179515320554,0.3232819584450321,0.479906811353805,0.86229332512286,,0.026284658535034606,0.02909900195387546,0.07078751784,-0.11578833687890082,,-2.180785e-05,-2.682209e-06,2.1457672e-06,1.0,2.8185546e-05,2.976507e-05,-2.8178096e-05,0.99999994,2.682209e-06,-2.976507e-05,-2.6524067e-06,0.99999994,226,0.686,0,0,0.0,False,-0.2612483231496481,1.0372518163607447
0.7056367078330368,13:58:53.619947,13:57:26.587957,0,,0.12393595,0.0057051033,0.019986078,-0.4106337,-0.60883325,-0.6787504,-0.45465124,-0.50854284,0.7312157,-0.790362,0.60885644,-0.06798193,,0.020542696,0.00865927,0.043586493,-0.7162017,-0.6596657,0.22780757,-0.09729758,0.41761455,0.9033997,-0.6910777,0.6248514,-0.36328012,,0.05787258,1.3372941,0.4464917,0.99692327,0.077164136,-0.013772952,0.0429625,-0.6848847,-0.72738373,-0.065560825,0.72455406,-0.6860927,,-0.0816982,0.2865028,-0.034125764,0.44917196,0.5591145,0.6968756,-0.8783412,0.13352342,0.4590079,0.16358876,-0.818268,0.55106825,,0.027238982,0.48839048,-0.273721,0.79587454,0.58614016,-0.15173483,-0.5840655,0.809283,0.06267812,0.15953459,0.03873916,0.98643196,,1.1401920042833809,0.37691570065940144,0.18990778129000002,-0.33445545985781633,0.23323850509960684,0.9453074838243049,-0.412933799187458,,-1.0342052183175237,0.2674227939686463,0.17036880212000002,1.2176695018146328,0.32478495994245193,0.47843617819272255,0.8621299810567258,,0.026284658535034606,0.02909900195387546,0.07078751784,-0.11578833687890082,,-2.180785e-05,-2.682209e-06,2.1457672e-06,1.0,2.8185546e-05,2.976507e-05,-2.8178096e-05,0.99999994,2.682209e-06,-2.976507e-05,-2.6524067e-06,0.99999994,234,0.709,0,0,0.0,False,-0.26106958999408425,1.0368172945537295
0.73918502102606,13:58:53.640483,13:57:26.587957,0,,0.12385161,0.0057089627,0.02007261,-0.4109168,-0.6097809,-0.6777275,-0.45263585,-0.50883555,0.73226154,-0.79137105,0.6076623,-0.066919625,,0.020542927,0.008657854,0.043586075,-0.71623313,-0.6595391,0.22807494,-0.09706348,0.41779175,0.903343,-0.691078,0.6248666,-0.36325344,,0.05787258,1.3372941,0.4464917,0.99692327,0.077164136,-0.013772952,0.0429625,-0.6848847,-0.72738373,-0.065560825,0.72455406,-0.6860927,,-0.08161932,0.28657252,-0.034185223,0.44955933,0.560128,0.6958111,-0.8777387,0.13246985,0.46046337,0.16574441,-0.8177459,0.551199,,0.027238762,0.48838943,-0.27372205,0.79591286,0.5860181,-0.15200502,-0.5839569,0.8093636,0.06264905,0.1597408,0.038901195,0.9863922,,1.140778931981822,0.37674580053616846,0.18985463340000003,-0.33424576991433186,0.2354246890958539,0.9443415847665677,-0.41309714325359215,,-1.0341974955846494,0.2674150712357721,0.17036880212000002,1.2178791917581173,0.32492159644221735,0.47832476028902626,0.8624566691889944,,0.026284658535034606,0.02909900195387546,0.07078751784,-0.11578833687890082,,-2.180785e-05,-2.682209e-06,2.1457672e-06,1.0,2.8185546e-05,2.976507e-05,-2.8178096e-05,0.99999994,2.682209e-06,-2.976507e-05,-2.6524067e-06,0.99999994,242,0.734,0,0,0.0,False,-0.26106958999408425,1.036865574754509
0.7596942458767444,13:58:53.661202,13:57:26.587957,0,,0.12376773,0.0057179034,0.020163745,-0.41067645,-0.6091196,-0.6784675,-0.45257488,-0.50979537,0.7316314,-0.7915306,0.6075211,-0.06631121,,0.020544082,0.008657839,0.043586433,-0.71622825,-0.65956134,0.2280258,-0.097061366,0.41771904,0.9033768,-0.6910833,0.6248917,-0.36320013,,0.05787258,1.3372941,0.4464917,0.99692327,0.077164136,-0.013772952,0.0429625,-0.6848847,-0.72738373,-0.065560825,0.72455406,-0.6860927,,-0.08154108,0.28664902,-0.034243956,0.4493307,0.5594566,0.6964986,-0.87782454,0.13170324,0.4605196,0.1659096,-0.81832916,0.550283,,0.027237568,0.48838964,-0.27372214,0.79590875,0.5860348,-0.15196213,-0.5839611,0.8093553,0.06271659,0.15974545,0.0388233,0.9863945,,1.1414199188103826,0.3767071868717974,0.18979759664,-0.3348748397447854,0.2354246890958539,0.944831657207411,-0.412933799187458,,-1.0342052183175237,0.2674150712357721,0.17036880212000002,1.2178791917581173,0.32492159644221735,0.4784064390291668,0.8626200132551286,,0.026284658535034606,0.02909900195387546,0.07078751784,-0.11578833687890082,,-2.180785e-05,-2.682209e-06,2.1457672e-06,1.0,2.8185546e-05,2.976507e-05,-2.8178096e-05,0.99999994,2.682209e-06,-2.976507e-05,-2.6524067e-06,0.99999994,250,0.759,0,0,0.0,False,-0.26106958999408425,1.0364793331482736
0.7804395649582148,13:58:53.687322,13:57:26.587957,0,,0.12369345,0.0057477057,0.020262018,-0.40788308,-0.6098566,-0.67948973,-0.452097,-0.5116691,0.7306182,-0.79324627,0.60520196,-0.067013144,,0.020544365,0.008657362,0.043586195,-0.71632373,-0.65943843,0.22808161,-0.09690505,0.4177228,0.90339184,-0.6910063,0.6250189,-0.36312768,,0.05787258,1.3372941,0.4464917,0.99692327,0.077164136,-0.013772952,0.0429625,-0.6848847,-0.72738373,-0.065560825,0.72455406,-0.6860927,,-0.08147242,0.28674442,-0.03429133,0.44665965,0.5602964,0.69754076,-0.8788726,0.12875088,0.45935416,0.16756551,-0.8182244,0.54993695,,0.027237294,0.4883892,-0.27372244,0.7959982,0.5858966,-0.15202631,-0.58381265,0.80945736,0.06278194,0.15984255,0.03878057,0.98638046,,1.1420454601731946,0.37673035507042,0.18975352278000002,-0.3382298788405378,0.23679105409350829,0.9442892293514309,-0.41309714325359226,,-1.0342052183175237,0.2674150712357721,0.17036880212000002,1.218088881701602,0.32492159644221735,0.47848811776930733,0.8624566691889943,,0.026284658535034606,0.02909900195387546,0.07078751784,-0.11578833687890082,,-2.180785e-05,-2.682209e-06,2.1457672e-06,1.0,2.8185546e-05,2.976507e-05,-2.8178096e-05,0.99999994,2.682209e-06,-2.976507e-05,-2.6524067e-06,0.99999994,261,0.792,0,0,0.0,False,-0.26053339052739544,1.0366724539513914
0.8065584199503064,13:58:53.720919,13:57:26.723662,0,,0.12357755,0.005832702,0.020510167,-0.40309268,-0.61262006,-0.67986244,-0.44473654,-0.51813793,0.73057675,-0.79982847,0.5968498,-0.063596904,,0.020545818,0.008656871,0.043586373,-0.7164143,-0.65928173,0.22824986,-0.09674658,0.41787523,0.9033384,-0.69093454,0.6250823,-0.36315507,,0.05787258,1.3372941,0.4464917,0.99692327,0.077164136,-0.013772952,0.0429625,-0.6848847,-0.72738373,-0.065560825,0.72455406,-0.6860927,,-0.08137035,0.28698954,-0.034399647,0.44244206,0.5634355,0.69770014,-0.87901586,0.11830811,0.46188122,0.17769669,-0.8176452,0.5476132,,0.027235826,0.48838896,-0.27372283,0.79608357,0.5857378,-0.15219119,-0.58366835,0.8095665,0.06271648,0.1599443,0.038901623,0.9863592,,1.1432810974330707,0.37679213693341385,0.18966278248000001,-0.34326243748416635,0.24649224557685456,0.9444647534629005,-0.4129337991874581,,-1.034212941050398,0.2674150712357721,0.17036880212000002,1.2182985716450865,0.32492159644221735,0.4784064390291668,0.8622933251228602,,0.026284658535034606,0.02909900195387546,0.07078751784,-0.11578833687890082,,-2.180785e-05,-2.682209e-06,2.1457672e-06,1.0,2.8185546e-05,2.976507e-05,-2.8178096e-05,0.99999994,2.682209e-06,-2.976507e-05,-2.6524067e-06,0.99999994,269,0.817,0,0,0.0,False,-0.2607121236829584,1.0358999707389198
0.840156571008265,13:58:53.748411,13:57:26.723662,0,,0.12353532,0.0058728307,0.020629585,-0.4024171,-0.6141402,-0.6788905,-0.43972808,-0.5207598,0.73174334,-0.80293185,0.5929932,-0.06049204,,0.020546108,0.008656379,0.043586135,-0.71650976,-0.65914,0.22835952,-0.09659022,0.41795275,0.90331924,-0.6908575,0.6251798,-0.3631337,,0.05787258,1.3372941,0.4464917,0.99692327,0.077164136,-0.013772952,0.0429625,-0.6848847,-0.72738373,-0.065560825,0.72455406,-0.6860927,,-0.08133477,0.28710654,-0.034451578,0.44206545,0.56513625,0.6965624,-0.87800646,0.11373755,0.46493912,0.18352865,-0.81711984,0.5464727,,0.027235553,0.4883885,-0.27372313,0.796173,0.58558714,-0.15230322,-0.5835198,0.8096736,0.062715665,0.16004139,0.038939428,0.98634195,,1.1438216887342663,0.3768153051320365,0.1896213012,-0.3436818173711354,0.25223097856700305,0.944604247175944,-0.4114637025922493,,-1.034212941050398,0.2674150712357721,0.17036880212000002,1.218508261588571,0.32492159644221735,0.4784064390291668,0.8622933251228602,,0.026284658535034606,0.02909900195387546,0.07078751784,-0.11578833687890082,,-2.180785e-05,-2.682209e-06,2.1457672e-06,1.0,2.8185546e-05,2.976507e-05,-2.8178096e-05,0.99999994,2.682209e-06,-2.976507e-05,-2.6524067e-06,0.99999994,277,0.84,0,0,0.0,False,-0.2607121236829584,1.0359965311404788
0.8676498970016837,13:58:53.766737,13:57:26.723662,0,,0.12349616,0.005880013,0.020711899,-0.4031769,-0.61416376,-0.67841816,-0.43779337,-0.521557,0.7323354,-0.8036076,0.59226763,-0.058597118,,0.020546108,0.008656379,0.043586135,-0.71650976,-0.65915877,0.2283057,-0.09659022,0.41787893,0.9033534,-0.6908575,0.62520945,-0.36308265,,0.05787258,1.3372941,0.4464917,0.99692327,0.077164136,-0.013772952,0.0429625,-0.6848847,-0.72738373,-0.065560825,0.72455406,-0.6860927,,-0.08130064,0.28717387,-0.034503207,0.4429062,0.565188,0.6959861,-0.8771944,0.11266655,0.46672928,0.18537542,-0.8172324,0.54568046,,0.027235553,0.4883885,-0.27372313,0.796173,0.5855996,-0.15225539,-0.5835198,0.8096685,0.0627818,0.16004139,0.038858864,0.9863452,,1.1442309935766002,0.3768307505977849,0.18957333847000002,-0.34284305759719735,0.2540072530639538,0.9450344254511236,-0.412933799187458,,-1.034212941050398,0.2674150712357721,0.17036880212000002,1.218508261588571,0.32492159644221735,0.47848811776930744,0.8621299810567259,,0.026284658535034606,0.02909900195387546,0.07078751784,-0.11578833687890082,,-2.180785e-05,-2.682209e-06,2.1457672e-06,1.0,2.8185546e-05,2.976507e-05,-2.8178096e-05,0.99999994,2.682209e-06,-2.976507e-05,-2.6524067e-06,0.99999994,285,0.865,0,0,0.0,False,-0.2608908568385213,1.0361896519435967
0.8859757629688829,13:58:53.792075,13:57:26.723662,0,,0.12343602,0.005860135,0.020806834,-0.40380216,-0.61335677,-0.6787763,-0.43759462,-0.5220769,0.73208374,-0.80340195,0.59264576,-0.057585806,,0.020546399,0.008655932,0.043585896,-0.71660507,-0.6589797,0.22852302,-0.09643383,0.41810402,0.90326595,-0.6907804,0.6252478,-0.3631634,,0.05787258,1.3372941,0.4464917,0.99692327,0.077164136,-0.013772952,0.0429625,-0.6848847,-0.72738373,-0.065560825,0.72455406,-0.6860927,,-0.08124692,0.2872332,-0.034584567,0.44352153,0.56434834,0.69627553,-0.87688863,0.11257519,0.4673256,0.18535107,-0.817825,0.54480016,,0.027235279,0.48838803,-0.2737234,0.7962623,0.58542407,-0.15246308,-0.5833712,0.8097859,0.0626487,0.1601385,0.039057773,0.9863215,,1.1447175257476765,0.3768153051320365,0.18949296849000002,-0.34242367771022825,0.25387061656418836,0.9457175945358038,-0.4121170788567865,,-1.034212941050398,0.2674150712357721,0.17036880212000002,1.2187179515320554,0.32492159644221735,0.47832476028902626,0.8611499166599202,,0.026284658535034606,0.02909900195387546,0.07078751784,-0.11578833687890082,,-2.180785e-05,-2.682209e-06,2.1457672e-06,1.0,2.8185546e-05,2.976507e-05,-2.8178096e-05,0.99999994,2.682209e-06,-2.976507e-05,-2.6524067e-06,0.99999994,293,0.89,0,0,0.0,False,-0.26041423509035333,1.0358516905381403
0.9113178008701652,13:58:53.821418,13:57:26.723662,0,,0.123415664,0.005858034,0.020908505,-0.40220952,-0.61597085,-0.6773532,-0.43414456,-0.52304876,0.7334428,-0.8060682,0.58906686,-0.057045132,,0.020545542,0.00865544,0.0435853,-0.7167053,-0.6588156,0.22868179,-0.09627956,0.4182542,0.9032129,-0.69069797,0.6253202,-0.36319548,,0.05787258,1.3372941,0.4464917,0.99692327,0.077164136,-0.013772952,0.0429625,-0.6848847,-0.72738373,-0.065560825,0.72455406,-0.6860927,,-0.08123296,0.28730813,-0.034654893,0.44217002,0.56715816,0.69485056,-0.87662286,0.109347135,0.46858886,0.18978406,-0.81631786,0.54553384,,0.027236199,0.48838738,-0.27372363,0.7963557,0.58525664,-0.15261792,-0.58321834,0.8099013,0.06258025,0.16023095,0.03917343,0.9863019,,1.1450032668640227,0.37682302786491073,0.18943074657000003,-0.3438915073146199,0.2582429845566825,0.9438674751604702,-0.41260711105518943,,-1.0342052183175237,0.2674150712357721,0.17036880212000002,1.2189276414755401,0.32492159644221735,0.4782430815488856,0.8609865725937859,,0.026284658535034606,0.02909900195387546,0.07078751784,-0.11578833687890082,,-2.180785e-05,-2.682209e-06,2.1457672e-06,1.0,2.8185546e-05,2.976507e-05,-2.8178096e-05,0.99999994,2.682209e-06,-2.976507e-05,-2.6524067e-06,0.99999994,308,0.936,0,0,0.0,False,-0.2607717014014801,1.036334492545935
0.9406587148550898,13:58:53.862862,13:57:26.723662,0,,0.12343861,0.0059035122,0.021102697,-0.39599994,-0.61846316,-0.6787394,-0.42127573,-0.5344216,0.7327484,-0.815911,0.57610476,-0.048912585,,0.02054657,0.008657049,0.04358673,-0.71679527,-0.6586982,0.22873819,-0.09611419,0.41824666,0.903234,-0.69062763,0.62544894,-0.36310744,,0.05787258,1.3372941,0.4464917,0.99692327,0.077164136,-0.013772952,0.0429625,-0.6848847,-0.72738373,-0.065560825,0.72455406,-0.6860927,,-0.08126695,0.28748226,-0.034748834,0.4368541,0.5702093,0.6957153,-0.8755642,0.09219317,0.4742233,0.20626634,-0.8163098,0.53952986,,0.02723503,0.4883893,-0.27372277,0.79644084,0.5851234,-0.15268452,-0.58307225,0.8100001,0.06266209,0.16033955,0.03911946,0.9862864,,1.145250394315998,0.3768539187964076,0.18936722836000003,-0.34913375590173307,0.27477600102830074,0.9482735529039864,-0.41375051951812936,,-1.034212941050398,0.26743051670152057,0.17036880212000002,1.2191373314190246,0.32492159644221735,0.47832476028902626,0.8611499166599202,,0.026284658535034606,0.02909900195387546,0.07078751784,-0.11578833687890082,,-2.180785e-05,-2.682209e-06,2.1457672e-06,1.0,2.8185546e-05,2.976507e-05,-2.8178096e-05,0.99999994,2.682209e-06,-2.976507e-05,-2.6524067e-06,0.99999994,316,0.96,0,0,0.0,False,-0.2599376133421849,1.0358999707389198
0.9820930478163064,13:58:53.889254,13:57:26.913745,0,,0.1234521,0.0059293807,0.021221682,-0.39238843,-0.62012345,-0.6793218,-0.41315103,-0.5410291,0.73252547,-0.82178915,0.56809705,-0.04391113,,0.02054803,0.008656573,0.04358685,-0.7168856,-0.65856,0.22885257,-0.0959557,0.41832513,0.9032145,-0.6905559,0.6255419,-0.36308387,,0.05787258,1.3372941,0.4464917,0.99692327,0.077164136,-0.013772952,0.0429625,-0.6848847,-0.72738373,-0.065560825,0.72455406,-0.6860927,,-0.08128722,0.28758764,-0.03480793,0.4337853,0.57222337,0.69598186,-0.8746358,0.08187876,0.47781593,0.21643132,-0.81600016,0.5360049,,0.027233563,0.48838907,-0.27372313,0.796526,0.5849769,-0.15280151,-0.5829279,0.810104,0.06266263,0.16044131,0.03915985,0.9862683,,1.145458908103602,0.37686164152928187,0.18930759902000002,-0.3533275547714235,0.2881663780053139,0.951321662905773,-0.41130035852611513,,-1.034220663783272,0.26743051670152057,0.17036880212000002,1.2193470213625093,0.32492159644221735,0.47832476028902626,0.8611499166599202,,0.026284658535034606,0.02909900195387546,0.07078751784,-0.11578833687890082,,-2.180785e-05,-2.682209e-06,2.1457672e-06,1.0,2.8185546e-05,2.976507e-05,-2.8178096e-05,0.99999994,2.682209e-06,-2.976507e-05,-2.6524067e-06,0.99999994,324,0.985,0,0,0.0,False,-0.260652545964438,1.0359965311404788
1.008460673969239,13:58:53.916554,13:57:26.913745,0,,0.1234436,0.0059204996,0.02133149,-0.38961908,-0.6208832,-0.6802213,-0.40853387,-0.5454298,0.7318512,-0.8254072,0.56303656,-0.041141957,,0.020546868,0.008656543,0.043586493,-0.7168905,-0.6585564,0.22884788,-0.09595777,0.41832405,0.90321475,-0.6905505,0.62554646,-0.36308616,,0.05787258,1.3372941,0.4464917,0.99692327,0.077164136,-0.013772952,0.0429625,-0.6848847,-0.72738373,-0.065560825,0.72455406,-0.6860927,,-0.08128573,0.28766373,-0.034888055,0.43134308,0.57320255,0.6966936,-0.8743378,0.07520111,0.4794562,0.22243337,-0.81595564,0.5336101,,0.027234755,0.48838884,-0.27372307,0.79653007,0.5849727,-0.15279655,-0.5829236,0.8101072,0.062661186,0.16043666,0.039157186,0.9862691,,1.1455979172953379,0.3768539187964076,0.18925963629,-0.3545856944323307,0.2911723810001536,0.9523009761103556,-0.41309714325359204,,-1.034212941050398,0.26743051670152057,0.17036880212000002,1.2193470213625093,0.32492159644221735,0.47832476028902626,0.8611499166599202,,0.026284658535034606,0.02909900195387546,0.07078751784,-0.11578833687890082,,-2.180785e-05,-2.682209e-06,2.1457672e-06,1.0,2.8185546e-05,2.976507e-05,-2.8178096e-05,0.99999994,2.682209e-06,-2.976507e-05,-2.6524067e-06,0.99999994,332,1.008,0,0,0.0,False,-0.26160578946077395,1.0358516905381403
1.0357951098121703,13:58:53.938664,13:57:26.913745,0,,0.12342037,0.005898267,0.021400899,-0.387557,-0.6215698,-0.68077195,-0.40799874,-0.54656434,0.7313031,-0.82664174,0.56117564,-0.04177478,,0.020547159,0.008656111,0.043586254,-0.7169857,-0.65843326,0.22890374,-0.09580134,0.41832766,0.9032297,-0.6904733,0.6256736,-0.3630138,,0.05787258,1.3372941,0.4464917,0.99692327,0.077164136,-0.013772952,0.0429625,-0.6848847,-0.72738373,-0.065560825,0.72455406,-0.6860927,,-0.08126733,0.2877013,-0.034952085,0.42937317,0.57397914,0.6972708,-0.874966,0.073081315,0.47863725,0.22377034,-0.81560224,0.5335914,,0.027234482,0.4883884,-0.27372333,0.7966193,0.5848344,-0.15286079,-0.58277494,0.8102091,0.062726445,0.16053379,0.039114337,0.98625505,,1.1457755401514451,0.3768539187964076,0.18920000695000003,-0.35689228381066046,0.29226547299827715,0.9518180265814868,-0.4121170788567864,,-1.034212941050398,0.26743051670152057,0.17036880212000002,1.2195567113059935,0.32492159644221735,0.4784064390291668,0.8613132607260544,,0.026284658535034606,0.02909900195387546,0.07078751784,-0.11578833687890082,,-2.180785e-05,-2.682209e-06,2.1457672e-06,1.0,2.8185546e-05,2.976507e-05,-2.8178096e-05,0.99999994,2.682209e-06,-2.976507e-05,-2.6524067e-06,0.99999994,340,1.034,0,0,0.0,False,-0.2602355019347904,1.0349343667233308
1.0578996068798006,13:58:53.961954,13:57:26.913745,0,,0.123383224,0.005886495,0.021530032,-0.3837212,-0.62520623,-0.67961407,-0.4047336,-0.54763716,0.7323142,-0.8300293,0.5560671,-0.042901933,,0.020546295,0.008655634,0.043585658,-0.71708584,-0.65825045,0.22911623,-0.09564704,0.4185515,0.90314233,-0.6903909,0.6257164,-0.36309704,,0.05787258,1.3372941,0.4464917,0.99692327,0.077164136,-0.013772952,0.0429625,-0.6848847,-0.72738373,-0.065560825,0.72455406,-0.6860927,,-0.08123851,0.28779078,-0.03504884,0.42582414,0.5779017,0.69620645,-0.8754327,0.068680346,0.47843552,0.22867301,-0.8132113,0.5351598,,0.027235402,0.48838773,-0.27372357,0.7967125,0.5846544,-0.15306334,-0.582622,0.8103295,0.0625917,0.16062626,0.039310478,0.98623216,,1.1461385085965337,0.3768461960635334,0.18911445181000003,-0.36087639273686645,0.2970477504900675,0.9484901511330962,-0.41391386358426374,,-1.0342052183175237,0.26743051670152057,0.17036880212000002,1.2197664012494782,0.32492159644221735,0.47824308154888573,0.8613132607260545,,0.026284658535034606,0.02909900195387546,0.07078751784,-0.11578833687890082,,-2.180785e-05,-2.682209e-06,2.1457672e-06,1.0,2.8185546e-05,2.976507e-05,-2.8178096e-05,0.99999994,2.682209e-06,-2.976507e-05,-2.6524067e-06,0.99999994,348,1.059,0,0,0.0,False,-0.2598184579051428,1.0354171687311253
1.0811538088601083,13:58:53.987076,13:57:26.913745,0,,0.123367324,0.00589785,0.021598876,-0.38305956,-0.6270063,-0.67832774,-0.40151948,-0.54831636,0.73357415,-0.83189386,0.55336434,-0.04171732,,0.020546794,0.008654099,0.043584764,-0.71718115,-0.6581075,0.22922793,-0.09549402,0.41863492,0.90311986,-0.690313,0.62581086,-0.3630824,,0.05787258,1.3372941,0.4464917,0.99692327,0.077164136,-0.013772952,0.0429625,-0.6848847,-0.72738373,-0.065560825,0.72455406,-0.6860927,,-0.08122666,0.28785008,-0.03508707,0.42534697,0.57985115,0.69487596,-0.87469774,0.06627348,0.4801163,0.23234414,-0.81202245,0.5353837,,0.02723498,0.48838618,-0.2737245,0.7968017,0.5845032,-0.15317664,-0.5824742,0.8104364,0.06258317,0.16071999,0.039355062,0.9862151,,1.1463701905827604,0.3768461960635334,0.18908463714,-0.36129577262383544,0.3007369359837344,0.9473604787565257,-0.4127704551213237,,-1.0342052183175237,0.2674227939686463,0.17036880212000002,1.2199760911929627,0.32492159644221735,0.47824308154888573,0.8613132607260545,,0.026284658535034606,0.02909900195387546,0.07078751784,-0.11578833687890082,,-2.180785e-05,-2.682209e-06,2.1457672e-06,1.0,2.8185546e-05,2.976507e-05,-2.8178096e-05,0.99999994,2.682209e-06,-2.976507e-05,-2.6524067e-06,0.99999994,377,1.148,0,0,0.0,False,-0.26011634649774784,1.035706849935802
1.1063080388121307,13:58:54.074402,13:57:27.064768,0,,0.12320474,0.005916089,0.021937758,-0.37962654,-0.62921983,-0.67820805,-0.3931762,-0.55385697,0.73393106,-0.8374342,0.5452749,-0.037135422,,0.02054862,0.0086537115,0.043585062,-0.71746147,-0.6576115,0.22977436,-0.09501906,0.41915664,0.90292794,-0.6900873,0.62598306,-0.36321434,,0.05787258,1.3372941,0.4464917,0.99692327,0.077164136,-0.013772952,0.0429625,-0.6848847,-0.72738373,-0.065560825,0.72455406,-0.6860927,,-0.08108504,0.28811973,-0.03530808,0.42243996,0.5824447,0.6944801,-0.87336636,0.056627788,0.48376083,0.24243706,-0.81089544,0.53260946,,0.027233116,0.48838612,-0.27372482,0.7970648,0.58400506,-0.15370712,-0.58203137,0.81077445,0.06232425,0.16101947,0.0397859,0.98614895,,1.1478915689589826,0.37679985966628804,0.18889019364,-0.3648605016630724,0.31057476396684613,0.947424584964299,-0.41097367039384647,,-1.034212941050398,0.26743051670152057,0.17036880212000002,1.2206051610234163,0.32492159644221735,0.4779163665883235,0.8606598844615174,,0.026284658535034606,0.02909900195387546,0.07078751784,-0.11578833687890082,,-2.180785e-05,-2.682209e-06,2.1457672e-06,1.0,2.8185546e-05,2.976507e-05,-2.8178096e-05,0.99999994,2.682209e-06,-2.976507e-05,-2.6524067e-06,0.99999994,385,1.172,0,0,0.0,False,-0.26017592421626956,1.035079207325669
1.1935801219660789,13:58:54.102144,13:57:27.064768,0,,0.12316044,0.005927995,0.022026867,-0.37917498,-0.6286309,-0.6790063,-0.39069086,-0.55642486,0.7333157,-0.8388009,0.5433365,-0.0346179,,0.020547673,0.008652639,0.04358405,-0.7174664,-0.65760684,0.22977172,-0.0950246,0.4191617,0.902925,-0.69008124,0.62598455,-0.36322334,,0.05787258,1.3372941,0.4464917,0.99692327,0.077164136,-0.013772952,0.0429625,-0.6848847,-0.72738373,-0.065560825,0.72455406,-0.6860927,,-0.08104612,0.2881954,-0.035361,0.4221263,0.5819232,0.69510776,-0.87274015,0.053453136,0.48524985,0.24522245,-0.8114852,0.5304317,,0.027234161,0.4883848,-0.2737254,0.79706883,0.5840004,-0.15370342,-0.582028,0.81077754,0.06231524,0.16101141,0.039790157,0.98615015,,1.1483240419999392,0.37679213693341385,0.18884482349,-0.36527988155004143,0.31330749396215496,0.9491984851572581,-0.41113701445998097,,-1.0342052183175237,0.2674227939686463,0.17036880212000002,1.2206051610234163,0.32492159644221735,0.4779163665883235,0.8606598844615174,,0.026284658535034606,0.02909900195387546,0.07078751784,-0.11578833687890082,,-2.180785e-05,-2.682209e-06,2.1457672e-06,1.0,2.8185546e-05,2.976507e-05,-2.8178096e-05,0.99999994,2.682209e-06,-2.976507e-05,-2.6524067e-06,0.99999994,393,1.197,0,0,0.0,False,-0.26041423509035333,1.0349343667233308
1.2213677829131484,13:58:54.127699,13:57:27.064768,0,,0.12314385,0.0059369355,0.022085205,-0.37840322,-0.62971926,-0.6784281,-0.3882324,-0.5573749,0.73389965,-0.84028953,0.54109764,-0.033564866,,0.020548254,0.008651685,0.043583572,-0.71765643,-0.6573228,0.22999091,-0.09471162,0.41931608,0.9028862,-0.68992674,0.62617946,-0.36318102,,0.05787258,1.3372941,0.4464917,0.99692327,0.077164136,-0.013772952,0.0429625,-0.6848847,-0.72738373,-0.065560825,0.72455406,-0.6860927,,-0.081032984,0.28824532,-0.03539409,0.4215001,0.58312804,0.6944778,-0.87223303,0.051187992,0.48640454,0.24808718,-0.810766,0.5301992,,0.027233616,0.4883839,-0.273726,0.79724675,0.5836985,-0.15392731,-0.5817304,0.8109912,0.062313043,0.16120572,0.039865322,0.98611534,,1.1485325557875432,0.37679213693341385,0.18881889769000001,-0.36590895138049495,0.3161768604572292,0.9487373202028662,-0.41293379918745776,,-1.0342052183175237,0.2674227939686463,0.17036880212000002,1.2210245409103853,0.32492159644221735,0.4779163665883235,0.8606598844615174,,0.026284658535034606,0.02909900195387546,0.07078751784,-0.11578833687890082,,-2.180785e-05,-2.682209e-06,2.1457672e-06,1.0,2.8185546e-05,2.976507e-05,-2.8178096e-05,0.99999994,2.682209e-06,-2.976507e-05,-2.6524067e-06,0.99999994,401,1.221,0,0,0.0,False,-0.26017592421626956,1.034644685518654
1.246936434879899,13:58:54.152358,13:57:27.064768,0,,0.12311602,0.0059595853,0.02215983,-0.37438822,-0.63137746,-0.67911404,-0.3854528,-0.5601382,0.73326063,-0.843362,0.53629047,-0.033656985,,0.020547807,0.008652639,0.043585658,-0.71775097,-0.65718275,0.23009634,-0.094548225,0.41938096,0.9028732,-0.68985075,0.626283,-0.36314654,,0.05787258,1.3372941,0.4464917,0.99692327,0.077164136,-0.013772952,0.0429625,-0.6848847,-0.72738373,-0.065560825,0.72455406,-0.6860927,,-0.08100936,0.28831688,-0.03542843,0.4177425,0.58502245,0.6951546,-0.8727948,0.045820057,0.48593178,0.25242898,-0.8097217,0.5297455,,0.02723381,0.48838624,-0.27372614,0.7973356,0.5835483,-0.15403666,-0.5815798,0.81109816,0.06232704,0.16130969,0.039889045,0.9860974,,1.148795128705267,0.37679213693341385,0.18879556447,-0.3701027502501855,0.32041259194995786,0.9479787636129156,-0.4114637025922494,,-1.0342052183175237,0.26743823943439476,0.17036750583000002,1.22123423085387,0.32492159644221735,0.4779163665883235,0.8606598844615174,,0.026284658535034606,0.02909900195387546,0.07078751784,-0.11578833687890082,,-2.180785e-05,-2.682209e-06,2.1457672e-06,1.0,2.8185546e-05,2.976507e-05,-2.8178096e-05,0.99999994,2.682209e-06,-2.976507e-05,-2.6524067e-06,0.99999994,409,1.246,0,0,0.0,False,-0.2599376133421849,1.0347895261209925
1.2715592829044908,13:58:54.178552,13:57:27.207285,0,,0.1231077,0.0059651434,0.02218248,-0.3733562,-0.6324419,-0.67869174,-0.38448358,-0.56031114,0.73363733,-0.84426147,0.53485376,-0.033967823,,0.020547807,0.008652639,0.043585658,-0.71775097,-0.6571639,0.23015004,-0.094548225,0.4194547,0.90283895,-0.68985075,0.62625337,-0.36319768,,0.05787258,1.3372941,0.4464917,0.99692327,0.077164136,-0.013772952,0.0429625,-0.6848847,-0.72738373,-0.065560825,0.72455406,-0.6860927,,-0.08100235,0.2883377,-0.035439823,0.41678876,0.58616996,0.6947603,-0.87285095,0.044669617,0.48593807,0.2538076,-0.8089557,0.5302568,,0.02723381,0.48838624,-0.27372614,0.7973356,0.58353573,-0.15408432,-0.5815798,0.8111033,0.06226079,0.16130969,0.03996959,0.9860941,,1.1488723560340093,0.3767844142005396,0.18878778673000002,-0.3711511999676081,0.3217789569476122,0.9469462633160921,-0.41130035852611524,,-1.0342052183175237,0.26743823943439476,0.17036750583000002,1.22123423085387,0.32492159644221735,0.47783468784818284,0.860496540395383,,0.026284658535034606,0.02909900195387546,0.07078751784,-0.11578833687890082,,-2.180785e-05,-2.682209e-06,2.1457672e-06,1.0,2.8185546e-05,2.976507e-05,-2.8178096e-05,0.99999994,2.682209e-06,-2.976507e-05,-2.6524067e-06,0.99999994,421,1.283,0,0,0.0,False,-0.26053339052739544,1.0343550043139773
1.297792464029044,13:58:54.209982,13:57:27.207285,0,,0.123101786,0.0059954375,0.02227363,-0.36483917,-0.63874394,-0.6774205,-0.37864792,-0.56289953,0.7346902,-0.85059863,0.5245476,-0.036491275,,0.020550162,0.008651879,0.043584347,-0.7180307,-0.65674126,0.23048349,-0.094076514,0.41968697,0.9027803,-0.68962413,0.626541,-0.3631321,,0.05787258,1.3372941,0.4464917,0.99692327,0.077164136,-0.013772952,0.0429625,-0.6848847,-0.72738373,-0.065560825,0.72455406,-0.6860927,,-0.08100146,0.28842595,-0.03547822,0.40880528,0.59304273,0.69367033,-0.87394893,0.035474796,0.4847214,0.2628527,-0.8043891,0.5327913,,0.027231632,0.48838446,-0.273726,0.79759806,0.5830868,-0.15442507,-0.5811376,0.8114203,0.062258698,0.16160586,0.04008479,0.98604095,,1.1489495833627514,0.3767535232690427,0.18877223125,-0.3797484876504736,0.3307969659321313,0.9413896139552207,-0.4119537347906521,,-1.034212941050398,0.26743823943439476,0.17036880212000002,1.2218633006843234,0.32492159644221735,0.47783468784818284,0.860496540395383,,0.026284658535034606,0.02909900195387546,0.07078751784,-0.11578833687890082,,-2.180785e-05,-2.682209e-06,2.1457672e-06,1.0,2.8185546e-05,2.976507e-05,-2.8178096e-05,0.99999994,2.682209e-06,-2.976507e-05,-2.6524067e-06,0.99999994,429,1.308,0,0,0.0,False,-0.2599971910607066,1.0338722023061826
1.329213873948902,13:58:54.231511,13:57:27.207285,0,,0.123106524,0.006010711,0.022328645,-0.35995135,-0.64083695,-0.6780582,-0.3747427,-0.5662598,0.7341101,-0.85440207,0.5183412,-0.03632298,,0.020552218,0.00865161,0.043583214,-0.7182155,-0.6563853,0.2309218,-0.09376128,0.42013702,0.90260375,-0.68947464,0.6266126,-0.3632924,,0.05787258,1.3372941,0.4464917,0.99692327,0.077164136,-0.013772952,0.0429625,-0.6848847,-0.72738373,-0.065560825,0.72455406,-0.6860927,,-0.081009276,0.28847694,-0.035503138,0.4042457,0.5954453,0.694284,-0.87433195,0.028681204,0.48448017,0.26856852,-0.80288374,0.53221107,,0.027229726,0.48838314,-0.27372557,0.7977715,0.5827383,-0.15484427,-0.58084404,0.8116509,0.061992507,0.16180488,0.04048452,0.98599195,,1.1489495833627514,0.37674580053616846,0.18876186093000002,-0.3847810462941022,0.3368089719218107,0.9405711631996061,-0.4122804229229209,,-1.034220663783272,0.26743823943439476,0.17037009841,1.2222826805712925,0.32492159644221735,0.47750797288762065,0.8591897878663088,,0.026284658535034606,0.02909900195387546,0.07078751784,-0.11578833687890082,,-2.180785e-05,-2.682209e-06,2.1457672e-06,1.0,2.8185546e-05,2.976507e-05,-2.8178096e-05,0.99999994,2.682209e-06,-2.976507e-05,-2.6524067e-06,0.99999994,433,1.321,0,0,0.0,False,-0.26041423509035333,1.034017042908521
1.3507403719704598,13:58:54.260553,13:57:27.207285,0,,0.12313096,0.006025493,0.02241242,-0.35717186,-0.6434626,-0.6770407,-0.36682945,-0.5699771,0.73522925,-0.8589902,0.5109617,-0.032461256,,0.020552218,0.00865161,0.043583214,-0.7182155,-0.6563853,0.2309218,-0.09376128,0.42013702,0.90260375,-0.68947464,0.6266126,-0.3632924,,0.05787258,1.3372941,0.4464917,0.99692327,0.077164136,-0.013772952,0.0429625,-0.6848847,-0.72738373,-0.065560825,0.72455406,-0.6860927,,-0.08103854,0.28854835,-0.035546456,0.4019228,0.5984444,0.69305295,-0.8725577,0.020793395,0.48806828,0.2776708,-0.8008945,0.5305346,,0.027229726,0.48838314,-0.27372557,0.7977715,0.5827383,-0.15484427,-0.58084404,0.8116509,0.061992507,0.16180488,0.04048452,0.98599195,,1.1489264151641287,0.3767149096046716,0.18874241658000002,-0.3862488758984939,0.34610025390586063,0.9406725473214623,-0.4127704551213236,,-1.034220663783272,0.26743823943439476,0.17037009841,1.2222826805712925,0.32492159644221735,0.47750797288762065,0.8588630997340404,,0.026284658535034606,0.02909900195387546,0.07078751784,-0.11578833687890082,,-2.180785e-05,-2.682209e-06,2.1457672e-06,1.0,2.8185546e-05,2.976507e-05,-2.8178096e-05,0.99999994,2.682209e-06,-2.976507e-05,-2.6524067e-06,0.99999994,458,1.398,0,0,0.0,False,-0.26112916771260597,1.0346929657194335
1.3797933759633452,13:58:54.325204,13:57:27.355110,0,,0.12314296,0.006046757,0.02262102,-0.34653535,-0.65058565,-0.67576,-0.35087407,-0.578202,0.73659325,-0.8699428,0.49236223,-0.02790612,,0.02055242,0.008653846,0.043579936,-0.71840954,-0.6561358,0.23102689,-0.09344676,0.4201362,0.90263677,-0.6893151,0.62687427,-0.36314365,,0.05787258,1.3372941,0.4464917,0.99692327,0.077164136,-0.013772952,0.0429625,-0.6848847,-0.72738373,-0.065560825,0.72455406,-0.6860927,,-0.08106298,0.28871742,-0.035668667,0.39232305,0.6065318,0.6915214,-0.8704085,0.0016923113,0.49232733,0.2974419,-0.7950574,0.5285943,,0.02723002,0.4883812,-0.27372208,0.79795283,0.58245736,-0.15496658,-0.580541,0.8118572,0.062128626,0.16199802,0.04038874,0.9859642,,1.149003642492871,0.3765836231458098,0.18867630579000003,-0.395894613298782,0.36632245587114587,0.937986404658147,-0.4114637025922494,,-1.034212941050398,0.267445962167269,0.17037398728000003,1.2227020604582615,0.32492159644221735,0.47767133036790177,0.859843164130846,,0.026284658535034606,0.02909900195387546,0.07078751784,-0.11578833687890082,,-2.180785e-05,-2.682209e-06,2.1457672e-06,1.0,2.8185546e-05,2.976507e-05,-2.8178096e-05,0.99999994,2.682209e-06,-2.976507e-05,-2.6524067e-06,0.99999994,466,1.422,0,0,0.0,False,-0.26011634649774784,1.0336790815030648
1.4444448829162866,13:58:54.356049,13:57:27.355110,0,,0.123126045,0.006034434,0.022720546,-0.3436814,-0.650886,-0.6769272,-0.34710658,-0.58174145,0.73559076,-0.87258244,0.48777473,-0.025993109,,0.020556293,0.008655082,0.043580413,-0.71848935,-0.6559489,0.23130926,-0.093280435,0.42043132,0.90251654,-0.6892544,0.626872,-0.36326265,,0.05787258,1.3372941,0.4464917,0.99692327,0.077164136,-0.013772952,0.0429625,-0.6848847,-0.72738373,-0.065560825,0.72455406,-0.6860927,,-0.08105253,0.28878382,-0.035744965,0.3897179,0.60704136,0.69254655,-0.8699517,-0.0040735197,0.49312,0.30216536,-0.7946598,0.52650917,,0.027226152,0.48838183,-0.2737209,0.79802924,0.5822813,-0.15523478,-0.58040404,0.8119696,0.061940264,0.16211258,0.040668752,0.98593384,,1.1491967108147265,0.37657590041293554,0.18861408387000003,-0.3986205825640808,0.37110473336293626,0.9391508599174871,-0.4121170788567863,,-1.0342361092490207,0.2674536849001432,0.17037528357,1.2229117504017462,0.32492159644221735,0.47742629414748006,0.8596798200647116,,0.026284658535034606,0.02909900195387546,0.07078751784,-0.11578833687890082,,-2.180785e-05,-2.682209e-06,2.1457672e-06,1.0,2.8185546e-05,2.976507e-05,-2.8178096e-05,0.99999994,2.682209e-06,-2.976507e-05,-2.6524067e-06,0.99999994,474,1.447,0,0,0.0,False,-0.26136747858668974,1.0341618835108592
1.4752740219701082,13:58:54.376368,13:57:27.355110,0,,0.12310639,0.0060167015,0.02278617,-0.34286958,-0.65171814,-0.67653817,-0.34585202,-0.5820291,0.73595405,-0.87339956,0.48631832,-0.025837928,,0.020558886,0.008657958,0.043581724,-0.7186683,-0.6556745,0.2315315,-0.0929527,0.42056873,0.9024863,-0.68911225,0.6270669,-0.36319613,,0.05787258,1.3372941,0.4464917,0.99692327,0.077164136,-0.013772952,0.0429625,-0.6848847,-0.72738373,-0.065560825,0.72455406,-0.6860927,,-0.08103736,0.28882146,-0.035802934,0.38898483,0.60795593,0.6921564,-0.8697492,-0.005322623,0.49346533,0.30368924,-0.79395294,0.5266987,,0.027223501,0.48838398,-0.27371866,0.79819816,0.5819884,-0.15546456,-0.5801119,0.8121765,0.0619631,0.16232647,0.04072801,0.9858962,,1.149382056403708,0.37657590041293554,0.18856093598,-0.3994593423380189,0.3726077348603561,0.9383336566775293,-0.41293379918745776,,-1.034251554714769,0.2674768530987659,0.17037657986000002,1.223331130288715,0.32492159644221735,0.47742629414748006,0.8596798200647116,,0.026284658535034606,0.02909900195387546,0.07078751784,-0.11578833687890082,,-2.180785e-05,-2.682209e-06,2.1457672e-06,1.0,2.8185546e-05,2.976507e-05,-2.8178096e-05,0.99999994,2.682209e-06,-2.976507e-05,-2.6524067e-06,0.99999994,482,1.471,0,0,0.0,False,-0.26101001227556386,1.0334376804991676
1.495541675016284,13:58:54.405344,13:57:27.355110,0,,0.123069674,0.006017059,0.022916704,-0.33831063,-0.6556843,-0.67499924,-0.34129962,-0.5829615,0.73734003,-0.8769609,0.4798269,-0.02656272,,0.020559303,0.008659255,0.04358107,-0.7187626,-0.65551424,0.2316925,-0.09279266,0.42071313,0.9024355,-0.6890355,0.6271376,-0.36321977,,0.05787258,1.3372941,0.4464917,0.99692327,0.077164136,-0.013772952,0.0429625,-0.6848847,-0.72738373,-0.065560825,0.72455406,-0.6860927,,-0.0810088,0.28892004,-0.035891555,0.384752,0.6122962,0.69069475,-0.86950976,-0.010648584,0.49380094,0.30970737,-0.7905567,0.52830046,,0.02722321,0.48838398,-0.2737172,0.7982866,0.5818248,-0.15562263,-0.579962,0.81228817,0.06190291,0.16242707,0.04083895,0.98587507,,1.1497295793830482,0.37657590041293554,0.18849093632000002,-0.4040725210946784,0.37861974085003547,0.9342480563162923,-0.41260711105518943,,-1.034251554714769,0.2674845758316401,0.17037787615000002,1.2235408202321996,0.32492159644221735,0.4773446154073395,0.8595164759985774,,0.026284658535034606,0.02909900195387546,0.07078751784,-0.11578833687890082,,-2.180785e-05,-2.682209e-06,2.1457672e-06,1.0,2.8185546e-05,2.976507e-05,-2.8178096e-05,0.99999994,2.682209e-06,-2.976507e-05,-2.6524067e-06,0.99999994,490,1.496,0,0,0.0,False,-0.26011634649774784,1.0339204825069621
1.5245863150339574,13:58:54.426730,13:57:27.355110,0,,0.12304659,0.006031245,0.023008034,-0.3363963,-0.656453,-0.67520875,-0.3370683,-0.5855611,0.7372266,-0.8793307,0.4755917,-0.024288893,,0.02056016,0.008663129,0.04358244,-0.71875703,-0.65552074,0.231691,-0.09278026,0.42069578,0.90244484,-0.6890429,0.62714237,-0.36319745,,0.05787258,1.3372941,0.4464917,0.99692327,0.077164136,-0.013772952,0.0429625,-0.6848847,-0.72738373,-0.065560825,0.72455406,-0.6860927,,-0.08099114,0.28899822,-0.03594303,0.38307753,0.6132711,0.69076055,-0.8685126,-0.015510222,0.4954244,0.3145433,-0.7897202,0.52669203,,0.027222296,0.48838684,-0.27371427,0.79828244,0.5818302,-0.15562373,-0.57996356,0.81228524,0.06192705,0.1624419,0.040820826,0.98587334,,1.1500153204993944,0.3765836231458098,0.18845464020000002,-0.40575004064255465,0.38353865484159133,0.934729342490952,-0.41244376698905527,,-1.0342592774476433,0.2675077440302628,0.17037917244,1.2235408202321996,0.32492159644221735,0.4773446154073395,0.8595164759985774,,0.026284658535034606,0.02909900195387546,0.07078751784,-0.11578833687890082,,-2.180785e-05,-2.682209e-06,2.1457672e-06,1.0,2.8185546e-05,2.976507e-05,-2.8178096e-05,0.99999994,2.682209e-06,-2.976507e-05,-2.6524067e-06,0.99999994,498,1.52,0,0,0.0,False,-0.260652545964438,1.03411360331008
1.545972852036357,13:58:54.454275,13:57:27.355110,0,,0.12302011,0.0060525835,0.02313146,-0.33183283,-0.6589671,-0.6750181,-0.32993585,-0.5892961,0.737477,-0.88375854,0.4674317,-0.021869063,,0.020559967,0.008670937,0.043584526,-0.7189445,-0.6552618,0.231842,-0.092442974,0.42073268,0.9024623,-0.68889266,0.62738824,-0.3630578,,0.05787258,1.3372941,0.4464917,0.99692327,0.077164136,-0.013772952,0.0429625,-0.6848847,-0.72738373,-0.065560825,0.72455406,-0.6860927,,-0.08097191,0.28910518,-0.036010727,0.37894812,0.6162069,0.6904255,-0.8671972,-0.023994377,0.4973864,0.32305923,-0.78721875,0.5252803,,0.02722246,0.48839226,-0.27370825,0.7984591,0.58154297,-0.15579085,-0.57965916,0.8124936,0.062043447,0.16266,0.04076644,0.98583966,,1.150308784348615,0.37654500948143865,0.18841445521000003,-0.4099438395122451,0.39228339082657954,0.933806180905064,-0.4122804229229211,,-1.034251554714769,0.26756180316038236,0.17038176502000002,1.2239602001191687,0.32492159644221735,0.47742629414748006,0.8593531319324431,,0.026284658535034606,0.02909900195387546,0.07078751784,-0.11578833687890082,,-2.180785e-05,-2.682209e-06,2.1457672e-06,1.0,2.8185546e-05,2.976507e-05,-2.8178096e-05,0.99999994,2.682209e-06,-2.976507e-05,-2.6524067e-06,0.99999994,506,1.546,0,0,0.0,False,-0.26059296824591627,1.0343550043139773
1.573482597945258,13:58:54.476873,13:57:27.500102,0,,0.122965634,0.006072581,0.023260728,-0.32611868,-0.6604844,-0.6763187,-0.3233329,-0.59435,0.7363449,-0.8883143,0.45881188,-0.019727737,,0.020559594,0.008677613,0.043585837,-0.71894336,-0.65522885,0.23193872,-0.09242585,0.4208494,0.90240955,-0.6888962,0.6273443,-0.363127,,0.05787258,1.3372941,0.4464917,0.99692327,0.077164136,-0.013772952,0.0429625,-0.6848847,-0.72738373,-0.065560825,0.72455406,-0.6860927,,-0.080925144,0.2892165,-0.036084916,0.37366727,0.6181488,0.69156694,-0.8663673,-0.033732597,0.49826682,0.33133137,-0.785337,0.52293915,,0.02722287,0.48839644,-0.2737029,0.79845893,0.5815195,-0.15587941,-0.57965463,0.81250405,0.061948527,0.16267693,0.040892866,0.9858316,,1.1507103664580747,0.3764368912211995,0.18836908506000002,-0.41560546798632725,0.4007548538120368,0.9338409637878337,-0.41260711105518943,,-1.0342592774476433,0.2676004168247535,0.1703843576,1.2239602001191687,0.32492159644221735,0.477262936667199,0.8593531319324432,,0.026284658535034606,0.02909900195387546,0.07078751784,-0.11578833687890082,,-2.180785e-05,-2.682209e-06,2.1457672e-06,1.0,2.8185546e-05,2.976507e-05,-2.8178096e-05,0.99999994,2.682209e-06,-2.976507e-05,-2.6524067e-06,0.99999994,535,1.635,0,0,0.0,False,-0.26017592421626956,1.0335342409007262
1.596115113934502,13:58:54.563192,13:57:27.500102,0,,0.122819975,0.006057352,0.02346605,-0.31125933,-0.6685325,-0.6754125,-0.30875742,-0.6010199,0.73718643,-0.89876944,0.43799472,-0.01934129,,0.02056542,0.008695807,0.043593884,-0.7191938,-0.65478224,0.23242277,-0.09188852,0.42120874,0.9022968,-0.6887065,0.62756944,-0.3630977,,0.05787258,1.3372941,0.4464917,0.99692327,0.077164136,-0.013772952,0.0429625,-0.6848847,-0.72738373,-0.065560825,0.72455406,-0.6860927,,-0.080792844,0.28936383,-0.036241077,0.3597939,0.62732935,0.6906564,-0.8649041,-0.053417195,0.49908668,0.34998465,-0.7769199,0.52336055,,0.02721661,0.48841122,-0.27368978,0.79869914,0.5810587,-0.15636642,-0.57921857,0.8128206,0.061874557,0.1630506,0.04115118,0.98575914,,1.1512123440948991,0.37570323159814817,0.1882861225,-0.4304934539737285,0.4204305097782603,0.9263730533703078,-0.4108103263277123,,-1.0343056138448885,0.2677239805507411,0.17038954276,1.2245892699496221,0.32492159644221735,0.4770179004467773,0.8591897878663087,,0.026284658535034606,0.02909900195387546,0.07078751784,-0.11578833687890082,,-2.180785e-05,-2.682209e-06,2.1457672e-06,1.0,2.8185546e-05,2.976507e-05,-2.8178096e-05,0.99999994,2.682209e-06,-2.976507e-05,-2.6524067e-06,0.99999994,543,1.66,0,0,0.0,False,-0.2599376133421849,1.033099719093711
1.6824350049719214,13:58:54.589205,13:57:27.500102,0,,0.122753814,0.006025642,0.023499608,-0.3041832,-0.67162,-0.6755732,-0.30545333,-0.6029675,0.73697233,-0.90231407,0.43053067,-0.021735966,,0.020568833,0.008697834,0.043593228,-0.7194666,-0.65434486,0.23280987,-0.09140736,0.421502,0.9022087,-0.68848556,0.6278286,-0.36306858,,0.05787258,1.3372941,0.4464917,0.99692327,0.077164136,-0.013772952,0.0429625,-0.6848847,-0.72738373,-0.065560825,0.72455406,-0.6860927,,-0.08072955,0.2893698,-0.036290776,0.353022,0.63083184,0.6909607,-0.865566,-0.06017255,0.49716666,0.35520542,-0.7735829,0.5247843,,0.027213374,0.4884112,-0.27368736,0.79895574,0.5806007,-0.15675652,-0.57877785,0.81313854,0.0618214,0.16335832,0.041334633,0.9857005,,1.1512355122935218,0.37528620402294005,0.18826019670000002,-0.4380422919391714,0.4260326062686433,0.922294991759598,-0.4114637025922492,,-1.0343210593106371,0.26773942601648953,0.17039213534000003,1.2252183397800758,0.32492159644221735,0.47693622170663674,0.8590264438001746,,0.026284658535034606,0.02909900195387546,0.07078751784,-0.11578833687890082,,-2.180785e-05,-2.682209e-06,2.1457672e-06,1.0,2.8185546e-05,2.976507e-05,-2.8178096e-05,0.99999994,2.682209e-06,-2.976507e-05,-2.6524067e-06,0.99999994,551,1.684,0,0,0.0,False,-0.25922268071993226,1.0331479992944907
1.7084014159627259,13:58:54.613130,13:57:27.500102,0,,0.12272413,0.006020099,0.023559317,-0.2978175,-0.6762581,-0.67378,-0.29943815,-0.6040097,0.7385858,-0.9064443,0.4217192,-0.02261284,,0.020569809,0.00869998,0.04359007,-0.7194666,-0.65432584,0.2328633,-0.09140736,0.4215757,0.9021743,-0.68848556,0.62779903,-0.3631199,,0.05787258,1.3372941,0.4464917,0.99692327,0.077164136,-0.013772952,0.0429625,-0.6848847,-0.72738373,-0.065560825,0.72455406,-0.6860927,,-0.08070375,0.2894115,-0.036336288,0.3470523,0.6359841,0.68925965,-0.8648324,-0.067276955,0.4975326,0.36279413,-0.76876396,0.5266711,,0.027212871,0.48840928,-0.273684,0.79895574,0.58058786,-0.15680394,-0.57877785,0.8131436,0.061754983,0.16335832,0.041415144,0.98569715,,1.1512277895606478,0.3750467993038391,0.18824464122,-0.44433299024370715,0.4340941597548043,0.917028195283758,-0.4121170788567865,,-1.0343210593106371,0.26773942601648953,0.17039602421000002,1.2252183397800758,0.32492159644221735,0.4768545429664962,0.8588630997340404,,0.026284658535034606,0.02909900195387546,0.07078751784,-0.11578833687890082,,-2.180785e-05,-2.682209e-06,2.1457672e-06,1.0,2.8185546e-05,2.976507e-05,-2.8178096e-05,0.99999994,2.682209e-06,-2.976507e-05,-2.6524067e-06,0.99999994,559,1.709,0,0,0.0,False,-0.2598780356236645,1.0325686368851372
1.7323693979997188,13:58:54.637171,13:57:27.500102,0,,0.122685105,0.0060100704,0.023659453,-0.28883094,-0.6786752,-0.6752604,-0.29021356,-0.6100684,0.7372873,-0.91233367,0.40892106,-0.020754129,,0.02057013,0.00870071,0.043589056,-0.7194666,-0.65432584,0.2328633,-0.09140736,0.4215757,0.9021743,-0.68848556,0.62779903,-0.3631199,,0.05787258,1.3372941,0.4464917,0.99692327,0.077164136,-0.013772952,0.0429625,-0.6848847,-0.72738373,-0.065560825,0.72455406,-0.6860927,,-0.08067124,0.2894806,-0.036412578,0.33864376,0.6390617,0.6905944,-0.8633514,-0.08076642,0.49809748,0.37409183,-0.76490325,0.5243838,,0.027212704,0.48840865,-0.27368286,0.79895574,0.58058786,-0.15680394,-0.57877785,0.8131436,0.061754983,0.16335832,0.041415144,0.98569715,,1.1512277895606478,0.3747378899888701,0.18821353026,-0.4531399678700571,0.44611817173416307,0.9157180087330914,-0.4127704551213236,,-1.0343210593106371,0.26773942601648953,0.1703973205,1.2252183397800758,0.32492159644221735,0.4768545429664962,0.8588630997340404,,0.026284658535034606,0.02909900195387546,0.07078751784,-0.11578833687890082,,-2.180785e-05,-2.682209e-06,2.1457672e-06,1.0,2.8185546e-05,2.976507e-05,-2.8178096e-05,0.99999994,2.682209e-06,-2.976507e-05,-2.6524067e-06,0.99999994,567,1.733,0,0,0.0,False,-0.259282258438454,1.0323755160820194
1.7564133128616959,13:58:54.669769,13:57:27.500102,0,,0.1226534,0.006031245,0.023762196,-0.2825498,-0.68140125,-0.6751728,-0.2825243,-0.6135189,0.7374108,-0.9167037,0.39910793,-0.019162744,,0.0205222,0.008677132,0.04359734,-0.7196809,-0.6539337,0.23330307,-0.09108159,0.42204076,0.9019898,-0.68830496,0.62789524,-0.36329594,,0.057896625,1.337297,0.44648704,0.99692464,0.07714273,-0.013795686,0.042931344,-0.6848872,-0.7273833,-0.065560825,0.72455406,-0.6860927,,-0.08066452,0.28957722,-0.036466535,0.33279863,0.64229816,0.6904333,-0.86168313,-0.090299755,0.49934775,0.38307607,-0.761117,0.5234058,,0.027238317,0.48841244,-0.27371404,0.7991459,0.58021915,-0.1571991,-0.57846576,0.81338674,0.06147646,0.16353348,0.041805632,0.9856516,,1.1512972941565156,0.3745370989341403,0.18818501188000003,-0.4592209762311083,0.4556827267177439,0.9134729098039003,-0.4114637025922494,,-1.0343133365777628,0.2677317032836153,0.17039991308000002,1.225637719667045,0.32492159644221735,0.4766095067460745,0.8577196912711004,,0.026284658535034606,0.02909900195387546,0.07078751784,-0.11578833687890082,,2.592802e-06,-6.0796738e-06,2.9802322e-06,1.0000001,6.7427754e-06,7.1190298e-06,-6.735325e-06,1.0,6.2584877e-07,-7.122755e-06,-5.9604645e-07,1.0,579,1.771,0,0,0.0,False,-0.2593418361569748,1.0316030328695482
1.7890041549690068,13:58:54.704574,13:57:27.500102,0,,0.122616105,0.0060373694,0.023857608,-0.27595603,-0.6873036,-0.6719094,-0.2750839,-0.613338,0.74036837,-0.92096543,0.38914055,-0.019811839,,0.020529658,0.00868959,0.043587208,-0.71985376,-0.6536632,0.2335277,-0.09074809,0.42217225,0.9019619,-0.68816817,0.6280884,-0.36322093,,0.057896625,1.337297,0.44648704,0.99692464,0.07714273,-0.013795686,0.042931344,-0.6848872,-0.7273833,-0.065560825,0.72455406,-0.6860927,,-0.08063309,0.28965354,-0.036527544,0.32663965,0.6488093,0.6872794,-0.8601038,-0.097408056,0.50073266,0.39182657,-0.75469077,0.526226,,0.02723261,0.48840833,-0.27369782,0.79930973,0.5799302,-0.15743226,-0.5781765,0.81359005,0.06150763,0.16375545,0.04185998,0.98561245,,1.1514208578825034,0.37436719881090735,0.18816038237000002,-0.46572136447912865,0.46497400870179384,0.9061415285729653,-0.4119537347906521,,-1.0343365047763855,0.2677625942151122,0.17041676485,1.2260570995540139,0.32492159644221735,0.4766095067460745,0.8577196912711004,,0.026284658535034606,0.02909900195387546,0.07078751784,-0.11578833687890082,,2.592802e-06,-6.0796738e-06,2.9802322e-06,1.0000001,6.7427754e-06,7.1190298e-06,-6.735325e-06,1.0,6.2584877e-07,-7.122755e-06,-5.9604645e-07,1.0,587,1.796,0,0,0.0,False,-0.25910352528289105,1.0320858348773425
1.8237530158367008,13:58:54.724484,13:57:27.753891,0,,0.12256757,0.006043792,0.023914844,-0.26892394,-0.69028914,-0.67170006,-0.27111784,-0.6149393,0.7405031,-0.9242159,0.38124883,-0.021777809,,0.020536825,0.008697413,0.043581903,-0.7200219,-0.6533953,0.2337591,-0.090415865,0.42231074,0.90193045,-0.6880361,0.6282741,-0.3631503,,0.057896625,1.337297,0.44648704,0.99692464,0.07714273,-0.013795686,0.042931344,-0.6848872,-0.7273833,-0.065560825,0.72455406,-0.6860927,,-0.08058807,0.28970197,-0.036563586,0.31990752,0.65224373,0.68719524,-0.8601036,-0.10425403,0.49935248,0.3973424,-0.7508057,0.5276455,,0.027226401,0.48840648,-0.2736879,0.7994695,0.5796449,-0.15767168,-0.57789236,0.81378996,0.061532628,0.16397871,0.0419238,0.98557264,,1.1515289761427425,0.3742050214205486,0.18814871576000003,-0.4732702024445715,0.4707127416919423,0.9016253340979966,-0.4119537347906521,,-1.0343673957078823,0.26778576241373486,0.17042713517000002,1.226476479440983,0.32492159644221735,0.4766095067460745,0.8577196912711004,,0.026284658535034606,0.02909900195387546,0.07078751784,-0.11578833687890082,,2.592802e-06,-6.0796738e-06,2.9802322e-06,1.0000001,6.7427754e-06,7.1190298e-06,-6.735325e-06,1.0,6.2584877e-07,-7.122755e-06,-5.9604645e-07,1.0,612,1.873,0,0,0.0,False,-0.25880563669028556,1.0320858348773425
1.84372263494879,13:58:54.805822,13:57:27.753891,0,,0.12234226,0.005988404,0.024004295,-0.25213277,-0.6950366,-0.6733153,-0.25928563,-0.6218305,0.7389843,-0.93230903,0.36090302,-0.023429155,,0.02054388,0.008723669,0.043574274,-0.7203505,-0.6528816,0.23418152,-0.089968875,0.42272526,0.90178096,-0.68775064,0.62852925,-0.36324936,,0.057896625,1.337297,0.44648704,0.99692464,0.07714273,-0.013795686,0.042931344,-0.6848872,-0.7273833,-0.065560825,0.72455406,-0.6860927,,-0.08036994,0.28973883,-0.036677167,0.30390286,0.6580966,0.6888773,-0.8587741,-0.123841755,0.4971622,0.41249254,-0.74267894,0.5275205,,0.027221194,0.48841083,-0.27366048,0.799772,0.5791155,-0.15808217,-0.57740426,0.81415135,0.061334543,0.1642226,0.04222367,0.98551923,,1.151830162724837,0.37296166142779846,0.18811501222000002,-0.49130353758424056,0.4873823946633261,0.8940765766174349,-0.41260711105518943,,-1.0343982866393793,0.26790160340684827,0.17044917210000002,1.2271055492714364,0.32478495994245193,0.4763125309490681,0.8572296590726975,,0.026284658535034606,0.02909900195387546,0.07078751784,-0.11578833687890082,,2.592802e-06,-6.0796738e-06,2.9802322e-06,1.0000001,6.7427754e-06,7.1190298e-06,-6.735325e-06,1.0,6.2584877e-07,-7.122755e-06,-5.9604645e-07,1.0,620,1.897,0,0,0.0,False,-0.2604738128088746,1.032423796282799
1.9249969178345054,13:58:54.826865,13:57:27.753891,0,,0.12226614,0.0059715956,0.02403447,-0.24416232,-0.69800436,-0.6731826,-0.25440165,-0.62377334,0.7390444,-0.93576956,0.35170555,-0.025271505,,0.020546347,0.008729972,0.04357463,-0.72033983,-0.6528929,0.23418266,-0.08995104,0.42270282,0.90179324,-0.6877641,0.6285326,-0.36321807,,0.057896625,1.337297,0.44648704,0.99692464,0.07714273,-0.013795686,0.042931344,-0.6848872,-0.7273833,-0.065560825,0.72455406,-0.6860927,,-0.08029622,0.28975254,-0.036714077,0.2962667,0.66158706,0.68886036,-0.8583481,-0.13188805,0.49582675,0.41888502,-0.7381789,0.5287979,,0.027218899,0.48841372,-0.2736548,0.79976374,0.5791256,-0.15808697,-0.5774092,0.8141453,0.06136772,0.16424538,0.04220119,0.98551637,,1.1518456081905857,0.3725060201882192,0.18811112335000002,-0.5003202051540752,0.4947607656506599,0.8887951184790932,-0.4119537347906521,,-1.0344137321051277,0.26793249433834515,0.17045306097000001,1.2271055492714364,0.32478495994245193,0.476312530949068,0.857556347204966,,0.026284658535034606,0.02909900195387546,0.07078751784,-0.11578833687890082,,2.592802e-06,-6.0796738e-06,2.9802322e-06,1.0000001,6.7427754e-06,7.1190298e-06,-6.735325e-06,1.0,6.2584877e-07,-7.122755e-06,-5.9604645e-07,1.0,628,1.922,0,0,0.0,False,-0.26041423509035333,1.0326169170859167
1.946095139021054,13:58:54.848928,13:57:27.753891,0,,0.122166485,0.0059369504,0.024068356,-0.2366364,-0.6981169,-0.6757486,-0.2464042,-0.62964356,0.73677266,-0.9398341,0.34085447,-0.023022443,,0.020546794,0.008735843,0.043573916,-0.7204329,-0.65275395,0.23428372,-0.08978057,0.4227545,0.901786,-0.6876888,0.6286422,-0.36317086,,0.057896625,1.337297,0.44648704,0.99692464,0.07714273,-0.013795686,0.042931344,-0.6848872,-0.7273833,-0.065560825,0.72455406,-0.6860927,,-0.0801996,0.28975785,-0.0367681,0.2891771,0.6622482,0.69123363,-0.85628045,-0.14387672,0.49606785,0.42797247,-0.73534125,0.52546436,,0.027218722,0.48841572,-0.27364922,0.7998515,0.5789753,-0.15819342,-0.57725614,0.8142517,0.061396085,0.16435608,0.042210378,0.98549753,,1.151861053656334,0.3718341424281617,0.18810593819000002,-0.5076593531760334,0.5045985936337716,0.8890225821671478,-0.412933799187458,,-1.0344137321051277,0.26796338526984204,0.17045694984,1.227315239214921,0.32478495994245193,0.476312530949068,0.857556347204966,,0.026284658535034606,0.02909900195387546,0.07078751784,-0.11578833687890082,,2.592802e-06,-6.0796738e-06,2.9802322e-06,1.0000001,6.7427754e-06,7.1190298e-06,-6.735325e-06,1.0,6.2584877e-07,-7.122755e-06,-5.9604645e-07,1.0,636,1.946,0,0,0.0,False,-0.2591631030014119,1.0323755160820194
1.9681441099382937,13:58:54.877312,13:57:27.753891,0,,0.12209422,0.005920604,0.0241047,-0.2288187,-0.6990692,-0.6774544,-0.24069402,-0.6336813,0.7351968,-0.9432436,0.33128595,-0.023263633,,0.02054996,0.008739583,0.043572724,-0.72051674,-0.65258205,0.23450494,-0.08961271,0.42296782,0.90170264,-0.68762296,0.6286772,-0.36323494,,0.057896625,1.337297,0.44648704,0.99692464,0.07714273,-0.013795686,0.042931344,-0.6848872,-0.7273833,-0.065560825,0.72455406,-0.6860927,,-0.08013009,0.28977633,-0.03680857,0.28170758,0.6637063,0.6929176,-0.85526025,-0.15366144,0.49489197,0.43493763,-0.7320397,0.524354,,0.027215859,0.488416,-0.27364507,0.7999311,0.5788069,-0.15840697,-0.5771135,0.81436163,0.061279215,0.16446939,0.042399652,0.9854705,,1.151861053656334,0.3714171148529536,0.18810204932000002,-0.5160469509154144,0.5122502376206363,0.8868671165671762,-0.41113701445998085,,-1.0344291775708763,0.2679788307355905,0.17046083871,1.2275249291584056,0.32478495994245193,0.47614917346878693,0.8575563472049661,,0.026284658535034606,0.02909900195387546,0.07078751784,-0.11578833687890082,,2.592802e-06,-6.0796738e-06,2.9802322e-06,1.0000001,6.7427754e-06,7.1190298e-06,-6.735325e-06,1.0,6.2584877e-07,-7.122755e-06,-5.9604645e-07,1.0,644,1.971,0,0,0.0,False,-0.2599376133421849,1.0320858348773425
1.9965365210082382,13:58:54.897838,13:57:27.753891,0,,0.12200203,0.0058772564,0.024099886,-0.22358629,-0.699741,-0.6785071,-0.23782235,-0.6359241,0.73419416,-0.9452247,0.3255199,-0.024230152,,0.020552345,0.008740015,0.04357052,-0.72069955,-0.65229976,0.23472825,-0.08929691,0.42312112,0.9016621,-0.6874724,0.6288669,-0.3631915,,0.057896625,1.337297,0.44648704,0.99692464,0.07714273,-0.013795686,0.042931344,-0.6848872,-0.7273833,-0.065560825,0.72455406,-0.6860927,,-0.080038704,0.2897468,-0.036842898,0.2766696,0.66468674,0.6940068,-0.85498744,-0.1594276,0.49353758,0.4386917,-0.72991395,0.52419,,0.027213791,0.48841402,-0.2736435,0.8001026,0.5785073,-0.15863514,-0.57681894,0.8145705,0.061276797,0.16466857,0.042476024,0.98543394,,1.1518764991220825,0.37080701895588986,0.18809297529000002,-0.5223376492199502,0.5167592421128957,0.8846605430677245,-0.41162704665838357,,-1.0344369003037504,0.2679788307355905,0.17046343129000002,1.2279443090453748,0.32478495994245193,0.47614917346878693,0.8575563472049661,,0.026284658535034606,0.02909900195387546,0.07078751784,-0.11578833687890082,,2.592802e-06,-6.0796738e-06,2.9802322e-06,1.0000001,6.7427754e-06,7.1190298e-06,-6.735325e-06,1.0,6.2584877e-07,-7.122755e-06,-5.9604645e-07,1.0,652,1.997,0,0,0.0,False,-0.2607717014014801,1.0317478734718866
2.0170411199796945,13:58:54.926798,13:57:27.753891,0,,0.1219214,0.005852774,0.02409488,-0.21694145,-0.6995066,-0.6809017,-0.23698482,-0.63890785,0.7318709,-0.9469819,0.32013646,-0.027166873,,0.020551503,0.0087407455,0.043569148,-0.72070444,-0.6522961,0.23472354,-0.08929899,0.42312005,0.90166235,-0.68746704,0.62887144,-0.36319387,,0.057896625,1.337297,0.44648704,0.99692464,0.07714273,-0.013795686,0.042931344,-0.6848872,-0.7273833,-0.065560825,0.72455406,-0.6860927,,-0.079958454,0.28972933,-0.036862385,0.2701655,0.66472363,0.6965293,-0.8559502,-0.16543241,0.48987895,0.44086266,-0.7285428,0.5242762,,0.027214818,0.48841318,-0.2736423,0.80010664,0.5785031,-0.15863016,-0.57681465,0.81457365,0.061275326,0.16466391,0.0424734,0.98543483,,1.1518996673207051,0.37044405051080126,0.18808908642000002,-0.5296767972419085,0.5189454261091428,0.8829595353487223,-0.41179039072451795,,-1.0344291775708763,0.2679788307355905,0.17046472758000003,1.2279443090453748,0.32478495994245193,0.47614917346878693,0.8577196912711003,,0.026284658535034606,0.02909900195387546,0.07078751784,-0.11578833687890082,,2.592802e-06,-6.0796738e-06,2.9802322e-06,1.0000001,6.7427754e-06,7.1190298e-06,-6.735325e-06,1.0,6.2584877e-07,-7.122755e-06,-5.9604645e-07,1.0,681,2.086,0,0,0.0,False,-0.2593418361569748,1.0312650714640919
2.0460409368388355,13:58:55.022652,13:57:27.946167,0,,0.12156931,0.0057831258,0.024226144,-0.18636858,-0.7015397,-0.68782926,-0.21253595,-0.65472966,0.7253672,-0.959216,0.28137407,-0.02708137,,0.020553716,0.00874152,0.04356551,-0.7211729,-0.6515626,0.23532113,-0.08851114,0.4235677,0.90152985,-0.6870776,0.6293303,-0.36313608,,0.057896625,1.337297,0.44648704,0.99692464,0.07714273,-0.013795686,0.042931344,-0.6848872,-0.7273833,-0.065560825,0.72455406,-0.6860927,,-0.07961673,0.28979188,-0.03702161,0.2409308,0.6688211,0.7032999,-0.8497297,-0.20477216,0.48582688,0.4689475,-0.7146655,0.5189812,,0.027213119,0.4884101,-0.2736398,0.8005448,0.57773054,-0.15923397,-0.5760662,0.8151083,0.06120623,0.16515364,0.042730983,0.9853417,,1.1520463992453154,0.36853653549086784,0.18809038271000003,-0.5632271881994324,0.5502351845554286,0.8740256196507759,-0.41326048731972653,,-1.0344291775708763,0.2679865534684647,0.17046861645000003,1.2289927587627971,0.32478495994245193,0.4760674947286463,0.856412938742026,,0.026284658535034606,0.02909900195387546,0.07078751784,-0.11578833687890082,,2.592802e-06,-6.0796738e-06,2.9802322e-06,1.0000001,6.7427754e-06,7.1190298e-06,-6.735325e-06,1.0,6.2584877e-07,-7.122755e-06,-5.9604645e-07,1.0,693,2.123,0,0,0.0,False,-0.25963972474957986,1.0308788298578562
2.1418815299402922,13:58:55.057158,13:57:27.946167,0,,0.121429704,0.0057459325,0.024243236,-0.1751467,-0.7023847,-0.68991274,-0.20580116,-0.6591453,0.72330725,-0.96279263,0.26866972,-0.029104501,,0.02055499,0.008743264,0.04356551,-0.72116786,-0.6515672,0.23532379,-0.088505656,0.42356265,0.9015328,-0.68708354,0.6293289,-0.3631271,,0.057896625,1.337297,0.44648704,0.99692464,0.07714273,-0.013795686,0.042931344,-0.6848872,-0.7273833,-0.065560825,0.72455406,-0.6860927,,-0.079479255,0.28978428,-0.037068628,0.23009633,0.67035854,0.7054609,-0.84826,-0.21714641,0.48301393,0.47698084,-0.709554,0.5186737,,0.027211906,0.48841077,-0.27363816,0.80054075,0.5777351,-0.15923767,-0.5760696,0.8151052,0.061215263,0.16516165,0.042726666,0.9853406,,1.1520541219781897,0.36779515313494227,0.18809427158000003,-0.5760182747519884,0.5592531935399478,0.8692040789511695,-0.4121170788567867,,-1.0344369003037504,0.2679942762013389,0.17046991274,1.2289927587627971,0.32478495994245193,0.4760674947286463,0.856412938742026,,0.026284658535034606,0.02909900195387546,0.07078751784,-0.11578833687890082,,2.592802e-06,-6.0796738e-06,2.9802322e-06,1.0000001,6.7427754e-06,7.1190298e-06,-6.735325e-06,1.0,6.2584877e-07,-7.122755e-06,-5.9604645e-07,1.0,701,2.147,0,0,0.0,False,-0.2590439475643693,1.0309271100586357
2.1763986239675432,13:58:55.086891,13:57:27.946167,0,,0.12130426,0.0057021677,0.024247542,-0.16670978,-0.70327234,-0.69109774,-0.19981733,-0.66226596,0.7221336,-0.96554697,0.25847998,-0.030119836,,0.020555891,0.008743025,0.04356402,-0.7213551,-0.651281,0.23554236,-0.08819175,0.4237145,0.90149224,-0.6869274,0.62952304,-0.36308616,,0.057896625,1.337297,0.44648704,0.99692464,0.07714273,-0.013795686,0.042931344,-0.6848872,-0.7273833,-0.065560825,0.72455406,-0.6860927,,-0.07935526,0.28976232,-0.03711124,0.2219741,0.67181003,0.70668155,-0.8465896,-0.22678378,0.48151335,0.4837494,-0.70515275,0.5184073,,0.027211202,0.48840922,-0.27363762,0.80071574,0.577431,-0.1594608,-0.57577044,0.81531686,0.06121107,0.16535625,0.042800147,0.9853048,,1.1520463992453154,0.36706149351189093,0.18809686416000002,-0.5856640121522765,0.5670414740265779,0.8650585844242686,-0.41195373479065234,,-1.0344369003037504,0.2679942762013389,0.17047120903000001,1.2294121386497663,0.32478495994245193,0.4760674947286463,0.856412938742026,,0.026284658535034606,0.02909900195387546,0.07078751784,-0.11578833687890082,,2.592802e-06,-6.0796738e-06,2.9802322e-06,1.0000001,6.7427754e-06,7.1190298e-06,-6.735325e-06,1.0,6.2584877e-07,-7.122755e-06,-5.9604645e-07,1.0,713,2.184,0,0,0.0,False,-0.26005676877922745,1.0314581922672097
2.2061268389225006,13:58:55.115930,13:57:27.946167,0,,0.121185035,0.0056528,0.024249405,-0.1601327,-0.70567626,-0.6902019,-0.19421026,-0.6630342,0.7229579,-0.9678016,0.24981347,-0.03087619,,0.020556174,0.008742534,0.043563724,-0.72144866,-0.6511186,0.23570478,-0.08803482,0.423864,0.9014372,-0.68684924,0.62959045,-0.3631172,,0.057896625,1.337297,0.44648704,0.99692464,0.07714273,-0.013795686,0.042931344,-0.6848872,-0.7273833,-0.065560825,0.72455406,-0.6860927,,-0.07923745,0.2897346,-0.037156038,0.21566884,0.67472965,0.70585185,-0.8447389,-0.23366944,0.4814715,0.4897991,-0.70009893,0.5195752,,0.027210934,0.48840874,-0.27363792,0.8008032,0.57726586,-0.1596195,-0.5756209,0.81542766,0.06114234,0.16545354,0.042917334,0.9852833,,1.1520541219781897,0.3663278338888396,0.18809427158000003,-0.5932128501177194,0.5741465720143808,0.8592648534320546,-0.41162704665838357,,-1.0344369003037504,0.2679942762013389,0.17047120903000001,1.2296218285932508,0.32478495994245193,0.47598581598850576,0.8565762828081602,,0.026284658535034606,0.02909900195387546,0.07078751784,-0.11578833687890082,,2.592802e-06,-6.0796738e-06,2.9802322e-06,1.0000001,6.7427754e-06,7.1190298e-06,-6.735325e-06,1.0,6.2584877e-07,-7.122755e-06,-5.9604645e-07,1.0,721,2.21,0,0,0.0,False,-0.26041423509035333,1.0310236704601945
2.2351716139819473,13:58:55.148133,13:57:27.946167,0,,0.12103405,0.0056211352,0.024267644,-0.14800279,-0.7052198,-0.6933689,-0.19008479,-0.66773427,0.7197213,-0.9705478,0.23831964,-0.035225034,,0.020557448,0.008744292,0.043563724,-0.7214436,-0.65112317,0.23570743,-0.088029325,0.42385888,0.9014402,-0.6868552,0.62958896,-0.3631082,,0.057896625,1.337297,0.44648704,0.99692464,0.07714273,-0.013795686,0.042931344,-0.6848872,-0.7273833,-0.065560825,0.72455406,-0.6860927,,-0.07908859,0.28973192,-0.03720035,0.20382191,0.67488736,0.70921344,-0.8444208,-0.24537426,0.47617745,0.49538887,-0.69593,0.51987624,,0.027209723,0.48840943,-0.27363625,0.80079913,0.5772705,-0.15962319,-0.5756242,0.81542456,0.061151374,0.16546156,0.042913012,0.9852822,,1.1521545175055545,0.36571773799177587,0.18808908642000002,-0.6076814562181516,0.5801585780040601,0.8543624656694121,-0.41162704665838357,,-1.0344446230366247,0.26800199893421317,0.17047250532000002,1.2296218285932508,0.32478495994245193,0.47598581598850576,0.8565762828081602,,0.026284658535034606,0.02909900195387546,0.07078751784,-0.11578833687890082,,2.592802e-06,-6.0796738e-06,2.9802322e-06,1.0000001,6.7427754e-06,7.1190298e-06,-6.735325e-06,1.0,6.2584877e-07,-7.122755e-06,-5.9604645e-07,1.0,750,2.299,0,0,0.0,False,-0.2594609915940169,1.0319892744757837
2.2673609438352287,13:58:55.226296,13:57:27.946167,0,,0.120641336,0.005534515,0.024526447,-0.12615217,-0.70837,-0.69447654,-0.17120036,-0.6740191,0.7186019,-0.9771264,0.20954782,-0.036244214,,0.020563558,0.008755393,0.04357487,-0.7186688,-0.6541446,0.23581836,-0.090094745,0.42387366,0.90122914,-0.6894913,0.6264392,-0.36355975,,0.057896625,1.337297,0.44648704,0.99692464,0.07714273,-0.013795686,0.042931344,-0.6848872,-0.7273833,-0.065560825,0.72455406,-0.6860927,,-0.07871457,0.28987938,-0.037459347,0.18282324,0.6796813,0.7103583,-0.8374225,-0.2708803,0.47470772,0.51507205,-0.6816577,0.5196572,,0.027202584,0.48842365,-0.27363077,0.7983251,0.580671,-0.15968144,-0.5791746,0.81294465,0.06064454,0.16502671,0.04406937,0.98530406,,1.1531507500463296,0.3643430915401639,0.18796075371,-0.6338926991537172,0.6020204179665306,0.8399661081638883,-0.4122804229229209,,-1.0344369003037504,0.2679865534684647,0.17047639419000002,1.2254280297235602,0.32656123443940266,0.47421066827989,0.8572296590726973,,0.026284658535034606,0.02909900195387546,0.07078751784,-0.11578833687890082,,2.592802e-06,-6.0796738e-06,2.9802322e-06,1.0000001,6.7427754e-06,7.1190298e-06,-6.735325e-06,1.0,6.2584877e-07,-7.122755e-06,-5.9604645e-07,1.0,758,2.323,0,0,0.0,False,-0.2593418361569748,1.0315064724679892
2.345505581004545,13:58:55.256962,13:57:28.278126,0,,0.12046698,0.0055087507,0.0246256,-0.11899517,-0.7092914,-0.69479936,-0.16530132,-0.67585313,0.7182604,-0.9790381,0.20032069,-0.03682351,,0.02056384,0.008754902,0.04357463,-0.71876293,-0.6540018,0.23592752,-0.08993815,0.42395023,0.9012088,-0.68941367,0.62653655,-0.36353934,,0.057896625,1.337297,0.44648704,0.99692464,0.07714273,-0.013795686,0.042931344,-0.6848872,-0.7273833,-0.065560825,0.72455406,-0.6860927,,-0.07854728,0.2899416,-0.037554394,0.17592418,0.68113387,0.71070904,-0.83514035,-0.27894184,0.47405913,0.5211442,-0.67694026,0.5197697,,0.027202314,0.4884232,-0.27363107,0.7984132,0.5805192,-0.1597929,-0.57902545,0.8130511,0.060642377,0.16512385,0.044106476,0.9852861,,1.1537454004776448,0.3637716093074713,0.18790890211000003,-0.6433287466105208,0.608988879454568,0.834447152555652,-0.41260711105518966,,-1.0344369003037504,0.2679865534684647,0.17047639419000002,1.225637719667045,0.32656123443940266,0.47421066827989,0.8572296590726973,,0.026284658535034606,0.02909900195387546,0.07078751784,-0.11578833687890082,,2.592802e-06,-6.0796738e-06,2.9802322e-06,1.0000001,6.7427754e-06,7.1190298e-06,-6.735325e-06,1.0,6.2584877e-07,-7.122755e-06,-5.9604645e-07,1.0,766,2.348,0,0,0.0,False,-0.2602950796533112,1.0312650714640919
2.376201068982482,13:58:55.278382,13:57:28.278126,0,,0.12034657,0.005496651,0.024700478,-0.11344274,-0.7105918,-0.6943991,-0.16000274,-0.67672217,0.71864194,-0.9805763,0.19263047,-0.03692746,,0.02056183,0.008754455,0.043573618,-0.7188668,-0.65385157,0.23602727,-0.08978568,0.42402458,0.90118897,-0.6893252,0.62664294,-0.36352366,,0.057896625,1.337297,0.44648704,0.99692464,0.07714273,-0.013795686,0.042931344,-0.6848872,-0.7273833,-0.065560825,0.72455406,-0.6860927,,-0.07843202,0.28999314,-0.03762006,0.17059048,0.6828897,0.7103242,-0.8329292,-0.28520358,0.4742234,0.5264293,-0.6725478,0.5201458,,0.027204428,0.4884223,-0.2736312,0.7985094,0.5803589,-0.15989439,-0.5788677,0.81316376,0.060637232,0.16521169,0.044138294,0.98526996,,1.154100646189859,0.3634240863281312,0.18788168002000002,-0.649829134858541,0.6145909759449512,0.8297973397639582,-0.41244376698905527,,-1.034421454838002,0.2679865534684647,0.17047639419000002,1.2258474096105294,0.32656123443940266,0.47421066827989,0.8572296590726973,,0.026284658535034606,0.02909900195387546,0.07078751784,-0.11578833687890082,,2.592802e-06,-6.0796738e-06,2.9802322e-06,1.0000001,6.7427754e-06,7.1190298e-06,-6.735325e-06,1.0,6.2584877e-07,-7.122755e-06,-5.9604645e-07,1.0,774,2.372,0,0,0.0,False,-0.26017592421626956,1.0317478734718866
2.3976236118469387,13:58:55.301996,13:57:28.278126,0,,0.12014328,0.0054711998,0.024808526,-0.105333775,-0.71050566,-0.69576347,-0.15442473,-0.6794814,0.7172573,-0.9823736,0.18299446,-0.0381473,,0.020562112,0.008753993,0.04357338,-0.71896094,-0.65370864,0.23613647,-0.089629024,0.4241011,0.90116864,-0.6892474,0.62674034,-0.36350334,,0.057896625,1.337297,0.44648704,0.99692464,0.07714273,-0.013795686,0.042931344,-0.6848872,-0.7273833,-0.065560825,0.72455406,-0.6860927,,-0.07823639,0.2900631,-0.03772245,0.16272765,0.6833427,0.71173203,-0.8308066,-0.29421902,0.4724357,0.53224057,-0.66819006,0.51984805,,0.027204158,0.48842186,-0.27363148,0.79859746,0.58020705,-0.16000585,-0.5787185,0.81327015,0.060635023,0.16530885,0.044175368,0.985252,,1.1547956921485394,0.3628371586296901,0.18782464326,-0.6603136320327672,0.6208762549341614,0.824835473674204,-0.4127704551213238,,-1.034421454838002,0.2679865534684647,0.17047639419000002,1.2260570995540139,0.32656123443940266,0.47421066827989,0.8573930031388317,,0.026284658535034606,0.02909900195387546,0.07078751784,-0.11578833687890082,,2.592802e-06,-6.0796738e-06,2.9802322e-06,1.0000001,6.7427754e-06,7.1190298e-06,-6.735325e-06,1.0,6.2584877e-07,-7.122755e-06,-5.9604645e-07,1.0,786,2.41,0,0,0.0,False,-0.26059296824591627,1.0312650714640919
2.4212241580244154,13:58:55.337516,13:57:28.278126,0,,0.119957425,0.005466625,0.02495727,-0.09540298,-0.71367013,-0.69395494,-0.14278242,-0.68011516,0.71906644,-0.98514545,0.1676856,-0.037014544,,0.020563617,0.008754306,0.043572962,-0.7189855,-0.65358424,0.23640586,-0.08938928,0.42427233,0.9011118,-0.689253,0.62675416,-0.363469,,0.057896625,1.337297,0.44648704,0.99692464,0.07714273,-0.013795686,0.042931344,-0.6848872,-0.7273833,-0.065560825,0.72455406,-0.6860927,,-0.078060254,0.29017675,-0.037835356,0.15323494,0.6874356,0.7098953,-0.8254227,-0.30593446,0.4744275,0.5433198,-0.65866256,0.5205451,,0.027202725,0.48842147,-0.2736309,0.79862976,0.5800872,-0.16027902,-0.5786127,0.8133471,0.060612503,0.16552301,0.04433252,0.985209,,1.1553826198469805,0.36233518099286555,0.18778705085000003,-0.6726853386983541,0.6333101764128165,0.81477812317797,-0.41260711105518943,,-1.034421454838002,0.2679865534684647,0.17047769048000003,1.2262667894974983,0.32669787093916813,0.4740992503761936,0.8569029709404289,,0.026284658535034606,0.02909900195387546,0.07078751784,-0.11578833687890082,,2.592802e-06,-6.0796738e-06,2.9802322e-06,1.0000001,6.7427754e-06,7.1190298e-06,-6.735325e-06,1.0,6.2584877e-07,-7.122755e-06,-5.9604645e-07,1.0,815,2.499,0,0,0.0,False,-0.2608908568385213,1.031071950660974
2.4567233219277114,13:58:55.426525,13:57:28.411608,0,,0.1195083,0.0054540634,0.025300696,-0.076568305,-0.7140751,-0.6958694,-0.12740433,-0.6851901,0.717135,-0.988891,0.14356655,-0.03851244,,0.020577922,0.008767657,0.043593943,-0.7154426,-0.65705234,0.23753811,-0.09108612,0.42480004,0.9006932,-0.6927088,0.6227578,-0.36376834,,0.057896625,1.337297,0.44648704,0.99692464,0.07714273,-0.013795686,0.042931344,-0.6848872,-0.7273833,-0.065560825,0.72455406,-0.6860927,,-0.07763364,0.2904384,-0.038098667,0.13499638,0.6892274,0.7118578,-0.8185578,-0.3272586,0.47208574,0.558336,-0.6464266,0.5199937,,0.027186254,0.48844466,-0.27362707,0.79551107,0.5840549,-0.16137552,-0.5828011,0.8103935,0.060043525,0.16584639,0.046284545,0.9850648,,1.1572669666682913,0.36145478944520393,0.18763668121000002,-0.6976384419730125,0.6494332833851385,0.8010590593608086,-0.414077207650398,,-1.0344291775708763,0.2679788307355905,0.17048028306000002,1.221653610740839,0.3295672374342423,0.4715144381781471,0.856412938742026,,0.026284658535034606,0.02909900195387546,0.07078751784,-0.11578833687890082,,2.592802e-06,-6.0796738e-06,2.9802322e-06,1.0000001,6.7427754e-06,7.1190298e-06,-6.735325e-06,1.0,6.2584877e-07,-7.122755e-06,-5.9604645e-07,1.0,823,2.524,0,0,0.0,False,-0.26059296824591627,1.030106346645385
2.5457667110022157,13:58:55.460429,13:57:28.411608,0,,0.119345084,0.005486384,0.025441349,-0.06727488,-0.714414,-0.6964818,-0.119036645,-0.68733007,0.7165247,-0.9906081,0.13111097,-0.03880143,,0.020578511,0.008766584,0.04359007,-0.71573174,-0.6566976,0.23764813,-0.09062287,0.42474234,0.9007671,-0.6924707,0.62317127,-0.36351335,,0.057896625,1.337297,0.44648704,0.99692464,0.07714273,-0.013795686,0.042931344,-0.6848872,-0.7273833,-0.065560825,0.72455406,-0.6860927,,-0.0774788,0.2905699,-0.03817744,0.12600541,0.6902923,0.712474,-0.8145527,-0.3379459,0.47148323,0.56623894,-0.63975704,0.5196965,,0.027186135,0.4884407,-0.27362627,0.7957811,0.58364826,-0.16151513,-0.58235174,0.8106981,0.06029184,0.16612923,0.0460795,0.9850268,,1.1579311216954746,0.361284889321971,0.18761334799,-0.709800458695115,0.6577681098708303,0.7942625672353267,-0.414077207650398,,-1.034421454838002,0.2679711080027163,0.17048287564,1.2222826805712925,0.3295672374342423,0.47184115313870933,0.8559229065436231,,0.026284658535034606,0.02909900195387546,0.07078751784,-0.11578833687890082,,2.592802e-06,-6.0796738e-06,2.9802322e-06,1.0000001,6.7427754e-06,7.1190298e-06,-6.735325e-06,1.0,6.2584877e-07,-7.122755e-06,-5.9604645e-07,1.0,831,2.549,0,0,0.0,False,-0.2602950796533112,1.030347747649282
