AlexandreBanks6/ExpertPlaybackApp/resources/Motions/P_13/PC1/Data_PC1_3.csv
Task Time,PC1 Time,PC2 Time,Gaze Calib,s_T_psm1,Tx,Ty,Tz,R00,R01,R02,R10,R11,R12,R20,R21,R22,s_T_psm3,Tx,Ty,Tz,R00,R01,R02,R10,R11,R12,R20,R21,R22,cart_T_ecm,Tx,Ty,Tz,R00,R01,R02,R10,R11,R12,R20,R21,R22,ecm_T_psm1,Tx,Ty,Tz,R00,R01,R02,R10,R11,R12,R20,R21,R22,ecm_T_psm3,Tx,Ty,Tz,R00,R01,R02,R10,R11,R12,R20,R21,R22,psm1_joints,q1,q2,q3,q4,q5,q6,jaw,psm3_joints,q1,q2,q3,q4,q5,q6,jaw,ecm_joints,q1,q2,q3,q4,ecmi_T_ecm,Tx,Ty,Tz,R00,R01,R02,R10,R11,R12,R20,R21,R22,Sample #,Task Duration (s),Collisions (binary),Collisions (increments),Cumulative Collision Time (s),Clutch Press,MTMR Angle,MTML Angle
""
lci_T_si,,,,,-0.060449902,0.028989637,0.2531565,0.99598145,-0.006817275,0.089299574,0.061369892,-0.674251,-0.7359479,0.065227486,0.7384708,-0.67112315
rci_T_si,,,,,-0.070302054,0.033551246,0.263737,0.9935428,-0.022055382,0.11129344,0.070708275,-0.6467685,-0.7594016,0.088729985,0.7623674,-0.6410327
ecm_T_lc,,,,,-4.4061628e-05,-0.00034663224,-0.01840835,-0.99912,0.030754527,0.028518902,-0.031987965,-0.99852574,-0.043852776,0.027128186,-0.04472645,0.9986309
ecm_T_rc,,,,,-0.0043358393,0.01870579,-0.007592615,-0.99555075,-0.052743673,-0.078081585,0.04863213,-0.9973746,0.053654674,-0.08070653,0.04961868,0.9955021
cart_T_ecmi,,,,,0.05789456,1.3372948,0.4464937,0.99692506,0.077136,-0.013802834,0.042921547,-0.6848879,-0.7273832,-0.065560825,0.72455406,-0.6860927
ecmac_T_ecmrep_psm1,,,,,-0.0025980123,-0.29326126,-0.2805022,0.9974786,0.061531033,0.035360787,-0.060258932,0.9975341,-0.035980776,-0.037487525,0.033759248,0.99872667
ecmac_T_ecmrep_psm3,,,,,-0.0114122145,-0.5209516,-0.5025674,0.9999053,0.010122195,-0.009323479,-0.0077519584,0.9740634,0.22614253,0.011370718,-0.22604884,0.9740496
""
0,14:00:01.150939,13:58:34.106823,0,,0.13089699,0.009471521,0.02131775,-0.7250253,-0.30355552,-0.61821705,-0.56322736,-0.25527692,0.7858807,-0.396375,0.9179801,0.014111429,,0.01835376,0.008233245,0.043531477,-0.7008535,-0.70349526,0.117893286,-0.12952602,0.28804445,0.9488167,-0.70144665,0.6497114,-0.2929979,,0.05793831,1.3372971,0.44648713,0.9969263,0.077115394,-0.013824713,0.04289156,-0.6848902,-0.7273828,-0.065560825,0.72455406,-0.6860927,,-0.088701114,0.28978688,-0.03180673,0.73615366,0.24064271,0.63258904,-0.6474479,0.5227144,0.55459976,-0.19720297,-0.8178391,0.54060173,,0.02934665,0.4883685,-0.27426618,0.7809966,0.6224989,-0.0503924,-0.6093984,0.77723974,0.15662663,0.13666688,-0.09161581,0.98637146,,1.1285615685747987,0.43679004863326404,0.19175499454000003,0.05284186575810013,-0.18295627318592475,0.9900712027965966,-0.4153839601794719,,-1.0208062767807442,0.2664342841607456,0.16964676859000002,1.1740539935698517,0.3313435119311931,0.5981382699704951,0.8747074741490652,,0.026284658535034606,0.02909900195387546,0.07078751784,-0.11578833687890082,,4.414469e-05,-2.861023e-06,2.2649765e-06,1.0,-2.0638108e-05,-2.1792948e-05,2.0638108e-05,0.99999994,-1.9669533e-06,2.1792948e-05,1.9669533e-06,0.99999994,33,0.099,1,1,0.076,False,-0.2599971910607066,1.048742504146256
0.12762603210285306,14:00:01.175303,13:58:34.106823,0,,0.13079245,0.009605765,0.021545827,-0.72398156,-0.30763832,-0.61742145,-0.56134105,-0.25747538,0.78651285,-0.4009323,0.9160049,0.013717413,,0.01835376,0.008233245,0.043531477,-0.7008535,-0.7035145,0.11777836,-0.12952602,0.28788945,0.94886374,-0.70144665,0.6497592,-0.29289174,,0.05793831,1.3372971,0.44648713,0.9969263,0.077115394,-0.013824713,0.04289156,-0.6848902,-0.7273828,-0.065560825,0.72455406,-0.6860927,,-0.08860811,0.29004955,-0.031864375,0.73543435,0.24479279,0.6318329,-0.6496151,0.5199088,0.55470264,-0.19270825,-0.8183956,0.54137987,,0.02934665,0.4883685,-0.27426618,0.7809966,0.62250715,-0.05029071,-0.6093984,0.77721417,0.1567536,0.13666688,-0.091776945,0.9863565,,1.1300983924167693,0.4372147989413464,0.19168758746000003,0.05032558643628584,-0.1787205416931961,0.9882508225848186,-0.4153839601794722,,-1.0208062767807442,0.2664342841607456,0.16964676859000002,1.1740539935698517,0.3313435119311931,0.5983016274507763,0.8747074741490652,,0.026284658535034606,0.02909900195387546,0.07078751784,-0.11578833687890082,,4.414469e-05,-2.861023e-06,2.2649765e-06,1.0,-2.0638108e-05,-2.1792948e-05,2.0638108e-05,0.99999994,-1.9669533e-06,2.1792948e-05,1.9669533e-06,0.99999994,41,0.124,1,1,0.101,False,-0.25975888018662197,1.048983905150153
0.15198967093601823,14:00:01.200622,13:58:34.106823,0,,0.13071744,0.009691849,0.021647543,-0.724084,-0.3068189,-0.61770904,-0.56061375,-0.2598808,0.78624046,-0.40176415,0.9156003,0.016168654,,0.018351458,0.00823329,0.043530703,-0.70086324,-0.7035159,0.11771231,-0.12953012,0.28780964,0.9488874,-0.70143616,0.6497931,-0.2928417,,0.05793831,1.3372971,0.44648713,0.9969263,0.077115394,-0.013824713,0.04289156,-0.6848902,-0.7273828,-0.065560825,0.72455406,-0.6860927,,-0.08853774,0.2901851,-0.031872183,0.73560345,0.24394946,0.6319622,-0.64974576,0.51797676,0.55635464,-0.19161932,-0.8198712,0.53953063,,0.02934903,0.48836812,-0.27426603,0.7810048,0.62250173,-0.050230946,-0.60939,0.7772083,0.15681532,0.13665771,-0.091863275,0.98634976,,1.1309710612315567,0.437407867263202,0.19167721714000002,0.05011589649280132,-0.17776408619483802,0.98983958072302,-0.4148939279810694,,-1.0207908313149956,0.2664342841607456,0.16964676859000002,1.1740539935698517,0.3313435119311931,0.598383306190917,0.8745441300829311,,0.026284658535034606,0.02909900195387546,0.07078751784,-0.11578833687890082,,4.414469e-05,-2.861023e-06,2.2649765e-06,1.0,-2.0638108e-05,-2.1792948e-05,2.0638108e-05,0.99999994,-1.9669533e-06,2.1792948e-05,1.9669533e-06,0.99999994,58,0.176,1,1,0.153,False,-0.2593418361569748,1.04927358635483
0.17722000391222537,14:00:01.249885,13:58:34.241529,0,,0.13062634,0.0097928345,0.021771595,-0.72516346,-0.3040272,-0.61782306,-0.5594351,-0.26298878,0.7860465,-0.4014601,0.9156441,0.020626307,,0.018353343,0.008236449,0.043528676,-0.70085806,-0.70351106,0.117771976,-0.12952447,0.2878819,0.9488663,-0.7014424,0.6497663,-0.29288626,,0.05793831,1.3372971,0.44648713,0.9969263,0.077115394,-0.013824713,0.04289156,-0.6848902,-0.7273828,-0.065560825,0.72455406,-0.6860927,,-0.0884524,0.29034773,-0.03188468,0.7366866,0.2410955,0.6317957,-0.64869857,0.5158465,0.55954677,-0.19100538,-0.8220556,0.5364155,,0.02934753,0.4883675,-0.27426213,0.7810007,0.62250257,-0.050285004,-0.6093935,0.77721673,0.15676025,0.136666,-0.091786504,0.9863557,,1.1320059074367028,0.43767044018092566,0.19166295795000002,0.05137403615370847,-0.1773541766955417,0.9927724766175532,-0.41326048731972664,,-1.02079855404787,0.2664420068936198,0.16965065746000002,1.1740539935698517,0.3313435119311931,0.5983016274507762,0.8743807860167967,,0.026284658535034606,0.02909900195387546,0.07078751784,-0.11578833687890082,,4.414469e-05,-2.861023e-06,2.2649765e-06,1.0,-2.0638108e-05,-2.1792948e-05,2.0638108e-05,0.99999994,-1.9669533e-06,2.1792948e-05,1.9669533e-06,0.99999994,66,0.202,0,1,0.159,False,-0.2599376133421849,1.048983905150153
0.2265714791137725,14:00:01.275123,13:58:34.241529,0,,0.13066445,0.009790048,0.021792933,-0.72390807,-0.30832782,-0.61716366,-0.55811155,-0.2641371,0.7866022,-0.40554717,0.9138738,0.019129694,,0.018352598,0.008238908,0.04352683,-0.7008626,-0.7035075,0.117765576,-0.12952287,0.28787443,0.94886875,-0.70143807,0.6497735,-0.2928807,,0.05793831,1.3372971,0.44648713,0.9969263,0.077115394,-0.013824713,0.04289156,-0.6848902,-0.7273828,-0.065560825,0.72455406,-0.6860927,,-0.088491805,0.2903605,-0.031898756,0.73571503,0.24547236,0.63124216,-0.650898,0.51390094,0.55878234,-0.18723032,-0.8219788,0.5378621,,0.029348562,0.4883671,-0.2742592,0.78100467,0.6224979,-0.050279297,-0.6093885,0.7772193,0.1567669,0.1366651,-0.09179606,0.98635495,,1.1319286801079607,0.4376858856466741,0.19164221731000003,0.0490674467753787,-0.17352835470210937,0.9915313863372863,-0.4160373364440092,,-1.0207908313149956,0.26644972962649405,0.16965325004,1.1740539935698517,0.3313435119311931,0.5983016274507762,0.8743807860167967,,0.026284658535034606,0.02909900195387546,0.07078751784,-0.11578833687890082,,4.414469e-05,-2.861023e-06,2.2649765e-06,1.0,-2.0638108e-05,-2.1792948e-05,2.0638108e-05,0.99999994,-1.9669533e-06,2.1792948e-05,1.9669533e-06,0.99999994,74,0.226,0,1,0.159,False,-0.2591631030014119,1.0487907843470352
0.2518058109562844,14:00:01.300133,13:58:34.241529,0,,0.13069901,0.009766579,0.021813005,-0.72382426,-0.30919993,-0.6168256,-0.5564723,-0.26694575,0.7868153,-0.4079423,0.9127624,0.021160603,,0.018352807,0.00823785,0.043526173,-0.70086294,-0.7035068,0.11776768,-0.12952653,0.28788078,0.9488663,-0.7014371,0.6497713,-0.29288775,,0.05793831,1.3372971,0.44648713,0.9969263,0.077115394,-0.013824713,0.04289156,-0.6848902,-0.7273828,-0.065560825,0.72455406,-0.6860927,,-0.08852803,0.2903587,-0.031927615,0.73581433,0.24635226,0.6307835,-0.6515899,0.51122814,0.5604252,-0.18441224,-0.82338107,0.53668964,,0.029348418,0.488366,-0.27425984,0.7810047,0.6224978,-0.050280545,-0.60938925,0.7772202,0.15675937,0.13666141,-0.09178939,0.9863561,,1.1317819481833504,0.43767816291379985,0.19160851377000002,0.048648066888409655,-0.17065898820703512,0.9934389048469707,-0.41391386358426374,,-1.0207908313149956,0.2664420068936198,0.16965325004,1.1740539935698517,0.3313435119311931,0.5983016274507762,0.8743807860167967,,0.026284658535034606,0.02909900195387546,0.07078751784,-0.11578833687890082,,4.414469e-05,-2.861023e-06,2.2649765e-06,1.0,-2.0638108e-05,-2.1792948e-05,2.0638108e-05,0.99999994,-1.9669533e-06,2.1792948e-05,1.9669533e-06,0.99999994,91,0.278,1,2,0.198,False,-0.26053339052739544,1.0491287457524916
0.276808399008587,14:00:01.356446,13:58:34.381492,0,,0.130733,0.009651899,0.02197215,-0.7244698,-0.30412602,-0.61858773,-0.55533415,-0.27411023,0.7851544,-0.40834713,0.9123435,0.029692978,,0.018352598,0.008238908,0.04352683,-0.7008626,-0.7035075,0.117765576,-0.12952287,0.28787443,0.94886875,-0.70143807,0.6497735,-0.2928807,,0.05793831,1.3372971,0.44648713,0.9969263,0.077115394,-0.013824713,0.04289156,-0.6848902,-0.7273828,-0.065560825,0.72455406,-0.6860927,,-0.08857422,0.29039955,-0.03211689,0.7365076,0.2411641,0.63197815,-0.65111125,0.5059742,0.56572455,-0.18333219,-0.82814854,0.5296785,,0.029348562,0.4883671,-0.2742592,0.78100467,0.6224979,-0.050279297,-0.6093885,0.7772193,0.1567669,0.1366651,-0.09179606,0.98635495,,1.1317587799847277,0.43795618129727193,0.19141666285000003,0.04948682666234775,-0.1698391692084425,1.0020817738008163,-0.4158739923778748,,-1.0207908313149956,0.26644972962649405,0.16965325004,1.1740539935698517,0.3313435119311931,0.5983016274507762,0.8743807860167967,,0.026284658535034606,0.02909900195387546,0.07078751784,-0.11578833687890082,,4.414469e-05,-2.861023e-06,2.2649765e-06,1.0,-2.0638108e-05,-2.1792948e-05,2.0638108e-05,0.99999994,-1.9669533e-06,2.1792948e-05,1.9669533e-06,0.99999994,103,0.316,1,2,0.236,False,-0.2596993024681016,1.048983905150153
0.3330910950899124,14:00:01.386304,13:58:34.381492,0,,0.13071024,0.009632364,0.022090346,-0.72458446,-0.30300456,-0.6190038,-0.5548944,-0.27619016,0.7847363,-0.40874147,0.91208935,0.031987578,,0.018353954,0.008237835,0.04352653,-0.70085806,-0.70351106,0.117771976,-0.12952447,0.2878819,0.9488663,-0.7014424,0.6497663,-0.29288626,,0.05793831,1.3372971,0.44648713,0.9969263,0.077115394,-0.013824713,0.04289156,-0.6848902,-0.7273828,-0.065560825,0.72455406,-0.6860927,,-0.08855925,0.29047522,-0.032211345,0.73665565,0.24001692,0.63224226,-0.65110767,0.50436157,0.56716686,-0.18274905,-0.8294645,0.52781767,,0.029347228,0.48836622,-0.2742599,0.7810007,0.62250257,-0.050285004,-0.6093935,0.77721673,0.15676025,0.136666,-0.091786504,0.9863557,,1.132144916628439,0.4381569723520018,0.19132073739000002,0.04948682666234775,-0.16942925970914616,1.0040345248136628,-0.41440389578266645,,-1.02079855404787,0.2664420068936198,0.16965325004,1.1740539935698517,0.3313435119311931,0.5983016274507762,0.8743807860167967,,0.026284658535034606,0.02909900195387546,0.07078751784,-0.11578833687890082,,4.414469e-05,-2.861023e-06,2.2649765e-06,1.0,-2.0638108e-05,-2.1792948e-05,2.0638108e-05,0.99999994,-1.9669533e-06,2.1792948e-05,1.9669533e-06,0.99999994,116,0.356,0,2,0.258,False,-0.25975888018662197,1.0490321853509326
0.3629384369123727,14:00:01.427238,13:58:34.381492,0,,0.130603,0.009720609,0.022434607,-0.7273378,-0.2963691,-0.6189872,-0.5502594,-0.2871498,0.78406596,-0.41011494,0.91088426,0.045774966,,0.018352918,0.008239608,0.043525815,-0.7008626,-0.7035075,0.117765576,-0.12952287,0.28787443,0.94886875,-0.70143807,0.6497735,-0.2928807,,0.05793831,1.3372971,0.44648713,0.9969263,0.077115394,-0.013824713,0.04289156,-0.6848902,-0.7273828,-0.065560825,0.72455406,-0.6860927,,-0.0884717,0.29079378,-0.03238066,0.739586,0.23323925,0.6313573,-0.6489497,0.4959406,0.5769811,-0.17854106,-0.8364463,0.5181512,,0.02934841,0.48836645,-0.27425808,0.78100467,0.6224979,-0.050279297,-0.6093885,0.7772193,0.1567669,0.1366651,-0.09179606,0.98635495,,1.1338516405936425,0.4388288501120593,0.19114314566,0.052632175814615614,-0.16574007421547926,1.0145849122771926,-0.41571064831174054,,-1.0207908313149956,0.26644972962649405,0.16965454633000002,1.1740539935698517,0.3313435119311931,0.5983016274507762,0.8743807860167967,,0.026284658535034606,0.02909900195387546,0.07078751784,-0.11578833687890082,,4.414469e-05,-2.861023e-06,2.2649765e-06,1.0,-2.0638108e-05,-2.1792948e-05,2.0638108e-05,0.99999994,-1.9669533e-06,2.1792948e-05,1.9669533e-06,0.99999994,124,0.382,0,2,0.258,False,-0.2599971910607066,1.0486942239454764
0.4039218139369041,14:00:01.463793,13:58:34.381492,0,,0.13050658,0.009809926,0.02264218,-0.728676,-0.29796326,-0.6166435,-0.546011,-0.29075673,0.78570503,-0.4134045,0.90921843,0.049176246,,0.018355422,0.008238535,0.043525875,-0.7008532,-0.7035151,0.117776275,-0.12952235,0.28788304,0.9488662,-0.7014476,0.6497613,-0.2928847,,0.05793831,1.3372971,0.44648713,0.9969263,0.077115394,-0.013824713,0.04289156,-0.6848902,-0.7273828,-0.065560825,0.72455406,-0.6860927,,-0.08838647,0.29101095,-0.03245769,0.7412147,0.23485716,0.6288425,-0.64852107,0.4923458,0.5805308,-0.17326616,-0.8381156,0.5172438,,0.029345885,0.4883658,-0.27425885,0.78099656,0.6225073,-0.050289463,-0.60939765,0.7772132,0.15676112,0.13667059,-0.09178362,0.98635536,,1.135141336983638,0.43906053209828605,0.19105759052000001,0.053680625532038236,-0.16054788722439253,1.0150883988648813,-0.414730583914935,,-1.0208062767807442,0.2664420068936198,0.16965454633000002,1.1740539935698517,0.3313435119311931,0.5983016274507762,0.8743807860167967,,0.026284658535034606,0.02909900195387546,0.07078751784,-0.11578833687890082,,4.414469e-05,-2.861023e-06,2.2649765e-06,1.0,-2.0638108e-05,-2.1792948e-05,2.0638108e-05,0.99999994,-1.9669533e-06,2.1792948e-05,1.9669533e-06,0.99999994,141,0.434,0,2,0.258,False,-0.25952056931253775,1.0491770259532711
0.4404773081187159,14:00:01.506269,13:58:34.381492,0,,0.13032946,0.009904563,0.022868797,-0.7285275,-0.29919946,-0.61622024,-0.5429278,-0.2963323,0.7857585,-0.41770452,0.9070097,0.053442568,,0.01835367,0.008241694,0.043527544,-0.70085716,-0.70350325,0.117823154,-0.12951353,0.28794038,0.94885004,-0.7014452,0.6497488,-0.29291826,,0.05793831,1.3372971,0.44648713,0.9969263,0.077115394,-0.013824713,0.04289156,-0.6848902,-0.7273828,-0.065560825,0.72455406,-0.6860927,,-0.08822179,0.29124844,-0.032548,0.741398,0.23610999,0.6281569,-0.64966965,0.48702225,0.5837283,-0.1681023,-0.8408694,0.5144708,,0.029347507,0.48836884,-0.2742569,0.7810005,0.62249887,-0.050332107,-0.60939115,0.7772268,0.15671937,0.13667709,-0.09172597,0.98635983,,1.1368712291474643,0.4390528093654118,0.19096036877000003,0.05242248587113109,-0.15521906373354036,1.0173590785721065,-0.41391386358426374,,-1.02079855404787,0.2664651750922425,0.16965454633000002,1.1740539935698517,0.3313435119311931,0.5982199487106357,0.8747074741490652,,0.026284658535034606,0.02909900195387546,0.07078751784,-0.11578833687890082,,4.414469e-05,-2.861023e-06,2.2649765e-06,1.0,-2.0638108e-05,-2.1792948e-05,2.0638108e-05,0.99999994,-1.9669533e-06,2.1792948e-05,1.9669533e-06,0.99999994,149,0.46,0,2,0.258,False,-0.26005676877922745,1.048549383343138
0.48292907094582915,14:00:01.535940,13:58:34.381492,0,,0.13017206,0.009932578,0.02299638,-0.7280269,-0.29676485,-0.6179865,-0.5434218,-0.29973865,0.7841233,-0.41793472,0.90669024,0.056949347,,0.018352821,0.00824241,0.043526113,-0.7008621,-0.70349914,0.11781885,-0.12951556,0.2879392,0.94885015,-0.7014399,0.6497538,-0.29291975,,0.05793831,1.3372971,0.44648713,0.9969263,0.077115394,-0.013824713,0.04289156,-0.6848902,-0.7273828,-0.065560825,0.72455406,-0.6860927,,-0.088072024,0.29136714,-0.03262095,0.74090236,0.23362856,0.62966764,-0.6501866,0.48443398,0.5853043,-0.1682886,-0.84305483,0.51082045,,0.029348547,0.488368,-0.27425572,0.7810046,0.62249416,-0.050327644,-0.6093869,0.77723026,0.15671849,0.13667251,-0.09172885,0.9863602,,1.1380141936128496,0.43891380017367576,0.19088907282,0.05137403615370847,-0.15521906373354036,1.020626228177729,-0.4152206161133377,,-1.0207908313149956,0.2664651750922425,0.16965584262000002,1.1740539935698517,0.3313435119311931,0.5982199487106358,0.8748708182151996,,0.026284658535034606,0.02909900195387546,0.07078751784,-0.11578833687890082,,4.414469e-05,-2.861023e-06,2.2649765e-06,1.0,-2.0638108e-05,-2.1792948e-05,2.0638108e-05,0.99999994,-1.9669533e-06,2.1792948e-05,1.9669533e-06,0.99999994,166,0.512,0,2,0.258,False,-0.2593418361569748,1.0492253061540504
0.5125775220803916,14:00:01.588302,13:58:34.604661,0,,0.12993121,0.009909406,0.023211643,-0.724914,-0.2949623,-0.62249243,-0.54478693,-0.30753615,0.7801465,-0.42155278,0.9046649,0.062245637,,0.018355891,0.008243199,0.043525994,-0.70105624,-0.7032622,0.11807787,-0.1292015,0.28810698,0.948842,-0.7013039,0.64993584,-0.29284173,,0.05793831,1.3372971,0.44648713,0.9969263,0.077115394,-0.013824713,0.04289156,-0.6848902,-0.7273828,-0.065560825,0.72455406,-0.6860927,,-0.08784553,0.29151964,-0.032795087,0.7379916,0.23179094,0.63375187,-0.65389013,0.4776671,0.5867383,-0.16672179,-0.847412,0.5040801,,0.029345555,0.48836794,-0.2742547,0.7811891,0.62224096,-0.050594673,-0.6091049,0.7774434,0.15675779,0.13687561,-0.09164001,0.9863403,,1.140060717824519,0.4384272680025996,0.19066999981000002,0.04340581830129654,-0.15180315123940433,1.0280506231028887,-0.41375051951812947,,-1.0208062767807442,0.2664728978251167,0.16965713891,1.174473373456821,0.3313435119311931,0.5982199487106358,0.8748708182151996,,0.026284658535034606,0.02909900195387546,0.07078751784,-0.11578833687890082,,4.414469e-05,-2.861023e-06,2.2649765e-06,1.0,-2.0638108e-05,-2.1792948e-05,2.0638108e-05,0.99999994,-1.9669533e-06,2.1792948e-05,1.9669533e-06,0.99999994,191,0.59,0,2,0.258,False,-0.259282258438454,1.0492253061540504
0.5649730740115047,14:00:01.657171,13:58:34.604661,0,,0.12957932,0.009921581,0.023622692,-0.72121435,-0.29180682,-0.6282505,-0.54343516,-0.32407424,0.7743733,-0.42956722,0.89990246,0.07514894,,0.01835484,0.008244958,0.04352522,-0.70106083,-0.70325875,0.11807147,-0.12919992,0.28809947,0.9488445,-0.7012996,0.64994293,-0.29283625,,0.05793831,1.3372971,0.44648713,0.9969263,0.077115394,-0.013824713,0.04289156,-0.6848902,-0.7273828,-0.065560825,0.72455406,-0.6860927,,-0.0875196,0.291845,-0.03307943,0.7348249,0.22858858,0.63857627,-0.6590724,0.46298897,0.592676,-0.1601748,-0.856381,0.49087226,,0.029346738,0.48836818,-0.2742529,0.7811931,0.6222364,-0.050588965,-0.60909986,0.777446,0.15676445,0.13687472,-0.09164957,0.9863395,,1.1425088241456482,0.4380874677561338,0.19042629729000002,0.03921201943160605,-0.14606441824925584,1.0406869640574383,-0.415383960179472,,-1.02079855404787,0.26648062055799093,0.1696584352,1.174473373456821,0.3313435119311931,0.5982199487106358,0.8748708182151996,,0.026284658535034606,0.02909900195387546,0.07078751784,-0.11578833687890082,,4.414469e-05,-2.861023e-06,2.2649765e-06,1.0,-2.0638108e-05,-2.1792948e-05,2.0638108e-05,0.99999994,-1.9669533e-06,2.1792948e-05,1.9669533e-06,0.99999994,195,0.603,0,2,0.258,False,-0.2596993024681016,1.049370146756389
0.633851510938257,14:00:01.671382,13:58:34.604661,0,,0.12948495,0.009956792,0.02376172,-0.72119695,-0.29505372,-0.6267522,-0.5398773,-0.32751465,0.77541375,-0.43405926,0.8975953,0.07690978,,0.018353686,0.008244958,0.04352486,-0.70106566,-0.70325464,0.11806717,-0.12920198,0.28809834,0.94884455,-0.70129436,0.64994794,-0.29283774,,0.05793831,1.3372971,0.44648713,0.9969263,0.077115394,-0.013824713,0.04289156,-0.6848902,-0.7273828,-0.065560825,0.72455406,-0.6860927,,-0.0874333,0.291975,-0.03315102,0.7351608,0.2318989,0.63699406,-0.660043,0.459081,0.5946325,-0.15453726,-0.857594,0.4905616,,0.029347928,0.48836797,-0.27425283,0.7811972,0.6222316,-0.050584506,-0.60909563,0.7774495,0.15676357,0.13687015,-0.09165245,0.98633987,,1.1434818884878004,0.4379407358315235,0.19034592731000002,0.038163569714183436,-0.14005241225957646,1.0408486581835106,-0.414077207650398,,-1.0207908313149956,0.26648062055799093,0.1696584352,1.174473373456821,0.3313435119311931,0.5982199487106358,0.8748708182151996,,0.026284658535034606,0.02909900195387546,0.07078751784,-0.11578833687890082,,4.414469e-05,-2.861023e-06,2.2649765e-06,1.0,-2.0638108e-05,-2.1792948e-05,2.0638108e-05,0.99999994,-1.9669533e-06,2.1792948e-05,1.9669533e-06,0.99999994,212,0.655,1,3,0.298,False,-0.25922268071993226,1.0491287457524916
0.6479802280664444,14:00:01.725195,13:58:34.604661,0,,0.12916398,0.009936377,0.02411455,-0.71779805,-0.29637474,-0.63002217,-0.5395655,-0.33510834,0.77238023,-0.4400397,0.8943513,0.08062649,,0.018353686,0.008244958,0.04352486,-0.70106566,-0.7032449,0.118124604,-0.12920198,0.2881758,0.94882107,-0.70129436,0.649924,-0.29289085,,0.05793831,1.3372971,0.44648713,0.9969263,0.077115394,-0.013824713,0.04289156,-0.6848902,-0.7273828,-0.065560825,0.72455406,-0.6860927,,-0.087135315,0.2922343,-0.033419147,0.7321464,0.23325798,0.6399628,-0.66439545,0.4516434,0.5954804,-0.15013443,-0.8611672,0.48564464,,0.029347928,0.48836797,-0.27425283,0.7811972,0.6222275,-0.05063533,-0.60909563,0.77746224,0.15670006,0.13687015,-0.09157189,0.9863474,,1.1458836584116843,0.4375005400576927,0.19008018786000003,0.032292251296616746,-0.13527013476778604,1.044545154387208,-0.41456723984880084,,-1.0207908313149956,0.26648062055799093,0.1696584352,1.174473373456821,0.3313435119311931,0.5981382699704951,0.8747074741490652,,0.026284658535034606,0.02909900195387546,0.07078751784,-0.11578833687890082,,4.414469e-05,-2.861023e-06,2.2649765e-06,1.0,-2.0638108e-05,-2.1792948e-05,2.0638108e-05,0.99999994,-1.9669533e-06,2.1792948e-05,1.9669533e-06,0.99999994,220,0.681,1,3,0.324,False,-0.259282258438454,1.048549383343138
0.7018740610219538,14:00:01.758376,13:58:34.765088,0,,0.12896012,0.009900615,0.024347588,-0.7177936,-0.2921184,-0.63201195,-0.53829646,-0.34289312,0.76984483,-0.44159845,0.8927995,0.08888027,,0.01835464,0.008246001,0.043525934,-0.70106053,-0.70325935,0.11806937,-0.12919629,0.2880931,0.94884694,-0.70130056,0.64994514,-0.29282922,,0.05793831,1.3372971,0.44648713,0.9969263,0.077115394,-0.013824713,0.04289156,-0.6848902,-0.7273828,-0.065560825,0.72455406,-0.6860927,,-0.08694709,0.29239044,-0.033612367,0.7322653,0.22894275,0.64138347,-0.6647092,0.44515866,0.5999962,-0.14815262,-0.8656899,0.47815457,,0.029346881,0.48836926,-0.27425227,0.7811931,0.6222365,-0.050587717,-0.6090991,0.7774451,0.15677197,0.13687842,-0.09165625,0.9863384,,1.1473664231235354,0.4372225216742206,0.18988833694,0.03166318146616318,-0.13294731427177356,1.0520441051405336,-0.4140772076503977,,-1.02079855404787,0.2664883432908652,0.1696584352,1.174473373456821,0.3313435119311931,0.5982199487106357,0.8745441300829309,,0.026284658535034606,0.02909900195387546,0.07078751784,-0.11578833687890082,,4.414469e-05,-2.861023e-06,2.2649765e-06,1.0,-2.0638108e-05,-2.1792948e-05,2.0638108e-05,0.99999994,-1.9669533e-06,2.1792948e-05,1.9669533e-06,0.99999994,233,0.721,1,3,0.364,False,-0.259580147031059,1.0482597021384612
0.7350430029910058,14:00:01.790970,13:58:34.765088,0,,0.12876435,0.009874821,0.024634585,-0.7167371,-0.29428324,-0.6322067,-0.5338023,-0.35182354,0.7689442,-0.44871265,0.8886041,0.095075935,,0.018354714,0.008244406,0.04352486,-0.70095897,-0.70337135,0.118004754,-0.12935674,0.28809744,0.94882375,-0.70137244,0.64982194,-0.2929303,,0.05793831,1.3372971,0.44648713,0.9969263,0.077115394,-0.013824713,0.04289156,-0.6848902,-0.7273828,-0.065560825,0.72455406,-0.6860927,,-0.086770065,0.29259315,-0.03383359,0.7317466,0.23117459,0.6411749,-0.6670403,0.43614835,0.60401314,-0.14001489,-0.869674,0.47335285,,0.029346894,0.48836756,-0.27425322,0.7810968,0.6223635,-0.050511368,-0.60924554,0.7773492,0.15667842,0.13677591,-0.0916072,0.98635715,,1.149034533424368,0.43685183049625786,0.18966148619,0.02893721220086436,-0.1243392147865508,1.0567048370477594,-0.41489392798106917,,-1.02079855404787,0.2664728978251167,0.1696584352,1.1742636835133364,0.3313435119311931,0.5981382699704954,0.8740540978845284,,0.026284658535034606,0.02909900195387546,0.07078751784,-0.11578833687890082,,4.414469e-05,-2.861023e-06,2.2649765e-06,1.0,-2.0638108e-05,-2.1792948e-05,2.0638108e-05,0.99999994,-1.9669533e-06,2.1792948e-05,1.9669533e-06,0.99999994,241,0.746,1,3,0.389,False,-0.2587460589717643,1.048549383343138
0.7676459879148751,14:00:01.819206,13:58:34.765088,0,,0.12868825,0.009851098,0.024765015,-0.7169638,-0.2944129,-0.6318891,-0.53261673,-0.35346448,0.76901376,-0.44975793,0.88790977,0.09661201,,0.018352926,0.008244049,0.043522358,-0.70096904,-0.7033625,0.11799826,-0.12936446,0.2881015,0.9488215,-0.70136094,0.64982975,-0.29294038,,0.05793831,1.3372971,0.44648713,0.9969263,0.077115394,-0.013824713,0.04289156,-0.6848902,-0.7273828,-0.065560825,0.72455406,-0.6860927,,-0.0867027,0.29267684,-0.033942323,0.7320626,0.2313124,0.6407643,-0.6670202,0.4345411,0.6051926,-0.13844988,-0.8704416,0.47240132,,0.02934898,0.48836544,-0.2742526,0.78110504,0.62235385,-0.050503697,-0.60923785,0.77735704,0.15666914,0.13676304,-0.09160629,0.98635906,,1.149690965718677,0.43681321683188673,0.18955259783000003,0.02893721220086436,-0.12269957678936552,1.057328111966776,-0.41489392798106917,,-1.0207831085821215,0.2664651750922425,0.16965973149000002,1.1742636835133364,0.3313435119311931,0.5981382699704952,0.8737274097522596,,0.026284658535034606,0.02909900195387546,0.07078751784,-0.11578833687890082,,4.414469e-05,-2.861023e-06,2.2649765e-06,1.0,-2.0638108e-05,-2.1792948e-05,2.0638108e-05,0.99999994,-1.9669533e-06,2.1792948e-05,1.9669533e-06,0.99999994,254,0.786,1,3,0.429,False,-0.2599376133421849,1.0482114219376817
0.7958811160642654,14:00:01.865752,13:58:34.765088,0,,0.12856027,0.0097132325,0.02504234,-0.7160597,-0.2911661,-0.6344139,-0.53459394,-0.35566133,0.7666253,-0.44885182,0.8881031,0.09901914,,0.018354185,0.008275274,0.043528616,-0.7009385,-0.70338774,0.11802894,-0.12934017,0.28810322,0.9488243,-0.701396,0.64980173,-0.29291892,,0.057929106,1.3372942,0.4464929,0.9969255,0.07712866,-0.013810627,0.042910866,-0.6848887,-0.727383,-0.065560825,0.72455406,-0.6860927,,-0.086588815,0.29278883,-0.034235742,0.7310734,0.22802071,0.64306945,-0.6676838,0.43311942,0.60547996,-0.1404639,-0.87201726,0.4688878,,0.029354906,0.4883802,-0.27422458,0.78108627,0.62237346,-0.050552715,-0.6092507,0.7773439,0.15668437,0.13681303,-0.091584735,0.9863541,,1.1508107619854395,0.4368672759620063,0.18928815467000001,0.02746938259647269,-0.12474912428584713,1.0601428828841901,-0.4152206161133378,,-1.0207908313149956,0.26645745235936824,0.16965973149000002,1.1742636835133364,0.3313435119311931,0.5981382699704954,0.8740540978845284,,0.026284658535034606,0.02909900195387546,0.07078751784,-0.11578833687890082,,3.4466386e-05,2.5629997e-06,4.7683716e-07,1.0,-7.3462725e-06,-7.763505e-06,7.3499978e-06,1.0,-6.854534e-07,7.763505e-06,7.1525574e-07,0.99999994,262,0.812,1,3,0.455,False,-0.2598184579051428,1.0482114219376817
0.8424363469239324,14:00:01.890753,13:58:34.919491,0,,0.12853052,0.009679377,0.025131434,-0.71612734,-0.29098952,-0.6344185,-0.5345058,-0.3558872,0.76658183,-0.44884872,0.8880705,0.09932503,,0.01835242,0.008273844,0.043530285,-0.7009434,-0.7033836,0.11802464,-0.12934226,0.2881021,0.94882435,-0.7013908,0.6498068,-0.29292044,,0.057929106,1.3372942,0.4464929,0.9969255,0.07712866,-0.013810627,0.042910866,-0.6848887,-0.727383,-0.065560825,0.72455406,-0.6860927,,-0.08656537,0.29283354,-0.03432189,0.7311426,0.2278418,0.6430542,-0.66762054,0.43293878,0.6056788,-0.14040413,-0.87215376,0.46865183,,0.0293564,0.48838124,-0.27422675,0.7810903,0.6223687,-0.05054825,-0.60924655,0.7773474,0.15668349,0.13680845,-0.09158762,0.9863545,,1.1511119485675343,0.4369367805578743,0.18920259953000002,0.02746938259647269,-0.12474912428584713,1.0601428828841901,-0.4152206161133378,,-1.0207831085821215,0.26645745235936824,0.16965713891,1.1742636835133364,0.3313435119311931,0.5981382699704951,0.8743807860167967,,0.026284658535034606,0.02909900195387546,0.07078751784,-0.11578833687890082,,3.4466386e-05,2.5629997e-06,4.7683716e-07,1.0,-7.3462725e-06,-7.763505e-06,7.3499978e-06,1.0,-6.854534e-07,7.763505e-06,7.1525574e-07,0.99999994,275,0.852,1,3,0.495,False,-0.2599971910607066,1.048549383343138
0.8673764599952847,14:00:01.920119,13:58:34.919491,0,,0.12852657,0.009653792,0.025162935,-0.7161364,-0.2909709,-0.63441676,-0.53449005,-0.3559194,0.7665779,-0.44885316,0.8880637,0.0993658,,0.018352613,0.0082728155,0.04352969,-0.7009437,-0.70339257,0.11796928,-0.1293459,0.28803092,0.9488455,-0.7013898,0.6498285,-0.2928744,,0.057929106,1.3372942,0.4464929,0.9969255,0.07712866,-0.013810627,0.042910866,-0.6848887,-0.727383,-0.065560825,0.72455406,-0.6860927,,-0.086563915,0.29284003,-0.03436212,0.7311522,0.22782293,0.6430499,-0.667613,0.4329117,0.60570645,-0.14039001,-0.8721721,0.46862188,,0.029356256,0.48838016,-0.27422738,0.7810904,0.6223726,-0.050498668,-0.6092473,0.77733546,0.15673946,0.13680476,-0.091661505,0.98634815,,1.1511505622319054,0.43695222602362277,0.18916241454000002,0.02746938259647269,-0.12474912428584713,1.0601428828841901,-0.4152206161133378,,-1.0207831085821215,0.26644972962649405,0.16965713891,1.1742636835133364,0.3313435119311931,0.5982199487106357,0.8742174419506625,,0.026284658535034606,0.02909900195387546,0.07078751784,-0.11578833687890082,,3.4466386e-05,2.5629997e-06,4.7683716e-07,1.0,-7.3462725e-06,-7.763505e-06,7.3499978e-06,1.0,-6.854534e-07,7.763505e-06,7.1525574e-07,0.99999994,283,0.877,1,3,0.52,False,-0.259580147031059,1.0485011031423586
0.896779271075502,14:00:01.949927,13:58:34.919491,0,,0.12852943,0.009611636,0.025199562,-0.7161323,-0.2909453,-0.63443315,-0.5344826,-0.35597476,0.7665574,-0.4488685,0.8880499,0.09941986,,0.018352814,0.0082717575,0.043528974,-0.700944,-0.70340157,0.117913924,-0.12934953,0.28795975,0.94886655,-0.70138884,0.6498503,-0.29282832,,0.057929106,1.3372942,0.4464929,0.9969255,0.07712866,-0.013810627,0.042910866,-0.6848887,-0.727383,-0.065560825,0.72455406,-0.6860927,,-0.08656993,0.29283908,-0.03441771,0.7311492,0.22779708,0.6430625,-0.66761965,0.43286365,0.6057335,-0.14037402,-0.8722027,0.46856973,,0.029356113,0.4883791,-0.274228,0.78109044,0.6223766,-0.05044908,-0.6092481,0.7773236,0.15679541,0.13680106,-0.09173539,0.9863418,,1.1511273940332827,0.4369676714893712,0.18910667407,0.02746938259647269,-0.12474912428584713,1.0602245616243304,-0.415383960179472,,-1.0207831085821215,0.2664342841607456,0.16965713891,1.1742636835133364,0.3313435119311931,0.5983016274507763,0.8740540978845281,,0.026284658535034606,0.02909900195387546,0.07078751784,-0.11578833687890082,,3.4466386e-05,2.5629997e-06,4.7683716e-07,1.0,-7.3462725e-06,-7.763505e-06,7.3499978e-06,1.0,-6.854534e-07,7.763505e-06,7.1525574e-07,0.99999994,296,0.917,1,3,0.56,False,-0.2602355019347904,1.0485976635439174
0.9266042630188167,14:00:01.990374,13:58:34.919491,0,,0.12854712,0.009552494,0.025265783,-0.71512336,-0.2933881,-0.63444626,-0.53335774,-0.3576414,0.7665651,-0.45180532,0.88657534,0.0992769,,0.01835341,0.008268613,0.043527007,-0.70094484,-0.70339006,0.11797767,-0.12936048,0.2880564,0.9488358,-0.701386,0.64981997,-0.29290247,,0.057929106,1.3372942,0.4464929,0.9969255,0.07712866,-0.013810627,0.042910866,-0.6848887,-0.727383,-0.065560825,0.72455406,-0.6860927,,-0.08659292,0.29284835,-0.034504764,0.7303481,0.23029089,0.6430845,-0.6690876,0.43073288,0.60563266,-0.13752596,-0.8726026,0.46866974,,0.02935568,0.48837584,-0.27422988,0.78109056,0.62237203,-0.050503656,-0.6092504,0.77733916,0.15670933,0.13678996,-0.091634795,0.9863527,,1.151096503101786,0.4369445032907485,0.18901593377,0.025791863048596493,-0.12187975779077288,1.0603351478509226,-0.4148939279810693,,-1.0207831085821215,0.26641883869499716,0.16965713891,1.1742636835133364,0.3313435119311931,0.5982199487106359,0.873890753818394,,0.026284658535034606,0.02909900195387546,0.07078751784,-0.11578833687890082,,3.4466386e-05,2.5629997e-06,4.7683716e-07,1.0,-7.3462725e-06,-7.763505e-06,7.3499978e-06,1.0,-6.854534e-07,7.763505e-06,7.1525574e-07,0.99999994,304,0.943,1,3,0.586,False,-0.25975888018662197,1.0489356249493738
0.9670202960260212,14:00:02.023713,13:58:35.036876,0,,0.1285474,0.009423837,0.025406986,-0.71479684,-0.29274338,-0.6351116,-0.5324268,-0.36101326,0.7656311,-0.45341724,0.88542116,0.1021868,,0.018353805,0.008266527,0.043525636,-0.7009453,-0.7033984,0.11792441,-0.12936777,0.28799158,0.9488544,-0.7013841,0.6498396,-0.29286343,,0.057929106,1.3372942,0.4464929,0.9969255,0.07712866,-0.013810627,0.042910866,-0.6848887,-0.727383,-0.065560825,0.72455406,-0.6860927,,-0.08660466,0.2928676,-0.034694463,0.7301418,0.22964804,0.6435485,-0.6696768,0.42760375,0.60719687,-0.13574217,-0.87430936,0.46600133,,0.029355394,0.48837367,-0.2742311,0.7810906,0.62237585,-0.05045532,-0.609252,0.77732813,0.15675774,0.13678257,-0.09170201,0.98634744,,1.1511582849647797,0.43695994875649696,0.18882408285000002,0.02516279321814292,-0.12010348329382216,1.0634607245507406,-0.4153839601794722,,-1.0207831085821215,0.26640339322924866,0.16965713891,1.1742636835133364,0.3313435119311931,0.5983016274507763,0.8740540978845281,,0.026284658535034606,0.02909900195387546,0.07078751784,-0.11578833687890082,,3.4466386e-05,2.5629997e-06,4.7683716e-07,1.0,-7.3462725e-06,-7.763505e-06,7.3499978e-06,1.0,-6.854534e-07,7.763505e-06,7.1525574e-07,0.99999994,317,0.983,1,3,0.626,False,-0.2608908568385213,1.0490321853509326
1.000350627116859,14:00:02.052700,13:58:35.036876,0,,0.12851194,0.009304166,0.02557519,-0.7158756,-0.28997737,-0.6351655,-0.53170526,-0.3632158,0.7650906,-0.4525612,0.88543046,0.1058349,,0.01835496,0.008266497,0.043525994,-0.7009405,-0.7034026,0.11792871,-0.1293657,0.28799278,0.9488543,-0.7013893,0.64983463,-0.29286194,,0.057929106,1.3372942,0.4464929,0.9969255,0.07712866,-0.013810627,0.042910866,-0.6848887,-0.727383,-0.065560825,0.72455406,-0.6860927,,-0.08658223,0.29291412,-0.03489745,0.7311804,0.22684099,0.64336485,-0.66852367,0.4260526,0.60955334,-0.13583559,-0.8757981,0.46316987,,0.029354203,0.48837388,-0.2742312,0.78108656,0.6223806,-0.05045978,-0.60925615,0.7773247,0.15675862,0.13678716,-0.09169912,0.9863471,,1.1514671942797485,0.43703717608523923,0.18862186161000002,0.026630622822534592,-0.12024011979358759,1.0664308983593567,-0.4132604873197264,,-1.0207908313149956,0.26640339322924866,0.16965713891,1.1742636835133364,0.3313435119311931,0.5983016274507763,0.8740540978845281,,0.026284658535034606,0.02909900195387546,0.07078751784,-0.11578833687890082,,3.4466386e-05,2.5629997e-06,4.7683716e-07,1.0,-7.3462725e-06,-7.763505e-06,7.3499978e-06,1.0,-6.854534e-07,7.763505e-06,7.1525574e-07,0.99999994,334,1.037,0,3,0.636,False,-0.2599376133421849,1.0486459437446969
1.029380562948063,14:00:02.102454,13:58:35.036876,0,,0.12845296,0.009165272,0.025812894,-0.71604234,-0.28947112,-0.63520855,-0.5310813,-0.36465278,0.7648405,-0.45302987,0.8850054,0.10737419,,0.018353604,0.00826757,0.04352635,-0.70094514,-0.703399,0.117922306,-0.12936413,0.28798524,0.9488569,-0.7013851,0.6498418,-0.29285643,,0.057929106,1.3372942,0.4464929,0.9969255,0.07712866,-0.013810627,0.042910866,-0.6848887,-0.727383,-0.065560825,0.72455406,-0.6860927,,-0.08654102,0.29300028,-0.03516233,0.731389,0.22633187,0.64330715,-0.6684509,0.42476138,0.61053354,-0.13506883,-0.8765567,0.46195754,,0.029355537,0.48837477,-0.2742305,0.7810906,0.62237597,-0.050454073,-0.6092512,0.77732724,0.15676528,0.13678627,-0.09170868,0.9863463,,1.1520463992453154,0.4371452943454784,0.18835741845,0.026630622822534592,-0.11955693729476038,1.0673440261634046,-0.4152206161133378,,-1.0207831085821215,0.2664111159621229,0.16965713891,1.1742636835133364,0.3313435119311931,0.5983016274507763,0.8740540978845281,,0.026284658535034606,0.02909900195387546,0.07078751784,-0.11578833687890082,,3.4466386e-05,2.5629997e-06,4.7683716e-07,1.0,-7.3462725e-06,-7.763505e-06,7.3499978e-06,1.0,-6.854534e-07,7.763505e-06,7.1525574e-07,0.99999994,343,1.065,0,3,0.636,False,-0.26041423509035333,1.048452822941579
1.0791408389341086,14:00:02.140170,13:58:35.143051,0,,0.12839085,0.009045333,0.026096895,-0.71618813,-0.28746527,-0.6359547,-0.52951306,-0.3697787,0.76346546,-0.45463234,0.8835311,0.11261448,,0.01835651,0.008264411,0.04352504,-0.7009362,-0.7034054,0.11793721,-0.12937093,0.28800663,0.94884944,-0.70139265,0.6498254,-0.29287446,,0.057929106,1.3372942,0.4464929,0.9969255,0.07712866,-0.013810627,0.042910866,-0.6848887,-0.727383,-0.065560825,0.72455406,-0.6860927,,-0.08649918,0.29313365,-0.035444017,0.73166674,0.2243137,0.64369804,-0.6685928,0.42018026,0.61354065,-0.13284363,-0.8792792,0.45740646,,0.029352725,0.4883719,-0.2742325,0.7810826,0.622385,-0.050466735,-0.60926193,0.77732307,0.15674444,0.13678434,-0.09168289,0.986349,,1.1528418407313605,0.43736153086595664,0.18807482723000002,0.026420932879050067,-0.1175073897982788,1.0719620205987817,-0.4147305839149351,,-1.02079855404787,0.2663879477635002,0.16965713891,1.1742636835133364,0.3313435119311931,0.5983016274507763,0.8740540978845281,,0.026284658535034606,0.02909900195387546,0.07078751784,-0.11578833687890082,,3.4466386e-05,2.5629997e-06,4.7683716e-07,1.0,-7.3462725e-06,-7.763505e-06,7.3499978e-06,1.0,-6.854534e-07,7.763505e-06,7.1525574e-07,0.99999994,356,1.106,0,3,0.636,False,-0.2587460589717643,1.0484045427407995
1.1168486149981618,14:00:02.172262,13:58:35.143051,0,,0.12837166,0.009008989,0.026317254,-0.71663064,-0.28846103,-0.6350046,-0.5253015,-0.3756898,0.763489,-0.45880163,0.88070846,0.11770183,,0.018355757,0.00826234,0.04352337,-0.7009416,-0.7034097,0.11787963,-0.12938029,0.2879407,0.94886816,-0.7013855,0.64985,-0.29283693,,0.057929106,1.3372942,0.4464929,0.9969255,0.07712866,-0.013810627,0.042910866,-0.6848887,-0.727383,-0.065560825,0.72455406,-0.6860927,,-0.08649444,0.29327404,-0.035618715,0.7324554,0.2253577,0.6424352,-0.66887236,0.41416818,0.6173123,-0.12696013,-0.8818609,0.45409524,,0.029353628,0.48836955,-0.27423367,0.78108674,0.6223841,-0.050413933,-0.60925925,0.77731556,0.15679199,0.13677236,-0.09175298,0.9863441,,1.1535059957585438,0.43757776738643495,0.18789464292000002,0.026420932879050067,-0.11176865680813029,1.0755320213977289,-0.4148939279810693,,-1.0207908313149956,0.2663725022977518,0.16965713891,1.1742636835133364,0.3313435119311931,0.5983833061909168,0.8742174419506623,,0.026284658535034606,0.02909900195387546,0.07078751784,-0.11578833687890082,,3.4466386e-05,2.5629997e-06,4.7683716e-07,1.0,-7.3462725e-06,-7.763505e-06,7.3499978e-06,1.0,-6.854534e-07,7.763505e-06,7.1525574e-07,0.99999994,369,1.148,0,3,0.636,False,-0.2588652144088064,1.0490321853509326
1.1489168230909854,14:00:02.219328,13:58:35.143051,0,,0.12829444,0.008960262,0.026640996,-0.7179129,-0.28644407,-0.6344689,-0.5223241,-0.3808639,0.76296794,-0.460194,0.87914294,0.12381059,,0.018355757,0.00826234,0.04352337,-0.7009416,-0.7034097,0.11787963,-0.12938029,0.2879407,0.94886816,-0.7013855,0.64985,-0.29283693,,0.057929106,1.3372942,0.4464929,0.9969255,0.07712866,-0.013810627,0.042910866,-0.6848887,-0.727383,-0.065560825,0.72455406,-0.6860927,,-0.08643847,0.293485,-0.035874687,0.733884,0.22333303,0.6415112,-0.66788137,0.40948668,0.6214943,-0.12389011,-0.8845581,0.4496757,,0.029353628,0.48836955,-0.27423367,0.78108674,0.6223841,-0.050413933,-0.60925925,0.77731556,0.15679199,0.13677236,-0.09175298,0.9863441,,1.1546952966211745,0.4380025176945173,0.18763797750000002,0.027679072539957217,-0.10903592681282148,1.0796746050547643,-0.4145672398488006,,-1.0207908313149956,0.2663725022977518,0.16965713891,1.1742636835133364,0.3313435119311931,0.5983833061909168,0.8742174419506623,,0.026284658535034606,0.02909900195387546,0.07078751784,-0.11578833687890082,,3.4466386e-05,2.5629997e-06,4.7683716e-07,1.0,-7.3462725e-06,-7.763505e-06,7.3499978e-06,1.0,-6.854534e-07,7.763505e-06,7.1525574e-07,0.99999994,378,1.175,0,3,0.636,False,-0.26017592421626956,1.0486459437446969
1.1960078000556678,14:00:02.249947,13:58:35.143051,0,,0.12825018,0.008958712,0.026762918,-0.7175064,-0.2864746,-0.6349149,-0.5219758,-0.3824234,0.762426,-0.461222,0.87845576,0.12485853,,0.01835671,0.008263368,0.043524384,-0.7009365,-0.70341444,0.11788184,-0.12937456,0.2879355,0.9488705,-0.7013917,0.6498472,-0.29282838,,0.057929106,1.3372942,0.4464929,0.9969255,0.07712866,-0.013810627,0.042910866,-0.6848887,-0.727383,-0.065560825,0.72455406,-0.6860927,,-0.0864019,0.29357612,-0.035959437,0.73354936,0.22337322,0.64187986,-0.6684273,0.40793586,0.6219271,-0.12292396,-0.8852642,0.44854984,,0.029352581,0.48837084,-0.27423313,0.78108263,0.622389,-0.050417148,-0.6092627,0.77731115,0.1568004,0.13678065,-0.091756776,0.9863426,,1.155266778853867,0.4381569723520018,0.18755371865,0.026840312766019118,-0.10821610781422884,1.0804763149551158,-0.41522061611333794,,-1.02079855404787,0.266380225030626,0.16965713891,1.1742636835133364,0.3313435119311931,0.5983833061909168,0.8742174419506623,,0.026284658535034606,0.02909900195387546,0.07078751784,-0.11578833687890082,,3.4466386e-05,2.5629997e-06,4.7683716e-07,1.0,-7.3462725e-06,-7.763505e-06,7.3499978e-06,1.0,-6.854534e-07,7.763505e-06,7.1525574e-07,0.99999994,391,1.216,0,3,0.636,False,-0.2596993024681016,1.0488390645478147
1.2266175888944417,14:00:02.294079,13:58:35.143051,0,,0.12820604,0.0089460015,0.026885495,-0.7181218,-0.2855018,-0.63465726,-0.52065957,-0.38469002,0.7621857,-0.46175176,0.8777825,0.12760511,,0.018355444,0.008261625,0.043524444,-0.7009416,-0.7034097,0.11787963,-0.12938029,0.2879407,0.94886816,-0.7013855,0.64985,-0.29283693,,0.057929106,1.3372942,0.4464929,0.9969255,0.07712866,-0.013810627,0.042910866,-0.6848887,-0.727383,-0.065560825,0.72455406,-0.6860927,,-0.08636573,0.29366028,-0.036052916,0.73422396,0.2223965,0.64144754,-0.66792375,0.40589154,0.6238028,-0.1216266,-0.88644904,0.4465592,,0.029353779,0.48837018,-0.2742348,0.78108674,0.6223841,-0.050413933,-0.60925925,0.77731556,0.15679199,0.13677236,-0.09175298,0.9863441,,1.1557996474221885,0.43826509061224095,0.18746038577000002,0.02746938259647269,-0.10698637931633988,1.0823323097267676,-0.4153839601794721,,-1.0207908313149956,0.2663725022977518,0.16965584262000002,1.1742636835133364,0.3313435119311931,0.5983833061909168,0.8742174419506623,,0.026284658535034606,0.02909900195387546,0.07078751784,-0.11578833687890082,,3.4466386e-05,2.5629997e-06,4.7683716e-07,1.0,-7.3462725e-06,-7.763505e-06,7.3499978e-06,1.0,-6.854534e-07,7.763505e-06,7.1525574e-07,0.99999994,404,1.257,0,3,0.636,False,-0.26041423509035333,1.0486459437446969
1.2707601769361645,14:00:02.326064,13:58:35.357460,0,,0.12820543,0.008931518,0.026952818,-0.71786237,-0.2878525,-0.63388854,-0.51883256,-0.3859165,0.7628113,-0.46420527,0.87647545,0.12768772,,0.018355928,0.008257914,0.043522,-0.7008406,-0.7035204,0.11781921,-0.129548,0.2879577,0.9488401,-0.7014555,0.6497226,-0.29295206,,0.057929106,1.3372942,0.4464929,0.9969255,0.07712866,-0.013810627,0.042910866,-0.6848887,-0.727383,-0.065560825,0.72455406,-0.6860927,,-0.08636959,0.29370075,-0.036108524,0.73415554,0.22479726,0.6406886,-0.66853946,0.4041761,0.6242569,-0.118619755,-0.88662726,0.44701394,,0.029353507,0.4883663,-0.27423698,0.78099054,0.62251073,-0.050340075,-0.6094072,0.77722144,0.15668334,0.13666244,-0.0916906,0.98636514,,1.1559772702782958,0.4382805360779894,0.18740205272000002,0.026840312766019118,-0.10398037632150017,1.08184140560882,-0.414730583914935,,-1.0207908313149956,0.2663416113662549,0.16965584262000002,1.1740539935698517,0.3313435119311931,0.5983016274507763,0.8740540978845281,,0.026284658535034606,0.02909900195387546,0.07078751784,-0.11578833687890082,,3.4466386e-05,2.5629997e-06,4.7683716e-07,1.0,-7.3462725e-06,-7.763505e-06,7.3499978e-06,1.0,-6.854534e-07,7.763505e-06,7.1525574e-07,0.99999994,417,1.299,1,4,0.643,False,-0.2593418361569748,1.048452822941579
1.3027446900960058,14:00:02.371643,13:58:35.357460,0,,0.1281985,0.008871987,0.027138218,-0.7178688,-0.28845465,-0.63360745,-0.5132519,-0.39561817,0.7616158,-0.47035825,0.8719404,0.13595209,,0.01835712,0.008251626,0.043518007,-0.7008423,-0.70353585,0.117716864,-0.1295699,0.28784087,0.94887257,-0.70144975,0.6497576,-0.2928881,,0.057929106,1.3372942,0.4464929,0.9969255,0.07712866,-0.013810627,0.042910866,-0.6848887,-0.727383,-0.065560825,0.72455406,-0.6860927,,-0.08637541,0.29379925,-0.03627653,0.73466086,0.22547477,0.63987076,-0.6693962,0.39434823,0.62960154,-0.11037264,-0.8908707,0.44064417,,0.029352644,0.48835984,-0.27424073,0.78099084,0.622518,-0.05024587,-0.60941184,0.77720135,0.1567651,0.13664025,-0.09181168,0.986357,,1.1564251887850008,0.43824964514649245,0.18722705357000002,0.026211242935565544,-0.09564554983580831,1.0890936567875147,-0.41375051951812925,,-1.0207908313149956,0.26629527496900957,0.16965584262000002,1.1740539935698517,0.3313435119311931,0.5984649849310574,0.8740540978845281,,0.026284658535034606,0.02909900195387546,0.07078751784,-0.11578833687890082,,3.4466386e-05,2.5629997e-06,4.7683716e-07,1.0,-7.3462725e-06,-7.763505e-06,7.3499978e-06,1.0,-6.854534e-07,7.763505e-06,7.1525574e-07,0.99999994,426,1.327,1,4,0.668,False,-0.2590439475643693,1.0486459437446969
1.3482707140501589,14:00:02.401509,13:58:35.357460,0,,0.12815936,0.008842319,0.027307004,-0.71822506,-0.28567424,-0.63446283,-0.5090221,-0.40595588,0.75901,-0.47439355,0.8680955,0.14615327,,0.018357523,0.00824954,0.043516695,-0.70084286,-0.7035346,0.11772105,-0.12957719,0.28785357,0.94886774,-0.7014478,0.64975333,-0.2929021,,0.057929106,1.3372942,0.4464929,0.9969255,0.07712866,-0.013810627,0.042910866,-0.6848887,-0.727383,-0.065560825,0.72455406,-0.6860927,,-0.08634744,0.29390636,-0.03641309,0.7353555,0.22272073,0.64003736,-0.6695667,0.3845012,0.6354835,-0.104559764,-0.89585394,0.43187144,,0.029352356,0.48835766,-0.27424195,0.7809909,0.6225177,-0.050248366,-0.6094134,0.77720314,0.15675004,0.13663286,-0.09179833,0.98635924,,1.1570430074149387,0.43824192241361826,0.18708705425000002,0.026211242935565544,-0.08977018034589437,1.0986781451933076,-0.4140772076503979,,-1.0207908313149956,0.26627982950326107,0.16965584262000002,1.1740539935698517,0.3313435119311931,0.5984649849310574,0.8737274097522596,,0.026284658535034606,0.02909900195387546,0.07078751784,-0.11578833687890082,,3.4466386e-05,2.5629997e-06,4.7683716e-07,1.0,-7.3462725e-06,-7.763505e-06,7.3499978e-06,1.0,-6.854534e-07,7.763505e-06,7.1525574e-07,0.99999994,439,1.369,0,4,0.668,False,-0.2589843698458485,1.048452822941579
1.378194980090484,14:00:02.445655,13:58:35.357460,0,,0.12803178,0.008820698,0.027649552,-0.71557075,-0.28796598,-0.63642293,-0.5040581,-0.4178996,0.7558341,-0.48361552,0.86164683,0.15388519,,0.018356763,0.008247424,0.043515027,-0.70084834,-0.7035292,0.11772093,-0.12958652,0.28786516,0.9488629,-0.70144063,0.64975405,-0.2929177,,0.057929106,1.3372942,0.4464929,0.9969255,0.07712866,-0.013810627,0.042910866,-0.6848887,-0.727383,-0.065560825,0.72455406,-0.6860927,,-0.08624181,0.29415098,-0.036664244,0.7333828,0.22515553,0.6414473,-0.67320454,0.37180775,0.6391828,-0.09457953,-0.9005909,0.42425314,,0.02935326,0.48835528,-0.27424315,0.7809951,0.62251264,-0.0502464,-0.6094107,0.77720845,0.1567341,0.13662088,-0.09178786,0.98636186,,1.158641613119903,0.438234199680744,0.18683298141000002,0.021388374235421483,-0.07979571586301723,1.1061452775903162,-0.41489392798106917,,-1.0207831085821215,0.26625666130463843,0.16965584262000002,1.1740539935698517,0.3313435119311931,0.5984649849310574,0.8737274097522596,,0.026284658535034606,0.02909900195387546,0.07078751784,-0.11578833687890082,,3.4466386e-05,2.5629997e-06,4.7683716e-07,1.0,-7.3462725e-06,-7.763505e-06,7.3499978e-06,1.0,-6.854534e-07,7.763505e-06,7.1525574e-07,0.99999994,448,1.397,0,4,0.668,False,-0.26005676877922745,1.04835626254002
1.4223120820242912,14:00:02.473232,13:58:35.357460,0,,0.12783,0.008803681,0.027959108,-0.713343,-0.28499544,-0.64024943,-0.5030278,-0.42788184,0.75091946,-0.48795977,0.85772634,0.16186598,,0.018356964,0.008246396,0.04351431,-0.7008486,-0.7035285,0.11772303,-0.12959015,0.28787154,0.94886047,-0.70143974,0.6497519,-0.2929247,,0.057929106,1.3372942,0.4464929,0.9969255,0.07712866,-0.013810627,0.042910866,-0.6848887,-0.727383,-0.065560825,0.72455406,-0.6860927,,-0.08606,0.29437652,-0.036894258,0.7314508,0.22222395,0.64466757,-0.67582226,0.3621354,0.6419674,-0.09079641,-0.9052483,0.41506815,,0.029353116,0.4883542,-0.27424377,0.78099513,0.62251246,-0.050247647,-0.6094115,0.7772094,0.15672655,0.13661718,-0.091781184,0.986363,,1.16046417807822,0.4381569723520018,0.18660742695000002,0.017404265309215523,-0.07596989386958489,1.1147873148670575,-0.4132604873197264,,-1.0207831085821215,0.26625666130463843,0.16965584262000002,1.1740539935698517,0.3313435119311931,0.5984649849310574,0.8737274097522596,,0.026284658535034606,0.02909900195387546,0.07078751784,-0.11578833687890082,,3.4466386e-05,2.5629997e-06,4.7683716e-07,1.0,-7.3462725e-06,-7.763505e-06,7.3499978e-06,1.0,-6.854534e-07,7.763505e-06,7.1525574e-07,0.99999994,461,1.438,0,4,0.668,False,-0.2590439475643693,1.0486942239454764
1.449879352003336,14:00:02.515391,13:58:35.514093,0,,0.12747528,0.008798853,0.028424844,-0.70674825,-0.2828964,-0.6484416,-0.5034708,-0.4427974,0.74192154,-0.49701524,0.85082316,0.17051625,,0.018358111,0.008246381,0.04351467,-0.70084363,-0.70352304,0.1177848,-0.12958808,0.28795013,0.9488369,-0.70144504,0.64972305,-0.29297626,,0.057929106,1.3372942,0.4464929,0.9969255,0.07712866,-0.013810627,0.042910866,-0.6848887,-0.727383,-0.065560825,0.72455406,-0.6860927,,-0.085735,0.29473135,-0.037227783,0.7254219,0.2202429,0.65211666,-0.68306965,0.34698012,0.6426668,-0.08472873,-0.9116457,0.40214822,,0.029351925,0.4883544,-0.27424383,0.780991,0.6225131,-0.050302953,-0.6094157,0.7772187,0.15666395,0.13662177,-0.09169774,0.98637015,,1.163514657563539,0.43787123123565547,0.18628335445000002,0.0067100781915047794,-0.06982125138014007,1.1263542934492528,-0.4134238313858608,,-1.0207908313149956,0.26625666130463843,0.16965584262000002,1.1740539935698517,0.3313435119311931,0.5983833061909168,0.8742174419506623,,0.026284658535034606,0.02909900195387546,0.07078751784,-0.11578833687890082,,3.4466386e-05,2.5629997e-06,4.7683716e-07,1.0,-7.3462725e-06,-7.763505e-06,7.3499978e-06,1.0,-6.854534e-07,7.763505e-06,7.1525574e-07,0.99999994,474,1.48,1,5,0.694,False,-0.2603546573718325,1.0482597021384612
1.4920720111113042,14:00:02.551083,13:58:35.514093,0,,0.12704511,0.008806601,0.0288219,-0.69072384,-0.2844887,-0.6648058,-0.5129253,-0.45528588,0.7277515,-0.5097139,0.84367096,0.16855541,,0.018358514,0.00824428,0.043513358,-0.7008443,-0.7035411,0.11767406,-0.1295954,0.28780785,0.94887906,-0.7014431,0.6497666,-0.29288417,,0.057929106,1.3372942,0.4464929,0.9969255,0.07712866,-0.013810627,0.042910866,-0.6848887,-0.727383,-0.065560825,0.72455406,-0.6860927,,-0.085330196,0.29504588,-0.03751056,0.71001947,0.22201185,0.66826874,-0.699343,0.33337724,0.63228077,-0.08241176,-0.9162807,0.3919668,,0.029351639,0.48835224,-0.27424508,0.78099114,0.62252104,-0.050203755,-0.60941726,0.7771949,0.15677585,0.13661437,-0.09184551,0.9863574,,1.1667659281035874,0.43730747173583706,0.18601631871000002,-0.016984885422246472,-0.06763506738389302,1.1342913770668368,-0.4142405517165322,,-1.0207908313149956,0.26624121583889,0.16965584262000002,1.1740539935698517,0.3313435119311931,0.598546663671198,0.8742174419506625,,0.026284658535034606,0.02909900195387546,0.07078751784,-0.11578833687890082,,3.4466386e-05,2.5629997e-06,4.7683716e-07,1.0,-7.3462725e-06,-7.763505e-06,7.3499978e-06,1.0,-6.854534e-07,7.763505e-06,7.1525574e-07,0.99999994,483,1.507,1,5,0.721,False,-0.2589843698458485,1.04835626254002
1.5277686771005392,14:00:02.583152,13:58:35.514093,0,,0.12669921,0.0087864995,0.029078275,-0.6878574,-0.2817415,-0.66893506,-0.51417434,-0.46135563,0.72303224,-0.5123252,0.8412922,0.17248267,,0.018357962,0.008242462,0.043513596,-0.7006406,-0.703795,0.1173682,-0.12990895,0.28757113,0.948908,-0.7015886,0.64959645,-0.29291326,,0.057929106,1.3372942,0.4464929,0.9969255,0.07712866,-0.013810627,0.042910866,-0.6848887,-0.727383,-0.065560825,0.72455406,-0.6860927,,-0.08500135,0.29523438,-0.037715722,0.7072946,0.21929006,0.6720463,-0.7022119,0.32746947,0.6321884,-0.081442006,-0.9190624,0.38560545,,0.029352106,0.48835164,-0.27424684,0.78079844,0.6227875,-0.049895953,-0.60970837,0.7769629,0.15679406,0.13641667,-0.09200257,0.98637015,,1.1690518570343578,0.43660470304428267,0.18582446779000003,-0.021807754122390534,-0.06613206588647318,1.1391100068965778,-0.4135871754519951,,-1.0207908313149956,0.26622577037314155,0.16965454633000002,1.1736346136828828,0.3313435119311931,0.5986283424113386,0.8740540978845281,,0.026284658535034606,0.02909900195387546,0.07078751784,-0.11578833687890082,,3.4466386e-05,2.5629997e-06,4.7683716e-07,1.0,-7.3462725e-06,-7.763505e-06,7.3499978e-06,1.0,-6.854534e-07,7.763505e-06,7.1525574e-07,0.99999994,496,1.549,1,5,0.763,False,-0.2599971910607066,1.0487907843470352
1.5598388970829546,14:00:02.625713,13:58:35.514093,0,,0.12634587,0.008812308,0.02937439,-0.6824952,-0.28984043,-0.6709641,-0.5037203,-0.47864625,0.7191408,-0.5295906,0.8287884,0.18067521,,0.01835844,0.008238737,0.043511152,-0.70053947,-0.7039344,0.117135294,-0.13007666,0.28735554,0.94895035,-0.70165837,0.6495408,-0.29286933,,0.057929106,1.3372942,0.4464929,0.9969255,0.07712866,-0.013810627,0.042910866,-0.6848887,-0.727383,-0.065560825,0.72455406,-0.6860927,,-0.084666565,0.29548335,-0.037913565,0.70323396,0.22778212,0.67348146,-0.70826125,0.30688906,0.6357555,-0.061870363,-0.92408574,0.37714407,,0.029351832,0.48834777,-0.27424905,0.7807021,0.62292624,-0.04966946,-0.60985625,0.7768303,0.1568757,0.13630673,-0.09218196,0.9863686,,1.1716158043486005,0.43512966106530576,0.18563261687000002,-0.030614731748740555,-0.04536331792212623,1.1464330713564688,-0.41505727204720344,,-1.0207908313149956,0.2661948794416446,0.16965454633000002,1.1734249237393983,0.3313435119311931,0.5987916998916196,0.873400721619991,,0.026284658535034606,0.02909900195387546,0.07078751784,-0.11578833687890082,,3.4466386e-05,2.5629997e-06,4.7683716e-07,1.0,-7.3462725e-06,-7.763505e-06,7.3499978e-06,1.0,-6.854534e-07,7.763505e-06,7.1525574e-07,0.99999994,505,1.577,1,5,0.791,False,-0.2599376133421849,1.0486459437446969
1.6023911370430142,14:00:02.654844,13:58:35.674657,0,,0.12609628,0.008797064,0.02948913,-0.6790061,-0.29410413,-0.67264664,-0.4960216,-0.49168023,0.7156906,-0.54121464,0.81960547,0.18797193,,0.018356815,0.008232806,0.043508112,-0.7005507,-0.7039325,0.117079675,-0.13009907,0.28730756,0.9489618,-0.70164317,0.64956397,-0.29285443,,0.057929106,1.3372942,0.4464929,0.9969255,0.07712866,-0.013810627,0.042910866,-0.6848887,-0.727383,-0.065560825,0.72455406,-0.6860927,,-0.08442495,0.29556662,-0.038015455,0.70063484,0.23233105,0.6746355,-0.71188956,0.29149663,0.63893896,-0.048208635,-0.92792886,0.36962676,,0.029353647,0.48834258,-0.27425313,0.7807105,0.62292,-0.0496159,-0.6098517,0.77682906,0.15689974,0.13627906,-0.09223493,0.98636746,,1.173013618998835,0.43370095548357424,0.18553669141,-0.03606667027933819,-0.03046993944769322,1.153483023786591,-0.41358717545199486,,-1.0207753858492472,0.2661562657772735,0.16965325004,1.1734249237393983,0.3313435119311931,0.5988733786317603,0.8735640656861254,,0.026284658535034606,0.02909900195387546,0.07078751784,-0.11578833687890082,,3.4466386e-05,2.5629997e-06,4.7683716e-07,1.0,-7.3462725e-06,-7.763505e-06,7.3499978e-06,1.0,-6.854534e-07,7.763505e-06,7.1525574e-07,0.99999994,518,1.619,1,5,0.833,False,-0.25820985950507547,1.0486459437446969
1.6314924620091915,14:00:02.686787,13:58:35.674657,0,,0.12580661,0.008704379,0.029521227,-0.6740807,-0.28891915,-0.6798096,-0.49824396,-0.50158924,0.70722073,-0.5453148,0.8154347,0.19415942,,0.018358491,0.0082216,0.04350251,-0.70055354,-0.7039263,0.117100626,-0.1301355,0.28737116,0.94893754,-0.7016336,0.6495427,-0.29292464,,0.057929106,1.3372942,0.4464929,0.9969255,0.07712866,-0.013810627,0.042910866,-0.6848887,-0.727383,-0.065560825,0.72455406,-0.6860927,,-0.084139846,0.295538,-0.038122337,0.6959272,0.22720687,0.68122125,-0.71658206,0.28161573,0.6381244,-0.04685635,-0.93223906,0.35879642,,0.029352361,0.4883324,-0.2742605,0.780711,0.6229184,-0.04962838,-0.6098594,0.77683824,0.15682441,0.13624205,-0.092168204,0.9863788,,1.1741179697998492,0.4322954181004654,0.18544076595000003,-0.043196128357812016,-0.02801048245191529,1.1639743487615615,-0.41309714325359226,,-1.0207753858492472,0.26607903844853126,0.16965195375000003,1.1734249237393983,0.3313435119311931,0.5988733786317603,0.8735640656861254,,0.026284658535034606,0.02909900195387546,0.07078751784,-0.11578833687890082,,3.4466386e-05,2.5629997e-06,4.7683716e-07,1.0,-7.3462725e-06,-7.763505e-06,7.3499978e-06,1.0,-6.854534e-07,7.763505e-06,7.1525574e-07,0.99999994,527,1.647,1,5,0.861,False,-0.2593418361569748,1.0487907843470352
1.663471041014418,14:00:02.724742,13:58:35.674657,0,,0.12554799,0.00861834,0.029583603,-0.67036337,-0.2956895,-0.6805739,-0.49344668,-0.5073519,0.7064732,-0.5541871,0.8094206,0.19420314,,0.018362395,0.008213241,0.04349798,-0.700546,-0.7039391,0.117068514,-0.13016059,0.2873468,0.94894147,-0.70163643,0.6495396,-0.29292473,,0.057929106,1.3372942,0.4464929,0.9969255,0.07712866,-0.013810627,0.042910866,-0.6848887,-0.727383,-0.065560825,0.72455406,-0.6860927,,-0.08388745,0.29553533,-0.03824263,0.69286865,0.23421392,0.6819655,-0.72010505,0.27351284,0.63768286,-0.0371721,-0.93291724,0.35816708,,0.02934883,0.48832417,-0.2742656,0.7807032,0.62293077,-0.049596403,-0.60987395,0.7768258,0.15682934,0.13622159,-0.09218961,0.9863796,,1.1751759842036178,0.43068136692975245,0.18532928501,-0.048648066888409655,-0.016942925970914614,1.1636891237571916,-0.4132604873197264,,-1.0207908313149956,0.2660172565855375,0.16965195375000003,1.1734249237393983,0.3313435119311931,0.5989550573719008,0.8737274097522598,,0.026284658535034606,0.02909900195387546,0.07078751784,-0.11578833687890082,,3.4466386e-05,2.5629997e-06,4.7683716e-07,1.0,-7.3462725e-06,-7.763505e-06,7.3499978e-06,1.0,-6.854534e-07,7.763505e-06,7.1525574e-07,0.99999994,540,1.688,1,5,0.902,False,-0.2598184579051428,1.0487907843470352
1.7014081911183894,14:00:02.758360,13:58:35.674657,0,,0.12543069,0.008594632,0.029723912,-0.66459996,-0.29871497,-0.6848916,-0.48629397,-0.52299976,0.69999236,-0.5672963,0.7982734,0.2023224,,0.018363789,0.0082058795,0.04349333,-0.700548,-0.70393467,0.11708318,-0.13018611,0.2873913,0.9489245,-0.70162964,0.6495246,-0.29297388,,0.057929106,1.3372942,0.4464929,0.9969255,0.07712866,-0.013810627,0.042910866,-0.6848887,-0.727383,-0.065560825,0.72455406,-0.6860927,,-0.08377959,0.2956277,-0.038360287,0.6880805,0.23759392,0.68563426,-0.72527605,0.2548749,0.63954157,-0.022799794,-0.9373302,0.34769565,,0.029347824,0.4883166,-0.27426997,0.7807035,0.6229297,-0.04960514,-0.6098793,0.7768322,0.1567766,0.13619567,-0.0921429,0.98638755,,1.1760332075526567,0.4298241435807135,0.18521650778,-0.05661628474082158,-0.0020495474964816063,1.1740879045330768,-0.4142405517165323,,-1.0207908313149956,0.2659631974554179,0.16965195375000003,1.1734249237393983,0.3313435119311931,0.5989550573719008,0.8737274097522598,,0.026284658535034606,0.02909900195387546,0.07078751784,-0.11578833687890082,,3.4466386e-05,2.5629997e-06,4.7683716e-07,1.0,-7.3462725e-06,-7.763505e-06,7.3499978e-06,1.0,-6.854534e-07,7.763505e-06,7.1525574e-07,0.99999994,562,1.757,1,5,0.972,False,-0.25820985950507547,1.04835626254002
1.7350430660881102,14:00:02.826812,13:58:35.801203,0,,0.12532811,0.008590803,0.030012697,-0.6613695,-0.30014884,-0.6873872,-0.47807416,-0.5374758,0.69466877,-0.57795805,0.7880547,0.21197675,,0.018361568,0.008203123,0.043492258,-0.7005582,-0.7039347,0.11702127,-0.13019755,0.28732422,0.94894326,-0.70161724,0.6495542,-0.2929379,,0.057929106,1.3372942,0.4464929,0.9969255,0.07712866,-0.013810627,0.042910866,-0.6848887,-0.727383,-0.065560825,0.72455406,-0.6860927,,-0.083695196,0.2958434,-0.038560998,0.68569076,0.23935294,0.6874142,-0.7278322,0.23765863,0.6432563,-0.009404646,-0.94139713,0.3371691,,0.02935007,0.48831466,-0.27427217,0.7807117,0.6229239,-0.049547832,-0.60987246,0.77682817,0.15682325,0.1361791,-0.092215896,0.986383,,1.1773615176070233,0.429600184327361,0.18502336057000002,-0.06122946349748111,0.011340829480531557,1.1840787074468113,-0.4129337991874579,,-1.0207753858492472,0.26594775198966947,0.16965065746000002,1.1734249237393983,0.3313435119311931,0.5990367361120414,0.8738907538183942,,0.026284658535034606,0.02909900195387546,0.07078751784,-0.11578833687890082,,3.4466386e-05,2.5629997e-06,4.7683716e-07,1.0,-7.3462725e-06,-7.763505e-06,7.3499978e-06,1.0,-6.854534e-07,7.763505e-06,7.1525574e-07,0.99999994,571,1.786,1,5,1.0,False,-0.2596993024681016,1.0486459437446969
1.8034885579254478,14:00:02.857065,13:58:35.801203,0,,0.12524967,0.008561209,0.030127317,-0.66159075,-0.2981002,-0.68806535,-0.47874716,-0.5383203,0.6935505,-0.57714707,0.7882559,0.21343316,,0.018361568,0.008203123,0.043492258,-0.7005582,-0.7039347,0.11702127,-0.13019755,0.28732422,0.94894326,-0.70161724,0.6495542,-0.2929379,,0.057929106,1.3372942,0.4464929,0.9969255,0.07712866,-0.013810627,0.042910866,-0.6848887,-0.727383,-0.065560825,0.72455406,-0.6860927,,-0.08362465,0.2959115,-0.038663726,0.68584716,0.23727843,0.68797714,-0.72767043,0.23717928,0.64361614,-0.010457699,-0.94204295,0.33532923,,0.02935007,0.48831466,-0.27427217,0.7807117,0.6229239,-0.049547832,-0.60987246,0.77682817,0.15682325,0.1361791,-0.092215896,0.986383,,1.1779947817027099,0.42961562979310947,0.18492484253000002,-0.06122946349748111,0.010247737482408033,1.185460123117226,-0.4139138635842635,,-1.0207753858492472,0.26594775198966947,0.16965065746000002,1.1734249237393983,0.3313435119311931,0.5990367361120414,0.8738907538183942,,0.026284658535034606,0.02909900195387546,0.07078751784,-0.11578833687890082,,3.4466386e-05,2.5629997e-06,4.7683716e-07,1.0,-7.3462725e-06,-7.763505e-06,7.3499978e-06,1.0,-6.854534e-07,7.763505e-06,7.1525574e-07,0.99999994,585,1.831,1,5,1.045,False,-0.26005676877922745,1.0488873447485942
1.8337507040705532,14:00:02.905616,13:58:35.801203,0,,0.12515344,0.008528039,0.03030333,-0.65884703,-0.29693347,-0.69119555,-0.47876275,-0.5432105,0.6897162,-0.5802646,0.785336,0.21573196,,0.018362924,0.00820202,0.04349196,-0.70055366,-0.70392865,0.11708516,-0.13019915,0.28740925,0.94891727,-0.7016216,0.6495232,-0.29299647,,0.057929106,1.3372942,0.4464929,0.9969255,0.07712866,-0.013810627,0.042910866,-0.6848887,-0.727383,-0.065560825,0.72455406,-0.6860927,,-0.083540246,0.29602346,-0.03881097,0.6833021,0.23619208,0.6908774,-0.7300893,0.23170637,0.64286995,-0.008239886,-0.9436766,0.33076674,,0.029348735,0.48831376,-0.2742729,0.7807077,0.62292445,-0.04960442,-0.60987747,0.7768384,0.15675314,0.13617998,-0.092125766,0.9863913,,1.1788828959832456,0.42957701612873833,0.18478354692,-0.06521357242368708,0.012297284978889642,1.1894246876314785,-0.41440389578266645,,-1.0207831085821215,0.2659400292567952,0.16965065746000002,1.1734249237393983,0.3313435119311931,0.5989550573719008,0.8737274097522598,,0.026284658535034606,0.02909900195387546,0.07078751784,-0.11578833687890082,,3.4466386e-05,2.5629997e-06,4.7683716e-07,1.0,-7.3462725e-06,-7.763505e-06,7.3499978e-06,1.0,-6.854534e-07,7.763505e-06,7.1525574e-07,0.99999994,594,1.86,1,5,1.074,False,-0.2593418361569748,1.0484045427407995
1.8822458030190319,14:00:02.930379,13:58:35.801203,0,,0.12512746,0.008512288,0.030392587,-0.65822786,-0.29761213,-0.6914934,-0.47529718,-0.54803,0.68829906,-0.5838054,0.7817224,0.21927448,,0.018362172,0.008199964,0.04349029,-0.700559,-0.7039233,0.117085055,-0.13020846,0.28742084,0.9489125,-0.70161444,0.64952385,-0.29301202,,0.057929106,1.3372942,0.4464929,0.9969255,0.07712866,-0.013810627,0.042910866,-0.6848887,-0.727383,-0.065560825,0.72455406,-0.6860927,,-0.08352018,0.2960802,-0.038883522,0.6829767,0.23699167,0.69092524,-0.7304328,0.2258236,0.6445709,-0.0032692954,-0.9449014,0.32733876,,0.029349638,0.4883114,-0.27427405,0.7807119,0.6229194,-0.049602456,-0.6098748,0.7768437,0.15673721,0.136168,-0.092115305,0.986394,,1.1792226962297114,0.42944572966987654,0.18471354726000003,-0.06605233219762517,0.017352835470210937,1.192734990547502,-0.4142405517165323,,-1.0207753858492472,0.2659245837910468,0.16965065746000002,1.1734249237393983,0.3313435119311931,0.5989550573719008,0.8737274097522598,,0.026284658535034606,0.02909900195387546,0.07078751784,-0.11578833687890082,,3.4466386e-05,2.5629997e-06,4.7683716e-07,1.0,-7.3462725e-06,-7.763505e-06,7.3499978e-06,1.0,-6.854534e-07,7.763505e-06,7.1525574e-07,0.99999994,608,1.905,0,5,1.087,False,-0.25820985950507547,1.0484045427407995
1.9070299610029906,14:00:02.978123,13:58:35.801203,0,,0.12509067,0.008462891,0.030502796,-0.6528347,-0.30025792,-0.69545096,-0.4741069,-0.55407083,0.68427193,-0.59078723,0.7764345,0.21936238,,0.018352501,0.008200262,0.043479204,-0.70054245,-0.7039362,0.11710672,-0.13018975,0.28742337,0.94891423,-0.7016345,0.6495088,-0.29299748,,0.057929106,1.3372942,0.4464929,0.9969255,0.07712866,-0.013810627,0.042910866,-0.6848887,-0.727383,-0.065560825,0.72455406,-0.6860927,,-0.08349134,0.29613048,-0.038995687,0.67805284,0.23983216,0.69478405,-0.7350087,0.21794318,0.6420771,0.0025672885,-0.9460345,0.32405573,,0.029360661,0.48830268,-0.27426967,0.78069854,0.6229342,-0.04962575,-0.6098858,0.77683276,0.15674868,0.13619503,-0.09210743,0.98639095,,1.1795702192090516,0.4292140476836498,0.18460465890000002,-0.073181790276099,0.023091568460359434,1.1957332401654652,-0.4147305839149349,,-1.0207831085821215,0.2659168610581725,0.16964936117,1.1734249237393983,0.3313435119311931,0.5989550573719008,0.8737274097522598,,0.026284658535034606,0.02909900195387546,0.07078751784,-0.11578833687890082,,3.4466386e-05,2.5629997e-06,4.7683716e-07,1.0,-7.3462725e-06,-7.763505e-06,7.3499978e-06,1.0,-6.854534e-07,7.763505e-06,7.1525574e-07,0.99999994,617,1.933,0,5,1.087,False,-0.26005676877922745,1.0488873447485942
1.9547794659156352,14:00:03.009016,13:58:36.015614,0,,0.12507354,0.008411497,0.030544057,-0.65046,-0.29852498,-0.69841594,-0.47415572,-0.5587475,0.68042463,-0.5933618,0.7737468,0.22189553,,0.018429115,0.008189067,0.04347968,-0.70051664,-0.70397305,0.11704114,-0.13024685,0.28737316,0.94892174,-0.7016498,0.6494912,-0.29299986,,0.057841424,1.3372965,0.44649148,0.9969221,0.07718326,-0.0137526365,0.042990346,-0.6848826,-0.72738415,-0.065560825,0.72455406,-0.6860927,,-0.083404586,0.29613245,-0.039066255,0.6758817,0.23821402,0.69745106,-0.7369969,0.21278535,0.64152783,0.00441355,-0.9476162,0.31938073,,0.029360661,0.48830268,-0.27426967,0.78069854,0.6229342,-0.04962575,-0.6098858,0.77683276,0.15674868,0.13619503,-0.09210743,0.98639095,,1.1797710102637815,0.42895147476592616,0.18452947408,-0.07653682937185138,0.025277752456606482,1.2004031741774268,-0.41440389578266634,,-1.0207831085821215,0.2659168610581725,0.16964936117,1.1734249237393983,0.3313435119311931,0.5989550573719008,0.8737274097522598,,0.026284658535034606,0.02909900195387546,0.07078751784,-0.11578833687890082,,-5.275011e-05,-6.7949295e-06,1.0728836e-06,1.0000001,4.734844e-05,5.0000846e-05,-4.734844e-05,1.0,4.5597553e-06,-5.000457e-05,-4.5001507e-06,1.0,626,1.962,0,5,1.087,False,-0.2583885926606384,1.0490321853509326
1.9856592661235482,14:00:03.036901,13:58:36.015614,0,,0.12502009,0.008376479,0.03060998,-0.6480241,-0.30115592,-0.6995499,-0.47112674,-0.56317866,0.67887366,-0.59841835,0.76950306,0.22307064,,0.018428497,0.008187667,0.043481767,-0.70051664,-0.7039826,0.116983645,-0.13024685,0.28729564,0.94894516,-0.7016498,0.6495151,-0.29294682,,0.057841424,1.3372965,0.44649148,0.9969221,0.07718326,-0.0137526365,0.042990346,-0.6848826,-0.72738415,-0.065560825,0.72455406,-0.6860927,,-0.08335608,0.29615986,-0.039139207,0.6738278,0.24100932,0.69847727,-0.73881835,0.20675552,0.6414044,0.0101703955,-0.948244,0.31737974,,0.029360965,0.48830396,-0.2742719,0.78069854,0.6229383,-0.04957487,-0.6098858,0.77681994,0.15681213,0.13619503,-0.092188,0.98638344,,1.1800799195787504,0.42855761538934073,0.18446336329000002,-0.07947248858063473,0.031016485446754984,1.2021762426932816,-0.41293379918745776,,-1.0207831085821215,0.2659168610581725,0.16964676859000002,1.1734249237393983,0.3313435119311931,0.5990367361120414,0.8742174419506625,,0.026284658535034606,0.02909900195387546,0.07078751784,-0.11578833687890082,,-5.275011e-05,-6.7949295e-06,1.0728836e-06,1.0000001,4.734844e-05,5.0000846e-05,-4.734844e-05,1.0,4.5597553e-06,-5.000457e-05,-4.5001507e-06,1.0,640,2.007,0,5,1.087,False,-0.2586269035347226,1.0490321853509326
2.0135763050056994,14:00:03.079229,13:58:36.015614,0,,0.12489708,0.008341253,0.030670539,-0.64222115,-0.30414096,-0.7035982,-0.4682085,-0.5711216,0.67424107,-0.6069043,0.7624424,0.2243849,,0.018428497,0.008187667,0.043481767,-0.70051664,-0.7039826,0.116983645,-0.13024685,0.28729564,0.94894516,-0.7016498,0.6495151,-0.29294682,,0.057841424,1.3372965,0.44649148,0.9969221,0.07718326,-0.0137526365,0.042990346,-0.6848826,-0.72738415,-0.065560825,0.72455406,-0.6860927,,-0.08323783,0.2961854,-0.039212722,0.66862446,0.24425872,0.7023382,-0.7433746,0.19629791,0.63942266,0.01831703,-0.949634,0.31282532,,0.029360965,0.48830396,-0.2742719,0.78069854,0.6229383,-0.04957487,-0.6098858,0.77681994,0.15681213,0.13619503,-0.092188,0.98638344,,1.1806591245443172,0.4277235602389245,0.18439854879,-0.08702132654607761,0.03962458493197773,1.2061835446793832,-0.41309714325359215,,-1.0207831085821215,0.2659168610581725,0.16964676859000002,1.1734249237393983,0.3313435119311931,0.5990367361120412,0.8745441300829311,,0.026284658535034606,0.02909900195387546,0.07078751784,-0.11578833687890082,,-5.275011e-05,-6.7949295e-06,1.0728836e-06,1.0000001,4.734844e-05,5.0000846e-05,-4.734844e-05,1.0,4.5597553e-06,-5.000457e-05,-4.5001507e-06,1.0,649,2.036,0,5,1.087,False,-0.25922268071993226,1.0482597021384612
2.0558843091130257,14:00:03.111450,13:58:36.015614,0,,0.12473565,0.008302793,0.030702516,-0.6356768,-0.30589283,-0.7087629,-0.46785384,-0.5776411,0.66891223,-0.6140259,0.7568093,0.2240799,,0.018430255,0.0081845075,0.0434801,-0.70051265,-0.70400393,0.11687923,-0.1302557,0.28716087,0.94898474,-0.70165217,0.6495515,-0.29286027,,0.057841424,1.3372965,0.44649148,0.9969221,0.07718326,-0.0137526365,0.042990346,-0.6848826,-0.72738415,-0.065560825,0.72455406,-0.6860927,,-0.08307954,0.29618874,-0.03927184,0.6625429,0.24621905,0.70739883,-0.74864924,0.18781255,0.63580716,0.02368946,-0.9508431,0.3087656,,0.029359343,0.48830092,-0.27427384,0.7806946,0.6229507,-0.04948131,-0.6098923,0.7767936,0.1569173,0.1361885,-0.092326224,0.9863714,,1.1813078341057521,0.4267813868282691,0.18434928977,-0.0956186142289431,0.04549995442189167,1.209560448834493,-0.41375051951812947,,-1.0207908313149956,0.2658936928595499,0.16964676859000002,1.1734249237393983,0.3313435119311931,0.5992000935923224,0.8742174419506625,,0.026284658535034606,0.02909900195387546,0.07078751784,-0.11578833687890082,,-5.275011e-05,-6.7949295e-06,1.0728836e-06,1.0000001,4.734844e-05,5.0000846e-05,-4.734844e-05,1.0,4.5597553e-06,-5.000457e-05,-4.5001507e-06,1.0,663,2.081,0,5,1.087,False,-0.25963972474957986,1.0486459437446969
2.0881142020225525,14:00:03.151222,13:58:36.178208,0,,0.1245181,0.0082089305,0.030749038,-0.63470465,-0.3080773,-0.7086879,-0.46557912,-0.57949936,0.66889215,-0.6167546,0.7544991,0.22437647,,0.01843074,0.00817962,0.04347855,-0.7005137,-0.70401096,0.11683011,-0.13027032,0.28710878,0.9489985,-0.7016483,0.649567,-0.29283533,,0.057841424,1.3372965,0.44649148,0.9969221,0.07718326,-0.0137526365,0.042990346,-0.6848826,-0.72738415,-0.065560825,0.72455406,-0.6860927,,-0.0828673,0.29616776,-0.039385043,0.6617896,0.24850303,0.7073053,-0.7491941,0.18492386,0.6360121,0.027253304,-0.95081514,0.3085577,,0.02935892,0.48829722,-0.27427745,0.7806948,0.6229541,-0.049435418,-0.6098954,0.7767845,0.15695062,0.1361737,-0.0923801,0.9863684,,1.1821418892561684,0.4255225813697705,0.18424299399000002,-0.09750582372030382,0.050555504913212965,1.2087051360033478,-0.41375051951812925,,-1.0207908313149956,0.26586280192805295,0.16964547230000002,1.1734249237393983,0.3313435119311931,0.599281772332463,0.8740540978845281,,0.026284658535034606,0.02909900195387546,0.07078751784,-0.11578833687890082,,-5.275011e-05,-6.7949295e-06,1.0728836e-06,1.0000001,4.734844e-05,5.0000846e-05,-4.734844e-05,1.0,4.5597553e-06,-5.000457e-05,-4.5001507e-06,1.0,672,2.109,1,6,1.096,False,-0.2598780356236645,1.048742504146256
2.1278961109928787,14:00:03.180959,13:58:36.178208,0,,0.124284014,0.008128032,0.030816093,-0.62647426,-0.3107662,-0.71481085,-0.46403268,-0.58814794,0.6623864,-0.6262618,0.7466635,0.22425383,,0.01842998,0.008177489,0.04347682,-0.70051914,-0.7040056,0.116830006,-0.13027966,0.28712037,0.94899374,-0.7016412,0.6495677,-0.29285085,,0.057841424,1.3372965,0.44649148,0.9969221,0.07718326,-0.0137526365,0.042990346,-0.6848826,-0.72738415,-0.065560825,0.72455406,-0.6860927,,-0.08263958,0.29617125,-0.039503206,0.6541984,0.25149012,0.71328616,-0.7555036,0.17340916,0.6317781,0.035195585,-0.9521985,0.3034457,,0.029359823,0.48829484,-0.27427864,0.78069896,0.622949,-0.04943346,-0.6098927,0.7767898,0.1569347,0.13616171,-0.09236964,0.98637104,,1.1830377262695784,0.4241942713154039,0.18414577224,-0.10778063095104551,0.05889033139890483,1.212935273796842,-0.41456723984880073,,-1.0207831085821215,0.2658473564623045,0.16964547230000002,1.1734249237393983,0.3313435119311931,0.599281772332463,0.8740540978845281,,0.026284658535034606,0.02909900195387546,0.07078751784,-0.11578833687890082,,-5.275011e-05,-6.7949295e-06,1.0728836e-06,1.0000001,4.734844e-05,5.0000846e-05,-4.734844e-05,1.0,4.5597553e-06,-5.000457e-05,-4.5001507e-06,1.0,686,2.154,1,6,1.141,False,-0.25922268071993226,1.048549383343138
2.157565247034654,14:00:03.222305,13:58:36.178208,0,,0.12409863,0.0080590695,0.030893669,-0.62274253,-0.31288305,-0.7171444,-0.46073377,-0.59416425,0.6593127,-0.63238925,0.74099463,0.2258555,,0.01843018,0.008176461,0.043476164,-0.70051944,-0.704005,0.11683211,-0.13028333,0.28712672,0.9489913,-0.70164025,0.6495655,-0.2928579,,0.057841424,1.3372965,0.44649148,0.9969221,0.07718326,-0.0137526365,0.042990346,-0.6848826,-0.72738415,-0.065560825,0.72455406,-0.6860927,,-0.082460836,0.29618895,-0.039616715,0.6509236,0.25382745,0.71545094,-0.75798386,0.1652446,0.630995,0.041939445,-0.9530298,0.29995874,,0.02935968,0.48829377,-0.27427927,0.780699,0.6229489,-0.049434707,-0.6098935,0.7767907,0.15692715,0.136158,-0.09236297,0.9863722,,1.1841420770705926,0.42279645666516924,0.18401873582000003,-0.11511977897300388,0.06927470538107831,1.2157391792553116,-0.41260711105518943,,-1.0207831085821215,0.2658396337294303,0.16964547230000002,1.1734249237393983,0.3313435119311931,0.599281772332463,0.8740540978845281,,0.026284658535034606,0.02909900195387546,0.07078751784,-0.11578833687890082,,-5.275011e-05,-6.7949295e-06,1.0728836e-06,1.0000001,4.734844e-05,5.0000846e-05,-4.734844e-05,1.0,4.5597553e-06,-5.000457e-05,-4.5001507e-06,1.0,695,2.183,1,6,1.17,False,-0.259580147031059,1.0485976635439174
2.198918324895203,14:00:03.260961,13:58:36.178208,0,,0.12381667,0.008011699,0.03100942,-0.61506575,-0.31150067,-0.72433525,-0.45890942,-0.6055977,0.65011823,-0.641168,0.7322696,0.22953176,,0.01843153,0.008175418,0.043475866,-0.70051485,-0.7040085,0.1168385,-0.13028488,0.28713423,0.9489888,-0.70164454,0.6495585,-0.29286343,,0.057841424,1.3372965,0.44649148,0.9969221,0.07718326,-0.0137526365,0.042990346,-0.6848826,-0.72738415,-0.065560825,0.72455406,-0.6860927,,-0.08218765,0.29625258,-0.039745025,0.64384556,0.25274873,0.72220564,-0.76354796,0.15107922,0.6278293,0.049572784,-0.95566374,0.29025745,,0.029358346,0.4882929,-0.27427995,0.78069496,0.6229535,-0.049440414,-0.60989845,0.7767882,0.1569205,0.1361589,-0.09235341,0.98637295,,1.185223259672984,0.42180794685726847,0.18393836584,-0.12266861693844675,0.07474016537169592,1.223942667829242,-0.41358717545199486,,-1.0207908313149956,0.26583191099655606,0.16964547230000002,1.1734249237393983,0.3313435119311931,0.599281772332463,0.8740540978845281,,0.026284658535034606,0.02909900195387546,0.07078751784,-0.11578833687890082,,-5.275011e-05,-6.7949295e-06,1.0728836e-06,1.0000001,4.734844e-05,5.0000846e-05,-4.734844e-05,1.0,4.5597553e-06,-5.000457e-05,-4.5001507e-06,1.0,709,2.228,1,6,1.215,False,-0.2599376133421849,1.0486459437446969
2.2376068918965757,14:00:03.301804,13:58:36.300726,0,,0.12355116,0.007981777,0.03121759,-0.61107624,-0.31353363,-0.7268306,-0.45250523,-0.61502415,0.64574325,-0.6494806,0.72349286,0.23395099,,0.01843153,0.008175418,0.043475866,-0.70051485,-0.7040085,0.1168385,-0.13028488,0.28713423,0.9489888,-0.70164454,0.6495585,-0.29286343,,0.057841424,1.3372965,0.44649148,0.9969221,0.07718326,-0.0137526365,0.042990346,-0.6848826,-0.72738415,-0.065560825,0.72455406,-0.6860927,,-0.081936225,0.2963961,-0.039920863,0.640514,0.2551233,0.72432995,-0.7655914,0.138324,0.62828046,0.060096744,-0.9569632,0.28391865,,0.029358346,0.4882929,-0.27427995,0.78069496,0.6229535,-0.049440414,-0.60989845,0.7767882,0.1569205,0.1361589,-0.09235341,0.98637295,,1.1868836472409423,0.42072676425487704,0.18378669991000002,-0.12791086552555986,0.08594435835246203,1.2286101068098905,-0.4147305839149349,,-1.0207908313149956,0.26583191099655606,0.16964547230000002,1.1734249237393983,0.3313435119311931,0.599281772332463,0.8742174419506625,,0.026284658535034606,0.02909900195387546,0.07078751784,-0.11578833687890082,,-5.275011e-05,-6.7949295e-06,1.0728836e-06,1.0000001,4.734844e-05,5.0000846e-05,-4.734844e-05,1.0,4.5597553e-06,-5.000457e-05,-4.5001507e-06,1.0,732,2.302,1,6,1.289,False,-0.2596993024681016,1.0486459437446969
2.2784910469781607,14:00:03.370567,13:58:36.300726,0,,0.12305614,0.007963166,0.03154032,-0.6024033,-0.30891657,-0.73598987,-0.45013604,-0.62997866,0.6328542,-0.659157,0.7125288,0.2404467,,0.018430471,0.008172601,0.04347521,-0.7005203,-0.70401263,0.11678089,-0.13029423,0.2870683,0.9490075,-0.7016374,0.6495831,-0.29282594,,0.057841424,1.3372965,0.44649148,0.9969221,0.07718326,-0.0137526365,0.042990346,-0.6848826,-0.72738415,-0.065560825,0.72455406,-0.6860927,,-0.08146266,0.29663983,-0.040177513,0.63250893,0.2508816,0.7327966,-0.7714923,0.120039165,0.6248121,0.06878958,-0.9605462,0.2694791,,0.0293594,0.48829114,-0.27428225,0.78069913,0.6229524,-0.049387567,-0.60989577,0.77678066,0.156968,0.1361469,-0.09242351,0.98636806,,1.1899341267262609,0.4191976631457806,0.18356892319,-0.13986319230417774,0.09523564033651198,1.240228193291566,-0.41505727204720366,,-1.0207831085821215,0.2658164655308076,0.16964417601,1.1734249237393983,0.3313435119311931,0.5993634510726036,0.8742174419506625,,0.026284658535034606,0.02909900195387546,0.07078751784,-0.11578833687890082,,-5.275011e-05,-6.7949295e-06,1.0728836e-06,1.0000001,4.734844e-05,5.0000846e-05,-4.734844e-05,1.0,4.5597553e-06,-5.000457e-05,-4.5001507e-06,1.0,746,2.347,1,6,1.334,False,-0.2598184579051428,1.048452822941579
2.3472489239647985,14:00:03.420204,13:58:36.300726,0,,0.122764155,0.007919118,0.031691805,-0.59384966,-0.31146258,-0.74184495,-0.45170337,-0.6339485,0.6277527,-0.6658129,0.70788443,0.2357814,,0.018431619,0.008172616,0.04347557,-0.7005155,-0.70400727,0.116842695,-0.13029218,0.28714696,0.94898397,-0.70164263,0.64955413,-0.29287744,,0.057841424,1.3372965,0.44649148,0.9969221,0.07718326,-0.0137526365,0.042990346,-0.6848826,-0.72738415,-0.065560825,0.72455406,-0.6860927,,-0.081181616,0.2967326,-0.040327687,0.62435323,0.25362667,0.7388211,-0.7777671,0.11401609,0.61812514,0.07253552,-0.9605591,0.2684488,,0.02935821,0.48829135,-0.2742823,0.7806951,0.6229532,-0.04944291,-0.6099,0.77678996,0.15690543,0.1361515,-0.09234006,0.9863752,,1.1914941187668542,0.41817053967350876,0.18344059048000003,-0.15118644925234206,0.09919809882970976,1.239365757548446,-0.4155473042456064,,-1.0207908313149956,0.2658164655308076,0.16964417601,1.1734249237393983,0.3313435119311931,0.599281772332463,0.8743807860167969,,0.026284658535034606,0.02909900195387546,0.07078751784,-0.11578833687890082,,-5.275011e-05,-6.7949295e-06,1.0728836e-06,1.0000001,4.734844e-05,5.0000846e-05,-4.734844e-05,1.0,4.5597553e-06,-5.000457e-05,-4.5001507e-06,1.0,755,2.376,1,6,1.363,False,-0.25910352528289105,1.049080465551712
2.3968915410805494,14:00:03.452119,13:58:36.467699,0,,0.12264085,0.007856593,0.03173037,-0.5890627,-0.30920038,-0.74659264,-0.45245048,-0.6393066,0.62175214,-0.6695475,0.70404696,0.23669375,,0.018431619,0.008172616,0.04347557,-0.7005155,-0.70400727,0.116842695,-0.13029218,0.28714696,0.94898397,-0.70164263,0.64955413,-0.29287744,,0.057841424,1.3372965,0.44649148,0.9969221,0.07718326,-0.0137526365,0.042990346,-0.6848826,-0.72738415,-0.065560825,0.72455406,-0.6860927,,-0.08106228,0.29672354,-0.040406905,0.6197922,0.25149462,0.74337614,-0.7811993,0.107512906,0.61495423,0.07473515,-0.9618687,0.26310307,,0.02935821,0.48829135,-0.2742823,0.7806951,0.6229532,-0.04944291,-0.6099,0.77678996,0.15690543,0.1361515,-0.09234006,0.9863752,,1.1919265918078108,0.41750638464632545,0.18337059082,-0.15726745761339328,0.10165755582548769,1.2442212494537177,-0.41456723984880073,,-1.0207908313149956,0.2658164655308076,0.16964417601,1.1734249237393983,0.3313435119311931,0.599281772332463,0.8743807860167969,,0.026284658535034606,0.02909900195387546,0.07078751784,-0.11578833687890082,,-5.275011e-05,-6.7949295e-06,1.0728836e-06,1.0000001,4.734844e-05,5.0000846e-05,-4.734844e-05,1.0,4.5597553e-06,-5.000457e-05,-4.5001507e-06,1.0,769,2.421,0,6,1.392,False,-0.2599376133421849,1.049418426957168
2.4287953809835017,14:00:03.490217,13:58:36.467699,0,,0.12253733,0.007763788,0.03176005,-0.5847897,-0.31465083,-0.74767375,-0.4472385,-0.64389867,0.6207837,-0.67675614,0.6974163,0.23582126,,0.018432021,0.008170515,0.043474257,-0.700516,-0.70400596,0.11684689,-0.1302995,0.28715968,0.9489791,-0.7016407,0.64954996,-0.29289147,,0.057841424,1.3372965,0.44649148,0.9969221,0.07718326,-0.0137526365,0.042990346,-0.6848826,-0.72738415,-0.065560825,0.72455406,-0.6860927,,-0.080962755,0.29668707,-0.040501647,0.61608446,0.2572479,0.7444887,-0.7832254,0.09968986,0.6136936,0.083653405,-0.9611896,0.26290044,,0.029357921,0.4882892,-0.27428356,0.78069514,0.6229528,-0.049445406,-0.60990155,0.7767918,0.15689036,0.13614409,-0.092326716,0.9863775,,1.1920964919310437,0.4164483702425567,0.18329022084000002,-0.16209032631353731,0.11135874730883397,1.2437433436440628,-0.4140772076503978,,-1.0207908313149956,0.2658010200650592,0.16964417601,1.1734249237393983,0.3313435119311931,0.599281772332463,0.8740540978845281,,0.026284658535034606,0.02909900195387546,0.07078751784,-0.11578833687890082,,-5.275011e-05,-6.7949295e-06,1.0728836e-06,1.0000001,4.734844e-05,5.0000846e-05,-4.734844e-05,1.0,4.5597553e-06,-5.000457e-05,-4.5001507e-06,1.0,778,2.449,0,6,1.392,False,-0.2589843698458485,1.0494667071579475
2.466893373057246,14:00:03.524404,13:58:36.467699,0,,0.122461244,0.007681966,0.031800732,-0.5801308,-0.31573665,-0.75083876,-0.4424319,-0.6518213,0.6159408,-0.6838877,0.6895211,0.23844965,,0.018430866,0.008170515,0.0434739,-0.7005209,-0.70403045,0.11667007,-0.13030156,0.28692597,0.9490495,-0.7016354,0.6496266,-0.29273385,,0.057841424,1.3372965,0.44649148,0.9969221,0.07718326,-0.0137526365,0.042990346,-0.6848826,-0.72738415,-0.065560825,0.72455406,-0.6860927,,-0.08089108,0.29666522,-0.040593978,0.61197835,0.2586543,0.7473824,-0.78547704,0.08856347,0.6125213,0.09224047,-0.9619015,0.25736594,,0.029359113,0.488289,-0.2742835,0.78069925,0.62296015,-0.0492883,-0.6098973,0.7767568,0.15707983,0.1361395,-0.092571296,0.9863552,,1.1922123329241572,0.4155911468935178,0.18321114715000003,-0.16733257490065043,0.12051339279311848,1.2488568700780491,-0.414077207650398,,-1.0207831085821215,0.2658010200650592,0.16964417601,1.1734249237393983,0.3313435119311931,0.5995268085528848,0.8748708182151999,,0.026284658535034606,0.02909900195387546,0.07078751784,-0.11578833687890082,,-5.275011e-05,-6.7949295e-06,1.0728836e-06,1.0000001,4.734844e-05,5.0000846e-05,-4.734844e-05,1.0,4.5597553e-06,-5.000457e-05,-4.5001507e-06,1.0,801,2.523,0,6,1.392,False,-0.2593418361569748,1.048742504146256
2.501080628950149,14:00:03.594546,13:58:36.467699,0,,0.1220572,0.00746651,0.031941846,-0.57207566,-0.31670836,-0.75658804,-0.43863901,-0.66131186,0.608492,-0.6930551,0.67997235,0.23939979,,0.018432021,0.008170515,0.043474257,-0.700516,-0.70405364,0.11655936,-0.1302995,0.28677207,0.9490963,-0.7016407,0.64966947,-0.2926262,,0.057841424,1.3372965,0.44649148,0.9969221,0.07718326,-0.0137526365,0.042990346,-0.6848826,-0.72738415,-0.065560825,0.72455406,-0.6860927,,-0.08050118,0.29663953,-0.040871255,0.60458815,0.2600164,0.7529042,-0.7900295,0.075156756,0.60844463,0.10161976,-0.96267486,0.25085953,,0.029357921,0.4882892,-0.27428356,0.78069514,0.62297297,-0.04919099,-0.60990155,0.7767277,0.1572076,0.13614409,-0.09272954,0.9863397,,1.193656483971637,0.4132743270312504,0.18297003721000002,-0.1773976921879076,0.13144431277435373,1.2533387511653877,-0.4147305839149351,,-1.0207908313149956,0.2658010200650592,0.16964417601,1.1734249237393983,0.3313435119311931,0.5996901660331659,0.8748708182151996,,0.026284658535034606,0.02909900195387546,0.07078751784,-0.11578833687890082,,-5.275011e-05,-6.7949295e-06,1.0728836e-06,1.0000001,4.734844e-05,5.0000846e-05,-4.734844e-05,1.0,4.5597553e-06,-5.000457e-05,-4.5001507e-06,1.0,824,2.597,0,6,1.392,False,-0.2596993024681016,1.0488873447485942
2.5712140819523484,14:00:03.666915,13:58:36.633572,0,,0.12132253,0.007406801,0.032327637,-0.55831087,-0.31101748,-0.7691276,-0.43353516,-0.6810472,0.5901035,-0.7073446,0.6629049,0.24539897,,0.018432423,0.008168414,0.043472886,-0.7005166,-0.7040333,0.116678566,-0.13030678,0.28693986,0.9490446,-0.70163876,0.64961743,-0.29274637,,0.057841424,1.3372965,0.44649148,0.9969221,0.07718326,-0.0137526365,0.042990346,-0.6848826,-0.72738415,-0.065560825,0.72455406,-0.6860927,,-0.07979323,0.2969105,-0.04121413,0.59184533,0.2549811,0.7646592,-0.7977036,0.04910548,0.60104704,0.115706675,-0.96569836,0.23246218,,0.029357634,0.48828703,-0.2742848,0.78069526,0.6229646,-0.049295254,-0.6099031,0.7767552,0.15706563,0.13613668,-0.09255507,0.9863571,,1.1976954732648566,0.4105559250595234,0.18269781631,-0.1954310273275767,0.1466109642483176,1.267271918180346,-0.4153839601794722,,-1.0207908313149956,0.26578557459931074,0.16964417601,1.1734249237393983,0.3313435119311931,0.5995268085528848,0.8748708182151999,,0.026284658535034606,0.02909900195387546,0.07078751784,-0.11578833687890082,,-5.275011e-05,-6.7949295e-06,1.0728836e-06,1.0000001,4.734844e-05,5.0000846e-05,-4.734844e-05,1.0,4.5597553e-06,-5.000457e-05,-4.5001507e-06,1.0,833,2.625,0,6,1.392,False,-0.2602950796533112,1.0488390645478147
2.6435743009205908,14:00:03.700675,13:58:36.633572,0,,0.121030614,0.007394269,0.03245981,-0.55551666,-0.31318927,-0.7702688,-0.42939645,-0.6852248,0.5882906,-0.7120535,0.6575557,0.24617139,,0.018431269,0.008168414,0.04347253,-0.70052135,-0.7040292,0.11667427,-0.13030882,0.28693873,0.94904464,-0.7016335,0.6496224,-0.29274786,,0.057841424,1.3372965,0.44649148,0.9969221,0.07718326,-0.0137526365,0.042990346,-0.6848826,-0.72738415,-0.065560825,0.72455406,-0.6860927,,-0.0795104,0.29700992,-0.04132797,0.58943576,0.257392,0.765712,-0.79853755,0.042407207,0.6004494,0.12207915,-0.9653761,0.23053348,,0.029358825,0.48828682,-0.27428475,0.7806993,0.62295985,-0.049290795,-0.60989887,0.7767587,0.15706477,0.13613209,-0.09255795,0.98635745,,1.1992709107711983,0.40938206966264123,0.18261485375000003,-0.19920544631029813,0.1537160622361205,1.2672773777381119,-0.41587399237787515,,-1.0207831085821215,0.26578557459931074,0.16964417601,1.1734249237393983,0.3313435119311931,0.5995268085528848,0.8748708182151999,,0.026284658535034606,0.02909900195387546,0.07078751784,-0.11578833687890082,,-5.275011e-05,-6.7949295e-06,1.0728836e-06,1.0000001,4.734844e-05,5.0000846e-05,-4.734844e-05,1.0,4.5597553e-06,-5.000457e-05,-4.5001507e-06,1.0,847,2.671,0,6,1.392,False,-0.26011634649774784,1.0491770259532711
2.677345413947478,14:00:03.744890,13:58:36.633572,0,,0.12064831,0.0073139668,0.032549724,-0.549563,-0.3107131,-0.7755244,-0.42968398,-0.6909663,0.58132374,-0.71648604,0.6527043,0.24622096,,0.018432423,0.008168414,0.043472886,-0.7005166,-0.7040333,0.116678566,-0.13030678,0.28693986,0.9490446,-0.70163876,0.64961743,-0.29274637,,0.057841424,1.3372965,0.44649148,0.9969221,0.07718326,-0.0137526365,0.042990346,-0.6848826,-0.72738415,-0.065560825,0.72455406,-0.6860927,,-0.07913616,0.29703557,-0.041469336,0.5837635,0.2551013,0.7708071,-0.8022202,0.034886625,0.59600806,0.12515157,-0.96628475,0.22501296,,0.029357634,0.48828703,-0.2742848,0.78069526,0.6229646,-0.049295254,-0.6099031,0.7767552,0.15706563,0.13613668,-0.09255507,0.9863571,,1.2009004074076597,0.4076985138960603,0.18250596539000002,-0.20717366416271008,0.15767852072931826,1.2708255939625825,-0.415383960179472,,-1.0207908313149956,0.26578557459931074,0.16964417601,1.1734249237393983,0.3313435119311931,0.5995268085528849,0.8745441300829311,,0.026284658535034606,0.02909900195387546,0.07078751784,-0.11578833687890082,,-5.275011e-05,-6.7949295e-06,1.0728836e-06,1.0000001,4.734844e-05,5.0000846e-05,-4.734844e-05,1.0,4.5597553e-06,-5.000457e-05,-4.5001507e-06,1.0,856,2.699,0,6,1.392,False,-0.2602355019347904,1.049804668563404
2.721563450060785,14:00:03.783863,13:58:36.789150,0,,0.1203424,0.007176012,0.032579616,-0.54581404,-0.30894396,-0.77887154,-0.43236363,-0.69239056,0.5776306,-0.7177387,0.6520344,0.24434032,,0.018432222,0.008169442,0.0434736,-0.7005163,-0.70404345,0.11661897,-0.13030316,0.286856,0.94907045,-0.7016397,0.6496435,-0.29268625,,0.057841424,1.3372965,0.44649148,0.9969221,0.07718326,-0.0137526365,0.042990346,-0.6848826,-0.72738415,-0.065560825,0.72455406,-0.6860927,,-0.078835666,0.29697564,-0.041609365,0.580044,0.25334752,0.7741861,-0.8050607,0.033380985,0.59225243,0.124202594,-0.9667992,0.22332257,,0.029357778,0.4882881,-0.27428418,0.7806952,0.6229688,-0.049243122,-0.6099023,0.77674145,0.15713662,0.13614038,-0.0926423,0.9863484,,1.2018966399484348,0.40618485825271233,0.18238670671,-0.2124159127498232,0.15767852072931826,1.2712339876632852,-0.4148939279810693,,-1.0207908313149956,0.26579329733218493,0.16964417601,1.1734249237393983,0.3313435119311931,0.5996084872930253,0.875034162281334,,0.026284658535034606,0.02909900195387546,0.07078751784,-0.11578833687890082,,-5.275011e-05,-6.7949295e-06,1.0728836e-06,1.0000001,4.734844e-05,5.0000846e-05,-4.734844e-05,1.0,4.5597553e-06,-5.000457e-05,-4.5001507e-06,1.0,879,2.773,0,6,1.392,False,-0.26041423509035333,1.0489356249493738
2.7605294049717486,14:00:03.846886,13:58:36.789150,0,,0.119998366,0.00692071,0.03265275,-0.5359191,-0.306679,-0.78659964,-0.43290782,-0.700068,0.567887,-0.72483224,0.6448664,0.24241598,,0.018432222,0.008169442,0.0434736,-0.7005163,-0.70403403,0.11667647,-0.13030316,0.28693348,0.949047,-0.7016397,0.6496195,-0.29273933,,0.057841424,1.3372965,0.44649148,0.9969221,0.07718326,-0.0137526365,0.042990346,-0.6848826,-0.72738415,-0.065560825,0.72455406,-0.6860927,,-0.07850225,0.29687086,-0.041867733,0.57059824,0.25137046,0.7818123,-0.8110219,0.022851584,0.5845693,0.1290778,-0.96762115,0.21690603,,0.029357778,0.4882881,-0.27428418,0.7806952,0.6229648,-0.049294006,-0.6099023,0.77675426,0.15707317,0.13614038,-0.09256174,0.98635596,,1.202738417831725,0.4040379385136779,0.18215985596,-0.22457792947192562,0.16369052671899764,1.2760513699773697,-0.414077207650398,,-1.0207908313149956,0.26579329733218493,0.16964417601,1.1734249237393983,0.3313435119311931,0.5995268085528849,0.8745441300829311,,0.026284658535034606,0.02909900195387546,0.07078751784,-0.11578833687890082,,-5.275011e-05,-6.7949295e-06,1.0728836e-06,1.0000001,4.734844e-05,5.0000846e-05,-4.734844e-05,1.0,4.5597553e-06,-5.000457e-05,-4.5001507e-06,1.0,888,2.802,0,6,1.392,False,-0.259282258438454,1.0498529487641832
2.823534080060199,14:00:03.881776,13:58:36.789150,0,,0.119871214,0.006816268,0.032700703,-0.5296559,-0.30438647,-0.79171574,-0.43566728,-0.70323646,0.5618296,-0.72777665,0.6425008,0.23986201,,0.018432222,0.008169442,0.0434736,-0.7005163,-0.70403403,0.11667647,-0.13030316,0.28693348,0.949047,-0.7016397,0.6496195,-0.29273933,,0.057841424,1.3372965,0.44649148,0.9969221,0.07718326,-0.0137526365,0.042990346,-0.6848826,-0.72738415,-0.065560825,0.72455406,-0.6860927,,-0.07838054,0.29684097,-0.041984618,0.564473,0.2491629,0.7869486,-0.8152558,0.018903455,0.57879233,0.12933752,-0.9682771,0.213802,,0.029357778,0.4882881,-0.27428418,0.7806952,0.6229648,-0.049294006,-0.6099023,0.77675426,0.15707317,0.13614038,-0.09256174,0.98635596,,1.2030859408110652,0.4033815062193688,0.18205226389,-0.23233645738085298,0.16396379971852854,1.2785239325946152,-0.41391386358426363,,-1.0207908313149956,0.26579329733218493,0.16964417601,1.1734249237393983,0.3313435119311931,0.5995268085528848,0.8748708182151999,,0.026284658535034606,0.02909900195387546,0.07078751784,-0.11578833687890082,,-5.275011e-05,-6.7949295e-06,1.0728836e-06,1.0000001,4.734844e-05,5.0000846e-05,-4.734844e-05,1.0,4.5597553e-06,-5.000457e-05,-4.5001507e-06,1.0,902,2.847,0,6,1.392,False,-0.26017592421626956,1.049370146756389
2.8584428150206804,14:00:03.916681,13:58:36.789150,0,,0.119730145,0.0067145973,0.0327477,-0.5277671,-0.29593617,-0.7961682,-0.43847877,-0.70786375,0.5537739,-0.7274602,0.64136636,0.2438254,,0.01843138,0.0081689805,0.043473005,-0.7006233,-0.7039072,0.11679858,-0.13015203,0.2870184,0.94904214,-0.7015609,0.64971936,-0.29270667,,0.057841424,1.3372965,0.44649148,0.9969221,0.07718326,-0.0137526365,0.042990346,-0.6848826,-0.72738415,-0.065560825,0.72455406,-0.6860927,,-0.07824481,0.29681265,-0.042099632,0.5625097,0.24070387,0.7909769,-0.8169565,0.014700423,0.57651186,0.12714094,-0.9704873,0.20491372,,0.029358666,0.48828745,-0.27428442,0.7807957,0.62282884,-0.04941939,-0.6097534,0.7768683,0.15708753,0.136231,-0.09251964,0.98634744,,1.2035724729821413,0.40277141032230507,0.18194467182000001,-0.2350624266461518,0.16205088872181236,1.2871081548984535,-0.41456723984880073,,-1.0207831085821215,0.26579329733218493,0.16964417601,1.1736346136828828,0.3313435119311931,0.5995268085528848,0.8748708182151999,,0.026284658535034606,0.02909900195387546,0.07078751784,-0.11578833687890082,,-5.275011e-05,-6.7949295e-06,1.0728836e-06,1.0000001,4.734844e-05,5.0000846e-05,-4.734844e-05,1.0,4.5597553e-06,-5.000457e-05,-4.5001507e-06,1.0,911,2.875,0,6,1.392,False,-0.26005676877922745,1.0491770259532711
2.8933495660312474,14:00:03.948299,13:58:36.789150,0,,0.119484946,0.006627664,0.03281565,-0.51818746,-0.28902793,-0.8049502,-0.44207945,-0.7151728,0.5413813,-0.7321527,0.63638884,0.24282022,,0.018431902,0.008169949,0.04347378,-0.70041406,-0.70415664,0.11655007,-0.1304563,0.2868474,0.94905204,-0.7017133,0.6495247,-0.29277354,,0.057841424,1.3372965,0.44649148,0.9969221,0.07718326,-0.0137526365,0.042990346,-0.6848826,-0.72738415,-0.065560825,0.72455406,-0.6860927,,-0.07800618,0.29681313,-0.042223506,0.5531658,0.23396547,0.79954225,-0.82315946,0.0058975765,0.56777966,0.12812547,-0.97222704,0.19585323,,0.02935808,0.48828858,-0.2742839,0.7805987,0.6230959,-0.049164165,-0.61004704,0.7766437,0.15705791,0.13604519,-0.092606746,0.9863649,,1.2045069236599226,0.40171339591853633,0.18184096862000002,-0.2470147534247697,0.16300734422017046,1.2949044972873376,-0.4147305839149351,,-1.0207908313149956,0.26579329733218493,0.16964417601,1.1732152337959136,0.3313435119311931,0.5995268085528849,0.8745441300829311,,0.026284658535034606,0.02909900195387546,0.07078751784,-0.11578833687890082,,-5.275011e-05,-6.7949295e-06,1.0728836e-06,1.0000001,4.734844e-05,5.0000846e-05,-4.734844e-05,1.0,4.5597553e-06,-5.000457e-05,-4.5001507e-06,1.0,925,2.92,0,6,1.392,False,-0.2599971910607066,1.0492253061540504
2.9249636919703335,14:00:03.987411,13:58:36.999750,0,,0.1192323,0.0065388232,0.03285058,-0.5149804,-0.2872553,-0.80763835,-0.44396928,-0.7165821,0.5379604,-0.73327106,0.63560563,0.24149318,,0.018431902,0.008169949,0.04347378,-0.70041406,-0.70415664,0.11655007,-0.1304563,0.2868474,0.94905204,-0.7017133,0.6495247,-0.29277354,,0.057841424,1.3372965,0.44649148,0.9969221,0.07718326,-0.0137526365,0.042990346,-0.6848826,-0.72738415,-0.065560825,0.72455406,-0.6860927,,-0.077758096,0.296788,-0.042327296,0.54999524,0.23221555,0.80223507,-0.82535577,0.004317521,0.56459653,0.12764443,-0.97265476,0.19403505,,0.02935808,0.48828858,-0.2742839,0.7805987,0.6230959,-0.049164165,-0.61004704,0.7766437,0.15705791,0.13604519,-0.092606746,0.9863649,,1.2054336516048294,0.40054726325452844,0.18175670977000002,-0.25141824223794473,0.1631439807199359,1.2955281880449063,-0.4142405517165324,,-1.0207908313149956,0.26579329733218493,0.16964417601,1.1732152337959136,0.3313435119311931,0.5995268085528848,0.8748708182151999,,0.026284658535034606,0.02909900195387546,0.07078751784,-0.11578833687890082,,-5.275011e-05,-6.7949295e-06,1.0728836e-06,1.0000001,4.734844e-05,5.0000846e-05,-4.734844e-05,1.0,4.5597553e-06,-5.000457e-05,-4.5001507e-06,1.0,934,2.949,0,6,1.392,False,-0.2599376133421849,1.0495632675595068
2.9640982060227543,14:00:04.025352,13:58:36.999750,0,,0.11880733,0.0063934773,0.032849804,-0.51195943,-0.28276303,-0.8111368,-0.44769472,-0.71805626,0.5328834,-0.73312145,0.63595617,0.24102412,,0.018431582,0.008170411,0.04347408,-0.7003118,-0.7042792,0.11642368,-0.1306094,0.28676128,0.949057,-0.7017869,0.64942974,-0.29280773,,0.057841424,1.3372965,0.44649148,0.9969221,0.07718326,-0.0137526365,0.042990346,-0.6848826,-0.72738415,-0.065560825,0.72455406,-0.6860927,,-0.07733705,0.29670414,-0.04245921,0.54689324,0.22768027,0.80564845,-0.82782674,0.0034504477,0.5609733,0.1249427,-0.97372985,0.19036683,,0.029358383,0.48828903,-0.2742836,0.7805022,0.62322706,-0.049034327,-0.6101917,0.7765331,0.15704262,0.13594998,-0.09265176,0.9863738,,1.2068469117208125,0.3984930163099847,0.18165559915,-0.25603142099460424,0.1617776157222815,1.297459154483276,-0.4142405517165322,,-1.0207908313149956,0.26579329733218493,0.16964417601,1.1730055438524292,0.3313435119311931,0.5995268085528849,0.8745441300829311,,0.026284658535034606,0.02909900195387546,0.07078751784,-0.11578833687890082,,-5.275011e-05,-6.7949295e-06,1.0728836e-06,1.0000001,4.734844e-05,5.0000846e-05,-4.734844e-05,1.0,4.5597553e-06,-5.000457e-05,-4.5001507e-06,1.0,948,2.994,0,6,1.392,False,-0.2602355019347904,1.0493218665556094
3.002034624107182,14:00:04.066673,13:58:36.999750,0,,0.11836873,0.0062309206,0.032829925,-0.5073305,-0.27723202,-0.8159402,-0.45267653,-0.7199477,0.52607924,-0.7332802,0.6362528,0.23975495,,0.018430427,0.008170426,0.04347372,-0.7003166,-0.7042751,0.116419375,-0.13061148,0.28676015,0.94905704,-0.7017816,0.64943475,-0.29280925,,0.057841424,1.3372965,0.44649148,0.9969221,0.07718326,-0.0137526365,0.042990346,-0.6848826,-0.72738415,-0.065560825,0.72455406,-0.6860927,,-0.07690156,0.29659504,-0.042592026,0.5421795,0.22210303,0.8103775,-0.8314171,0.0022314815,0.5556444,0.121601954,-0.97502065,0.18587011,,0.029359573,0.48828882,-0.27428353,0.78050625,0.6232223,-0.049029868,-0.61018753,0.7765366,0.15704174,0.13594541,-0.09265465,0.98637414,,1.2081983899738018,0.3963152056394534,0.18155448853000003,-0.2625318092426245,0.15972806822579988,1.3001922466605498,-0.41473058391493534,,-1.0207831085821215,0.26579329733218493,0.16964417601,1.1730055438524292,0.3313435119311931,0.5995268085528849,0.8745441300829311,,0.026284658535034606,0.02909900195387546,0.07078751784,-0.11578833687890082,,-5.275011e-05,-6.7949295e-06,1.0728836e-06,1.0000001,4.734844e-05,5.0000846e-05,-4.734844e-05,1.0,4.5597553e-06,-5.000457e-05,-4.5001507e-06,1.0,957,3.023,1,7,1.398,False,-0.26095043455704303,1.049708108161845
