AlexandreBanks6/ExpertPlaybackApp/resources/Motions/P_13/PC1/Data_PC1_5.csv
Task Time,PC1 Time,PC2 Time,Gaze Calib,s_T_psm1,Tx,Ty,Tz,R00,R01,R02,R10,R11,R12,R20,R21,R22,s_T_psm3,Tx,Ty,Tz,R00,R01,R02,R10,R11,R12,R20,R21,R22,cart_T_ecm,Tx,Ty,Tz,R00,R01,R02,R10,R11,R12,R20,R21,R22,ecm_T_psm1,Tx,Ty,Tz,R00,R01,R02,R10,R11,R12,R20,R21,R22,ecm_T_psm3,Tx,Ty,Tz,R00,R01,R02,R10,R11,R12,R20,R21,R22,psm1_joints,q1,q2,q3,q4,q5,q6,jaw,psm3_joints,q1,q2,q3,q4,q5,q6,jaw,ecm_joints,q1,q2,q3,q4,ecmi_T_ecm,Tx,Ty,Tz,R00,R01,R02,R10,R11,R12,R20,R21,R22,Sample #,Task Duration (s),Collisions (binary),Collisions (increments),Cumulative Collision Time (s),Clutch Press,MTMR Angle,MTML Angle
""
lci_T_si,,,,,-0.060449902,0.028989637,0.2531565,0.99598145,-0.006817275,0.089299574,0.061369892,-0.674251,-0.7359479,0.065227486,0.7384708,-0.67112315
rci_T_si,,,,,-0.070302054,0.033551246,0.263737,0.9935428,-0.022055382,0.11129344,0.070708275,-0.6467685,-0.7594016,0.088729985,0.7623674,-0.6410327
ecm_T_lc,,,,,-4.4061628e-05,-0.00034663224,-0.01840835,-0.99912,0.030754527,0.028518902,-0.031987965,-0.99852574,-0.043852776,0.027128186,-0.04472645,0.9986309
ecm_T_rc,,,,,-0.0043358393,0.01870579,-0.007592615,-0.99555075,-0.052743673,-0.078081585,0.04863213,-0.9973746,0.053654674,-0.08070653,0.04961868,0.9955021
cart_T_ecmi,,,,,0.05789456,1.3372948,0.4464937,0.99692506,0.077136,-0.013802834,0.042921547,-0.6848879,-0.7273832,-0.065560825,0.72455406,-0.6860927
ecmac_T_ecmrep_psm1,,,,,-0.0025980123,-0.29326126,-0.2805022,0.9974786,0.061531033,0.035360787,-0.060258932,0.9975341,-0.035980776,-0.037487525,0.033759248,0.99872667
ecmac_T_ecmrep_psm3,,,,,-0.0114122145,-0.5209516,-0.5025674,0.9999053,0.010122195,-0.009323479,-0.0077519584,0.9740634,0.22614253,0.011370718,-0.22604884,0.9740496
""
0,14:03:34.830438,14:02:07.813280,0,,0.12361222,0.008447543,0.026306689,-0.37988797,-0.6991989,-0.6056453,-0.33951184,-0.50364584,0.7944007,-0.86047477,0.5074069,-0.046057254,,0.023077615,0.0062696114,0.044174135,-0.53395206,-0.7036765,0.46875885,0.278266,0.37727255,0.8833082,-0.79841304,0.6020839,-0.005636126,,0.0579412,1.3372942,0.44648963,0.99692684,0.07710738,-0.013833231,0.042879883,-0.6848911,-0.7273826,-0.065560825,0.72455406,-0.6860927,,-0.081763215,0.29304776,-0.036302052,0.42522553,0.6556339,0.6239611,-0.8547316,0.064146735,0.5150913,0.29768625,-0.7523492,0.5876679,,0.024520975,0.4875693,-0.27590257,0.6404012,0.6315173,-0.4371181,-0.528176,0.7753084,0.3463048,0.55759877,0.009101294,0.8300607,,1.1662639504667627,0.3960989691189751,0.18788038373000002,-0.36632833126746406,0.34432397940890996,0.8556231942606605,-0.41505727204720366,,-1.0299345470380774,0.25599314931479406,0.17098583616000002,1.4481187497041252,0.7208941727624638,0.6551462075567567,0.8549428421468177,,0.026284658535034606,0.02909900195387546,0.07078751784,-0.11578833687890082,,4.6737492e-05,1.0728836e-06,2.6226044e-06,1.0000001,-2.8669834e-05,-3.027916e-05,2.868101e-05,1.0,-2.7418137e-06,3.027916e-05,2.7418137e-06,0.99999994,34,0.101,0,0,0.0,False,-0.25815028178655464,1.0288993416258982
0.13128011603839695,14:03:34.855712,14:02:07.813280,0,,0.123577505,0.008411869,0.026371151,-0.37574464,-0.7017464,-0.60528356,-0.3376273,-0.5045948,0.7946016,-0.86303174,0.5029275,-0.047329903,,0.023077749,0.0062713698,0.044173777,-0.53395265,-0.70367736,0.46875682,0.27827066,0.3772665,0.88330925,-0.798411,0.60208666,-0.005629599,,0.0579412,1.3372942,0.44648963,0.99692684,0.07710738,-0.013833231,0.042879883,-0.6848911,-0.7273826,-0.065560825,0.72455406,-0.6860927,,-0.08173333,0.29307303,-0.036373466,0.4212893,0.6584335,0.62368315,-0.8555107,0.06026145,0.5142665,0.30102623,-0.75022256,0.5886844,,0.024520954,0.48756972,-0.2759008,0.64040166,0.6315176,-0.43711692,-0.528172,0.7753082,0.34631127,0.557602,0.009094599,0.83005863,,1.1663720687270018,0.39592906899574215,0.18782075439,-0.37073182008063904,0.34773989190304594,0.853001104148531,-0.414730583914935,,-1.0299345470380774,0.25600087204766825,0.17098713245000002,1.4481187497041252,0.7208941727624638,0.6551462075567567,0.8549428421468177,,0.026284658535034606,0.02909900195387546,0.07078751784,-0.11578833687890082,,4.6737492e-05,1.0728836e-06,2.6226044e-06,1.0000001,-2.8669834e-05,-3.027916e-05,2.868101e-05,1.0,-2.7418137e-06,3.027916e-05,2.7418137e-06,0.99999994,49,0.146,0,0,0.0,False,-0.2580311263495121,1.0291407426297956
0.15659688413143158,14:03:34.894981,14:02:07.893318,0,,0.12354203,0.008406833,0.026482344,-0.36663792,-0.70779276,-0.60382634,-0.33245784,-0.5064968,0.7955706,-0.8689352,0.4924331,-0.049610317,,0.023076274,0.0062706843,0.044174433,-0.5339592,-0.7036738,0.46875477,0.27826893,0.37726533,0.8833104,-0.7984073,0.6020916,-0.005633652,,0.0579412,1.3372942,0.44648963,0.99692684,0.07710738,-0.013833231,0.042879883,-0.6848911,-0.7273826,-0.065560825,0.72455406,-0.6860927,,-0.08170492,0.29315358,-0.03645318,0.41267696,0.665077,0.6223908,-0.8567487,0.051375903,0.51316875,0.30932084,-0.7450054,0.5910055,,0.024522305,0.48757014,-0.27590182,0.6404076,0.6315134,-0.43711433,-0.52816886,0.77531165,0.34630838,0.55759823,0.009091665,0.8300612,,1.1665342461173607,0.3957900598040061,0.18776760650000002,-0.38016786753744264,0.35607471838873783,0.8469397206843143,-0.41456723984880073,,-1.0299268243052033,0.25600087204766825,0.17098583616000002,1.4481187497041252,0.7208941727624638,0.6551462075567567,0.8549428421468177,,0.026284658535034606,0.02909900195387546,0.07078751784,-0.11578833687890082,,4.6737492e-05,1.0728836e-06,2.6226044e-06,1.0000001,-2.8669834e-05,-3.027916e-05,2.868101e-05,1.0,-2.7418137e-06,3.027916e-05,2.7418137e-06,0.99999994,57,0.171,0,0,0.0,False,-0.2584481703791588,1.029092462429016
0.19586955709382892,14:03:34.922608,14:02:07.893318,0,,0.12352959,0.008403555,0.026548997,-0.36428702,-0.7101159,-0.6025201,-0.32861972,-0.50734174,0.79662627,-0.8713806,0.4882005,-0.048540026,,0.023076467,0.0062696114,0.044173777,-0.5339585,-0.7036729,0.4687568,0.27826422,0.37727135,0.88330925,-0.79840934,0.6020888,-0.005640179,,0.0579412,1.3372942,0.44648963,0.99692684,0.07710738,-0.013833231,0.042879883,-0.6848911,-0.7273826,-0.065560825,0.72455406,-0.6860927,,-0.081696704,0.2932014,-0.036500655,0.4105636,0.6676396,0.6210434,-0.8560839,0.04773655,0.51462764,0.31393933,-0.7429526,0.59115446,,0.02452216,0.48756906,-0.27590248,0.6404071,0.63151306,-0.43711552,-0.52817285,0.7753118,0.34630188,0.557595,0.00909836,0.8300633,,1.1666578098433482,0.39572827794101234,0.18773519925,-0.3822647669722879,0.3608569958805282,0.8451637412985942,-0.4145672398488005,,-1.0299268243052033,0.25599314931479406,0.17098583616000002,1.4481187497041252,0.7208941727624638,0.6551462075567567,0.8549428421468177,,0.026284658535034606,0.02909900195387546,0.07078751784,-0.11578833687890082,,4.6737492e-05,1.0728836e-06,2.6226044e-06,1.0000001,-2.8669834e-05,-3.027916e-05,2.868101e-05,1.0,-2.7418137e-06,3.027916e-05,2.7418137e-06,0.99999994,64,0.193,0,0,0.0,False,-0.25820985950507547,1.0286579406220009
0.22349285916425288,14:03:34.944298,14:02:07.893318,0,,0.12350293,0.008402035,0.026612714,-0.36201638,-0.71284705,-0.60066074,-0.32502508,-0.5074017,0.7980615,-0.873672,0.48414114,-0.048005432,,0.023076467,0.0062696114,0.044173777,-0.5339585,-0.70359635,0.4688717,0.27826422,0.37741566,0.8832476,-0.79840934,0.6020879,-0.0057385564,,0.0579412,1.3372942,0.44648963,0.99692684,0.07710738,-0.013833231,0.042879883,-0.6848911,-0.7273826,-0.065560825,0.72455406,-0.6860927,,-0.081674084,0.29324868,-0.036545694,0.40851566,0.67061514,0.61918515,-0.8554645,0.044762872,0.5159232,0.3182694,-0.74045366,0.5919738,,0.02452216,0.48756906,-0.27590248,0.6404071,0.63144165,-0.43721867,-0.52817285,0.7753684,0.34617522,0.557595,0.009233957,0.8300618,,1.1668431554323295,0.3956201596807732,0.18770538458000002,-0.38436166640713315,0.36536600037278777,0.8424670953582991,-0.41489392798106917,,-1.0299268243052033,0.25599314931479406,0.17098583616000002,1.4481187497041252,0.7208941727624638,0.6549828500764755,0.8549428421468176,,0.026284658535034606,0.02909900195387546,0.07078751784,-0.11578833687890082,,4.6737492e-05,1.0728836e-06,2.6226044e-06,1.0000001,-2.8669834e-05,-3.027916e-05,2.868101e-05,1.0,-2.7418137e-06,3.027916e-05,2.7418137e-06,0.99999994,72,0.216,0,0,0.0,False,-0.25815028178655464,1.0290441822282368
0.24518345715478063,14:03:34.965347,14:02:07.893318,0,,0.12344816,0.008401722,0.026688442,-0.35556656,-0.7162329,-0.60048574,-0.32208633,-0.50922114,0.79809403,-0.8774011,0.47718376,-0.049626797,,0.023076467,0.0062696114,0.044173777,-0.5339585,-0.70359635,0.4688717,0.27826422,0.37741566,0.8832476,-0.79840934,0.6020879,-0.0057385564,,0.0579412,1.3372942,0.44648963,0.99692684,0.07710738,-0.013833231,0.042879883,-0.6848911,-0.7273826,-0.065560825,0.72455406,-0.6860927,,-0.08162413,0.2933066,-0.036599368,0.40237272,0.6743864,0.6191116,-0.85648686,0.038479496,0.51473254,0.32330552,-0.7373753,0.5930862,,0.02452216,0.48756906,-0.27590248,0.6404071,0.63144165,-0.43721867,-0.52817285,0.7753684,0.34617522,0.557595,0.009233957,0.8300618,,1.1670902828843048,0.39545025955754026,0.18767038475000003,-0.39128143454212244,0.37042155086410905,0.8388347053623748,-0.4148939279810693,,-1.0299268243052033,0.25599314931479406,0.17098583616000002,1.4481187497041252,0.7208941727624638,0.6549828500764755,0.8549428421468176,,0.026284658535034606,0.02909900195387546,0.07078751784,-0.11578833687890082,,4.6737492e-05,1.0728836e-06,2.6226044e-06,1.0000001,-2.8669834e-05,-3.027916e-05,2.868101e-05,1.0,-2.7418137e-06,3.027916e-05,2.7418137e-06,0.99999994,80,0.241,0,0,0.0,False,-0.2584481703791588,1.02875450102356
0.26623186306096613,14:03:34.992818,14:02:07.893318,0,,0.12336797,0.008400843,0.026778817,-0.34830812,-0.7209276,-0.59912026,-0.31684303,-0.51097935,0.7990685,-0.8822086,0.46814907,-0.050442636,,0.023076937,0.006270297,0.044172764,-0.53400207,-0.7035039,0.46896088,0.2784008,0.37742496,0.8832005,-0.7983326,0.6021901,-0.0056895316,,0.0579412,1.3372942,0.44648963,0.99692684,0.07710738,-0.013833231,0.042879883,-0.6848911,-0.7273826,-0.065560825,0.72455406,-0.6860927,,-0.081549734,0.29337585,-0.036664717,0.39553833,0.67959374,0.6178202,-0.85680044,0.030732874,0.5147315,0.33082092,-0.73294467,0.59443223,,0.024521844,0.48756844,-0.27590138,0.6404445,0.63133717,-0.43731478,-0.52803874,0.77545387,0.3461884,0.557679,0.009204687,0.83000565,,1.1674223603978964,0.39511045931107436,0.18763408863000003,-0.3988302725075653,0.37820983135073916,0.8338724234340684,-0.4153839601794721,,-1.0299268243052033,0.25600087204766825,0.17098713245000002,1.4483284396476097,0.7208941727624638,0.6550645288166161,0.8544528099484149,,0.026284658535034606,0.02909900195387546,0.07078751784,-0.11578833687890082,,4.6737492e-05,1.0728836e-06,2.6226044e-06,1.0000001,-2.8669834e-05,-3.027916e-05,2.868101e-05,1.0,-2.7418137e-06,3.027916e-05,2.7418137e-06,0.99999994,95,0.287,0,0,0.0,False,-0.2571374605716965,1.0291407426297956
0.29367833910509944,14:03:35.037366,14:02:08.053455,0,,0.12320066,0.008397028,0.026874736,-0.3366611,-0.7235094,-0.6026555,-0.31208292,-0.51810855,0.7963465,-0.8884051,0.45617726,-0.05136791,,0.023079552,0.0062709823,0.044172525,-0.5339891,-0.70351106,0.468965,0.27840436,0.3774273,0.8831985,-0.79834014,0.6021802,-0.005681455,,0.0579412,1.3372942,0.44648963,0.99692684,0.07710738,-0.013833231,0.042879883,-0.6848911,-0.7273826,-0.065560825,0.72455406,-0.6860927,,-0.0813888,0.29345006,-0.03674088,0.38440064,0.6827614,0.6213478,-0.8586111,0.01714948,0.51234055,0.33915055,-0.73044014,0.5928188,,0.02451931,0.48756826,-0.27590045,0.6404327,0.63134557,-0.43731993,-0.5280451,0.7754469,0.3461942,0.55768657,0.009210552,0.8300005,,1.1680170108292118,0.39444630428389105,0.18759519993,-0.4116213590601214,0.3868179308359619,0.8319988561300493,-0.4148939279810694,,-1.0299422697709517,0.25600087204766825,0.17098842874,1.4483284396476097,0.7208941727624638,0.6550645288166161,0.8544528099484149,,0.026284658535034606,0.02909900195387546,0.07078751784,-0.11578833687890082,,4.6737492e-05,1.0728836e-06,2.6226044e-06,1.0000001,-2.8669834e-05,-3.027916e-05,2.868101e-05,1.0,-2.7418137e-06,3.027916e-05,2.7418137e-06,0.99999994,103,0.31,0,0,0.0,False,-0.25785239319394915,1.0285131000196626
0.33820113609544933,14:03:35.062909,14:02:08.053455,0,,0.12312431,0.008399084,0.026918247,-0.3291861,-0.72642183,-0.6032811,-0.3096155,-0.52053314,0.7957282,-0.892062,0.4487278,-0.053559154,,0.023078732,0.0062717125,0.044171035,-0.53399557,-0.7035075,0.4689629,0.27840257,0.3774261,0.8831995,-0.7983364,0.60218513,-0.0056854784,,0.0579412,1.3372942,0.44648963,0.99692684,0.07710738,-0.013833231,0.042879883,-0.6848911,-0.7273826,-0.065560825,0.72455406,-0.6860927,,-0.08131527,0.29348627,-0.036772646,0.37722033,0.68607795,0.6220947,-0.8599271,0.010080998,0.51031727,0.34384608,-0.7274582,0.5937798,,0.02452033,0.4875674,-0.27589923,0.6404386,0.6313414,-0.43731734,-0.52804196,0.77545035,0.34619132,0.5576828,0.009207619,0.8300031,,1.1682332473496901,0.3941373949689221,0.18758353332000002,-0.4197992668560177,0.39160020832775233,0.8284259444612367,-0.4142405517165323,,-1.0299345470380774,0.25600087204766825,0.17098972503,1.4483284396476097,0.7208941727624638,0.6550645288166161,0.8544528099484149,,0.026284658535034606,0.02909900195387546,0.07078751784,-0.11578833687890082,,4.6737492e-05,1.0728836e-06,2.6226044e-06,1.0000001,-2.8669834e-05,-3.027916e-05,2.868101e-05,1.0,-2.7418137e-06,3.027916e-05,2.7418137e-06,0.99999994,111,0.335,0,0,0.0,False,-0.2575545046013441,1.0285613802204423
0.36378222214989364,14:03:35.083427,14:02:08.053455,0,,0.12304022,0.008404955,0.02695404,-0.31732172,-0.7288695,-0.60667646,-0.30830747,-0.525695,0.7928374,-0.89680177,0.43862736,-0.057901412,,0.023077786,0.0062706694,0.044170022,-0.5340014,-0.70346475,0.46902034,0.2783962,0.37750313,0.8831686,-0.79833466,0.6021868,-0.005745262,,0.0579412,1.3372942,0.44648963,0.99692684,0.07710738,-0.013833231,0.042879883,-0.6848911,-0.7273826,-0.065560825,0.72455406,-0.6860927,,-0.08123346,0.29351953,-0.036796868,0.3657027,0.6890373,0.6256909,-0.8629633,-0.0008015185,0.50526595,0.34864858,-0.7247254,0.59432083,,0.024521371,0.48756608,-0.27589977,0.64044404,0.6313011,-0.43736753,-0.52804273,0.7754823,0.34611857,0.55767584,0.009279177,0.83000696,,1.168372256541426,0.3938362083868273,0.18757964445000003,-0.43300973329554276,0.3962458493197773,0.8252094869165423,-0.4140772076503979,,-1.0299268243052033,0.25599314931479406,0.17098972503,1.4483284396476097,0.7208941727624638,0.6549828500764756,0.8546161540145492,,0.026284658535034606,0.02909900195387546,0.07078751784,-0.11578833687890082,,4.6737492e-05,1.0728836e-06,2.6226044e-06,1.0000001,-2.8669834e-05,-3.027916e-05,2.868101e-05,1.0,-2.7418137e-06,3.027916e-05,2.7418137e-06,0.99999994,119,0.359,0,0,0.0,False,-0.25636295023092304,1.0282716990157654
0.38431528699584305,14:03:35.108006,14:02:08.053455,0,,0.122915134,0.0084195435,0.027017802,-0.2991817,-0.73074514,-0.6135977,-0.30437768,-0.5363712,0.7871849,-0.90434754,0.42227665,-0.061950028,,0.023077786,0.0062706694,0.044170022,-0.5340014,-0.70346475,0.46902034,0.2783962,0.37750313,0.8831686,-0.79833466,0.6021868,-0.005745262,,0.0579412,1.3372942,0.44648963,0.99692684,0.07710738,-0.013833231,0.042879883,-0.6848911,-0.7273826,-0.065560825,0.72455406,-0.6860927,,-0.08111228,0.29358074,-0.036835536,0.34815198,0.69169676,0.6327288,-0.8665407,-0.020032894,0.49870422,0.35762748,-0.7219102,0.5924089,,0.024521371,0.48756608,-0.27589977,0.64044404,0.6313011,-0.43736753,-0.52804273,0.7754823,0.34611857,0.55767584,0.009279177,0.83000696,,1.168573047596156,0.3933651216814996,0.18757834816000002,-0.45293027792657264,0.4051272218045309,0.8234397987656927,-0.412933799187458,,-1.0299268243052033,0.25599314931479406,0.17098972503,1.4483284396476097,0.7208941727624638,0.6549828500764756,0.8546161540145492,,0.026284658535034606,0.02909900195387546,0.07078751784,-0.11578833687890082,,4.6737492e-05,1.0728836e-06,2.6226044e-06,1.0000001,-2.8669834e-05,-3.027916e-05,2.868101e-05,1.0,-2.7418137e-06,3.027916e-05,2.7418137e-06,0.99999994,127,0.384,0,0,0.0,False,-0.2587460589717643,1.0283682594173245
0.40889154002070427,14:03:35.137564,14:02:08.053455,0,,0.12282373,0.008432046,0.027090624,-0.29029205,-0.7318787,-0.6165098,-0.2945894,-0.5446174,0.78524446,-0.9104656,0.40956736,-0.057505608,,0.023079053,0.006272398,0.044170022,-0.53399557,-0.7035841,0.46884796,0.27840257,0.3772818,0.88326114,-0.7983364,0.602186,-0.005587131,,0.0579412,1.3372942,0.44648963,0.99692684,0.07710738,-0.013833231,0.042879883,-0.6848911,-0.7273826,-0.065560825,0.72455406,-0.6860927,,-0.08102532,0.29364622,-0.036879856,0.33986703,0.6934414,0.6353184,-0.8648503,-0.03495684,0.5008113,0.369492,-0.7196645,0.58784235,,0.024520166,0.48756674,-0.27589813,0.6404386,0.6314128,-0.4372142,-0.52804196,0.7753938,0.34631798,0.5576828,0.009072032,0.8300046,,1.1687738386508857,0.3928013621816812,0.18758353332000002,-0.4617372555529226,0.4178344162827169,0.8245946360817449,-0.41375051951812936,,-1.0299345470380774,0.25600087204766825,0.17099102132000002,1.4483284396476097,0.7208941727624638,0.6552278862968974,0.8541261218161462,,0.026284658535034606,0.02909900195387546,0.07078751784,-0.11578833687890082,,4.6737492e-05,1.0728836e-06,2.6226044e-06,1.0000001,-2.8669834e-05,-3.027916e-05,2.868101e-05,1.0,-2.7418137e-06,3.027916e-05,2.7418137e-06,0.99999994,135,0.409,1,1,0.022,False,-0.25731619372725945,1.028464819818883
0.43843934615142643,14:03:35.158052,14:02:08.053455,0,,0.12279226,0.008433312,0.027117386,-0.28774264,-0.73185164,-0.6177358,-0.2900881,-0.5481113,0.7844889,-0.9127174,0.40492868,-0.05458644,,0.023076765,0.006272413,0.044169247,-0.53400856,-0.7036152,0.46878645,0.27839908,0.37720734,0.8832941,-0.7983289,0.60219634,-0.005546063,,0.0579412,1.3372942,0.44648963,0.99692684,0.07710738,-0.013833231,0.042879883,-0.6848911,-0.7273826,-0.065560825,0.72455406,-0.6860927,,-0.080995545,0.293668,-0.036898497,0.33755758,0.6936281,0.63634497,-0.8636055,-0.04074098,0.50251937,0.37448686,-0.7191803,0.5852686,,0.024522537,0.4875663,-0.27589795,0.6404504,0.6314401,-0.43715748,-0.5280356,0.77537245,0.3463755,0.55767524,0.008998371,0.8300105,,1.1688278977810054,0.3925542347297061,0.1875861259,-0.4640438449312524,0.42329987627333454,0.8260187892240082,-0.4148939279810693,,-1.029919101572329,0.25600087204766825,0.17099102132000002,1.4483284396476097,0.7208941727624638,0.6553095650370377,0.8536360896177434,,0.026284658535034606,0.02909900195387546,0.07078751784,-0.11578833687890082,,4.6737492e-05,1.0728836e-06,2.6226044e-06,1.0000001,-2.8669834e-05,-3.027916e-05,2.868101e-05,1.0,-2.7418137e-06,3.027916e-05,2.7418137e-06,0.99999994,143,0.433,1,1,0.046,False,-0.25731619372725945,1.0282716990157654
0.45892629213631153,14:03:35.183111,14:02:08.053455,0,,0.12266257,0.008441225,0.027198061,-0.2756517,-0.7341809,-0.6204795,-0.2775923,-0.5571881,0.7826135,-0.9203036,0.38796896,-0.05021307,,0.023075014,0.0062703714,0.04416716,-0.53406376,-0.70347565,0.468933,0.2785228,0.3772985,0.88321614,-0.79824877,0.6023024,-0.005567372,,0.0579412,1.3372942,0.44648963,0.99692684,0.07710738,-0.013833231,0.042879883,-0.6848911,-0.7273826,-0.065560825,0.72455406,-0.6860927,,-0.080870956,0.29373747,-0.036953654,0.32622623,0.6968117,0.63877225,-0.8613045,-0.059344172,0.50461155,0.3895266,-0.71479493,0.5808074,,0.02452447,0.48756373,-0.27589902,0.64049864,0.63129085,-0.43730238,-0.52790314,0.77549344,0.34630656,0.5577453,0.009044422,0.8299629,,1.1690441343014837,0.3917510705107867,0.18759779251000003,-0.4762058616533548,0.4395596197454219,0.8252569059256404,-0.41260711105518955,,-1.029911378839455,0.25599314931479406,0.17099102132000002,1.4485381295910942,0.7208941727624638,0.6553095650370377,0.8536360896177434,,0.026284658535034606,0.02909900195387546,0.07078751784,-0.11578833687890082,,4.6737492e-05,1.0728836e-06,2.6226044e-06,1.0000001,-2.8669834e-05,-3.027916e-05,2.868101e-05,1.0,-2.7418137e-06,3.027916e-05,2.7418137e-06,0.99999994,151,0.458,1,1,0.071,False,-0.25815028178655464,1.0285131000196626
0.4839979379903525,14:03:35.212256,14:02:08.226234,0,,0.12245472,0.0084052235,0.027174205,-0.2713538,-0.7349542,-0.6214577,-0.27297428,-0.5604036,0.78194153,-0.9229584,0.38182473,-0.04855597,,0.023076162,0.0062703416,0.04416758,-0.5340573,-0.7034026,0.46904996,0.27852452,0.37744394,0.88315344,-0.79825246,0.6022965,-0.005661726,,0.0579412,1.3372942,0.44648963,0.99692684,0.07710738,-0.013833231,0.042879883,-0.6848911,-0.7273826,-0.065560825,0.72455406,-0.6860927,,-0.08066284,0.29370236,-0.03697647,0.3221995,0.6978962,0.63963145,-0.860338,-0.06603748,0.50542814,0.39497602,-0.71314794,0.5791493,,0.024523284,0.48756394,-0.2758991,0.64049274,0.6312236,-0.4374081,-0.5279063,0.77554655,0.3461828,0.55774903,0.009182935,0.82995886,,1.169507498273937,0.3905540469152819,0.18761205170000003,-0.48102873035349886,0.44611817173416307,0.8241561410355212,-0.4148939279810693,,-1.029911378839455,0.25599314931479406,0.17099102132000002,1.4485381295910942,0.7208941727624638,0.6551462075567567,0.8536360896177435,,0.026284658535034606,0.02909900195387546,0.07078751784,-0.11578833687890082,,4.6737492e-05,1.0728836e-06,2.6226044e-06,1.0000001,-2.8669834e-05,-3.027916e-05,2.868101e-05,1.0,-2.7418137e-06,3.027916e-05,2.7418137e-06,0.99999994,159,0.482,1,1,0.095,False,-0.25815028178655464,1.028319979216545
0.5131439850665629,14:03:35.236465,14:02:08.226234,0,,0.12228148,0.00837037,0.027135208,-0.27038735,-0.7357167,-0.6209765,-0.2716944,-0.56047404,0.78233683,-0.9236194,0.38024974,-0.04834497,,0.023073874,0.0062703565,0.044166803,-0.5340703,-0.7033955,0.46904588,0.27852106,0.37744159,0.8831556,-0.79824495,0.6023063,-0.005669862,,0.0579412,1.3372942,0.44648963,0.99692684,0.07710738,-0.013833231,0.042879883,-0.6848911,-0.7273826,-0.065560825,0.72455406,-0.6860927,,-0.080488294,0.29365566,-0.036986366,0.3213031,0.6987531,0.6391466,-0.8600072,-0.06723222,0.5058334,0.39642394,-0.7121965,0.5793308,,0.024525655,0.4875635,-0.27589893,0.64050454,0.6312152,-0.43740293,-0.5278999,0.77555346,0.34617695,0.5577415,0.00917707,0.829964,,1.1699476940477678,0.38959642803887806,0.18762112573000003,-0.48249655995789054,0.4483043557304101,0.8223734545763783,-0.4148939279810693,,-1.0298959333737063,0.25599314931479406,0.17099102132000002,1.4485381295910942,0.7208941727624638,0.6551462075567567,0.8536360896177435,,0.026284658535034606,0.02909900195387546,0.07078751784,-0.11578833687890082,,4.6737492e-05,1.0728836e-06,2.6226044e-06,1.0000001,-2.8669834e-05,-3.027916e-05,2.868101e-05,1.0,-2.7418137e-06,3.027916e-05,2.7418137e-06,0.99999994,172,0.523,1,1,0.136,False,-0.2575545046013441,1.027692336606412
0.5373416261281818,14:03:35.275350,14:02:08.226234,0,,0.121900246,0.008304521,0.027078107,-0.26814407,-0.7377313,-0.61955756,-0.26826605,-0.5604927,0.78350574,-0.9252741,0.3762986,-0.04761547,,0.023074694,0.006269641,0.044168234,-0.53406376,-0.703399,0.4690479,0.2785228,0.37744278,0.8831545,-0.79824877,0.6023014,-0.005665779,,0.0579412,1.3372942,0.44648963,0.99692684,0.07710738,-0.013833231,0.042879883,-0.6848911,-0.7273826,-0.065560825,0.72455406,-0.6860927,,-0.08010573,0.2935815,-0.03701916,0.31923947,0.7010078,0.63771015,-0.85902387,-0.0701208,0.50711054,0.40020517,-0.70969796,0.5797971,,0.024524635,0.48756436,-0.27590016,0.64049864,0.6312194,-0.4374055,-0.52790314,0.77555,0.34617987,0.5577453,0.009180002,0.8299614,,1.171021153917285,0.3875807947587055,0.18763279234000002,-0.4858515990536429,0.45363317922126234,0.8180281563322179,-0.414730583914935,,-1.0299036561065806,0.25599314931479406,0.17098972503,1.4485381295910942,0.7208941727624638,0.6551462075567567,0.8539627777500118,,0.026284658535034606,0.02909900195387546,0.07078751784,-0.11578833687890082,,4.6737492e-05,1.0728836e-06,2.6226044e-06,1.0000001,-2.8669834e-05,-3.027916e-05,2.868101e-05,1.0,-2.7418137e-06,3.027916e-05,2.7418137e-06,0.99999994,180,0.548,1,1,0.161,False,-0.25779281547542787,1.027402655401735
0.5762278791517019,14:03:35.305402,14:02:08.226234,0,,0.12163271,0.008285522,0.02707927,-0.26184332,-0.7401923,-0.6193171,-0.26440984,-0.56213474,0.78364015,-0.928184,0.36894444,-0.04852292,,0.023073547,0.006269671,0.044167876,-0.5340703,-0.70335716,0.46910334,0.27852106,0.3775137,0.8831247,-0.79824495,0.6023059,-0.005719036,,0.0579412,1.3372942,0.44648963,0.99692684,0.07710738,-0.013833231,0.042879883,-0.6848911,-0.7273826,-0.065560825,0.72455406,-0.6860927,,-0.07983924,0.29357827,-0.037049353,0.31321388,0.7038846,0.63752925,-0.85881966,-0.07661083,0.50651705,0.40537122,-0.70617086,0.5805144,,0.02452582,0.48756415,-0.27590007,0.64050454,0.63117945,-0.4374545,-0.5278999,0.7755817,0.34611362,0.5577415,0.00924486,0.8299632,,1.1718165954033302,0.3863219893002069,0.18764316266000003,-0.49340043701908576,0.45964518521094166,0.8131257685695754,-0.4148939279810693,,-1.0298959333737063,0.25599314931479406,0.17098972503,1.4485381295910942,0.7208941727624638,0.6550645288166161,0.8534727455516093,,0.026284658535034606,0.02909900195387546,0.07078751784,-0.11578833687890082,,4.6737492e-05,1.0728836e-06,2.6226044e-06,1.0000001,-2.8669834e-05,-3.027916e-05,2.868101e-05,1.0,-2.7418137e-06,3.027916e-05,2.7418137e-06,0.99999994,193,0.589,1,1,0.202,False,-0.25815028178655464,1.0271129741970584
0.6062671300023794,14:03:35.338415,14:02:08.226234,0,,0.121461056,0.008277595,0.027083099,-0.2578119,-0.7415459,-0.6193892,-0.26165417,-0.5635212,0.78356934,-0.9300915,0.36407918,-0.04874602,,0.02307307,0.0062693283,0.04416579,-0.5341196,-0.7032219,0.4692499,0.2786512,0.37759995,0.8830468,-0.79816663,0.60240966,-0.005729854,,0.0579412,1.3372942,0.44648963,0.99692684,0.07710738,-0.013833231,0.042879883,-0.6848911,-0.7273826,-0.065560825,0.72455406,-0.6860927,,-0.07966836,0.29358134,-0.037067603,0.30936748,0.70550746,0.63761353,-0.8585306,-0.081113465,0.50630605,0.40892175,-0.70404536,0.58060586,,0.024526548,0.4875622,-0.2758995,0.6405473,0.6310347,-0.43760073,-0.52776664,0.775699,0.34605402,0.55781853,0.009287121,0.829911,,1.1723417412387775,0.38552654781416174,0.18765223669000003,-0.49822330571922985,0.4637442802039049,0.8103549826396668,-0.414077207650398,,-1.0298882106408322,0.25599314931479406,0.17099102132000002,1.4487478195345787,0.7208941727624638,0.6550645288166161,0.8531460574193405,,0.026284658535034606,0.02909900195387546,0.07078751784,-0.11578833687890082,,4.6737492e-05,1.0728836e-06,2.6226044e-06,1.0000001,-2.8669834e-05,-3.027916e-05,2.868101e-05,1.0,-2.7418137e-06,3.027916e-05,2.7418137e-06,0.99999994,201,0.613,1,1,0.226,False,-0.25731619372725945,1.026630172189264
0.6392714879475534,14:03:35.366063,14:02:08.383700,0,,0.12136253,0.008298308,0.027116716,-0.24783646,-0.74421906,-0.6202542,-0.25772962,-0.5665096,0.7827146,-0.93389106,0.35384303,-0.05140552,,0.02307421,0.0062693134,0.044166207,-0.5341131,-0.7032638,0.4691945,0.2786529,0.37752903,0.88307655,-0.7981703,0.6024053,-0.0056765676,,0.0579412,1.3372942,0.44648963,0.99692684,0.07710738,-0.013833231,0.042879883,-0.6848911,-0.7273826,-0.065560825,0.72455406,-0.6860927,,-0.07957169,0.29362333,-0.03708015,0.2997316,0.70874614,0.6386235,-0.859061,-0.09063988,0.50378424,0.41493988,-0.6996166,0.5816885,,0.024525361,0.48756245,-0.2758996,0.6405414,0.63107467,-0.43755177,-0.52776986,0.7756673,0.34612027,0.5578223,0.009222266,0.82990915,,1.1725425322935072,0.38517130210194744,0.18767038475000003,-0.5093368727239097,0.4698929226933497,0.8052594982331873,-0.4142405517165323,,-1.0298959333737063,0.25599314931479406,0.17099102132000002,1.4487478195345787,0.7208941727624638,0.6551462075567567,0.8526560252209376,,0.026284658535034606,0.02909900195387546,0.07078751784,-0.11578833687890082,,4.6737492e-05,1.0728836e-06,2.6226044e-06,1.0000001,-2.8669834e-05,-3.027916e-05,2.868101e-05,1.0,-2.7418137e-06,3.027916e-05,2.7418137e-06,0.99999994,214,0.654,1,1,0.267,False,-0.25731619372725945,1.026437051386146
0.6669416781514883,14:03:35.406923,14:02:08.383700,0,,0.121350706,0.008369878,0.027206063,-0.23244242,-0.7507486,-0.6183423,-0.24548188,-0.56988764,0.78419805,-0.9411212,0.33407262,-0.05182907,,0.023073643,0.0062735304,0.044163942,-0.53412086,-0.70330024,0.469131,0.27866057,0.37744364,0.88311064,-0.79816246,0.6024162,-0.0056183934,,0.0579412,1.3372942,0.44648963,0.99692684,0.07710738,-0.013833231,0.042879883,-0.6848911,-0.7273826,-0.065560825,0.72455406,-0.6860927,,-0.079563916,0.29373795,-0.03708694,0.285077,0.7164154,0.63677317,-0.85676664,-0.107398726,0.50439715,0.4297465,-0.689358,0.5831839,,0.024526343,0.48756242,-0.27589488,0.6405483,0.6311068,-0.43749526,-0.52775866,0.7756421,0.3461937,0.55782497,0.009138154,0.8299083,,1.172357186704526,0.38515585663619895,0.18772612522,-0.5252733084287334,0.48533284716684444,0.7956097097605519,-0.4139138635842635,,-1.0298882106408322,0.2560085947805425,0.17099491019000002,1.4487478195345787,0.7208941727624638,0.6552278862968972,0.8524926811548035,,0.026284658535034606,0.02909900195387546,0.07078751784,-0.11578833687890082,,4.6737492e-05,1.0728836e-06,2.6226044e-06,1.0000001,-2.8669834e-05,-3.027916e-05,2.868101e-05,1.0,-2.7418137e-06,3.027916e-05,2.7418137e-06,0.99999994,222,0.679,1,1,0.292,False,-0.2575545046013441,1.0268232929923817
0.7078087890986353,14:03:35.437032,14:02:08.383700,0,,0.12136803,0.008380011,0.027214691,-0.22954726,-0.751618,-0.6183677,-0.24180189,-0.5713748,0.78425926,-0.94278306,0.32954693,-0.05058509,,0.023074292,0.006274931,0.044161856,-0.53412086,-0.70330024,0.469131,0.27866057,0.37744364,0.88311064,-0.79816246,0.6024162,-0.0056183934,,0.0579412,1.3372942,0.44648963,0.99692684,0.07710738,-0.013833231,0.042879883,-0.6848911,-0.7273826,-0.065560825,0.72455406,-0.6860927,,-0.07958152,0.29375058,-0.037084144,0.28236866,0.717532,0.63672274,-0.85564166,-0.11173132,0.50536466,0.4337572,-0.6875056,0.5824008,,0.024526015,0.48756114,-0.27589265,0.6405483,0.6311068,-0.43749526,-0.52775866,0.7756421,0.3461937,0.55782497,0.009138154,0.8299083,,1.1721718411155446,0.3851404111704505,0.18774556957000002,-0.5279992776940323,0.48970521515933857,0.7948214140070455,-0.4129337991874579,,-1.0298882106408322,0.2560085947805425,0.17099750277,1.4487478195345787,0.7208941727624638,0.6552278862968972,0.8524926811548035,,0.026284658535034606,0.02909900195387546,0.07078751784,-0.11578833687890082,,4.6737492e-05,1.0728836e-06,2.6226044e-06,1.0000001,-2.8669834e-05,-3.027916e-05,2.868101e-05,1.0,-2.7418137e-06,3.027916e-05,2.7418137e-06,0.99999994,235,0.72,1,1,0.333,False,-0.25731619372725945,1.0270164137954993
0.7378734380472451,14:03:35.471784,14:02:08.383700,0,,0.12134367,0.008387268,0.027210236,-0.22043236,-0.75495267,-0.6176215,-0.23616889,-0.5730464,0.784756,-0.9463793,0.31884855,-0.05197835,,0.023077048,0.006278388,0.04415703,-0.53411436,-0.7033039,0.46913302,0.2786623,0.3774448,0.8831096,-0.7981663,0.6024112,-0.00561437,,0.0579412,1.3372942,0.44648963,0.99692684,0.07710738,-0.013833231,0.042879883,-0.6848911,-0.7273826,-0.065560825,0.72455406,-0.6860927,,-0.07955679,0.29375288,-0.037077148,0.27361497,0.72148705,0.6360749,-0.85485345,-0.12070213,0.5046351,0.44086328,-0.6818266,0.58373976,,0.024524007,0.48755816,-0.2758872,0.6405424,0.631111,-0.43749785,-0.5277619,0.77563864,0.3461966,0.5578287,0.009141086,0.82990575,,1.171878377266324,0.38487783825272687,0.18778575456000002,-0.5376450150943204,0.4973568591462032,0.7889904051007488,-0.4134238313858606,,-1.0298959333737063,0.2560085947805425,0.17100398422000002,1.4487478195345787,0.7208941727624638,0.6552278862968972,0.8524926811548035,,0.026284658535034606,0.02909900195387546,0.07078751784,-0.11578833687890082,,4.6737492e-05,1.0728836e-06,2.6226044e-06,1.0000001,-2.8669834e-05,-3.027916e-05,2.868101e-05,1.0,-2.7418137e-06,3.027916e-05,2.7418137e-06,0.99999994,243,0.744,1,1,0.357,False,-0.25791197091247,1.0268232929923817
0.7726716680917889,14:03:35.499798,14:02:08.383700,0,,0.12127716,0.008385479,0.027202502,-0.2120074,-0.7564093,-0.6187876,-0.2333866,-0.57567143,0.7836664,-0.9489908,0.31055975,-0.054489225,,0.023078695,0.0062783733,0.044152737,-0.53419995,-0.7030022,0.46948764,0.2789261,0.3776917,0.88292074,-0.7980168,0.60260856,-0.005677134,,0.0579412,1.3372942,0.44648963,0.99692684,0.07710738,-0.013833231,0.042879883,-0.6848911,-0.7273826,-0.065560825,0.72455406,-0.6860927,,-0.07948998,0.29374808,-0.037077136,0.2654286,0.72339875,0.63737106,-0.85521173,-0.12857579,0.5020768,0.44515225,-0.6783528,0.5845314,,0.024522927,0.48755413,-0.27588513,0.640616,0.6307941,-0.437847,-0.52750164,0.7758945,0.34601977,0.5579903,0.009299208,0.82979536,,1.171808872670456,0.384538038006261,0.18780908778000002,-0.547081062551124,0.5018658636384628,0.7850685780583453,-0.4142405517165323,,-1.0298959333737063,0.2560085947805425,0.17100787309,1.4491671994215478,0.7208941727624638,0.6551462075567567,0.8526560252209376,,0.026284658535034606,0.02909900195387546,0.07078751784,-0.11578833687890082,,4.6737492e-05,1.0728836e-06,2.6226044e-06,1.0000001,-2.8669834e-05,-3.027916e-05,2.868101e-05,1.0,-2.7418137e-06,3.027916e-05,2.7418137e-06,0.99999994,256,0.785,1,1,0.398,False,-0.2585077480976805,1.026726732590823
0.8006847349461168,14:03:35.539119,14:02:08.558203,0,,0.12118981,0.0083859265,0.027198762,-0.20239761,-0.7576038,-0.6205416,-0.23058483,-0.578973,0.78206193,-0.9517698,0.30137485,-0.057509124,,0.023080193,0.006280102,0.04414791,-0.53419924,-0.70303965,0.46943223,0.27892143,0.3776256,0.8829505,-0.7980188,0.60260636,-0.005634427,,0.0579412,1.3372942,0.44648963,0.99692684,0.07710738,-0.013833231,0.042879883,-0.6848911,-0.7273826,-0.065560825,0.72455406,-0.6860927,,-0.07940258,0.2937484,-0.037079316,0.25607073,0.72509015,0.63927466,-0.85571975,-0.13757613,0.49881515,0.44963488,-0.6747719,0.5852447,,0.024522126,0.48755047,-0.27588132,0.64061546,0.6308295,-0.43779665,-0.52750564,0.77586645,0.34607667,0.5579871,0.00923813,0.82979816,,1.171808872670456,0.3841519013625498,0.18783242100000003,-0.5579849396123193,0.5065115046304878,0.7809536543721046,-0.41424055171653207,,-1.0298959333737063,0.25600087204766825,0.17101305825000002,1.4491671994215478,0.7208941727624638,0.6552278862968972,0.8524926811548035,,0.026284658535034606,0.02909900195387546,0.07078751784,-0.11578833687890082,,4.6737492e-05,1.0728836e-06,2.6226044e-06,1.0000001,-2.8669834e-05,-3.027916e-05,2.868101e-05,1.0,-2.7418137e-06,3.027916e-05,2.7418137e-06,0.99999994,264,0.81,1,1,0.423,False,-0.2585077480976805,1.0265336117877049
0.8399894640315324,14:03:35.560299,14:02:08.558203,0,,0.12113834,0.00839594,0.027211964,-0.19593826,-0.7599486,-0.61974716,-0.22674516,-0.57975924,0.7826019,-0.95404136,0.29386622,-0.05871761,,0.023079991,0.00628113,0.044148564,-0.53419995,-0.70304054,0.46943024,0.2789261,0.37761956,0.8829516,-0.7980168,0.60260904,-0.0056278706,,0.0579412,1.3372942,0.44648963,0.99692684,0.07710738,-0.013833231,0.042879883,-0.6848911,-0.7273826,-0.065560825,0.72455406,-0.6860927,,-0.07935183,0.29376656,-0.03708357,0.24984698,0.7278786,0.63856816,-0.85505646,-0.14361401,0.4982504,0.45437312,-0.6704982,0.58649576,,0.02452227,0.48755154,-0.2758807,0.640616,0.6308299,-0.4377955,-0.52750164,0.77586627,0.34608316,0.5579903,0.009231432,0.8297961,,1.171808872670456,0.38392021937632304,0.18785316164000002,-0.5651143976907931,0.5115670551218091,0.776096083274072,-0.414730583914935,,-1.0298959333737063,0.2560085947805425,0.17101305825000002,1.4491671994215478,0.7208941727624638,0.6552278862968972,0.8524926811548035,,0.026284658535034606,0.02909900195387546,0.07078751784,-0.11578833687890082,,4.6737492e-05,1.0728836e-06,2.6226044e-06,1.0000001,-2.8669834e-05,-3.027916e-05,2.868101e-05,1.0,-2.7418137e-06,3.027916e-05,2.7418137e-06,0.99999994,277,0.851,1,1,0.464,False,-0.2583885926606384,1.0268715731931612
0.8611863709520549,14:03:35.606983,14:02:08.558203,0,,0.12101929,0.008416742,0.0272322,-0.18124318,-0.76445514,-0.61867553,-0.21844205,-0.5820854,0.7832366,-0.9588712,0.27710098,-0.061490178,,0.023080304,0.0062818304,0.04414755,-0.53419995,-0.70307887,0.46937278,0.2789261,0.37754747,0.8829824,-0.7980168,0.6026096,-0.0055786967,,0.0579412,1.3372942,0.44648963,0.99692684,0.07710738,-0.013833231,0.042879883,-0.6848911,-0.7273826,-0.065560825,0.72455406,-0.6860927,,-0.07923384,0.2937993,-0.037088323,0.23565786,0.7333652,0.637684,-0.85358447,-0.15749933,0.49657577,0.4646062,-0.66133916,0.5888732,,0.024522105,0.4875509,-0.2758796,0.640616,0.6308656,-0.43774396,-0.52750164,0.775838,0.34614652,0.5579903,0.009163655,0.82979685,,1.1717857044718334,0.38338735080800157,0.18790371695000002,-0.5814702132825861,0.5224979751030443,0.7657941123959686,-0.4145672398488006,,-1.0298959333737063,0.2560085947805425,0.17101435454000002,1.4491671994215478,0.7208941727624638,0.6553095650370377,0.8523293370886692,,0.026284658535034606,0.02909900195387546,0.07078751784,-0.11578833687890082,,4.6737492e-05,1.0728836e-06,2.6226044e-06,1.0000001,-2.8669834e-05,-3.027916e-05,2.868101e-05,1.0,-2.7418137e-06,3.027916e-05,2.7418137e-06,0.99999994,285,0.876,1,1,0.489,False,-0.2591631030014119,1.0265818919884844
0.9078703571576625,14:03:35.627271,14:02:08.558203,0,,0.12099192,0.008416921,0.027232662,-0.1759229,-0.76611656,-0.6181559,-0.2155458,-0.5827328,0.78355753,-0.96051604,0.27108654,-0.06261712,,0.02308011,0.0062829033,0.044148147,-0.53420055,-0.70307976,0.46937078,0.27893078,0.3775414,0.8829835,-0.79801476,0.6026123,-0.00557217,,0.0579412,1.3372942,0.44648963,0.99692684,0.07710738,-0.013833231,0.042879883,-0.6848911,-0.7273826,-0.065560825,0.72455406,-0.6860927,,-0.079206556,0.29380065,-0.037090056,0.23051202,0.735382,0.6372421,-0.85304755,-0.16235442,0.49593434,0.46816027,-0.65791667,0.5898912,,0.02452225,0.487552,-0.27587894,0.6406165,0.63086593,-0.43774277,-0.52749765,0.77583784,0.34615302,0.55799353,0.009156957,0.82979476,,1.17166986347872,0.38322517341764284,0.18792056872000001,-0.5873415317001528,0.5263237970964766,0.7619393024312038,-0.4153839601794723,,-1.0298959333737063,0.25601631751341675,0.17101435454000002,1.4491671994215478,0.7208941727624638,0.6553095650370377,0.8523293370886692,,0.026284658535034606,0.02909900195387546,0.07078751784,-0.11578833687890082,,4.6737492e-05,1.0728836e-06,2.6226044e-06,1.0000001,-2.8669834e-05,-3.027916e-05,2.868101e-05,1.0,-2.7418137e-06,3.027916e-05,2.7418137e-06,0.99999994,298,0.917,1,1,0.53,False,-0.25791197091247,1.0263887711853665
0.9281382630579174,14:03:35.669096,14:02:08.558203,0,,0.12092043,0.008417681,0.027236328,-0.15821643,-0.7693936,-0.61887085,-0.20943558,-0.58635473,0.78251183,-0.96493745,0.2534197,-0.06836742,,0.02308043,0.0062835887,0.044147074,-0.53420055,-0.70307976,0.46937078,0.27893078,0.3775414,0.8829835,-0.79801476,0.6026123,-0.00557217,,0.0579412,1.3372942,0.44648963,0.99692684,0.07710738,-0.013833231,0.042879883,-0.6848911,-0.7273826,-0.065560825,0.72455406,-0.6860927,,-0.079135425,0.2938062,-0.037095997,0.21324639,0.7396703,0.63828975,-0.85283107,-0.17781469,0.4909798,0.47666046,-0.649053,0.59289545,,0.024522087,0.48755133,-0.27587783,0.6406165,0.63086593,-0.43774277,-0.52749765,0.77583784,0.34615302,0.55799353,0.009156957,0.82979476,,1.171299172300757,0.3829317095684223,0.18795816113000002,-0.6072620763311826,0.5350685330814648,0.7515414069890103,-0.4153839601794722,,-1.0298959333737063,0.25601631751341675,0.17101565083,1.4491671994215478,0.7208941727624638,0.6553095650370377,0.8523293370886692,,0.026284658535034606,0.02909900195387546,0.07078751784,-0.11578833687890082,,4.6737492e-05,1.0728836e-06,2.6226044e-06,1.0000001,-2.8669834e-05,-3.027916e-05,2.868101e-05,1.0,-2.7418137e-06,3.027916e-05,2.7418137e-06,0.99999994,306,0.941,1,1,0.554,False,-0.259580147031059,1.026340490984587
0.9699482719879597,14:03:35.691544,14:02:08.558203,0,,0.120887056,0.008418128,0.027244419,-0.14985889,-0.77146965,-0.6183665,-0.20633218,-0.58725595,0.78266037,-0.9669381,0.24487746,-0.07117349,,0.023080625,0.0062825605,0.04414642,-0.53419995,-0.70307887,0.46937278,0.2789261,0.37754747,0.8829824,-0.7980168,0.6026096,-0.0055786967,,0.0579412,1.3372942,0.44648963,0.99692684,0.07710738,-0.013833231,0.042879883,-0.6848911,-0.7273826,-0.065560825,0.72455406,-0.6860927,,-0.07910261,0.2938136,-0.037102956,0.20509622,0.7422521,0.6379634,-0.8525183,-0.18470722,0.48897415,0.48077857,-0.64416224,0.5949008,,0.024521941,0.48755026,-0.27587846,0.640616,0.6308656,-0.43774396,-0.52750164,0.775838,0.34614652,0.5579903,0.009163655,0.82979685,,1.1711369949103985,0.38281586857530897,0.18797242032000003,-0.6166981237879862,0.5393042645741934,0.745555411030064,-0.41522061611333805,,-1.0298959333737063,0.2560085947805425,0.17101565083,1.4491671994215478,0.7208941727624638,0.6553095650370377,0.8523293370886692,,0.026284658535034606,0.02909900195387546,0.07078751784,-0.11578833687890082,,4.6737492e-05,1.0728836e-06,2.6226044e-06,1.0000001,-2.8669834e-05,-3.027916e-05,2.868101e-05,1.0,-2.7418137e-06,3.027916e-05,2.7418137e-06,0.99999994,319,0.982,1,1,0.595,False,-0.2589843698458485,1.026437051386146
0.992428275058046,14:03:35.729480,14:02:08.727985,0,,0.12084946,0.008386031,0.027246043,-0.13358596,-0.7739006,-0.619058,-0.20244625,-0.59017485,0.78147876,-0.9701393,0.22972047,-0.07783419,,0.023108274,0.006273303,0.044153094,-0.5342081,-0.7030998,0.46933198,0.27889848,0.37751722,0.8830042,-0.79802096,0.6026039,-0.005579293,,0.057905547,1.337297,0.44649726,0.9969249,0.0771389,-0.013799751,0.04292577,-0.6848876,-0.72738326,-0.065560825,0.72455406,-0.6860927,,-0.079037994,0.29379135,-0.037125163,0.18914922,0.7455829,0.639006,-0.85282683,-0.19783214,0.48326895,0.486733,-0.63637143,0.5984333,,0.024523128,0.48755002,-0.27587837,0.6406219,0.6308614,-0.43774137,-0.5274984,0.7758415,0.3461436,0.55798656,0.009160725,0.8297994,,1.1708666992598007,0.38257646385620797,0.18799964241000003,-0.6353605287581089,0.5451796340641073,0.7355370018021218,-0.4145672398488005,,-1.0298882106408322,0.2560085947805425,0.17101565083,1.4491671994215478,0.7208941727624638,0.6553095650370377,0.8523293370886692,,0.026284658535034606,0.02909900195387546,0.07078751784,-0.11578833687890082,,1.0810792e-05,1.9073486e-06,-4.053116e-06,1.0000001,2.9057264e-06,3.0696392e-06,-2.9057264e-06,1.0,2.9802322e-07,-3.0733645e-06,-2.682209e-07,1.0,332,1.023,1,1,0.636,False,-0.2587460589717643,1.0263887711853665
1.0303684941027313,14:03:35.771329,14:02:08.727985,0,,0.120772414,0.0084023625,0.027253717,-0.12430275,-0.77756566,-0.61639327,-0.19498172,-0.58995765,0.7835381,-0.9728982,0.21758127,-0.07827768,,0.023095533,0.0062620826,0.044137657,-0.5342171,-0.7030957,0.46932796,0.27891546,0.3774994,0.8830064,-0.79800904,0.60262,-0.005562365,,0.057905547,1.337297,0.44649726,0.9969249,0.0771389,-0.013799751,0.04292577,-0.6848876,-0.72738326,-0.065560825,0.72455406,-0.6860927,,-0.07896124,0.29381046,-0.037122488,0.180214,0.74999684,0.63641787,-0.8501993,-0.20660466,0.4842269,0.49465555,-0.62834644,0.6004137,,0.024537412,0.48753256,-0.2758826,0.64062977,0.6308547,-0.4377395,-0.5274793,0.7758472,0.34616002,0.5579956,0.00913809,0.8297936,,1.1707817491981842,0.38220577267824524,0.18804760514000002,-0.645845025932335,0.5539243700490956,0.7265276449423179,-0.4153839601794721,,-1.0299036561065806,0.25601631751341675,0.17101694712,1.4491671994215478,0.7208941727624638,0.6553095650370377,0.8523293370886692,,0.026284658535034606,0.02909900195387546,0.07078751784,-0.11578833687890082,,1.0810792e-05,1.9073486e-06,-4.053116e-06,1.0000001,2.9057264e-06,3.0696392e-06,-2.9057264e-06,1.0,2.9802322e-07,-3.0733645e-06,-2.682209e-07,1.0,345,1.064,1,1,0.677,False,-0.2587460589717643,1.0263887711853665
1.072214717976749,14:03:35.819018,14:02:08.727985,0,,0.12062212,0.008407995,0.027247071,-0.10997158,-0.7809497,-0.6148366,-0.1880596,-0.59106624,0.7843942,-0.9759815,0.20188689,-0.081864595,,0.023095533,0.0062620826,0.044137657,-0.5342171,-0.703134,0.4692705,0.27891546,0.37742728,0.8830373,-0.79800904,0.60262036,-0.0055131316,,0.057905547,1.337297,0.44649726,0.9969249,0.0771389,-0.013799751,0.04292577,-0.6848876,-0.72738326,-0.065560825,0.72455406,-0.6860927,,-0.078810744,0.2938141,-0.03712245,0.16625032,0.7543227,0.6351048,-0.84833723,-0.21891667,0.4820782,0.50267756,-0.6189287,0.6035251,,0.024537412,0.48753256,-0.2758826,0.64062977,0.6308904,-0.43768793,-0.5274793,0.7758189,0.34622338,0.5579956,0.009070314,0.82979435,,1.1707894719310583,0.38159567678118145,0.18809816045000002,-0.662620221411097,0.5625324695343182,0.7148526288214314,-0.4162006805101436,,-1.0299036561065806,0.25601631751341675,0.17101694712,1.4491671994215478,0.7208941727624638,0.6553912437771784,0.8521659930225348,,0.026284658535034606,0.02909900195387546,0.07078751784,-0.11578833687890082,,1.0810792e-05,1.9073486e-06,-4.053116e-06,1.0000001,2.9057264e-06,3.0696392e-06,-2.9057264e-06,1.0,2.9802322e-07,-3.0733645e-06,-2.682209e-07,1.0,354,1.093,1,1,0.706,False,-0.25952056931253775,1.026726732590823
1.1199002771172673,14:03:35.843530,14:02:08.727985,0,,0.12052267,0.008403823,0.02723062,-0.10134668,-0.78198516,-0.6150027,-0.18541524,-0.5925072,0.7839365,-0.9774201,0.19348012,-0.084943265,,0.023093246,0.0062620677,0.04413688,-0.5342301,-0.70312685,0.46926644,0.27891192,0.3774249,0.8830394,-0.7980015,0.6026302,-0.005521238,,0.057905547,1.337297,0.44649726,0.9969249,0.0771389,-0.013799751,0.04292577,-0.6848876,-0.72738326,-0.065560825,0.72455406,-0.6860927,,-0.07871058,0.29380226,-0.037120283,0.15778872,0.7558465,0.6354516,-0.84792125,-0.22610177,0.47948676,0.5060951,-0.61447054,0.605222,,0.024539784,0.48753208,-0.27588242,0.64064157,0.630882,-0.4376828,-0.5274729,0.7758258,0.34621757,0.55798805,0.009064453,0.8297995,,1.170812640129681,0.381201817404596,0.18812408625000002,-0.6728950286418387,0.5660850185282198,0.7089336499401234,-0.4165273686424119,,-1.0298882106408322,0.25601631751341675,0.17101694712,1.4491671994215478,0.7208941727624638,0.6553912437771784,0.8521659930225348,,0.026284658535034606,0.02909900195387546,0.07078751784,-0.11578833687890082,,1.0810792e-05,1.9073486e-06,-4.053116e-06,1.0000001,2.9057264e-06,3.0696392e-06,-2.9057264e-06,1.0,2.9802322e-07,-3.0733645e-06,-2.682209e-07,1.0,367,1.134,1,1,0.747,False,-0.2594014138754961,1.0260508097799104
1.1443618331104517,14:03:35.889206,14:02:08.881657,0,,0.12043768,0.008413523,0.027225554,-0.094197445,-0.7837312,-0.6139157,-0.17968366,-0.5931465,0.78478724,-0.97920406,0.18423548,-0.084950775,,0.023094185,0.006263111,0.044137955,-0.5342242,-0.703093,0.46932387,0.27891833,0.3774922,0.8830086,-0.7980032,0.60262764,-0.0055598915,,0.057905547,1.337297,0.44649726,0.9969249,0.0771389,-0.013799751,0.04292577,-0.6848876,-0.72738326,-0.065560825,0.72455406,-0.6860927,,-0.078625254,0.2938077,-0.03711454,0.15088601,0.7581482,0.63438535,-0.8456555,-0.2333529,0.48001373,0.51195717,-0.6088988,0.6059225,,0.024538742,0.4875334,-0.2758819,0.64063615,0.6308508,-0.4377357,-0.52747214,0.7758505,0.3461636,0.557995,0.009128462,0.82979405,,1.1708049173968067,0.3808079580280106,0.18816686382000003,-0.6812826263812196,0.5726435705169609,0.7028504819014303,-0.4162006805101436,,-1.0298959333737063,0.25602404024629094,0.17101694712,1.4491671994215478,0.7208941727624638,0.6553095650370377,0.8523293370886692,,0.026284658535034606,0.02909900195387546,0.07078751784,-0.11578833687890082,,1.0810792e-05,1.9073486e-06,-4.053116e-06,1.0000001,2.9057264e-06,3.0696392e-06,-2.9057264e-06,1.0,2.9802322e-07,-3.0733645e-06,-2.682209e-07,1.0,376,1.162,1,1,0.775,False,-0.25922268071993226,1.0265818919884844
1.1900746901519597,14:03:35.917512,14:02:08.881657,0,,0.1203874,0.008441165,0.027240291,-0.08578391,-0.7838377,-0.6150121,-0.17508632,-0.5958209,0.7837999,-0.98080873,0.17491752,-0.08612734,,0.023093246,0.0062620677,0.04413688,-0.5342301,-0.7030885,0.46932387,0.27891192,0.37749705,0.88300854,-0.7980015,0.6026298,-0.0055704415,,0.057905547,1.337297,0.44649726,0.9969249,0.0771389,-0.013799751,0.04292577,-0.6848876,-0.72738326,-0.065560825,0.72455406,-0.6860927,,-0.0785754,0.2938387,-0.037106603,0.14268674,0.7587754,0.63553154,-0.84405357,-0.24206884,0.4785146,0.5169275,-0.6047004,0.6059071,,0.024539784,0.48753208,-0.27588242,0.64064157,0.63084626,-0.43773434,-0.5274729,0.7758541,0.3461542,0.55798805,0.00913223,0.8297987,,1.1707663037324356,0.3807307306992683,0.18820315994000003,-0.6911380537249923,0.5778357575080477,0.6986982803011068,-0.41636402457627775,,-1.0298882106408322,0.25601631751341675,0.17101694712,1.4491671994215478,0.7208941727624638,0.6553095650370377,0.8523293370886692,,0.026284658535034606,0.02909900195387546,0.07078751784,-0.11578833687890082,,1.0810792e-05,1.9073486e-06,-4.053116e-06,1.0000001,2.9057264e-06,3.0696392e-06,-2.9057264e-06,1.0,2.9802322e-07,-3.0733645e-06,-2.682209e-07,1.0,389,1.203,1,1,0.816,False,-0.259580147031059,1.0261473701814692
1.2183978219982237,14:03:35.957188,14:02:08.881657,0,,0.120369144,0.008475319,0.027248159,-0.07763996,-0.7858451,-0.6135306,-0.17065969,-0.59582955,0.78476894,-0.9822664,0.1656343,-0.08785188,,0.023093246,0.0062620677,0.04413688,-0.5342301,-0.7030885,0.46932387,0.27891192,0.37749705,0.88300854,-0.7980015,0.6026298,-0.0055704415,,0.057905547,1.337297,0.44649726,0.9969249,0.0771389,-0.013799751,0.04292577,-0.6848876,-0.72738326,-0.065560825,0.72455406,-0.6860927,,-0.078556955,0.29386795,-0.037087455,0.13474375,0.7613536,0.6341804,-0.8424474,-0.24891962,0.47782987,0.52165747,-0.59864825,0.60785997,,0.024539784,0.48753208,-0.27588242,0.64064157,0.63084626,-0.43773434,-0.5274729,0.7758541,0.3461542,0.55798805,0.00913223,0.8297987,,1.170604126342077,0.3807847898293879,0.18824723380000002,-0.7005741011817959,0.5827546714996036,0.6915834436426942,-0.41636402457627775,,-1.0298882106408322,0.25601631751341675,0.17101694712,1.4491671994215478,0.7208941727624638,0.6553095650370377,0.8523293370886692,,0.026284658535034606,0.02909900195387546,0.07078751784,-0.11578833687890082,,1.0810792e-05,1.9073486e-06,-4.053116e-06,1.0000001,2.9057264e-06,3.0696392e-06,-2.9057264e-06,1.0,2.9802322e-07,-3.0733645e-06,-2.682209e-07,1.0,402,1.244,1,1,0.857,False,-0.25856732581620134,1.0263887711853665
1.2580696251243353,14:03:35.992775,14:02:08.881657,0,,0.12036035,0.008501068,0.027261093,-0.07115053,-0.7872443,-0.6125228,-0.16754383,-0.59592193,0.78537,-0.9832938,0.15850386,-0.089497745,,0.023093246,0.0062620677,0.04413688,-0.5342301,-0.7030885,0.46932387,0.27891192,0.37749705,0.88300854,-0.7980015,0.6026298,-0.0055704415,,0.057905547,1.337297,0.44649726,0.9969249,0.0771389,-0.013799751,0.04292577,-0.6848876,-0.72738326,-0.065560825,0.72455406,-0.6860927,,-0.07854844,0.29389504,-0.037077367,0.12839748,0.76318973,0.63328946,-0.84134215,-0.25424346,0.47697335,0.5250309,-0.5940553,0.60945946,,0.024539784,0.48753208,-0.27588242,0.64064157,0.63084626,-0.43773434,-0.5274729,0.7758541,0.3461542,0.55798805,0.00913223,0.8297987,,1.1704805626160895,0.3808851853567528,0.18827445589000003,-0.7081229391472387,0.5861705839937394,0.6861025976256452,-0.41587399237787515,,-1.0298882106408322,0.25601631751341675,0.17101694712,1.4491671994215478,0.7208941727624638,0.6553095650370377,0.851675960824132,,0.026284658535034606,0.02909900195387546,0.07078751784,-0.11578833687890082,,1.0810792e-05,1.9073486e-06,-4.053116e-06,1.0000001,2.9057264e-06,3.0696392e-06,-2.9057264e-06,1.0,2.9802322e-07,-3.0733645e-06,-2.682209e-07,1.0,411,1.273,1,1,0.886,False,-0.2594014138754961,1.026775012791602
1.2936060989741236,14:03:36.022345,14:02:08.881657,0,,0.12034497,0.008520067,0.027267843,-0.0641354,-0.7874937,-0.6129768,-0.16355702,-0.59764075,0.78490424,-0.98444694,0.15059674,-0.090470135,,0.023094386,0.0062620677,0.0441373,-0.5342236,-0.7030154,0.46944076,0.27891368,0.37764245,0.8829458,-0.79800534,0.6026239,-0.005664885,,0.057905547,1.337297,0.44649726,0.9969249,0.0771389,-0.013799751,0.04292577,-0.6848876,-0.72738326,-0.065560825,0.72455406,-0.6860927,,-0.078533106,0.29391322,-0.037068594,0.12155278,0.7638923,0.63379294,-0.83976644,-0.26126724,0.47595352,0.5291666,-0.5900915,0.60973334,,0.024538599,0.48753232,-0.2758825,0.64063567,0.63077897,-0.43783996,-0.52747613,0.77590716,0.34603035,0.55799186,0.009270713,0.82979465,,1.1703029397599822,0.3809083535553755,0.18830556685000002,-0.7163008469431352,0.5905429519862336,0.6821288310066569,-0.4157106483117404,,-1.0298959333737063,0.25601631751341675,0.17101694712,1.4491671994215478,0.7208941727624638,0.6551462075567567,0.8520026489564007,,0.026284658535034606,0.02909900195387546,0.07078751784,-0.11578833687890082,,1.0810792e-05,1.9073486e-06,-4.053116e-06,1.0000001,2.9057264e-06,3.0696392e-06,-2.9057264e-06,1.0,2.9802322e-07,-3.0733645e-06,-2.682209e-07,1.0,424,1.314,1,1,0.927,False,-0.26005676877922745,1.026340490984587
1.3231988451443613,14:03:36.070629,14:02:09.060628,0,,0.12031206,0.008522809,0.027291268,-0.04965201,-0.7886092,-0.61288697,-0.15529767,-0.6000844,0.78471726,-0.9866191,0.1341427,-0.09267378,,0.023093045,0.0062631406,0.044137537,-0.53423077,-0.7030127,0.46943668,0.2789166,0.3776352,0.882948,-0.7979995,0.6026316,-0.0056623816,,0.057905547,1.337297,0.44649726,0.9969249,0.0771389,-0.013799751,0.04292577,-0.6848876,-0.72738326,-0.065560825,0.72455406,-0.6860927,,-0.078501664,0.29393354,-0.037084,0.10740891,0.7659735,0.6338359,-0.8363392,-0.2751083,0.47418576,0.5375873,-0.5810336,0.61106455,,0.024539929,0.48753315,-0.2758818,0.6406421,0.6307751,-0.4378362,-0.5274689,0.77591044,0.34603393,0.55799127,0.009261085,0.8297951,,1.1698627439861513,0.38089290808962706,0.18833667781000002,-0.7332857323653816,0.5995609609707527,0.6724882446387572,-0.4160373364440093,,-1.0298882106408322,0.25602404024629094,0.17101694712,1.4491671994215478,0.7208941727624638,0.6551462075567567,0.8520026489564007,,0.026284658535034606,0.02909900195387546,0.07078751784,-0.11578833687890082,,1.0810792e-05,1.9073486e-06,-4.053116e-06,1.0000001,2.9057264e-06,3.0696392e-06,-2.9057264e-06,1.0,2.9802322e-07,-3.0733645e-06,-2.682209e-07,1.0,433,1.343,1,1,0.956,False,-0.2594014138754961,1.0271129741970584
1.3715146081522107,14:03:36.103124,14:02:09.060628,0,,0.12031148,0.008517712,0.027299702,-0.04246369,-0.7901994,-0.61137706,-0.15061432,-0.5998728,0.7857913,-0.9876802,0.12544969,-0.09354249,,0.023093246,0.0062620677,0.04413688,-0.5342301,-0.70305014,0.46938127,0.27891192,0.37756914,0.8829777,-0.7980015,0.60262936,-0.0056197047,,0.057905547,1.337297,0.44649726,0.9969249,0.0771389,-0.013799751,0.04292577,-0.6848876,-0.72738326,-0.065560825,0.72455406,-0.6860927,,-0.078501716,0.29393643,-0.037093446,0.10040035,0.76810336,0.6324057,-0.83423585,-0.2813862,0.47420707,0.5421903,-0.5751861,0.6125281,,0.024539784,0.48753208,-0.27588242,0.64064157,0.6308105,-0.43778586,-0.5274729,0.77588236,0.34609082,0.55798805,0.009200006,0.829798,,1.1695306664725598,0.3809083535553755,0.18835223329000003,-0.7416733301047627,0.604616511462074,0.6659154199977729,-0.4160373364440094,,-1.0298882106408322,0.25601631751341675,0.17101694712,1.4491671994215478,0.7208941727624638,0.6552278862968972,0.8521659930225348,,0.026284658535034606,0.02909900195387546,0.07078751784,-0.11578833687890082,,1.0810792e-05,1.9073486e-06,-4.053116e-06,1.0000001,2.9057264e-06,3.0696392e-06,-2.9057264e-06,1.0,2.9802322e-07,-3.0733645e-06,-2.682209e-07,1.0,442,1.371,1,1,0.984,False,-0.25963972474957986,1.026340490984587
1.4040071091149002,14:03:36.125131,14:02:09.060628,0,,0.12030558,0.008522242,0.027318895,-0.034815595,-0.79118603,-0.6105839,-0.14464504,-0.6005322,0.78640884,-0.9888709,0.115697145,-0.09353319,,0.023093246,0.0062620677,0.04413688,-0.5342301,-0.7030885,0.46932387,0.27891192,0.37749705,0.88300854,-0.7980015,0.6026298,-0.0055704415,,0.057905547,1.337297,0.44649726,0.9969249,0.0771389,-0.013799751,0.04292577,-0.6848876,-0.72738326,-0.065560825,0.72455406,-0.6860927,,-0.07849693,0.29395393,-0.037103165,0.0929681,0.7696783,0.63162667,-0.831386,-0.28905314,0.47460046,0.54786336,-0.56924826,0.61302704,,0.024539784,0.48753208,-0.27588242,0.64064157,0.63084626,-0.43773434,-0.5274729,0.7758541,0.3461542,0.55798805,0.00913223,0.8297987,,1.169229479890465,0.3809392444868724,0.18837427022000003,-0.7506899976745972,0.6109017904512842,0.6598917302861913,-0.416527368642412,,-1.0298882106408322,0.25601631751341675,0.17101694712,1.4491671994215478,0.7208941727624638,0.6553095650370377,0.8523293370886692,,0.026284658535034606,0.02909900195387546,0.07078751784,-0.11578833687890082,,1.0810792e-05,1.9073486e-06,-4.053116e-06,1.0000001,2.9057264e-06,3.0696392e-06,-2.9057264e-06,1.0,2.9802322e-07,-3.0733645e-06,-2.682209e-07,1.0,451,1.4,1,1,1.013,False,-0.25868648125324345,1.026726732590823
1.4259896280709654,14:03:36.145104,14:02:09.060628,0,,0.12030479,0.008523911,0.02731581,-0.031086478,-0.7909595,-0.61107844,-0.14260006,-0.6016101,0.7859583,-0.989292,0.111572444,-0.09408885,,0.023093246,0.0062620677,0.04413688,-0.5342301,-0.7030885,0.46932387,0.27891192,0.37749705,0.88300854,-0.7980015,0.6026298,-0.0055704415,,0.057905547,1.337297,0.44649726,0.9969249,0.0771389,-0.013799751,0.04292577,-0.6848876,-0.72738326,-0.065560825,0.72455406,-0.6860927,,-0.07849591,0.29395276,-0.037099924,0.08931612,0.76968515,0.6321451,-0.8304552,-0.2928495,0.47390223,0.5498789,-0.5672953,0.6130328,,0.024539784,0.48753208,-0.27588242,0.64064157,0.63084626,-0.43773434,-0.5274729,0.7758541,0.3461542,0.55798805,0.00913223,0.8297987,,1.169059579767232,0.38095468995262083,0.18838852941,-0.7550934864877722,0.6130879744475313,0.6580273650869081,-0.41636402457627786,,-1.0298882106408322,0.25601631751341675,0.17101694712,1.4491671994215478,0.7208941727624638,0.6553095650370377,0.8523293370886692,,0.026284658535034606,0.02909900195387546,0.07078751784,-0.11578833687890082,,1.0810792e-05,1.9073486e-06,-4.053116e-06,1.0000001,2.9057264e-06,3.0696392e-06,-2.9057264e-06,1.0,2.9802322e-07,-3.0733645e-06,-2.682209e-07,1.0,460,1.429,1,1,1.042,False,-0.25922268071993226,1.0262922107838077
1.4459671541117132,14:03:36.179457,14:02:09.060628,0,,0.1202629,0.00853686,0.027343914,-0.022119489,-0.79051393,-0.6120447,-0.13674411,-0.60404867,0.78512824,-0.9903594,0.10106012,-0.094736874,,0.023094185,0.006263111,0.044137955,-0.5342242,-0.703093,0.46932387,0.27891833,0.3774922,0.8830086,-0.7980032,0.60262764,-0.0055598915,,0.057905547,1.337297,0.44649726,0.9969249,0.0771389,-0.013799751,0.04292577,-0.6848876,-0.72738326,-0.065560825,0.72455406,-0.6860927,,-0.07845558,0.29398367,-0.037111346,0.08055778,0.7698405,0.6331319,-0.82763153,-0.30231482,0.47289726,0.55546063,-0.5620955,0.61279047,,0.024538742,0.4875334,-0.2758819,0.64063615,0.6308508,-0.4377357,-0.52747214,0.7758505,0.3461636,0.557995,0.009128462,0.82979405,,1.1689282933083702,0.38094696721974664,0.18841056634000003,-0.7659973635489675,0.6190999804372107,0.6529616198439843,-0.4160373364440093,,-1.0298959333737063,0.25602404024629094,0.17101694712,1.4491671994215478,0.7208941727624638,0.6553095650370377,0.8523293370886692,,0.026284658535034606,0.02909900195387546,0.07078751784,-0.11578833687890082,,1.0810792e-05,1.9073486e-06,-4.053116e-06,1.0000001,2.9057264e-06,3.0696392e-06,-2.9057264e-06,1.0,2.9802322e-07,-3.0733645e-06,-2.682209e-07,1.0,474,1.474,1,1,1.087,False,-0.2589843698458485,1.026775012791602
1.4803298090118915,14:03:36.223260,14:02:09.212273,0,,0.120197296,0.008569464,0.027393669,-0.011803124,-0.79091865,-0.61180764,-0.12816831,-0.60560656,0.78537476,-0.9916822,0.087684155,-0.094222665,,0.023094185,0.006263111,0.044137955,-0.5342242,-0.70316964,0.46920902,0.27891833,0.37734792,0.88307023,-0.7980032,0.6026286,-0.0054614544,,0.057905547,1.337297,0.44649726,0.9969249,0.0771389,-0.013799751,0.04292577,-0.6848876,-0.72738326,-0.065560825,0.72455406,-0.6860927,,-0.07839251,0.29404455,-0.0371239,0.070526026,0.7710404,0.6328687,-0.823227,-0.31329677,0.47343686,0.5633147,-0.55438423,0.6126457,,0.024538742,0.4875334,-0.2758819,0.64063615,0.6309223,-0.43763265,-0.52747214,0.7757939,0.34629032,0.557995,0.008992908,0.82979554,,1.1688974023768732,0.3809315217539982,0.18844686246000003,-0.7787884501015235,0.6277080799224334,0.6452071832498447,-0.4158739923778749,,-1.0298959333737063,0.25602404024629094,0.17101694712,1.4491671994215478,0.7208941727624638,0.655472922517319,0.8520026489564005,,0.026284658535034606,0.02909900195387546,0.07078751784,-0.11578833687890082,,1.0810792e-05,1.9073486e-06,-4.053116e-06,1.0000001,2.9057264e-06,3.0696392e-06,-2.9057264e-06,1.0,2.9802322e-07,-3.0733645e-06,-2.682209e-07,1.0,483,1.502,1,1,1.115,False,-0.2591631030014119,1.026437051386146
1.524134417064488,14:03:36.257758,14:02:09.212273,0,,0.120102964,0.008603811,0.027425036,0.0017818753,-0.79024136,-0.6127933,-0.12169024,-0.6084113,0.78423667,-0.99256647,0.07317349,-0.09724876,,0.023094535,0.006262053,0.04413736,-0.53426695,-0.703038,0.4693576,0.2790503,0.37743533,0.8829912,-0.79792845,0.6027275,-0.0054682493,,0.057905547,1.337297,0.44649726,0.9969249,0.0771389,-0.013799751,0.04292577,-0.6848876,-0.72738326,-0.065560825,0.72455406,-0.6860927,,-0.078299604,0.29409385,-0.037124556,0.057161327,0.7712046,0.6340158,-0.8200005,-0.3259898,0.470457,0.5695013,-0.54678524,0.61375415,,0.024538448,0.48753235,-0.27588254,0.6406729,0.6307817,-0.43778148,-0.52734196,0.7759077,0.34623358,0.55807585,0.009038067,0.8297407,,1.1689128478426218,0.38092379902112394,0.18848575116000002,-0.7957733355237698,0.6339933589116437,0.636406416373484,-0.41571064831174065,,-1.0298959333737063,0.25602404024629094,0.17101694712,1.4493768893650323,0.7208941727624638,0.655472922517319,0.8520026489564005,,0.026284658535034606,0.02909900195387546,0.07078751784,-0.11578833687890082,,1.0810792e-05,1.9073486e-06,-4.053116e-06,1.0000001,2.9057264e-06,3.0696392e-06,-2.9057264e-06,1.0,2.9802322e-07,-3.0733645e-06,-2.682209e-07,1.0,497,1.547,1,1,1.16,False,-0.25922268071993226,1.0265336117877049
1.5586217059753835,14:03:36.303482,14:02:09.212273,0,,0.12002841,0.008621246,0.027473733,0.01341485,-0.7904966,-0.61231965,-0.11471015,-0.60954833,0.7844057,-0.99330837,0.059716523,-0.09885493,,0.023094535,0.006262053,0.04413736,-0.53426695,-0.703038,0.4693576,0.2790503,0.37743533,0.8829912,-0.79792845,0.6027275,-0.0054682493,,0.057905547,1.337297,0.44649726,0.9969249,0.0771389,-0.013799751,0.04292577,-0.6848876,-0.72738326,-0.065560825,0.72455406,-0.6860927,,-0.078227855,0.29414412,-0.037148196,0.04574621,0.7722692,0.6336463,-0.8162704,-0.3367561,0.46935907,0.5758558,-0.53869814,0.61497515,,0.024538448,0.48753235,-0.27588254,0.6406729,0.6307817,-0.43778148,-0.52734196,0.7759077,0.34623358,0.55807585,0.009038067,0.8297407,,1.1688896796439991,0.38094696721974664,0.18850260293,-0.8104516315676866,0.6406885474001502,0.6271080383057529,-0.4148939279810694,,-1.0298959333737063,0.25602404024629094,0.17101694712,1.4493768893650323,0.7208941727624638,0.655472922517319,0.8520026489564005,,0.026284658535034606,0.02909900195387546,0.07078751784,-0.11578833687890082,,1.0810792e-05,1.9073486e-06,-4.053116e-06,1.0000001,2.9057264e-06,3.0696392e-06,-2.9057264e-06,1.0,2.9802322e-07,-3.0733645e-06,-2.682209e-07,1.0,520,1.621,1,1,1.234,False,-0.2587460589717643,1.0266784523900434
1.604368255008012,14:03:36.373763,14:02:09.347765,0,,0.11995086,0.0086167455,0.027508736,0.028197417,-0.79197466,-0.6099027,-0.106811225,-0.6090391,0.78591526,-0.9938794,0.04298362,-0.10176507,,0.023092628,0.0062599964,0.044135213,-0.53427875,-0.7029524,0.4694724,0.27903742,0.3775893,0.8829295,-0.7979251,0.6027308,-0.005587876,,0.057905547,1.337297,0.44649726,0.9969249,0.0771389,-0.013799751,0.04292577,-0.6848876,-0.72738326,-0.065560825,0.72455406,-0.6860927,,-0.078152746,0.29416966,-0.03717925,0.031197004,0.7747916,0.63144654,-0.8119014,-0.34882322,0.4681223,0.5829604,-0.52727634,0.61817217,,0.024540532,0.48752975,-0.27588362,0.64068377,0.6307011,-0.43788174,-0.52734363,0.77597153,0.34608805,0.5580619,0.00918115,0.8297486,,1.1686579976577725,0.3809392444868724,0.18851686212000002,-0.8291140365378092,0.6482035548872495,0.6129755370686745,-0.4152206161133377,,-1.029880487907958,0.2560085947805425,0.17101694712,1.4493768893650323,0.7208941727624638,0.6553095650370377,0.8520026489564004,,0.026284658535034606,0.02909900195387546,0.07078751784,-0.11578833687890082,,1.0810792e-05,1.9073486e-06,-4.053116e-06,1.0000001,2.9057264e-06,3.0696392e-06,-2.9057264e-06,1.0,2.9802322e-07,-3.0733645e-06,-2.682209e-07,1.0,534,1.665,1,1,1.278,False,-0.25880563669028556,1.026340490984587
1.6746400520205498,14:03:36.426338,14:02:09.347765,0,,0.11991435,0.008627683,0.027535751,0.03534713,-0.79240805,-0.6089666,-0.10068357,-0.60907066,0.7866993,-0.99429035,0.03350532,-0.101311326,,0.023092628,0.0062599964,0.044135213,-0.53427875,-0.702914,0.4695298,0.27903742,0.3776614,0.8828987,-0.7979251,0.6027304,-0.0056370795,,0.057905547,1.337297,0.44649726,0.9969249,0.0771389,-0.013799751,0.04292577,-0.6848876,-0.72738326,-0.065560825,0.72455406,-0.6860927,,-0.07811776,0.29419824,-0.03719116,0.024217092,0.77581066,0.63050085,-0.80834955,-0.355885,0.46895298,0.5882045,-0.5210218,0.6185077,,0.024540532,0.48752975,-0.27588362,0.64068377,0.63066536,-0.43793324,-0.52734363,0.7759998,0.34602466,0.5580619,0.0092489235,0.8297478,,1.1685344339317847,0.38095468995262083,0.18853889905000001,-0.8383403940511285,0.6540789243771634,0.606224277446355,-0.41424055171653207,,-1.029880487907958,0.2560085947805425,0.17101694712,1.4493768893650323,0.7208941727624638,0.6552278862968972,0.8521659930225348,,0.026284658535034606,0.02909900195387546,0.07078751784,-0.11578833687890082,,1.0810792e-05,1.9073486e-06,-4.053116e-06,1.0000001,2.9057264e-06,3.0696392e-06,-2.9057264e-06,1.0,2.9802322e-07,-3.0733645e-06,-2.682209e-07,1.0,543,1.695,1,1,1.308,False,-0.259580147031059,1.0269681335947198
1.727183516137302,14:03:36.455885,14:02:09.347765,0,,0.11985623,0.008638844,0.02755268,0.043315537,-0.79060024,-0.61079884,-0.09723213,-0.6118063,0.7850089,-0.99431866,0.025386095,-0.103372365,,0.023093157,0.006259624,0.044133544,-0.5342781,-0.7029132,0.4695318,0.27903274,0.37766746,0.88289756,-0.7979272,0.6027276,-0.005643606,,0.057905547,1.337297,0.44649726,0.9969249,0.0771389,-0.013799751,0.04292577,-0.6848876,-0.72738326,-0.065560825,0.72455406,-0.6860927,,-0.078060575,0.29422015,-0.037197404,0.016340185,0.77445227,0.6324213,-0.80632436,-0.3638111,0.46635023,0.59124786,-0.51755697,0.61851496,,0.024540223,0.48752803,-0.27588314,0.64068323,0.63066506,-0.43793443,-0.5273476,0.77599996,0.34601817,0.5580587,0.0092556225,0.8297499,,1.168542156664659,0.3809624126854951,0.18855315824000002,-0.8486152012818701,0.6570849273720032,0.6023845449826442,-0.41391386358426363,,-1.029880487907958,0.25600087204766825,0.17101824341000002,1.4493768893650323,0.7208941727624638,0.6552278862968972,0.8521659930225348,,0.026284658535034606,0.02909900195387546,0.07078751784,-0.11578833687890082,,1.0810792e-05,1.9073486e-06,-4.053116e-06,1.0000001,2.9057264e-06,3.0696392e-06,-2.9057264e-06,1.0,2.9802322e-07,-3.0733645e-06,-2.682209e-07,1.0,566,1.768,1,1,1.381,False,-0.2596993024681016,1.0273060950001762
1.75673858798109,14:03:36.525157,14:02:09.497277,0,,0.119687945,0.008665606,0.027618974,0.0690368,-0.7891844,-0.61026394,-0.081599206,-0.6141407,0.7849667,-0.9942713,-0.0043946207,-0.10679507,,0.02309464,0.006258551,0.044133306,-0.5343143,-0.702785,0.46968246,0.2791664,0.37775594,0.8828174,-0.7978562,0.6028216,-0.0056464076,,0.057905547,1.337297,0.44649726,0.9969249,0.0771389,-0.013799751,0.04292577,-0.6848876,-0.72738326,-0.065560825,0.72455406,-0.6860927,,-0.07789619,0.29429275,-0.03723115,-0.0089997575,0.7748356,0.63209873,-0.7966876,-0.3875796,0.46375737,0.6043243,-0.49941155,0.62079,,0.024538744,0.48752722,-0.27588388,0.64071405,0.6305286,-0.4380858,-0.52722067,0.77611023,0.34596428,0.55814326,0.0093036825,0.8296924,,1.1683490883428034,0.3810087490827404,0.18860760242000002,-0.8823752821828784,0.671021850348078,0.5812184699887417,-0.4140772076503978,,-1.0298882106408322,0.25600087204766825,0.17101824341000002,1.4495865793085168,0.7208941727624638,0.6552278862968972,0.8521659930225348,,0.026284658535034606,0.02909900195387546,0.07078751784,-0.11578833687890082,,1.0810792e-05,1.9073486e-06,-4.053116e-06,1.0000001,2.9057264e-06,3.0696392e-06,-2.9057264e-06,1.0,2.9802322e-07,-3.0733645e-06,-2.682209e-07,1.0,589,1.842,1,1,1.455,False,-0.2584481703791588,1.0270646939962789
1.8260360800195485,14:03:36.591631,14:02:09.497277,0,,0.11951422,0.008685201,0.02766256,0.09679142,-0.78866774,-0.60715306,-0.065570384,-0.61374474,0.7867769,-0.9931425,-0.036342025,-0.111118436,,0.023095034,0.006256465,0.044131994,-0.534313,-0.7027832,0.46968645,0.27915704,0.37776804,0.8828151,-0.7978603,0.602816,-0.005659461,,0.057905547,1.337297,0.44649726,0.9969249,0.0771389,-0.013799751,0.04292577,-0.6848876,-0.72738326,-0.065560825,0.72455406,-0.6860927,,-0.07772513,0.29434386,-0.03725546,-0.03642737,0.7763079,0.62930053,-0.78604716,-0.41111055,0.461647,0.6170923,-0.4778433,0.62519026,,0.024538456,0.48752508,-0.27588513,0.6407131,0.630528,-0.43808815,-0.52722865,0.7761106,0.34595132,0.5581368,0.009317082,0.8296966,,1.1680401790278345,0.3811014218772311,0.18867112063000002,-0.9194904021796393,0.6845488638248566,0.5545874581559487,-0.41456723984880073,,-1.0298882106408322,0.2559854265819198,0.17101824341000002,1.4495865793085168,0.7208941727624638,0.6552278862968972,0.8521659930225348,,0.026284658535034606,0.02909900195387546,0.07078751784,-0.11578833687890082,,1.0810792e-05,1.9073486e-06,-4.053116e-06,1.0000001,2.9057264e-06,3.0696392e-06,-2.9057264e-06,1.0,2.9802322e-07,-3.0733645e-06,-2.682209e-07,1.0,603,1.886,1,1,1.499,False,-0.2586269035347226,1.0272095345986172
1.892501374008134,14:03:36.637282,14:02:09.643318,0,,0.11940585,0.008700445,0.02770178,0.11178899,-0.7872049,-0.6064749,-0.056675255,-0.6143575,0.7869897,-0.9921145,-0.053604722,-0.11329338,,0.023094714,0.0062557496,0.044133067,-0.534313,-0.7027832,0.46968645,0.27915704,0.37776804,0.8828151,-0.7978603,0.602816,-0.005659461,,0.057905547,1.337297,0.44649726,0.9969249,0.0771389,-0.013799751,0.04292577,-0.6848876,-0.72738326,-0.065560825,0.72455406,-0.6860927,,-0.0776191,0.2943867,-0.037276354,-0.05126923,0.7759049,0.6287631,-0.7798304,-0.4244149,0.4601484,0.62388784,-0.46673712,0.6268337,,0.02453862,0.48752573,-0.27588627,0.6407131,0.630528,-0.43808815,-0.52722865,0.7761106,0.34595132,0.5581368,0.009317082,0.8296966,,1.1680015653634632,0.3811940946717218,0.18869834272000002,-0.9400400166411228,0.6916539618126596,0.5410342468503813,-0.4134238313858608,,-1.0298882106408322,0.2559854265819198,0.17101694712,1.4495865793085168,0.7208941727624638,0.6552278862968972,0.8521659930225348,,0.026284658535034606,0.02909900195387546,0.07078751784,-0.11578833687890082,,1.0810792e-05,1.9073486e-06,-4.053116e-06,1.0000001,2.9057264e-06,3.0696392e-06,-2.9057264e-06,1.0,2.9802322e-07,-3.0733645e-06,-2.682209e-07,1.0,612,1.916,1,1,1.529,False,-0.2584481703791588,1.0268232929923817
1.938163093989715,14:03:36.662265,14:02:09.643318,0,,0.119325586,0.008707911,0.027749538,0.1213603,-0.7858503,-0.6063919,-0.048950434,-0.61490226,0.7870827,-0.9914007,-0.0658375,-0.11309242,,0.023094915,0.0062547065,0.04413241,-0.5343124,-0.70278245,0.46968848,0.2791524,0.3777741,0.88281405,-0.79786235,0.60281324,-0.0056659877,,0.057905547,1.337297,0.44649726,0.9969249,0.0771389,-0.013799751,0.04292577,-0.6848876,-0.72738326,-0.065560825,0.72455406,-0.6860927,,-0.077541806,0.2944298,-0.037307132,-0.060701616,0.7752997,0.62866974,-0.7744539,-0.43392673,0.46035728,0.62971145,-0.45893127,0.62677395,,0.024538474,0.48752466,-0.2758869,0.64071256,0.6305277,-0.43808934,-0.52723265,0.77611077,0.34594482,0.55813366,0.009323782,0.8296987,,1.1680170108292118,0.38124815380184135,0.18871000933,-0.9536698629676167,0.6980758773016352,0.5322037408104648,-0.4142405517165323,,-1.0298882106408322,0.2559777038490456,0.17101694712,1.4495865793085168,0.7208941727624638,0.6552278862968972,0.8521659930225348,,0.026284658535034606,0.02909900195387546,0.07078751784,-0.11578833687890082,,1.0810792e-05,1.9073486e-06,-4.053116e-06,1.0000001,2.9057264e-06,3.0696392e-06,-2.9057264e-06,1.0,2.9802322e-07,-3.0733645e-06,-2.682209e-07,1.0,626,1.96,1,1,1.574,False,-0.2583885926606384,1.0273060950001762
1.9631532239727676,14:03:36.708593,14:02:09.643318,0,,0.11914688,0.00872843,0.027800351,0.14198953,-0.7869947,-0.60039854,-0.039316118,-0.6105491,0.79100186,-0.989087,-0.08870867,-0.117633104,,0.023095116,0.0062536635,0.044131815,-0.53431183,-0.70281994,0.46963304,0.27914768,0.37770802,0.8828438,-0.7978644,0.60281086,-0.005623281,,0.057905547,1.337297,0.44649726,0.9969249,0.0771389,-0.013799751,0.04292577,-0.6848876,-0.72738326,-0.065560825,0.72455406,-0.6860927,,-0.0773662,0.29448706,-0.037335824,-0.08122715,0.77795047,0.62305313,-0.7669681,-0.4480091,0.4593994,0.6365235,-0.44054618,0.63305366,,0.02453833,0.4875236,-0.27588752,0.6407121,0.63056314,-0.438039,-0.52723664,0.7760827,0.34600174,0.55813044,0.009262713,0.82970154,,1.1682023564181931,0.3813794402607032,0.18873204626,-0.9823973852249966,0.704497792790611,0.5069558080022953,-0.4155473042456064,,-1.0298882106408322,0.25596998111617136,0.17101694712,1.4495865793085168,0.7208941727624638,0.6553095650370377,0.8523293370886692,,0.026284658535034606,0.02909900195387546,0.07078751784,-0.11578833687890082,,1.0810792e-05,1.9073486e-06,-4.053116e-06,1.0000001,2.9057264e-06,3.0696392e-06,-2.9057264e-06,1.0,2.9802322e-07,-3.0733645e-06,-2.682209e-07,1.0,635,1.99,1,1,1.603,False,-0.25910352528289105,1.0269681335947198
2.009458660148084,14:03:36.736532,14:02:09.643318,0,,0.11902661,0.00874576,0.02782774,0.15383297,-0.78609383,-0.5986586,-0.036058873,-0.6099329,0.79163224,-0.9874387,-0.10019222,-0.12217343,,0.023092821,0.0062536784,0.04413104,-0.5343248,-0.70281273,0.46962896,0.27914417,0.37770566,0.8828459,-0.7978569,0.60282075,-0.0056313574,,0.057905547,1.337297,0.44649726,0.9969249,0.0771389,-0.013799751,0.04292577,-0.6848876,-0.72738326,-0.065560825,0.72455406,-0.6860927,,-0.07724752,0.29452288,-0.037347987,-0.09307877,0.777776,0.6216115,-0.76394904,-0.4561742,0.45638463,0.6385281,-0.43239978,0.6366414,,0.024540702,0.48752314,-0.27588734,0.6407239,0.6305547,-0.43803385,-0.52723026,0.7760896,0.3459959,0.5581229,0.009256856,0.82970667,,1.1684958202674136,0.3814566675894454,0.18873593513000003,-0.9987532008167895,0.7055908847887344,0.4950378348537479,-0.4140772076503977,,-1.0298727651750836,0.25596998111617136,0.17101694712,1.4495865793085168,0.7208941727624638,0.6553095650370377,0.8523293370886692,,0.026284658535034606,0.02909900195387546,0.07078751784,-0.11578833687890082,,1.0810792e-05,1.9073486e-06,-4.053116e-06,1.0000001,2.9057264e-06,3.0696392e-06,-2.9057264e-06,1.0,2.9802322e-07,-3.0733645e-06,-2.682209e-07,1.0,649,2.035,1,1,1.648,False,-0.25868648125324345,1.0268232929923817
2.0373964530881494,14:03:36.780833,14:02:09.791772,0,,0.118787505,0.008780047,0.027943477,0.17055643,-0.78333646,-0.5977413,-0.022132277,-0.60952216,0.79245996,-0.9850993,-0.121929795,-0.121294916,,0.02309376,0.0062494613,0.044128478,-0.53436565,-0.7027168,0.46972612,0.27926207,0.377739,0.8827944,-0.7977883,0.6029117,-0.005608529,,0.057905547,1.337297,0.44649726,0.9969249,0.0771389,-0.013799751,0.04292577,-0.6848876,-0.72738326,-0.065560825,0.72455406,-0.6860927,,-0.07701537,0.2946396,-0.03741303,-0.10961813,0.77638006,0.6206592,-0.7534554,-0.47216812,0.4575612,0.6482969,-0.41748202,0.63672596,,0.024539975,0.48751888,-0.2758899,0.6407591,0.6304489,-0.43813467,-0.5271121,0.7761756,0.34598303,0.55819404,0.009254314,0.8296588,,1.1691290843631001,0.38144122212369697,0.18875019432,-1.0243353739219014,0.715975258770908,0.47693198283623356,-0.4134238313858607,,-1.0298727651750836,0.2559468129175487,0.17101694712,1.4497962692520014,0.7208941727624638,0.6553912437771784,0.8521659930225348,,0.026284658535034606,0.02909900195387546,0.07078751784,-0.11578833687890082,,1.0810792e-05,1.9073486e-06,-4.053116e-06,1.0000001,2.9057264e-06,3.0696392e-06,-2.9057264e-06,1.0,2.9802322e-07,-3.0733645e-06,-2.682209e-07,1.0,663,2.079,1,1,1.692,False,-0.25779281547542787,1.0268715731931612
2.0816741769667715,14:03:36.832685,14:02:09.791772,0,,0.11857341,0.008819073,0.027981594,0.18496798,-0.7823465,-0.5947444,-0.018648922,-0.6078724,0.7938157,-0.98256755,-0.13573918,-0.12702683,,0.023093954,0.0062484182,0.044127822,-0.534365,-0.7027926,0.46961334,0.27925742,0.37760082,0.882855,-0.7977904,0.6029098,-0.0055165887,,0.057905547,1.337297,0.44649726,0.9969249,0.0771389,-0.013799751,0.04292577,-0.6848876,-0.72738326,-0.065560825,0.72455406,-0.6860927,,-0.07680328,0.29470086,-0.03742153,-0.12408234,0.77628267,0.61805236,-0.7497106,-0.48137778,0.4541029,0.65002894,-0.40701428,0.64171785,,0.02453983,0.4875178,-0.27589053,0.6407586,0.6305201,-0.43803287,-0.5271161,0.77611923,0.34610334,0.5581909,0.009125482,0.8296624,,1.1698936349176483,0.38139488572645164,0.18876056464000002,-1.0448849883833848,0.7161118952706733,0.46089321060512756,-0.41358717545199497,,-1.0298727651750836,0.2559390901846745,0.17101694712,1.4497962692520014,0.7208941727624638,0.6555546012574596,0.8521659930225347,,0.026284658535034606,0.02909900195387546,0.07078751784,-0.11578833687890082,,1.0810792e-05,1.9073486e-06,-4.053116e-06,1.0000001,2.9057264e-06,3.0696392e-06,-2.9057264e-06,1.0,2.9802322e-07,-3.0733645e-06,-2.682209e-07,1.0,672,2.108,1,1,1.721,False,-0.25880563669028556,1.0270164137954993
2.1335727081168443,14:03:36.859911,14:02:09.791772,0,,0.11840725,0.008892655,0.028016105,0.19222702,-0.78337455,-0.5910779,-0.016311288,-0.60477805,0.796227,-0.981215,-0.14341518,-0.12903252,,0.023025818,0.0062255077,0.0441311,-0.5343672,-0.70277166,0.46964198,0.2792862,0.37761515,0.8828398,-0.7977788,0.6029251,-0.005510688,,0.057926632,1.337296,0.44648924,0.9969252,0.07713354,-0.013805448,0.042917963,-0.6848882,-0.72738314,-0.065560825,0.72455406,-0.6860927,,-0.07665822,0.2947848,-0.037404705,-0.13136075,0.7778444,0.61457497,-0.74737674,-0.4849982,0.4540978,0.6512852,-0.3996684,0.64505255,,0.024585798,0.48752043,-0.2759244,0.64076054,0.6305021,-0.43805596,-0.52709574,0.77613384,0.3461016,0.55820787,0.009129204,0.82965094,,1.1704496716845925,0.38136399479495475,0.18877741641,-1.0555791755010957,0.7165218047699697,0.44977736319548406,-0.4135871754519952,,-1.0298650424422096,0.25593136745180023,0.17101694712,1.4497962692520014,0.7208941727624638,0.6556362799976001,0.8523293370886693,,0.026284658535034606,0.02909900195387546,0.07078751784,-0.11578833687890082,,3.232062e-05,-1.5497208e-06,1.7881393e-06,1.0,-2.4661422e-06,-2.6077032e-06,2.4661422e-06,1.0,-2.3841858e-07,2.603978e-06,2.682209e-07,1.0,686,2.152,1,1,1.765,False,-0.2583885926606384,1.0265336117877049
2.1607794689480215,14:03:36.903507,14:02:09.791772,0,,0.1182439,0.008926511,0.028063655,0.2017429,-0.78094155,-0.59112614,-0.010370612,-0.60520506,0.79600203,-0.9793836,-0.15445748,-0.13019463,,0.023028024,0.006223019,0.044128537,-0.534402,-0.70264184,0.4697966,0.27941057,0.3777157,0.88275737,-0.79771185,0.6030135,-0.005526513,,0.057926632,1.337296,0.44648924,0.9969252,0.07713354,-0.013805448,0.042917963,-0.6848882,-0.72738314,-0.065560825,0.72455406,-0.6860927,,-0.07649745,0.29484805,-0.03742043,-0.14084458,0.7760919,0.6146903,-0.74235666,-0.49358,0.4530843,0.6550339,-0.39250496,0.64565504,,0.024583865,0.48751682,-0.2759253,0.6407903,0.6303651,-0.4382097,-0.52697676,0.77624446,0.34603474,0.5582861,0.009190653,0.82959765,,1.171013431184411,0.3813099356648352,0.18879556447,-1.0702574715450124,0.7199377172641057,0.4403759376516879,-0.41375051951812947,,-1.0298727651750836,0.2559159219860518,0.17101824341000002,1.450005959195486,0.7208941727624638,0.6556362799976001,0.8526560252209378,,0.026284658535034606,0.02909900195387546,0.07078751784,-0.11578833687890082,,3.232062e-05,-1.5497208e-06,1.7881393e-06,1.0,-2.4661422e-06,-2.6077032e-06,2.4661422e-06,1.0,-2.3841858e-07,2.603978e-06,2.682209e-07,1.0,695,2.182,1,1,1.795,False,-0.25773323775690704,1.0264853315869256
2.204379383008927,14:03:36.938715,14:02:09.939657,0,,0.11811222,0.008941397,0.028074324,0.21229085,-0.7782672,-0.5909592,-0.005953908,-0.60576224,0.7956233,-0.97718835,-0.16538507,-0.13323155,,0.023028865,0.006223362,0.044125795,-0.53440136,-0.70267934,0.46974123,0.2794059,0.37764966,0.8827871,-0.7977139,0.60301125,-0.0054837763,,0.057926632,1.337296,0.44648924,0.9969252,0.07713354,-0.013805448,0.042917963,-0.6848882,-0.72738314,-0.065560825,0.72455406,-0.6860927,,-0.076366395,0.29487017,-0.03742394,-0.15141292,0.7740886,0.61470395,-0.7381155,-0.50217104,0.450566,0.65746456,-0.385501,0.647402,,0.024583394,0.48751447,-0.27592373,0.64078975,0.63040054,-0.4381594,-0.52698076,0.7762164,0.34609166,0.55828285,0.009129593,0.82960045,,1.1713223404993798,0.3812867674662125,0.18881371253,-1.0857745273628672,0.7217139917610564,0.4306779521494377,-0.4122804229229208,,-1.0298727651750836,0.2559081992531776,0.17102083599,1.450005959195486,0.7208941727624638,0.6557179587377406,0.8524926811548035,,0.026284658535034606,0.02909900195387546,0.07078751784,-0.11578833687890082,,3.232062e-05,-1.5497208e-06,1.7881393e-06,1.0,-2.4661422e-06,-2.6077032e-06,2.4661422e-06,1.0,-2.3841858e-07,2.603978e-06,2.682209e-07,1.0,709,2.226,0,1,1.827,False,-0.2580907040680329,1.026726732590823
2.2395850371103734,14:03:36.973652,14:02:09.939657,0,,0.11804065,0.008938432,0.028072461,0.21976353,-0.77820027,-0.5883098,-0.00208503,-0.6034258,0.7974163,-0.9755509,-0.17401645,-0.1342336,,0.023030207,0.006222304,0.044125557,-0.53439426,-0.7026821,0.46974528,0.2794029,0.3776569,0.88278496,-0.7977197,0.60300356,-0.00548622,,0.057926632,1.337296,0.44648924,0.9969252,0.07713354,-0.013805448,0.042917963,-0.6848882,-0.72738314,-0.065560825,0.72455406,-0.6860927,,-0.07629493,0.2948691,-0.037428986,-0.15888956,0.7746058,0.6121601,-0.7345561,-0.50703895,0.4509311,0.65968287,-0.37801766,0.6495546,,0.024582062,0.48751363,-0.27592444,0.64078337,0.6304044,-0.43816316,-0.52698797,0.7762131,0.34608808,0.5582834,0.009139221,0.8296,,1.1713532314308768,0.3812867674662125,0.18882667543,-1.096888094367547,0.7237635392575381,0.4203487371390919,-0.41456723984880073,,-1.029880487907958,0.25590047652030334,0.17102083599,1.450005959195486,0.7208941727624638,0.6557179587377406,0.8524926811548035,,0.026284658535034606,0.02909900195387546,0.07078751784,-0.11578833687890082,,3.232062e-05,-1.5497208e-06,1.7881393e-06,1.0,-2.4661422e-06,-2.6077032e-06,2.4661422e-06,1.0,-2.3841858e-07,2.603978e-06,2.682209e-07,1.0,718,2.256,0,1,1.827,False,-0.25815028178655464,1.026340490984587
2.2745357791427523,14:03:37.009244,14:02:09.939657,0,,0.117982775,0.008936524,0.028049335,0.22815244,-0.77587265,-0.58819056,-5.2422285e-05,-0.60413384,0.79688287,-0.9736255,-0.18177994,-0.13787529,,0.023029067,0.006222319,0.04412514,-0.5344008,-0.7027168,0.4696858,0.2794012,0.3775836,0.8828168,-0.79771596,0.60300887,-0.0054410696,,0.057926632,1.337296,0.44648924,0.9969252,0.07713354,-0.013805448,0.042917963,-0.6848882,-0.72738314,-0.065560825,0.72455406,-0.6860927,,-0.076235786,0.29485247,-0.037418343,-0.16733697,0.77274936,0.6122555,-0.73203665,-0.51336443,0.44786084,0.6603944,-0.37324977,0.6515857,,0.024583248,0.4875134,-0.27592435,0.6407893,0.630436,-0.43810907,-0.52698475,0.77618825,0.34614855,0.55827963,0.009068533,0.82960325,,1.171330063232254,0.38134082659633206,0.18884223091000002,-1.1086307312026802,0.7237635392575381,0.4134877229672846,-0.4139138635842635,,-1.0298727651750836,0.25590047652030334,0.17102083599,1.450005959195486,0.7208941727624638,0.6557996374778813,0.8523293370886692,,0.026284658535034606,0.02909900195387546,0.07078751784,-0.11578833687890082,,3.232062e-05,-1.5497208e-06,1.7881393e-06,1.0,-2.4661422e-06,-2.6077032e-06,2.4661422e-06,1.0,-2.3841858e-07,2.603978e-06,2.682209e-07,1.0,732,2.301,1,2,1.869,False,-0.259282258438454,1.026630172189264
2.3101269300095737,14:03:37.058718,14:02:10.066578,0,,0.11788021,0.008942977,0.028034985,0.24335462,-0.7725259,-0.58650005,0.005874127,-0.60349333,0.79734635,-0.9699196,-0.1974831,-0.14232498,,0.023030601,0.006220188,0.044124246,-0.534393,-0.7027186,0.4696919,0.2793936,0.37759688,0.8828136,-0.7977238,0.60299844,-0.0054500103,,0.057926632,1.337296,0.44648924,0.9969252,0.07713354,-0.013805448,0.042917963,-0.6848882,-0.72738314,-0.065560825,0.72455406,-0.6860927,,-0.07613242,0.2948494,-0.03740983,-0.18261136,0.77039623,0.6108541,-0.7258135,-0.5247326,0.4448038,0.6632103,-0.36213994,0.65498614,,0.024581773,0.4875115,-0.27592573,0.64078236,0.6304396,-0.43811402,-0.52699596,0.77618515,0.3461385,0.558277,0.009084861,0.82960486,,1.1713223404993798,0.3815493403839361,0.18887074929000003,-1.1306481752685553,0.7256764502542542,0.39828752271206075,-0.4121170788567864,,-1.029880487907958,0.2558850310545549,0.17102083599,1.450005959195486,0.7208941727624638,0.6557996374778813,0.8523293370886692,,0.026284658535034606,0.02909900195387546,0.07078751784,-0.11578833687890082,,3.232062e-05,-1.5497208e-06,1.7881393e-06,1.0,-2.4661422e-06,-2.6077032e-06,2.4661422e-06,1.0,-2.3841858e-07,2.603978e-06,2.682209e-07,1.0,746,2.345,1,2,1.913,False,-0.2583885926606384,1.026726732590823
2.359573705121875,14:03:37.096642,14:02:10.066578,0,,0.11780003,0.008968785,0.028058663,0.25616112,-0.76750475,-0.5876376,0.014174908,-0.6048734,0.7961954,-0.9665302,-0.21228404,-0.14406574,,0.023030318,0.0062187724,0.044121563,-0.5344415,-0.70258254,0.46984044,0.2795191,0.37768906,0.88273436,-0.79764736,0.6030994,-0.0054674447,,0.057926632,1.337296,0.44648924,0.9969252,0.07713354,-0.013805448,0.042917963,-0.6848882,-0.72738314,-0.065560825,0.72455406,-0.6860927,,-0.07605332,0.2948868,-0.037410937,-0.19542561,0.7662739,0.6120728,-0.7181651,-0.53683096,0.44277695,0.6678681,-0.35303935,0.6552217,,0.024582358,0.4875085,-0.27592582,0.6408244,0.6302944,-0.43826142,-0.5268666,0.7763025,0.3460723,0.55835086,0.009133749,0.8295546,,1.1713455086980025,0.3819200315618989,0.18890445283,-1.150568719899585,0.7303220912462791,0.38706654863359125,-0.41260711105518955,,-1.0298727651750836,0.25587730832168065,0.17102213228000002,1.4502156491389706,0.7208941727624638,0.6557996374778813,0.8523293370886692,,0.026284658535034606,0.02909900195387546,0.07078751784,-0.11578833687890082,,3.232062e-05,-1.5497208e-06,1.7881393e-06,1.0,-2.4661422e-06,-2.6077032e-06,2.4661422e-06,1.0,-2.3841858e-07,2.603978e-06,2.682209e-07,1.0,755,2.375,1,2,1.943,False,-0.2583290149421176,1.0269681335947198
2.3975295601412654,14:03:37.121480,14:02:10.066578,0,,0.11779152,0.008994535,0.02806808,0.2611704,-0.7669996,-0.58609015,0.016548753,-0.6035162,0.797179,-0.96515083,-0.21789862,-0.14492768,,0.02303166,0.0062177293,0.044121325,-0.5344344,-0.70258516,0.46984446,0.27951622,0.37769628,0.8827322,-0.7976532,0.6030918,-0.005469948,,0.057926632,1.337296,0.44648924,0.9969252,0.07713354,-0.013805448,0.042917963,-0.6848882,-0.72738314,-0.065560825,0.72455406,-0.6860927,,-0.07604489,0.29491127,-0.037398506,-0.2004596,0.7661463,0.6106028,-0.71571594,-0.5401207,0.44274178,0.6690042,-0.3482663,0.65661556,,0.024581028,0.48750767,-0.27592653,0.640818,0.63029826,-0.43826517,-0.52687377,0.77629924,0.3460687,0.55835146,0.009143378,0.82955414,,1.1713455086980025,0.38218260447962255,0.1889213046,-1.1576981779780589,0.7310052737451064,0.38103698352569154,-0.41440389578266634,,-1.029880487907958,0.25586958558880646,0.17102213228000002,1.4502156491389706,0.7208941727624638,0.6557996374778813,0.8523293370886692,,0.026284658535034606,0.02909900195387546,0.07078751784,-0.11578833687890082,,3.232062e-05,-1.5497208e-06,1.7881393e-06,1.0,-2.4661422e-06,-2.6077032e-06,2.4661422e-06,1.0,-2.3841858e-07,2.603978e-06,2.682209e-07,1.0,769,2.419,1,2,1.987,False,-0.2574949268828224,1.0270164137954993
2.4223280230071396,14:03:37.170677,14:02:10.066578,0,,0.11777876,0.009052902,0.028093025,0.27642775,-0.7635595,-0.5835791,0.021476984,-0.60218054,0.79807097,-0.9607947,-0.23314254,-0.15006047,,0.023032196,0.0062156133,0.044120073,-0.53447634,-0.70245254,0.46999505,0.27964348,0.37778962,0.882652,-0.7975804,0.6031878,-0.005483359,,0.057926632,1.337296,0.44648924,0.9969252,0.07713354,-0.013805448,0.042917963,-0.6848882,-0.72738314,-0.065560825,0.72455406,-0.6860927,,-0.07603247,0.29496917,-0.037372343,-0.2158504,0.7636863,0.60843396,-0.7096765,-0.55068636,0.43943578,0.6706473,-0.3369389,0.6608361,,0.024580592,0.48750556,-0.2759278,0.64085406,0.6301573,-0.43841514,-0.5267476,0.7764131,0.34600538,0.55842906,0.009195178,0.82950133,,1.171330063232254,0.3830321050957872,0.18894982298000002,-1.179296242156965,0.7311419102448719,0.3658966774361316,-0.41179039072451806,,-1.029880487907958,0.2558618628559322,0.17102213228000002,1.4504253390824549,0.7208941727624638,0.6557996374778812,0.8520026489564008,,0.026284658535034606,0.02909900195387546,0.07078751784,-0.11578833687890082,,3.232062e-05,-1.5497208e-06,1.7881393e-06,1.0,-2.4661422e-06,-2.6077032e-06,2.4661422e-06,1.0,-2.3841858e-07,2.603978e-06,2.682209e-07,1.0,778,2.448,1,2,2.016,False,-0.25910352528289105,1.0269681335947198
2.4715578840114176,14:03:37.209575,14:02:10.230672,0,,0.11777218,0.009094089,0.02813743,0.28681543,-0.76013577,-0.5830356,0.026918113,-0.6019707,0.7980643,-0.95760757,-0.24459139,-0.15219304,,0.023032404,0.0062145703,0.044119418,-0.5344757,-0.70245177,0.46999708,0.2796388,0.3777956,0.88265085,-0.7975825,0.60318506,-0.005489856,,0.057926632,1.337296,0.44648924,0.9969252,0.07713354,-0.013805448,0.042917963,-0.6848882,-0.72738314,-0.065560825,0.72455406,-0.6860927,,-0.07602779,0.2950299,-0.03737159,-0.22629869,0.76098365,0.60802364,-0.7040086,-0.55917776,0.4378266,0.67317224,-0.32897428,0.6622802,,0.024580447,0.48750448,-0.27592844,0.6408536,0.630157,-0.43841633,-0.52675164,0.77641326,0.34599888,0.55842584,0.009201879,0.8295034,,1.171330063232254,0.3837039828558448,0.18896278588,-1.1948132979748196,0.733054821241588,0.35608727403018503,-0.4132604873197264,,-1.029880487907958,0.255854140123058,0.17102213228000002,1.4504253390824549,0.7208941727624638,0.6557996374778812,0.8520026489564008,,0.026284658535034606,0.02909900195387546,0.07078751784,-0.11578833687890082,,3.232062e-05,-1.5497208e-06,1.7881393e-06,1.0,-2.4661422e-06,-2.6077032e-06,2.4661422e-06,1.0,-2.3841858e-07,2.603978e-06,2.682209e-07,1.0,792,2.493,1,2,2.061,False,-0.25761408231986493,1.026775012791602
2.5104499319568276,14:03:37.236702,14:02:10.230672,0,,0.117766485,0.009119496,0.028144643,0.29331958,-0.7598113,-0.5802159,0.027728677,-0.5998943,0.7995986,-0.95561224,-0.25062656,-0.15489215,,0.023030624,0.0062142275,0.044116914,-0.5344881,-0.7025588,0.46982282,0.27963066,0.377583,0.88274443,-0.7975771,0.60319334,-0.0053566396,,0.057926632,1.337296,0.44648924,0.9969252,0.07713354,-0.013805448,0.042917963,-0.6848882,-0.72738314,-0.065560825,0.72455406,-0.6860927,,-0.07602201,0.2950524,-0.037357796,-0.23289545,0.7610776,0.6054095,-0.70219177,-0.5622951,0.43675053,0.6728198,-0.32339633,0.66537833,,0.02458251,0.4875023,-0.27592778,0.6408649,0.63025564,-0.43825793,-0.52674925,0.77633554,0.34617683,0.5584151,0.008999467,0.82951283,,1.1713841223623735,0.3840669513009333,0.18896926733000002,-1.2036202756011698,0.7316884562439336,0.3480534341714063,-0.41456723984880073,,-1.0298650424422096,0.25584641739018377,0.17102342857000002,1.4504253390824549,0.7208941727624638,0.656044673698303,0.8524926811548035,,0.026284658535034606,0.02909900195387546,0.07078751784,-0.11578833687890082,,3.232062e-05,-1.5497208e-06,1.7881393e-06,1.0,-2.4661422e-06,-2.6077032e-06,2.4661422e-06,1.0,-2.3841858e-07,2.603978e-06,2.682209e-07,1.0,806,2.538,1,2,2.106,False,-0.2586269035347226,1.0270646939962789
2.5375547860749066,14:03:37.286848,14:02:10.230672,0,,0.11771847,0.009144917,0.028110847,0.30343857,-0.75979036,-0.5750162,0.02432701,-0.5970951,0.80180144,-0.9525404,-0.257286,-0.16269818,,0.0230335,0.0062110536,0.04411578,-0.5344732,-0.702525,0.46989033,0.27962008,0.37767562,0.8827082,-0.7975908,0.60317475,-0.005417347,,0.057926632,1.337296,0.44648924,0.9969252,0.07713354,-0.013805448,0.042917963,-0.6848882,-0.72738314,-0.065560825,0.72455406,-0.6860927,,-0.07597148,0.29504576,-0.037319116,-0.24325475,0.76152825,0.60075104,-0.70249975,-0.5653851,0.4322428,0.6688208,-0.31688234,0.672506,,0.024579706,0.48749956,-0.27592987,0.6408516,0.6302273,-0.4383181,-0.5267676,0.7763574,0.3460998,0.558413,0.0090931775,0.8295132,,1.1716544180129715,0.3843218014857827,0.18897315620000002,-1.2157822923232722,0.724993267755427,0.33685044846385603,-0.41326048731972664,,-1.029880487907958,0.25582324919156113,0.17102342857000002,1.4504253390824549,0.7208941727624638,0.6559629949581625,0.8526560252209378,,0.026284658535034606,0.02909900195387546,0.07078751784,-0.11578833687890082,,3.232062e-05,-1.5497208e-06,1.7881393e-06,1.0,-2.4661422e-06,-2.6077032e-06,2.4661422e-06,1.0,-2.3841858e-07,2.603978e-06,2.682209e-07,1.0,815,2.567,1,2,2.135,False,-0.2591631030014119,1.0262439305830282
2.5877164730336517,14:03:37.313481,14:02:10.230672,0,,0.117613226,0.009144694,0.028096318,0.3127479,-0.75544477,-0.5757534,0.027234167,-0.59877944,0.80045074,-0.9494456,-0.26601946,-0.16669315,,0.02303236,0.0062110536,0.044115365,-0.5344798,-0.7025982,0.4697735,0.27961838,0.37753022,0.8827709,-0.79758704,0.60318047,-0.005322933,,0.057926632,1.337296,0.44648924,0.9969252,0.07713354,-0.013805448,0.042917963,-0.6848882,-0.72738314,-0.065560825,0.72455406,-0.6860927,,-0.07586555,0.29503816,-0.037315607,-0.25267464,0.75769764,0.60170573,-0.69855624,-0.57314867,0.42839205,0.6694585,-0.3120815,0.6741146,,0.024580892,0.48749933,-0.27592978,0.6408575,0.6302947,-0.43821257,-0.5267644,0.7763043,0.34622368,0.5584093,0.008954743,0.82951725,,1.1719015454649466,0.38430635602003427,0.18898352652000003,-1.2296218285932508,0.7245833582561307,0.33007865178271634,-0.41375051951812947,,-1.0298727651750836,0.25582324919156113,0.17102342857000002,1.4504253390824549,0.7208941727624638,0.6561263524384435,0.8520026489564005,,0.026284658535034606,0.02909900195387546,0.07078751784,-0.11578833687890082,,3.232062e-05,-1.5497208e-06,1.7881393e-06,1.0,-2.4661422e-06,-2.6077032e-06,2.4661422e-06,1.0,-2.3841858e-07,2.603978e-06,2.682209e-07,1.0,829,2.611,1,2,2.18,False,-0.2590439475643693,1.0261956503822487
2.6143687090370804,14:03:37.364791,14:02:10.361137,0,,0.11745331,0.009188443,0.028063282,0.32303777,-0.7555703,-0.56987727,0.02666232,-0.59465665,0.8035375,-0.9460104,-0.27476728,-0.17195126,,0.023032561,0.0062099956,0.04411471,-0.5344791,-0.7025973,0.4697755,0.27961367,0.3775363,0.88276976,-0.79758906,0.6031777,-0.00532943,,0.057926632,1.337296,0.44648924,0.9969252,0.07713354,-0.013805448,0.042917963,-0.6848882,-0.72738314,-0.065560825,0.72455406,-0.6860927,,-0.07570301,0.2950479,-0.03727018,-0.26316735,0.75845176,0.59623307,-0.69671154,-0.5769054,0.4263487,0.667335,-0.3032014,0.68024474,,0.024580747,0.48749825,-0.2759304,0.640857,0.6302944,-0.43821377,-0.5267684,0.7763045,0.34621722,0.55840605,0.008961444,0.82951933,,1.1726120368893753,0.3841982377597951,0.18901723006,-1.243671054806714,0.7200743537638712,0.31586779851391533,-0.41554730424560626,,-1.0298727651750836,0.2558155264586869,0.17102342857000002,1.4504253390824549,0.7208941727624638,0.6561263524384435,0.8516759608241321,,0.026284658535034606,0.02909900195387546,0.07078751784,-0.11578833687890082,,3.232062e-05,-1.5497208e-06,1.7881393e-06,1.0,-2.4661422e-06,-2.6077032e-06,2.4661422e-06,1.0,-2.3841858e-07,2.603978e-06,2.682209e-07,1.0,843,2.656,1,2,2.224,False,-0.25868648125324345,1.0260508097799104
2.6656789360567927,14:03:37.403333,14:02:10.361137,0,,0.11726698,0.009237587,0.02802217,0.33428118,-0.7512677,-0.56908095,0.02843237,-0.595503,0.80284977,-0.94204444,-0.2845579,-0.17770511,,0.023034096,0.0062078647,0.044113815,-0.5344714,-0.70263755,0.46972418,0.27960607,0.37747747,0.88279736,-0.79759693,0.6031677,-0.005289167,,0.057926632,1.337296,0.44648924,0.9969252,0.07713354,-0.013805448,0.042917963,-0.6848882,-0.72738314,-0.065560825,0.72455406,-0.6860927,,-0.07551351,0.29505607,-0.037216887,-0.2745951,0.75474715,0.59578043,-0.69294024,-0.58489543,0.42158172,0.66665685,-0.29707596,0.68360406,,0.024579274,0.48749635,-0.27593178,0.6408501,0.6303338,-0.4381672,-0.5267796,0.77627313,0.34627056,0.55840343,0.008910018,0.82952166,,1.1733379737795524,0.3840283376365622,0.18907167424000001,-1.260026870398507,0.7173416237685624,0.3064160967477434,-0.4127704551213237,,-1.029880487907958,0.25580008099293844,0.17102342857000002,1.4504253390824549,0.7208941727624638,0.6562080311785841,0.8515126167579978,,0.026284658535034606,0.02909900195387546,0.07078751784,-0.11578833687890082,,3.232062e-05,-1.5497208e-06,1.7881393e-06,1.0,-2.4661422e-06,-2.6077032e-06,2.4661422e-06,1.0,-2.3841858e-07,2.603978e-06,2.682209e-07,1.0,852,2.686,1,2,2.254,False,-0.2590439475643693,1.026340490984587
2.704203023109585,14:03:37.438355,14:02:10.361137,0,,0.11704138,0.0093171,0.028021082,0.34352174,-0.7473983,-0.56867266,0.033337057,-0.5954358,0.8027109,-0.93855286,-0.29470658,-0.17962909,,0.023032956,0.0062078945,0.044113457,-0.53447783,-0.702634,0.46972212,0.27960432,0.37747627,0.88279843,-0.7975932,0.6031726,-0.0052932203,,0.057926632,1.337296,0.44648924,0.9969252,0.07713354,-0.013805448,0.042917963,-0.6848882,-0.72738314,-0.065560825,0.72455406,-0.6860927,,-0.075286634,0.29511556,-0.037169803,-0.28392893,0.75151634,0.5954893,-0.68736666,-0.59252864,0.42004395,0.6685144,-0.29005685,0.6848033,,0.024580458,0.4874961,-0.2759317,0.640856,0.63032955,-0.43816462,-0.52677643,0.7762766,0.34626764,0.5583997,0.008907091,0.8295242,,1.1743342063203275,0.3838275465818324,0.18914297019,-1.2753342362728772,0.717888169767624,0.2965773700167929,-0.4142405517165322,,-1.0298727651750836,0.25580008099293844,0.17102342857000002,1.4504253390824549,0.7208941727624638,0.6562080311785841,0.8515126167579978,,0.026284658535034606,0.02909900195387546,0.07078751784,-0.11578833687890082,,3.232062e-05,-1.5497208e-06,1.7881393e-06,1.0,-2.4661422e-06,-2.6077032e-06,2.4661422e-06,1.0,-2.3841858e-07,2.603978e-06,2.682209e-07,1.0,866,2.73,1,2,2.298,False,-0.2587460589717643,1.0262439305830282
2.739234635140747,14:03:37.483179,14:02:10.361137,0,,0.11677928,0.009413213,0.02796118,0.35792336,-0.7441941,-0.5639735,0.035305828,-0.5927691,0.80459815,-0.9330833,-0.30789608,-0.18589148,,0.023033358,0.0062057637,0.044112146,-0.5344766,-0.70263225,0.46972615,0.27959496,0.37748834,0.88279617,-0.7975973,0.60316706,-0.0053062737,,0.057926632,1.337296,0.44648924,0.9969252,0.07713354,-0.013805448,0.042917963,-0.6848882,-0.72738314,-0.065560825,0.72455406,-0.6860927,,-0.075019374,0.2951435,-0.037073337,-0.2985971,0.7491924,0.591228,-0.68244517,-0.6006697,0.4164908,0.66716444,-0.27911773,0.6906409,,0.02458017,0.48749396,-0.27593297,0.640855,0.6303289,-0.438167,-0.5267844,0.77627695,0.34625468,0.55839324,0.008920492,0.8295284,,1.1754926162514612,0.38359586459560563,0.18923889565000002,-1.2963032306213296,0.71351580177513,0.2799680941203596,-0.41440389578266645,,-1.0298727651750836,0.25578463552719,0.17102342857000002,1.4504253390824549,0.7208941727624638,0.6562080311785841,0.8515126167579978,,0.026284658535034606,0.02909900195387546,0.07078751784,-0.11578833687890082,,3.232062e-05,-1.5497208e-06,1.7881393e-06,1.0,-2.4661422e-06,-2.6077032e-06,2.4661422e-06,1.0,-2.3841858e-07,2.603978e-06,2.682209e-07,1.0,875,2.76,1,2,2.328,False,-0.259580147031059,1.026437051386146
2.7840637580957264,14:03:37.508507,14:02:10.361137,0,,0.11665329,0.009471118,0.027964905,0.3630575,-0.74134123,-0.5644488,0.037676156,-0.5936079,0.803872,-0.93100464,-0.31311804,-0.18758285,,0.02303394,0.0062026046,0.04411018,-0.5344747,-0.7026296,0.46973214,0.27958092,0.37750652,0.8827929,-0.7976035,0.6031587,-0.005325824,,0.057926632,1.337296,0.44648924,0.9969252,0.07713354,-0.013805448,0.042917963,-0.6848882,-0.72738314,-0.065560825,0.72455406,-0.6860927,,-0.07489267,0.29518896,-0.037039876,-0.3037991,0.7466516,0.5917918,-0.6794819,-0.60520756,0.41476274,0.6678401,-0.2761073,0.69119775,,0.024579737,0.48749074,-0.27593488,0.6408535,0.63032794,-0.43817052,-0.5267964,0.7762775,0.34623522,0.55838364,0.008940593,0.82953465,,1.1765120169908587,0.3835031918011149,0.18930889531000003,-1.3105621467782773,0.71351580177513,0.27376050986967687,-0.4142405517165322,,-1.0298727651750836,0.2557614673285673,0.17102342857000002,1.4504253390824549,0.7208941727624638,0.6562080311785841,0.8515126167579978,,0.026284658535034606,0.02909900195387546,0.07078751784,-0.11578833687890082,,3.232062e-05,-1.5497208e-06,1.7881393e-06,1.0,-2.4661422e-06,-2.6077032e-06,2.4661422e-06,1.0,-2.3841858e-07,2.603978e-06,2.682209e-07,1.0,889,2.804,1,2,2.373,False,-0.25922268071993226,1.026340490984587
