AlexandreBanks6/ExpertPlaybackApp/resources/Motions/P_13/PC1/Data_PC1_1.csv
Task Time,PC1 Time,PC2 Time,Gaze Calib,s_T_psm1,Tx,Ty,Tz,R00,R01,R02,R10,R11,R12,R20,R21,R22,s_T_psm3,Tx,Ty,Tz,R00,R01,R02,R10,R11,R12,R20,R21,R22,cart_T_ecm,Tx,Ty,Tz,R00,R01,R02,R10,R11,R12,R20,R21,R22,ecm_T_psm1,Tx,Ty,Tz,R00,R01,R02,R10,R11,R12,R20,R21,R22,ecm_T_psm3,Tx,Ty,Tz,R00,R01,R02,R10,R11,R12,R20,R21,R22,psm1_joints,q1,q2,q3,q4,q5,q6,jaw,psm3_joints,q1,q2,q3,q4,q5,q6,jaw,ecm_joints,q1,q2,q3,q4,ecmi_T_ecm,Tx,Ty,Tz,R00,R01,R02,R10,R11,R12,R20,R21,R22,Sample #,Task Duration (s),Collisions (binary),Collisions (increments),Cumulative Collision Time (s),Clutch Press,MTMR Angle,MTML Angle
""
lci_T_si,,,,,-0.060449902,0.028989637,0.2531565,0.99598145,-0.006817275,0.089299574,0.061369892,-0.674251,-0.7359479,0.065227486,0.7384708,-0.67112315
rci_T_si,,,,,-0.070302054,0.033551246,0.263737,0.9935428,-0.022055382,0.11129344,0.070708275,-0.6467685,-0.7594016,0.088729985,0.7623674,-0.6410327
ecm_T_lc,,,,,-4.4061628e-05,-0.00034663224,-0.01840835,-0.99912,0.030754527,0.028518902,-0.031987965,-0.99852574,-0.043852776,0.027128186,-0.04472645,0.9986309
ecm_T_rc,,,,,-0.0043358393,0.01870579,-0.007592615,-0.99555075,-0.052743673,-0.078081585,0.04863213,-0.9973746,0.053654674,-0.08070653,0.04961868,0.9955021
cart_T_ecmi,,,,,0.05789456,1.3372948,0.4464937,0.99692506,0.077136,-0.013802834,0.042921547,-0.6848879,-0.7273832,-0.065560825,0.72455406,-0.6860927
ecmac_T_ecmrep_psm1,,,,,-0.0025980123,-0.29326126,-0.2805022,0.9974786,0.061531033,0.035360787,-0.060258932,0.9975341,-0.035980776,-0.037487525,0.033759248,0.99872667
ecmac_T_ecmrep_psm3,,,,,-0.0114122145,-0.5209516,-0.5025674,0.9999053,0.010122195,-0.009323479,-0.0077519584,0.9740634,0.22614253,0.011370718,-0.22604884,0.9740496
""
0,13:56:32.511331,13:55:05.490796,0,,0.11957875,0.005930349,0.019307524,0.93291694,-0.2766539,-0.2304964,-0.07280624,-0.77180266,0.6316802,-0.35265452,-0.5725236,-0.74017,,0.016642317,0.0070542432,0.04231149,-0.6378575,-0.7614791,0.11527127,-0.2658795,0.35819712,0.89498764,-0.72280425,0.5402264,-0.43094042,,0.057902917,1.3372962,0.44648653,0.99692535,0.07713039,-0.013808791,0.04291338,-0.68488854,-0.7273831,-0.065560825,0.72455406,-0.6860927,,-0.07732575,0.28629348,-0.03375489,-0.91059965,0.29527703,0.28917083,-0.34102687,-0.93208694,-0.122125275,0.23347159,-0.20982225,0.94945544,,0.031196559,0.48693138,-0.2749212,0.71717376,0.696173,-0.03170038,-0.6962518,0.7177238,0.010297399,0.029920889,0.014686422,0.99944437,,1.1521545175055545,0.37397333943432187,0.19044444535000002,-2.0312664825345874,0.18432263818357916,0.15370551871670013,-0.40051965016125274,,-1.0104655374621576,0.25643334508862486,0.16943806590000002,1.0199318851087265,0.3007369359837344,0.456797965472309,0.875687538545871,,0.026284658535034606,0.02909900195387546,0.07078751784,-0.11578833687890082,,8.85874e-06,-5.4836273e-06,3.8146973e-06,1.0,-5.6177378e-06,-5.9343874e-06,5.6177378e-06,1.0,-5.364418e-07,5.9343874e-06,5.662441e-07,1.0,35,0.105,0,0,0.0,False,-0.25922268071993226,1.0497563883626244
0.13286039885133505,13:56:32.535000,13:55:05.490796,0,,0.11959624,0.005884826,0.019368723,0.93515384,-0.2695369,-0.22986332,-0.06769553,-0.77290523,0.6309,-0.34771335,-0.5744279,-0.74103177,,0.016642317,0.0070542432,0.04231149,-0.6378575,-0.7614791,0.11527127,-0.2658795,0.35819712,0.89498764,-0.72280425,0.5402264,-0.43094042,,0.057902917,1.3372962,0.44648653,0.99692535,0.07713039,-0.013808791,0.04291338,-0.68488854,-0.7273831,-0.065560825,0.72455406,-0.6860927,,-0.07734796,0.28630808,-0.033828497,-0.91303027,0.2882701,0.28857604,-0.33401182,-0.9344685,-0.1233075,0.23411934,-0.20897128,0.94948363,,0.031196559,0.48693138,-0.2749212,0.71717376,0.696173,-0.03170038,-0.6962518,0.7177238,0.010297399,0.029920889,0.014686422,0.99944437,,1.1521545175055545,0.37415096229042905,0.19036926053000003,-2.0388153205000306,0.18459591118311003,0.1534010041691668,-0.40035630609511846,,-1.0104655374621576,0.25643334508862486,0.16943806590000002,1.0199318851087265,0.3007369359837344,0.456797965472309,0.875687538545871,,0.026284658535034606,0.02909900195387546,0.07078751784,-0.11578833687890082,,8.85874e-06,-5.4836273e-06,3.8146973e-06,1.0,-5.6177378e-06,-5.9343874e-06,5.6177378e-06,1.0,-5.364418e-07,5.9343874e-06,5.662441e-07,1.0,43,0.129,0,0,0.0,False,-0.2583885926606384,1.0503840309727575
0.15652176877483726,13:56:32.561947,13:55:05.567402,0,,0.11959407,0.005846694,0.019394353,0.9365766,-0.2645738,-0.22983688,-0.06376387,-0.77350473,0.6305748,-0.34461352,-0.5759264,-0.7413167,,0.01664,0.0070542432,0.042310774,-0.637867,-0.7614728,0.115260884,-0.2658834,0.35819438,0.8949876,-0.7227945,0.54023707,-0.43094334,,0.057902917,1.3372962,0.44648653,0.99692535,0.07713039,-0.013808791,0.04291338,-0.68488854,-0.7273831,-0.065560825,0.72455406,-0.6860927,,-0.07734816,0.2863018,-0.03387405,-0.9145592,0.28339788,0.28856048,-0.32912764,-0.9361432,-0.12373729,0.23506705,-0.2081383,0.94943243,,0.031198949,0.486931,-0.2749211,0.71718174,0.6961653,-0.03168971,-0.69624394,0.7177314,0.0102958325,0.029912302,0.014679787,0.9994447,,1.1521236265740578,0.3741664077561775,0.19032518667,-2.044057569087143,0.18527909368193726,0.15284391465068464,-0.40035630609511846,,-1.010450091996409,0.25643334508862486,0.16943806590000002,1.0199318851087265,0.3007369359837344,0.456797965472309,0.875687538545871,,0.026284658535034606,0.02909900195387546,0.07078751784,-0.11578833687890082,,8.85874e-06,-5.4836273e-06,3.8146973e-06,1.0,-5.6177378e-06,-5.9343874e-06,5.6177378e-06,1.0,-5.364418e-07,5.9343874e-06,5.662441e-07,1.0,51,0.153,0,0,0.0,False,-0.2585077480976805,1.0501909101696396
0.1834674859419465,13:56:32.584076,13:55:05.567402,0,,0.11959152,0.005797595,0.019427583,0.938451,-0.2583789,-0.22923808,-0.05948873,-0.77464837,0.62958795,-0.3402511,-0.5772004,-0.7423402,,0.016640186,0.0070532,0.04231012,-0.63786745,-0.76147205,0.11526281,-0.26588738,0.3582,0.8949841,-0.72279257,0.5402343,-0.43095,,0.057902917,1.3372962,0.44648653,0.99692535,0.07713039,-0.013808791,0.04291338,-0.68488854,-0.7273831,-0.065560825,0.72455406,-0.6860927,,-0.07734871,0.28629386,-0.033932857,-0.9166098,0.27727106,0.2880056,-0.3230891,-0.9380534,-0.12517667,0.23545675,-0.20778963,0.9494122,,0.031198809,0.48692992,-0.27492172,0.71718186,0.6961651,-0.03169087,-0.69624394,0.7177315,0.010288198,0.029907819,0.014686068,0.9994448,,1.1521236265740578,0.3741664077561775,0.19026685362,-2.0505579573351636,0.18527909368193726,0.15284391465068464,-0.40035630609511846,,-1.010450091996409,0.2564256223557506,0.16943806590000002,1.0199318851087265,0.3007369359837344,0.456797965472309,0.875687538545871,,0.026284658535034606,0.02909900195387546,0.07078751784,-0.11578833687890082,,8.85874e-06,-5.4836273e-06,3.8146973e-06,1.0,-5.6177378e-06,-5.9343874e-06,5.6177378e-06,1.0,-5.364418e-07,5.9343874e-06,5.662441e-07,1.0,59,0.178,0,0,0.0,False,-0.2587460589717643,1.0499012289649627
0.20560061186552048,13:56:32.612120,13:55:05.567402,0,,0.11960058,0.005752057,0.019530967,0.9406855,-0.2507482,-0.22855207,-0.05345966,-0.77476907,0.62998,-0.33504146,-0.58039486,-0.7422191,,0.01664,0.0070542432,0.042310774,-0.637867,-0.7614728,0.115260884,-0.2658834,0.35819438,0.8949876,-0.7227945,0.54023707,-0.43094334,,0.057902917,1.3372962,0.44648653,0.99692535,0.07713039,-0.013808791,0.04291338,-0.68488854,-0.7273831,-0.065560825,0.72455406,-0.6860927,,-0.07736512,0.28634015,-0.03403501,-0.9190354,0.26985213,0.2873218,-0.31526154,-0.9407568,-0.12484698,0.23660971,-0.2053203,0.9496628,,0.031198949,0.486931,-0.2749211,0.71718174,0.6961653,-0.03168971,-0.69624394,0.7177314,0.0102958325,0.029912302,0.014679787,0.9994447,,1.152270358498668,0.37444442613964957,0.19016315042,-2.0589455550745446,0.18596227618076444,0.15106164403009414,-0.399539585764447,,-1.010450091996409,0.25643334508862486,0.16943806590000002,1.0199318851087265,0.3007369359837344,0.456797965472309,0.875687538545871,,0.026284658535034606,0.02909900195387546,0.07078751784,-0.11578833687890082,,8.85874e-06,-5.4836273e-06,3.8146973e-06,1.0,-5.6177378e-06,-5.9343874e-06,5.6177378e-06,1.0,-5.364418e-07,5.9343874e-06,5.662441e-07,1.0,66,0.199,0,0,0.0,False,-0.2586269035347226,1.0499012289649627
0.23364691180177033,13:56:32.642057,13:55:05.567402,0,,0.119619355,0.005719021,0.019675612,0.9418083,-0.24724945,-0.2277385,-0.050577685,-0.77400625,0.63115454,-0.33232367,-0.58290815,-0.74147093,,0.01664044,0.0070549883,0.042311788,-0.6376802,-0.76162016,0.1153203,-0.26593867,0.3581747,0.89497906,-0.7229389,0.5400423,-0.43094516,,0.057902917,1.3372962,0.44648653,0.99692535,0.07713039,-0.013808791,0.04291338,-0.68488854,-0.7273831,-0.065560825,0.72455406,-0.6860927,,-0.07739352,0.28642517,-0.034154724,-0.9202634,0.2665327,0.28648835,-0.31135228,-0.94223106,-0.12353282,0.2370127,-0.20288153,0.95008636,,0.031198403,0.48693222,-0.27492085,0.71701354,0.69633585,-0.03174863,-0.69641584,0.71756476,0.010284347,0.029943058,0.014736232,0.999443,,1.1525406541492658,0.3748614537148577,0.19003870658000002,-2.0631393539442353,0.1860989126805299,0.1492349725834459,-0.3992128976321785,,-1.010450091996409,0.25643334508862486,0.16943806590000002,1.019722195165242,0.3008735724834999,0.4566865475686125,0.875687538545871,,0.026284658535034606,0.02909900195387546,0.07078751784,-0.11578833687890082,,8.85874e-06,-5.4836273e-06,3.8146973e-06,1.0,-5.6177378e-06,-5.9343874e-06,5.6177378e-06,1.0,-5.364418e-07,5.9343874e-06,5.662441e-07,1.0,78,0.235,0,0,0.0,False,-0.2585077480976805,1.0501909101696396
0.26359124877490103,13:56:32.671013,13:55:05.567402,0,,0.119637385,0.005694136,0.019867003,0.94322467,-0.24374554,-0.22564441,-0.048264056,-0.7726994,0.63293463,-0.3286303,-0.58610904,-0.7405933,,0.016640075,0.0070553757,0.042312026,-0.6375535,-0.76174194,0.11521666,-0.26608208,0.35807127,0.8949778,-0.7229979,0.5399391,-0.43097547,,0.057902917,1.3372962,0.44648653,0.99692535,0.07713039,-0.013808791,0.04291338,-0.68488854,-0.7273831,-0.065560825,0.72455406,-0.6860927,,-0.0774239,0.28655043,-0.034299493,-0.9218568,0.26326212,0.2843819,-0.30710548,-0.9438543,-0.12175945,0.23636042,-0.19958001,0.9509477,,0.031198747,0.48693258,-0.2749206,0.71689117,0.6964667,-0.03164204,-0.6965457,0.71743894,0.010267425,0.02985215,0.014679499,0.9994465,,1.1530349090532162,0.3754020450160534,0.18988574436000002,-2.0677525327008945,0.18500582068240637,0.14669580872711363,-0.40002961796284986,,-1.010450091996409,0.25643334508862486,0.16943806590000002,1.0195125052217575,0.3008735724834999,0.4566865475686125,0.875687538545871,,0.026284658535034606,0.02909900195387546,0.07078751784,-0.11578833687890082,,8.85874e-06,-5.4836273e-06,3.8146973e-06,1.0,-5.6177378e-06,-5.9343874e-06,5.6177378e-06,1.0,-5.364418e-07,5.9343874e-06,5.662441e-07,1.0,86,0.26,0,0,0.0,False,-0.2579715486309908,1.05014262996886
0.29254354699514806,13:56:32.703830,13:55:05.711086,0,,0.11968389,0.00567241,0.020109579,0.9450101,-0.23976193,-0.2224185,-0.046028897,-0.7708329,0.63537234,-0.3237856,-0.59019566,-0.73948085,,0.01664123,0.0070553906,0.042312384,-0.63754874,-0.7617357,0.11528406,-0.26608017,0.3581457,0.89494854,-0.72300285,0.5398986,-0.43101808,,0.057902917,1.3372962,0.44648653,0.99692535,0.07713039,-0.013808791,0.04291338,-0.68488854,-0.7273831,-0.065560825,0.72455406,-0.6860927,,-0.07748579,0.286715,-0.034474317,-0.9238916,0.25957963,0.28114533,-0.30206594,-0.94577885,-0.11940899,0.23490518,-0.1952454,0.9522073,,0.031197554,0.48693278,-0.27492067,0.7168872,0.696468,-0.03170426,-0.69654965,0.71743596,0.010209609,0.029856442,0.014764452,0.99944514,,1.153614114018783,0.3761897637692243,0.18969778231,-2.073204471231492,0.1830929096856902,0.14335493497042984,-0.39970292983058137,,-1.0104578147292833,0.25643334508862486,0.16943806590000002,1.0195125052217575,0.3008735724834999,0.45660486882847184,0.8755241944797368,,0.026284658535034606,0.02909900195387546,0.07078751784,-0.11578833687890082,,8.85874e-06,-5.4836273e-06,3.8146973e-06,1.0,-5.6177378e-06,-5.9343874e-06,5.6177378e-06,1.0,-5.364418e-07,5.9343874e-06,5.662441e-07,1.0,97,0.293,0,0,0.0,False,-0.2590439475643693,1.0506254319766548
0.3253413049969822,13:56:32.726194,13:55:05.711086,0,,0.119736835,0.0056749433,0.02032949,0.9466262,-0.23710936,-0.218353,-0.04576014,-0.76940835,0.63711596,-0.3190688,-0.5931188,-0.73919225,,0.016640075,0.0070553757,0.042312026,-0.6375535,-0.76174194,0.11521666,-0.26608208,0.35807127,0.8949778,-0.7229979,0.5399391,-0.43097547,,0.057902917,1.3372962,0.44648653,0.99692535,0.07713039,-0.013808791,0.04291338,-0.68488854,-0.7273831,-0.065560825,0.72455406,-0.6860927,,-0.0775522,0.28687868,-0.03461565,-0.9257908,0.25714386,0.2771074,-0.29842785,-0.94708955,-0.11816172,0.23206095,-0.19208959,0.95354563,,0.031198747,0.48693258,-0.2749206,0.71689117,0.6964667,-0.03164204,-0.6965457,0.71743894,0.010267425,0.02985215,0.014679499,0.9994465,,1.1542242099158468,0.37696203705664677,0.18954093122000001,-2.0771885801576984,0.1798136336913196,0.1411282402507102,-0.4016630586241927,,-1.010450091996409,0.25643334508862486,0.16943806590000002,1.0195125052217575,0.3008735724834999,0.4566865475686125,0.875687538545871,,0.026284658535034606,0.02909900195387546,0.07078751784,-0.11578833687890082,,8.85874e-06,-5.4836273e-06,3.8146973e-06,1.0,-5.6177378e-06,-5.9343874e-06,5.6177378e-06,1.0,-5.364418e-07,5.9343874e-06,5.662441e-07,1.0,105,0.317,0,0,0.0,False,-0.25868648125324345,1.0499977893665218
0.34772667195647955,13:56:32.752951,13:55:05.711086,0,,0.11974266,0.0056883544,0.02046834,0.94713265,-0.23627354,-0.21705906,-0.045409426,-0.7684347,0.63831496,-0.31761265,-0.59471244,-0.7385386,,0.016640075,0.0070553757,0.042312026,-0.6375535,-0.76174194,0.11521666,-0.26608208,0.35807127,0.8949778,-0.7229979,0.5399391,-0.43097547,,0.057902917,1.3372962,0.44648653,0.99692535,0.07713039,-0.013808791,0.04291338,-0.68488854,-0.7273831,-0.065560825,0.72455406,-0.6860927,,-0.07756633,0.28699076,-0.03469766,-0.92637897,0.25642908,0.27580097,-0.29712638,-0.94765306,-0.116917014,0.23138271,-0.1902572,0.95407766,,0.031198747,0.48693258,-0.2749206,0.71689117,0.6964667,-0.03164204,-0.6965457,0.71743894,0.010267425,0.02985215,0.014679499,0.9994465,,1.1547030193540486,0.37739451009760333,0.18945278350000003,-2.07865640976209,0.17885717819296154,0.13986619707307107,-0.4008463382935213,,-1.010450091996409,0.25643334508862486,0.16943806590000002,1.0195125052217575,0.3008735724834999,0.4566865475686125,0.875687538545871,,0.026284658535034606,0.02909900195387546,0.07078751784,-0.11578833687890082,,8.85874e-06,-5.4836273e-06,3.8146973e-06,1.0,-5.6177378e-06,-5.9343874e-06,5.6177378e-06,1.0,-5.364418e-07,5.9343874e-06,5.662441e-07,1.0,112,0.338,0,0,0.0,False,-0.25910352528289105,1.0499495091657423
0.374484728788957,13:56:32.778161,13:55:05.711086,0,,0.119776845,0.0057177693,0.020661905,0.94883245,-0.23125254,-0.21503307,-0.042384908,-0.7680616,0.63897175,-0.31292248,-0.597163,-0.7385634,,0.016640075,0.0070553757,0.042312026,-0.6375535,-0.76174194,0.11521666,-0.26608208,0.35807127,0.8949778,-0.7229979,0.5399391,-0.43097547,,0.057902917,1.3372962,0.44648653,0.99692535,0.07713039,-0.013808791,0.04291338,-0.68488854,-0.7273831,-0.065560825,0.72455406,-0.6860927,,-0.07761181,0.28715336,-0.034802515,-0.92830205,0.25157854,0.27379468,-0.29167253,-0.94938946,-0.11656244,0.23061316,-0.18806353,0.95469874,,0.031198747,0.48693258,-0.2749206,0.71689117,0.6964667,-0.03164204,-0.6965457,0.71743894,0.010267425,0.02985215,0.014679499,0.9994465,,1.1553053925182382,0.37815906065215155,0.18933741369,-2.0845277281796566,0.17762744969507258,0.13882698970282484,-0.40100968235965556,,-1.010450091996409,0.25643334508862486,0.16943806590000002,1.0195125052217575,0.3008735724834999,0.4566865475686125,0.875687538545871,,0.026284658535034606,0.02909900195387546,0.07078751784,-0.11578833687890082,,8.85874e-06,-5.4836273e-06,3.8146973e-06,1.0,-5.6177378e-06,-5.9343874e-06,5.6177378e-06,1.0,-5.364418e-07,5.9343874e-06,5.662441e-07,1.0,123,0.371,0,0,0.0,False,-0.25785239319394915,1.05014262996886
0.39969373494386673,13:56:32.804909,13:55:05.711086,0,,0.11981043,0.0057201684,0.020787463,0.9487955,-0.23215988,-0.21421665,-0.043316185,-0.7673466,0.63976777,-0.31290683,-0.59772974,-0.73811144,,0.016640268,0.0070543326,0.04231131,-0.63755393,-0.76174116,0.11521858,-0.2660861,0.35807693,0.89497435,-0.722996,0.5399364,-0.4309821,,0.057902917,1.3372962,0.44648653,0.99692535,0.07713039,-0.013808791,0.04291338,-0.68488854,-0.7273831,-0.065560825,0.72455406,-0.6860927,,-0.077653065,0.28724733,-0.034882322,-0.92828584,0.25253412,0.2729688,-0.29228094,-0.94930524,-0.115721226,0.22990714,-0.18720596,0.95503753,,0.031198608,0.4869315,-0.27492124,0.7168913,0.69646645,-0.031643193,-0.6965457,0.71743906,0.01025979,0.029847663,0.014685777,0.9994466,,1.1555756881688362,0.37862242462460505,0.18925056226000003,-2.0838986583492027,0.1769442671962454,0.13840393433962014,-0.40117302642578984,,-1.010450091996409,0.2564256223557506,0.16943806590000002,1.0195125052217575,0.3008735724834999,0.4566865475686125,0.875687538545871,,0.026284658535034606,0.02909900195387546,0.07078751784,-0.11578833687890082,,8.85874e-06,-5.4836273e-06,3.8146973e-06,1.0,-5.6177378e-06,-5.9343874e-06,5.6177378e-06,1.0,-5.364418e-07,5.9343874e-06,5.662441e-07,1.0,138,0.416,0,0,0.0,False,-0.25815028178655464,1.0499977893665218
0.4264341287780553,13:56:32.854018,13:55:05.852735,0,,0.11986366,0.0057323575,0.020921946,0.9505975,-0.22680502,-0.21195252,-0.04000923,-0.766599,0.6408785,-0.30783707,-0.6007374,-0.73780143,,0.016640455,0.0070532747,0.042310715,-0.6375545,-0.76174045,0.1152205,-0.26609012,0.35808256,0.89497095,-0.7229941,0.5399338,-0.43098873,,0.057902917,1.3372962,0.44648653,0.99692535,0.07713039,-0.013808791,0.04291338,-0.68488854,-0.7273831,-0.065560825,0.72455406,-0.6860927,,-0.077714235,0.28735384,-0.034959625,-0.93032837,0.24739285,0.27071372,-0.28635943,-0.9512172,-0.11482231,0.22910132,-0.18434389,0.9557876,,0.03119847,0.48693043,-0.27492186,0.71689147,0.69646627,-0.03164435,-0.6965458,0.7174391,0.010252154,0.029843176,0.014692056,0.99944663,,1.1558691520180566,0.3792556887202915,0.18916241454000002,-2.0901893566537386,0.17571453869835643,0.13654793956796826,-0.4001929620289842,,-1.010450091996409,0.2564178996228764,0.16943806590000002,1.0195125052217575,0.3008735724834999,0.4566865475686125,0.875687538545871,,0.026284658535034606,0.02909900195387546,0.07078751784,-0.11578833687890082,,8.85874e-06,-5.4836273e-06,3.8146973e-06,1.0,-5.6177378e-06,-5.9343874e-06,5.6177378e-06,1.0,-5.364418e-07,5.9343874e-06,5.662441e-07,1.0,149,0.448,0,0,0.0,False,-0.25826943722359585,1.0500943497680806
0.475546239875257,13:56:32.883865,13:55:05.852735,0,,0.11989665,0.005739972,0.020943716,0.95102316,-0.22558495,-0.21134406,-0.039211527,-0.7662104,0.64139235,-0.30662248,-0.60169196,-0.73752934,,0.016639106,0.0070543326,0.042310953,-0.6375587,-0.76172864,0.1152756,-0.26608804,0.35814863,0.8949451,-0.7229911,0.53990656,-0.43102765,,0.057902917,1.3372962,0.44648653,0.99692535,0.07713039,-0.013808791,0.04291338,-0.68488854,-0.7273831,-0.065560825,0.72455406,-0.6860927,,-0.07774835,0.28737408,-0.034966554,-0.9308116,0.24624273,0.2701005,-0.28493696,-0.95170754,-0.11429657,0.22891198,-0.18335019,0.95602405,,0.031199804,0.48693132,-0.27492118,0.7168953,0.69646,-0.031694744,-0.6965418,0.7174437,0.010200407,0.029843371,0.014764091,0.99944556,,1.1558305383536855,0.3794719252407697,0.18915334051000002,-2.0916571862581304,0.17571453869835643,0.13564947342642208,-0.400682994227387,,-1.010442369263535,0.2564256223557506,0.16943806590000002,1.0195125052217575,0.3008735724834999,0.45660486882847184,0.875687538545871,,0.026284658535034606,0.02909900195387546,0.07078751784,-0.11578833687890082,,8.85874e-06,-5.4836273e-06,3.8146973e-06,1.0,-5.6177378e-06,-5.9343874e-06,5.6177378e-06,1.0,-5.364418e-07,5.9343874e-06,5.662441e-07,1.0,160,0.481,0,0,0.0,False,-0.2580907040680329,1.0499012289649627
0.5053976108320057,13:56:32.915530,13:55:05.852735,0,,0.11991152,0.0057278275,0.020950973,0.95225334,-0.22100489,-0.2106426,-0.036156803,-0.76671076,0.6409738,-0.30316025,-0.6027533,-0.73809373,,0.016642585,0.0070543177,0.042312026,-0.63754463,-0.76171935,0.11541562,-0.26608226,0.35829893,0.8948867,-0.7230057,0.53982013,-0.43111145,,0.057902917,1.3372962,0.44648653,0.99692535,0.07713039,-0.013808791,0.04291338,-0.68488854,-0.7273831,-0.065560825,0.72455406,-0.6860927,,-0.0777639,0.2873709,-0.034979567,-0.93218935,0.24172771,0.2694267,-0.28036186,-0.9529785,-0.115018405,0.22895472,-0.1827559,0.95612764,,0.03119622,0.4869319,-0.27492136,0.71688336,0.69646645,-0.031824525,-0.6965536,0.7174339,0.010085559,0.029856246,0.014937317,0.9994426,,1.1557842019564402,0.379549152569512,0.18913908132,-2.0964800549582745,0.17557790219859098,0.13535249762941573,-0.40019296202898413,,-1.0104655374621576,0.2564256223557506,0.16943806590000002,1.0195125052217575,0.3008735724834999,0.4564415113481908,0.8755241944797367,,0.026284658535034606,0.02909900195387546,0.07078751784,-0.11578833687890082,,8.85874e-06,-5.4836273e-06,3.8146973e-06,1.0,-5.6177378e-06,-5.9343874e-06,5.6177378e-06,1.0,-5.364418e-07,5.9343874e-06,5.662441e-07,1.0,171,0.514,0,0,0.0,False,-0.2584481703791588,1.0499495091657423
0.5370620868634433,13:56:32.948158,13:55:05.852735,0,,0.11990093,0.0057104826,0.020936504,0.9549272,-0.20985743,-0.20993766,-0.027861297,-0.76748496,0.64046115,-0.29552957,-0.6057447,-0.73873925,,0.016642787,0.0070532747,0.04231137,-0.6375451,-0.7617186,0.11541754,-0.26608625,0.35830456,0.8948832,-0.7230038,0.53981745,-0.4311181,,0.057902917,1.3372962,0.44648653,0.99692535,0.07713039,-0.013808791,0.04291338,-0.68488854,-0.7273831,-0.065560825,0.72455406,-0.6860927,,-0.0777528,0.2873489,-0.034983467,-0.9351555,0.2307732,0.2687525,-0.26923457,-0.9560797,-0.11586349,0.23021062,-0.18070783,0.9562153,,0.03119608,0.48693082,-0.27492198,0.7168835,0.6964662,-0.03182568,-0.6965536,0.717434,0.010077924,0.029851759,0.014943596,0.99944264,,1.1557610337578175,0.3795259843708893,0.18913778503,-2.108222691793408,0.17626108469741816,0.13389694196938742,-0.40035630609511846,,-1.0104655374621576,0.2564178996228764,0.16943806590000002,1.0195125052217575,0.3008735724834999,0.4564415113481908,0.8755241944797367,,0.026284658535034606,0.02909900195387546,0.07078751784,-0.11578833687890082,,8.85874e-06,-5.4836273e-06,3.8146973e-06,1.0,-5.6177378e-06,-5.9343874e-06,5.6177378e-06,1.0,-5.364418e-07,5.9343874e-06,5.662441e-07,1.0,182,0.547,0,0,0.0,False,-0.25856732581620134,1.0498529487641832
0.5696920098271221,13:56:32.987388,13:55:06.006112,0,,0.11989841,0.005708739,0.020939395,0.95615447,-0.20455362,-0.20958628,-0.023797646,-0.7675477,0.6405499,-0.29189426,-0.60747695,-0.73876214,,0.01664143,0.0070543326,0.042311728,-0.6375493,-0.76172554,0.11534821,-0.26608416,0.35822445,0.8949159,-0.7230009,0.53986067,-0.43106884,,0.057902917,1.3372962,0.44648653,0.99692535,0.07713039,-0.013808791,0.04291338,-0.68488854,-0.7273831,-0.065560825,0.72455406,-0.6860927,,-0.07775049,0.28734997,-0.034986835,-0.9365198,0.22558676,0.2684051,-0.26385748,-0.95758134,-0.11583266,0.23088942,-0.17930028,0.95631665,,0.031197414,0.4869317,-0.2749213,0.71688735,0.69646513,-0.031762302,-0.69654965,0.7174369,0.010143374,0.029851954,0.014852364,0.999444,,1.1557842019564402,0.37957232076813463,0.18913519245000002,-2.11388432026749,0.1766709941967145,0.1328275795970331,-0.40084633829352123,,-1.0104578147292833,0.2564256223557506,0.16943806590000002,1.0195125052217575,0.3008735724834999,0.4565231900883313,0.8753608504136025,,0.026284658535034606,0.02909900195387546,0.07078751784,-0.11578833687890082,,8.85874e-06,-5.4836273e-06,3.8146973e-06,1.0,-5.6177378e-06,-5.9343874e-06,5.6177378e-06,1.0,-5.364418e-07,5.9343874e-06,5.662441e-07,1.0,193,0.579,0,0,0.0,False,-0.25815028178655464,1.049804668563404
0.6089172479696572,13:56:33.015008,13:55:06.006112,0,,0.11989537,0.0057087988,0.020942628,0.9575581,-0.19843912,-0.20905589,-0.018932328,-0.7670171,0.6413472,-0.28761783,-0.6101693,-0.73822045,,0.01664143,0.0070543326,0.042311728,-0.6375493,-0.7617161,0.11541042,-0.26608416,0.35829756,0.8948866,-0.7230009,0.5398255,-0.43111295,,0.057902917,1.3372962,0.44648653,0.99692535,0.07713039,-0.013808791,0.04291338,-0.68488854,-0.7273831,-0.065560825,0.72455406,-0.6860927,,-0.077747665,0.2873525,-0.034989107,-0.9380829,0.21966338,0.26785913,-0.25747412,-0.9594278,-0.11491462,0.23174895,-0.17676623,0.95658046,,0.031197414,0.4869317,-0.2749213,0.71688735,0.6964626,-0.031819187,-0.69654965,0.71743774,0.010084775,0.029851954,0.014933997,0.99944276,,1.155815092887937,0.37963410263112846,0.18913389616,-2.120594398458995,0.17721754019577626,0.1306666544392956,-0.4023164348887298,,-1.0104578147292833,0.2564256223557506,0.16943806590000002,1.0195125052217575,0.3008735724834999,0.4564415113481908,0.8751975063474683,,0.026284658535034606,0.02909900195387546,0.07078751784,-0.11578833687890082,,8.85874e-06,-5.4836273e-06,3.8146973e-06,1.0,-5.6177378e-06,-5.9343874e-06,5.6177378e-06,1.0,-5.364418e-07,5.9343874e-06,5.662441e-07,1.0,200,0.6,0,0,0.0,False,-0.25779281547542787,1.049370146756389
0.6365407158154994,13:56:33.043942,13:55:06.006112,0,,0.11990416,0.0057175457,0.020955265,0.9571004,-0.2006412,-0.20905003,-0.020344853,-0.766221,0.64225495,-0.28904134,-0.61044943,-0.7374325,,0.016642585,0.0070543177,0.042312026,-0.63754463,-0.76171935,0.11541562,-0.26608226,0.35829893,0.8948867,-0.7230057,0.53982013,-0.43111145,,0.057902917,1.3372962,0.44648653,0.99692535,0.07713039,-0.013808791,0.04291338,-0.68488854,-0.7273831,-0.065560825,0.72455406,-0.6860927,,-0.07775703,0.28736746,-0.034990504,-0.9375677,0.22189485,0.26782358,-0.2594612,-0.95903444,-0.113722764,0.23161754,-0.17611262,0.9567328,,0.03119622,0.4869319,-0.27492136,0.71688336,0.69646645,-0.031824525,-0.6965536,0.7174339,0.010085559,0.029856246,0.014937317,0.9994426,,1.1558305383536855,0.37971132995987067,0.18913130358000002,-2.1184974990241496,0.17721754019577626,0.12993154577803057,-0.40019296202898413,,-1.0104655374621576,0.2564256223557506,0.16943806590000002,1.0195125052217575,0.3008735724834999,0.4564415113481908,0.8751975063474683,,0.026284658535034606,0.02909900195387546,0.07078751784,-0.11578833687890082,,8.85874e-06,-5.4836273e-06,3.8146973e-06,1.0,-5.6177378e-06,-5.9343874e-06,5.6177378e-06,1.0,-5.364418e-07,5.9343874e-06,5.662441e-07,1.0,211,0.633,0,0,0.0,False,-0.25791197091247,1.0491770259532711
0.6654646347742528,13:56:33.066289,13:55:06.006112,0,,0.11991702,0.0057171285,0.02096355,0.9571855,-0.20048271,-0.20881228,-0.020334497,-0.7661334,0.64235973,-0.2887601,-0.6106113,-0.7374086,,0.01664178,0.0070539154,0.04231155,-0.637676,-0.76159436,0.11551404,-0.26594076,0.358401,0.8948878,-0.7229419,0.5399287,-0.43108264,,0.057902917,1.3372962,0.44648653,0.99692535,0.07713039,-0.013808791,0.04291338,-0.68488854,-0.7273831,-0.065560825,0.72455406,-0.6860927,,-0.07777038,0.28737295,-0.0349956,-0.9376698,0.22174858,0.26758707,-0.2592477,-0.9591016,-0.113642745,0.23144309,-0.17593071,0.9568085,,0.03119707,0.48693135,-0.27492157,0.7170097,0.6963317,-0.03192575,-0.6964198,0.71756357,0.010101667,0.029942865,0.014990729,0.9994392,,1.1558073701550629,0.3797808345557387,0.18912482213,-2.118707188967634,0.17708090369601082,0.1297979274613053,-0.3998662738967156,,-1.0104578147292833,0.2564256223557506,0.16943806590000002,1.019722195165242,0.3008735724834999,0.4564415113481908,0.8755241944797367,,0.026284658535034606,0.02909900195387546,0.07078751784,-0.11578833687890082,,8.85874e-06,-5.4836273e-06,3.8146973e-06,1.0,-5.6177378e-06,-5.9343874e-06,5.6177378e-06,1.0,-5.364418e-07,5.9343874e-06,5.662441e-07,1.0,222,0.665,0,0,0.0,False,-0.25815028178655464,1.0496115477602863
0.6878222189843655,13:56:33.098583,13:55:06.006112,0,,0.119940385,0.0057154596,0.020986572,0.9572806,-0.20050707,-0.20835227,-0.02068153,-0.76617277,0.64230174,-0.28841984,-0.610554,-0.7375892,,0.016641177,0.0070525,0.042310357,-0.6378079,-0.7614591,0.115676574,-0.26580328,0.35858178,0.8948562,-0.72287595,0.5399993,-0.4311046,,0.057902917,1.3372962,0.44648653,0.99692535,0.07713039,-0.013808791,0.04291338,-0.68488854,-0.7273831,-0.065560825,0.72455406,-0.6860927,,-0.07779516,0.2873882,-0.0350108,-0.93779314,0.2217685,0.267138,-0.259229,-0.9590844,-0.11383062,0.23096384,-0.17599949,0.9569116,,0.031197779,0.4869297,-0.27492237,0.7171362,0.6961941,-0.032084998,-0.69628596,0.7176941,0.010051499,0.030025007,0.015132041,0.9994346,,1.1557919246893142,0.37991984374747473,0.18910667407,-2.118707188967634,0.1766709941967145,0.12996882369211343,-0.4000296179628499,,-1.010450091996409,0.2564178996228764,0.16943806590000002,1.0199318851087265,0.3008735724834999,0.45635983260805024,0.8753608504136026,,0.026284658535034606,0.02909900195387546,0.07078751784,-0.11578833687890082,,8.85874e-06,-5.4836273e-06,3.8146973e-06,1.0,-5.6177378e-06,-5.9343874e-06,5.6177378e-06,1.0,-5.364418e-07,5.9343874e-06,5.662441e-07,1.0,233,0.698,0,0,0.0,False,-0.25815028178655464,1.0493218665556094
0.7201166260056198,13:56:33.136194,13:55:06.006112,0,,0.11996727,0.005715117,0.02102676,0.9573533,-0.20034365,-0.20817554,-0.020599872,-0.7660291,0.6424757,-0.28818446,-0.61078787,-0.7374876,,0.016642146,0.007053513,0.04231137,-0.63780266,-0.76145357,0.11574205,-0.26579732,0.35865057,0.89483047,-0.72288287,0.5399614,-0.43114063,,0.057902917,1.3372962,0.44648653,0.99692535,0.07713039,-0.013808791,0.04291338,-0.68488854,-0.7273831,-0.065560825,0.72455406,-0.6860927,,-0.07782449,0.28741705,-0.03503625,-0.93787855,0.22162294,0.266959,-0.25900164,-0.9591679,-0.11364466,0.23087226,-0.17572771,0.9569837,,0.031196723,0.48693097,-0.2749218,0.71713203,0.69619554,-0.03214604,-0.6962899,0.717691,0.0100013,0.030033784,0.0152107105,0.99943316,,1.1557996474221885,0.38013608026795304,0.18907815569000003,-2.1189168789111186,0.1766709941967145,0.12988714495197284,-0.4001929620289842,,-1.0104578147292833,0.2564256223557506,0.16943806590000002,1.0199318851087265,0.3008735724834999,0.4562781538679097,0.8751975063474682,,0.026284658535034606,0.02909900195387546,0.07078751784,-0.11578833687890082,,8.85874e-06,-5.4836273e-06,3.8146973e-06,1.0,-5.6177378e-06,-5.9343874e-06,5.6177378e-06,1.0,-5.364418e-07,5.9343874e-06,5.662441e-07,1.0,244,0.731,0,0,0.0,False,-0.25791197091247,1.0495632675595068
0.7577256828080863,13:56:33.169452,13:55:06.006112,0,,0.11998902,0.00571388,0.021052748,0.9589129,-0.19365588,-0.20732449,-0.016137883,-0.7668365,0.64163953,-0.28324124,-0.61193067,-0.73845464,,0.01664234,0.007052485,0.042310715,-0.63780326,-0.7614528,0.115743965,-0.2658013,0.3586562,0.894827,-0.7228809,0.53995866,-0.43114725,,0.057902917,1.3372962,0.44648653,0.99692535,0.07713039,-0.013808791,0.04291338,-0.68488854,-0.7273831,-0.065560825,0.72455406,-0.6860927,,-0.07784784,0.28743485,-0.03505321,-0.9396471,0.21500333,0.26615208,-0.25239608,-0.960772,-0.1149496,0.23099694,-0.1751878,0.9570526,,0.031196583,0.4869299,-0.27492243,0.7171322,0.6961953,-0.0321472,-0.6962899,0.71769106,0.009993664,0.0300293,0.015216991,0.99943316,,1.1558228156208112,0.3803368713226829,0.18905871134000002,-2.125836647046108,0.17653435769694906,0.12991688411552876,-0.40035630609511846,,-1.0104578147292833,0.2564178996228764,0.16943806590000002,1.0199318851087265,0.3008735724834999,0.4562781538679097,0.8751975063474682,,0.026284658535034606,0.02909900195387546,0.07078751784,-0.11578833687890082,,8.85874e-06,-5.4836273e-06,3.8146973e-06,1.0,-5.6177378e-06,-5.9343874e-06,5.6177378e-06,1.0,-5.364418e-07,5.9343874e-06,5.662441e-07,1.0,255,0.764,0,0,0.0,False,-0.25826943722359585,1.0493218665556094
0.7909466419368982,13:56:33.196804,13:55:06.006112,0,,0.120006025,0.005717814,0.02108486,0.9608938,-0.18492651,-0.20611942,-0.009780034,-0.766535,0.642128,-0.27674425,-0.615001,-0.73836744,,0.016641371,0.007051412,0.04230976,-0.6378085,-0.7614489,0.1157407,-0.2658073,0.3586605,0.89482355,-0.72287405,0.5399614,-0.43115535,,0.057902917,1.3372962,0.44648653,0.99692535,0.07713039,-0.013808791,0.04291338,-0.68488854,-0.7273831,-0.065560825,0.72455406,-0.6860927,,-0.07786671,0.28746083,-0.03507066,-0.9418924,0.20648925,0.2649545,-0.24338289,-0.9631366,-0.1145975,0.23152424,-0.17242391,0.957427,,0.03119764,0.48692864,-0.27492303,0.7171364,0.69619125,-0.03214302,-0.696286,0.717695,0.009985243,0.030020522,0.015219953,0.9994334,,1.1559000429495534,0.38057627604178385,0.18903926699,-2.1352726945029117,0.1766709941967145,0.1278451764484588,-0.39986627389671564,,-1.010450091996409,0.2564101768900022,0.16943806590000002,1.0199318851087265,0.3008735724834999,0.4562781538679097,0.8751975063474682,,0.026284658535034606,0.02909900195387546,0.07078751784,-0.11578833687890082,,8.85874e-06,-5.4836273e-06,3.8146973e-06,1.0,-5.6177378e-06,-5.9343874e-06,5.6177378e-06,1.0,-5.364418e-07,5.9343874e-06,5.662441e-07,1.0,266,0.797,0,0,0.0,False,-0.2594014138754961,1.0496115477602863
0.8182854119222611,13:56:33.229256,13:55:06.235397,0,,0.12001486,0.005725831,0.021117374,0.9628007,-0.17641753,-0.20467459,-0.003486231,-0.7655047,0.6434208,-0.27019006,-0.6187725,-0.7376436,,0.016641371,0.007051412,0.04230976,-0.6378085,-0.7614489,0.1157407,-0.2658073,0.3586605,0.89482355,-0.72287405,0.5399614,-0.43115535,,0.057902917,1.3372962,0.44648653,0.99692535,0.07713039,-0.013808791,0.04291338,-0.68488854,-0.7273831,-0.065560825,0.72455406,-0.6860927,,-0.077877365,0.2874901,-0.03508583,-0.9440687,0.1982539,0.26349515,-0.23436746,-0.9655299,-0.11324275,0.23196162,-0.16866362,0.9579908,,0.03119764,0.48692864,-0.27492303,0.7171364,0.69619125,-0.03214302,-0.696286,0.717695,0.009985243,0.030020522,0.015219953,0.9994334,,1.1560313294084152,0.3807925125622621,0.18902241522000002,-2.144708741959715,0.1766709941967145,0.12474138432311743,-0.39986627389671564,,-1.010450091996409,0.2564101768900022,0.16943806590000002,1.0199318851087265,0.3008735724834999,0.4562781538679097,0.8751975063474682,,0.026284658535034606,0.02909900195387546,0.07078751784,-0.11578833687890082,,8.85874e-06,-5.4836273e-06,3.8146973e-06,1.0,-5.6177378e-06,-5.9343874e-06,5.6177378e-06,1.0,-5.364418e-07,5.9343874e-06,5.662441e-07,1.0,281,0.842,0,0,0.0,False,-0.2586269035347226,1.0493218665556094
0.8507535269018263,13:56:33.271155,13:55:06.235397,0,,0.12000759,0.005782217,0.021202505,0.9649739,-0.1652758,-0.20373827,0.0051966906,-0.76440716,0.64471287,-0.26229444,-0.62318987,-0.7367741,,0.016641565,0.007050354,0.042309046,-0.63780904,-0.76144814,0.11574262,-0.26581126,0.35866612,0.89482003,-0.7228721,0.5399587,-0.431162,,0.057902917,1.3372962,0.44648653,0.99692535,0.07713039,-0.013808791,0.04291338,-0.68488854,-0.7273831,-0.065560825,0.72455406,-0.6860927,,-0.0778742,0.2875913,-0.035100855,-0.9465436,0.1874329,0.26253417,-0.22276844,-0.96844363,-0.11176387,0.23330133,-0.1642737,0.9584282,,0.0311975,0.48692754,-0.27492365,0.71713656,0.696191,-0.032144174,-0.696286,0.71769506,0.009977608,0.030016037,0.015226234,0.99943346,,1.1565101388466172,0.3812635992675898,0.18900556345000002,-2.1568707586818174,0.1773541766955417,0.12157057512013736,-0.39904955356604427,,-1.010450091996409,0.2564024541571279,0.16943806590000002,1.0199318851087265,0.3008735724834999,0.4562781538679097,0.8751975063474682,,0.026284658535034606,0.02909900195387546,0.07078751784,-0.11578833687890082,,8.85874e-06,-5.4836273e-06,3.8146973e-06,1.0,-5.6177378e-06,-5.9343874e-06,5.6177378e-06,1.0,-5.364418e-07,5.9343874e-06,5.662441e-07,1.0,292,0.874,0,0,0.0,False,-0.2583885926606384,1.049708108161845
0.8926855030003935,13:56:33.311166,13:55:06.235397,0,,0.119999185,0.0058516115,0.021293938,0.9667008,-0.15703684,-0.20206183,0.011626497,-0.7618179,0.64768684,-0.25564504,-0.6284687,-0.73462427,,0.016642526,0.007051397,0.04231006,-0.6378038,-0.76146156,0.1156837,-0.26580533,0.35858873,0.8948529,-0.72287893,0.53999126,-0.4311098,,0.057902917,1.3372962,0.44648653,0.99692535,0.07713039,-0.013808791,0.04291338,-0.68488854,-0.7273831,-0.065560825,0.72455406,-0.6860927,,-0.07787002,0.28770593,-0.035110444,-0.9485433,0.17959324,0.2607908,-0.21358566,-0.9709102,-0.10823369,0.23376642,-0.15836552,0.9593089,,0.031196445,0.48692882,-0.2749231,0.7171324,0.69619775,-0.03209149,-0.6962899,0.71769035,0.010044648,0.030024815,0.015141639,0.9994345,,1.1570738983464357,0.38174240870579174,0.18899260055000003,-2.1665164960821057,0.17721754019577626,0.11669958987525947,-0.3998662738967156,,-1.0104578147292833,0.2564101768900022,0.16943806590000002,1.0199318851087265,0.3008735724834999,0.45635983260805024,0.8750341622813339,,0.026284658535034606,0.02909900195387546,0.07078751784,-0.11578833687890082,,8.85874e-06,-5.4836273e-06,3.8146973e-06,1.0,-5.6177378e-06,-5.9343874e-06,5.6177378e-06,1.0,-5.364418e-07,5.9343874e-06,5.662441e-07,1.0,303,0.907,0,0,0.0,False,-0.25785239319394915,1.0493218665556094
0.9326980977784842,13:56:33.342008,13:55:06.235397,0,,0.119996965,0.0059221387,0.021381289,0.9676055,-0.15423779,-0.199876,0.013040245,-0.7601014,0.64967364,-0.25213027,-0.63123417,-0.7334669,,0.016641371,0.007051412,0.04230976,-0.6378085,-0.76145834,0.115678504,-0.2658073,0.35858738,0.8948528,-0.72287405,0.53999656,-0.43111125,,0.057902917,1.3372962,0.44648653,0.99692535,0.07713039,-0.013808791,0.04291338,-0.68488854,-0.7273831,-0.065560825,0.72455406,-0.6860927,,-0.07787172,0.28781804,-0.035116144,-0.949634,0.1770077,0.2585798,-0.2100556,-0.97191346,-0.10611723,0.2325336,-0.15508866,0.96014357,,0.03119764,0.48692864,-0.27492303,0.7171364,0.6961939,-0.032086156,-0.696286,0.71769416,0.010043863,0.030020522,0.015138321,0.99943465,,1.157637657846254,0.38215171354812566,0.18898093394,-2.170290915064827,0.17557790219859098,0.11411602519286955,-0.39888620949990994,,-1.010450091996409,0.2564101768900022,0.16943806590000002,1.0199318851087265,0.3008735724834999,0.45635983260805024,0.8750341622813339,,0.026284658535034606,0.02909900195387546,0.07078751784,-0.11578833687890082,,8.85874e-06,-5.4836273e-06,3.8146973e-06,1.0,-5.6177378e-06,-5.9343874e-06,5.6177378e-06,1.0,-5.364418e-07,5.9343874e-06,5.662441e-07,1.0,314,0.94,0,0,0.0,False,-0.25785239319394915,1.049708108161845
0.963501846883446,13:56:33.375437,13:55:06.400933,0,,0.119979516,0.0059865266,0.021470368,0.96849585,-0.14935592,-0.19926989,0.017014757,-0.75862944,0.65130013,-0.24844754,-0.6341721,-0.7321882,,0.016641565,0.007050354,0.042309046,-0.63780904,-0.7614576,0.11568043,-0.26581126,0.35859302,0.8948493,-0.7228721,0.53999394,-0.4311179,,0.057902917,1.3372962,0.44648653,0.99692535,0.07713039,-0.013808791,0.04291338,-0.68488854,-0.7273831,-0.065560825,0.72455406,-0.6860927,,-0.077858485,0.28792787,-0.035128422,-0.950667,0.17234933,0.25793,-0.20469189,-0.9732751,-0.10410001,0.23309529,-0.15176062,0.96053904,,0.0311975,0.48692754,-0.27492365,0.71713656,0.69619364,-0.03208731,-0.696286,0.7176943,0.010036228,0.030016037,0.0151446005,0.99943465,,1.158185971880324,0.38255329565758533,0.18896667475,-2.175952543538909,0.17571453869835643,0.1116359238250968,-0.4003563060951184,,-1.010450091996409,0.2564024541571279,0.16943806590000002,1.0199318851087265,0.3008735724834999,0.45635983260805024,0.8750341622813339,,0.026284658535034606,0.02909900195387546,0.07078751784,-0.11578833687890082,,8.85874e-06,-5.4836273e-06,3.8146973e-06,1.0,-5.6177378e-06,-5.9343874e-06,5.6177378e-06,1.0,-5.364418e-07,5.9343874e-06,5.662441e-07,1.0,325,0.973,0,0,0.0,False,-0.25761408231986493,1.049418426957168
0.9969678858760744,13:56:33.406103,13:55:06.400933,0,,0.11996208,0.006038502,0.021559581,0.9694572,-0.14261234,-0.19953571,0.022549197,-0.7582925,0.6515243,-0.24422182,-0.63612425,-0.73191637,,0.016641565,0.007050354,0.042309046,-0.63780904,-0.7614576,0.11568043,-0.26581126,0.35859302,0.8948493,-0.7228721,0.53999394,-0.4311179,,0.057902917,1.3372962,0.44648653,0.99692535,0.07713039,-0.013808791,0.04291338,-0.68488854,-0.7273831,-0.065560825,0.72455406,-0.6860927,,-0.077845514,0.2880295,-0.035150032,-0.9517715,0.16574825,0.25818312,-0.19788569,-0.9747201,-0.10373957,0.23446162,-0.14982711,0.9605101,,0.0311975,0.48692754,-0.27492365,0.71713656,0.69619364,-0.03208731,-0.696286,0.7176943,0.010036228,0.030016037,0.0151446005,0.99943465,,1.1586725040514,0.382954877767045,0.18894463782,-2.1830820016173833,0.1766709941967145,0.11069264101894072,-0.40002961796284986,,-1.010450091996409,0.2564024541571279,0.16943806590000002,1.0199318851087265,0.3008735724834999,0.45635983260805024,0.8750341622813339,,0.026284658535034606,0.02909900195387546,0.07078751784,-0.11578833687890082,,8.85874e-06,-5.4836273e-06,3.8146973e-06,1.0,-5.6177378e-06,-5.9343874e-06,5.6177378e-06,1.0,-5.364418e-07,5.9343874e-06,5.662441e-07,1.0,349,1.046,0,0,0.0,False,-0.259282258438454,1.049370146756389
1.0276200838852674,13:56:33.478618,13:55:06.400933,0,,0.11997795,0.0061305165,0.021779135,0.97123265,-0.13285619,-0.19762659,0.03077215,-0.75292337,0.65738845,-0.23613577,-0.6445586,-0.7271755,,0.016643994,0.0070521273,0.042309403,-0.63779914,-0.7614457,0.11581328,-0.2658034,0.35873628,0.8947943,-0.72288376,0.53991544,-0.4311965,,0.057902917,1.3372962,0.44648653,0.99692535,0.07713039,-0.013808791,0.04291338,-0.68488854,-0.7273831,-0.065560825,0.72455406,-0.6860927,,-0.07787302,0.28825378,-0.0352266,-0.953871,0.15664873,0.25610787,-0.18643901,-0.9777296,-0.09636046,0.23530948,-0.13966395,0.96183336,,0.03119511,0.48692837,-0.274922,0.7171284,0.6961963,-0.032210555,-0.69629383,0.71768814,0.009928195,0.030029107,0.015308222,0.9994318,,1.1595837865305585,0.3839742785064426,0.18886037897000002,-2.195034328396001,0.1769442671962454,0.10222025245735109,-0.4014997145580584,,-1.0104655374621576,0.2564101768900022,0.16943936219000003,1.0199318851087265,0.3008735724834999,0.45619647512776906,0.875034162281334,,0.026284658535034606,0.02909900195387546,0.07078751784,-0.11578833687890082,,8.85874e-06,-5.4836273e-06,3.8146973e-06,1.0,-5.6177378e-06,-5.9343874e-06,5.6177378e-06,1.0,-5.364418e-07,5.9343874e-06,5.662441e-07,1.0,357,1.071,0,0,0.0,False,-0.2575545046013441,1.04927358635483
1.1001506238244474,13:56:33.508475,13:55:06.400933,0,,0.11999081,0.0061669797,0.02189745,0.9723067,-0.12726384,-0.19601922,0.03511429,-0.74966246,0.66088814,-0.23105542,-0.64946914,-0.7244331,,0.016644172,0.0070510693,0.04230869,-0.6377997,-0.76144505,0.11581521,-0.2658074,0.35874194,0.8947908,-0.72288185,0.5399128,-0.4312032,,0.057902917,1.3372962,0.44648653,0.99692535,0.07713039,-0.013808791,0.04291338,-0.68488854,-0.7273831,-0.065560825,0.72455406,-0.6860927,,-0.07789241,0.28836575,-0.03527738,-0.95516604,0.15144134,0.25440776,-0.1797957,-0.979389,-0.09203642,0.23522604,-0.13365148,0.96270764,,0.031194972,0.4869273,-0.27492264,0.7171286,0.69619614,-0.032211713,-0.6962939,0.71768826,0.009920559,0.030024623,0.015314502,0.99943185,,1.160047150503012,0.3844917016090157,0.1888046385,-2.2019540965309905,0.17653435769694906,0.09708203057902272,-0.39839617730150706,,-1.0104655374621576,0.2564024541571279,0.16943936219000003,1.0199318851087265,0.3008735724834999,0.45619647512776906,0.875034162281334,,0.026284658535034606,0.02909900195387546,0.07078751784,-0.11578833687890082,,8.85874e-06,-5.4836273e-06,3.8146973e-06,1.0,-5.6177378e-06,-5.9343874e-06,5.6177378e-06,1.0,-5.364418e-07,5.9343874e-06,5.662441e-07,1.0,365,1.096,0,0,0.0,False,-0.2580907040680329,1.049370146756389
1.1300062048248947,13:56:33.533691,13:55:06.400933,0,,0.11997703,0.006232202,0.022019401,0.9725106,-0.124281235,-0.19691938,0.038867325,-0.7471614,0.66350526,-0.22959177,-0.65291965,-0.7217919,,0.016642831,0.0070521273,0.042308986,-0.6378038,-0.76144266,0.115808085,-0.26580533,0.3587349,0.8947942,-0.72287893,0.53992075,-0.431198,,0.057902917,1.3372962,0.44648653,0.99692535,0.07713039,-0.013808791,0.04291338,-0.68488854,-0.7273831,-0.065560825,0.72455406,-0.6860927,,-0.07788484,0.2885005,-0.03531071,-0.95538116,0.1487316,0.25519744,-0.17620932,-0.9803847,-0.08829587,0.23705927,-0.12932438,0.96284896,,0.031196306,0.48692816,-0.27492195,0.7171324,0.6961925,-0.03220522,-0.6962899,0.71769196,0.009927409,0.030024815,0.0153049035,0.99943197,,1.1606109100028303,0.3850322929102114,0.18877093496000003,-2.205728515513712,0.17817399569413436,0.09362136849101105,-0.4003563060951185,,-1.0104578147292833,0.2564101768900022,0.16943936219000003,1.0199318851087265,0.3008735724834999,0.45619647512776906,0.875034162281334,,0.026284658535034606,0.02909900195387546,0.07078751784,-0.11578833687890082,,8.85874e-06,-5.4836273e-06,3.8146973e-06,1.0,-5.6177378e-06,-5.9343874e-06,5.6177378e-06,1.0,-5.364418e-07,5.9343874e-06,5.662441e-07,1.0,377,1.132,0,0,0.0,False,-0.25785239319394915,1.0490321853509326
1.1552083338610828,13:56:33.572497,13:55:06.595491,0,,0.119954094,0.0062925816,0.022164986,0.97216535,-0.12160236,-0.20026828,0.04443343,-0.74356556,0.6671849,-0.23004386,-0.6575127,-0.71746546,,0.016685262,0.007076893,0.042307258,-0.63768566,-0.7615112,0.11600743,-0.26572257,0.35882455,0.89478284,-0.72301364,0.5397645,-0.4311679,,0.057952456,1.3372949,0.4464894,0.99692774,0.07709271,-0.013848812,0.04285853,-0.6848928,-0.7273823,-0.065560825,0.72455406,-0.6860927,,-0.07790938,0.28864592,-0.035360135,-0.9548883,0.14637683,0.25838387,-0.17278479,-0.98149675,-0.08251975,0.24152397,-0.12344194,0.9625114,,0.031113489,0.48692465,-0.27489686,0.71701,0.69631106,-0.032366823,-0.6964109,0.71757454,0.009933599,0.030142482,0.015418117,0.99942666,,1.1612982332286363,0.38561922060865245,0.18873074997000003,-2.2092932445529483,0.182409727186863,0.08869719615389185,-0.4008463382935213,,-1.010442369263535,0.2564178996228764,0.16944065848,1.0199318851087265,0.3010102089832653,0.4560033784839321,0.8748708182151996,,0.026284658535034606,0.02909900195387546,0.07078751784,-0.11578833687890082,,5.801022e-05,1.2516975e-06,2.1457672e-06,1.0,-4.3366104e-05,-4.579872e-05,4.3373555e-05,1.0,-4.142523e-06,4.579872e-05,4.172325e-06,0.99999994,385,1.157,0,0,0.0,False,-0.2584481703791588,1.0494667071579475
1.1940223388373852,13:56:33.593097,13:55:06.595491,0,,0.11993185,0.0063782483,0.022319749,0.97187626,-0.12133359,-0.20182808,0.046676412,-0.7407934,0.67010915,-0.23081966,-0.6606839,-0.71429604,,0.016680948,0.0070757903,0.042307734,-0.63758963,-0.76154554,0.11630953,-0.26555988,0.35899082,0.8947645,-0.72315806,0.53960544,-0.43112472,,0.057952456,1.3372949,0.4464894,0.99692774,0.07709271,-0.013848812,0.04285853,-0.6848928,-0.7273823,-0.065560825,0.72455406,-0.6860927,,-0.07789494,0.288819,-0.035400514,-0.95450443,0.14636369,0.2598057,-0.1718567,-0.98201644,-0.07816003,0.2436937,-0.11925345,0.9624926,,0.03111768,0.48692498,-0.2748984,0.7169383,0.69637054,-0.032672387,-0.6964752,0.71751213,0.009933009,0.030359887,0.015634151,0.99941677,,1.1620241701188134,0.3862679301700873,0.18869056498000003,-2.210341694270371,0.1844592746833446,0.0853923527956343,-0.40100968235965556,,-1.0104037555991636,0.2564101768900022,0.16943936219000003,1.0199318851087265,0.3012834819827962,0.45578054267653917,0.874544130082931,,0.026284658535034606,0.02909900195387546,0.07078751784,-0.11578833687890082,,5.801022e-05,1.2516975e-06,2.1457672e-06,1.0,-4.3366104e-05,-4.579872e-05,4.3373555e-05,1.0,-4.142523e-06,4.579872e-05,4.172325e-06,0.99999994,397,1.194,0,0,0.0,False,-0.259282258438454,1.0486459437446969
1.2146238239947706,13:56:33.623522,13:55:06.595491,0,,0.119901285,0.0064678937,0.022490576,0.9724108,-0.1161558,-0.20229918,0.05187154,-0.73783505,0.67298496,-0.22743452,-0.66491157,-0.7114535,,0.0166765,0.0070747472,0.04230565,-0.637609,-0.7615321,0.11629067,-0.26557162,0.35899103,0.89476085,-0.7231366,0.53962415,-0.43113723,,0.057952456,1.3372949,0.4464894,0.99692774,0.07709271,-0.013848812,0.04285853,-0.6848928,-0.7273823,-0.065560825,0.72455406,-0.6860927,,-0.07787315,0.28900692,-0.035449095,-0.9551378,0.14152144,0.26016042,-0.16588876,-0.98335576,-0.0741108,0.24534196,-0.11394371,0.96271706,,0.031122318,0.48692313,-0.2748988,0.71695447,0.69635487,-0.032652196,-0.69645953,0.71752745,0.009922216,0.03033823,0.015627155,0.99941754,,1.1629122843993493,0.38695525339589326,0.18864130596,-2.216632392574907,0.18568900318123358,0.08136747827716569,-0.3982328332353728,,-1.0103728646676668,0.2564024541571279,0.16943936219000003,1.0199318851087265,0.3012834819827962,0.45578054267653917,0.874544130082931,,0.026284658535034606,0.02909900195387546,0.07078751784,-0.11578833687890082,,5.801022e-05,1.2516975e-06,2.1457672e-06,1.0,-4.3366104e-05,-4.579872e-05,4.3373555e-05,1.0,-4.142523e-06,4.579872e-05,4.172325e-06,0.99999994,405,1.218,0,0,0.0,False,-0.2586269035347226,1.049370146756389
1.245056482963264,13:56:33.652656,13:55:06.595491,0,,0.11988278,0.0065255016,0.022594362,0.9732407,-0.10927951,-0.20214018,0.05680543,-0.7379592,0.6724502,-0.2226562,-0.6659386,-0.7120041,,0.016668998,0.0070761926,0.042304397,-0.6375101,-0.7616359,0.116154,-0.26572263,0.35887384,0.894763,-0.7231684,0.53955585,-0.43116954,,0.057952456,1.3372949,0.4464894,0.99692774,0.07709271,-0.013848812,0.04285853,-0.6848928,-0.7273823,-0.065560825,0.72455406,-0.6860927,,-0.07785989,0.28912318,-0.035476275,-0.9561577,0.1347209,0.26002458,-0.15906765,-0.98442376,-0.07488248,0.24588612,-0.11296096,0.96269405,,0.031129971,0.4869234,-0.27489758,0.7168559,0.6964629,-0.032512497,-0.69656587,0.71742445,0.009908372,0.030226072,0.015544221,0.9994222,,1.1635069348306646,0.3873877264368499,0.18861278758000002,-2.2237618506533807,0.185825639680999,0.08150109659389095,-0.39904955356604416,,-1.0103265282704215,0.2564101768900022,0.16943936219000003,1.019722195165242,0.3012834819827962,0.45578054267653917,0.874544130082931,,0.026284658535034606,0.02909900195387546,0.07078751784,-0.11578833687890082,,5.801022e-05,1.2516975e-06,2.1457672e-06,1.0,-4.3366104e-05,-4.579872e-05,4.3373555e-05,1.0,-4.142523e-06,4.579872e-05,4.172325e-06,0.99999994,430,1.296,0,0,0.0,False,-0.25826943722359585,1.0495632675595068
1.2741735519375652,13:56:33.724618,13:55:06.742820,0,,0.119756594,0.0067557693,0.022964224,0.9737456,-0.101671495,-0.2036725,0.06496594,-0.73338807,0.6766988,-0.21817192,-0.67216426,-0.70752805,,0.016664192,0.007075537,0.04230249,-0.6374027,-0.7617349,0.116093785,-0.26587778,0.35884368,0.8947291,-0.7232059,0.5394361,-0.4312563,,0.057952456,1.3372949,0.4464894,0.99692774,0.07709271,-0.013848812,0.04285853,-0.6848928,-0.7273823,-0.065560825,0.72455406,-0.6860927,,-0.07775204,0.28955612,-0.03555793,-0.956767,0.12761147,0.26136604,-0.15030254,-0.9862524,-0.068667635,0.24901012,-0.104982905,0.9627941,,0.031134956,0.4869219,-0.27489772,0.7167496,0.6965755,-0.03244268,-0.69668007,0.7173147,0.009822231,0.030113537,0.015562089,0.99942535,,1.165792863761435,0.3886928682925938,0.18853371389,-2.2331978981101845,0.1878751871774806,0.07623596347225989,-0.3990495535660442,,-1.0102956373389247,0.2564024541571279,0.16943936219000003,1.0195125052217575,0.3012834819827962,0.45569886393639875,0.8743807860167968,,0.026284658535034606,0.02909900195387546,0.07078751784,-0.11578833687890082,,5.801022e-05,1.2516975e-06,2.1457672e-06,1.0,-4.3366104e-05,-4.579872e-05,4.3373555e-05,1.0,-4.142523e-06,4.579872e-05,4.172325e-06,0.99999994,438,1.321,0,0,0.0,False,-0.25910352528289105,1.0496598279610654
1.3461509458720684,13:56:33.754488,13:55:06.742820,0,,0.11973515,0.006819412,0.023051664,0.97422,-0.099276684,-0.20258208,0.06787985,-0.7273651,0.6828853,-0.21514568,-0.67903185,-0.7018746,,0.016663998,0.00707661,0.042303145,-0.63740224,-0.76172614,0.116154075,-0.26587376,0.35891113,0.8947032,-0.72320795,0.5394036,-0.43129373,,0.057952456,1.3372949,0.4464894,0.99692774,0.07709271,-0.013848812,0.04285853,-0.6848928,-0.7273823,-0.065560825,0.72455406,-0.6860927,,-0.0777347,0.28966436,-0.035569895,-0.9573664,0.12577453,0.26005828,-0.14612153,-0.987423,-0.060367927,0.24919479,-0.09579434,0.963704,,0.031135095,0.48692298,-0.27489707,0.7167495,0.6965731,-0.03249842,-0.69668007,0.71731544,0.009771277,0.030118026,0.015637442,0.99942404,,1.1663643459941277,0.38905583673768235,0.18852075099,-2.2376013869233593,0.18773855067771517,0.06760775618091615,-0.40084633829352123,,-1.0102956373389247,0.2564101768900022,0.16943936219000003,1.0195125052217575,0.3012834819827962,0.45561718519625816,0.8745441300829311,,0.026284658535034606,0.02909900195387546,0.07078751784,-0.11578833687890082,,5.801022e-05,1.2516975e-06,2.1457672e-06,1.0,-4.3366104e-05,-4.579872e-05,4.3373555e-05,1.0,-4.142523e-06,4.579872e-05,4.172325e-06,0.99999994,446,1.345,0,0,0.0,False,-0.2594014138754961,1.0488873447485942
1.375985034974292,13:56:33.783287,13:55:06.742820,0,,0.11974621,0.0068529695,0.023095787,0.9750329,-0.09570723,-0.20037682,0.06906655,-0.7268935,0.68326825,-0.21104632,-0.6800484,-0.70213485,,0.016664967,0.007077653,0.04230416,-0.63739693,-0.7617206,0.116219565,-0.26586783,0.35897994,0.89467734,-0.7232147,0.5393657,-0.43132967,,0.057952456,1.3372949,0.4464894,0.99692774,0.07709271,-0.013848812,0.04285853,-0.6848928,-0.7273823,-0.065560825,0.72455406,-0.6860927,,-0.07774778,0.28971922,-0.035573617,-0.9584065,0.12228569,0.257882,-0.14230487,-0.9879797,-0.060376946,0.24739896,-0.09456352,0.96428806,,0.03113404,0.48692426,-0.2748965,0.7167453,0.6965745,-0.032559495,-0.69668394,0.71731234,0.009721112,0.030126806,0.015716117,0.99942255,,1.1666578098433482,0.38927979599103485,0.18851167696,-2.241585495849565,0.18568900318123358,0.06691034127228616,-0.40100968235965556,,-1.0103033600717988,0.2564178996228764,0.16943936219000003,1.0195125052217575,0.3012834819827962,0.4555355064561176,0.8747074741490654,,0.026284658535034606,0.02909900195387546,0.07078751784,-0.11578833687890082,,5.801022e-05,1.2516975e-06,2.1457672e-06,1.0,-4.3366104e-05,-4.579872e-05,4.3373555e-05,1.0,-4.142523e-06,4.579872e-05,4.172325e-06,0.99999994,458,1.382,0,0,0.0,False,-0.25820985950507547,1.0489356249493738
1.4048069349955767,13:56:33.814202,13:55:06.742820,0,,0.11975396,0.006899819,0.023156896,0.9758343,-0.088542484,-0.19976877,0.07399143,-0.7263231,0.68335927,-0.20560297,-0.6816267,-0.7022196,,0.016663611,0.007078726,0.042304456,-0.6374011,-0.7617181,0.11621244,-0.26586574,0.35897297,0.89468074,-0.7232118,0.53937376,-0.43132448,,0.057952456,1.3372949,0.4464894,0.99692774,0.07709271,-0.013848812,0.04285853,-0.6848928,-0.7273823,-0.065560825,0.72455406,-0.6860927,,-0.0777583,0.2897957,-0.035578925,-0.95943946,0.11524613,0.2572824,-0.13499384,-0.98900384,-0.060398806,0.24749257,-0.092680536,0.96444684,,0.031135373,0.48692515,-0.27489582,0.71674913,0.6965709,-0.032553002,-0.69668,0.7173161,0.009727959,0.030127002,0.015706519,0.99942267,,1.166997610089814,0.3896582099018719,0.18850389922000002,-2.2491343338150083,0.18555236668146813,0.06595993555415527,-0.40084633829352123,,-1.0102956373389247,0.2564256223557506,0.16943936219000003,1.0195125052217575,0.3012834819827962,0.4555355064561176,0.8747074741490654,,0.026284658535034606,0.02909900195387546,0.07078751784,-0.11578833687890082,,5.801022e-05,1.2516975e-06,2.1457672e-06,1.0,-4.3366104e-05,-4.579872e-05,4.3373555e-05,1.0,-4.142523e-06,4.579872e-05,4.172325e-06,0.99999994,466,1.407,0,0,0.0,False,-0.25826943722359585,1.049514987358727
1.4357099009212106,13:56:33.843210,13:55:06.742820,0,,0.119762465,0.006911829,0.02317147,0.9764889,-0.08251114,-0.1991515,0.07844813,-0.7244832,0.6848138,-0.20078665,-0.6843362,-0.7009769,,0.01666265,0.007077668,0.042303443,-0.63740635,-0.7617142,0.11620917,-0.2658717,0.3589772,0.89467734,-0.723205,0.5393764,-0.43133262,,0.057952456,1.3372949,0.4464894,0.99692774,0.07709271,-0.013848812,0.04285853,-0.6848928,-0.7273823,-0.065560825,0.72455406,-0.6860927,,-0.07776743,0.2898143,-0.03557917,-0.9602969,0.10943447,0.25662017,-0.1284571,-0.9899868,-0.058523387,0.2476461,-0.08916451,0.9647389,,0.031136429,0.48692387,-0.27489638,0.7167533,0.69656676,-0.03254882,-0.69667614,0.71731997,0.009719535,0.030118223,0.015709477,0.9994229,,1.1670825601514305,0.38981266455935637,0.18850260293,-2.255844412006513,0.18555236668146813,0.0629378221689545,-0.40166305862419266,,-1.0102879146060504,0.2564178996228764,0.16943936219000003,1.0195125052217575,0.3012834819827962,0.4555355064561176,0.8747074741490654,,0.026284658535034606,0.02909900195387546,0.07078751784,-0.11578833687890082,,5.801022e-05,1.2516975e-06,2.1457672e-06,1.0,-4.3366104e-05,-4.579872e-05,4.3373555e-05,1.0,-4.142523e-06,4.579872e-05,4.172325e-06,0.99999994,474,1.431,0,0,0.0,False,-0.2588652144088064,1.0497563883626244
1.4647404018323869,13:56:33.865046,13:55:06.892596,0,,0.11978027,0.0069283247,0.023187995,0.97717845,-0.07636547,-0.19821854,0.08282722,-0.7223052,0.68659645,-0.19560651,-0.68734527,-0.69949585,,0.016661875,0.007075537,0.042301774,-0.63741213,-0.7617096,0.11620782,-0.26588166,0.35898712,0.89467037,-0.72319615,0.53937644,-0.43134734,,0.057952456,1.3372949,0.4464894,0.99692774,0.07709271,-0.013848812,0.04285853,-0.6848928,-0.7273823,-0.065560825,0.72455406,-0.6860927,,-0.07778589,0.28983703,-0.035576884,-0.96121347,0.103534415,0.2556351,-0.1217025,-0.9909708,-0.056261852,0.2475019,-0.08519108,0.96513486,,0.031137345,0.48692152,-0.2748976,0.7167576,0.69656247,-0.032545794,-0.69667226,0.71732396,0.009703475,0.030104954,0.015718713,0.99942315,,1.167159787480173,0.3900134556140862,0.18850260293,-2.2627641801415024,0.18527909368193726,0.059485114670021995,-0.40247977895486403,,-1.010280191873176,0.2564024541571279,0.16943936219000003,1.0195125052217575,0.3012834819827962,0.4555355064561176,0.8747074741490654,,0.026284658535034606,0.02909900195387546,0.07078751784,-0.11578833687890082,,5.801022e-05,1.2516975e-06,2.1457672e-06,1.0,-4.3366104e-05,-4.579872e-05,4.3373555e-05,1.0,-4.142523e-06,4.579872e-05,4.172325e-06,0.99999994,507,1.534,0,0,0.0,False,-0.25767366003838577,1.0494667071579475
1.4865429778583348,13:56:33.962648,13:55:06.892596,0,,0.11979769,0.0069978684,0.023229226,0.97887594,-0.05952891,-0.19559687,0.094898805,-0.71509016,0.6925606,-0.18109675,-0.6964929,-0.6943353,,0.016664967,0.007077653,0.04230416,-0.63739693,-0.7617206,0.116219565,-0.26586783,0.35897994,0.89467734,-0.7232147,0.5393657,-0.43132967,,0.057952456,1.3372949,0.4464894,0.99692774,0.07709271,-0.013848812,0.04285853,-0.6848928,-0.7273823,-0.065560825,0.72455406,-0.6860927,,-0.07780436,0.28991356,-0.035551503,-0.9635514,0.08745314,0.2528253,-0.10290474,-0.99350685,-0.048526444,0.24693987,-0.07277464,0.9662942,,0.03113404,0.48692426,-0.2748965,0.7167453,0.6965745,-0.032559495,-0.69668394,0.71731234,0.009721112,0.030126806,0.015716117,0.99942255,,1.167576815055381,0.3904845423194139,0.18852334357000003,-2.2820556549420785,0.18418600168381372,0.048533040579211865,-0.4013363704919241,,-1.0103033600717988,0.2564178996228764,0.16943936219000003,1.0195125052217575,0.3012834819827962,0.4555355064561176,0.8747074741490654,,0.026284658535034606,0.02909900195387546,0.07078751784,-0.11578833687890082,,5.801022e-05,1.2516975e-06,2.1457672e-06,1.0,-4.3366104e-05,-4.579872e-05,4.3373555e-05,1.0,-4.142523e-06,4.579872e-05,4.172325e-06,0.99999994,511,1.546,0,0,0.0,False,-0.2585077480976805,1.0492253061540504
1.5841832789592445,13:56:33.985605,13:55:06.892596,0,,0.119776845,0.0070459098,0.02325669,0.97952753,-0.049578,-0.1951097,0.102242544,-0.7123724,0.694314,-0.17341343,-0.70004827,-0.69271934,,0.016662456,0.007078711,0.0423041,-0.6374059,-0.76173395,0.11608281,-0.26586768,0.35882545,0.8947394,-0.72320694,0.5394496,-0.43123785,,0.057952456,1.3372949,0.4464894,0.99692774,0.07709271,-0.013848812,0.04285853,-0.6848928,-0.7273823,-0.065560825,0.72455406,-0.6860927,,-0.07778425,0.2899667,-0.035535187,-0.96452254,0.077801265,0.25227606,-0.092308134,-0.99465954,-0.046169687,0.24733673,-0.06781884,0.9665532,,0.031136567,0.48692495,-0.27489576,0.7167531,0.6965723,-0.03243387,-0.6966761,0.7173183,0.00984435,0.03012271,0.015539936,0.9994254,,1.1679552289662178,0.39068533337414374,0.18854019534000002,-2.292959532003274,0.18418600168381372,0.04453078231232431,-0.3992128976321785,,-1.0102879146060504,0.2564256223557506,0.16943936219000003,1.0195125052217575,0.3012834819827962,0.4556988639363986,0.8747074741490652,,0.026284658535034606,0.02909900195387546,0.07078751784,-0.11578833687890082,,5.801022e-05,1.2516975e-06,2.1457672e-06,1.0,-4.3366104e-05,-4.579872e-05,4.3373555e-05,1.0,-4.142523e-06,4.579872e-05,4.172325e-06,0.99999994,523,1.583,0,0,0.0,False,-0.2589843698458485,1.0491287457524916
1.60713981394656,13:56:34.023425,13:55:07.037743,0,,0.11975159,0.0071039647,0.02328968,0.9798829,-0.042040404,-0.1950947,0.1075874,-0.71207476,0.69381154,-0.1680901,-0.700844,-0.6932267,,0.016662836,0.00707658,0.042302787,-0.637407,-0.76174194,0.116024435,-0.26587573,0.3587636,0.89476174,-0.72320306,0.53947943,-0.43120706,,0.057952456,1.3372949,0.4464894,0.99692774,0.07709271,-0.013848812,0.04285853,-0.6848928,-0.7273823,-0.065560825,0.72455406,-0.6860927,,-0.077759854,0.2900308,-0.03551534,-0.96509415,0.070335425,0.25228193,-0.08479197,-0.9952951,-0.046883024,0.24779744,-0.066638015,0.9665173,,0.03113629,0.4869228,-0.27489704,0.7167535,0.6965745,-0.032379292,-0.69667614,0.71731764,0.009887668,0.030113734,0.01547086,0.9994267,,1.168372256541426,0.3908938471617478,0.18856093598,-2.3007180599122012,0.18432263818357916,0.044256006928346754,-0.39953958576444704,,-1.0102879146060504,0.2564101768900022,0.16943936219000003,1.0195125052217575,0.3012834819827962,0.45578054267653917,0.874544130082931,,0.026284658535034606,0.02909900195387546,0.07078751784,-0.11578833687890082,,5.801022e-05,1.2516975e-06,2.1457672e-06,1.0,-4.3366104e-05,-4.579872e-05,4.3373555e-05,1.0,-4.142523e-06,4.579872e-05,4.172325e-06,0.99999994,531,1.608,0,0,0.0,False,-0.25922268071993226,1.0496115477602863
1.6449356398079544,13:56:34.046379,13:55:07.037743,0,,0.11971483,0.007184401,0.023338914,0.9799568,-0.03710701,-0.19572353,0.11165658,-0.7113509,0.6939111,-0.16497706,-0.70185685,-0.69294983,,0.016661681,0.007076595,0.04230243,-0.6374116,-0.7617198,0.11614368,-0.26587763,0.3589084,0.89470315,-0.7231982,0.5394143,-0.43129665,,0.057952456,1.3372949,0.4464894,0.99692774,0.07709271,-0.013848812,0.04285853,-0.6848928,-0.7273823,-0.065560825,0.72455406,-0.6860927,,-0.077724524,0.29012227,-0.035490267,-0.9652748,0.06549065,0.25289437,-0.07976286,-0.9957245,-0.046590354,0.24876188,-0.06514407,0.9663715,,0.031137483,0.4869226,-0.27489698,0.7167574,0.6965654,-0.032487743,-0.6966722,0.71732306,0.0097697005,0.030109443,0.015630802,0.9994244,,1.1689128478426218,0.3911641428123456,0.18858815807,-2.3059603084993143,0.18500582068240637,0.04361723866972409,-0.40002961796284986,,-1.010280191873176,0.2564101768900022,0.16943936219000003,1.0195125052217575,0.3012834819827962,0.45561718519625816,0.8745441300829311,,0.026284658535034606,0.02909900195387546,0.07078751784,-0.11578833687890082,,5.801022e-05,1.2516975e-06,2.1457672e-06,1.0,-4.3366104e-05,-4.579872e-05,4.3373555e-05,1.0,-4.142523e-06,4.579872e-05,4.172325e-06,0.99999994,543,1.644,0,0,0.0,False,-0.2586269035347226,1.04927358635483
1.6679134687874466,13:56:34.081622,13:55:07.037743,0,,0.119682014,0.0072610825,0.023380548,0.9803093,-0.027665041,-0.19552055,0.11831702,-0.71043515,0.69374555,-0.15809713,-0.7032187,-0.6931729,,0.016663805,0.007077668,0.0423038,-0.63740164,-0.7617173,0.116214365,-0.26586974,0.35897854,0.89467734,-0.72320986,0.5393711,-0.43133113,,0.057952456,1.3372949,0.4464894,0.99692774,0.07709271,-0.013848812,0.04285853,-0.6848928,-0.7273823,-0.065560825,0.72455406,-0.6860927,,-0.07769273,0.29020548,-0.03546272,-0.96591216,0.056172665,0.25270212,-0.070210434,-0.99643034,-0.04687323,0.24916705,-0.06301775,0.9664081,,0.031135233,0.48692408,-0.27489644,0.7167493,0.69657063,-0.032554157,-0.69668,0.71731615,0.009720324,0.030122515,0.015712796,0.9994227,,1.16947660734244,0.3914344384629435,0.18861797274000003,-2.315815735843087,0.18500582068240637,0.04263709378803735,-0.3990495535660442,,-1.0102956373389247,0.2564178996228764,0.16943936219000003,1.0195125052217575,0.3012834819827962,0.4555355064561176,0.8747074741490654,,0.026284658535034606,0.02909900195387546,0.07078751784,-0.11578833687890082,,5.801022e-05,1.2516975e-06,2.1457672e-06,1.0,-4.3366104e-05,-4.579872e-05,4.3373555e-05,1.0,-4.142523e-06,4.579872e-05,4.172325e-06,0.99999994,551,1.669,0,0,0.0,False,-0.2590439475643693,1.049708108161845
1.703123923856765,13:56:34.104299,13:55:07.037743,0,,0.11965416,0.0073127,0.023408398,0.9803116,-0.026942002,-0.19561002,0.11908351,-0.7095473,0.69452256,-0.15750636,-0.7041425,-0.69236904,,0.01666265,0.007077668,0.042303443,-0.63740635,-0.7617142,0.11620917,-0.2658717,0.3589772,0.89467734,-0.723205,0.5393764,-0.43133262,,0.057952456,1.3372949,0.4464894,0.99692774,0.07709271,-0.013848812,0.04285853,-0.6848928,-0.7273823,-0.065560825,0.72455406,-0.6860927,,-0.077665575,0.29026154,-0.035444397,-0.9659348,0.05552716,0.25275803,-0.0692595,-0.9965489,-0.04575378,0.24934514,-0.061701067,0.9664471,,0.031136429,0.48692387,-0.27489638,0.7167533,0.69656676,-0.03254882,-0.69667614,0.71731997,0.009719535,0.030118223,0.015709477,0.9994229,,1.1698164075889061,0.39154255672318267,0.18863612080000003,-2.3168641855605094,0.18500582068240637,0.041656948906350605,-0.40035630609511846,,-1.0102879146060504,0.2564178996228764,0.16943936219000003,1.0195125052217575,0.3012834819827962,0.4555355064561176,0.8747074741490654,,0.026284658535034606,0.02909900195387546,0.07078751784,-0.11578833687890082,,5.801022e-05,1.2516975e-06,2.1457672e-06,1.0,-4.3366104e-05,-4.579872e-05,4.3373555e-05,1.0,-4.142523e-06,4.579872e-05,4.172325e-06,0.99999994,584,1.771,0,0,0.0,False,-0.25975888018662197,1.048983905150153
1.7257761429063976,13:56:34.197989,13:55:07.225338,0,,0.11952321,0.0074358135,0.023435459,0.9808756,-0.009421573,-0.19440728,0.13145347,-0.70453507,0.69738805,-0.14353722,-0.7096066,-0.68982273,,0.016662456,0.007078711,0.0423041,-0.6374059,-0.761715,0.11620724,-0.26586768,0.35897157,0.89468074,-0.72320694,0.5393791,-0.43132597,,0.057952456,1.3372949,0.4464894,0.99692774,0.07709271,-0.013848812,0.04285853,-0.6848928,-0.7273823,-0.065560825,0.72455406,-0.6860927,,-0.077533975,0.290368,-0.035378184,-0.96710193,0.038488723,0.2514606,-0.0506287,-0.9978346,-0.041985642,0.24930014,-0.053335518,0.96695644,,0.031136567,0.48692495,-0.27489576,0.7167531,0.696567,-0.032547664,-0.6966761,0.7173199,0.00972717,0.03012271,0.0157032,0.99942285,,1.1709748175200396,0.39152711125743417,0.18870871304000003,-2.336155660361086,0.1837760921845174,0.03506358720654612,-0.40247977895486414,,-1.0102879146060504,0.2564256223557506,0.16943936219000003,1.0195125052217575,0.3012834819827962,0.4555355064561176,0.8747074741490654,,0.026284658535034606,0.02909900195387546,0.07078751784,-0.11578833687890082,,5.801022e-05,1.2516975e-06,2.1457672e-06,1.0,-4.3366104e-05,-4.579872e-05,4.3373555e-05,1.0,-4.142523e-06,4.579872e-05,4.172325e-06,0.99999994,592,1.796,0,0,0.0,False,-0.25963972474957986,1.0492253061540504
1.8194633959792554,13:56:34.235991,13:55:07.225338,0,,0.11952393,0.0074520707,0.023412332,0.9813346,-0.00018925034,-0.1923076,0.13642243,-0.704124,0.69684875,-0.13554025,-0.7100769,-0.6909554,,0.016661495,0.007077668,0.042303085,-0.6374111,-0.76171106,0.11620398,-0.26587364,0.35897586,0.8946772,-0.72320014,0.53938174,-0.43133405,,0.057952456,1.3372949,0.4464894,0.99692774,0.07709271,-0.013848812,0.04285853,-0.6848928,-0.7273823,-0.065560825,0.72455406,-0.6860927,,-0.077532925,0.2903616,-0.035350643,-0.9679505,0.029314034,0.24942422,-0.04137662,-0.99820685,-0.043255832,0.24770896,-0.05218984,0.9674278,,0.031137623,0.4869237,-0.27489632,0.7167573,0.69656295,-0.03254348,-0.6966722,0.7173238,0.009718746,0.030113932,0.015706157,0.9994231,,1.171090658513153,0.39150394305881153,0.18873463884000002,-2.345801397761374,0.18186318118780123,0.03441811187450083,-0.4003563060951184,,-1.010280191873176,0.2564178996228764,0.16943936219000003,1.0195125052217575,0.3012834819827962,0.4555355064561176,0.8747074741490654,,0.026284658535034606,0.02909900195387546,0.07078751784,-0.11578833687890082,,5.801022e-05,1.2516975e-06,2.1457672e-06,1.0,-4.3366104e-05,-4.579872e-05,4.3373555e-05,1.0,-4.142523e-06,4.579872e-05,4.172325e-06,0.99999994,604,1.833,0,0,0.0,False,-0.26017592421626956,1.0491770259532711
1.8575124279595912,13:56:34.266949,13:55:07.225338,0,,0.11949743,0.0074792504,0.023400813,0.9813029,0.008194286,-0.1922952,0.14260912,-0.70191413,0.6978389,-0.12925638,-0.7122144,-0.6899588,,0.016663805,0.007077668,0.0423038,-0.63740164,-0.7617173,0.116214365,-0.26586974,0.35897854,0.89467734,-0.72320986,0.5393711,-0.43133113,,0.057952456,1.3372949,0.4464894,0.99692774,0.07709271,-0.013848812,0.04285853,-0.6848928,-0.7273823,-0.065560825,0.72455406,-0.6860927,,-0.0775052,0.290372,-0.035324257,-0.96817756,0.02112759,0.24937099,-0.03257154,-0.9985927,-0.041854013,0.24813578,-0.04864451,0.96750313,,0.031135233,0.48692408,-0.27489644,0.7167493,0.69657063,-0.032554157,-0.69668,0.71731615,0.009720324,0.030122515,0.015712796,0.9994227,,1.171291449567883,0.39150394305881153,0.18876186093000002,-2.354608375387724,0.18199981768756668,0.03169297428630645,-0.4010096823596556,,-1.0102956373389247,0.2564178996228764,0.16943936219000003,1.0195125052217575,0.3012834819827962,0.4555355064561176,0.8747074741490654,,0.026284658535034606,0.02909900195387546,0.07078751784,-0.11578833687890082,,5.801022e-05,1.2516975e-06,2.1457672e-06,1.0,-4.3366104e-05,-4.579872e-05,4.3373555e-05,1.0,-4.142523e-06,4.579872e-05,4.172325e-06,0.99999994,612,1.857,0,0,0.0,False,-0.2591631030014119,1.0490321853509326
1.8884432709310204,13:56:34.287442,13:55:07.225338,0,,0.119486704,0.0075110793,0.023399606,0.98155504,0.011120464,-0.19085605,0.14368767,-0.70143175,0.6981026,-0.12610924,-0.7126498,-0.6900917,,0.01666265,0.007077668,0.042303443,-0.63740635,-0.7617142,0.11620917,-0.2658717,0.3589772,0.89467734,-0.723205,0.5393764,-0.43133262,,0.057952456,1.3372949,0.4464894,0.99692774,0.07709271,-0.013848812,0.04285853,-0.6848928,-0.7273823,-0.065560825,0.72455406,-0.6860927,,-0.07749375,0.2903927,-0.035300378,-0.96860135,0.018244846,0.24794875,-0.029517753,-0.9986889,-0.0418232,0.24686061,-0.047828898,0.96786994,,0.031136429,0.48692387,-0.27489638,0.7167533,0.69656676,-0.03254882,-0.69667614,0.71731997,0.009719535,0.030118223,0.015709477,0.9994229,,1.171499963355487,0.3915116657916857,0.18878389786000002,-2.3577537245399918,0.18049681619014685,0.03120331768401527,-0.40215309082259554,,-1.0102879146060504,0.2564178996228764,0.16943936219000003,1.0195125052217575,0.3012834819827962,0.4555355064561176,0.8747074741490654,,0.026284658535034606,0.02909900195387546,0.07078751784,-0.11578833687890082,,5.801022e-05,1.2516975e-06,2.1457672e-06,1.0,-4.3366104e-05,-4.579872e-05,4.3373555e-05,1.0,-4.142523e-06,4.579872e-05,4.172325e-06,0.99999994,620,1.882,0,0,0.0,False,-0.2593418361569748,1.049418426957168
1.9089727618265897,13:56:34.317945,13:55:07.225338,0,,0.11945176,0.00756824,0.02340275,0.9818132,0.016751353,-0.18910897,0.14678182,-0.6987292,0.70016605,-0.120407194,-0.71519005,-0.6884803,,0.016663805,0.007077668,0.0423038,-0.63740164,-0.7617173,0.116214365,-0.26586974,0.35897854,0.89467734,-0.72320986,0.5393711,-0.43133113,,0.057952456,1.3372949,0.4464894,0.99692774,0.07709271,-0.013848812,0.04285853,-0.6848928,-0.7273823,-0.065560825,0.72455406,-0.6860927,,-0.077457875,0.2904343,-0.035261877,-0.9691469,0.012840509,0.24614914,-0.023217978,-0.9989575,-0.039303437,0.24538787,-0.04380589,0.96843475,,0.031135233,0.48692408,-0.27489644,0.7167493,0.69657063,-0.032554157,-0.69668,0.71731615,0.009720324,0.030122515,0.015712796,0.9994227,,1.1719324363964436,0.3915116657916857,0.18882149027000003,-2.364254112788012,0.17858390519343065,0.027780765187190873,-0.4023164348887298,,-1.0102956373389247,0.2564178996228764,0.16943936219000003,1.0195125052217575,0.3012834819827962,0.4555355064561176,0.8747074741490654,,0.026284658535034606,0.02909900195387546,0.07078751784,-0.11578833687890082,,5.801022e-05,1.2516975e-06,2.1457672e-06,1.0,-4.3366104e-05,-4.579872e-05,4.3373555e-05,1.0,-4.142523e-06,4.579872e-05,4.172325e-06,0.99999994,628,1.907,0,0,0.0,False,-0.2599376133421849,1.0492253061540504
1.9394657949451357,13:56:34.345041,13:55:07.344727,0,,0.11940947,0.007642716,0.023426965,0.9823427,0.020671714,-0.18594481,0.14762646,-0.6961929,0.70251095,-0.11493134,-0.717557,-0.68695164,,0.01666265,0.007077668,0.042303443,-0.63740635,-0.7617142,0.11620917,-0.2658717,0.3589772,0.89467734,-0.723205,0.5393764,-0.43133262,,0.057952456,1.3372949,0.4464894,0.99692774,0.07709271,-0.013848812,0.04285853,-0.6848928,-0.7273823,-0.065560825,0.72455406,-0.6860927,,-0.07741559,0.29050335,-0.03522493,-0.9699967,0.009128777,0.2429466,-0.01859585,-0.9991532,-0.03670299,0.24240582,-0.04011958,0.96934503,,0.031136429,0.48692387,-0.27489638,0.7167533,0.69656676,-0.03254882,-0.69667614,0.71731997,0.009719535,0.030118223,0.015709477,0.9994229,,1.1725579777592559,0.39151938852456,0.18885519381000002,-2.3690769814881563,0.1750313561995292,0.02471508265303678,-0.4021530908225955,,-1.0102879146060504,0.2564178996228764,0.16943936219000003,1.0195125052217575,0.3012834819827962,0.4555355064561176,0.8747074741490654,,0.026284658535034606,0.02909900195387546,0.07078751784,-0.11578833687890082,,5.801022e-05,1.2516975e-06,2.1457672e-06,1.0,-4.3366104e-05,-4.579872e-05,4.3373555e-05,1.0,-4.142523e-06,4.579872e-05,4.172325e-06,0.99999994,657,1.997,0,0,0.0,False,-0.25868648125324345,1.0492253061540504
1.9665353808086365,13:56:34.426974,13:55:07.344727,0,,0.11920239,0.007836029,0.023499638,0.98179066,0.039171662,-0.18588373,0.16084243,-0.6920632,0.7036889,-0.1010786,-0.7207733,-0.6857615,,0.016661182,0.0070769377,0.04230416,-0.6374111,-0.76172054,0.11614175,-0.26587364,0.35890278,0.89470655,-0.72320014,0.539417,-0.43129,,0.057952456,1.3372949,0.4464894,0.99692774,0.07709271,-0.013848812,0.04285853,-0.6848928,-0.7273823,-0.065560825,0.72455406,-0.6860927,,-0.07720938,0.29069304,-0.035141114,-0.970025,-0.009044992,0.24283679,0.0005484831,-0.999386,-0.03503339,0.24300456,-0.03385007,0.9694343,,0.031137763,0.48692432,-0.27489746,0.7167573,0.69656557,-0.032486588,-0.6966722,0.717323,0.009777335,0.030113932,0.015624525,0.99942434,,1.1743573745189502,0.39152711125743417,0.18895111927000002,-2.388997526119186,0.17421153720093657,0.02089125936748437,-0.40133637049192405,,-1.010280191873176,0.2564178996228764,0.16943806590000002,1.0195125052217575,0.3012834819827962,0.45561718519625816,0.8745441300829311,,0.026284658535034606,0.02909900195387546,0.07078751784,-0.11578833687890082,,5.801022e-05,1.2516975e-06,2.1457672e-06,1.0,-4.3366104e-05,-4.579872e-05,4.3373555e-05,1.0,-4.142523e-06,4.579872e-05,4.172325e-06,0.99999994,665,2.021,0,0,0.0,False,-0.2594014138754961,1.049370146756389
2.048509503947571,13:56:34.455675,13:55:07.344727,0,,0.11914754,0.007902265,0.023524657,0.9819008,0.04009055,-0.1851043,0.16123039,-0.6897457,0.7058721,-0.099376045,-0.72294086,-0.6837256,,0.016663507,0.0070769526,0.042304873,-0.63740164,-0.7617269,0.116152145,-0.26586974,0.3589055,0.89470667,-0.72320986,0.53940624,-0.43128708,,0.057952456,1.3372949,0.4464894,0.99692774,0.07709271,-0.013848812,0.04285853,-0.6848928,-0.7273823,-0.065560825,0.72455406,-0.6860927,,-0.0771548,0.2907576,-0.03511155,-0.97023225,-0.009778656,0.24197896,0.0020709513,-0.9994829,-0.03208666,0.2421676,-0.030630386,0.9697508,,0.031135373,0.4869247,-0.27489758,0.7167493,0.6965733,-0.03249726,-0.69668,0.7173153,0.009778913,0.030122515,0.015631165,0.999424,,1.1749211340187684,0.39152711125743417,0.18898352652000003,-2.390675045667062,0.17284517220328216,0.018084858877701577,-0.40117302642578984,,-1.0102956373389247,0.2564178996228764,0.16943806590000002,1.0195125052217575,0.3012834819827962,0.45561718519625816,0.8745441300829311,,0.026284658535034606,0.02909900195387546,0.07078751784,-0.11578833687890082,,5.801022e-05,1.2516975e-06,2.1457672e-06,1.0,-4.3366104e-05,-4.579872e-05,4.3373555e-05,1.0,-4.142523e-06,4.579872e-05,4.172325e-06,0.99999994,673,2.046,0,0,0.0,False,-0.2594014138754961,1.0497563883626244
2.0771917179226875,13:56:34.478391,13:55:07.344727,0,,0.119127735,0.007942811,0.023533493,0.9820637,0.041986246,-0.18381494,0.161763,-0.68847644,0.7069886,-0.0968684,-0.7240423,-0.6829195,,0.016661182,0.0070769377,0.04230416,-0.6374111,-0.76171106,0.11620398,-0.26587364,0.35897586,0.8946772,-0.72320014,0.53938174,-0.43133405,,0.057952456,1.3372949,0.4464894,0.99692774,0.07709271,-0.013848812,0.04285853,-0.6848928,-0.7273823,-0.065560825,0.72455406,-0.6860927,,-0.07713473,0.29079187,-0.035088357,-0.970539,-0.011575233,0.24066602,0.004287457,-0.9995169,-0.030783312,0.24090606,-0.02884456,0.9701197,,0.031137763,0.48692432,-0.27489746,0.7167573,0.69656295,-0.03254348,-0.6966722,0.7173238,0.009718746,0.030113932,0.015706157,0.9994231,,1.1751991524022405,0.39154255672318267,0.18900426716000002,-2.392981635045392,0.17147880720562775,0.016585318230167796,-0.4019897467564612,,-1.010280191873176,0.2564178996228764,0.16943806590000002,1.0195125052217575,0.3012834819827962,0.4555355064561176,0.8747074741490654,,0.026284658535034606,0.02909900195387546,0.07078751784,-0.11578833687890082,,5.801022e-05,1.2516975e-06,2.1457672e-06,1.0,-4.3366104e-05,-4.579872e-05,4.3373555e-05,1.0,-4.142523e-06,4.579872e-05,4.172325e-06,0.99999994,681,2.07,0,0,0.0,False,-0.25856732581620134,1.049514987358727
2.0999097218737006,13:56:34.508127,13:55:07.515267,0,,0.11910118,0.007983103,0.02354893,0.9822882,0.04026681,-0.18299854,0.16008198,-0.68792427,0.70790803,-0.0973839,-0.72466457,-0.6821858,,0.016663507,0.0070769526,0.042304873,-0.63740164,-0.7617173,0.116214365,-0.26586974,0.35897854,0.89467734,-0.72320986,0.5393711,-0.43133113,,0.057952456,1.3372949,0.4464894,0.99692774,0.07709271,-0.013848812,0.04285853,-0.6848928,-0.7273823,-0.065560825,0.72455406,-0.6860927,,-0.07710834,0.2908311,-0.03507014,-0.9707665,-0.009809273,0.23982532,0.0027752053,-0.9995565,-0.029650105,0.2400098,-0.028117765,0.9703632,,0.031135373,0.4869247,-0.27489758,0.7167493,0.69657063,-0.032554157,-0.69668,0.71731615,0.009720324,0.030122515,0.015712796,0.9994227,,1.1755003389843353,0.39154255672318267,0.18902241522000002,-2.3915138054410003,0.17038571520750423,0.015924765397068504,-0.3998662738967156,,-1.0102956373389247,0.2564178996228764,0.16943806590000002,1.0195125052217575,0.3012834819827962,0.4555355064561176,0.8747074741490654,,0.026284658535034606,0.02909900195387546,0.07078751784,-0.11578833687890082,,5.801022e-05,1.2516975e-06,2.1457672e-06,1.0,-4.3366104e-05,-4.579872e-05,4.3373555e-05,1.0,-4.142523e-06,4.579872e-05,4.172325e-06,0.99999994,689,2.095,0,0,0.0,False,-0.2588652144088064,1.0490321853509326
2.129660138860345,13:56:34.536143,13:55:07.515267,0,,0.119077474,0.008015573,0.023559973,0.9821315,0.039827496,-0.18393324,0.16056061,-0.6871643,0.7085375,-0.09817306,-0.7254094,-0.6812804,,0.016663507,0.0070769526,0.042304873,-0.63740164,-0.7617173,0.116214365,-0.26586974,0.35897854,0.89467734,-0.72320986,0.5393711,-0.43133113,,0.057952456,1.3372949,0.4464894,0.99692774,0.07709271,-0.013848812,0.04285853,-0.6848928,-0.7273823,-0.065560825,0.72455406,-0.6860927,,-0.077084675,0.29086173,-0.03505465,-0.97055113,-0.009308696,0.24071522,0.0025121425,-0.99958986,-0.028526302,0.24088205,-0.027081525,0.9701765,,0.031135373,0.4869247,-0.27489758,0.7167493,0.69657063,-0.032554157,-0.69668,0.71731615,0.009720324,0.030122515,0.015712796,0.9994227,,1.1756934073061909,0.3915966158533022,0.18904056328000002,-2.391304115497516,0.17120553420609688,0.015011221754468285,-0.4003563060951184,,-1.0102956373389247,0.2564178996228764,0.16943806590000002,1.0195125052217575,0.3012834819827962,0.4555355064561176,0.8747074741490654,,0.026284658535034606,0.02909900195387546,0.07078751784,-0.11578833687890082,,5.801022e-05,1.2516975e-06,2.1457672e-06,1.0,-4.3366104e-05,-4.579872e-05,4.3373555e-05,1.0,-4.142523e-06,4.579872e-05,4.172325e-06,0.99999994,726,2.21,0,0,0.0,False,-0.2586269035347226,1.049418426957168
2.157652373891324,13:56:34.639802,13:55:07.655311,0,,0.11908223,0.008049518,0.023572326,0.9821079,0.046514586,-0.18248415,0.16437201,-0.6846221,0.71012276,-0.09190156,-0.7274125,-0.6800183,,0.016663507,0.0070769526,0.042304873,-0.63740164,-0.76169837,0.1163388,-0.26586974,0.35912472,0.8946187,-0.72320986,0.5393005,-0.43141922,,0.057952456,1.3372949,0.4464894,0.99692774,0.07709271,-0.013848812,0.04285853,-0.6848928,-0.7273823,-0.065560825,0.72455406,-0.6860927,,-0.07708947,0.2908934,-0.035037335,-0.9708357,-0.015803643,0.23922451,0.009723257,-0.9995995,-0.026575992,0.2395487,-0.02347488,0.9706005,,0.031135373,0.4869247,-0.27489758,0.7167493,0.69656533,-0.032667946,-0.69668,0.7173177,0.009603145,0.030122515,0.01587606,0.9994201,,1.1759096438266692,0.39172790231216403,0.18905482247000002,-2.398643263519474,0.16970253270867705,0.012071202947960259,-0.40084633829352123,,-1.0102956373389247,0.2564178996228764,0.16943806590000002,1.0195125052217575,0.3012834819827962,0.4553721489758365,0.8750341622813339,,0.026284658535034606,0.02909900195387546,0.07078751784,-0.11578833687890082,,5.801022e-05,1.2516975e-06,2.1457672e-06,1.0,-4.3366104e-05,-4.579872e-05,4.3373555e-05,1.0,-4.142523e-06,4.579872e-05,4.172325e-06,0.99999994,734,2.234,0,0,0.0,False,-0.259580147031059,1.049514987358727
2.2612903229892254,13:56:34.671715,13:55:07.655311,0,,0.119085476,0.008052051,0.023575276,0.9819157,0.04971844,-0.18267353,0.16696642,-0.6822515,0.71179706,-0.08923981,-0.7294251,-0.67821467,,0.016581424,0.007049922,0.04231143,-0.63746864,-0.76162505,0.11645206,-0.26580408,0.35925567,0.89458555,-0.72317505,0.5393169,-0.43145722,,0.057952456,1.3372949,0.4464894,0.99692774,0.07709271,-0.013848812,0.04285853,-0.6848928,-0.7273823,-0.065560825,0.72455406,-0.6860927,,-0.077092834,0.2908972,-0.035037216,-0.970754,-0.018825859,0.2393371,0.013441226,-0.99961895,-0.0241106,0.23969981,-0.020188479,0.97063714,,0.031215066,0.48692665,-0.27493158,0.7168132,0.6964945,-0.03277634,-0.6966127,0.7173839,0.009543074,0.030159919,0.015991814,0.9994171,,1.1759328120252919,0.3917819614422836,0.18905482247000002,-2.4024176825021955,0.1698391692084425,0.009019350399203572,-0.40100968235965556,,-1.0102956373389247,0.2564178996228764,0.16943806590000002,1.0195125052217575,0.3012834819827962,0.4553721489758365,0.8750341622813339,,0.026284658535034606,0.02909900195387546,0.07078751784,-0.11578833687890082,,5.801022e-05,1.2516975e-06,2.1457672e-06,1.0,-4.3366104e-05,-4.579872e-05,4.3373555e-05,1.0,-4.142523e-06,4.579872e-05,4.172325e-06,0.99999994,742,2.259,0,0,0.0,False,-0.2596993024681016,1.0495632675595068
2.293249868787825,13:56:34.692562,13:55:07.655311,0,,0.11908479,0.008056179,0.02358985,0.9817766,0.055472583,-0.18176281,0.17025976,-0.6816246,0.71161747,-0.084418684,-0.72959614,-0.67864776,,0.016609505,0.0070464276,0.042307675,-0.63744944,-0.7616572,0.116346836,-0.26583996,0.35914543,0.89461917,-0.72317857,0.5393449,-0.43141598,,0.057916477,1.3372943,0.44648525,0.99692553,0.077128135,-0.013811188,0.042910095,-0.6848888,-0.727383,-0.065560825,0.72455406,-0.6860927,,-0.07706634,0.29091364,-0.03504946,-0.97085387,-0.024507623,0.23841582,0.019195702,-0.9995136,-0.024576733,0.23890218,-0.019283857,0.97085214,,0.03121626,0.48692644,-0.27493152,0.71681714,0.6964933,-0.032714114,-0.6966088,0.71738696,0.009600881,0.030155629,0.015906863,0.9994186,,1.1760254848197826,0.3918746342367743,0.18905482247000002,-2.4082890009197624,0.16901935020984984,0.008626034199554794,-0.40100968235965556,,-1.0102879146060504,0.2564178996228764,0.16943806590000002,1.0195125052217575,0.3012834819827962,0.4554538277159771,0.8748708182151996,,0.026284658535034606,0.02909900195387546,0.07078751784,-0.11578833687890082,,2.2381544e-05,-4.172325e-06,5.841255e-06,1.0000001,-7.878989e-06,-8.3222985e-06,7.882714e-06,0.99999994,-7.4505806e-07,8.3222985e-06,7.748604e-07,0.99999994,750,2.283,0,0,0.0,False,-0.2594014138754961,1.0499012289649627
2.3140938580036163,13:56:34.721293,13:55:07.655311,0,,0.11908472,0.008077204,0.02361533,0.9813043,0.064970404,-0.18116547,0.17641185,-0.67997026,0.7117016,-0.07694755,-0.7303555,-0.67871916,,0.016614668,0.0070488565,0.042306483,-0.6373753,-0.76170146,0.11646329,-0.26574597,0.3591601,0.8946412,-0.7232785,0.53927255,-0.43133888,,0.057916477,1.3372943,0.44648525,0.99692553,0.077128135,-0.013811188,0.042910095,-0.6848888,-0.727383,-0.065560825,0.72455406,-0.6860927,,-0.077067405,0.29094663,-0.03505076,-0.97071594,-0.033903178,0.23782597,0.028875528,-0.99928045,-0.024592977,0.23848863,-0.017005444,0.9709964,,0.031211365,0.48692596,-0.2749284,0.7167593,0.696547,-0.0328388,-0.6966625,0.7173339,0.0096673975,0.03029018,0.015948363,0.9994139,,1.176249444073135,0.392036811627133,0.18905222989,-2.4181444282635347,0.16847280421078806,0.0072747735312481306,-0.4013363704919241,,-1.010311082804673,0.2564178996228764,0.16944195477000001,1.0195125052217575,0.3014201184825616,0.4554240885524212,0.8747074741490654,,0.026284658535034606,0.02909900195387546,0.07078751784,-0.11578833687890082,,2.2381544e-05,-4.172325e-06,5.841255e-06,1.0000001,-7.878989e-06,-8.3222985e-06,7.882714e-06,0.99999994,-7.4505806e-07,8.3222985e-06,7.748604e-07,0.99999994,762,2.32,0,0,0.0,False,-0.25880563669028556,1.0491770259532711
2.342741411877796,13:56:34.759030,13:55:07.776869,0,,0.119077094,0.008129716,0.023680031,0.9811694,0.06682254,-0.18122238,0.17795299,-0.6775322,0.7136404,-0.075096674,-0.7324511,-0.67666507,,0.01662077,0.007049512,0.042307198,-0.63735175,-0.7617362,0.11636484,-0.26573625,0.3590207,0.89470005,-0.72330284,0.5393162,-0.43124342,,0.057916477,1.3372943,0.44648525,0.99692553,0.077128135,-0.013811188,0.042910095,-0.6848888,-0.727383,-0.065560825,0.72455406,-0.6860927,,-0.077062696,0.29103008,-0.03505512,-0.97066355,-0.035570126,0.23779632,0.031285513,-0.9992734,-0.021768948,0.23839787,-0.013690744,0.97107106,,0.031205252,0.48692626,-0.2749276,0.71673936,0.6965716,-0.0327517,-0.69668204,0.71731323,0.0097885225,0.030311635,0.015801702,0.9994156,,1.1766510261825947,0.39233799820922777,0.18904704473000003,-2.4206607075853492,0.1683361677110226,0.004527435530024888,-0.40182640269032693,,-1.0103496964690442,0.2564178996228764,0.16944325106000002,1.0195125052217575,0.3014201184825616,0.4555874460327023,0.8750341622813339,,0.026284658535034606,0.02909900195387546,0.07078751784,-0.11578833687890082,,2.2381544e-05,-4.172325e-06,5.841255e-06,1.0000001,-7.878989e-06,-8.3222985e-06,7.882714e-06,0.99999994,-7.4505806e-07,8.3222985e-06,7.748604e-07,0.99999994,787,2.398,0,0,0.0,False,-0.2589843698458485,1.049418426957168
2.3805623238440603,13:56:34.827369,13:55:07.776869,0,,0.119084306,0.0082974285,0.023902312,0.980617,0.07626816,-0.18048185,0.1843465,-0.6712184,0.7179708,-0.06638439,-0.7373255,-0.6722679,,0.016621545,0.007051643,0.042308867,-0.6373459,-0.76173145,0.116428405,-0.26572633,0.35908392,0.89467764,-0.72331166,0.5392811,-0.43127272,,0.057916477,1.3372943,0.44648525,0.99692553,0.077128135,-0.013811188,0.042910095,-0.6848888,-0.727383,-0.065560825,0.72455406,-0.6860927,,-0.07708013,0.29130715,-0.035077605,-0.9705174,-0.04456046,0.23687617,0.04205274,-0.9989931,-0.015631275,0.2373342,-0.005209132,0.9714141,,0.031204335,0.4869286,-0.27492636,0.71673506,0.69657326,-0.03281162,-0.6966859,0.7173101,0.009745993,0.030324902,0.015874099,0.999414,,1.1778943861753448,0.39345779447599033,0.18901852635000002,-2.431774274590029,0.1672430757128991,-0.0017689503727732064,-0.4001929620289842,,-1.0103574192019185,0.25643334508862486,0.16944325106000002,1.0195125052217575,0.3014201184825616,0.4555874460327023,0.8751975063474682,,0.026284658535034606,0.02909900195387546,0.07078751784,-0.11578833687890082,,2.2381544e-05,-4.172325e-06,5.841255e-06,1.0000001,-7.878989e-06,-8.3222985e-06,7.882714e-06,0.99999994,-7.4505806e-07,8.3222985e-06,7.748604e-07,0.99999994,795,2.423,0,0,0.0,False,-0.25868648125324345,1.0491770259532711
2.4489048027899116,13:56:34.857279,13:55:07.776869,0,,0.11908714,0.008355245,0.024005607,0.97982687,0.085521676,-0.18062538,0.19091061,-0.66781753,0.7194253,-0.059098303,-0.73939544,-0.67067254,,0.016621545,0.007051643,0.042308867,-0.6373459,-0.76173145,0.116428405,-0.26572633,0.35908392,0.89467764,-0.72331166,0.5392811,-0.43127272,,0.057916477,1.3372943,0.44648525,0.99692553,0.077128135,-0.013811188,0.042910095,-0.6848888,-0.727383,-0.065560825,0.72455406,-0.6860927,,-0.07708814,0.29142252,-0.035103086,-0.97004217,-0.05359422,0.23695119,0.0518799,-0.9985625,-0.013468953,0.23733243,-0.00077244727,0.9714282,,0.031204335,0.4869286,-0.27492636,0.71673506,0.69657326,-0.03281162,-0.6966859,0.7173101,0.009745993,0.030324902,0.015874099,0.999414,,1.1784349774765406,0.39396749484568916,0.18899130426000002,-2.441839391877286,0.1672430757128991,-0.004872742498114563,-0.4005196501612528,,-1.0103574192019185,0.25643334508862486,0.16944325106000002,1.0195125052217575,0.3014201184825616,0.45550576729256176,0.8751975063474682,,0.026284658535034606,0.02909900195387546,0.07078751784,-0.11578833687890082,,2.2381544e-05,-4.172325e-06,5.841255e-06,1.0000001,-7.878989e-06,-8.3222985e-06,7.882714e-06,0.99999994,-7.4505806e-07,8.3222985e-06,7.748604e-07,0.99999994,803,2.447,0,0,0.0,False,-0.2598184579051428,1.0493218665556094
2.4788101778831333,13:56:34.890233,13:55:07.776869,0,,0.11909772,0.008407667,0.024101302,0.9796547,0.09063513,-0.17905879,0.19326729,-0.666481,0.7200352,-0.054078758,-0.73999196,-0.670438,,0.016622692,0.007051643,0.042309225,-0.63734126,-0.76173455,0.116433606,-0.2657244,0.35908526,0.89467764,-0.7233165,0.5392757,-0.43127128,,0.057916477,1.3372943,0.44648525,0.99692553,0.077128135,-0.013811188,0.042910095,-0.6848888,-0.727383,-0.065560825,0.72455406,-0.6860927,,-0.077103525,0.29152837,-0.035127085,-0.97013175,-0.058631588,0.23538628,0.05719356,-0.9982793,-0.012937925,0.23573981,0.00091108744,0.97181576,,0.031203141,0.48692882,-0.27492642,0.7167311,0.6965771,-0.032816958,-0.69668984,0.71730626,0.0097467825,0.030329194,0.01587742,0.99941385,,1.1789446778462394,0.39439224515377147,0.18896148959000003,-2.447501020351368,0.1656034377157138,-0.005741053637552736,-0.4013363704919241,,-1.0103651419347925,0.25643334508862486,0.16944325106000002,1.0195125052217575,0.3014201184825616,0.45550576729256176,0.8751975063474682,,0.026284658535034606,0.02909900195387546,0.07078751784,-0.11578833687890082,,2.2381544e-05,-4.172325e-06,5.841255e-06,1.0000001,-7.878989e-06,-8.3222985e-06,7.882714e-06,0.99999994,-7.4505806e-07,8.3222985e-06,7.748604e-07,0.99999994,815,2.484,0,0,0.0,False,-0.25975888018662197,1.049804668563404
2.5117403569165617,13:56:34.919668,13:55:07.938538,0,,0.11908616,0.008432329,0.024179116,0.97932655,0.0945121,-0.17884952,0.19595344,-0.6627298,0.7227664,-0.050218686,-0.7428704,-0.66754884,,0.016623087,0.007049542,0.042307913,-0.6373423,-0.7617331,0.11643745,-0.2657324,0.35909656,0.8946708,-0.7233126,0.53927034,-0.43128455,,0.057916477,1.3372943,0.44648525,0.99692553,0.077128135,-0.013811188,0.042910095,-0.6848888,-0.727383,-0.065560825,0.72455406,-0.6860927,,-0.0770963,0.29160312,-0.03516112,-0.96998686,-0.062242866,0.23505597,0.06186901,-0.99804395,-0.008972273,0.23515464,0.005839693,0.9719404,,0.031202864,0.48692665,-0.27492768,0.71673137,0.69657665,-0.03281927,-0.6966899,0.71730644,0.009731511,0.030320216,0.015889974,0.9994139,,1.1793462599556992,0.3946239271399982,0.18892778605000002,-2.4521141991080277,0.1649202552168866,-0.00983965230708267,-0.4024797789548641,,-1.0103651419347925,0.2564178996228764,0.16944325106000002,1.0195125052217575,0.3014201184825616,0.45550576729256176,0.8751975063474682,,0.026284658535034606,0.02909900195387546,0.07078751784,-0.11578833687890082,,2.2381544e-05,-4.172325e-06,5.841255e-06,1.0000001,-7.878989e-06,-8.3222985e-06,7.882714e-06,0.99999994,-7.4505806e-07,8.3222985e-06,7.748604e-07,0.99999994,823,2.509,0,0,0.0,False,-0.2590439475643693,1.049804668563404
2.541106402873993,13:56:34.943822,13:55:07.938538,0,,0.11909202,0.00843434,0.024233937,0.9787056,0.10443647,-0.17671667,0.2010769,-0.66088754,0.72304606,-0.041277416,-0.74318266,-0.66781396,,0.016621932,0.007049527,0.042307556,-0.637347,-0.7617299,0.11643225,-0.26573437,0.3590952,0.8946707,-0.7233077,0.5392757,-0.431286,,0.057916477,1.3372943,0.44648525,0.99692553,0.077128135,-0.013811188,0.042910095,-0.6848888,-0.727383,-0.065560825,0.72455406,-0.6860927,,-0.07710549,0.29164508,-0.035195738,-0.9698132,-0.0720878,0.23295002,0.07196167,-0.9973663,-0.009051605,0.23298901,0.007985106,0.97244656,,0.031204058,0.48692647,-0.27492765,0.71673536,0.6965728,-0.032813933,-0.69668597,0.71731025,0.009730722,0.030315926,0.015886653,0.9994141,,1.179647446537794,0.3947706590646085,0.18888889735000003,-2.4623890063387694,0.16259743472087412,-0.010967661329444309,-0.4016630586241927,,-1.0103574192019185,0.2564178996228764,0.16944325106000002,1.0195125052217575,0.3014201184825616,0.45550576729256176,0.8751975063474682,,0.026284658535034606,0.02909900195387546,0.07078751784,-0.11578833687890082,,2.2381544e-05,-4.172325e-06,5.841255e-06,1.0000001,-7.878989e-06,-8.3222985e-06,7.882714e-06,0.99999994,-7.4505806e-07,8.3222985e-06,7.748604e-07,0.99999994,852,2.599,0,0,0.0,False,-0.2596993024681016,1.049370146756389
2.5653525048401207,13:56:35.029335,13:55:07.938538,0,,0.119059816,0.008428484,0.024352416,0.97674537,0.12257084,-0.17591232,0.21275793,-0.65555406,0.7245569,-0.026510447,-0.74513423,-0.66638726,,0.016622901,0.007050585,0.04230857,-0.63734174,-0.7617433,0.1163733,-0.26572838,0.35901785,0.89470357,-0.7233146,0.53930825,-0.43123385,,0.057916477,1.3372943,0.44648525,0.99692553,0.077128135,-0.013811188,0.042910095,-0.6848888,-0.727383,-0.065560825,0.72455406,-0.6860927,,-0.07708083,0.29173037,-0.035280727,-0.9685261,-0.089949995,0.23209083,0.0908078,-0.99584377,-0.0070076687,0.23175655,0.014288548,0.9726689,,0.031203002,0.48692772,-0.27492705,0.7167312,0.6965795,-0.032761216,-0.69668984,0.71730554,0.009797735,0.030324705,0.015802067,0.99941516,,1.1803193242978514,0.3950023410508352,0.18880204592000002,-2.4818901710828305,0.1610944332234543,-0.015459576198623037,-0.4008463382935213,,-1.0103651419347925,0.2564256223557506,0.16944325106000002,1.0195125052217575,0.3014201184825616,0.4555874460327023,0.8750341622813339,,0.026284658535034606,0.02909900195387546,0.07078751784,-0.11578833687890082,,2.2381544e-05,-4.172325e-06,5.841255e-06,1.0000001,-7.878989e-06,-8.3222985e-06,7.882714e-06,0.99999994,-7.4505806e-07,8.3222985e-06,7.748604e-07,0.99999994,860,2.623,0,0,0.0,False,-0.25952056931253775,1.049804668563404
2.6508665019646287,13:56:35.054210,13:55:07.938538,0,,0.11907511,0.008447796,0.024389759,0.976889,0.12638423,-0.17238072,0.21274823,-0.65280855,0.7270344,-0.020645887,-0.7469055,-0.6646095,,0.016622901,0.007050585,0.04230857,-0.63734174,-0.7617433,0.1163733,-0.26572838,0.35901785,0.89470357,-0.7233146,0.53930825,-0.43123385,,0.057916477,1.3372943,0.44648525,0.99692553,0.077128135,-0.013811188,0.042910095,-0.6848888,-0.727383,-0.065560825,0.72455406,-0.6860927,,-0.077098,0.29177058,-0.03529029,-0.96903306,-0.09358762,0.22850883,0.09516172,-0.9954532,-0.00414532,0.2278578,0.017728342,0.97353303,,0.031203002,0.48692772,-0.27492705,0.7167312,0.6965795,-0.032761216,-0.69668984,0.71730554,0.009797735,0.030324705,0.015802067,0.99941516,,1.1805896199484494,0.3950795683795775,0.18878649044,-2.486083969952521,0.15699533823049108,-0.018324623338413108,-0.40100968235965556,,-1.0103651419347925,0.2564256223557506,0.16944325106000002,1.0195125052217575,0.3014201184825616,0.4555874460327023,0.8750341622813339,,0.026284658535034606,0.02909900195387546,0.07078751784,-0.11578833687890082,,2.2381544e-05,-4.172325e-06,5.841255e-06,1.0000001,-7.878989e-06,-8.3222985e-06,7.882714e-06,0.99999994,-7.4505806e-07,8.3222985e-06,7.748604e-07,0.99999994,868,2.648,0,0,0.0,False,-0.2588652144088064,1.0495632675595068
2.675737021956593,13:56:35.084643,13:55:08.102575,0,,0.11907977,0.008466914,0.024418592,0.9768259,0.12979044,-0.17019337,0.21343681,-0.650133,0.7292268,-0.016001627,-0.74865305,-0.6627688,,0.016620576,0.0070506,0.042307854,-0.63735116,-0.761737,0.116362914,-0.2657323,0.3590151,0.8947035,-0.72330487,0.5393189,-0.4312368,,0.057916477,1.3372943,0.44648525,0.99692553,0.077128135,-0.013811188,0.042910095,-0.6848888,-0.727383,-0.065560825,0.72455406,-0.6860927,,-0.077104025,0.29180464,-0.035294965,-0.96924335,-0.096821874,0.22625831,0.099079795,-0.9950785,-0.001383075,0.2252787,0.02107709,0.9740664,,0.031205392,0.48692733,-0.27492693,0.7167392,0.6965718,-0.032750543,-0.69668204,0.7173132,0.0097961575,0.030316124,0.015795425,0.9994156,,1.1808290246675501,0.39514135024257124,0.18877741641,-2.4900680788787266,0.15426260823518226,-0.0212420258933401,-0.4003563060951184,,-1.0103496964690442,0.2564256223557506,0.16944325106000002,1.0195125052217575,0.3014201184825616,0.4555874460327023,0.8750341622813339,,0.026284658535034606,0.02909900195387546,0.07078751784,-0.11578833687890082,,2.2381544e-05,-4.172325e-06,5.841255e-06,1.0000001,-7.878989e-06,-8.3222985e-06,7.882714e-06,0.99999994,-7.4505806e-07,8.3222985e-06,7.748604e-07,0.99999994,880,2.685,0,0,0.0,False,-0.2587460589717643,1.0492253061540504
2.706166798947379,13:56:35.115276,13:55:08.102575,0,,0.11906735,0.00847581,0.024436742,0.97660524,0.13083275,-0.17066132,0.21451081,-0.64838696,0.7304652,-0.015085757,-0.7499846,-0.661283,,0.016622178,0.0070514046,0.042308927,-0.63708824,-0.7619869,0.116166174,-0.2660151,0.3588108,0.89470136,-0.7234324,0.5391017,-0.4312942,,0.057916477,1.3372943,0.44648525,0.99692553,0.077128135,-0.013811188,0.042910095,-0.6848888,-0.727383,-0.065560825,0.72455406,-0.6860927,,-0.07709257,0.29182446,-0.035301115,-0.96905726,-0.097742654,0.22665928,0.10048501,-0.99493843,0.00056386215,0.22545691,0.023322275,0.97397393,,0.031203695,0.48692846,-0.27492654,0.7164864,0.6968413,-0.032548208,-0.6969495,0.7170537,0.009764245,0.030142942,0.015688509,0.9994225,,1.1809680338592863,0.3951799639069424,0.18877223125,-2.4915359084831183,0.1543992447349477,-0.02331373356041002,-0.4001929620289842,,-1.0103651419347925,0.2564256223557506,0.16944325106000002,1.0190931253347884,0.3014201184825616,0.4555874460327023,0.8750341622813339,,0.026284658535034606,0.02909900195387546,0.07078751784,-0.11578833687890082,,2.2381544e-05,-4.172325e-06,5.841255e-06,1.0000001,-7.878989e-06,-8.3222985e-06,7.882714e-06,0.99999994,-7.4505806e-07,8.3222985e-06,7.748604e-07,0.99999994,888,2.709,0,0,0.0,False,-0.2586269035347226,1.0495632675595068
2.7367609068751335,13:56:35.145581,13:55:08.102575,0,,0.11905741,0.00846906,0.02443844,0.9756242,0.13617918,-0.17208388,0.21918383,-0.64319116,0.7336644,-0.010772988,-0.7534986,-0.6573611,,0.016622372,0.0070503466,0.04230821,-0.63708884,-0.76198626,0.1161681,-0.26601914,0.35881647,0.8946979,-0.7234306,0.53909916,-0.43130082,,0.057916477,1.3372943,0.44648525,0.99692553,0.077128135,-0.013811188,0.042910095,-0.6848888,-0.727383,-0.065560825,0.72455406,-0.6860927,,-0.0770829,0.29182157,-0.03530785,-0.9682471,-0.10275041,0.2279032,0.10684376,-0.9942597,0.005662799,0.22601311,0.029833024,0.9736673,,0.031203557,0.4869274,-0.27492717,0.7164866,0.6968411,-0.032549363,-0.69694954,0.71705383,0.009756609,0.030138452,0.015694784,0.9994225,,1.1810220929894057,0.3951799639069424,0.18876704609000003,-2.4980362967311387,0.15494579073400946,-0.029476916985035066,-0.40215309082259554,,-1.0103651419347925,0.2564178996228764,0.16944325106000002,1.0190931253347884,0.3014201184825616,0.4555874460327023,0.8750341622813339,,0.026284658535034606,0.02909900195387546,0.07078751784,-0.11578833687890082,,2.2381544e-05,-4.172325e-06,5.841255e-06,1.0000001,-7.878989e-06,-8.3222985e-06,7.882714e-06,0.99999994,-7.4505806e-07,8.3222985e-06,7.748604e-07,0.99999994,917,2.799,0,0,0.0,False,-0.2586269035347226,1.049514987358727
