AlexandreBanks6/ExpertPlaybackApp/resources/Motions/P_13/PC1/Data_PC1_4.csv
Task Time,PC1 Time,PC2 Time,Gaze Calib,s_T_psm1,Tx,Ty,Tz,R00,R01,R02,R10,R11,R12,R20,R21,R22,s_T_psm3,Tx,Ty,Tz,R00,R01,R02,R10,R11,R12,R20,R21,R22,cart_T_ecm,Tx,Ty,Tz,R00,R01,R02,R10,R11,R12,R20,R21,R22,ecm_T_psm1,Tx,Ty,Tz,R00,R01,R02,R10,R11,R12,R20,R21,R22,ecm_T_psm3,Tx,Ty,Tz,R00,R01,R02,R10,R11,R12,R20,R21,R22,psm1_joints,q1,q2,q3,q4,q5,q6,jaw,psm3_joints,q1,q2,q3,q4,q5,q6,jaw,ecm_joints,q1,q2,q3,q4,ecmi_T_ecm,Tx,Ty,Tz,R00,R01,R02,R10,R11,R12,R20,R21,R22,Sample #,Task Duration (s),Collisions (binary),Collisions (increments),Cumulative Collision Time (s),Clutch Press,MTMR Angle,MTML Angle
""
lci_T_si,,,,,-0.060449902,0.028989637,0.2531565,0.99598145,-0.006817275,0.089299574,0.061369892,-0.674251,-0.7359479,0.065227486,0.7384708,-0.67112315
rci_T_si,,,,,-0.070302054,0.033551246,0.263737,0.9935428,-0.022055382,0.11129344,0.070708275,-0.6467685,-0.7594016,0.088729985,0.7623674,-0.6410327
ecm_T_lc,,,,,-4.4061628e-05,-0.00034663224,-0.01840835,-0.99912,0.030754527,0.028518902,-0.031987965,-0.99852574,-0.043852776,0.027128186,-0.04472645,0.9986309
ecm_T_rc,,,,,-0.0043358393,0.01870579,-0.007592615,-0.99555075,-0.052743673,-0.078081585,0.04863213,-0.9973746,0.053654674,-0.08070653,0.04961868,0.9955021
cart_T_ecmi,,,,,0.05789456,1.3372948,0.4464937,0.99692506,0.077136,-0.013802834,0.042921547,-0.6848879,-0.7273832,-0.065560825,0.72455406,-0.6860927
ecmac_T_ecmrep_psm1,,,,,-0.0025980123,-0.29326126,-0.2805022,0.9974786,0.061531033,0.035360787,-0.060258932,0.9975341,-0.035980776,-0.037487525,0.033759248,0.99872667
ecmac_T_ecmrep_psm3,,,,,-0.0114122145,-0.5209516,-0.5025674,0.9999053,0.010122195,-0.009323479,-0.0077519584,0.9740634,0.22614253,0.011370718,-0.22604884,0.9740496
""
0,14:01:28.686786,14:00:01.696893,0,,0.13319033,0.015187964,0.025770158,-0.6982814,-0.45427865,-0.55320364,-0.57221514,-0.11008847,0.81268096,-0.43008485,0.8840313,-0.18307242,,0.018249437,0.007263012,0.04407209,-0.60763437,-0.7297352,0.31347597,0.16323079,0.27152777,0.9484874,-0.77726203,0.6275024,-0.045874327,,0.057930693,1.3372952,0.4464868,0.99692637,0.07711462,-0.013825544,0.04289042,-0.68489033,-0.7273828,-0.065560825,0.72455406,-0.6860927,,-0.091137,0.29684,-0.030381363,0.7113655,0.3962076,0.58049864,-0.6793932,0.5991384,0.4236249,-0.17995563,-0.695739,0.6953871,,0.029358897,0.4884198,-0.27538237,0.7072268,0.65086466,-0.27605334,-0.5538918,0.75274986,0.3557689,0.4393565,-0.09870561,0.89287347,,1.1487333468422731,0.4737278799706799,0.19316795064000003,0.006500388248020255,-0.2020853831530864,0.7696181503078707,-0.41309714325359226,,-1.0057469476760064,0.26320618181931976,0.16978547162000002,1.3533388952491203,0.6192366169369762,0.6998154775211112,0.8647434861148742,,0.026284658535034606,0.02909900195387546,0.07078751784,-0.11578833687890082,,3.6492944e-05,-2.3841858e-06,4.053116e-06,1.0000001,-2.1416694e-05,-2.2623688e-05,2.142787e-05,1.0,-2.026558e-06,2.2623688e-05,2.0861626e-06,1.0,44,0.133,1,1,0.11,False,-0.2588652144088064,1.0375414975654216
0.12666302593424916,14:01:28.735695,14:00:01.696893,0,,0.13308942,0.0152166635,0.026216447,-0.700566,-0.44988364,-0.55390644,-0.5647738,-0.12488395,0.81574166,-0.43616277,0.88431257,-0.16659307,,0.01825022,0.0072633848,0.04406935,-0.60763395,-0.72978586,0.31335872,0.16322628,0.27137905,0.94853073,-0.7772634,0.6275078,-0.04577884,,0.057930693,1.3372952,0.4464868,0.99692637,0.07711462,-0.013825544,0.04289042,-0.68489033,-0.7273828,-0.065560825,0.72455406,-0.6860927,,-0.091063365,0.29719457,-0.030662516,0.7141787,0.39149258,0.5802434,-0.6788797,0.5893369,0.4379548,-0.17050277,-0.7066935,0.68666816,,0.029358493,0.48841745,-0.27538076,0.70722646,0.65090966,-0.2759481,-0.553895,0.7526927,0.35588497,0.43935308,-0.09884498,0.89285976,,1.1505868027320871,0.47436114406636626,0.19287887797000003,0.00817790779589645,-0.19306737416856737,0.782030823777923,-0.4124437669890551,,-1.0057469476760064,0.2631984590864455,0.1697880642,1.3533388952491203,0.6192366169369762,0.6999788350013924,0.8640901098503373,,0.026284658535034606,0.02909900195387546,0.07078751784,-0.11578833687890082,,3.6492944e-05,-2.3841858e-06,4.053116e-06,1.0000001,-2.1416694e-05,-2.2623688e-05,2.142787e-05,1.0,-2.026558e-06,2.2623688e-05,2.0861626e-06,1.0,56,0.171,1,1,0.148,False,-0.25880563669028556,1.0378311787700982
0.17557071102783084,14:01:28.776029,14:00:01.791648,0,,0.13297276,0.015220836,0.02647464,-0.701133,-0.4487948,-0.55407214,-0.5630418,-0.12830308,0.81640816,-0.43748885,0.8843764,-0.16273272,,0.018251792,0.007266484,0.044065475,-0.6077563,-0.7295519,0.3136661,0.16351485,0.27155483,0.9484308,-0.777107,0.6277038,-0.045746565,,0.057930693,1.3372952,0.4464868,0.99692637,0.07711462,-0.013825544,0.04289042,-0.68489033,-0.7273828,-0.065560825,0.72455406,-0.6860927,,-0.09096286,0.29739326,-0.030837739,0.71486324,0.39033002,0.5801836,-0.67869306,0.58706856,0.44127795,-0.16836354,-0.70922,0.684588,,0.029357526,0.48841527,-0.27537614,0.70733637,0.6506579,-0.27625993,-0.5536137,0.75292206,0.35583732,0.43953055,-0.09875541,0.89278233,,1.1518842218549568,0.4746391624498384,0.19270517511000002,0.008387597739380975,-0.1911544631718512,0.7841465164324983,-0.4126071110551893,,-1.0057469476760064,0.26321390455219396,0.16979324936,1.3537582751360893,0.6192366169369762,0.6999788350013924,0.8640901098503373,,0.026284658535034606,0.02909900195387546,0.07078751784,-0.11578833687890082,,3.6492944e-05,-2.3841858e-06,4.053116e-06,1.0000001,-2.1416694e-05,-2.2623688e-05,2.142787e-05,1.0,-2.026558e-06,2.2623688e-05,2.0861626e-06,1.0,64,0.195,1,1,0.172,False,-0.25868648125324345,1.0372518163607447
0.21586250513792038,14:01:28.803068,14:00:01.791648,0,,0.13293028,0.015208587,0.026562095,-0.7005127,-0.4493771,-0.55438477,-0.56325656,-0.12885684,0.8161727,-0.43820557,0.88400006,-0.16284871,,0.018252082,0.0072671697,0.044064403,-0.6077563,-0.7295519,0.3136661,0.16351485,0.27155483,0.9484308,-0.777107,0.6277038,-0.045746565,,0.057930693,1.3372952,0.4464868,0.99692637,0.07711462,-0.013825544,0.04289042,-0.68489033,-0.7273828,-0.065560825,0.72455406,-0.6860927,,-0.09092613,0.29745156,-0.03090745,0.71428406,0.3909227,0.5804978,-0.6793897,0.58643776,0.44104463,-0.16801149,-0.7094154,0.684472,,0.029357392,0.48841462,-0.27537504,0.70733637,0.6506579,-0.27625993,-0.5536137,0.75292206,0.35583732,0.43953055,-0.09875541,0.89278233,,1.152308972163039,0.4747086670457064,0.19263647174,0.007339148021958352,-0.1908811901723203,0.784005359365246,-0.41309714325359226,,-1.0057469476760064,0.26321390455219396,0.16979454565000002,1.3537582751360893,0.6192366169369762,0.6999788350013924,0.8640901098503373,,0.026284658535034606,0.02909900195387546,0.07078751784,-0.11578833687890082,,3.6492944e-05,-2.3841858e-06,4.053116e-06,1.0000001,-2.1416694e-05,-2.2623688e-05,2.142787e-05,1.0,-2.026558e-06,2.2623688e-05,2.0861626e-06,1.0,77,0.235,1,1,0.212,False,-0.25880563669028556,1.036865574754509
0.24294706992805004,14:01:28.844978,14:00:01.791648,0,,0.13285425,0.015177891,0.026728213,-0.70107114,-0.4468321,-0.5557343,-0.561896,-0.13368669,0.8163337,-0.4390583,0.88457274,-0.15734935,,0.01825469,0.007270701,0.044059515,-0.60775024,-0.72953033,0.31372815,0.1635168,0.2716335,0.9484078,-0.77711135,0.62769485,-0.045794845,,0.057930693,1.3372952,0.4464868,0.99692637,0.07711462,-0.013825544,0.04289042,-0.68489033,-0.7273828,-0.065560825,0.72455406,-0.6860927,,-0.090861216,0.29755718,-0.0310451,0.71492285,0.38824582,0.5815071,-0.6790989,0.5835604,0.44528854,-0.1664631,-0.7132478,0.680858,,0.029355543,0.4884116,-0.2753695,0.70733094,0.65064,-0.27631593,-0.5536173,0.7529475,0.3557779,0.43953472,-0.09867944,0.89278865,,1.1530503545189645,0.4747936171073229,0.19249906500000002,0.0077585279089274015,-0.18937818867490044,0.7886606317147058,-0.4130971432535922,,-1.0057546704088807,0.26321390455219396,0.16980102710000003,1.3537582751360893,0.6192366169369762,0.6998971562612516,0.8632733895196658,,0.026284658535034606,0.02909900195387546,0.07078751784,-0.11578833687890082,,3.6492944e-05,-2.3841858e-06,4.053116e-06,1.0000001,-2.1416694e-05,-2.2623688e-05,2.142787e-05,1.0,-2.026558e-06,2.2623688e-05,2.0861626e-06,1.0,85,0.26,1,1,0.237,False,-0.25856732581620134,1.0365276133490526
0.28480426012538373,14:01:28.865103,14:00:01.791648,0,,0.132808,0.015156075,0.026819885,-0.7022644,-0.44459578,-0.55602115,-0.56031895,-0.13661745,0.81693226,-0.43916678,0.8852515,-0.1531739,,0.018255278,0.007272117,0.04405743,-0.60775024,-0.72955596,0.31366858,0.1635168,0.27155608,0.94843006,-0.77711135,0.62769866,-0.045743585,,0.057930693,1.3372952,0.4464868,0.99692637,0.07711462,-0.013825544,0.04289042,-0.68489033,-0.7273828,-0.065560825,0.72455406,-0.6860927,,-0.09082119,0.29761234,-0.031124948,0.71615356,0.38591045,0.58154726,-0.67808926,0.58203876,0.44880483,-0.16528457,-0.71575415,0.6785109,,0.029355276,0.48841032,-0.27536726,0.70733094,0.65066254,-0.2762628,-0.5536173,0.7529185,0.3558394,0.43953472,-0.09875236,0.8927806,,1.1534519366284244,0.4747936171073229,0.19241869502000003,0.009226357513319072,-0.18814846017701148,0.7917418075884661,-0.41179039072451795,,-1.0057546704088807,0.26321390455219396,0.16980361968000002,1.3537582751360893,0.6192366169369762,0.6999788350013922,0.8631100454535315,,0.026284658535034606,0.02909900195387546,0.07078751784,-0.11578833687890082,,3.6492944e-05,-2.3841858e-06,4.053116e-06,1.0000001,-2.1416694e-05,-2.2623688e-05,2.142787e-05,1.0,-2.026558e-06,2.2623688e-05,2.0861626e-06,1.0,93,0.285,1,1,0.262,False,-0.2586269035347226,1.036865574754509
0.3049594790209085,14:01:28.893228,14:00:01.791648,0,,0.13272595,0.015125155,0.026972488,-0.7024067,-0.444593,-0.5558435,-0.5590367,-0.13878065,0.81744593,-0.440571,0.8849163,-0.1510633,,0.018257402,0.0072759762,0.04405421,-0.6077446,-0.7295605,0.31366903,0.16352318,0.27155107,0.94843036,-0.7771145,0.6276955,-0.0457336,,0.057930693,1.3372952,0.4464868,0.99692637,0.07711462,-0.013825544,0.04289042,-0.68489033,-0.7273828,-0.065560825,0.72455406,-0.6860927,,-0.09074945,0.29770792,-0.03125412,0.7164096,0.38588282,0.5812501,-0.6782745,0.58034617,0.4507127,-0.16340399,-0.71714205,0.6775001,,0.029353695,0.48840904,-0.27536222,0.70732594,0.6506673,-0.27626455,-0.5536178,0.7529139,0.35584834,0.4395423,-0.09875579,0.8927765,,1.1541855962514755,0.4747936171073229,0.19228906602,0.009016667569834547,-0.18623554918029533,0.7927956766212143,-0.411790390724518,,-1.0057623931417548,0.2632216272850682,0.16980880484000002,1.3537582751360893,0.6192366169369762,0.6999788350013922,0.8631100454535315,,0.026284658535034606,0.02909900195387546,0.07078751784,-0.11578833687890082,,3.6492944e-05,-2.3841858e-06,4.053116e-06,1.0000001,-2.1416694e-05,-2.2623688e-05,2.142787e-05,1.0,-2.026558e-06,2.2623688e-05,2.0861626e-06,1.0,106,0.325,1,1,0.302,False,-0.25922268071993226,1.0365758935498322
0.33309463900513947,14:01:28.926469,14:00:01.791648,0,,0.13264203,0.015088543,0.027172849,-0.7007039,-0.4464177,-0.5565299,-0.55754733,-0.14406794,0.8175484,-0.44514608,0.88315094,-0.14795002,,0.018256083,0.0072798207,0.04404998,-0.6077571,-0.7295274,0.3137217,0.16352388,0.2716199,0.9484105,-0.7771045,0.62770414,-0.04578376,,0.057930693,1.3372952,0.4464868,0.99692637,0.07711462,-0.013825544,0.04289042,-0.68489033,-0.7273828,-0.065560825,0.72455406,-0.6860927,,-0.09067889,0.29783532,-0.03141942,0.71502537,0.38770148,0.5817442,-0.68074095,0.57556385,0.4531203,-0.15915552,-0.72000957,0.675467,,0.029355668,0.48840714,-0.275357,0.7073371,0.6506355,-0.27631086,-0.55360734,0.7529493,0.3557896,0.4395374,-0.09869546,0.89278555,,1.1550891559977599,0.4748090625730713,0.19212054832000003,0.005871318417566682,-0.18199981768756668,0.7955493058573079,-0.4134238313858607,,-1.0057469476760064,0.2632293500179424,0.16981399000000003,1.3537582751360893,0.6192366169369762,0.6998971562612517,0.8627833573212631,,0.026284658535034606,0.02909900195387546,0.07078751784,-0.11578833687890082,,3.6492944e-05,-2.3841858e-06,4.053116e-06,1.0000001,-2.1416694e-05,-2.2623688e-05,2.142787e-05,1.0,-2.026558e-06,2.2623688e-05,2.0861626e-06,1.0,114,0.351,1,1,0.328,False,-0.2585077480976805,1.0352240479280073
0.3663277421146631,14:01:28.954069,14:00:01.791648,0,,0.13253687,0.015065581,0.027442828,-0.70024204,-0.44630814,-0.5571987,-0.55368537,-0.15317419,0.818517,-0.45065925,0.8816726,-0.13985527,,0.018259637,0.0072843954,0.044046104,-0.6077453,-0.7295359,0.31372464,0.16353221,0.27161616,0.94841015,-0.7771119,0.6276958,-0.045770824,,0.057930693,1.3372952,0.4464868,0.99692637,0.07711462,-0.013825544,0.04289042,-0.68489033,-0.7273828,-0.065560825,0.72455406,-0.6860927,,-0.09059117,0.29802433,-0.031622026,0.7149875,0.3874917,0.58193046,-0.682283,0.5683855,0.45981288,-0.15258718,-0.7258017,0.6707675,,0.029352771,0.48840544,-0.27535093,0.7073266,0.6506449,-0.27631548,-0.5536114,0.75294113,0.35580063,0.43954915,-0.09869584,0.89277977,,1.156324793257636,0.47487856716893934,0.19191314192000003,0.0041937988696904875,-0.1754412656988255,0.8019629850601206,-0.41309714325359226,,-1.0057623931417548,0.26323707275081665,0.16982047145,1.3537582751360893,0.6192366169369762,0.6998971562612518,0.8626200132551287,,0.026284658535034606,0.02909900195387546,0.07078751784,-0.11578833687890082,,3.6492944e-05,-2.3841858e-06,4.053116e-06,1.0000001,-2.1416694e-05,-2.2623688e-05,2.142787e-05,1.0,-2.026558e-06,2.2623688e-05,2.0861626e-06,1.0,127,0.391,1,1,0.368,False,-0.25826943722359585,1.035079207325669
0.3939483570866287,14:01:28.990320,14:00:01.984413,0,,0.13231534,0.015026733,0.027836248,-0.70266986,-0.44337353,-0.5564847,-0.54829603,-0.1610353,0.8206333,-0.4534608,0.8817525,-0.12994531,,0.018263891,0.0072920695,0.044039786,-0.60773385,-0.7294938,0.31384477,0.16354501,0.27176112,0.9483664,-0.7771182,0.6276821,-0.045853376,,0.057930693,1.3372952,0.4464868,0.99692637,0.07711462,-0.013825544,0.04289042,-0.68489033,-0.7273828,-0.065560825,0.72455406,-0.6860927,,-0.090395294,0.29829836,-0.031925198,0.7176973,0.38439268,0.5806486,-0.6806951,0.5631067,0.46857765,-0.14684929,-0.7315416,0.66579443,,0.02934961,0.48840284,-0.27534088,0.7073165,0.6506093,-0.27642527,-0.5536123,0.7529901,0.35569552,0.43956432,-0.09855686,0.89278764,,1.158363594736431,0.47488628990181353,0.19160981006000002,0.006500388248020255,-0.16956589620891158,0.807708572679307,-0.41293379918745804,,-1.0057778386075031,0.2632525182165651,0.16983084177000002,1.3537582751360893,0.6192366169369762,0.6997337987809705,0.860986572593786,,0.026284658535034606,0.02909900195387546,0.07078751784,-0.11578833687890082,,3.6492944e-05,-2.3841858e-06,4.053116e-06,1.0000001,-2.1416694e-05,-2.2623688e-05,2.142787e-05,1.0,-2.026558e-06,2.2623688e-05,2.0861626e-06,1.0,131,0.403,1,1,0.38,False,-0.25820985950507547,1.0351274875264485
0.4301967341452837,14:01:29.016938,14:00:01.984413,0,,0.13217744,0.015001029,0.02803865,-0.70335484,-0.4411677,-0.55737174,-0.54780495,-0.16327673,0.8205183,-0.45299202,0.8824464,-0.1268324,,0.018267557,0.0072984025,0.044035554,-0.6077225,-0.72950286,0.31384578,0.16355783,0.2717512,0.94836706,-0.7771244,0.6276759,-0.04583338,,0.057930693,1.3372952,0.4464868,0.99692637,0.07711462,-0.013825544,0.04289042,-0.68489033,-0.7273828,-0.065560825,0.72455406,-0.6860927,,-0.09027078,0.29843628,-0.032086797,0.71836215,0.38210133,0.5813384,-0.67999667,0.56205714,0.47084638,-0.14683437,-0.7335464,0.6635882,,0.029346716,0.48840156,-0.27533305,0.7073064,0.6506188,-0.27642882,-0.5536132,0.752981,0.35571343,0.4395795,-0.09856372,0.8927794,,1.1595065592018163,0.4749326262990589,0.19145295897000003,0.007129458078473829,-0.16956589620891158,0.8096688624426805,-0.41244376698905505,,-1.0057932840732517,0.26326796368231353,0.16983861951,1.3537582751360893,0.6192366169369762,0.6997337987809705,0.860986572593786,,0.026284658535034606,0.02909900195387546,0.07078751784,-0.11578833687890082,,3.6492944e-05,-2.3841858e-06,4.053116e-06,1.0000001,-2.1416694e-05,-2.2623688e-05,2.142787e-05,1.0,-2.026558e-06,2.2623688e-05,2.0861626e-06,1.0,148,0.456,1,1,0.433,False,-0.2590439475643693,1.0356102895342432
0.4568161400966346,14:01:29.059921,14:00:01.984413,0,,0.13185734,0.014951766,0.028579071,-0.7038444,-0.4354106,-0.5612673,-0.5473442,-0.17121512,0.8192067,-0.45278874,0.88380027,-0.11781067,,0.01827012,0.007314883,0.044021666,-0.60773045,-0.7295016,0.31383333,0.16357836,0.27171898,0.9483728,-0.7771138,0.62769127,-0.045801193,,0.057930693,1.3372952,0.4464868,0.99692637,0.07711462,-0.013825544,0.04289042,-0.68489033,-0.7273828,-0.065560825,0.72455406,-0.6860927,,-0.08998589,0.29881594,-0.032501094,0.71884775,0.37610528,0.584639,-0.6795222,0.55758446,0.4768114,-0.14665434,-0.74003,0.6563902,,0.029346453,0.48839647,-0.27531198,0.70731354,0.65061456,-0.27642044,-0.55359375,0.75298,0.3557458,0.43959245,-0.098599195,0.8927691,,1.1624334749611474,0.4752878720112732,0.19105240536,0.006919768134989304,-0.16970253270867705,0.8168046519984652,-0.41326048731972653,,-1.0057855613403774,0.26330657734668467,0.16985936015000003,1.3537582751360893,0.6192366169369762,0.6997337987809705,0.860986572593786,,0.026284658535034606,0.02909900195387546,0.07078751784,-0.11578833687890082,,3.6492944e-05,-2.3841858e-06,4.053116e-06,1.0000001,-2.1416694e-05,-2.2623688e-05,2.142787e-05,1.0,-2.026558e-06,2.2623688e-05,2.0861626e-06,1.0,156,0.482,1,1,0.459,False,-0.2583290149421176,1.0349343667233308
0.49977366509847343,14:01:29.087527,14:00:01.984413,0,,0.13174534,0.014936045,0.02878049,-0.70494705,-0.43282342,-0.5618841,-0.5465784,-0.17334178,0.81927085,-0.45199758,0.88465613,-0.114375144,,0.018271878,0.007319115,0.044015408,-0.60773045,-0.7295016,0.31383333,0.16357836,0.27171898,0.9483728,-0.7771138,0.62769127,-0.045801193,,0.057930693,1.3372952,0.4464868,0.99692637,0.07711462,-0.013825544,0.04289042,-0.68489033,-0.7273828,-0.065560825,0.72455406,-0.6860927,,-0.08988693,0.29895896,-0.03265313,0.7199153,0.37342575,0.5850429,-0.6783871,0.5567197,0.47943103,-0.14667304,-0.74203527,0.65411824,,0.029345654,0.48839262,-0.27530527,0.70731354,0.65061456,-0.27642044,-0.55359375,0.75298,0.3557458,0.43959245,-0.098599195,0.8927691,,1.1634914893649162,0.4754577721345062,0.19090592459000003,0.00817790779589645,-0.1698391692084425,0.8188763596655353,-0.41130035852611513,,-1.0057855613403774,0.26330657734668467,0.16986713789000002,1.3537582751360893,0.6192366169369762,0.6997337987809705,0.860986572593786,,0.026284658535034606,0.02909900195387546,0.07078751784,-0.11578833687890082,,3.6492944e-05,-2.3841858e-06,4.053116e-06,1.0000001,-2.1416694e-05,-2.2623688e-05,2.142787e-05,1.0,-2.026558e-06,2.2623688e-05,2.0861626e-06,1.0,169,0.522,1,1,0.499,False,-0.2589247921273281,1.0345481251170952
0.5273999359924346,14:01:29.126057,14:00:01.984413,0,,0.13155758,0.0149333775,0.029087022,-0.7030071,-0.43265203,-0.5644408,-0.5477506,-0.17680836,0.8177457,-0.4535972,0.8840537,-0.112687856,,0.018276818,0.0073282495,0.044002116,-0.6077243,-0.7294799,0.3138954,0.1635803,0.27179766,0.94834983,-0.7771182,0.6276824,-0.045849472,,0.057930693,1.3372952,0.4464868,0.99692637,0.07711462,-0.013825544,0.04289042,-0.68489033,-0.7273828,-0.065560825,0.72455406,-0.6860927,,-0.08971865,0.29919136,-0.032869667,0.7180538,0.37321895,0.5874575,-0.68042195,0.55395335,0.47975162,-0.14637166,-0.7442065,0.6517147,,0.029342735,0.4883845,-0.2752908,0.7073081,0.6505967,-0.27647644,-0.5535974,0.75300545,0.35568637,0.43959662,-0.09852322,0.8927754,,1.1652908861246105,0.4756894541207329,0.19069851819000003,0.00482286870014406,-0.1698391692084425,0.8205916132084871,-0.41211707885678656,,-1.0057932840732517,0.26330657734668467,0.16988398966,1.3537582751360893,0.6192366169369762,0.6996521200408299,0.8611499166599202,,0.026284658535034606,0.02909900195387546,0.07078751784,-0.11578833687890082,,3.6492944e-05,-2.3841858e-06,4.053116e-06,1.0000001,-2.1416694e-05,-2.2623688e-05,2.142787e-05,1.0,-2.026558e-06,2.2623688e-05,2.0861626e-06,1.0,173,0.534,1,1,0.511,False,-0.2593418361569748,1.0345481251170952
0.5658929760102183,14:01:29.149318,14:00:01.984413,0,,0.13145828,0.014942229,0.02920942,-0.70150644,-0.4337516,-0.5654631,-0.548081,-0.17879584,0.81709194,-0.4555173,0.8831147,-0.11230454,,0.018280298,0.007333897,0.04399413,-0.6077183,-0.7295096,0.3138383,0.1635822,0.2717214,0.9483714,-0.7771226,0.6276809,-0.04579526,,0.057930693,1.3372952,0.4464868,0.99692637,0.07711462,-0.013825544,0.04289042,-0.68489033,-0.7273828,-0.065560825,0.72455406,-0.6860927,,-0.08962694,0.29929155,-0.03295013,0.71666837,0.37433243,0.58844,-0.6821197,0.551964,0.47963366,-0.14525525,-0.7451248,0.65091467,,0.029340483,0.48837957,-0.2752819,0.7073027,0.6506239,-0.27642617,-0.55360097,0.7529727,0.35574993,0.43960077,-0.09859309,0.8927657,,1.1661558322065237,0.475658563189236,0.19062074079000002,0.002306589378329768,-0.16874607721031895,0.8210888085613053,-0.4132604873197264,,-1.0058010068061258,0.26330657734668467,0.16989435998000002,1.3537582751360893,0.6192366169369762,0.6997337987809705,0.860986572593786,,0.026284658535034606,0.02909900195387546,0.07078751784,-0.11578833687890082,,3.6492944e-05,-2.3841858e-06,4.053116e-06,1.0000001,-2.1416694e-05,-2.2623688e-05,2.142787e-05,1.0,-2.026558e-06,2.2623688e-05,2.0861626e-06,1.0,190,0.587,1,1,0.564,False,-0.2587460589717643,1.0341618835108592
0.5891521840821952,14:01:29.195022,14:00:02.184301,0,,0.13140061,0.014939204,0.029267624,-0.69956064,-0.43812895,-0.5644981,-0.5463964,-0.181126,0.8177067,-0.46050623,0.8804751,-0.112683386,,0.018281475,0.007341258,0.043989778,-0.6077194,-0.72958803,0.31365356,0.1635957,0.27147043,0.94844097,-0.77711886,0.6276983,-0.045620352,,0.057930693,1.3372952,0.4464868,0.99692637,0.07711462,-0.013825544,0.04289042,-0.68489033,-0.7273828,-0.065560825,0.72455406,-0.6860927,,-0.089573085,0.29933473,-0.032994382,0.71507144,0.3788148,0.58751357,-0.6847717,0.54858553,0.47973084,-0.14057231,-0.7453545,0.65167946,,0.029340096,0.48837894,-0.27527332,0.70730376,0.65069187,-0.27626342,-0.5535915,0.7528828,0.3559551,0.43961105,-0.0988313,0.8927343,,1.1666114734461028,0.47537282207288967,0.19057148177000002,-0.0010484497174226219,-0.16382716321876312,0.8203449136338565,-0.4126071110551894,,-1.0058010068061258,0.26332974554530736,0.16990213772,1.3537582751360893,0.6192366169369762,0.6999788350013922,0.8604965403953831,,0.026284658535034606,0.02909900195387546,0.07078751784,-0.11578833687890082,,3.6492944e-05,-2.3841858e-06,4.053116e-06,1.0000001,-2.1416694e-05,-2.2623688e-05,2.142787e-05,1.0,-2.026558e-06,2.2623688e-05,2.0861626e-06,1.0,198,0.613,1,1,0.59,False,-0.25826943722359585,1.0333411200976084
0.634888474131003,14:01:29.219131,14:00:02.184301,0,,0.13138634,0.014920026,0.02927871,-0.6987989,-0.44062528,-0.5634977,-0.54424536,-0.18369913,0.8185668,-0.4641952,0.8786945,-0.111439615,,0.01827871,0.007342167,0.043987095,-0.60782856,-0.7295615,0.31350374,0.16351667,0.2713479,0.9484896,-0.7770501,0.6277821,-0.04563752,,0.057930693,1.3372952,0.4464868,0.99692637,0.07711462,-0.013825544,0.04289042,-0.68489033,-0.7273828,-0.065560825,0.72455406,-0.6860927,,-0.08955992,0.29933065,-0.033016834,0.71458524,0.38136187,0.58645636,-0.686107,0.54562396,0.48119816,-0.13647403,-0.74622893,0.6515499,,0.029343212,0.4883772,-0.27527153,0.70740074,0.65065104,-0.27611127,-0.55355513,0.7528991,0.355977,0.43950075,-0.09897557,0.8927726,,1.1666655325762225,0.4750948036894176,0.19054296339000001,-0.0025162793218142924,-0.159454795226269,0.8210268352028802,-0.4126071110551895,,-1.0057855613403774,0.26332974554530736,0.16990343401000002,1.3537582751360893,0.6190999804372107,0.7000902529050886,0.8601698522631145,,0.026284658535034606,0.02909900195387546,0.07078751784,-0.11578833687890082,,3.6492944e-05,-2.3841858e-06,4.053116e-06,1.0000001,-2.1416694e-05,-2.2623688e-05,2.142787e-05,1.0,-2.026558e-06,2.2623688e-05,2.0861626e-06,1.0,211,0.653,1,1,0.63,False,-0.2598184579051428,1.032858318089814
0.658966408111155,14:01:29.258471,14:00:02.184301,0,,0.1313872,0.0148937255,0.0292968,-0.6959011,-0.44613063,-0.5627516,-0.54225206,-0.1873362,0.8190652,-0.47083372,0.8751415,-0.1115478,,0.018280849,0.0073460117,0.043983877,-0.60782284,-0.72951484,0.31362346,0.16352308,0.2714979,0.94844556,-0.77705324,0.6277715,-0.045730114,,0.057930693,1.3372952,0.4464868,0.99692637,0.07711462,-0.013825544,0.04289042,-0.68489033,-0.7273828,-0.065560825,0.72455406,-0.6860927,,-0.08956245,0.29932654,-0.033048406,0.712147,0.38699883,0.58572906,-0.68981147,0.54073006,0.48142615,-0.13040996,-0.7468888,0.65203553,,0.02934163,0.4883759,-0.2752665,0.7073957,0.6506107,-0.27621934,-0.5535556,0.7529527,0.35586295,0.43950832,-0.09883316,0.89278466,,1.166680978041971,0.4747858943744486,0.19050277840000002,-0.007129458078473829,-0.15316951623705874,0.8212107297419815,-0.41309714325359215,,-1.0057932840732517,0.26333746827818155,0.16990861917000002,1.3537582751360893,0.6190999804372107,0.6999268954248075,0.8591897878663087,,0.026284658535034606,0.02909900195387546,0.07078751784,-0.11578833687890082,,3.6492944e-05,-2.3841858e-06,4.053116e-06,1.0000001,-2.1416694e-05,-2.2623688e-05,2.142787e-05,1.0,-2.026558e-06,2.2623688e-05,2.0861626e-06,1.0,219,0.678,1,1,0.655,False,-0.2588652144088064,1.0331962794952703
0.6983444539364427,14:01:29.279615,14:00:02.184301,0,,0.13138443,0.014875233,0.029349998,-0.69361264,-0.45079923,-0.56185573,-0.53947127,-0.19180012,0.81986797,-0.47735977,0.8717756,-0.110158294,,0.018280856,0.0073505715,0.043983757,-0.607824,-0.72951645,0.31361747,0.16353656,0.27147928,0.94844866,-0.7770495,0.62777764,-0.045708984,,0.057930693,1.3372952,0.4464868,0.99692637,0.07711462,-0.013825544,0.04289042,-0.68489033,-0.7273828,-0.065560825,0.72455406,-0.6860927,,-0.08956338,0.29935387,-0.033097718,0.71032643,0.39177185,0.5847659,-0.6928873,0.53539705,0.48296702,-0.123869084,-0.7482411,0.65176046,,0.029341778,0.48837787,-0.2752624,0.70739675,0.6506109,-0.27621603,-0.5535461,0.7529499,0.35588363,0.4395186,-0.098852605,0.89277744,,1.1668354326994554,0.4745696578539704,0.19044574164000003,-0.010903877061195267,-0.14647432774855218,0.8222855516721018,-0.4137505195181294,,-1.0057932840732517,0.26336063647680424,0.16991121175,1.3537582751360893,0.6190999804372107,0.6999268954248076,0.8588630997340403,,0.026284658535034606,0.02909900195387546,0.07078751784,-0.11578833687890082,,3.6492944e-05,-2.3841858e-06,4.053116e-06,1.0000001,-2.1416694e-05,-2.2623688e-05,2.142787e-05,1.0,-2.026558e-06,2.2623688e-05,2.0861626e-06,1.0,232,0.718,1,1,0.695,False,-0.259580147031059,1.0332445596960498
0.7194756581448019,14:01:29.325150,14:00:02.184301,0,,0.13123351,0.014744148,0.029618427,-0.6903262,-0.45454997,-0.56288034,-0.53381705,-0.20513797,0.8203401,-0.4883536,0.8667772,-0.1010344,,0.018428631,0.0073489957,0.044003963,-0.6077771,-0.729584,0.31355113,0.16350812,0.27141243,0.9484726,-0.7770921,0.62772816,-0.045665324,,0.057921827,1.3372954,0.4464947,0.99692595,0.07712128,-0.013818463,0.042900126,-0.68488955,-0.7273829,-0.065560825,0.72455406,-0.6860927,,-0.0894246,0.29946572,-0.033377394,0.70785296,0.39554483,0.58522516,-0.69739896,0.522903,0.4901093,-0.11215584,-0.75506073,0.645991,,0.029200662,0.4883757,-0.27525422,0.7073555,0.65067786,-0.27616382,-0.553597,0.752887,0.35593748,0.4395208,-0.098890886,0.89277214,,1.1684494838701682,0.4736506526419376,0.19017870590000002,-0.01677519547876195,-0.13390376977013163,0.8298410698826737,-0.4121170788567865,,-1.0058010068061258,0.26343014107267226,0.16991769320000003,1.3537582751360893,0.6190999804372107,0.6998452166846669,0.8590264438001746,,0.026284658535034606,0.02909900195387546,0.07078751784,-0.11578833687890082,,2.7149916e-05,2.3841858e-06,-1.4305115e-06,1.0000001,-1.4744699e-05,-1.5571713e-05,1.4744699e-05,1.0,-1.4007092e-06,1.5567988e-05,1.4305115e-06,1.0,240,0.744,1,1,0.721,False,-0.2585077480976805,1.0336790815030648
0.7650252559687942,14:01:29.347025,14:00:02.184301,0,,0.13107063,0.014722988,0.029775873,-0.6888965,-0.45811713,-0.56173885,-0.5308804,-0.20878595,0.8213248,-0.49354613,0.8640238,-0.09937352,,0.018421732,0.007353019,0.044005394,-0.60771817,-0.7295807,0.31367308,0.16358994,0.27150035,0.9484334,-0.77712107,0.6276939,-0.045643628,,0.057921827,1.3372954,0.4464947,0.99692595,0.07712128,-0.013818463,0.042900126,-0.68488955,-0.7273829,-0.065560825,0.72455406,-0.6860927,,-0.08927227,0.29957402,-0.033507146,0.7068099,0.39919809,0.584004,-0.6993507,0.5185348,0.4919657,-0.10643459,-0.7561498,0.64568496,,0.029207442,0.48837948,-0.27525187,0.7073033,0.6506817,-0.27628866,-0.55359167,0.7528961,0.35592663,0.4396116,-0.09879698,0.8927378,,1.169607893801302,0.4731641204708615,0.19004778061000002,-0.019501164744060762,-0.12775512728068683,0.8298096673649089,-0.412933799187458,,-1.0057546704088807,0.26346103200416915,0.16991769320000003,1.3537582751360893,0.6192366169369762,0.6997337987809706,0.8590264438001746,,0.026284658535034606,0.02909900195387546,0.07078751784,-0.11578833687890082,,2.7149916e-05,2.3841858e-06,-1.4305115e-06,1.0000001,-1.4744699e-05,-1.5571713e-05,1.4744699e-05,1.0,-1.4007092e-06,1.5567988e-05,1.4305115e-06,1.0,253,0.784,1,1,0.761,False,-0.2599376133421849,1.033823922105403
0.7868904680944979,14:01:29.391929,14:00:02.406384,0,,0.13046795,0.014663577,0.030300334,-0.6835642,-0.46379986,-0.5635868,-0.5264689,-0.2215068,0.8208321,-0.5055401,0.85780203,-0.09276202,,0.018403746,0.0073680542,0.044006765,-0.6078083,-0.72955734,0.3135528,0.1636217,0.27132523,0.948478,-0.77704394,0.6277968,-0.04554227,,0.057921827,1.3372954,0.4464947,0.99692595,0.07712128,-0.013818463,0.042900126,-0.68488955,-0.7273829,-0.065560825,0.72455406,-0.6860927,,-0.08870463,0.2999441,-0.033934493,0.70232517,0.40498596,0.5854278,-0.70550627,0.50560075,0.49661732,-0.09486972,-0.7618098,0.6408163,,0.029225554,0.48838928,-0.27524057,0.70738363,0.65064,-0.27618116,-0.5534998,0.75290585,0.35604882,0.43959802,-0.09899689,0.89272237,,1.173770446820509,0.47171224669050726,0.18962907894000003,-0.02893721220086436,-0.11504793280250085,0.8336599031055996,-0.4142405517165322,,-1.0056465521486415,0.26356142753153405,0.16992028578,1.3537582751360893,0.6192366169369762,0.6998154775211112,0.8595164759985774,,0.026284658535034606,0.02909900195387546,0.07078751784,-0.11578833687890082,,2.7149916e-05,2.3841858e-06,-1.4305115e-06,1.0000001,-1.4744699e-05,-1.5571713e-05,1.4744699e-05,1.0,-1.4007092e-06,1.5567988e-05,1.4305115e-06,1.0,261,0.808,1,1,0.787,False,-0.2586269035347226,1.033823922105403
0.8318041660822928,14:01:29.419578,14:00:02.406384,0,,0.13021646,0.014647424,0.030476019,-0.68205005,-0.46466663,-0.56470597,-0.5264463,-0.22401083,0.8201667,-0.5076043,0.85668194,-0.09183547,,0.018401258,0.0073713623,0.04400587,-0.6077303,-0.7295649,0.31368616,0.16370025,0.27142924,0.9484347,-0.7770883,0.627743,-0.04552579,,0.057921827,1.3372954,0.4464947,0.99692595,0.07712128,-0.013818463,0.042900126,-0.68488955,-0.7273829,-0.065560825,0.72455406,-0.6860927,,-0.088464916,0.30007216,-0.034077685,0.7009427,0.4058675,0.5864733,-0.7070763,0.5031246,0.4968991,-0.09339395,-0.76297915,0.6396408,,0.029228238,0.48839024,-0.27523744,0.70731443,0.6506576,-0.2763168,-0.5535116,0.75290585,0.35603037,0.43969443,-0.09888086,0.89268774,,1.175392220724096,0.4711562099235631,0.18949296849000002,-0.03166318146616318,-0.11313502180578469,0.833896984736942,-0.4122804229229208,,-1.0056233839500188,0.2635768729972825,0.16992287836000003,1.3537582751360893,0.6193732534367417,0.6997040596174147,0.8595164759985774,,0.026284658535034606,0.02909900195387546,0.07078751784,-0.11578833687890082,,2.7149916e-05,2.3841858e-06,-1.4305115e-06,1.0000001,-1.4744699e-05,-1.5571713e-05,1.4744699e-05,1.0,-1.4007092e-06,1.5567988e-05,1.4305115e-06,1.0,274,0.849,1,1,0.826,False,-0.2589843698458485,1.0336308013022852
0.8594549889676273,14:01:29.454518,14:00:02.406384,0,,0.12958486,0.014567986,0.03100492,-0.6768293,-0.4697124,-0.5668092,-0.5245558,-0.23247167,0.8190227,-0.51647216,0.8516614,-0.08904672,,0.018399253,0.0073720627,0.044004083,-0.6077425,-0.729557,0.31368122,0.16369641,0.2714268,0.948436,-0.7770796,0.6277533,-0.04553166,,0.057921827,1.3372954,0.4464947,0.99692595,0.07712128,-0.013818463,0.042900126,-0.68488955,-0.7273829,-0.065560825,0.72455406,-0.6860927,,-0.08786912,0.30043313,-0.034524538,0.69632244,0.4110352,0.58837503,-0.71258324,0.49390584,0.49827915,-0.08579159,-0.7662291,0.63681453,,0.029230474,0.4883892,-0.2752362,0.7073252,0.6506483,-0.27631107,-0.5535044,0.7529131,0.35602626,0.43968612,-0.09888696,0.89269114,,1.179647446537794,0.46974294980758,0.18906389650000002,-0.04067984903599772,-0.10452692232056193,0.8344737796371398,-0.41244376698905505,,-1.0056079384842702,0.2635768729972825,0.16992417465,1.3537582751360893,0.6193732534367417,0.6997040596174147,0.8595164759985774,,0.026284658535034606,0.02909900195387546,0.07078751784,-0.11578833687890082,,2.7149916e-05,2.3841858e-06,-1.4305115e-06,1.0000001,-1.4744699e-05,-1.5571713e-05,1.4744699e-05,1.0,-1.4007092e-06,1.5567988e-05,1.4305115e-06,1.0,295,0.915,1,1,0.892,False,-0.2588652144088064,1.0337756419046236
0.8943940710742027,14:01:29.519780,14:00:02.406384,0,,0.12885818,0.01442714,0.03159441,-0.66739994,-0.47966066,-0.5696518,-0.5196142,-0.248016,0.8176119,-0.53345895,0.84167314,-0.08371264,,0.018399924,0.0073752515,0.04400164,-0.60774285,-0.72955745,0.31367925,0.16370092,0.27142063,0.94843704,-0.7770784,0.6277554,-0.045524627,,0.057921827,1.3372954,0.4464947,0.99692595,0.07712128,-0.013818463,0.042900126,-0.68488955,-0.7273829,-0.065560825,0.72455406,-0.6860927,,-0.08718348,0.30080128,-0.035062872,0.68807,0.42125332,0.5908513,-0.72223306,0.476422,0.5013995,-0.07027838,-0.7717303,0.6320548,,0.029230213,0.48838836,-0.2752322,0.7073256,0.65064836,-0.27631,-0.55350125,0.7529122,0.35603315,0.43968955,-0.09889344,0.89268875,,1.1843505908581966,0.4675728618699229,0.18854278792,-0.055777524966883485,-0.08758399634964732,0.8376471375280204,-0.4127704551213237,,-1.0056079384842702,0.26358459573015675,0.16992806352,1.3537582751360893,0.6193732534367417,0.6997040596174147,0.8595164759985774,,0.026284658535034606,0.02909900195387546,0.07078751784,-0.11578833687890082,,2.7149916e-05,2.3841858e-06,-1.4305115e-06,1.0000001,-1.4744699e-05,-1.5571713e-05,1.4744699e-05,1.0,-1.4007092e-06,1.5567988e-05,1.4305115e-06,1.0,299,0.927,1,1,0.904,False,-0.259282258438454,1.0340653231093004
0.9596414670813829,14:01:29.541936,14:00:02.559733,0,,0.1286262,0.01439026,0.031733736,-0.6623559,-0.48696074,-0.5693454,-0.51619524,-0.2541471,0.8178947,-0.5429801,0.8356306,-0.083031,,0.018400416,0.007374894,0.04399991,-0.6077425,-0.729557,0.31368122,0.16369641,0.2714268,0.948436,-0.7770796,0.6277533,-0.04553166,,0.057921827,1.3372954,0.4464947,0.99692595,0.07712128,-0.013818463,0.042900126,-0.68488955,-0.7273829,-0.065560825,0.72455406,-0.6860927,,-0.0869614,0.30088782,-0.03519623,0.6836987,0.42878294,0.5905093,-0.7272009,0.46806917,0.5020857,-0.06111342,-0.7726943,0.6318296,,0.029229943,0.48838663,-0.27523172,0.7073252,0.6506483,-0.27631107,-0.5535044,0.7529131,0.35602626,0.43968612,-0.09888696,0.89269114,,1.18570979184406,0.46652257019902843,0.18841186263,-0.06332636293232637,-0.07774616836653561,0.837302850035091,-0.41358717545199497,,-1.0056079384842702,0.2635768729972825,0.16992935981,1.3537582751360893,0.6193732534367417,0.6997040596174147,0.8595164759985774,,0.026284658535034606,0.02909900195387546,0.07078751784,-0.11578833687890082,,2.7149916e-05,2.3841858e-06,-1.4305115e-06,1.0000001,-1.4744699e-05,-1.5571713e-05,1.4744699e-05,1.0,-1.4007092e-06,1.5567988e-05,1.4305115e-06,1.0,316,0.981,1,1,0.958,False,-0.2594014138754961,1.0337273617038443
0.9818117739632726,14:01:29.588100,14:00:02.559733,0,,0.12810117,0.014222205,0.031930998,-0.65147066,-0.50043017,-0.57022446,-0.509884,-0.26775226,0.81751275,-0.56178683,0.82333374,-0.08072856,,0.018398292,0.007377755,0.044001162,-0.6076273,-0.7297886,0.31336546,0.16341957,0.27123117,0.94853973,-0.77722794,0.62756866,-0.045545697,,0.057921827,1.3372954,0.4464947,0.99692595,0.07712128,-0.013818463,0.042900126,-0.68488955,-0.7273829,-0.065560825,0.72455406,-0.6860927,,-0.086453274,0.3009394,-0.035482462,0.67413515,0.44269863,0.59123576,-0.7373385,0.4502737,0.5035728,-0.043286897,-0.77541703,0.62996405,,0.029231973,0.48838928,-0.2752299,0.70722175,0.6508957,-0.27599314,-0.55377257,0.75268453,0.3560926,0.43951494,-0.09899899,0.892763,,1.1881347299665665,0.46369604996706226,0.18813056770000003,-0.07905310869366569,-0.05793387590054675,0.8383814681687685,-0.4122804229229209,,-1.0056002157513961,0.26358459573015675,0.16992935981,1.3533388952491203,0.6193732534367417,0.6997040596174147,0.8595164759985774,,0.026284658535034606,0.02909900195387546,0.07078751784,-0.11578833687890082,,2.7149916e-05,2.3841858e-06,-1.4305115e-06,1.0000001,-1.4744699e-05,-1.5571713e-05,1.4744699e-05,1.0,-1.4007092e-06,1.5567988e-05,1.4305115e-06,1.0,329,1.021,1,1,0.998,False,-0.2598184579051428,1.0334376804991676
1.0279774609953165,14:01:29.629107,14:00:02.559733,0,,0.12781365,0.014142051,0.032014325,-0.6378153,-0.521011,-0.5672208,-0.503007,-0.2759235,0.8190544,-0.5832459,0.80772126,-0.08608395,,0.018397622,0.007377427,0.043999135,-0.60763305,-0.729784,0.31336498,0.16341312,0.27123618,0.9485394,-0.77722484,0.62757176,-0.04555568,,0.057921827,1.3372954,0.4464947,0.99692595,0.07712128,-0.013818463,0.042900126,-0.68488955,-0.7273829,-0.065560825,0.72455406,-0.6860927,,-0.086173214,0.3009572,-0.03561395,0.66198367,0.46403047,0.5886029,-0.74916166,0.43386376,0.50051874,-0.023117494,-0.7722939,0.63484454,,0.029232888,0.48838738,-0.27522933,0.7072268,0.65089095,-0.27599138,-0.55377215,0.75268906,0.35608366,0.43950734,-0.09899557,0.89276713,,1.1893703672264424,0.4615722984266505,0.18799964241000003,-0.09750582372030382,-0.036618581937138045,0.8316185114103998,-0.4122804229229209,,-1.0055924930185218,0.2635768729972825,0.16993065610000002,1.3533388952491203,0.6193732534367417,0.6997040596174147,0.8595164759985774,,0.026284658535034606,0.02909900195387546,0.07078751784,-0.11578833687890082,,2.7149916e-05,2.3841858e-06,-1.4305115e-06,1.0000001,-1.4744699e-05,-1.5571713e-05,1.4744699e-05,1.0,-1.4007092e-06,1.5567988e-05,1.4305115e-06,1.0,338,1.05,1,1,1.027,False,-0.259282258438454,1.0335342409007262
1.0689749571029097,14:01:29.662166,14:00:02.559733,0,,0.1276943,0.014140099,0.03216414,-0.62608856,-0.5402014,-0.56231284,-0.48828083,-0.29063675,0.8228682,-0.6079433,0.7897548,-0.08180565,,0.018398397,0.0073778145,0.043996394,-0.6076327,-0.72978354,0.31336698,0.16340864,0.27124238,0.9485384,-0.7772261,0.62756974,-0.045562685,,0.057921827,1.3372954,0.4464947,0.99692595,0.07712128,-0.013818463,0.042900126,-0.68488955,-0.7273829,-0.065560825,0.72455406,-0.6860927,,-0.08606344,0.30107126,-0.03572186,0.65212274,0.48398286,0.58352077,-0.7580973,0.411293,0.5060895,0.0049406122,-0.772398,0.6351196,,0.029232483,0.48838502,-0.27522773,0.70722646,0.6508909,-0.27599248,-0.5537753,0.75269,0.35607678,0.4395039,-0.098989084,0.8927696,,1.1902275905754813,0.4601281473791705,0.18789464292000002,-0.11260349965118958,-0.007924916986395546,0.8307640839129465,-0.4135871754519951,,-1.0055924930185218,0.2635691502644083,0.16993324868,1.3533388952491203,0.6193732534367417,0.6997040596174147,0.8595164759985774,,0.026284658535034606,0.02909900195387546,0.07078751784,-0.11578833687890082,,2.7149916e-05,2.3841858e-06,-1.4305115e-06,1.0000001,-1.4744699e-05,-1.5571713e-05,1.4744699e-05,1.0,-1.4007092e-06,1.5567988e-05,1.4305115e-06,1.0,352,1.095,1,1,1.072,False,-0.2593418361569748,1.0334859606999471
1.1020330521278083,14:01:29.708229,14:00:02.702829,0,,0.12724273,0.014012486,0.032320842,-0.60828733,-0.56493646,-0.5575245,-0.47408304,-0.30475628,0.82605624,-0.63657826,0.76679236,-0.08244741,,0.018398501,0.007379528,0.043995976,-0.60763305,-0.729784,0.31336498,0.16341312,0.27123618,0.9485394,-0.77722484,0.62757176,-0.04555568,,0.057921827,1.3372954,0.4464947,0.99692595,0.07712128,-0.013818463,0.042900126,-0.68488955,-0.7273829,-0.065560825,0.72455406,-0.6860927,,-0.08562524,0.30111724,-0.035946835,0.63643324,0.50979,0.5788496,-0.7705112,0.38557792,0.50758463,0.03556994,-0.7690539,0.6381935,,0.029232489,0.48838544,-0.275226,0.7072268,0.65089095,-0.27599138,-0.55377215,0.75268906,0.35608366,0.43950734,-0.09899557,0.89276713,,1.192104214663918,0.4569154905034931,0.18768853281000003,-0.13504032360403367,0.024594569957779283,0.8244212716479171,-0.4127704551213237,,-1.0055924930185218,0.2635768729972825,0.16993454497000002,1.3533388952491203,0.6193732534367417,0.6997040596174147,0.8595164759985774,,0.026284658535034606,0.02909900195387546,0.07078751784,-0.11578833687890082,,2.7149916e-05,2.3841858e-06,-1.4305115e-06,1.0000001,-1.4744699e-05,-1.5571713e-05,1.4744699e-05,1.0,-1.4007092e-06,1.5567988e-05,1.4305115e-06,1.0,361,1.124,1,1,1.101,False,-0.259282258438454,1.033823922105403
1.1481070339214057,14:01:29.733043,14:00:02.702829,0,,0.12696528,0.013919607,0.03238757,-0.6014326,-0.5733167,-0.5564055,-0.47200063,-0.30692142,0.82644707,-0.6445886,0.75967574,-0.08601326,,0.018399939,0.0073802434,0.04399526,-0.6076269,-0.72978806,0.31336746,0.16341507,0.27123737,0.9485387,-0.7772292,0.6275666,-0.04555273,,0.057921827,1.3372954,0.4464947,0.99692595,0.07712128,-0.013818463,0.042900126,-0.68488955,-0.7273829,-0.065560825,0.72455406,-0.6860927,,-0.085354485,0.30111387,-0.03607619,0.6301334,0.5185476,0.5779622,-0.7753043,0.37910593,0.5051553,0.042838145,-0.76641184,0.6409195,,0.02923117,0.488385,-0.27522492,0.7072214,0.6508956,-0.27599424,-0.5537757,0.7526854,0.35608572,0.4395115,-0.09899251,0.89276546,,1.1931853972663093,0.4554018348601451,0.18757057042000003,-0.14384730123038372,0.0327927599437057,0.8195331297092242,-0.41440389578266634,,-1.0056002157513961,0.2635768729972825,0.16993584126000003,1.3533388952491203,0.6193732534367417,0.6997040596174147,0.8595164759985774,,0.026284658535034606,0.02909900195387546,0.07078751784,-0.11578833687890082,,2.7149916e-05,2.3841858e-06,-1.4305115e-06,1.0000001,-1.4744699e-05,-1.5571713e-05,1.4744699e-05,1.0,-1.4007092e-06,1.5567988e-05,1.4305115e-06,1.0,375,1.169,1,1,1.146,False,-0.25952056931253775,1.0340653231093004
1.17288823495619,14:01:29.779451,14:00:02.702829,0,,0.12608649,0.013666123,0.032646373,-0.5929298,-0.58544034,-0.55289614,-0.46230027,-0.3147021,0.829,-0.65932757,0.7471427,-0.08405298,,0.018400528,0.007381644,0.043993175,-0.6076269,-0.72978806,0.31336746,0.16341507,0.27123737,0.9485387,-0.7772292,0.6275666,-0.04555273,,0.057921827,1.3372954,0.4464947,0.99692595,0.07712128,-0.013818463,0.042900126,-0.68488955,-0.7273829,-0.065560825,0.72455406,-0.6860927,,-0.08449896,0.30116564,-0.036487155,0.62276655,0.5312578,0.5743927,-0.7800769,0.36497676,0.50820464,0.06034771,-0.7645633,0.64171726,,0.029230904,0.4883837,-0.2752227,0.7072214,0.6508956,-0.27599424,-0.5537757,0.7526854,0.35608572,0.4395115,-0.09899251,0.89276546,,1.1969309227103082,0.45109254991632786,0.18720242406,-0.15538024812203255,0.053561507908052655,0.8137875957466252,-0.41391386358426363,,-1.0056002157513961,0.2635768729972825,0.16993843384,1.3533388952491203,0.6193732534367417,0.6997040596174147,0.8595164759985774,,0.026284658535034606,0.02909900195387546,0.07078751784,-0.11578833687890082,,2.7149916e-05,2.3841858e-06,-1.4305115e-06,1.0000001,-1.4744699e-05,-1.5571713e-05,1.4744699e-05,1.0,-1.4007092e-06,1.5567988e-05,1.4305115e-06,1.0,384,1.198,1,1,1.175,False,-0.2583290149421176,1.0342101637116388
1.219315960071981,14:01:29.804267,14:00:02.702829,0,,0.12567075,0.013575733,0.032766625,-0.59037423,-0.5872532,-0.5537077,-0.46163267,-0.31706202,0.8284727,-0.6620829,0.74471825,-0.08390996,,0.018398516,0.0073823594,0.043991387,-0.6076391,-0.72978,0.31336248,0.16341123,0.27123496,0.9485401,-0.7772204,0.62757695,-0.04555866,,0.057921827,1.3372954,0.4464947,0.99692595,0.07712128,-0.013818463,0.042900126,-0.68488955,-0.7273829,-0.065560825,0.72455406,-0.6860927,,-0.08409347,0.3012082,-0.036658138,0.62040126,0.53316724,0.57518256,-0.78176445,0.3616563,0.50798535,0.06282273,-0.764812,0.6411832,,0.02923314,0.48838267,-0.27522144,0.7072322,0.6508863,-0.27598852,-0.5537685,0.7526927,0.3560816,0.4395032,-0.09899861,0.89276886,,1.1988307149973676,0.44941671688262114,0.18705205442000003,-0.1593643570482385,0.057250693401719545,0.812412887149633,-0.4134238313858607,,-1.0055847702856475,0.2635768729972825,0.16993973013000002,1.3533388952491203,0.6193732534367417,0.6997040596174147,0.8595164759985774,,0.026284658535034606,0.02909900195387546,0.07078751784,-0.11578833687890082,,2.7149916e-05,2.3841858e-06,-1.4305115e-06,1.0000001,-1.4744699e-05,-1.5571713e-05,1.4744699e-05,1.0,-1.4007092e-06,1.5567988e-05,1.4305115e-06,1.0,398,1.243,1,1,1.22,False,-0.2585077480976805,1.03411360331008
1.244145544944331,14:01:29.851238,14:00:02.702829,0,,0.12483053,0.013459966,0.033190593,-0.5845007,-0.5923387,-0.5545215,-0.45940226,-0.32173175,0.827912,-0.6688113,0.73866343,-0.08406934,,0.018399663,0.0073823445,0.043991745,-0.60763305,-0.7297585,0.3134246,0.16341312,0.27131364,0.94851726,-0.77722484,0.627568,-0.04560697,,0.057921827,1.3372954,0.4464947,0.99692595,0.07712128,-0.013818463,0.042900126,-0.68488955,-0.7273829,-0.065560825,0.72455406,-0.6860927,,-0.08328376,0.30147353,-0.037074182,0.61500424,0.53851855,0.5759927,-0.7854733,0.35419804,0.5075189,0.069292836,-0.7645532,0.6408252,,0.029231956,0.48838288,-0.27522153,0.7072268,0.6508684,-0.27604455,-0.55377215,0.75271815,0.35602218,0.43950734,-0.09892264,0.89277524,,1.203456631989028,0.44669831491089407,0.18668909322000002,-0.16859071456155758,0.06531224688788054,0.8079628780751988,-0.4135871754519951,,-1.0055924930185218,0.2635768729972825,0.16993973013000002,1.3533388952491203,0.6193732534367417,0.6996223808772741,0.8596798200647118,,0.026284658535034606,0.02909900195387546,0.07078751784,-0.11578833687890082,,2.7149916e-05,2.3841858e-06,-1.4305115e-06,1.0000001,-1.4744699e-05,-1.5571713e-05,1.4744699e-05,1.0,-1.4007092e-06,1.5567988e-05,1.4305115e-06,1.0,407,1.271,1,1,1.248,False,-0.25963972474957986,1.0344032845147566
1.2910780189558864,14:01:29.880132,14:00:02.903326,0,,0.12451528,0.013414115,0.03345175,-0.58416855,-0.5918324,-0.5554112,-0.45686215,-0.325831,0.82771444,-0.67083836,0.73727095,-0.08004555,,0.01840081,0.0073823445,0.04399216,-0.6076269,-0.72973686,0.3134867,0.16341507,0.27139238,0.94849443,-0.7772292,0.6275592,-0.04565525,,0.057921827,1.3372954,0.4464947,0.99692595,0.07712128,-0.013818463,0.042900126,-0.68488955,-0.7273829,-0.065560825,0.72455406,-0.6860927,,-0.082986325,0.30164745,-0.037299972,0.614852,0.5380133,0.576627,-0.7852982,0.35041085,0.51041055,0.07255132,-0.7666511,0.6379517,,0.029230772,0.48838308,-0.2752216,0.7072214,0.65085053,-0.27610058,-0.5537757,0.7527436,0.35596275,0.4395115,-0.09884667,0.8927816,,1.2055340471321945,0.4459414870892201,0.18648816827000003,-0.16984885422246473,0.06900143238154742,0.809528604123267,-0.4129337991874579,,-1.0056002157513961,0.2635768729972825,0.16993973013000002,1.3533388952491203,0.6193732534367417,0.6995407021371336,0.859843164130846,,0.026284658535034606,0.02909900195387546,0.07078751784,-0.11578833687890082,,2.7149916e-05,2.3841858e-06,-1.4305115e-06,1.0000001,-1.4744699e-05,-1.5571713e-05,1.4744699e-05,1.0,-1.4007092e-06,1.5567988e-05,1.4305115e-06,1.0,421,1.316,1,1,1.293,False,-0.259282258438454,1.034741245920213
1.3199702941346914,14:01:29.923591,14:00:02.903326,0,,0.12426503,0.013345748,0.033737704,-0.5848758,-0.58947307,-0.5571732,-0.45589995,-0.32924128,0.826895,-0.6708767,0.7376461,-0.07617551,,0.0184009,0.007381823,0.04399103,-0.6075356,-0.72977644,0.3135714,0.16348395,0.2714399,0.9484689,-0.77728605,0.6274926,-0.04560265,,0.057921827,1.3372954,0.4464947,0.99692595,0.07712128,-0.013818463,0.042900126,-0.68488955,-0.7273829,-0.065560825,0.72455406,-0.6860927,,-0.08275577,0.30182272,-0.037555322,0.6155804,0.5355638,0.57812816,-0.7846622,0.34833932,0.51280105,0.07325295,-0.7693056,0.6346676,,0.029230805,0.48838186,-0.27522156,0.7071403,0.65089977,-0.2761921,-0.5538043,0.75271004,0.35598934,0.43960595,-0.09877802,0.8927427,,1.2073875030220083,0.4456016868427542,0.18625353978,-0.16984885422246473,0.06982125138014007,0.8120455675665703,-0.41309714325359226,,-1.0055924930185218,0.2635691502644083,0.16994102642000003,1.3533388952491203,0.6195098899365069,0.6995109629735778,0.8600065081969802,,0.026284658535034606,0.02909900195387546,0.07078751784,-0.11578833687890082,,2.7149916e-05,2.3841858e-06,-1.4305115e-06,1.0000001,-1.4744699e-05,-1.5571713e-05,1.4744699e-05,1.0,-1.4007092e-06,1.5567988e-05,1.4305115e-06,1.0,430,1.345,1,1,1.322,False,-0.2593418361569748,1.0345481251170952
1.3634679720271379,14:01:29.954867,14:00:02.903326,0,,0.12419465,0.01326853,0.03383942,-0.584715,-0.5892771,-0.55754924,-0.45605177,-0.32962748,0.8266574,-0.6709137,0.7376302,-0.07600272,,0.018401481,0.007378664,0.043989062,-0.60753447,-0.72977483,0.31357738,0.16347043,0.27145848,0.94846594,-0.77728975,0.62748635,-0.04562375,,0.057921827,1.3372954,0.4464947,0.99692595,0.07712128,-0.013818463,0.042900126,-0.68488955,-0.7273829,-0.065560825,0.72455406,-0.6860927,,-0.082693465,0.3018492,-0.03768446,0.615419,0.5353611,0.5784877,-0.7847962,0.34806362,0.5127832,0.07317368,-0.7695715,0.6343543,,0.029230393,0.4883786,-0.27522343,0.70713925,0.6508995,-0.2761954,-0.5538138,0.7527128,0.35596865,0.43959564,-0.09875857,0.8927499,,1.2078199760629649,0.4454395094523955,0.18612909594000002,-0.17026823410943376,0.06982125138014007,0.8120455675665703,-0.41309714325359226,,-1.0055924930185218,0.2635459820657856,0.16994102642000003,1.3533388952491203,0.6195098899365069,0.6995109629735778,0.8600065081969802,,0.026284658535034606,0.02909900195387546,0.07078751784,-0.11578833687890082,,2.7149916e-05,2.3841858e-06,-1.4305115e-06,1.0000001,-1.4744699e-05,-1.5571713e-05,1.4744699e-05,1.0,-1.4007092e-06,1.5567988e-05,1.4305115e-06,1.0,444,1.39,1,1,1.367,False,-0.25922268071993226,1.0343550043139773
1.3947221599519253,14:01:29.996169,14:00:02.903326,0,,0.12420912,0.013142049,0.033866867,-0.584597,-0.58934176,-0.5576046,-0.45628592,-0.32946646,0.82659245,-0.67085737,0.73765045,-0.07630324,,0.018401287,0.0073797368,0.043989718,-0.6075349,-0.72982657,0.31345618,0.16347492,0.27129734,0.94851124,-0.77728856,0.6274959,-0.045514196,,0.057921827,1.3372954,0.4464947,0.99692595,0.07712128,-0.013818463,0.042900126,-0.68488955,-0.7273829,-0.065560825,0.72455406,-0.6860927,,-0.082712285,0.30178475,-0.03779607,0.6152928,0.5354278,0.5785601,-0.78491426,0.34818813,0.512518,0.0729686,-0.7694687,0.6345026,,0.029230531,0.48837972,-0.2752228,0.7071396,0.6509447,-0.27608797,-0.55381066,0.7526537,0.3560985,0.43959907,-0.09891089,0.89273137,,1.2074956212822474,0.44526960932916254,0.18601372613000003,-0.17026823410943376,0.06982125138014007,0.8121272463067108,-0.412933799187458,,-1.0055924930185218,0.26355370479865986,0.16994102642000003,1.3533388952491203,0.6195098899365069,0.699674320453859,0.8600065081969803,,0.026284658535034606,0.02909900195387546,0.07078751784,-0.11578833687890082,,2.7149916e-05,2.3841858e-06,-1.4305115e-06,1.0000001,-1.4744699e-05,-1.5571713e-05,1.4744699e-05,1.0,-1.4007092e-06,1.5567988e-05,1.4305115e-06,1.0,453,1.419,1,1,1.396,False,-0.259282258438454,1.0341618835108592
1.4359998339787126,14:01:30.021975,14:00:02.903326,0,,0.12421566,0.013097137,0.033848718,-0.58451974,-0.589402,-0.557622,-0.45646235,-0.3293092,0.8265577,-0.6708047,0.7376725,-0.07655209,,0.018401094,0.00738078,0.043990374,-0.60753524,-0.7298527,0.31339458,0.16347945,0.27121365,0.94853437,-0.77728736,0.6275016,-0.045455903,,0.057921827,1.3372954,0.4464947,0.99692595,0.07712128,-0.013818463,0.042900126,-0.68488955,-0.7273829,-0.065560825,0.72455406,-0.6860927,,-0.08271862,0.3017411,-0.03781706,0.6152087,0.53548986,0.5785922,-0.7849952,0.34831142,0.51231015,0.07280659,-0.7693697,0.6346412,,0.02923067,0.4883808,-0.27522218,0.70713997,0.65096736,-0.2760337,-0.5538075,0.7526237,0.35616687,0.43960252,-0.09899029,0.8927209,,1.207279384761769,0.4451306001374265,0.18599039291000002,-0.17026823410943376,0.06982125138014007,0.8121272463067108,-0.412933799187458,,-1.0055924930185218,0.26356142753153405,0.16994102642000003,1.3533388952491203,0.6195098899365069,0.6997559991939996,0.8598431641308459,,0.026284658535034606,0.02909900195387546,0.07078751784,-0.11578833687890082,,2.7149916e-05,2.3841858e-06,-1.4305115e-06,1.0000001,-1.4744699e-05,-1.5571713e-05,1.4744699e-05,1.0,-1.4007092e-06,1.5567988e-05,1.4305115e-06,1.0,467,1.464,1,1,1.441,False,-0.259580147031059,1.0340653231093004
1.4618529269937426,14:01:30.069517,14:00:02.903326,0,,0.12417324,0.013019964,0.033806548,-0.58255124,-0.58693326,-0.56226647,-0.45982364,-0.33243895,0.8234358,-0.67022115,0.7382368,-0.076223075,,0.018401094,0.00738078,0.043990374,-0.60753524,-0.72982705,0.3134542,0.16347945,0.27129114,0.9485123,-0.77728736,0.627498,-0.045507163,,0.057921827,1.3372954,0.4464947,0.99692595,0.07712128,-0.013818463,0.042900126,-0.68488955,-0.7273829,-0.065560825,0.72455406,-0.6860927,,-0.08267531,0.30165958,-0.037848927,0.6131375,0.5329255,0.5831405,-0.7868663,0.34656435,0.5106217,0.07002763,-0.7719349,0.6318327,,0.02923067,0.4883808,-0.27522218,0.70713997,0.65094477,-0.27608687,-0.5538075,0.75265276,0.3561054,0.43960252,-0.09891737,0.892729,,1.2071172073714105,0.4447753544252122,0.18595539308000003,-0.17278451343124807,0.0672251578845967,0.8160411187600353,-0.41260711105518943,,-1.0055924930185218,0.26356142753153405,0.16994102642000003,1.3533388952491203,0.6195098899365069,0.699674320453859,0.8600065081969803,,0.026284658535034606,0.02909900195387546,0.07078751784,-0.11578833687890082,,2.7149916e-05,2.3841858e-06,-1.4305115e-06,1.0000001,-1.4744699e-05,-1.5571713e-05,1.4744699e-05,1.0,-1.4007092e-06,1.5567988e-05,1.4305115e-06,1.0,476,1.493,1,1,1.47,False,-0.2591631030014119,1.0334859606999471
1.509395234985277,14:01:30.096976,14:00:03.105599,0,,0.12414172,0.013003156,0.03380592,-0.58158445,-0.5860921,-0.56414163,-0.46060652,-0.33436126,0.82221913,-0.67052317,0.738037,-0.07549858,,0.018398799,0.0073807947,0.04398966,-0.6075474,-0.7298191,0.31344923,0.16347563,0.2712887,0.9485136,-0.77727854,0.6275083,-0.045513093,,0.057921827,1.3372954,0.4464947,0.99692595,0.07712128,-0.013818463,0.042900126,-0.68488955,-0.7273829,-0.065560825,0.72455406,-0.6860927,,-0.08264417,0.30164894,-0.037862837,0.6121749,0.532058,0.58494115,-0.7876444,0.3451063,0.5104096,0.06970065,-0.77318555,0.63033795,,0.029233038,0.48838037,-0.27522203,0.70715076,0.6509355,-0.27608114,-0.5538002,0.75266004,0.35610127,0.4395942,-0.098923475,0.8927324,,1.207209880165901,0.4446208997677277,0.18594243018,-0.17404265309215522,0.06695188488506582,0.8178975293702393,-0.412933799187458,,-1.0055770475527734,0.26356142753153405,0.16994102642000003,1.3533388952491203,0.6195098899365069,0.6996743204538589,0.8596798200647116,,0.026284658535034606,0.02909900195387546,0.07078751784,-0.11578833687890082,,2.7149916e-05,2.3841858e-06,-1.4305115e-06,1.0000001,-1.4744699e-05,-1.5571713e-05,1.4744699e-05,1.0,-1.4007092e-06,1.5567988e-05,1.4305115e-06,1.0,490,1.538,1,1,1.515,False,-0.25975888018662197,1.0340653231093004
1.536844656104222,14:01:30.145615,14:00:03.105599,0,,0.12403874,0.012956649,0.033823296,-0.58281,-0.58274364,-0.5663414,-0.46102375,-0.33680335,0.8209876,-0.66917086,0.73957646,-0.0723663,,0.018397853,0.0073797368,0.043988645,-0.6075531,-0.7298146,0.31344873,0.16346921,0.27129367,0.9485133,-0.77727544,0.62751144,-0.045523047,,0.057921827,1.3372954,0.4464947,0.99692595,0.07712128,-0.013818463,0.042900126,-0.68488955,-0.7273829,-0.065560825,0.72455406,-0.6860927,,-0.08254348,0.30163413,-0.03791488,0.6133053,0.5285698,0.58691615,-0.78687686,0.34451547,0.5119901,0.068420805,-0.775837,0.6272125,,0.029234085,0.4883791,-0.2752226,0.7071558,0.6509307,-0.2760794,-0.5537998,0.7526646,0.35609233,0.4395866,-0.09892005,0.8927365,,1.2075882940767382,0.4441884267267711,0.18589446745000002,-0.17278451343124807,0.06613206588647318,0.8215881501776187,-0.4140772076503978,,-1.0055693248198991,0.26355370479865986,0.16994102642000003,1.3533388952491203,0.6195098899365069,0.6996743204538589,0.8593531319324431,,0.026284658535034606,0.02909900195387546,0.07078751784,-0.11578833687890082,,2.7149916e-05,2.3841858e-06,-1.4305115e-06,1.0000001,-1.4744699e-05,-1.5571713e-05,1.4744699e-05,1.0,-1.4007092e-06,1.5567988e-05,1.4305115e-06,1.0,513,1.611,1,1,1.588,False,-0.2585077480976805,1.0340653231093004
1.5854737940244377,14:01:30.216403,14:00:03.105599,0,,0.123744935,0.012827635,0.03379385,-0.58034444,-0.5788434,-0.5728357,-0.46407238,-0.34295833,0.8167107,-0.6692064,0.7398107,-0.069591284,,0.01840014,0.007379722,0.04398936,-0.607541,-0.7298226,0.3134537,0.16347302,0.27129614,0.94851196,-0.7772842,0.6275011,-0.045517176,,0.057921827,1.3372954,0.4464947,0.99692595,0.07712128,-0.013818463,0.042900126,-0.68488955,-0.7273829,-0.065560825,0.72455406,-0.6860927,,-0.08225119,0.3015356,-0.038008124,0.610783,0.52453375,0.5931344,-0.7890161,0.34045866,0.5114112,0.0663147,-0.7803539,0.621812,,0.029231716,0.4883795,-0.27522275,0.70714504,0.65094006,-0.2760851,-0.553807,0.75265735,0.35609645,0.43959492,-0.098913945,0.8927331,,1.2083914582956574,0.4426593256176747,0.18581150489,-0.17634924247048497,0.06517561038811509,0.8276771936126301,-0.4135871754519953,,-1.0055847702856475,0.26355370479865986,0.16994102642000003,1.3533388952491203,0.6195098899365069,0.6996743204538589,0.8593531319324431,,0.026284658535034606,0.02909900195387546,0.07078751784,-0.11578833687890082,,2.7149916e-05,2.3841858e-06,-1.4305115e-06,1.0000001,-1.4744699e-05,-1.5571713e-05,1.4744699e-05,1.0,-1.4007092e-06,1.5567988e-05,1.4305115e-06,1.0,527,1.656,1,1,1.633,False,-0.2593418361569748,1.0335825211015057
1.6562602880876511,14:01:30.266012,14:00:03.255271,0,,0.1233633,0.012729958,0.033758536,-0.58043706,-0.57593644,-0.575665,-0.46602035,-0.34478444,0.81483054,-0.66777074,0.74122936,-0.06827244,,0.018397853,0.0073797368,0.043988645,-0.6075531,-0.72978896,0.31350836,0.16346921,0.27137116,0.9484911,-0.77727544,0.62750775,-0.045574307,,0.057921827,1.3372954,0.4464947,0.99692595,0.07712128,-0.013818463,0.042900126,-0.68488955,-0.7273829,-0.065560825,0.72455406,-0.6860927,,-0.08187024,0.30145642,-0.038079154,0.6107454,0.52150655,0.59583634,-0.7892441,0.3402031,0.51122946,0.06390412,-0.7824914,0.6193735,,0.029234085,0.4883791,-0.2752226,0.7071558,0.6509082,-0.27613255,-0.5537998,0.7526937,0.35603085,0.4395866,-0.09884713,0.89274454,,1.2096502637541562,0.4408290379264835,0.18575706071,-0.17697831230093855,0.06435579138952245,0.8294892033967766,-0.41260711105518955,,-1.0055693248198991,0.26355370479865986,0.16994102642000003,1.3533388952491203,0.6195098899365069,0.6995926417137184,0.8595164759985774,,0.026284658535034606,0.02909900195387546,0.07078751784,-0.11578833687890082,,2.7149916e-05,2.3841858e-06,-1.4305115e-06,1.0000001,-1.4744699e-05,-1.5571713e-05,1.4744699e-05,1.0,-1.4007092e-06,1.5567988e-05,1.4305115e-06,1.0,536,1.685,1,1,1.662,False,-0.2589247921273281,1.034017042908521
1.705808657919988,14:01:30.292739,14:00:03.255271,0,,0.12307817,0.012698352,0.033755288,-0.5762084,-0.57374024,-0.5820706,-0.47014305,-0.34987763,0.8102784,-0.6685428,0.7405456,-0.06813756,,0.018398039,0.0073786937,0.04398799,-0.60755277,-0.7297884,0.31351033,0.16346471,0.27137735,0.94849014,-0.77727675,0.62750566,-0.04558134,,0.057921827,1.3372954,0.4464947,0.99692595,0.07712128,-0.013818463,0.042900126,-0.68488955,-0.7273829,-0.065560825,0.72455406,-0.6860927,,-0.08158619,0.3014421,-0.03811679,0.60648674,0.5192501,0.60212386,-0.7927047,0.33622605,0.5084991,0.061588485,-0.7857044,0.61552864,,0.029233947,0.48837802,-0.27522323,0.70715547,0.65090805,-0.27613366,-0.55380297,0.7526946,0.35602397,0.43958318,-0.09884065,0.892747,,1.2107777827537929,0.4396937961939725,0.18573372749000003,-0.18284963071850524,0.06257951689257173,0.8333063196089063,-0.41375051951812936,,-1.0055693248198991,0.2635459820657856,0.16994102642000003,1.3533388952491203,0.6195098899365069,0.6995926417137184,0.8595164759985774,,0.026284658535034606,0.02909900195387546,0.07078751784,-0.11578833687890082,,2.7149916e-05,2.3841858e-06,-1.4305115e-06,1.0000001,-1.4744699e-05,-1.5571713e-05,1.4744699e-05,1.0,-1.4007092e-06,1.5567988e-05,1.4305115e-06,1.0,550,1.73,1,1,1.707,False,-0.2596993024681016,1.0336790815030648
1.7326156459748745,14:01:30.338448,14:00:03.255271,0,,0.122660294,0.012669519,0.03377606,-0.57278854,-0.5694882,-0.5895734,-0.475307,-0.35524115,0.8049143,-0.6678298,0.7412738,-0.0672037,,0.01839938,0.0073776506,0.04398769,-0.6075463,-0.7297919,0.31351483,0.1634621,0.27138478,0.9484885,-0.7772823,0.62749845,-0.045585394,,0.057921827,1.3372954,0.4464947,0.99692595,0.07712128,-0.013818463,0.042900126,-0.68488955,-0.7273829,-0.065560825,0.72455406,-0.6860927,,-0.08117111,0.30145174,-0.03817591,0.60292107,0.51484907,0.6094396,-0.7957286,0.33305362,0.50585693,0.05746389,-0.78994036,0.6104852,,0.029232625,0.48837715,-0.2752239,0.70714974,0.65091264,-0.27613762,-0.55380976,0.7526919,0.35601914,0.43958393,-0.09883112,0.89274764,,1.2125849022463613,0.43818014055062443,0.18569743137000003,-0.18809187930561835,0.05930024089820115,0.8380223178011345,-0.4142405517165322,,-1.0055770475527734,0.2635382593329114,0.16994102642000003,1.3533388952491203,0.6195098899365069,0.6995926417137184,0.8595164759985774,,0.026284658535034606,0.02909900195387546,0.07078751784,-0.11578833687890082,,2.7149916e-05,2.3841858e-06,-1.4305115e-06,1.0000001,-1.4744699e-05,-1.5571713e-05,1.4744699e-05,1.0,-1.4007092e-06,1.5567988e-05,1.4305115e-06,1.0,559,1.759,1,1,1.736,False,-0.2596993024681016,1.0337756419046236
1.778325221966952,14:01:30.370808,14:00:03.255271,0,,0.12232666,0.01265569,0.033811435,-0.57414913,-0.56566477,-0.59192604,-0.47667193,-0.35686404,0.80338776,-0.66568524,0.7434188,-0.0647434,,0.018398993,0.0073797368,0.043989003,-0.60754704,-0.72979295,0.31351084,0.1634711,0.27137238,0.94849044,-0.77727985,0.62750256,-0.045571357,,0.057921827,1.3372954,0.4464947,0.99692595,0.07712128,-0.013818463,0.042900126,-0.68488955,-0.7273829,-0.065560825,0.72455406,-0.6860927,,-0.08084067,0.30147955,-0.038228743,0.6041171,0.51086664,0.61160266,-0.7949992,0.33344468,0.5067454,0.054943673,-0.7923572,0.6075782,,0.0292329,0.4883793,-0.27522266,0.7071504,0.6509128,-0.2761354,-0.55380344,0.7526901,0.3560329,0.43959078,-0.09884408,0.8927429,,1.2141217260883321,0.4369908396879939,0.18566502412000002,-0.18725311953168025,0.057797239400781304,0.8402280596234819,-0.41358717545199497,,-1.0055770475527734,0.26355370479865986,0.16994102642000003,1.3533388952491203,0.6195098899365069,0.6995926417137184,0.8595164759985774,,0.026284658535034606,0.02909900195387546,0.07078751784,-0.11578833687890082,,2.7149916e-05,2.3841858e-06,-1.4305115e-06,1.0000001,-1.4744699e-05,-1.5571713e-05,1.4744699e-05,1.0,-1.4007092e-06,1.5567988e-05,1.4305115e-06,1.0,573,1.804,1,1,1.781,False,-0.25922268071993226,1.0336308013022852
1.8106614199932665,14:01:30.416521,14:00:03.434438,0,,0.121829614,0.012624294,0.03382556,-0.5695783,-0.56061,-0.6010802,-0.4817806,-0.36478508,0.7967555,-0.665934,0.7434032,-0.0623174,,0.018398233,0.0073776357,0.043987334,-0.6075523,-0.7297879,0.31351233,0.16346018,0.27138355,0.9484892,-0.77727795,0.6275036,-0.045588374,,0.057921827,1.3372954,0.4464947,0.99692595,0.07712128,-0.013818463,0.042900126,-0.68488955,-0.7273829,-0.065560825,0.72455406,-0.6860927,,-0.080346234,0.3014851,-0.03828986,0.5994638,0.5056567,0.620447,-0.7987391,0.32798684,0.50442094,0.051565405,-0.79795736,0.60050404,,0.02923381,0.48837695,-0.27522385,0.7071551,0.650908,-0.27613476,-0.5538061,0.75269556,0.35601705,0.43957976,-0.098834164,0.89274937,,1.2162223094301212,0.43508332466806043,0.18563391316000002,-0.19396319772318504,0.05547441890476882,0.8470228883947548,-0.4135871754519951,,-1.0055693248198991,0.2635382593329114,0.16994102642000003,1.3533388952491203,0.6195098899365069,0.6995926417137184,0.8595164759985774,,0.026284658535034606,0.02909900195387546,0.07078751784,-0.11578833687890082,,2.7149916e-05,2.3841858e-06,-1.4305115e-06,1.0000001,-1.4744699e-05,-1.5571713e-05,1.4744699e-05,1.0,-1.4007092e-06,1.5567988e-05,1.4305115e-06,1.0,582,1.832,1,1,1.809,False,-0.2575545046013441,1.0337756419046236
1.8563906790222973,14:01:30.444203,14:00:03.434438,0,,0.1216375,0.012599513,0.033834577,-0.5669348,-0.5612956,-0.60293627,-0.48257762,-0.36688364,0.79530823,-0.66761047,0.74185145,-0.06286952,,0.018220238,0.0073861554,0.043941677,-0.60760784,-0.7297432,0.31350833,0.1635728,0.27129173,0.9484961,-0.77721083,0.62759525,-0.04547283,,0.057900816,1.3372939,0.44649196,0.9969241,0.0771505,-0.01378743,0.042942658,-0.6848863,-0.7273835,-0.065560825,0.72455406,-0.6860927,,-0.08014242,0.30148172,-0.03833022,0.59693503,0.506408,0.62226963,-0.8005861,0.32547107,0.5031207,0.052253574,-0.79851085,0.59970826,,0.029431416,0.4883625,-0.27521217,0.7072076,0.65083027,-0.27618352,-0.5536707,0.7527501,0.35611242,0.4396659,-0.098930694,0.89269626,,1.2169250781216756,0.4342878831820153,0.18562095026000003,-0.19752792676242192,0.056567510902892346,0.8471933687870107,-0.41244376698905494,,-1.0055770475527734,0.2635382593329114,0.16994102642000003,1.3533388952491203,0.6195098899365069,0.6997559991939996,0.8598431641308459,,0.026284658535034606,0.02909900195387546,0.07078751784,-0.11578833687890082,,6.3180923e-06,-1.1920929e-07,1.9073486e-06,1.0,1.4528632e-05,1.5340745e-05,-1.4528632e-05,1.0,1.4305115e-06,-1.534447e-05,-1.3709068e-06,1.0,596,1.878,1,1,1.855,False,-0.2585077480976805,1.0344032845147566
1.8840472761075944,14:01:30.486965,14:00:03.434438,0,,0.12111343,0.012552261,0.03381014,-0.5565083,-0.56267864,-0.6113029,-0.48259503,-0.38000247,0.7891135,-0.67631394,0.73415995,-0.06007138,,0.018241689,0.007385336,0.0439471,-0.60765004,-0.72965753,0.3136259,0.16367349,0.27136645,0.9484573,-0.7771566,0.6276624,-0.045470268,,0.057900816,1.3372939,0.44649196,0.9969241,0.0771505,-0.01378743,0.042942658,-0.6848863,-0.7273835,-0.065560825,0.72455406,-0.6860927,,-0.07961896,0.30144885,-0.038379036,0.58706975,0.5079887,0.63031465,-0.807411,0.3110395,0.5013401,0.05862234,-0.8032446,0.5927575,,0.029409425,0.4883648,-0.27521348,0.7072455,0.65073895,-0.27630156,-0.55357295,0.7528348,0.3560853,0.43972802,-0.09888668,0.8926705,,1.2188248704087348,0.43162354034040784,0.18560928365,-0.2109480831454315,0.064219154889757,0.853287455941236,-0.41391386358426363,,-1.0057237794773837,0.2635382593329114,0.16994102642000003,1.3535485851926046,0.6193732534367417,0.6997857383575552,0.8596798200647116,,0.026284658535034606,0.02909900195387546,0.07078751784,-0.11578833687890082,,6.3180923e-06,-1.1920929e-07,1.9073486e-06,1.0,1.4528632e-05,1.5340745e-05,-1.4528632e-05,1.0,1.4305115e-06,-1.534447e-05,-1.3709068e-06,1.0,605,1.906,1,1,1.883,False,-0.25963972474957986,1.0338722023061826
1.9268113181460649,14:01:30.508995,14:00:03.434438,0,,0.12083826,0.012560591,0.03388399,-0.5556342,-0.5628806,-0.611912,-0.48098746,-0.3827039,0.78878945,-0.6781753,0.73260033,-0.058095127,,0.0182572,0.007384427,0.043950558,-0.6076615,-0.7296945,0.3135178,0.16362037,0.27126974,0.94849414,-0.7771589,0.62766135,-0.04544723,,0.057900816,1.3372939,0.44649196,0.9969241,0.0771505,-0.01378743,0.042942658,-0.6848863,-0.7273835,-0.065560825,0.72455406,-0.6860927,,-0.07934878,0.30151823,-0.038437635,0.5863467,0.50823,0.6307931,-0.80775213,0.30808315,0.50261444,0.061106995,-0.80423075,0.5911674,,0.029393578,0.48836586,-0.27521452,0.70725554,0.65077275,-0.27619627,-0.55359775,0.7527939,0.35613328,0.4396807,-0.09897562,0.892684,,1.2202381305247179,0.43060413960101024,0.18557428382000002,-0.2126256026933077,0.06736179438436214,0.8536652788012785,-0.4122804229229208,,-1.0058318977376228,0.26353053660003717,0.16994102642000003,1.3535485851926046,0.6192366169369762,0.6998971562612517,0.8596798200647116,,0.026284658535034606,0.02909900195387546,0.07078751784,-0.11578833687890082,,6.3180923e-06,-1.1920929e-07,1.9073486e-06,1.0,1.4528632e-05,1.5340745e-05,-1.4528632e-05,1.0,1.4305115e-06,-1.534447e-05,-1.3709068e-06,1.0,619,1.951,1,1,1.928,False,-0.25779281547542787,1.0335825211015057
1.9488716940395534,14:01:30.556419,14:00:03.563911,0,,0.120395,0.012541786,0.03393817,-0.5479121,-0.56524247,-0.6166792,-0.47919816,-0.39216977,0.785221,-0.68568325,0.72574365,-0.05598855,,0.018310227,0.007378049,0.043963134,-0.6074467,-0.72977984,0.31373546,0.16382344,0.27137235,0.94842976,-0.7772841,0.62751776,-0.04528916,,0.057900816,1.3372939,0.44649196,0.9969241,0.0771505,-0.01378743,0.042942658,-0.6848863,-0.7273835,-0.065560825,0.72455406,-0.6860927,,-0.07891022,0.30156025,-0.038512915,0.579144,0.5108125,0.63534456,-0.812395,0.29674125,0.5019552,0.06787209,-0.80685514,0.5868375,,0.029339211,0.48836878,-0.2752213,0.7070648,0.65087897,-0.27643427,-0.5536388,0.75272155,0.35622233,0.43993565,-0.09882753,0.8925748,,1.222137922811777,0.4285653381222149,0.18553669141,-0.22269071998056483,0.07501343837122681,0.8564922163498813,-0.41309714325359226,,-1.006179420716963,0.26349192293566603,0.16994102642000003,1.3537582751360893,0.6192366169369762,0.6999788350013922,0.8595164759985773,,0.026284658535034606,0.02909900195387546,0.07078751784,-0.11578833687890082,,6.3180923e-06,-1.1920929e-07,1.9073486e-06,1.0,1.4528632e-05,1.5340745e-05,-1.4528632e-05,1.0,1.4305115e-06,-1.534447e-05,-1.3709068e-06,1.0,628,1.98,1,1,1.957,False,-0.25910352528289105,1.0344998449163156
1.9962838150095195,14:01:30.587647,14:00:03.563911,0,,0.1198729,0.0125361085,0.03408429,-0.5396461,-0.5647573,-0.6243647,-0.4751455,-0.40791237,0.77964365,-0.6949955,0.71739566,-0.0482136,,0.018332228,0.007376902,0.043969393,-0.6073306,-0.7298809,0.31372494,0.16385514,0.2713243,0.948438,-0.777368,0.62742096,-0.045188785,,0.057900816,1.3372939,0.44649196,0.9969241,0.0771505,-0.01378743,0.042942658,-0.6848863,-0.7273835,-0.065560825,0.72455406,-0.6860927,,-0.078398414,0.30168203,-0.03864406,0.571558,0.51051456,0.64241445,-0.8168886,0.28001088,0.50426877,0.07755354,-0.81299984,0.57707596,,0.02931656,0.48837158,-0.27522323,0.7069616,0.6509901,-0.2764365,-0.5537107,0.7526243,0.3563161,0.44001108,-0.09883594,0.89253664,,1.224678701927397,0.4263720819859352,0.18545632143000002,-0.23359459704176014,0.08553444885316572,0.8651472519349155,-0.41326048731972664,,-1.0063261526415732,0.26348420020279184,0.16994102642000003,1.3537582751360893,0.6192366169369762,0.7000605137415329,0.859353131932443,,0.026284658535034606,0.02909900195387546,0.07078751784,-0.11578833687890082,,6.3180923e-06,-1.1920929e-07,1.9073486e-06,1.0,1.4528632e-05,1.5340745e-05,-1.4528632e-05,1.0,1.4305115e-06,-1.534447e-05,-1.3709068e-06,1.0,642,2.025,1,1,2.002,False,-0.2574949268828224,1.0337756419046236
2.027524494100362,14:01:30.631158,14:00:03.563911,0,,0.11938594,0.012475923,0.03417805,-0.5299239,-0.56598616,-0.631538,-0.4771728,-0.4166248,0.7737763,-0.7010611,0.7113953,-0.049293637,,0.018343516,0.0073779,0.043973744,-0.6072702,-0.72994703,0.3136881,0.16387871,0.27125287,0.9484544,-0.77741027,0.6273749,-0.045100987,,0.057900816,1.3372939,0.44649196,0.9969241,0.0771505,-0.01378743,0.042942658,-0.6848863,-0.7273835,-0.065560825,0.72455406,-0.6860927,,-0.07791958,0.3017273,-0.038778976,0.5621899,0.5119292,0.6495159,-0.8230681,0.2697725,0.49978164,0.08063129,-0.81556803,0.573016,,0.029304847,0.4883747,-0.2752233,0.7069078,0.65105945,-0.27641082,-0.55374366,0.7525579,0.35640505,0.44005603,-0.098884776,0.8925091,,1.226810176200683,0.42437189417151105,0.18536298855000002,-0.24617599365083162,0.08908699784706718,0.8674778258078046,-0.412933799187458,,-1.0064033799703154,0.26349192293566603,0.16994102642000003,1.3537582751360893,0.6192366169369762,0.7001421924816735,0.8595164759985774,,0.026284658535034606,0.02909900195387546,0.07078751784,-0.11578833687890082,,6.3180923e-06,-1.1920929e-07,1.9073486e-06,1.0,1.4528632e-05,1.5340745e-05,-1.4528632e-05,1.0,1.4305115e-06,-1.534447e-05,-1.3709068e-06,1.0,656,2.07,1,1,2.047,False,-0.2584481703791588,1.0342584439124183
2.071035017957911,14:01:30.689235,14:00:03.702327,0,,0.11860394,0.012419462,0.034435004,-0.5206713,-0.56438255,-0.64060426,-0.471331,-0.4356116,0.76687,-0.7118626,0.70122385,-0.039200515,,0.01833988,0.0073789433,0.043973267,-0.6072887,-0.72993565,0.31367868,0.16387746,0.271243,0.9484574,-0.777396,0.6273925,-0.045102835,,0.057900816,1.3372939,0.44649196,0.9969241,0.0771505,-0.01378743,0.042942658,-0.6848863,-0.7273835,-0.065560825,0.72455406,-0.6860927,,-0.07715635,0.30190605,-0.039036464,0.5537492,0.5105599,0.65779203,-0.82750833,0.24948472,0.50297844,0.092691556,-0.8228523,0.56064457,,0.02930854,0.48837516,-0.27522248,0.7069244,0.65104556,-0.27640113,-0.55372965,0.7525679,0.35640576,0.440047,-0.09890042,0.89251184,,1.2306329289734241,0.4211824054944563,0.18518669311000002,-0.2587573902599031,0.10247737482408034,0.8774686287215392,-0.41358717545199497,,-1.0063802117716927,0.2634996456685403,0.16994102642000003,1.3537582751360893,0.6192366169369762,0.7001421924816735,0.8595164759985774,,0.026284658535034606,0.02909900195387546,0.07078751784,-0.11578833687890082,,6.3180923e-06,-1.1920929e-07,1.9073486e-06,1.0,1.4528632e-05,1.5340745e-05,-1.4528632e-05,1.0,1.4305115e-06,-1.534447e-05,-1.3709068e-06,1.0,665,2.099,1,1,2.076,False,-0.25719703829021734,1.0344032845147566
2.129096735967323,14:01:30.709364,14:00:03.702327,0,,0.11836659,0.012372613,0.034511596,-0.5173829,-0.5649795,-0.6427388,-0.47136348,-0.43872085,0.76507545,-0.7142348,0.69880056,-0.039324045,,0.0183395,0.007374771,0.043970287,-0.6072933,-0.7299294,0.31368417,0.16385758,0.27126658,0.94845414,-0.7773966,0.6273895,-0.04513389,,0.057900816,1.3372939,0.44649196,0.9969241,0.0771505,-0.01378743,0.042942658,-0.6848863,-0.7273835,-0.065560825,0.72455406,-0.6860927,,-0.07692525,0.30193943,-0.039135806,0.5506141,0.51124036,0.65989196,-0.8294014,0.24562617,0.50175804,0.09443222,-0.8235904,0.55926865,,0.029309174,0.48837066,-0.2752249,0.7069284,0.65104055,-0.27640268,-0.5537387,0.7525752,0.35637617,0.44002914,-0.09887755,0.89252317,,1.2317295570415638,0.4202325093509267,0.18511021200000002,-0.26316087907307806,0.10452692232056193,0.8777576499294664,-0.412933799187458,,-1.0063724890388186,0.2634687547370434,0.16994102642000003,1.3537582751360893,0.6192366169369762,0.7001421924816735,0.8595164759985774,,0.026284658535034606,0.02909900195387546,0.07078751784,-0.11578833687890082,,6.3180923e-06,-1.1920929e-07,1.9073486e-06,1.0,1.4528632e-05,1.5340745e-05,-1.4528632e-05,1.0,1.4305115e-06,-1.534447e-05,-1.3709068e-06,1.0,679,2.144,1,1,2.121,False,-0.25910352528289105,1.0336790815030648
2.149223539046943,14:01:30.752704,14:00:03.702327,0,,0.117885515,0.012299359,0.034619123,-0.5130069,-0.56372947,-0.6473276,-0.47340482,-0.44325992,0.76118886,-0.716039,0.69694316,-0.03947684,,0.018346965,0.007371597,0.043970466,-0.6072557,-0.7299518,0.3137051,0.16385552,0.2712925,0.94844705,-0.7774265,0.6273523,-0.045137286,,0.057900816,1.3372939,0.44649196,0.9969241,0.0771505,-0.01378743,0.042942658,-0.6848863,-0.7273835,-0.065560825,0.72455406,-0.6860927,,-0.0764534,0.30198607,-0.03928927,0.5463164,0.5100126,0.66439867,-0.8322466,0.24117562,0.49919927,0.09436117,-0.8256643,0.55621445,,0.029301653,0.48836866,-0.2752272,0.7068949,0.6510683,-0.27642316,-0.55376995,0.7525562,0.35636786,0.44004378,-0.098839775,0.8925201,,1.2339073677120953,0.41838677619398706,0.18500002735,-0.2694515773776138,0.10521010481938914,0.8789974926940767,-0.4142405517165323,,-1.006418825436064,0.2634455865384207,0.16994102642000003,1.3537582751360893,0.6192366169369762,0.7001421924816735,0.8595164759985774,,0.026284658535034606,0.02909900195387546,0.07078751784,-0.11578833687890082,,6.3180923e-06,-1.1920929e-07,1.9073486e-06,1.0,1.4528632e-05,1.5340745e-05,-1.4528632e-05,1.0,1.4305115e-06,-1.534447e-05,-1.3709068e-06,1.0,688,2.172,1,1,2.149,False,-0.25963972474957986,1.0336308013022852
2.1925608720630407,14:01:30.782494,14:00:03.702327,0,,0.11759018,0.012249172,0.034690917,-0.50572056,-0.5595154,-0.65665007,-0.47667128,-0.45319015,0.7532617,-0.7190488,0.6939461,-0.03751734,,0.01834888,0.007373683,0.04397255,-0.60724425,-0.72996086,0.31370604,0.16386831,0.27128255,0.9484477,-0.77743274,0.6273459,-0.04511732,,0.057900816,1.3372939,0.44649196,0.9969241,0.0771505,-0.01378743,0.042942658,-0.6848863,-0.7273835,-0.065560825,0.72455406,-0.6860927,,-0.07616421,0.3020155,-0.039391212,0.5391635,0.50578433,0.6734129,-0.83690006,0.23218529,0.4956695,0.09434531,-0.8308262,0.5484768,,0.029299557,0.48837122,-0.2752261,0.70688474,0.6510778,-0.27642667,-0.55377084,0.752547,0.35638577,0.44005892,-0.09884663,0.8925119,,1.2352279550335876,0.41729014812584714,0.18492484253000002,-0.2786779348909329,0.1050734683196237,0.8867867121709858,-0.4121170788567864,,-1.006426548168938,0.26346103200416915,0.16994102642000003,1.3537582751360893,0.6192366169369762,0.7001421924816735,0.8595164759985774,,0.026284658535034606,0.02909900195387546,0.07078751784,-0.11578833687890082,,6.3180923e-06,-1.1920929e-07,1.9073486e-06,1.0,1.4528632e-05,1.5340745e-05,-1.4528632e-05,1.0,1.4305115e-06,-1.534447e-05,-1.3709068e-06,1.0,702,2.218,1,1,2.195,False,-0.25826943722359585,1.034017042908521
2.2223668780643493,14:01:30.821326,14:00:03.702327,0,,0.11724939,0.012226909,0.034768164,-0.49360722,-0.5592428,-0.66603255,-0.4810568,-0.4624344,0.74480784,-0.7245248,0.688042,-0.040766567,,0.018345535,0.0073754713,0.04397106,-0.6072629,-0.7299494,0.31369656,0.16386709,0.2712727,0.94845074,-0.7774184,0.62736356,-0.045119137,,0.057900816,1.3372939,0.44649196,0.9969241,0.0771505,-0.01378743,0.042942658,-0.6848863,-0.7273835,-0.065560825,0.72455406,-0.6860927,,-0.07582941,0.30206913,-0.039478585,0.5273231,0.5056838,0.6827988,-0.84429085,0.2216155,0.48791346,0.09541113,-0.83376884,0.54380715,,0.029303117,0.48837104,-0.27522412,0.7069013,0.65106386,-0.276417,-0.55375683,0.75255704,0.35638645,0.4400499,-0.098862275,0.89251465,,1.2367956698070552,0.4160776790645939,0.18487039835000002,-0.2935659208783341,0.10548337781892003,0.8904547167267842,-0.4127704551213237,,-1.0064111027031897,0.2634687547370434,0.16994232271,1.3537582751360893,0.6192366169369762,0.7001421924816735,0.8595164759985774,,0.026284658535034606,0.02909900195387546,0.07078751784,-0.11578833687890082,,6.3180923e-06,-1.1920929e-07,1.9073486e-06,1.0,1.4528632e-05,1.5340745e-05,-1.4528632e-05,1.0,1.4305115e-06,-1.534447e-05,-1.3709068e-06,1.0,716,2.263,1,1,2.24,False,-0.25922268071993226,1.0340653231093004
2.2611913019791245,14:01:30.871680,14:00:03.874000,0,,0.11697192,0.012194857,0.03482434,-0.4887843,-0.55211806,-0.6754669,-0.48534432,-0.47128648,0.7364305,-0.72493505,0.6877897,-0.037609845,,0.0183464,0.0073730275,0.043968022,-0.6072618,-0.7299478,0.31370255,0.1638536,0.2712913,0.94844776,-0.77742213,0.6273575,-0.045140237,,0.057900816,1.3372939,0.44649196,0.9969241,0.0771505,-0.01378743,0.042942658,-0.6848863,-0.7273835,-0.065560825,0.72455406,-0.6860927,,-0.07555669,0.30209848,-0.039555613,0.5224458,0.49840367,0.6918411,-0.8476113,0.21529365,0.4849781,0.092765875,-0.8397871,0.53493184,,0.02930257,0.48836717,-0.27522486,0.7069003,0.6510636,-0.2764203,-0.5537663,0.75255984,0.3563658,0.4400396,-0.09884283,0.89252186,,1.2380930889299249,0.41517411931830966,0.18481725046000003,-0.2998566191828698,0.10275064782361121,0.8997891251929416,-0.41391386358426363,,-1.0064111027031897,0.2634455865384207,0.16994361900000002,1.3537582751360893,0.6192366169369762,0.7001421924816733,0.8598431641308458,,0.026284658535034606,0.02909900195387546,0.07078751784,-0.11578833687890082,,6.3180923e-06,-1.1920929e-07,1.9073486e-06,1.0,1.4528632e-05,1.5340745e-05,-1.4528632e-05,1.0,1.4305115e-06,-1.534447e-05,-1.3709068e-06,1.0,725,2.291,1,1,2.268,False,-0.2587460589717643,1.0337756419046236
2.311551910126582,14:01:30.902418,14:00:03.874000,0,,0.11685248,0.012175307,0.034828544,-0.48880887,-0.5522652,-0.67532885,-0.4851076,-0.4713251,0.7365618,-0.7250769,0.687645,-0.03752017,,0.018347546,0.0073730275,0.04396838,-0.6072557,-0.72997737,0.31364542,0.16385552,0.27121502,0.9484692,-0.7774265,0.6273559,-0.045086026,,0.057900816,1.3372939,0.44649196,0.9969241,0.0771505,-0.01378743,0.042942658,-0.6848863,-0.7273835,-0.065560825,0.72455406,-0.6860927,,-0.075438164,0.3020924,-0.03957978,0.52248406,0.4985587,0.6917005,-0.8475582,0.21516496,0.485128,0.09303507,-0.83972806,0.5349778,,0.029301384,0.48836738,-0.27522495,0.7068949,0.65109086,-0.27637,-0.55376995,0.75252706,0.35642934,0.44004378,-0.09891267,0.8925121,,1.2385487301695042,0.41461808255136545,0.18480428756000003,-0.30006630912635435,0.10343383032243841,0.899150356934319,-0.41375051951812947,,-1.006418825436064,0.2634455865384207,0.16994361900000002,1.3537582751360893,0.6192366169369762,0.700223871221814,0.8596798200647116,,0.026284658535034606,0.02909900195387546,0.07078751784,-0.11578833687890082,,6.3180923e-06,-1.1920929e-07,1.9073486e-06,1.0,1.4528632e-05,1.5340745e-05,-1.4528632e-05,1.0,1.4305115e-06,-1.534447e-05,-1.3709068e-06,1.0,739,2.336,1,1,2.313,False,-0.25815028178655464,1.0330031586921524
2.342293930007145,14:01:30.942101,14:00:03.874000,0,,0.11673592,0.012163684,0.03483659,-0.4858922,-0.5544367,-0.67565435,-0.48448604,-0.47255015,0.7361858,-0.72744906,0.68505204,-0.03900844,,0.018348128,0.007376142,0.043970704,-0.60725075,-0.73000866,0.3135823,0.16387092,0.2711202,0.9484936,-0.7774271,0.6273606,-0.045010746,,0.057900816,1.3372939,0.44649196,0.9969241,0.0771505,-0.01378743,0.042942658,-0.6848863,-0.7273835,-0.065560825,0.72455406,-0.6860927,,-0.075322606,0.3020944,-0.039600436,0.51973367,0.5008604,0.69210964,-0.84900296,0.21248764,0.48377994,0.09524148,-0.83903986,0.5356689,,0.029300611,0.4883708,-0.27522314,0.7068905,0.65111834,-0.27631634,-0.55376405,0.75249153,0.3565135,0.4400582,-0.09900197,0.89249504,,1.2389812032104608,0.4140311548529244,0.18479650982,-0.3036310381655913,0.1057566508184509,0.8975829675320419,-0.4127704551213236,,-1.006426548168938,0.2634687547370434,0.16994361900000002,1.3537582751360893,0.6192366169369762,0.7003055499619546,0.8591897878663088,,0.026284658535034606,0.02909900195387546,0.07078751784,-0.11578833687890082,,6.3180923e-06,-1.1920929e-07,1.9073486e-06,1.0,1.4528632e-05,1.5340745e-05,-1.4528632e-05,1.0,1.4305115e-06,-1.534447e-05,-1.3709068e-06,1.0,762,2.41,1,1,2.387,False,-0.25731619372725945,1.0335342409007262
2.38196456595324,14:01:31.013394,14:00:04.009080,0,,0.116551206,0.012133539,0.034847766,-0.48714748,-0.5513829,-0.6772475,-0.48433036,-0.4747305,0.7348844,-0.7267127,0.6860086,-0.03578767,,0.018348776,0.0073764995,0.04397285,-0.607245,-0.7300132,0.31358278,0.16387732,0.27111518,0.94849396,-0.7774302,0.6273575,-0.045000732,,0.057900816,1.3372939,0.44649196,0.9969241,0.0771505,-0.01378743,0.042942658,-0.6848863,-0.7273835,-0.065560825,0.72455406,-0.6860927,,-0.07513961,0.30208853,-0.039640848,0.52094394,0.497708,0.6934725,-0.8483107,0.21164696,0.4853602,0.09479631,-0.8411256,0.53246725,,0.029299699,0.48837274,-0.2752237,0.70688546,0.6511231,-0.27631807,-0.55376446,0.75248694,0.35652247,0.44006577,-0.09900539,0.8924909,,1.2397225855663863,0.41322026790113087,0.1847731766,-0.30258258844816865,0.10602992381798179,0.9005456025901311,-0.41260711105518943,,-1.0064342709018124,0.2634764774699176,0.16994232271,1.3537582751360893,0.6192366169369762,0.7003055499619546,0.8591897878663088,,0.026284658535034606,0.02909900195387546,0.07078751784,-0.11578833687890082,,6.3180923e-06,-1.1920929e-07,1.9073486e-06,1.0,1.4528632e-05,1.5340745e-05,-1.4528632e-05,1.0,1.4305115e-06,-1.534447e-05,-1.3709068e-06,1.0,776,2.455,1,1,2.432,False,-0.2580311263495121,1.0332928398968293
2.4532199951354414,14:01:31.063148,14:00:04.009080,0,,0.11647555,0.012127623,0.03489247,-0.48291683,-0.5520664,-0.6797162,-0.48346138,-0.4791053,0.7326139,-0.7301071,0.6824081,-0.03553474,,0.018347442,0.0073775426,0.043973148,-0.60725147,-0.73000973,0.3135783,0.1638799,0.2711078,0.9484956,-0.7774247,0.6273647,-0.04499662,,0.057900816,1.3372939,0.44649196,0.9969241,0.0771505,-0.01378743,0.042942658,-0.6848863,-0.7273835,-0.065560825,0.72455406,-0.6860927,,-0.07506701,0.3021203,-0.03967928,0.51695096,0.49852106,0.6958724,-0.85039353,0.20607081,0.4841133,0.09794169,-0.84202826,0.53046757,,0.029301021,0.4883736,-0.27522302,0.7068912,0.6511185,-0.2763141,-0.5537577,0.7524897,0.3565273,0.44006506,-0.09901493,0.8924902,,1.2401087222100975,0.4128959131204134,0.18474595451,-0.3076151470917972,0.10889929031305604,0.9022080848793936,-0.4134238313858608,,-1.006426548168938,0.26348420020279184,0.16994232271,1.3537582751360893,0.6192366169369762,0.7003055499619546,0.8591897878663088,,0.026284658535034606,0.02909900195387546,0.07078751784,-0.11578833687890082,,6.3180923e-06,-1.1920929e-07,1.9073486e-06,1.0,1.4528632e-05,1.5340745e-05,-1.4528632e-05,1.0,1.4305115e-06,-1.534447e-05,-1.3709068e-06,1.0,785,2.484,1,1,2.461,False,-0.25773323775690704,1.0330031586921524
2.503018643008545,14:01:31.089652,14:00:04.009080,0,,0.11644381,0.0121257305,0.03490892,-0.4833621,-0.5516695,-0.6797219,-0.48312914,-0.47939503,0.7326436,-0.7300324,0.6825256,-0.034806103,,0.018345445,0.0073805377,0.043972075,-0.6073554,-0.72996265,0.31348667,0.16381176,0.27105156,0.9485235,-0.7773578,0.62744373,-0.045048118,,0.057900816,1.3372939,0.44649196,0.9969241,0.0771505,-0.01378743,0.042942658,-0.6848863,-0.7273835,-0.065560825,0.72455406,-0.6860927,,-0.07503641,0.3021323,-0.039693445,0.51739764,0.49811164,0.6958336,-0.85010195,0.20595215,0.4846756,0.09811411,-0.8422995,0.5300048,,0.029303227,0.48837423,-0.27522004,0.7069835,0.65106,-0.27621582,-0.55371875,0.7525296,0.35650352,0.43996578,-0.09909624,0.89253014,,1.240294067799079,0.4127955175930485,0.18473558419000002,-0.3071957672048282,0.10917256331258691,0.9025570002529848,-0.41260711105518955,,-1.006418825436064,0.2634996456685403,0.16994361900000002,1.3537582751360893,0.6190999804372107,0.7003352891255104,0.8590264438001745,,0.026284658535034606,0.02909900195387546,0.07078751784,-0.11578833687890082,,6.3180923e-06,-1.1920929e-07,1.9073486e-06,1.0,1.4528632e-05,1.5340745e-05,-1.4528632e-05,1.0,1.4305115e-06,-1.534447e-05,-1.3709068e-06,1.0,799,2.529,1,1,2.506,False,-0.2585077480976805,1.032858318089814
2.529468497959897,14:01:31.139979,14:00:04.162225,0,,0.11638717,0.01211305,0.03493586,-0.48349875,-0.55121446,-0.6799938,-0.48316345,-0.4797155,0.73241115,-0.7299192,0.68266803,-0.034384817,,0.018349849,0.007381551,0.04397416,-0.60733145,-0.72995365,0.3135542,0.16382392,0.27112773,0.9484997,-0.777374,0.6274214,-0.045080513,,0.057900816,1.3372939,0.44649196,0.9969241,0.0771505,-0.01378743,0.042942658,-0.6848863,-0.7273835,-0.065560825,0.72455406,-0.6860927,,-0.07498182,0.30214572,-0.03972403,0.51752627,0.49764204,0.69607395,-0.8500362,0.20582978,0.48484287,0.09800543,-0.84260696,0.52953607,,0.029298624,0.4883761,-0.2752197,0.7069622,0.65105623,-0.27627933,-0.55373,0.7525433,0.3564572,0.4399858,-0.0990176,0.892529,,1.2405952543811738,0.4126101720040671,0.18471095468,-0.3071957672048282,0.10917256331258691,0.9028020364734065,-0.41309714325359226,,-1.0064497163675608,0.2635073684014145,0.16994361900000002,1.3537582751360893,0.6190999804372107,0.7002536103853698,0.8588630997340403,,0.026284658535034606,0.02909900195387546,0.07078751784,-0.11578833687890082,,6.3180923e-06,-1.1920929e-07,1.9073486e-06,1.0,1.4528632e-05,1.5340745e-05,-1.4528632e-05,1.0,1.4305115e-06,-1.534447e-05,-1.3709068e-06,1.0,813,2.574,1,1,2.551,False,-0.25880563669028556,1.0324720764835782
2.579835864948109,14:01:31.182376,14:00:04.162225,0,,0.11632932,0.012095451,0.034950674,-0.4843471,-0.5500684,-0.68031806,-0.4830255,-0.4802237,0.7321691,-0.72944796,0.6832349,-0.033102036,,0.018349849,0.007381551,0.04397416,-0.60733145,-0.72995365,0.3135542,0.16382392,0.27112773,0.9484997,-0.777374,0.6274214,-0.045080513,,0.057900816,1.3372939,0.44649196,0.9969241,0.0771505,-0.01378743,0.042942658,-0.6848863,-0.7273835,-0.065560825,0.72455406,-0.6860927,,-0.074925385,0.30214685,-0.039750278,0.5183465,0.49645263,0.6963129,-0.8495661,0.20587587,0.48564658,0.097746484,-0.84329706,0.52848434,,0.029298624,0.4883761,-0.2752197,0.7069622,0.65105623,-0.27627933,-0.55373,0.7525433,0.3564572,0.4399858,-0.0990176,0.892529,,1.2408501045660232,0.41236304455209194,0.18469021404000002,-0.30635700743089006,0.10917256331258691,0.9038638600952338,-0.414077207650398,,-1.0064497163675608,0.2635073684014145,0.16994361900000002,1.3537582751360893,0.6190999804372107,0.7002536103853698,0.8585364116017716,,0.026284658535034606,0.02909900195387546,0.07078751784,-0.11578833687890082,,6.3180923e-06,-1.1920929e-07,1.9073486e-06,1.0,1.4528632e-05,1.5340745e-05,-1.4528632e-05,1.0,1.4305115e-06,-1.534447e-05,-1.3709068e-06,1.0,822,2.603,1,1,2.58,False,-0.25910352528289105,1.0326169170859167
2.622251934139058,14:01:31.212823,14:00:04.162225,0,,0.116280265,0.012077197,0.03495118,-0.48370042,-0.5489775,-0.68165797,-0.4837131,-0.48140222,0.7309401,-0.7294214,0.6832829,-0.032693177,,0.018348895,0.007380508,0.043973148,-0.60733706,-0.7299491,0.3135537,0.16381748,0.27113268,0.9484993,-0.77737087,0.6274245,-0.045090497,,0.057900816,1.3372939,0.44649196,0.9969241,0.0771505,-0.01378743,0.042942658,-0.6848863,-0.7273835,-0.065560825,0.72455406,-0.6860927,,-0.07487685,0.30213663,-0.039767016,0.51768506,0.49533632,0.6975988,-0.85002583,0.2050904,0.48517418,0.097253576,-0.84414446,0.5272209,,0.029299673,0.48837483,-0.27522025,0.70696723,0.65105146,-0.27627757,-0.5537296,0.7525478,0.35644823,0.43997824,-0.09901417,0.8925331,,1.2410122819563818,0.41214680803161363,0.18467725114000003,-0.3071957672048282,0.1087626538132906,0.9050965799478692,-0.4140772076503979,,-1.0064419936346864,0.2634996456685403,0.16994361900000002,1.3537582751360893,0.6190999804372107,0.7002536103853698,0.8585364116017716,,0.026284658535034606,0.02909900195387546,0.07078751784,-0.11578833687890082,,6.3180923e-06,-1.1920929e-07,1.9073486e-06,1.0,1.4528632e-05,1.5340745e-05,-1.4528632e-05,1.0,1.4305115e-06,-1.534447e-05,-1.3709068e-06,1.0,836,2.648,1,1,2.625,False,-0.259282258438454,1.0323755160820194
2.652686106041074,14:01:31.253883,14:00:04.162225,0,,0.11619475,0.012047946,0.034952193,-0.47812808,-0.5513896,-0.6836396,-0.4842177,-0.48390633,0.72894984,-0.73275286,0.67956173,-0.0356234,,0.018348895,0.007380508,0.043973148,-0.60733706,-0.7299491,0.3135537,0.16381748,0.27113268,0.9484993,-0.77737087,0.6274245,-0.045090497,,0.057900816,1.3372939,0.44649196,0.9969241,0.0771505,-0.01378743,0.042942658,-0.6848863,-0.7273835,-0.065560825,0.72455406,-0.6860927,,-0.07479219,0.30212063,-0.03979434,0.5123205,0.49792114,0.69971585,-0.8530212,0.20072785,0.4817293,0.09941074,-0.8436723,0.5275743,,0.029299673,0.48837483,-0.27522025,0.70696723,0.65105146,-0.27627757,-0.5537296,0.7525478,0.35644823,0.43997824,-0.09901417,0.8925331,,1.24122851847686,0.41164483039478905,0.18465910308000003,-0.3136961554528484,0.11067556481000676,0.9041084804771033,-0.41456723984880084,,-1.0064419936346864,0.2634996456685403,0.16994361900000002,1.3537582751360893,0.6190999804372107,0.7002536103853698,0.8585364116017716,,0.026284658535034606,0.02909900195387546,0.07078751784,-0.11578833687890082,,6.3180923e-06,-1.1920929e-07,1.9073486e-06,1.0,1.4528632e-05,1.5340745e-05,-1.4528632e-05,1.0,1.4305115e-06,-1.534447e-05,-1.3709068e-06,1.0,850,2.693,1,1,2.67,False,-0.2587460589717643,1.0329065982905934
2.6937585389241576,14:01:31.295308,14:00:04.300185,0,,0.11607072,0.012014806,0.034953475,-0.47591862,-0.5521056,-0.6846027,-0.483532,-0.4859538,0.7280423,-0.7346415,0.6775162,-0.035686284,,0.018347748,0.007380508,0.04397279,-0.6073432,-0.729945,0.31355122,0.16381556,0.27113146,0.9485,-0.7773665,0.6274297,-0.045093447,,0.057900816,1.3372939,0.44649196,0.9969241,0.0771505,-0.01378743,0.042942658,-0.6848863,-0.7273835,-0.065560825,0.72455406,-0.6860927,,-0.074669205,0.30210346,-0.039826933,0.51024723,0.4987193,0.70066166,-0.8540406,0.1978626,0.48110807,0.101303145,-0.8438776,0.5268854,,0.029300857,0.48837462,-0.2752202,0.70697266,0.65104675,-0.2762747,-0.55372596,0.75255144,0.35644618,0.43997407,-0.099017225,0.8925348,,1.2416146551205713,0.41095750716898305,0.18463965873000002,-0.31642212471814724,0.11286174880625381,0.9042044050411935,-0.4134238313858609,,-1.0064342709018124,0.2634996456685403,0.16994361900000002,1.3537582751360893,0.6190999804372107,0.7002536103853698,0.8585364116017716,,0.026284658535034606,0.02909900195387546,0.07078751784,-0.11578833687890082,,6.3180923e-06,-1.1920929e-07,1.9073486e-06,1.0,1.4528632e-05,1.5340745e-05,-1.4528632e-05,1.0,1.4305115e-06,-1.534447e-05,-1.3709068e-06,1.0,859,2.721,1,1,2.698,False,-0.2587460589717643,1.0323272358812399
2.735167626058683,14:01:31.325905,14:00:04.300185,0,,0.11595419,0.011991173,0.034965336,-0.4711056,-0.5547847,-0.6857649,-0.48192865,-0.48926252,0.72688854,-0.7387857,0.672931,-0.036872357,,0.018347748,0.007380508,0.04397279,-0.6073432,-0.729945,0.31355122,0.16381556,0.27113146,0.9485,-0.7773665,0.6274297,-0.045093447,,0.057900816,1.3372939,0.44649196,0.9969241,0.0771505,-0.01378743,0.042942658,-0.6848863,-0.7273835,-0.065560825,0.72455406,-0.6860927,,-0.07455415,0.30210027,-0.039859045,0.50573504,0.5016072,0.7018706,-0.8562103,0.19232881,0.479493,0.105527185,-0.84344524,0.52674866,,0.029300857,0.48837462,-0.2752202,0.70697266,0.65104675,-0.2762747,-0.55372596,0.75255144,0.35644618,0.43997407,-0.099017225,0.8925348,,1.2419776235656599,0.41026246121030285,0.18462280696000002,-0.3220837531922294,0.11709748029898247,0.9034458484512431,-0.4132604873197264,,-1.0064342709018124,0.2634996456685403,0.16994361900000002,1.3537582751360893,0.6190999804372107,0.7002536103853698,0.8585364116017716,,0.026284658535034606,0.02909900195387546,0.07078751784,-0.11578833687890082,,6.3180923e-06,-1.1920929e-07,1.9073486e-06,1.0,1.4528632e-05,1.5340745e-05,-1.4528632e-05,1.0,1.4305115e-06,-1.534447e-05,-1.3709068e-06,1.0,873,2.766,1,1,2.743,False,-0.2599376133421849,1.0322789556804604
2.765771270962432,14:01:31.383238,14:00:04.300185,0,,0.115691826,0.011912838,0.03500119,-0.45789742,-0.5615116,-0.68922764,-0.47693312,-0.4991103,0.7234802,-0.7502431,0.6599952,-0.039262146,,0.018348895,0.007380508,0.043973148,-0.60733706,-0.7299491,0.3135537,0.16381748,0.27113268,0.9484993,-0.77737087,0.6274245,-0.045090497,,0.057900816,1.3372939,0.44649196,0.9969241,0.0771505,-0.01378743,0.042942658,-0.6848863,-0.7273835,-0.065560825,0.72455406,-0.6860927,,-0.07429623,0.30208313,-0.039956167,0.49337018,0.508914,0.7054023,-0.8618304,0.17634785,0.47555205,0.11761891,-0.8425604,0.5256023,,0.029299673,0.48837483,-0.27522025,0.70696723,0.65105146,-0.27627757,-0.5537296,0.7525478,0.35644823,0.43997824,-0.09901417,0.8925331,,1.2426881149900886,0.408548014512225,0.18456317762000002,-0.3373911190665997,0.12912149227834124,0.9024623768611386,-0.41391386358426363,,-1.0064419936346864,0.2634996456685403,0.16994361900000002,1.3537582751360893,0.6190999804372107,0.7002536103853698,0.8582097234695032,,0.026284658535034606,0.02909900195387546,0.07078751784,-0.11578833687890082,,6.3180923e-06,-1.1920929e-07,1.9073486e-06,1.0,1.4528632e-05,1.5340745e-05,-1.4528632e-05,1.0,1.4305115e-06,-1.534447e-05,-1.3709068e-06,1.0,882,2.795,1,1,2.772,False,-0.2588652144088064,1.0319892744757837
2.823113387916237,14:01:31.410040,14:00:04.300185,0,,0.11556159,0.011855766,0.03503111,-0.4531801,-0.565372,-0.6891897,-0.4728208,-0.5029652,0.7235098,-0.75569063,0.6537434,-0.039385796,,0.018346407,0.007381566,0.04397309,-0.60734963,-0.72994167,0.31354678,0.16381818,0.27112406,0.94850165,-0.7773609,0.62743694,-0.045089364,,0.057900816,1.3372939,0.44649196,0.9969241,0.0771505,-0.01378743,0.042942658,-0.6848863,-0.7273835,-0.065560825,0.72455406,-0.6860927,,-0.07416932,0.30207154,-0.040026,0.489087,0.51307243,0.7053727,-0.86329347,0.1692472,0.47547847,0.124572545,-0.84149396,0.5257087,,0.02930218,0.4883755,-0.2752195,0.70697844,0.6510422,-0.27627078,-0.55371916,0.7525542,0.356451,0.43997335,-0.09902676,0.89253414,,1.2430201925036801,0.40762128656731805,0.18451391860000002,-0.34284305759719735,0.13636322676590956,0.9010495586729592,-0.41309714325359226,,-1.006426548168938,0.2635073684014145,0.16994361900000002,1.3537582751360893,0.6190999804372107,0.7002536103853698,0.8582097234695032,,0.026284658535034606,0.02909900195387546,0.07078751784,-0.11578833687890082,,6.3180923e-06,-1.1920929e-07,1.9073486e-06,1.0,1.4528632e-05,1.5340745e-05,-1.4528632e-05,1.0,1.4305115e-06,-1.534447e-05,-1.3709068e-06,1.0,896,2.84,1,1,2.817,False,-0.2594014138754961,1.0320858348773425
2.849916780134663,14:01:31.445958,14:00:04.469695,0,,0.11538189,0.011756942,0.0350264,-0.44910914,-0.5644005,-0.6926422,-0.4722307,-0.5081526,0.72026324,-0.7584848,0.6505636,-0.038311243,,0.018346593,0.0073805377,0.043972433,-0.60734934,-0.72994107,0.31354874,0.16381367,0.2711302,0.94850063,-0.7773621,0.62743485,-0.045096427,,0.057900816,1.3372939,0.44649196,0.9969241,0.0771505,-0.01378743,0.042942658,-0.6848863,-0.7273835,-0.065560825,0.72455406,-0.6860927,,-0.07399179,0.30200788,-0.040106703,0.4852103,0.5121909,0.70868295,-0.8651104,0.16338894,0.47422358,0.12710203,-0.84318715,0.52237964,,0.029302042,0.48837444,-0.27522013,0.7069781,0.6510421,-0.27627188,-0.5537223,0.7525551,0.35644412,0.43996993,-0.09902028,0.8925365,,1.2434063291473914,0.40648604483480705,0.18445169668000003,-0.3476659262973414,0.13936922976074928,0.9039891616409149,-0.4132604873197264,,-1.006426548168938,0.2634996456685403,0.16994361900000002,1.3537582751360893,0.6190999804372107,0.7002536103853698,0.8582097234695032,,0.026284658535034606,0.02909900195387546,0.07078751784,-0.11578833687890082,,6.3180923e-06,-1.1920929e-07,1.9073486e-06,1.0,1.4528632e-05,1.5340745e-05,-1.4528632e-05,1.0,1.4305115e-06,-1.534447e-05,-1.3709068e-06,1.0,910,2.885,1,1,2.862,False,-0.26005676877922745,1.0326169170859167
2.8858262579888105,14:01:31.494790,14:00:04.469695,0,,0.11507739,0.01159887,0.035007328,-0.43957317,-0.566814,-0.6967764,-0.47205102,-0.5141894,0.7160845,-0.7641618,0.64368546,-0.04154131,,0.018347554,0.007381566,0.043973446,-0.60734355,-0.7299456,0.31354925,0.16382006,0.27112526,0.94850093,-0.7773653,0.62743175,-0.045086443,,0.057900816,1.3372939,0.44649196,0.9969241,0.0771505,-0.01378743,0.042942658,-0.6848863,-0.7273835,-0.065560825,0.72455406,-0.6860927,,-0.07369009,0.30189803,-0.04022911,0.47605032,0.5148985,0.7129205,-0.86952263,0.1543202,0.4691649,0.13155428,-0.8432466,0.52118003,,0.029300995,0.4883757,-0.27521956,0.706973,0.6510469,-0.2762736,-0.5537228,0.75255054,0.35645306,0.4399775,-0.09902371,0.8925324,,1.2440241477773293,0.4045708070819994,0.18436095638000002,-0.3587794933020212,0.14428814375230511,0.9036536604141692,-0.4142405517165322,,-1.0064342709018124,0.2635073684014145,0.16994361900000002,1.3537582751360893,0.6190999804372107,0.7002536103853698,0.8578830353372349,,0.026284658535034606,0.02909900195387546,0.07078751784,-0.11578833687890082,,6.3180923e-06,-1.1920929e-07,1.9073486e-06,1.0,1.4528632e-05,1.5340745e-05,-1.4528632e-05,1.0,1.4305115e-06,-1.534447e-05,-1.3709068e-06,1.0,919,2.914,1,1,2.891,False,-0.25820985950507547,1.0324720764835782
2.9346068289596587,14:01:31.522199,14:00:04.469695,0,,0.11490601,0.011507049,0.035004824,-0.43060288,-0.570249,-0.6995693,-0.47297844,-0.5175742,0.7130275,-0.76868224,0.63791287,-0.0468466,,0.018346407,0.007381566,0.04397309,-0.60734963,-0.72994167,0.31354678,0.16381818,0.27112406,0.94850165,-0.7773609,0.62743694,-0.045089364,,0.057900816,1.3372939,0.44649196,0.9969241,0.0771505,-0.01378743,0.042942658,-0.6848863,-0.7273835,-0.065560825,0.72455406,-0.6860927,,-0.07352086,0.30184042,-0.040305596,0.46735987,0.5186126,0.7159718,-0.8737943,0.14787617,0.46326676,0.13438082,-0.8421244,0.52227217,,0.02930218,0.4883755,-0.2752195,0.70697844,0.6510422,-0.27627078,-0.55371916,0.7525542,0.356451,0.43997335,-0.09902676,0.89253414,,1.2443639480237954,0.4035282381439791,0.18430262333000003,-0.36905430053276284,0.1468842372478485,0.9012916840235154,-0.41375051951812925,,-1.006426548168938,0.2635073684014145,0.16994361900000002,1.3537582751360893,0.6190999804372107,0.7002536103853698,0.8578830353372349,,0.026284658535034606,0.02909900195387546,0.07078751784,-0.11578833687890082,,6.3180923e-06,-1.1920929e-07,1.9073486e-06,1.0,1.4528632e-05,1.5340745e-05,-1.4528632e-05,1.0,1.4305115e-06,-1.534447e-05,-1.3709068e-06,1.0,933,2.959,1,1,2.936,False,-0.25815028178655464,1.0327134774874756
