AlexandreBanks6/ExpertPlaybackApp/resources/Motions/P_05/PC1/Data_PC1_5.csv
Task Time,PC1 Time,PC2 Time,Gaze Calib,s_T_psm1,Tx,Ty,Tz,R00,R01,R02,R10,R11,R12,R20,R21,R22,s_T_psm3,Tx,Ty,Tz,R00,R01,R02,R10,R11,R12,R20,R21,R22,cart_T_ecm,Tx,Ty,Tz,R00,R01,R02,R10,R11,R12,R20,R21,R22,ecm_T_psm1,Tx,Ty,Tz,R00,R01,R02,R10,R11,R12,R20,R21,R22,ecm_T_psm3,Tx,Ty,Tz,R00,R01,R02,R10,R11,R12,R20,R21,R22,psm1_joints,q1,q2,q3,q4,q5,q6,jaw,psm3_joints,q1,q2,q3,q4,q5,q6,jaw,ecm_joints,q1,q2,q3,q4,ecmi_T_ecm,Tx,Ty,Tz,R00,R01,R02,R10,R11,R12,R20,R21,R22,Sample #,Task Duration (s),Collisions (binary),Collisions (increments),Cumulative Collision Time (s),Clutch Press,MTMR Angle,MTML Angle
""
lci_T_si,,,,,-0.05588401,0.033678196,0.22142315,0.99411887,-0.024834005,0.10540873,0.053824607,-0.7313092,-0.67991894,0.09397148,0.68159384,-0.7256715
rci_T_si,,,,,-0.06556821,0.037878036,0.23215216,0.98745227,-0.051865816,0.14915736,0.06880197,-0.7088702,-0.70197535,0.14214173,0.7034295,-0.69640696
ecm_T_lc,,,,,-4.4061628e-05,-0.00034663224,-0.01840835,-0.99912,0.030754527,0.028518902,-0.031987965,-0.99852574,-0.043852776,0.027128186,-0.04472645,0.9986309
ecm_T_rc,,,,,-0.0043358393,0.01870579,-0.007592615,-0.99555075,-0.052743673,-0.078081585,0.04863213,-0.9973746,0.053654674,-0.08070653,0.04961868,0.9955021
cart_T_ecmi,,,,,0.1049169,1.339891,0.44090196,0.9940074,0.014203176,-0.108386196,-0.061408322,-0.7477289,-0.66115844,-0.090434045,0.6638522,-0.74237585
ecmac_T_ecmrep_psm1,,,,,0.008075713,-0.26004106,-0.30289736,0.99667877,0.061445758,0.053440064,-0.058828812,0.9970531,-0.049237434,-0.056308012,0.04593009,0.9973564
ecmac_T_ecmrep_psm3,,,,,-0.012692571,-0.457308,-0.5458498,0.99509805,-0.029463936,0.094401784,0.014504567,0.9877462,0.15539348,-0.09782351,-0.1532625,0.9833317
""
0,11:18:09.959568,NaN,0,,0.12709805,0.013190575,0.02530931,-0.8927363,-0.06788257,-0.44543666,-0.3692884,-0.45618597,0.809642,-0.25816256,0.88729155,0.38218555,,0.04866198,-0.008215256,0.015901506,-0.70418334,-0.2699561,0.65669584,0.7050438,-0.15657163,0.6916635,-0.08389884,0.9500574,0.3005861,,0.10500059,1.3398885,0.4408991,0.99400204,0.01413826,-0.108443595,-0.06149462,-0.74773014,-0.661149,-0.090434045,0.6638522,-0.74237585,,-0.10389959,0.26165026,-0.087014474,0.89701253,-0.0039050328,0.4419878,-0.42453754,0.2707223,0.8639892,-0.12302986,-0.9626496,0.24118347,,-0.022560237,0.40799963,-0.34505495,0.66720974,0.18402544,-0.7217796,0.42066672,0.7065853,0.5690139,0.6147119,-0.6832802,0.3940272,,1.1885131438774037,0.5762934952732556,0.20313123558,0.6093589757660277,-0.13595331726661325,1.3767996076165134,-0.3925157909206731,,-0.865185486632246,-0.19977937672331383,0.19800051976000002,-3.714028278997896,-0.11381820430461188,1.3924832268957452,0.8745441300829311,,-0.06807438581247384,-0.050730176370780186,0.08427136484,-0.06737965366399314,,8.3610415e-05,1.1920929e-06,-5.364418e-06,0.99999994,-6.445497e-05,-5.763769e-05,6.444752e-05,1.0,-7.897615e-06,5.763769e-05,7.838011e-06,0.99999994,35,0.105,1,1,0.013,False,-0.2547543518308557,1.0482597021384612
0.1253228759742342,11:18:09.995070,11:18:01.531463,0,,0.12806047,0.01438912,0.026896864,-0.8905094,-0.080802694,-0.447732,-0.3636071,-0.46511358,0.8071301,-0.2734646,0.88155556,0.38480765,,0.04865054,-0.008219413,0.015895128,-0.7040179,-0.2699101,0.6568921,0.70520866,-0.15641809,0.6915301,-0.08390117,0.9500958,0.30046412,,0.10500059,1.3398885,0.4408991,0.99400204,0.01413826,-0.108443595,-0.06149462,-0.74773014,-0.661149,-0.090434045,0.6638522,-0.74237585,,-0.104930475,0.2635848,-0.087293684,0.8959644,0.009107525,0.44403255,-0.43083382,0.2605926,0.8639871,-0.10784281,-0.9654059,0.23740551,,-0.022548005,0.40799338,-0.34505475,0.6670361,0.1839671,-0.72195494,0.42074165,0.7067,0.5688159,0.614849,-0.68317723,0.39399183,,1.188976507849857,0.5871902713587863,0.20280197792000001,0.6045361070658837,-0.12912149227834124,1.3745775407774554,-0.3933325112513446,,-0.8651159820363781,-0.19978709945618806,0.19800051976000002,-3.7138185890544113,-0.11368156780484645,1.392371808992049,0.8745441300829311,,-0.06806129584308387,-0.05073672135547516,0.08427136484,-0.06737965366399314,,8.3610415e-05,1.1920929e-06,-5.364418e-06,0.99999994,-6.445497e-05,-5.763769e-05,6.444752e-05,1.0,-7.897615e-06,5.763769e-05,7.838011e-06,0.99999994,51,0.154,1,1,0.062,False,-0.2536223751789555,1.048549383343138
0.1608040879946202,11:18:10.030050,11:18:01.531463,0,,0.12706155,0.013434686,0.02639404,-0.88792187,-0.084674105,-0.45213407,-0.36669528,-0.46313936,0.80686826,-0.27772188,0.8822315,0.38018188,,0.04861826,-0.008187201,0.015895247,-0.7037273,-0.26992932,0.65719557,0.7055171,-0.1564686,0.6912041,-0.08374581,0.950082,0.30055106,,0.10501254,1.3398861,0.44090608,0.9940017,0.014133417,-0.10844788,-0.061501056,-0.74773026,-0.66114837,-0.090434045,0.6638522,-0.74237585,,-0.10393846,0.26256144,-0.08763789,0.8935748,0.012977345,0.44872677,-0.4360589,0.26259217,0.8607543,-0.10666183,-0.96481967,0.24030462,,-0.022528704,0.40800905,-0.3450242,0.6667191,0.18399093,-0.72224164,0.42101,0.70666057,0.5686664,0.6150091,-0.6832117,0.39368206,,1.1912933277121245,0.5798305069296504,0.20242864640000002,0.5971969590439253,-0.12051339279311848,1.3743375482762477,-0.3921891027884046,,-0.8651700411664976,-0.1997716539904396,0.19800181605000003,-3.713399209167442,-0.11368156780484645,1.392371808992049,0.8745441300829311,,-0.06804820587369392,-0.050723631386085204,0.08427136484,-0.06737965366399314,,9.499863e-05,7.867813e-06,-1.0251999e-05,1.0,-6.92606e-05,-6.1929226e-05,6.925315e-05,1.0,-8.434057e-06,6.1929226e-05,8.434057e-06,1.0,63,0.191,1,1,0.099,False,-0.2544564632382502,1.0483079823392407
0.19580018694978207,11:18:10.070885,11:18:01.622496,0,,0.1262297,0.011399753,0.025187,-0.8862076,-0.08908598,-0.45464262,-0.36883065,-0.45818746,0.80872005,-0.28035715,0.88438,0.3731915,,0.04867112,-0.008227181,0.015914023,-0.7037275,-0.27003804,0.6571507,0.7055153,-0.15656441,0.6911843,-0.083759665,0.9500353,0.3006947,,0.10501254,1.3398861,0.44090608,0.9940017,0.014133417,-0.10844788,-0.061501056,-0.74773026,-0.66114837,-0.090434045,0.6638522,-0.74237585,,-0.103086725,0.26026958,-0.08819629,0.8919786,0.017376285,0.45174354,-0.43945724,0.2677888,0.85741854,-0.10607312,-0.9633209,0.24649802,,-0.022580761,0.40799505,-0.3450671,0.6667207,0.18410905,-0.72221005,0.4209978,0.7065797,0.5687759,0.61501575,-0.6832635,0.39358178,,1.18914640797309,0.5670493840228088,0.20195550055000003,0.5936322300046885,-0.110129018810945,1.3765697025537333,-0.3969260807062984,,-0.8653476640226048,-0.19981026765481075,0.19800181605000003,-3.713399209167442,-0.11368156780484645,1.392371808992049,0.8745441300829311,,-0.0681463806441186,-0.05076944627895005,0.08427136484,-0.06737965366399314,,9.499863e-05,7.867813e-06,-1.0251999e-05,1.0,-6.92606e-05,-6.1929226e-05,6.925315e-05,1.0,-8.434057e-06,6.1929226e-05,8.434057e-06,1.0,71,0.215,1,1,0.123,False,-0.2543373078012081,1.0486942239454764
0.2366353189572692,11:18:10.099741,11:18:01.622496,0,,0.12570679,0.01095026,0.025018841,-0.8850928,-0.09157103,-0.45631737,-0.3687056,-0.46036384,0.80754024,-0.28401926,0.88299495,0.3737019,,0.048672937,-0.008229103,0.015915096,-0.7037469,-0.27000967,0.65714157,0.7054983,-0.15657178,0.6912,-0.08374083,0.9500422,0.30067825,,0.10501254,1.3398861,0.44090608,0.9940017,0.014133417,-0.10844788,-0.061501056,-0.74773026,-0.66114837,-0.090434045,0.6638522,-0.74237585,,-0.1025668,0.25983852,-0.08841452,0.8911124,0.0198847,0.45334676,-0.4418829,0.26531228,0.8569416,-0.10323844,-0.9639575,0.24520978,,-0.02258256,0.4079946,-0.34506926,0.6667391,0.1840806,-0.72220033,0.42100528,0.7065777,0.5687728,0.6149907,-0.6832732,0.39360407,,1.190760459143803,0.5635355405650367,0.20174290899000002,0.590277190908936,-0.10343383032243841,1.3787880268458212,-0.3926791349868075,,-0.8653322185568563,-0.19980254492193653,0.19800181605000003,-3.713399209167442,-0.11368156780484645,1.392371808992049,0.8745441300829311,,-0.06815292562881357,-0.05076944627895005,0.08427493672,-0.06737965366399314,,9.499863e-05,7.867813e-06,-1.0251999e-05,1.0,-6.92606e-05,-6.1929226e-05,6.925315e-05,1.0,-8.434057e-06,6.1929226e-05,8.434057e-06,1.0,79,0.241,1,1,0.149,False,-0.254218152364166,1.0486942239454764
0.26548844896024093,11:18:10.125076,11:18:01.622496,0,,0.12549213,0.010666244,0.02501382,-0.8832029,-0.09678742,-0.45889544,-0.36921525,-0.45986223,0.8075931,-0.2891935,0.88269985,0.37041622,,0.048665714,-0.008219074,0.015910447,-0.7037442,-0.27001783,0.6571411,0.70550364,-0.15660995,0.69118583,-0.083717704,0.95003355,0.30071193,,0.10501254,1.3398861,0.44090608,0.9940017,0.014133417,-0.10844788,-0.061501056,-0.74773026,-0.66114837,-0.090434045,0.6638522,-0.74237585,,-0.10236042,0.25963217,-0.088618495,0.889555,0.025121313,0.45613688,-0.44582072,0.26560554,0.8548085,-0.09967856,-0.9637544,0.24747033,,-0.0225755,0.40799746,-0.34505844,0.66673386,0.18409176,-0.7222023,0.42102677,0.7065496,0.5687918,0.61498165,-0.68329924,0.393573,,1.1913628323079923,0.56185970753133,0.20153809517000001,0.5858737020957611,-0.0979683703318208,1.3770267091226032,-0.39447591971428464,,-0.8653322185568563,-0.1997639312575654,0.19800311234,-3.713399209167442,-0.11368156780484645,1.392371808992049,0.8745441300829311,,-0.06813329067472865,-0.050775991263645036,0.08426779296,-0.06737965366399314,,9.499863e-05,7.867813e-06,-1.0251999e-05,1.0,-6.92606e-05,-6.1929226e-05,6.925315e-05,1.0,-8.434057e-06,6.1929226e-05,8.434057e-06,1.0,96,0.293,1,1,0.201,False,-0.2536819528974772,1.0488873447485942
0.29081897897413,11:18:10.170827,11:18:01.622496,0,,0.12601373,0.011329375,0.025987998,-0.87882006,-0.10565282,-0.4653095,-0.37008336,-0.46462214,0.80446535,-0.30118707,0.87918353,0.3692189,,0.048621725,-0.008228298,0.015888572,-0.70381284,-0.26972076,0.6571896,0.70544744,-0.15647864,0.6912729,-0.08361453,0.9501395,0.30040553,,0.10501254,1.3398861,0.44090608,0.9940017,0.014133417,-0.10844788,-0.061501056,-0.74773026,-0.66114837,-0.090434045,0.6638522,-0.74237585,,-0.10292627,0.26076794,-0.088843666,0.8859519,0.03406112,0.46252468,-0.45471886,0.2599412,0.8518576,-0.09121399,-0.9650235,0.24578361,,-0.022529125,0.40797946,-0.34505367,0.66679513,0.18377867,-0.7222255,0.42108524,0.70667756,0.5685895,0.61487514,-0.6832512,0.39382267,,1.1918570872119427,0.5681923484881941,0.20126587427000003,0.5768570345259265,-0.09400591183862303,1.3751024497576558,-0.3939858875158817,,-0.8650619229062585,-0.1997716539904396,0.19800181605000003,-3.713399209167442,-0.11368156780484645,1.3922901302519084,0.8743807860167969,,-0.06813329067472865,-0.05076944627895005,0.08427136484,-0.06737965366399314,,9.499863e-05,7.867813e-06,-1.0251999e-05,1.0,-6.92606e-05,-6.1929226e-05,6.925315e-05,1.0,-8.434057e-06,6.1929226e-05,8.434057e-06,1.0,104,0.319,1,1,0.227,False,-0.25439688551972894,1.048983905150153
0.33657950500492007,11:18:10.205343,11:18:01.751770,0,,0.12651058,0.012011267,0.02681993,-0.87634265,-0.11297513,-0.4682524,-0.368186,-0.46969223,0.8023891,-0.31058452,0.8755718,0.37001544,,0.048646085,-0.00822654,0.015904129,-0.7037597,-0.2699369,0.6571578,0.705492,-0.15657747,0.6912051,-0.08368564,0.9500619,0.30063128,,0.10501254,1.3398861,0.44090608,0.9940017,0.014133417,-0.10844788,-0.061501056,-0.74773026,-0.66114837,-0.090434045,0.6638522,-0.74237585,,-0.10345748,0.26182133,-0.08895392,0.8841561,0.04145935,0.46534836,-0.45977882,0.25394708,0.85094905,-0.082894064,-0.96632916,0.243591,,-0.02255495,0.40799025,-0.34506106,0.66674674,0.18400669,-0.7222121,0.42104766,0.7065821,0.56873596,0.61495334,-0.6832886,0.39363575,,1.1923050057186477,0.5740925164041016,0.20112328237000002,0.5720341658257825,-0.0901800898451907,1.37402471695767,-0.3939858875158815,,-0.8652318230294914,-0.1997716539904396,0.19800181605000003,-3.713399209167442,-0.11368156780484645,1.392371808992049,0.8742174419506626,,-0.06807438581247384,-0.050775991263645036,0.08427136484,-0.06737965366399314,,9.499863e-05,7.867813e-06,-1.0251999e-05,1.0,-6.92606e-05,-6.1929226e-05,6.925315e-05,1.0,-8.434057e-06,6.1929226e-05,8.434057e-06,1.0,117,0.359,1,1,0.267,False,-0.2539202637715605,1.0486459437446969
0.37104702496435493,11:18:10.238951,11:18:01.751770,0,,0.12686297,0.012342118,0.027277932,-0.8728337,-0.120433085,-0.47292423,-0.36866838,-0.47223216,0.8006749,-0.3197578,0.8732083,0.36778027,,0.048635833,-0.008219298,0.01591289,-0.7037931,-0.270112,0.6570501,0.7054392,-0.15656108,0.6912627,-0.08384991,0.9500148,0.30073416,,0.10501254,1.3398861,0.44090608,0.9940017,0.014133417,-0.10844788,-0.061501056,-0.74773026,-0.66114837,-0.090434045,0.6638522,-0.74237585,,-0.10382985,0.26236668,-0.08903954,0.88124907,0.04898215,0.47010723,-0.46645528,0.25065932,0.84828615,-0.076285884,-0.9668354,0.24374129,,-0.022546044,0.4080027,-0.34506038,0.6667991,0.18418431,-0.7221185,0.42088827,0.7065735,0.56886464,0.61500573,-0.68324965,0.39362156,,1.1920964919310437,0.5773206187455274,0.20102865320000002,0.5653240876342777,-0.08608099485222749,1.3724791121298698,-0.3939858875158815,,-0.8653399412897306,-0.19974848579181695,0.19800181605000003,-3.713608899110926,-0.11368156780484645,1.392371808992049,0.8742174419506626,,-0.06800893596552404,-0.050775991263645036,0.08427136484,-0.06737965366399314,,9.499863e-05,7.867813e-06,-1.0251999e-05,1.0,-6.92606e-05,-6.1929226e-05,6.925315e-05,1.0,-8.434057e-06,6.1929226e-05,8.434057e-06,1.0,125,0.384,1,1,0.292,False,-0.25493308498641865,1.048549383343138
0.40469944098731503,11:18:10.262945,11:18:01.751770,0,,0.12697032,0.012390055,0.02741079,-0.8692837,-0.12576815,-0.4780464,-0.3705517,-0.47428083,0.7985919,-0.32716566,0.87134385,0.36568093,,0.04861901,-0.008222114,0.01590252,-0.703816,-0.27001747,0.6570643,0.70541984,-0.15651566,0.69129276,-0.083820224,0.9500492,0.3006339,,0.10501254,1.3398861,0.44090608,0.9940017,0.014133417,-0.10844788,-0.061501056,-0.74773026,-0.66114837,-0.090434045,0.6638522,-0.74237585,,-0.10394436,0.26248956,-0.08909671,0.8781446,0.054368515,0.47529578,-0.4729588,0.24801949,0.84545624,-0.07191641,-0.96722823,0.24351105,,-0.022528147,0.4079946,-0.3450568,0.66682005,0.18408443,-0.7221246,0.4209036,0.7066168,0.5687995,0.6149725,-0.6832318,0.39370447,,1.1919883736708046,0.5780079419713334,0.20096513499000002,0.5584043194992884,-0.08198189985926427,1.3725670821048808,-0.3952926400449557,,-0.8652318230294914,-0.1997639312575654,0.19800181605000003,-3.713608899110926,-0.11368156780484645,1.392371808992049,0.8742174419506626,,-0.06800893596552404,-0.05076944627895005,0.08427136484,-0.06737965366399314,,9.499863e-05,7.867813e-06,-1.0251999e-05,1.0,-6.92606e-05,-6.1929226e-05,6.925315e-05,1.0,-8.434057e-06,6.1929226e-05,8.434057e-06,1.0,138,0.424,1,1,0.332,False,-0.254218152364166,1.0490321853509326
0.4286612029536627,11:18:10.306470,11:18:01.834299,0,,0.12675825,0.01218497,0.027316526,-0.86594796,-0.13444814,-0.481724,-0.37024015,-0.47522086,0.7981775,-0.33623874,0.8695337,0.36173838,,0.048634514,-0.008225318,0.015907824,-0.70391285,-0.2701082,0.6569233,0.7053067,-0.15648407,0.6914154,-0.08395895,0.9500286,0.30066025,,0.10501254,1.3398861,0.44090608,0.9940017,0.014133417,-0.10844788,-0.061501056,-0.74773026,-0.66114837,-0.090434045,0.6638522,-0.74237585,,-0.10373242,0.2622803,-0.08918167,0.87542623,0.06311901,0.47921276,-0.47898114,0.24630998,0.84256065,-0.064853296,-0.9671336,0.24585903,,-0.022543889,0.40799525,-0.34506235,0.66693646,0.18417476,-0.72199404,0.42073703,0.7066288,0.5689078,0.61496025,-0.683195,0.39378738,,1.192760646958227,0.576169931547268,0.20087828356,0.5516942413077837,-0.07269061787521432,1.3707081764633635,-0.39496595191268735,,-0.8653167730911079,-0.19977937672331383,0.19800440863000002,-3.7138185890544113,-0.11368156780484645,1.392371808992049,0.8745441300829311,,-0.06800893596552404,-0.050775991263645036,0.08427136484,-0.06737965366399314,,9.499863e-05,7.867813e-06,-1.0251999e-05,1.0,-6.92606e-05,-6.1929226e-05,6.925315e-05,1.0,-8.434057e-06,6.1929226e-05,8.434057e-06,1.0,146,0.449,1,1,0.357,False,-0.25540970673458663,1.049370146756389
0.47221203095978126,11:18:10.331691,11:18:01.834299,0,,0.12660873,0.012044542,0.027225718,-0.8641061,-0.13616574,-0.48454067,-0.37121207,-0.47769886,0.7962445,-0.33988574,0.8679071,0.36223614,,0.048631344,-0.008222919,0.015906692,-0.7039225,-0.27014443,0.6568981,0.70529914,-0.15655163,0.69140774,-0.08394146,0.9500072,0.3007329,,0.10501254,1.3398861,0.44090608,0.9940017,0.014133417,-0.10844788,-0.061501056,-0.74773026,-0.66114837,-0.090434045,0.6638522,-0.74237585,,-0.10358128,0.26211926,-0.089220956,0.8738027,0.06486938,0.48193437,-0.482218,0.24342957,0.8415509,-0.06272619,-0.96774685,0.2439906,,-0.022540767,0.40799612,-0.34505978,0.66694474,0.18421675,-0.7219757,0.42074788,0.7065764,0.56896484,0.61494386,-0.68323785,0.39373863,,1.1931853972663093,0.5749265715545179,0.20083939486000002,0.5479198223250622,-0.06913806888131287,1.3730387503362524,-0.3944759197142842,,-0.8653013276253594,-0.1997639312575654,0.19800440863000002,-3.7138185890544113,-0.11368156780484645,1.3924534877321895,0.8747074741490655,,-0.06800893596552404,-0.050775991263645036,0.08427136484,-0.06737965366399314,,9.499863e-05,7.867813e-06,-1.0251999e-05,1.0,-6.92606e-05,-6.1929226e-05,6.925315e-05,1.0,-8.434057e-06,6.1929226e-05,8.434057e-06,1.0,159,0.49,1,1,0.398,False,-0.2543373078012081,1.0492253061540504
0.49744289700174704,11:18:10.370034,11:18:01.834299,0,,0.12641218,0.011885785,0.027252749,-0.8602488,-0.14619143,-0.48846725,-0.36923206,-0.4820596,0.79453516,-0.35162455,0.8638557,0.36071265,,0.04861416,-0.008223932,0.015898943,-0.70393944,-0.27007407,0.65690887,0.7052866,-0.15653732,0.6914238,-0.08390483,0.9500295,0.30067247,,0.10501254,1.3398861,0.44090608,0.9940017,0.014133417,-0.10844788,-0.061501056,-0.74773026,-0.66114837,-0.090434045,0.6638522,-0.74237585,,-0.103391536,0.26202607,-0.089361936,0.87078774,0.075013176,0.48590297,-0.48884302,0.23772186,0.8393574,-0.052546896,-0.9684324,0.24367495,,-0.022522874,0.4079912,-0.34505624,0.6669587,0.18414384,-0.7219814,0.42077208,0.70659477,0.5689241,0.61491215,-0.6832385,0.39378694,,1.1942511344029525,0.5735364796371575,0.20069421038000002,0.5405806743031037,-0.056977420402188665,1.3734957569051225,-0.3944759197142844,,-0.8652163775637429,-0.19975620852469117,0.19800440863000002,-3.7138185890544113,-0.11368156780484645,1.3924534877321895,0.8747074741490655,,-0.0679631210726592,-0.050775991263645036,0.08427136484,-0.06737965366399314,,9.499863e-05,7.867813e-06,-1.0251999e-05,1.0,-6.92606e-05,-6.1929226e-05,6.925315e-05,1.0,-8.434057e-06,6.1929226e-05,8.434057e-06,1.0,167,0.514,1,1,0.422,False,-0.25427773008268684,1.049514987358727
0.5357826389954425,11:18:10.399995,11:18:01.935224,0,,0.12638173,0.011922054,0.027384087,-0.85738075,-0.15627876,-0.490383,-0.3662452,-0.48416585,0.79463685,-0.36161155,0.8609068,0.357878,,0.04860104,-0.008221995,0.015905738,-0.7038521,-0.27021164,0.65694577,0.70536554,-0.15653571,0.69134367,-0.083973646,0.9499907,0.300776,,0.10501254,1.3398861,0.44090608,0.9940017,0.014133417,-0.10844788,-0.061501056,-0.74773026,-0.66114837,-0.090434045,0.6638522,-0.74237585,,-0.10336879,0.2621427,-0.089435235,0.8686722,0.08520955,0.4880041,-0.49351507,0.23441747,0.83755076,-0.043029357,-0.96839446,0.24568413,,-0.022510616,0.4079993,-0.34505877,0.6668742,0.18428424,-0.72202367,0.4207524,0.70658,0.5689571,0.6150173,-0.683216,0.39366192,,1.195023407690375,0.5736137069658996,0.20061513669000003,0.5353384257159907,-0.04672968291978063,1.3710202834180112,-0.39496595191268735,,-0.8652936048924852,-0.19975620852469117,0.19800311234,-3.7138185890544113,-0.11368156780484645,1.3924534877321895,0.8747074741490655,,-0.06789112624101443,-0.050775991263645036,0.08427136484,-0.06737965366399314,,9.499863e-05,7.867813e-06,-1.0251999e-05,1.0,-6.92606e-05,-6.1929226e-05,6.925315e-05,1.0,-8.434057e-06,6.1929226e-05,8.434057e-06,1.0,180,0.555,1,1,0.463,False,-0.2547543518308557,1.0491770259532711
0.565735894953832,11:18:10.431940,11:18:01.935224,0,,0.12643066,0.012016676,0.02759622,-0.8506377,-0.1682075,-0.49811843,-0.3664426,-0.48970813,0.791142,-0.37700862,0.855507,0.3549258,,0.048606023,-0.008221086,0.015908599,-0.70384395,-0.27023965,0.65694296,0.70537215,-0.15654269,0.6913353,-0.08398661,0.9499816,0.30080122,,0.10501254,1.3398861,0.44090608,0.9940017,0.014133417,-0.10844788,-0.061501056,-0.74773026,-0.66114837,-0.090434045,0.6638522,-0.74237585,,-0.10342896,0.2623551,-0.0895225,0.8629591,0.09730707,0.49581546,-0.50429326,0.22697315,0.8331696,-0.031463504,-0.96902764,0.24493983,,-0.0225159,0.40800154,-0.34505963,0.6668669,0.18431339,-0.7220229,0.42074484,0.70657176,0.5689729,0.6150303,-0.68321663,0.39364043,,1.1956643945189356,0.5742238028629634,0.20051921123000002,0.5235957888808573,-0.03511558043971819,1.371106174200261,-0.39365919938361316,,-0.8653244958239821,-0.19975620852469117,0.19800311234,-3.7138185890544113,-0.11368156780484645,1.3924534877321895,0.8747074741490655,,-0.06789112624101443,-0.050775991263645036,0.08427136484,-0.06737965366399314,,9.499863e-05,7.867813e-06,-1.0251999e-05,1.0,-6.92606e-05,-6.1929226e-05,6.925315e-05,1.0,-8.434057e-06,6.1929226e-05,8.434057e-06,1.0,188,0.58,1,1,0.488,False,-0.25546928445310746,1.0489356249493738
0.597687313973438,11:18:10.461644,11:18:01.935224,0,,0.12646231,0.012087859,0.027770445,-0.84424335,-0.18092763,-0.5044983,-0.36496237,-0.49527144,0.7883581,-0.39249936,0.849689,0.3520978,,0.04860421,-0.008224394,0.01590681,-0.7038425,-0.27022907,0.656949,0.70537305,-0.15652457,0.69133854,-0.08399111,0.94998753,0.30078095,,0.10501254,1.3398861,0.44090608,0.9940017,0.014133417,-0.10844788,-0.061501056,-0.74773026,-0.66114837,-0.090434045,0.6638522,-0.74237585,,-0.103470005,0.26252496,-0.08959917,0.8576476,0.11022101,0.50228673,-0.51389736,0.21924816,0.8293611,-0.018712424,-0.9694233,0.24467994,,-0.022513738,0.40799844,-0.34506133,0.6668659,0.18430123,-0.722027,0.42074156,0.7065859,0.56895775,0.6150337,-0.68320525,0.39365485,,1.1963208268132446,0.5745481576436808,0.20043365609000002,0.5129016017631466,-0.021861839962470472,1.3708351950198407,-0.3925157909206731,,-0.8653090503582337,-0.1997716539904396,0.19800311234,-3.7138185890544113,-0.11368156780484645,1.3924534877321895,0.8747074741490655,,-0.06789112624101443,-0.050775991263645036,0.08427136484,-0.06737965366399314,,9.499863e-05,7.867813e-06,-1.0251999e-05,1.0,-6.92606e-05,-6.1929226e-05,6.925315e-05,1.0,-8.434057e-06,6.1929226e-05,8.434057e-06,1.0,201,0.621,1,1,0.529,False,-0.2544564632382502,1.0493218665556094
0.6273925559944473,11:18:10.501937,11:18:02.031681,0,,0.12633064,0.012150936,0.027963683,-0.83535117,-0.20172836,-0.51136506,-0.35964033,-0.5029812,0.785919,-0.41574916,0.84042585,0.34761626,,0.048600357,-0.008219104,0.015906096,-0.7038577,-0.27020824,0.65694124,0.70536137,-0.15655032,0.6913446,-0.08396265,0.9499893,0.30078363,,0.10501254,1.3398861,0.44090608,0.9940017,0.014133417,-0.10844788,-0.061501056,-0.74773026,-0.66114837,-0.090434045,0.6638522,-0.74237585,,-0.10334967,0.26270577,-0.089706324,0.8504667,0.13136147,0.5093628,-0.526023,0.2078033,0.8246925,0.0024855377,-0.96931005,0.24582894,,-0.022510137,0.4080013,-0.34505662,0.6668788,0.18428183,-0.72202,0.42075947,0.70656997,0.5689643,0.6150074,-0.683227,0.39365822,,1.1981125008400646,0.5741002391369758,0.20031439741,0.4988523755496834,0.0010930919981235235,1.3686160927072355,-0.39218910278840435,,-0.8652936048924852,-0.19974076305894273,0.19800311234,-3.7138185890544113,-0.11368156780484645,1.3924534877321895,0.8747074741490655,,-0.06789112624101443,-0.050775991263645036,0.08427136484,-0.06737965366399314,,9.499863e-05,7.867813e-06,-1.0251999e-05,1.0,-6.92606e-05,-6.1929226e-05,6.925315e-05,1.0,-8.434057e-06,6.1929226e-05,8.434057e-06,1.0,209,0.645,1,1,0.553,False,-0.25535012901606535,1.0496115477602863
0.6676914870040491,11:18:10.525240,11:18:02.031681,0,,0.12611306,0.012147687,0.028128877,-0.8228886,-0.22326571,-0.5225007,-0.35605332,-0.51401895,0.7803912,-0.44280985,0.82821316,0.3434857,,0.04860311,-0.008218374,0.015907645,-0.7036041,-0.27020147,0.65721565,0.7056365,-0.15663883,0.69104373,-0.08377552,0.94997656,0.3008758,,0.10501254,1.3398861,0.44090608,0.9940017,0.014133417,-0.10844788,-0.061501056,-0.74773026,-0.66114837,-0.090434045,0.6638522,-0.74237585,,-0.103143685,0.26282102,-0.08984391,0.8399275,0.15333718,0.5205858,-0.5420979,0.19193183,0.8181027,0.025528578,-0.9693554,0.24433258,,-0.022513073,0.4080027,-0.34505692,0.6665927,0.18428147,-0.72228426,0.42104122,0.7065077,0.56883323,0.61512476,-0.6832915,0.39336276,,1.200189915983231,0.5730036110688359,0.20017050922000001,0.47956090074910723,0.026780753954026328,1.3690693567291357,-0.3970894247724328,,-0.8653090503582337,-0.19974076305894273,0.19800311234,-3.713399209167442,-0.11368156780484645,1.3924534877321895,0.8747074741490655,,-0.06789112624101443,-0.050775991263645036,0.08427136484,-0.06737965366399314,,9.499863e-05,7.867813e-06,-1.0251999e-05,1.0,-6.92606e-05,-6.1929226e-05,6.925315e-05,1.0,-8.434057e-06,6.1929226e-05,8.434057e-06,1.0,222,0.686,1,1,0.594,False,-0.2555288621716292,1.0490321853509326
0.6909337809775025,11:18:10.563901,11:18:02.031681,0,,0.12587124,0.012192883,0.02831088,-0.8111729,-0.24382555,-0.5315523,-0.34919804,-0.5271591,0.7747024,-0.46910486,0.81403464,0.3424737,,0.048603788,-0.008221235,0.015907347,-0.7035986,-0.2702049,0.6572201,0.7056407,-0.15662423,0.69104266,-0.08378655,0.94997805,0.3008682,,0.10501254,1.3398861,0.44090608,0.9940017,0.014133417,-0.10844788,-0.061501056,-0.74773026,-0.66114837,-0.090434045,0.6638522,-0.74237585,,-0.10291324,0.26298377,-0.08996248,0.8301753,0.17440824,0.5295194,-0.5552392,0.17315918,0.813465,0.050183862,-0.96932846,0.24059077,,-0.022513552,0.40800074,-0.34505907,0.66658807,0.18428388,-0.7222879,0.42103413,0.7065177,0.568826,0.61513466,-0.68328047,0.39336643,,1.2025453495098695,0.571976487596564,0.20004995425000002,0.46299539521382976,0.053971417407348975,1.3714008159357165,-0.39414923158201565,,-0.8653090503582337,-0.19975620852469117,0.19800311234,-3.713399209167442,-0.11368156780484645,1.3924534877321895,0.8747074741490655,,-0.06789112624101443,-0.050775991263645036,0.08427136484,-0.06737965366399314,,9.499863e-05,7.867813e-06,-1.0251999e-05,1.0,-6.92606e-05,-6.1929226e-05,6.925315e-05,1.0,-8.434057e-06,6.1929226e-05,8.434057e-06,1.0,230,0.711,1,1,0.619,False,-0.2551713958605024,1.049418426957168
0.729649223969318,11:18:10.594261,11:18:02.125591,0,,0.12559983,0.012222029,0.028524086,-0.796537,-0.26653925,-0.54266554,-0.34451744,-0.53748614,0.7696858,-0.49682668,0.80004096,0.33630008,,0.04860311,-0.008218374,0.015907645,-0.7036041,-0.27020147,0.65721565,0.7056365,-0.15663883,0.69104373,-0.08377552,0.94997656,0.3008758,,0.10501254,1.3398861,0.44090608,0.9940017,0.014133417,-0.10844788,-0.061501056,-0.74773026,-0.66114837,-0.090434045,0.6638522,-0.74237585,,-0.10265579,0.26315668,-0.09011674,0.8175431,0.19769517,0.54086965,-0.571015,0.1566259,0.8058599,0.07460042,-0.96766984,0.24093533,,-0.022513073,0.4080027,-0.34505692,0.6665927,0.18428147,-0.72228426,0.42104122,0.7065077,0.56883323,0.61512476,-0.6832915,0.39336276,,1.205008901296747,0.5708953049941726,0.19989958461000001,0.4424457807523464,0.08116208086067163,1.3692399444345664,-0.3959460163094928,,-0.8653090503582337,-0.19974076305894273,0.19800311234,-3.713399209167442,-0.11368156780484645,1.3924534877321895,0.8747074741490655,,-0.06789112624101443,-0.050775991263645036,0.08427136484,-0.06737965366399314,,9.499863e-05,7.867813e-06,-1.0251999e-05,1.0,-6.92606e-05,-6.1929226e-05,6.925315e-05,1.0,-8.434057e-06,6.1929226e-05,8.434057e-06,1.0,247,0.764,1,1,0.672,False,-0.2544564632382502,1.049708108161845
0.759975527995266,11:18:10.643555,11:18:02.125591,0,,0.12521873,0.012321778,0.02894245,-0.7639144,-0.32181755,-0.55934644,-0.33001173,-0.55003995,0.767169,-0.5545513,0.7706423,0.3139798,,0.04860277,-0.008216944,0.015907764,-0.70360684,-0.2701461,0.65723544,0.7056344,-0.15658972,0.69105697,-0.08377004,0.9500004,0.300802,,0.10501254,1.3398861,0.44090608,0.9940017,0.014133417,-0.10844788,-0.061501056,-0.74773026,-0.66114837,-0.090434045,0.6638522,-0.74237585,,-0.10230052,0.2635235,-0.09038022,0.7892335,0.2544177,0.55891156,-0.600429,0.12877409,0.7892416,0.1288237,-0.95848256,0.2543926,,-0.022512833,0.4080037,-0.34505585,0.66659504,0.18422127,-0.72229743,0.42104474,0.7065491,0.5687791,0.6151198,-0.68326485,0.39341673,,1.2091019497200861,0.5689723445084908,0.19967273386,0.40155624177286414,0.14046232175887277,1.3513507443027493,-0.39741611290470136,,-0.8653090503582337,-0.1997330403260685,0.19800311234,-3.713399209167442,-0.11368156780484645,1.3923718089920492,0.8748708182151997,,-0.06789112624101443,-0.050775991263645036,0.08427136484,-0.06737965366399314,,9.499863e-05,7.867813e-06,-1.0251999e-05,1.0,-6.92606e-05,-6.1929226e-05,6.925315e-05,1.0,-8.434057e-06,6.1929226e-05,8.434057e-06,1.0,255,0.79,1,1,0.698,False,-0.2564821056679656,1.0496115477602863
0.8092979780049063,11:18:10.672407,11:18:02.214336,0,,0.12498738,0.012347452,0.029179618,-0.7416147,-0.35961848,-0.5662881,-0.32095307,-0.55106276,0.7702719,-0.58906436,0.7529969,0.2932555,,0.04860254,-0.008221459,0.015906632,-0.70360065,-0.27019787,0.6572209,0.705639,-0.15662247,0.6910448,-0.08378327,0.94998026,0.3008619,,0.10501254,1.3398861,0.44090608,0.9940017,0.014133417,-0.10844788,-0.061501056,-0.74773026,-0.66114837,-0.090434045,0.6638522,-0.74237585,,-0.102084704,0.2637092,-0.09055163,0.76953065,0.29325828,0.56729364,-0.61780035,0.11694117,0.7775908,0.16169497,-0.9488542,0.2711649,,-0.022512231,0.40800017,-0.34505886,0.66658986,0.1842766,-0.72228813,0.42103603,0.7065197,0.568822,0.6151314,-0.6832803,0.39337182,,1.2113415422536113,0.5675899753240046,0.19954051228000003,0.3753449988372986,0.1766709941967145,1.3310546974590811,-0.3956193281772242,,-0.8653013276253594,-0.19975620852469117,0.19800311234,-3.713399209167442,-0.11368156780484645,1.3924534877321895,0.8747074741490655,,-0.06789112624101443,-0.050775991263645036,0.08427136484,-0.06737965366399314,,9.499863e-05,7.867813e-06,-1.0251999e-05,1.0,-6.92606e-05,-6.1929226e-05,6.925315e-05,1.0,-8.434057e-06,6.1929226e-05,8.434057e-06,1.0,268,0.83,1,1,0.738,False,-0.2549926627049395,1.0492253061540504
0.8381374859600328,11:18:10.706196,11:18:02.214336,0,,0.1247252,0.012339018,0.029410347,-0.71335584,-0.3981962,-0.57668316,-0.31846064,-0.54882795,0.7728975,-0.62426466,0.7350018,0.2646997,,0.048605606,-0.008217942,0.015909076,-0.7036,-0.27021548,0.6572142,0.70563984,-0.1566424,0.69103956,-0.08378199,0.94997203,0.30088848,,0.10501254,1.3398861,0.44090608,0.9940017,0.014133417,-0.10844788,-0.061501056,-0.74773026,-0.66114837,-0.090434045,0.6638522,-0.74237585,,-0.10183871,0.26386625,-0.0907436,0.7437432,0.33298922,0.5796243,-0.64059514,0.10727652,0.7603483,0.19100773,-0.93680835,0.29309747,,-0.022515714,0.4080038,-0.34505737,0.6665891,0.18429604,-0.72228384,0.42103744,0.7065035,0.56884116,0.61513126,-0.68329185,0.393352,,1.213395789198155,0.5660840424135308,0.19939403151,0.3405364682188675,0.2097370271399511,1.3047449946856715,-0.3965993925740301,,-0.8653244958239821,-0.19974076305894273,0.19800311234,-3.713399209167442,-0.11368156780484645,1.3924534877321895,0.8747074741490655,,-0.06789112624101443,-0.050775991263645036,0.08427136484,-0.06737965366399314,,9.499863e-05,7.867813e-06,-1.0251999e-05,1.0,-6.92606e-05,-6.1929226e-05,6.925315e-05,1.0,-8.434057e-06,6.1929226e-05,8.434057e-06,1.0,289,0.895,1,1,0.803,False,-0.2556480176086704,1.049418426957168
0.8719308509607799,11:18:10.774444,11:18:02.313044,0,,0.124029875,0.012246765,0.030002251,-0.64154285,-0.49209696,-0.5884416,-0.30516243,-0.54007095,0.78434634,-0.7037747,0.682762,0.19630912,,0.04860402,-0.00821675,0.01590854,-0.7036049,-0.27020678,0.6572126,0.705636,-0.15664789,0.6910421,-0.083773285,0.9499736,0.30088592,,0.10501254,1.3398861,0.44090608,0.9940017,0.014133417,-0.10844788,-0.061501056,-0.74773026,-0.66114837,-0.090434045,0.6638522,-0.74237585,,-0.10118694,0.264218,-0.09128565,0.6777508,0.43034914,0.59619915,-0.6866577,0.08044459,0.7225163,0.26297328,-0.8990708,0.35002396,,-0.022514153,0.40800425,-0.3450561,0.6665932,0.18428755,-0.7222822,0.42104286,0.7065006,0.5688408,0.6151231,-0.68329716,0.39335555,,1.218114378984306,0.5620218849216887,0.19900644080000002,0.2587573902599031,0.2914456539996845,1.2328896489062156,-0.39692608070629865,,-0.8653167730911079,-0.1997330403260685,0.19800311234,-3.713399209167442,-0.11368156780484645,1.3924534877321895,0.8747074741490655,,-0.06789112624101443,-0.050775991263645036,0.08427136484,-0.06737965366399314,,9.499863e-05,7.867813e-06,-1.0251999e-05,1.0,-6.92606e-05,-6.1929226e-05,6.925315e-05,1.0,-8.434057e-06,6.1929226e-05,8.434057e-06,1.0,310,0.961,1,1,0.869,False,-0.25588632848275505,1.049370146756389
0.940198395983316,11:18:10.840098,11:18:02.313044,0,,0.12313982,0.012165941,0.0305527,-0.5619287,-0.570964,-0.59852856,-0.29798126,-0.535268,0.79037666,-0.7716497,0.62248564,0.13064581,,0.048600703,-0.008220535,0.015905857,-0.7038549,-0.27015626,0.65696555,0.7053634,-0.15648657,0.6913569,-0.08396813,0.9500145,0.3007022,,0.10501254,1.3398861,0.44090608,0.9940017,0.014133417,-0.10844788,-0.061501056,-0.74773026,-0.66114837,-0.090434045,0.6638522,-0.74237585,,-0.100337885,0.26455465,-0.09180286,0.6030347,0.51313347,0.6107726,-0.72948,0.04488598,0.6825278,0.3228127,-0.85713434,0.40138844,,-0.022510378,0.4080003,-0.3450577,0.6668765,0.18422405,-0.72203684,0.42075592,0.7066214,0.56890297,0.61501235,-0.68318933,0.39371586,,1.2228406915033316,0.5578438864367332,0.19866422024000002,0.16838102461807306,0.3615401783793554,1.1609484123445097,-0.39806948916923823,,-0.8652936048924852,-0.19974848579181695,0.19800311234,-3.7138185890544113,-0.11368156780484645,1.392371808992049,0.8745441300829311,,-0.06789112624101443,-0.050775991263645036,0.08427136484,-0.06737965366399314,,9.499863e-05,7.867813e-06,-1.0251999e-05,1.0,-6.92606e-05,-6.1929226e-05,6.925315e-05,1.0,-8.434057e-06,6.1929226e-05,8.434057e-06,1.0,327,1.014,1,1,0.922,False,-0.25683957197909146,1.049708108161845
1.0058495919802226,11:18:10.894396,11:18:02.406259,0,,0.12256324,0.012210362,0.030927107,-0.50232905,-0.61918,-0.6035575,-0.29120386,-0.53609806,0.7923378,-0.8141657,0.5737726,0.08898997,,0.048610024,-0.008218732,0.015909731,-0.70384055,-0.27020532,0.6569608,0.705375,-0.15649876,0.69134235,-0.08399081,0.9499986,0.30074632,,0.10501254,1.3398861,0.44090608,0.9940017,0.014133417,-0.10844788,-0.061501056,-0.74773026,-0.66114837,-0.090434045,0.6638522,-0.74237585,,-0.0997863,0.26485577,-0.09208512,0.546593,0.56442183,0.61859846,-0.75486875,0.012320224,0.65576017,0.3625041,-0.8253946,0.43279856,,-0.02252012,0.4080034,-0.34505835,0.6668638,0.18427506,-0.7220356,0.42074272,0.70660704,0.5689306,0.6150351,-0.68319046,0.39367828,,1.2256517662695492,0.5554961756429689,0.19852033205000003,0.10232869242044788,0.40799658829960517,1.1117946589483287,-0.3990495535660441,,-0.8653476640226048,-0.19974848579181695,0.19800440863000002,-3.7138185890544113,-0.11368156780484645,1.392371808992049,0.8745441300829311,,-0.06789112624101443,-0.050775991263645036,0.08427136484,-0.06737965366399314,,9.499863e-05,7.867813e-06,-1.0251999e-05,1.0,-6.92606e-05,-6.1929226e-05,6.925315e-05,1.0,-8.434057e-06,6.1929226e-05,8.434057e-06,1.0,336,1.043,1,1,0.951,False,-0.2568991496976123,1.0491770259532711
1.060129559948109,11:18:10.924596,11:18:02.406259,0,,0.12226729,0.0122569725,0.031122938,-0.4681795,-0.64790905,-0.60085106,-0.28522095,-0.53277475,0.7967434,-0.8363354,0.54439425,0.064636916,,0.048612513,-0.008218285,0.015911162,-0.70383656,-0.27021936,0.65695935,0.7053783,-0.15650222,0.6913381,-0.08399731,0.94999397,0.3007589,,0.10501254,1.3398861,0.44090608,0.9940017,0.014133417,-0.10844788,-0.061501056,-0.74773026,-0.66114837,-0.090434045,0.6638522,-0.74237585,,-0.099502735,0.26503026,-0.09221646,0.5141676,0.5951131,0.61763424,-0.76638746,-0.004526114,0.64236265,0.38507393,-0.8036292,0.45376006,,-0.02252276,0.4080045,-0.3450588,0.6668602,0.18428963,-0.72203517,0.42073894,0.70660293,0.56893855,0.6150416,-0.68319076,0.39366752,,1.2269723535910417,0.5542991520474642,0.19847625819000003,0.0654232623671716,0.4343674327543352,1.0783659074743976,-0.4003563060951185,,-0.8653631094883532,-0.19974848579181695,0.19800440863000002,-3.7138185890544113,-0.11368156780484645,1.392371808992049,0.8745441300829311,,-0.06789112624101443,-0.050775991263645036,0.08427136484,-0.06737965366399314,,9.499863e-05,7.867813e-06,-1.0251999e-05,1.0,-6.92606e-05,-6.1929226e-05,6.925315e-05,1.0,-8.434057e-06,6.1929226e-05,8.434057e-06,1.0,349,1.084,1,1,0.992,False,-0.256541683386486,1.0493218665556094
1.0903403819538653,11:18:10.971581,11:18:02.406259,0,,0.121839814,0.012334578,0.031457886,-0.3986414,-0.6963393,-0.5968222,-0.2731799,-0.5310657,0.80208594,-0.87547576,0.4827845,0.021478802,,0.048608564,-0.0082174055,0.015909314,-0.7037207,-0.27013254,0.6571191,0.7055072,-0.15649039,0.6912093,-0.08388531,0.9500207,0.30070603,,0.10501254,1.3398861,0.44090608,0.9940017,0.014133417,-0.10844788,-0.061501056,-0.74773026,-0.66114837,-0.090434045,0.6638522,-0.74237585,,-0.09909631,0.26532525,-0.09243725,0.44773942,0.64753985,0.616621,-0.7858643,-0.043995988,0.61683196,0.42655218,-0.7607604,0.48917973,,-0.022518706,0.40800396,-0.345057,0.6667267,0.18420011,-0.72218126,0.4208909,0.7066214,0.56880313,0.6150824,-0.68319577,0.39359525,,1.228262049981037,0.5523761915617823,0.19843348062000002,-0.009226357513319072,0.483010026670832,1.0168929101409412,-0.39855952136764117,,-0.8653399412897306,-0.19974076305894273,0.19800440863000002,-3.713608899110926,-0.11368156780484645,1.3922901302519084,0.8747074741490654,,-0.06789112624101443,-0.050775991263645036,0.08427136484,-0.06737965366399314,,9.499863e-05,7.867813e-06,-1.0251999e-05,1.0,-6.92606e-05,-6.1929226e-05,6.925315e-05,1.0,-8.434057e-06,6.1929226e-05,8.434057e-06,1.0,363,1.129,1,1,1.037,False,-0.25725661600873906,1.0498529487641832
1.1373288899776526,11:18:11.007197,11:18:02.406259,0,,0.12156179,0.012347944,0.031611964,-0.3529829,-0.7245635,-0.5919552,-0.26626095,-0.5287301,0.80594635,-0.8969438,0.4420999,-0.0062903464,,0.048608437,-0.00821754,0.015909135,-0.7038454,-0.27014294,0.6569813,0.70537126,-0.15644786,0.6913577,-0.08398208,0.9500247,0.30066618,,0.10501254,1.3398861,0.44090608,0.9940017,0.014133417,-0.10844788,-0.061501056,-0.74773026,-0.66114837,-0.090434045,0.6638522,-0.74237585,,-0.098828815,0.26544657,-0.09255953,0.4038151,0.6784472,0.61371225,-0.7964987,-0.06926686,0.60065955,0.4500257,-0.7313764,0.51241136,,-0.022518558,0.4080038,-0.34505707,0.666868,0.18420759,-0.72204894,0.42074814,0.70665056,0.5688726,0.61502695,-0.68316364,0.3937376,,1.2286790775562453,0.5510401587745415,0.19842440659000002,-0.05892287411915135,0.5111571456225127,0.9745829605661653,-0.3957826722433586,,-0.8653399412897306,-0.19974076305894273,0.19800440863000002,-3.7138185890544113,-0.11368156780484645,1.3922901302519084,0.8747074741490654,,-0.06789112624101443,-0.050775991263645036,0.08427136484,-0.06737965366399314,,9.499863e-05,7.867813e-06,-1.0251999e-05,1.0,-6.92606e-05,-6.1929226e-05,6.925315e-05,1.0,-8.434057e-06,6.1929226e-05,8.434057e-06,1.0,372,1.157,1,1,1.065,False,-0.2570778828531757,1.0493218665556094
1.172951494983863,11:18:11.040563,11:18:02.579615,0,,NaN,NaN,NaN,NaN,NaN,NaN,NaN,NaN,NaN,NaN,NaN,NaN,,0.048618667,-0.008214083,0.015913844,-0.7038318,-0.2701973,0.6569735,0.70538247,-0.1564692,0.69134146,-0.084002525,0.95000577,0.30072036,,0.10501254,1.3398861,0.44090608,0.9940017,0.014133417,-0.10844788,-0.061501056,-0.74773026,-0.66114837,-0.090434045,0.6638522,-0.74237585,,NaN,NaN,NaN,NaN,NaN,NaN,NaN,NaN,NaN,NaN,NaN,NaN,,-0.022529382,0.40800843,-0.34505686,0.6668558,0.18426467,-0.7220456,0.42073658,0.70662904,0.5689078,0.61504805,-0.6831705,0.3936928,,NaN,NaN,NaN,NaN,NaN,NaN,NaN,,-0.8654017231527243,-0.1997330403260685,0.19800570492000003,-3.7138185890544113,-0.11368156780484645,1.3922901302519084,0.8747074741490654,,-0.06789112624101443,-0.050775991263645036,0.08427136484,-0.06737965366399314,,9.499863e-05,7.867813e-06,-1.0251999e-05,1.0,-6.92606e-05,-6.1929226e-05,6.925315e-05,1.0,-8.434057e-06,6.1929226e-05,8.434057e-06,1.0,395,1.231,0,1,1.133,False,-0.256541683386486,1.0496115477602863
1.2062775119557045,11:18:11.109290,11:18:02.661970,0,,NaN,NaN,NaN,NaN,NaN,NaN,NaN,NaN,NaN,NaN,NaN,NaN,,0.048616804,-0.008227136,0.01589936,-0.7039627,-0.27021676,0.6568252,0.7052396,-0.15643266,0.6914954,-0.08410475,0.95000625,0.30069035,,0.10501254,1.3398861,0.44090608,0.9940017,0.014133417,-0.10844788,-0.061501056,-0.74773026,-0.66114837,-0.090434045,0.6638522,-0.74237585,,NaN,NaN,NaN,NaN,NaN,NaN,NaN,NaN,NaN,NaN,NaN,NaN,,-0.022525357,0.40798938,-0.34505907,0.6670041,0.18428189,-0.7219042,0.42058614,0.70665276,0.5689896,0.6149901,-0.6831413,0.3938339,,NaN,NaN,NaN,NaN,NaN,NaN,NaN,,-0.865424891351347,-0.19974076305894273,0.19800700121000003,-3.714028278997896,-0.11368156780484645,1.3922901302519084,0.8747074741490654,,-0.06789112624101443,-0.050775991263645036,0.08427136484,-0.06737965366399314,,9.499863e-05,7.867813e-06,-1.0251999e-05,1.0,-6.92606e-05,-6.1929226e-05,6.925315e-05,1.0,-8.434057e-06,6.1929226e-05,8.434057e-06,1.0,418,1.305,1,2,1.15,False,-0.2575545046013441,1.0493218665556094
1.2750237499712966,11:18:11.177815,11:18:02.756429,0,,NaN,NaN,NaN,NaN,NaN,NaN,NaN,NaN,NaN,NaN,NaN,NaN,,0.048638362,-0.008226402,0.015907288,-0.70396864,-0.27023873,0.65680975,0.70523214,-0.15644282,0.69150066,-0.084117174,0.94999826,0.30071187,,0.10499337,1.3398868,0.44091198,0.99400276,0.014146988,-0.10843588,-0.061483014,-0.74772996,-0.66115034,-0.090434045,0.6638522,-0.74237585,,NaN,NaN,NaN,NaN,NaN,NaN,NaN,NaN,NaN,NaN,NaN,NaN,,-0.02252932,0.40799105,-0.34505972,0.6669987,0.18430375,-0.7219037,0.42058048,0.7066466,0.56900144,0.6149999,-0.68314177,0.39381778,,NaN,NaN,NaN,NaN,NaN,NaN,NaN,,-0.8654480595499697,-0.19974076305894273,0.19800700121000003,-3.714028278997896,-0.11368156780484645,1.3922901302519084,0.8747074741490654,,-0.06789112624101443,-0.050775991263645036,0.08427136484,-0.06737965366399314,,7.53738e-05,1.0848045e-05,-1.2993813e-05,1.0,-5.5789948e-05,-4.9889088e-05,5.5782497e-05,0.99999994,-6.7949295e-06,4.9889088e-05,6.7949295e-06,1.0,441,1.379,1,2,1.224,False,-0.2583290149421176,1.0499012289649627
1.3435703909490258,11:18:11.256590,11:18:02.756429,0,,NaN,NaN,NaN,NaN,NaN,NaN,NaN,NaN,NaN,NaN,NaN,NaN,,0.048646893,-0.008220069,0.015913546,-0.7043096,-0.27038333,0.65638465,0.7048951,-0.15684482,0.69175315,-0.08408806,0.94989085,0.30105925,,0.10499337,1.3398868,0.44091198,0.99400276,0.014146988,-0.10843588,-0.061483014,-0.74772996,-0.66115034,-0.090434045,0.6638522,-0.74237585,,NaN,NaN,NaN,NaN,NaN,NaN,NaN,NaN,NaN,NaN,NaN,NaN,,-0.022538776,0.4079988,-0.3450581,0.6673539,0.18448113,-0.72152996,0.42044732,0.7063433,0.56947625,0.61470544,-0.68340755,0.39381638,,NaN,NaN,NaN,NaN,NaN,NaN,NaN,,-0.8655175641458377,-0.19972531759319426,0.19800700121000003,-3.7144476588848643,-0.11395484080437733,1.3926763235395823,0.8750341622813339,,-0.06789112624101443,-0.050775991263645036,0.08427136484,-0.06737965366399314,,7.53738e-05,1.0848045e-05,-1.2993813e-05,1.0,-5.5789948e-05,-4.9889088e-05,5.5782497e-05,0.99999994,-6.7949295e-06,4.9889088e-05,6.7949295e-06,1.0,464,1.452,1,2,1.297,False,-0.2586269035347226,1.0496115477602863
1.4223415199667215,11:18:11.327173,11:18:02.756429,0,,NaN,NaN,NaN,NaN,NaN,NaN,NaN,NaN,NaN,NaN,NaN,NaN,,0.0486444,-0.008220501,0.015912175,-0.7043137,-0.27036932,0.65638596,0.7048918,-0.15684137,0.6917573,-0.08408159,0.9498954,0.3010466,,0.10499337,1.3398868,0.44091198,0.99400276,0.014146988,-0.10843588,-0.061483014,-0.74772996,-0.66115034,-0.090434045,0.6638522,-0.74237585,,NaN,NaN,NaN,NaN,NaN,NaN,NaN,NaN,NaN,NaN,NaN,NaN,,-0.022536134,0.4079977,-0.3450577,0.66735756,0.18446656,-0.7215303,0.42045107,0.7063474,0.5694683,0.61469895,-0.6834072,0.3938271,,NaN,NaN,NaN,NaN,NaN,NaN,NaN,,-0.8655021186800893,-0.19972531759319426,0.19800700121000003,-3.7144476588848643,-0.11395484080437733,1.3926763235395823,0.8750341622813339,,-0.06789112624101443,-0.050775991263645036,0.08427136484,-0.06737965366399314,,7.53738e-05,1.0848045e-05,-1.2993813e-05,1.0,-5.5789948e-05,-4.9889088e-05,5.5782497e-05,0.99999994,-6.7949295e-06,4.9889088e-05,6.7949295e-06,1.0,487,1.526,1,2,1.371,False,-0.2593418361569748,1.0495632675595068
1.4929277479532175,11:18:11.405187,11:18:02.957581,0,,NaN,NaN,NaN,NaN,NaN,NaN,NaN,NaN,NaN,NaN,NaN,NaN,,0.048643723,-0.008218311,0.015912294,-0.7034457,-0.27028838,0.65734947,0.7058395,-0.15714455,0.6907214,-0.08339509,0.9498683,0.30132285,,0.10499337,1.3398868,0.44091198,0.99400276,0.014146988,-0.10843588,-0.061483014,-0.74772996,-0.66115034,-0.090434045,0.6638522,-0.74237585,,NaN,NaN,NaN,NaN,NaN,NaN,NaN,NaN,NaN,NaN,NaN,NaN,,-0.022535603,0.40799916,-0.345056,0.66637313,0.18440627,-0.72245497,0.42145595,0.7061407,0.5689817,0.6150786,-0.6836371,0.39283404,,NaN,NaN,NaN,NaN,NaN,NaN,NaN,,-0.865494395947215,-0.19971759486032004,0.19800700121000003,-3.712979829280473,-0.11395484080437733,1.3926763235395823,0.8750341622813339,,-0.06789112624101443,-0.050775991263645036,0.08427136484,-0.06737965366399314,,7.53738e-05,1.0848045e-05,-1.2993813e-05,1.0,-5.5789948e-05,-4.9889088e-05,5.5782497e-05,0.99999994,-6.7949295e-06,4.9889088e-05,6.7949295e-06,1.0,510,1.6,1,2,1.445,False,-0.2589843698458485,1.0493218665556094
1.5709413739969023,11:18:11.487293,11:18:02.957581,0,,NaN,NaN,NaN,NaN,NaN,NaN,NaN,NaN,NaN,NaN,NaN,NaN,,0.048589244,-0.008209832,0.015885413,-0.70835704,-0.2704389,0.65199155,0.70046216,-0.15536973,0.69657224,-0.08708051,0.95011747,0.29948944,,0.10499337,1.3398868,0.44091198,0.99400276,0.014146988,-0.10843588,-0.061483014,-0.74772996,-0.66115034,-0.090434045,0.6638522,-0.74237585,,NaN,NaN,NaN,NaN,NaN,NaN,NaN,NaN,NaN,NaN,NaN,NaN,,-0.02247933,0.40798855,-0.345034,0.6719242,0.1844291,-0.7172892,0.4159219,0.7073873,0.57149994,0.6128025,-0.6823409,0.39860252,,NaN,NaN,NaN,NaN,NaN,NaN,NaN,,-0.8652163775637429,-0.19959403113433247,0.19800700121000003,-3.721157737076369,-0.11381820430461188,1.392564905635886,0.8750341622813339,,-0.06789112624101443,-0.050775991263645036,0.08427136484,-0.06737965366399314,,7.53738e-05,1.0848045e-05,-1.2993813e-05,1.0,-5.5789948e-05,-4.9889088e-05,5.5782497e-05,0.99999994,-6.7949295e-06,4.9889088e-05,6.7949295e-06,1.0,533,1.673,1,2,1.518,False,-0.259282258438454,1.0499012289649627
1.6529894389677793,11:18:11.554260,11:18:02.957581,0,,NaN,NaN,NaN,NaN,NaN,NaN,NaN,NaN,NaN,NaN,NaN,NaN,,0.04830672,-0.008153312,0.015745461,-0.71483713,-0.26932636,0.6453457,0.6933799,-0.15324861,0.7040874,-0.090731025,0.95077765,0.29629332,,0.10499337,1.3398868,0.44091198,0.99400276,0.014146988,-0.10843588,-0.061483014,-0.74772996,-0.66115034,-0.090434045,0.6638522,-0.74237585,,NaN,NaN,NaN,NaN,NaN,NaN,NaN,NaN,NaN,NaN,NaN,NaN,,-0.02218817,0.4079404,-0.3449095,0.6791285,0.18313676,-0.71080613,0.40960574,0.70902336,0.5740288,0.6091039,-0.68098956,0.4065041,,NaN,NaN,NaN,NaN,NaN,NaN,NaN,,-0.8636486627902754,-0.1990071034358914,0.19801089008000003,-3.7312228543636268,-0.11368156780484645,1.3922901302519084,0.8750341622813341,,-0.06789112624101443,-0.050775991263645036,0.08427136484,-0.06737965366399314,,7.53738e-05,1.0848045e-05,-1.2993813e-05,1.0,-5.5789948e-05,-4.9889088e-05,5.5782497e-05,0.99999994,-6.7949295e-06,4.9889088e-05,6.7949295e-06,1.0,556,1.747,0,2,1.563,False,-0.25856732581620134,1.0498529487641832
1.7200146989780478,11:18:11.626089,11:18:03.193700,0,,NaN,NaN,NaN,NaN,NaN,NaN,NaN,NaN,NaN,NaN,NaN,NaN,,0.0476649,-0.008052535,0.015419245,-0.7277618,-0.26696572,0.6317373,0.6788994,-0.14980522,0.7187865,-0.09725383,0.9519915,0.29026538,,0.10499337,1.3398868,0.44091198,0.99400276,0.014146988,-0.10843588,-0.061483014,-0.74772996,-0.66115034,-0.090434045,0.6638522,-0.74237585,,NaN,NaN,NaN,NaN,NaN,NaN,NaN,NaN,NaN,NaN,NaN,NaN,,-0.021524325,0.40780824,-0.34464425,0.69344383,0.18047386,-0.697542,0.39741433,0.71173096,0.5792244,0.6009971,-0.67887276,0.42182255,,NaN,NaN,NaN,NaN,NaN,NaN,NaN,,-0.8600421465380125,-0.19784097077188348,0.19802385298000003,-3.751143398994656,-0.11381820430461188,1.3925649056358858,0.8753608504136025,,-0.06789112624101443,-0.050775991263645036,0.08427136484,-0.06737965366399314,,7.53738e-05,1.0848045e-05,-1.2993813e-05,1.0,-5.5789948e-05,-4.9889088e-05,5.5782497e-05,0.99999994,-6.7949295e-06,4.9889088e-05,6.7949295e-06,1.0,574,1.805,0,2,1.563,False,-0.2590439475643693,1.0498529487641832
1.7918420559726655,11:18:11.678302,11:18:03.193700,0,,NaN,NaN,NaN,NaN,NaN,NaN,NaN,NaN,NaN,NaN,NaN,NaN,,0.04673094,-0.0077899173,0.0150129795,-0.73235935,-0.26241302,0.62832236,0.6739723,-0.14789397,0.7238015,-0.09700987,0.95355487,0.28517067,,0.10499337,1.3398868,0.44091198,0.99400276,0.014146988,-0.10843588,-0.061483014,-0.74772996,-0.66115034,-0.090434045,0.6638522,-0.74237585,,NaN,NaN,NaN,NaN,NaN,NaN,NaN,NaN,NaN,NaN,NaN,NaN,,-0.02057171,0.4077384,-0.34420386,0.69827163,0.1756872,-0.69393855,0.39527684,0.7135844,0.57840604,0.59680223,-0.67818236,0.42883068,,NaN,NaN,NaN,NaN,NaN,NaN,NaN,,-0.8549142519095274,-0.19552415090961614,0.19800959379000002,-3.7563856475817694,-0.11231520280719205,1.3913393086952253,0.8753608504136025,,-0.06789112624101443,-0.050775991263645036,0.08427136484,-0.06737965366399314,,7.53738e-05,1.0848045e-05,-1.2993813e-05,1.0,-5.5789948e-05,-4.9889088e-05,5.5782497e-05,0.99999994,-6.7949295e-06,4.9889088e-05,6.7949295e-06,1.0,588,1.85,0,2,1.563,False,-0.2584481703791588,1.0505288715750958
1.8440411249757744,11:18:11.729038,11:18:03.286914,0,,NaN,NaN,NaN,NaN,NaN,NaN,NaN,NaN,NaN,NaN,NaN,NaN,,0.04581713,-0.007420294,0.014797747,-0.73444265,-0.25871524,0.6274236,0.6719776,-0.14769775,0.7256937,-0.095079035,0.9545951,0.28232637,,0.10499337,1.3398868,0.44091198,0.99400276,0.014146988,-0.10843588,-0.061483014,-0.74772996,-0.66115034,-0.090434045,0.6638522,-0.74237585,,NaN,NaN,NaN,NaN,NaN,NaN,NaN,NaN,NaN,NaN,NaN,NaN,,-0.019664023,0.40788242,-0.3437875,0.7002669,0.17190006,-0.6928756,0.39591518,0.71411866,0.577309,0.59403485,-0.6785904,0.43201584,,NaN,NaN,NaN,NaN,NaN,NaN,NaN,,-0.850427344109603,-0.1925817896845366,0.19786440931000002,-3.7574340972991918,-0.11040229181047588,1.3906779241850216,0.8755241944797368,,-0.06789112624101443,-0.050775991263645036,0.08427136484,-0.06737965366399314,,7.53738e-05,1.0848045e-05,-1.2993813e-05,1.0,-5.5789948e-05,-4.9889088e-05,5.5782497e-05,0.99999994,-6.7949295e-06,4.9889088e-05,6.7949295e-06,1.0,611,1.923,0,2,1.563,False,-0.2586269035347226,1.0502874705711984
1.894793689949438,11:18:11.804049,11:18:03.286914,0,,NaN,NaN,NaN,NaN,NaN,NaN,NaN,NaN,NaN,NaN,NaN,NaN,,0.044778142,-0.006936677,0.01468724,-0.73436385,-0.25578398,0.62871623,0.67243993,-0.1480965,0.72518396,-0.09237987,0.955323,0.28075603,,0.10499337,1.3398868,0.44091198,0.99400276,0.014146988,-0.10843588,-0.061483014,-0.74772996,-0.66115034,-0.090434045,0.6638522,-0.74237585,,NaN,NaN,NaN,NaN,NaN,NaN,NaN,NaN,NaN,NaN,NaN,NaN,,-0.01864882,0.40819123,-0.34334075,0.6998972,0.16893943,-0.69397646,0.39835253,0.71414286,0.57559985,0.59283984,-0.67930806,0.43252918,,NaN,NaN,NaN,NaN,NaN,NaN,NaN,,-0.8456624179262064,-0.18878992784329238,0.19759996615000003,-3.755127507920862,-0.10684974281657443,1.3903947783734125,0.8755241944797367,,-0.06789112624101443,-0.050775991263645036,0.08427136484,-0.06737965366399314,,7.53738e-05,1.0848045e-05,-1.2993813e-05,1.0,-5.5789948e-05,-4.9889088e-05,5.5782497e-05,0.99999994,-6.7949295e-06,4.9889088e-05,6.7949295e-06,1.0,629,1.981,0,2,1.563,False,-0.2593418361569748,1.0501909101696396
1.9698020489886403,11:18:11.860490,11:18:03.421699,0,,NaN,NaN,NaN,NaN,NaN,NaN,NaN,NaN,NaN,NaN,NaN,NaN,,0.044289865,-0.006781362,0.014715135,-0.733498,-0.2549104,0.6300804,0.6734922,-0.14766273,0.7242955,-0.09159121,0.95562357,0.2799904,,0.10499337,1.3398868,0.44091198,0.99400276,0.014146988,-0.10843588,-0.061483014,-0.74772996,-0.66115034,-0.090434045,0.6638522,-0.74237585,,NaN,NaN,NaN,NaN,NaN,NaN,NaN,NaN,NaN,NaN,NaN,NaN,,-0.0181754,0.40835908,-0.3432358,0.6988989,0.16801703,-0.69520545,0.3995007,0.71453786,0.57431245,0.5932449,-0.67912143,0.43226683,,NaN,NaN,NaN,NaN,NaN,NaN,NaN,,-0.8435386663857948,-0.18729944039856702,0.19739255975000003,-3.7532402984295015,-0.10452692232056193,1.3901342488133848,0.8755241944797368,,-0.06789112624101443,-0.050775991263645036,0.08427136484,-0.06737965366399314,,7.53738e-05,1.0848045e-05,-1.2993813e-05,1.0,-5.5789948e-05,-4.9889088e-05,5.5782497e-05,0.99999994,-6.7949295e-06,4.9889088e-05,6.7949295e-06,1.0,643,2.026,0,2,1.563,False,-0.25785239319394915,1.0502874705711984
2.026235879980959,11:18:11.904006,11:18:03.421699,0,,NaN,NaN,NaN,NaN,NaN,NaN,NaN,NaN,NaN,NaN,NaN,NaN,,0.044150922,-0.006798707,0.01475513,-0.7333985,-0.25503728,0.63014483,0.6735505,-0.14722437,0.7243305,-0.09195861,0.95565736,0.27975464,,0.10499337,1.3398868,0.44091198,0.99400276,0.014146988,-0.10843588,-0.061483014,-0.74772996,-0.66115034,-0.090434045,0.6638522,-0.74237585,,NaN,NaN,NaN,NaN,NaN,NaN,NaN,NaN,NaN,NaN,NaN,NaN,,-0.018040288,0.40839708,-0.3432746,0.69883275,0.16811451,-0.69524837,0.39922667,0.7148335,0.5741351,0.5935073,-0.6787861,0.43243325,,NaN,NaN,NaN,NaN,NaN,NaN,NaN,,-0.8429594614202279,-0.18716043120683098,0.19729274542000003,-3.7532402984295015,-0.10370710332196931,1.3902825287926115,0.8751975063474682,,-0.06789112624101443,-0.050775991263645036,0.08427136484,-0.06737965366399314,,7.53738e-05,1.0848045e-05,-1.2993813e-05,1.0,-5.5789948e-05,-4.9889088e-05,5.5782497e-05,0.99999994,-6.7949295e-06,4.9889088e-05,6.7949295e-06,1.0,666,2.099,0,2,1.563,False,-0.25719703829021734,1.0501909101696396
2.069758648984134,11:18:11.977911,11:18:03.517946,0,,NaN,NaN,NaN,NaN,NaN,NaN,NaN,NaN,NaN,NaN,NaN,NaN,,0.04408053,-0.006873004,0.014844298,-0.7331019,-0.2552027,0.63042295,0.6738256,-0.1467345,0.7241739,-0.092306435,0.9556886,0.27953342,,0.10499337,1.3398868,0.44091198,0.99400276,0.014146988,-0.10843588,-0.061483014,-0.74772996,-0.66115034,-0.090434045,0.6638522,-0.74237585,,NaN,NaN,NaN,NaN,NaN,NaN,NaN,NaN,NaN,NaN,NaN,NaN,,-0.017974814,0.4084339,-0.34338763,0.69855636,0.16824755,-0.6954939,0.39907184,0.7151613,0.5738344,0.59393656,-0.6784077,0.43243766,,NaN,NaN,NaN,NaN,NaN,NaN,NaN,,-0.8427818385641207,-0.18738439046018351,0.19716830158,-3.753030608486017,-0.10329719382267298,1.3902749900420845,0.8755241944797366,,-0.06789112624101443,-0.050775991263645036,0.08427136484,-0.06737965366399314,,7.53738e-05,1.0848045e-05,-1.2993813e-05,1.0,-5.5789948e-05,-4.9889088e-05,5.5782497e-05,0.99999994,-6.7949295e-06,4.9889088e-05,6.7949295e-06,1.0,684,2.157,0,2,1.563,False,-0.25302659799374494,1.0502874705711984
2.1436617159633897,11:18:12.033537,11:18:03.600682,0,,NaN,NaN,NaN,NaN,NaN,NaN,NaN,NaN,NaN,NaN,NaN,NaN,,0.043989833,-0.006825663,0.0148483515,-0.7368954,-0.25133657,0.62754685,0.6708994,-0.15800837,0.72451866,-0.0829404,0.9549153,0.28505725,,0.10499337,1.3398868,0.44091198,0.99400276,0.014146988,-0.10843588,-0.061483014,-0.74772996,-0.66115034,-0.090434045,0.6638522,-0.74237585,,NaN,NaN,NaN,NaN,NaN,NaN,NaN,NaN,NaN,NaN,NaN,NaN,,-0.017887836,0.40847495,-0.34335247,0.70157504,0.16513222,-0.69319826,0.4053646,0.7075657,0.57881796,0.5860648,-0.6870823,0.4294717,,NaN,NaN,NaN,NaN,NaN,NaN,NaN,,-0.8427046112353785,-0.18743844959030306,0.19714496836,-3.753030608486017,-0.11381820430461188,1.3963221276823516,0.8753608504136025,,-0.06789112624101443,-0.050775991263645036,0.08427136484,-0.06737965366399314,,7.53738e-05,1.0848045e-05,-1.2993813e-05,1.0,-5.5789948e-05,-4.9889088e-05,5.5782497e-05,0.99999994,-6.7949295e-06,4.9889088e-05,6.7949295e-06,1.0,698,2.202,0,2,1.563,False,-0.2417068314747488,1.0506254319766548
2.1992742079892196,11:18:12.085833,11:18:03.600682,0,,NaN,NaN,NaN,NaN,NaN,NaN,NaN,NaN,NaN,NaN,NaN,NaN,,0.043773916,-0.00682012,0.0147663355,-0.7460866,-0.24023238,0.62100166,0.66212994,-0.16924584,0.7300272,-0.07027426,0.95584744,0.28533712,,0.10499337,1.3398868,0.44091198,0.99400276,0.014146988,-0.10843588,-0.061483014,-0.74772996,-0.66115034,-0.090434045,0.6638522,-0.74237585,,NaN,NaN,NaN,NaN,NaN,NaN,NaN,NaN,NaN,NaN,NaN,NaN,,-0.017665593,0.40843642,-0.34330243,0.7099695,0.15465644,-0.6870405,0.4115461,0.7005474,0.58297783,0.5714657,-0.6966454,0.43371904,,NaN,NaN,NaN,NaN,NaN,NaN,NaN,,-0.842001842543824,-0.1878245862340143,0.19714237578000002,-3.758692236960099,-0.1307611302755265,1.39878460286117,0.8765042588765427,,-0.06789112624101443,-0.050775991263645036,0.08427136484,-0.06737965366399314,,7.53738e-05,1.0848045e-05,-1.2993813e-05,1.0,-5.5789948e-05,-4.9889088e-05,5.5782497e-05,0.99999994,-6.7949295e-06,4.9889088e-05,6.7949295e-06,1.0,730,2.304,0,2,1.563,False,-0.23562990418560403,1.0507219923782136
2.2515871499781497,11:18:12.182509,11:18:03.698715,0,,0.123622335,0.0085972175,0.027862132,-0.341832,-0.5618322,-0.753323,-0.44173217,-0.6114749,0.6564839,-0.82947177,0.55717427,-0.03915775,,0.043072432,-0.0071238503,0.014353871,-0.75370306,-0.23541354,0.61360574,0.65320194,-0.16530776,0.7389184,-0.07251763,0.95773375,0.27836555,,0.10499337,1.3398868,0.44091198,0.99400276,0.014146988,-0.10843588,-0.061483014,-0.74772996,-0.66115034,-0.090434045,0.6638522,-0.74237585,,-0.10072531,0.26009402,-0.09222975,0.38325992,0.50619173,0.7725812,-0.87946755,-0.055583958,0.47270215,0.28222105,-0.8606279,0.4238761,,-0.01691069,0.408007,-0.3433164,0.71827114,0.14945686,-0.67952126,0.40542468,0.70380586,0.58334225,0.5654355,-0.69449264,0.44492996,,1.202460399448253,0.539123981949613,0.19842181401000003,-0.0998124130986336,0.3455537079067989,1.1462952141693403,1.4874110662187467,,-0.8375535484082708,-0.18872814598029858,0.19714107949,-3.7700154939082635,-0.1321274952731809,1.3980201708749012,0.8760142266781394,,-0.06789112624101443,-0.050775991263645036,0.08427136484,-0.06737965366399314,,7.53738e-05,1.0848045e-05,-1.2993813e-05,1.0,-5.5789948e-05,-4.9889088e-05,5.5782497e-05,0.99999994,-6.7949295e-06,4.9889088e-05,6.7949295e-06,1.0,739,2.333,0,2,1.563,False,-0.22651451325188576,1.0507702725789931
2.3482193969539367,11:18:12.212151,11:18:03.698715,0,,0.123608366,0.008624218,0.027897358,-0.33442703,-0.5669883,-0.7527835,-0.4404419,-0.6121434,0.65672773,-0.83316827,0.55118483,-0.045008153,,0.04247272,-0.0073080137,0.014114618,-0.75759846,-0.23283386,0.60978097,0.64852214,-0.16271406,0.74360144,-0.07391569,0.95880795,0.27426985,,0.10499337,1.3398868,0.44091198,0.99400276,0.014146988,-0.10843588,-0.061483014,-0.74772996,-0.66115034,-0.090434045,0.6638522,-0.74237585,,-0.10071294,0.2601381,-0.09223808,0.37615514,0.51171154,0.7724368,-0.88121516,-0.06002175,0.4688894,0.2862991,-0.85705817,0.42835045,,-0.016280789,0.40777516,-0.343333,0.7225482,0.14663906,-0.67558944,0.40202573,0.70588356,0.5831841,0.56240505,-0.692983,0.4510822,,1.20249129037975,0.5391008137509904,0.19842440659000002,-0.10736125106407647,0.3500627123990584,1.1400047036628607,1.4815306798379124,,-0.8340319822176244,-0.18900616436377066,0.19705682064000002,-3.77588681232583,-0.1317175857738846,1.3980126321243742,0.8766676029426765,,-0.06789112624101443,-0.050775991263645036,0.08427136484,-0.06737965366399314,,7.53738e-05,1.0848045e-05,-1.2993813e-05,1.0,-5.5789948e-05,-4.9889088e-05,5.5782497e-05,0.99999994,-6.7949295e-06,4.9889088e-05,6.7949295e-06,1.0,753,2.378,0,2,1.563,False,-0.21364572605134224,1.0512047943860081
2.377905170957092,11:18:12.255546,11:18:03.698715,0,,0.123477116,0.008700736,0.027815834,-0.31301564,-0.5796712,-0.75233144,-0.43652713,-0.61569875,0.65601754,-0.8434839,0.5337569,-0.060318947,,0.04125277,-0.007579826,0.01383841,-0.7639066,-0.22772512,0.60381114,0.64081264,-0.15720707,0.7514287,-0.076195836,0.96095127,0.2660207,,0.105025776,1.3398876,0.44090426,0.9939996,0.014108114,-0.10847025,-0.06153469,-0.74773073,-0.6611447,-0.090434045,0.6638522,-0.74237585,,-0.10060047,0.26015058,-0.09213482,0.35556844,0.5253809,0.77301097,-0.8858925,-0.074195206,0.45791867,0.29793546,-0.8476261,0.43904954,,-0.015054982,0.4075372,-0.34340882,0.72951794,0.14103939,-0.6692619,0.396407,0.7102171,0.58176726,0.55737334,-0.6897097,0.46220714,,1.2025067358454984,0.5382358676690772,0.1985397764,-0.12916900518646698,0.36372636237560246,1.1242072251052062,1.462419424100202,,-0.8271124135623192,-0.18906022349389023,0.19670293347,-3.785322859782634,-0.12994131127693384,1.3970542718171641,0.8763409148104082,,-0.06789112624101443,-0.050775991263645036,0.08427136484,-0.06737965366399314,,0.00010823086,5.6028366e-06,-1.13248825e-05,1.0,-9.4383955e-05,-8.440018e-05,9.4376504e-05,1.0,-1.1533499e-05,8.440018e-05,1.1503696e-05,1.0,762,2.407,0,2,1.563,False,-0.212632904836485,1.0510116735828905
2.421276852954179,11:18:12.285749,11:18:03.698715,0,,0.123113826,0.00873176,0.027236775,-0.2742775,-0.60326034,-0.74889845,-0.44146165,-0.61286837,0.65536547,-0.85433215,0.510362,-0.09822038,,0.0404999,-0.0077391043,0.013740897,-0.7674755,-0.2256091,0.6000682,0.63631535,-0.15419713,0.7558611,-0.07800037,0.9619376,0.26190108,,0.105025776,1.3398876,0.44090426,0.9939996,0.014108114,-0.10847025,-0.06153469,-0.74773073,-0.6611447,-0.090434045,0.6638522,-0.74237585,,-0.10019895,0.25978833,-0.091715515,0.3175078,0.55053616,0.7720743,-0.89782286,-0.08745911,0.43158433,0.3051277,-0.83021736,0.466515,,-0.014288252,0.40745142,-0.34348932,0.7334997,0.138667,-0.66539437,0.39274862,0.7125178,0.58143526,0.5547312,-0.6878153,0.46817032,,1.2026920814344797,0.5352857837111235,0.19901032967,-0.17194575365730996,0.37534046485566486,1.0868025741629384,1.4183165262439466,,-0.8231892652622131,-0.18889032337065728,0.19643978660000003,-3.790984488256716,-0.1283016732797486,1.397024116815056,0.8753608504136026,,-0.06789112624101443,-0.050775991263645036,0.08427136484,-0.06737965366399314,,0.00010823086,5.6028366e-06,-1.13248825e-05,1.0,-9.4383955e-05,-8.440018e-05,9.4376504e-05,1.0,-1.1533499e-05,8.440018e-05,1.1503696e-05,1.0,776,2.452,0,2,1.563,False,-0.20387498021389305,1.0509151131813312
2.451499259972479,11:18:12.335015,11:18:03.698715,0,,0.12238489,0.008505397,0.02619809,-0.22662032,-0.6423973,-0.732099,-0.45293814,-0.5959247,0.6631144,-0.8622588,0.48187083,-0.15591767,,0.03959164,-0.007910289,0.013665259,-0.7743987,-0.22272573,0.5921992,0.6274357,-0.14987415,0.7641088,-0.08143136,0.96329176,0.2558084,,0.105025776,1.3398876,0.44090426,0.9939996,0.014108114,-0.10847025,-0.06153469,-0.74773073,-0.6611447,-0.090434045,0.6638522,-0.74237585,,-0.09940966,0.25893378,-0.091160335,0.27017215,0.5919369,0.75935346,-0.91277635,-0.093470015,0.3976213,0.3063435,-0.8005461,0.51505303,,-0.013368612,0.40739408,-0.34359387,0.7412259,0.13542055,-0.6574538,0.38561788,0.7157894,0.5821893,0.54943883,-0.6850597,0.47834104,,1.2032249500028014,0.5294087839938386,0.19963384516000002,-0.22625544901980177,0.38353865484159133,1.0214721645202292,1.3523255235256975,,-0.8186019619349238,-0.18855824585706563,0.19609367717,-3.8023077452048804,-0.12693530828209418,1.3965633676992162,0.8760142266781396,,-0.06789112624101443,-0.050775991263645036,0.08427136484,-0.06737965366399314,,0.00010823086,5.6028366e-06,-1.13248825e-05,1.0,-9.4383955e-05,-8.440018e-05,9.4376504e-05,1.0,-1.1533499e-05,8.440018e-05,1.1503696e-05,1.0,785,2.48,0,2,1.563,False,-0.2158501016366201,1.0510116735828905
2.5007595219649374,11:18:12.363342,11:18:03.892854,0,,0.12167129,0.0081811845,0.025194272,-0.1926808,-0.67192984,-0.71511155,-0.46116406,-0.5812619,0.67041945,-0.8661419,0.45896077,-0.19787192,,0.038998846,-0.008003823,0.013698101,-0.7809185,-0.22101153,0.58422613,0.61882496,-0.14648974,0.7717489,-0.08498232,0.9642068,0.25116402,,0.105025776,1.3398876,0.44090426,0.9939996,0.014108114,-0.10847025,-0.06153469,-0.74773073,-0.6611447,-0.090434045,0.6638522,-0.74237585,,-0.09864076,0.25803086,-0.09069612,0.23634362,0.6233243,0.74539155,-0.9222662,-0.09758962,0.3740339,0.3058869,-0.77584994,0.5518062,,-0.012777503,0.40743354,-0.34369516,0.74854755,0.13343282,-0.64951694,0.3785005,0.71829504,0.5837719,0.54443914,-0.6828235,0.4871736,,1.2037887095026196,0.5234545569478115,0.20016921293,-0.2652577785079233,0.3894140243315053,0.9698792765607409,1.2871512411381205,,-0.8158372235659515,-0.18819527741197709,0.19580071563,-3.81342131220956,-0.12625212578326697,1.3960879569208746,0.8758508826120053,,-0.06789112624101443,-0.050775991263645036,0.08427136484,-0.06737965366399314,,0.00010823086,5.6028366e-06,-1.13248825e-05,1.0,-9.4383955e-05,-8.440018e-05,9.4376504e-05,1.0,-1.1533499e-05,8.440018e-05,1.1503696e-05,1.0,808,2.554,0,2,1.563,False,-0.2177565886292938,1.0503840309727575
2.5290874969796278,11:18:12.435103,11:18:03.985466,0,,0.119869724,0.007332459,0.022721872,-0.115734465,-0.7326115,-0.6707354,-0.47237957,-0.5534247,0.68598723,-0.8737637,0.39623407,-0.28202045,,0.03777212,-0.0080995485,0.013781071,-0.796907,-0.21877615,0.5630952,0.59657735,-0.13834369,0.7905419,-0.09505108,0.9659183,0.24076393,,0.105025776,1.3398876,0.44090426,0.9939996,0.014108114,-0.10847025,-0.06153469,-0.74773073,-0.6611447,-0.090434045,0.6638522,-0.74237585,,-0.09670451,0.25577125,-0.08958986,0.15978202,0.688787,0.7071366,-0.9375299,-0.11837697,0.32714605,0.30904263,-0.71523374,0.6268439,,-0.01156136,0.40758395,-0.34383398,0.7667012,0.13057493,-0.6285853,0.35929254,0.7241439,0.5886633,0.53205085,-0.67717487,0.50828743,,1.2053023651459678,0.5085882961649293,0.20149661389,-0.353117864827939,0.40731340580077796,0.8545736445831964,1.1040425430015932,,-0.8102073513006418,-0.18686696735761046,0.19520442223,-3.84214883446694,-0.12379266878748904,1.3951442582761664,0.8760142266781397,,-0.06789112624101443,-0.050775991263645036,0.08427136484,-0.06737965366399314,,0.00010823086,5.6028366e-06,-1.13248825e-05,1.0,-9.4383955e-05,-8.440018e-05,9.4376504e-05,1.0,-1.1533499e-05,8.440018e-05,1.1503696e-05,1.0,817,2.583,0,2,1.563,False,-0.12839001084774404,1.0508668329805522
2.600849855982233,11:18:12.465826,11:18:03.985466,0,,0.11903195,0.0070192814,0.021582022,-0.07959871,-0.75834,-0.64698124,-0.47521698,-0.54167074,0.69336975,-0.87626076,0.36264783,-0.31725976,,0.037214078,-0.008112811,0.013767898,-0.802189,-0.21748918,0.5560497,0.5889697,-0.13535574,0.79673934,-0.09801763,0.966632,0.23667541,,0.105025776,1.3398876,0.44090426,0.9939996,0.014108114,-0.10847025,-0.06153469,-0.74773073,-0.6611447,-0.090434045,0.6638522,-0.74237585,,-0.095802456,0.2547869,-0.08902721,0.12382443,0.7170034,0.6859837,-0.94218165,-0.13198009,0.3080179,0.31138608,-0.6844614,0.6592051,,-0.011004887,0.40762886,-0.3438429,0.7726781,0.1290542,-0.6215413,0.35308787,0.7263057,0.5897533,0.52753913,-0.6751481,0.51563305,,1.2061673112278808,0.5021243687492034,0.20217198098000003,-0.3944267836943903,0.41551159578670444,0.8002698648594634,0.9996656847417891,,-0.8075198402604117,-0.18614103046743335,0.19498664551000003,-3.8515848819237437,-0.12256294028960008,1.394631569583742,0.8760142266781394,,-0.06789112624101443,-0.050775991263645036,0.08427136484,-0.06737965366399314,,0.00010823086,5.6028366e-06,-1.13248825e-05,1.0,-9.4383955e-05,-8.440018e-05,9.4376504e-05,1.0,-1.1533499e-05,8.440018e-05,1.1503696e-05,1.0,831,2.628,0,2,1.563,False,-0.05344124094828384,1.0510116735828905
2.631562781985849,11:18:12.506110,11:18:03.985466,0,,0.11792071,0.0066706315,0.020101026,-0.03200552,-0.78864217,-0.6140189,-0.47729152,-0.52770126,0.70265496,-0.8781619,0.3155549,-0.35952294,,0.036408953,-0.00814148,0.013672888,-0.8080155,-0.21504088,0.54851466,0.58057743,-0.13228041,0.80338764,-0.10020344,0.967605,0.23173246,,0.105025776,1.3398876,0.44090426,0.9939996,0.014108114,-0.10847025,-0.06153469,-0.74773073,-0.6611447,-0.090434045,0.6638522,-0.74237585,,-0.09460608,0.25355121,-0.08825812,0.076421395,0.7507377,0.6561651,-0.9461465,-0.15303378,0.285285,0.31458962,-0.64263016,0.6986128,,-0.010194015,0.40762675,-0.34381923,0.7791645,0.12634924,-0.61395323,0.34712029,0.7285959,0.5904706,0.5219293,-0.67318934,0.5238377,,1.2075033440151217,0.49403866742989033,0.20309493946,-0.44915585894385124,0.4253494237698161,0.7293551458850881,0.8487357676337149,,-0.803442237302821,-0.1852143025225264,0.19474164670000002,-3.861440309267516,-0.12133321179171111,1.394282238371599,0.8760142266781397,,-0.06789112624101443,-0.050775991263645036,0.08427136484,-0.06737965366399314,,0.00010823086,5.6028366e-06,-1.13248825e-05,1.0,-9.4383955e-05,-8.440018e-05,9.4376504e-05,1.0,-1.1533499e-05,8.440018e-05,1.1503696e-05,1.0,840,2.656,0,2,1.563,False,0.057849937249006,1.0507702725789931
2.6718394279596396,11:18:12.539351,11:18:04.070245,0,,0.11699842,0.006402001,0.0189168,0.0035548136,-0.8089927,-0.5878081,-0.47557604,-0.5184498,0.7106596,-0.87966734,0.27702126,-0.38658068,,0.035525758,-0.008233853,0.013529301,-0.8134977,-0.21181087,0.541625,0.57275856,-0.13030562,0.809301,-0.10084203,0.9685849,0.2273198,,0.105025776,1.3398876,0.44090426,0.9939996,0.014108114,-0.10847025,-0.06153469,-0.74773073,-0.6611447,-0.090434045,0.6638522,-0.74237585,,-0.0936155,0.2525714,-0.08763851,0.04110155,0.7738461,0.63203865,-0.94677365,-0.17196512,0.2721169,0.31926522,-0.609582,0.7255891,,-0.009297146,0.4075574,-0.3438199,0.785124,0.12293037,-0.607016,0.3426947,0.7301653,0.5911167,0.5158882,-0.6721211,0.5311427,,1.2087467040078719,0.4875438490826675,0.20385456540000002,-0.4904647778103025,0.43491397875339693,0.6756524406673428,0.7245942773716628,,-0.7988317657769091,-0.1845733156939658,0.19450053676,-3.8700375969503815,-0.12105993879218024,1.394794511225471,0.876177570744274,,-0.06789112624101443,-0.050775991263645036,0.08427136484,-0.06737965366399314,,0.00010823086,5.6028366e-06,-1.13248825e-05,1.0,-9.4383955e-05,-8.440018e-05,9.4376504e-05,1.0,-1.1533499e-05,8.440018e-05,1.1503696e-05,1.0,854,2.702,0,2,1.563,False,0.17855439497261916,1.0508185527797727
2.7051043459796347,11:18:12.579479,11:18:04.070245,0,,0.11557835,0.005894065,0.01718466,0.04975284,-0.83408946,-0.549381,-0.47231326,-0.5043178,0.72289944,-0.8800255,0.22351366,-0.4190428,,0.034696013,-0.0083947405,0.0134292245,-0.8188385,-0.2083432,0.53488,0.56504285,-0.12836307,0.8150151,-0.10114403,0.96959585,0.2228314,,0.105025776,1.3398876,0.44090426,0.9939996,0.014108114,-0.10847025,-0.06153469,-0.74773073,-0.6611447,-0.090434045,0.6638522,-0.74237585,,-0.09209903,0.25105566,-0.08681524,-0.004860285,0.8028172,0.5962054,-0.9457441,-0.19738774,0.25808167,0.32487604,-0.5626034,0.76021904,,-0.008453705,0.40747738,-0.34390098,0.7909041,0.11927415,-0.6002036,0.33858442,0.7317141,0.59156996,0.5097365,-0.6710947,0.5383314,,1.2107391690894218,0.4776355828050375,0.2049045603,-0.5454035430032479,0.4472112637322866,0.6007719096630584,0.5583100180469666,,-0.7945224808330917,-0.18434935644061326,0.19423220473000002,-3.878425194689762,-0.12146984829147656,1.3952104436767008,0.8763409148104082,,-0.06789112624101443,-0.050775991263645036,0.08427136484,-0.06737965366399314,,0.00010823086,5.6028366e-06,-1.13248825e-05,1.0,-9.4383955e-05,-8.440018e-05,9.4376504e-05,1.0,-1.1533499e-05,8.440018e-05,1.1503696e-05,1.0,863,2.73,0,2,1.563,False,0.36717745181021044,1.0507219923782136
2.745231667999178,11:18:12.608257,11:18:04.070245,0,,0.11435205,0.0052604973,0.015680239,0.07252673,-0.8480971,-0.5248537,-0.4775293,-0.4915291,0.7282615,-0.87561727,0.19781458,-0.44064024,,0.034122963,-0.00854557,0.013417661,-0.8226132,-0.2062859,0.529862,0.5593361,-0.12603623,0.8193034,-0.10222897,0.97034067,0.21906221,,0.105025776,1.3398876,0.44090426,0.9939996,0.014108114,-0.10847025,-0.06153469,-0.74773073,-0.6611447,-0.090434045,0.6638522,-0.74237585,,-0.09079444,0.24959804,-0.086230546,-0.028014813,0.81885105,0.57332206,-0.94711995,-0.20515288,0.24673091,0.31965452,-0.5360926,0.78129745,,-0.007874556,0.40744558,-0.34402284,0.79508936,0.11702313,-0.5950954,0.3348292,0.7334307,0.59158164,0.50569,-0.66961557,0.54396015,,1.2125540113148645,0.46866948993806284,0.20567974172000003,-0.5745504451475968,0.44748453673181743,0.555135694337513,0.4478894293401936,,-0.7916187332723834,-0.18434163370773904,0.19398850221000002,-3.884925582937783,-0.12119657529194568,1.394987607869308,0.8763409148104082,,-0.06789112624101443,-0.050775991263645036,0.08427136484,-0.06737965366399314,,0.00010823086,5.6028366e-06,-1.13248825e-05,1.0,-9.4383955e-05,-8.440018e-05,9.4376504e-05,1.0,-1.1533499e-05,8.440018e-05,1.1503696e-05,1.0,877,2.775,0,2,1.563,False,0.4359301389834829,1.0505288715750958
2.7740017009782605,11:18:12.658033,11:18:04.176755,0,,0.11263442,0.00420291,0.013830885,0.09683229,-0.8602121,-0.50065833,-0.47756237,-0.4814915,0.73491496,-0.87324536,0.16793215,-0.45742893,,0.033466034,-0.008727737,0.013453662,-0.82757974,-0.20440212,0.52281123,0.55151474,-0.12250373,0.82512075,-0.104610085,0.97119135,0.2141124,,0.105025776,1.3398876,0.44090426,0.9939996,0.014108114,-0.10847025,-0.06153469,-0.74773073,-0.6611447,-0.090434045,0.6638522,-0.74237585,,-0.08898905,0.24760702,-0.08571554,-0.05241511,0.8331957,0.55048853,-0.9461195,-0.21782458,0.2396045,0.31954736,-0.5082691,0.79972,,-0.0072149253,0.40744343,-0.34419867,0.8007077,0.1148647,-0.58793986,0.3289374,0.735951,0.59175694,0.5006669,-0.66721976,0.55149835,,1.2150021176359938,0.4559655943599635,0.20651584877,-0.607052386387698,0.455409453718213,0.5064455472704498,0.28209520221390005,,-0.7883751854652091,-0.1843261882419906,0.19366442971000003,-3.894151940451102,-0.12037675629335302,1.39440077918727,0.8761775707442739,,-0.06789112624101443,-0.050775991263645036,0.08427136484,-0.06737965366399314,,0.00010823086,5.6028366e-06,-1.13248825e-05,1.0,-9.4383955e-05,-8.440018e-05,9.4376504e-05,1.0,-1.1533499e-05,8.440018e-05,1.1503696e-05,1.0,886,2.804,0,2,1.563,False,0.4537438768212718,1.050335750771978
2.823787881003227,11:18:12.680407,11:18:04.176755,0,,0.11180647,0.0037191883,0.013029724,0.11002831,-0.86199385,-0.49483383,-0.47144404,-0.4835496,0.7375094,-0.87500525,0.15213954,-0.45958602,,0.03299839,-0.00883574,0.013533294,-0.83127034,-0.20299824,0.5174759,0.54568344,-0.12062177,0.8292647,-0.105920434,0.97172123,0.21104208,,0.105025776,1.3398876,0.44090426,0.9939996,0.014108114,-0.10847025,-0.06153469,-0.74773073,-0.6611447,-0.090434045,0.6638522,-0.74237585,,-0.08812402,0.2467278,-0.08551549,-0.06528669,0.8359585,0.5448954,-0.943152,-0.23002884,0.23989794,0.32588637,-0.49825707,0.80345374,,-0.0067519187,0.40749815,-0.3443377,0.8048388,0.11330956,-0.5825766,0.32491857,0.73731023,0.592285,0.49665126,-0.66598386,0.5565995,,1.2161528048342531,0.45002681277968487,0.20689825432000003,-0.624666341640398,0.4655205547008556,0.4883991735800471,0.19813635222088066,,-0.7862205429933005,-0.18418717905025456,0.19339091252,-3.900862018642606,-0.12024011979358759,1.3942893612835734,0.8758508826120056,,-0.06789112624101443,-0.050775991263645036,0.08427136484,-0.06737965366399314,,0.00010823086,5.6028366e-06,-1.13248825e-05,1.0,-9.4383955e-05,-8.440018e-05,9.4376504e-05,1.0,-1.1533499e-05,8.440018e-05,1.1503696e-05,1.0,909,2.878,0,2,1.563,False,0.5011677407640143,1.050432311173537
2.8461568289785646,11:18:12.757978,11:18:04.263884,0,,0.11054568,0.0032403395,0.011823028,0.14293675,-0.86915296,-0.4734367,-0.46542886,-0.48118448,0.7428576,-0.8734672,0.11416948,-0.4733079,,0.031885207,-0.009023063,0.013741434,-0.8408919,-0.20020646,0.5028103,0.5299045,-0.115727186,0.8401241,-0.11000949,0.972895,0.20340428,,0.105025776,1.3398876,0.44090426,0.9939996,0.014108114,-0.10847025,-0.06153469,-0.74773073,-0.6611447,-0.090434045,0.6638522,-0.74237585,,-0.08680032,0.24558681,-0.08504533,-0.09804056,0.8456768,0.524613,-0.93849456,-0.25394252,0.23396821,0.33108303,-0.4694081,0.81855977,,-0.0056555863,0.40768364,-0.34462273,0.8157076,0.110138886,-0.5678824,0.31356406,0.74077785,0.5940755,0.48610556,-0.66265947,0.5697226,,1.2184155655664008,0.44242764363144793,0.20760602866000002,-0.6661849504503339,0.47344547168725115,0.4415876375362169,0.04671640291440382,,-0.7811698756935576,-0.18345351942720323,0.19274017494,-3.91910504372576,-0.11942030079499495,1.3938658900818166,0.8760142266781396,,-0.06789112624101443,-0.050775991263645036,0.08427136484,-0.06737965366399314,,0.00010823086,5.6028366e-06,-1.13248825e-05,1.0,-9.4383955e-05,-8.440018e-05,9.4376504e-05,1.0,-1.1533499e-05,8.440018e-05,1.1503696e-05,1.0,932,2.951,0,2,1.563,False,0.5756994666338269,1.0499977893665218
2.923730551963672,11:18:12.829204,11:18:04.352083,0,,0.10915099,0.0027128384,0.010783285,0.1700231,-0.8719969,-0.4590357,-0.45515668,-0.4826434,0.7482564,-0.8740277,0.08171229,-0.4789558,,0.030645572,-0.00917197,0.013865173,-0.8513739,-0.19892134,0.485379,0.5113649,-0.10850394,0.85248625,-0.116912216,0.9739904,0.19409877,,0.105025776,1.3398876,0.44090426,0.9939996,0.014108114,-0.10847025,-0.06153469,-0.74773073,-0.6611447,-0.090434045,0.6638522,-0.74237585,,-0.08535549,0.24452698,-0.08473926,-0.124727696,0.8506178,0.5107762,-0.93200374,-0.2770141,0.23373534,0.34031165,-0.44689205,0.82733035,,-0.0044275587,0.40783763,-0.34482867,0.82786644,0.10833868,-0.5503634,0.2984364,0.7457024,0.5957043,0.47494516,-0.6574121,0.58500975,,1.2214119859216,0.4346431288942296,0.20817898884000002,-0.7026710006166411,0.4851962106670791,0.40341813876912797,-0.04459293005465814,,-0.775231094113279,-0.18227966403032111,0.19212832606000002,-3.940912797848151,-0.1158677518010935,1.3928476356089428,0.8758508826120053,,-0.06789112624101443,-0.050775991263645036,0.08427136484,-0.06737965366399314,,0.00010823086,5.6028366e-06,-1.13248825e-05,1.0,-9.4383955e-05,-8.440018e-05,9.4376504e-05,1.0,-1.1533499e-05,8.440018e-05,1.1503696e-05,1.0,955,3.025,0,2,1.563,False,0.604832970990612,1.0503840309727575
2.9949587659793906,11:18:12.906589,11:18:04.450573,0,,0.10655545,0.0011815354,0.009134278,0.19832556,-0.8705505,-0.4503431,-0.44516858,-0.48935008,0.7499075,-0.8732078,0.051752806,-0.48459247,,0.029411718,-0.00921952,0.013927221,-0.8612807,-0.19572526,0.4689213,0.4938764,-0.10540837,0.8631195,-0.11950606,0.9749774,0.18745029,,0.105025776,1.3398876,0.44090426,0.9939996,0.014108114,-0.10847025,-0.06153469,-0.74773073,-0.6611447,-0.090434045,0.6638522,-0.74237585,,-0.08270117,0.2423463,-0.084752105,-0.15272716,0.8509655,0.50252575,-0.9248118,-0.3023366,0.23090191,0.34842148,-0.42947677,0.83315796,,-0.0032050572,0.40799987,-0.34491622,0.83897054,0.10488826,-0.53397274,0.28733018,0.7479308,0.5983652,0.46213615,-0.65543723,0.59735435,,1.2267329488719407,0.41893509022805697,0.20870657887000002,-0.7458671289744532,0.4994064066426849,0.3629164027749411,-0.07203473316521714,,-0.7693463716631199,-0.18072739472260196,0.19160462490000002,-3.9599945827052423,-0.11545784230179718,1.3936568842598211,0.8758508826120052,,-0.06789112624101443,-0.050775991263645036,0.08427136484,-0.06737965366399314,,0.00010823086,5.6028366e-06,-1.13248825e-05,1.0,-9.4383955e-05,-8.440018e-05,9.4376504e-05,1.0,-1.1533499e-05,8.440018e-05,1.1503696e-05,1.0,964,3.054,0,2,1.563,False,0.6502311925036395,1.0502874705711984
3.072307350987103,11:18:12.937190,11:18:04.450573,0,,0.105507165,0.0005127564,0.008476898,0.20872006,-0.8704723,-0.44577342,-0.44357812,-0.49049228,0.7501037,-0.871593,0.041173667,-0.4884981,,0.029142532,-0.009182207,0.013952255,-0.8618281,-0.19447222,0.4684367,0.49320173,-0.105835736,0.8634528,-0.118340254,0.97518176,0.18712622,,0.105025776,1.3398876,0.44090426,0.9939996,0.014108114,-0.10847025,-0.06153469,-0.74773073,-0.6611447,-0.090434045,0.6638522,-0.74237585,,-0.08163114,0.24143457,-0.08479777,-0.16315629,0.8515545,0.49823177,-0.92279977,-0.3103695,0.22827922,0.34902814,-0.42252296,0.836453,,-0.0029422273,0.40807223,-0.3449033,0.83943886,0.1036479,-0.5334787,0.28794205,0.7477062,0.5983518,0.4609032,-0.6558907,0.597809,,1.2288644231452266,0.41253294467532486,0.20888805947000003,-0.7620132546227615,0.5021391366379937,0.34623090769613313,-0.06076399260195198,,-0.7681261798689925,-0.18015591248990936,0.19149055138,-3.9602042726487268,-0.11559447880156261,1.3938499809036582,0.8756875385458709,,-0.06789112624101443,-0.050775991263645036,0.08427136484,-0.06737965366399314,,0.00010823086,5.6028366e-06,-1.13248825e-05,1.0,-9.4383955e-05,-8.440018e-05,9.4376504e-05,1.0,-1.1533499e-05,8.440018e-05,1.1503696e-05,1.0,978,3.099,0,2,1.563,False,0.6691769069933282,1.0506254319766548
3.102941781980917,11:18:12.975091,11:18:04.450573,0,,0.1045437,-7.63908e-05,0.007895425,0.21705219,-0.87068135,-0.44136435,-0.44146964,-0.49081767,0.75113416,-0.8706278,0.03181365,-0.4909125,,0.028932322,-0.009116553,0.013973236,-0.8625103,-0.19362736,0.46753,0.492139,-0.10590032,0.8640511,-0.1177924,0.97534287,0.18663165,,0.105025776,1.3398876,0.44090426,0.9939996,0.014108114,-0.10847025,-0.06153469,-0.74773073,-0.6611447,-0.090434045,0.6638522,-0.74237585,,-0.08064847,0.24063075,-0.084839,-0.1714707,0.8523726,0.49402303,-0.9208,-0.31696776,0.22728577,0.35032153,-0.41592354,0.8392154,,-0.0027392132,0.40815097,-0.34486428,0.8401242,0.10279645,-0.5325638,0.2878456,0.7477031,0.5984021,0.45971322,-0.6560282,0.5985739,,1.230903224624022,0.4067717859511534,0.20906176233,-0.7756431009492556,0.5052817761325988,0.33092641244918775,-0.04050932840130128,,-0.7672071746569596,-0.1795072029284745,0.19140758882000003,-3.961043032422665,-0.11545784230179718,1.3937385629999617,0.8756875385458709,,-0.06789112624101443,-0.050775991263645036,0.08427136484,-0.06737965366399314,,0.00010823086,5.6028366e-06,-1.13248825e-05,1.0,-9.4383955e-05,-8.440018e-05,9.4376504e-05,1.0,-1.1533499e-05,8.440018e-05,1.1503696e-05,1.0,987,3.128,0,2,1.563,False,0.6828797822531656,1.050432311173537
3.140828283969313,11:18:13.007149,11:18:04.534337,0,,0.103264704,-0.0007601008,0.007172808,0.23011217,-0.87095636,-0.43414685,-0.4369945,-0.49108952,0.75356936,-0.86953104,0.016314298,-0.4936089,,0.028847449,-0.009070374,0.01398766,-0.86201453,-0.19314754,0.46864155,0.49320453,-0.106266886,0.86339825,-0.116962224,0.97539806,0.18686485,,0.105025776,1.3398876,0.44090426,0.9939996,0.014108114,-0.10847025,-0.06153469,-0.74773073,-0.6611447,-0.090434045,0.6638522,-0.74237585,,-0.07934445,0.23966928,-0.08486286,-0.18444216,0.853664,0.48707172,-0.9170908,-0.32770008,0.22706212,0.3534482,-0.40480915,0.8433291,,-0.0026589658,0.40819898,-0.34483603,0.8394888,0.10233544,-0.53365344,0.28907695,0.74748087,0.598086,0.46010116,-0.6563534,0.597919,,1.2338224176504788,0.39964370350824413,0.20932102033000002,-0.7964024053542236,0.5099274171246237,0.3077803423101962,0.01094405243099661,,-0.7668596516776196,-0.17914423448338596,0.19137258899,-3.9595752028182734,-0.11532120580203174,1.3936271450962654,0.8756875385458709,,-0.06789112624101443,-0.050775991263645036,0.08427136484,-0.06737965366399314,,0.00010823086,5.6028366e-06,-1.13248825e-05,1.0,-9.4383955e-05,-8.440018e-05,9.4376504e-05,1.0,-1.1533499e-05,8.440018e-05,1.1503696e-05,1.0,1001,3.173,0,2,1.563,False,0.6909227742535049,1.0503840309727575
3.1728724409476854,11:18:13.051621,11:18:04.534337,0,,0.10209419,-0.0012940615,0.0065512806,0.24204506,-0.8720465,-0.42538136,-0.4341416,-0.48942053,0.7562992,-0.86771834,0.0016172826,-0.4970535,,0.028769936,-0.00906121,0.014003873,-0.86179346,-0.19277981,0.46919927,0.49365956,-0.1059905,0.8631722,-0.11667153,0.9755009,0.18650952,,0.105025776,1.3398876,0.44090426,0.9939996,0.014108114,-0.10847025,-0.06153469,-0.74773073,-0.6611447,-0.090434045,0.6638522,-0.74237585,,-0.07815105,0.23888369,-0.084851354,-0.19638288,0.8557704,0.4786343,-0.9140563,-0.33644485,0.22650804,0.3548729,-0.39301643,0.8482944,,-0.002584077,0.4082262,-0.34483883,0.83921444,0.1019441,-0.53415966,0.2895502,0.74768233,0.59760505,0.46030405,-0.6561848,0.5979479,,1.2368111152728036,0.39362769459922325,0.20957768575000002,-0.8152745002678307,0.5118403281213398,0.28465730426133784,0.07987524833966264,,-0.7665121286982794,-0.178974334360153,0.19133110771000003,-3.9589461329878195,-0.11504793280250085,1.3932409518085915,0.8755241944797367,,-0.06789112624101443,-0.050775991263645036,0.08427136484,-0.06737965366399314,,0.00010823086,5.6028366e-06,-1.13248825e-05,1.0,-9.4383955e-05,-8.440018e-05,9.4376504e-05,1.0,-1.1533499e-05,8.440018e-05,1.1503696e-05,1.0,1020,3.234,0,2,1.563,False,0.7257757395883093,1.0502391903704191
3.2173465800005943,11:18:13.111890,11:18:04.627698,0,,0.100179955,-0.0020682886,0.0056297183,0.25745147,-0.8700297,-0.42043695,-0.4255248,-0.49272287,0.75904715,-0.8675525,-0.01651144,-0.49707153,,0.028596025,-0.009112544,0.014007688,-0.8619509,-0.1922139,0.4691423,0.4933831,-0.10505971,0.863444,-0.116678,0.97571325,0.18539134,,0.105025776,1.3398876,0.44090426,0.9939996,0.014108114,-0.10847025,-0.06153469,-0.74773073,-0.6611447,-0.090434045,0.6638522,-0.74237585,,-0.07620285,0.23773597,-0.084834516,-0.21151546,0.85486364,0.473782,-0.90800196,-0.35124135,0.22838984,0.361654,-0.38188702,0.85051084,,-0.002408713,0.40821922,-0.3448846,0.83938736,0.10130741,-0.53400904,0.2894026,0.74832904,0.5968666,0.46008146,-0.6555459,0.5988193,,1.2419390099012888,0.38422912869129205,0.21001323919000003,-0.8425341929208188,0.5193553356084392,0.2577012408221913,0.22508812313303683,,-0.7655931234862468,-0.17898205709302722,0.19125333031000002,-3.959155822931304,-0.11450138680343909,1.392795280193806,0.8753608504136026,,-0.06789112624101443,-0.050775991263645036,0.08427136484,-0.06737965366399314,,0.00010823086,5.6028366e-06,-1.13248825e-05,1.0,-9.4383955e-05,-8.440018e-05,9.4376504e-05,1.0,-1.1533499e-05,8.440018e-05,1.1503696e-05,1.0,1053,3.341,0,2,1.563,False,0.7655140778418388,1.0499012289649627
3.277642073982861,11:18:13.213750,11:18:04.724902,0,,0.09657454,-0.0032865033,0.0040108413,0.2779736,-0.865208,-0.4173078,-0.4153454,-0.49997735,0.7599412,-0.86615175,-0.03791669,-0.49834073,,0.028193567,-0.00912457,0.013945997,-0.8620807,-0.19071017,0.4695173,0.4934185,-0.10459757,0.8634799,-0.11556409,0.97605795,0.18427148,,0.105025776,1.3398876,0.44090426,0.9939996,0.014108114,-0.10847025,-0.06153469,-0.74773073,-0.6611447,-0.090434045,0.6638522,-0.74237585,,-0.07253436,0.23582965,-0.08472494,-0.23178768,0.85126364,0.47077027,-0.9000866,-0.37122998,0.22810622,0.36894256,-0.37086177,0.85225755,,-0.0020021237,0.40820807,-0.3448626,0.83940506,0.09975302,-0.5342738,0.2903368,0.74870473,0.5959411,0.45946026,-0.65535533,0.59950453,,1.2525268766718505,0.36778743040206807,0.21090249413000003,-0.8834237319003011,0.5264604335962421,0.21972608621459574,0.477944737508901,,-0.7634307582814639,-0.1785032476548253,0.19115999743,-3.958526753100851,-0.11368156780484645,1.3926985239526113,0.8753608504136025,,-0.06789112624101443,-0.050775991263645036,0.08427136484,-0.06737965366399314,,0.00010823086,5.6028366e-06,-1.13248825e-05,1.0,-9.4383955e-05,-8.440018e-05,9.4376504e-05,1.0,-1.1533499e-05,8.440018e-05,1.1503696e-05,1.0,1072,3.402,0,2,1.563,False,0.8069205922139568,1.0507702725789931
3.3795031199697405,11:18:13.280211,11:18:04.823736,0,,0.093983576,-0.0033800974,0.0029659122,0.2893404,-0.863206,-0.41371205,-0.40816745,-0.50219584,0.76236373,-0.8658415,-0.05171883,-0.49763817,,0.028158948,-0.009090073,0.013957918,-0.8619642,-0.19082569,0.4696841,0.49360335,-0.104563475,0.86337835,-0.115642965,0.976039,0.18432212,,0.105025776,1.3398876,0.44090426,0.9939996,0.014108114,-0.10847025,-0.06153469,-0.74773073,-0.6611447,-0.090434045,0.6638522,-0.74237585,,-0.06988368,0.2351132,-0.084201165,-0.24294159,0.8501163,0.46720624,-0.89489067,-0.38228977,0.23027217,0.37436628,-0.36215582,0.8536352,,-0.0019708879,0.4082416,-0.34484187,0.83928645,0.09986769,-0.53443867,0.29036707,0.74872226,0.5959043,0.4596577,-0.6553178,0.5993942,,1.2620103926413984,0.35919202871305617,0.21189934114000003,-0.909005905005413,0.5282367080931928,0.19361067394409254,0.5870585736865996,,-0.7633071945554764,-0.17825612020285014,0.19114314566,-3.9583170631573665,-0.11327165830555012,1.3926093064619436,0.8753608504136025,,-0.06789112624101443,-0.050775991263645036,0.08427136484,-0.06737965366399314,,0.00010823086,5.6028366e-06,-1.13248825e-05,1.0,-9.4383955e-05,-8.440018e-05,9.4376504e-05,1.0,-1.1533499e-05,8.440018e-05,1.1503696e-05,1.0,1091,3.463,0,2,1.563,False,0.8169892266440111,1.05014262996886
3.4459653300000355,11:18:13.342491,11:18:04.823736,0,,0.0918217,-0.0026327744,0.0023090094,0.29228815,-0.85845536,-0.42145243,-0.4023257,-0.51018137,0.7601637,-0.86758375,-0.052625686,-0.4944986,,0.028169267,-0.009083666,0.013973296,-0.8617352,-0.19095707,0.47005075,0.49399978,-0.10459983,0.86314714,-0.11565685,0.97600937,0.18447012,,0.105025776,1.3398876,0.44090426,0.9939996,0.014108114,-0.10847025,-0.06153469,-0.74773073,-0.6611447,-0.090434045,0.6638522,-0.74237585,,-0.067662746,0.23526646,-0.08335993,-0.24560048,0.845211,0.47465646,-0.8918659,-0.3888732,0.23098221,0.3798099,-0.3666006,0.8493223,,-0.0019830156,0.40825653,-0.3448455,0.8390375,0.10000321,-0.5348041,0.29055965,0.74869215,0.5958482,0.45999038,-0.6553315,0.5991239,,1.2720499453778902,0.35543105780330886,0.21301544683,-0.9228454412753917,0.5281000715934273,0.18849465247879293,0.6292013427492436,,-0.7633921446170928,-0.17822522927135323,0.19113407163,-3.957897683270397,-0.11313502180578469,1.3925795672983876,0.8751975063474683,,-0.06789112624101443,-0.050775991263645036,0.08427136484,-0.06737965366399314,,0.00010823086,5.6028366e-06,-1.13248825e-05,1.0,-9.4383955e-05,-8.440018e-05,9.4376504e-05,1.0,-1.1533499e-05,8.440018e-05,1.1503696e-05,1.0,1124,3.57,0,2,1.563,False,0.8297984361260333,1.0503840309727575
3.5082400079700164,11:18:13.450914,11:18:04.823736,0,,0.08898744,-0.0003849715,0.0020347685,0.2910061,-0.845448,-0.4478093,-0.3953358,-0.53249973,0.748434,-0.8712204,-0.040763825,-0.48919657,,0.028074183,-0.0091072135,0.013974905,-0.8617434,-0.19116563,0.4699511,0.49395338,-0.104717225,0.8631594,-0.11579448,0.97595596,0.18466634,,0.10502363,1.339887,0.44090477,0.99400026,0.014116131,-0.10846316,-0.061524034,-0.74773055,-0.6611458,-0.090434045,0.6638522,-0.74237585,,-0.06475298,0.23679447,-0.08182408,-0.24387836,0.83082485,0.5002533,-0.889188,-0.3974697,0.22663313,0.387128,-0.38954833,0.8356937,,-0.001885992,0.40825444,-0.34486645,0.83905613,0.100221135,-0.5347341,0.29042888,0.7486061,0.5960201,0.46003902,-0.6553966,0.5990154,,1.288970453105316,0.3563423402824673,0.21470969786000002,-0.9347977680540096,0.5227712481025752,0.2061535853658651,0.6519061679419085,,-0.7634925401444577,-0.178217506538479,0.19113018276000002,-3.958107373213882,-0.11313502180578469,1.3927429247786687,0.8755241944797368,,-0.06789112624101443,-0.050775991263645036,0.08427136484,-0.06737965366399314,,0.00010608137,6.4373016e-06,-1.1086464e-05,1.0,-8.6426735e-05,-7.727742e-05,8.641556e-05,1.0,-1.0550022e-05,7.727742e-05,1.052022e-05,0.99999994,1143,3.631,0,2,1.563,False,0.8296197029704704,1.0501909101696396
3.6166364979580976,11:18:13.509420,11:18:05.038153,0,,0.08835633,0.000542447,0.0019185841,0.29214868,-0.8378564,-0.46113545,-0.391556,-0.54469573,0.7416134,-0.87254405,-0.036101013,-0.48719978,,0.02808803,-0.009104218,0.013981044,-0.8617232,-0.19128191,0.4699408,0.49397603,-0.1048094,0.86313534,-0.11584796,0.9759233,0.1848054,,0.10502363,1.339887,0.44090477,0.99400026,0.014116131,-0.10846316,-0.061524034,-0.74773055,-0.6611458,-0.090434045,0.6638522,-0.74237585,,-0.064089485,0.23741037,-0.08115151,-0.24482307,0.82259816,0.5132192,-0.88734585,-0.40341988,0.22331539,0.39074165,-0.40073013,0.82869554,,-0.001900521,0.40825957,-0.34486747,0.83904004,0.10034519,-0.5347361,0.29039654,0.74853945,0.5961196,0.4600888,-0.6554537,0.5989147,,1.293411024507995,0.3579718369189287,0.21537210205,-0.9396206367541536,0.5219514291039825,0.21833879514786292,0.6543563289339227,,-0.7635774902060741,-0.178217506538479,0.19113018276000002,-3.958107373213882,-0.11313502180578469,1.3928246035188092,0.8756875385458712,,-0.06789112624101443,-0.050775991263645036,0.08427136484,-0.06737965366399314,,0.00010608137,6.4373016e-06,-1.1086464e-05,1.0,-8.6426735e-05,-7.727742e-05,8.641556e-05,1.0,-1.0550022e-05,7.727742e-05,1.052022e-05,0.99999994,1162,3.693,0,2,1.563,False,0.8298580138445546,1.0506254319766548
3.6751521389815025,11:18:13.572308,11:18:05.038153,0,,0.08789274,0.0017030165,0.0016334206,0.29577327,-0.8320616,-0.46924597,-0.3885491,-0.55354285,0.7366272,-0.87266695,-0.03554955,-0.48702005,,0.028083105,-0.009103667,0.013977826,-0.86173224,-0.19125183,0.46993643,0.49396586,-0.10480881,0.8631411,-0.115823835,0.97592926,0.18478915,,0.10502363,1.339887,0.44090477,0.99400026,0.014116131,-0.10846316,-0.061524034,-0.74773055,-0.6611458,-0.090434045,0.6638522,-0.74237585,,-0.063575275,0.23807813,-0.080185674,-0.24834472,0.8165306,0.5211551,-0.8853138,-0.4096684,0.21998012,0.3931213,-0.4067549,0.82462484,,-0.0018953439,0.4082578,-0.34486517,0.8390472,0.10031468,-0.5347305,0.29041117,0.7485412,0.5961103,0.4600664,-0.65545636,0.59892887,,1.2973110046094785,0.3605666751646681,0.21628209763000003,-0.9461210250021739,0.5190820626089083,0.22525258057335917,0.6556630814629969,,-0.7635465992745772,-0.1782097838056048,0.19113147905000002,-3.958107373213882,-0.11313502180578469,1.3928246035188092,0.8756875385458712,,-0.06789112624101443,-0.050775991263645036,0.08427136484,-0.06737965366399314,,0.00010608137,6.4373016e-06,-1.1086464e-05,1.0,-8.6426735e-05,-7.727742e-05,8.641556e-05,1.0,-1.0550022e-05,7.727742e-05,1.052022e-05,0.99999994,1195,3.799,0,2,1.563,False,0.8308708350594118,1.0503840309727575
3.738049234962091,11:18:13.675989,11:18:05.123116,0,,0.08724312,0.0034013689,0.0014603287,0.2938008,-0.82793283,-0.47771165,-0.3847883,-0.5599271,0.7337707,-0.8749966,-0.031764537,-0.48308593,,0.028065436,-0.009105202,0.0139817,-0.86172044,-0.19123217,0.46996602,0.49397257,-0.10464659,0.863157,-0.11588307,0.9759505,0.18463963,,0.10502363,1.339887,0.44090477,0.99400026,0.014116131,-0.10846316,-0.061524034,-0.74773055,-0.6611458,-0.090434045,0.6638522,-0.74237585,,-0.06286764,0.23922071,-0.078948684,-0.24611652,0.8119809,0.52925766,-0.8840943,-0.41187283,0.22076705,0.3972455,-0.41357926,0.81923634,,-0.0018780865,0.40826207,-0.34486887,0.83904094,0.100283705,-0.53474617,0.2903659,0.74865013,0.5959955,0.46010643,-0.6553367,0.5990291,,1.3033270135184993,0.364690614519504,0.21742542541,-0.947379164663081,0.5168958786126612,0.23422299616487147,0.6670971660923963,,-0.7634616492129608,-0.17818661560698212,0.19112110873000002,-3.958107373213882,-0.11299838530601926,1.392713185615113,0.8756875385458712,,-0.06789112624101443,-0.050775991263645036,0.08427136484,-0.06737965366399314,,0.00010608137,6.4373016e-06,-1.1086464e-05,1.0,-8.6426735e-05,-7.727742e-05,8.641556e-05,1.0,-1.0550022e-05,7.727742e-05,1.052022e-05,0.99999994,1214,3.861,0,2,1.563,False,0.8455269538155861,1.0502874705711984
3.8416965740034357,11:18:13.738732,11:18:05.249622,0,,0.08692269,0.0043656975,0.0014938265,0.29185155,-0.8277003,-0.47930673,-0.38163975,-0.56027824,0.7351457,-0.8770255,-0.031630933,-0.47940135,,0.027978182,-0.00910927,0.013975561,-0.86165386,-0.19091393,0.4702175,0.49410066,-0.10411134,0.86314833,-0.11583209,0.97607005,0.18403873,,0.10502363,1.339887,0.44090477,0.99400026,0.014116131,-0.10846316,-0.061524034,-0.74773055,-0.6611458,-0.090434045,0.6638522,-0.74237585,,-0.062522866,0.23995791,-0.07833924,-0.24394873,0.8117302,0.530644,-0.8831195,-0.4120449,0.22431882,0.40073553,-0.41389978,0.8173726,,-0.0017905562,0.40826464,-0.3448695,0.8389624,0.09992499,-0.53493655,0.29047373,0.74902076,0.59547704,0.4601816,-0.6549679,0.59937465,,1.306717293250284,0.36735495736111146,0.2179711635,-0.947379164663081,0.5168958786126612,0.2355298560071205,0.6706907355473506,,-0.7629982852405073,-0.17807849734674297,0.19109388664000002,-3.957897683270397,-0.11258847580672293,1.392297253163883,0.8758508826120054,,-0.06789112624101443,-0.050775991263645036,0.08427136484,-0.06737965366399314,,0.00010608137,6.4373016e-06,-1.1086464e-05,1.0,-8.6426735e-05,-7.727742e-05,8.641556e-05,1.0,-1.0550022e-05,7.727742e-05,1.052022e-05,0.99999994,1233,3.922,0,2,1.563,False,0.8471355522156543,1.0499977893665218
3.9044824359589256,11:18:13.803878,11:18:05.333122,0,,0.08700511,0.0053344965,0.0015760511,0.2911522,-0.829038,-0.4774163,-0.3778132,-0.55811346,0.73876005,-0.8789126,-0.03471741,-0.47571748,,0.027797975,-0.009101655,0.013954639,-0.8615467,-0.19045974,0.47059786,0.49432802,-0.10353643,0.8630874,-0.115659386,0.9762199,0.18335107,,0.10502363,1.339887,0.44090477,0.99400026,0.014116131,-0.10846316,-0.061524034,-0.74773055,-0.6611458,-0.090434045,0.6638522,-0.74237585,,-0.06258299,0.24072176,-0.07773507,-0.24301773,0.81333005,0.5286176,-0.8815818,-0.41252503,0.22942671,0.40466765,-0.4102649,0.8172679,,-0.0016099089,0.4082726,-0.344853,0.8388259,0.09942592,-0.5352435,0.2907327,0.74942344,0.5948437,0.46026692,-0.6545831,0.5997294,,1.3084162944826134,0.3711004828051104,0.21844560564,-0.947379164663081,0.5177156976112539,0.2339628824433957,0.6754277134652447,,-0.7620406663641035,-0.1777773107646482,0.19104851649000001,-3.957478303383428,-0.11176865680813029,1.3919554607022668,0.8751975063474683,,-0.06789112624101443,-0.050775991263645036,0.08427136484,-0.06737965366399314,,0.00010608137,6.4373016e-06,-1.1086464e-05,1.0,-8.6426735e-05,-7.727742e-05,8.641556e-05,1.0,-1.0550022e-05,7.727742e-05,1.052022e-05,0.99999994,1252,3.984,0,2,1.563,False,0.847075974497133,1.0505771517758753
3.9696214069845155,11:18:13.863025,11:18:05.333122,0,,0.0874082,0.00589557,0.0017604381,0.292007,-0.8334458,-0.46914834,-0.37556675,-0.5510483,0.74518144,-0.87959164,-0.041401625,-0.4739245,,0.027503029,-0.009053912,0.013914287,-0.86131394,-0.18968545,0.471336,0.49490234,-0.103370726,0.86277807,-0.11493413,0.97638816,0.18291044,,0.10502363,1.339887,0.44090477,0.99400026,0.014116131,-0.10846316,-0.061524034,-0.74773055,-0.6611458,-0.090434045,0.6638522,-0.74237585,,-0.062981285,0.24124855,-0.07746094,-0.2437616,0.818369,0.5204349,-0.880418,-0.4117863,0.23515141,0.4067486,-0.4008794,0.82088447,,-0.0013156713,0.40830112,-0.34479377,0.8384904,0.09863061,-0.5359158,0.29162452,0.74956757,0.59422517,0.46031392,-0.65453833,0.5997422,,1.3081073851676444,0.3744289806739011,0.21857393835000002,-0.947379164663081,0.5179889706107847,0.22589888758250898,0.6719974880764248,,-0.7605038425221328,-0.17711315573746492,0.19098759086000003,-3.9564298536660054,-0.11067556481000676,1.391880904874101,0.8748708182151997,,-0.06789112624101443,-0.050775991263645036,0.08427136484,-0.06737965366399314,,0.00010608137,6.4373016e-06,-1.1086464e-05,1.0,-8.6426735e-05,-7.727742e-05,8.641556e-05,1.0,-1.0550022e-05,7.727742e-05,1.052022e-05,0.99999994,1285,4.09,0,2,1.563,False,0.8462418864378387,1.05014262996886
4.02877933398122,11:18:13.964136,11:18:05.431195,0,,0.08847432,0.0064286143,0.0019670427,0.28587148,-0.84118986,-0.4589958,-0.3794161,-0.53919935,0.7518692,-0.879955,-0.040787578,-0.47330272,,0.027155142,-0.0090111755,0.0138527155,-0.8611965,-0.18836355,0.4720802,0.49535275,-0.102963895,0.8625682,-0.11386922,0.9766871,0.18197852,,0.10502363,1.339887,0.44090477,0.99400026,0.014116131,-0.10846316,-0.061524034,-0.74773055,-0.6611458,-0.090434045,0.6638522,-0.74237585,,-0.064043164,0.24175386,-0.077177174,-0.23772731,0.826389,0.5104575,-0.8833374,-0.4024984,0.24022925,0.40398115,-0.39379716,0.8256652,,-0.0009664652,0.4083156,-0.34472677,0.83824337,0.09726454,-0.53655165,0.29273164,0.7498948,0.5932672,0.4600612,-0.6543679,0.6001219,,1.305134133011068,0.37918618412442345,0.21859727157000003,-0.9350074579974941,0.5159394231143032,0.22405797031191105,0.6710174236796193,,-0.7586581093651932,-0.1764181097787847,0.19092666523000001,-3.955381403948583,-0.10971910931164867,1.3915093732489288,0.8753608504136026,,-0.06789112624101443,-0.050775991263645036,0.08427136484,-0.06737965366399314,,0.00010608137,6.4373016e-06,-1.1086464e-05,1.0,-8.6426735e-05,-7.727742e-05,8.641556e-05,1.0,-1.0550022e-05,7.727742e-05,1.052022e-05,0.99999994,1304,4.152,0,2,1.563,False,0.8427863787636185,1.0505771517758753
