AlexandreBanks6/ExpertPlaybackApp/resources/Motions/P_05/PC1/Data_PC1_2.csv
Task Time,PC1 Time,PC2 Time,Gaze Calib,s_T_psm1,Tx,Ty,Tz,R00,R01,R02,R10,R11,R12,R20,R21,R22,s_T_psm3,Tx,Ty,Tz,R00,R01,R02,R10,R11,R12,R20,R21,R22,cart_T_ecm,Tx,Ty,Tz,R00,R01,R02,R10,R11,R12,R20,R21,R22,ecm_T_psm1,Tx,Ty,Tz,R00,R01,R02,R10,R11,R12,R20,R21,R22,ecm_T_psm3,Tx,Ty,Tz,R00,R01,R02,R10,R11,R12,R20,R21,R22,psm1_joints,q1,q2,q3,q4,q5,q6,jaw,psm3_joints,q1,q2,q3,q4,q5,q6,jaw,ecm_joints,q1,q2,q3,q4,ecmi_T_ecm,Tx,Ty,Tz,R00,R01,R02,R10,R11,R12,R20,R21,R22,Sample #,Task Duration (s),Collisions (binary),Collisions (increments),Cumulative Collision Time (s),Clutch Press,MTMR Angle,MTML Angle
""
lci_T_si,,,,,-0.05588401,0.033678196,0.22142315,0.99411887,-0.024834005,0.10540873,0.053824607,-0.7313092,-0.67991894,0.09397148,0.68159384,-0.7256715
rci_T_si,,,,,-0.06556821,0.037878036,0.23215216,0.98745227,-0.051865816,0.14915736,0.06880197,-0.7088702,-0.70197535,0.14214173,0.7034295,-0.69640696
ecm_T_lc,,,,,-4.4061628e-05,-0.00034663224,-0.01840835,-0.99912,0.030754527,0.028518902,-0.031987965,-0.99852574,-0.043852776,0.027128186,-0.04472645,0.9986309
ecm_T_rc,,,,,-0.0043358393,0.01870579,-0.007592615,-0.99555075,-0.052743673,-0.078081585,0.04863213,-0.9973746,0.053654674,-0.08070653,0.04961868,0.9955021
cart_T_ecmi,,,,,0.1049169,1.339891,0.44090196,0.9940074,0.014203176,-0.108386196,-0.061408322,-0.7477289,-0.66115844,-0.090434045,0.6638522,-0.74237585
ecmac_T_ecmrep_psm1,,,,,0.008075713,-0.26004106,-0.30289736,0.99667877,0.061445758,0.053440064,-0.058828812,0.9970531,-0.049237434,-0.056308012,0.04593009,0.9973564
ecmac_T_ecmrep_psm3,,,,,-0.012692571,-0.457308,-0.5458498,0.99509805,-0.029463936,0.094401784,0.014504567,0.9877462,0.15539348,-0.09782351,-0.1532625,0.9833317
""
0,11:14:08.758064,11:14:00.272372,0,,0.12392646,0.0014710575,0.005472839,-0.8009722,0.08407223,-0.5927694,-0.59002507,-0.27879518,0.7577226,-0.10155773,0.9566635,0.27291176,,0.042987946,-0.028058901,0.026339412,-0.3069851,0.5993405,0.73929095,-0.26635078,-0.79986227,0.5378453,0.9136835,-0.03180012,0.4051806,,0.10503008,1.3398843,0.44090113,0.9939995,0.014106729,-0.108471476,-0.061536532,-0.74773073,-0.6611445,-0.090434045,0.6638522,-0.74237585,,-0.09978136,0.23964787,-0.08070828,0.78884214,-0.15502973,0.5947217,-0.4820494,0.4442077,0.75518733,-0.38125643,-0.8824088,0.27567777,,-0.016830388,0.40556073,-0.36732188,0.23070714,-0.54626817,-0.80521137,0.617796,-0.5570961,0.55495226,-0.7517329,-0.6254878,0.20895624,,1.1482004782739517,0.48066289409173346,0.21184100809000003,0.4793512108056227,-0.32915732793494606,1.4048020415803215,-0.39806948916923834,,-0.8162542511411596,-0.24788427979685831,0.19040555665000003,-0.5690985066169991,-1.3942388436065543,-1.3949692975588641,0.8745441300829313,,-0.06827728033801818,-0.05076944627895005,0.08427136484,-0.06770673936139116,,0.00011299178,6.1392784e-06,-7.2717667e-06,1.0,-9.575859e-05,-8.562207e-05,9.575114e-05,0.99999994,-1.1652708e-05,8.562207e-05,1.1652708e-05,1.0,36,0.108,0,0,0.0,False,-0.2527287094011399,1.0490321853509326
0.12298029300291091,11:14:08.789527,11:14:00.272372,0,,0.1238862,0.001458995,0.005580589,-0.8000869,0.08373655,-0.5940111,-0.5911077,-0.2788094,0.75687313,-0.10223785,0.9566888,0.27256894,,0.04298626,-0.028059304,0.026340008,-0.30697814,0.5992815,0.7393416,-0.26634914,-0.79990506,0.5377825,0.9136863,-0.031835496,0.40517148,,0.10503008,1.3398843,0.44090113,0.9939995,0.014106729,-0.108471476,-0.061536532,-0.74773073,-0.6611445,-0.090434045,0.6638522,-0.74237585,,-0.09974866,0.23971328,-0.08079789,0.78797334,-0.15469699,0.5959587,-0.48332667,0.44422263,0.7543617,-0.38143584,-0.8824597,0.2752664,,-0.016828742,0.40556115,-0.36732253,0.23069984,-0.5462037,-0.8052572,0.6177984,-0.5571428,0.55490273,-0.7517331,-0.6255026,0.208911,,1.1485093875889207,0.4808250714820922,0.21174249005,0.47767369125774645,-0.32915732793494606,1.4048020415803215,-0.39806948916923834,,-0.8162465284082854,-0.24788427979685831,0.19040426036000002,-0.5690985066169991,-1.3942388436065543,-1.3948876188187236,0.8747074741490652,,-0.06827728033801818,-0.05076944627895005,0.08427136484,-0.06770673936139116,,0.00011299178,6.1392784e-06,-7.2717667e-06,1.0,-9.575859e-05,-8.562207e-05,9.575114e-05,0.99999994,-1.1652708e-05,8.562207e-05,1.1652708e-05,1.0,44,0.132,0,0,0.0,False,-0.25278828711966117,1.0496115477602863
0.15454380598384887,11:14:08.815299,11:14:00.372332,0,,0.123835266,0.0014793724,0.005676046,-0.8001394,0.08382206,-0.5939286,-0.59101653,-0.27914697,0.75681984,-0.10235509,0.9565828,0.27289656,,0.04298626,-0.028059304,0.026340008,-0.30697814,0.5992815,0.7393416,-0.26634914,-0.79990506,0.5377825,0.9136863,-0.031835496,0.40517148,,0.10503008,1.3398843,0.44090113,0.9939995,0.014106729,-0.108471476,-0.061536532,-0.74773073,-0.6611445,-0.090434045,0.6638522,-0.74237585,,-0.099703595,0.23979436,-0.080857195,0.788036,-0.15478486,0.59585315,-0.48333827,0.44390112,0.7545435,-0.38129178,-0.882606,0.2749966,,-0.016828742,0.40556115,-0.36732253,0.23069984,-0.5462037,-0.8052572,0.6177984,-0.5571428,0.55490273,-0.7517331,-0.6255026,0.208911,,1.1489109696983804,0.48102586253682206,0.21167119410000002,0.47767369125774645,-0.3290206914351806,1.404690623676625,-0.39806948916923834,,-0.8162465284082854,-0.24788427979685831,0.19040426036000002,-0.5690985066169991,-1.3942388436065543,-1.3948876188187236,0.8747074741490652,,-0.06827728033801818,-0.05076944627895005,0.08427136484,-0.06770673936139116,,0.00011299178,6.1392784e-06,-7.2717667e-06,1.0,-9.575859e-05,-8.562207e-05,9.575114e-05,0.99999994,-1.1652708e-05,8.562207e-05,1.1652708e-05,1.0,55,0.166,0,0,0.0,False,-0.2532649088678296,1.0487907843470352
0.18027218896895647,11:14:08.848316,11:14:00.372332,0,,0.123752855,0.0015081838,0.005786434,-0.79946846,0.08402542,-0.59480256,-0.5918709,-0.27940056,0.7560583,-0.10265997,0.956491,0.27310398,,0.04298626,-0.028059304,0.026340008,-0.30697814,0.5992815,0.7393416,-0.26634914,-0.79990506,0.5377825,0.9136863,-0.031835496,0.40517148,,0.10503008,1.3398843,0.44090113,0.9939995,0.014106729,-0.108471476,-0.061536532,-0.74773073,-0.6611445,-0.090434045,0.6638522,-0.74237585,,-0.099627875,0.23989254,-0.080923796,0.7873627,-0.15498884,0.5966896,-0.48418793,0.44364792,0.7541476,-0.38160452,-0.8826976,0.2742681,,-0.016828742,0.40556115,-0.36732253,0.23069984,-0.5462037,-0.8052572,0.6177984,-0.5571428,0.55490273,-0.7517331,-0.6255026,0.208911,,1.14951334286257,0.4812420990573003,0.21159082412000002,0.47641555159683935,-0.32915732793494606,1.4048020415803215,-0.39806948916923834,,-0.8162465284082854,-0.24788427979685831,0.19040426036000002,-0.5690985066169991,-1.3942388436065543,-1.3948876188187236,0.8747074741490652,,-0.06827728033801818,-0.05076944627895005,0.08427136484,-0.06770673936139116,,0.00011299178,6.1392784e-06,-7.2717667e-06,1.0,-9.575859e-05,-8.562207e-05,9.575114e-05,0.99999994,-1.1652708e-05,8.562207e-05,1.1652708e-05,1.0,63,0.189,0,0,0.0,False,-0.25278828711966117,1.0494667071579475
0.21333350497297943,11:14:08.864241,11:14:00.372332,0,,0.12369175,0.0015457198,0.0058565736,-0.7995207,0.08427645,-0.5946968,-0.59178925,-0.27986118,0.7559518,-0.10272351,0.95633423,0.27362853,,0.04298626,-0.028059304,0.026340008,-0.30697814,0.5992815,0.7393416,-0.26634914,-0.79990506,0.5377825,0.9136863,-0.031835496,0.40517148,,0.10503008,1.3398843,0.44090113,0.9939995,0.014106729,-0.108471476,-0.061536532,-0.74773073,-0.6611445,-0.090434045,0.6638522,-0.74237585,,-0.099570505,0.23996922,-0.08095364,0.78742135,-0.15524195,0.59654635,-0.48417005,0.4431977,0.75442374,-0.38150617,-0.88287926,0.27381983,,-0.016828742,0.40556115,-0.36732253,0.23069984,-0.5462037,-0.8052572,0.6177984,-0.5571428,0.55490273,-0.7517331,-0.6255026,0.208911,,1.1499767068350233,0.48141199918053323,0.21154934284000002,0.47641555159683935,-0.3290206914351806,1.404853981156906,-0.3983961773015071,,-0.8162465284082854,-0.24788427979685831,0.19040426036000002,-0.5690985066169991,-1.3942388436065543,-1.3948876188187236,0.8747074741490652,,-0.06827728033801818,-0.05076944627895005,0.08427136484,-0.06770673936139116,,0.00011299178,6.1392784e-06,-7.2717667e-06,1.0,-9.575859e-05,-8.562207e-05,9.575114e-05,0.99999994,-1.1652708e-05,8.562207e-05,1.1652708e-05,1.0,71,0.214,0,0,0.0,False,-0.25266913168261906,1.049514987358727
0.22923318098764867,11:14:08.889876,11:14:00.372332,0,,0.123619124,0.0015969947,0.00592418,-0.7993996,0.08142261,-0.5952569,-0.59154403,-0.27990907,0.7561259,-0.105051965,0.9565674,0.27192408,,0.042983897,-0.028057545,0.026338577,-0.3069943,0.599132,0.739456,-0.26636618,-0.8000136,0.5376126,0.9136759,-0.031921953,0.4051881,,0.10503008,1.3398843,0.44090113,0.9939995,0.014106729,-0.108471476,-0.061536532,-0.74773073,-0.6611445,-0.090434045,0.6638522,-0.74237585,,-0.09950107,0.24005452,-0.080973074,0.78746146,-0.15241228,0.5972227,-0.4855767,0.44339025,0.75340587,-0.379631,-0.8832755,0.2751449,,-0.016826358,0.40556127,-0.3673203,0.23071788,-0.5460404,-0.8053627,0.617782,-0.55725855,0.55480474,-0.7517411,-0.625542,0.20876443,,1.1505868027320871,0.4815201174407724,0.21150915785000002,0.47536710187941666,-0.32669787093916813,1.4028781980539264,-0.39823283323537295,,-0.8162388056754111,-0.24788427979685831,0.19040426036000002,-0.5688888166735145,-1.3942388436065543,-1.3948876188187236,0.8747074741490652,,-0.06827728033801818,-0.05076290129425508,0.08427136484,-0.06770673936139116,,0.00011299178,6.1392784e-06,-7.2717667e-06,1.0,-9.575859e-05,-8.562207e-05,9.575114e-05,0.99999994,-1.1652708e-05,8.562207e-05,1.1652708e-05,1.0,78,0.236,0,0,0.0,False,-0.25254997624557696,1.049418426957168
0.2542199259623885,11:14:08.915495,11:14:00.450042,0,,0.123553574,0.0016300827,0.005977899,-0.7984475,0.08153395,-0.5965183,-0.5926707,-0.28078136,0.75491923,-0.10593963,0.95630217,0.27251184,,0.042982463,-0.028057441,0.026337802,-0.30701515,0.5989841,0.7395673,-0.26639807,-0.80012053,0.5374376,0.9136596,-0.032017708,0.40521735,,0.10503008,1.3398843,0.44090113,0.9939995,0.014106729,-0.108471476,-0.061536532,-0.74773073,-0.6611445,-0.090434045,0.6638522,-0.74237585,,-0.09943831,0.24011688,-0.08099425,0.7865384,-0.15253058,0.5984076,-0.48702893,0.44256794,0.7529518,-0.3796842,-0.88366735,0.27380988,,-0.01682486,0.40556088,-0.3673198,0.23074202,-0.5458779,-0.805466,0.61775273,-0.55738103,0.5547143,-0.75175774,-0.6255747,0.20860632,,1.1510733349031632,0.48162823570101154,0.21147804689000002,0.473479892388056,-0.3264245979396372,1.4037988646085016,-0.3965993925740302,,-0.8162388056754111,-0.2478765570639841,0.19040426036000002,-0.5686791267300301,-1.3942388436065543,-1.3948876188187236,0.8747074741490652,,-0.06827728033801818,-0.05076290129425508,0.08427136484,-0.06770673936139116,,0.00011299178,6.1392784e-06,-7.2717667e-06,1.0,-9.575859e-05,-8.562207e-05,9.575114e-05,0.99999994,-1.1652708e-05,8.562207e-05,1.1652708e-05,1.0,86,0.26,0,0,0.0,False,-0.25254997624557696,1.0496115477602863
0.2805017359787598,11:14:08.942902,11:14:00.450042,0,,0.12341391,0.0017245188,0.006065443,-0.7967633,0.08222999,-0.59867084,-0.5947682,-0.2819035,0.7528486,-0.10686061,0.95591235,0.27351803,,0.04298336,-0.028054819,0.026338577,-0.30699006,0.5991375,0.7394534,-0.26638064,-0.80000895,0.53761226,0.91367304,-0.03193438,0.40519345,,0.10503008,1.3398843,0.44090113,0.9939995,0.014106729,-0.108471476,-0.061536532,-0.74773073,-0.6611445,-0.090434045,0.6638522,-0.74237585,,-0.09930212,0.240249,-0.08100345,0.7848599,-0.15323094,0.60042924,-0.48923305,0.44146374,0.75217074,-0.38032356,-0.8840984,0.27152154,,-0.016825981,0.4055629,-0.36731812,0.23071477,-0.5460449,-0.80536056,0.61777085,-0.55726653,0.55480915,-0.7517512,-0.62553096,0.20876099,,1.1521081811083091,0.4818908086187352,0.21144952851,0.47033454323578816,-0.32656123443940266,1.4051354636143065,-0.39774280103697,,-0.8162388056754111,-0.24786883433110987,0.19040426036000002,-0.5688888166735145,-1.3942388436065543,-1.3948876188187236,0.8747074741490652,,-0.06827728033801818,-0.05076290129425508,0.08427136484,-0.06770673936139116,,0.00011299178,6.1392784e-06,-7.2717667e-06,1.0,-9.575859e-05,-8.562207e-05,9.575114e-05,0.99999994,-1.1652708e-05,8.562207e-05,1.1652708e-05,1.0,98,0.296,0,0,0.0,False,-0.2524308208085344,1.049514987358727
0.3077290439978242,11:14:08.972801,11:14:00.450042,0,,0.12329483,0.0018285215,0.006146148,-0.79741335,0.08289487,-0.5977128,-0.59397805,-0.28248796,0.7532533,-0.106405795,0.9556824,0.27449724,,0.042982787,-0.028046072,0.026337445,-0.3069817,0.5991482,0.7394482,-0.26640365,-0.8000002,0.5376139,0.9136691,-0.03195396,0.40520066,,0.10503008,1.3398843,0.44090113,0.9939995,0.014106729,-0.108471476,-0.061536532,-0.74773073,-0.6611445,-0.090434045,0.6638522,-0.74237585,,-0.09918572,0.24038297,-0.08099973,0.78550065,-0.1538955,0.5994204,-0.48832896,0.44086295,0.75311,-0.3801625,-0.88428277,0.2711465,,-0.016825803,0.40556714,-0.36731035,0.2307082,-0.5460541,-0.8053562,0.61775345,-0.55727845,0.55481654,-0.7517675,-0.6255123,0.2087581,,1.1530040181217194,0.4821765497350815,0.21143138045,0.4713829929532108,-0.3264245979396372,1.4047790094901882,-0.39757945697083574,,-0.8162388056754111,-0.24783794339961296,0.19040555665000003,-0.5688888166735145,-1.3942388436065543,-1.3948876188187236,0.8747074741490652,,-0.06827728033801818,-0.0507563563095601,0.08427136484,-0.06770673936139116,,0.00011299178,6.1392784e-06,-7.2717667e-06,1.0,-9.575859e-05,-8.562207e-05,9.575114e-05,0.99999994,-1.1652708e-05,8.562207e-05,1.1652708e-05,1.0,113,0.342,0,0,0.0,False,-0.2521925099344511,1.0496598279610654
0.3378170419600792,11:14:09.014578,11:14:00.572927,0,,0.12313197,0.0019469485,0.0062075704,-0.7975817,0.08386163,-0.5973532,-0.5938286,-0.2831414,0.7531258,-0.105977,0.95540476,0.27562767,,0.042979587,-0.028015181,0.026320577,-0.30691546,0.59931636,0.7393394,-0.26648635,-0.79987335,0.5377617,0.9136673,-0.03197643,0.4052031,,0.10503008,1.3398843,0.44090113,0.9939995,0.014106729,-0.108471476,-0.061536532,-0.74773073,-0.6611445,-0.090434045,0.6638522,-0.74237585,,-0.099023975,0.24051547,-0.0809751,0.7856445,-0.15485995,0.5989834,-0.4879238,0.4401719,0.75377655,-0.38038546,-0.88445866,0.27025878,,-0.01682275,0.4055718,-0.36727545,0.23064733,-0.54622626,-0.8052569,0.6176965,-0.5572421,0.55491644,-0.75183296,-0.62539434,0.20887567,,1.154131537121356,0.4823696180569371,0.21143138045,0.47159268289669526,-0.3264245979396372,1.4047790094901882,-0.39757945697083574,,-0.81620019201104,-0.24772210240649958,0.19042111213000001,-0.5688888166735145,-1.3942388436065543,-1.3950509762990047,0.8747074741490652,,-0.06827728033801818,-0.05073672135547516,0.08427136484,-0.06770673936139116,,0.00011299178,6.1392784e-06,-7.2717667e-06,1.0,-9.575859e-05,-8.562207e-05,9.575114e-05,0.99999994,-1.1652708e-05,8.562207e-05,1.1652708e-05,1.0,121,0.367,0,0,0.0,False,-0.25260955396409823,1.0490321853509326
0.3795795479672961,11:14:09.045235,11:14:00.572927,0,,0.12302095,0.0020397753,0.0062505007,-0.79693836,0.08409561,-0.59817845,-0.5946369,-0.28345245,0.7523705,-0.10628405,0.95529187,0.27590036,,0.04297768,-0.027995512,0.026312709,-0.30684835,0.5995011,0.7392175,-0.26653066,-0.79973567,0.5379444,0.91367686,-0.031956702,0.40518302,,0.10503008,1.3398843,0.44090113,0.9939995,0.014106729,-0.108471476,-0.061536532,-0.74773073,-0.6611445,-0.090434045,0.6638522,-0.74237585,,-0.09891345,0.24061537,-0.08095087,0.78500015,-0.15509471,0.59976697,-0.48874053,0.4398615,0.7534285,-0.38066718,-0.8845719,0.26949024,,-0.016821211,0.40557703,-0.36725488,0.23058225,-0.5464196,-0.80514437,0.61767095,-0.55716735,0.5550199,-0.7518739,-0.62529206,0.20903462,,1.154950146806024,0.4825549636459185,0.21143915819000003,0.47033454323578816,-0.3264245979396372,1.4047790094901882,-0.39757945697083574,,-0.8161770238124173,-0.24763715234488312,0.19042888987,-0.5690985066169991,-1.3942388436065543,-1.3950509762990049,0.875034162281334,,-0.06827728033801818,-0.050730176370780186,0.08427136484,-0.06770673936139116,,0.00011299178,6.1392784e-06,-7.2717667e-06,1.0,-9.575859e-05,-8.562207e-05,9.575114e-05,0.99999994,-1.1652708e-05,8.562207e-05,1.1652708e-05,1.0,129,0.39,0,0,0.0,False,-0.2531457534307875,1.0498529487641832
0.41025238699512556,11:14:09.065413,11:14:00.572927,0,,0.12295765,0.0021011904,0.0062743127,-0.7969894,0.08423515,-0.59809077,-0.5945653,-0.28369516,0.75233567,-0.10630229,0.9552075,0.27618515,,0.042973217,-0.027984917,0.026305676,-0.30680344,0.59952855,0.7392138,-0.26658246,-0.7997127,0.5379529,0.9136769,-0.032015502,0.40517837,,0.10503008,1.3398843,0.44090113,0.9939995,0.014106729,-0.108471476,-0.061536532,-0.74773073,-0.6611445,-0.090434045,0.6638522,-0.74237585,,-0.09885014,0.2406781,-0.08093081,0.78505427,-0.15523522,0.5996598,-0.4886992,0.43962297,0.7535945,-0.38060862,-0.88466585,0.26926455,,-0.016816705,0.40557805,-0.36724228,0.23054059,-0.5464425,-0.80514073,0.6176359,-0.5572046,0.5550215,-0.7519155,-0.62523884,0.20904423,,1.1554289562442257,0.4826785273719061,0.21144952851,0.47033454323578816,-0.3262879614398718,1.4045859128463514,-0.3977428010369699,,-0.8161461328809204,-0.24757537048188932,0.19043407503,-0.5690985066169991,-1.3942388436065543,-1.3950509762990049,0.875034162281334,,-0.06827728033801818,-0.050730176370780186,0.08427136484,-0.06770673936139116,,0.00011299178,6.1392784e-06,-7.2717667e-06,1.0,-9.575859e-05,-8.562207e-05,9.575114e-05,0.99999994,-1.1652708e-05,8.562207e-05,1.1652708e-05,1.0,137,0.415,0,0,0.0,False,-0.25302659799374494,1.0499977893665218
0.43043013400165364,11:14:09.086602,11:14:00.572927,0,,0.12290335,0.0021533743,0.006285161,-0.7962096,0.08409284,-0.5991486,-0.5955206,-0.2837335,0.75156534,-0.10679713,0.9552087,0.2759902,,0.042970963,-0.02797483,0.026296914,-0.30679536,0.5994026,0.7393193,-0.2666619,-0.79980147,0.5377817,0.9136564,-0.0321593,0.4052132,,0.10503008,1.3398843,0.44090113,0.9939995,0.014106729,-0.108471476,-0.061536532,-0.74773073,-0.6611445,-0.090434045,0.6638522,-0.74237585,,-0.09879522,0.24072503,-0.08090692,0.7842821,-0.15509443,0.60070574,-0.48975462,0.43959913,0.752923,-0.38084388,-0.8847024,0.2688115,,-0.016814183,0.40557706,-0.36722896,0.23053919,-0.54629815,-0.80523914,0.61757237,-0.5573578,0.55493844,-0.7519681,-0.6252285,0.20888582,,1.155845983819434,0.4827712001663968,0.21146638028000003,0.4688667136313965,-0.3262879614398718,1.4045859128463514,-0.3977428010369699,,-0.8161306874151719,-0.24751358861889552,0.19044185277000003,-0.5688888166735145,-1.3942388436065543,-1.3950509762990049,0.875034162281334,,-0.06827728033801818,-0.050730176370780186,0.08427136484,-0.06770673936139116,,0.00011299178,6.1392784e-06,-7.2717667e-06,1.0,-9.575859e-05,-8.562207e-05,9.575114e-05,0.99999994,-1.1652708e-05,8.562207e-05,1.1652708e-05,1.0,145,0.439,0,0,0.0,False,-0.2536223751789555,1.0501909101696396
0.4516188379493542,11:14:09.115572,11:14:00.671368,0,,0.12284072,0.0022321343,0.0062942803,-0.7961489,0.084126435,-0.5992244,-0.59558123,-0.2839138,0.75144917,-0.10691124,0.95515215,0.27614158,,0.042970076,-0.027955532,0.026280701,-0.30674425,0.599438,0.7393118,-0.2667293,-0.7997719,0.5377921,0.9136539,-0.03223145,0.40521306,,0.10503008,1.3398843,0.44090113,0.9939995,0.014106729,-0.108471476,-0.061536532,-0.74773073,-0.6611445,-0.090434045,0.6638522,-0.74237585,,-0.09873111,0.24079046,-0.08086427,0.7842274,-0.15512933,0.6007681,-0.48987812,0.43942773,0.7529427,-0.38079768,-0.8847814,0.2686168,,-0.016812824,0.40557525,-0.36720383,0.2304925,-0.54632795,-0.8052322,0.6175255,-0.5574029,0.55494523,-0.7520209,-0.6251622,0.20889427,,1.1563479614562584,0.48291793209100703,0.21149878753,0.4686570236879119,-0.32615132494010635,1.4043111374623738,-0.39774280103697,,-0.816099796483675,-0.24742863855727906,0.19045740825000002,-0.5688888166735145,-1.3942388436065543,-1.3950509762990047,0.8747074741490652,,-0.06827728033801818,-0.050730176370780186,0.08427136484,-0.06770673936139116,,0.00011299178,6.1392784e-06,-7.2717667e-06,1.0,-9.575859e-05,-8.562207e-05,9.575114e-05,0.99999994,-1.1652708e-05,8.562207e-05,1.1652708e-05,1.0,160,0.485,0,0,0.0,False,-0.2533840643048717,1.0499495091657423
0.4805772739928216,11:14:09.156556,11:14:00.671368,0,,0.12277026,0.0023582205,0.006296113,-0.7965358,0.0847981,-0.5986152,-0.59511805,-0.28455725,0.7515728,-0.1066083,0.9549012,0.27712476,,0.042980336,-0.027927116,0.026242375,-0.3064814,0.60047996,0.7385749,-0.2666262,-0.7990097,0.53897494,0.91377217,-0.031737596,0.4049853,,0.10503008,1.3398843,0.44090113,0.9939995,0.014106729,-0.108471476,-0.061536532,-0.74773073,-0.6611445,-0.090434045,0.6638522,-0.74237585,,-0.09865738,0.24088581,-0.080784686,0.7846064,-0.15580095,0.600099,-0.4893233,0.43876934,0.7536871,-0.3807302,-0.88499016,0.2680242,,-0.016820893,0.40555963,-0.36715832,0.23021382,-0.5474555,-0.8045459,0.6176509,-0.5566806,0.55553037,-0.75200325,-0.6248193,0.20998083,,1.1569735028190706,0.4831882277416049,0.21156230574,0.4692860935183655,-0.32615132494010635,1.4043928162025143,-0.3979061451031042,,-0.8160148464220586,-0.24733596576278838,0.19049888953000002,-0.5703566462779062,-1.3942388436065543,-1.3949692975588641,0.8751975063474684,,-0.06827728033801818,-0.050723631386085204,0.08427136484,-0.06770673936139116,,0.00011299178,6.1392784e-06,-7.2717667e-06,1.0,-9.575859e-05,-8.562207e-05,9.575114e-05,0.99999994,-1.1652708e-05,8.562207e-05,1.1652708e-05,1.0,168,0.509,0,0,0.0,False,-0.25254997624557696,1.0501909101696396
0.5215704669826664,11:14:09.183742,11:14:00.671368,0,,0.12272456,0.0024606884,0.0062936693,-0.7965706,0.08508642,-0.59852797,-0.59507036,-0.2849547,0.75145984,-0.10661426,0.9547571,0.2776188,,0.042976625,-0.027920231,0.0262295,-0.30642888,0.60050213,0.7385787,-0.26665303,-0.7989912,0.53898907,0.913782,-0.03178236,0.40495968,,0.10503008,1.3398843,0.44090113,0.9939995,0.014106729,-0.108471476,-0.061536532,-0.74773073,-0.6611445,-0.090434045,0.6638522,-0.74237585,,-0.098608725,0.24096034,-0.08071633,0.7846429,-0.15609027,0.5999761,-0.48929158,0.43837306,0.7539382,-0.3806958,-0.88513553,0.26759264,,-0.016816344,0.40555367,-0.36714527,0.23016223,-0.5474742,-0.8045479,0.6176374,-0.5567086,0.55551744,-0.7520302,-0.624778,0.21000725,,1.15742914405865,0.48342763246070586,0.21161934250000003,0.4692860935183655,-0.32615132494010635,1.4043928162025143,-0.3979061451031042,,-0.8159685100248133,-0.24729735209841724,0.19050925985000003,-0.5703566462779062,-1.3942388436065543,-1.3949692975588641,0.8751975063474684,,-0.06827728033801818,-0.050723631386085204,0.08427136484,-0.06770673936139116,,0.00011299178,6.1392784e-06,-7.2717667e-06,1.0,-9.575859e-05,-8.562207e-05,9.575114e-05,0.99999994,-1.1652708e-05,8.562207e-05,1.1652708e-05,1.0,176,0.534,0,0,0.0,False,-0.25308617571226666,1.0499012289649627
0.5487503850017674,11:14:09.207818,11:14:00.767239,0,,0.12267502,0.0025804862,0.006283164,-0.79594845,0.08489798,-0.5993818,-0.59578824,-0.28527445,0.7507694,-0.10724941,0.95467836,0.2776448,,0.042968664,-0.027908117,0.02622056,-0.30639306,0.6003818,0.7386914,-0.26672012,-0.79907584,0.5388304,0.9137744,-0.03192994,0.40496516,,0.10503008,1.3398843,0.44090113,0.9939995,0.014106729,-0.108471476,-0.061536532,-0.74773073,-0.6611445,-0.090434045,0.6638522,-0.74237585,,-0.09855521,0.24104218,-0.08063057,0.7840439,-0.15590622,0.6008064,-0.49026465,0.4380898,0.75347054,-0.3806779,-0.8853082,0.26704633,,-0.016808249,0.40555432,-0.36713025,0.23013125,-0.54733527,-0.8046513,0.6175883,-0.55686307,0.5554172,-0.75207996,-0.62476206,0.20987624,,1.157954289894097,0.48369792811130374,0.21169063845000002,0.4680279538574584,-0.3260146884403409,1.4043630770389584,-0.39806948916923834,,-0.8159221736275679,-0.24723557023542345,0.19051444501,-0.5701469563344217,-1.3942388436065543,-1.3949692975588641,0.8751975063474684,,-0.06827728033801818,-0.05071708640139023,0.08427136484,-0.06770673936139116,,0.00011299178,6.1392784e-06,-7.2717667e-06,1.0,-9.575859e-05,-8.562207e-05,9.575114e-05,0.99999994,-1.1652708e-05,8.562207e-05,1.1652708e-05,1.0,184,0.558,0,0,0.0,False,-0.2533840643048717,1.0495632675595068
0.5728323109797202,11:14:09.233073,11:14:00.767239,0,,0.122632965,0.0026730895,0.0062758625,-0.7959789,0.08516349,-0.59930366,-0.5957488,-0.28561914,0.7506697,-0.10724288,0.95455164,0.27808273,,0.042966142,-0.027904317,0.026218176,-0.3063727,0.60039276,0.73869085,-0.2667387,-0.79906654,0.5388348,0.91377586,-0.031953096,0.40496024,,0.10503008,1.3398843,0.44090113,0.9939995,0.014106729,-0.108471476,-0.061536532,-0.74773073,-0.6611445,-0.090434045,0.6638522,-0.74237585,,-0.098510146,0.24110611,-0.08056513,0.78407496,-0.15617247,0.60069674,-0.49023053,0.43774462,0.75369334,-0.3806579,-0.885432,0.2666641,,-0.016805733,0.40555492,-0.36712584,0.23011197,-0.54734445,-0.80465055,0.61757636,-0.5568777,0.5554158,-0.7520957,-0.62474096,0.20988275,,1.158363594736431,0.48389871916603355,0.21174637892000003,0.4680279538574584,-0.3260146884403409,1.4043630770389584,-0.39806948916923834,,-0.8159067281618194,-0.24721240203680078,0.1905157413,-0.5701469563344217,-1.3942388436065543,-1.3949692975588641,0.8751975063474684,,-0.06827728033801818,-0.05071708640139023,0.08427136484,-0.06770673936139116,,0.00011299178,6.1392784e-06,-7.2717667e-06,1.0,-9.575859e-05,-8.562207e-05,9.575114e-05,0.99999994,-1.1652708e-05,8.562207e-05,1.1652708e-05,1.0,192,0.583,0,0,0.0,False,-0.2540989969271239,1.049804668563404
0.5980566009529866,11:14:09.258032,11:14:00.767239,0,,0.12255403,0.0028539374,0.006251931,-0.79623395,0.08426523,-0.5990919,-0.59524226,-0.28615034,0.75086915,-0.10815808,0.9544723,0.2780007,,0.042960707,-0.02790308,0.026212573,-0.30639124,0.60010415,0.73891777,-0.26680514,-0.79927516,0.5384925,0.91375023,-0.03215754,0.40500176,,0.10503008,1.3398843,0.44090113,0.9939995,0.014106729,-0.108471476,-0.061536532,-0.74773073,-0.6611445,-0.090434045,0.6638522,-0.74237585,,-0.098424695,0.24122426,-0.08043005,0.7844043,-0.15528637,0.60049653,-0.49047557,0.4373231,0.75377864,-0.37966254,-0.88579607,0.26687393,,-0.016799849,0.4055517,-0.3671216,0.2301367,-0.5470256,-0.8048603,0.6175193,-0.5571309,0.55522525,-0.752135,-0.6247945,0.20958263,,1.1591590362224762,0.4842307966796252,0.21186045244,0.4680279538574584,-0.32492159644221735,1.4033900550692464,-0.3979061451031042,,-0.8158835599631967,-0.24718923383817812,0.19051833388000003,-0.5697275764474526,-1.3942388436065543,-1.3949692975588641,0.8751975063474684,,-0.06827728033801818,-0.05071708640139023,0.08427136484,-0.06770673936139116,,0.00011299178,6.1392784e-06,-7.2717667e-06,1.0,-9.575859e-05,-8.562207e-05,9.575114e-05,0.99999994,-1.1652708e-05,8.562207e-05,1.1652708e-05,1.0,203,0.616,0,0,0.0,False,-0.2536223751789555,1.0499495091657423
0.6230418269988149,11:14:09.291882,11:14:00.767239,0,,0.12243745,0.0030675903,0.0062217414,-0.79635096,0.08493893,-0.59884113,-0.5950661,-0.28725538,0.7505868,-0.108266205,0.9540806,0.2793002,,0.04296011,-0.027898833,0.026210845,-0.30635452,0.6002573,0.7388085,-0.26677123,-0.79916376,0.5386746,0.91377246,-0.03206736,0.40495878,,0.10503008,1.3398843,0.44090113,0.9939995,0.014106729,-0.108471476,-0.061536532,-0.74773073,-0.6611445,-0.090434045,0.6638522,-0.74237585,,-0.098300345,0.24136312,-0.08027067,0.78453314,-0.15596382,0.6001525,-0.49041712,0.43623066,0.75444937,-0.37947172,-0.8862156,0.26575008,,-0.016799333,0.40555286,-0.36711717,0.23009612,-0.54719305,-0.8047581,0.61755276,-0.5570109,0.55530846,-0.75211996,-0.62475485,0.20975454,,1.160186159694748,0.484601487857588,0.21199656289000002,0.4680279538574584,-0.3246483234426865,1.403657291702697,-0.3992128976321786,,-0.8158681144974483,-0.24718923383817812,0.19051963017,-0.5699372663909372,-1.3942388436065543,-1.3949692975588641,0.8751975063474684,,-0.06827728033801818,-0.050710541416695246,0.08427136484,-0.06770673936139116,,0.00011299178,6.1392784e-06,-7.2717667e-06,1.0,-9.575859e-05,-8.562207e-05,9.575114e-05,0.99999994,-1.1652708e-05,8.562207e-05,1.1652708e-05,1.0,211,0.641,0,0,0.0,False,-0.25481392954937654,1.0496598279610654
0.6568458289839327,11:14:09.317589,11:14:00.855077,0,,0.122373894,0.0032325014,0.0061997026,-0.7962742,0.08459653,-0.59899163,-0.59504926,-0.28781936,0.7503841,-0.10892147,0.953941,0.27952212,,0.042960662,-0.027898654,0.026209712,-0.30635452,0.6002573,0.7388085,-0.26677123,-0.79916376,0.5386746,0.91377246,-0.03206736,0.40495878,,0.10503008,1.3398843,0.44090113,0.9939995,0.014106729,-0.108471476,-0.061536532,-0.74773073,-0.6611445,-0.090434045,0.6638522,-0.74237585,,-0.09823082,0.24147052,-0.08014676,0.78450036,-0.15562911,0.6002822,-0.4908522,0.43573073,0.7544553,-0.3789766,-0.8865203,0.26544002,,-0.01679978,0.40555197,-0.36711633,0.23009612,-0.54719305,-0.8047581,0.61755276,-0.5570109,0.55530846,-0.75211996,-0.62475485,0.20975454,,1.16086576018768,0.48494128810405385,0.21210285867000003,0.4676085739704893,-0.32410177744362473,1.403293298828052,-0.39937624169831276,,-0.8158681144974483,-0.24718923383817812,0.19052092646000002,-0.5699372663909372,-1.3942388436065543,-1.3949692975588641,0.8751975063474684,,-0.06827728033801818,-0.050710541416695246,0.08427136484,-0.06770673936139116,,0.00011299178,6.1392784e-06,-7.2717667e-06,1.0,-9.575859e-05,-8.562207e-05,9.575114e-05,0.99999994,-1.1652708e-05,8.562207e-05,1.1652708e-05,1.0,219,0.665,0,0,0.0,False,-0.25386068605304013,1.0497563883626244
0.6826060219900683,11:14:09.344189,11:14:00.855077,0,,0.122281685,0.0034834146,0.006139025,-0.7964409,0.08288086,-0.59901,-0.59451663,-0.2884841,0.7505509,-0.110598505,0.95389074,0.27903444,,0.04296344,-0.027891964,0.02620864,-0.30636442,0.6002597,0.73880243,-0.26678276,-0.7991619,0.5386716,0.9137657,-0.03206989,0.40497375,,0.10503008,1.3398843,0.44090113,0.9939995,0.014106729,-0.108471476,-0.061536532,-0.74773073,-0.6611445,-0.090434045,0.6638522,-0.74237585,,-0.0981277,0.24161536,-0.07993811,0.7847926,-0.15393347,0.60033745,-0.4915983,0.43525097,0.7542465,-0.37740123,-0.8870519,0.2659083,,-0.016802823,0.40555465,-0.36711025,0.23010726,-0.5471953,-0.80475336,0.61754173,-0.5570121,0.5553195,-0.75212556,-0.6247518,0.20974338,,1.1618619927284548,0.48535831567926196,0.21228304298000003,0.4671891940835203,-0.32232550294667406,1.4018448660799985,-0.39937624169831276,,-0.8158835599631967,-0.24717378837242965,0.19052351904,-0.5699372663909372,-1.3942388436065543,-1.3949692975588641,0.8751975063474684,,-0.06827728033801818,-0.05070399643200027,0.08427136484,-0.06770673936139116,,0.00011299178,6.1392784e-06,-7.2717667e-06,1.0,-9.575859e-05,-8.562207e-05,9.575114e-05,0.99999994,-1.1652708e-05,8.562207e-05,1.1652708e-05,1.0,227,0.689,0,0,0.0,False,-0.25386068605304013,1.0499977893665218
0.7091882499516942,11:14:09.365991,11:14:00.855077,0,,0.12223759,0.0036700144,0.0060961545,-0.7968414,0.08103355,-0.59872997,-0.59365535,-0.2892429,0.7509407,-0.11232698,0.9538197,0.27858657,,0.042962905,-0.027889282,0.02620864,-0.30636016,0.60026515,0.73879975,-0.26679733,-0.7991573,0.53867126,0.9137629,-0.03208229,0.40497908,,0.10503008,1.3398843,0.44090113,0.9939995,0.014106729,-0.108471476,-0.061536532,-0.74773073,-0.6611445,-0.090434045,0.6638522,-0.74237585,,-0.09807558,0.241724,-0.07978294,0.78533083,-0.1521078,0.6000989,-0.4921328,0.4346913,0.75422066,-0.37558064,-0.8876411,0.26651925,,-0.016802445,0.4055563,-0.36710808,0.23010415,-0.5471997,-0.8047512,0.6175306,-0.55702007,0.5553239,-0.7521357,-0.6247408,0.20973994,,1.1624952568241411,0.48570583865860206,0.21241656085000002,0.4671891940835203,-0.32041259194995786,1.4006117303888108,-0.3997029298305811,,-0.8158835599631967,-0.2471583429066812,0.19052351904,-0.5699372663909372,-1.3942388436065543,-1.3949692975588641,0.8751975063474684,,-0.06827728033801818,-0.05070399643200027,0.08427136484,-0.06770673936139116,,0.00011299178,6.1392784e-06,-7.2717667e-06,1.0,-9.575859e-05,-8.562207e-05,9.575114e-05,0.99999994,-1.1652708e-05,8.562207e-05,1.1652708e-05,1.0,235,0.714,0,0,0.0,False,-0.2540989969271239,1.049804668563404
0.7308953639585525,11:14:09.388340,11:14:00.855077,0,,0.122176886,0.0038478896,0.00605987,-0.7970686,0.080745675,-0.5984664,-0.5931914,-0.29039428,0.75086284,-0.11316225,0.9534943,0.2793616,,0.042961758,-0.027879328,0.026202977,-0.30630794,0.60043067,0.738687,-0.26679084,-0.79903555,0.5388551,0.91378236,-0.032019258,0.40494028,,0.10503008,1.3398843,0.44090113,0.9939995,0.014106729,-0.108471476,-0.061536532,-0.74773073,-0.6611445,-0.090434045,0.6638522,-0.74237585,,-0.098007575,0.24183115,-0.079639636,0.78562593,-0.15183188,0.59978247,-0.49235535,0.4336332,0.7546843,-0.37467074,-0.8882057,0.26591825,,-0.016801318,0.4055576,-0.3670967,0.23005001,-0.54737735,-0.8046459,0.61754405,-0.55691737,0.55541193,-0.7521412,-0.6246768,0.20991078,,1.163174857317073,0.4860379161721937,0.21253970840000003,0.4671891940835203,-0.31945613645159976,1.4006485924643415,-0.3993762416983129,,-0.8158603917645741,-0.24712745197518432,0.1905287042,-0.5701469563344217,-1.3942388436065543,-1.3949692975588641,0.8751975063474684,,-0.06827728033801818,-0.05069745144730529,0.08427136484,-0.06770673936139116,,0.00011299178,6.1392784e-06,-7.2717667e-06,1.0,-9.575859e-05,-8.562207e-05,9.575114e-05,0.99999994,-1.1652708e-05,8.562207e-05,1.1652708e-05,1.0,250,0.76,0,0,0.0,False,-0.254218152364166,1.0502874705711984
0.7533269739942625,11:14:09.433481,11:14:00.855077,0,,0.1220255,0.0043895915,0.005940944,-0.79740953,0.081161216,-0.59795576,-0.5925418,-0.29277527,0.75045097,-0.11415911,0.95273054,0.28155303,,0.042953707,-0.02786985,0.026188374,-0.30641454,0.59954435,0.73936236,-0.26695225,-0.79967815,0.5378209,0.9136995,-0.0325782,0.40508267,,0.10503008,1.3398843,0.44090113,0.9939995,0.014106729,-0.108471476,-0.061536532,-0.74773073,-0.6611445,-0.090434045,0.6638522,-0.74237585,,-0.097833335,0.2421509,-0.079194784,0.7860503,-0.1522635,0.5991166,-0.49254897,0.43135902,0.7558604,-0.3735243,-0.88923854,0.2640727,,-0.016792435,0.40555224,-0.36708057,0.2301733,-0.54640496,-0.8052713,0.61739576,-0.5576405,0.55485094,-0.7522252,-0.62488294,0.20899414,,1.1650283132068868,0.4871731579047047,0.21292989169,0.4671891940835203,-0.31849968095324166,1.400767133280013,-0.399376241698313,,-0.8158372235659515,-0.24708883831081319,0.19053777823,-0.5688888166735145,-1.3942388436065543,-1.3949692975588641,0.8751975063474684,,-0.06827728033801818,-0.050677816493220354,0.08427136484,-0.06770673936139116,,0.00011299178,6.1392784e-06,-7.2717667e-06,1.0,-9.575859e-05,-8.562207e-05,9.575114e-05,0.99999994,-1.1652708e-05,8.562207e-05,1.1652708e-05,1.0,258,0.784,0,0,0.0,False,-0.254218152364166,1.050432311173537
0.7984075279673561,11:14:09.457830,11:14:01.003710,0,,0.12193259,0.0046536997,0.005830243,-0.79759353,0.08199836,-0.59759605,-0.5923254,-0.2937051,0.75025856,-0.11399698,0.95237255,0.2828269,,0.04295258,-0.027864158,0.026182592,-0.30639207,0.5996184,0.7393116,-0.266978,-0.7996228,0.53789043,0.9136995,-0.032574505,0.405083,,0.10503008,1.3398843,0.44090113,0.9939995,0.014106729,-0.108471476,-0.061536532,-0.74773073,-0.6611445,-0.090434045,0.6638522,-0.74237585,,-0.09772583,0.24227142,-0.07894069,0.78622925,-0.15310125,0.59866816,-0.49227569,0.430414,0.75657684,-0.373508,-0.8895526,0.26303604,,-0.016791074,0.405551,-0.3670726,0.23015246,-0.54648215,-0.8052249,0.61737823,-0.5576138,0.5548973,-0.75224596,-0.62483925,0.20904998,,1.1659473184189195,0.48755929454841596,0.21316581647000002,0.4673988840270048,-0.31849968095324166,1.4010121695004345,-0.3993762416983129,,-0.815821778100203,-0.2470579473793163,0.19054296339000001,-0.5688888166735145,-1.3942388436065543,-1.3950509762990047,0.8753608504136028,,-0.06827728033801818,-0.050677816493220354,0.08427136484,-0.06770673936139116,,0.00011299178,6.1392784e-06,-7.2717667e-06,1.0,-9.575859e-05,-8.562207e-05,9.575114e-05,0.99999994,-1.1652708e-05,8.562207e-05,1.1652708e-05,1.0,266,0.808,0,0,0.0,False,-0.254218152364166,1.0502874705711984
0.822848271986004,11:14:09.487056,11:14:01.003710,0,,0.12173524,0.0051148757,0.005770743,-0.79779804,0.08296612,-0.5971893,-0.59201515,-0.2953659,0.7498513,-0.11417702,0.95177495,0.28475937,,0.042953376,-0.027859688,0.026180863,-0.30637842,0.59962666,0.73931056,-0.26697907,-0.7996164,0.5378994,0.9137037,-0.03257957,0.405073,,0.10503008,1.3398843,0.44090113,0.9939995,0.014106729,-0.108471476,-0.061536532,-0.74773073,-0.6611445,-0.090434045,0.6638522,-0.74237585,,-0.09751196,0.24257368,-0.07859709,0.786454,-0.15407419,0.59812313,-0.4921658,0.42876717,0.75758266,-0.3731795,-0.8901797,0.2613756,,-0.016791964,0.40555215,-0.36706796,0.23013856,-0.5464902,-0.8052234,0.61737955,-0.5576151,0.5548945,-0.7522491,-0.6248311,0.2090631,,1.16788572437035,0.48849374522619715,0.21346396317000002,0.4673988840270048,-0.3182264079537108,1.400871012433182,-0.39953958576444704,,-0.8158140553673288,-0.24705022464644205,0.19054425968000002,-0.5688888166735145,-1.3942388436065543,-1.3950509762990047,0.8753608504136028,,-0.06828382532271315,-0.05067127150852538,0.08427136484,-0.06770673936139116,,0.00011299178,6.1392784e-06,-7.2717667e-06,1.0,-9.575859e-05,-8.562207e-05,9.575114e-05,0.99999994,-1.1652708e-05,8.562207e-05,1.1652708e-05,1.0,274,0.833,0,0,0.0,False,-0.25439688551972894,1.0502874705711984
0.8520176809979603,11:14:09.509879,11:14:01.003710,0,,0.121456265,0.0057488456,0.005843535,-0.7980183,0.08417527,-0.5967257,-0.5916015,-0.29802442,0.7491255,-0.1147809,0.9508395,0.28762692,,0.04294913,-0.027858987,0.026177287,-0.30634835,0.59963495,0.7393162,-0.26697993,-0.7996095,0.5379092,0.91371346,-0.03259492,0.40504956,,0.10503008,1.3398843,0.44090113,0.9939995,0.014106729,-0.108471476,-0.061536532,-0.74773073,-0.6611445,-0.090434045,0.6638522,-0.74237585,,-0.0972205,0.24309449,-0.078238145,0.7867253,-0.15529391,0.5974505,-0.492268,0.4261537,0.75898963,-0.37247223,-0.8912221,0.25881967,,-0.016787425,0.4055501,-0.36706534,0.2301078,-0.5464974,-0.8052273,0.6173835,-0.55762446,0.5548807,-0.75225526,-0.6248164,0.20908476,,1.17077402646531,0.4901618555270296,0.21375173955000001,0.4671891940835203,-0.31781649845441445,1.4006184374622335,-0.3997029298305812,,-0.8157831644358319,-0.24704250191356783,0.19054555597000003,-0.5688888166735145,-1.3942388436065543,-1.3950509762990047,0.8753608504136028,,-0.06828382532271315,-0.05067127150852538,0.08427136484,-0.06770673936139116,,0.00011299178,6.1392784e-06,-7.2717667e-06,1.0,-9.575859e-05,-8.562207e-05,9.575114e-05,0.99999994,-1.1652708e-05,8.562207e-05,1.1652708e-05,1.0,282,0.857,0,0,0.0,False,-0.25386068605304013,1.0501909101696396
0.8748020999482833,11:14:09.532878,11:14:01.081619,0,,0.121211365,0.006328605,0.006067127,-0.79887086,0.086048454,-0.595316,-0.59044814,-0.3010559,0.74882317,-0.114788204,0.9497163,0.2913118,,0.04294492,-0.027855605,0.02617544,-0.30632105,0.5997079,0.7392684,-0.266997,-0.7995552,0.5379815,0.91371775,-0.03258729,0.4050407,,0.10503008,1.3398843,0.44090113,0.9939995,0.014106729,-0.108471476,-0.061536532,-0.74773073,-0.6611445,-0.090434045,0.6638522,-0.74237585,,-0.096974544,0.24367732,-0.078023866,0.787609,-0.15717413,0.59579223,-0.4914072,0.423123,0.7612397,-0.37174058,-0.89233583,0.25601897,,-0.01678326,0.40555108,-0.3670616,0.23008122,-0.54657364,-0.8051832,0.61737394,-0.5575951,0.55492085,-0.7522713,-0.62477595,0.20914817,,1.173531042101408,0.49212342967708267,0.21388914629000003,0.46823764380094285,-0.31781649845441445,1.400700116202374,-0.3995395857644469,,-0.8157599962372092,-0.24701933371494517,0.19054555597000003,-0.5688888166735145,-1.3942388436065543,-1.3951326550391452,0.8755241944797367,,-0.06828382532271315,-0.050664726523830396,0.08427136484,-0.06770673936139116,,0.00011299178,6.1392784e-06,-7.2717667e-06,1.0,-9.575859e-05,-8.562207e-05,9.575114e-05,0.99999994,-1.1652708e-05,8.562207e-05,1.1652708e-05,1.0,297,0.903,0,0,0.0,False,-0.2536223751789555,1.050335750771978
0.8978236489929259,11:14:09.579175,11:14:01.081619,0,,0.12116855,0.008436166,0.0072903037,-0.7998299,0.086771235,-0.5939218,-0.58793426,-0.3124899,0.7461121,-0.120853394,0.9459497,0.3009544,,0.042939562,-0.027867094,0.026170373,-0.3062767,0.599727,0.7392713,-0.2670484,-0.7995383,0.5379811,0.91371757,-0.032650113,0.40503603,,0.10503008,1.3398843,0.44090113,0.9939995,0.014106729,-0.108471476,-0.061536532,-0.74773073,-0.6611445,-0.090434045,0.6638522,-0.74237585,,-0.09695281,0.24605456,-0.07748711,0.789038,-0.15797094,0.593687,-0.49366614,0.4121653,0.7657764,-0.36566758,-0.89730984,0.24722919,,-0.016776778,0.4055409,-0.36706802,0.23004013,-0.54658747,-0.8051855,0.617339,-0.5576381,0.5549165,-0.7523125,-0.62472546,0.20915061,,1.180095365044499,0.5022711006738136,0.21414321913000003,0.4678182639139738,-0.31767986195464903,1.4006703770388182,-0.3997029298305813,,-0.8157213825728381,-0.24698844278344828,0.19054814855000002,-0.5688888166735145,-1.3942388436065543,-1.3951326550391452,0.8755241944797367,,-0.06828382532271315,-0.05070399643200027,0.08427136484,-0.06770673936139116,,0.00011299178,6.1392784e-06,-7.2717667e-06,1.0,-9.575859e-05,-8.562207e-05,9.575114e-05,0.99999994,-1.1652708e-05,8.562207e-05,1.1652708e-05,1.0,305,0.928,0,0,0.0,False,-0.2536819528974772,1.050335750771978
0.944191422953736,11:14:09.600144,11:14:01.081619,0,,0.121398374,0.00970269,0.008095756,-0.8007828,0.08624239,-0.59271353,-0.5857163,-0.31966233,0.744817,-0.12523332,0.9435985,0.30649352,,0.042941324,-0.027856365,0.026168942,-0.30615145,0.6003572,0.7388116,-0.2670239,-0.7990769,0.5386783,0.91376674,-0.032363176,0.40494823,,0.10503008,1.3398843,0.44090113,0.9939995,0.014106729,-0.108471476,-0.061536532,-0.74773073,-0.6611445,-0.090434045,0.6638522,-0.74237585,,-0.097199306,0.24752481,-0.077198654,0.790341,-0.15749183,0.59207886,-0.4949962,0.40532333,0.76856476,-0.36102605,-0.900505,0.2423858,,-0.01677901,0.4055458,-0.36705846,0.22990946,-0.5472682,-0.80476034,0.61737865,-0.55721056,0.5553017,-0.75231993,-0.62451094,0.2097637,,1.1829141625435908,0.5091211647332508,0.21426247781000002,0.46823764380094285,-0.31767986195464903,1.4008337345190993,-0.39937624169831276,,-0.8157059371070896,-0.24691893818758026,0.19055203742000001,-0.5697275764474526,-1.3942388436065543,-1.3951326550391452,0.8755241944797367,,-0.06828382532271315,-0.050710541416695246,0.08427136484,-0.06770673936139116,,0.00011299178,6.1392784e-06,-7.2717667e-06,1.0,-9.575859e-05,-8.562207e-05,9.575114e-05,0.99999994,-1.1652708e-05,8.562207e-05,1.1652708e-05,1.0,313,0.951,0,0,0.0,False,-0.2538011083345184,1.0505288715750958
0.9651602109661326,11:14:09.629534,11:14:01.174946,0,,0.1217707,0.011436917,0.00936389,-0.8015832,0.08494006,-0.5918191,-0.58312625,-0.32963505,0.74249876,-0.13201639,0.94027966,0.31376052,,0.042939175,-0.027844459,0.02616632,-0.30609754,0.60053223,0.7386916,-0.26705405,-0.79894674,0.5388564,0.9137759,-0.03232795,0.40493017,,0.10503008,1.3398843,0.44090113,0.9939995,0.014106729,-0.108471476,-0.061536532,-0.74773073,-0.6611445,-0.090434045,0.6638522,-0.74237585,,-0.09760523,0.249649,-0.076920405,0.7916614,-0.15625685,0.59064037,-0.4976914,0.39578998,0.771786,-0.3543664,-0.9049498,0.23556393,,-0.016777301,0.4055508,-0.36704725,0.22985671,-0.54745317,-0.8046496,0.6173625,-0.5571265,0.555404,-0.75234926,-0.6244238,0.20991777,,1.1867523607820805,0.5190757674081262,0.21431821828000003,0.4678182639139738,-0.31781649845441445,1.4009451524227956,-0.39937624169831276,,-0.8156904916413411,-0.24685715632458646,0.19055463000000003,-0.5699372663909372,-1.3942388436065543,-1.3951326550391452,0.8755241944797367,,-0.06828382532271315,-0.05071708640139023,0.08427136484,-0.06770673936139116,,0.00011299178,6.1392784e-06,-7.2717667e-06,1.0,-9.575859e-05,-8.562207e-05,9.575114e-05,0.99999994,-1.1652708e-05,8.562207e-05,1.1652708e-05,1.0,321,0.976,0,0,0.0,False,-0.25350321974191337,1.050335750771978
0.994550208968576,11:14:09.651897,11:14:01.174946,0,,0.122489385,0.012253508,0.009983927,-0.80175704,0.08084704,-0.59215665,-0.5815147,-0.33420476,0.74171937,-0.1379357,0.9390266,0.31496465,,0.042982914,-0.02783779,0.02616167,-0.3060272,0.60060346,0.7386627,-0.2671747,-0.79888856,0.5388827,0.91376424,-0.032439113,0.40494767,,0.10499069,1.339887,0.44090337,0.99400324,0.014152808,-0.10843073,-0.061475277,-0.74772984,-0.6611512,-0.090434045,0.6638522,-0.74237585,,-0.09830865,0.2506487,-0.07677274,0.7923092,-0.15220226,0.59083045,-0.5004933,0.39168632,0.77206755,-0.34893063,-0.9074229,0.23416045,,-0.016784709,0.40554836,-0.36703795,0.2297975,-0.5474653,-0.8046582,0.6172899,-0.55721223,0.55539864,-0.7524269,-0.6243366,0.20989886,,1.186119096686394,0.5249913807897821,0.21437784762000003,0.4671891940835203,-0.3174065889551182,1.400529219971566,-0.40019296202898436,,-0.8156827689084669,-0.2467413153314731,0.19055981516,-0.5699372663909372,-1.3942388436065543,-1.3951326550391452,0.8755241944797367,,-0.06828382532271315,-0.050730176370780186,0.08427136484,-0.06770673936139116,,7.3470175e-05,5.00679e-06,-6.4373016e-06,1.0,-5.0008297e-05,-4.4718385e-05,5.0000846e-05,0.99999994,-6.109476e-06,4.4718385e-05,6.0796738e-06,1.0,329,1.0,0,0,0.0,False,-0.2551713958605024,1.050335750771978
1.0169082239735872,11:14:09.674792,11:14:01.174946,0,,0.123109624,0.013042033,0.01054953,-0.80210644,0.07250498,-0.59276336,-0.5788041,-0.33873576,0.7417841,-0.147007,0.93808377,0.31366816,,0.0429758,-0.027853586,0.026157856,-0.30600154,0.6004849,0.73876977,-0.2673068,-0.79896975,0.5386969,0.91373426,-0.032635987,0.40499967,,0.10499069,1.339887,0.44090337,0.99400324,0.014152808,-0.10843073,-0.061475277,-0.74772984,-0.6611512,-0.090434045,0.6638522,-0.74237585,,-0.09894232,0.25159612,-0.07660766,0.79333436,-0.14394799,0.5915231,-0.5046671,0.38792714,0.7712481,-0.34048748,-0.9103799,0.2351101,,-0.016776348,0.40553692,-0.3670486,0.22978255,-0.5473235,-0.8047589,0.61718625,-0.5574047,0.5553208,-0.75251657,-0.62428916,0.20971867,,1.1857870191728024,0.5303664028702424,0.21446081018000002,0.46572136447912865,-0.3131708574623895,1.3976470161379606,-0.40264312302099836,,-0.81565187797697,-0.24667181073560507,0.19056111145000001,-0.5697275764474526,-1.3942388436065543,-1.3951326550391452,0.8755241944797367,,-0.06828382532271315,-0.05078253624834001,0.08427136484,-0.06770673936139116,,7.3470175e-05,5.00679e-06,-6.4373016e-06,1.0,-5.0008297e-05,-4.4718385e-05,5.0000846e-05,0.99999994,-6.109476e-06,4.4718385e-05,6.0796738e-06,1.0,337,1.025,0,0,0.0,False,-0.2561246393568388,1.049708108161845
1.0397687109652907,11:14:09.702630,11:14:01.174946,0,,0.1230725,0.013189837,0.010569841,-0.798987,0.070605874,-0.597189,-0.5822338,-0.3392233,0.7388716,-0.15041168,0.9380524,0.31214398,,0.04296388,-0.027826972,0.026148915,-0.30584538,0.60079145,0.73858523,-0.2673793,-0.79873943,0.5390023,0.91376525,-0.03263098,0.40493,,0.10499069,1.339887,0.44090337,0.99400324,0.014152808,-0.10843073,-0.061475277,-0.74772984,-0.6611512,-0.090434045,0.6638522,-0.74237585,,-0.098902434,0.25171915,-0.07652452,0.7903508,-0.14206555,0.59595555,-0.50957125,0.3875946,0.7681846,-0.34012175,-0.9108171,0.23394316,,-0.016765162,0.40554646,-0.3670219,0.22962856,-0.5476419,-0.8045863,0.61715156,-0.55730194,0.5554625,-0.75259197,-0.6241017,0.21000558,,1.1864357287342373,0.5308220441098217,0.21453080984000003,0.45964035611807735,-0.31248767496356233,1.3979883927610248,-0.4037865314839383,,-0.8155746506482278,-0.2465173560781206,0.19056759290000003,-0.5701469563344217,-1.3942388436065543,-1.3950509762990047,0.8756875385458711,,-0.06828382532271315,-0.05078253624834001,0.08427136484,-0.06770673936139116,,7.3470175e-05,5.00679e-06,-6.4373016e-06,1.0,-5.0008297e-05,-4.4718385e-05,5.0000846e-05,0.99999994,-6.109476e-06,4.4718385e-05,6.0796738e-06,1.0,345,1.05,0,0,0.0,False,-0.2568991496976123,1.0499495091657423
1.0675276199472137,11:14:09.729519,11:14:01.271225,0,,0.12301428,0.013009459,0.0103735775,-0.7992063,0.07124454,-0.5968195,-0.582232,-0.3383242,0.73928505,-0.14924838,0.9383288,0.31187153,,0.04296491,-0.027809195,0.026147127,-0.30577612,0.60112226,0.7383447,-0.2674097,-0.79849494,0.5393493,0.9137795,-0.032520324,0.4049067,,0.10499069,1.339887,0.44090337,0.99400324,0.014152808,-0.10843073,-0.061475277,-0.74772984,-0.6611512,-0.090434045,0.6638522,-0.74237585,,-0.09883651,0.25145492,-0.07650777,0.7904927,-0.14269534,0.5956167,-0.50877357,0.38842592,0.7682934,-0.34098488,-0.9103644,0.23444825,,-0.01676704,0.40555522,-0.3670064,0.22956009,-0.5479955,-0.80436504,0.6171376,-0.55710846,0.555672,-0.7526243,-0.623964,0.21029878,,1.1860341466247775,0.529563238651323,0.21457099483000003,0.46026942594853093,-0.31248767496356233,1.398315107721587,-0.4044399077484756,,-0.8155746506482278,-0.24644012874937832,0.19057018548000002,-0.5705663362213907,-1.3942388436065543,-1.3950509762990047,0.8756875385458711,,-0.06828382532271315,-0.05078253624834001,0.08427136484,-0.06770673936139116,,7.3470175e-05,5.00679e-06,-6.4373016e-06,1.0,-5.0008297e-05,-4.4718385e-05,5.0000846e-05,0.99999994,-6.109476e-06,4.4718385e-05,6.0796738e-06,1.0,353,1.074,0,0,0.0,False,-0.2570183051346544,1.0497563883626244
1.0945348219829611,11:14:09.752229,11:14:01.271225,0,,0.12286102,0.012732476,0.010119259,-0.79789364,0.07137137,-0.5985581,-0.58418477,-0.33640212,0.73862135,-0.14863971,0.93900996,0.31010708,,0.04295912,-0.027789228,0.02614206,-0.3057232,0.601107,0.73837906,-0.2675137,-0.79850113,0.53928864,0.9137668,-0.03265333,0.40492463,,0.10499069,1.339887,0.44090337,0.99400324,0.014152808,-0.10843073,-0.061475277,-0.74772984,-0.6611512,-0.090434045,0.6638522,-0.74237585,,-0.098674685,0.25108272,-0.07652076,0.7890879,-0.14281239,0.59744865,-0.5098224,0.39029452,0.76664937,-0.34266797,-0.9095465,0.23516773,,-0.016761942,0.40556338,-0.36698726,0.22951475,-0.5479669,-0.80439746,0.6170611,-0.5572176,0.5556475,-0.75270087,-0.62389165,0.2102394,,1.1858333555700478,0.527632555432767,0.21459173547000002,0.4581725265136858,-0.31248767496356233,1.3983967864617277,-0.40460325181460977,,-0.8155514824496051,-0.24632428775626497,0.19057407435,-0.5705663362213907,-1.3942388436065543,-1.3949692975588641,0.8755241944797372,,-0.06828382532271315,-0.05078253624834001,0.08427136484,-0.06770673936139116,,7.3470175e-05,5.00679e-06,-6.4373016e-06,1.0,-5.0008297e-05,-4.4718385e-05,5.0000846e-05,0.99999994,-6.109476e-06,4.4718385e-05,6.0796738e-06,1.0,361,1.099,0,0,0.0,False,-0.2570778828531757,1.0496115477602863
1.1172471029567532,11:14:09.780115,11:14:01.271225,0,,0.1226429,0.012432799,0.009821534,-0.7964499,0.07187064,-0.6004184,-0.5863797,-0.3343734,0.73780286,-0.14773747,0.9396962,0.30845502,,0.04295407,-0.027775787,0.026132226,-0.30566698,0.6011412,0.7383744,-0.26757824,-0.7984723,0.53929937,0.91376674,-0.032726884,0.40491894,,0.10499069,1.339887,0.44090337,0.99400324,0.014152808,-0.10843073,-0.061475277,-0.74772984,-0.6611512,-0.090434045,0.6638522,-0.74237585,,-0.098445944,0.25066593,-0.07652187,0.7875259,-0.1432982,0.59939015,-0.5108524,0.39223573,0.7649712,-0.34472123,-0.90863454,0.23569158,,-0.016756734,0.4055638,-0.36697066,0.22946261,-0.5479954,-0.80439293,0.6170172,-0.55726415,0.5556496,-0.7527527,-0.6238251,0.2102513,,1.1858410783029218,0.525362071967745,0.21462932788000003,0.4558659371353559,-0.31248767496356233,1.398641822682149,-0.4050932840130125,,-0.815512868785234,-0.24624706042752273,0.19058185209000003,-0.5705663362213907,-1.3942388436065543,-1.3949692975588641,0.8755241944797372,,-0.06828382532271315,-0.05078253624834001,0.08427136484,-0.06770673936139116,,7.3470175e-05,5.00679e-06,-6.4373016e-06,1.0,-5.0008297e-05,-4.4718385e-05,5.0000846e-05,0.99999994,-6.109476e-06,4.4718385e-05,6.0796738e-06,1.0,398,1.213,0,0,0.0,False,-0.2564821056679656,1.0496598279610654
1.1451326159876771,11:14:09.883431,11:14:01.373601,0,,0.12274711,0.012755334,0.0100839585,-0.79426503,0.07080911,-0.60343117,-0.58858997,-0.33599105,0.73530376,-0.1506812,0.9391997,0.30854335,,0.042944185,-0.027749933,0.026106656,-0.30554265,0.60114956,0.7384191,-0.26769707,-0.7984587,0.5392605,0.91377354,-0.0329054,0.40488914,,0.10499069,1.339887,0.44090337,0.99400324,0.014152808,-0.10843073,-0.061475277,-0.74772984,-0.6611512,-0.090434045,0.6638522,-0.74237585,,-0.0985581,0.25107822,-0.07648716,0.7854787,-0.14225246,0.60231835,-0.5145268,0.39073843,0.763273,-0.34392637,-0.9094436,0.23372401,,-0.016745891,0.40555924,-0.36693487,0.22934529,-0.5479869,-0.80443215,0.6169398,-0.5574013,0.55559796,-0.75285196,-0.62371,0.21023758,,1.1864743423986084,0.5274008734465402,0.2146267353,0.45167213826566543,-0.3128975844628586,1.3992211126136602,-0.4049299399468782,,-0.8154201959907433,-0.24610032850291244,0.19060259273000002,-0.5705663362213907,-1.3942388436065543,-1.3948876188187236,0.8753608504136028,,-0.06828382532271315,-0.05078253624834001,0.08427136484,-0.06770673936139116,,7.3470175e-05,5.00679e-06,-6.4373016e-06,1.0,-5.0008297e-05,-4.4718385e-05,5.0000846e-05,0.99999994,-6.109476e-06,4.4718385e-05,6.0796738e-06,1.0,406,1.238,0,0,0.0,False,-0.25636295023092304,1.0497563883626244
1.2483955389470793,11:14:09.915352,11:14:01.373601,0,,0.12281336,0.012797698,0.010130733,-0.7942851,0.07047169,-0.6034443,-0.58845395,-0.33627427,0.73528314,-0.15110606,0.9391237,0.3085669,,0.042949893,-0.027747847,0.026109874,-0.30554768,0.60129434,0.7382992,-0.26767868,-0.79835373,0.539425,0.91377723,-0.032806784,0.40488878,,0.10499069,1.339887,0.44090337,0.99400324,0.014152808,-0.10843073,-0.061475277,-0.74772984,-0.6611512,-0.090434045,0.6638522,-0.74237585,,-0.09862606,0.25113946,-0.076488025,0.7855307,-0.14191893,0.6023293,-0.51471555,0.39048737,0.7632742,-0.34352502,-0.90960354,0.23369193,,-0.016752,0.40556243,-0.36693498,0.22934887,-0.5481465,-0.8043224,0.61695397,-0.55727726,0.5557066,-0.7528392,-0.6236806,0.21037026,,1.1863121650082495,0.5278179010217483,0.21462025385000003,0.45167213826566543,-0.3128975844628586,1.3992211126136602,-0.4049299399468782,,-0.8154510869222402,-0.24610032850291244,0.19060259273000002,-0.5707760261648752,-1.3942388436065543,-1.3948876188187236,0.8753608504136028,,-0.06828382532271315,-0.05078253624834001,0.08427136484,-0.06770673936139116,,7.3470175e-05,5.00679e-06,-6.4373016e-06,1.0,-5.0008297e-05,-4.4718385e-05,5.0000846e-05,0.99999994,-6.109476e-06,4.4718385e-05,6.0796738e-06,1.0,414,1.263,0,0,0.0,False,-0.2566012611050077,1.0496115477602863
1.280365857994184,11:14:09.941008,11:14:01.373601,0,,0.12282642,0.012796059,0.010131091,-0.7942587,0.07057099,-0.6034674,-0.58850557,-0.3362741,0.73524195,-0.15104362,0.93911636,0.30861992,,0.042946454,-0.027749516,0.026107907,-0.30555663,0.60114676,0.7384156,-0.26770023,-0.79846096,0.5392555,0.91376793,-0.03290084,0.40490216,,0.10499069,1.339887,0.44090337,0.99400324,0.014152808,-0.10843073,-0.061475277,-0.74772984,-0.6611512,-0.090434045,0.6638522,-0.74237585,,-0.09863916,0.25113818,-0.07648851,0.78549874,-0.14201747,0.6023477,-0.51471156,0.39048007,0.76328063,-0.34360394,-0.9095913,0.23362358,,-0.016748292,0.40556023,-0.36693522,0.2293599,-0.5479844,-0.80442965,0.616935,-0.5573986,0.55560595,-0.7528514,-0.62371457,0.2102259,,1.1862426604123817,0.5278487919532452,0.21462025385000003,0.45167213826566543,-0.31303422096262407,1.3993325305173567,-0.4049299399468782,,-0.8154356414564917,-0.24610032850291244,0.19060259273000002,-0.5705663362213907,-1.3942388436065543,-1.3948876188187236,0.8753608504136028,,-0.06828382532271315,-0.05078253624834001,0.08427136484,-0.06770673936139116,,7.3470175e-05,5.00679e-06,-6.4373016e-06,1.0,-5.0008297e-05,-4.4718385e-05,5.0000846e-05,0.99999994,-6.109476e-06,4.4718385e-05,6.0796738e-06,1.0,422,1.287,0,0,0.0,False,-0.2566012611050077,1.0499012289649627
1.3060236210003495,11:14:09.962161,11:14:01.504645,0,,0.12283429,0.012792438,0.010137185,-0.7942576,0.07052656,-0.6034741,-0.5884977,-0.33627757,0.73524666,-0.15108031,0.9391184,0.30859557,,0.042941064,-0.027749054,0.026103616,-0.30551958,0.60115653,0.73842305,-0.26769957,-0.7984529,0.53926784,0.9137805,-0.032918513,0.40487233,,0.10499069,1.339887,0.44090337,0.99400324,0.014152808,-0.10843073,-0.061475277,-0.74772984,-0.6611512,-0.090434045,0.6638522,-0.74237585,,-0.09864751,0.2511395,-0.076494895,0.7855003,-0.1419734,0.6023561,-0.51473075,0.39048004,0.7632677,-0.34357172,-0.9095982,0.23364413,,-0.016742548,0.4055577,-0.36693242,0.22932182,-0.5479929,-0.8044348,0.61694133,-0.5574093,0.5555882,-0.7528578,-0.6236976,0.21025337,,1.1862040467480104,0.5278719601518679,0.2146137724,0.45167213826566543,-0.31303422096262407,1.3993325305173567,-0.4049299399468782,,-0.8153970277921206,-0.24609260577003822,0.19060388902000003,-0.5705663362213907,-1.3942388436065543,-1.3948876188187236,0.8753608504136028,,-0.06828382532271315,-0.05078253624834001,0.08427136484,-0.06770673936139116,,7.3470175e-05,5.00679e-06,-6.4373016e-06,1.0,-5.0008297e-05,-4.4718385e-05,5.0000846e-05,0.99999994,-6.109476e-06,4.4718385e-05,6.0796738e-06,1.0,430,1.312,0,0,0.0,False,-0.256541683386486,1.05014262996886
1.327174327976536,11:14:09.988891,11:14:01.504645,0,,0.12282276,0.012793899,0.010136113,-0.7945842,0.07090059,-0.60300004,-0.5881688,-0.33630237,0.7354984,-0.15064302,0.93908143,0.30892193,,0.042931654,-0.027748637,0.026097357,-0.3055171,0.6008722,0.7386553,-0.2677612,-0.79865813,0.5389332,0.9137633,-0.03312981,0.40489396,,0.10499069,1.339887,0.44090337,0.99400324,0.014152808,-0.10843073,-0.061475277,-0.74772984,-0.6611512,-0.090434045,0.6638522,-0.74237585,,-0.098635904,0.25114012,-0.076493904,0.7858065,-0.14234471,0.60186887,-0.5141845,0.3904276,0.76366264,-0.34368956,-0.9095627,0.2336091,,-0.016732607,0.4055539,-0.36692852,0.22932461,-0.5476779,-0.80464846,0.61689144,-0.55766654,0.5553854,-0.75289786,-0.6237443,0.20997113,,1.1862503831452558,0.5278487919532452,0.21461506869000002,0.45230120809611907,-0.3131708574623895,1.3993622696809125,-0.4047665958807438,,-0.8153506913948753,-0.24606943757141556,0.19060518531,-0.5701469563344217,-1.3942388436065543,-1.3948876188187236,0.8753608504136028,,-0.06828382532271315,-0.05078253624834001,0.08427136484,-0.06770673936139116,,7.3470175e-05,5.00679e-06,-6.4373016e-06,1.0,-5.0008297e-05,-4.4718385e-05,5.0000846e-05,0.99999994,-6.109476e-06,4.4718385e-05,6.0796738e-06,1.0,438,1.336,0,0,0.0,False,-0.256541683386486,1.050046069567301
1.3538899939740077,11:14:10.018184,11:14:01.504645,0,,0.122822516,0.012795448,0.010140583,-0.79470205,0.07091674,-0.6028428,-0.5880308,-0.336286,0.7356162,-0.15055999,0.939086,0.30894828,,0.04292968,-0.027745865,0.026096582,-0.30553362,0.6007298,0.73876435,-0.2678076,-0.7987608,0.53875804,0.9137441,-0.033237934,0.40492827,,0.10499069,1.339887,0.44090337,0.99400324,0.014152808,-0.10843073,-0.061475277,-0.74772984,-0.6611512,-0.090434045,0.6638522,-0.74237585,,-0.098635904,0.2511443,-0.076496124,0.78592247,-0.14236067,0.60171366,-0.514024,0.39044237,0.76376307,-0.34366432,-0.9095538,0.23368062,,-0.016730731,0.40555516,-0.36692587,0.22934557,-0.54751986,-0.80475,0.616851,-0.55779713,0.5552992,-0.7529246,-0.62376624,0.20980988,,1.18625810587813,0.5278642374189937,0.21461247611000003,0.45251089803960354,-0.3131708574623895,1.399280590940772,-0.40460325181460965,,-0.8153506913948753,-0.2460462693727929,0.19060518531,-0.5699372663909372,-1.3942388436065543,-1.3948876188187236,0.8753608504136028,,-0.06828382532271315,-0.05078253624834001,0.08427136484,-0.06770673936139116,,7.3470175e-05,5.00679e-06,-6.4373016e-06,1.0,-5.0008297e-05,-4.4718385e-05,5.0000846e-05,0.99999994,-6.109476e-06,4.4718385e-05,6.0796738e-06,1.0,446,1.361,0,0,0.0,False,-0.25642252794944387,1.0499977893665218
1.3831861009821296,11:14:10.041491,11:14:01.596746,0,,0.12282163,0.012784645,0.010140821,-0.79467434,0.07108539,-0.60285956,-0.5881029,-0.3362532,0.73557365,-0.15042478,0.939085,0.30901718,,0.042929716,-0.027743183,0.02609843,-0.30553636,0.6007339,0.73875993,-0.26782367,-0.7987574,0.5387551,0.91373855,-0.033248007,0.40494013,,0.10499069,1.339887,0.44090337,0.99400324,0.014152808,-0.10843073,-0.061475277,-0.74772984,-0.6611512,-0.090434045,0.6638522,-0.74237585,,-0.098635346,0.25113657,-0.07650371,0.78588384,-0.14252788,0.6017245,-0.5139856,0.39046162,0.7637791,-0.34381014,-0.9095194,0.23360021,,-0.016731104,0.40555817,-0.36692473,0.22934975,-0.5475231,-0.8047466,0.61683744,-0.55780375,0.5553076,-0.75293446,-0.62375754,0.20980059,,1.1862349376795074,0.5278333464874968,0.21460599466000002,0.45251089803960354,-0.31330749396215496,1.3993920088444685,-0.40460325181460965,,-0.8153584141277495,-0.24603082390704442,0.19060388902000003,-0.5699372663909372,-1.3942388436065543,-1.3948876188187236,0.8753608504136028,,-0.06828382532271315,-0.05078253624834001,0.08427136484,-0.06770673936139116,,7.3470175e-05,5.00679e-06,-6.4373016e-06,1.0,-5.0008297e-05,-4.4718385e-05,5.0000846e-05,0.99999994,-6.109476e-06,4.4718385e-05,6.0796738e-06,1.0,475,1.451,0,0,0.0,False,-0.25624379479388093,1.0498529487641832
1.4064906449639238,11:14:10.122913,11:14:01.679759,0,,0.12288105,0.012783945,0.010193363,-0.7951641,0.071660794,-0.60214514,-0.58758944,-0.3364265,0.73590463,-0.14984205,0.93897915,0.30962127,,0.042904146,-0.027744345,0.02608347,-0.30543402,0.6004719,0.73901516,-0.26787034,-0.79894376,0.53845525,0.91375905,-0.033497542,0.40487322,,0.10499069,1.339887,0.44090337,0.99400324,0.014152808,-0.10843073,-0.061475277,-0.74772984,-0.6611512,-0.090434045,0.6638522,-0.74237585,,-0.0986981,0.25117034,-0.07653854,0.78634834,-0.1430997,0.6009815,-0.5132012,0.39024872,0.76441514,-0.3439198,-0.909521,0.2334325,,-0.016704166,0.40554833,-0.36691725,0.22924876,-0.5472276,-0.80497634,0.6168154,-0.55808353,0.5550509,-0.7529833,-0.62376654,0.20959842,,1.185987810227532,0.5281268103367173,0.21456969854000002,0.45355934775702617,-0.3138540399612167,1.399674322978973,-0.4042765636823411,,-0.815203959470265,-0.24599993297554754,0.19060518531,-0.5695178865039682,-1.3942388436065543,-1.3948876188187236,0.8753608504136028,,-0.06828382532271315,-0.05078253624834001,0.08427136484,-0.06770673936139116,,7.3470175e-05,5.00679e-06,-6.4373016e-06,1.0,-5.0008297e-05,-4.4718385e-05,5.0000846e-05,0.99999994,-6.109476e-06,4.4718385e-05,6.0796738e-06,1.0,479,1.463,0,0,0.0,False,-0.2566012611050077,1.0498529487641832
1.4879314779536799,11:14:10.151105,11:14:01.679759,0,,0.12289948,0.012762934,0.010234624,-0.7955114,0.07173827,-0.6016771,-0.58716136,-0.3365426,0.73619324,-0.14967668,0.9389317,0.30984527,,0.04290184,-0.027745806,0.026082098,-0.30544996,0.6003227,0.73912984,-0.26789343,-0.7990521,0.53828317,0.91374695,-0.033589363,0.40489292,,0.10499069,1.339887,0.44090337,0.99400324,0.014152808,-0.10843073,-0.061475277,-0.74772984,-0.6611512,-0.090434045,0.6638522,-0.74237585,,-0.09871981,0.25118256,-0.07658168,0.78669596,-0.14317714,0.600508,-0.5127666,0.39012945,0.7647676,-0.34377307,-0.90955997,0.23349681,,-0.016701655,0.40554664,-0.36691767,0.22926712,-0.5470641,-0.80508226,0.61679405,-0.55820346,0.5549541,-0.75299513,-0.62380266,0.2094482,,1.1858951374330415,0.5282117603983338,0.21452562468000003,0.45418841758747974,-0.3138540399612167,1.399674322978973,-0.4042765636823411,,-0.8151962367373908,-0.24599993297554754,0.19060518531,-0.5693081965604837,-1.3942388436065543,-1.3948876188187236,0.8753608504136028,,-0.06828382532271315,-0.05078253624834001,0.08427136484,-0.06770673936139116,,7.3470175e-05,5.00679e-06,-6.4373016e-06,1.0,-5.0008297e-05,-4.4718385e-05,5.0000846e-05,0.99999994,-6.109476e-06,4.4718385e-05,6.0796738e-06,1.0,491,1.5,0,0,0.0,False,-0.256065061638318,1.0492253061540504
1.5160865489742719,11:14:10.179132,11:14:01.679759,0,,0.12292198,0.0127489865,0.010280088,-0.7957271,0.06912245,-0.6016981,-0.5863991,-0.33644786,0.7368438,-0.15150751,0.9391618,0.30825388,,0.04290298,-0.027745612,0.026082754,-0.30545694,0.60032123,0.73912805,-0.26789498,-0.79905325,0.53828067,0.9137442,-0.03358704,0.40489942,,0.10499069,1.339887,0.44090337,0.99400324,0.014152808,-0.10843073,-0.061475277,-0.74772984,-0.6611512,-0.090434045,0.6638522,-0.74237585,,-0.09874566,0.2512027,-0.07662285,0.7870537,-0.14058061,0.6006526,-0.51344776,0.3904188,0.76416266,-0.3419325,-0.90984076,0.23509975,,-0.016702857,0.4055471,-0.36691785,0.22927442,-0.5470629,-0.805081,0.61679167,-0.5582021,0.5549581,-0.7529949,-0.6238049,0.20944236,,1.1858565237686705,0.5282735422613276,0.21447766195,0.4539787276439952,-0.31194112896450055,1.3980327935870824,-0.40411321961620694,,-0.815203959470265,-0.24599993297554754,0.19060518531,-0.5693081965604837,-1.3942388436065543,-1.3948876188187236,0.8753608504136028,,-0.06828382532271315,-0.05078253624834001,0.08427136484,-0.06770673936139116,,7.3470175e-05,5.00679e-06,-6.4373016e-06,1.0,-5.0008297e-05,-4.4718385e-05,5.0000846e-05,0.99999994,-6.109476e-06,4.4718385e-05,6.0796738e-06,1.0,499,1.525,0,0,0.0,False,-0.25588632848275505,1.0499977893665218
1.5441437269910239,11:14:10.195120,11:14:01.679759,0,,0.122934096,0.012716174,0.0103556365,-0.79608166,0.06658973,-0.6015147,-0.58544147,-0.33656767,0.73755014,-0.15333712,0.93930185,0.3069196,,0.04290584,-0.027742304,0.026084602,-0.30547363,0.6003225,0.7391202,-0.26791427,-0.7990521,0.5382727,0.9137329,-0.03359264,0.4049243,,0.10499069,1.339887,0.44090337,0.99400324,0.014152808,-0.10843073,-0.061475277,-0.74772984,-0.6611512,-0.090434045,0.6638522,-0.74237585,,-0.09876367,0.25122973,-0.0766995,0.78755546,-0.13806711,0.60057795,-0.51398164,0.3904876,0.7637685,-0.33996955,-0.91019607,0.2365667,,-0.01670608,0.40555024,-0.36691624,0.22929321,-0.5470636,-0.80507517,0.6167733,-0.5582061,0.55497444,-0.7530042,-0.62380075,0.20942137,,1.1858642465015445,0.5283276013914472,0.21439340310000002,0.4539787276439952,-0.30989158146801893,1.3965248825119172,-0.40411321961620683,,-0.8152271276688877,-0.2459844875097991,0.19060518531,-0.5693081965604837,-1.3942388436065543,-1.3948876188187236,0.8753608504136028,,-0.06828382532271315,-0.05078253624834001,0.08427136484,-0.06770673936139116,,7.3470175e-05,5.00679e-06,-6.4373016e-06,1.0,-5.0008297e-05,-4.4718385e-05,5.0000846e-05,0.99999994,-6.109476e-06,4.4718385e-05,6.0796738e-06,1.0,507,1.549,0,0,0.0,False,-0.2566012611050077,1.0499012289649627
1.5601353189558722,11:14:10.226441,11:14:01.778189,0,,0.12292664,0.012536228,0.010698572,-0.79551077,0.06621074,-0.6023112,-0.5858815,-0.3376836,0.7366903,-0.1546137,0.938928,0.30742246,,0.0429019,-0.027740262,0.026082814,-0.3054484,0.60033214,0.7391228,-0.26792404,-0.799044,0.5382799,0.9137385,-0.033611894,0.40491012,,0.10499069,1.339887,0.44090337,0.99400324,0.014152808,-0.10843073,-0.061475277,-0.74772984,-0.6611512,-0.090434045,0.6638522,-0.74237585,,-0.09878401,0.25133124,-0.077072755,0.78705806,-0.13769604,0.6013147,-0.51518595,0.38942492,0.7634996,-0.3392978,-0.9107074,0.23556095,,-0.016702099,0.4055504,-0.36691356,0.22926816,-0.54707175,-0.8050768,0.6167693,-0.55821806,0.55496687,-0.7530151,-0.6237829,0.20943546,,1.1859646420289096,0.528667401637913,0.21401099755000003,0.45272058798308806,-0.3093450354689572,1.3973860707393806,-0.40411321961620683,,-0.815203959470265,-0.24596904204405062,0.19060518531,-0.5693081965604837,-1.3942388436065543,-1.3948876188187236,0.8753608504136028,,-0.06828382532271315,-0.05078253624834001,0.08427136484,-0.06770673936139116,,7.3470175e-05,5.00679e-06,-6.4373016e-06,1.0,-5.0008297e-05,-4.4718385e-05,5.0000846e-05,0.99999994,-6.109476e-06,4.4718385e-05,6.0796738e-06,1.0,515,1.574,0,0,0.0,False,-0.25535012901606535,1.0497563883626244
1.5903417309746146,11:14:10.250529,11:14:01.778189,0,,0.12295616,0.012496695,0.010894641,-0.79545414,0.0650067,-0.6025172,-0.5856232,-0.33819273,0.7366621,-0.15587889,0.938829,0.30708605,,0.042897355,-0.027741127,0.02608031,-0.30542046,0.60033786,0.7391297,-0.26791763,-0.79903936,0.5382899,0.9137497,-0.033621073,0.4048841,,0.10499069,1.339887,0.44090337,0.99400324,0.014152808,-0.10843073,-0.061475277,-0.74772984,-0.6611512,-0.090434045,0.6638522,-0.74237585,,-0.098827526,0.2514349,-0.0772408,0.7870925,-0.13650301,0.60154164,-0.5158584,0.38901362,0.76325524,-0.33819452,-0.9110628,0.23577346,,-0.016697295,0.40554842,-0.36691284,0.22923896,-0.54707676,-0.80508167,0.61677885,-0.55822337,0.5549509,-0.7530162,-0.6237737,0.20945884,,1.1860109784261548,0.5291230428774922,0.21383210953,0.45230120809611907,-0.3085252164703645,1.3969625995376238,-0.404276563682341,,-0.8151730685387681,-0.24596904204405062,0.19060518531,-0.5693081965604837,-1.3942388436065543,-1.3948876188187236,0.8753608504136028,,-0.06828382532271315,-0.05078253624834001,0.08427136484,-0.06770673936139116,,7.3470175e-05,5.00679e-06,-6.4373016e-06,1.0,-5.0008297e-05,-4.4718385e-05,5.0000846e-05,0.99999994,-6.109476e-06,4.4718385e-05,6.0796738e-06,1.0,532,1.627,1,1,0.024,False,-0.2557075953271921,1.049514987358727
1.615506114962045,11:14:10.305818,11:14:01.778189,0,,0.12304557,0.012357771,0.011376783,-0.7948725,0.059410326,-0.603861,-0.5848299,-0.34024578,0.7363467,-0.16171448,0.9384579,0.30519685,,0.042898525,-0.02773983,0.026081085,-0.30539754,0.6006091,0.7389188,-0.26789302,-0.7988421,0.5385951,0.9137646,-0.033465415,0.40486336,,0.10499069,1.339887,0.44090337,0.99400324,0.014152808,-0.10843073,-0.061475277,-0.74772984,-0.6611512,-0.090434045,0.6638522,-0.74237585,,-0.09895254,0.2516588,-0.07768127,0.7869208,-0.13095483,0.60299796,-0.5192595,0.38739246,0.76177204,-0.3333546,-0.91256666,0.23684764,,-0.016698604,0.40554965,-0.36691225,0.2292133,-0.547373,-0.80488765,0.6168026,-0.55801415,0.5551349,-0.75300455,-0.6237011,0.2097168,,1.186018701159029,0.5300652162881476,0.21336155626000003,0.4497849287743047,-0.304016211978105,1.3955728134395775,-0.40394987555007256,,-0.8151730685387681,-0.24596904204405062,0.19060518531,-0.5695178865039682,-1.3942388436065543,-1.3950509762990047,0.8753608504136028,,-0.06828382532271315,-0.05078253624834001,0.08427136484,-0.06770673936139116,,7.3470175e-05,5.00679e-06,-6.4373016e-06,1.0,-5.0008297e-05,-4.4718385e-05,5.0000846e-05,0.99999994,-6.109476e-06,4.4718385e-05,6.0796738e-06,1.0,540,1.652,1,1,0.049,False,-0.2575545046013441,1.0496115477602863
1.6708003539824858,11:14:10.328131,11:14:01.778189,0,,0.12310816,0.012250543,0.011741772,-0.7937727,0.055581752,-0.60566956,-0.58505934,-0.34193233,0.7353827,-0.16622405,0.9380794,0.30393505,,0.042898558,-0.027738787,0.026081204,-0.30536765,0.60076106,0.73880756,-0.26786673,-0.7987314,0.5387721,0.91378224,-0.033378273,0.40483063,,0.10499069,1.339887,0.44090337,0.99400324,0.014152808,-0.10843073,-0.061475277,-0.74772984,-0.6611512,-0.090434045,0.6638522,-0.74237585,,-0.09904214,0.25182688,-0.07801644,0.78611547,-0.12715897,0.6048579,-0.52252084,0.38599202,0.76025134,-0.33014312,-0.9136962,0.2369911,,-0.016698712,0.40555036,-0.36691147,0.22918034,-0.5475389,-0.8047842,0.6168287,-0.5578969,0.5552237,-0.75299317,-0.6236603,0.20987868,,1.186049592090526,0.5307834304454505,0.21300507651000003,0.44684926956552135,-0.3010102089832653,1.3951635880617705,-0.4044399077484755,,-0.815165345805894,-0.24596904204405062,0.19060518531,-0.5697275764474526,-1.3942388436065543,-1.3950509762990047,0.8753608504136028,,-0.06828382532271315,-0.05078253624834001,0.08427136484,-0.06770673936139116,,7.3470175e-05,5.00679e-06,-6.4373016e-06,1.0,-5.0008297e-05,-4.4718385e-05,5.0000846e-05,0.99999994,-6.109476e-06,4.4718385e-05,6.0796738e-06,1.0,553,1.693,1,1,0.09,False,-0.2555288621716292,1.049804668563404
1.6930605939705856,11:14:10.373969,11:14:01.778189,0,,0.12310556,0.01202181,0.012266934,-0.7935563,0.05300231,-0.6061842,-0.5846139,-0.34276682,0.7353484,-0.16880459,0.93792415,0.3029905,,0.04289712,-0.027738713,0.02608049,-0.30538842,0.6006133,0.7389191,-0.26789862,-0.7988385,0.5385974,0.91376597,-0.03347391,0.40485948,,0.10499069,1.339887,0.44090337,0.99400324,0.014152808,-0.10843073,-0.061475277,-0.74772984,-0.6611512,-0.090434045,0.6638522,-0.74237585,,-0.09908076,0.25201645,-0.07855561,0.7860828,-0.12459961,0.6054327,-0.5239545,0.38533744,0.75959647,-0.3279413,-0.9143249,0.23762262,,-0.016697215,0.40554997,-0.366911,0.22920443,-0.54737645,-0.8048878,0.61679935,-0.55801946,0.5551331,-0.75300986,-0.6236933,0.20972091,,1.1862812740767528,0.5314398627397596,0.21244637552,0.44580081984809883,-0.29909729798654916,1.394093809850864,-0.4044399077484755,,-0.815165345805894,-0.2459613193111764,0.19060518531,-0.5695178865039682,-1.3942388436065543,-1.3950509762990049,0.875034162281334,,-0.06828382532271315,-0.05078253624834001,0.08427136484,-0.06770673936139116,,7.3470175e-05,5.00679e-06,-6.4373016e-06,1.0,-5.0008297e-05,-4.4718385e-05,5.0000846e-05,0.99999994,-6.109476e-06,4.4718385e-05,6.0796738e-06,1.0,566,1.734,1,1,0.131,False,-0.25546928445310746,1.0495632675595068
1.7389826059807092,11:14:10.412198,11:14:01.778189,0,,0.12310915,0.011750773,0.012830898,-0.7935581,0.048293617,-0.60657513,-0.5830616,-0.34553358,0.735286,-0.17408237,0.9371629,0.30235898,,0.042893406,-0.02773907,0.026078522,-0.30539528,0.6005286,0.7389851,-0.2679274,-0.7988994,0.5384928,0.9137553,-0.033541143,0.40487814,,0.10499069,1.339887,0.44090337,0.99400324,0.014152808,-0.10843073,-0.061475277,-0.74772984,-0.6611512,-0.090434045,0.6638522,-0.74237585,,-0.099129304,0.25220126,-0.079151444,0.7864776,-0.11993124,0.60586256,-0.5264059,0.38290644,0.7591308,-0.32303217,-0.91596895,0.23801485,,-0.016693315,0.4055486,-0.36691016,0.22921392,-0.5472822,-0.80494916,0.61677486,-0.5580994,0.55508006,-0.7530271,-0.6237045,0.20962575,,1.1865052333301052,0.5319727313080811,0.21182415632,0.44433299024370715,-0.2941783839949933,1.3935132724036963,-0.4044399077484754,,-0.8151499003401455,-0.24595359657830218,0.19060518531,-0.5693081965604837,-1.3942388436065543,-1.3951326550391454,0.8751975063474684,,-0.06828382532271315,-0.05078253624834001,0.08427136484,-0.06770673936139116,,7.3470175e-05,5.00679e-06,-6.4373016e-06,1.0,-5.0008297e-05,-4.4718385e-05,5.0000846e-05,0.99999994,-6.109476e-06,4.4718385e-05,6.0796738e-06,1.0,575,1.762,1,1,0.159,False,-0.25683957197909146,1.049418426957168
1.7771732019609772,11:14:10.436106,11:14:01.993460,0,,0.123108916,0.011609197,0.013129219,-0.79307795,0.04618378,-0.6073669,-0.5829227,-0.3468268,0.73478717,-0.17671576,0.9367915,0.3019821,,0.042893406,-0.02773907,0.026078522,-0.30539528,0.6004682,0.73903424,-0.2679274,-0.79894334,0.53842753,0.9137553,-0.033574164,0.40487534,,0.10499069,1.339887,0.44090337,0.99400324,0.014152808,-0.10843073,-0.061475277,-0.74772984,-0.6611512,-0.090434045,0.6638522,-0.74237585,,-0.09915281,0.25230038,-0.07946553,0.7861768,-0.117838986,0.60666305,-0.52810645,0.3817574,0.7585281,-0.32098228,-0.91671985,0.23789729,,-0.016693315,0.4055486,-0.36691016,0.22921392,-0.5472165,-0.80499387,0.61677486,-0.5581447,0.55503446,-0.7530271,-0.6237216,0.20957482,,1.186636519788967,0.5322816406230501,0.21149749124000003,0.44286516063931547,-0.2921288364985117,1.3934755786510613,-0.4037865314839383,,-0.8151499003401455,-0.24595359657830218,0.19060518531,-0.5693081965604837,-1.3942388436065543,-1.3950509762990047,0.8753608504136028,,-0.06828382532271315,-0.05078253624834001,0.08427136484,-0.06770673936139116,,7.3470175e-05,5.00679e-06,-6.4373016e-06,1.0,-5.0008297e-05,-4.4718385e-05,5.0000846e-05,0.99999994,-6.109476e-06,4.4718385e-05,6.0796738e-06,1.0,588,1.803,1,1,0.2,False,-0.25624379479388093,1.0492253061540504
1.801100795972161,11:14:10.478023,11:14:01.993460,0,,0.123104885,0.011330366,0.013810441,-0.7932128,0.04255567,-0.6074558,-0.58153653,-0.3488477,0.73492885,-0.18063407,0.9362128,0.301458,,0.042894542,-0.027738817,0.026079178,-0.30540225,0.60046685,0.73903245,-0.26792896,-0.7989445,0.538425,0.9137525,-0.03357193,0.40488186,,0.10499069,1.339887,0.44090337,0.99400324,0.014152808,-0.10843073,-0.061475277,-0.74772984,-0.6611512,-0.090434045,0.6638522,-0.74237585,,-0.09920174,0.2525594,-0.0801528,0.78660965,-0.114239335,0.6067904,-0.52975196,0.37997088,0.75827765,-0.31718785,-0.91791695,0.23837025,,-0.016694516,0.4055491,-0.36691034,0.22922122,-0.5472152,-0.8049926,0.6167725,-0.5581434,0.55503845,-0.7530268,-0.62372386,0.20956896,,1.1869994882340555,0.5331620321707117,0.21078193916000001,0.44202640086537737,-0.28871292400437565,1.392487063341743,-0.40411321961620694,,-0.8151576230730196,-0.24595359657830218,0.19060518531,-0.5693081965604837,-1.3942388436065543,-1.3950509762990047,0.8753608504136028,,-0.06828382532271315,-0.05078253624834001,0.08427136484,-0.06770673936139116,,7.3470175e-05,5.00679e-06,-6.4373016e-06,1.0,-5.0008297e-05,-4.4718385e-05,5.0000846e-05,0.99999994,-6.109476e-06,4.4718385e-05,6.0796738e-06,1.0,597,1.832,1,1,0.229,False,-0.25600548391979716,1.0492253061540504
1.8430192069499753,11:14:10.514657,11:14:01.993460,0,,0.12314758,0.011071891,0.014532089,-0.79286677,0.038576715,-0.6081729,-0.5805634,-0.3511561,0.73459876,-0.18522508,0.93552196,0.3008161,,0.042893138,-0.0277377,0.026078582,-0.30539313,0.60047096,0.7390329,-0.26793468,-0.79894114,0.53842735,0.91375387,-0.033580393,0.40487808,,0.10499069,1.339887,0.44090337,0.99400324,0.014152808,-0.10843073,-0.061475277,-0.74772984,-0.6611512,-0.090434045,0.6638522,-0.74237585,,-0.099299364,0.25285968,-0.08085262,0.78659564,-0.11029047,0.6075387,-0.5321692,0.37790602,0.75761664,-0.31315044,-0.9192514,0.23856604,,-0.016693125,0.40554944,-0.3669091,0.22921236,-0.5472187,-0.8049928,0.61676925,-0.5581487,0.55503666,-0.7530321,-0.6237161,0.20957309,,1.1872466156860308,0.5343436103004681,0.21005083160000002,0.44034888131750116,-0.2852970115102396,1.3917435842528465,-0.40394987555007267,,-0.8151499003401455,-0.24594587384542796,0.19060518531,-0.5693081965604837,-1.3942388436065543,-1.3950509762990049,0.875034162281334,,-0.06828382532271315,-0.05078253624834001,0.08427136484,-0.06770673936139116,,7.3470175e-05,5.00679e-06,-6.4373016e-06,1.0,-5.0008297e-05,-4.4718385e-05,5.0000846e-05,0.99999994,-6.109476e-06,4.4718385e-05,6.0796738e-06,1.0,610,1.873,1,1,0.27,False,-0.2566608388235285,1.049370146756389
1.87967369396938,11:14:10.553659,11:14:02.075652,0,,0.123160414,0.010774121,0.015277714,-0.7921112,0.034938082,-0.6093762,-0.58014214,-0.35341477,0.733848,-0.18972324,0.93481404,0.30021274,,0.042894274,-0.027737506,0.026079118,-0.30540013,0.60040915,0.7390802,-0.26793623,-0.7989862,0.5383596,0.91375107,-0.03361118,0.40488183,,0.10499069,1.339887,0.44090337,0.99400324,0.014152808,-0.10843073,-0.061475277,-0.74772984,-0.6611512,-0.090434045,0.6638522,-0.74237585,,-0.09936991,0.2531482,-0.08159865,0.7861514,-0.10667851,0.6087575,-0.5349376,0.37585768,0.7566854,-0.30952823,-0.92051655,0.23841469,,-0.016694326,0.4055499,-0.36690927,0.22921966,-0.5471517,-0.80503625,0.61676687,-0.5581927,0.55499506,-0.75303185,-0.6237355,0.2095163,,1.1875864159324967,0.5354170701699853,0.20927565018000002,0.4380422919391714,-0.2821543720156345,1.3913046197114833,-0.4042765636823412,,-0.8151576230730196,-0.24594587384542796,0.19060518531,-0.5693081965604837,-1.3942388436065543,-1.3949692975588641,0.8748708182151992,,-0.06828382532271315,-0.05078253624834001,0.08427136484,-0.06770673936139116,,7.3470175e-05,5.00679e-06,-6.4373016e-06,1.0,-5.0008297e-05,-4.4718385e-05,5.0000846e-05,0.99999994,-6.109476e-06,4.4718385e-05,6.0796738e-06,1.0,619,1.902,1,1,0.299,False,-0.25624379479388093,1.0497563883626244
1.9186546049895696,11:14:10.583699,11:14:02.075652,0,,0.12313222,0.010525867,0.015810952,-0.7917985,0.033146422,-0.6098824,-0.57987094,-0.3544308,0.7335722,-0.19184577,0.93449455,0.29985824,,0.042896543,-0.027737103,0.02608037,-0.30541405,0.6004667,0.7390277,-0.26793942,-0.7989446,0.53841984,0.91374546,-0.033573538,0.4048976,,0.10499069,1.339887,0.44090337,0.99400324,0.014152808,-0.10843073,-0.061475277,-0.74772984,-0.6611512,-0.090434045,0.6638522,-0.74237585,,-0.099384084,0.25332958,-0.08215869,0.7859875,-0.10489918,0.6092781,-0.5361898,0.37493932,0.75625455,-0.3077728,-0.9210954,0.23845176,,-0.016696727,0.4055509,-0.36690962,0.22923426,-0.5472149,-0.8049891,0.6167621,-0.5581447,0.55504864,-0.7530313,-0.623723,0.20955555,,1.1879107707132142,0.5360117206013005,0.20869880113000003,0.43699384222174875,-0.28065137051821465,1.3908141314320879,-0.40411321961620705,,-0.8151730685387681,-0.24594587384542796,0.19060518531,-0.5693081965604837,-1.3942388436065543,-1.3950509762990047,0.8747074741490652,,-0.06828382532271315,-0.05078253624834001,0.08427136484,-0.06770673936139116,,7.3470175e-05,5.00679e-06,-6.4373016e-06,1.0,-5.0008297e-05,-4.4718385e-05,5.0000846e-05,0.99999994,-6.109476e-06,4.4718385e-05,6.0796738e-06,1.0,632,1.943,0,1,0.333,False,-0.2575545046013441,1.0493218665556094
1.9486179999657907,11:14:10.617701,11:14:02.075652,0,,0.12308526,0.010267675,0.016338468,-0.79146576,0.031673346,-0.61039245,-0.57969177,-0.3554667,0.7332125,-0.1937508,0.9341521,0.29970035,,0.04289568,-0.027738638,0.026079774,-0.30540922,0.6004654,0.7390308,-0.26793057,-0.79894567,0.5384225,0.9137497,-0.033569604,0.40488836,,0.10499069,1.339887,0.44090337,0.99400324,0.014152808,-0.10843073,-0.061475277,-0.74772984,-0.6611512,-0.090434045,0.6638522,-0.74237585,,-0.09937945,0.25350022,-0.082722604,0.7857867,-0.10343665,0.609787,-0.53736204,0.3739831,0.755896,-0.30623734,-0.92164934,0.23828799,,-0.016695715,0.4055496,-0.36691052,0.22922853,-0.547214,-0.8049914,0.6167701,-0.558142,0.55504245,-0.75302655,-0.6237262,0.20956312,,1.1882969073569254,0.5365214209709993,0.20811935950000002,0.4359453925043261,-0.2792850055205603,1.3905167397965292,-0.4037865314839383,,-0.815165345805894,-0.24595359657830218,0.19060518531,-0.5693081965604837,-1.3942388436065543,-1.3950509762990047,0.8747074741490652,,-0.06828382532271315,-0.05078253624834001,0.08427136484,-0.06770673936139116,,7.3470175e-05,5.00679e-06,-6.4373016e-06,1.0,-5.0008297e-05,-4.4718385e-05,5.0000846e-05,0.99999994,-6.109476e-06,4.4718385e-05,6.0796738e-06,1.0,641,1.971,0,1,0.333,False,-0.25683957197909146,1.04927358635483
1.9827118139946833,11:14:10.652948,11:14:02.199083,0,,0.12302246,0.009926453,0.017017588,-0.79038626,0.029358324,-0.611905,-0.5801295,-0.35678726,0.7322242,-0.19682296,0.9337243,0.29903123,,0.042893138,-0.0277377,0.026078582,-0.30539313,0.60047096,0.7390329,-0.26793468,-0.79894114,0.53842735,0.91375387,-0.033580393,0.40487808,,0.10499069,1.339887,0.44090337,0.99400324,0.014152808,-0.10843073,-0.061475277,-0.74772984,-0.6611512,-0.090434045,0.6638522,-0.74237585,,-0.099371396,0.25371352,-0.08345476,0.7849007,-0.10113679,0.61131185,-0.5397981,0.37278053,0.7547534,-0.3042185,-0.9223915,0.23800226,,-0.016693125,0.40554944,-0.3669091,0.22921236,-0.5472187,-0.8049928,0.61676925,-0.5581487,0.55503666,-0.7530321,-0.6237161,0.20957309,,1.1888066077266242,0.5371469623338115,0.20736751130000003,0.43342911318251187,-0.2773720945238441,1.390182070246888,-0.4042765636823412,,-0.8151499003401455,-0.24594587384542796,0.19060518531,-0.5693081965604837,-1.3942388436065543,-1.3950509762990047,0.8747074741490652,,-0.06828382532271315,-0.05078253624834001,0.08427136484,-0.06770673936139116,,7.3470175e-05,5.00679e-06,-6.4373016e-06,1.0,-5.0008297e-05,-4.4718385e-05,5.0000846e-05,0.99999994,-6.109476e-06,4.4718385e-05,6.0796738e-06,1.0,654,2.012,0,1,0.333,False,-0.25683957197909146,1.048983905150153
2.0179388870019466,11:14:10.688439,11:14:02.199083,0,,0.12300798,0.009687886,0.017532438,-0.7902031,0.02882319,-0.61216694,-0.5798956,-0.35828817,0.7316766,-0.19824283,0.933166,0.29983473,,0.0428954,-0.027740158,0.026080847,-0.30541137,0.60040236,0.7390811,-0.26792336,-0.7989919,0.5383575,0.91375107,-0.033596456,0.404883,,0.10499069,1.339887,0.44090337,0.99400324,0.014152808,-0.10843073,-0.061475277,-0.74772984,-0.6611512,-0.090434045,0.6638522,-0.74237585,,-0.099397756,0.25388914,-0.08399387,0.78481853,-0.10060869,0.6115045,-0.5405966,0.37131408,0.75490475,-0.30301023,-0.9230405,0.23702545,,-0.016695458,0.40554965,-0.36691242,0.22923009,-0.547146,-0.80503714,0.61677563,-0.5581834,0.5549947,-0.7530215,-0.6237488,0.2095139,,1.1890460124457252,0.5377879491623722,0.20681399547,0.4328000433520583,-0.27655227552525147,1.3908204226669583,-0.40492993994687854,,-0.815165345805894,-0.2459613193111764,0.19060388902000003,-0.5693081965604837,-1.3942388436065543,-1.3949692975588641,0.8748708182151992,,-0.06828382532271315,-0.05078253624834001,0.08427136484,-0.06770673936139116,,7.3470175e-05,5.00679e-06,-6.4373016e-06,1.0,-5.0008297e-05,-4.4718385e-05,5.0000846e-05,0.99999994,-6.109476e-06,4.4718385e-05,6.0796738e-06,1.0,667,2.053,0,1,0.333,False,-0.25624379479388093,1.049418426957168
2.053446822974365,11:14:10.728093,11:14:02.281322,0,,0.12296388,0.009380579,0.018157214,-0.78885216,0.027160779,-0.6139827,-0.58090144,-0.3591361,0.7304619,-0.20066334,0.93288994,0.29908285,,0.042897392,-0.027738415,0.026082158,-0.3054232,0.6004022,0.73907626,-0.26793376,-0.79899204,0.5383523,0.9137441,-0.033598065,0.40489873,,0.10499069,1.339887,0.44090337,0.99400324,0.014152808,-0.10843073,-0.061475277,-0.74772984,-0.6611512,-0.090434045,0.6638522,-0.74237585,,-0.0994038,0.25408986,-0.084662,0.78360265,-0.098956384,0.6133307,-0.54301244,0.37054524,0.75354743,-0.3018351,-0.92352796,0.23662567,,-0.01669767,0.40555146,-0.3669117,0.22924313,-0.5471457,-0.8050336,0.6167653,-0.5581847,0.5550049,-0.753026,-0.6237479,0.20950049,,1.189455317288059,0.5384598269224297,0.20612955435000002,0.43007407408675946,-0.2755958200268934,1.3906122485220673,-0.4044399077484754,,-0.8151807912716423,-0.24595359657830218,0.19060388902000003,-0.5693081965604837,-1.3942388436065543,-1.3949692975588641,0.8748708182151992,,-0.06828382532271315,-0.05078253624834001,0.08427136484,-0.06770673936139116,,7.3470175e-05,5.00679e-06,-6.4373016e-06,1.0,-5.0008297e-05,-4.4718385e-05,5.0000846e-05,0.99999994,-6.109476e-06,4.4718385e-05,6.0796738e-06,1.0,676,2.082,0,1,0.333,False,-0.25582675076423333,1.049370146756389
2.093095001997426,11:14:10.758857,11:14:02.281322,0,,0.12293043,0.00916189,0.018582672,-0.78724277,0.025027953,-0.61613524,-0.5821965,-0.35944507,0.7292779,-0.20321432,0.9328306,0.29754156,,0.042896543,-0.027737103,0.02608037,-0.30541405,0.60040635,0.7390767,-0.26793942,-0.79898846,0.5383546,0.91374546,-0.03360656,0.40489483,,0.10499069,1.339887,0.44090337,0.99400324,0.014152808,-0.10843073,-0.061475277,-0.74772984,-0.6611512,-0.090434045,0.6638522,-0.74237585,,-0.09940476,0.25421974,-0.08512361,0.78212935,-0.09683392,0.61554605,-0.5457352,0.37033018,0.7516839,-0.30074376,-0.92383915,0.23680042,,-0.016696727,0.4055509,-0.36690962,0.22923426,-0.5471492,-0.8050338,0.6167621,-0.55819,0.55500305,-0.7530313,-0.6237401,0.2095046,,1.1897565038701536,0.5388691317647636,0.20565640850000003,0.4269287249344916,-0.27450272802876985,1.3899659415129177,-0.4042765636823412,,-0.8151730685387681,-0.24594587384542796,0.19060518531,-0.5693081965604837,-1.3942388436065543,-1.3949692975588641,0.8748708182151992,,-0.06828382532271315,-0.05078253624834001,0.08427136484,-0.06770673936139116,,7.3470175e-05,5.00679e-06,-6.4373016e-06,1.0,-5.0008297e-05,-4.4718385e-05,5.0000846e-05,0.99999994,-6.109476e-06,4.4718385e-05,6.0796738e-06,1.0,689,2.123,0,1,0.333,False,-0.2566012611050077,1.0493218665556094
2.1238758569816127,11:14:10.798589,11:14:02.281322,0,,0.123080805,0.008813463,0.019117385,-0.7868123,0.022557385,-0.61678004,-0.5817516,-0.36087006,0.72892916,-0.20613469,0.9323433,0.2970597,,0.042794302,-0.027756318,0.026072204,-0.30543408,0.60003537,0.7393696,-0.26795137,-0.7992587,0.53794754,0.9137353,-0.033807546,0.4049012,,0.10498869,1.3398883,0.4409023,0.9940039,0.014160683,-0.10842377,-0.06146481,-0.7477297,-0.6611523,-0.090434045,0.6638522,-0.74237585,,-0.0995994,0.25432545,-0.08574134,0.7819121,-0.094374366,0.61620367,-0.54739904,0.3690146,0.75112087,-0.2982747,-0.9246198,0.23687652,,-0.016591853,0.4055467,-0.36692142,0.22925629,-0.54673666,-0.80530775,0.6167517,-0.55847037,0.55473256,-0.75303316,-0.6238508,0.20916788,,1.1903279861028464,0.5393556639358398,0.20508474461,0.4256705852735844,-0.2719066345332265,1.3892375399250751,-0.4044399077484754,,-0.815165345805894,-0.24595359657830218,0.19060648160000002,-0.5688888166735145,-1.3942388436065543,-1.3949692975588641,0.8748708182151992,,-0.06828382532271315,-0.05078253624834001,0.08427136484,-0.06770673936139116,,7.148832e-05,3.2186508e-06,-6.3180923e-06,1.0,-4.2188913e-05,-3.772229e-05,4.2185187e-05,1.0,-5.155802e-06,3.772229e-05,5.1259995e-06,1.0,698,2.151,0,1,0.333,False,-0.25683957197909146,1.049514987358727
2.163558740983717,11:14:10.829286,11:14:02.380183,0,,0.123013556,0.00865718,0.019499242,-0.78625184,0.021292225,-0.6175393,-0.5817857,-0.36220035,0.7282418,-0.20816708,0.9318571,0.29716814,,0.04282075,-0.02773574,0.026076019,-0.30515996,0.6021296,0.7377786,-0.26761374,-0.797735,0.5403719,0.91392577,-0.032539785,0.40457493,,0.10498869,1.3398883,0.4409023,0.9940039,0.014160683,-0.10842377,-0.06146481,-0.7477297,-0.6611523,-0.090434045,0.6638522,-0.74237585,,-0.09956199,0.25447223,-0.08613099,0.78148645,-0.09311804,0.6169343,-0.54881966,0.36773977,0.7507093,-0.29677585,-0.9252548,0.23627862,,-0.01661969,0.4055587,-0.36690664,0.22894578,-0.54902947,-0.80383486,0.61707,-0.55680156,0.55605453,-0.7528668,-0.62332875,0.21131226,,1.1908840228697906,0.539741800579551,0.20468159842000003,0.42420275566919274,-0.2704036330358066,1.3893188028266634,-0.40509328401301237,,-0.8152116822031392,-0.24595359657830218,0.19061814821000003,-0.5718244758822979,-1.3942388436065543,-1.3949692975588641,0.8748708182151992,,-0.06827728033801818,-0.05078253624834001,0.08427136484,-0.06770673936139116,,7.148832e-05,3.2186508e-06,-6.3180923e-06,1.0,-4.2188913e-05,-3.772229e-05,4.2185187e-05,1.0,-5.155802e-06,3.772229e-05,5.1259995e-06,1.0,711,2.192,0,1,0.333,False,-0.25630337251240265,1.049804668563404
2.194296504952945,11:14:10.858915,11:14:02.380183,0,,0.12295991,0.008518092,0.019826144,-0.7850921,0.020175308,-0.6190505,-0.5826949,-0.36291692,0.7271574,-0.20999324,0.9316031,0.29667914,,0.042827107,-0.027737483,0.026068866,-0.30523574,0.601941,0.7379011,-0.2676623,-0.79787326,0.5401436,0.9138863,-0.03263712,0.40465635,,0.10498869,1.3398883,0.4409023,0.9940039,0.014160683,-0.10842377,-0.06146481,-0.7477297,-0.6611523,-0.090434045,0.6638522,-0.74237585,,-0.09953404,0.2545939,-0.086467884,0.7804247,-0.09200755,0.61844313,-0.55075586,0.36706907,0.74961877,-0.2959819,-0.9256322,0.23579608,,-0.016625201,0.4055512,-0.3669038,0.22902778,-0.5488246,-0.8039514,0.6170186,-0.5569388,0.55597407,-0.75288403,-0.62338644,0.2110805,,1.1913319413764956,0.540089323558891,0.20433419270000003,0.421896166290863,-0.269583814037214,1.3893037253256095,-0.40378653148393817,,-0.8152425731346361,-0.2459613193111764,0.19062722224000003,-0.5714050959953288,-1.3942388436065543,-1.3951326550391454,0.8748708182152001,,-0.06827728033801818,-0.05078253624834001,0.08427136484,-0.06770673936139116,,7.148832e-05,3.2186508e-06,-6.3180923e-06,1.0,-4.2188913e-05,-3.772229e-05,4.2185187e-05,1.0,-5.155802e-06,3.772229e-05,5.1259995e-06,1.0,724,2.233,0,1,0.333,False,-0.25600548391979716,1.0492253061540504
2.2239334209589288,11:14:10.909151,11:14:02.380183,0,,0.122825116,0.0082598105,0.020283759,-0.78322345,0.019113317,-0.6214466,-0.58445543,-0.36356065,0.72542083,-0.21206832,0.93137443,0.29592,,0.04283531,-0.027738467,0.026066065,-0.30529824,0.6018454,0.73795325,-0.2677098,-0.79794323,0.54001665,0.91385144,-0.03269118,0.40473062,,0.10498869,1.3398883,0.4409023,0.9940039,0.014160683,-0.10842377,-0.06146481,-0.7477297,-0.6611523,-0.090434045,0.6638522,-0.74237585,,-0.09943717,0.2547191,-0.08698678,0.7786482,-0.090951435,0.620834,-0.5535024,0.3664676,0.7478881,-0.29553705,-0.9259748,0.2350075,,-0.01663302,0.40554744,-0.3669029,0.229096,-0.54872024,-0.8040032,0.61697,-0.5570122,0.5559545,-0.75290304,-0.62341285,0.21093467,,1.192111937396792,0.5402360554835014,0.20380660267000003,0.4183314372516261,-0.26876399503862136,1.389370326564696,-0.404276563682341,,-0.8152889095318815,-0.24595359657830218,0.19063370369000002,-0.5711954060518444,-1.3942388436065543,-1.395214333779286,0.8750341622813345,,-0.06827728033801818,-0.050789081233034994,0.08427136484,-0.06770673936139116,,7.148832e-05,3.2186508e-06,-6.3180923e-06,1.0,-4.2188913e-05,-3.772229e-05,4.2185187e-05,1.0,-5.155802e-06,3.772229e-05,5.1259995e-06,1.0,733,2.262,0,1,0.333,False,-0.25761408231986493,1.0489356249493738
2.274168064992409,11:14:10.939809,11:14:02.477578,0,,0.12277426,0.008133315,0.020460755,-0.7814083,0.018688,-0.62374026,-0.58641684,-0.3637271,0.7237526,-0.2133457,0.9313181,0.2951783,,0.04283924,-0.027737483,0.02606386,-0.3053122,0.6017219,0.73804814,-0.26771298,-0.7980337,0.53988135,0.9138459,-0.032752663,0.40473825,,0.10498869,1.3398883,0.4409023,0.9940039,0.014160683,-0.10842377,-0.06146481,-0.7477297,-0.6611523,-0.090434045,0.6638522,-0.74237585,,-0.099401735,0.254748,-0.08720546,0.7768667,-0.090528205,0.62312347,-0.55585235,0.36631766,0.74621683,-0.2958148,-0.9260756,0.23425967,,-0.016636763,0.40554577,-0.36690077,0.2291106,-0.54858637,-0.8040904,0.61696523,-0.5571003,0.5558715,-0.7529025,-0.6234519,0.21082115,,1.1923590648487674,0.5402283327506271,0.20358623337,0.4151860880993582,-0.26876399503862136,1.3898603990055394,-0.4049299399468782,,-0.81530435499763,-0.24595359657830218,0.19063759256,-0.5711954060518444,-1.3942388436065543,-1.3950509762990049,0.875034162281334,,-0.06827728033801818,-0.050789081233034994,0.08427136484,-0.06770673936139116,,7.148832e-05,3.2186508e-06,-6.3180923e-06,1.0,-4.2188913e-05,-3.772229e-05,4.2185187e-05,1.0,-5.155802e-06,3.772229e-05,5.1259995e-06,1.0,746,2.303,0,1,0.333,False,-0.257435349164302,1.0489356249493738
2.3048138759913854,11:14:10.979193,11:14:02.477578,0,,0.1226991,0.0079962835,0.020674944,-0.7782129,0.016601525,-0.62778115,-0.58960044,-0.3635114,0.72127014,-0.21623142,0.93144184,0.29267746,,0.042835835,-0.02773811,0.026061952,-0.30529127,0.60172623,0.7380533,-0.26770824,-0.79803026,0.53988886,0.91385424,-0.032759607,0.40471873,,0.10498869,1.3398883,0.4409023,0.9940039,0.014160683,-0.10842377,-0.06146481,-0.7477297,-0.6611523,-0.090434045,0.6638522,-0.74237585,,-0.09934482,0.25479504,-0.08746011,0.77378005,-0.0884492,0.6272489,-0.5602251,0.36661044,0.7427951,-0.29565564,-0.92616063,0.23412438,,-0.01663316,0.40554428,-0.36690024,0.2290887,-0.5485901,-0.8040941,0.6169724,-0.55710435,0.5558595,-0.75290334,-0.623445,0.21083868,,1.1928069833554724,0.5402206100177529,0.20332697537000002,0.40952445962527606,-0.26808081253979416,1.3894666669673383,-0.40525662807914675,,-0.8152811867990073,-0.24595359657830218,0.19063759256,-0.5711954060518444,-1.3942388436065543,-1.3950509762990049,0.875034162281334,,-0.06827728033801818,-0.050789081233034994,0.08427136484,-0.06770673936139116,,7.148832e-05,3.2186508e-06,-6.3180923e-06,1.0,-4.2188913e-05,-3.772229e-05,4.2185187e-05,1.0,-5.155802e-06,3.772229e-05,5.1259995e-06,1.0,759,2.344,0,1,0.333,False,-0.2575545046013441,1.0494667071579475
2.3442100109532475,11:14:11.020026,11:14:02.571133,0,,0.12263563,0.00792145,0.020817697,-0.7776409,0.016624413,-0.6284889,-0.58991325,-0.36501303,0.7202554,-0.21743275,0.930854,0.29365593,,0.042838376,-0.027739018,0.026063204,-0.30530736,0.6017207,0.7380512,-0.26770416,-0.7980349,0.539884,0.91385007,-0.03274876,0.40472907,,0.10498869,1.3398883,0.4409023,0.9940039,0.014160683,-0.10842377,-0.06146481,-0.7477297,-0.6611523,-0.090434045,0.6638522,-0.74237585,,-0.099293076,0.25483882,-0.08761951,0.7732801,-0.08847574,0.6278614,-0.56128514,0.3651098,0.742734,-0.2949523,-0.9267507,0.23267204,,-0.016635753,0.40554446,-0.36690167,0.22910486,-0.5485854,-0.80409265,0.6169732,-0.5570977,0.5558653,-0.75289774,-0.6234551,0.21082872,,1.1931931199991836,0.5402051645520044,0.20316234654,0.40826631996436896,-0.26712435704143606,1.3907287101449775,-0.4050932840130126,,-0.8152966322647557,-0.2459613193111764,0.19063759256,-0.5711954060518444,-1.3942388436065543,-1.3950509762990049,0.875034162281334,,-0.06827728033801818,-0.050789081233034994,0.08427136484,-0.06770673936139116,,7.148832e-05,3.2186508e-06,-6.3180923e-06,1.0,-4.2188913e-05,-3.772229e-05,4.2185187e-05,1.0,-5.155802e-06,3.772229e-05,5.1259995e-06,1.0,768,2.373,0,1,0.333,False,-0.2588652144088064,1.048742504146256
2.38503188197501,11:14:11.050913,11:14:02.571133,0,,0.12261066,0.007898875,0.020895809,-0.7769735,0.012277491,-0.6294137,-0.58948666,-0.36509266,0.7205641,-0.22094761,0.9308902,0.29090464,,0.042840064,-0.02773863,0.026062667,-0.30531433,0.60171926,0.73804945,-0.2677057,-0.798036,0.5398815,0.9138473,-0.032746464,0.40473557,,0.10498869,1.3398883,0.4409023,0.9940039,0.014160683,-0.10842377,-0.06146481,-0.7477297,-0.6611523,-0.090434045,0.6638522,-0.74237585,,-0.09927399,0.254876,-0.0876936,0.77285886,-0.08414473,0.62897444,-0.5633789,0.36518148,0.7411118,-0.29205048,-0.92712575,0.23482838,,-0.0166374,0.40554404,-0.366901,0.22911216,-0.54858416,-0.80409145,0.61697084,-0.5570963,0.5558693,-0.7528975,-0.6234574,0.21082288,,1.1934711383826557,0.5401742736205075,0.20307808769000002,0.40637911047300823,-0.2638450810470655,1.388299716676685,-0.4055833162114153,,-0.81530435499763,-0.2459613193111764,0.19063888885000002,-0.5711954060518444,-1.3942388436065543,-1.3950509762990049,0.875034162281334,,-0.06827728033801818,-0.050789081233034994,0.08427136484,-0.06770673936139116,,7.148832e-05,3.2186508e-06,-6.3180923e-06,1.0,-4.2188913e-05,-3.772229e-05,4.2185187e-05,1.0,-5.155802e-06,3.772229e-05,5.1259995e-06,1.0,781,2.414,0,1,0.333,False,-0.25761408231986493,1.0496115477602863
2.4159307609661482,11:14:11.083681,11:14:02.571133,0,,0.12261309,0.007893346,0.021002501,-0.7756923,0.0011506081,-0.63111037,-0.5870024,-0.36859813,0.72080755,-0.23179671,0.9295882,0.2865941,,0.042842023,-0.0277396,0.026062071,-0.30532345,0.60171515,0.7380491,-0.26770005,-0.79803944,0.5398792,0.9138459,-0.032738,0.40473938,,0.10498869,1.3398883,0.4409023,0.9940039,0.014160683,-0.10842377,-0.06146481,-0.7477297,-0.6611523,-0.090434045,0.6638522,-0.74237585,,-0.0992836,0.25494444,-0.08777508,0.7723688,-0.073059954,0.63095856,-0.56896704,0.3619971,0.73840004,-0.28235266,-0.92931175,0.23802653,,-0.016639238,0.40554282,-0.36690143,0.22912103,-0.5485807,-0.8040913,0.61697406,-0.557091,0.55587107,-0.75289214,-0.6234652,0.21081878,,1.1938727204921153,0.5400584326273942,0.20296790304,0.4019756216598332,-0.25318743406536115,1.3849999170376412,-0.4049299399468782,,-0.8153120777305042,-0.24596904204405062,0.19064018514000003,-0.5711954060518444,-1.3942388436065543,-1.3950509762990047,0.8747074741490652,,-0.06827728033801818,-0.050789081233034994,0.08427136484,-0.06770673936139116,,7.148832e-05,3.2186508e-06,-6.3180923e-06,1.0,-4.2188913e-05,-3.772229e-05,4.2185187e-05,1.0,-5.155802e-06,3.772229e-05,5.1259995e-06,1.0,790,2.442,0,1,0.333,False,-0.25826943722359585,1.049804668563404
2.448695995961316,11:14:11.111531,11:14:02.571133,0,,0.122626156,0.007897511,0.021061823,-0.775932,-0.007472597,-0.6307723,-0.58360887,-0.3710366,0.7223105,-0.23943706,0.9285882,0.28353804,,0.042839754,-0.027740002,0.02606082,-0.30530947,0.6016577,0.73810166,-0.2676969,-0.7980813,0.539819,0.9138515,-0.03277567,0.40472373,,0.10498869,1.3398883,0.4409023,0.9940039,0.014160683,-0.10842377,-0.06146481,-0.7477297,-0.6611523,-0.090434045,0.6638522,-0.74237585,,-0.09930045,0.25498754,-0.0878147,0.77320933,-0.0644621,0.63086605,-0.57167,0.35973936,0.7374151,-0.2744827,-0.9308234,0.24130279,,-0.016636837,0.40554184,-0.36690107,0.22910643,-0.5485175,-0.80413854,0.6169788,-0.5571391,0.5558176,-0.7528927,-0.6234778,0.21077953,,1.1940889570125937,0.5399348689014066,0.20290697741000002,0.400717481998926,-0.24471597107990384,1.3817675503147884,-0.4044399077484754,,-0.8152966322647557,-0.24596904204405062,0.19064018514000003,-0.5711954060518444,-1.3942388436065543,-1.3949692975588641,0.8745441300829313,,-0.06827728033801818,-0.050789081233034994,0.08427136484,-0.06770673936139116,,7.148832e-05,3.2186508e-06,-6.3180923e-06,1.0,-4.2188913e-05,-3.772229e-05,4.2185187e-05,1.0,-5.155802e-06,3.772229e-05,5.1259995e-06,1.0,794,2.455,0,1,0.333,False,-0.2580311263495121,1.0489356249493738
