AlexandreBanks6/ExpertPlaybackApp/resources/Motions/P_05/PC1/Data_PC1_1.csv
Task Time,PC1 Time,PC2 Time,Gaze Calib,s_T_psm1,Tx,Ty,Tz,R00,R01,R02,R10,R11,R12,R20,R21,R22,s_T_psm3,Tx,Ty,Tz,R00,R01,R02,R10,R11,R12,R20,R21,R22,cart_T_ecm,Tx,Ty,Tz,R00,R01,R02,R10,R11,R12,R20,R21,R22,ecm_T_psm1,Tx,Ty,Tz,R00,R01,R02,R10,R11,R12,R20,R21,R22,ecm_T_psm3,Tx,Ty,Tz,R00,R01,R02,R10,R11,R12,R20,R21,R22,psm1_joints,q1,q2,q3,q4,q5,q6,jaw,psm3_joints,q1,q2,q3,q4,q5,q6,jaw,ecm_joints,q1,q2,q3,q4,ecmi_T_ecm,Tx,Ty,Tz,R00,R01,R02,R10,R11,R12,R20,R21,R22,Sample #,Task Duration (s),Collisions (binary),Collisions (increments),Cumulative Collision Time (s),Clutch Press,MTMR Angle,MTML Angle
""
lci_T_si,,,,,-0.05588401,0.033678196,0.22142315,0.99411887,-0.024834005,0.10540873,0.053824607,-0.7313092,-0.67991894,0.09397148,0.68159384,-0.7256715
rci_T_si,,,,,-0.06556821,0.037878036,0.23215216,0.98745227,-0.051865816,0.14915736,0.06880197,-0.7088702,-0.70197535,0.14214173,0.7034295,-0.69640696
ecm_T_lc,,,,,-4.4061628e-05,-0.00034663224,-0.01840835,-0.99912,0.030754527,0.028518902,-0.031987965,-0.99852574,-0.043852776,0.027128186,-0.04472645,0.9986309
ecm_T_rc,,,,,-0.0043358393,0.01870579,-0.007592615,-0.99555075,-0.052743673,-0.078081585,0.04863213,-0.9973746,0.053654674,-0.08070653,0.04961868,0.9955021
cart_T_ecmi,,,,,0.1049169,1.339891,0.44090196,0.9940074,0.014203176,-0.108386196,-0.061408322,-0.7477289,-0.66115844,-0.090434045,0.6638522,-0.74237585
ecmac_T_ecmrep_psm1,,,,,0.008075713,-0.26004106,-0.30289736,0.99667877,0.061445758,0.053440064,-0.058828812,0.9970531,-0.049237434,-0.056308012,0.04593009,0.9973564
ecmac_T_ecmrep_psm3,,,,,-0.012692571,-0.457308,-0.5458498,0.99509805,-0.029463936,0.094401784,0.014504567,0.9877462,0.15539348,-0.09782351,-0.1532625,0.9833317
""
0,11:12:25.551341,11:12:17.102948,0,,0.12566315,0.002012603,0.004878521,-0.8519774,0.054565296,-0.5207276,-0.50953597,-0.3152018,0.8006377,-0.1204472,0.9474547,0.2963478,,0.041633975,-0.025549263,0.011914372,-0.8669422,-0.11734484,0.48439783,0.49584165,-0.10455018,0.8620963,-0.05051869,0.9875725,0.14882344,,0.10502383,1.339887,0.44090092,0.9940014,0.014130409,-0.10845054,-0.061505053,-0.74773026,-0.6611479,-0.090434045,0.6638522,-0.74237585,,-0.101456456,0.2395987,-0.079788916,0.84326833,-0.12601581,0.5225118,-0.43465704,0.4119804,0.80084044,-0.31618318,-0.9024368,0.29263636,,-0.0142102,0.3955299,-0.35689443,0.83769906,0.025728144,-0.5455257,0.3448035,0.7497169,0.564832,0.42352194,-0.6612584,0.61916596,,1.140817545646193,0.48231555892681754,0.21277563318000003,0.5623884284254943,-0.27491263752806616,1.400183322781015,-0.39953958576444715,,-0.8139451540117664,-0.2854785434285832,0.19607164024,-3.9568492335529744,-0.2840672830123507,1.3961316199688558,0.8685003996359627,,-0.06813329067472865,-0.051181780314733714,0.08427136484,-0.06737965366399314,,0.00010663271,3.8146973e-06,-8.225441e-06,0.99999994,-7.2252005e-05,-6.4611435e-05,7.224083e-05,0.99999994,-8.821487e-06,6.4603984e-05,8.761883e-06,0.99999994,37,0.111,0,0,0.0,False,-0.2548735072678969,1.0442041652729868
0.1283709940034896,11:12:25.579423,11:12:17.102948,0,,0.1256571,0.002017483,0.0048961937,-0.8520651,0.054733496,-0.52056646,-0.509435,-0.31519443,0.80070484,-0.12025428,0.9474474,0.29644924,,0.04164474,-0.025545701,0.011915982,-0.86693656,-0.117396995,0.48439524,0.49584907,-0.104595214,0.86208653,-0.05054097,0.9875616,0.14888859,,0.10502383,1.339887,0.44090092,0.9940014,0.014130409,-0.10845054,-0.061505053,-0.74773026,-0.6611479,-0.090434045,0.6638522,-0.74237585,,-0.10145145,0.23961447,-0.079798914,0.8433459,-0.12618288,0.5223463,-0.4344497,0.41197675,0.8009548,-0.31626132,-0.9024151,0.29261878,,-0.014221261,0.39553204,-0.3568924,0.8376953,0.025783619,-0.54552895,0.3447892,0.74968785,0.56487924,0.423541,-0.66128916,0.61912006,,1.1408716047763126,0.4823696180569371,0.21276526286000003,0.5625981183689789,-0.2750492740278316,1.4001313832044302,-0.3992128976321786,,-0.8140069358747603,-0.28545537522996056,0.19607552911,-3.9568492335529744,-0.2840672830123507,1.3961316199688558,0.8688270877682313,,-0.06813329067472865,-0.0511883252994287,0.08427136484,-0.06737965366399314,,0.00010663271,3.8146973e-06,-8.225441e-06,0.99999994,-7.2252005e-05,-6.4611435e-05,7.224083e-05,0.99999994,-8.821487e-06,6.4603984e-05,8.761883e-06,0.99999994,45,0.135,0,0,0.0,False,-0.2555288621716292,1.0441558850722072
0.1564390740240924,11:12:25.617824,11:12:17.102948,0,,0.12565173,0.0020171404,0.0049123764,-0.85007656,0.05425343,-0.5238573,-0.5124187,-0.3149436,0.7988976,-0.121642545,0.9475584,0.29552668,,0.041658457,-0.025531322,0.011914134,-0.86702895,-0.11745713,0.48421538,0.49567983,-0.104605526,0.8621826,-0.05061792,0.98755324,0.14891714,,0.10502383,1.339887,0.44090092,0.9940014,0.014130409,-0.10845054,-0.061505053,-0.74773026,-0.6611479,-0.090434045,0.6638522,-0.74237585,,-0.10144718,0.23962535,-0.07981132,0.84136957,-0.12570429,0.52563834,-0.4376284,0.4122477,0.79908276,-0.31714132,-0.9023582,0.2918409,,-0.014235537,0.39553735,-0.3568795,0.8378043,0.025844771,-0.5453586,0.34463948,0.749682,0.56497836,0.42344725,-0.6612934,0.61917967,,1.140948832105055,0.48243912265280514,0.21275229996000003,0.5586140094427728,-0.27545918352712795,1.4006289943958006,-0.3992128976321785,,-0.8140841632035025,-0.28539359336696674,0.19608460314,-3.9570589234964593,-0.2840672830123507,1.3961316199688558,0.8688270877682313,,-0.06813329067472865,-0.0511883252994287,0.08427136484,-0.06737965366399314,,0.00010663271,3.8146973e-06,-8.225441e-06,0.99999994,-7.2252005e-05,-6.4611435e-05,7.224083e-05,0.99999994,-8.821487e-06,6.4603984e-05,8.761883e-06,0.99999994,64,0.193,0,0,0.0,False,-0.2552309735790237,1.0445421266784427
0.19483678799588233,11:12:25.664554,11:12:17.227868,0,,0.12564841,0.0020215213,0.0049355477,-0.8505928,0.05459575,-0.522983,-0.51166236,-0.3152179,0.7992741,-0.12121664,0.94744754,0.29605663,,0.04166788,-0.025514305,0.011904836,-0.86703974,-0.11759488,0.48416248,0.49566293,-0.10489863,0.86215675,-0.050597295,0.9875058,0.14923862,,0.10502383,1.339887,0.44090092,0.9940014,0.014130409,-0.10845054,-0.061505053,-0.74773026,-0.6611479,-0.090434045,0.6638522,-0.74237585,,-0.10144527,0.23964438,-0.07982549,0.8418778,-0.12604617,0.52474195,-0.43677202,0.411963,0.7996979,-0.31697312,-0.9024405,0.29176906,,-0.0142449625,0.39553863,-0.35686013,0.83781403,0.026003178,-0.5453361,0.34464756,0.7494894,0.5652288,0.4234214,-0.6615054,0.6189709,,1.140987445769426,0.4825009045157989,0.21273544819,0.5596624591601955,-0.27545918352712795,1.4007106731359413,-0.3993762416983129,,-0.8141227768678736,-0.2853163660382245,0.19609886233,-3.9570589234964593,-0.2840672830123507,1.3963766561892776,0.8693171199666342,,-0.06813329067472865,-0.0511883252994287,0.08427136484,-0.06737965366399314,,0.00010663271,3.8146973e-06,-8.225441e-06,0.99999994,-7.2252005e-05,-6.4611435e-05,7.224083e-05,0.99999994,-8.821487e-06,6.4603984e-05,8.761883e-06,0.99999994,72,0.217,0,0,0.0,False,-0.2552905512975445,1.0448318078831196
0.24154134199488908,11:12:25.693280,11:12:17.227868,0,,0.12564494,0.0020168275,0.0049446076,-0.8505936,0.05460924,-0.5229802,-0.5116629,-0.31522438,0.7992712,-0.12120852,0.9474446,0.29606932,,0.041669913,-0.025509357,0.011902094,-0.8670438,-0.11759703,0.48415488,0.4956569,-0.104922056,0.8621574,-0.050588667,0.98750293,0.14925972,,0.10502383,1.339887,0.44090092,0.9940014,0.014130409,-0.10845054,-0.061505053,-0.74773026,-0.6611479,-0.090434045,0.6638522,-0.74237585,,-0.10144253,0.23964718,-0.07983553,0.8418781,-0.1260596,0.52473825,-0.43676683,0.41195592,0.7997044,-0.31697944,-0.90244186,0.29175803,,-0.014247,0.39553905,-0.3568545,0.8378175,0.026006937,-0.54533064,0.3446515,0.74947387,0.56524706,0.42341143,-0.66152287,0.618959,,1.1410028912351744,0.4825009045157989,0.21272507787000003,0.5596624591601955,-0.27545918352712795,1.4007106731359413,-0.3993762416983129,,-0.8141304996007478,-0.28529319783960183,0.1961027512,-3.9570589234964593,-0.2840672830123507,1.3963766561892776,0.8693171199666342,,-0.06813329067472865,-0.0511883252994287,0.08427136484,-0.06737965366399314,,0.00010663271,3.8146973e-06,-8.225441e-06,0.99999994,-7.2252005e-05,-6.4611435e-05,7.224083e-05,0.99999994,-8.821487e-06,6.4603984e-05,8.761883e-06,0.99999994,80,0.241,0,0,0.0,False,-0.2552905512975445,1.04478352768234
0.270298604038544,11:12:25.717225,11:12:17.227868,0,,0.12564379,0.002014868,0.004951015,-0.85059446,0.05461239,-0.52297854,-0.51166105,-0.31523418,0.79926854,-0.12121077,0.9474412,0.2960795,,0.04167093,-0.025509074,0.011896789,-0.8670451,-0.11755033,0.48416373,0.495655,-0.10484952,0.86216724,-0.05058375,0.9875163,0.14917362,,0.10502383,1.339887,0.44090092,0.9940014,0.014130409,-0.10845054,-0.061505053,-0.74773026,-0.6611479,-0.090434045,0.6638522,-0.74237585,,-0.10144188,0.23965015,-0.07984163,0.8418791,-0.12606281,0.52473587,-0.43676698,0.41194633,0.7997092,-0.3169766,-0.9024458,0.29174894,,-0.01424751,0.39553484,-0.3568512,0.83781844,0.02595505,-0.5453316,0.3446545,0.7495214,0.56518227,0.42340702,-0.6614711,0.6190173,,1.1410106139680487,0.48250862724867316,0.21271859642000002,0.5596624591601955,-0.27545918352712795,1.4007106731359413,-0.3993762416983129,,-0.8141227768678736,-0.28529319783960183,0.19610793636,-3.9570589234964593,-0.2840672830123507,1.396294977449137,0.8694804640327685,,-0.06813329067472865,-0.0511883252994287,0.08427136484,-0.06737965366399314,,0.00010663271,3.8146973e-06,-8.225441e-06,0.99999994,-7.2252005e-05,-6.4611435e-05,7.224083e-05,0.99999994,-8.821487e-06,6.4603984e-05,8.761883e-06,0.99999994,91,0.275,0,0,0.0,False,-0.25535012901606535,1.0445904068792222
0.2942526040133089,11:12:25.743662,11:12:17.227868,0,,0.12564126,0.002014175,0.0049628913,-0.85059685,0.054621853,-0.5229737,-0.51165545,-0.3152636,0.79926044,-0.12121746,0.94743085,0.29610974,,0.041671492,-0.025508925,0.011895657,-0.8670451,-0.11755033,0.48416373,0.495655,-0.10484952,0.86216724,-0.05058375,0.9875163,0.14917362,,0.10502383,1.339887,0.44090092,0.9940014,0.014130409,-0.10845054,-0.061505053,-0.74773026,-0.6611479,-0.090434045,0.6638522,-0.74237585,,-0.101440154,0.23965777,-0.07985095,0.8418821,-0.1260724,0.5247288,-0.4367674,0.41191754,0.7997238,-0.31696808,-0.9024576,0.2917217,,-0.014247964,0.39553392,-0.3568504,0.83781844,0.02595505,-0.5453316,0.3446545,0.7495214,0.56518227,0.42340702,-0.6614711,0.6190173,,1.1410337821666714,0.4825317954472958,0.2127082261,0.5596624591601955,-0.27545918352712795,1.4007106731359413,-0.3993762416983129,,-0.8141227768678736,-0.28529319783960183,0.19610923265000002,-3.9570589234964593,-0.2840672830123507,1.396294977449137,0.8694804640327685,,-0.06813329067472865,-0.0511883252994287,0.08427136484,-0.06737965366399314,,0.00010663271,3.8146973e-06,-8.225441e-06,0.99999994,-7.2252005e-05,-6.4611435e-05,7.224083e-05,0.99999994,-8.821487e-06,6.4603984e-05,8.761883e-06,0.99999994,99,0.299,0,0,0.0,False,-0.25540970673458663,1.0446869672807815
0.3206349920365028,11:12:25.772575,11:12:17.308415,0,,0.12564033,0.0020150542,0.0049713105,-0.85059875,0.05458187,-0.52297467,-0.5116496,-0.31522444,0.79927963,-0.1212282,0.9474462,0.2960563,,0.041673295,-0.025508553,0.01189512,-0.8670438,-0.11759703,0.48415488,0.4956569,-0.104922056,0.8621574,-0.050588667,0.98750293,0.14925972,,0.10502383,1.339887,0.44090092,0.9940014,0.014130409,-0.10845054,-0.061505053,-0.74773026,-0.6611479,-0.090434045,0.6638522,-0.74237585,,-0.10143976,0.23966417,-0.079856545,0.8418849,-0.12603243,0.52473384,-0.4367704,0.41195762,0.7997015,-0.31695643,-0.9024449,0.29177368,,-0.014249724,0.3955335,-0.35684976,0.8378175,0.026006937,-0.54533064,0.3446515,0.74947387,0.56524706,0.42341143,-0.66152287,0.618959,,1.1410492276324198,0.4825549636459185,0.21270174465000002,0.5596624591601955,-0.27545918352712795,1.4006289943958006,-0.39953958576444715,,-0.8141304996007478,-0.28529319783960183,0.19611052894000003,-3.9570589234964593,-0.2840672830123507,1.3963766561892776,0.8696438080989026,,-0.06813329067472865,-0.0511883252994287,0.08427136484,-0.06737965366399314,,0.00010663271,3.8146973e-06,-8.225441e-06,0.99999994,-7.2252005e-05,-6.4611435e-05,7.224083e-05,0.99999994,-8.821487e-06,6.4603984e-05,8.761883e-06,0.99999994,107,0.324,0,0,0.0,False,-0.2556480176086704,1.043817923666751
0.34958793403347954,11:12:25.800470,11:12:17.308415,0,,0.1256366,0.0020129979,0.0049840957,-0.8505817,0.05476417,-0.5229833,-0.511705,-0.31527394,0.7992247,-0.12111418,0.94741917,0.29618937,,0.041676603,-0.025506347,0.011894107,-0.8670428,-0.11753061,0.48417273,0.49565807,-0.104792625,0.8621725,-0.050593957,0.9875247,0.14911464,,0.10502383,1.339887,0.44090092,0.9940014,0.014130409,-0.10845054,-0.061505053,-0.74773026,-0.6611479,-0.090434045,0.6638522,-0.74237585,,-0.10143695,0.23967144,-0.07986754,0.8418588,-0.12621386,0.5247321,-0.43673384,0.41189855,0.79975194,-0.31707618,-0.90244645,0.29163855,,-0.014253035,0.39553356,-0.35684732,0.83781695,0.02593135,-0.54533505,0.3446478,0.74955887,0.5651367,0.42341548,-0.6614296,0.6190559,,1.1410723958310425,0.4825781318445412,0.21269007804,0.5596624591601955,-0.2755958200268934,1.400740412299497,-0.39953958576444715,,-0.8141459450664963,-0.28528547510672764,0.19611312152000002,-3.9570589234964593,-0.2840672830123507,1.3962132987089966,0.8696438080989027,,-0.06813329067472865,-0.0511883252994287,0.08427136484,-0.06737965366399314,,0.00010663271,3.8146973e-06,-8.225441e-06,0.99999994,-7.2252005e-05,-6.4611435e-05,7.224083e-05,0.99999994,-8.821487e-06,6.4603984e-05,8.761883e-06,0.99999994,115,0.347,0,0,0.0,False,-0.2557075953271921,1.0443972860761046
0.3775001370231621,11:12:25.823355,11:12:17.308415,0,,0.12563325,0.0020131245,0.004993707,-0.8505646,0.05494645,-0.52299213,-0.51176035,-0.3153235,0.79916966,-0.12100014,0.9473921,0.2963224,,0.041677848,-0.025506124,0.011894703,-0.86704135,-0.11745867,0.4841927,0.49565998,-0.104653955,0.86218816,-0.050598815,0.9875479,0.14895883,,0.10502383,1.339887,0.44090092,0.9940014,0.014130409,-0.10845054,-0.061505053,-0.74773026,-0.6611479,-0.090434045,0.6638522,-0.74237585,,-0.10143424,0.23967814,-0.0798747,0.84183264,-0.1263953,0.52473044,-0.43669727,0.41183946,0.7998023,-0.31719595,-0.90244806,0.29150343,,-0.014254342,0.39553404,-0.35684747,0.83781594,0.025849612,-0.5453405,0.3446448,0.7496498,0.56501776,0.4234199,-0.6613296,0.61915964,,1.1410955640296652,0.4826013000431638,0.21268230030000002,0.5596624591601955,-0.2757324565266588,1.4008518302031936,-0.39953958576444715,,-0.8141536677993705,-0.28528547510672764,0.19611312152000002,-3.9570589234964593,-0.2840672830123507,1.3960499412287153,0.869317119966634,,-0.06813329067472865,-0.0511883252994287,0.08427136484,-0.06737965366399314,,0.00010663271,3.8146973e-06,-8.225441e-06,0.99999994,-7.2252005e-05,-6.4611435e-05,7.224083e-05,0.99999994,-8.821487e-06,6.4603984e-05,8.761883e-06,0.99999994,127,0.384,0,0,0.0,False,-0.25546928445310746,1.044735247481561
0.4003749039839022,11:12:25.851768,11:12:17.308415,0,,0.1256237,0.0020106882,0.0050103813,-0.8502432,0.05494302,-0.5235149,-0.5122614,-0.31523937,0.7988818,-0.12113954,0.94742024,0.2961753,,0.041677848,-0.025506124,0.011894703,-0.86704135,-0.11745867,0.4841927,0.49565998,-0.104653955,0.86218816,-0.050598815,0.9875479,0.14895883,,0.10502383,1.339887,0.44090092,0.9940014,0.014130409,-0.10845054,-0.061505053,-0.74773026,-0.6611479,-0.090434045,0.6638522,-0.74237585,,-0.101425886,0.23968793,-0.07988918,0.841507,-0.12639135,0.5252535,-0.43716702,0.4119203,0.79950404,-0.31741297,-0.9024117,0.2913797,,-0.014254342,0.39553404,-0.35684747,0.83781594,0.025849612,-0.5453405,0.3446448,0.7496498,0.56501776,0.4234199,-0.6613296,0.61915964,,1.141157345892659,0.4826244682417865,0.21266674482000003,0.5590333893297419,-0.27586909302642426,1.4008815693667493,-0.3997029298305814,,-0.8141536677993705,-0.28528547510672764,0.19611312152000002,-3.9570589234964593,-0.2840672830123507,1.3960499412287153,0.869317119966634,,-0.06813329067472865,-0.0511883252994287,0.08427136484,-0.06737965366399314,,0.00010663271,3.8146973e-06,-8.225441e-06,0.99999994,-7.2252005e-05,-6.4611435e-05,7.224083e-05,0.99999994,-8.821487e-06,6.4603984e-05,8.761883e-06,0.99999994,138,0.418,0,0,0.0,False,-0.25582675076423333,1.044011044469869
0.42879750300198793,11:12:25.885503,11:12:17.443376,0,,0.12560062,0.002010867,0.00504601,-0.84905124,0.05500609,-0.52543914,-0.514117,-0.31501237,0.79777855,-0.12163712,0.9474922,0.29574114,,0.041678406,-0.025505975,0.011893511,-0.86704135,-0.11745867,0.4841927,0.49565998,-0.104653955,0.86218816,-0.050598815,0.9875479,0.14895883,,0.10502383,1.339887,0.44090092,0.9940014,0.014130409,-0.10845054,-0.061505053,-0.74773026,-0.6611479,-0.090434045,0.6638522,-0.74237585,,-0.10140521,0.23971286,-0.07991664,0.8402984,-0.12645257,0.5271701,-0.43889403,0.41213405,0.79844695,-0.31823042,-0.90230554,0.2908163,,-0.014254796,0.39553314,-0.3568467,0.83781594,0.025849612,-0.5453405,0.3446448,0.7496498,0.56501776,0.4234199,-0.6613296,0.61915964,,1.1413195232830176,0.4827016955705288,0.21263693015000001,0.5567267999514122,-0.27641563902548605,1.4011638835012539,-0.40002961796284997,,-0.8141536677993705,-0.28528547510672764,0.19611441781000002,-3.9570589234964593,-0.2840672830123507,1.3960499412287153,0.869317119966634,,-0.06813329067472865,-0.0511883252994287,0.08427136484,-0.06737965366399314,,0.00010663271,3.8146973e-06,-8.225441e-06,0.99999994,-7.2252005e-05,-6.4611435e-05,7.224083e-05,0.99999994,-8.821487e-06,6.4603984e-05,8.761883e-06,0.99999994,146,0.443,0,0,0.0,False,-0.25636295023092304,1.04391448406831
0.4625329850241542,11:12:25.913913,11:12:17.443376,0,,0.12559153,0.00201492,0.005063668,-0.8491596,0.055064928,-0.5252579,-0.5139608,-0.31503728,0.7978694,-0.12154119,0.94748044,0.29581815,,0.041678116,-0.025504574,0.011893511,-0.86704314,-0.117457,0.48418993,0.49565732,-0.10466102,0.8621888,-0.0505943,0.9875474,0.14896399,,0.10502383,1.339887,0.44090092,0.9940014,0.014130409,-0.10845054,-0.061505053,-0.74773026,-0.6611479,-0.090434045,0.6638522,-0.74237585,,-0.101397194,0.23972805,-0.07992738,0.84040457,-0.12651119,0.52698684,-0.4387117,0.4121064,0.79856145,-0.3182016,-0.90230995,0.29083413,,-0.014254586,0.395534,-0.35684553,0.83781743,0.025848417,-0.5453383,0.3446471,0.7496451,0.56502265,0.4234151,-0.6613351,0.61915714,,1.1413890278788856,0.48274030923489986,0.21262396725000002,0.5569364898948967,-0.27641563902548605,1.4010822047611133,-0.40019296202898424,,-0.8141536677993705,-0.2852777523738534,0.19611441781000002,-3.9570589234964593,-0.2840672830123507,1.3960499412287153,0.869317119966634,,-0.06813329067472865,-0.0511883252994287,0.08427136484,-0.06737965366399314,,0.00010663271,3.8146973e-06,-8.225441e-06,0.99999994,-7.2252005e-05,-6.4611435e-05,7.224083e-05,0.99999994,-8.821487e-06,6.4603984e-05,8.761883e-06,0.99999994,154,0.467,0,0,0.0,False,-0.2564821056679656,1.043721363265192
0.4909392310073599,11:12:25.945620,11:12:17.443376,0,,0.12557082,0.00202246,0.00510183,-0.84915274,0.055333212,-0.52524084,-0.51400334,-0.3151939,0.79778016,-0.121408954,0.9474128,0.29608917,,0.041676573,-0.025503352,0.011892974,-0.86704624,-0.11744817,0.48418638,0.4956528,-0.104666024,0.86219084,-0.050584942,0.9875479,0.14896372,,0.10502383,1.339887,0.44090092,0.9940014,0.014130409,-0.10845054,-0.061505053,-0.74773026,-0.6611479,-0.090434045,0.6638522,-0.74237585,,-0.10137885,0.23976004,-0.07995153,0.84038776,-0.12677874,0.52694935,-0.43865314,0.41193908,0.79867995,-0.31832665,-0.9023488,0.29057667,,-0.01425307,0.39553443,-0.35684425,0.8378199,0.025839876,-0.5453349,0.3446524,0.74964166,0.565024,0.4234059,-0.66133934,0.6191589,,1.1415434825363702,0.4828252592965164,0.21259544887,0.5569364898948967,-0.27655227552525147,1.4011936226648098,-0.40019296202898424,,-0.8141459450664963,-0.28527002964097914,0.19611441781000002,-3.9570589234964593,-0.2840672830123507,1.3960499412287153,0.869317119966634,,-0.06813329067472865,-0.0511883252994287,0.08427136484,-0.06737965366399314,,0.00010663271,3.8146973e-06,-8.225441e-06,0.99999994,-7.2252005e-05,-6.4611435e-05,7.224083e-05,0.99999994,-8.821487e-06,6.4603984e-05,8.761883e-06,0.99999994,166,0.503,0,0,0.0,False,-0.2566012611050077,1.0444938464776636
0.5226283689844422,11:12:25.975519,11:12:17.443376,0,,0.12555853,0.002028808,0.0051226914,-0.84914094,0.05556191,-0.5252358,-0.51405245,-0.31529832,0.7977072,-0.121283814,0.94736457,0.2962944,,0.041680448,-0.025501043,0.011890769,-0.8670453,-0.11746082,0.4841851,0.495654,-0.10467744,0.86218876,-0.050590217,0.9875452,0.14897993,,0.10502383,1.339887,0.44090092,0.9940014,0.014130409,-0.10845054,-0.061505053,-0.74773026,-0.6611479,-0.090434045,0.6638522,-0.74237585,,-0.101367794,0.23977917,-0.07996329,0.8403663,-0.12700662,0.52692866,-0.4386043,0.41182426,0.79876596,-0.31845057,-0.90236914,0.2903776,,-0.014256834,0.39553353,-0.35684103,0.83781934,0.025853373,-0.54533505,0.34464872,0.74963427,0.565036,0.42340994,-0.66134715,0.6191478,,1.1416361553308607,0.4828793184266359,0.21258118968000003,0.5569364898948967,-0.2766889120250169,1.4013050405685061,-0.40019296202898424,,-0.8141613905322447,-0.28526230690810495,0.19611830668000002,-3.9570589234964593,-0.2840672830123507,1.3960499412287153,0.869317119966634,,-0.06813329067472865,-0.0511883252994287,0.08427136484,-0.06737965366399314,,0.00010663271,3.8146973e-06,-8.225441e-06,0.99999994,-7.2252005e-05,-6.4611435e-05,7.224083e-05,0.99999994,-8.821487e-06,6.4603984e-05,8.761883e-06,0.99999994,181,0.549,0,0,0.0,False,-0.2566608388235285,1.0443972860761046
0.5525506539852358,11:12:26.022864,11:12:17.443376,0,,0.12553608,0.0020240992,0.00518623,-0.84909624,0.05611871,-0.5252489,-0.5142083,-0.3154552,0.7975447,-0.120935306,0.9472796,0.2967084,,0.041684818,-0.025492579,0.011885226,-0.8670515,-0.1174668,0.48417264,0.49564457,-0.104717255,0.86218935,-0.05057746,0.98754025,0.14901695,,0.10502383,1.339887,0.44090092,0.9940014,0.014130409,-0.10845054,-0.061505053,-0.74773026,-0.6611479,-0.090434045,0.6638522,-0.74237585,,-0.101349734,0.23981945,-0.0800144,0.84029424,-0.12756081,0.5269097,-0.4384826,0.41163802,0.79892874,-0.31880805,-0.902376,0.28996387,,-0.014261121,0.39553347,-0.3568309,0.83782476,0.02586209,-0.54532635,0.34465426,0.7496079,0.56506765,0.4233948,-0.6613767,0.61912656,,1.1417906099883453,0.4829951594197493,0.21252544921000002,0.5569364898948967,-0.27709882152431325,1.401557615539455,-0.4003563060951185,,-0.8141768359979932,-0.2852236932437338,0.19612608442,-3.9570589234964593,-0.2840672830123507,1.3960499412287153,0.869317119966634,,-0.06813329067472865,-0.0511883252994287,0.08427136484,-0.06737965366399314,,0.00010663271,3.8146973e-06,-8.225441e-06,0.99999994,-7.2252005e-05,-6.4611435e-05,7.224083e-05,0.99999994,-8.821487e-06,6.4603984e-05,8.761883e-06,0.99999994,189,0.574,0,0,0.0,False,-0.25624379479388093,1.044011044469869
0.5998917589895427,11:12:26.047858,11:12:17.443376,0,,0.1255266,0.0020036846,0.005238697,-0.84729826,0.05558255,-0.528201,-0.5168811,-0.3150108,0.7959912,-0.12214577,0.9474591,0.29563755,,0.04168749,-0.025483817,0.01187855,-0.8670348,-0.117519505,0.4841897,0.49566323,-0.10459712,0.8621932,-0.050679713,0.98754674,0.14893934,,0.10502383,1.339887,0.44090092,0.9940014,0.014130409,-0.10845054,-0.061505053,-0.74773026,-0.6611479,-0.090434045,0.6638522,-0.74237585,,-0.10134433,0.23984042,-0.08006725,0.83850515,-0.12702529,0.5298809,-0.44130787,0.4120987,0.7971336,-0.31961936,-0.90224123,0.28948963,,-0.014263626,0.39553288,-0.35681984,0.83781713,0.025906892,-0.5453359,0.34458065,0.7496887,0.5650053,0.4234697,-0.6612834,0.6191751,,1.1418755600499617,0.48308010948136576,0.21247100503000002,0.5533717608556598,-0.27750873102360957,1.401728511770263,-0.4003563060951185,,-0.8141768359979932,-0.2851773568464885,0.19613386216000003,-3.9570589234964593,-0.28393064651258526,1.395938523325019,0.869317119966634,,-0.06813329067472865,-0.0511883252994287,0.08427136484,-0.06737965366399314,,0.00010663271,3.8146973e-06,-8.225441e-06,0.99999994,-7.2252005e-05,-6.4611435e-05,7.224083e-05,0.99999994,-8.821487e-06,6.4603984e-05,8.761883e-06,0.99999994,197,0.598,0,0,0.0,False,-0.2566012611050077,1.0440593246706484
0.6248892240109853,11:12:26.074653,11:12:17.443376,0,,0.1255089,0.0019897074,0.0052853227,-0.84755546,0.05633132,-0.5277088,-0.51661056,-0.3152278,0.79608095,-0.12150417,0.9473427,0.29627436,,0.04168686,-0.025477946,0.011877537,-0.8670418,-0.11751284,0.4841786,0.49565265,-0.10462549,0.86219585,-0.050661713,0.98754454,0.1489602,,0.10502383,1.339887,0.44090092,0.9940014,0.014130409,-0.10845054,-0.061505053,-0.74773026,-0.6611479,-0.090434045,0.6638522,-0.74237585,,-0.10133015,0.2398623,-0.08011198,0.8387269,-0.12777059,0.52935046,-0.44066715,0.4118424,0.7976204,-0.3199214,-0.90225303,0.289119,,-0.01426324,0.39553553,-0.3568145,0.83782303,0.025902113,-0.54532707,0.34458986,0.74966973,0.5650249,0.42345053,-0.66130507,0.61916494,,1.1419605101115782,0.4831264458786111,0.21242433859,0.5540008306861134,-0.2779186405229059,1.4020627654813522,-0.4003563060951185,,-0.8141768359979932,-0.2851464659149916,0.19613515845,-3.9570589234964593,-0.28393064651258526,1.395938523325019,0.869317119966634,,-0.06813329067472865,-0.0511883252994287,0.08427136484,-0.06737965366399314,,0.00010663271,3.8146973e-06,-8.225441e-06,0.99999994,-7.2252005e-05,-6.4611435e-05,7.224083e-05,0.99999994,-8.821487e-06,6.4603984e-05,8.761883e-06,0.99999994,205,0.622,0,0,0.0,False,-0.2559459062012759,1.04391448406831
0.6516750989831053,11:12:26.097434,11:12:17.443376,0,,0.12548736,0.0019742846,0.005351439,-0.84787494,0.05641857,-0.527186,-0.516153,-0.31516662,0.7964018,-0.12121959,0.9473578,0.29634246,,0.041686796,-0.025471956,0.011875391,-0.867049,-0.11750615,0.48416746,0.49564207,-0.104653895,0.8621985,-0.050643653,0.9875424,0.14898103,,0.10502383,1.339887,0.44090092,0.9940014,0.014130409,-0.10845054,-0.061505053,-0.74773026,-0.6611479,-0.090434045,0.6638522,-0.74237585,,-0.10131348,0.23989649,-0.08017222,0.8390397,-0.12785688,0.5288336,-0.4401306,0.4118954,0.79788923,-0.31983978,-0.9022166,0.28932285,,-0.014263308,0.39553726,-0.35680836,0.837829,0.025897332,-0.5453182,0.3445991,0.7496507,0.5650445,0.42343134,-0.6613268,0.6191549,,1.14209179657044,0.4831959504744791,0.21235952409000003,0.5546299005165669,-0.2779186405229059,1.4017360505207899,-0.40002961796284975,,-0.8141768359979932,-0.28511557498349466,0.19613775103000003,-3.9570589234964593,-0.28393064651258526,1.395938523325019,0.869317119966634,,-0.06813329067472865,-0.0511883252994287,0.08427136484,-0.06737965366399314,,0.00010663271,3.8146973e-06,-8.225441e-06,0.99999994,-7.2252005e-05,-6.4611435e-05,7.224083e-05,0.99999994,-8.821487e-06,6.4603984e-05,8.761883e-06,0.99999994,213,0.646,0,0,0.0,False,-0.25600548391979716,1.0443972860761046
0.6744164410047233,11:12:26.124615,11:12:17.665982,0,,0.12547238,0.0019528568,0.005397171,-0.847781,0.057226393,-0.52725005,-0.5164479,-0.31518787,0.7962022,-0.12061907,0.9473023,0.2967647,,0.041687973,-0.025465757,0.011873841,-0.86705476,-0.11750663,0.48415712,0.49563333,-0.10468447,0.8621998,-0.050630525,0.98753905,0.14900729,,0.10502383,1.339887,0.44090092,0.9940014,0.014130409,-0.10845054,-0.061505053,-0.74773026,-0.6611479,-0.090434045,0.6638522,-0.74237585,,-0.10130216,0.23991224,-0.08022118,0.83889794,-0.12865955,0.5288639,-0.43994057,0.41182247,0.7980317,-0.32047242,-0.9021358,0.28887448,,-0.014264681,0.39553946,-0.35680237,0.8378339,0.025899898,-0.54531056,0.34460533,0.7496304,0.56506765,0.42341655,-0.6613497,0.6191405,,1.1421458557005597,0.48323456413885024,0.21231026507000003,0.5546299005165669,-0.2786018230217331,1.402129782558991,-0.3997029298305812,,-0.8141845587308674,-0.28508468405199777,0.19614034361000002,-3.9570589234964593,-0.28393064651258526,1.395938523325019,0.869317119966634,,-0.06813329067472865,-0.0511883252994287,0.08427136484,-0.06737965366399314,,0.00010663271,3.8146973e-06,-8.225441e-06,0.99999994,-7.2252005e-05,-6.4611435e-05,7.224083e-05,0.99999994,-8.821487e-06,6.4603984e-05,8.761883e-06,0.99999994,228,0.692,0,0,0.0,False,-0.2561842170753601,1.0443972860761046
0.7016331549966708,11:12:26.165474,11:12:17.665982,0,,0.12545417,0.001918383,0.0055085868,-0.8474272,0.057517894,-0.52778673,-0.51703453,-0.3152127,0.79581153,-0.12059167,0.94727635,0.29685855,,0.041690007,-0.025460795,0.0118710995,-0.8670587,-0.117508784,0.48414952,0.49562734,-0.10470793,0.8622004,-0.050621897,0.98753625,0.14902842,,0.10502383,1.339887,0.44090092,0.9940014,0.014130409,-0.10845054,-0.061505053,-0.74773026,-0.6611479,-0.090434045,0.6638522,-0.74237585,,-0.10129236,0.23996319,-0.080327205,0.8385266,-0.12894927,0.52938193,-0.44036043,0.41177964,0.7978222,-0.3208673,-0.902114,0.28850403,,-0.01426672,0.39553988,-0.35679674,0.8378373,0.025903659,-0.54530513,0.34460923,0.74961483,0.5650859,0.4234066,-0.66136724,0.6191286,,1.1422694194265473,0.4833890187963347,0.21219878413,0.5540008306861134,-0.2790117325210294,1.4023006787897991,-0.40002961796284975,,-0.8141922814637416,-0.2850615158533751,0.19614423248,-3.9570589234964593,-0.28393064651258526,1.395938523325019,0.869317119966634,,-0.06813329067472865,-0.0511883252994287,0.08427136484,-0.06737965366399314,,0.00010663271,3.8146973e-06,-8.225441e-06,0.99999994,-7.2252005e-05,-6.4611435e-05,7.224083e-05,0.99999994,-8.821487e-06,6.4603984e-05,8.761883e-06,0.99999994,236,0.717,0,0,0.0,False,-0.2552309735790237,1.0444455662768841
0.742455437022727,11:12:26.185733,11:12:17.665982,0,,0.12544617,0.0019038767,0.005547762,-0.8464364,0.05742219,-0.52938473,-0.5185479,-0.31489316,0.79495287,-0.1210517,0.94738847,0.29631317,,0.041700423,-0.02546087,0.011870563,-0.8670761,-0.117484406,0.48412418,0.4955986,-0.10470995,0.8622166,-0.050604403,0.987539,0.14901662,,0.10502383,1.339887,0.44090092,0.9940014,0.014130409,-0.10845054,-0.061505053,-0.74773026,-0.6611479,-0.090434045,0.6638522,-0.74237585,,-0.101287365,0.23997939,-0.08036624,0.8375258,-0.12885216,0.53098744,-0.44180623,0.4120923,0.7968608,-0.3214931,-0.90198505,0.28821024,,-0.014277015,0.39553827,-0.3567964,0.83785456,0.025879286,-0.54527974,0.34460866,0.74961305,0.5650886,0.4233729,-0.6613702,0.61914843,,1.1423234785566667,0.48345080065932855,0.21215600656000003,0.5521136211947526,-0.2794216420203257,1.4023898962804666,-0.39953958576444704,,-0.8141922814637416,-0.2850615158533751,0.19614552877000002,-3.9570589234964593,-0.28393064651258526,1.395938523325019,0.869317119966634,,-0.06816601559820354,-0.0511883252994287,0.08427136484,-0.06737965366399314,,0.00010663271,3.8146973e-06,-8.225441e-06,0.99999994,-7.2252005e-05,-6.4611435e-05,7.224083e-05,0.99999994,-8.821487e-06,6.4603984e-05,8.761883e-06,0.99999994,244,0.742,0,0,0.0,False,-0.25558843989015,1.0443972860761046
0.7627575160004199,11:12:26.212828,11:12:17.745496,0,,0.12541245,0.0018684715,0.0056418777,-0.84618294,0.058590855,-0.5296617,-0.51916754,-0.3147678,0.79459804,-0.120164305,0.94735855,0.2967696,,0.041703008,-0.025459245,0.011871338,-0.86707944,-0.11748583,0.48411795,0.4955931,-0.10471961,0.8622186,-0.05060187,0.98753774,0.14902535,,0.10502383,1.339887,0.44090092,0.9940014,0.014130409,-0.10845054,-0.061505053,-0.74773026,-0.6611479,-0.090434045,0.6638522,-0.74237585,,-0.10126097,0.24001826,-0.08046131,0.83719677,-0.13001226,0.5312235,-0.441663,0.41213554,0.79691786,-0.32254517,-0.90179884,0.28761694,,-0.014279752,0.39553955,-0.35679552,0.8378579,0.025881376,-0.5452745,0.3446079,0.74960667,0.5650976,0.4233669,-0.6613774,0.6191449,,1.1424779332141513,0.4835434734538192,0.21205748852000003,0.5519039312512681,-0.28051473401844923,1.4027911670691946,-0.39888620949990994,,-0.8142000041966159,-0.2850537931205009,0.19614552877000002,-3.9570589234964593,-0.28393064651258526,1.395938523325019,0.869317119966634,,-0.06817910556759349,-0.0511883252994287,0.08427136484,-0.06737965366399314,,0.00010663271,3.8146973e-06,-8.225441e-06,0.99999994,-7.2252005e-05,-6.4611435e-05,7.224083e-05,0.99999994,-8.821487e-06,6.4603984e-05,8.761883e-06,0.99999994,252,0.765,0,0,0.0,False,-0.25558843989015,1.0444938464776636
0.7898549269884825,11:12:26.245146,11:12:17.745496,0,,0.1253877,0.0018478185,0.0057269186,-0.84638476,0.05887875,-0.52930725,-0.518908,-0.31485784,0.7947319,-0.119863704,0.9473108,0.29704344,,0.04170255,-0.025455788,0.011871815,-0.86707497,-0.117536746,0.48411348,0.49559972,-0.10478529,0.8622069,-0.050613046,0.98752475,0.14910787,,0.10502383,1.339887,0.44090092,0.9940014,0.014130409,-0.10845054,-0.061505053,-0.74773026,-0.6611479,-0.090434045,0.6638522,-0.74237585,,-0.10124249,0.24006157,-0.080539115,0.83738554,-0.13029881,0.5308556,-0.4412635,0.41203013,0.79719365,-0.32260188,-0.90180564,0.28753197,,-0.014279539,0.39554194,-0.356793,0.8378542,0.02593703,-0.54527754,0.34460223,0.7495638,0.56515783,0.42337883,-0.66142374,0.6190872,,1.1426323878716358,0.48364386898118417,0.21197322967,0.5523233111382371,-0.28065137051821465,1.40273922749261,-0.3992128976321784,,-0.8142077269294901,-0.2850537931205009,0.19614552877000002,-3.9570589234964593,-0.28393064651258526,1.3960202020651595,0.8694804640327686,,-0.06817256058289851,-0.051181780314733714,0.08427136484,-0.06737965366399314,,0.00010663271,3.8146973e-06,-8.225441e-06,0.99999994,-7.2252005e-05,-6.4611435e-05,7.224083e-05,0.99999994,-8.821487e-06,6.4603984e-05,8.761883e-06,0.99999994,260,0.79,0,0,0.0,False,-0.2561842170753601,1.0443972860761046
0.8221295530092902,11:12:26.273763,11:12:17.745496,0,,0.12535724,0.0018239766,0.005806148,-0.84630305,0.059785247,-0.5293363,-0.51918113,-0.3150262,0.79448676,-0.11925617,0.94719803,0.297647,,0.041696385,-0.025455937,0.011870801,-0.86706764,-0.11758132,0.4841158,0.49561214,-0.10485256,0.86219156,-0.050616875,0.98751223,0.14918897,,0.10502383,1.339887,0.44090092,0.9940014,0.014130409,-0.10845054,-0.061505053,-0.74773026,-0.6611479,-0.090434045,0.6638522,-0.74237585,,-0.10121802,0.24009869,-0.08061525,0.83725613,-0.13120028,0.53083766,-0.44105253,0.4118081,0.7974251,-0.32322565,-0.9017764,0.28692263,,-0.014273311,0.3955418,-0.3567926,0.8378466,0.02598641,-0.5452869,0.3446055,0.7495199,0.56521416,0.42339125,-0.6614716,0.6190276,,1.1427945652619944,0.48372881904280063,0.21189545227000003,0.5523233111382371,-0.28133455301704186,1.4032146382709514,-0.39937624169831265,,-0.8142000041966159,-0.2850537931205009,0.19614552877000002,-3.9570589234964593,-0.28393064651258526,1.3961018808053,0.8696438080989027,,-0.06815292562881357,-0.051181780314733714,0.08427136484,-0.06737965366399314,,0.00010663271,3.8146973e-06,-8.225441e-06,0.99999994,-7.2252005e-05,-6.4611435e-05,7.224083e-05,0.99999994,-8.821487e-06,6.4603984e-05,8.761883e-06,0.99999994,271,0.824,0,0,0.0,False,-0.25576717304571295,1.0445421266784427
0.85076898598345,11:12:26.298745,11:12:17.745496,0,,0.12531926,0.0017929748,0.005901426,-0.84508294,0.05984342,-0.5312754,-0.5210818,-0.3145265,0.7934397,-0.11961807,0.9473604,0.29698437,,0.041696947,-0.025455788,0.011869669,-0.86706764,-0.11758132,0.4841158,0.49561214,-0.10485256,0.86219156,-0.050616875,0.98751223,0.14918897,,0.10502383,1.339887,0.44090092,0.9940014,0.014130409,-0.10845054,-0.061505053,-0.74773026,-0.6611479,-0.090434045,0.6638522,-0.74237585,,-0.101187326,0.24014169,-0.080708474,0.83600914,-0.13125485,0.5327859,-0.44272098,0.41228324,0.79625416,-0.32417092,-0.90155125,0.28656328,,-0.014273765,0.39554086,-0.3567918,0.8378466,0.02598641,-0.5452869,0.3446055,0.7495199,0.56521416,0.42339125,-0.6614716,0.6190276,,1.143018524515347,0.48382921457016553,0.21179823052000002,0.5500167217599073,-0.28201773551586906,1.4031999766084495,-0.3998662738967156,,-0.8142000041966159,-0.2850537931205009,0.19614682506000003,-3.9570589234964593,-0.28393064651258526,1.3961018808053,0.8696438080989027,,-0.06815292562881357,-0.051181780314733714,0.08427136484,-0.06737965366399314,,0.00010663271,3.8146973e-06,-8.225441e-06,0.99999994,-7.2252005e-05,-6.4611435e-05,7.224083e-05,0.99999994,-8.821487e-06,6.4603984e-05,8.761883e-06,0.99999994,283,0.86,0,0,0.0,False,-0.2561842170753601,1.044638687080002
0.8757767549832352,11:12:26.328051,11:12:17.745496,0,,0.12527186,0.0017745048,0.006001696,-0.8447983,0.060937513,-0.5316037,-0.5218017,-0.3138123,0.79324937,-0.11848511,0.94752747,0.29690534,,0.04169875,-0.02545543,0.0118691325,-0.86706626,-0.11758849,0.48411655,0.49561408,-0.10485467,0.8621901,-0.050621748,0.9875113,0.14919448,,0.10502383,1.339887,0.44090092,0.9940014,0.014130409,-0.10845054,-0.061505053,-0.74773026,-0.6611479,-0.090434045,0.6638522,-0.74237585,,-0.1011472,0.24019748,-0.080797456,0.83562994,-0.13233687,0.5331131,-0.442485,0.41289377,0.7960689,-0.32546836,-0.90111357,0.2864693,,-0.014275526,0.39554045,-0.35679117,0.83784556,0.025993757,-0.5452881,0.3446025,0.7495186,0.56521773,0.42339566,-0.6614728,0.61902326,,1.1432810974330707,0.4839759464947758,0.21170489764000003,0.5498070318164229,-0.28338410051352353,1.4029256170630244,-0.4003563060951185,,-0.8142077269294901,-0.2850537931205009,0.19614812135,-3.9570589234964593,-0.28393064651258526,1.3961018808053,0.8696438080989027,,-0.06815292562881357,-0.051181780314733714,0.08427136484,-0.06737965366399314,,0.00010663271,3.8146973e-06,-8.225441e-06,0.99999994,-7.2252005e-05,-6.4611435e-05,7.224083e-05,0.99999994,-8.821487e-06,6.4603984e-05,8.761883e-06,0.99999994,291,0.885,0,0,0.0,False,-0.2561246393568388,1.0440593246706484
0.9050519189913757,11:12:26.357526,11:12:17.745496,0,,0.12523623,0.0017615333,0.0060650855,-0.84392536,0.061471254,-0.5329271,-0.5232936,-0.31307396,0.7925581,-0.118126035,0.9477372,0.29637858,,0.04169875,-0.02545543,0.0118691325,-0.86706626,-0.11758849,0.48411655,0.49561408,-0.10485467,0.8621901,-0.050621748,0.9875113,0.14919448,,0.10502383,1.339887,0.44090092,0.9940014,0.014130409,-0.10845054,-0.061505053,-0.74773026,-0.6611479,-0.090434045,0.6638522,-0.74237585,,-0.101116225,0.24023195,-0.080854975,0.83469313,-0.13286215,0.5344483,-0.44335523,0.4135645,0.7952362,-0.32668567,-0.90072864,0.28629434,,-0.014275526,0.39554045,-0.35679117,0.83784556,0.025993757,-0.5452881,0.3446025,0.7495186,0.56521773,0.42339566,-0.6614728,0.61902326,,1.1434818884878004,0.4840686192892665,0.21164526830000002,0.5483392022120313,-0.284477192511647,1.4027551366707685,-0.40019296202898413,,-0.8142077269294901,-0.2850537931205009,0.19614812135,-3.9570589234964593,-0.28393064651258526,1.3961018808053,0.8696438080989027,,-0.06815292562881357,-0.051181780314733714,0.08427136484,-0.06737965366399314,,0.00010663271,3.8146973e-06,-8.225441e-06,0.99999994,-7.2252005e-05,-6.4611435e-05,7.224083e-05,0.99999994,-8.821487e-06,6.4603984e-05,8.761883e-06,0.99999994,299,0.909,0,0,0.0,False,-0.2561842170753601,1.0448318078831196
0.9344987460062839,11:12:26.386899,11:12:17.745496,0,,0.12519325,0.0017388016,0.0061822236,-0.8432863,0.06218866,-0.5338546,-0.52440953,-0.31279916,0.79192865,-0.11774027,0.9477812,0.2963915,,0.04169875,-0.02545543,0.0118691325,-0.86706626,-0.11758849,0.48411655,0.49561408,-0.10485467,0.8621901,-0.050621748,0.9875113,0.14919448,,0.10502383,1.339887,0.44090092,0.9940014,0.014130409,-0.10845054,-0.061505053,-0.74773026,-0.6611479,-0.090434045,0.6638522,-0.74237585,,-0.10108175,0.24029599,-0.08095888,0.83399856,-0.13357279,0.53535473,-0.44392613,0.41377842,0.79480624,-0.32768273,-0.9005253,0.28579417,,-0.014275526,0.39554045,-0.35679117,0.83784556,0.025993757,-0.5452881,0.3446025,0.7495186,0.56521773,0.42339566,-0.6614728,0.61902326,,1.1437521841383984,0.48424624214537365,0.21153508365,0.5472907524946086,-0.2854336480100051,1.4028816320755189,-0.4005196501612528,,-0.8142077269294901,-0.2850537931205009,0.19614812135,-3.9570589234964593,-0.28393064651258526,1.3961018808053,0.8696438080989027,,-0.06815292562881357,-0.051181780314733714,0.08427136484,-0.06737965366399314,,0.00010663271,3.8146973e-06,-8.225441e-06,0.99999994,-7.2252005e-05,-6.4611435e-05,7.224083e-05,0.99999994,-8.821487e-06,6.4603984e-05,8.761883e-06,0.99999994,307,0.933,0,0,0.0,False,-0.2559459062012759,1.0450249286862374
0.963917963032145,11:12:26.409479,11:12:17.745496,0,,0.12518063,0.0017211065,0.00627169,-0.84141076,0.061992403,-0.5368287,-0.52723545,-0.31207538,0.7903363,-0.118536204,0.9480326,0.29526812,,0.041660585,-0.025460377,0.011841118,-0.8670806,-0.11754847,0.4841008,0.4955937,-0.10488126,0.86219877,-0.050577015,0.9875132,0.14919683,,0.10497847,1.3398885,0.44090247,0.994003,0.014149773,-0.10843342,-0.06147931,-0.7477299,-0.6611507,-0.090434045,0.6638522,-0.74237585,,-0.10103348,0.24034299,-0.08104101,0.83211446,-0.1333656,0.53833,-0.44656685,0.41448402,0.7929571,-0.3288824,-0.9002314,0.2853415,,-0.014190725,0.3955204,-0.35678133,0.83784264,0.025952311,-0.5452946,0.3446435,0.7495022,0.5652144,0.4233681,-0.66149294,0.61902064,,1.1440456479876189,0.48440069680285813,0.21144434335,0.5437260234553716,-0.2862534670085977,1.4028150308364324,-0.3998662738967156,,-0.8142231723952386,-0.28504607038762664,0.19615071393000003,-3.9570589234964593,-0.28393064651258526,1.3961018808053,0.8696438080989027,,-0.06815292562881357,-0.05117523533003874,0.08427136484,-0.06737965366399314,,6.131828e-05,3.2186508e-06,-5.4836273e-06,1.0,-5.3025782e-05,-4.7415495e-05,5.301833e-05,1.0,-6.4969063e-06,4.7408044e-05,6.4373016e-06,0.99999994,318,0.967,0,0,0.0,False,-0.25624379479388093,1.0451214890877965
0.9864330170094036,11:12:26.440819,11:12:17.984075,0,,0.12514454,0.0016965792,0.0063898265,-0.8418721,0.06311902,-0.5359735,-0.52685124,-0.31135452,0.7908766,-0.11695841,0.94819534,0.29537493,,0.04167123,-0.02545783,0.011844218,-0.8670653,-0.11757746,0.48412117,0.49561572,-0.10482991,0.86219233,-0.050623998,0.9875152,0.14916763,,0.10497847,1.3398885,0.44090247,0.994003,0.014149773,-0.10843342,-0.06147931,-0.7477299,-0.6611507,-0.090434045,0.6638522,-0.74237585,,-0.101005994,0.24040624,-0.08114639,0.83248115,-0.13447961,0.53748524,-0.4452012,0.41509563,0.793405,-0.32980457,-0.8997838,0.2856888,,-0.014201755,0.39552316,-0.35678098,0.8378308,0.025977954,-0.5453116,0.34461662,0.7495369,0.5651848,0.42341352,-0.66145265,0.6190326,,1.1442464390423488,0.48458604239183956,0.21133415870000002,0.5449841631162788,-0.2874831955064867,1.4021842171668888,-0.4023164348887297,,-0.8142926769911065,-0.28504607038762664,0.19615330651000001,-3.9570589234964593,-0.28393064651258526,1.3960202020651595,0.8694804640327686,,-0.0681463806441186,-0.05117523533003874,0.08427136484,-0.06737965366399314,,6.131828e-05,3.2186508e-06,-5.4836273e-06,1.0,-5.3025782e-05,-4.7415495e-05,5.301833e-05,1.0,-6.4969063e-06,4.7408044e-05,6.4373016e-06,0.99999994,326,0.991,0,0,0.0,False,-0.25642252794944387,1.0445904068792222
1.0177936609834433,11:12:26.467659,11:12:17.984075,0,,0.12511271,0.0016883835,0.006461814,-0.8408062,0.06388589,-0.5375535,-0.5287034,-0.31018692,0.79009914,-0.11626586,0.9485265,0.2945838,,0.04168115,-0.025455877,0.011849165,-0.8670542,-0.117634766,0.484127,0.49563104,-0.10484713,0.8621815,-0.050663188,0.9875065,0.14921162,,0.10497847,1.3398885,0.44090247,0.994003,0.014149773,-0.10843342,-0.06147931,-0.7477299,-0.6611507,-0.090434045,0.6638522,-0.74237585,,-0.10097924,0.24044994,-0.08120667,0.8313197,-0.13523328,0.53909135,-0.44611335,0.41615787,0.7923355,-0.33149725,-0.89917994,0.28563085,,-0.01421221,0.39552715,-0.35678214,0.83782274,0.026036728,-0.5453211,0.34459263,0.7495264,0.5652133,0.4234489,-0.6614622,0.6189982,,1.1444395073642044,0.48474821978219823,0.21127193678000003,0.5433066435684025,-0.289122833503672,1.4018059784682941,-0.3998662738967155,,-0.8143544588541003,-0.28504607038762664,0.19615330651000001,-3.9570589234964593,-0.28393064651258526,1.3960202020651595,0.8694804640327686,,-0.0681463806441186,-0.05117523533003874,0.08427136484,-0.06737965366399314,,6.131828e-05,3.2186508e-06,-5.4836273e-06,1.0,-5.3025782e-05,-4.7415495e-05,5.301833e-05,1.0,-6.4969063e-06,4.7408044e-05,6.4373016e-06,0.99999994,359,1.093,0,0,0.0,False,-0.2561246393568388,1.0446869672807815
1.0446903459960595,11:12:26.565557,11:12:18.074229,0,,0.12500554,0.0016067848,0.0068499,-0.8404758,0.06565893,-0.53785634,-0.529428,-0.31082982,0.7893609,-0.11535321,0.948195,0.2960066,,0.041683603,-0.025382891,0.011849523,-0.8670467,-0.11765969,0.48413447,0.49563485,-0.10470432,0.86219656,-0.050754815,0.98751867,0.1490998,,0.10497847,1.3398885,0.44090247,0.994003,0.014149773,-0.10843342,-0.06147931,-0.7477299,-0.6611507,-0.090434045,0.6638522,-0.74237585,,-0.10090033,0.24065666,-0.08155281,0.8309093,-0.13699804,0.53927845,-0.44603175,0.41541827,0.7927694,-0.33263397,-0.8992548,0.28406945,,-0.0142188845,0.39556947,-0.356723,0.83782405,0.026052063,-0.5453184,0.34452003,0.7496218,0.565131,0.42350543,-0.66135347,0.6190757,,1.1451499987886329,0.48528881108339395,0.21086490172000003,0.5428872636814336,-0.29035256200156095,1.4027270608614213,-0.3997029298305813,,-0.814377627052723,-0.28504607038762664,0.19615330651000001,-3.9570589234964593,-0.28393064651258526,1.3960202020651595,0.8694804640327686,,-0.0681463806441186,-0.051024700682054225,0.08427136484,-0.06737965366399314,,6.131828e-05,3.2186508e-06,-5.4836273e-06,1.0,-5.3025782e-05,-4.7415495e-05,5.301833e-05,1.0,-6.4969063e-06,4.7408044e-05,6.4373016e-06,0.99999994,371,1.13,0,0,0.0,False,-0.2548735072678969,1.044976648485458
1.142588319024071,11:12:26.603745,11:12:18.074229,0,,0.124977514,0.0015559867,0.0070113093,-0.8389509,0.06558493,-0.54024094,-0.5316533,-0.3107691,0.7878878,-0.1162166,0.94822,0.29558837,,0.041682016,-0.02538766,0.011848211,-0.86704415,-0.117689915,0.48413175,0.49563897,-0.10474911,0.86218876,-0.050758556,0.9875104,0.14915383,,0.10497847,1.3398885,0.44090247,0.994003,0.014149773,-0.10843342,-0.06147931,-0.7477299,-0.6611507,-0.090434045,0.6638522,-0.74237585,,-0.10088448,0.24072987,-0.0817071,0.82938224,-0.13692416,0.5416427,-0.44828653,0.41548163,0.7914633,-0.33341306,-0.8992368,0.28321183,,-0.014216901,0.3955658,-0.35672614,0.8378216,0.026085498,-0.5453206,0.3445191,0.74959254,0.5651704,0.42351097,-0.66138536,0.61903787,,1.1453662353091112,0.4855204930696207,0.21070286547000003,0.5399516044726502,-0.2908991080006227,1.403172732476207,-0.40002961796284986,,-0.8143621815869746,-0.28506923858624933,0.19615330651000001,-3.9570589234964593,-0.28393064651258526,1.3961018808053,0.8696438080989027,,-0.0681463806441186,-0.051024700682054225,0.08427136484,-0.06737965366399314,,6.131828e-05,3.2186508e-06,-5.4836273e-06,1.0,-5.3025782e-05,-4.7415495e-05,5.301833e-05,1.0,-6.4969063e-06,4.7408044e-05,6.4373016e-06,0.99999994,379,1.154,0,0,0.0,False,-0.2549926627049395,1.044735247481561
1.180776135995984,11:12:26.626003,11:12:18.169816,0,,0.12495963,0.0015270635,0.0070531964,-0.83893144,0.06573458,-0.5402529,-0.5317214,-0.31066272,0.7878838,-0.11604524,0.94824445,0.29557717,,0.041683123,-0.025388539,0.011847138,-0.8669505,-0.11768971,0.48429945,0.49580884,-0.10480997,0.8620837,-0.05069892,0.9875039,0.14921671,,0.10497847,1.3398885,0.44090247,0.994003,0.014149773,-0.10843342,-0.06147931,-0.7477299,-0.6611507,-0.090434045,0.6638522,-0.74237585,,-0.10087023,0.24073759,-0.08175856,0.82934964,-0.13707203,0.5416553,-0.44822034,0.41557258,0.79145306,-0.33358318,-0.8991722,0.2832165,,-0.01421785,0.39556435,-0.35672623,0.83771294,0.02608942,-0.5454873,0.34465507,0.749552,0.56514126,0.4236153,-0.6614311,0.6189176,,1.145428017172105,0.485497324870998,0.21065101387000001,0.5399516044726502,-0.29103574450038816,1.4031207928996223,-0.3997029298305813,,-0.8143621815869746,-0.2850769613191236,0.19615460280000002,-3.9568492335529744,-0.28393064651258526,1.3961018808053,0.8696438080989027,,-0.0681463806441186,-0.051024700682054225,0.08427136484,-0.06737965366399314,,6.131828e-05,3.2186508e-06,-5.4836273e-06,1.0,-5.3025782e-05,-4.7415495e-05,5.301833e-05,1.0,-6.4969063e-06,4.7408044e-05,6.4373016e-06,0.99999994,391,1.191,0,0,0.0,False,-0.25558843989015,1.0445904068792222
1.2030327289830893,11:12:26.661009,11:12:18.169816,0,,0.12494023,0.0014472157,0.0072169453,-0.8389734,0.0662552,-0.540124,-0.53174186,-0.3107525,0.7878345,-0.115646794,0.94817877,0.29594386,,0.041696697,-0.025388017,0.011849701,-0.8669638,-0.11768679,0.48427635,0.49578586,-0.10481855,0.86209583,-0.050696135,0.9875034,0.14922133,,0.10497847,1.3398885,0.44090247,0.994003,0.014149773,-0.10843342,-0.06147931,-0.7477299,-0.6611507,-0.090434045,0.6638522,-0.74237585,,-0.10086397,0.2407909,-0.081933744,0.8293646,-0.13758951,0.5415011,-0.4479634,0.41544947,0.79166317,-0.3338909,-0.8991501,0.28292403,,-0.014231612,0.39556515,-0.35672715,0.8377272,0.02608708,-0.5454655,0.3446455,0.7495463,0.5651547,0.4235949,-0.6614377,0.6189245,,1.145497521767973,0.48562861132985985,0.21046823698000003,0.5401612944161347,-0.2914456539996845,1.4032916891304306,-0.3997029298305814,,-0.8143853497855972,-0.2850769613191236,0.19615460280000002,-3.9568492335529744,-0.28393064651258526,1.3961018808053,0.8696438080989027,,-0.06817910556759349,-0.051024700682054225,0.08427136484,-0.06737965366399314,,6.131828e-05,3.2186508e-06,-5.4836273e-06,1.0,-5.3025782e-05,-4.7415495e-05,5.301833e-05,1.0,-6.4969063e-06,4.7408044e-05,6.4373016e-06,0.99999994,399,1.217,0,0,0.0,False,-0.25558843989015,1.044735247481561
1.2380294020404108,11:12:26.691107,11:12:18.169816,0,,0.124924034,0.0014000908,0.00739412,-0.83903617,0.066793956,-0.5399604,-0.5317098,-0.31105238,0.78773785,-0.11533986,0.94804275,0.29649907,,0.04169493,-0.025374249,0.011848867,-0.86696637,-0.117718115,0.4842642,0.49578094,-0.104867935,0.86209273,-0.050700128,0.98749435,0.14927936,,0.10497847,1.3398885,0.44090247,0.994003,0.014149773,-0.10843342,-0.06147931,-0.7477299,-0.6611507,-0.090434045,0.6638522,-0.74237585,,-0.10086086,0.24087724,-0.08209626,0.8294077,-0.13812636,0.54129845,-0.44772965,0.41512415,0.79196596,-0.33409745,-0.899218,0.28246388,,-0.0142305745,0.39557266,-0.3567155,0.8377304,0.026121924,-0.5454589,0.34463975,0.749514,0.56520104,0.4235932,-0.6614729,0.618888,,1.1456442536925833,0.4859143524462062,0.21029064525000002,0.5403709843596192,-0.2918555634989808,1.4035442641013791,-0.3998662738967157,,-0.814377627052723,-0.28506923858624933,0.19615460280000002,-3.9568492335529744,-0.28393064651258526,1.3961835595454404,0.8698071521650369,,-0.06818565055228848,-0.05100506572796929,0.08427136484,-0.06737965366399314,,6.131828e-05,3.2186508e-06,-5.4836273e-06,1.0,-5.3025782e-05,-4.7415495e-05,5.301833e-05,1.0,-6.4969063e-06,4.7408044e-05,6.4373016e-06,0.99999994,411,1.254,0,0,0.0,False,-0.25535012901606535,1.045073208887017
1.2681168179842643,11:12:26.720779,11:12:18.263584,0,,0.124918,0.001396209,0.0074303597,-0.8391064,0.06626628,-0.53991616,-0.5315187,-0.31100848,0.7878842,-0.115708366,0.9480941,0.296191,,0.041692752,-0.025376216,0.011847615,-0.8669673,-0.117705464,0.48426548,0.49577975,-0.10485649,0.86209476,-0.050694853,0.9874971,0.14926323,,0.10497847,1.3398885,0.44090247,0.994003,0.014149773,-0.10843342,-0.06147931,-0.7477299,-0.6611507,-0.090434045,0.6638522,-0.74237585,,-0.100857355,0.24089919,-0.082125746,0.8295076,-0.13760221,0.54127884,-0.4478385,0.41520405,0.79186255,-0.3337032,-0.8992615,0.28279135,,-0.014228171,0.39557076,-0.35671636,0.83773094,0.026108425,-0.54545873,0.34464344,0.7495214,0.56518906,0.42358914,-0.6614651,0.6188991,,1.1457137582884513,0.4859684115763257,0.21025564542000003,0.5403709843596192,-0.2914456539996845,1.4031283316501493,-0.3998662738967157,,-0.8143621815869746,-0.2850769613191236,0.19615460280000002,-3.9568492335529744,-0.28393064651258526,1.3961835595454404,0.8698071521650369,,-0.06818565055228848,-0.050998520743274316,0.08427136484,-0.06737965366399314,,6.131828e-05,3.2186508e-06,-5.4836273e-06,1.0,-5.3025782e-05,-4.7415495e-05,5.301833e-05,1.0,-6.4969063e-06,4.7408044e-05,6.4373016e-06,0.99999994,444,1.355,0,0,0.0,False,-0.25600548391979716,1.0451214890877965
1.2978021210292354,11:12:26.819430,11:12:18.346375,0,,0.12476987,0.0012818649,0.007891238,-0.83788896,0.06550351,-0.5418962,-0.5331235,-0.31125894,0.78670007,-0.117138386,0.9480649,0.2957219,,0.041683704,-0.025362149,0.011846542,-0.86695224,-0.11771331,0.48429054,0.49580252,-0.10479054,0.86208963,-0.050730333,0.9875032,0.14921102,,0.10497847,1.3398885,0.44090247,0.994003,0.014149773,-0.10843342,-0.06147931,-0.7477299,-0.6611507,-0.090434045,0.6638522,-0.74237585,,-0.10074333,0.24113238,-0.08255005,0.8283424,-0.1368466,0.5432512,-0.45001647,0.4150192,0.79072386,-0.33366758,-0.8994621,0.2821948,,-0.014219891,0.3955791,-0.3567044,0.8377181,0.026111826,-0.5454782,0.34462628,0.74956536,0.56514114,0.42362845,-0.6614151,0.61892563,,1.1467177135621005,0.48647038921315033,0.20979157360000003,0.5376450150943204,-0.29103574450038816,1.4026307204587791,-0.3997029298305811,,-0.8143467361212261,-0.2851001295177462,0.19615330651000001,-3.9568492335529744,-0.28393064651258526,1.3961835595454404,0.8698071521650369,,-0.06816601559820354,-0.05095925083510444,0.08427136484,-0.06737965366399314,,6.131828e-05,3.2186508e-06,-5.4836273e-06,1.0,-5.3025782e-05,-4.7415495e-05,5.301833e-05,1.0,-6.4969063e-06,4.7408044e-05,6.4373016e-06,0.99999994,448,1.367,0,0,0.0,False,-0.254694774112334,1.0446869672807815
1.396462357020937,11:12:26.849062,11:12:18.346375,0,,0.12470685,0.0011888593,0.00820151,-0.836508,0.06448597,-0.5441472,-0.5349374,-0.3112759,0.78546107,-0.11872867,0.9481291,0.2948807,,0.04168125,-0.025362685,0.011847436,-0.86704123,-0.11771924,0.48412985,0.49564004,-0.10472226,0.8621914,-0.050797313,0.9875097,0.14914495,,0.10497847,1.3398885,0.44090247,0.994003,0.014149773,-0.10843342,-0.06147931,-0.7477299,-0.6611507,-0.090434045,0.6638522,-0.74237585,,-0.10070363,0.24127674,-0.082844116,0.8270187,-0.13583641,0.54551685,-0.45246053,0.41507506,0.78929853,-0.3336459,-0.8995894,0.28181422,,-0.014217512,0.3955798,-0.3567054,0.83782244,0.026113149,-0.54531795,0.34448814,0.7496109,0.565165,0.42353448,-0.6613635,0.61904514,,1.1471965230003025,0.4868488031239873,0.20948046400000003,0.534709355885537,-0.29076247150085727,1.4023262059112456,-0.3998662738967155,,-0.8143467361212261,-0.2851001295177462,0.19615201022,-3.9570589234964593,-0.28393064651258526,1.3961835595454404,0.8698071521650369,,-0.06815292562881357,-0.05095925083510444,0.08427136484,-0.06737965366399314,,6.131828e-05,3.2186508e-06,-5.4836273e-06,1.0,-5.3025782e-05,-4.7415495e-05,5.301833e-05,1.0,-6.4969063e-06,4.7408044e-05,6.4373016e-06,0.99999994,460,1.404,0,0,0.0,False,-0.2552309735790237,1.044976648485458
1.4260727150249295,11:12:26.877484,11:12:18.346375,0,,0.1246552,0.0011923537,0.008353457,-0.83631444,0.06301635,-0.5446168,-0.5349207,-0.31150556,0.78538144,-0.12015931,0.94815254,0.2942253,,0.041680474,-0.025363475,0.011847377,-0.86706674,-0.11765818,0.48409888,0.49560815,-0.10487795,0.86219084,-0.05067253,0.9875005,0.14924854,,0.10497847,1.3398885,0.44090247,0.994003,0.014149773,-0.10843342,-0.06147931,-0.7477299,-0.6611507,-0.090434045,0.6638522,-0.74237585,,-0.10066206,0.2413839,-0.082956195,0.8269206,-0.13437866,0.5460263,-0.45342582,0.4149583,0.78880584,-0.33257678,-0.89986223,0.2822068,,-0.01421668,0.3955793,-0.356706,0.8378374,0.026062364,-0.5452973,0.34457326,0.7495063,0.56525177,0.4234356,-0.661484,0.61898404,,1.1476676097056302,0.48711137604171095,0.209350835,0.533870596111599,-0.28953274300296833,1.4014051235181184,-0.4000296179628501,,-0.8143467361212261,-0.28510785225062046,0.19615201022,-3.9570589234964593,-0.2840672830123507,1.3962949774491369,0.8698071521650369,,-0.06815292562881357,-0.05095925083510444,0.08427136484,-0.06737965366399314,,6.131828e-05,3.2186508e-06,-5.4836273e-06,1.0,-5.3025782e-05,-4.7415495e-05,5.301833e-05,1.0,-6.4969063e-06,4.7408044e-05,6.4373016e-06,0.99999994,468,1.43,1,1,0.02,False,-0.25451604095677105,1.044976648485458
1.4544804770266637,11:12:26.907595,11:12:18.438739,0,,0.12457824,0.0011029914,0.008646041,-0.8355331,0.062618986,-0.54586035,-0.5359512,-0.31167507,0.7846112,-0.120999545,0.9481231,0.29397553,,0.041678987,-0.02536416,0.011846542,-0.86715996,-0.11765288,0.48393324,0.495439,-0.104807824,0.8622965,-0.050731704,0.98750854,0.14917502,,0.10497847,1.3398885,0.44090247,0.994003,0.014149773,-0.10843342,-0.06147931,-0.7477299,-0.6611507,-0.090434045,0.6638522,-0.74237585,,-0.100607164,0.24151923,-0.08323582,0.8261677,-0.13398519,0.5472613,-0.4547713,0.41482374,0.78810173,-0.33261093,-0.8999829,0.28178135,,-0.014215088,0.39557844,-0.3567061,0.8379456,0.026052257,-0.5451316,0.34443802,0.74955285,0.56527245,0.4233316,-0.6614316,0.6191111,,1.1481850328082033,0.4874202853566799,0.20905398459000002,0.5321930765637228,-0.28939610650320285,1.4012120268742814,-0.3998662738967155,,-0.8143390133883519,-0.28510785225062046,0.19615201022,-3.9572686134399437,-0.2840672830123507,1.3962949774491369,0.8698071521650369,,-0.06815292562881357,-0.05095925083510444,0.08427136484,-0.06737965366399314,,6.131828e-05,3.2186508e-06,-5.4836273e-06,1.0,-5.3025782e-05,-4.7415495e-05,5.301833e-05,1.0,-6.4969063e-06,4.7408044e-05,6.4373016e-06,0.99999994,481,1.47,1,1,0.06,False,-0.25546928445310746,1.044976648485458
1.4845900420332327,11:12:26.941159,11:12:18.438739,0,,0.124500945,0.0011285916,0.008804873,-0.83431363,0.062288277,-0.5477601,-0.53761023,-0.31189853,0.78338647,-0.12204978,0.9480715,0.29370794,,0.041678876,-0.025357887,0.011846423,-0.86715966,-0.117653176,0.48393366,0.4954388,-0.1047948,0.86229825,-0.05073838,0.98750985,0.14916381,,0.10497847,1.3398885,0.44090247,0.994003,0.014149773,-0.10843342,-0.06147931,-0.7477299,-0.6611507,-0.090434045,0.6638522,-0.74237585,,-0.10053986,0.24164787,-0.083339624,0.82497376,-0.13365826,0.54913914,-0.4567308,0.4146329,0.7870683,-0.33288932,-0.9001195,0.2810154,,-0.014215329,0.395582,-0.35670096,0.83794594,0.026051674,-0.545131,0.3444325,0.7495615,0.56526434,0.42333534,-0.66142184,0.619119,,1.148833742369638,0.48777553106889426,0.20893083704,0.5296767972419085,-0.28939610650320285,1.4012120268742814,-0.3998662738967155,,-0.8143390133883519,-0.28510785225062046,0.19615201022,-3.9572686134399437,-0.2840672830123507,1.3962949774491369,0.8698071521650369,,-0.06815292562881357,-0.05095270585040946,0.08427136484,-0.06737965366399314,,6.131828e-05,3.2186508e-06,-5.4836273e-06,1.0,-5.3025782e-05,-4.7415495e-05,5.301833e-05,1.0,-6.4969063e-06,4.7408044e-05,6.4373016e-06,0.99999994,498,1.523,1,1,0.113,False,-0.2551713958605024,1.0442041652729868
1.5181897589936852,11:12:26.991486,11:12:18.438739,0,,0.12437254,0.0010469332,0.009228185,-0.83400565,0.05959569,-0.54852813,-0.5374948,-0.31232044,0.7832976,-0.12463543,0.9481056,0.29250938,,0.041683085,-0.025353745,0.011848092,-0.8671518,-0.117638774,0.4839515,0.49544966,-0.104703665,0.8623031,-0.050768763,0.98752123,0.14907804,,0.10497847,1.3398885,0.44090247,0.994003,0.014149773,-0.10843342,-0.06147931,-0.7477299,-0.6611507,-0.090434045,0.6638522,-0.74237585,,-0.10044209,0.241879,-0.083712935,0.82484084,-0.13098688,0.54998183,-0.45841193,0.41441217,0.7862068,-0.33090192,-0.90061367,0.28177813,,-0.014219909,0.39558527,-0.35669848,0.8379404,0.026030997,-0.5451406,0.34441337,0.74962187,0.5651959,0.42336196,-0.66135424,0.61917305,,1.1498222521775388,0.4882620632399704,0.20851732053000002,0.5282089676375168,-0.2870732860071904,1.3993996012515828,-0.4000296179628501,,-0.8143621815869746,-0.2851232977163689,0.19615201022,-3.9572686134399437,-0.2840672830123507,1.3962132987089966,0.8696438080989027,,-0.06815292562881357,-0.050933070896324525,0.08427136484,-0.06737965366399314,,6.131828e-05,3.2186508e-06,-5.4836273e-06,1.0,-5.3025782e-05,-4.7415495e-05,5.301833e-05,1.0,-6.4969063e-06,4.7408044e-05,6.4373016e-06,0.99999994,507,1.552,1,1,0.142,False,-0.25558843989015,1.0451214890877965
1.5684906280366704,11:12:27.023118,11:12:18.574519,0,,0.12425755,0.00093345344,0.009575084,-0.83305687,0.059148498,-0.5500163,-0.538702,-0.31278056,0.78228396,-0.12576348,0.9479819,0.29242742,,0.041680794,-0.025349364,0.011846662,-0.8671524,-0.117586896,0.4839629,0.49544832,-0.104608834,0.8623154,-0.050770164,0.9875375,0.14897007,,0.10497847,1.3398885,0.44090247,0.994003,0.014149773,-0.10843342,-0.06147931,-0.7477299,-0.6611507,-0.090434045,0.6638522,-0.74237585,,-0.10035355,0.24203452,-0.08405119,0.82393485,-0.13054572,0.5514428,-0.46008667,0.41400176,0.7854443,-0.3308347,-0.90086645,0.28104812,,-0.014217745,0.3955869,-0.35669413,0.8379413,0.02597239,-0.54514205,0.34441152,0.74968404,0.5651146,0.42336166,-0.66128606,0.61924607,,1.1505481890677158,0.4885400816234425,0.20815565562000002,0.5261120682026716,-0.2866633765078941,1.3993920625010559,-0.4003563060951184,,-0.8143467361212261,-0.2851310204492431,0.19615201022,-3.9572686134399437,-0.2840672830123507,1.3961316199688558,0.8694804640327686,,-0.06815292562881357,-0.05091998092693457,0.08427136484,-0.06737965366399314,,6.131828e-05,3.2186508e-06,-5.4836273e-06,1.0,-5.3025782e-05,-4.7415495e-05,5.301833e-05,1.0,-6.4969063e-06,4.7408044e-05,6.4373016e-06,0.99999994,520,1.593,1,1,0.183,False,-0.254694774112334,1.0444455662768841
1.6001421069959179,11:12:27.062793,11:12:18.574519,0,,0.12414852,0.0008762479,0.009740785,-0.8322358,0.059189204,-0.5512534,-0.53987265,-0.31280193,0.78146803,-0.12617862,0.94797236,0.29227954,,0.041681223,-0.025342822,0.011846423,-0.8671484,-0.11759067,0.4839691,0.4954534,-0.10457516,0.86231655,-0.050789252,0.9875406,0.14894295,,0.10497847,1.3398885,0.44090247,0.994003,0.014149773,-0.10843342,-0.06147931,-0.7477299,-0.6611507,-0.090434045,0.6638522,-0.74237585,,-0.10025739,0.24210793,-0.08421845,0.8231102,-0.1305863,0.5526633,-0.46124673,0.4139786,0.78477585,-0.33127177,-0.9008712,0.28051755,,-0.014218524,0.39559045,-0.35668865,0.8379389,0.025973907,-0.54514563,0.34439862,0.7497065,0.5650927,0.42337692,-0.66126055,0.6192629,,1.1511582849647797,0.48854780435631673,0.20797417502,0.5244345486547954,-0.2866633765078941,1.3993920625010559,-0.4003563060951184,,-0.8143467361212261,-0.2851464659149916,0.19615201022,-3.9572686134399437,-0.2840672830123507,1.3961316199688558,0.8694804640327686,,-0.06815292562881357,-0.050900345972849634,0.08427136484,-0.06737965366399314,,6.131828e-05,3.2186508e-06,-5.4836273e-06,1.0,-5.3025782e-05,-4.7415495e-05,5.301833e-05,1.0,-6.4969063e-06,4.7408044e-05,6.4373016e-06,0.99999994,529,1.621,1,1,0.211,False,-0.2544564632382502,1.0442041652729868
1.6398181740078144,11:12:27.098226,11:12:18.574519,0,,0.12399478,0.0007680431,0.010006651,-0.8311272,0.06011087,-0.5528239,-0.5415715,-0.3131227,0.780163,-0.12620544,0.9478084,0.29279912,,0.04168141,-0.02533798,0.011846244,-0.8671464,-0.11759265,0.4839723,0.49545586,-0.10455507,0.86231756,-0.050800443,0.9875425,0.14892653,,0.10497847,1.3398885,0.44090247,0.994003,0.014149773,-0.10843342,-0.06147931,-0.7477299,-0.6611507,-0.090434045,0.6638522,-0.74237585,,-0.10012469,0.24221316,-0.08449658,0.8219581,-0.13150384,0.55415845,-0.46253672,0.4136097,0.7842109,-0.33233204,-0.90090716,0.27914453,,-0.014218974,0.3955931,-0.35668463,0.8379378,0.02597452,-0.5451473,0.34439078,0.7497199,0.5650797,0.42338547,-0.66124535,0.61927325,,1.1519768946494475,0.48857097255493936,0.20768121348000002,0.5223376492199502,-0.2872099225069558,1.4000827703362633,-0.40019296202898413,,-0.8143467361212261,-0.2851541886478658,0.19615201022,-3.9572686134399437,-0.2840672830123507,1.3961316199688558,0.8694804640327686,,-0.06815292562881357,-0.050887256003459676,0.08427136484,-0.06737965366399314,,6.131828e-05,3.2186508e-06,-5.4836273e-06,1.0,-5.3025782e-05,-4.7415495e-05,5.301833e-05,1.0,-6.4969063e-06,4.7408044e-05,6.4373016e-06,0.99999994,542,1.662,1,1,0.252,False,-0.2550522404234603,1.0442041652729868
1.6752526970230974,11:12:27.137476,11:12:18.574519,0,,0.123854965,0.0006859675,0.010242671,-0.83111036,0.0612262,-0.5527269,-0.5417615,-0.31344548,0.77990144,-0.12549935,0.94763035,0.29367778,,0.041681297,-0.025331706,0.011846125,-0.8671461,-0.11759295,0.4839728,0.49545568,-0.10454211,0.86231923,-0.05080712,0.9875439,0.14891538,,0.10497847,1.3398885,0.44090247,0.994003,0.014149773,-0.10843342,-0.06147931,-0.7477299,-0.6611507,-0.090434045,0.6638522,-0.74237585,,-0.10000317,0.2423169,-0.084734194,0.82188916,-0.13261366,0.5539962,-0.46219626,0.41322505,0.7846144,-0.3329757,-0.90092105,0.27833167,,-0.014219213,0.39559665,-0.35667944,0.8379382,0.025973937,-0.54514676,0.34438527,0.74972856,0.5650716,0.42338923,-0.6612356,0.6192811,,1.1527337224711214,0.48861730895218475,0.20742843693000002,0.5223376492199502,-0.28761983200625213,1.4003353453072118,-0.40002961796284997,,-0.8143467361212261,-0.2851541886478658,0.19615201022,-3.9572686134399437,-0.2840672830123507,1.3961316199688558,0.8694804640327686,,-0.06815292562881357,-0.05087416603406972,0.08427136484,-0.06737965366399314,,6.131828e-05,3.2186508e-06,-5.4836273e-06,1.0,-5.3025782e-05,-4.7415495e-05,5.301833e-05,1.0,-6.4969063e-06,4.7408044e-05,6.4373016e-06,0.99999994,551,1.691,1,1,0.281,False,-0.25493308498641865,1.044735247481561
1.714508011995349,11:12:27.170439,11:12:18.714504,0,,0.12375146,0.0006056726,0.010491803,-0.83107,0.062312257,-0.55266625,-0.5419707,-0.31382525,0.77960336,-0.12486175,0.9474338,0.2945822,,0.041682724,-0.025326595,0.011846542,-0.86714256,-0.11760208,0.48397678,0.4954601,-0.104524195,0.8623189,-0.05082321,0.98754466,0.14890453,,0.10497847,1.3398885,0.44090247,0.994003,0.014149773,-0.10843342,-0.06147931,-0.7477299,-0.6611507,-0.090434045,0.6638522,-0.74237585,,-0.09991869,0.24242999,-0.084977716,0.8218008,-0.13369468,0.5538674,-0.46191692,0.41278678,0.78500944,-0.33358073,-0.9009622,0.27747267,,-0.01422097,0.3955998,-0.35667554,0.83793604,0.025981896,-0.5451496,0.34437442,0.7497406,0.56506217,0.4234022,-0.66122156,0.6192872,,1.1533283729024366,0.48879493180829187,0.20716917893000003,0.5223376492199502,-0.2881663780053139,1.4006993381818569,-0.3998662738967156,,-0.8143544588541003,-0.28516191138074004,0.19615201022,-3.9572686134399437,-0.2840672830123507,1.3961316199688558,0.8694804640327686,,-0.06815292562881357,-0.05086107606467976,0.08427136484,-0.06737965366399314,,6.131828e-05,3.2186508e-06,-5.4836273e-06,1.0,-5.3025782e-05,-4.7415495e-05,5.301833e-05,1.0,-6.4969063e-06,4.7408044e-05,6.4373016e-06,0.99999994,564,1.732,1,1,0.322,False,-0.2545756186752919,1.0445904068792222
1.7474703959887847,11:12:27.203733,11:12:18.714504,0,,0.12361322,0.000302352,0.011121839,-0.8296236,0.061071422,-0.5549732,-0.5437529,-0.31397992,0.77829885,-0.12671864,0.94746333,0.29369295,,0.041681916,-0.025320277,0.011845708,-0.86714,-0.117598705,0.48398226,0.49546322,-0.1044884,0.8623214,-0.050837353,0.9875489,0.14887187,,0.10497847,1.3398885,0.44090247,0.994003,0.014149773,-0.10843342,-0.06147931,-0.7477299,-0.6611507,-0.090434045,0.6638522,-0.74237585,,-0.09983105,0.24263948,-0.085653365,0.82043034,-0.13246338,0.5561902,-0.46452075,0.41272357,0.7835048,-0.3333385,-0.90117294,0.27707893,,-0.014220443,0.39560285,-0.3566699,0.8379347,0.025976066,-0.545152,0.34436452,0.7497644,0.56503665,0.423413,-0.66119486,0.61930835,,1.1540774779912366,0.4891270093218835,0.20646399717000002,0.5191923000676822,-0.2874831955064867,1.4002239274035153,-0.3997029298305813,,-0.8143467361212261,-0.2851773568464885,0.19615201022,-3.9572686134399437,-0.2840672830123507,1.3961316199688558,0.8694804640327686,,-0.06815292562881357,-0.05084144111059482,0.08427136484,-0.06737965366399314,,6.131828e-05,3.2186508e-06,-5.4836273e-06,1.0,-5.3025782e-05,-4.7415495e-05,5.301833e-05,1.0,-6.4969063e-06,4.7408044e-05,6.4373016e-06,0.99999994,573,1.76,1,1,0.35,False,-0.25540970673458663,1.0445421266784427
1.78075351100415,11:12:27.233481,11:12:18.714504,0,,0.12354931,0.00019677728,0.011347488,-0.8309797,0.0617823,-0.5528615,-0.54190016,-0.31457347,0.77935064,-0.12576547,0.94722044,0.29488403,,0.04168099,-0.025307685,0.011844695,-0.867137,-0.11759563,0.48398823,0.49546617,-0.10443947,0.8623256,-0.0508582,0.9875544,0.14882806,,0.10497847,1.3398885,0.44090247,0.994003,0.014149773,-0.10843342,-0.06147931,-0.7477299,-0.6611507,-0.090434045,0.6638522,-0.74237585,,-0.09978523,0.24271712,-0.08589424,0.8217725,-0.1331732,0.55403507,-0.46248204,0.41210622,0.7850343,-0.33286682,-0.90135086,0.27706733,,-0.014220155,0.39560944,-0.35665908,0.83793366,0.025969652,-0.5451539,0.3443491,0.7497968,0.5650031,0.42342758,-0.6611583,0.6193373,,1.1543786645733312,0.48919651391775154,0.20620733175000003,0.5217085793894967,-0.2872099225069558,1.4001644490764036,-0.3995395857644469,,-0.8143390133883519,-0.2851928023122369,0.19615201022,-3.9572686134399437,-0.2840672830123507,1.3961316199688558,0.8694804640327686,,-0.06815292562881357,-0.05081526117181491,0.08427136484,-0.06737965366399314,,6.131828e-05,3.2186508e-06,-5.4836273e-06,1.0,-5.3025782e-05,-4.7415495e-05,5.301833e-05,1.0,-6.4969063e-06,4.7408044e-05,6.4373016e-06,0.99999994,595,1.83,1,1,0.42,False,-0.2551713958605024,1.0443972860761046
1.8104591990122572,11:12:27.302502,11:12:18.813225,0,,0.1232643,2.4221838e-05,0.011697978,-0.8302988,0.05830613,-0.5542604,-0.542216,-0.31446272,0.77917576,-0.12886353,0.94747746,0.2927125,,0.041684713,-0.02529879,0.011844397,-0.8671284,-0.11761556,0.48399898,0.4954776,-0.10439652,0.8623243,-0.050894916,0.9875566,0.14880115,,0.10497847,1.3398885,0.44090247,0.994003,0.014149773,-0.10843342,-0.06147931,-0.7477299,-0.6611507,-0.090434045,0.6638522,-0.74237585,,-0.09952901,0.24283591,-0.08628679,0.82128924,-0.12971988,0.5555689,-0.4648367,0.41244644,0.78346336,-0.33077317,-0.90169877,0.27843925,,-0.014224332,0.39561394,-0.35665163,0.83792794,0.025986766,-0.54516184,0.3443251,0.7498257,0.5649794,0.42345834,-0.6611249,0.61935204,,1.155915488415302,0.488764040876795,0.20578733379000003,0.5191923000676822,-0.28365737351305437,1.3976759772809997,-0.4005196501612528,,-0.8143544588541003,-0.2852159705108596,0.19615330651000001,-3.9572686134399437,-0.2840672830123507,1.3961316199688558,0.8694804640327686,,-0.06815292562881357,-0.050789081233034994,0.08427136484,-0.06737965366399314,,6.131828e-05,3.2186508e-06,-5.4836273e-06,1.0,-5.3025782e-05,-4.7415495e-05,5.301833e-05,1.0,-6.4969063e-06,4.7408044e-05,6.4373016e-06,0.99999994,608,1.871,1,1,0.461,False,-0.25535012901606535,1.0442041652729868
1.8795259069884196,11:12:27.342584,11:12:18.813225,0,,0.123187646,-4.6797097e-05,0.011869594,-0.8299587,0.058319896,-0.55476815,-0.5426359,-0.31490752,0.77870363,-0.12928677,0.94732887,0.2930067,,0.041683935,-0.025232255,0.011842012,-0.86711556,-0.117621996,0.48402032,0.49548948,-0.10419604,0.86234164,-0.050997347,0.98757696,0.1486305,,0.10497847,1.3398885,0.44090247,0.994003,0.014149773,-0.10843342,-0.06147931,-0.7477299,-0.6611507,-0.090434045,0.6638522,-0.74237585,,-0.09946594,0.24290243,-0.086465575,0.820966,-0.12973641,0.55604255,-0.46544042,0.4120191,0.7833297,-0.33072653,-0.90189177,0.2778691,,-0.014227158,0.39565066,-0.35659617,0.8379246,0.0259796,-0.5451673,0.34424788,0.7499591,0.5648493,0.42352778,-0.66097385,0.61946577,,1.15633251599051,0.48877176360966923,0.20555789046000003,0.5183535402937443,-0.28324746401375805,1.3980768322311752,-0.40002961796284997,,-0.8143467361212261,-0.28526230690810495,0.19615330651000001,-3.9572686134399437,-0.2840672830123507,1.3961316199688558,0.8694804640327686,,-0.06815292562881357,-0.05062545661566052,0.08427136484,-0.06737965366399314,,6.131828e-05,3.2186508e-06,-5.4836273e-06,1.0,-5.3025782e-05,-4.7415495e-05,5.301833e-05,1.0,-6.4969063e-06,4.7408044e-05,6.4373016e-06,0.99999994,617,1.9,1,1,0.49,False,-0.25535012901606535,1.0448318078831196
1.9196047430159524,11:12:27.375315,11:12:18.813225,0,,0.1231516,-0.000115819275,0.012035444,-0.82976323,0.058551613,-0.55503595,-0.5428908,-0.3153738,0.7783372,-0.12947088,0.9471595,0.2934726,,0.041683353,-0.025246441,0.0118403435,-0.8671279,-0.117561616,0.48401296,0.49547762,-0.10428351,0.86233795,-0.050903276,0.98757493,0.14867628,,0.10497847,1.3398885,0.44090247,0.994003,0.014149773,-0.10843342,-0.06147931,-0.7477299,-0.6611507,-0.090434045,0.6638522,-0.74237585,,-0.09944291,0.24296552,-0.08663603,0.82077605,-0.12996955,0.55626845,-0.46575716,0.41155663,0.78338456,-0.33075213,-0.90206933,0.27726158,,-0.014225604,0.39564118,-0.35660675,0.8379283,0.02592485,-0.5451643,0.3443183,0.7498999,0.5648849,0.42346323,-0.6610431,0.61943597,,1.1565487525109883,0.488903050068531,0.20538029873000002,0.5179341604067752,-0.28324746401375805,1.398485225931878,-0.400519650161253,,-0.8143312906554776,-0.28533953423684716,0.19615330651000001,-3.9572686134399437,-0.28420391951211615,1.3962430378725523,0.8694804640327686,,-0.06815292562881357,-0.05062545661566052,0.08427136484,-0.06737965366399314,,6.131828e-05,3.2186508e-06,-5.4836273e-06,1.0,-5.3025782e-05,-4.7415495e-05,5.301833e-05,1.0,-6.4969063e-06,4.7408044e-05,6.4373016e-06,0.99999994,630,1.941,1,1,0.531,False,-0.2548735072678969,1.0446869672807815
1.9523452990106307,11:12:27.414027,11:12:18.940302,0,,0.12307195,-0.0002526492,0.012319103,-0.8298479,0.0566853,-0.5551032,-0.542386,-0.3155636,0.77861214,-0.1310345,0.9472097,0.29261512,,0.04168911,-0.025261655,0.011841178,-0.86710554,-0.11759431,0.48404494,0.49551058,-0.10420969,0.86232793,-0.050962687,0.9875788,0.14863002,,0.10497847,1.3398885,0.44090247,0.994003,0.014149773,-0.10843342,-0.06147931,-0.7477299,-0.6611507,-0.090434045,0.6638522,-0.74237585,,-0.099386096,0.24306007,-0.08694161,0.82097816,-0.12811679,0.55639994,-0.46644846,0.41149697,0.7830045,-0.32927293,-0.9023615,0.27807015,,-0.014230529,0.3956324,-0.35661957,0.83791006,0.025952693,-0.545191,0.34428692,0.7499496,0.5648382,0.42352483,-0.6609857,0.6194551,,1.1570043937505676,0.4889493864657764,0.20506011510000002,0.5175147805198062,-0.28147118951680733,1.3972818294042464,-0.3997029298305813,,-0.8143467361212261,-0.2854244842984637,0.19615330651000001,-3.9572686134399437,-0.28420391951211615,1.3962430378725523,0.8694804640327686,,-0.06815292562881357,-0.05062545661566052,0.08427136484,-0.06737965366399314,,6.131828e-05,3.2186508e-06,-5.4836273e-06,1.0,-5.3025782e-05,-4.7415495e-05,5.301833e-05,1.0,-6.4969063e-06,4.7408044e-05,6.4373016e-06,0.99999994,639,1.969,1,1,0.559,False,-0.2549926627049395,1.0442524454737663
1.991032158024609,11:12:27.445271,11:12:18.940302,0,,0.12299599,-0.00037685782,0.012539074,-0.8298891,0.05709423,-0.5549996,-0.54233825,-0.31606415,0.7784423,-0.13097093,0.94701827,0.29326254,,0.041692488,-0.025265485,0.01184237,-0.8670975,-0.11761364,0.4840548,0.49552235,-0.104192674,0.8623233,-0.050986007,0.9875783,0.14862543,,0.10497847,1.3398885,0.44090247,0.994003,0.014149773,-0.10843342,-0.06147931,-0.7477299,-0.6611507,-0.090434045,0.6638522,-0.74237585,,-0.09932839,0.24312048,-0.08719181,0.8210165,-0.1285262,0.556249,-0.46636924,0.41099003,0.78331786,-0.32928967,-0.9025343,0.27748892,,-0.014233772,0.3956307,-0.3566233,0.8379036,0.025970971,-0.54520005,0.344274,0.7499612,0.5648306,0.42354807,-0.66097176,0.6194541,,1.1573519167299078,0.48893394100002796,0.20480344968000003,0.5175147805198062,-0.28133455301704186,1.3976604839413933,-0.40051965016125257,,-0.8143621815869746,-0.2854476524970863,0.19615330651000001,-3.9572686134399437,-0.28420391951211615,1.3962430378725523,0.8694804640327686,,-0.06815292562881357,-0.05062545661566052,0.08427136484,-0.06737965366399314,,6.131828e-05,3.2186508e-06,-5.4836273e-06,1.0,-5.3025782e-05,-4.7415495e-05,5.301833e-05,1.0,-6.4969063e-06,4.7408044e-05,6.4373016e-06,0.99999994,652,2.01,1,1,0.6,False,-0.2541585746456452,1.04478352768234
2.022241786995437,11:12:27.482604,11:12:19.034669,0,,0.12292072,-0.0005212799,0.012796938,-0.8298448,0.05757145,-0.5550166,-0.5423641,-0.31699553,0.7780455,-0.13114455,0.9466781,0.29428172,,0.041680083,-0.025267944,0.011836171,-0.86711127,-0.117542006,0.4840475,0.49550322,-0.10417113,0.8623368,-0.050936997,0.9875891,0.14857042,,0.10497847,1.3398885,0.44090247,0.994003,0.014149773,-0.10843342,-0.06147931,-0.7477299,-0.6611507,-0.090434045,0.6638522,-0.74237585,,-0.099274464,0.24319182,-0.08748339,0.820983,-0.12900609,0.55618733,-0.46650738,0.4100646,0.78372055,-0.32917747,-0.90288675,0.2764738,,-0.014220705,0.3956257,-0.35662183,0.83791363,0.025897507,-0.5451881,0.34430403,0.7499743,0.56479496,0.42350385,-0.66095984,0.61949706,,1.1576994397092477,0.4889493864657764,0.20450400669000002,0.5173050905763216,-0.281061280017511,1.398499471755828,-0.39823283323537284,,-0.814277231525358,-0.2854476524970863,0.19615330651000001,-3.9572686134399437,-0.28420391951211615,1.3962430378725523,0.8694804640327686,,-0.06815292562881357,-0.05062545661566052,0.08427136484,-0.06737965366399314,,6.131828e-05,3.2186508e-06,-5.4836273e-06,1.0,-5.3025782e-05,-4.7415495e-05,5.301833e-05,1.0,-6.4969063e-06,4.7408044e-05,6.4373016e-06,0.99999994,661,2.039,1,1,0.629,False,-0.2544564632382502,1.044735247481561
2.059465038997587,11:12:27.512811,11:12:19.034669,0,,0.12288228,-0.00062263757,0.012962118,-0.8298543,0.058013152,-0.5549564,-0.54236555,-0.31750834,0.7778353,-0.13107865,0.9464792,0.29495,,0.041679785,-0.025266498,0.011836231,-0.86711305,-0.117540345,0.4840447,0.49550056,-0.10417822,0.86233747,-0.05093251,0.9875886,0.14857563,,0.10497847,1.3398885,0.44090247,0.994003,0.014149773,-0.10843342,-0.06147931,-0.7477299,-0.6611507,-0.090434045,0.6638522,-0.74237585,,-0.099249914,0.2432308,-0.08767552,0.82098806,-0.12944804,0.5560772,-0.46646333,0.40954286,0.78401953,-0.3292272,-0.90306026,0.27584702,,-0.014220495,0.3956266,-0.3566207,0.8379151,0.02589631,-0.5451859,0.34430632,0.74996954,0.56479985,0.42349905,-0.66096526,0.61949456,,1.1578461716338582,0.4889571091986506,0.2043082669,0.5173050905763216,-0.281061280017511,1.3990712229368119,-0.39872286543377566,,-0.8142849542582323,-0.2854399297642121,0.19615330651000001,-3.9572686134399437,-0.28420391951211615,1.3962430378725523,0.8694804640327686,,-0.06815292562881357,-0.05062545661566052,0.08427136484,-0.06737965366399314,,6.131828e-05,3.2186508e-06,-5.4836273e-06,1.0,-5.3025782e-05,-4.7415495e-05,5.301833e-05,1.0,-6.4969063e-06,4.7408044e-05,6.4373016e-06,0.99999994,670,2.068,1,1,0.658,False,-0.2536223751789555,1.045073208887017
2.0898305000155233,11:12:27.546221,11:12:19.034669,0,,0.12276086,-0.00071240216,0.013188198,-0.82921547,0.055466246,-0.55617034,-0.54278857,-0.3173166,0.7776184,-0.13335045,0.94669616,0.29323018,,0.04166161,-0.025274847,0.011846542,-0.86709315,-0.11760952,0.48406357,0.4955336,-0.10425502,0.8623092,-0.050949767,0.98757225,0.14867824,,0.105014645,1.3398874,0.4409058,0.9940015,0.014131273,-0.10844977,-0.061503906,-0.74773026,-0.661148,-0.090434045,0.6638522,-0.74237585,,-0.09917901,0.24331996,-0.08790307,0.8204751,-0.12692395,0.5574145,-0.46834955,0.409893,0.7827109,-0.32782507,-0.9032597,0.27686223,,-0.014237273,0.39562824,-0.3566286,0.8379084,0.02597399,-0.54519254,0.34429488,0.7499178,0.56487554,0.42352164,-0.66102093,0.6194197,,1.1582786446748146,0.4889493864657764,0.20406326809000003,0.5154178810849609,-0.2791483690207948,1.3975930510252024,-0.3988862094999098,,-0.8143235679226034,-0.2854399297642121,0.19615330651000001,-3.9572686134399437,-0.28420391951211615,1.3963247166126929,0.8694804640327685,,-0.06815292562881357,-0.05062545661566052,0.08427136484,-0.06737965366399314,,9.703264e-05,6.6161156e-06,-1.1205673e-05,1.0,-7.139146e-05,-6.3836575e-05,7.138401e-05,0.99999994,-8.7320805e-06,6.3836575e-05,8.672476e-06,0.99999994,683,2.109,1,1,0.699,False,-0.2540989969271239,1.044880088083899
2.123200164991431,11:12:27.580217,11:12:19.121865,0,,0.12268688,-0.0008036792,0.013380721,-0.8289925,0.05407983,-0.5566391,-0.5428246,-0.31732586,0.7775895,-0.13458408,0.94677323,0.29241663,,0.04166096,-0.025277946,0.011845827,-0.86709094,-0.117645234,0.48405883,0.49553698,-0.10430905,0.86230063,-0.05095388,0.98756224,0.14874297,,0.105014645,1.3398874,0.4409058,0.9940015,0.014131273,-0.10844977,-0.061503906,-0.74773026,-0.661148,-0.090434045,0.6638522,-0.74237585,,-0.099120535,0.24338578,-0.088110715,0.8203333,-0.12554649,0.5579349,-0.46922025,0.4099722,0.7821478,-0.32693368,-0.9034162,0.27740487,,-0.014236386,0.39562598,-0.3566307,0.8379064,0.026013566,-0.5451937,0.34429327,0.74988246,0.5649234,0.42352682,-0.66105944,0.61937505,,1.158703394982897,0.48894166373290215,0.20384549137000002,0.5145791213110228,-0.2779186405229059,1.3966719686320752,-0.3990495535660442,,-0.8143158451897292,-0.28545537522996056,0.19615330651000001,-3.9572686134399437,-0.28420391951211615,1.3964063953528334,0.8694804640327685,,-0.06815292562881357,-0.05062545661566052,0.08427136484,-0.06737965366399314,,9.703264e-05,6.6161156e-06,-1.1205673e-05,1.0,-7.139146e-05,-6.3836575e-05,7.138401e-05,0.99999994,-8.7320805e-06,6.3836575e-05,8.672476e-06,0.99999994,692,2.137,1,1,0.727,False,-0.25427773008268684,1.0451214890877965
2.1572470320388675,11:12:27.609409,11:12:19.121865,0,,0.12257947,-0.0008708164,0.013560697,-0.829113,0.05401591,-0.5564658,-0.5425987,-0.3176416,0.7776183,-0.13475288,0.946671,0.29266968,,0.041656353,-0.025274415,0.011844099,-0.8671004,-0.11761874,0.48404822,0.4955233,-0.10432395,0.8623067,-0.050925657,0.9875639,0.14874211,,0.105014645,1.3398874,0.4409058,0.9940015,0.014131273,-0.10844977,-0.061503906,-0.74773026,-0.661148,-0.090434045,0.6638522,-0.74237585,,-0.0990272,0.24346156,-0.08829506,0.82047105,-0.12548493,0.5577462,-0.46916655,0.40967286,0.78233683,-0.32666495,-0.9035606,0.2772514,,-0.014231836,0.39562714,-0.35662687,0.8379139,0.025987938,-0.5451834,0.34430918,0.74987215,0.5649274,0.42349917,-0.6610722,0.61938035,,1.1593134908799607,0.4889262182671537,0.20365104787000002,0.5145791213110228,-0.2773720945238441,1.3963896544975707,-0.39937624169831276,,-0.8142926769911065,-0.28543220703133787,0.19615330651000001,-3.9572686134399437,-0.28420391951211615,1.3964063953528334,0.870460528429574,,-0.06815292562881357,-0.05062545661566052,0.08427136484,-0.06737965366399314,,9.703264e-05,6.6161156e-06,-1.1205673e-05,1.0,-7.139146e-05,-6.3836575e-05,7.138401e-05,0.99999994,-8.7320805e-06,6.3836575e-05,8.672476e-06,0.99999994,705,2.178,1,1,0.768,False,-0.25397984149008224,1.0452663296901348
2.1864343840279616,11:12:27.646510,11:12:19.121865,0,,0.122412205,-0.0009396747,0.013811752,-0.8281151,0.054131635,-0.55793846,-0.5439747,-0.31791267,0.77654535,-0.13533998,0.9465734,0.29271448,,0.041656353,-0.025274415,0.011844099,-0.8671004,-0.11753966,0.48406738,0.4955233,-0.10418302,0.86232376,-0.050925657,0.9875881,0.14858079,,0.105014645,1.3398874,0.4409058,0.9940015,0.014131273,-0.10844977,-0.061503906,-0.74773026,-0.661148,-0.090434045,0.6638522,-0.74237585,,-0.09887893,0.24358588,-0.08853653,0.81947553,-0.1256016,0.55918163,-0.47059828,0.40940505,0.78161675,-0.3271041,-0.9036657,0.27638954,,-0.014231836,0.39562714,-0.35662687,0.8379139,0.02589888,-0.54518765,0.34430918,0.7499644,0.5648049,0.42349917,-0.660971,0.61948836,,1.1603251688864842,0.4889880001301475,0.20339438245000002,0.5124822218761775,-0.2772354580240787,1.3963599153340147,-0.3995395857644469,,-0.8142926769911065,-0.28543220703133787,0.19615330651000001,-3.9572686134399437,-0.28420391951211615,1.3962430378725523,0.8704605284295741,,-0.06815292562881357,-0.05062545661566052,0.08427136484,-0.06737965366399314,,9.703264e-05,6.6161156e-06,-1.1205673e-05,1.0,-7.139146e-05,-6.3836575e-05,7.138401e-05,0.99999994,-8.7320805e-06,6.3836575e-05,8.672476e-06,0.99999994,714,2.207,1,1,0.797,False,-0.254694774112334,1.0448318078831196
2.223539314989466,11:12:27.678191,11:12:19.208666,0,,0.12230319,-0.0009848103,0.01397945,-0.8283641,0.052992195,-0.5576782,-0.54337966,-0.3180576,0.7769026,-0.13620402,0.94658923,0.29226232,,0.041663744,-0.0252789,0.011847019,-0.8670864,-0.117582165,0.48408225,0.49554348,-0.104165375,0.8623142,-0.050968185,0.98758495,0.14858747,,0.105014645,1.3398874,0.4409058,0.9940015,0.014131273,-0.10844977,-0.061503906,-0.74773026,-0.661148,-0.090434045,0.6638522,-0.74237585,,-0.098782554,0.24366948,-0.08869706,0.8197979,-0.12447027,0.5589621,-0.47074375,0.4093372,0.7815647,-0.32608554,-0.903853,0.27698016,,-0.01423921,0.39562607,-0.35663214,0.83790296,0.025940392,-0.5452025,0.34428495,0.7499769,0.5648031,0.42354047,-0.6609552,0.6194769,,1.1610047693794159,0.4889802773972733,0.20322067959,0.5124822218761775,-0.27586909302642426,1.3952457362970507,-0.3992128976321785,,-0.8143312906554776,-0.28546309796283476,0.19615330651000001,-3.9572686134399437,-0.28420391951211615,1.3962430378725523,0.8704605284295741,,-0.06815292562881357,-0.05062545661566052,0.08427136484,-0.06737965366399314,,9.703264e-05,6.6161156e-06,-1.1205673e-05,1.0,-7.139146e-05,-6.3836575e-05,7.138401e-05,0.99999994,-8.7320805e-06,6.3836575e-05,8.672476e-06,0.99999994,727,2.248,1,1,0.838,False,-0.2547543518308557,1.04478352768234
2.2552081660251133,11:12:27.718091,11:12:19.208666,0,,0.12217547,-0.0010254309,0.0141213685,-0.8283609,0.05344726,-0.55763936,-0.54337573,-0.31874892,0.776622,-0.13623859,0.946331,0.29308105,,0.04166221,-0.025277708,0.011846423,-0.86708957,-0.11757332,0.48407874,0.4955389,-0.10417032,0.86231637,-0.050958782,0.9875854,0.1485872,,0.105014645,1.3398874,0.4409058,0.9940015,0.014131273,-0.10844977,-0.061503906,-0.74773026,-0.661148,-0.090434045,0.6638522,-0.74237585,,-0.09866572,0.2437393,-0.08883697,0.81979716,-0.124926716,0.55886126,-0.47076446,0.40864402,0.7819149,-0.32605737,-0.90410364,0.27619416,,-0.0142376935,0.39562646,-0.35663086,0.8379054,0.02593185,-0.5451991,0.34429026,0.7499734,0.5648045,0.42353123,-0.6609595,0.6194787,,1.1617384290024673,0.48891077280140527,0.20307160624,0.5122725319326931,-0.27545918352712795,1.3955649125070857,-0.3998662738967156,,-0.8143235679226034,-0.28545537522996056,0.19615330651000001,-3.9572686134399437,-0.28420391951211615,1.3962430378725523,0.8704605284295741,,-0.06815292562881357,-0.05062545661566052,0.08427136484,-0.06737965366399314,,9.703264e-05,6.6161156e-06,-1.1205673e-05,1.0,-7.139146e-05,-6.3836575e-05,7.138401e-05,0.99999994,-8.7320805e-06,6.3836575e-05,8.672476e-06,0.99999994,736,2.277,1,1,0.867,False,-0.25493308498641865,1.0451214890877965
2.295119215035811,11:12:27.748738,11:12:19.208666,0,,0.12203729,-0.0010978729,0.014331892,-0.82819504,0.05419462,-0.5578136,-0.5436795,-0.3192828,0.7761899,-0.13603495,0.9461085,0.2938929,,0.041654166,-0.025276352,0.011842847,-0.86710143,-0.11752701,0.48406875,0.4955221,-0.10417169,0.8623258,-0.050920367,0.9875908,0.14856464,,0.105014645,1.3398874,0.4409058,0.9940015,0.014131273,-0.10844977,-0.061503906,-0.74773026,-0.661148,-0.090434045,0.6638522,-0.74237585,,-0.09854387,0.24383272,-0.0890493,0.81960964,-0.12567258,0.558969,-0.47085258,0.40808335,0.7821546,-0.32640135,-0.9042535,0.27529582,,-0.014229433,0.39562526,-0.35662773,0.8379144,0.02588538,-0.54518753,0.34431288,0.74997175,0.5647929,0.4234951,-0.6609632,0.61949944,,1.1625261477556381,0.48891077280140527,0.20284864436000002,0.511853152045724,-0.27545918352712795,1.3958916274676478,-0.39953958576444704,,-0.814277231525358,-0.2854399297642121,0.19615330651000001,-3.9572686134399437,-0.28420391951211615,1.3962430378725523,0.8701338402973054,,-0.06815292562881357,-0.05062545661566052,0.08427136484,-0.06737965366399314,,9.703264e-05,6.6161156e-06,-1.1205673e-05,1.0,-7.139146e-05,-6.3836575e-05,7.138401e-05,0.99999994,-8.7320805e-06,6.3836575e-05,8.672476e-06,0.99999994,749,2.318,1,1,0.908,False,-0.25576717304571295,1.0443972860761046
2.3257560320198536,11:12:27.789197,11:12:19.333955,0,,0.12195912,-0.0012121946,0.014581695,-0.82768553,0.05449715,-0.5585399,-0.5443719,-0.3198132,0.77548593,-0.1363667,0.94591194,0.29437143,,0.041657843,-0.025281582,0.01184386,-0.86709154,-0.11754801,0.48408133,0.49553657,-0.10414755,0.8623204,-0.050948232,0.9875908,0.14855483,,0.105014645,1.3398874,0.4409058,0.9940015,0.014131273,-0.10844977,-0.061503906,-0.74773026,-0.661148,-0.090434045,0.6638522,-0.74237585,,-0.09848566,0.24392071,-0.08931473,0.8191037,-0.12597638,0.55964196,-0.47159794,0.4075537,0.7819817,-0.32659537,-0.90445006,0.27441853,,-0.014232886,0.39562267,-0.35663256,0.8379065,0.025904855,-0.54519874,0.34429765,0.74998814,0.5647804,0.42352316,-0.6609438,0.61950094,,1.1629663435294688,0.4890188910616444,0.20257383088000003,0.5108047023283013,-0.27545918352712795,1.3963816999084915,-0.4005196501612529,,-0.8143003997239807,-0.2854785434285832,0.19615330651000001,-3.9572686134399437,-0.28420391951211615,1.3962430378725523,0.8701338402973054,,-0.06815292562881357,-0.05062545661566052,0.08427136484,-0.06737965366399314,,9.703264e-05,6.6161156e-06,-1.1205673e-05,1.0,-7.139146e-05,-6.3836575e-05,7.138401e-05,0.99999994,-8.7320805e-06,6.3836575e-05,8.672476e-06,0.99999994,758,2.346,1,1,0.936,False,-0.2551713958605024,1.0448318078831196
2.3661954179988243,11:12:27.823406,11:12:19.333955,0,,0.121903345,-0.0012264624,0.014636859,-0.8270511,0.054432377,-0.5594853,-0.54524326,-0.3197821,0.7748863,-0.13673449,0.94592625,0.29415494,,0.041665282,-0.025280107,0.011847615,-0.86708325,-0.117590986,0.48408574,0.495548,-0.1041604,0.8623123,-0.050977603,0.9875845,0.14858776,,0.105014645,1.3398874,0.4409058,0.9940015,0.014131273,-0.10844977,-0.061503906,-0.74773026,-0.661148,-0.090434045,0.6638522,-0.74237585,,-0.098434076,0.24394913,-0.089368485,0.8184705,-0.12591185,0.5605821,-0.47250193,0.40758774,0.781418,-0.3268762,-0.90444374,0.27410492,,-0.014240727,0.39562568,-0.35663345,0.83790046,0.025948932,-0.5452059,0.34427965,0.74998033,0.5648018,0.42354968,-0.66095096,0.6194752,,1.1632984210430606,0.48899572286302173,0.20251679412,0.5095465626673942,-0.27545918352712795,1.3963816999084915,-0.4005196501612529,,-0.8143390133883519,-0.285470820695709,0.19615330651000001,-3.9572686134399437,-0.28420391951211615,1.3962430378725523,0.8701338402973054,,-0.06815292562881357,-0.05062545661566052,0.08427136484,-0.06737965366399314,,9.703264e-05,6.6161156e-06,-1.1205673e-05,1.0,-7.139146e-05,-6.3836575e-05,7.138401e-05,0.99999994,-8.7320805e-06,6.3836575e-05,8.672476e-06,0.99999994,767,2.375,1,1,0.965,False,-0.2551713958605024,1.044735247481561
2.4003815150354058,11:12:27.848022,11:12:19.333955,0,,0.12184991,-0.0012381598,0.014691666,-0.8271386,0.055106714,-0.55929,-0.5452323,-0.31995296,0.7748236,-0.13624851,0.9458294,0.29469132,,0.041664686,-0.025277216,0.011847675,-0.86708677,-0.11758765,0.48408023,0.49554273,-0.10417467,0.8623136,-0.050968587,0.98758334,0.14859816,,0.105014645,1.3398874,0.4409058,0.9940015,0.014131273,-0.10844977,-0.061503906,-0.74773026,-0.661148,-0.090434045,0.6638522,-0.74237585,,-0.09838474,0.24397913,-0.08942008,0.81852585,-0.12658288,0.56035006,-0.47216126,0.40738034,0.781732,-0.3272295,-0.9044435,0.27368382,,-0.014240307,0.39562747,-0.35663116,0.83790344,0.025946543,-0.5452015,0.34428427,0.7499708,0.5648116,0.4235401,-0.66096187,0.6194701,,1.1635996076251554,0.4889880001301475,0.20246234994,0.5097562526108788,-0.2757324565266588,1.3966045357158843,-0.4005196501612529,,-0.8143390133883519,-0.28545537522996056,0.19615330651000001,-3.9572686134399437,-0.28420391951211615,1.3962430378725523,0.8701338402973054,,-0.06815292562881357,-0.05062545661566052,0.08427136484,-0.06737965366399314,,9.703264e-05,6.6161156e-06,-1.1205673e-05,1.0,-7.139146e-05,-6.3836575e-05,7.138401e-05,0.99999994,-8.7320805e-06,6.3836575e-05,8.672476e-06,0.99999994,785,2.432,1,1,1.022,False,-0.2552905512975445,1.0444938464776636
2.42505360202631,11:12:27.905309,11:12:19.409609,0,,0.12157647,-0.0012112185,0.014869943,-0.82589424,0.056131043,-0.5610243,-0.54711574,-0.32023036,0.7733799,-0.13624635,0.94567525,0.29518652,,0.04166156,-0.025280837,0.0118457675,-0.8670874,-0.1175695,0.48408353,0.4955423,-0.10415399,0.86231637,-0.050962895,0.9875876,0.14857125,,0.105014645,1.3398874,0.4409058,0.9940015,0.014131273,-0.10844977,-0.061503906,-0.74773026,-0.661148,-0.090434045,0.6638522,-0.74237585,,-0.09812304,0.24412672,-0.08955047,0.8172312,-0.12760223,0.5620061,-0.4735702,0.40704745,0.7810529,-0.32842726,-0.9044501,0.27222326,,-0.014236807,0.3956242,-0.356633,0.8379035,0.025926894,-0.5452023,0.34428865,0.7499842,0.5647911,0.42353642,-0.6609474,0.61948806,,1.1652986088574848,0.4889493864657764,0.20231457288000002,0.5072399732890644,-0.2760057295261897,1.396664014042996,-0.40019296202898436,,-0.8143158451897292,-0.285470820695709,0.19615330651000001,-3.9572686134399437,-0.28420391951211615,1.3962430378725523,0.8701338402973054,,-0.06815292562881357,-0.05062545661566052,0.08427136484,-0.06737965366399314,,9.703264e-05,6.6161156e-06,-1.1205673e-05,1.0,-7.139146e-05,-6.3836575e-05,7.138401e-05,0.99999994,-8.7320805e-06,6.3836575e-05,8.672476e-06,0.99999994,794,2.461,1,1,1.051,False,-0.2549926627049395,1.0444938464776636
2.4822784829884768,11:12:27.935315,11:12:19.409609,0,,0.12137164,-0.0011527538,0.014997914,-0.825903,0.057940073,-0.5608275,-0.5473634,-0.32091528,0.77292067,-0.13519502,0.9453339,0.29675907,,0.04166348,-0.025280464,0.011848152,-0.8670846,-0.117583826,0.484085,0.4955461,-0.10415825,0.8623136,-0.050972685,0.9875855,0.14858222,,0.105014645,1.3398874,0.4409058,0.9940015,0.014131273,-0.10844977,-0.061503906,-0.74773026,-0.661148,-0.090434045,0.6638522,-0.74237585,,-0.09792554,0.24426153,-0.089618035,0.81716335,-0.12940344,0.56169283,-0.4730365,0.4062696,0.78178096,-0.32936388,-0.90454394,0.2707761,,-0.014238966,0.3956261,-0.35663408,0.8379015,0.025941586,-0.5452047,0.34428263,0.74998164,0.56479824,0.42354524,-0.66094977,0.6194795,,1.1666269189118514,0.48904205926026706,0.20223161032000003,0.5072399732890644,-0.27655227552525147,1.3971096856577816,-0.40019296202898436,,-0.8143312906554776,-0.285470820695709,0.19615201022,-3.9572686134399437,-0.28420391951211615,1.3962430378725523,0.8701338402973054,,-0.06815292562881357,-0.05062545661566052,0.08427136484,-0.06737965366399314,,9.703264e-05,6.6161156e-06,-1.1205673e-05,1.0,-7.139146e-05,-6.3836575e-05,7.138401e-05,0.99999994,-8.7320805e-06,6.3836575e-05,8.672476e-06,0.99999994,808,2.506,1,1,1.096,False,-0.25481392954937654,1.0443972860761046
2.512320186011493,11:12:27.978691,11:12:19.501975,0,,0.12093277,-0.0008472577,0.015338421,-0.82498395,0.059703268,-0.561994,-0.5487078,-0.3227774,0.7711901,-0.13535641,0.94459,0.2990458,,0.041666593,-0.025267769,0.011850774,-0.8670896,-0.1176026,0.4840715,0.49553776,-0.104203075,0.86231303,-0.050968572,0.9875785,0.14862993,,0.105014645,1.3398874,0.4409058,0.9940015,0.014131273,-0.10844977,-0.061503906,-0.74773026,-0.661148,-0.090434045,0.6638522,-0.74237585,,-0.09750165,0.24472758,-0.089688726,0.8162192,-0.13116573,0.56265604,-0.4741537,0.4043564,0.782096,-0.33009776,-0.9051472,0.26785073,,-0.014243052,0.39563522,-0.35662523,0.8379065,0.02596351,-0.54519594,0.3442817,0.7499522,0.5648379,0.42353603,-0.6609823,0.61945105,,1.170055812308007,0.49003056906816783,0.20210068503000003,0.5049333839107346,-0.27655227552525147,1.3969463281775005,-0.3998662738967156,,-0.8143621815869746,-0.2854244842984637,0.19615201022,-3.9572686134399437,-0.28420391951211615,1.3962430378725523,0.8701338402973054,,-0.06815292562881357,-0.050618911630965546,0.08427136484,-0.06737965366399314,,9.703264e-05,6.6161156e-06,-1.1205673e-05,1.0,-7.139146e-05,-6.3836575e-05,7.138401e-05,0.99999994,-8.7320805e-06,6.3836575e-05,8.672476e-06,0.99999994,817,2.535,1,1,1.125,False,-0.25397984149008224,1.04478352768234
2.555679075012449,11:12:28.009583,11:12:19.501975,0,,0.120546505,-0.00010905415,0.016061097,-0.8228282,0.057620484,-0.5653617,-0.5506036,-0.3270971,0.7680122,-0.14067495,0.94323236,0.3008707,,0.041669372,-0.025268693,0.011851966,-0.86708504,-0.117618605,0.48407575,0.49554425,-0.104200214,0.86230963,-0.050982893,0.98757696,0.14863569,,0.105014645,1.3398874,0.4409058,0.9940015,0.014131273,-0.10844977,-0.061503906,-0.74773026,-0.661148,-0.090434045,0.6638522,-0.74237585,,-0.09714321,0.24576934,-0.089740746,0.8143669,-0.12912121,0.5658041,-0.47921187,0.4003182,0.78108984,-0.32735696,-0.9072337,0.2641295,,-0.014245875,0.39563534,-0.35662666,0.837903,0.025979398,-0.5452005,0.34427342,0.74995434,0.5648401,0.42354968,-0.6609793,0.61944497,,1.174874797621523,0.4936756989848018,0.20191142669,0.49906206549316795,-0.27422945502923896,1.3952155812949423,-0.3995395857644469,,-0.814377627052723,-0.28543220703133787,0.19615201022,-3.9572686134399437,-0.28420391951211615,1.3962430378725523,0.8701338402973054,,-0.06815292562881357,-0.050612366646270564,0.08427136484,-0.06737965366399314,,9.703264e-05,6.6161156e-06,-1.1205673e-05,1.0,-7.139146e-05,-6.3836575e-05,7.138401e-05,0.99999994,-8.7320805e-06,6.3836575e-05,8.672476e-06,0.99999994,831,2.58,1,1,1.17,False,-0.2540989969271239,1.0449283682846786
2.5865606360021047,11:12:28.052595,11:12:19.579316,0,,0.12125923,0.0032495782,0.019195482,-0.8215278,0.053389784,-0.56766355,-0.5478926,-0.34949338,0.7600446,-0.15781601,0.93541634,0.31637037,,0.04179643,-0.025313083,0.011858821,-0.8670088,-0.117314264,0.48428622,0.49570778,-0.10419458,0.86221635,-0.05069031,0.9876138,0.14849117,,0.105014645,1.3398874,0.4409058,0.9940015,0.014131273,-0.10844977,-0.061503906,-0.74773026,-0.661148,-0.090434045,0.6638522,-0.74237585,,-0.097965986,0.2503447,-0.08969785,0.81428015,-0.12502044,0.566849,-0.48891285,0.3786937,0.7858468,-0.31290907,-0.9170392,0.24723867,,-0.01437022,0.39560074,-0.35666543,0.8377891,0.025673095,-0.54539007,0.34459564,0.74995285,0.5646455,0.42351303,-0.6609929,0.61945546,,1.1842424725979575,0.5161025152515497,0.20145383632000002,0.49214229735817866,-0.2740928185294736,1.3955942358320894,-0.3992128976321786,,-0.8143544588541003,-0.2854399297642121,0.19615330651000001,-3.9572686134399437,-0.28420391951211615,1.3961613591324118,0.8699704962311713,,-0.06815292562881357,-0.05071708640139023,0.08427136484,-0.06770673936139116,,9.703264e-05,6.6161156e-06,-1.1205673e-05,1.0,-7.139146e-05,-6.3836575e-05,7.138401e-05,0.99999994,-8.7320805e-06,6.3836575e-05,8.672476e-06,0.99999994,845,2.625,0,1,1.189,False,-0.25451604095677105,1.045411170292473
2.629601303022355,11:12:28.093698,11:12:19.579316,0,,0.12287973,0.0065858588,0.022043914,-0.82280207,0.04291439,-0.5667057,-0.5398307,-0.37080505,0.7557025,-0.17770684,0.92771864,0.3282656,,0.04179178,-0.025295306,0.011859179,-0.8670574,-0.11727109,0.4842097,0.49564153,-0.10451302,0.8622159,-0.050506845,0.9875852,0.14874318,,0.105014645,1.3398874,0.4409058,0.9940015,0.014131273,-0.10844977,-0.061503906,-0.74773026,-0.661148,-0.090434045,0.6638522,-0.74237585,,-0.099675916,0.25468725,-0.08939983,0.8170951,-0.114668205,0.5649839,-0.49650025,0.35809574,0.79073066,-0.29299,-0.9266168,0.23566547,,-0.014366661,0.39561185,-0.35665125,0.8378232,0.025651341,-0.5453387,0.34471083,0.7497404,0.5648573,0.42335182,-0.66123474,0.6193076,,1.1881347299665665,0.5398267506411675,0.2013527257,0.490674467753787,-0.2721799075327574,1.3945244576211828,-0.400192962028984,,-0.8143544588541003,-0.2853472569697214,0.19615330651000001,-3.9572686134399437,-0.2843405560118816,1.3963544557762488,0.8698071521650371,,-0.06815292562881357,-0.050710541416695246,0.08427136484,-0.06770673936139116,,9.703264e-05,6.6161156e-06,-1.1205673e-05,1.0,-7.139146e-05,-6.3836575e-05,7.138401e-05,0.99999994,-8.7320805e-06,6.3836575e-05,8.672476e-06,0.99999994,854,2.653,0,1,1.189,False,-0.25481392954937654,1.0453628900916938
2.670673398009967,11:12:28.127500,11:12:19.676248,0,,0.12452215,0.008593179,0.023903817,-0.8239712,0.03010939,-0.5658313,-0.53204376,-0.38465518,0.7543007,-0.19493842,0.9225691,0.33296424,,0.04178693,-0.025310714,0.011859,-0.86706764,-0.11728324,0.4841882,0.4956283,-0.104637206,0.8622085,-0.050458536,0.9875706,0.14885646,,0.105014645,1.3398874,0.4409058,0.9940015,0.014131273,-0.10844977,-0.061503906,-0.74773026,-0.661148,-0.090434045,0.6638522,-0.74237585,,-0.10138007,0.25738317,-0.089282,0.81962156,-0.101949066,0.56376135,-0.50248337,0.3447548,0.79287744,-0.27519253,-0.93314016,0.23134074,,-0.014360935,0.39560333,-0.3566637,0.8378295,0.025672015,-0.5453281,0.3447433,0.749658,0.56494683,0.42331287,-0.6613273,0.61923534,,1.187292952083276,0.5560599351427874,0.20129180007000003,0.4904647778103025,-0.26808081253979416,1.3928154953131016,-0.40019296202898413,,-0.8143312906554776,-0.2853240887710987,0.19615201022,-3.9572686134399437,-0.2843405560118816,1.3964361345163891,0.8699704962311713,,-0.06815292562881357,-0.0507563563095601,0.08427136484,-0.06770673936139116,,9.703264e-05,6.6161156e-06,-1.1205673e-05,1.0,-7.139146e-05,-6.3836575e-05,7.138401e-05,0.99999994,-8.7320805e-06,6.3836575e-05,8.672476e-06,0.99999994,868,2.698,1,2,1.205,False,-0.2547543518308557,1.0449283682846786
