AlexandreBanks6/ExpertPlaybackApp/resources/Motions/P_05/PC1/Data_PC1_4.csv
Task Time,PC1 Time,PC2 Time,Gaze Calib,s_T_psm1,Tx,Ty,Tz,R00,R01,R02,R10,R11,R12,R20,R21,R22,s_T_psm3,Tx,Ty,Tz,R00,R01,R02,R10,R11,R12,R20,R21,R22,cart_T_ecm,Tx,Ty,Tz,R00,R01,R02,R10,R11,R12,R20,R21,R22,ecm_T_psm1,Tx,Ty,Tz,R00,R01,R02,R10,R11,R12,R20,R21,R22,ecm_T_psm3,Tx,Ty,Tz,R00,R01,R02,R10,R11,R12,R20,R21,R22,psm1_joints,q1,q2,q3,q4,q5,q6,jaw,psm3_joints,q1,q2,q3,q4,q5,q6,jaw,ecm_joints,q1,q2,q3,q4,ecmi_T_ecm,Tx,Ty,Tz,R00,R01,R02,R10,R11,R12,R20,R21,R22,Sample #,Task Duration (s),Collisions (binary),Collisions (increments),Cumulative Collision Time (s),Clutch Press,MTMR Angle,MTML Angle
""
lci_T_si,,,,,-0.05588401,0.033678196,0.22142315,0.99411887,-0.024834005,0.10540873,0.053824607,-0.7313092,-0.67991894,0.09397148,0.68159384,-0.7256715
rci_T_si,,,,,-0.06556821,0.037878036,0.23215216,0.98745227,-0.051865816,0.14915736,0.06880197,-0.7088702,-0.70197535,0.14214173,0.7034295,-0.69640696
ecm_T_lc,,,,,-4.4061628e-05,-0.00034663224,-0.01840835,-0.99912,0.030754527,0.028518902,-0.031987965,-0.99852574,-0.043852776,0.027128186,-0.04472645,0.9986309
ecm_T_rc,,,,,-0.0043358393,0.01870579,-0.007592615,-0.99555075,-0.052743673,-0.078081585,0.04863213,-0.9973746,0.053654674,-0.08070653,0.04961868,0.9955021
cart_T_ecmi,,,,,0.1049169,1.339891,0.44090196,0.9940074,0.014203176,-0.108386196,-0.061408322,-0.7477289,-0.66115844,-0.090434045,0.6638522,-0.74237585
ecmac_T_ecmrep_psm1,,,,,0.008075713,-0.26004106,-0.30289736,0.99667877,0.061445758,0.053440064,-0.058828812,0.9970531,-0.049237434,-0.056308012,0.04593009,0.9973564
ecmac_T_ecmrep_psm3,,,,,-0.012692571,-0.457308,-0.5458498,0.99509805,-0.029463936,0.094401784,0.014504567,0.9877462,0.15539348,-0.09782351,-0.1532625,0.9833317
""
0,11:16:56.495185,NaN,0,,0.12297826,0.0032832623,0.01094088,-0.8793386,-0.14087051,-0.4548839,-0.35714063,-0.43675703,0.8256474,-0.31498313,0.88848114,0.33374667,,0.044206303,-0.0022523738,0.004227698,-0.03219959,0.7540887,0.6559827,0.27914456,-0.6234209,0.73035914,0.95970905,0.20663126,-0.19042581,,0.10499911,1.3398888,0.4409056,0.9940012,0.014127797,-0.10845285,-0.061508525,-0.7477303,-0.66114753,-0.090434045,0.6638522,-0.74237585,,-0.09911773,0.24471627,-0.08353159,0.8877457,0.069360524,0.4550788,-0.45460832,0.28753528,0.8430034,-0.07238006,-0.95525527,0.28679007,,-0.017328758,0.40253475,-0.3334517,-0.078237586,-0.73354375,-0.67512405,0.93994385,-0.2799619,0.19526096,-0.33224148,-0.619302,0.7113935,,1.1704960080818378,0.48698781231572336,0.20785750892000002,0.5865027719262146,-0.017352835470210937,1.392887207342136,-0.39953958576444704,,-0.7893250816087387,-0.19154694347939052,0.21120193712000002,-2.282894414716017,-0.9668398723402566,0.015303811125456285,0.8750341622813339,,-0.06819874052167843,-0.05069090646261031,0.08427136484,-0.06770673936139116,,8.152425e-05,5.1259995e-06,-1.0251999e-05,1.0,-7.484108e-05,-6.6921115e-05,7.483363e-05,1.0,-9.119511e-06,6.6921115e-05,9.089708e-06,0.99999994,36,0.109,1,1,0.084,False,-0.25481392954937654,1.0502391903704191
0.1260717730037868,11:16:56.519226,NaN,0,,0.12286668,0.0034442246,0.0111601055,-0.8781356,-0.14215791,-0.4568033,-0.35812187,-0.43778807,0.8246758,-0.31721723,0.8877684,0.3335274,,0.04420547,-0.0022620894,0.0042263865,-0.032189794,0.7541337,0.65593135,0.27918914,-0.6233635,0.73039114,0.9596965,0.20664008,-0.19048001,,0.10499911,1.3398888,0.4409056,0.9940012,0.014127797,-0.10845285,-0.061508525,-0.7477303,-0.66114753,-0.090434045,0.6638522,-0.74237585,,-0.09901636,0.244986,-0.08358981,0.88666564,0.07066245,0.45698014,-0.45687574,0.2863262,0.8421887,-0.071334265,-0.95552295,0.28615957,,-0.01732724,0.40252817,-0.3334588,-0.07824865,-0.7335926,-0.6750696,0.9399584,-0.27992663,0.19524157,-0.33219776,-0.61925995,0.71145046,,1.171739368074588,0.48782959019901384,0.20776547233000003,0.5835671127174313,-0.016123106972321975,1.3920478036891495,-0.39953958576444726,,-0.7893096361429902,-0.19159327987663585,0.21120064083,-2.282894414716017,-0.9668398723402566,0.01522213238531575,0.8751975063474683,,-0.06819874052167843,-0.05069090646261031,0.08427136484,-0.06770673936139116,,8.152425e-05,5.1259995e-06,-1.0251999e-05,1.0,-7.484108e-05,-6.6921115e-05,7.483363e-05,1.0,-9.119511e-06,6.6921115e-05,9.089708e-06,0.99999994,40,0.121,1,1,0.096,False,-0.25481392954937654,1.049804668563404
0.15011132002109662,11:16:56.549921,NaN,0,,0.12269834,0.0038574785,0.011629775,-0.87759244,-0.14414158,-0.45722538,-0.35696375,-0.44016212,0.8239138,-0.32001358,0.8862733,0.33482963,,0.04420306,-0.002271939,0.0042238235,-0.032172933,0.7541328,0.6559333,0.27921635,-0.62336266,0.7303814,0.9596891,0.20664577,-0.19051082,,0.10499911,1.3398888,0.4409056,0.9940012,0.014127797,-0.10845285,-0.061508525,-0.7477303,-0.66114753,-0.090434045,0.6638522,-0.74237585,,-0.098867774,0.2456123,-0.08366322,0.88634163,0.07267242,0.45729342,-0.45794177,0.2836179,0.8425261,-0.06846819,-0.9561797,0.2846621,,-0.017324029,0.40252066,-0.33346534,-0.07826625,-0.73359233,-0.6750679,0.9399663,-0.27992144,0.19521087,-0.33217117,-0.61926264,0.71146053,,1.1742106425943397,0.4900460145339163,0.20761639898000003,0.5816799032260705,-0.013800286476309485,1.390562093027013,-0.398396177301507,,-0.7892864679443675,-0.19162417080813277,0.21120064083,-2.282894414716017,-0.9668398723402566,0.01522213238531575,0.8751975063474683,,-0.06819874052167843,-0.05069745144730529,0.08427136484,-0.06770673936139116,,8.152425e-05,5.1259995e-06,-1.0251999e-05,1.0,-7.484108e-05,-6.6921115e-05,7.483363e-05,1.0,-9.119511e-06,6.6921115e-05,9.089708e-06,0.99999994,65,0.199,0,1,0.105,False,-0.2546351963938136,1.0495632675595068
0.18080041400389746,11:16:56.614107,11:16:48.154283,0,,0.122725144,0.0054709315,0.012938574,-0.8775111,-0.14697662,-0.4564783,-0.35196114,-0.44915158,0.82121,-0.32572666,0.88128346,0.34240538,,0.044199478,-0.0022772886,0.004221797,-0.032154795,0.75424606,0.6558039,0.2792235,-0.62323934,0.7304839,0.9596876,0.20660447,-0.19056313,,0.10499911,1.3398888,0.4409056,0.9940012,0.014127797,-0.10845285,-0.061508525,-0.7477303,-0.66114753,-0.090434045,0.6638522,-0.74237585,,-0.09893525,0.24768399,-0.0835202,0.88678026,0.07557482,0.4559706,-0.4581628,0.27370596,0.8456783,-0.060889877,-0.95883965,0.27734262,,-0.017319959,0.4025163,-0.33346853,-0.07828454,-0.7337079,-0.67494017,0.9399672,-0.27989617,0.19524269,-0.3321643,-0.61913717,0.71157295,,1.1796628920035424,0.49912022566113007,0.20751788094,0.5800023836781943,-0.011204192980766118,1.389343618998327,-0.3992128976321785,,-0.7892632997457449,-0.191631893541007,0.21120064083,-2.282894414716017,-0.9668398723402566,0.015058774905034517,0.8751975063474682,,-0.06819874052167843,-0.05070399643200027,0.08427136484,-0.06770673936139116,,8.152425e-05,5.1259995e-06,-1.0251999e-05,1.0,-7.484108e-05,-6.6921115e-05,7.483363e-05,1.0,-9.119511e-06,6.6921115e-05,9.089708e-06,0.99999994,73,0.224,0,1,0.105,False,-0.25546928445310746,1.049418426957168
0.24499355402076617,11:16:56.640495,11:16:48.154283,0,,0.12275117,0.005923718,0.013280362,-0.8776297,-0.14844108,-0.45577577,-0.3496101,-0.4522739,0.8205004,-0.3279315,0.8794393,0.34503257,,0.044197276,-0.0022766925,0.0042212605,-0.032060146,0.75432414,0.6557188,0.27932018,-0.6231543,0.73051953,0.9596627,0.20657605,-0.19071952,,0.10499911,1.3398888,0.4409056,0.9940012,0.014127797,-0.10845285,-0.061508525,-0.7477303,-0.66114753,-0.090434045,0.6638522,-0.74237585,,-0.09897094,0.24824756,-0.08346017,0.8871111,0.07706876,0.45507607,-0.4579364,0.27019927,0.84692776,-0.05768955,-0.95971495,0.27498937,,-0.017317755,0.40251648,-0.33346775,-0.07838169,-0.7337876,-0.6748423,0.93999237,-0.27987865,0.19514675,-0.3320702,-0.6190507,0.7116921,,1.1811070430510222,0.5015992229137561,0.20751528836000002,0.5800023836781943,-0.009427918483815391,1.3894470823129446,-0.3997029298305814,,-0.7892555770128706,-0.19162417080813277,0.21119934454000003,-2.282894414716017,-0.9667032358404912,0.014947357001338285,0.8756875385458711,,-0.06819874052167843,-0.05070399643200027,0.08427136484,-0.06770673936139116,,8.152425e-05,5.1259995e-06,-1.0251999e-05,1.0,-7.484108e-05,-6.6921115e-05,7.483363e-05,1.0,-9.119511e-06,6.6921115e-05,9.089708e-06,0.99999994,81,0.248,0,1,0.105,False,-0.2557075953271921,1.0498529487641832
0.27136821998283267,11:16:56.659868,11:16:48.154283,0,,0.12279146,0.0062618256,0.013546199,-0.87757164,-0.14808576,-0.45600313,-0.34896085,-0.4549302,0.81930745,-0.32877737,0.8781282,0.3475577,,0.044189226,-0.0022781976,0.004217148,-0.032023102,0.754287,0.6557633,0.27933374,-0.6232016,0.730474,0.95965993,0.20656888,-0.19074094,,0.10499911,1.3398888,0.4409056,0.9940012,0.014127797,-0.10845285,-0.061508525,-0.7477303,-0.66114753,-0.090434045,0.6638522,-0.74237585,,-0.09901911,0.24867514,-0.083421715,0.8871276,0.07672564,0.45510203,-0.45803726,0.26735258,0.8477762,-0.056626536,-0.96053934,0.27231905,,-0.017309263,0.40251318,-0.33346668,-0.078419015,-0.73374724,-0.67488176,0.93999386,-0.27990764,0.19509801,-0.3320572,-0.6190853,0.711668,,1.182056939194552,0.5035839652624319,0.20750751062000003,0.5795830037912253,-0.00956455498358083,1.3904569663581872,-0.3998662738967156,,-0.7892092406156254,-0.19162417080813277,0.21119934454000003,-2.282894414716017,-0.9667032358404912,0.015029035741478819,0.8756875385458711,,-0.06819874052167843,-0.05070399643200027,0.08427136484,-0.06770673936139116,,8.152425e-05,5.1259995e-06,-1.0251999e-05,1.0,-7.484108e-05,-6.6921115e-05,7.483363e-05,1.0,-9.119511e-06,6.6921115e-05,9.089708e-06,0.99999994,98,0.301,0,1,0.105,False,-0.25546928445310746,1.050046069567301
0.2907519119908102,11:16:56.719483,11:16:48.242835,0,,0.12285932,0.006414488,0.013719261,-0.87721777,-0.14750627,-0.45687094,-0.34945258,-0.45635116,0.818307,-0.32919902,0.87748814,0.34877288,,0.04414706,-0.0022913702,0.0041981936,-0.031832084,0.7543698,0.6556774,0.27940425,-0.62314,0.7304996,0.95964575,0.20645237,-0.1909383,,0.10499911,1.3398888,0.4409056,0.9940012,0.014127797,-0.10845285,-0.061508525,-0.7477303,-0.66114753,-0.090434045,0.6638522,-0.74237585,,-0.0990939,0.24890305,-0.083439685,0.88678855,0.07614962,0.45585883,-0.4586929,0.26586202,0.84789044,-0.056629002,-0.9609988,0.27069268,,-0.017264754,0.40249503,-0.33346677,-0.07861147,-0.73382163,-0.6747785,0.94000167,-0.27997535,0.19496334,-0.33198968,-0.6189665,0.71180284,,1.1822886211807786,0.5047732661250623,0.20746732563000003,0.5787442440172872,-0.010384373982173473,1.3912888312606466,-0.40019296202898413,,-0.7889698358965244,-0.191631893541007,0.21119675196,-2.282894414716017,-0.9667032358404912,0.015029035741478819,0.8753608504136025,,-0.06819874052167843,-0.050710541416695246,0.08427136484,-0.06770673936139116,,8.152425e-05,5.1259995e-06,-1.0251999e-05,1.0,-7.484108e-05,-6.6921115e-05,7.483363e-05,1.0,-9.119511e-06,6.6921115e-05,9.089708e-06,0.99999994,106,0.326,0,1,0.105,False,-0.256541683386486,1.0499495091657423
0.350366803992074,11:16:56.744001,11:16:48.242835,0,,0.122872934,0.0063889697,0.013760567,-0.87542236,-0.14755112,-0.46028736,-0.35245952,-0.45678654,0.81677306,-0.33076885,0.877254,0.34787542,,0.044134233,-0.0023044832,0.004195392,-0.031863958,0.75432456,0.6557278,0.27929172,-0.6232069,0.7304855,0.95967746,0.2064155,-0.19081874,,0.10499911,1.3398888,0.4409056,0.9940012,0.014127797,-0.10845285,-0.061508525,-0.7477303,-0.66114753,-0.090434045,0.6638522,-0.74237585,,-0.09911094,0.24891211,-0.083486274,0.88501626,0.07619747,0.4592822,-0.46200737,0.26538485,0.8462388,-0.05740529,-0.96112686,0.2700737,,-0.017250981,0.40248662,-0.33347595,-0.078576416,-0.7337693,-0.67483956,0.9399656,-0.28003877,0.19504593,-0.33209994,-0.61899996,0.7117223,,1.1822036711191621,0.5048582161866789,0.20742843693000002,0.5749698250345658,-0.010930919981235236,1.3917345028754324,-0.40019296202898413,,-0.7889003313006563,-0.19162417080813277,0.21119545567000003,-2.282894414716017,-0.9668398723402566,0.015140453645175106,0.8753608504136025,,-0.06819874052167843,-0.05073672135547516,0.08427136484,-0.06770673936139116,,8.152425e-05,5.1259995e-06,-1.0251999e-05,1.0,-7.484108e-05,-6.6921115e-05,7.483363e-05,1.0,-9.119511e-06,6.6921115e-05,9.089708e-06,0.99999994,123,0.379,0,1,0.105,False,-0.2568991496976123,1.0505288715750958
0.37484223500359803,11:16:56.795440,11:16:48.342838,0,,0.12289262,0.006343335,0.01386413,-0.8751586,-0.15062237,-0.459794,-0.3511064,-0.45614612,0.81771314,-0.33289918,0.87706524,0.34631574,,0.044123624,-0.00231478,0.004190743,-0.031806894,0.7541908,0.65588444,0.27930626,-0.6233665,0.7303438,0.95967513,0.20642261,-0.19082287,,0.10499911,1.3398888,0.4409056,0.9940012,0.014127797,-0.10845285,-0.061508525,-0.7477303,-0.66114753,-0.090434045,0.6638522,-0.74237585,,-0.099138714,0.24894862,-0.083591595,0.8849324,0.07929144,0.4589199,-0.46247086,0.26580015,0.8458552,-0.054911908,-0.9607617,0.27188516,,-0.01723939,0.4024781,-0.3334817,-0.078633726,-0.73362786,-0.6749866,0.9399657,-0.28011033,0.19494273,-0.33208615,-0.6191352,0.71161115,,1.1822036711191621,0.5049431662482954,0.20732084486000002,0.5747601350910813,-0.008471462985457307,1.3898106593490374,-0.4003563060951183,,-0.7888308267047883,-0.191631893541007,0.21119415938000002,-2.282894414716017,-0.9668398723402566,0.015385489865596874,0.8755241944797368,,-0.0682052855063734,-0.05074981132486512,0.08427136484,-0.06770673936139116,,8.152425e-05,5.1259995e-06,-1.0251999e-05,1.0,-7.484108e-05,-6.6921115e-05,7.483363e-05,1.0,-9.119511e-06,6.6921115e-05,9.089708e-06,0.99999994,131,0.404,0,1,0.105,False,-0.25677999426057063,1.0499977893665218
0.42632414400577545,11:16:56.822058,11:16:48.342838,0,,0.12288758,0.006306857,0.013915926,-0.87455636,-0.15070976,-0.46090993,-0.35201046,-0.45642614,0.81716806,-0.33352658,0.87690455,0.346119,,0.044122033,-0.0023123361,0.004190564,-0.031897474,0.7543025,0.6557515,0.2793725,-0.6232061,0.7304554,0.95965284,0.20649862,-0.19085267,,0.10499911,1.3398888,0.4409056,0.9940012,0.014127797,-0.10845285,-0.061508525,-0.7477303,-0.66114753,-0.090434045,0.6638522,-0.74237585,,-0.09913815,0.24895723,-0.08365456,0.88434756,0.07938127,0.46003047,-0.46357456,0.26548782,0.84534895,-0.05502762,-0.9608407,0.27158263,,-0.017237935,0.4024796,-0.33347964,-0.07854536,-0.7337555,-0.6748581,0.93999636,-0.2799687,0.19499838,-0.33202028,-0.61904794,0.7117178,,1.1822113938520364,0.5049508889811696,0.20725732665000002,0.5735019954301741,-0.008471462985457307,1.390055695569459,-0.40084633829352123,,-0.7888308267047883,-0.19162417080813277,0.21119415938000002,-2.283104104659501,-0.9668398723402566,0.015385489865596874,0.8755241944797368,,-0.0682052855063734,-0.05074981132486512,0.08427136484,-0.06770673936139116,,8.152425e-05,5.1259995e-06,-1.0251999e-05,1.0,-7.484108e-05,-6.6921115e-05,7.483363e-05,1.0,-9.119511e-06,6.6921115e-05,9.089708e-06,0.99999994,148,0.457,0,1,0.105,False,-0.2566012611050077,1.0502874705711984
0.4528961530304514,11:16:56.872009,11:16:48.342838,0,,0.12289219,0.0062262863,0.014068663,-0.8743895,-0.15197146,-0.46081212,-0.3515292,-0.4562286,0.81748545,-0.33447015,0.8767896,0.3454991,,0.044120573,-0.002314303,0.004190862,-0.031891722,0.7543565,0.6556898,0.27938145,-0.6231454,0.7305036,0.9596504,0.20648459,-0.19087997,,0.10499911,1.3398888,0.4409056,0.9940012,0.014127797,-0.10845285,-0.061508525,-0.7477303,-0.66114753,-0.090434045,0.6638522,-0.74237585,,-0.099155135,0.24900194,-0.08382056,0.8842572,0.08065291,0.4599829,-0.4638676,0.26558495,0.8451577,-0.054000113,-0.96070796,0.2722577,,-0.017236402,0.40247884,-0.33348146,-0.07855135,-0.73381126,-0.6747968,0.9399989,-0.279951,0.19501133,-0.33201155,-0.6189899,0.7117723,,1.1822268393177848,0.5050744527071571,0.20708751266000003,0.5732923054866895,-0.0075150074870992244,1.389275770243584,-0.4010096823596556,,-0.7888231039719141,-0.191631893541007,0.21119286309000002,-2.283104104659501,-0.9668398723402566,0.01530381112545623,0.875687538545871,,-0.0682052855063734,-0.05074981132486512,0.08427136484,-0.06770673936139116,,8.152425e-05,5.1259995e-06,-1.0251999e-05,1.0,-7.484108e-05,-6.6921115e-05,7.483363e-05,1.0,-9.119511e-06,6.6921115e-05,9.089708e-06,0.99999994,156,0.482,0,1,0.105,False,-0.25582675076423333,1.0501909101696396
0.502870618016459,11:16:56.899230,11:16:48.440074,0,,0.12290492,0.0061697885,0.014176756,-0.8726769,-0.15621671,-0.46263537,-0.35198975,-0.45541275,0.8177421,-0.33843508,0.8764676,0.3424415,,0.044121914,-0.0023140647,0.0041915774,-0.0318979,0.7543002,0.6557542,0.27937916,-0.6232072,0.7304519,0.9596509,0.20650394,-0.19085675,,0.10499911,1.3398888,0.4409056,0.9940012,0.014127797,-0.10845285,-0.061508525,-0.7477303,-0.66114753,-0.090434045,0.6638522,-0.74237585,,-0.09917658,0.24903372,-0.08393703,0.88279814,0.08493162,0.46201086,-0.46694276,0.26606664,0.8433107,-0.051301938,-0.9602058,0.27454135,,-0.017237818,0.40247938,-0.33348164,-0.07854513,-0.7337537,-0.6748601,0.9399987,-0.27996477,0.19499278,-0.33201373,-0.61905193,0.71171737,,1.1822577302492818,0.5050976209057798,0.20696825398000002,0.5701469563344217,-0.004509004492259535,1.3867428976221223,-0.40068299422738707,,-0.7888231039719141,-0.19162417080813277,0.21119286309000002,-2.283104104659501,-0.9668398723402566,0.015467168605737353,0.8760142266781396,,-0.0682052855063734,-0.05074981132486512,0.08427136484,-0.06770673936139116,,8.152425e-05,5.1259995e-06,-1.0251999e-05,1.0,-7.484108e-05,-6.6921115e-05,7.483363e-05,1.0,-9.119511e-06,6.6921115e-05,9.089708e-06,0.99999994,173,0.535,0,1,0.105,False,-0.2556480176086704,1.0502874705711984
0.5301135460031219,11:16:56.953923,11:16:48.440074,0,,0.1228877,0.006012723,0.014439151,-0.871078,-0.15830234,-0.46493414,-0.35338086,-0.45541766,0.81713927,-0.34109426,0.8760908,0.3407632,,0.04411565,-0.002313856,0.004190147,-0.031872768,0.75420636,0.6558634,0.27938154,-0.6233172,0.73035705,0.959651,0.20651463,-0.19084446,,0.10499911,1.3398888,0.4409056,0.9940012,0.014127797,-0.10845285,-0.061508525,-0.7477303,-0.66114753,-0.090434045,0.6638522,-0.74237585,,-0.09918121,0.24909747,-0.08423658,0.88133967,0.087036595,0.46439752,-0.46980914,0.26585737,0.84178334,-0.05019755,-0.96007526,0.27520123,,-0.017231464,0.40247908,-0.33348072,-0.07857025,-0.73365515,-0.6749643,0.9399973,-0.28000927,0.19493538,-0.3320116,-0.61914855,0.7116343,,1.1823581257766467,0.5051980164331448,0.20666362583000003,0.5670016071821539,-0.00314263949460513,1.3857920760654392,-0.40068299422738685,,-0.7887999357732914,-0.19162417080813277,0.2111915668,-2.283104104659501,-0.9668398723402566,0.015548847345877997,0.8758508826120054,,-0.0682052855063734,-0.05074981132486512,0.08427136484,-0.06770673936139116,,8.152425e-05,5.1259995e-06,-1.0251999e-05,1.0,-7.484108e-05,-6.6921115e-05,7.483363e-05,1.0,-9.119511e-06,6.6921115e-05,9.089708e-06,0.99999994,181,0.56,0,1,0.105,False,-0.25600548391979716,1.0500943497680806
0.5847283659968525,11:16:56.977070,11:16:48.541358,0,,0.12290288,0.0059598386,0.014556825,-0.869097,-0.16320603,-0.46694168,-0.35378945,-0.45463687,0.8173972,-0.3456931,0.8755963,0.33738297,,0.04411509,-0.0023170896,0.0041891336,-0.031867452,0.75420445,0.6558659,0.2793972,-0.62331724,0.7303511,0.95964664,0.20652145,-0.19085902,,0.10499911,1.3398888,0.4409056,0.9940012,0.014127797,-0.10845285,-0.061508525,-0.7477303,-0.66114753,-0.090434045,0.6638522,-0.74237585,,-0.09920563,0.24913839,-0.084357426,0.8796562,0.09198244,0.46663073,-0.47328383,0.26621205,0.83972234,-0.046983007,-0.9595157,0.2777089,,-0.017230622,0.40247643,-0.33348274,-0.078576006,-0.7336539,-0.674965,0.94000226,-0.28000358,0.19491987,-0.33199632,-0.6191526,0.7116379,,1.1824121849067661,0.50524435283039,0.20653918199000001,0.563436878142917,0.0004099094992963213,1.3829768893094727,-0.40019296202898436,,-0.7887922130404172,-0.1916396162738812,0.2111915668,-2.283104104659501,-0.9668398723402566,0.015548847345877997,0.8758508826120054,,-0.0682052855063734,-0.05074981132486512,0.08427136484,-0.06770673936139116,,8.152425e-05,5.1259995e-06,-1.0251999e-05,1.0,-7.484108e-05,-6.6921115e-05,7.483363e-05,1.0,-9.119511e-06,6.6921115e-05,9.089708e-06,0.99999994,198,0.613,0,1,0.105,False,-0.2564821056679656,1.0497563883626244
0.6079362180316821,11:16:57.026259,11:16:48.541358,0,,0.12281817,0.0057919547,0.014876738,-0.86707014,-0.16729066,-0.46925816,-0.35442254,-0.4548139,0.81702435,-0.35010573,0.87473315,0.3350641,,0.044043746,-0.0023326315,0.0041808486,-0.031839006,0.75410235,0.6559846,0.2793913,-0.62343895,0.7302494,0.9596493,0.20652676,-0.19083992,,0.105061576,1.3398844,0.44089687,0.99399817,0.014090895,-0.108485475,-0.061557584,-0.74773103,-0.6611422,-0.090434045,0.6638522,-0.74237585,,-0.09920386,0.24923964,-0.08471141,0.87788963,0.09608682,0.46912378,-0.47682986,0.2655864,0.8379124,-0.044080555,-0.9592868,0.2789726,,-0.01721737,0.40246937,-0.33349514,-0.07858063,-0.7335766,-0.67504853,0.93999916,-0.28003415,0.19489084,-0.332004,-0.6192304,0.7115666,,1.1826052532286218,0.5053524710906292,0.20617622079000003,0.5596624591601955,0.003689185493666892,1.3812830045024453,-0.40084633829352123,,-0.7887999357732914,-0.19162417080813277,0.2111915668,-2.283104104659501,-0.9668398723402566,0.01563052608601853,0.875687538545871,,-0.0682052855063734,-0.05074981132486512,0.08427136484,-0.06770673936139116,,0.00014467537,3.695488e-06,-7.6293945e-06,0.99999994,-0.00011147931,-9.968877e-05,0.00011147186,1.0,-1.3619661e-05,9.968877e-05,1.3560057e-05,0.99999994,206,0.637,0,1,0.105,False,-0.2570778828531757,1.0499977893665218
0.6571349159930833,11:16:57.057720,11:16:48.541358,0,,0.12280391,0.005684264,0.015097544,-0.86535096,-0.1709165,-0.4711214,-0.35496154,-0.4545967,0.8169112,-0.3537939,0.8741449,0.33271694,,0.0440422,-0.0023332424,0.004180908,-0.03192956,0.75421435,0.6558515,0.27945116,-0.6232797,0.7303624,0.95962894,0.20659858,-0.19086502,,0.105061576,1.3398844,0.44089687,0.99399817,0.014090895,-0.108485475,-0.061557584,-0.74773103,-0.6611422,-0.090434045,0.6638522,-0.74237585,,-0.09920731,0.24931121,-0.08494682,0.8764034,0.09974834,0.47113416,-0.4797744,0.26543322,0.8362785,-0.041637253,-0.9589554,0.28048328,,-0.017215805,0.40246925,-0.3334957,-0.078492105,-0.73370403,-0.6749203,0.94002765,-0.2798966,0.19495116,-0.33194435,-0.6191416,0.7116717,,1.1827905988176033,0.5054605893508684,0.20593640714000003,0.5565171100079277,0.0064219154889757005,1.379381361389079,-0.4011730264257898,,-0.7887999357732914,-0.19161644807525854,0.2111915668,-2.283313794602986,-0.9668398723402566,0.01563052608601853,0.875687538545871,,-0.0682052855063734,-0.0507563563095601,0.08427136484,-0.06770673936139116,,0.00014467537,3.695488e-06,-7.6293945e-06,0.99999994,-0.00011147931,-9.968877e-05,0.00011147186,1.0,-1.3619661e-05,9.968877e-05,1.3560057e-05,0.99999994,219,0.678,0,1,0.105,False,-0.25588632848275505,1.0499977893665218
0.6886064659920521,11:16:57.097524,11:16:48.641925,0,,0.122812346,0.0055680424,0.015410081,-0.8630081,-0.17887959,-0.47246078,-0.35356018,-0.4541486,0.81776774,-0.36084938,0.87278354,0.32868922,,0.043985683,-0.0022854395,0.0041890144,-0.038252667,0.75460476,0.6550636,0.2810612,-0.62095386,0.73172444,0.95892733,0.2121033,-0.18833694,,0.105061576,1.3398844,0.44089687,0.99399817,0.014090895,-0.108485475,-0.061557584,-0.74773103,-0.6611422,-0.090434045,0.6638522,-0.74237585,,-0.09923969,0.24943838,-0.085253485,0.87457293,0.10779352,0.47276074,-0.48360196,0.26502845,0.83419967,-0.035373736,-0.95819646,0.28391588,,-0.017163206,0.40250993,-0.33346215,-0.072233886,-0.73476577,-0.6744639,0.94111055,-0.27415034,0.19787003,-0.33029264,-0.62045217,0.7112987,,1.1830686172010754,0.5056999940699693,0.20561881609000002,0.5527426910252061,0.012980467477716843,1.3753401618538998,-0.4005196501612527,,-0.7888153812390398,-0.19165506173962965,0.2111915668,-2.293798291777212,-0.9695726023355654,0.023331359749364733,0.8753608504136026,,-0.0682052855063734,-0.0507563563095601,0.08427136484,-0.06770673936139116,,0.00014467537,3.695488e-06,-7.6293945e-06,0.99999994,-0.00011147931,-9.968877e-05,0.00011147186,1.0,-1.3619661e-05,9.968877e-05,1.3560057e-05,0.99999994,231,0.715,0,1,0.105,False,-0.2568991496976123,1.049418426957168
0.7284078500233591,11:16:57.128399,11:16:48.641925,0,,0.12283501,0.005508058,0.015704855,-0.8604705,-0.1850035,-0.4747255,-0.35281894,-0.4558356,0.817149,-0.3675723,0.8706247,0.32696038,,0.043990307,-0.0022920258,0.0041782856,-0.037205536,0.7539333,0.65589654,0.28194115,-0.6217667,0.730695,0.95871013,0.21211009,-0.18943164,,0.105061576,1.3398844,0.44089687,0.99399817,0.014090895,-0.108485475,-0.061557584,-0.74773103,-0.6611422,-0.090434045,0.6638522,-0.74237585,,-0.09928349,0.24959432,-0.08550796,0.8725075,0.11399632,0.47511634,-0.48769182,0.26247227,0.8326253,-0.02978864,-0.9581822,0.2846041,,-0.017166361,0.40249687,-0.33346123,-0.07330359,-0.7340525,-0.6751248,0.9413267,-0.2745399,0.19629562,-0.32943997,-0.62112385,0.7111079,,1.1833620810502958,0.5061479125766744,0.20535048406000003,0.5485488921555157,0.01871920046786534,1.3740094382444132,-0.4003563060951183,,-0.7888231039719141,-0.19166278447250387,0.2111915668,-2.293378911890243,-0.968206237337911,0.024014112995492803,0.8755241944797365,,-0.0682052855063734,-0.0507563563095601,0.08427136484,-0.06770673936139116,,0.00014467537,3.695488e-06,-7.6293945e-06,0.99999994,-0.00011147931,-9.968877e-05,0.00011147186,1.0,-1.3619661e-05,9.968877e-05,1.3560057e-05,0.99999994,244,0.756,0,1,0.105,False,-0.25588632848275505,1.0499977893665218
0.7592734249774367,11:16:57.165814,11:16:48.641925,0,,0.12288265,0.005509533,0.01620157,-0.8574531,-0.19714208,-0.475299,-0.34922487,-0.45543468,0.81891453,-0.3779102,0.86816716,0.32166708,,0.043989796,-0.002292309,0.0041794777,-0.037205536,0.7539333,0.65589654,0.28194115,-0.6217667,0.730695,0.95871013,0.21211009,-0.18943164,,0.105061576,1.3398844,0.44089687,0.99399817,0.014090895,-0.108485475,-0.061557584,-0.74773103,-0.6611422,-0.090434045,0.6638522,-0.74237585,,-0.09936381,0.24993202,-0.08586644,0.8702837,0.1262773,0.4760885,-0.49216092,0.26138842,0.8303335,-0.019591741,-0.9569379,0.28963083,,-0.017165957,0.40249774,-0.33346212,-0.07330359,-0.7340525,-0.6751248,0.9413267,-0.2745399,0.19629562,-0.32943997,-0.62112385,0.7111079,,1.1840725724747245,0.5072908770420596,0.20495511561000002,0.5439357133988562,0.028966937950273376,1.3674500277502741,-0.40133637049192394,,-0.7888231039719141,-0.19166278447250387,0.21119027051000003,-2.293378911890243,-0.968206237337911,0.024014112995492803,0.8755241944797365,,-0.0682052855063734,-0.0507563563095601,0.08427136484,-0.06770673936139116,,0.00014467537,3.695488e-06,-7.6293945e-06,0.99999994,-0.00011147931,-9.968877e-05,0.00011147186,1.0,-1.3619661e-05,9.968877e-05,1.3560057e-05,0.99999994,252,0.781,0,1,0.105,False,-0.25767366003838577,1.0496115477602863
0.7966568730189465,11:16:57.195061,11:16:48.726135,0,,0.122925326,0.0055474117,0.016492724,-0.85521644,-0.2049877,-0.47600937,-0.34656557,-0.45671454,0.8193314,-0.38535333,0.86567414,0.3195482,,0.043992877,-0.0022932626,0.00418067,-0.037218276,0.7539789,0.6558433,0.28194335,-0.6217121,0.7307406,0.958709,0.21210752,-0.18944031,,0.105061576,1.3398844,0.44089687,0.99399817,0.014090895,-0.108485475,-0.061557584,-0.74773103,-0.6611422,-0.090434045,0.6638522,-0.74237585,,-0.09942454,0.25015673,-0.086050406,0.8686206,0.134231,0.47694898,-0.49532768,0.258945,0.8292153,-0.012197149,-0.9565195,0.29141328,,-0.017169075,0.40249777,-0.33346355,-0.073290944,-0.73410076,-0.67507374,0.94132847,-0.2745155,0.19632107,-0.32943767,-0.62107754,0.71114945,,1.1845282137143038,0.5080322593979851,0.20475807953000003,0.5410000541900728,0.03593539943831084,1.3647898280469573,-0.40149971455805833,,-0.7888385494376625,-0.1916705072053781,0.21119027051000003,-2.293378911890243,-0.968206237337911,0.023932434255352242,0.8753608504136023,,-0.0682052855063734,-0.0507563563095601,0.08427136484,-0.06770673936139116,,0.00014467537,3.695488e-06,-7.6293945e-06,0.99999994,-0.00011147931,-9.968877e-05,0.00011147186,1.0,-1.3619661e-05,9.968877e-05,1.3560057e-05,0.99999994,269,0.834,0,1,0.105,False,-0.25672041654204936,1.0495632675595068
0.8259269850095734,11:16:57.248541,11:16:48.726135,0,,0.12313095,0.0058061555,0.017390281,-0.8475267,-0.23170537,-0.47750515,-0.3376359,-0.45879042,0.8218961,-0.40951258,0.8578018,0.3106051,,0.043992274,-0.0022934414,0.0041793585,-0.03721297,0.7539768,0.655846,0.28196526,-0.6217109,0.73073316,0.9587027,0.21211848,-0.18945955,,0.105061576,1.3398844,0.44089687,0.99399817,0.014090895,-0.108485475,-0.061557584,-0.74773103,-0.6611422,-0.090434045,0.6638522,-0.74237585,,-0.09968162,0.2509517,-0.08651596,0.8628021,0.16134083,0.47910511,-0.5053986,0.25271663,0.82504946,0.012036335,-0.95399344,0.29958588,,-0.017168341,0.40249673,-0.33346295,-0.07329686,-0.7340998,-0.6750741,0.9413355,-0.27450573,0.19630092,-0.32941616,-0.62108296,0.71115464,,1.185941473830287,0.51102095702031,0.20422530434000002,0.5307252469593312,0.05916360439843572,1.3531998710312165,-0.40149971455805855,,-0.7888308267047883,-0.19168595267112656,0.21119027051000003,-2.293378911890243,-0.968206237337911,0.023932434255352242,0.8753608504136023,,-0.0682052855063734,-0.05074981132486512,0.08427136484,-0.06770673936139116,,0.00014467537,3.695488e-06,-7.6293945e-06,0.99999994,-0.00011147931,-9.968877e-05,0.00011147186,1.0,-1.3619661e-05,9.968877e-05,1.3560057e-05,0.99999994,277,0.859,0,1,0.105,False,-0.2571374605716965,1.049418426957168
0.879368097987026,11:16:57.271380,11:16:48.815246,0,,0.123331934,0.006041907,0.017999142,-0.83902395,-0.25265712,-0.48187482,-0.33398297,-0.46000424,0.8227097,-0.42952794,0.85121113,0.3015715,,0.043990932,-0.0022936799,0.004178703,-0.03720681,0.7539796,0.65584314,0.28196752,-0.62170887,0.73073405,0.9587023,0.21211472,-0.18946593,,0.105061576,1.3398844,0.44089687,0.99399817,0.014090895,-0.108485475,-0.061557584,-0.74773103,-0.6611422,-0.090434045,0.6638522,-0.74237585,,-0.09991563,0.25153366,-0.086786665,0.8557486,0.18263946,0.48408383,-0.516538,0.24785203,0.81960833,0.029711677,-0.9514264,0.30643925,,-0.017166927,0.4024962,-0.33346277,-0.073303066,-0.7341023,-0.6750707,0.9413358,-0.2745079,0.1962966,-0.32941404,-0.6210791,0.71115905,,1.1867446380492062,0.5133454996154516,0.20391160216,0.5185632302372287,0.07624316686911577,1.3436016062966134,-0.40133637049192417,,-0.7888231039719141,-0.19168595267112656,0.21119027051000003,-2.293378911890243,-0.968206237337911,0.023932434255352242,0.8753608504136023,,-0.0682052855063734,-0.05074981132486512,0.08427136484,-0.06770673936139116,,0.00014467537,3.695488e-06,-7.6293945e-06,0.99999994,-0.00011147931,-9.968877e-05,0.00011147186,1.0,-1.3619661e-05,9.968877e-05,1.3560057e-05,0.99999994,294,0.912,0,1,0.105,False,-0.256541683386486,1.0496598279610654
0.9022160730091855,11:16:57.325452,11:16:48.815246,0,,0.12378964,0.006517306,0.019026741,-0.82072645,-0.29459924,-0.4895093,-0.32857862,-0.45752966,0.8262582,-0.46738014,0.83897424,0.27870774,,0.04399526,-0.0022986867,0.0041804314,-0.037128083,0.7539166,0.65592,0.2818916,-0.62181526,0.7306727,0.9587277,0.21202683,-0.18943596,,0.105061576,1.3398844,0.44089687,0.99399817,0.014090895,-0.108485475,-0.061557584,-0.74773103,-0.6611422,-0.090434045,0.6638522,-0.74237585,,-0.10042658,0.25256974,-0.087182805,0.840155,0.22535229,0.49331117,-0.5387601,0.2423584,0.80684566,0.062266406,-0.9436518,0.32502946,,-0.017171113,0.4024942,-0.3334678,-0.07337941,-0.734025,-0.6751465,0.9413034,-0.27463335,0.19627659,-0.32948968,-0.621115,0.7110926,,1.1876868114598615,0.5177088436893884,0.20345271550000002,0.49340043701908576,0.10753292531540162,1.3196388024128036,-0.40117302642578956,,-0.7888385494376625,-0.19169367540400079,0.21119027051000003,-2.293169221946758,-0.968206237337911,0.02385075551521168,0.8750341622813338,,-0.0682052855063734,-0.0507563563095601,0.08427136484,-0.06770673936139116,,0.00014467537,3.695488e-06,-7.6293945e-06,0.99999994,-0.00011147931,-9.968877e-05,0.00011147186,1.0,-1.3619661e-05,9.968877e-05,1.3560057e-05,0.99999994,302,0.936,0,1,0.105,False,-0.2566012611050077,1.0496115477602863
0.9563359430176206,11:16:57.360118,11:16:48.902651,0,,0.12407865,0.0067583695,0.019714892,-0.8041774,-0.329307,-0.494829,-0.32389873,-0.45525333,0.82935745,-0.49838585,0.8272251,0.25944233,,0.043997,-0.0022998936,0.004180908,-0.03713465,0.75391144,0.65592563,0.28189608,-0.62181836,0.7306684,0.9587261,0.21203594,-0.18943366,,0.105061576,1.3398844,0.44089687,0.99399817,0.014090895,-0.108485475,-0.061557584,-0.74773103,-0.6611422,-0.090434045,0.6638522,-0.74237585,,-0.10075347,0.25320736,-0.08750183,0.82583195,0.26081157,0.49997896,-0.55681515,0.23687625,0.7961448,0.08921062,-0.9358777,0.3408438,,-0.017172815,0.4024937,-0.33346906,-0.073372975,-0.7340206,-0.67515194,0.9413054,-0.2746272,0.19627531,-0.3294852,-0.6211229,0.7110878,,1.1882969073569254,0.5200642772160269,0.20311049494000002,0.4720120627836643,0.1344503157691934,1.2997314438881227,-0.4010096823596554,,-0.7888462721705368,-0.19169367540400079,0.21119027051000003,-2.293169221946758,-0.968206237337911,0.02385075551521168,0.875197506347468,,-0.0682052855063734,-0.0507563563095601,0.08427136484,-0.06770673936139116,,0.00014467537,3.695488e-06,-7.6293945e-06,0.99999994,-0.00011147931,-9.968877e-05,0.00011147186,1.0,-1.3619661e-05,9.968877e-05,1.3560057e-05,0.99999994,315,0.977,0,1,0.105,False,-0.25677999426057063,1.0496115477602863
0.9910050380276516,11:16:57.391726,11:16:48.902651,0,,0.124167785,0.0067666993,0.020028472,-0.7939873,-0.34623143,-0.499708,-0.32439053,-0.45389146,0.8299116,-0.5141547,0.82103974,0.24806988,,0.043997835,-0.0022957362,0.0041817427,-0.03722959,0.75408,0.65572643,0.28195232,-0.6215948,0.730837,0.9587059,0.21209231,-0.18947288,,0.105061576,1.3398844,0.44089687,0.99399817,0.014090895,-0.108485475,-0.061557584,-0.74773103,-0.6611422,-0.090434045,0.6638522,-0.74237585,,-0.100862876,0.25342453,-0.0877191,0.8166969,0.2781398,0.50561297,-0.568145,0.23407744,0.78893536,0.10108175,-0.9315825,0.34919405,,-0.017173966,0.40249667,-0.33346617,-0.07327992,-0.73420644,-0.67495996,0.94133246,-0.2744712,0.19636388,-0.3294287,-0.6209722,0.7112456,,1.1885054211445294,0.5206589276473422,0.20289142193,0.4581725265136858,0.1470208737476139,1.2893993180079115,-0.4011730264257898,,-0.7888462721705368,-0.19168595267112656,0.21119027051000003,-2.293378911890243,-0.968206237337911,0.023769076775071035,0.8753608504136023,,-0.06821183049106838,-0.0507563563095601,0.08427136484,-0.06770673936139116,,0.00014467537,3.695488e-06,-7.6293945e-06,0.99999994,-0.00011147931,-9.968877e-05,0.00011147186,1.0,-1.3619661e-05,9.968877e-05,1.3560057e-05,0.99999994,323,1.002,0,1,0.105,False,-0.2568991496976123,1.0493218665556094
1.0226087759947404,11:16:57.420025,11:16:48.902651,0,,0.124207914,0.0067092404,0.020215824,-0.7890561,-0.35648507,-0.5003088,-0.32282385,-0.45227993,0.8314009,-0.5226617,0.8175336,0.24179241,,0.043996066,-0.002298046,0.0041803718,-0.037315715,0.7541869,0.6555985,0.28203973,-0.62143487,0.73093915,0.9586769,0.21218032,-0.1895214,,0.105061576,1.3398844,0.44089687,0.99399817,0.014090895,-0.108485475,-0.061557584,-0.74773103,-0.6611422,-0.090434045,0.6638522,-0.74237585,,-0.10091693,0.25350887,-0.08789224,0.81238556,0.2886445,0.50666964,-0.572901,0.23312211,0.78577256,0.10869302,-0.9286218,0.35474974,,-0.017171944,0.40249443,-0.33346725,-0.07319653,-0.73433053,-0.674834,0.9413694,-0.27431968,0.19639842,-0.32934162,-0.6208924,0.71135557,,1.1885672030075232,0.5207516004418329,0.20272290423000003,0.45230120809611907,0.1550824272337749,1.2828256616898224,-0.4011730264257898,,-0.7888462721705368,-0.191701398136875,0.21119027051000003,-2.2935886018337275,-0.968206237337911,0.023769076775071035,0.8753608504136023,,-0.06821183049106838,-0.0507563563095601,0.08427136484,-0.06770673936139116,,0.00014467537,3.695488e-06,-7.6293945e-06,0.99999994,-0.00011147931,-9.968877e-05,0.00011147186,1.0,-1.3619661e-05,9.968877e-05,1.3560057e-05,0.99999994,332,1.031,0,1,0.105,False,-0.2564821056679656,1.0496115477602863
1.0508851219783537,11:16:57.450104,11:16:48.984572,0,,0.12422535,0.006694071,0.020306095,-0.78677374,-0.35964203,-0.501642,-0.32323897,-0.45229557,0.83123106,-0.5258361,0.816141,0.239604,,0.043994654,-0.0023031272,0.004180908,-0.03730993,0.75418764,0.65559816,0.28204235,-0.62143505,0.73093796,0.9586763,0.21217766,-0.18952712,,0.105061576,1.3398844,0.44089687,0.99399817,0.014090895,-0.108485475,-0.061557584,-0.74773103,-0.6611422,-0.090434045,0.6638522,-0.74237585,,-0.10094072,0.2535587,-0.08796729,0.81030715,0.2918849,0.50813925,-0.57541907,0.23224002,0.7841922,0.11088361,-0.9278296,0.3561419,,-0.017170299,0.40249205,-0.3334717,-0.07320238,-0.7343309,-0.674833,0.94136983,-0.27432197,0.19639316,-0.32933906,-0.620891,0.71135795,,1.1885980939390202,0.5208983323664432,0.20264901570000002,0.44915585894385124,0.1574052477297874,1.2810132360671238,-0.4010096823596554,,-0.7888385494376625,-0.19170912086974923,0.21118897422000002,-2.2935886018337275,-0.968206237337911,0.023769076775071035,0.8753608504136023,,-0.06821183049106838,-0.05076290129425508,0.08427136484,-0.06770673936139116,,0.00014467537,3.695488e-06,-7.6293945e-06,0.99999994,-0.00011147931,-9.968877e-05,0.00011147186,1.0,-1.3619661e-05,9.968877e-05,1.3560057e-05,0.99999994,345,1.072,0,1,0.105,False,-0.25672041654204936,1.0497563883626244
1.080986769986339,11:16:57.492603,11:16:48.984572,0,,0.12429854,0.0067250356,0.020384043,-0.7857261,-0.35898238,-0.5037522,-0.32489562,-0.4535008,0.8299275,-0.5263815,0.8157625,0.23969564,,0.04399387,-0.002300147,0.004181266,-0.0373091,0.7540852,0.655716,0.282029,-0.6215524,0.73084337,0.9586802,0.21219799,-0.1894843,,0.105061576,1.3398844,0.44089687,0.99399817,0.014090895,-0.108485475,-0.061557584,-0.74773103,-0.6611422,-0.090434045,0.6638522,-0.74237585,,-0.10101799,0.25363263,-0.087998204,0.8092511,0.29121774,0.5102008,-0.5770292,0.23108347,0.7833503,0.11022653,-0.92832786,0.3550457,,-0.017169727,0.40249416,-0.33346948,-0.07320282,-0.7342244,-0.6749488,0.9413652,-0.27436197,0.19635954,-0.32935226,-0.6209993,0.71125734,,1.1883664119527932,0.5214466464005131,0.20261142329,0.4472686494524904,0.15631215573166388,1.2820679367769765,-0.4010096823596554,,-0.7888385494376625,-0.19169367540400079,0.21118897422000002,-2.2935886018337275,-0.968206237337911,0.023932434255352103,0.8750341622813338,,-0.06821183049106838,-0.05076290129425508,0.08427136484,-0.06770673936139116,,0.00014467537,3.695488e-06,-7.6293945e-06,0.99999994,-0.00011147931,-9.968877e-05,0.00011147186,1.0,-1.3619661e-05,9.968877e-05,1.3560057e-05,0.99999994,354,1.1,0,1,0.105,False,-0.2561842170753601,1.049804668563404
1.1234310920117423,11:16:57.519852,11:16:48.984572,0,,0.12435308,0.006767884,0.020422906,-0.7854245,-0.35896415,-0.5042352,-0.32511473,-0.45396054,0.8295903,-0.5266961,0.8155149,0.23984727,,0.043995213,-0.0022998936,0.0041819215,-0.03731526,0.7540824,0.65571886,0.28202683,-0.6215545,0.7308425,0.9586807,0.21220179,-0.18947792,,0.105061576,1.3398844,0.44089687,0.99399817,0.014090895,-0.108485475,-0.061557584,-0.74773103,-0.6611422,-0.090434045,0.6638522,-0.74237585,,-0.101073734,0.25368914,-0.08799376,0.8089649,0.29120284,0.510663,-0.57741106,0.23057772,0.78321797,0.110327795,-0.92845833,0.35467303,,-0.017171143,0.40249473,-0.33346966,-0.07319661,-0.7342219,-0.67495227,0.94136494,-0.2743598,0.19636385,-0.32935438,-0.6210032,0.7112529,,1.1882351254939316,0.5218482285099728,0.20261142329,0.44684926956552135,0.15603888273213298,1.2823724513245098,-0.40084633829352123,,-0.7888462721705368,-0.19169367540400079,0.21118897422000002,-2.2935886018337275,-0.968206237337911,0.023932434255352103,0.8750341622813338,,-0.06821183049106838,-0.05076290129425508,0.08427136484,-0.06770673936139116,,0.00014467537,3.695488e-06,-7.6293945e-06,0.99999994,-0.00011147931,-9.968877e-05,0.00011147186,1.0,-1.3619661e-05,9.968877e-05,1.3560057e-05,0.99999994,367,1.141,0,1,0.105,False,-0.2566012611050077,1.0492253061540504
1.150733538030181,11:16:57.557758,11:16:49.076962,0,,0.12448743,0.006878279,0.020518824,-0.7835719,-0.36006653,-0.5063271,-0.32632267,-0.45498073,0.82855654,-0.5287046,0.8144597,0.2390123,,0.04399297,-0.0022989102,0.004182577,-0.03730868,0.7540875,0.6557133,0.2820223,-0.6215514,0.7308468,0.9586823,0.21219268,-0.18948019,,0.105061576,1.3398844,0.44089687,0.99399817,0.014090895,-0.108485475,-0.061557584,-0.74773103,-0.6611422,-0.090434045,0.6638522,-0.74237585,,-0.10121094,0.253832,-0.087979645,0.80721563,0.2923431,0.51277524,-0.57970685,0.22913925,0.7819432,0.111098774,-0.92845607,0.35443807,,-0.017169036,0.40249607,-0.33346927,-0.07320304,-0.7342262,-0.6749468,0.94136286,-0.27436593,0.19636515,-0.32935885,-0.62099534,0.7112577,,1.1879262161789625,0.5228212928521251,0.20261531216000003,0.44412330030022257,0.15603888273213298,1.2822907725843693,-0.4010096823596554,,-0.7888385494376625,-0.19168595267112656,0.21118767793,-2.2935886018337275,-0.968206237337911,0.023932434255352103,0.8750341622813338,,-0.06821183049106838,-0.05076290129425508,0.08427136484,-0.06770673936139116,,0.00014467537,3.695488e-06,-7.6293945e-06,0.99999994,-0.00011147931,-9.968877e-05,0.00011147186,1.0,-1.3619661e-05,9.968877e-05,1.3560057e-05,0.99999994,380,1.182,0,1,0.105,False,-0.25636295023092304,1.0496115477602863
1.1886406150297262,11:16:57.592983,11:16:49.076962,0,,0.124583945,0.006996028,0.020620316,-0.78350705,-0.36065894,-0.50600576,-0.3254993,-0.45544168,0.8286271,-0.529308,0.8139397,0.2394476,,0.04399336,-0.0023003854,0.0041823983,-0.0373091,0.7540852,0.655716,0.282029,-0.6215524,0.73084337,0.9586802,0.21219799,-0.1894843,,0.105061576,1.3398844,0.44089687,0.99399817,0.014090895,-0.108485475,-0.061557584,-0.74773103,-0.6611422,-0.090434045,0.6638522,-0.74237585,,-0.10131057,0.253985,-0.087967165,0.8072142,0.29295525,0.512428,-0.57951534,0.22846222,0.7822832,0.112103544,-0.92842996,0.35419002,,-0.017169323,0.40249503,-0.33347037,-0.07320282,-0.7342244,-0.6749488,0.9413652,-0.27436197,0.19635954,-0.32935226,-0.6209993,0.71125734,,1.1878644343159688,0.523748020797032,0.20261660845,0.44433299024370715,0.15617551923189843,1.2821793546806728,-0.4010096823596554,,-0.7888385494376625,-0.19169367540400079,0.21118767793,-2.2935886018337275,-0.968206237337911,0.023932434255352103,0.8750341622813338,,-0.06821183049106838,-0.05076290129425508,0.08427136484,-0.06770673936139116,,0.00014467537,3.695488e-06,-7.6293945e-06,0.99999994,-0.00011147931,-9.968877e-05,0.00011147186,1.0,-1.3619661e-05,9.968877e-05,1.3560057e-05,0.99999994,393,1.223,0,1,0.105,False,-0.2561246393568388,1.0500943497680806
1.2237813969841227,11:16:57.638912,11:16:49.166341,0,,0.124656945,0.0070881546,0.020703375,-0.7832188,-0.36057135,-0.5065141,-0.32556948,-0.4562019,0.8281812,-0.5296912,0.81355274,0.23991492,,0.04399336,-0.0023003854,0.0041823983,-0.0373091,0.753978,0.6558392,0.282029,-0.62167174,0.73074186,0.9586802,0.21222895,-0.18944964,,0.105061576,1.3398844,0.44089687,0.99399817,0.014090895,-0.108485475,-0.061557584,-0.74773103,-0.6611422,-0.090434045,0.6638522,-0.74237585,,-0.10138625,0.2541072,-0.087960206,0.8069501,0.29287186,0.5128914,-0.57983434,0.22763985,0.7822865,0.11235519,-0.92865825,0.35351115,,-0.017169323,0.40249503,-0.33347037,-0.07320282,-0.7341141,-0.6750688,0.9413652,-0.27439404,0.19631472,-0.32935226,-0.62111545,0.7111559,,1.1878180979187234,0.5244971258858317,0.20261401587000002,0.4439136103567381,0.15576560973260212,1.2825952871319029,-0.4011730264257898,,-0.7888385494376625,-0.19169367540400079,0.21118767793,-2.2935886018337275,-0.968206237337911,0.02409579173563331,0.875034162281334,,-0.06821183049106838,-0.05076290129425508,0.08427136484,-0.06770673936139116,,0.00014467537,3.695488e-06,-7.6293945e-06,0.99999994,-0.00011147931,-9.968877e-05,0.00011147186,1.0,-1.3619661e-05,9.968877e-05,1.3560057e-05,0.99999994,402,1.252,0,1,0.105,False,-0.25588632848275505,1.0492253061540504
1.269784535979852,11:16:57.666553,11:16:49.166341,0,,0.12468772,0.007139839,0.02076754,-0.7831564,-0.36108363,-0.5062457,-0.32518572,-0.45610994,0.82838255,-0.53001916,0.813377,0.23978624,,0.04399297,-0.0022989102,0.004182577,-0.03730868,0.7539268,0.6558981,0.2820223,-0.62173045,0.73069453,0.9586823,0.21223915,-0.18942821,,0.105061576,1.3398844,0.44089687,0.99399817,0.014090895,-0.108485475,-0.061557584,-0.74773103,-0.6611422,-0.090434045,0.6638522,-0.74237585,,-0.10141972,0.25418797,-0.08796986,0.8069204,0.29339704,0.5126379,-0.57977766,0.22760017,0.7823401,0.11285979,-0.9285022,0.35376024,,-0.017169036,0.40249607,-0.33346927,-0.07320304,-0.7340608,-0.6751267,0.94136286,-0.27441403,0.19629791,-0.32935885,-0.6211696,0.7111055,,1.1878798797817172,0.5249295989267884,0.20259846039,0.4439136103567381,0.15590224623236756,1.2820754755275034,-0.40133637049192417,,-0.7888385494376625,-0.19168595267112656,0.21118767793,-2.2935886018337275,-0.968206237337911,0.02417747047577387,0.8751975063474682,,-0.06821183049106838,-0.05076290129425508,0.08427136484,-0.06770673936139116,,0.00014467537,3.695488e-06,-7.6293945e-06,0.99999994,-0.00011147931,-9.968877e-05,0.00011147186,1.0,-1.3619661e-05,9.968877e-05,1.3560057e-05,0.99999994,415,1.293,0,1,0.105,False,-0.25636295023092304,1.0490321853509326
1.2974248370155692,11:16:57.703841,11:16:49.166341,0,,0.1247424,0.0071934387,0.020881146,-0.78073627,-0.36586028,-0.5065542,-0.32456148,-0.45529562,0.8290751,-0.53395766,0.811697,0.23672172,,0.04399431,-0.0022986569,0.0041832924,-0.037314843,0.7537097,0.65614724,0.2820201,-0.62197125,0.7304905,0.95868266,0.21230482,-0.18935251,,0.105061576,1.3398844,0.44089687,0.99399817,0.014090895,-0.108485475,-0.061557584,-0.74773103,-0.6611422,-0.090434045,0.6638522,-0.74237585,,-0.101480246,0.2543032,-0.08801267,0.8047847,0.29829553,0.513168,-0.58205694,0.22716993,0.78077114,0.1163242,-0.92704564,0.35644788,,-0.017170452,0.40249664,-0.33346945,-0.073196836,-0.73383766,-0.67536986,0.9413626,-0.27447596,0.19621256,-0.32936096,-0.62140584,0.71089816,,1.187941661644711,0.525431576563613,0.20255179395000003,0.44097795114795474,0.15918152222673815,1.2786663371775242,-0.40149971455805833,,-0.7888462721705368,-0.19168595267112656,0.21118767793,-2.2935886018337275,-0.968206237337911,0.024504185436336118,0.8745441300829311,,-0.06821183049106838,-0.05076290129425508,0.08427136484,-0.06770673936139116,,0.00014467537,3.695488e-06,-7.6293945e-06,0.99999994,-0.00011147931,-9.968877e-05,0.00011147186,1.0,-1.3619661e-05,9.968877e-05,1.3560057e-05,0.99999994,428,1.334,0,1,0.105,False,-0.25624379479388093,1.0496598279610654
1.3347196250106208,11:16:57.748826,11:16:49.266002,0,,0.124773055,0.0072174445,0.021029085,-0.77746856,-0.3724082,-0.50680846,-0.32315898,-0.45476988,0.8299111,-0.53954697,0.80900955,0.2332223,,0.0439934,-0.0022968687,0.0041832924,-0.037216403,0.7536618,0.6562078,0.2819372,-0.6220672,0.7304408,0.95871085,0.2121937,-0.18933415,,0.105061576,1.3398844,0.44089687,0.99399817,0.014090895,-0.108485475,-0.061557584,-0.74773103,-0.6611422,-0.090434045,0.6638522,-0.74237585,,-0.10151992,0.25442064,-0.08810229,0.8019349,0.3050191,0.5136767,-0.584909,0.22588606,0.77901024,0.12158059,-0.92516965,0.35955435,,-0.017169643,0.40249777,-0.33346802,-0.073292635,-0.7337737,-0.675429,0.9413262,-0.2746158,0.1961917,-0.32944378,-0.6214196,0.71084774,,1.1881424526994409,0.5257868222758273,0.20246105365000003,0.43720353216523333,0.1645103457175903,1.2746477538939263,-0.4005196501612527,,-0.7888385494376625,-0.1916705072053781,0.21118767793,-2.293378911890243,-0.968206237337911,0.024422506696195556,0.8743807860167969,,-0.06821183049106838,-0.05076290129425508,0.08427136484,-0.06770673936139116,,0.00014467537,3.695488e-06,-7.6293945e-06,0.99999994,-0.00011147931,-9.968877e-05,0.00011147186,1.0,-1.3619661e-05,9.968877e-05,1.3560057e-05,0.99999994,437,1.362,0,1,0.105,False,-0.2561842170753601,1.04927358635483
1.3796892270329408,11:16:57.778787,11:16:49.266002,0,,0.12481545,0.007237613,0.021152347,-0.7727529,-0.3823064,-0.5066506,-0.32104388,-0.45316392,0.8316088,-0.54752517,0.80528516,0.22744665,,0.04399137,-0.0022964962,0.0041825175,-0.037399735,0.7538773,0.6559499,0.28208736,-0.62174875,0.7306538,0.9586595,0.2123614,-0.18940604,,0.105061576,1.3398844,0.44089687,0.99399817,0.014090895,-0.108485475,-0.061557584,-0.74773103,-0.6611422,-0.090434045,0.6638522,-0.74237585,,-0.10156978,0.2545182,-0.08817571,0.79781914,0.31518358,0.5139494,-0.58889836,0.22476965,0.77632296,0.12916401,-0.92202926,0.36493662,,-0.01716757,0.40249756,-0.33346725,-0.073114105,-0.73402256,-0.67517793,0.9413926,-0.27432033,0.1962864,-0.32929367,-0.6212562,0.7110601,,1.1882814618911768,0.5259721678648087,0.20239235028000002,0.4319612835781202,0.17243526270398585,1.2681038367393929,-0.4010096823596554,,-0.7888385494376625,-0.19167822993825234,0.21118767793,-2.293798291777212,-0.968206237337911,0.024422506696195556,0.8743807860167969,,-0.06821183049106838,-0.05076290129425508,0.08427136484,-0.06770673936139116,,0.00014467537,3.695488e-06,-7.6293945e-06,0.99999994,-0.00011147931,-9.968877e-05,0.00011147186,1.0,-1.3619661e-05,9.968877e-05,1.3560057e-05,0.99999994,450,1.403,0,1,0.105,False,-0.25588632848275505,1.049418426957168
1.4096679749782197,11:16:57.824419,11:16:49.353347,0,,0.124872744,0.007282354,0.021401465,-0.7603836,-0.40406752,-0.50847435,-0.3183954,-0.45045352,0.83409584,-0.56607515,0.79612875,0.21386427,,0.043991894,-0.0022967495,0.004182577,-0.037497792,0.7540346,0.6557633,0.28216356,-0.62153244,0.7308085,0.95863324,0.21243621,-0.189455,,0.105061576,1.3398844,0.44089687,0.99399817,0.014090895,-0.108485475,-0.061557584,-0.74773103,-0.6611422,-0.090434045,0.6638522,-0.74237585,,-0.101642124,0.25471902,-0.08832332,0.78678375,0.33757076,0.51673716,-0.5998709,0.22105561,0.7689534,0.14534853,-0.91497564,0.37642184,,-0.017168092,0.40249747,-0.33346754,-0.07301849,-0.73419863,-0.6749968,0.94142663,-0.2741524,0.19635761,-0.32921746,-0.62112224,0.7112124,,1.188698489466385,0.5262192953167839,0.20225753612000003,0.4172829875342035,0.18978809817419678,1.2537904054896665,-0.4010096823596554,,-0.7888462721705368,-0.19168595267112656,0.21118767793,-2.2940079817206964,-0.968206237337911,0.024340827956055022,0.8745441300829311,,-0.06821183049106838,-0.05076290129425508,0.08427136484,-0.06770673936139116,,0.00014467537,3.695488e-06,-7.6293945e-06,0.99999994,-0.00011147931,-9.968877e-05,0.00011147186,1.0,-1.3619661e-05,9.968877e-05,1.3560057e-05,0.99999994,463,1.444,0,1,0.105,False,-0.25642252794944387,1.0494667071579475
1.455294382001739,11:16:57.860071,11:16:49.353347,0,,0.12485734,0.007293083,0.021581978,-0.7542698,-0.4094204,-0.51327574,-0.32140002,-0.4514458,0.83240527,-0.57251996,0.792825,0.20892426,,0.043991107,-0.0022937693,0.0041829944,-0.03749696,0.7540393,0.655758,0.28215015,-0.62153035,0.7308154,0.95863724,0.21242557,-0.1894468,,0.105061576,1.3398844,0.44089687,0.99399817,0.014090895,-0.108485475,-0.061557584,-0.74773103,-0.6611422,-0.090434045,0.6638522,-0.74237585,,-0.101638384,0.25485,-0.08844888,0.7810264,0.34309995,0.5218047,-0.6066031,0.21821132,0.7644714,0.14842641,-0.9136007,0.3785543,,-0.01716752,0.4024996,-0.33346537,-0.07301894,-0.7342024,-0.6749927,0.941422,-0.27416033,0.19636881,-0.32923067,-0.6211143,0.7112132,,1.1890537351785992,0.526566818296124,0.20212790712000003,0.40826631996436896,0.19334064716809823,1.2504851462928568,-0.4018264026903269,,-0.7888462721705368,-0.1916705072053781,0.21118767793,-2.2940079817206964,-0.968206237337911,0.02434082795605505,0.8748708182151994,,-0.06821183049106838,-0.05076290129425508,0.08427136484,-0.06770673936139116,,0.00014467537,3.695488e-06,-7.6293945e-06,0.99999994,-0.00011147931,-9.968877e-05,0.00011147186,1.0,-1.3619661e-05,9.968877e-05,1.3560057e-05,0.99999994,472,1.473,0,1,0.105,False,-0.2564821056679656,1.0499012289649627
1.4909538510255516,11:16:57.891179,11:16:49.444675,0,,0.12487829,0.0073280185,0.02175644,-0.7496004,-0.41652745,-0.5143969,-0.32176572,-0.44983223,0.8331372,-0.5784169,0.79003525,0.20317027,,0.043989763,-0.0022940375,0.0041823387,-0.0374908,0.7540956,0.65569365,0.2821524,-0.62146854,0.730867,0.9586368,0.21240631,-0.18947056,,0.105061576,1.3398844,0.44089687,0.99399817,0.014090895,-0.108485475,-0.061557584,-0.74773103,-0.6611422,-0.090434045,0.6638522,-0.74237585,,-0.101669826,0.25499374,-0.088551104,0.7767486,0.3504189,0.5233242,-0.610994,0.21766853,0.76112205,0.15280034,-0.9109484,0.38317758,,-0.017166104,0.40249905,-0.3334652,-0.073025145,-0.73426,-0.6749293,0.9414223,-0.27414647,0.19638689,-0.32922852,-0.6210523,0.7112683,,1.189316308096323,0.5270379050014516,0.20202290763000003,0.40218531160331766,0.19784965166035778,1.244521350746939,-0.4011730264257898,,-0.7888385494376625,-0.1916705072053781,0.21118767793,-2.2940079817206964,-0.968206237337911,0.024259149215914405,0.8750341622813338,,-0.06821183049106838,-0.05076290129425508,0.08427136484,-0.06770673936139116,,0.00014467537,3.695488e-06,-7.6293945e-06,0.99999994,-0.00011147931,-9.968877e-05,0.00011147186,1.0,-1.3619661e-05,9.968877e-05,1.3560057e-05,0.99999994,485,1.514,0,1,0.105,False,-0.2571374605716965,1.049370146756389
1.5220202970085666,11:16:57.927148,11:16:49.444675,0,,0.12495248,0.007406257,0.022032619,-0.74247175,-0.42938247,-0.51416576,-0.3188086,-0.44855523,0.8349606,-0.58914924,0.7838551,0.19614881,,0.043989856,-0.0023001917,0.004182756,-0.037490733,0.754096,0.6556932,0.28213987,-0.621471,0.7308699,0.9586405,0.21239802,-0.18946114,,0.105061576,1.3398844,0.44089687,0.99399817,0.014090895,-0.108485475,-0.061557584,-0.74773103,-0.6611422,-0.090434045,0.6638522,-0.74237585,,-0.101759866,0.25523707,-0.08869455,0.7704322,0.3636855,0.5236097,-0.6162975,0.21471262,0.757678,0.16313086,-0.9064388,0.38955998,,-0.017165884,0.4024958,-0.33347046,-0.073024854,-0.7342594,-0.67493,0.941418,-0.27415457,0.19639619,-0.3292409,-0.6210494,0.71126515,,1.1896561083427888,0.5278333464874968,0.20188420460000003,0.3944267836943903,0.20823402564253127,1.2359719113258705,-0.4010096823596554,,-0.7888385494376625,-0.1916705072053781,0.21118767793,-2.2940079817206964,-0.968206237337911,0.024259149215914405,0.8750341622813338,,-0.06821183049106838,-0.050775991263645036,0.08427136484,-0.06770673936139116,,0.00014467537,3.695488e-06,-7.6293945e-06,0.99999994,-0.00011147931,-9.968877e-05,0.00011147186,1.0,-1.3619661e-05,9.968877e-05,1.3560057e-05,0.99999994,498,1.555,0,1,0.105,False,-0.25576717304571295,1.049514987358727
1.5580259159905836,11:16:57.967997,11:16:49.444675,0,,0.1250194,0.007476054,0.022308141,-0.73467433,-0.440592,-0.51588017,-0.31773168,-0.4484049,0.8354516,-0.5994166,0.7776964,0.18944156,,0.04398852,-0.0023004897,0.0041821003,-0.037484564,0.75409883,0.6556903,0.28214216,-0.6214689,0.7308708,0.95864016,0.21239421,-0.18946752,,0.105061576,1.3398844,0.44089687,0.99399817,0.014090895,-0.108485475,-0.061557584,-0.74773103,-0.6611422,-0.090434045,0.6638522,-0.74237585,,-0.10184284,0.25547394,-0.088843755,0.76336443,0.37527743,0.52577716,-0.6226789,0.21090579,0.7535183,0.17188896,-0.90259933,0.3946753,,-0.017164469,0.40249524,-0.33347028,-0.07303107,-0.73426193,-0.6749266,0.94141823,-0.27415675,0.19639187,-0.32923874,-0.6210455,0.71126956,,1.1899572949248836,0.5286365107064162,0.20173513125000003,0.38520042618107125,0.21711539812728486,1.2288114263257435,-0.40084633829352123,,-0.7888308267047883,-0.1916705072053781,0.21118767793,-2.2940079817206964,-0.968206237337911,0.024259149215914405,0.8750341622813338,,-0.06821183049106838,-0.050775991263645036,0.08427136484,-0.06770673936139116,,0.00014467537,3.695488e-06,-7.6293945e-06,0.99999994,-0.00011147931,-9.968877e-05,0.00011147186,1.0,-1.3619661e-05,9.968877e-05,1.3560057e-05,0.99999994,507,1.584,0,1,0.105,False,-0.25588632848275505,1.0490321853509326
1.5988356120069511,11:16:57.994457,11:16:49.528613,0,,0.12506326,0.007514842,0.022456348,-0.72881013,-0.44871715,-0.5171931,-0.31720442,-0.4481359,0.83579624,-0.606809,0.77319276,0.18427101,,0.043989856,-0.0023001917,0.004182756,-0.037490733,0.75404245,0.6557548,0.28213987,-0.6215306,0.7308191,0.9586405,0.21241346,-0.1894438,,0.105061576,1.3398844,0.44089687,0.99399817,0.014090895,-0.108485475,-0.061557584,-0.74773103,-0.6611422,-0.090434045,0.6638522,-0.74237585,,-0.10189527,0.2556021,-0.088922635,0.7580192,0.38368693,0.52743834,-0.6274612,0.20823689,0.7502865,0.17804301,-0.8996787,0.39859623,,-0.017165884,0.4024958,-0.33347046,-0.073024854,-0.7342043,-0.67498994,0.941418,-0.2741706,0.19637379,-0.3292409,-0.62110746,0.7112144,,1.1900885813837454,0.5290149246172532,0.20165994643000001,0.3782806580460819,0.22353731361626059,1.2234931061118712,-0.4010096823596554,,-0.7888385494376625,-0.1916705072053781,0.21118767793,-2.2940079817206964,-0.968206237337911,0.02434082795605505,0.8748708182151994,,-0.06821183049106838,-0.050775991263645036,0.08427136484,-0.06770673936139116,,0.00014467537,3.695488e-06,-7.6293945e-06,0.99999994,-0.00011147931,-9.968877e-05,0.00011147186,1.0,-1.3619661e-05,9.968877e-05,1.3560057e-05,0.99999994,520,1.624,0,1,0.105,False,-0.25588632848275505,1.0495632675595068
1.6253398230182938,11:16:58.034570,11:16:49.528613,0,,0.12510459,0.007547848,0.022820339,-0.71672726,-0.4663734,-0.51845723,-0.31455475,-0.44732225,0.8372323,-0.62238044,0.7631505,0.17390814,,0.04398852,-0.0023004897,0.0041821003,-0.037484564,0.7540452,0.65575194,0.28214216,-0.6215286,0.73082,0.95864016,0.21240969,-0.18945017,,0.105061576,1.3398844,0.44089687,0.99399817,0.014090895,-0.108485475,-0.061557584,-0.74773103,-0.6611422,-0.090434045,0.6638522,-0.74237585,,-0.10195964,0.25587282,-0.089163184,0.7470726,0.4019845,0.52942514,-0.63640046,0.20243129,0.74432254,0.19203393,-0.8929894,0.40705398,,-0.017164469,0.40249524,-0.33347028,-0.07303107,-0.7342068,-0.67498654,0.94141823,-0.27417278,0.19636948,-0.32923874,-0.6211036,0.71121883,,1.1906060044863185,0.5296250205143169,0.20143050310000002,0.36465081171958785,0.23829405559092814,1.21178668747322,-0.4003563060951183,,-0.7888308267047883,-0.1916705072053781,0.21118767793,-2.2940079817206964,-0.968206237337911,0.02434082795605505,0.8748708182151994,,-0.06821183049106838,-0.050775991263645036,0.08427136484,-0.06770673936139116,,0.00014467537,3.695488e-06,-7.6293945e-06,0.99999994,-0.00011147931,-9.968877e-05,0.00011147186,1.0,-1.3619661e-05,9.968877e-05,1.3560057e-05,0.99999994,533,1.665,0,1,0.105,False,-0.2559459062012759,1.0496115477602863
1.6654192709829658,11:16:58.077194,11:16:49.635001,0,,0.12511367,0.0075488314,0.023115635,-0.7034292,-0.4835136,-0.5209625,-0.3130737,-0.44724894,0.8378264,-0.63810045,0.75245124,0.16323271,,0.043987684,-0.00230046,0.004180193,-0.03747841,0.7539409,0.6558722,0.28214443,-0.62164587,0.7307194,0.95863974,0.21243683,-0.18942188,,0.105061576,1.3398844,0.44089687,0.99399817,0.014090895,-0.108485475,-0.061557584,-0.74773103,-0.6611422,-0.090434045,0.6638522,-0.74237585,,-0.10198818,0.2560741,-0.08937753,0.7348905,0.41978973,0.53264666,-0.64632654,0.19562386,0.737559,0.2054213,-0.8862888,0.41508335,,-0.017163457,0.40249383,-0.3334692,-0.073037274,-0.73409903,-0.67510307,0.9414185,-0.27420703,0.19632037,-0.3292366,-0.6212158,0.7111218,,1.1910693684587719,0.5298412570347951,0.20123346702000003,0.3493434458452176,0.25291416106583026,1.2005184016988273,-0.40002961796284997,,-0.7888231039719141,-0.1916705072053781,0.21118897422000002,-2.2940079817206964,-0.968206237337911,0.024504185436336146,0.8748708182151996,,-0.06821183049106838,-0.050775991263645036,0.08427136484,-0.06770673936139116,,0.00014467537,3.695488e-06,-7.6293945e-06,0.99999994,-0.00011147931,-9.968877e-05,0.00011147186,1.0,-1.3619661e-05,9.968877e-05,1.3560057e-05,0.99999994,542,1.694,0,1,0.105,False,-0.25642252794944387,1.0492253061540504
1.7080273290048353,11:16:58.104878,11:16:49.635001,0,,0.12510835,0.0075403675,0.023333251,-0.6912444,-0.4967316,-0.52482265,-0.31377774,-0.44790792,0.83721066,-0.6509414,0.743395,0.15375057,,0.043987684,-0.00230046,0.004180193,-0.03747841,0.7539409,0.6558722,0.28214443,-0.62164587,0.7307194,0.95863974,0.21243683,-0.18942188,,0.105061576,1.3398844,0.44089687,0.99399817,0.014090895,-0.108485475,-0.061557584,-0.74773103,-0.6611422,-0.090434045,0.6638522,-0.74237585,,-0.1019975,0.25621602,-0.08954255,0.7235663,0.43355352,0.5371063,-0.6558691,0.18930222,0.73075324,0.21514525,-0.8810199,0.42132708,,-0.017163457,0.40249383,-0.3334692,-0.073037274,-0.73409903,-0.67510307,0.9414185,-0.27420703,0.19632037,-0.3292366,-0.6212158,0.7111218,,1.1913937232394893,0.5299184843635374,0.20108309738000002,0.33466514980130085,0.2638450810470655,1.1916049694031137,-0.40002961796284997,,-0.7888231039719141,-0.1916705072053781,0.21118897422000002,-2.2940079817206964,-0.968206237337911,0.024504185436336146,0.8748708182151996,,-0.06821183049106838,-0.050775991263645036,0.08427136484,-0.06770673936139116,,0.00014467537,3.695488e-06,-7.6293945e-06,0.99999994,-0.00011147931,-9.968877e-05,0.00011147186,1.0,-1.3619661e-05,9.968877e-05,1.3560057e-05,0.99999994,555,1.735,0,1,0.105,False,-0.25535012901606535,1.049418426957168
1.7356959559838288,11:16:58.151605,11:16:49.635001,0,,0.12530017,0.0074312612,0.023659363,-0.67372984,-0.51717436,-0.5278436,-0.3123592,-0.44803804,0.8376714,-0.66971624,0.72924095,0.14031237,,0.043922506,-0.0023447387,0.004186392,-0.037436128,0.7538997,0.6559219,0.2821574,-0.6216992,0.7306689,0.9586375,0.21242669,-0.1894444,,0.10502744,1.339886,0.4409049,0.99400157,0.014131976,-0.10844915,-0.06150297,-0.74773026,-0.66114813,-0.090434045,0.6638522,-0.74237585,,-0.102185905,0.25634605,-0.089841105,0.7073976,0.45489985,0.54097575,-0.66799265,0.18009926,0.7220457,0.23102917,-0.87214124,0.43127155,,-0.017066251,0.40247807,-0.3335049,-0.07310621,-0.73402023,-0.67518127,0.9414182,-0.2742684,0.19623625,-0.32922226,-0.62128186,0.7110707,,1.1918725326776913,0.5299493752950343,0.20086402437000003,0.31495429511375556,0.28160782601657275,1.1772839994028599,-0.4003563060951183,,-0.7888231039719141,-0.1916705072053781,0.21118897422000002,-2.2940079817206964,-0.968206237337911,0.024504185436336146,0.8748708182151996,,-0.06821183049106838,-0.050775991263645036,0.08427136484,-0.06770673936139116,,0.000109918416,7.1525574e-06,-1.0848045e-05,1.0,-7.069111e-05,-6.3210726e-05,7.068366e-05,1.0,-8.6426735e-06,6.3210726e-05,8.583069e-06,0.99999994,568,1.776,0,1,0.105,False,-0.2551713958605024,1.0495632675595068
1.7824838840169832,11:16:58.191587,11:16:49.635001,0,,0.12526,0.007419549,0.024011642,-0.65311486,-0.53814465,-0.5327678,-0.31238174,-0.44943345,0.83691514,-0.68982506,0.7130286,0.1254251,,0.04392412,-0.002347704,0.0041879416,-0.037443127,0.7538923,0.65593016,0.28216854,-0.6217033,0.73066115,0.95863396,0.2124411,-0.1894462,,0.10502744,1.339886,0.4409049,0.99400157,0.014131976,-0.10844915,-0.06150297,-0.74773026,-0.66114813,-0.090434045,0.6638522,-0.74237585,,-0.10216948,0.256578,-0.09010901,0.688165,0.47684807,0.54684997,-0.6821828,0.16856007,0.7114873,0.24709426,-0.86267227,0.4412947,,-0.017067835,0.40247738,-0.33350816,-0.07309955,-0.73401403,-0.6751888,0.9414226,-0.2742583,0.19622937,-0.32921124,-0.62129366,0.71106553,,1.1924980740405033,0.5299802662265312,0.20062550701,0.2910496415565198,0.29978048048537637,1.1622203819908141,-0.4011730264257898,,-0.7888385494376625,-0.19168595267112656,0.21118897422000002,-2.2940079817206964,-0.968206237337911,0.024504185436336146,0.8748708182151996,,-0.06821183049106838,-0.050775991263645036,0.08427136484,-0.06770673936139116,,0.000109918416,7.1525574e-06,-1.0848045e-05,1.0,-7.069111e-05,-6.3210726e-05,7.068366e-05,1.0,-8.6426735e-06,6.3210726e-05,8.583069e-06,0.99999994,581,1.817,0,1,0.105,False,-0.25588632848275505,1.0501909101696396
1.8224672389915213,11:16:58.226910,11:16:49.635001,0,,0.1251841,0.0074749663,0.024360165,-0.62550133,-0.5634977,-0.5396466,-0.31331173,-0.4520306,0.835167,-0.71455157,0.69147563,0.1061953,,0.04392787,-0.0023437254,0.0041891932,-0.03746077,0.75394213,0.6558718,0.2821484,-0.62164783,0.73071605,0.9586391,0.21242641,-0.18943623,,0.10502744,1.339886,0.4409049,0.99400157,0.014131976,-0.10844915,-0.06150297,-0.74773026,-0.66114813,-0.090434045,0.6638522,-0.74237585,,-0.10211524,0.25685742,-0.09033099,0.6622315,0.50348675,0.5549329,-0.7003475,0.15261471,0.6972963,0.26638854,-0.85041744,0.45368195,,-0.017071914,0.4024803,-0.3335056,-0.07308137,-0.73406535,-0.67513496,0.9414171,-0.27424365,0.1962759,-0.32923082,-0.6212395,0.7111038,,1.1933475746566682,0.5299416525621601,0.20044273012000002,0.2589670802033876,0.3219155934473777,1.1429455004898854,-0.40068299422738707,,-0.788853994903411,-0.1916705072053781,0.21118897422000002,-2.2940079817206964,-0.968206237337911,0.02442250669619561,0.8750341622813338,,-0.06821183049106838,-0.050775991263645036,0.08427136484,-0.06770673936139116,,0.000109918416,7.1525574e-06,-1.0848045e-05,1.0,-7.069111e-05,-6.3210726e-05,7.068366e-05,1.0,-8.6426735e-06,6.3210726e-05,8.583069e-06,0.99999994,590,1.846,0,1,0.105,False,-0.2555288621716292,1.0498529487641832
1.8577926669968292,11:16:58.255050,11:16:49.792382,0,,0.12515843,0.0075121894,0.024560556,-0.6075776,-0.5811603,-0.5413893,-0.31197682,-0.45222342,0.8355622,-0.73042446,0.67656976,0.093452275,,0.0439288,-0.0023455732,0.0041897297,-0.037279688,0.75372016,0.65613717,0.28200486,-0.62197155,0.73049605,0.95868844,0.21226653,-0.18936585,,0.10502744,1.339886,0.4409049,0.99400157,0.014131976,-0.10844915,-0.06150297,-0.74773026,-0.66114813,-0.090434045,0.6638522,-0.74237585,,-0.102101825,0.2570216,-0.090453744,0.64544165,0.5220836,0.55752474,-0.7105973,0.14276507,0.68896276,0.28010106,-0.8408608,0.4631377,,-0.017072786,0.40247956,-0.33350742,-0.07325785,-0.7338105,-0.6753928,0.9413532,-0.27453512,0.1961751,-0.3293744,-0.6214118,0.7108867,,1.1937337113003794,0.5298567025005436,0.20035328611000003,0.2392562255158423,0.3374921544206379,1.1284469271854012,-0.3990495535660443,,-0.788853994903411,-0.1916705072053781,0.21118897422000002,-2.2935886018337275,-0.968206237337911,0.02442250669619561,0.8750341622813338,,-0.0682052855063734,-0.050775991263645036,0.08427136484,-0.06770673936139116,,0.000109918416,7.1525574e-06,-1.0848045e-05,1.0,-7.069111e-05,-6.3210726e-05,7.068366e-05,1.0,-8.6426735e-06,6.3210726e-05,8.583069e-06,0.99999994,594,1.858,0,1,0.105,False,-0.2561246393568388,1.049708108161845
1.885934987978544,11:16:58.276767,11:16:49.792382,0,,0.12505631,0.007540874,0.024814472,-0.5811877,-0.6013564,-0.54826224,-0.31557697,-0.4544562,0.8329949,-0.750088,0.65714526,0.07435015,,0.043931093,-0.0023435764,0.0041912794,-0.037291586,0.753717,0.6561402,0.28199366,-0.62197465,0.7304977,0.95869124,0.21226877,-0.18934897,,0.10502744,1.339886,0.4409049,0.99400157,0.014131976,-0.10844915,-0.06150297,-0.74773026,-0.66114813,-0.090434045,0.6638522,-0.74237585,,-0.10201595,0.25721776,-0.09062658,0.62031806,0.54344827,0.56557,-0.72724617,0.12840915,0.6742582,0.2938001,-0.82956314,0.4748752,,-0.01707533,0.4024817,-0.33350667,-0.07324565,-0.7338073,-0.6753976,0.94135034,-0.27453473,0.19618933,-0.32938525,-0.6214157,0.71087825,,1.1943515299303173,0.5296327432471911,0.20021069421,0.2073833541061946,0.35429844389178705,1.109596764401886,-0.40002961796284975,,-0.7888694403691594,-0.19166278447250387,0.21118897422000002,-2.2935886018337275,-0.968206237337911,0.02442250669619561,0.8750341622813338,,-0.0682052855063734,-0.050775991263645036,0.08427136484,-0.06770673936139116,,0.000109918416,7.1525574e-06,-1.0848045e-05,1.0,-7.069111e-05,-6.3210726e-05,7.068366e-05,1.0,-8.6426735e-06,6.3210726e-05,8.583069e-06,0.99999994,603,1.887,0,1,0.105,False,-0.25535012901606535,1.049370146756389
1.9076512500178069,11:16:58.303777,11:16:49.792382,0,,0.12499039,0.0075502694,0.024975061,-0.5640409,-0.6165387,-0.54930687,-0.31578434,-0.4536063,0.8333795,-0.76297975,0.64352256,0.061159194,,0.043916743,-0.0023450665,0.0041894913,-0.037302382,0.75373346,0.6561206,0.2820018,-0.6219518,0.73051393,0.95868844,0.2122771,-0.18935394,,0.10502744,1.339886,0.4409049,0.99400157,0.014131976,-0.10844915,-0.06150297,-0.74773026,-0.66114813,-0.090434045,0.6638522,-0.74237585,,-0.10196054,0.25733542,-0.09074192,0.60406214,0.5595161,0.56749505,-0.7365801,0.12013616,0.6655953,0.3042346,-0.8200665,0.48469812,,-0.017060816,0.40248105,-0.333507,-0.07323512,-0.73382586,-0.67537856,0.941354,-0.27451664,0.19619699,-0.32937708,-0.6214018,0.71089417,,1.1947144983754059,0.5293933385280901,0.20012902794,0.18872094913607193,0.3661858193713804,1.0949210036317227,-0.4010096823596554,,-0.7888617176362852,-0.1916705072053781,0.21118897422000002,-2.2935886018337275,-0.968206237337911,0.024340827956054967,0.8751975063474682,,-0.06818565055228848,-0.050775991263645036,0.08427136484,-0.06770673936139116,,0.000109918416,7.1525574e-06,-1.0848045e-05,1.0,-7.069111e-05,-6.3210726e-05,7.068366e-05,1.0,-8.6426735e-06,6.3210726e-05,8.583069e-06,0.99999994,616,1.928,0,1,0.105,False,-0.25630337251240265,1.0499495091657423
1.9346349409897812,11:16:58.340878,11:16:49.891560,0,,0.124726094,0.007529475,0.025338516,-0.52494353,-0.6449613,-0.55539113,-0.3170425,-0.45739764,0.83082557,-0.789885,0.6122191,0.035627782,,0.043877453,-0.0023455434,0.004185438,-0.037352413,0.7536186,0.6562498,0.28200614,-0.62206644,0.7304146,0.9586852,0.21234927,-0.18928942,,0.10502744,1.339886,0.4409049,0.99400157,0.014131976,-0.10844915,-0.06150297,-0.74773026,-0.66114813,-0.090434045,0.6638522,-0.74237585,,-0.101721555,0.25757375,-0.09103936,0.56680936,0.5898271,0.57517916,-0.75674504,0.09675953,0.64650947,0.32567477,-0.8017116,0.501193,,-0.017021354,0.40248194,-0.33350542,-0.07318535,-0.73371214,-0.67550755,0.9413596,-0.27451184,0.19617684,-0.32937214,-0.6215382,0.71077716,,1.1959501356352817,0.5285129469804285,0.19991514009000003,0.14426668111735275,0.39201011782704864,1.0670020056612919,-0.3997029298305812,,-0.7888617176362852,-0.19167822993825234,0.21119027051000003,-2.2935886018337275,-0.968206237337911,0.024340827956054967,0.8751975063474682,,-0.06796966605735417,-0.050775991263645036,0.08427136484,-0.06770673936139116,,0.000109918416,7.1525574e-06,-1.0848045e-05,1.0,-7.069111e-05,-6.3210726e-05,7.068366e-05,1.0,-8.6426735e-06,6.3210726e-05,8.583069e-06,0.99999994,625,1.956,0,1,0.105,False,-0.25576717304571295,1.0497563883626244
1.9717626849887893,11:16:58.367257,11:16:49.891560,0,,0.124402456,0.0074982867,0.025599733,-0.49538994,-0.66547126,-0.5583341,-0.31732213,-0.459693,0.82945085,-0.80863804,0.5880734,0.016558558,,0.043882545,-0.0023412667,0.004187405,-0.03737624,0.75355846,0.6563174,0.28198385,-0.6221324,0.7303671,0.9586909,0.2123693,-0.18923834,,0.10502744,1.339886,0.4409049,0.99400157,0.014131976,-0.10844915,-0.06150297,-0.74773026,-0.66114813,-0.090434045,0.6638522,-0.74237585,,-0.101416916,0.25773638,-0.091273256,0.5385644,0.6118152,0.5793363,-0.77041817,0.0791549,0.632606,0.3411807,-0.7870303,0.51398355,,-0.017026851,0.40248543,-0.33350304,-0.07316094,-0.7336506,-0.675577,0.9413539,-0.27452707,0.19618286,-0.32939386,-0.6216041,0.7107095,,1.1973865639498875,0.5274703780424083,0.1997323632,0.11050660021634434,0.4112758642939757,1.0441860308478677,-0.4011730264257898,,-0.7888926085677821,-0.19166278447250387,0.2111915668,-2.2935886018337275,-0.968206237337911,0.024422506696195556,0.8753608504136026,,-0.06796966605735417,-0.050775991263645036,0.08427136484,-0.06770673936139116,,0.000109918416,7.1525574e-06,-1.0848045e-05,1.0,-7.069111e-05,-6.3210726e-05,7.068366e-05,1.0,-8.6426735e-06,6.3210726e-05,8.583069e-06,0.99999994,638,1.997,0,1,0.105,False,-0.2550522404234603,1.0497563883626244
1.9981433320208453,11:16:58.410757,11:16:49.891560,0,,0.12387852,0.007416822,0.025932834,-0.46305624,-0.68692464,-0.5601014,-0.31275702,-0.46464676,0.828424,-0.8293141,0.5587825,0.0003170967,,0.04389099,-0.0023411922,0.0041912794,-0.037413627,0.75353944,0.6563371,0.2819771,-0.62214583,0.7303583,0.9586914,0.21239735,-0.18920411,,0.10502744,1.339886,0.4409049,0.99400157,0.014131976,-0.10844915,-0.06150297,-0.74773026,-0.66114813,-0.090434045,0.6638522,-0.74237585,,-0.10091867,0.25791588,-0.091607355,0.5078112,0.63500905,0.58214366,-0.7819161,0.056126285,0.62085193,0.36157304,-0.77046305,0.52502537,,-0.01703563,0.40248767,-0.33350518,-0.073123455,-0.7336337,-0.6755994,0.94135463,-0.27451006,0.19620316,-0.32940006,-0.62163156,0.71068263,,1.199780611140897,0.5257250404128335,0.19947180891000002,0.07464961988049067,0.43655361675058224,1.020551605278829,-0.4003563060951183,,-0.7889389449650275,-0.1916705072053781,0.2111915668,-2.2935886018337275,-0.968206237337911,0.024422506696195556,0.8753608504136026,,-0.06796966605735417,-0.050775991263645036,0.08427136484,-0.06770673936139116,,0.000109918416,7.1525574e-06,-1.0848045e-05,1.0,-7.069111e-05,-6.3210726e-05,7.068366e-05,1.0,-8.6426735e-06,6.3210726e-05,8.583069e-06,0.99999994,647,2.026,0,1,0.105,False,-0.25481392954937654,1.049418426957168
2.041599778982345,11:16:58.436944,11:16:49.982296,0,,0.123605706,0.007342294,0.02608867,-0.45138052,-0.6979329,-0.55600846,-0.3085402,-0.4625916,0.8311508,-0.8372923,0.5467162,-0.00653556,,0.04389233,-0.0023408942,0.0041919947,-0.037419803,0.7535903,0.6562784,0.2819748,-0.62208825,0.73040825,0.95869184,0.21238571,-0.1892151,,0.10502744,1.339886,0.4409049,0.99400157,0.014131976,-0.10844915,-0.06150297,-0.74773026,-0.66114813,-0.090434045,0.6638522,-0.74237585,,-0.10065898,0.25797385,-0.09179031,0.4968129,0.6468449,0.5785919,-0.78453416,0.049693767,0.61809117,0.37105674,-0.76100075,0.53216046,,-0.017037045,0.40248823,-0.33350533,-0.07311724,-0.7336864,-0.67554283,0.9413544,-0.27449185,0.19622989,-0.3294022,-0.62157744,0.710729,,1.2010316938665215,0.5247288078720586,0.19932662443000002,0.06227791321490373,0.4483043557304101,1.0067223710736275,-0.40166305862419294,,-0.7889466676979017,-0.1916705072053781,0.2111915668,-2.2935886018337275,-0.968206237337911,0.024340827956054967,0.8751975063474682,,-0.06796966605735417,-0.050775991263645036,0.08427136484,-0.06770673936139116,,0.000109918416,7.1525574e-06,-1.0848045e-05,1.0,-7.069111e-05,-6.3210726e-05,7.068366e-05,1.0,-8.6426735e-06,6.3210726e-05,8.583069e-06,0.99999994,651,2.038,0,1,0.105,False,-0.25624379479388093,1.0497563883626244
2.067822265031282,11:16:58.462073,11:16:49.982296,0,,0.123206094,0.0072540045,0.026255205,-0.42787626,-0.7094071,-0.5600568,-0.30918017,-0.46738175,0.82822806,-0.8493111,0.5275375,-0.019353062,,0.04389233,-0.0023408942,0.0041919947,-0.037419803,0.75364393,0.65621686,0.2819748,-0.62202865,0.73045903,0.95869184,0.21237028,-0.18923241,,0.10502744,1.339886,0.4409049,0.99400157,0.014131976,-0.10844915,-0.06150297,-0.74773026,-0.66114813,-0.090434045,0.6638522,-0.74237585,,-0.10027392,0.25803208,-0.091998994,0.47414607,0.6594215,0.5833942,-0.7937454,0.033419717,0.60733134,0.38099045,-0.75103027,0.5392586,,-0.017037045,0.40248823,-0.33350533,-0.07311724,-0.7337416,-0.6754829,0.9413544,-0.2744758,0.1962523,-0.3294022,-0.6215194,0.7107797,,1.2025530722427438,0.5233232704889497,0.19916199560000003,0.03459884067494652,0.46155809620765786,0.9910957887467814,-0.4005196501612527,,-0.7889466676979017,-0.1916705072053781,0.2111915668,-2.2935886018337275,-0.968206237337911,0.024259149215914405,0.8750341622813338,,-0.06796966605735417,-0.050775991263645036,0.08427136484,-0.06770673936139116,,0.000109918416,7.1525574e-06,-1.0848045e-05,1.0,-7.069111e-05,-6.3210726e-05,7.068366e-05,1.0,-8.6426735e-06,6.3210726e-05,8.583069e-06,0.99999994,660,2.067,0,1,0.105,False,-0.2552309735790237,1.0499977893665218
2.092959899979178,11:16:58.483963,11:16:49.982296,0,,0.12299168,0.0071497113,0.026345208,-0.41928092,-0.7166159,-0.55737346,-0.30691063,-0.46591365,0.82989764,-0.8544059,0.5190241,-0.024588406,,0.04389272,-0.0023423843,0.0041918755,-0.03742021,0.7535344,0.65634257,0.28198147,-0.62214893,0.73035395,0.9586898,0.21240649,-0.1892018,,0.10502744,1.339886,0.4409049,0.99400157,0.014131976,-0.10844915,-0.06150297,-0.74773026,-0.66114813,-0.090434045,0.6638522,-0.74237585,,-0.10006898,0.25802204,-0.09215017,0.46597427,0.66721624,0.5811114,-0.79575497,0.02888093,0.6049297,0.38683587,-0.74430394,0.5443984,,-0.01703733,0.4024872,-0.33350644,-0.073117025,-0.73362935,-0.6756048,0.9413567,-0.27450392,0.19620186,-0.32939562,-0.62163943,0.7106778,,1.203348513728789,0.5223579288796716,0.19904014434000003,0.02516279321814292,0.4692097401945225,0.9810174853531755,-0.3997029298305814,,-0.7889466676979017,-0.19167822993825234,0.2111915668,-2.2935886018337275,-0.968206237337911,0.02442250669619561,0.8750341622813338,,-0.06796966605735417,-0.050775991263645036,0.08427136484,-0.06770673936139116,,0.000109918416,7.1525574e-06,-1.0848045e-05,1.0,-7.069111e-05,-6.3210726e-05,7.068366e-05,1.0,-8.6426735e-06,6.3210726e-05,8.583069e-06,0.99999994,673,2.108,0,1,0.105,False,-0.2552309735790237,1.0499495091657423
2.1148316130274907,11:16:58.522445,11:16:50.078014,0,,0.12265925,0.006956637,0.026516527,-0.396254,-0.7293293,-0.557729,-0.30484864,-0.4684821,0.8292114,-0.8660543,0.49860123,-0.03669718,,0.043891378,-0.0023426376,0.00419116,-0.037414048,0.7535371,0.65633976,0.28198367,-0.62214684,0.7303549,0.95868945,0.21240267,-0.18920818,,0.10502744,1.339886,0.4409049,0.99400157,0.014131976,-0.10844915,-0.06150297,-0.74773026,-0.66114813,-0.090434045,0.6638522,-0.74237585,,-0.099754214,0.2580051,-0.092429034,0.44383577,0.68117404,0.58224714,-0.8027228,0.013418914,0.5962013,0.39830372,-0.7319985,0.55274975,,-0.017035915,0.40248662,-0.33350626,-0.07312323,-0.73363185,-0.6756014,0.94135696,-0.2745061,0.19619755,-0.32939348,-0.6216355,0.7106822,,1.2042520734750732,0.5207129867774618,0.19882107133000002,-0.0006290698304535731,0.484239755168721,0.9631256828768702,-0.3982328332353726,,-0.7889389449650275,-0.19167822993825234,0.2111915668,-2.2935886018337275,-0.968206237337911,0.02442250669619561,0.8750341622813338,,-0.06796966605735417,-0.050775991263645036,0.08427136484,-0.06770673936139116,,0.000109918416,7.1525574e-06,-1.0848045e-05,1.0,-7.069111e-05,-6.3210726e-05,7.068366e-05,1.0,-8.6426735e-06,6.3210726e-05,8.583069e-06,0.99999994,682,2.136,0,1,0.105,False,-0.2561246393568388,1.049804668563404
2.1532966869999655,11:16:58.549394,11:16:50.078014,0,,0.12252588,0.0067945197,0.02654235,-0.38763458,-0.73342025,-0.55842125,-0.30516133,-0.46953008,0.82850343,-0.86983675,0.49156505,-0.041805387,,0.043894455,-0.002343621,0.0041923523,-0.03742679,0.7535829,0.65628654,0.28198594,-0.62209237,0.73040044,0.95868826,0.21240012,-0.18921685,,0.10502744,1.339886,0.4409049,0.99400157,0.014131976,-0.10844915,-0.06150297,-0.74773026,-0.66114813,-0.090434045,0.6638522,-0.74237585,,-0.0996275,0.2579071,-0.092567146,0.4354799,0.68568987,0.58325523,-0.80573285,0.007965356,0.5922256,0.40143725,-0.72785026,0.5559516,,-0.017039033,0.40248668,-0.33350772,-0.07311059,-0.7336802,-0.67555034,0.94135875,-0.27448174,0.196223,-0.32939115,-0.62158924,0.71072376,,1.2043370235366897,0.51968586330519,0.19870829410000002,-0.010484497174226219,0.48902203266051136,0.9567756940432786,-0.39888620949990994,,-0.7889543904307759,-0.19168595267112656,0.2111915668,-2.2935886018337275,-0.968206237337911,0.024340827956054967,0.8751975063474682,,-0.06796966605735417,-0.050775991263645036,0.08427136484,-0.06770673936139116,,0.000109918416,7.1525574e-06,-1.0848045e-05,1.0,-7.069111e-05,-6.3210726e-05,7.068366e-05,1.0,-8.6426735e-06,6.3210726e-05,8.583069e-06,0.99999994,695,2.177,0,1,0.105,False,-0.25546928445310746,1.0498529487641832
2.1802687909803353,11:16:58.594487,11:16:50.078014,0,,0.12244333,0.0066244826,0.02658908,-0.3745871,-0.7400293,-0.5586066,-0.30243784,-0.47199824,0.8280995,-0.8764792,0.47913912,-0.047008425,,0.04389233,-0.0023408942,0.0041919947,-0.037419803,0.7535903,0.6562784,0.2819748,-0.62208825,0.73040825,0.95869184,0.21238571,-0.1892151,,0.10502744,1.339886,0.4409049,0.99400157,0.014131976,-0.10844915,-0.06150297,-0.74773026,-0.66114813,-0.090434045,0.6638522,-0.74237585,,-0.099553086,0.25781628,-0.09272246,0.42298272,0.6930333,0.58377266,-0.80857015,-0.0021330486,0.58839595,0.4090232,-0.72090244,0.55946374,,-0.017037045,0.40248823,-0.33350533,-0.07311724,-0.7336864,-0.67554283,0.9413544,-0.27449185,0.19622989,-0.3294022,-0.62157744,0.710729,,1.2040590051532176,0.5186124034356727,0.19859940574,-0.023904653557235776,0.49885986064362303,0.9483452112764335,-0.3997029298305814,,-0.7889466676979017,-0.1916705072053781,0.2111915668,-2.2935886018337275,-0.968206237337911,0.024340827956054967,0.8751975063474682,,-0.06796966605735417,-0.050775991263645036,0.08427136484,-0.06770673936139116,,0.000109918416,7.1525574e-06,-1.0848045e-05,1.0,-7.069111e-05,-6.3210726e-05,7.068366e-05,1.0,-8.6426735e-06,6.3210726e-05,8.583069e-06,0.99999994,708,2.218,0,1,0.105,False,-0.25540970673458663,1.0499977893665218
2.2253581440309063,11:16:58.629036,11:16:50.160130,0,,0.12238784,0.006534964,0.026607439,-0.35928494,-0.74650395,-0.56004137,-0.30206177,-0.47478393,0.826643,-0.8829909,0.46616745,-0.05490759,,0.043891493,-0.002340939,0.004190147,-0.037413627,0.753593,0.6562755,0.2819771,-0.62208617,0.73040915,0.9586914,0.21238193,-0.18922149,,0.10502744,1.339886,0.4409049,0.99400157,0.014131976,-0.10844915,-0.06150297,-0.74773026,-0.66114813,-0.090434045,0.6638522,-0.74237585,,-0.09950149,0.25776452,-0.092800505,0.40816146,0.70026976,0.58568466,-0.81309325,-0.012838453,0.58199185,0.41507056,-0.7137629,0.56414443,,-0.017036034,0.40248683,-0.3335043,-0.073123455,-0.7336889,-0.67553943,0.94135463,-0.27449402,0.19622557,-0.32940006,-0.6215735,0.7107334,,1.203696036708129,0.5178941892783698,0.19855792446,-0.04067984903599772,0.5067847776300186,0.9384524657761374,-0.3997029298305814,,-0.7889389449650275,-0.1916705072053781,0.21119286309000002,-2.2935886018337275,-0.968206237337911,0.024340827956055022,0.875524194479737,,-0.06796966605735417,-0.050775991263645036,0.08427136484,-0.06770673936139116,,0.000109918416,7.1525574e-06,-1.0848045e-05,1.0,-7.069111e-05,-6.3210726e-05,7.068366e-05,1.0,-8.6426735e-06,6.3210726e-05,8.583069e-06,0.99999994,717,2.247,0,1,0.105,False,-0.25540970673458663,1.05014262996886
2.2599184620194137,11:16:58.659290,11:16:50.160130,0,,0.12235748,0.0064967275,0.02660717,-0.35175952,-0.75077343,-0.5591105,-0.3034203,-0.47358984,0.82683045,-0.88555145,0.46049094,-0.061210155,,0.043890547,-0.0023426674,0.0041893125,-0.037407886,0.7534863,0.6563985,0.28198597,-0.6222044,0.73030496,0.958689,0.21241435,-0.18919727,,0.10502744,1.339886,0.4409049,0.99400157,0.014131976,-0.10844915,-0.06150297,-0.74773026,-0.66114813,-0.090434045,0.6638522,-0.74237585,,-0.09947228,0.25773704,-0.09282834,0.40078628,0.7049374,0.58517826,-0.8160122,-0.01572013,0.57782084,0.41652662,-0.7090953,0.5689371,,-0.017034905,0.40248522,-0.3335052,-0.073129445,-0.73357916,-0.6756579,0.94135725,-0.27452427,0.19617082,-0.32939133,-0.6216896,0.7106359,,1.2035184138520219,0.5176007254291494,0.19854107269000001,-0.04948682666234775,0.5089709616262656,0.9305438738064525,-0.39953958576444704,,-0.7889312222321533,-0.19167822993825234,0.21119286309000002,-2.2935886018337275,-0.968206237337911,0.0245041854363362,0.8751975063474682,,-0.06796966605735417,-0.050775991263645036,0.08427136484,-0.06770673936139116,,0.000109918416,7.1525574e-06,-1.0848045e-05,1.0,-7.069111e-05,-6.3210726e-05,7.068366e-05,1.0,-8.6426735e-06,6.3210726e-05,8.583069e-06,0.99999994,730,2.288,0,1,0.105,False,-0.2561246393568388,1.0502391903704191
2.2901753549813293,11:16:58.701035,11:16:50.160130,0,,0.1223459,0.006495245,0.026640922,-0.34300682,-0.75540805,-0.55830544,-0.30314213,-0.47354105,0.82696044,-0.88907313,0.45289892,-0.066568255,,0.043890547,-0.0023426674,0.0041893125,-0.037407886,0.7535935,0.65627545,0.28198597,-0.62208515,0.7304065,0.958689,0.21238342,-0.18923193,,0.10502744,1.339886,0.4409049,0.99400157,0.014131976,-0.10844915,-0.06150297,-0.74773026,-0.66114813,-0.090434045,0.6638522,-0.74237585,,-0.099463,0.25775918,-0.09285478,0.392297,0.7100634,0.58473325,-0.8184152,-0.020734755,0.574253,0.41988036,-0.7038324,0.57299256,,-0.017034905,0.40248522,-0.3335052,-0.073129445,-0.73368955,-0.6755381,0.94135725,-0.27449223,0.19621566,-0.32939133,-0.6215735,0.7107374,,1.203356236461663,0.5175080526346586,0.19853070237,-0.05913256406263587,0.5130700566192289,0.9227906847279695,-0.40084633829352123,,-0.7889312222321533,-0.19167822993825234,0.21119286309000002,-2.2935886018337275,-0.968206237337911,0.024340827956054967,0.8751975063474682,,-0.06796966605735417,-0.050775991263645036,0.08427136484,-0.06770673936139116,,0.000109918416,7.1525574e-06,-1.0848045e-05,1.0,-7.069111e-05,-6.3210726e-05,7.068366e-05,1.0,-8.6426735e-06,6.3210726e-05,8.583069e-06,0.99999994,739,2.317,0,1,0.105,False,-0.2552905512975445,1.0491287457524916
2.331916725030169,11:16:58.727961,11:16:50.160130,0,,0.12234466,0.006502375,0.026658311,-0.3401048,-0.7569098,-0.558047,-0.30284452,-0.47364962,0.8270073,-0.8902886,0.45027056,-0.06813544,,0.043889206,-0.0023429357,0.004188597,-0.037401717,0.75364995,0.65621096,0.28198817,-0.6220234,0.73045826,0.95868856,0.2123642,-0.18925565,,0.10502744,1.339886,0.4409049,0.99400157,0.014131976,-0.10844915,-0.06150297,-0.74773026,-0.66114813,-0.090434045,0.6638522,-0.74237585,,-0.09946271,0.25777626,-0.09286273,0.38949132,0.7117319,0.58458036,-0.819094,-0.022565281,0.57321537,0.42116687,-0.70208865,0.5741863,,-0.01703349,0.40248466,-0.33350503,-0.07313566,-0.73374724,-0.67547476,0.9413575,-0.27447838,0.19623376,-0.3293892,-0.6215116,0.7107926,,1.203317622797292,0.5175234981004071,0.19852810979000002,-0.06227791321490373,0.5145730581166488,0.9203399066852004,-0.39937624169831265,,-0.788923499499279,-0.19167822993825234,0.21119286309000002,-2.2935886018337275,-0.968206237337911,0.024259149215914433,0.8753608504136026,,-0.06796966605735417,-0.050775991263645036,0.08427136484,-0.06770673936139116,,0.000109918416,7.1525574e-06,-1.0848045e-05,1.0,-7.069111e-05,-6.3210726e-05,7.068366e-05,1.0,-8.6426735e-06,6.3210726e-05,8.583069e-06,0.99999994,752,2.358,0,1,0.105,False,-0.25576717304571295,1.0501909101696396
2.35880707699107,11:16:58.779478,11:16:50.319469,0,,0.12230323,0.0065235645,0.02669169,-0.32970953,-0.7628554,-0.55618644,-0.30529484,-0.47132164,0.8274363,-0.89335704,0.44261444,-0.07749659,,0.043890547,-0.0023426674,0.0041893125,-0.037407886,0.75364715,0.65621376,0.28198597,-0.62202543,0.7304574,0.958689,0.21236798,-0.18924928,,0.10502744,1.339886,0.4409049,0.99400157,0.014131976,-0.10844915,-0.06150297,-0.74773026,-0.66114813,-0.090434045,0.6638522,-0.74237585,,-0.099423,0.2578155,-0.0928755,0.37925634,0.7182344,0.5833558,-0.8232279,-0.025921583,0.567119,0.4224459,-0.6953182,0.5814397,,-0.017034905,0.40248522,-0.3335052,-0.073129445,-0.73374474,-0.67547816,0.94135725,-0.2744762,0.19623809,-0.32939133,-0.62151545,0.7107882,,1.2032944545986692,0.5175389435661555,0.19852033205000003,-0.07485930982397519,0.5163493326135995,0.9083549164590143,-0.3998662738967156,,-0.7889312222321533,-0.19167822993825234,0.21119286309000002,-2.2935886018337275,-0.968206237337911,0.024259149215914433,0.8753608504136026,,-0.06796966605735417,-0.050775991263645036,0.08427136484,-0.06770673936139116,,0.000109918416,7.1525574e-06,-1.0848045e-05,1.0,-7.069111e-05,-6.3210726e-05,7.068366e-05,1.0,-8.6426735e-06,6.3210726e-05,8.583069e-06,0.99999994,765,2.399,0,1,0.105,False,-0.25636295023092304,1.05014262996886
2.410356268985197,11:16:58.812048,11:16:50.319469,0,,0.12223775,0.0065636486,0.026773468,-0.31169125,-0.7691773,-0.55786633,-0.3056228,-0.47475877,0.82534754,-0.89969057,0.4277502,-0.0871,,0.043889206,-0.0023429357,0.004188597,-0.037401717,0.75364995,0.65621096,0.28198817,-0.6220234,0.73045826,0.95868856,0.2123642,-0.18925565,,0.10502744,1.339886,0.4409049,0.99400157,0.014131976,-0.10844915,-0.06150297,-0.74773026,-0.66114813,-0.090434045,0.6638522,-0.74237585,,-0.09936195,0.25790206,-0.0929124,0.36169422,0.7254252,0.585607,-0.82821167,-0.038395006,0.5590986,0.4280686,-0.6872293,0.58691835,,-0.01703349,0.40248466,-0.33350503,-0.07313566,-0.73374724,-0.67547476,0.9413575,-0.27447838,0.19623376,-0.3293892,-0.6215116,0.7107926,,1.2032790091329209,0.5175157753675328,0.19850736915000003,-0.09540892428545858,0.5231811576018714,0.8962497220629483,-0.4005196501612527,,-0.788923499499279,-0.19167822993825234,0.21119286309000002,-2.2935886018337275,-0.968206237337911,0.024259149215914433,0.8753608504136026,,-0.06796966605735417,-0.050775991263645036,0.08427136484,-0.06770673936139116,,0.000109918416,7.1525574e-06,-1.0848045e-05,1.0,-7.069111e-05,-6.3210726e-05,7.068366e-05,1.0,-8.6426735e-06,6.3210726e-05,8.583069e-06,0.99999994,778,2.44,0,1,0.105,False,-0.2551713958605024,1.049708108161845
2.4429030820028856,11:16:58.850825,11:16:50.319469,0,,0.12219611,0.0065969154,0.026860341,-0.2989094,-0.7749039,-0.55693567,-0.3026351,-0.47651604,0.8254358,-0.90502214,0.4152788,-0.09207797,,0.04388881,-0.0023414455,0.004188776,-0.03740131,0.7536523,0.6562083,0.28198156,-0.6220224,0.7304617,0.9586905,0.21235886,-0.18925157,,0.10502744,1.339886,0.4409049,0.99400157,0.014131976,-0.10844915,-0.06150297,-0.74773026,-0.66114813,-0.090434045,0.6638522,-0.74237585,,-0.09932522,0.25798652,-0.092956044,0.34938282,0.7319116,0.58501035,-0.8299574,-0.048024792,0.5557556,0.43485895,-0.67970514,0.5906764,,-0.017033203,0.40248573,-0.33350393,-0.073135875,-0.7337491,-0.67547274,0.94135517,-0.27448234,0.19623937,-0.3293958,-0.6215076,0.710793,,1.2033021773315435,0.5174926071689102,0.19849310996000002,-0.10903877061195266,0.531106074588267,0.8865203340429335,-0.3998662738967158,,-0.788923499499279,-0.1916705072053781,0.21119286309000002,-2.2935886018337275,-0.968206237337911,0.024259149215914433,0.8753608504136026,,-0.06796966605735417,-0.050775991263645036,0.08427136484,-0.06770673936139116,,0.000109918416,7.1525574e-06,-1.0848045e-05,1.0,-7.069111e-05,-6.3210726e-05,7.068366e-05,1.0,-8.6426735e-06,6.3210726e-05,8.583069e-06,0.99999994,787,2.468,0,1,0.105,False,-0.2550522404234603,1.049804668563404
2.48170778399799,11:16:58.880989,11:16:50.319469,0,,0.12211185,0.0066210106,0.026962474,-0.28193897,-0.78281534,-0.55471677,-0.30333522,-0.47578555,0.82560015,-0.9102186,0.40103394,-0.103313,,0.043889206,-0.0023429357,0.004188597,-0.037401717,0.75364995,0.65621096,0.28198817,-0.6220234,0.73045826,0.95868856,0.2123642,-0.18925565,,0.10502744,1.339886,0.4409049,0.99400157,0.014131976,-0.10844915,-0.06150297,-0.74773026,-0.66114813,-0.090434045,0.6638522,-0.74237585,,-0.09924725,0.25807568,-0.093019955,0.3327801,0.74076515,0.58354473,-0.83441526,-0.056984514,0.54818237,0.4393274,-0.6693428,0.59914243,,-0.01703349,0.40248466,-0.33350503,-0.07313566,-0.73374724,-0.67547476,0.9413575,-0.27447838,0.19623376,-0.3293892,-0.6215116,0.7107926,,1.20338712739316,0.5175003299017844,0.19844773981000002,-0.12874962529949796,0.5365715345788846,0.870056843094414,-0.3980694891692387,,-0.788923499499279,-0.19167822993825234,0.21119286309000002,-2.2935886018337275,-0.968206237337911,0.024259149215914433,0.8753608504136026,,-0.06796966605735417,-0.050775991263645036,0.08427136484,-0.06770673936139116,,0.000109918416,7.1525574e-06,-1.0848045e-05,1.0,-7.069111e-05,-6.3210726e-05,7.068366e-05,1.0,-8.6426735e-06,6.3210726e-05,8.583069e-06,0.99999994,800,2.509,0,1,0.105,False,-0.25558843989015,1.049804668563404
2.5117864130297676,11:16:58.927355,11:16:50.446888,0,,0.121989235,0.0066446885,0.027097955,-0.26085344,-0.7930433,-0.5504888,-0.3045404,-0.47351453,0.8264617,-0.91608435,0.3832314,-0.11799583,,0.043889597,-0.0023444258,0.0041884184,-0.037402134,0.75364757,0.65621364,0.28199488,-0.6220244,0.7304548,0.9586866,0.21236953,-0.18925977,,0.10502744,1.339886,0.4409049,0.99400157,0.014131976,-0.10844915,-0.06150297,-0.74773026,-0.66114813,-0.090434045,0.6638522,-0.74237585,,-0.09913324,0.25818813,-0.09311107,0.31210282,0.7522081,0.58032304,-0.8397979,-0.067178525,0.53872675,0.44421986,-0.6554922,0.6107362,,-0.017033774,0.4024836,-0.33350614,-0.073135436,-0.7337454,-0.67547685,0.9413598,-0.2744744,0.19622816,-0.32938263,-0.6215155,0.71079224,,1.2035724729821413,0.5175157753675328,0.19837644386000003,-0.15349303863067185,0.5425835405685641,0.8477568836818316,-0.398396177301507,,-0.788923499499279,-0.19168595267112656,0.21119286309000002,-2.2935886018337275,-0.968206237337911,0.024259149215914433,0.8753608504136026,,-0.06796966605735417,-0.050775991263645036,0.08427136484,-0.06770673936139116,,0.000109918416,7.1525574e-06,-1.0848045e-05,1.0,-7.069111e-05,-6.3210726e-05,7.068366e-05,1.0,-8.6426735e-06,6.3210726e-05,8.583069e-06,0.99999994,809,2.538,1,2,0.131,False,-0.2561246393568388,1.049418426957168
2.5582408370100893,11:16:58.960519,11:16:50.446888,0,,0.12188952,0.0066584647,0.027189806,-0.24654491,-0.7972054,-0.55107105,-0.3056201,-0.4756527,0.8248337,-0.91968036,0.3717769,-0.12637228,,0.04388724,-0.002345156,0.0041900873,-0.037395965,0.75365037,0.65621084,0.2819971,-0.62202233,0.73045576,0.9586861,0.21236572,-0.18926615,,0.10502744,1.339886,0.4409049,0.99400157,0.014131976,-0.10844915,-0.06150297,-0.74773026,-0.66114813,-0.090434045,0.6638522,-0.74237585,,-0.09903946,0.2582631,-0.09317557,0.2980385,0.75705606,0.58141136,-0.84338105,-0.07643377,0.53185177,0.4470811,-0.6488636,0.6157065,,-0.01703155,0.40248477,-0.33350772,-0.07314165,-0.7337479,-0.67547345,0.94136006,-0.2744766,0.19622386,-0.32938048,-0.6215116,0.71079665,,1.2037732640368712,0.5175080526346586,0.19832329597,-0.1704779240529183,0.5461360895624655,0.8369371803920902,-0.39872286543377555,,-0.7889157767664048,-0.19168595267112656,0.21119027051000003,-2.2935886018337275,-0.968206237337911,0.024259149215914433,0.8753608504136026,,-0.06796966605735417,-0.050775991263645036,0.08427136484,-0.06770673936139116,,0.000109918416,7.1525574e-06,-1.0848045e-05,1.0,-7.069111e-05,-6.3210726e-05,7.068366e-05,1.0,-8.6426735e-06,6.3210726e-05,8.583069e-06,0.99999994,818,2.567,1,2,0.16,False,-0.25588632848275505,1.0497563883626244
2.5913949179812334,11:16:58.985077,11:16:50.542295,0,,0.12176551,0.0066884905,0.027333453,-0.23117839,-0.8019239,-0.5508854,-0.30291203,-0.47875363,0.82403827,-0.92455435,0.35736963,-0.13223493,,0.043885898,-0.002345454,0.004189372,-0.03738981,0.7536531,0.656208,0.28199938,-0.62202024,0.73045665,0.95868576,0.21236187,-0.18927255,,0.10502744,1.339886,0.4409049,0.99400157,0.014131976,-0.10844915,-0.06150297,-0.74773026,-0.66114813,-0.090434045,0.6638522,-0.74237585,,-0.09892442,0.25838578,-0.09326842,0.28311095,0.7626269,0.58159125,-0.8450832,-0.088388965,0.5272777,0.4535224,-0.6407711,0.61945933,,-0.017030135,0.4024842,-0.33350757,-0.073147856,-0.7337504,-0.67547005,0.94136035,-0.2744788,0.19621953,-0.32937837,-0.62150764,0.71080106,,1.2041748461463309,0.5175003299017844,0.19825718518000002,-0.18788218936213383,0.5536510970495647,0.8257451138000721,-0.40068299422738685,,-0.7889080540335306,-0.19168595267112656,0.21119027051000003,-2.2935886018337275,-0.968206237337911,0.024259149215914433,0.8753608504136026,,-0.06796966605735417,-0.050775991263645036,0.08427136484,-0.06770673936139116,,0.000109918416,7.1525574e-06,-1.0848045e-05,1.0,-7.069111e-05,-6.3210726e-05,7.068366e-05,1.0,-8.6426735e-06,6.3210726e-05,8.583069e-06,0.99999994,831,2.608,1,2,0.201,False,-0.25642252794944387,1.0498529487641832
2.615945862024091,11:16:59.022434,11:16:50.542295,0,,0.12162851,0.006714992,0.027465,-0.21892446,-0.80708766,-0.5483445,-0.30259657,-0.47811246,0.82452625,-0.9276353,0.34643608,-0.13955149,,0.043883484,-0.0023435466,0.0041887164,-0.037572697,0.7538709,0.6559474,0.28214297,-0.6217008,0.73067313,0.95863634,0.2125243,-0.18934038,,0.10502744,1.339886,0.4409049,0.99400157,0.014131976,-0.10844915,-0.06150297,-0.74773026,-0.66114813,-0.090434045,0.6638522,-0.74237585,,-0.09879572,0.25849798,-0.093355745,0.27110144,0.7685184,0.57955456,-0.84724396,-0.09522897,0.5225984,0.45681685,-0.6327013,0.6253059,,-0.017027777,0.40248504,-0.33350566,-0.07296958,-0.7340011,-0.6752169,0.94142437,-0.27418727,0.19631976,-0.32923478,-0.6213403,0.71101385,,1.204723160180401,0.517554389031904,0.19818070407000002,-0.2025604854060505,0.5574769190429971,0.8129056424198455,-0.4018264026903271,,-0.7889080540335306,-0.19168595267112656,0.21119027051000003,-2.2940079817206964,-0.968206237337911,0.024259149215914433,0.8753608504136026,,-0.06796966605735417,-0.050775991263645036,0.08427136484,-0.06770673936139116,,0.000109918416,7.1525574e-06,-1.0848045e-05,1.0,-7.069111e-05,-6.3210726e-05,7.068366e-05,1.0,-8.6426735e-06,6.3210726e-05,8.583069e-06,0.99999994,840,2.636,1,2,0.229,False,-0.25677999426057063,1.05014262996886
2.6533135850331746,11:16:59.051401,11:16:50.542295,0,,0.12143938,0.006767608,0.027616337,-0.20037988,-0.8142996,-0.5447607,-0.3040956,-0.47688007,0.8246885,-0.931329,0.33091027,-0.15206778,,0.043884818,-0.0023432784,0.0041894317,-0.03757886,0.7538681,0.6559501,0.2821407,-0.6217029,0.73067224,0.9586368,0.21252811,-0.189334,,0.10502744,1.339886,0.4409049,0.99400157,0.014131976,-0.10844915,-0.06150297,-0.74773026,-0.66114813,-0.090434045,0.6638522,-0.74237585,,-0.098615594,0.25864404,-0.093443304,0.2528066,0.77677315,0.57681215,-0.8513034,-0.10470895,0.5141192,0.45975143,-0.6210149,0.6347985,,-0.01702919,0.4024856,-0.33350584,-0.07296337,-0.7339986,-0.6752203,0.94142413,-0.2741851,0.19632407,-0.32923692,-0.6213442,0.71100944,,1.205418206139081,0.51769339822364,0.19810033409000002,-0.22520699930237917,0.560892831537133,0.7933760530986197,-0.40068299422738707,,-0.7889157767664048,-0.19168595267112656,0.21119027051000003,-2.2940079817206964,-0.968206237337911,0.024259149215914433,0.8753608504136026,,-0.06796966605735417,-0.050775991263645036,0.08427136484,-0.06770673936139116,,0.000109918416,7.1525574e-06,-1.0848045e-05,1.0,-7.069111e-05,-6.3210726e-05,7.068366e-05,1.0,-8.6426735e-06,6.3210726e-05,8.583069e-06,0.99999994,853,2.677,1,2,0.27,False,-0.2561246393568388,1.0499977893665218
2.6822870019823313,11:16:59.093241,11:16:50.542295,0,,0.121215776,0.00684838,0.027844504,-0.18101008,-0.82067823,-0.5419617,-0.30092657,-0.47841698,0.8249607,-0.936311,0.3124169,-0.16036564,,0.043883987,-0.0023432933,0.004187584,-0.037572697,0.7538709,0.6559474,0.28214297,-0.6217008,0.73067313,0.95863634,0.2125243,-0.18934038,,0.10502744,1.339886,0.4409049,0.99400157,0.014131976,-0.10844915,-0.06150297,-0.74773026,-0.66114813,-0.090434045,0.6638522,-0.74237585,,-0.09840536,0.2588638,-0.09357016,0.23390639,0.78431445,0.57457685,-0.8528382,-0.118256435,0.5086082,0.4668562,-0.60898787,0.64123243,,-0.01702818,0.4024842,-0.33350477,-0.07296958,-0.7340011,-0.6752169,0.94142437,-0.27418727,0.19631976,-0.32923478,-0.6213403,0.71101385,,1.2064530523442272,0.5179096347441183,0.19799533460000002,-0.24827289308567685,0.568954385023294,0.7753673731608521,-0.4003563060951185,,-0.7889080540335306,-0.19168595267112656,0.2111915668,-2.2940079817206964,-0.968206237337911,0.024259149215914433,0.8753608504136026,,-0.06796966605735417,-0.050775991263645036,0.08427136484,-0.06770673936139116,,0.000109918416,7.1525574e-06,-1.0848045e-05,1.0,-7.069111e-05,-6.3210726e-05,7.068366e-05,1.0,-8.6426735e-06,6.3210726e-05,8.583069e-06,0.99999994,862,2.706,1,2,0.299,False,-0.25636295023092304,1.0499012289649627
2.7241084260167554,11:16:59.123492,11:16:50.542295,0,,0.12097947,0.0069199204,0.028035656,-0.16013967,-0.8262119,-0.54011965,-0.30154166,-0.48007765,0.8237705,-0.9399085,0.2947868,-0.17225781,,0.043883987,-0.0023432933,0.004187584,-0.037572697,0.75376374,0.6560705,0.28214297,-0.6218202,0.7305715,0.95863634,0.21255526,-0.18930568,,0.10502744,1.339886,0.4409049,0.99400157,0.014131976,-0.10844915,-0.06150297,-0.74773026,-0.66114813,-0.090434045,0.6638522,-0.74237585,,-0.09818028,0.25905192,-0.093677096,0.21331045,0.79095227,0.57349205,-0.85624075,-0.131328,0.4996046,0.47047898,-0.5976181,0.6492319,,-0.01702818,0.4024842,-0.33350477,-0.07296958,-0.7338908,-0.6753368,0.94142437,-0.27421933,0.19627497,-0.32923478,-0.62145644,0.71091235,,1.207441562152128,0.5181644849289677,0.19789422398,-0.27490351590821144,0.5731901165160227,0.75549599137801,-0.403623187417804,,-0.7889080540335306,-0.19168595267112656,0.2111915668,-2.2940079817206964,-0.968206237337911,0.02442250669619561,0.8750341622813338,,-0.06796966605735417,-0.050775991263645036,0.08427136484,-0.06770673936139116,,0.000109918416,7.1525574e-06,-1.0848045e-05,1.0,-7.069111e-05,-6.3210726e-05,7.068366e-05,1.0,-8.6426735e-06,6.3210726e-05,8.583069e-06,0.99999994,871,2.734,1,2,0.327,False,-0.2559459062012759,1.0498529487641832
