AlexandreBanks6/ExpertPlaybackApp/resources/Motions/P_05/PC1/Data_PC1_3.csv
Task Time,PC1 Time,PC2 Time,Gaze Calib,s_T_psm1,Tx,Ty,Tz,R00,R01,R02,R10,R11,R12,R20,R21,R22,s_T_psm3,Tx,Ty,Tz,R00,R01,R02,R10,R11,R12,R20,R21,R22,cart_T_ecm,Tx,Ty,Tz,R00,R01,R02,R10,R11,R12,R20,R21,R22,ecm_T_psm1,Tx,Ty,Tz,R00,R01,R02,R10,R11,R12,R20,R21,R22,ecm_T_psm3,Tx,Ty,Tz,R00,R01,R02,R10,R11,R12,R20,R21,R22,psm1_joints,q1,q2,q3,q4,q5,q6,jaw,psm3_joints,q1,q2,q3,q4,q5,q6,jaw,ecm_joints,q1,q2,q3,q4,ecmi_T_ecm,Tx,Ty,Tz,R00,R01,R02,R10,R11,R12,R20,R21,R22,Sample #,Task Duration (s),Collisions (binary),Collisions (increments),Cumulative Collision Time (s),Clutch Press,MTMR Angle,MTML Angle
""
lci_T_si,,,,,-0.05588401,0.033678196,0.22142315,0.99411887,-0.024834005,0.10540873,0.053824607,-0.7313092,-0.67991894,0.09397148,0.68159384,-0.7256715
rci_T_si,,,,,-0.06556821,0.037878036,0.23215216,0.98745227,-0.051865816,0.14915736,0.06880197,-0.7088702,-0.70197535,0.14214173,0.7034295,-0.69640696
ecm_T_lc,,,,,-4.4061628e-05,-0.00034663224,-0.01840835,-0.99912,0.030754527,0.028518902,-0.031987965,-0.99852574,-0.043852776,0.027128186,-0.04472645,0.9986309
ecm_T_rc,,,,,-0.0043358393,0.01870579,-0.007592615,-0.99555075,-0.052743673,-0.078081585,0.04863213,-0.9973746,0.053654674,-0.08070653,0.04961868,0.9955021
cart_T_ecmi,,,,,0.1049169,1.339891,0.44090196,0.9940074,0.014203176,-0.108386196,-0.061408322,-0.7477289,-0.66115844,-0.090434045,0.6638522,-0.74237585
ecmac_T_ecmrep_psm1,,,,,0.008075713,-0.26004106,-0.30289736,0.99667877,0.061445758,0.053440064,-0.058828812,0.9970531,-0.049237434,-0.056308012,0.04593009,0.9973564
ecmac_T_ecmrep_psm3,,,,,-0.012692571,-0.457308,-0.5458498,0.99509805,-0.029463936,0.094401784,0.014504567,0.9877462,0.15539348,-0.09782351,-0.1532625,0.9833317
""
0,11:15:51.760213,11:15:43.236279,0,,0.12242548,-0.00065356493,0.0108029395,-0.86244893,0.041893363,-0.5044075,-0.48711383,-0.33940047,0.80469096,-0.13748491,0.9397086,0.3131223,,0.044562884,-0.012429886,0.0011225939,-0.13046867,0.67076284,0.73010623,0.26183775,-0.6869448,0.67789954,0.9562526,0.2796141,-0.086006284,,0.10499565,1.339888,0.44090393,0.9940021,0.0141387535,-0.108443156,-0.061493963,-0.74773014,-0.66114914,-0.090434045,0.6638522,-0.74237585,,-0.0986676,0.24175036,-0.0861476,0.8554814,-0.11354794,0.50523114,-0.4295509,0.38928708,0.81482613,-0.2892018,-0.91409105,0.28425324,,-0.016789773,0.39409083,-0.3399151,0.020722853,-0.6542486,-0.7559956,0.9382586,-0.24844137,0.24072337,-0.34531352,-0.71430784,0.60870594,,1.1577843897708642,0.4800296299960471,0.20593640714000003,0.5714050959953288,-0.23802078259139725,1.4003216226349893,-0.4067267246743551,,-0.7754396079008831,-0.24589181471530838,0.21313470551000002,-2.359640934031353,-1.0877631746326715,0.1808035440719097,0.8765042588765425,,-0.06819874052167843,-0.05078253624834001,0.08427136484,-0.06770673936139116,,7.8294426e-05,4.7683716e-06,-8.106232e-06,1.0,-6.3963234e-05,-5.7190657e-05,6.3955784e-05,1.0,-7.8082085e-06,5.7190657e-05,7.8082085e-06,1.0,35,0.107,1,1,0.082,False,-0.25451604095677105,1.0508668329805522
0.12698841898236424,11:15:51.792256,11:15:43.332523,0,,0.1223322,-0.0008195862,0.011205912,-0.8625705,0.03722426,-0.50456566,-0.48548478,-0.34158596,0.8047506,-0.14239633,0.9391131,0.31271374,,0.04457279,-0.012427844,0.0011261106,-0.13051197,0.6706795,0.7301751,0.26182342,-0.6870145,0.67783433,0.95625067,0.27964246,-0.08593604,,0.10499565,1.339888,0.44090393,0.9940021,0.0141387535,-0.108443156,-0.061493963,-0.74773014,-0.66114914,-0.090434045,0.6638522,-0.74237585,,-0.098605916,0.24190499,-0.086561024,0.8559736,-0.108913586,0.50541764,-0.43169403,0.38739368,0.8145959,-0.28451616,-0.9154583,0.28458142,,-0.016800078,0.39409372,-0.33991536,0.020766903,-0.65416455,-0.7560671,0.9382536,-0.24844946,0.24073452,-0.34532446,-0.71438193,0.6086127,,1.1584871584624188,0.48012230279053775,0.20549437225000003,0.5701469563344217,-0.2326919591005451,1.3995701889570136,-0.4057466602775497,,-0.7754936670310026,-0.24589181471530838,0.21313600180000003,-2.359640934031353,-1.0877631746326715,0.18088522281205036,0.8763409148104081,,-0.06819874052167843,-0.05078253624834001,0.08427136484,-0.06770673936139116,,7.8294426e-05,4.7683716e-06,-8.106232e-06,1.0,-6.3963234e-05,-5.7190657e-05,6.3955784e-05,1.0,-7.8082085e-06,5.7190657e-05,7.8082085e-06,1.0,43,0.131,1,1,0.106,False,-0.2544564632382502,1.05105995378367
0.15901759202824906,11:15:51.815265,11:15:43.332523,0,,0.12226345,-0.0008973554,0.011414364,-0.86217463,0.034805935,-0.50541437,-0.48549137,-0.34181604,0.804649,-0.14475217,0.9391221,0.31160304,,0.04458082,-0.012425445,0.0011299849,-0.130547,0.6704639,0.73036677,0.26164427,-0.6872575,0.6776572,0.9562949,0.2795624,-0.08570361,,0.10499565,1.339888,0.44090393,0.9940021,0.0141387535,-0.108443156,-0.061493963,-0.74773014,-0.66114914,-0.090434045,0.6638522,-0.74237585,,-0.09855333,0.2419914,-0.086770795,0.8557343,-0.10650866,0.5063346,-0.43331045,0.38728982,0.8137866,-0.28277355,-0.9157852,0.2852659,,-0.016808575,0.39409736,-0.3399156,0.02080769,-0.6539285,-0.7562702,0.93818945,-0.24863045,0.24079767,-0.34549624,-0.7145351,0.6083354,,1.1589659679006206,0.4801763619206573,0.20527011408,0.5686791267300301,-0.23050577510429804,1.3984409324189953,-0.40541997214528114,,-0.7755322806953737,-0.24588409198243416,0.21313729809,-2.359431244087868,-1.0878998111324367,0.18099664071574664,0.8763409148104081,,-0.06819874052167843,-0.05078253624834001,0.08427136484,-0.06770673936139116,,7.8294426e-05,4.7683716e-06,-8.106232e-06,1.0,-6.3963234e-05,-5.7190657e-05,6.3955784e-05,1.0,-7.8082085e-06,5.7190657e-05,7.8082085e-06,1.0,51,0.156,0,1,0.106,False,-0.25535012901606535,1.0507219923782136
0.18202501302585006,11:15:51.838507,11:15:43.332523,0,,0.12219022,-0.0009480044,0.011592969,-0.86152595,0.03226793,-0.50668734,-0.48575276,-0.34272462,0.8041045,-0.14770736,0.93888164,0.31094027,,0.044590216,-0.012424789,0.0011344552,-0.13050711,0.67032045,0.7305056,0.261578,-0.68742085,0.6775171,0.95631844,0.27950504,-0.085627794,,0.10499565,1.339888,0.44090393,0.9940021,0.0141387535,-0.108443156,-0.061493963,-0.74773014,-0.66114914,-0.090434045,0.6638522,-0.74237585,,-0.098493546,0.24207753,-0.08694059,0.8552753,-0.10398711,0.5076327,-0.4355273,0.386522,0.81296784,-0.28074935,-0.9163992,0.28529346,,-0.016818382,0.39410025,-0.33991754,0.020769572,-0.6537709,-0.75640744,0.93816555,-0.24875511,0.240762,-0.3455634,-0.7146359,0.6081788,,1.1595142819346906,0.4802226983179027,0.20508474461,0.5665822272951848,-0.22790968160875466,1.3979575670515745,-0.4057466602775497,,-0.7755786170926191,-0.24588409198243416,0.21313729809,-2.3592215541443835,-1.0878998111324367,0.18099664071574664,0.8763409148104081,,-0.06819874052167843,-0.05078253624834001,0.08427136484,-0.06770673936139116,,7.8294426e-05,4.7683716e-06,-8.106232e-06,1.0,-6.3963234e-05,-5.7190657e-05,6.3955784e-05,1.0,-7.8082085e-06,5.7190657e-05,7.8082085e-06,1.0,72,0.22,1,2,0.133,False,-0.2551713958605024,1.0508668329805522
0.20528551400639117,11:15:51.897404,11:15:43.332523,0,,0.1220414,-0.0010418221,0.012102455,-0.8610881,0.020208232,-0.50805426,-0.48261267,-0.34699008,0.80416596,-0.160039,0.9376511,0.3085417,,0.044595532,-0.012420632,0.0011369586,-0.1305319,0.6703067,0.73051375,0.26157606,-0.6874274,0.6775112,0.9563156,0.27952182,-0.085605025,,0.10499565,1.339888,0.44090393,0.9940021,0.0141387535,-0.108443156,-0.061493963,-0.74773014,-0.66114914,-0.090434045,0.6638522,-0.74237585,,-0.09838145,0.24235883,-0.08738649,0.855743,-0.091998346,0.5091564,-0.44162253,0.3828517,0.8114149,-0.26958022,-0.9192175,0.2869941,,-0.016824152,0.3941041,-0.3399156,0.020794595,-0.6537585,-0.75641745,0.93816495,-0.24874385,0.24077599,-0.34556356,-0.71465117,0.6081608,,1.1610279375780386,0.48046210303700365,0.20457789522000003,0.5623884284254943,-0.21520248713056872,1.3951918248408797,-0.4062366924759524,,-0.775609508024116,-0.24588409198243416,0.21313729809,-2.3592215541443835,-1.0878998111324367,0.18099664071574664,0.8763409148104081,,-0.06819874052167843,-0.050775991263645036,0.08427136484,-0.06770673936139116,,7.8294426e-05,4.7683716e-06,-8.106232e-06,1.0,-6.3963234e-05,-5.7190657e-05,6.3955784e-05,1.0,-7.8082085e-06,5.7190657e-05,7.8082085e-06,1.0,80,0.246,1,2,0.159,False,-0.2551713958605024,1.050335750771978
0.264135689008981,11:15:51.924249,11:15:43.473662,0,,0.12196766,-0.0010393485,0.012286752,-0.8602772,0.016256046,-0.5095677,-0.48252574,-0.34864697,0.80350125,-0.16459742,0.93711317,0.3077768,,0.04459419,-0.0124209,0.0011362433,-0.13052571,0.6703101,0.7305117,0.26157814,-0.6874254,0.67751247,0.9563159,0.27951875,-0.08561179,,0.10499565,1.339888,0.44090393,0.9940021,0.0141387535,-0.108443156,-0.061493963,-0.74773014,-0.66114914,-0.090434045,0.6638522,-0.74237585,,-0.098320015,0.24248776,-0.087524384,0.855238,-0.08806785,0.51069754,-0.44467825,0.3813675,0.81044436,-0.26613754,-0.92021894,0.28699812,,-0.016822739,0.39410353,-0.33991542,0.0207883,-0.6537617,-0.7564149,0.93816566,-0.2487455,0.2407715,-0.34556198,-0.7146477,0.60816574,,1.16176159720109,0.48065517135885927,0.20441585897000003,0.5596624591601955,-0.21110339213760548,1.3945446861546253,-0.40640003654208656,,-0.7756017852912417,-0.24588409198243416,0.21313729809,-2.3592215541443835,-1.0878998111324367,0.18099664071574664,0.8763409148104081,,-0.06819874052167843,-0.050775991263645036,0.08427136484,-0.06770673936139116,,7.8294426e-05,4.7683716e-06,-8.106232e-06,1.0,-6.3963234e-05,-5.7190657e-05,6.3955784e-05,1.0,-7.8082085e-06,5.7190657e-05,7.8082085e-06,1.0,101,0.31,1,2,0.223,False,-0.2551118181419816,1.050963393382111
0.2910288569983095,11:15:51.986117,11:15:43.473662,0,,0.12181605,-0.00088991225,0.012421221,-0.8607688,0.009935722,-0.50889933,-0.4795333,-0.35105413,0.8042442,-0.17066044,0.9363025,0.3069408,,0.044591874,-0.0124229565,0.0011348128,-0.13051389,0.67031425,0.7305101,0.26158923,-0.6874215,0.67751217,0.95631444,0.27951837,-0.085629016,,0.10499565,1.339888,0.44090393,0.9940021,0.0141387535,-0.108443156,-0.061493963,-0.74773014,-0.66114914,-0.090434045,0.6638522,-0.74237585,,-0.098173454,0.24269238,-0.08753125,0.8562142,-0.081778616,0.51010734,-0.44659644,0.3792054,0.8104041,-0.25970918,-0.92169166,0.288159,,-0.016820176,0.39410144,-0.3399163,0.020776039,-0.65376604,-0.7564115,0.9381696,-0.24874403,0.24075764,-0.345552,-0.71464425,0.6081755,,1.163244361912941,0.4809177442765829,0.20436789624,0.5588236993862574,-0.20386165765003716,1.3923150805650404,-0.4068900687404897,,-0.7755863398254933,-0.24589181471530838,0.21313729809,-2.3592215541443835,-1.0878998111324367,0.18099664071574664,0.8763409148104081,,-0.06819874052167843,-0.050775991263645036,0.08427136484,-0.06770673936139116,,7.8294426e-05,4.7683716e-06,-8.106232e-06,1.0,-6.3963234e-05,-5.7190657e-05,6.3955784e-05,1.0,-7.8082085e-06,5.7190657e-05,7.8082085e-06,1.0,109,0.336,1,2,0.249,False,-0.25546928445310746,1.05105995378367
0.3528971769846976,11:15:52.019696,11:15:43.556711,0,,0.12171144,-0.000795193,0.012446836,-0.8607193,0.010682926,-0.5089677,-0.4794639,-0.35304198,0.803415,-0.17110412,0.9355465,0.30899206,,0.04459414,-0.0124178305,0.0011361241,-0.13052575,0.67030984,0.73051196,0.26158434,-0.6874237,0.6775117,0.9563141,0.27952334,-0.08561614,,0.10499565,1.339888,0.44090393,0.9940021,0.0141387535,-0.108443156,-0.061493963,-0.74773014,-0.66114914,-0.090434045,0.6638522,-0.74237585,,-0.098068126,0.24278173,-0.087492645,0.8561962,-0.08253031,0.5100164,-0.44684845,0.37721652,0.81119305,-0.25933462,-0.92244047,0.28609285,,-0.01682285,0.3941052,-0.33991286,0.020788148,-0.653762,-0.75641465,0.93816787,-0.24874084,0.24076752,-0.34555587,-0.714649,0.60816765,,1.1640475261318604,0.4810490307354447,0.20439122946000002,0.5584043194992884,-0.20317847515120993,1.393881638290213,-0.40656338060822095,,-0.7756017852912417,-0.24588409198243416,0.21313729809,-2.3592215541443835,-1.0878998111324367,0.18099664071574664,0.8763409148104081,,-0.06819874052167843,-0.05076944627895005,0.08427136484,-0.06770673936139116,,7.8294426e-05,4.7683716e-06,-8.106232e-06,1.0,-6.3963234e-05,-5.7190657e-05,6.3955784e-05,1.0,-7.8082085e-06,5.7190657e-05,7.8082085e-06,1.0,122,0.376,1,2,0.289,False,-0.2561246393568388,1.0506737121774343
0.38647580600809306,11:15:52.060228,11:15:43.556711,0,,0.12161239,-0.0006233677,0.012430668,-0.86099344,0.010555409,-0.5085068,-0.47888726,-0.35362664,0.80350184,-0.17134023,0.93532705,0.30952492,,0.044591088,-0.012416832,0.001134932,-0.13051285,0.6703192,0.7305057,0.2615815,-0.6874194,0.67751724,0.95631665,0.27951154,-0.085626096,,0.10499565,1.339888,0.44090393,0.9940021,0.0141387535,-0.108443156,-0.061493963,-0.74773014,-0.66114914,-0.090434045,0.6638522,-0.74237585,,-0.097963385,0.24289906,-0.08737073,0.8565015,-0.0824052,0.50952387,-0.4465798,0.376642,0.81160784,-0.25878876,-0.9226864,0.28579393,,-0.016819755,0.39410514,-0.33991137,0.020775232,-0.6537704,-0.75640774,0.9381668,-0.2487489,0.24076341,-0.34555957,-0.71463853,0.6081779,,1.1649510858781447,0.48135021731753946,0.20449493266000002,0.5586140094427728,-0.20249529265238275,1.3934062275118715,-0.40672672467435533,,-0.7755863398254933,-0.24587636924955994,0.21313729809,-2.3592215541443835,-1.0878998111324367,0.18099664071574664,0.8763409148104081,,-0.06819874052167843,-0.05076944627895005,0.08427136484,-0.06770673936139116,,7.8294426e-05,4.7683716e-06,-8.106232e-06,1.0,-6.3963234e-05,-5.7190657e-05,6.3955784e-05,1.0,-7.8082085e-06,5.7190657e-05,7.8082085e-06,1.0,143,0.441,1,2,0.354,False,-0.25588632848275505,1.0507702725789931
0.4270080869900994,11:15:52.118667,11:15:43.647383,0,,0.12149064,-0.00027499348,0.0122192055,-0.8606162,0.011188723,-0.5091312,-0.4795214,-0.35441455,0.80277616,-0.1714614,0.9350215,0.31038004,,0.0445928,-0.012418114,0.0011354685,-0.13051957,0.67043257,0.7304004,0.2615864,-0.68731105,0.6776253,0.9563144,0.27950633,-0.085668564,,0.10499565,1.339888,0.44090393,0.9940021,0.0141387535,-0.108443156,-0.061493963,-0.74773014,-0.66114914,-0.090434045,0.6638522,-0.74237585,,-0.097818084,0.2430135,-0.08698773,0.8561154,-0.08303904,0.51006955,-0.447136,0.37584147,0.8116727,-0.2591058,-0.922956,0.2846339,,-0.016821437,0.39410466,-0.3399127,0.020781854,-0.65388876,-0.7563052,0.9381686,-0.24870315,0.24080366,-0.3455543,-0.7145462,0.60828936,,1.1661403867407751,0.48172090849550225,0.20485919015,0.5575655597253503,-0.20249529265238275,1.393487906252012,-0.4068900687404895,,-0.7755940625583675,-0.24588409198243416,0.21313729809,-2.3592215541443835,-1.0878998111324367,0.18083328323546546,0.8766676029426769,,-0.06819874052167843,-0.05076944627895005,0.08427136484,-0.06770673936139116,,7.8294426e-05,4.7683716e-06,-8.106232e-06,1.0,-6.3963234e-05,-5.7190657e-05,6.3955784e-05,1.0,-7.8082085e-06,5.7190657e-05,7.8082085e-06,1.0,151,0.467,1,2,0.38,False,-0.25588632848275505,1.051108233984449
0.4854451310238801,11:15:52.139970,11:15:43.647383,0,,0.12141027,-7.366389e-05,0.012082666,-0.86079717,0.011828788,-0.50881076,-0.4793292,-0.35491553,0.80266964,-0.17109019,0.93482363,0.31118,,0.04459011,-0.012418635,0.0011341572,-0.1305072,0.6704393,0.73039645,0.26159057,-0.6873069,0.6776279,0.9563149,0.2795002,-0.08568218,,0.10499565,1.339888,0.44090393,0.9940021,0.0141387535,-0.108443156,-0.061493963,-0.74773014,-0.66114914,-0.090434045,0.6638522,-0.74237585,,-0.097723186,0.24307014,-0.08675659,0.85627675,-0.083678566,0.5096941,-0.4467384,0.37532425,0.81213087,-0.25925848,-0.9231087,0.283999,,-0.016818607,0.3941036,-0.33991238,0.020769266,-0.65389514,-0.7563001,0.93817,-0.24870645,0.24079467,-0.34555116,-0.71453923,0.6082994,,1.1668508781652038,0.4818676404201125,0.20508085574,0.5577752496688348,-0.20249529265238275,1.3935695849921526,-0.4070534128066239,,-0.7755786170926191,-0.24588409198243416,0.21313729809,-2.3592215541443835,-1.0878998111324367,0.18083328323546546,0.8766676029426769,,-0.06819874052167843,-0.05076944627895005,0.08427136484,-0.06770673936139116,,7.8294426e-05,4.7683716e-06,-8.106232e-06,1.0,-6.3963234e-05,-5.7190657e-05,6.3955784e-05,1.0,-7.8082085e-06,5.7190657e-05,7.8082085e-06,1.0,164,0.507,1,2,0.42,False,-0.2566012611050077,1.0506737121774343
0.5067189069814049,11:15:52.186364,11:15:43.647383,0,,0.12131793,0.00018703192,0.011906147,-0.860964,0.011637464,-0.5085328,-0.4789368,-0.35531875,0.80272543,-0.17134957,0.9346727,0.31149024,,0.04459011,-0.012418635,0.0011341572,-0.1305072,0.6703797,0.7304512,0.26159057,-0.6873622,0.6775718,0.9563149,0.2795072,-0.085659325,,0.10499565,1.339888,0.44090393,0.9940021,0.0141387535,-0.108443156,-0.061493963,-0.74773014,-0.66114914,-0.090434045,0.6638522,-0.74237585,,-0.097612016,0.24314338,-0.086456716,0.8564714,-0.0834892,0.5093979,-0.44662315,0.3749308,0.81237596,-0.2588136,-0.92328566,0.2838293,,-0.016818607,0.3941036,-0.33991238,0.020769266,-0.6538333,-0.7563535,0.93817,-0.24872611,0.24077436,-0.34555116,-0.7145889,0.608241,,1.1677312697128654,0.4820607087419681,0.20536733583000003,0.5577752496688348,-0.20181211015355555,1.3930124954736705,-0.4070534128066239,,-0.7755786170926191,-0.24588409198243416,0.21313729809,-2.3592215541443835,-1.0878998111324367,0.180914961975606,0.8765042588765425,,-0.06819874052167843,-0.05076944627895005,0.08427136484,-0.06770673936139116,,7.8294426e-05,4.7683716e-06,-8.106232e-06,1.0,-6.3963234e-05,-5.7190657e-05,6.3955784e-05,1.0,-7.8082085e-06,5.7190657e-05,7.8082085e-06,1.0,172,0.533,0,2,0.439,False,-0.25630337251240265,1.0506737121774343
0.5531398709863424,11:15:52.215301,11:15:43.747210,0,,0.12123707,0.0003445074,0.011834651,-0.8610973,0.01169429,-0.50830585,-0.47862482,-0.3559619,0.8026266,-0.17155135,0.9344273,0.31211495,,0.04459011,-0.012418635,0.0011341572,-0.1305072,0.6703797,0.7304512,0.26159057,-0.6873622,0.6775718,0.9563149,0.2795072,-0.085659325,,0.10499565,1.339888,0.44090393,0.9940021,0.0141387535,-0.108443156,-0.061493963,-0.74773014,-0.66114914,-0.090434045,0.6638522,-0.74237585,,-0.09752217,0.24321212,-0.08630293,0.8566266,-0.083547905,0.5091274,-0.44652852,0.37429124,0.8127228,-0.2584632,-0.9235398,0.2833213,,-0.016818607,0.3941036,-0.33991238,0.020769266,-0.6538333,-0.7563535,0.93817,-0.24872611,0.24077436,-0.34555116,-0.7145889,0.608241,,1.1684340384044198,0.4822074406665784,0.20550992773,0.5577752496688348,-0.2012655641544938,1.3929752175595875,-0.40721675687275827,,-0.7755786170926191,-0.24588409198243416,0.21313729809,-2.3592215541443835,-1.0878998111324367,0.180914961975606,0.8765042588765425,,-0.06819874052167843,-0.05076944627895005,0.08427136484,-0.06770673936139116,,7.8294426e-05,4.7683716e-06,-8.106232e-06,1.0,-6.3963234e-05,-5.7190657e-05,6.3955784e-05,1.0,-7.8082085e-06,5.7190657e-05,7.8082085e-06,1.0,189,0.585,0,2,0.439,False,-0.2566012611050077,1.0503840309727575
0.5820603970205411,11:15:52.266102,11:15:43.747210,0,,0.121086255,0.0005756989,0.01187627,-0.8614858,0.011562146,-0.50765014,-0.4777067,-0.35740697,0.8025313,-0.17215869,0.93387717,0.3134243,,0.044591773,-0.012416832,0.0011345744,-0.13051395,0.67031384,0.7305105,0.26160178,-0.68741816,0.6775106,0.9563109,0.2795275,-0.08563766,,0.10499565,1.339888,0.44090393,0.9940021,0.0141387535,-0.108443156,-0.061493963,-0.74773014,-0.66114914,-0.090434045,0.6638522,-0.74237585,,-0.097367935,0.2434135,-0.08618636,0.8570803,-0.08342074,0.5083841,-0.44625932,0.3728614,0.8135275,-0.25742185,-0.92412955,0.28234485,,-0.016820401,0.39410478,-0.33991113,0.020775734,-0.6537667,-0.75641096,0.93817407,-0.2487347,0.2407497,-0.34553978,-0.7146469,0.60817933,,1.1698164075889061,0.4827248637691514,0.20559548287,0.5579849396123193,-0.20003583565660482,1.3927892438277254,-0.40721675687275805,,-0.7755863398254933,-0.24589181471530838,0.21313729809,-2.3592215541443835,-1.0878998111324367,0.18099664071574664,0.8763409148104081,,-0.06819874052167843,-0.05076290129425508,0.08427136484,-0.06770673936139116,,7.8294426e-05,4.7683716e-06,-8.106232e-06,1.0,-6.3963234e-05,-5.7190657e-05,6.3955784e-05,1.0,-7.8082085e-06,5.7190657e-05,7.8082085e-06,1.0,197,0.61,0,2,0.439,False,-0.25600548391979716,1.0504805913743163
0.6328668019850738,11:15:52.290372,11:15:43.747210,0,,0.120973036,0.0007062927,0.011961281,-0.8602738,0.011585131,-0.5097009,-0.47950673,-0.35804114,0.801174,-0.17321214,0.9336339,0.31356847,,0.04458872,-0.012415819,0.0011333823,-0.13050105,0.6703828,0.7304494,0.26159889,-0.6873585,0.67757225,0.9563135,0.2795087,-0.08567041,,0.10499565,1.339888,0.44090393,0.9940021,0.0141387535,-0.108443156,-0.061493963,-0.74773014,-0.66114914,-0.090434045,0.6638522,-0.74237585,,-0.097256914,0.24356975,-0.08616731,0.8558899,-0.08344558,0.51038146,-0.44832414,0.3722307,0.8126806,-0.25779426,-0.9243815,0.28117785,,-0.016817305,0.39410472,-0.33990964,0.02076282,-0.65383685,-0.75635064,0.938173,-0.2487231,0.2407659,-0.3455435,-0.71458673,0.6082479,,1.1708203628625553,0.483157336810108,0.20559418658000003,0.5552589703470204,-0.20003583565660482,1.392870922567866,-0.40738010093889243,,-0.7755708943597448,-0.24588409198243416,0.21313729809,-2.3592215541443835,-1.0878998111324367,0.180914961975606,0.8765042588765425,,-0.06819874052167843,-0.05076290129425508,0.08427136484,-0.06770673936139116,,7.8294426e-05,4.7683716e-06,-8.106232e-06,1.0,-6.3963234e-05,-5.7190657e-05,6.3955784e-05,1.0,-7.8082085e-06,5.7190657e-05,7.8082085e-06,1.0,210,0.65,0,2,0.439,False,-0.2555288621716292,1.0508185527797727
0.6571339209913276,11:15:52.330310,11:15:43.881855,0,,0.1208726,0.00082873553,0.012061238,-0.8602837,0.012274541,-0.5096681,-0.4795034,-0.35905915,0.8007203,-0.17317249,0.93323404,0.3147783,,0.044586454,-0.012420945,0.001132071,-0.13048917,0.6704469,0.7303927,0.26160374,-0.68730086,0.6776289,0.95631385,0.27949673,-0.085706115,,0.10499565,1.339888,0.44090393,0.9940021,0.0141387535,-0.108443156,-0.061493963,-0.74773014,-0.66114914,-0.090434045,0.6638522,-0.74237585,,-0.097159885,0.24372986,-0.086163856,0.85589725,-0.084135644,0.51025593,-0.4482945,0.3711961,0.81317,-0.2578216,-0.9247349,0.27998817,,-0.01681463,0.39410096,-0.33991307,0.02075071,-0.65390265,-0.7562941,0.9381747,-0.24870664,0.24077633,-0.34553963,-0.71453226,0.6083141,,1.171739368074588,0.4836207007825615,0.20557863110000002,0.555049280403536,-0.20003583565660482,1.393197637528428,-0.40672672467435533,,-0.7755554488939964,-0.24589181471530838,0.21313729809,-2.3592215541443835,-1.0878998111324367,0.18083328323546544,0.8763409148104082,,-0.06819874052167843,-0.05076944627895005,0.08427136484,-0.06770673936139116,,7.8294426e-05,4.7683716e-06,-8.106232e-06,1.0,-6.3963234e-05,-5.7190657e-05,6.3955784e-05,1.0,-7.8082085e-06,5.7190657e-05,7.8082085e-06,1.0,218,0.676,1,3,0.448,False,-0.25546928445310746,1.0508185527797727
0.6970531870028935,11:15:52.357219,11:15:43.881855,0,,0.12080705,0.0009256229,0.012164235,-0.85944915,0.012229316,-0.5110751,-0.48068732,-0.359657,0.7997415,-0.17403139,0.93300444,0.31498528,,0.044589456,-0.012418874,0.0011330843,-0.13050212,0.6704373,0.73039925,0.2616129,-0.68730354,0.67762256,0.95630956,0.2795131,-0.08570048,,0.10499565,1.339888,0.44090393,0.9940021,0.0141387535,-0.108443156,-0.061493963,-0.74773014,-0.66114914,-0.090434045,0.6638522,-0.74237585,,-0.09709856,0.24387251,-0.086177655,0.8550881,-0.08409232,0.5116178,-0.44976637,0.37060294,0.8126276,-0.2579428,-0.9249767,0.27907628,,-0.01681784,0.3941027,-0.33991197,0.020763472,-0.65389454,-0.75630075,0.93817806,-0.2486939,0.24077648,-0.3455298,-0.71454406,0.60830575,,1.1724421367661424,0.48409178748788917,0.20554492756,0.5531620709121753,-0.20003583565660482,1.3932793162685688,-0.40656338060822117,,-0.7755708943597448,-0.2458995374481826,0.21313729809,-2.3592215541443835,-1.0878998111324367,0.18083328323546552,0.8760142266781396,,-0.06819874052167843,-0.05076290129425508,0.08427136484,-0.06770673936139116,,7.8294426e-05,4.7683716e-06,-8.106232e-06,1.0,-6.3963234e-05,-5.7190657e-05,6.3955784e-05,1.0,-7.8082085e-06,5.7190657e-05,7.8082085e-06,1.0,235,0.729,1,3,0.501,False,-0.25558843989015,1.0505288715750958
0.7239842310082167,11:15:52.401885,11:15:43.881855,0,,0.1207169,0.0010451451,0.012365162,-0.8593605,0.012793511,-0.5112104,-0.4807987,-0.36068588,0.7992111,-0.17416155,0.93259966,0.3161102,,0.044589695,-0.012414046,0.0011340976,-0.1305067,0.6703821,0.7304491,0.26158983,-0.68736035,0.6775739,0.9563153,0.27950603,-0.08566004,,0.10499565,1.339888,0.44090393,0.9940021,0.0141387535,-0.108443156,-0.061493963,-0.74773014,-0.66114914,-0.090434045,0.6638522,-0.74237585,,-0.09701853,0.2440989,-0.08624922,0.85500515,-0.08465749,0.51166326,-0.44993863,0.36956003,0.8130072,-0.25791743,-0.9253424,0.27788508,,-0.016818453,0.39410627,-0.33990866,0.020768786,-0.6538357,-0.7563515,0.9381698,-0.24872622,0.24077526,-0.3455519,-0.7145867,0.60824317,,1.1734306465740432,0.4848486153095632,0.20544511323000003,0.5527426910252061,-0.20017247215637027,1.3933907341722653,-0.40656338060822117,,-0.7755786170926191,-0.24587636924955994,0.21313729809,-2.3592215541443835,-1.0878998111324367,0.18091496197560608,0.8761775707442738,,-0.06819874052167843,-0.05076290129425508,0.08427136484,-0.06770673936139116,,7.8294426e-05,4.7683716e-06,-8.106232e-06,1.0,-6.3963234e-05,-5.7190657e-05,6.3955784e-05,1.0,-7.8082085e-06,5.7190657e-05,7.8082085e-06,1.0,256,0.794,1,3,0.566,False,-0.2557075953271921,1.0507219923782136
0.7686350140138529,11:15:52.471976,11:15:43.969425,0,,0.12062841,0.0010898784,0.012693763,-0.85833466,0.009676352,-0.51299924,-0.48126572,-0.36182606,0.7984142,-0.17789069,0.9321954,0.3152246,,0.044589456,-0.012418874,0.0011330843,-0.13050212,0.67031795,0.73050874,0.2616129,-0.6874143,0.67751026,0.95630956,0.27952707,-0.085654855,,0.10499565,1.339888,0.44090393,0.9940021,0.0141387535,-0.108443156,-0.061493963,-0.74773014,-0.66114914,-0.090434045,0.6638522,-0.74237585,,-0.09695073,0.24435727,-0.08646475,0.85421526,-0.08155403,0.51348346,-0.45284158,0.3685252,0.8118643,-0.2554424,-0.92603356,0.27786878,,-0.01681784,0.3941027,-0.33991197,0.020763472,-0.653771,-0.75640756,0.93817806,-0.24873324,0.24073584,-0.3455298,-0.7146434,0.60818905,,1.174496383710686,0.48559772039836296,0.20519363297,0.5498070318164229,-0.19743974216106144,1.3921425209800236,-0.4075434450050268,,-0.7755708943597448,-0.2458995374481826,0.21313729809,-2.3592215541443835,-1.0878998111324367,0.18099664071574664,0.8763409148104081,,-0.06819874052167843,-0.05076290129425508,0.08427136484,-0.06770673936139116,,7.8294426e-05,4.7683716e-06,-8.106232e-06,1.0,-6.3963234e-05,-5.7190657e-05,6.3955784e-05,1.0,-7.8082085e-06,5.7190657e-05,7.8082085e-06,1.0,264,0.819,1,3,0.591,False,-0.2564821056679656,1.0505288715750958
0.8387181769940071,11:15:52.500393,11:15:44.057618,0,,0.120595194,0.0010744557,0.012789711,-0.8577746,0.01003091,-0.51392823,-0.48197764,-0.36320403,0.7973583,-0.17866254,0.93165565,0.3163818,,0.04458872,-0.012415819,0.0011333823,-0.13050105,0.6703231,0.73050416,0.26159889,-0.6874138,0.6775161,0.9563135,0.2795157,-0.08564758,,0.10499565,1.339888,0.44090393,0.9940021,0.0141387535,-0.108443156,-0.061493963,-0.74773014,-0.66114914,-0.090434045,0.6638522,-0.74237585,,-0.09692439,0.24441202,-0.08654755,0.8536875,-0.08191109,0.51430357,-0.4539017,0.36713973,0.8119,-0.25532487,-0.9265522,0.27624303,,-0.016817305,0.39410472,-0.33990964,0.02076282,-0.65377504,-0.75640404,0.938173,-0.24874276,0.24074559,-0.3455435,-0.7146364,0.6081895,,1.1747666793612839,0.48572128412435056,0.20510418896000002,0.5485488921555157,-0.19716646916153055,1.3935532599754419,-0.40591000434368385,,-0.7755708943597448,-0.24588409198243416,0.21313729809,-2.3592215541443835,-1.0878998111324367,0.18099664071574664,0.8763409148104081,,-0.06819874052167843,-0.05076290129425508,0.08427136484,-0.06770673936139116,,7.8294426e-05,4.7683716e-06,-8.106232e-06,1.0,-6.3963234e-05,-5.7190657e-05,6.3955784e-05,1.0,-7.8082085e-06,5.7190657e-05,7.8082085e-06,1.0,277,0.859,1,3,0.632,False,-0.25636295023092304,1.050335750771978
0.8671548209968023,11:15:52.533199,11:15:44.057618,0,,0.120586365,0.0010856465,0.01299566,-0.85825694,0.005331382,-0.51319283,-0.47971758,-0.36369875,0.79849494,-0.18239047,0.9315014,0.31470445,,0.044589695,-0.012414046,0.0011340976,-0.1305067,0.6703223,0.73050386,0.26158983,-0.6874157,0.6775177,0.9563153,0.27951306,-0.08563718,,0.10499565,1.339888,0.44090393,0.9940021,0.0141387535,-0.108443156,-0.061493963,-0.74773014,-0.66114914,-0.090434045,0.6638522,-0.74237585,,-0.09692888,0.24456048,-0.086690925,0.85447913,-0.07722758,0.51371324,-0.4547689,0.36678615,0.8115745,-0.25109884,-0.9270943,0.27829042,,-0.016818453,0.39410627,-0.33990866,0.020768786,-0.6537739,-0.7564049,0.9381698,-0.24874589,0.24075495,-0.3455519,-0.7146364,0.60818475,,1.175214597867989,0.4861383116995587,0.20493567126,0.5485488921555157,-0.1929307376688019,1.3909977711023989,-0.40721675687275827,,-0.7755786170926191,-0.24587636924955994,0.21313729809,-2.3592215541443835,-1.0878998111324367,0.18099664071574664,0.8763409148104081,,-0.06819874052167843,-0.05076290129425508,0.08427136484,-0.06770673936139116,,7.8294426e-05,4.7683716e-06,-8.106232e-06,1.0,-6.3963234e-05,-5.7190657e-05,6.3955784e-05,1.0,-7.8082085e-06,5.7190657e-05,7.8082085e-06,1.0,298,0.925,1,3,0.697,False,-0.25558843989015,1.0512047943860081
0.8999791879905388,11:15:52.599265,11:15:44.148724,0,,0.12054304,0.0009830967,0.013284311,-0.85675746,0.0014304519,-0.51571786,-0.48066518,-0.3646002,0.7975134,-0.18688999,0.9311631,0.31306142,,0.04459141,-0.012415297,0.0011346936,-0.13051343,0.6703164,0.73050815,0.26159477,-0.687418,0.6775136,0.95631295,0.2795218,-0.08563405,,0.10499565,1.339888,0.44090393,0.9940021,0.0141387535,-0.108443156,-0.061493963,-0.74773014,-0.66114914,-0.090434045,0.6638522,-0.74237585,,-0.09690767,0.2446827,-0.08697436,0.8532542,-0.07333997,0.5163125,-0.45855936,0.36599004,0.80979913,-0.24835587,-0.92772436,0.2786518,,-0.016820135,0.3941058,-0.33990997,0.020775406,-0.6537687,-0.75640917,0.93817157,-0.24873947,0.24075457,-0.34554663,-0.71464336,0.60817957,,1.1756779618404425,0.48635454822003693,0.20463363569,0.5447744731727943,-0.18965146167443137,1.3900389949566367,-0.40591000434368407,,-0.7755863398254933,-0.24588409198243416,0.21313729809,-2.3592215541443835,-1.0878998111324367,0.18099664071574664,0.8763409148104081,,-0.06819874052167843,-0.05076290129425508,0.08427136484,-0.06770673936139116,,7.8294426e-05,4.7683716e-06,-8.106232e-06,1.0,-6.3963234e-05,-5.7190657e-05,6.3955784e-05,1.0,-7.8082085e-06,5.7190657e-05,7.8082085e-06,1.0,302,0.938,1,3,0.71,False,-0.2552309735790237,1.050963393382111
0.9660439110011794,11:15:52.622561,11:15:44.148724,0,,0.12052594,0.00094665587,0.013438538,-0.8568268,-0.00040315837,-0.5156043,-0.47960103,-0.36650008,0.7972833,-0.18929042,0.93041795,0.3138336,,0.044590432,-0.012417071,0.0011338592,-0.13050777,0.6703172,0.73050845,0.2616038,-0.68741614,0.67751193,0.9563113,0.27952445,-0.085644424,,0.10499565,1.339888,0.44090393,0.9940021,0.0141387535,-0.108443156,-0.061493963,-0.74773014,-0.66114914,-0.090434045,0.6638522,-0.74237585,,-0.09690184,0.24476126,-0.08711292,0.8535123,-0.071515754,0.5161417,-0.4594102,0.3641356,0.81015277,-0.24588425,-0.92859614,0.27793914,,-0.016818987,0.39410424,-0.33991095,0.02076944,-0.65376985,-0.7564084,0.9381748,-0.24873635,0.2407452,-0.34553823,-0.7146434,0.6081843,,1.1759482574910403,0.4865090028775214,0.20448196976000002,0.5443550932858252,-0.18705536817888796,1.3906174532110431,-0.406073348409818,,-0.7755786170926191,-0.24589181471530838,0.21313729809,-2.3592215541443835,-1.0878998111324367,0.18099664071574664,0.8763409148104081,,-0.06819874052167843,-0.05076290129425508,0.08427136484,-0.06770673936139116,,7.8294426e-05,4.7683716e-06,-8.106232e-06,1.0,-6.3963234e-05,-5.7190657e-05,6.3955784e-05,1.0,-7.8082085e-06,5.7190657e-05,7.8082085e-06,1.0,319,0.99,1,3,0.762,False,-0.2555288621716292,1.0509151131813312
0.9893331999774091,11:15:52.663518,11:15:44.148724,0,,0.12050292,0.00096751004,0.013715968,-0.85568565,-0.004321005,-0.5174779,-0.4797235,-0.3684022,0.7963323,-0.19408092,0.92965645,0.3131635,,0.04459141,-0.012415297,0.0011346936,-0.13051343,0.6703164,0.73050815,0.26159477,-0.687418,0.6775136,0.95631295,0.2795218,-0.08563405,,0.10499565,1.339888,0.44090393,0.9940021,0.0141387535,-0.108443156,-0.061493963,-0.74773014,-0.66114914,-0.090434045,0.6638522,-0.74237585,,-0.096896626,0.24496576,-0.08730288,0.8526874,-0.06761169,0.5180278,-0.4627852,0.36231884,0.8090457,-0.24239217,-0.9295987,0.27765504,,-0.016820135,0.3941058,-0.33990997,0.020775406,-0.6537687,-0.75640917,0.93817157,-0.24873947,0.24075457,-0.34554663,-0.71464336,0.60817957,,1.1765969670524752,0.4871577124389563,0.20426160046000003,0.5412097441335574,-0.18336618268522106,1.390059532015457,-0.40672672467435533,,-0.7755863398254933,-0.24588409198243416,0.21313729809,-2.3592215541443835,-1.0878998111324367,0.18099664071574664,0.8763409148104081,,-0.06819874052167843,-0.05076290129425508,0.08427136484,-0.06770673936139116,,7.8294426e-05,4.7683716e-06,-8.106232e-06,1.0,-6.3963234e-05,-5.7190657e-05,6.3955784e-05,1.0,-7.8082085e-06,5.7190657e-05,7.8082085e-06,1.0,332,1.032,1,3,0.804,False,-0.25588632848275505,1.0506254319766548
1.0302555930102244,11:15:52.709423,11:15:44.240820,0,,0.12044779,0.0009906963,0.01401104,-0.8545168,-0.005506426,-0.5193947,-0.48088944,-0.36957353,0.7950853,-0.19633256,0.92918515,0.31315872,,0.044593118,-0.012416549,0.0011351705,-0.13052014,0.6703104,0.7305124,0.26159975,-0.68742025,0.6775093,0.9563107,0.27953056,-0.085630864,,0.10499565,1.339888,0.44090393,0.9940021,0.0141387535,-0.108443156,-0.061493963,-0.74773014,-0.66114914,-0.090434045,0.6638522,-0.74237585,,-0.0968605,0.24518475,-0.08750632,0.85163736,-0.066431426,0.5199045,-0.46519908,0.36116868,0.8081751,-0.24146144,-0.9301312,0.27668092,,-0.016821817,0.39410532,-0.33991128,0.020782027,-0.6537635,-0.7564135,0.93817335,-0.24873304,0.24075419,-0.34554133,-0.7146504,0.6081743,,1.1773615176070233,0.4878913720620076,0.20403086084000002,0.5384837748682585,-0.182409727186863,1.3900147153508469,-0.40721675687275805,,-0.7755940625583675,-0.24589181471530838,0.21313729809,-2.3592215541443835,-1.0878998111324367,0.18099664071574664,0.8763409148104081,,-0.06819874052167843,-0.05076290129425508,0.08427136484,-0.06770673936139116,,7.8294426e-05,4.7683716e-06,-8.106232e-06,1.0,-6.3963234e-05,-5.7190657e-05,6.3955784e-05,1.0,-7.8082085e-06,5.7190657e-05,7.8082085e-06,1.0,341,1.06,1,3,0.832,False,-0.25636295023092304,1.0502874705711984
1.0761994519853033,11:15:52.736947,11:15:44.240820,0,,0.12041309,0.0010595918,0.014233857,-0.8545125,-0.005378183,-0.519403,-0.48075092,-0.37045535,0.7947587,-0.19668995,0.92883474,0.31397307,,0.044591773,-0.012416832,0.0011345744,-0.13051395,0.67037344,0.73045564,0.26160178,-0.68736285,0.67756677,0.9563109,0.2795205,-0.08566049,,0.10499565,1.339888,0.44090393,0.9940021,0.0141387535,-0.108443156,-0.061493963,-0.74773014,-0.66114914,-0.090434045,0.6638522,-0.74237585,,-0.09683866,0.2453876,-0.087624535,0.85166067,-0.066561185,0.51984966,-0.4653407,0.3602811,0.8084897,-0.24110605,-0.9304661,0.27586362,,-0.016820401,0.39410478,-0.33991113,0.020775734,-0.65382844,-0.75635755,0.93817407,-0.24871503,0.24077001,-0.34553978,-0.7145972,0.6082377,,1.1779947817027099,0.4886636453494301,0.20388826894000003,0.538274084924774,-0.182409727186863,1.3900147153508469,-0.40721675687275805,,-0.7755863398254933,-0.24589181471530838,0.21313729809,-2.3592215541443835,-1.0878998111324367,0.180914961975606,0.8765042588765425,,-0.06819874052167843,-0.05076290129425508,0.08427136484,-0.06770673936139116,,7.8294426e-05,4.7683716e-06,-8.106232e-06,1.0,-6.3963234e-05,-5.7190657e-05,6.3955784e-05,1.0,-7.8082085e-06,5.7190657e-05,7.8082085e-06,1.0,354,1.102,1,3,0.874,False,-0.2561842170753601,1.0509151131813312
1.1037097310181707,11:15:52.781736,11:15:44.240820,0,,0.12039788,0.0011493042,0.014562607,-0.8544262,-0.008935913,-0.519496,-0.47928876,-0.37246332,0.7947033,-0.20059459,0.92800385,0.31395948,,0.044591915,-0.0124151185,0.0011335015,-0.13051343,0.6703164,0.73050815,0.26159477,-0.687418,0.6775136,0.95631295,0.2795218,-0.08563405,,0.10499565,1.339888,0.44090393,0.9940021,0.0141387535,-0.108443156,-0.061493963,-0.74773014,-0.66114914,-0.090434045,0.6638522,-0.74237585,,-0.09684268,0.24567726,-0.08780462,0.85187423,-0.063014716,0.51994175,-0.46692652,0.35833085,0.8084421,-0.2372549,-0.93146557,0.27582958,,-0.016820535,0.39410487,-0.33990914,0.020775406,-0.6537687,-0.75640917,0.93817157,-0.24873947,0.24075457,-0.34554663,-0.71464336,0.60817957,,1.1788211141202518,0.4897139370203246,0.20366789964,0.5372256352073513,-0.17885717819296154,1.3889964608779728,-0.4073801009388922,,-0.7755863398254933,-0.24588409198243416,0.21313859438000002,-2.3592215541443835,-1.0878998111324367,0.18099664071574664,0.8763409148104081,,-0.06819874052167843,-0.05076290129425508,0.08427136484,-0.06770673936139116,,7.8294426e-05,4.7683716e-06,-8.106232e-06,1.0,-6.3963234e-05,-5.7190657e-05,6.3955784e-05,1.0,-7.8082085e-06,5.7190657e-05,7.8082085e-06,1.0,363,1.13,1,3,0.902,False,-0.2552309735790237,1.0507702725789931
1.1484100589877926,11:15:52.810349,11:15:44.240820,0,,0.12040244,0.001196377,0.014778078,-0.8541799,-0.0116430335,-0.51984733,-0.47851235,-0.37361845,0.7946289,-0.20347641,0.9275094,0.31356597,,0.044591915,-0.0124151185,0.0011335015,-0.13051343,0.6703164,0.73050815,0.26159477,-0.687418,0.6775136,0.95631295,0.2795218,-0.08563405,,0.10499565,1.339888,0.44090393,0.9940021,0.0141387535,-0.108443156,-0.061493963,-0.74773014,-0.66114914,-0.090434045,0.6638522,-0.74237585,,-0.09686013,0.24585818,-0.087929666,0.85184115,-0.060314696,0.52031606,-0.46832323,0.3572137,0.80812854,-0.23460604,-0.93207324,0.27604255,,-0.016820535,0.39410487,-0.33990914,0.020775406,-0.6537687,-0.75640917,0.93817157,-0.24873947,0.24075457,-0.34554663,-0.71464336,0.60817957,,1.1792690326269568,0.4903935375132564,0.20351753000000003,0.5361771854899288,-0.1763977211971836,1.388134440973405,-0.40738010093889243,,-0.7755863398254933,-0.24588409198243416,0.21313859438000002,-2.3592215541443835,-1.0878998111324367,0.18099664071574664,0.8763409148104081,,-0.06819874052167843,-0.05076290129425508,0.08427136484,-0.06770673936139116,,7.8294426e-05,4.7683716e-06,-8.106232e-06,1.0,-6.3963234e-05,-5.7190657e-05,6.3955784e-05,1.0,-7.8082085e-06,5.7190657e-05,7.8082085e-06,1.0,376,1.171,1,3,0.943,False,-0.2551713958605024,1.0507702725789931
1.1771252600010484,11:15:52.845720,11:15:44.375894,0,,0.120395884,0.0011580884,0.015043169,-0.8538175,-0.013867781,-0.5203879,-0.4778795,-0.3755873,0.7940815,-0.2064632,0.9266833,0.3140558,,0.04459414,-0.012416191,0.0011328459,-0.13052014,0.67037016,0.7304577,0.26159975,-0.6873649,0.67756546,0.9563107,0.27952355,-0.08565369,,0.10499565,1.339888,0.44090393,0.9940021,0.0141387535,-0.108443156,-0.061493963,-0.74773014,-0.66114914,-0.090434045,0.6638522,-0.74237585,,-0.09687222,0.24601053,-0.0881497,0.85169506,-0.058096964,0.5208073,-0.4698993,0.35526308,0.8080735,-0.23197025,-0.9329592,0.2752761,,-0.016822618,0.3941035,-0.3399096,0.020782027,-0.6538253,-0.7563601,0.93817335,-0.24871339,0.24077451,-0.34554133,-0.71460074,0.6082327,,1.1796397238049197,0.4908800696843325,0.20327642006000002,0.5349190458290216,-0.17380162770164026,1.38846786300739,-0.40672672467435533,,-0.7755940625583675,-0.24589181471530838,0.21313989067000003,-2.3592215541443835,-1.0878998111324367,0.18091496197560608,0.8761775707442738,,-0.06819874052167843,-0.05076290129425508,0.08427136484,-0.06770673936139116,,7.8294426e-05,4.7683716e-06,-8.106232e-06,1.0,-6.3963234e-05,-5.7190657e-05,6.3955784e-05,1.0,-7.8082085e-06,5.7190657e-05,7.8082085e-06,1.0,385,1.199,1,3,0.971,False,-0.2544564632382502,1.0506737121774343
1.2124920149799436,11:15:52.881887,11:15:44.375894,0,,0.120432064,0.0011086613,0.015200719,-0.8533027,-0.01858908,-0.52108437,-0.47691005,-0.37617785,0.79438466,-0.21078722,0.9263611,0.3121282,,0.044735335,-0.012338705,0.0011427402,-0.13061437,0.6704403,0.7303763,0.26155952,-0.6872859,0.6776612,0.95630884,0.27954915,-0.08559063,,0.10506394,1.3398856,0.4409002,0.99399745,0.014082594,-0.108492814,-0.061568618,-0.7477312,-0.661141,-0.090434045,0.6638522,-0.74237585,,-0.09697916,0.24608514,-0.08828973,0.8514574,-0.053410113,0.52169687,-0.47219077,0.35472226,0.8069746,-0.22815809,-0.933445,0.27681115,,-0.017031651,0.39413878,-0.33984974,0.020913215,-0.65395164,-0.7562472,0.9381557,-0.24862324,0.24093634,-0.34558135,-0.7145164,0.608309,,1.179755564798033,0.491034524341817,0.20311956897000003,0.5332415262811455,-0.16970253270867705,1.386677221959168,-0.40656338060822095,,-0.7755940625583675,-0.24589181471530838,0.21313989067000003,-2.3592215541443835,-1.0878998111324367,0.18091496197560608,0.8761775707442738,,-0.06819874052167843,-0.05076290129425508,0.08427136484,-0.06770673936139116,,0.00014664605,5.00679e-06,-1.1086464e-05,0.99999994,-0.000119719654,-0.00010704994,0.00011971593,1.0,-1.4573336e-05,0.00010705739,1.4573336e-05,1.0,403,1.257,1,3,1.029,False,-0.2547543518308557,1.0509151131813312
1.2486277309944853,11:15:52.934506,11:15:44.470301,0,,0.12043327,0.0009465888,0.015499592,-0.85331315,-0.024839513,-0.5208067,-0.4740439,-0.3789767,0.79476976,-0.21711527,0.92507285,0.31161064,,0.04469443,-0.012345411,0.0011291504,-0.13076778,0.67101747,0.72981864,0.26182017,-0.68663216,0.678223,0.9562166,0.27977094,-0.08589655,,0.10506394,1.3398856,0.4409002,0.99399745,0.014082594,-0.108492814,-0.061568618,-0.7477312,-0.661141,-0.090434045,0.6638522,-0.74237585,,-0.09700474,0.2461696,-0.088618085,0.85196775,-0.04717035,0.5214651,-0.47439337,0.35194638,0.8068982,-0.22158945,-0.93483084,0.2774697,,-0.016989298,0.39412856,-0.3398477,0.021059684,-0.65458447,-0.75569546,0.93824965,-0.24813071,0.24107826,-0.34531733,-0.71410805,0.6089381,,1.1799486331198885,0.4910268016089428,0.20277475583000001,0.5321930765637228,-0.1627340712206396,1.3860589907593655,-0.40656338060822095,,-0.7754009942365119,-0.24589181471530838,0.21313470551000002,-2.3600603139183214,-1.0878998111324367,0.18091496197560608,0.8761775707442738,,-0.06819874052167843,-0.05076944627895005,0.08427136484,-0.06770673936139116,,0.00014664605,5.00679e-06,-1.1086464e-05,0.99999994,-0.000119719654,-0.00010704994,0.00011971593,1.0,-1.4573336e-05,0.00010705739,1.4573336e-05,1.0,412,1.285,1,3,1.057,False,-0.25582675076423333,1.050432311173537
1.3012861930183135,11:15:52.964024,11:15:44.470301,0,,0.12042739,0.0008958131,0.015598595,-0.85324776,-0.026812565,-0.5208162,-0.47334152,-0.379369,0.7950012,-0.21889746,0.92485696,0.31100416,,0.04467816,-0.012348257,0.0011223555,-0.13077514,0.67098004,0.7298518,0.26173666,-0.6866894,0.6781974,0.9562384,0.27972037,-0.08581823,,0.10506394,1.3398856,0.4409002,0.99399745,0.014082594,-0.108492814,-0.061568618,-0.7477312,-0.661141,-0.090434045,0.6638522,-0.74237585,,-0.097006865,0.24619983,-0.088725284,0.8520403,-0.045199305,0.5215212,-0.47509217,0.3515598,0.8066555,-0.21980613,-0.9350737,0.27806926,,-0.016972296,0.39412326,-0.33984625,0.02106965,-0.654539,-0.7557346,0.9382197,-0.24820048,0.24112281,-0.34539798,-0.7141255,0.60887194,,1.1800413059143793,0.491034524341817,0.20266197860000001,0.5317736966767538,-0.1608211602239234,1.3853976062491618,-0.40672672467435533,,-0.7753083214420212,-0.24589181471530838,0.21313470551000002,-2.3600603139183214,-1.0880364476322024,0.1810263798793027,0.8761775707442738,,-0.06819874052167843,-0.05076944627895005,0.08427136484,-0.06770673936139116,,0.00014664605,5.00679e-06,-1.1086464e-05,0.99999994,-0.000119719654,-0.00010704994,0.00011971593,1.0,-1.4573336e-05,0.00010705739,1.4573336e-05,1.0,426,1.33,1,3,1.102,False,-0.25558843989015,1.0506254319766548
1.3307197440299205,11:15:53.006419,11:15:44.551455,0,,0.12042214,0.00077688694,0.015855163,-0.85135275,-0.031998824,-0.52361685,-0.47389686,-0.38117298,0.7938065,-0.22498944,0.92394984,0.30934843,,0.04466071,-0.012350567,0.001113832,-0.13077794,0.6711438,0.7297008,0.26181522,-0.6865136,0.678345,0.9562166,0.27975926,-0.08593476,,0.10506394,1.3398856,0.4409002,0.99399745,0.014082594,-0.108492814,-0.061568618,-0.7477312,-0.661141,-0.090434045,0.6638522,-0.74237585,,-0.09702197,0.24628729,-0.08899384,0.85053724,-0.040017843,0.5243901,-0.47968754,0.34974632,0.8047219,-0.21560675,-0.9359894,0.2782762,,-0.016954001,0.3941171,-0.33984336,0.021070067,-0.65471554,-0.7555817,0.9382479,-0.2480857,0.24113145,-0.3453215,-0.71400356,0.60905826,,1.1802807106334803,0.49114264260205615,0.20237809109000002,0.5273702078635788,-0.15603888273213298,1.38484680796555,-0.40656338060822117,,-0.7752156486475305,-0.24589181471530838,0.21313470551000002,-2.3602700038618063,-1.0880364476322024,0.1810263798793027,0.8761775707442738,,-0.06819874052167843,-0.05076944627895005,0.08427136484,-0.06770673936139116,,0.00014664605,5.00679e-06,-1.1086464e-05,0.99999994,-0.000119719654,-0.00010704994,0.00011971593,1.0,-1.4573336e-05,0.00010705739,1.4573336e-05,1.0,449,1.404,1,3,1.176,False,-0.25535012901606535,1.0510116735828905
1.3731606910005212,11:15:53.082755,11:15:44.551455,0,,0.12044279,0.0006302446,0.016231507,-0.85110813,-0.041791245,-0.5233245,-0.46935606,-0.38601804,0.794163,-0.2352017,0.9215442,0.30892807,,0.04466682,-0.012352504,0.0011163354,-0.13080376,0.6710654,0.72976816,0.26182094,-0.6865777,0.6782779,0.95621145,0.27978992,-0.08589205,,0.10506394,1.3398856,0.4409002,0.99399745,0.014082594,-0.108492814,-0.061568618,-0.7477312,-0.661141,-0.090434045,0.6638522,-0.74237585,,-0.097071625,0.24643525,-0.08936696,0.85109764,-0.030229615,0.5241364,-0.48331043,0.34479672,0.8046902,-0.205046,-0.9381905,0.27884537,,-0.016960196,0.39411724,-0.3398463,0.021095892,-0.65463704,-0.755649,0.93825006,-0.24808925,0.24111941,-0.3453141,-0.7140743,0.6089795,,1.1806282336128204,0.49128937452666643,0.2019749449,0.525482998372218,-0.1449713262511323,1.3842348680006178,-0.40672672467435556,,-0.7752465395790274,-0.24590726018105682,0.21313470551000002,-2.3602700038618063,-1.0880364476322024,0.18110805861944324,0.8760142266781397,,-0.06819874052167843,-0.05076944627895005,0.08427136484,-0.06770673936139116,,0.00014664605,5.00679e-06,-1.1086464e-05,0.99999994,-0.000119719654,-0.00010704994,0.00011971593,1.0,-1.4573336e-05,0.00010705739,1.4573336e-05,1.0,458,1.433,0,3,1.176,False,-0.25546928445310746,1.0507702725789931
1.4495342479785904,11:15:53.114056,11:15:44.646845,0,,0.120431066,0.0005694777,0.016394168,-0.8502091,-0.044095665,-0.5245951,-0.46933696,-0.3878978,0.7932578,-0.2384685,0.920647,0.30909848,,0.044666305,-0.012352698,0.0011175275,-0.13080376,0.6710654,0.72976816,0.26182094,-0.6865777,0.6782779,0.95621145,0.27978992,-0.08589205,,0.10506394,1.3398856,0.4409002,0.99399745,0.014082594,-0.108492814,-0.061568618,-0.7477312,-0.661141,-0.090434045,0.6638522,-0.74237585,,-0.09707241,0.2465016,-0.08952782,0.8504175,-0.027925335,0.5253667,-0.48553962,0.34286484,0.80417347,-0.20258659,-0.9389696,0.2780194,,-0.016959796,0.39411816,-0.33984715,0.021095892,-0.65463704,-0.755649,0.93825006,-0.24808925,0.24111941,-0.3453141,-0.7140743,0.6089795,,1.1808444701332987,0.49139749278690553,0.20180383462,0.5233860989373728,-0.1422385962558235,1.3848652658316092,-0.40591000434368407,,-0.7752465395790274,-0.24590726018105682,0.21313340922000001,-2.3602700038618063,-1.0880364476322024,0.18110805861944324,0.8760142266781397,,-0.06819874052167843,-0.05076944627895005,0.08427136484,-0.06770673936139116,,0.00014664605,5.00679e-06,-1.1086464e-05,0.99999994,-0.000119719654,-0.00010704994,0.00011971593,1.0,-1.4573336e-05,0.00010705739,1.4573336e-05,1.0,472,1.478,0,3,1.176,False,-0.25546928445310746,1.050335750771978
1.4808199129765853,11:15:53.156548,11:15:44.646845,0,,0.120413765,0.00047247112,0.016587913,-0.8503838,-0.047153622,-0.5240458,-0.46786958,-0.38789093,0.7941276,-0.24071856,0.9204983,0.3077944,,0.04466057,-0.0123522505,0.0011149645,-0.13077849,0.6710815,0.72975785,0.26182216,-0.6865692,0.6782861,0.95621455,0.27977195,-0.085915536,,0.10506394,1.3398856,0.4409002,0.99399745,0.014082594,-0.108492814,-0.061568618,-0.7477312,-0.661141,-0.090434045,0.6638522,-0.74237585,,-0.097070724,0.24656269,-0.08973643,0.8507822,-0.024865285,0.5249298,-0.4859902,0.3428427,0.80391073,-0.19995782,-0.93906367,0.27960017,,-0.016953869,0.394117,-0.33984536,0.021070395,-0.65465176,-0.7556369,0.9382504,-0.24810064,0.24110632,-0.34531465,-0.7140568,0.6089997,,1.18102981572228,0.4914438291841509,0.20158605790000003,0.5233860989373728,-0.1395058662605147,1.383126980198524,-0.40591000434368407,,-0.7752156486475305,-0.2458995374481826,0.21313340922000001,-2.3602700038618063,-1.0880364476322024,0.18110805861944324,0.8760142266781397,,-0.06819874052167843,-0.05076944627895005,0.08427136484,-0.06770673936139116,,0.00014664605,5.00679e-06,-1.1086464e-05,0.99999994,-0.000119719654,-0.00010704994,0.00011971593,1.0,-1.4573336e-05,0.00010705739,1.4573336e-05,1.0,490,1.535,0,3,1.176,False,-0.2548735072678969,1.0510116735828905
1.5233154050074518,11:15:53.213912,11:15:44.745355,0,,0.12044019,0.00041604042,0.016744465,-0.85030127,-0.052414194,-0.5236799,-0.46481544,-0.39190912,0.7939482,-0.24684905,0.91850966,0.30887783,,0.04466228,-0.012353487,0.0011155009,-0.13078521,0.6710756,0.7297622,0.2618271,-0.6865715,0.6782818,0.9562123,0.27978075,-0.08591238,,0.10506394,1.3398856,0.4409002,0.99399745,0.014082594,-0.108492814,-0.061568618,-0.7477312,-0.661141,-0.090434045,0.6638522,-0.74237585,,-0.097109035,0.24662715,-0.08988732,0.8511921,-0.019601202,0.52448815,-0.48792288,0.338673,0.8045072,-0.19339928,-0.94069993,0.2787119,,-0.01695555,0.39411652,-0.33984667,0.021077015,-0.6546466,-0.7556412,0.9382522,-0.24809422,0.24110593,-0.34530938,-0.7140638,0.6089945,,1.1811533794482676,0.4914747201156478,0.20142013278,0.5225473391634347,-0.1326740412722427,1.3841720629650884,-0.40640003654208656,,-0.7752233713804048,-0.24590726018105682,0.21313340922000001,-2.3602700038618063,-1.0880364476322024,0.18110805861944324,0.8760142266781397,,-0.06819874052167843,-0.05076944627895005,0.08427136484,-0.06770673936139116,,0.00014664605,5.00679e-06,-1.1086464e-05,0.99999994,-0.000119719654,-0.00010704994,0.00011971593,1.0,-1.4573336e-05,0.00010705739,1.4573336e-05,1.0,504,1.58,0,3,1.176,False,-0.2551118181419816,1.0504805913743163
1.5806681329850107,11:15:53.263192,11:15:44.745355,0,,0.120466724,0.00036021322,0.016873807,-0.8504746,-0.057803,-0.52283055,-0.46161482,-0.3945338,0.7945154,-0.25219968,0.91706157,0.30885822,,0.044664957,-0.01235535,0.0011163354,-0.13063112,0.6708294,0.730016,0.26171932,-0.6868735,0.6780176,0.9562628,0.27962953,-0.08584201,,0.10506394,1.3398856,0.4409002,0.99399745,0.014082594,-0.108492814,-0.061568618,-0.7477312,-0.661141,-0.090434045,0.6638522,-0.74237585,,-0.09714565,0.24667355,-0.09001793,0.85180986,-0.014205303,0.52365845,-0.48921177,0.33589515,0.80488896,-0.18732801,-0.94179225,0.27916938,,-0.016958188,0.39411584,-0.33984867,0.020925175,-0.65436983,-0.75588506,0.9382131,-0.24836342,0.24098083,-0.3454248,-0.71422386,0.60874134,,1.1812228840441357,0.4914515519170251,0.20127754088000002,0.5223376492199502,-0.12638876228303242,1.3838658850633463,-0.4062366924759526,,-0.7752233713804048,-0.24590726018105682,0.21313340922000001,-2.359850623974837,-1.0880364476322024,0.18110805861944324,0.8760142266781397,,-0.06819874052167843,-0.05076944627895005,0.08427136484,-0.06770673936139116,,0.00014664605,5.00679e-06,-1.1086464e-05,0.99999994,-0.000119719654,-0.00010704994,0.00011971593,1.0,-1.4573336e-05,0.00010705739,1.4573336e-05,1.0,513,1.609,0,3,1.176,False,-0.25535012901606535,1.0509151131813312
1.6299450040096417,11:15:53.286532,11:15:44.832504,0,,0.12049107,0.00033791363,0.016929835,-0.85040444,-0.062288873,-0.52242935,-0.45986435,-0.3944168,0.79558784,-0.25561112,0.9168182,0.30676925,,0.044664584,-0.01235386,0.0011165142,-0.13063058,0.67083204,0.73001367,0.2617124,-0.68687326,0.6780205,0.95626473,0.2796238,-0.08583838,,0.10506394,1.3398856,0.4409002,0.99399745,0.014082594,-0.108492814,-0.061568618,-0.7477312,-0.661141,-0.090434045,0.6638522,-0.74237585,,-0.097174264,0.24669474,-0.090072356,0.85201526,-0.009711646,0.5234269,-0.49025053,0.33592388,0.8042447,-0.18364212,-0.9418391,0.28145114,,-0.01695792,0.39411685,-0.33984753,0.020924846,-0.65437186,-0.75588334,0.9382106,-0.24836819,0.2409857,-0.34543163,-0.71422035,0.6087416,,1.1812228840441357,0.49143610645127667,0.20121661525,0.5219182693329811,-0.12256294028960008,1.381562971161252,-0.4062366924759526,,-0.7752233713804048,-0.2458995374481826,0.21313340922000001,-2.359850623974837,-1.0880364476322024,0.18110805861944324,0.8760142266781397,,-0.06819874052167843,-0.05076944627895005,0.08427136484,-0.06770673936139116,,0.00014664605,5.00679e-06,-1.1086464e-05,0.99999994,-0.000119719654,-0.00010704994,0.00011971593,1.0,-1.4573336e-05,0.00010705739,1.4573336e-05,1.0,536,1.683,0,3,1.176,False,-0.25540970673458663,1.0504805913743163
1.6533099620137364,11:15:53.357331,11:15:44.832504,0,,0.120517634,0.00028217584,0.017064959,-0.8501933,-0.0680714,-0.5220514,-0.45714018,-0.39640504,0.79616946,-0.2611401,0.9155487,0.30590266,,0.044664957,-0.01235535,0.0011163354,-0.13063112,0.6708294,0.730016,0.26171932,-0.6868735,0.6780176,0.9562628,0.27962953,-0.08584201,,0.10506394,1.3398856,0.4409002,0.99399745,0.014082594,-0.108492814,-0.061568618,-0.7477312,-0.661141,-0.090434045,0.6638522,-0.74237585,,-0.09721128,0.24674512,-0.09020711,0.8522477,-0.0039167446,0.5231238,-0.49201918,0.3337434,0.80407244,-0.17773844,-0.9426558,0.28250492,,-0.016958188,0.39411584,-0.33984867,0.020925175,-0.65436983,-0.75588506,0.9382131,-0.24836342,0.24098083,-0.3454248,-0.71422386,0.60874134,,1.1813001113728778,0.49143610645127667,0.20107013448000002,0.521079509559043,-0.11641429780015526,1.3805514237618006,-0.40640003654208656,,-0.7752233713804048,-0.24590726018105682,0.21313340922000001,-2.359850623974837,-1.0880364476322024,0.18110805861944324,0.8760142266781397,,-0.06819874052167843,-0.05076944627895005,0.08427136484,-0.06770673936139116,,0.00014664605,5.00679e-06,-1.1086464e-05,0.99999994,-0.000119719654,-0.00010704994,0.00011971593,1.0,-1.4573336e-05,0.00010705739,1.4573336e-05,1.0,545,1.711,0,3,1.176,False,-0.254694774112334,1.0509151131813312
1.7240974220330827,11:15:53.387385,11:15:44.916579,0,,0.12054834,0.00025591254,0.017157853,-0.8496241,-0.07330184,-0.52226985,-0.45476985,-0.39964545,0.79590684,-0.26706415,0.91373426,0.3062129,,0.044664957,-0.01235535,0.0011163354,-0.13063112,0.6708294,0.730016,0.26171932,-0.6868735,0.6780176,0.9562628,0.27962953,-0.08584201,,0.10506394,1.3398856,0.4409002,0.99399745,0.014082594,-0.108492814,-0.061568618,-0.7477312,-0.661141,-0.090434045,0.6638522,-0.74237585,,-0.09724879,0.24678831,-0.09029071,0.8521391,0.0013278982,0.52331364,-0.49432436,0.3302614,0.8040963,-0.17176256,-0.94388855,0.2820851,,-0.016958188,0.39411584,-0.33984867,0.020925175,-0.65436983,-0.75588506,0.9382131,-0.24836342,0.24098083,-0.3454248,-0.71422386,0.60874134,,1.1813773387016202,0.4914283837184025,0.20097550531000002,0.5196116799546513,-0.110129018810945,1.381062033261464,-0.40656338060822117,,-0.7752233713804048,-0.24590726018105682,0.21313340922000001,-2.359850623974837,-1.0880364476322024,0.18110805861944324,0.8760142266781397,,-0.06819874052167843,-0.05076944627895005,0.08427136484,-0.06770673936139116,,0.00014664605,5.00679e-06,-1.1086464e-05,0.99999994,-0.000119719654,-0.00010704994,0.00011971593,1.0,-1.4573336e-05,0.00010705739,1.4573336e-05,1.0,559,1.756,1,4,1.204,False,-0.2545756186752919,1.0508185527797727
1.7541281339945272,11:15:53.428768,11:15:44.916579,0,,0.120558105,0.00018252432,0.017322034,-0.84912825,-0.07820296,-0.5223652,-0.45260113,-0.40207726,0.79591835,-0.27227432,0.91225994,0.3060204,,0.044666294,-0.012355082,0.0011170506,-0.1306373,0.6708261,0.73001796,0.2617173,-0.68687546,0.67801625,0.9562626,0.27963257,-0.08583522,,0.10506394,1.3398856,0.4409002,0.99399745,0.014082594,-0.108492814,-0.061568618,-0.7477312,-0.661141,-0.090434045,0.6638522,-0.74237585,,-0.09727148,0.24684593,-0.09045983,0.8520508,0.0062445994,0.5234219,-0.49629006,0.32759532,0.80397606,-0.16645005,-0.9447975,0.282227,,-0.016959602,0.3941164,-0.33984885,0.020931467,-0.6543667,-0.7558876,0.9382124,-0.24836177,0.24098532,-0.34542635,-0.7142273,0.60873634,,1.1815240706262304,0.4914283837184025,0.20079532100000003,0.5183535402937443,-0.10452692232056193,1.380904551177501,-0.4055833162114153,,-0.775231094113279,-0.24590726018105682,0.21313340922000001,-2.359850623974837,-1.0880364476322024,0.18110805861944324,0.8760142266781397,,-0.06819874052167843,-0.05076944627895005,0.08427136484,-0.06770673936139116,,0.00014664605,5.00679e-06,-1.1086464e-05,0.99999994,-0.000119719654,-0.00010704994,0.00011971593,1.0,-1.4573336e-05,0.00010705739,1.4573336e-05,1.0,568,1.785,1,4,1.233,False,-0.2544564632382502,1.050432311173537
1.7955473869806156,11:15:53.467457,11:15:45.010956,0,,0.12056508,0.00012793392,0.017446011,-0.8483382,-0.08129957,-0.5231757,-0.45182166,-0.40395606,0.7954097,-0.27600643,0.91115856,0.30595836,,0.044663616,-0.012355618,0.0011157393,-0.13062494,0.6708328,0.7300139,0.26172143,-0.6868714,0.67801887,0.95626307,0.27962646,-0.08584878,,0.10506394,1.3398856,0.4409002,0.99399745,0.014082594,-0.108492814,-0.061568618,-0.7477312,-0.661141,-0.090434045,0.6638522,-0.74237585,,-0.097288184,0.24689007,-0.090587,0.8515316,0.009352548,0.5242198,-0.49827585,0.32554442,0.80358076,-0.16314131,-0.94548047,0.28187153,,-0.016956773,0.3941153,-0.33984852,0.020918882,-0.65437305,-0.7558825,0.9382138,-0.24836507,0.24097633,-0.34542322,-0.71422035,0.6087463,,1.1816244661535953,0.49145927464989936,0.20066050684000003,0.5166760207458679,-0.10097437332666048,1.381193156546876,-0.4064000365420868,,-0.7752156486475305,-0.24590726018105682,0.21313340922000001,-2.359850623974837,-1.0880364476322024,0.18110805861944324,0.8760142266781397,,-0.06819874052167843,-0.05076944627895005,0.08427136484,-0.06770673936139116,,0.00014664605,5.00679e-06,-1.1086464e-05,0.99999994,-0.000119719654,-0.00010704994,0.00011971593,1.0,-1.4573336e-05,0.00010705739,1.4573336e-05,1.0,582,1.83,1,4,1.278,False,-0.2550522404234603,1.0501909101696396
1.8342209400143474,11:15:53.506012,11:15:45.010956,0,,0.12060186,9.328127e-05,0.017609268,-0.84761715,-0.08883393,-0.5231193,-0.44830635,-0.40749142,0.7955954,-0.2838424,0.9088781,0.30557185,,0.044663616,-0.012355618,0.0011157393,-0.13062494,0.6708328,0.7300139,0.26172143,-0.6868714,0.67801887,0.95626307,0.27962646,-0.08584878,,0.10506394,1.3398856,0.4409002,0.99399745,0.014082594,-0.108492814,-0.061568618,-0.7477312,-0.661141,-0.090434045,0.6638522,-0.74237585,,-0.09733665,0.24697481,-0.090727285,0.8514306,0.016917553,0.52419436,-0.5010458,0.32158512,0.8034526,-0.15498064,-0.94672954,0.28228387,,-0.016956773,0.3941153,-0.33984852,0.020918882,-0.65437305,-0.7558825,0.9382138,-0.24836507,0.24097633,-0.34542322,-0.71422035,0.6087463,,1.1818098117425768,0.49155194744439007,0.20049717430000003,0.5149985011979918,-0.09209300084190686,1.3806486494981347,-0.4062366924759524,,-0.7752156486475305,-0.24590726018105682,0.21313340922000001,-2.359850623974837,-1.0880364476322024,0.18110805861944324,0.8760142266781397,,-0.06819874052167843,-0.05076944627895005,0.08427136484,-0.06770673936139116,,0.00014664605,5.00679e-06,-1.1086464e-05,0.99999994,-0.000119719654,-0.00010704994,0.00011971593,1.0,-1.4573336e-05,0.00010705739,1.4573336e-05,1.0,591,1.859,1,4,1.307,False,-0.2547543518308557,1.0507702725789931
1.872774608025793,11:15:53.537519,11:15:45.010956,0,,0.120605305,3.1784177e-05,0.017764747,-0.8476902,-0.09124252,-0.522586,-0.4459397,-0.41099843,0.7951213,-0.2873308,0.9070585,0.3077106,,0.044663616,-0.012355618,0.0011157393,-0.13062494,0.6708328,0.7300139,0.26172143,-0.6868714,0.67801887,0.95626307,0.27962646,-0.08584878,,0.10506394,1.3398856,0.4409002,0.99399745,0.014082594,-0.108492814,-0.061568618,-0.7477312,-0.661141,-0.090434045,0.6638522,-0.74237585,,-0.09735212,0.24703537,-0.090882376,0.85180146,0.019340428,0.5235076,-0.5016819,0.31783605,0.8045467,-0.15082932,-0.9479484,0.28043595,,-0.016956773,0.3941153,-0.33984852,0.020918882,-0.65437305,-0.7558825,0.9382138,-0.24836507,0.24097633,-0.34542322,-0.71422035,0.6087463,,1.181956543667187,0.4915982838416354,0.20033902692000002,0.5149985011979918,-0.08826717884847453,1.3826747088234903,-0.40591000434368385,,-0.7752156486475305,-0.24590726018105682,0.21313340922000001,-2.359850623974837,-1.0880364476322024,0.18110805861944324,0.8760142266781397,,-0.06819874052167843,-0.05076944627895005,0.08427136484,-0.06770673936139116,,0.00014664605,5.00679e-06,-1.1086464e-05,0.99999994,-0.000119719654,-0.00010704994,0.00011971593,1.0,-1.4573336e-05,0.00010705739,1.4573336e-05,1.0,605,1.904,1,4,1.352,False,-0.2543373078012081,1.050335750771978
1.904259093978908,11:15:53.581229,11:15:45.111706,0,,0.120639496,-4.723668e-05,0.017973244,-0.84565216,-0.10104269,-0.52408284,-0.44363868,-0.41285488,0.79544663,-0.29674417,0.9051747,0.30430508,,0.044665463,-0.012355186,0.0011152029,-0.13063112,0.6708294,0.730016,0.26171932,-0.6868735,0.6780176,0.9562628,0.27962953,-0.08584201,,0.10506394,1.3398856,0.4409002,0.99399745,0.014082594,-0.108492814,-0.061568618,-0.7477312,-0.661141,-0.090434045,0.6638522,-0.74237585,,-0.097402245,0.24711844,-0.09108604,0.85045654,0.029186906,0.525235,-0.5064462,0.31543154,0.80250555,-0.14225303,-0.9484994,0.2830424,,-0.016958589,0.39411494,-0.33984783,0.020925175,-0.65436983,-0.75588506,0.9382131,-0.24836342,0.24098083,-0.3454248,-0.71422386,0.60874134,,1.18212644379042,0.4916214520402581,0.20011995391,0.5110143922717858,-0.07911253336419002,1.3797837187237016,-0.40591000434368385,,-0.7752233713804048,-0.24590726018105682,0.21313470551000002,-2.359850623974837,-1.0880364476322024,0.18110805861944324,0.8760142266781397,,-0.06819874052167843,-0.05076944627895005,0.08427136484,-0.06770673936139116,,0.00014664605,5.00679e-06,-1.1086464e-05,0.99999994,-0.000119719654,-0.00010704994,0.00011971593,1.0,-1.4573336e-05,0.00010705739,1.4573336e-05,1.0,614,1.932,1,4,1.38,False,-0.25558843989015,1.05105995378367
1.94798505702056,11:15:53.616993,11:15:45.111706,0,,0.12067161,-0.00011321902,0.018169284,-0.8435344,-0.10713439,-0.52628124,-0.44225612,-0.41742215,0.7938313,-0.30472806,0.9023752,0.304729,,0.044662777,-0.012355693,0.0011138916,-0.13061875,0.6708362,0.73001194,0.2617235,-0.6868694,0.6780202,0.9562634,0.2796234,-0.08585557,,0.10506394,1.3398856,0.4409002,0.99399745,0.014082594,-0.108492814,-0.061568618,-0.7477312,-0.661141,-0.090434045,0.6638522,-0.74237585,,-0.09744912,0.24720262,-0.09127186,0.84891146,0.035317954,0.5273537,-0.5109134,0.3103282,0.8016632,-0.13533962,-0.94997317,0.2814856,,-0.01695576,0.39411387,-0.33984753,0.02091259,-0.6543762,-0.7558799,0.93821454,-0.24836673,0.24097185,-0.34542167,-0.7142169,0.6087513,,1.1822731757150302,0.491721847567623,0.19992032525000003,0.5070302833455799,-0.07173416237685623,1.381199917276886,-0.40541997214528114,,-0.7752079259146563,-0.24590726018105682,0.21313470551000002,-2.359850623974837,-1.0880364476322024,0.18110805861944324,0.8760142266781397,,-0.06819874052167843,-0.05076944627895005,0.08427136484,-0.06770673936139116,,0.00014664605,5.00679e-06,-1.1086464e-05,0.99999994,-0.000119719654,-0.00010704994,0.00011971593,1.0,-1.4573336e-05,0.00010705739,1.4573336e-05,1.0,628,1.977,1,4,1.425,False,-0.25481392954937654,1.0508668329805522
1.9837228410178795,11:15:53.657645,11:15:45.192690,0,,0.12068193,-0.00018915534,0.01840803,-0.8424119,-0.1115115,-0.5271693,-0.44047293,-0.42101002,0.79292756,-0.3103641,0.9001754,0.305546,,0.044659726,-0.012354739,0.0011126399,-0.13060583,0.67084557,0.7300056,0.2617206,-0.68686503,0.67802566,0.9562659,0.2796116,-0.08586553,,0.10506394,1.3398856,0.4409002,0.99399745,0.014082594,-0.108492814,-0.061568618,-0.7477312,-0.661141,-0.090434045,0.6638522,-0.74237585,,-0.097477354,0.24730907,-0.091497146,0.8482152,0.03972707,0.52815974,-0.51346636,0.3063089,0.8015779,-0.1299357,-0.95110285,0.28021437,,-0.016952662,0.39411378,-0.33984604,0.020899674,-0.6543846,-0.75587296,0.93821347,-0.2483748,0.24096774,-0.34542537,-0.7142064,0.6087615,,1.1825125804341312,0.4919226386223528,0.19968051160000003,0.5049333839107346,-0.06613206588647318,1.3822676162950316,-0.4055833162114153,,-0.7751924804489079,-0.2458995374481826,0.21313470551000002,-2.359850623974837,-1.0880364476322024,0.18110805861944324,0.8760142266781397,,-0.06819874052167843,-0.05076944627895005,0.08427136484,-0.06770673936139116,,0.00014664605,5.00679e-06,-1.1086464e-05,0.99999994,-0.000119719654,-0.00010704994,0.00011971593,1.0,-1.4573336e-05,0.00010705739,1.4573336e-05,1.0,642,2.023,1,4,1.471,False,-0.25397984149008224,1.0508668329805522
2.0244231959804893,11:15:53.699313,11:15:45.192690,0,,0.12066078,-0.00024993718,0.018666714,-0.8398547,-0.11665402,-0.5301283,-0.44158632,-0.42112046,0.7922493,-0.3156669,0.8994717,0.30216712,,0.044659585,-0.012356408,0.0011137128,-0.13060637,0.670843,0.73000795,0.26172757,-0.68686527,0.67802274,0.95626396,0.2796173,-0.08586913,,0.10506394,1.3398856,0.4409002,0.99399745,0.014082594,-0.108492814,-0.061568618,-0.7477312,-0.661141,-0.090434045,0.6638522,-0.74237585,,-0.097475104,0.24744095,-0.091728784,0.8459836,0.04489964,0.53131515,-0.51795006,0.30587378,0.79885477,-0.12664707,-0.95101273,0.28201997,,-0.01695253,0.3941137,-0.33984804,0.020900004,-0.6543826,-0.75587475,0.938216,-0.24837004,0.24096286,-0.34541854,-0.7142099,0.60876125,,1.1829373307422135,0.492239270670196,0.19943292021000003,0.5001105152105906,-0.06244288039280628,1.379667726595931,-0.4050932840130128,,-0.7751924804489079,-0.24590726018105682,0.21313340922000001,-2.359850623974837,-1.0880364476322024,0.18110805861944324,0.8760142266781397,,-0.06819874052167843,-0.05076944627895005,0.08427136484,-0.06770673936139116,,0.00014664605,5.00679e-06,-1.1086464e-05,0.99999994,-0.000119719654,-0.00010704994,0.00011971593,1.0,-1.4573336e-05,0.00010705739,1.4573336e-05,1.0,651,2.051,1,4,1.499,False,-0.25588632848275505,1.0507702725789931
2.066038477991242,11:15:53.731992,11:15:45.279858,0,,0.12068096,-0.00030636787,0.01895614,-0.8375016,-0.12532854,-0.5318682,-0.4391577,-0.42482555,0.79162097,-0.3251639,0.8965579,0.300753,,0.04465871,-0.01235389,0.0011152625,-0.13068907,0.6710249,0.7298259,0.2617724,-0.6866607,0.6782126,0.9562404,0.27968326,-0.08591676,,0.10506394,1.3398856,0.4409002,0.99399745,0.014082594,-0.108492814,-0.061568618,-0.7477312,-0.661141,-0.090434045,0.6638522,-0.74237585,,-0.09751596,0.24759592,-0.09197712,0.84433365,0.053638894,0.53312624,-0.5226853,0.30138698,0.79747474,-0.11790164,-0.951992,0.28250745,,-0.016951958,0.3941165,-0.33984688,0.020981884,-0.65458155,-0.7557002,0.9382323,-0.24821886,0.24105507,-0.34536925,-0.7140801,0.60894144,,1.1833389128516731,0.49253273451941654,0.19916329189,0.4959167163409001,-0.053288234908521775,1.3786553475193752,-0.40525662807914675,,-0.7752002031817821,-0.2458995374481826,0.21313211293000003,-2.3600603139183214,-1.0880364476322024,0.1810263798793027,0.8761775707442738,,-0.06819874052167843,-0.05076944627895005,0.08427136484,-0.06770673936139116,,0.00014664605,5.00679e-06,-1.1086464e-05,0.99999994,-0.000119719654,-0.00010704994,0.00011971593,1.0,-1.4573336e-05,0.00010705739,1.4573336e-05,1.0,665,2.096,1,4,1.544,False,-0.2544564632382502,1.0507219923782136
2.0987323879962787,11:15:53.770414,11:15:45.279858,0,,0.120714754,-0.00037394464,0.019215673,-0.83635026,-0.13407403,-0.5315472,-0.43347526,-0.43182927,0.7909632,-0.33558524,0.89193475,0.30304265,,0.044656698,-0.012354009,0.0011169314,-0.13076445,0.6709502,0.7298811,0.26166636,-0.6867406,0.6781726,0.9562591,0.27966622,-0.08576384,,0.10506394,1.3398856,0.4409002,0.99399745,0.014082594,-0.108492814,-0.061568618,-0.7477312,-0.661141,-0.090434045,0.6638522,-0.74237585,,-0.09756875,0.24772206,-0.092210285,0.844036,0.06246811,0.5326359,-0.52563566,0.29332227,0.79854196,-0.106350556,-0.95397055,0.28041002,,-0.016950116,0.394118,-0.33984798,0.021061057,-0.654501,-0.7557677,0.9381945,-0.24827047,0.24114901,-0.3454671,-0.71413594,0.60882044,,1.1836632676323906,0.492617684581033,0.19891181163000002,0.4942391967930239,-0.04140085942892845,1.3807237284780276,-0.4049299399468782,,-0.7751924804489079,-0.2458995374481826,0.21313081664000003,-2.3600603139183214,-1.0881730841319677,0.181137797782999,0.8761775707442738,,-0.06819874052167843,-0.05076944627895005,0.08427136484,-0.06770673936139116,,0.00014664605,5.00679e-06,-1.1086464e-05,0.99999994,-0.000119719654,-0.00010704994,0.00011971593,1.0,-1.4573336e-05,0.00010705739,1.4573336e-05,1.0,674,2.125,1,4,1.573,False,-0.25558843989015,1.0506254319766548
2.137194654031191,11:15:53.802166,11:15:45.279858,0,,0.12072464,-0.0005041957,0.019546434,-0.83405983,-0.14383426,-0.5325936,-0.4289186,-0.43807814,0.79001033,-0.3469481,0.88735527,0.30369014,,0.04465438,-0.01235605,0.0011155009,-0.13075262,0.67095435,0.72987944,0.2616775,-0.6867367,0.67817223,0.9562577,0.2796658,-0.08578101,,0.10506394,1.3398856,0.4409002,0.99399745,0.014082594,-0.108492814,-0.061568618,-0.7477312,-0.661141,-0.090434045,0.6638522,-0.74237585,,-0.09760419,0.24785131,-0.09253969,0.8426324,0.07232801,0.5336097,-0.5300788,0.2858649,0.79830927,-0.094800144,-0.9555365,0.27921855,,-0.016947554,0.39411592,-0.33984885,0.021048801,-0.6545054,-0.7557643,0.93819845,-0.248269,0.24113517,-0.3454571,-0.7141325,0.60883015,,1.1840648497418502,0.4926099618481588,0.19856570220000003,0.490674467753787,-0.02924021094980426,1.3816708074877408,-0.40476659588074404,,-0.7751770349831594,-0.24590726018105682,0.21313081664000003,-2.3600603139183214,-1.0881730841319677,0.181137797782999,0.8761775707442738,,-0.06819874052167843,-0.05076944627895005,0.08427136484,-0.06770673936139116,,0.00014664605,5.00679e-06,-1.1086464e-05,0.99999994,-0.000119719654,-0.00010704994,0.00011971593,1.0,-1.4573336e-05,0.00010705739,1.4573336e-05,1.0,688,2.17,1,4,1.618,False,-0.25403941920860307,1.0506737121774343
2.168909507978242,11:15:53.851008,11:15:45.370686,0,,0.12069826,-0.00065193325,0.019879967,-0.83160764,-0.15296322,-0.53388304,-0.42672488,-0.4392569,0.7905436,-0.35543588,0.8852433,0.3000161,,0.044652894,-0.012358017,0.0011158586,-0.13074698,0.6709551,0.7298797,0.26168653,-0.6867349,0.6781707,0.9562559,0.27966845,-0.08579144,,0.10506394,1.3398856,0.4409002,0.99399745,0.014082594,-0.108492814,-0.061568618,-0.7477312,-0.661141,-0.090434045,0.6638522,-0.74237585,,-0.09760413,0.24797049,-0.092885464,0.8408102,0.08153941,0.5351538,-0.5343023,0.2837856,0.7962329,-0.086944595,-0.9554146,0.28217652,,-0.016946007,0.39411527,-0.33985066,0.021042837,-0.6545065,-0.7557635,0.93820167,-0.24826589,0.24112579,-0.3454487,-0.71413255,0.6088349,,1.1845204909814295,0.4926099618481588,0.19820662987,0.486690358827581,-0.020768747964346947,1.3781117258043256,-0.40460325181460965,,-0.7751693122502852,-0.24591498291393107,0.21312952035000002,-2.3600603139183214,-1.0881730841319677,0.181137797782999,0.8761775707442738,,-0.06819874052167843,-0.05076944627895005,0.08427136484,-0.06770673936139116,,0.00014664605,5.00679e-06,-1.1086464e-05,0.99999994,-0.000119719654,-0.00010704994,0.00011971593,1.0,-1.4573336e-05,0.00010705739,1.4573336e-05,1.0,697,2.199,1,4,1.647,False,-0.2551713958605024,1.050963393382111
2.2177576170070097,11:15:53.878993,11:15:45.370686,0,,0.12070093,-0.00076112896,0.020173937,-0.82971406,-0.16088796,-0.5344994,-0.4231175,-0.4432719,0.7902415,-0.36406887,0.8818306,0.29971433,,0.044652894,-0.012358017,0.0011158586,-0.13074698,0.6709551,0.7298797,0.26168653,-0.6867349,0.6781707,0.9562559,0.27966845,-0.08579144,,0.10506394,1.3398856,0.4409002,0.99399745,0.014082594,-0.108492814,-0.061568618,-0.7477312,-0.661141,-0.090434045,0.6638522,-0.74237585,,-0.09762934,0.24809031,-0.09317418,0.83959496,0.08955499,0.53578,-0.5375751,0.2787143,0.7958212,-0.0780598,-0.95618945,0.28214964,,-0.016946007,0.39411527,-0.33985066,0.021042837,-0.6545065,-0.7557635,0.93820167,-0.24826589,0.24112579,-0.3454487,-0.71413255,0.6088349,,1.184883459426518,0.4926717437111526,0.19790459430000001,0.4839643895622822,-0.011477465980296999,1.3778047162254792,-0.4050932840130126,,-0.7751693122502852,-0.24591498291393107,0.21312952035000002,-2.3600603139183214,-1.0881730841319677,0.181137797782999,0.8761775707442738,,-0.06819874052167843,-0.05076944627895005,0.08427136484,-0.06770673936139116,,0.00014664605,5.00679e-06,-1.1086464e-05,0.99999994,-0.000119719654,-0.00010704994,0.00011971593,1.0,-1.4573336e-05,0.00010705739,1.4573336e-05,1.0,711,2.244,1,4,1.692,False,-0.2549926627049395,1.050432311173537
2.2457700250088237,11:15:53.920506,11:15:45.467632,0,,0.120740585,-0.00087503344,0.020602375,-0.82686645,-0.17241338,-0.5353182,-0.4158967,-0.4532796,0.7883955,-0.37857872,0.8745349,0.30309546,,0.04465192,-0.012359776,0.0011150837,-0.13074133,0.67095596,0.72988003,0.26169556,-0.686733,0.678169,0.95625424,0.27967107,-0.08580181,,0.10506394,1.3398856,0.4409002,0.99399745,0.014082594,-0.108492814,-0.061568618,-0.7477312,-0.661141,-0.090434045,0.6638522,-0.74237585,,-0.09770046,0.24829721,-0.09356178,0.8379195,0.10124815,0.53632057,-0.5422194,0.2666981,0.79678744,-0.06236242,-0.95844716,0.27837023,,-0.01694486,0.39411372,-0.33985168,0.021036873,-0.6545077,-0.75576264,0.9382049,-0.24826278,0.24111643,-0.3454403,-0.71413255,0.60883963,,1.1854008825290911,0.4929034256973793,0.19749496666000002,0.48039966052304534,0.0046456409920249755,1.3812381878378355,-0.40460325181460965,,-0.775161589517411,-0.2459227056468053,0.21312952035000002,-2.3600603139183214,-1.0881730841319677,0.181137797782999,0.8761775707442738,,-0.06819874052167843,-0.05076944627895005,0.08427136484,-0.06770673936139116,,0.00014664605,5.00679e-06,-1.1086464e-05,0.99999994,-0.000119719654,-0.00010704994,0.00011971593,1.0,-1.4573336e-05,0.00010705739,1.4573336e-05,1.0,725,2.289,1,4,1.737,False,-0.2551713958605024,1.0503840309727575
2.287286490027327,11:15:53.960282,11:15:45.467632,0,,0.12073161,-0.0010037497,0.021047205,-0.8240426,-0.18336388,-0.53603303,-0.41103706,-0.45763034,0.7884307,-0.38987464,0.87003005,0.3017375,,0.044645946,-0.012364142,0.001111567,-0.13071148,0.6709677,0.72987455,0.2617198,-0.6867231,0.67816967,0.95625174,0.2796672,-0.08584297,,0.10506394,1.3398856,0.4409002,0.99399745,0.014082594,-0.108492814,-0.061568618,-0.7477312,-0.661141,-0.090434045,0.6638522,-0.74237585,,-0.09772457,0.24850559,-0.09397473,0.8359881,0.11234432,0.5371244,-0.5464079,0.26071122,0.7959071,-0.05061872,-0.9588579,0.27933732,,-0.016938321,0.394109,-0.3398532,0.021006068,-0.6545195,-0.7557532,0.9382135,-0.24826151,0.24108423,-0.34541878,-0.7141221,0.60886407,,1.1860573148234002,0.4931737213479772,0.19706200580000002,0.4766252415403239,0.016806289471149174,1.37948986842291,-0.40591000434368385,,-0.7751229758530398,-0.24593815111255374,0.21312952035000002,-2.3600603139183214,-1.0881730841319677,0.181137797782999,0.8761775707442738,,-0.06819874052167843,-0.05076944627895005,0.08427136484,-0.06770673936139116,,0.00014664605,5.00679e-06,-1.1086464e-05,0.99999994,-0.000119719654,-0.00010704994,0.00011971593,1.0,-1.4573336e-05,0.00010705739,1.4573336e-05,1.0,734,2.317,1,4,1.765,False,-0.25439688551972894,1.0505288715750958
2.327056508976966,11:15:53.998332,11:15:45.467632,0,,0.12086087,-0.0011963919,0.0215116,-0.82079643,-0.19505906,-0.53688467,-0.4055445,-0.46291858,0.78818774,-0.40227705,0.8646724,0.30085677,,0.04461343,-0.012380093,0.0011027455,-0.13069117,0.67095447,0.72989035,0.26172495,-0.6867394,0.6781512,0.95625305,0.27965897,-0.08585483,,0.10499389,1.3398876,0.44090307,0.9940035,0.014155328,-0.1084285,-0.061471928,-0.74772984,-0.6611515,-0.090434045,0.6638522,-0.74237585,,-0.09783153,0.24867158,-0.09444423,0.83376884,0.12425655,0.5379496,-0.55083466,0.25349283,0.7951871,-0.037559167,-0.9593236,0.27979925,,-0.016840743,0.39409885,-0.33986306,0.02094002,-0.6544406,-0.7558234,0.93821985,-0.24831712,0.24100226,-0.34540555,-0.7141751,0.6088094,,1.1867137471177094,0.49342084879995235,0.19661348946,0.4726411326141179,0.030333302947927777,1.378260944773832,-0.405256628079147,,-0.7751152531201656,-0.24594587384542796,0.21312952035000002,-2.3600603139183214,-1.0881730841319677,0.181137797782999,0.8761775707442738,,-0.06819874052167843,-0.05076944627895005,0.08427136484,-0.06770673936139116,,7.663667e-05,4.2915344e-06,-7.033348e-06,1.0,-4.7504902e-05,-4.248321e-05,4.7504902e-05,1.0,-5.811453e-06,4.248321e-05,5.7816505e-06,1.0,748,2.362,1,4,1.81,False,-0.2541585746456452,1.0506737121774343
2.365107258025091,11:15:54.040838,11:15:45.555486,0,,0.12079621,-0.0013363212,0.021979675,-0.81722695,-0.20389053,-0.5390444,-0.40126663,-0.47006363,0.7861457,-0.4136728,0.85876006,0.3023342,,0.044619635,-0.012378901,0.0011072755,-0.1307221,0.67087793,0.72995514,0.2617148,-0.68680507,0.6780886,0.9562516,0.27968124,-0.085798055,,0.10499389,1.3398876,0.44090307,0.9940035,0.014155328,-0.1084285,-0.061471928,-0.74772984,-0.6611515,-0.090434045,0.6638522,-0.74237585,,-0.09780196,0.24888891,-0.094885536,0.83108336,0.13325347,0.5399481,-0.5555357,0.2444506,0.79474777,-0.026087737,-0.9604621,0.2771859,,-0.016847417,0.39410245,-0.33986467,0.020971486,-0.654363,-0.7558898,0.93821627,-0.24832854,0.24100444,-0.3454134,-0.7142423,0.60872614,,1.1876636432612389,0.4935753034574369,0.19615460280000002,0.4678182639139738,0.04249395142705198,1.3799431324448104,-0.40362318741780423,,-0.7751538667845367,-0.24594587384542796,0.21312822406,-2.3600603139183214,-1.0881730841319677,0.18121947652313952,0.8760142266781397,,-0.06819874052167843,-0.05076944627895005,0.08427136484,-0.06770673936139116,,7.663667e-05,4.2915344e-06,-7.033348e-06,1.0,-4.7504902e-05,-4.248321e-05,4.7504902e-05,1.0,-5.811453e-06,4.248321e-05,5.7816505e-06,1.0,762,2.408,1,4,1.856,False,-0.2549926627049395,1.0507219923782136
2.4075708590098657,11:15:54.082777,11:15:45.555486,0,,0.120639145,-0.0014418438,0.022387281,-0.814265,-0.21305212,-0.5399829,-0.3977192,-0.47282362,0.78629327,-0.42283812,0.8550126,0.3002687,,0.044625007,-0.012377858,0.0011099577,-0.13074687,0.67086434,0.7299631,0.26170656,-0.68681335,0.6780834,0.9562505,0.27969348,-0.085770935,,0.10499389,1.3398876,0.44090307,0.9940035,0.014155328,-0.1084285,-0.061471928,-0.74772984,-0.6611515,-0.090434045,0.6638522,-0.74237585,,-0.09767524,0.24909256,-0.095265545,0.8288356,0.14256085,0.5410249,-0.55924046,0.24010192,0.79347414,-0.016782762,-0.9602226,0.2787308,,-0.016853075,0.3941046,-0.3398653,0.020996658,-0.6543502,-0.7559001,0.9382134,-0.24832194,0.24102241,-0.34541962,-0.7142563,0.60870624,,1.1890537351785992,0.4935289670601915,0.19575923435000003,0.46362446504428334,0.052741688909460016,1.3770592652569964,-0.40541997214528136,,-0.7751847577160336,-0.24594587384542796,0.21312822406,-2.3600603139183214,-1.0881730841319677,0.18121947652313952,0.8760142266781397,,-0.06819874052167843,-0.05076944627895005,0.08427136484,-0.06770673936139116,,7.663667e-05,4.2915344e-06,-7.033348e-06,1.0,-4.7504902e-05,-4.248321e-05,4.7504902e-05,1.0,-5.811453e-06,4.248321e-05,5.7816505e-06,1.0,771,2.436,1,4,1.884,False,-0.2545756186752919,1.0507702725789931
2.4495446640066803,11:15:54.120329,11:15:45.555486,0,,0.120494284,-0.001505129,0.022775099,-0.8112603,-0.22218072,-0.54082596,-0.39084613,-0.4818697,0.78424525,-0.4348518,0.8476068,0.3040833,,0.0446235,-0.012377799,0.0011104345,-0.13082227,0.6709089,0.72990876,0.26160055,-0.68678254,0.67815554,0.95626926,0.2796624,-0.085663706,,0.10499389,1.3398876,0.44090307,0.9940035,0.014155328,-0.1084285,-0.061471928,-0.74772984,-0.6611515,-0.090434045,0.6638522,-0.74237585,,-0.09755819,0.24931343,-0.095601566,0.82682794,0.15189897,0.54155546,-0.56244624,0.22865821,0.79458773,-0.0031340385,-0.96158314,0.274496,,-0.016851634,0.39410523,-0.33986557,0.021075843,-0.6543932,-0.7558607,0.9381756,-0.24833415,0.2411569,-0.34551746,-0.71421266,0.6087019,,1.1905673908219474,0.49342084879995235,0.19540923605000002,0.46026942594853093,0.06736179438436214,1.3801664377473428,-0.40541997214528114,,-0.7751770349831594,-0.24594587384542796,0.21312822406,-2.3600603139183214,-1.0883097206317334,0.18116753694655485,0.8763409148104082,,-0.06819874052167843,-0.05076944627895005,0.08427136484,-0.06770673936139116,,7.663667e-05,4.2915344e-06,-7.033348e-06,1.0,-4.7504902e-05,-4.248321e-05,4.7504902e-05,1.0,-5.811453e-06,4.248321e-05,5.7816505e-06,1.0,785,2.481,0,4,1.914,False,-0.254218152364166,1.0507219923782136
2.487089859030675,11:15:54.158398,11:15:45.678699,0,,0.12034306,-0.0015883967,0.023154333,-0.8082571,-0.23039937,-0.5418825,-0.3870882,-0.4855703,0.78382653,-0.44371516,0.84328973,0.30328077,,0.044625208,-0.012379035,0.0011110306,-0.13082899,0.67090285,0.72991306,0.2616055,-0.68678474,0.6781513,0.95626694,0.27967113,-0.08566058,,0.10499389,1.3398876,0.44090307,0.9940035,0.014155328,-0.1084285,-0.061471928,-0.74772984,-0.6611515,-0.090434045,0.6638522,-0.74237585,,-0.0974348,0.24951395,-0.09594536,0.8245251,0.16027682,0.5426506,-0.56579244,0.22321008,0.7937608,0.006096372,-0.9615033,0.27472574,,-0.016853316,0.39410478,-0.33986688,0.021082465,-0.65438795,-0.75586504,0.9381774,-0.24832775,0.24115652,-0.34551218,-0.7142196,0.60869664,,1.1919420372735592,0.49338995786845546,0.19505275630000002,0.45628531702232505,0.07747289536700473,1.3786191695653338,-0.40509328401301237,,-0.7751847577160336,-0.24595359657830218,0.21312822406,-2.3600603139183214,-1.0883097206317334,0.18116753694655485,0.8763409148104082,,-0.06819874052167843,-0.05076944627895005,0.08427136484,-0.06770673936139116,,7.663667e-05,4.2915344e-06,-7.033348e-06,1.0,-4.7504902e-05,-4.248321e-05,4.7504902e-05,1.0,-5.811453e-06,4.248321e-05,5.7816505e-06,1.0,794,2.51,1,5,1.926,False,-0.2543373078012081,1.0508668329805522
2.5251772589981556,11:15:54.184540,11:15:45.678699,0,,0.12025733,-0.0016887411,0.023428962,-0.8059624,-0.23644564,-0.5426953,-0.38457248,-0.48781842,0.7836689,-0.45003185,0.84031343,0.3022328,,0.044625577,-0.0123805255,0.0011109114,-0.13082951,0.67090034,0.7299154,0.2616125,-0.686785,0.6781484,0.9562649,0.27967682,-0.08566415,,0.10499389,1.3398876,0.44090307,0.9940035,0.014155328,-0.1084285,-0.061471928,-0.74772984,-0.6611515,-0.090434045,0.6638522,-0.74237585,,-0.0973703,0.24962924,-0.096219905,0.82272536,0.16644047,0.54352605,-0.5683,0.21968535,0.79295236,0.012574648,-0.9612679,0.27532881,,-0.016853584,0.39410377,-0.33986804,0.021082792,-0.6543859,-0.75586677,0.9381799,-0.24832298,0.24115166,-0.34550533,-0.71422315,0.6086964,,1.1927065878281076,0.49328956234109056,0.19477275766000002,0.4533496578135417,0.08457799335480763,1.3772360905407102,-0.4031331552194011,,-0.7751847577160336,-0.2459613193111764,0.21312822406,-2.3600603139183214,-1.0883097206317334,0.18116753694655485,0.8763409148104082,,-0.06819874052167843,-0.05076944627895005,0.08427136484,-0.06770673936139116,,7.663667e-05,4.2915344e-06,-7.033348e-06,1.0,-4.7504902e-05,-4.248321e-05,4.7504902e-05,1.0,-5.811453e-06,4.248321e-05,5.7816505e-06,1.0,808,2.555,1,5,1.971,False,-0.2547543518308557,1.050963393382111
2.5512938799802214,11:15:54.233324,11:15:45.678699,0,,0.12015733,-0.0018178821,0.023765251,-0.8019925,-0.24676219,-0.5439821,-0.37961683,-0.49257323,0.7831108,-0.46119317,0.8345538,0.3013649,,0.04462423,-0.012380809,0.0011102557,-0.13082333,0.6708441,0.7299681,0.26161453,-0.6868383,0.6780936,0.9562652,0.2796808,-0.08564812,,0.10499389,1.3398876,0.44090307,0.9940035,0.014155328,-0.1084285,-0.061471928,-0.74772984,-0.6611515,-0.090434045,0.6638522,-0.74237585,,-0.09729645,0.24976572,-0.09656004,0.8196442,0.17697628,0.54485106,-0.5723546,0.21253452,0.7919844,0.024362791,-0.96099347,0.2754959,,-0.016852168,0.39410323,-0.3398679,0.0210765,-0.6543274,-0.7559176,0.9381806,-0.24834433,0.24112688,-0.34550378,-0.7142694,0.60864305,,1.1936950976360083,0.49297293029324735,0.19443053710000002,0.4487364790568821,0.09742182433275903,1.3760741839692705,-0.40411321961620694,,-0.7751770349831594,-0.2459613193111764,0.21312822406,-2.3600603139183214,-1.0883097206317334,0.18124921568669541,0.8763409148104082,,-0.06819874052167843,-0.05076944627895005,0.08427136484,-0.06770673936139116,,7.663667e-05,4.2915344e-06,-7.033348e-06,1.0,-4.7504902e-05,-4.248321e-05,4.7504902e-05,1.0,-5.811453e-06,4.248321e-05,5.7816505e-06,1.0,822,2.6,1,5,2.016,False,-0.25397984149008224,1.0505771517758753
2.600099698989652,11:15:54.279710,11:15:45.678699,0,,0.12001262,-0.0019738823,0.024205193,-0.7965772,-0.2581541,-0.5466455,-0.37276217,-0.50213444,0.7803263,-0.475934,0.825359,0.3037587,,0.044625208,-0.012379035,0.0011110306,-0.13082899,0.6707837,0.73002255,0.2616055,-0.6868955,0.67803913,0.95626694,0.2796851,-0.08561492,,0.10499389,1.3398876,0.44090307,0.9940035,0.014155328,-0.1084285,-0.061471928,-0.74772984,-0.6611515,-0.090434045,0.6638522,-0.74237585,,-0.09718563,0.24995409,-0.09699715,0.815412,0.18867551,0.54727036,-0.5774868,0.19955166,0.79163635,0.04015368,-0.9615512,0.27167442,,-0.016853316,0.39410478,-0.33986688,0.021082465,-0.6542645,-0.7559719,0.9381774,-0.24836713,0.24111596,-0.34551218,-0.71431905,0.60858,,1.1951006350191171,0.492548179985165,0.19399239108000002,0.4426554706958309,0.11463802330320454,1.3786163123520556,-0.40427656368234133,,-0.7751847577160336,-0.24595359657830218,0.21312822406,-2.3600603139183214,-1.0883097206317334,0.18133089442683606,0.8763409148104081,,-0.06819874052167843,-0.05076944627895005,0.08427136484,-0.06770673936139116,,7.663667e-05,4.2915344e-06,-7.033348e-06,1.0,-4.7504902e-05,-4.248321e-05,4.7504902e-05,1.0,-5.811453e-06,4.248321e-05,5.7816505e-06,1.0,831,2.629,1,5,2.045,False,-0.2544564632382502,1.050963393382111
2.6464814509963617,11:15:54.305990,11:15:45.678699,0,,0.11987508,-0.0020614937,0.024454638,-0.794029,-0.2661612,-0.54651284,-0.3693157,-0.50287455,0.7814877,-0.48282912,0.8223597,0.30099943,,0.044625208,-0.012379035,0.0011110306,-0.13082899,0.6707241,0.7300774,0.2616055,-0.6869509,0.67798305,0.95626694,0.2796921,-0.08559206,,0.10499389,1.3398876,0.44090307,0.9940035,0.014155328,-0.1084285,-0.061471928,-0.74772984,-0.6611515,-0.090434045,0.6638522,-0.74237585,,-0.09706742,0.25006285,-0.09724819,0.813424,0.19683921,0.5473534,-0.5797118,0.19716388,0.7906078,0.04770429,-0.96040654,0.27448785,,-0.016853316,0.39410478,-0.33986688,0.021082465,-0.65420276,-0.7560253,0.9381774,-0.24838683,0.24109566,-0.34551218,-0.71436876,0.60852164,,1.19616637215576,0.4922238252044476,0.19374091082000003,0.43971981148704753,0.12310948628866183,1.374730515708078,-0.4047665958807438,,-0.7751847577160336,-0.24595359657830218,0.21312822406,-2.3600603139183214,-1.0883097206317334,0.1814125731669766,0.8761775707442739,,-0.06819874052167843,-0.05076944627895005,0.08427136484,-0.06770673936139116,,7.663667e-05,4.2915344e-06,-7.033348e-06,1.0,-4.7504902e-05,-4.248321e-05,4.7504902e-05,1.0,-5.811453e-06,4.248321e-05,5.7816505e-06,1.0,845,2.674,1,5,2.09,False,-0.25493308498641865,1.0502874705711984
2.6727342539816163,11:15:54.353779,11:15:45.893298,0,,0.11966636,-0.002146013,0.02481784,-0.7884101,-0.27580804,-0.54985416,-0.3645282,-0.51053363,0.7787647,-0.4955086,0.8144233,0.30196995,,0.044625208,-0.012379035,0.0011110306,-0.13082899,0.6707241,0.7300774,0.2616055,-0.6869509,0.67798305,0.95626694,0.2796921,-0.08559206,,0.10499389,1.3398876,0.44090307,0.9940035,0.014155328,-0.1084285,-0.061471928,-0.74772984,-0.6611515,-0.090434045,0.6638522,-0.74237585,,-0.09688566,0.25025293,-0.097584985,0.8087937,0.20676865,0.5505447,-0.584962,0.18638848,0.78935343,0.06059836,-0.9604718,0.27170163,,-0.016853316,0.39410478,-0.33986688,0.021082465,-0.65420276,-0.7560253,0.9381774,-0.24838683,0.24109566,-0.34551218,-0.71436876,0.60852164,,1.1979039870524606,0.49178362943061676,0.19340387542,0.4328000433520583,0.13759295526379853,1.3758254588584666,-0.4044399077484755,,-0.7751847577160336,-0.24595359657830218,0.21312822406,-2.3600603139183214,-1.0883097206317334,0.1814125731669766,0.8761775707442739,,-0.06819874052167843,-0.05076944627895005,0.08427136484,-0.06770673936139116,,7.663667e-05,4.2915344e-06,-7.033348e-06,1.0,-4.7504902e-05,-4.248321e-05,4.7504902e-05,1.0,-5.811453e-06,4.248321e-05,5.7816505e-06,1.0,854,2.702,1,5,2.118,False,-0.25439688551972894,1.0506254319766548
2.720516689005308,11:15:54.385063,11:15:45.893298,0,,0.119496174,-0.002193816,0.025080144,-0.78492445,-0.2836086,-0.55087197,-0.359041,-0.51639545,0.7774478,-0.5049586,0.8080234,0.30350423,,0.04462423,-0.012380809,0.0011102557,-0.13082333,0.6707248,0.7300777,0.26161453,-0.68694913,0.6779814,0.9562652,0.2796948,-0.08560243,,0.10499389,1.3398876,0.44090307,0.9940035,0.014155328,-0.1084285,-0.061471928,-0.74772984,-0.6611515,-0.090434045,0.6638522,-0.74237585,,-0.09673461,0.25040042,-0.097820565,0.80609757,0.2148059,0.55142105,-0.58745164,0.17793003,0.7894564,0.071465544,-0.96031207,0.26961705,,-0.016852168,0.39410323,-0.3398679,0.0210765,-0.6542039,-0.7560245,0.9381806,-0.24838372,0.2410863,-0.34550378,-0.7143688,0.60852635,,1.1993404153670664,0.49139749278690553,0.19317054322000002,0.4292353143128213,0.1496169672431573,1.3766389195514543,-0.40607334840981824,,-0.7751770349831594,-0.2459613193111764,0.21312822406,-2.3600603139183214,-1.0883097206317334,0.1814125731669766,0.8761775707442739,,-0.06819874052167843,-0.05076944627895005,0.08427136484,-0.06770673936139116,,7.663667e-05,4.2915344e-06,-7.033348e-06,1.0,-4.7504902e-05,-4.248321e-05,4.7504902e-05,1.0,-5.811453e-06,4.248321e-05,5.7816505e-06,1.0,868,2.748,1,5,2.164,False,-0.25439688551972894,1.0508668329805522
2.7518193920259364,11:15:54.426124,11:15:45.893298,0,,0.119236864,-0.0022703186,0.025365114,-0.7816453,-0.28892046,-0.55277085,-0.35574085,-0.5214534,0.7755866,-0.5123271,0.8028769,0.30481082,,0.044625577,-0.0123805255,0.0011109114,-0.13082951,0.6707215,0.73007965,0.2616125,-0.68695116,0.6779801,0.9562649,0.2796978,-0.08559567,,0.10499389,1.3398876,0.44090307,0.9940035,0.014155328,-0.1084285,-0.061471928,-0.74772984,-0.6611515,-0.090434045,0.6638522,-0.74237585,,-0.09649698,0.25054443,-0.098098226,0.80340767,0.22030091,0.5531759,-0.5901235,0.17085266,0.78902704,0.07931179,-0.9603525,0.26726907,,-0.016853584,0.39410377,-0.33986804,0.021082792,-0.65420073,-0.7560271,0.9381799,-0.24838206,0.2410908,-0.34550533,-0.7143723,0.6085214,,1.201603176099214,0.49074106049259647,0.19280498944000002,0.42357368583873917,0.159454795226269,1.3774381344204927,-0.40541997214528114,,-0.7751847577160336,-0.2459613193111764,0.21312822406,-2.3600603139183214,-1.0883097206317334,0.1814125731669766,0.8761775707442739,,-0.06819874052167843,-0.05076944627895005,0.08427136484,-0.06770673936139116,,7.663667e-05,4.2915344e-06,-7.033348e-06,1.0,-4.7504902e-05,-4.248321e-05,4.7504902e-05,1.0,-5.811453e-06,4.248321e-05,5.7816505e-06,1.0,891,2.821,1,5,2.237,False,-0.25397984149008224,1.0502874705711984
2.7928795919870026,11:15:54.494523,11:15:45.987669,0,,0.11885176,-0.0024037957,0.025793284,-0.7774506,-0.29743335,-0.5541697,-0.3514213,-0.52530724,0.774955,-0.5216068,0.79723626,0.30387595,,0.04462423,-0.012380809,0.0011102557,-0.13082333,0.6707248,0.7300777,0.26161453,-0.68694913,0.6779814,0.9562652,0.2796948,-0.08560243,,0.10499389,1.3398876,0.44090307,0.9940035,0.014155328,-0.1084285,-0.061471928,-0.74772984,-0.6611515,-0.090434045,0.6638522,-0.74237585,,-0.09614497,0.2507471,-0.0985277,0.7999599,0.22905539,0.554615,-0.59337014,0.1643993,0.7879624,0.08930871,-0.9594303,0.26742747,,-0.016852168,0.39410323,-0.3398679,0.0210765,-0.6542039,-0.7560245,0.9381806,-0.24838372,0.2410863,-0.34550378,-0.7143688,0.60852635,,1.2037578185711229,0.4900691827325389,0.19246795404000003,0.41958957691253324,0.17093226120656602,1.3750217234219413,-0.4055833162114155,,-0.7751770349831594,-0.2459613193111764,0.21312822406,-2.3600603139183214,-1.0883097206317334,0.1814125731669766,0.8761775707442739,,-0.06819874052167843,-0.05076944627895005,0.08427136484,-0.06770673936139116,,7.663667e-05,4.2915344e-06,-7.033348e-06,1.0,-4.7504902e-05,-4.248321e-05,4.7504902e-05,1.0,-5.811453e-06,4.248321e-05,5.7816505e-06,1.0,905,2.866,1,5,2.282,False,-0.25427773008268684,1.0501909101696396
2.861304502002895,11:15:54.545840,11:15:46.084165,0,,0.11869303,-0.0024600476,0.026059493,-0.7740174,-0.30328298,-0.55580276,-0.34505513,-0.53396344,0.7718937,-0.5308806,0.7892417,0.30864757,,0.044626087,-0.012380391,0.0011097193,-0.13082951,0.6707215,0.73007965,0.2616125,-0.68695116,0.6779801,0.9562649,0.2796978,-0.08559567,,0.10499389,1.3398876,0.44090307,0.9940035,0.014155328,-0.1084285,-0.061471928,-0.74772984,-0.6611515,-0.090434045,0.6638522,-0.74237585,,-0.09600585,0.25089076,-0.09877108,0.7973292,0.23517302,0.55584157,-0.59509456,0.15276143,0.78900343,0.100641154,-0.95987374,0.26175132,,-0.016853984,0.39410284,-0.3398672,0.021082792,-0.65420073,-0.7560271,0.9381799,-0.24838206,0.2410908,-0.34550533,-0.7143723,0.6085214,,1.2051324650227346,0.48966760062307924,0.19223202926000002,0.4166539177037499,0.18336618268522106,1.379584867410868,-0.4055833162114153,,-0.7751847577160336,-0.2459613193111764,0.21312952035000002,-2.3600603139183214,-1.0883097206317334,0.1814125731669766,0.8761775707442739,,-0.06819874052167843,-0.05076944627895005,0.08427136484,-0.06770673936139116,,7.663667e-05,4.2915344e-06,-7.033348e-06,1.0,-4.7504902e-05,-4.248321e-05,4.7504902e-05,1.0,-5.811453e-06,4.248321e-05,5.7816505e-06,1.0,919,2.911,1,5,2.327,False,-0.25540970673458663,1.0506254319766548
2.912620685994625,11:15:54.587302,11:15:46.084165,0,,0.11853577,-0.0025555044,0.02624023,-0.7710746,-0.30712634,-0.55777925,-0.3452728,-0.5343481,0.77153015,-0.53500545,0.78749317,0.30597976,,0.044624504,-0.012385443,0.0011080503,-0.13081877,0.6707204,0.7300825,0.26163763,-0.68694764,0.677974,0.95625955,0.2797088,-0.085620105,,0.10499389,1.3398876,0.44090307,0.9940035,0.014155328,-0.1084285,-0.061471928,-0.74772984,-0.6611515,-0.090434045,0.6638522,-0.74237585,,-0.095863655,0.25094754,-0.0989786,0.79466057,0.23911114,0.5579789,-0.5981304,0.15138376,0.78697073,0.10370453,-0.9591188,0.26331836,,-0.016851958,0.39409876,-0.33987036,0.021071192,-0.654201,-0.75602716,0.9381889,-0.24837106,0.2410672,-0.34548166,-0.71437585,0.60853064,,1.206066915700516,0.4892351275821227,0.19202851173000002,0.41225042889057484,0.1874652776781843,1.3769774389612404,-0.406400036542087,,-0.7751693122502852,-0.2459844875097991,0.21312952035000002,-2.3600603139183214,-1.0883097206317334,0.1814125731669766,0.8761775707442739,,-0.06819874052167843,-0.05076944627895005,0.08427136484,-0.06770673936139116,,7.663667e-05,4.2915344e-06,-7.033348e-06,1.0,-4.7504902e-05,-4.248321e-05,4.7504902e-05,1.0,-5.811453e-06,4.248321e-05,5.7816505e-06,1.0,942,2.985,1,5,2.401,False,-0.2546351963938136,1.0505771517758753
2.9540440179989673,11:15:54.662009,11:15:46.177282,0,,0.1184405,-0.0026537403,0.026481584,-0.7669404,-0.31814227,-0.5573043,-0.3393312,-0.5360506,0.7729838,-0.5446621,0.78194326,0.30316323,,0.04462547,-0.012391642,0.0011088252,-0.13082093,0.6707101,0.7300917,0.26166558,-0.6869485,0.6779623,0.95625156,0.27973157,-0.08563456,,0.10499389,1.3398876,0.44090307,0.9940035,0.014155328,-0.1084285,-0.061471928,-0.74772984,-0.6611515,-0.090434045,0.6638522,-0.74237585,,-0.095787376,0.25104198,-0.0992281,0.7913441,0.2504172,0.5577327,-0.6004433,0.14662917,0.7861092,0.11507538,-0.95696974,0.26639545,,-0.016852627,0.39409563,-0.33987585,0.021072507,-0.65419286,-0.75603414,0.9381989,-0.248352,0.24104773,-0.3454543,-0.7143899,0.6085297,,1.2069473072481776,0.488764040876795,0.19179258695,0.408685699851338,0.19989919915683937,1.3727192790149867,-0.4057466602775497,,-0.7751693122502852,-0.24601537844129598,0.21312822406,-2.3600603139183214,-1.0883097206317334,0.1814125731669766,0.8761775707442739,,-0.06819874052167843,-0.05076944627895005,0.08427136484,-0.06770673936139116,,7.663667e-05,4.2915344e-06,-7.033348e-06,1.0,-4.7504902e-05,-4.248321e-05,4.7504902e-05,1.0,-5.811453e-06,4.248321e-05,5.7816505e-06,1.0,956,3.03,1,5,2.446,False,-0.25397984149008224,1.0502874705711984
3.028751945006661,11:15:54.706285,11:15:46.177282,0,,0.11836108,-0.0027201474,0.026636004,-0.7632554,-0.31937155,-0.56164324,-0.33770555,-0.5438877,0.76820636,-0.55081403,0.7760078,0.30727166,,0.04462815,-0.012392297,0.0011098981,-0.13075013,0.6705835,0.73022056,0.26160973,-0.68710154,0.6778288,0.95627666,0.279659,-0.08559257,,0.10499389,1.3398876,0.44090307,0.9940035,0.014155328,-0.1084285,-0.061471928,-0.74772984,-0.6611515,-0.090434045,0.6638522,-0.74237585,,-0.09572025,0.25110024,-0.09939136,0.7881215,0.25181356,0.56165326,-0.6035248,0.13687979,0.7855073,0.1209224,-0.9580469,0.25985363,,-0.01685536,0.3940958,-0.33987698,0.021002932,-0.65405124,-0.7561586,0.9381787,-0.2484849,0.24098961,-0.34551355,-0.71447337,0.608398,,1.207549680412367,0.48844740882895177,0.19163703215000003,0.404282211038163,0.20659438764534596,1.3786948253535407,-0.4050932840130126,,-0.7751770349831594,-0.24601537844129598,0.21312822406,-2.359850623974837,-1.0883097206317334,0.1814125731669766,0.8761775707442739,,-0.06819874052167843,-0.05076944627895005,0.08427136484,-0.06770673936139116,,7.663667e-05,4.2915344e-06,-7.033348e-06,1.0,-4.7504902e-05,-4.248321e-05,4.7504902e-05,1.0,-5.811453e-06,4.248321e-05,5.7816505e-06,1.0,965,3.059,1,5,2.475,False,-0.25439688551972894,1.0505771517758753
3.073046356032137,11:15:54.737080,11:15:46.271184,0,,0.118269645,-0.0027508736,0.026749626,-0.7616214,-0.32056385,-0.5631801,-0.33846894,-0.544323,0.76756173,-0.55260444,0.77521044,0.3060671,,0.04462764,-0.012392476,0.0011110902,-0.13075013,0.67064315,0.7301658,0.26160973,-0.6870462,0.6778848,0.95627666,0.27965203,-0.08561543,,0.10499389,1.3398876,0.44090307,0.9940035,0.014155328,-0.1084285,-0.061471928,-0.74772984,-0.6611515,-0.090434045,0.6638522,-0.74237585,,-0.09563743,0.25115722,-0.09950143,0.7865885,0.25304314,0.5632475,-0.6053413,0.13604751,0.7842531,0.121821456,-0.95784146,0.26019087,,-0.016854959,0.39409673,-0.3398778,0.021002932,-0.654113,-0.7561052,0.9381787,-0.24846521,0.2410099,-0.34551355,-0.71442366,0.6084564,,1.2081443308436823,0.4883547360344611,0.19152555121,0.40155624177286414,0.20796075264300035,1.377662325056717,-0.40525662807914675,,-0.7751770349831594,-0.24601537844129598,0.21312692777000003,-2.359850623974837,-1.0883097206317334,0.18133089442683606,0.8763409148104081,,-0.06819874052167843,-0.05076944627895005,0.08427136484,-0.06770673936139116,,7.663667e-05,4.2915344e-06,-7.033348e-06,1.0,-4.7504902e-05,-4.248321e-05,4.7504902e-05,1.0,-5.811453e-06,4.248321e-05,5.7816505e-06,1.0,979,3.104,1,5,2.52,False,-0.25493308498641865,1.0501909101696396
3.1037680479930714,11:15:54.779702,11:15:46.271184,0,,0.11809017,-0.0027748123,0.026987955,-0.7581955,-0.32434136,-0.5656345,-0.33813396,-0.5461468,0.76641303,-0.55749893,0.77235115,0.30441523,,0.044628378,-0.012395501,0.0011108518,-0.13075121,0.6706976,0.73011553,0.26162374,-0.6869912,0.6779351,0.9562726,0.2796564,-0.0856455,,0.10499389,1.3398876,0.44090307,0.9940035,0.014155328,-0.1084285,-0.061471928,-0.74772984,-0.6611515,-0.090434045,0.6638522,-0.74237585,,-0.09547486,0.2513061,-0.099703886,0.7835046,0.25694814,0.56577224,-0.6085072,0.13285828,0.78234756,0.12585522,-0.95724934,0.26044986,,-0.016855493,0.3940947,-0.33988014,0.021003587,-0.6541707,-0.75605524,0.9381837,-0.248436,0.24102046,-0.34549987,-0.71438104,0.60851425,,1.209480363630923,0.48825434050709615,0.19132073739000002,0.3965236831292355,0.21287966663455624,1.375856606507441,-0.4055833162114153,,-0.7751770349831594,-0.24603082390704442,0.21312692777000003,-2.359850623974837,-1.0883097206317334,0.1812492156866955,0.8761775707442738,,-0.06819874052167843,-0.05076944627895005,0.08427136484,-0.06770673936139116,,7.663667e-05,4.2915344e-06,-7.033348e-06,1.0,-4.7504902e-05,-4.248321e-05,4.7504902e-05,1.0,-5.811453e-06,4.248321e-05,5.7816505e-06,1.0,988,3.133,1,5,2.549,False,-0.2531457534307875,1.0505288715750958
