AlexandreBanks6/ExpertPlaybackApp/resources/Motions/P_11/PC1/Data_PC1_5.csv
Task Time,PC1 Time,PC2 Time,Gaze Calib,s_T_psm1,Tx,Ty,Tz,R00,R01,R02,R10,R11,R12,R20,R21,R22,s_T_psm3,Tx,Ty,Tz,R00,R01,R02,R10,R11,R12,R20,R21,R22,cart_T_ecm,Tx,Ty,Tz,R00,R01,R02,R10,R11,R12,R20,R21,R22,ecm_T_psm1,Tx,Ty,Tz,R00,R01,R02,R10,R11,R12,R20,R21,R22,ecm_T_psm3,Tx,Ty,Tz,R00,R01,R02,R10,R11,R12,R20,R21,R22,psm1_joints,q1,q2,q3,q4,q5,q6,jaw,psm3_joints,q1,q2,q3,q4,q5,q6,jaw,ecm_joints,q1,q2,q3,q4,ecmi_T_ecm,Tx,Ty,Tz,R00,R01,R02,R10,R11,R12,R20,R21,R22,Sample #,Task Duration (s),Collisions (binary),Collisions (increments),Cumulative Collision Time (s),Clutch Press,MTMR Angle,MTML Angle
""
lci_T_si,,,,,-0.05716041,0.03275584,0.23713137,0.994629,0.0609184,0.083678454,0.10083557,-0.7527042,-0.65059096,0.023352161,0.6555344,-0.75480413
rci_T_si,,,,,-0.06778313,0.037861038,0.2520986,0.9957384,0.04780823,0.078863226,0.08774167,-0.7544281,-0.6504919,0.028397763,0.65463936,-0.75540775
ecm_T_lc,,,,,-4.4061628e-05,-0.00034663224,-0.01840835,-0.99912,0.030754527,0.028518902,-0.031987965,-0.99852574,-0.043852776,0.027128186,-0.04472645,0.9986309
ecm_T_rc,,,,,-0.0043358393,0.01870579,-0.007592615,-0.99555075,-0.052743673,-0.078081585,0.04863213,-0.9973746,0.053654674,-0.08070653,0.04961868,0.9955021
cart_T_ecmi,,,,,0.07735911,1.3283129,0.4541247,0.9978648,0.045891095,-0.046474215,0.005311808,-0.7662209,-0.6425553,-0.06509708,0.64093643,-0.7648287
ecmac_T_ecmrep_psm1,,,,,0.011581071,-0.24422047,-0.31388107,0.99918455,0.03945311,0.008580942,-0.0387743,0.99689597,-0.06852016,-0.011257639,0.068131566,0.99761283
ecmac_T_ecmrep_psm3,,,,,0.00032986852,-0.4435548,-0.5434704,0.9997429,-0.0075566242,-0.021376874,0.008153117,0.9995759,0.027955532,0.021156559,-0.028122634,0.9993806
""
0,11:09:35.830713,11:08:31.907845,0,,0.121258736,0.0018892065,0.020226344,-0.71951556,-0.39817974,-0.5689905,-0.45124972,-0.35472864,0.8188658,-0.52789307,0.84594357,0.07555419,,0.057676926,-0.04314439,0.026327908,0.69303524,-0.30698106,0.65227664,-0.64777625,0.1318931,0.75032663,-0.3163669,-0.9425322,-0.10744852,,0.077379905,1.3283154,0.45412594,0.997865,0.045862246,-0.04649841,0.0052742353,-0.76622266,-0.6425535,-0.06509708,0.64093643,-0.7648287,,-0.08952878,0.23250343,-0.09289179,0.7845193,0.33334866,0.5228844,-0.61398476,0.29939952,0.7303305,0.08690336,-0.8940014,0.4395557,,-0.017639508,0.3991254,-0.35563383,-0.6021539,0.43363187,-0.6703537,-0.7742342,-0.5220978,0.35773638,-0.19486432,0.7344231,0.65011585,,0.9828335992381823,0.27730016931477947,0.17732728684000001,0.3373911190665997,0.24881506607286705,1.2014922553456437,-0.4050932840130126,,-1.2503027296040738,-0.10570104484951086,0.17750228599,-0.1411213319650849,0.4560926362170402,-0.9627769687154819,0.8761775707442738,,-0.03261365873507904,-0.08565421470318672,0.08101381028,-0.06541713947960498,,2.0682812e-05,-1.7881393e-07,-3.5762787e-06,1.0,-2.880022e-05,-2.4136156e-05,2.880022e-05,1.0,-2.503395e-06,2.4136156e-05,2.4437904e-06,1.0,34,0.101,0,0,0.0,False,-0.2559459062012759,1.0506737121774343
0.1252317320322618,11:09:35.858130,11:08:31.907845,0,,0.12124008,0.0019069687,0.02031219,-0.71642727,-0.40419173,-0.56864834,-0.44945616,-0.35599837,0.81930107,-0.53359264,0.8425522,0.07338041,,0.05767911,-0.043144718,0.026327372,0.69303566,-0.3069712,0.6522807,-0.6477798,0.1318923,0.75032365,-0.31635863,-0.9425355,-0.10744369,,0.077379905,1.3283154,0.45412594,0.997865,0.045862246,-0.04649841,0.0052742353,-0.76622266,-0.6425535,-0.06509708,0.64093643,-0.7648287,,-0.08951895,0.23257312,-0.092947274,0.7818963,0.33969912,0.52272624,-0.6164983,0.29683703,0.7292583,0.09256389,-0.89246416,0.44151968,,-0.017641565,0.39912444,-0.35563353,-0.6021554,0.43362263,-0.6703583,-0.77423096,-0.5221021,0.35773712,-0.19487257,0.7344255,0.65011066,,0.9831733994846481,0.27723066471891145,0.17727543524000003,0.33403607997084733,0.2549637085623119,1.198275381962397,-0.40509328401301237,,-1.2503104523369482,-0.1057087675823851,0.17750358228000002,-0.1411213319650849,0.4560926362170402,-0.9627769687154819,0.8761775707442738,,-0.03261365873507904,-0.08565421470318672,0.08101381028,-0.06541713947960498,,2.0682812e-05,-1.7881393e-07,-3.5762787e-06,1.0,-2.880022e-05,-2.4136156e-05,2.880022e-05,1.0,-2.503395e-06,2.4136156e-05,2.4437904e-06,1.0,42,0.126,0,0,0.0,False,-0.25642252794944387,1.0507702725789931
0.15264561399817467,11:09:35.877214,11:08:31.907845,0,,0.12120208,0.0019274577,0.020410419,-0.71347606,-0.40927255,-0.5687248,-0.44803473,-0.3575772,0.819392,-0.5387177,0.83942515,0.07175434,,0.057678614,-0.043145016,0.026325583,0.693034,-0.30697754,0.6522796,-0.64778066,0.13188851,0.75032365,-0.31636068,-0.942534,-0.10745099,,0.077379905,1.3283154,0.45412594,0.997865,0.045862246,-0.04649841,0.0052742353,-0.76622266,-0.6425535,-0.06509708,0.64093643,-0.7648287,,-0.08949115,0.23265456,-0.09301139,0.77937275,0.3451124,0.5229489,-0.6189218,0.29411745,0.7283067,0.09753928,-0.8912869,0.44282475,,-0.017640807,0.3991231,-0.35563254,-0.60215336,0.4336289,-0.67035615,-0.77423275,-0.52210283,0.35773218,-0.19487183,0.7344213,0.65011567,,0.9836290407242273,0.2771843283216661,0.17721321332,0.3306810408750949,0.2604291685529295,1.1956972768377732,-0.40460325181460965,,-1.2503027296040738,-0.1057087675823851,0.17750487857000002,-0.1411213319650849,0.4560926362170402,-0.9627769687154819,0.8761775707442738,,-0.03261365873507904,-0.08565421470318672,0.08101381028,-0.06541713947960498,,2.0682812e-05,-1.7881393e-07,-3.5762787e-06,1.0,-2.880022e-05,-2.4136156e-05,2.880022e-05,1.0,-2.503395e-06,2.4136156e-05,2.4437904e-06,1.0,49,0.146,0,0,0.0,False,-0.25630337251240265,1.050335750771978
0.17170759802684188,11:09:35.900488,11:08:31.907845,0,,0.12114313,0.0019407049,0.020534724,-0.71131784,-0.4133322,-0.5684921,-0.44681746,-0.35843617,0.8196814,-0.54256886,0.8370663,0.07027793,,0.057679024,-0.043143347,0.02632624,0.6930369,-0.30697474,0.65227765,-0.6477754,0.13189694,0.75032663,-0.3163648,-0.94253373,-0.107441306,,0.077379905,1.3283154,0.45412594,0.997865,0.045862246,-0.04649841,0.0052742353,-0.76622266,-0.6425535,-0.06509708,0.64093643,-0.7648287,,-0.08944461,0.23274885,-0.09310108,0.77752906,0.34940705,0.5228415,-0.6206227,0.2923424,0.72757363,0.1013706,-0.890197,0.44415465,,-0.017641392,0.39912465,-0.35563174,-0.602156,0.4336256,-0.67035586,-0.7742324,-0.5220971,0.3577413,-0.19486508,0.7344273,0.6501109,,0.9842082456897941,0.27717660558879187,0.17712247302,0.3281647615532806,0.2646649000456581,1.1931417879647301,-0.4047665958807438,,-1.2503181750698222,-0.10569332211663664,0.17750487857000002,-0.1411213319650849,0.4560926362170402,-0.9627769687154819,0.8761775707442738,,-0.03261365873507904,-0.08565421470318672,0.08101381028,-0.06541713947960498,,2.0682812e-05,-1.7881393e-07,-3.5762787e-06,1.0,-2.880022e-05,-2.4136156e-05,2.880022e-05,1.0,-2.503395e-06,2.4136156e-05,2.4437904e-06,1.0,57,0.171,0,0,0.0,False,-0.25588632848275505,1.0504805913743163
0.19498188293073326,11:09:35.926539,11:08:31.907845,0,,0.1210428,0.0019747838,0.020724565,-0.70811546,-0.4207923,-0.5670152,-0.44433397,-0.3585405,0.8209847,-0.54876196,0.8332962,0.06691569,,0.057677783,-0.043141022,0.02632624,0.6930395,-0.30698177,0.6522717,-0.6477667,0.13190618,0.7503326,-0.3163771,-0.9425301,-0.10743642,,0.077379905,1.3283154,0.45412594,0.997865,0.045862246,-0.04649841,0.0052742353,-0.76622266,-0.6425535,-0.06509708,0.64093643,-0.7648287,,-0.089363895,0.23290448,-0.09322967,0.7748078,0.35718167,0.52162635,-0.62292856,0.29057103,0.72631156,0.10785567,-0.88768786,0.44763538,,-0.017640293,0.39912644,-0.35563016,-0.6021572,0.4336315,-0.67035097,-0.77423525,-0.5220871,0.3577497,-0.19485007,0.7344309,0.6501113,,0.9851967554976949,0.2771688828559177,0.17699284402,0.3246000325140437,0.271769998033461,1.1875114144527976,-0.4047665958807438,,-1.2503104523369482,-0.10568559938376242,0.17750487857000002,-0.1411213319650849,0.4560926362170402,-0.9627769687154819,0.8761775707442738,,-0.03261365873507904,-0.08565421470318672,0.08101381028,-0.06541713947960498,,2.0682812e-05,-1.7881393e-07,-3.5762787e-06,1.0,-2.880022e-05,-2.4136156e-05,2.880022e-05,1.0,-2.503395e-06,2.4136156e-05,2.4437904e-06,1.0,65,0.196,0,0,0.0,False,-0.25677999426057063,1.0502874705711984
0.22100762196350843,11:09:35.951224,11:08:31.907845,0,,0.12097779,0.00202965,0.02084802,-0.7043235,-0.42835993,-0.56607085,-0.44203332,-0.35930923,0.8218901,-0.5554593,0.8290987,0.063720495,,0.0576784,-0.043142155,0.02632618,0.6930382,-0.30697826,0.6522747,-0.6477711,0.13190159,0.7503296,-0.31637102,-0.9425319,-0.10743886,,0.077379905,1.3283154,0.45412594,0.997865,0.045862246,-0.04649841,0.0052742353,-0.76622266,-0.6425535,-0.06509708,0.64093643,-0.7648287,,-0.08931308,0.2330308,-0.09329242,0.7715548,0.3651321,0.5209431,-0.62574875,0.28802848,0.7248987,0.11463731,-0.8852786,0.4507107,,-0.017640842,0.39912555,-0.35563093,-0.6021566,0.43362856,-0.6703534,-0.7742338,-0.5220921,0.3577455,-0.19485757,0.7344291,0.6501111,,0.9859381378536205,0.2771688828559177,0.17693191839000003,0.3204062336443532,0.2791483690207948,1.182393313794737,-0.40443990774847527,,-1.2503104523369482,-0.10569332211663664,0.17750487857000002,-0.1411213319650849,0.4560926362170402,-0.9627769687154819,0.8761775707442738,,-0.03261365873507904,-0.08565421470318672,0.08101381028,-0.06541713947960498,,2.0682812e-05,-1.7881393e-07,-3.5762787e-06,1.0,-2.880022e-05,-2.4136156e-05,2.880022e-05,1.0,-2.503395e-06,2.4136156e-05,2.4437904e-06,1.0,76,0.228,0,0,0.0,False,-0.25600548391979716,1.0507219923782136
0.24574203696101904,11:09:35.981015,11:08:32.041636,0,,0.12085053,0.0021001175,0.02106297,-0.6988503,-0.4361834,-0.56687933,-0.43918288,-0.36387587,0.8214089,-0.56455857,0.8230057,0.06273043,,0.057680096,-0.04314278,0.026323915,0.6930369,-0.30697474,0.65227765,-0.6477754,0.13189694,0.75032663,-0.3163648,-0.94253373,-0.107441306,,0.077379905,1.3283154,0.45412594,0.997865,0.045862246,-0.04649841,0.0052742353,-0.76622266,-0.6425535,-0.06509708,0.64093643,-0.7648287,,-0.089209534,0.2332328,-0.09341827,0.76682794,0.37368008,0.52186024,-0.629822,0.28139052,0.7239776,0.12368949,-0.8838453,0.45113006,,-0.017642142,0.39912325,-0.35562968,-0.602156,0.4336256,-0.67035586,-0.7742324,-0.5220971,0.3577413,-0.19486508,0.7344273,0.6501109,,0.9872046660449934,0.2771611601230434,0.17680747455,0.3141155353398175,0.289122833503672,1.179323888713613,-0.40607334840981824,,-1.2503104523369482,-0.10570104484951086,0.17750747115,-0.1411213319650849,0.4560926362170402,-0.9627769687154819,0.8761775707442738,,-0.03261365873507904,-0.08565421470318672,0.08101381028,-0.06541713947960498,,2.0682812e-05,-1.7881393e-07,-3.5762787e-06,1.0,-2.880022e-05,-2.4136156e-05,2.880022e-05,1.0,-2.503395e-06,2.4136156e-05,2.4437904e-06,1.0,84,0.253,0,0,0.0,False,-0.2566608388235285,1.050432311173537
0.2755203639389947,11:09:36.006962,11:08:32.041636,0,,0.12072782,0.0021946505,0.02127093,-0.69285655,-0.44634774,-0.5663246,-0.4345341,-0.36831123,0.8219044,-0.57543886,0.81554925,0.06123349,,0.057679564,-0.043141738,0.026318073,0.69303477,-0.30699092,0.65227246,-0.6477728,0.13189387,0.7503295,-0.31637514,-0.94252884,-0.107453346,,0.077379905,1.3283154,0.45412594,0.997865,0.045862246,-0.04649841,0.0052742353,-0.76622266,-0.6425535,-0.06509708,0.64093643,-0.7648287,,-0.089110896,0.23344843,-0.0935232,0.76166874,0.38467714,0.52142525,-0.6336875,0.2742086,0.72336006,0.13528079,-0.8813814,0.4526212,,-0.017640827,0.39912003,-0.35562488,-0.60215247,0.43364108,-0.67034906,-0.7742374,-0.52209353,0.35773563,-0.19485606,0.73442066,0.65012103,,0.9885329760993599,0.27713026919154654,0.17670895651000001,0.30782483703528174,0.3016933914820925,1.1747909533833818,-0.4039498755500728,,-1.2502950068711998,-0.10569332211663664,0.17751265631000002,-0.1411213319650849,0.4560926362170402,-0.9627769687154819,0.8761775707442738,,-0.03261365873507904,-0.08565421470318672,0.08101381028,-0.06541713947960498,,2.0682812e-05,-1.7881393e-07,-3.5762787e-06,1.0,-2.880022e-05,-2.4136156e-05,2.880022e-05,1.0,-2.503395e-06,2.4136156e-05,2.4437904e-06,1.0,92,0.278,0,0,0.0,False,-0.2559459062012759,1.050963393382111
0.30148305103648454,11:09:36.032369,11:08:32.041636,0,,0.12058793,0.0022678524,0.0214248,-0.6874689,-0.45413718,-0.56669736,-0.4328351,-0.37036335,0.8218787,-0.58312964,0.8103026,0.05804673,,0.057679884,-0.04313861,0.026317537,0.693039,-0.30699167,0.6522676,-0.6477632,0.13190699,0.75033545,-0.3163854,-0.9425268,-0.10744125,,0.077379905,1.3283154,0.45412594,0.997865,0.045862246,-0.04649841,0.0052742353,-0.76622266,-0.6425535,-0.06509708,0.64093643,-0.7648287,,-0.08898923,0.23361507,-0.09360088,0.7569471,0.393002,0.5220924,-0.63774717,0.27003625,0.72135913,0.14251171,-0.87899363,0.45503908,,-0.017641237,0.39912176,-0.35562226,-0.6021557,0.43364075,-0.6703464,-0.77423847,-0.52208287,0.35774896,-0.1948418,0.7344285,0.6501165,,0.9897608906263616,0.27702987366418164,0.17663506798,0.301114758843777,0.31002821796778435,1.1694646785804301,-0.4054199721452809,,-1.2503027296040738,-0.1056778766508882,0.17751395260000002,-0.1411213319650849,0.4560926362170402,-0.9627769687154819,0.8761775707442738,,-0.03261365873507904,-0.08565421470318672,0.08101381028,-0.06541713947960498,,2.0682812e-05,-1.7881393e-07,-3.5762787e-06,1.0,-2.880022e-05,-2.4136156e-05,2.880022e-05,1.0,-2.503395e-06,2.4136156e-05,2.4437904e-06,1.0,107,0.323,0,0,0.0,False,-0.2561842170753601,1.0505771517758753
0.32688889803830534,11:09:36.080294,11:08:32.041636,0,,0.12045589,0.0023890063,0.02159731,-0.6792559,-0.4691725,-0.5643479,-0.4267978,-0.37303704,0.8238246,-0.5970385,0.8004502,0.053145736,,0.057683103,-0.04313709,0.026310623,0.693039,-0.30699167,0.6522676,-0.6477632,0.13190699,0.75033545,-0.3163854,-0.9425268,-0.10744125,,0.077379905,1.3283154,0.45412594,0.997865,0.045862246,-0.04649841,0.0052742353,-0.76622266,-0.6425535,-0.06509708,0.64093643,-0.7648287,,-0.088879205,0.23382962,-0.09366198,0.7497998,0.40898862,0.5201236,-0.64266723,0.26314628,0.71953654,0.15741368,-0.87377477,0.4601506,,-0.017643489,0.39911756,-0.35561612,-0.6021557,0.43364075,-0.6703464,-0.77423847,-0.52208287,0.35774896,-0.1948418,0.7344285,0.6501165,,0.9911355370779735,0.27681363714370333,0.17659488299,0.29293685104788053,0.32615132494010635,1.1600745879907182,-0.40525662807914675,,-1.2503027296040738,-0.1056778766508882,0.17752173034000002,-0.1411213319650849,0.4560926362170402,-0.9627769687154819,0.8761775707442738,,-0.03261365873507904,-0.08565421470318672,0.08101381028,-0.06541713947960498,,2.0682812e-05,-1.7881393e-07,-3.5762787e-06,1.0,-2.880022e-05,-2.4136156e-05,2.880022e-05,1.0,-2.503395e-06,2.4136156e-05,2.4437904e-06,1.0,115,0.347,0,0,0.0,False,-0.25636295023092304,1.0506254319766548
0.37476829800289124,11:09:36.103782,11:08:32.041636,0,,0.12037547,0.002471432,0.021696866,-0.67281276,-0.47773373,-0.5648835,-0.42177418,-0.37961358,0.8234076,-0.607807,0.7922524,0.053913087,,0.057683423,-0.04313396,0.026310086,0.69304323,-0.30699238,0.6522627,-0.6477537,0.13192004,0.7503414,-0.31639564,-0.94252473,-0.10742912,,0.077379905,1.3283154,0.45412594,0.997865,0.045862246,-0.04649841,0.0052742353,-0.76622266,-0.6425535,-0.06509708,0.64093643,-0.7648287,,-0.08881206,0.23396346,-0.09368944,0.74416685,0.41855407,0.52060366,-0.6462156,0.2537001,0.7197511,0.16917756,-0.8720371,0.4592714,,-0.017643899,0.39911932,-0.3556135,-0.6021589,0.43364042,-0.67034364,-0.77423954,-0.52207214,0.35776228,-0.19482756,0.73443633,0.6501119,,0.9920159286256351,0.27655878695885394,0.17658840154000002,0.28664615274334476,0.33899515591805773,1.1584226089784353,-0.4055833162114153,,-1.2503104523369482,-0.10566243118513974,0.17752302663000002,-0.1411213319650849,0.4560926362170402,-0.9627769687154819,0.8761775707442738,,-0.03261365873507904,-0.08565421470318672,0.08101381028,-0.06541713947960498,,2.0682812e-05,-1.7881393e-07,-3.5762787e-06,1.0,-2.880022e-05,-2.4136156e-05,2.880022e-05,1.0,-2.503395e-06,2.4136156e-05,2.4437904e-06,1.0,127,0.384,0,0,0.0,False,-0.25636295023092304,1.0505771517758753
0.3982968039344996,11:09:36.134761,11:08:32.200086,0,,0.12028882,0.002519168,0.021761343,-0.66654074,-0.48600182,-0.5652659,-0.41940853,-0.38239783,0.82332754,-0.6162951,0.7858588,0.051050395,,0.057684492,-0.043133423,0.026307762,0.69304323,-0.30699238,0.6522627,-0.6477537,0.13192004,0.7503414,-0.31639564,-0.94252473,-0.10742912,,0.077379905,1.3283154,0.45412594,0.997865,0.045862246,-0.04649841,0.0052742353,-0.76622266,-0.6425535,-0.06509708,0.64093643,-0.7648287,,-0.08873395,0.23404899,-0.09371233,0.73860997,0.42749363,0.5212528,-0.6503493,0.2482837,0.7179143,0.17748521,-0.86925507,0.461405,,-0.01764465,0.39911792,-0.35561144,-0.6021589,0.43364042,-0.67034364,-0.77423954,-0.52207214,0.35776228,-0.19482756,0.73443633,0.6501119,,0.9927186973171896,0.2762035412466396,0.17658580896,0.27972638460835547,0.34842307440187315,1.153593529528302,-0.40541997214528114,,-1.2503104523369482,-0.10566243118513974,0.17752561921,-0.1411213319650849,0.4560926362170402,-0.9627769687154819,0.8761775707442738,,-0.03261365873507904,-0.08565421470318672,0.08101381028,-0.06541713947960498,,2.0682812e-05,-1.7881393e-07,-3.5762787e-06,1.0,-2.880022e-05,-2.4136156e-05,2.880022e-05,1.0,-2.503395e-06,2.4136156e-05,2.4437904e-06,1.0,135,0.409,0,0,0.0,False,-0.2570778828531757,1.0504805913743163
0.4292501889867708,11:09:36.157689,11:08:32.200086,0,,0.12025581,0.0025453866,0.021803781,-0.66266304,-0.49414733,-0.5627575,-0.4156314,-0.38243234,0.82522476,-0.6229993,0.78074574,0.04804054,,0.05768346,-0.04313402,0.026307166,0.69304156,-0.30699867,0.6522616,-0.64775443,0.13191617,0.7503414,-0.31639773,-0.9425232,-0.10743642,,0.077379905,1.3283154,0.45412594,0.997865,0.045862246,-0.04649841,0.0052742353,-0.76622266,-0.6425535,-0.06509708,0.64093643,-0.7648287,,-0.08870621,0.23409908,-0.09372967,0.73520726,0.43607137,0.51895285,-0.65204656,0.2457803,0.71723586,0.18521763,-0.86569846,0.4650383,,-0.017643517,0.39911726,-0.3556115,-0.6021569,0.43364665,-0.6703415,-0.7742413,-0.52207285,0.35775733,-0.1948268,0.7344321,0.6501169,,0.9930893884951524,0.2759100773974191,0.17658840154000002,0.27637134551260306,0.35689453738733046,1.1479108006012322,-0.405256628079147,,-1.2503027296040738,-0.10566243118513974,0.17752561921,-0.1411213319650849,0.4560926362170402,-0.9627769687154819,0.8761775707442738,,-0.03261365873507904,-0.08565421470318672,0.08101381028,-0.06541713947960498,,2.0682812e-05,-1.7881393e-07,-3.5762787e-06,1.0,-2.880022e-05,-2.4136156e-05,2.880022e-05,1.0,-2.503395e-06,2.4136156e-05,2.4437904e-06,1.0,154,0.466,0,0,0.0,False,-0.25731619372725945,1.0506254319766548
0.4522044350160286,11:09:36.210398,11:08:32.200086,0,,0.12019858,0.0026124343,0.021926627,-0.65129685,-0.5125975,-0.55951416,-0.40478855,-0.38897854,0.8275517,-0.64184,0.7654668,0.04584679,,0.057685032,-0.043133184,0.02630663,0.69304323,-0.30699238,0.6522627,-0.6477537,0.13192004,0.7503414,-0.31639564,-0.94252473,-0.10742912,,0.077379905,1.3283154,0.45412594,0.997865,0.045862246,-0.04649841,0.0052742353,-0.76622266,-0.6425535,-0.06509708,0.64093643,-0.7648287,,-0.08866361,0.23423366,-0.093783855,0.7251684,0.45612827,0.5158273,-0.65668464,0.23279765,0.7173357,0.20711373,-0.85892504,0.46834993,,-0.017645026,0.3991172,-0.35561043,-0.6021589,0.43364042,-0.67034364,-0.77423954,-0.52207214,0.35776228,-0.19482756,0.73443633,0.6501119,,0.9939079981798201,0.2751609723086193,0.17659229041000002,0.266725608112315,0.38080592484628256,1.1397660123338964,-0.40607334840981824,,-1.2503104523369482,-0.10566243118513974,0.17752691550000002,-0.1411213319650849,0.4560926362170402,-0.9627769687154819,0.8761775707442738,,-0.03261365873507904,-0.08565421470318672,0.08101381028,-0.06541713947960498,,2.0682812e-05,-1.7881393e-07,-3.5762787e-06,1.0,-2.880022e-05,-2.4136156e-05,2.880022e-05,1.0,-2.503395e-06,2.4136156e-05,2.4437904e-06,1.0,158,0.478,0,0,0.0,False,-0.25731619372725945,1.0505771517758753
0.5049049590015784,11:09:36.232303,11:08:32.200086,0,,0.12014592,0.002636291,0.021964341,-0.64679843,-0.5170111,-0.5606704,-0.4030499,-0.3923828,0.82679284,-0.6474585,0.7607465,0.04541126,,0.05768556,-0.043132916,0.026305497,0.69304323,-0.30699238,0.6522627,-0.6477537,0.13192004,0.7503414,-0.31639564,-0.94252473,-0.10742912,,0.077379905,1.3283154,0.45412594,0.997865,0.045862246,-0.04649841,0.0052742353,-0.76622266,-0.6425535,-0.06509708,0.64093643,-0.7648287,,-0.088615775,0.23428077,-0.093799904,0.7211376,0.46110594,0.51705116,-0.6593202,0.22760463,0.71658427,0.21273804,-0.8576581,0.4681507,,-0.0176454,0.39911652,-0.35560942,-0.6021589,0.43364042,-0.67034364,-0.77423954,-0.52207214,0.35776228,-0.19482756,0.73443633,0.6501119,,0.9943018575564057,0.2748829539251472,0.17659358670000003,0.2619027394121709,0.3872278403352582,1.1382865929066308,-0.40640003654208656,,-1.2503104523369482,-0.10566243118513974,0.17752821179000003,-0.1411213319650849,0.4560926362170402,-0.9627769687154819,0.8761775707442738,,-0.03261365873507904,-0.08565421470318672,0.08101381028,-0.06541713947960498,,2.0682812e-05,-1.7881393e-07,-3.5762787e-06,1.0,-2.880022e-05,-2.4136156e-05,2.880022e-05,1.0,-2.503395e-06,2.4136156e-05,2.4437904e-06,1.0,166,0.503,0,0,0.0,False,-0.25672041654204936,1.050432311173537
0.5268148080212995,11:09:36.258415,11:08:32.200086,0,,0.12005882,0.0026918277,0.02204834,-0.6416494,-0.52646476,-0.5577821,-0.3982057,-0.39288056,0.82890105,-0.6555289,0.753976,0.04245025,,0.05768664,-0.04313244,0.026303113,0.69304323,-0.30699238,0.6522627,-0.6477537,0.13192004,0.7503414,-0.31639564,-0.94252473,-0.10742912,,0.077379905,1.3283154,0.45412594,0.997865,0.045862246,-0.04649841,0.0052742353,-0.76622266,-0.6425535,-0.06509708,0.64093643,-0.7648287,,-0.08853937,0.2343847,-0.09383284,0.7165498,0.4711589,0.5143595,-0.6611795,0.22381817,0.7160636,0.22225673,-0.8531792,0.47189745,,-0.01764615,0.3991151,-0.35560736,-0.6021589,0.43364042,-0.67034364,-0.77423954,-0.52207214,0.35776228,-0.19482756,0.73443633,0.6501119,,0.9950895763095765,0.2745740446101782,0.17658580896,0.2572895606555114,0.39774885081719713,1.1314226678649582,-0.4062366924759526,,-1.2503104523369482,-0.10566243118513974,0.17753080437000002,-0.1411213319650849,0.4560926362170402,-0.9627769687154819,0.8761775707442738,,-0.03261365873507904,-0.08565421470318672,0.08101381028,-0.06541713947960498,,2.0682812e-05,-1.7881393e-07,-3.5762787e-06,1.0,-2.880022e-05,-2.4136156e-05,2.880022e-05,1.0,-2.503395e-06,2.4136156e-05,2.4437904e-06,1.0,174,0.527,0,0,0.0,False,-0.2571374605716965,1.0505771517758753
0.5529352319426835,11:09:36.283737,11:08:32.348478,0,,0.11991137,0.0027410388,0.022128686,-0.6408991,-0.52664876,-0.5584705,-0.39797306,-0.39415422,0.828408,-0.65640354,0.7531823,0.043020934,,0.05769009,-0.043130532,0.02629584,0.693028,-0.3069908,0.6522796,-0.6478226,0.1317684,0.7503085,-0.3162877,-0.9425464,-0.10755643,,0.077379905,1.3283154,0.45412594,0.997865,0.045862246,-0.04649841,0.0052742353,-0.76622266,-0.6425535,-0.06509708,0.64093643,-0.7648287,,-0.088402316,0.23448707,-0.09386963,0.71587425,0.47147164,0.51501316,-0.6616237,0.2223539,0.7161095,0.22311012,-0.85338926,0.47111425,,-0.017648602,0.39911082,-0.35560068,-0.6021558,0.43365052,-0.6703399,-0.77421033,-0.5221938,0.35764787,-0.19495316,0.7343438,0.65017873,,0.9961244225147227,0.2745199854800586,0.17654821655000003,0.2558217310511197,0.3989785793150861,1.1310733366528147,-0.40591000434368385,,-1.2503104523369482,-0.10565470845226552,0.17753858211,-0.1411213319650849,0.4559559997172748,-0.9626655508117855,0.8761775707442738,,-0.03261365873507904,-0.08565421470318672,0.08101381028,-0.06541713947960498,,2.0682812e-05,-1.7881393e-07,-3.5762787e-06,1.0,-2.880022e-05,-2.4136156e-05,2.880022e-05,1.0,-2.503395e-06,2.4136156e-05,2.4437904e-06,1.0,186,0.564,0,0,0.0,False,-0.25642252794944387,1.0501909101696396
0.5782429480459541,11:09:36.310218,11:08:32.348478,0,,0.119814046,0.00280077,0.022236288,-0.6379708,-0.52997804,-0.5586738,-0.39744225,-0.39478558,0.8283621,-0.6595702,0.7505115,0.04122588,,0.05769009,-0.043130532,0.02629584,0.693028,-0.30693755,0.6523047,-0.6478226,0.13182971,0.7502977,-0.3162877,-0.9425552,-0.10747945,,0.077379905,1.3283154,0.45412594,0.997865,0.045862246,-0.04649841,0.0052742353,-0.76622266,-0.6425535,-0.06509708,0.64093643,-0.7648287,,-0.088318095,0.23461011,-0.09391849,0.7132313,0.47505865,0.5153837,-0.663491,0.2204886,0.71495765,0.22601059,-0.8518827,0.47245649,,-0.017648602,0.39911082,-0.35560068,-0.6021558,0.43359578,-0.67037535,-0.77421033,-0.5221646,0.3576905,-0.19495316,0.73439693,0.65011877,,0.9969353094665162,0.27461265827454934,0.17649895753000003,0.25204731206839825,0.4022578553094566,1.127745877042976,-0.40525662807914675,,-1.2503104523369482,-0.10565470845226552,0.17753858211,-0.1411213319650849,0.4559559997172748,-0.962747229551926,0.8760142266781396,,-0.03261365873507904,-0.08565421470318672,0.08101381028,-0.06541713947960498,,2.0682812e-05,-1.7881393e-07,-3.5762787e-06,1.0,-2.880022e-05,-2.4136156e-05,2.880022e-05,1.0,-2.503395e-06,2.4136156e-05,2.4437904e-06,1.0,197,0.597,0,0,0.0,False,-0.25624379479388093,1.0505771517758753
0.6047001830302179,11:09:36.343903,11:08:32.348478,0,,0.11963086,0.002943024,0.022477359,-0.63667065,-0.534502,-0.5558399,-0.39362144,-0.39457124,0.83028644,-0.66310835,0.7474095,0.04082048,,0.057691835,-0.043131247,0.026290655,0.69302505,-0.30694038,0.65230656,-0.6478278,0.13182124,0.7502948,-0.31628364,-0.9425554,-0.10748914,,0.077379905,1.3283154,0.45412594,0.997865,0.045862246,-0.04649841,0.0052742353,-0.76622266,-0.6425535,-0.06509708,0.64093643,-0.7648287,,-0.088164486,0.23488903,-0.09402106,0.7120974,0.47983664,0.51251745,-0.66291213,0.21911187,0.7159173,0.23122469,-0.8495568,0.4741185,,-0.017649518,0.39910644,-0.35559744,-0.6021532,0.43359905,-0.6703756,-0.7742107,-0.5221703,0.3576814,-0.19495991,0.7343909,0.65012354,,0.9987115380275878,0.2750914677127513,0.17638618030000003,0.2507891724074911,0.40758667880030885,1.1232372213185347,-0.4055833162114155,,-1.2503027296040738,-0.10566243118513974,0.17754376727,-0.1411213319650849,0.4559559997172748,-0.962747229551926,0.8760142266781396,,-0.03261365873507904,-0.08565421470318672,0.08101381028,-0.06541713947960498,,2.0682812e-05,-1.7881393e-07,-3.5762787e-06,1.0,-2.880022e-05,-2.4136156e-05,2.880022e-05,1.0,-2.503395e-06,2.4136156e-05,2.4437904e-06,1.0,205,0.622,0,0,0.0,False,-0.2568991496976123,1.0502391903704191
0.6384062679717317,11:09:36.371368,11:08:32.348478,0,,0.11954346,0.0030124858,0.0225842,-0.63603204,-0.53429514,-0.55676913,-0.39400285,-0.39552358,0.82965213,-0.6634944,0.74705416,0.041051805,,0.05769134,-0.043131545,0.026288867,0.69302326,-0.3069467,0.65230536,-0.64782864,0.13181734,0.7502947,-0.31628567,-0.94255394,-0.10749641,,0.077379905,1.3283154,0.45412594,0.997865,0.045862246,-0.04649841,0.0052742353,-0.76622266,-0.6425535,-0.06509708,0.64093643,-0.7648287,,-0.08809051,0.23501815,-0.09406269,0.7115148,0.47970572,0.5134483,-0.6635091,0.21813558,0.7156623,0.23130596,-0.84988195,0.47349578,,-0.01764876,0.3991051,-0.35559645,-0.6021511,0.4336053,-0.6703734,-0.7742125,-0.522171,0.35767645,-0.19495916,0.7343867,0.65012854,,0.9994992567807587,0.27542354522634294,0.17633173612000003,0.24932134280309945,0.40758667880030885,1.1229105063579725,-0.405256628079147,,-1.2502950068711998,-0.10566243118513974,0.17754506356000002,-0.1411213319650849,0.4559559997172748,-0.962747229551926,0.8760142266781396,,-0.03261365873507904,-0.08565421470318672,0.08101381028,-0.06541713947960498,,2.0682812e-05,-1.7881393e-07,-3.5762787e-06,1.0,-2.880022e-05,-2.4136156e-05,2.880022e-05,1.0,-2.503395e-06,2.4136156e-05,2.4437904e-06,1.0,213,0.646,0,0,0.0,False,-0.25677999426057063,1.0502391903704191
0.6658901509363204,11:09:36.402149,11:08:32.348478,0,,0.1194384,0.0031493679,0.022763878,-0.6363773,-0.5345228,-0.55615574,-0.3933046,-0.39539054,0.8300469,-0.6635777,0.7469616,0.04138726,,0.0576934,-0.043130443,0.02629006,0.6930267,-0.306934,0.65230775,-0.64782697,0.13182509,0.7502948,-0.31628156,-0.94255704,-0.1074819,,0.077379905,1.3283154,0.45412594,0.997865,0.045862246,-0.04649841,0.0052742353,-0.76622266,-0.6425535,-0.06509708,0.64093643,-0.7648287,,-0.08800869,0.23524682,-0.094118096,0.7118351,0.4799349,0.51278967,-0.6629927,0.2182005,0.71612096,0.23180047,-0.84973586,0.47351614,,-0.017651027,0.3991064,-0.35559636,-0.6021552,0.4335928,-0.6703778,-0.7742089,-0.5221696,0.3576863,-0.19496067,0.73439515,0.6501186,,1.0006962803762636,0.2762035412466396,0.17625006985000002,0.24911165285961492,0.40758667880030885,1.1215219677755828,-0.4057466602775497,,-1.2503104523369482,-0.10566243118513974,0.17754506356000002,-0.1411213319650849,0.4559559997172748,-0.962747229551926,0.8760142266781396,,-0.03261365873507904,-0.08565421470318672,0.08101381028,-0.06541713947960498,,2.0682812e-05,-1.7881393e-07,-3.5762787e-06,1.0,-2.880022e-05,-2.4136156e-05,2.880022e-05,1.0,-2.503395e-06,2.4136156e-05,2.4437904e-06,1.0,221,0.671,0,0,0.0,False,-0.25683957197909146,1.0499977893665218
0.6966637319419533,11:09:36.423212,11:08:32.348478,0,,0.11940935,0.0032448843,0.022860408,-0.6371054,-0.5349145,-0.5549442,-0.39220947,-0.39481252,0.83083975,-0.6635272,0.746987,0.04173863,,0.05769134,-0.043131545,0.026288867,0.69302326,-0.3069467,0.65230536,-0.64782864,0.13181734,0.7502947,-0.31628567,-0.94255394,-0.10749641,,0.077379905,1.3283154,0.45412594,0.997865,0.045862246,-0.04649841,0.0052742353,-0.76622266,-0.6425535,-0.06509708,0.64093643,-0.7648287,,-0.087992944,0.23538402,-0.09413266,0.7125064,0.4802967,0.51151705,-0.6620511,0.21869741,0.7168402,0.23242852,-0.8494036,0.47380424,,-0.01764876,0.3991051,-0.35559645,-0.6021511,0.4336053,-0.6703734,-0.7742125,-0.522171,0.35767645,-0.19495916,0.7343867,0.65012854,,1.0012677626089561,0.2767981916779549,0.17621766260000002,0.24995041263355305,0.40772331530007433,1.1205937624704807,-0.406073348409818,,-1.2502950068711998,-0.10566243118513974,0.17754506356000002,-0.1411213319650849,0.4559559997172748,-0.962747229551926,0.8760142266781396,,-0.03261365873507904,-0.08565421470318672,0.08101381028,-0.06541713947960498,,2.0682812e-05,-1.7881393e-07,-3.5762787e-06,1.0,-2.880022e-05,-2.4136156e-05,2.880022e-05,1.0,-2.503395e-06,2.4136156e-05,2.4437904e-06,1.0,229,0.695,0,0,0.0,False,-0.25677999426057063,1.0505288715750958
0.7177272019907832,11:09:36.444928,11:08:32.510902,0,,0.1194004,0.003354393,0.02295202,-0.6375997,-0.5355535,-0.5537589,-0.39106736,-0.3943056,0.83161855,-0.66372645,0.74679685,0.041971505,,0.057689607,-0.04312949,0.026287198,0.6930241,-0.30690682,0.6523233,-0.6478208,0.13188404,0.7502898,-0.3163001,-0.94255763,-0.107421815,,0.077379905,1.3283154,0.45412594,0.997865,0.045862246,-0.04649841,0.0052742353,-0.76622266,-0.6425535,-0.06509708,0.64093643,-0.7648287,,-0.08799735,0.23552701,-0.094133645,0.7129662,0.48092765,0.5102821,-0.661253,0.21902639,0.71747607,0.23328884,-0.8489618,0.47417325,,-0.017646905,0.39910555,-0.3555939,-0.60215026,0.43356273,-0.6704017,-0.7742171,-0.5221326,0.35772255,-0.1949434,0.7344392,0.65007395,,1.0017542947800322,0.2774932376366351,0.17619692196000003,0.2505794824640066,0.40799658829960517,1.1195541392616821,-0.40607334840981846,,-1.2502872841383255,-0.1056469857193913,0.17754635985000003,-0.1411213319650849,0.4559559997172748,-0.9628289082920666,0.8758508826120053,,-0.03261365873507904,-0.08565421470318672,0.08101381028,-0.06541713947960498,,2.0682812e-05,-1.7881393e-07,-3.5762787e-06,1.0,-2.880022e-05,-2.4136156e-05,2.880022e-05,1.0,-2.503395e-06,2.4136156e-05,2.4437904e-06,1.0,244,0.74,0,0,0.0,False,-0.2568991496976123,1.0507219923782136
0.7394471259322017,11:09:36.490933,11:08:32.510902,0,,0.1194604,0.0036257282,0.023140997,-0.63839644,-0.53713036,-0.5513084,-0.3885725,-0.39338523,0.83322227,-0.66442555,0.7461494,0.04242161,,0.057687335,-0.04312776,0.026286542,0.69302493,-0.30692023,0.6523162,-0.64781284,0.13188946,0.75029564,-0.31631452,-0.9425525,-0.10742417,,0.077379905,1.3283154,0.45412594,0.997865,0.045862246,-0.04649841,0.0052742353,-0.76622266,-0.6425535,-0.06509708,0.64093643,-0.7648287,,-0.0880865,0.2358496,-0.094103284,0.71371347,0.4825155,0.5077321,-0.65970284,0.21947114,0.71876603,0.2353832,-0.8479453,0.47495636,,-0.017644674,0.39910668,-0.35559237,-0.60214937,0.43357491,-0.67039466,-0.7742218,-0.5221233,0.357726,-0.19492763,0.7344386,0.6500793,,1.0024416180058382,0.2793621389921974,0.17617618132,0.2518376221249138,0.40840649779890154,1.117504632007641,-0.4062366924759524,,-1.2502795614054512,-0.10563154025364284,0.17754635985000003,-0.1411213319650849,0.4559559997172748,-0.9628289082920666,0.8758508826120053,,-0.03261365873507904,-0.08565421470318672,0.08101381028,-0.06541713947960498,,2.0682812e-05,-1.7881393e-07,-3.5762787e-06,1.0,-2.880022e-05,-2.4136156e-05,2.880022e-05,1.0,-2.503395e-06,2.4136156e-05,2.4437904e-06,1.0,252,0.765,0,0,0.0,False,-0.25677999426057063,1.050432311173537
0.7854504910064861,11:09:36.515357,11:08:32.510902,0,,0.11950673,0.0037256703,0.02320227,-0.6384688,-0.5377079,-0.55066127,-0.38788438,-0.39316118,0.83364856,-0.6647581,0.7458515,0.042452544,,0.057686843,-0.04312803,0.026284814,0.69302315,-0.30687326,0.65234005,-0.6478137,0.13194689,0.7502848,-0.31631657,-0.9425597,-0.10735446,,0.077379905,1.3283154,0.45412594,0.997865,0.045862246,-0.04649841,0.0052742353,-0.76622266,-0.6425535,-0.06509708,0.64093643,-0.7648287,,-0.08814267,0.23596089,-0.09408465,0.7137859,0.4831078,0.50706667,-0.65937734,0.21950862,0.7190532,0.2360747,-0.84759825,0.47523248,,-0.017643915,0.39910534,-0.3555914,-0.6021473,0.4335264,-0.67042786,-0.77422357,-0.5220948,0.3577637,-0.19492689,0.7344875,0.6500243,,1.0025420135332033,0.28010352134812294,0.17617488503,0.25204731206839825,0.40840649779890154,1.1168512020865167,-0.4062366924759524,,-1.250271838672577,-0.10563154025364284,0.17754765614,-0.1411213319650849,0.4559559997172748,-0.9629105870322071,0.8760142266781397,,-0.03261365873507904,-0.08565421470318672,0.08101381028,-0.06541713947960498,,2.0682812e-05,-1.7881393e-07,-3.5762787e-06,1.0,-2.880022e-05,-2.4136156e-05,2.880022e-05,1.0,-2.503395e-06,2.4136156e-05,2.4437904e-06,1.0,260,0.79,0,0,0.0,False,-0.25683957197909146,1.0505771517758753
0.8098612179746851,11:09:36.541147,11:08:32.510902,0,,0.1195775,0.0038763061,0.023288548,-0.63832545,-0.5385531,-0.55000097,-0.38693503,-0.39318806,0.834077,-0.66544855,0.7452272,0.042596787,,0.057685807,-0.043128595,0.026284218,0.6930214,-0.3068796,0.6523389,-0.6478145,0.13194308,0.7502848,-0.31631866,-0.9425582,-0.10736176,,0.077379905,1.3283154,0.45412594,0.997865,0.045862246,-0.04649841,0.0052742353,-0.76622266,-0.6425535,-0.06509708,0.64093643,-0.7648287,,-0.088227704,0.23612472,-0.09405184,0.7136655,0.48400754,0.50637764,-0.6590975,0.2191717,0.71941245,0.2372174,-0.847172,0.47542346,,-0.017642781,0.39910468,-0.35559142,-0.60214525,0.43353266,-0.67042565,-0.77422535,-0.5220955,0.35775876,-0.19492613,0.7344833,0.6500293,,1.002673299992065,0.28120014941626287,0.17617877390000003,0.25204731206839825,0.40854313429866695,1.1160863542616957,-0.4062366924759524,,-1.2502641159397028,-0.10563154025364284,0.17754765614,-0.1411213319650849,0.4559559997172748,-0.9629105870322071,0.8760142266781397,,-0.03261365873507904,-0.08565421470318672,0.08101381028,-0.06541713947960498,,2.0682812e-05,-1.7881393e-07,-3.5762787e-06,1.0,-2.880022e-05,-2.4136156e-05,2.880022e-05,1.0,-2.503395e-06,2.4136156e-05,2.4437904e-06,1.0,268,0.814,0,0,0.0,False,-0.25672041654204936,1.0510116735828905
0.8356646409956738,11:09:36.567472,11:08:32.510902,0,,0.119647264,0.0040252283,0.023370445,-0.63821334,-0.5392574,-0.54944056,-0.38609636,-0.3932479,0.83443725,-0.6660429,0.7446862,0.042770684,,0.057683133,-0.043128535,0.026283026,0.69301915,-0.30689576,0.6523337,-0.6478119,0.13193995,0.7502877,-0.31632903,-0.94255334,-0.10737383,,0.077379905,1.3283154,0.45412594,0.997865,0.045862246,-0.04649841,0.0052742353,-0.76622266,-0.6425535,-0.06509708,0.64093643,-0.7648287,,-0.08831126,0.23628455,-0.0940168,0.7135721,0.4847609,0.5057882,-0.65883905,0.21884891,0.71974736,0.23821418,-0.84682465,0.4755439,,-0.017639967,0.39910427,-0.35559073,-0.6021417,0.4335481,-0.67041886,-0.77423036,-0.522092,0.3577531,-0.19491711,0.7344767,0.6500395,,1.0027968637180527,0.2822813320186543,0.17618525535000001,0.25204731206839825,0.40854313429866695,1.1154329243405712,-0.4055833162114155,,-1.2502486704739544,-0.10562381752076862,0.17754765614,-0.1411213319650849,0.4559559997172748,-0.9629105870322071,0.8760142266781397,,-0.03261365873507904,-0.08565421470318672,0.08101381028,-0.06541713947960498,,2.0682812e-05,-1.7881393e-07,-3.5762787e-06,1.0,-2.880022e-05,-2.4136156e-05,2.880022e-05,1.0,-2.503395e-06,2.4136156e-05,2.4437904e-06,1.0,276,0.839,0,0,0.0,False,-0.256541683386486,1.0505771517758753
0.8619861819315702,11:09:36.587424,11:08:32.510902,0,,0.11968232,0.004122488,0.023425639,-0.63820636,-0.539518,-0.54919297,-0.38564998,-0.39336297,0.8345895,-0.66630816,0.7444366,0.042981535,,0.057680055,-0.043130204,0.026281238,0.693014,-0.3069148,0.6523302,-0.64781433,0.13192835,0.75028753,-0.31633532,-0.9425488,-0.10739559,,0.077379905,1.3283154,0.45412594,0.997865,0.045862246,-0.04649841,0.0052742353,-0.76622266,-0.6425535,-0.06509708,0.64093643,-0.7648287,,-0.08835553,0.236391,-0.09399567,0.71357,0.4850483,0.50551564,-0.6586643,0.21862683,0.71997476,0.23870325,-0.8467175,0.47548953,,-0.017636567,0.3991023,-0.35559085,-0.60213554,0.43356687,-0.67041224,-0.7742358,-0.5220942,0.3577383,-0.19491486,0.73446405,0.6500544,,1.0029358729097886,0.28296865524446024,0.17618784793000003,0.25204731206839825,0.40840649779890154,1.1151359485435648,-0.40607334840981846,,-1.2502255022753317,-0.10562381752076862,0.17754765614,-0.1411213319650849,0.4559559997172748,-0.9629105870322071,0.8760142266781397,,-0.03261365873507904,-0.08565421470318672,0.08101381028,-0.06541713947960498,,2.0682812e-05,-1.7881393e-07,-3.5762787e-06,1.0,-2.880022e-05,-2.4136156e-05,2.880022e-05,1.0,-2.503395e-06,2.4136156e-05,2.4437904e-06,1.0,291,0.884,0,0,0.0,False,-0.25636295023092304,1.0506254319766548
0.8819433730095625,11:09:36.637255,11:08:32.701478,0,,0.11974038,0.004320897,0.02354291,-0.6382679,-0.54011035,-0.5485389,-0.38483334,-0.39326942,0.8350103,-0.6667213,0.7440564,0.04315868,,0.057677586,-0.043132976,0.02627945,0.6930076,-0.3067704,0.65240496,-0.64782125,0.13209611,0.7502521,-0.31633538,-0.9425723,-0.10718882,,0.077379905,1.3283154,0.45412594,0.997865,0.045862246,-0.04649841,0.0052742353,-0.76622266,-0.6425535,-0.06509708,0.64093643,-0.7648287,,-0.08843289,0.23661232,-0.093956776,0.7136334,0.4856686,0.50483006,-0.658292,0.2185133,0.7203496,0.23953912,-0.84639114,0.47565013,,-0.017633718,0.39909944,-0.35559174,-0.60212874,0.43341836,-0.67051435,-0.7742397,-0.52201366,0.3578472,-0.19492011,0.7346089,0.6498892,,1.0032988413548771,0.28435102442894644,0.17618914422,0.25204731206839825,0.40799658829960517,1.1141633424124051,-0.406400036542087,,-1.250202334076709,-0.10563154025364284,0.17754765614,-0.1411213319650849,0.4559559997172748,-0.9631556232526288,0.8755241944797368,,-0.03261365873507904,-0.08565421470318672,0.08101381028,-0.06541713947960498,,2.0682812e-05,-1.7881393e-07,-3.5762787e-06,1.0,-2.880022e-05,-2.4136156e-05,2.880022e-05,1.0,-2.503395e-06,2.4136156e-05,2.4437904e-06,1.0,299,0.908,0,0,0.0,False,-0.25636295023092304,1.0506254319766548
0.9317717929370701,11:09:36.665281,11:08:32.701478,0,,0.1197856,0.0044996664,0.023651749,-0.6383572,-0.54086137,-0.5476942,-0.38412565,-0.39276242,0.8355747,-0.6670438,0.7437786,0.04296395,,0.057676643,-0.043134972,0.026280046,0.6930046,-0.30672,0.6524319,-0.64782643,0.13214886,0.7502383,-0.31633127,-0.94258136,-0.10712153,,0.077379905,1.3283154,0.45412594,0.997865,0.045862246,-0.04649841,0.0052742353,-0.76622266,-0.6425535,-0.06509708,0.64093643,-0.7648287,,-0.08849584,0.23681442,-0.09392449,0.713721,0.48641905,0.50398296,-0.6579435,0.21879724,0.72058177,0.24023461,-0.8458867,0.47619644,,-0.017632758,0.39909858,-0.3555936,-0.6021261,0.4333669,-0.67055,-0.7742401,-0.5219902,0.3578807,-0.19492684,0.734656,0.6498339,,1.00366953253284,0.28558666168882235,0.17618784793000003,0.25204731206839825,0.40758667880030885,1.1127823425805428,-0.40591000434368385,,-1.2501946113438347,-0.10563926298651707,0.17754635985000003,-0.1411213319650849,0.4559559997172748,-0.9632373019927694,0.875687538545871,,-0.03261365873507904,-0.08565421470318672,0.08101381028,-0.06541713947960498,,2.0682812e-05,-1.7881393e-07,-3.5762787e-06,1.0,-2.880022e-05,-2.4136156e-05,2.880022e-05,1.0,-2.503395e-06,2.4136156e-05,2.4437904e-06,1.0,307,0.933,0,0,0.0,False,-0.25600548391979716,1.0506737121774343
0.9597617259714752,11:09:36.686705,11:08:32.701478,0,,0.11985423,0.0047013983,0.02377981,-0.63878787,-0.54169244,-0.54636914,-0.38282704,-0.39220607,0.8364316,-0.66737795,0.74346733,0.0431619,,0.057675622,-0.04313554,0.02627945,0.6930029,-0.306673,0.65245575,-0.64782727,0.13220629,0.75022745,-0.31633335,-0.9425886,-0.10705182,,0.077379905,1.3283154,0.45412594,0.997865,0.045862246,-0.04649841,0.0052742353,-0.76622266,-0.6425535,-0.06509708,0.64093643,-0.7648287,,-0.08858486,0.23704416,-0.09389131,0.7141231,0.48725006,0.50260884,-0.6571164,0.21910536,0.7212426,0.24130121,-0.84532845,0.4766482,,-0.017631626,0.39909792,-0.35559365,-0.60212404,0.43331838,-0.6705832,-0.77424186,-0.5219617,0.3579184,-0.1949261,0.73470485,0.6497789,,1.003908937251941,0.28655200329810043,0.17618525535000001,0.25204731206839825,0.40745004230054344,1.1118319368624117,-0.404929939946878,,-1.2501868886109606,-0.10563926298651707,0.17754635985000003,-0.1411213319650849,0.4559559997172748,-0.9633189807329099,0.8758508826120054,,-0.03261365873507904,-0.08565421470318672,0.08101381028,-0.06541713947960498,,2.0682812e-05,-1.7881393e-07,-3.5762787e-06,1.0,-2.880022e-05,-2.4136156e-05,2.880022e-05,1.0,-2.503395e-06,2.4136156e-05,2.4437904e-06,1.0,315,0.957,0,0,0.0,False,-0.2561842170753601,1.0500943497680806
0.9812159369466826,11:09:36.715116,11:08:32.701478,0,,0.11991505,0.004854046,0.023881644,-0.63931715,-0.5423396,-0.54510665,-0.3815795,-0.39169925,0.83723867,-0.6675856,0.74326265,0.043474287,,0.05767303,-0.04313691,0.02627939,0.6929994,-0.3066857,0.65245354,-0.64782894,0.13219863,0.7502274,-0.3163375,-0.9425856,-0.1070663,,0.077379905,1.3283154,0.45412594,0.997865,0.045862246,-0.04649841,0.0052742353,-0.76622266,-0.6425535,-0.06509708,0.64093643,-0.7648287,,-0.08866153,0.23722029,-0.09386962,0.7146138,0.48789042,0.5012884,-0.6562393,0.2194258,0.72194344,0.24223368,-0.8448759,0.47697756,,-0.017628985,0.3990973,-0.35559475,-0.6021199,0.43333086,-0.67057884,-0.77424544,-0.5219631,0.35790855,-0.1949246,0.73469645,0.64978886,,1.0042487374984068,0.2881737772016876,0.17617488503,0.25351514167278993,0.40717676930101254,1.110666234087415,-0.40591000434368385,,-1.250171443145212,-0.10563926298651707,0.17754506356000002,-0.1411213319650849,0.4559559997172748,-0.9633189807329099,0.8758508826120054,,-0.03261365873507904,-0.08565421470318672,0.08101381028,-0.06541713947960498,,2.0682812e-05,-1.7881393e-07,-3.5762787e-06,1.0,-2.880022e-05,-2.4136156e-05,2.880022e-05,1.0,-2.503395e-06,2.4136156e-05,2.4437904e-06,1.0,323,0.982,0,0,0.0,False,-0.25576717304571295,1.050963393382111
1.0095835640095174,11:09:36.739540,11:08:32.701478,0,,0.12002699,0.0051097646,0.024051383,-0.63963175,-0.54183877,-0.54523575,-0.38148907,-0.39203116,0.8371245,-0.667336,0.74345297,0.04404995,,0.057672,-0.043137416,0.026278794,0.6929977,-0.306692,0.6524524,-0.6478298,0.13219482,0.75022733,-0.31633958,-0.942584,-0.107073545,,0.077379905,1.3283154,0.45412594,0.997865,0.045862246,-0.04649841,0.0052742353,-0.76622266,-0.6425535,-0.06509708,0.64093643,-0.7648287,,-0.08879989,0.23751387,-0.093832165,0.7148996,0.48738918,0.5013685,-0.65598255,0.21924438,0.7222318,0.24208577,-0.8452122,0.4764565,,-0.01762785,0.39909667,-0.35559478,-0.6021179,0.43333712,-0.67057663,-0.7742472,-0.52196383,0.3579036,-0.19492383,0.7346922,0.6497938,,1.004526755881879,0.29018168774898595,0.17615673697,0.25351514167278993,0.4051272218045309,1.1105405703597688,-0.4062366924759526,,-1.250163720412338,-0.10563926298651707,0.17754506356000002,-0.1411213319650849,0.4559559997172748,-0.9633189807329099,0.8758508826120054,,-0.03261365873507904,-0.08565421470318672,0.08101381028,-0.06541713947960498,,2.0682812e-05,-1.7881393e-07,-3.5762787e-06,1.0,-2.880022e-05,-2.4136156e-05,2.880022e-05,1.0,-2.503395e-06,2.4136156e-05,2.4437904e-06,1.0,335,1.019,0,0,0.0,False,-0.2559459062012759,1.0506254319766548
1.0340227639535442,11:09:36.768997,11:08:32.836846,0,,0.12018365,0.0053868964,0.02423805,-0.63901454,-0.54388744,-0.54391795,-0.3804341,-0.39110944,0.83803535,-0.6685284,0.7424418,0.043011278,,0.05767097,-0.043137982,0.026278198,0.69299597,-0.30669835,0.6524513,-0.6478306,0.13219097,0.75022733,-0.3163417,-0.9425825,-0.10708085,,0.077379905,1.3283154,0.45412594,0.997865,0.045862246,-0.04649841,0.0052742353,-0.76622266,-0.6425535,-0.06509708,0.64093643,-0.7648287,,-0.08898522,0.23783046,-0.093792155,0.7143496,0.48948014,0.5001138,-0.65598303,0.21950398,0.72215253,0.24370234,-0.84393555,0.47789326,,-0.017626718,0.399096,-0.3555948,-0.6021158,0.43334338,-0.6705744,-0.774249,-0.52196455,0.35789865,-0.19492309,0.73468804,0.6497988,,1.0046580423407407,0.29251395307700173,0.1761398852,0.25288607184233636,0.4044440393057037,1.1078305102726285,-0.4047665958807438,,-1.2501559976794636,-0.10563926298651707,0.17754506356000002,-0.1411213319650849,0.4559559997172748,-0.9633189807329099,0.8758508826120054,,-0.03261365873507904,-0.08565421470318672,0.08101381028,-0.06541713947960498,,2.0682812e-05,-1.7881393e-07,-3.5762787e-06,1.0,-2.880022e-05,-2.4136156e-05,2.880022e-05,1.0,-2.503395e-06,2.4136156e-05,2.4437904e-06,1.0,343,1.044,0,0,0.0,False,-0.2561842170753601,1.05014262996886
1.0634572369745001,11:09:36.794547,11:08:32.836846,0,,0.120305225,0.005589895,0.024367094,-0.63910735,-0.543188,-0.5445075,-0.3807435,-0.39168388,0.83762646,-0.66826344,0.7426511,0.043512702,,0.057668917,-0.043139085,0.026277065,0.6929925,-0.30671102,0.6524489,-0.6478323,0.13218328,0.7502272,-0.31634584,-0.94257945,-0.10709533,,0.077379905,1.3283154,0.45412594,0.997865,0.045862246,-0.04649841,0.0052742353,-0.76622266,-0.6425535,-0.06509708,0.64093643,-0.7648287,,-0.08912706,0.23805688,-0.093756616,0.71443105,0.48879027,0.50067186,-0.6560447,0.21912964,0.72221017,0.24329728,-0.84443253,0.4772213,,-0.01762445,0.3990947,-0.3555949,-0.6021117,0.43335587,-0.67057,-0.7742526,-0.52196604,0.3578888,-0.19492158,0.73467964,0.64980876,,1.0046734878064891,0.29406622238472085,0.17613081117,0.25267638189885183,0.402667764808753,1.108217119398855,-0.4041132196162067,,-1.2501405522137152,-0.10563926298651707,0.17754506356000002,-0.1411213319650849,0.4559559997172748,-0.9633189807329099,0.8758508826120054,,-0.03261365873507904,-0.08565421470318672,0.08101381028,-0.06541713947960498,,2.0682812e-05,-1.7881393e-07,-3.5762787e-06,1.0,-2.880022e-05,-2.4136156e-05,2.880022e-05,1.0,-2.503395e-06,2.4136156e-05,2.4437904e-06,1.0,351,1.068,0,0,0.0,False,-0.25600548391979716,1.0509151131813312
1.0890454769833013,11:09:36.820019,11:08:32.836846,0,,0.120495945,0.0058721527,0.02455832,-0.63871574,-0.544618,-0.54353786,-0.37899712,-0.39208758,0.8382293,-0.6696292,0.74138963,0.044023782,,0.057667885,-0.04313965,0.02627641,0.6929908,-0.30666405,0.6524729,-0.6478331,0.13224062,0.75021636,-0.3163479,-0.9425867,-0.10702562,,0.077379905,1.3283154,0.45412594,0.997865,0.045862246,-0.04649841,0.0052742353,-0.76622266,-0.6425535,-0.06509708,0.64093643,-0.7648287,,-0.08934693,0.23837714,-0.09371535,0.714091,0.4903474,0.49963334,-0.65560234,0.21815428,0.7229068,0.24547832,-0.84378207,0.4772549,,-0.017623318,0.39909405,-0.35559493,-0.6021097,0.43330735,-0.6706033,-0.7742544,-0.52193755,0.3579265,-0.19492082,0.7347285,0.64975375,,1.0046503196078664,0.296375319514114,0.17611655198,0.25267638189885183,0.402667764808753,1.1073186532573085,-0.40591000434368407,,-1.250132829480841,-0.10563926298651707,0.17754506356000002,-0.1411213319650849,0.4559559997172748,-0.9634006594730504,0.8760142266781396,,-0.03261365873507904,-0.08565421470318672,0.08101381028,-0.06541713947960498,,2.0682812e-05,-1.7881393e-07,-3.5762787e-06,1.0,-2.880022e-05,-2.4136156e-05,2.880022e-05,1.0,-2.503395e-06,2.4136156e-05,2.4437904e-06,1.0,359,1.093,0,0,0.0,False,-0.2568991496976123,1.0500943497680806
1.1145326900295913,11:09:36.846804,11:08:32.836846,0,,0.120600045,0.0060244426,0.024661362,-0.63848203,-0.544606,-0.5438243,-0.37854344,-0.39300662,0.838004,-0.67010856,0.74091166,0.04477057,,0.057664264,-0.04314156,0.026275754,0.6929856,-0.3066831,0.6524694,-0.64783555,0.13222915,0.75021625,-0.3163541,-0.9425821,-0.10704738,,0.077379905,1.3283154,0.45412594,0.997865,0.045862246,-0.04649841,0.0052742353,-0.76622266,-0.6425535,-0.06509708,0.64093643,-0.7648287,,-0.08946674,0.23854974,-0.09369292,0.7138829,0.49042028,0.4998591,-0.65557843,0.21714415,0.72323257,0.24614644,-0.8440002,0.47652447,,-0.017619543,0.39909276,-0.3555961,-0.6021035,0.4333261,-0.67059666,-0.77425975,-0.5219397,0.35791168,-0.19491856,0.7347159,0.64976865,,1.0046194286763697,0.29764957043836104,0.17610747795,0.2524666919553673,0.40212121880969126,1.107764324872094,-0.4062366924759526,,-1.2501096612822182,-0.10563926298651707,0.17754376727,-0.1411213319650849,0.4559559997172748,-0.9634006594730504,0.8760142266781396,,-0.03261365873507904,-0.08565421470318672,0.08101381028,-0.06541713947960498,,2.0682812e-05,-1.7881393e-07,-3.5762787e-06,1.0,-2.880022e-05,-2.4136156e-05,2.880022e-05,1.0,-2.503395e-06,2.4136156e-05,2.4437904e-06,1.0,367,1.117,0,0,0.0,False,-0.25582675076423333,1.0506737121774343
1.1412841259734705,11:09:36.874584,11:08:32.836846,0,,0.12066268,0.006219536,0.024776354,-0.6348572,-0.5476483,-0.5450114,-0.37851813,-0.39449143,0.83731735,-0.6735579,0.73787373,0.043150872,,0.057645783,-0.04314392,0.026267827,0.6929581,-0.30674797,0.6524681,-0.6478571,0.13218439,0.7502055,-0.31637013,-0.9425672,-0.10713068,,0.07736036,1.3283167,0.45412618,0.9978649,0.045873545,-0.046488933,0.0052889497,-0.766222,-0.6425542,-0.06509708,0.64093643,-0.7648287,,-0.08953061,0.23876733,-0.09365484,0.71060073,0.49379906,0.5012076,-0.65807027,0.21437007,0.7217957,0.24897814,-0.8427384,0.477286,,-0.017581614,0.39908996,-0.35559314,-0.6020622,0.43338946,-0.6705928,-0.7742887,-0.52194726,0.35783798,-0.19493085,0.73467314,0.6498133,,1.0045730922791243,0.29900877142422455,0.17610229279000003,0.24806320314219232,0.40389749330664193,1.105499104722635,-0.40591000434368407,,-1.2500710476178472,-0.10563926298651707,0.17754247098,-0.1411213319650849,0.4559559997172748,-0.9634006594730504,0.8760142266781396,,-0.03261365873507904,-0.08565421470318672,0.08101381028,-0.06541713947960498,,1.1697412e-06,-1.7881393e-06,-3.5762787e-06,0.99999994,-1.752004e-05,-1.4681369e-05,1.7516315e-05,1.0,-1.5199184e-06,1.4681369e-05,1.4901161e-06,1.0,375,1.142,0,0,0.0,False,-0.25576717304571295,1.0500943497680806
1.1691025350010023,11:09:36.895937,11:08:32.960131,0,,0.12070924,0.0062829703,0.024829611,-0.63263005,-0.55108833,-0.54413295,-0.37712276,-0.3944613,0.83796096,-0.6764299,0.7353244,0.041720092,,0.0576431,-0.04314386,0.026266634,0.69295585,-0.30671087,0.6524878,-0.64785445,0.13224265,0.7501976,-0.31638047,-0.94257116,-0.1070658,,0.07736036,1.3283167,0.45412618,0.9978649,0.045873545,-0.046488933,0.0052889497,-0.766222,-0.6425542,-0.06509708,0.64093643,-0.7648287,,-0.08958465,0.23884545,-0.0936533,0.7085899,0.49745572,0.500438,-0.65902126,0.2131005,0.72130376,0.2521731,-0.8409079,0.47883475,,-0.017578797,0.39908955,-0.35559246,-0.6020587,0.43335015,-0.67062134,-0.7742937,-0.5219145,0.35787493,-0.19492185,0.73471963,0.64976346,,1.0045576468133757,0.2994103535336842,0.17610099650000002,0.24596630370734704,0.40690349630148165,1.1028028746208922,-0.406400036542087,,-1.2500556021520988,-0.10563154025364284,0.17754247098,-0.1411213319650849,0.4559559997172748,-0.963482338213191,0.8758508826120053,,-0.03261365873507904,-0.08565421470318672,0.08101381028,-0.06541713947960498,,1.1697412e-06,-1.7881393e-06,-3.5762787e-06,0.99999994,-1.752004e-05,-1.4681369e-05,1.7516315e-05,1.0,-1.5199184e-06,1.4681369e-05,1.4901161e-06,1.0,383,1.166,0,0,0.0,False,-0.25624379479388093,1.05014262996886
1.1904457529308274,11:09:36.920169,11:08:32.960131,0,,0.12073151,0.006323755,0.024887249,-0.6253349,-0.55856127,-0.54494536,-0.37616488,-0.3960768,0.83762944,-0.6837076,0.7287883,0.037569553,,0.05763331,-0.043149076,0.026262462,0.69294035,-0.30671456,0.65250254,-0.647862,0.13226923,0.75018644,-0.3163992,-0.9425662,-0.107054085,,0.07736036,1.3283167,0.45412618,0.9978649,0.045873545,-0.046488933,0.0052889497,-0.766222,-0.6425542,-0.06509708,0.64093643,-0.7648287,,-0.089613944,0.23891123,-0.093670644,0.7019652,0.505566,0.50164515,-0.6635669,0.20841882,0.7184988,0.25869626,-0.8372363,0.4817796,,-0.017568225,0.39908436,-0.35559386,-0.6020402,0.43335164,-0.670637,-0.7743099,-0.52189183,0.35787314,-0.19491507,0.73473483,0.64974827,,1.0045422013476273,0.29942579899943267,0.17609840392,0.23778839591145062,0.4140085942892846,1.097090822368819,-0.4062366924759526,,-1.2499860975562307,-0.10563154025364284,0.17754117469000003,-0.1411213319650849,0.4559559997172748,-0.9635640169533315,0.875687538545871,,-0.03261365873507904,-0.08565421470318672,0.08101381028,-0.06541713947960498,,1.1697412e-06,-1.7881393e-06,-3.5762787e-06,0.99999994,-1.752004e-05,-1.4681369e-05,1.7516315e-05,1.0,-1.5199184e-06,1.4681369e-05,1.4901161e-06,1.0,412,1.257,0,0,0.0,False,-0.2550522404234603,1.050335750771978
1.214689449989237,11:09:37.010284,11:08:32.960131,0,,0.12074588,0.0063469857,0.025090232,-0.59303486,-0.5935578,-0.5440576,-0.36315313,-0.40589577,0.8386706,-0.7186302,0.6949371,0.025157928,,0.05761125,-0.043154918,0.026253998,0.6929142,-0.30673617,0.6525202,-0.6478595,0.132341,0.75017583,-0.3164613,-0.942549,-0.10702109,,0.07736036,1.3283167,0.45412618,0.9978649,0.045873545,-0.046488933,0.0052889497,-0.766222,-0.6425542,-0.06509708,0.64093643,-0.7648287,,-0.08964807,0.23905616,-0.09381128,0.6724971,0.5439469,0.501866,-0.67865735,0.18271068,0.7113656,0.29524884,-0.8189863,0.49202597,,-0.01754488,0.39907756,-0.3555935,-0.6020054,0.43336645,-0.6706586,-0.77434784,-0.52182645,0.35788628,-0.1948715,0.7347725,0.64971876,,1.00456536954625,0.29799709341770114,0.17608803360000003,0.20528645467134934,0.4548629077191513,1.0739050329410185,-0.4016630586241927,,-1.2498470883644945,-0.10560064932214594,0.17753858211,-0.1411213319650849,0.4559559997172748,-0.9637273744336126,0.8760142266781396,,-0.03261365873507904,-0.08565421470318672,0.08101381028,-0.06541713947960498,,1.1697412e-06,-1.7881393e-06,-3.5762787e-06,0.99999994,-1.752004e-05,-1.4681369e-05,1.7516315e-05,1.0,-1.5199184e-06,1.4681369e-05,1.4901161e-06,1.0,420,1.281,0,0,0.0,False,-0.254694774112334,1.0501909101696396
1.3047884099651128,11:09:37.038223,11:08:32.960131,0,,0.12076027,0.006348282,0.025136828,-0.59069896,-0.598238,-0.5414663,-0.3594964,-0.40564886,0.84036386,-0.7223828,0.6910573,0.024551928,,0.057607353,-0.043154113,0.026252449,0.6930471,-0.30668843,0.6524015,-0.64775074,0.132265,0.75028324,-0.31639314,-0.9425753,-0.10699186,,0.07736036,1.3283167,0.45412618,0.9978649,0.045873545,-0.046488933,0.0052889497,-0.766222,-0.6425542,-0.06509708,0.64093643,-0.7648287,,-0.08966675,0.23908527,-0.09384568,0.6703599,0.54895097,0.4992699,-0.67843676,0.18088153,0.71204317,0.30056804,-0.81604826,0.49368423,,-0.017540846,0.39907756,-0.3555921,-0.6021527,0.43332735,-0.67055166,-0.7742429,-0.5219049,0.35799897,-0.19483343,0.7347399,0.6497671,,1.004596260477747,0.297888975157462,0.17606988554000003,0.20381862506695766,0.46060164070929976,1.0706140195681584,-0.4042765636823409,,-1.2498316428987462,-0.1055852038563975,0.17753858211,-0.14133102190856942,0.4559559997172748,-0.9638090531737532,0.8758508826120053,,-0.03261365873507904,-0.08565421470318672,0.08101381028,-0.06541713947960498,,1.1697412e-06,-1.7881393e-06,-3.5762787e-06,0.99999994,-1.752004e-05,-1.4681369e-05,1.7516315e-05,1.0,-1.5199184e-06,1.4681369e-05,1.4901161e-06,1.0,428,1.306,0,0,0.0,False,-0.254218152364166,1.0499977893665218
1.332737906021066,11:09:37.066276,11:08:32.960131,0,,0.12074024,0.006330073,0.025205046,-0.586483,-0.59885925,-0.54534847,-0.3622282,-0.40829346,0.83790636,-0.7244503,0.6889586,0.022533387,,0.057601053,-0.04315599,0.02625066,0.6930397,-0.30667034,0.65241784,-0.64775056,0.13231167,0.7502752,-0.31640965,-0.9425746,-0.10694873,,0.07736036,1.3283167,0.45412618,0.9978649,0.045873545,-0.046488933,0.0052889497,-0.766222,-0.6425542,-0.06509708,0.64093643,-0.7648287,,-0.089652345,0.23911628,-0.0939106,0.6664782,0.54988,0.50342697,-0.6822372,0.1775783,0.7092378,0.30059803,-0.8161482,0.4935007,,-0.017534256,0.3990759,-0.35559255,-0.602143,0.4333068,-0.67057365,-0.77425325,-0.5218743,0.3580211,-0.19482216,0.73477376,0.6497322,,1.0046271514092437,0.297888975157462,0.17600507104000002,0.197947306649391,0.4608749137088306,1.0699011113199222,-0.4037865314839384,,-1.249793029234375,-0.10557748112352328,0.17753728582000003,-0.14133102190856942,0.4559559997172748,-0.9638907319138937,0.875687538545871,,-0.03261365873507904,-0.08565421470318672,0.08101381028,-0.06541713947960498,,1.1697412e-06,-1.7881393e-06,-3.5762787e-06,0.99999994,-1.752004e-05,-1.4681369e-05,1.7516315e-05,1.0,-1.5199184e-06,1.4681369e-05,1.4901161e-06,1.0,440,1.343,0,0,0.0,False,-0.2544564632382502,1.0503840309727575
1.3607760450104252,11:09:37.101283,11:08:33.179014,0,,0.12076115,0.006382942,0.025350079,-0.57500297,-0.61081016,-0.54431826,-0.3588885,-0.40956908,0.83872056,-0.735235,0.6776164,0.016290724,,0.057598136,-0.043157242,0.026249051,0.6927651,-0.3066707,0.65270925,-0.64795744,0.1326352,0.75003934,-0.31658733,-0.942529,-0.10682458,,0.07736036,1.3283167,0.45412618,0.9978649,0.045873545,-0.046488933,0.0052889497,-0.766222,-0.6425542,-0.06509708,0.64093643,-0.7648287,,-0.08968891,0.23924674,-0.09398749,0.65591055,0.56287485,0.5029446,-0.6875591,0.17053422,0.7058191,0.31151852,-0.8087583,0.49886492,,-0.017531063,0.3990743,-0.35559252,-0.6018343,0.43328243,-0.6708665,-0.7744832,-0.52161556,0.3579008,-0.19486228,0.73497176,0.6494961,,1.0046966560051118,0.2979507570204558,0.17595710831000003,0.1857852899272886,0.47276228918842395,1.0591459300765063,-0.4039498755500728,,-1.249762138302878,-0.10557748112352328,0.17753728582000003,-0.14091164202160036,0.4559559997172748,-0.9639724106540343,0.8755241944797367,,-0.03261365873507904,-0.08565421470318672,0.08101381028,-0.06541713947960498,,1.1697412e-06,-1.7881393e-06,-3.5762787e-06,0.99999994,-1.752004e-05,-1.4681369e-05,1.7516315e-05,1.0,-1.5199184e-06,1.4681369e-05,1.4901161e-06,1.0,452,1.379,0,0,0.0,False,-0.2546351963938136,1.0506254319766548
1.3957903200061992,11:09:37.129775,11:08:33.179014,0,,0.12075828,0.006390944,0.025407031,-0.5735845,-0.6130487,-0.5432972,-0.35711712,-0.40975413,0.8393859,-0.7372028,0.6754796,0.01609847,,0.0575971,-0.043157868,0.026248455,0.6927634,-0.30662373,0.6527332,-0.6479583,0.13269264,0.7500285,-0.31658942,-0.94253623,-0.10675487,,0.07736036,1.3283167,0.45412618,0.9978649,0.045873545,-0.046488933,0.0052889497,-0.766222,-0.6425542,-0.06509708,0.64093643,-0.7648287,,-0.08969169,0.2392892,-0.094026305,0.6546038,0.5653077,0.5019174,-0.68757385,0.1692484,0.7061141,0.31422302,-0.80733025,0.49948144,,-0.01752993,0.39907363,-0.35559258,-0.6018322,0.43323392,-0.6708997,-0.774485,-0.5215871,0.35793847,-0.19486152,0.73502064,0.64944106,,1.0048279424639737,0.29798937068482695,0.17592470106000002,0.18473684020986594,0.4756316556834982,1.0575412627601464,-0.40378653148393817,,-1.249754415570004,-0.10557748112352328,0.17753728582000003,-0.14091164202160036,0.4559559997172748,-0.964054089394175,0.8756875385458711,,-0.03261365873507904,-0.08565421470318672,0.08101381028,-0.06541713947960498,,1.1697412e-06,-1.7881393e-06,-3.5762787e-06,0.99999994,-1.752004e-05,-1.4681369e-05,1.7516315e-05,1.0,-1.5199184e-06,1.4681369e-05,1.4901161e-06,1.0,460,1.404,0,0,0.0,False,-0.25427773008268684,1.0499977893665218
1.4242938460083678,11:09:37.153128,11:08:33.179014,0,,0.120726496,0.0063806474,0.025521025,-0.5724677,-0.6131121,-0.54440266,-0.35741007,-0.41096538,0.8386688,-0.7379287,0.67468584,0.016131967,,0.057595048,-0.04315894,0.026247203,0.6927599,-0.30658305,0.65275586,-0.64795995,0.13274616,0.7500175,-0.31659356,-0.94254196,-0.10669243,,0.07736036,1.3283167,0.45412618,0.9978649,0.045873545,-0.046488933,0.0052889497,-0.766222,-0.6425542,-0.06509708,0.64093643,-0.7648287,,-0.08967018,0.23935634,-0.09412191,0.653573,0.5654977,0.5030455,-0.6883621,0.16782087,0.70568675,0.31464267,-0.80749524,0.49895036,,-0.017527664,0.39907232,-0.35559264,-0.6018281,0.4331916,-0.6709307,-0.77448857,-0.5215593,0.3579712,-0.19486001,0.7350653,0.649391,,1.0051291290460684,0.298128379876563,0.17582488673000002,0.18305932066198977,0.4760415651827945,1.0575337240096192,-0.40411321961620694,,-1.2497389701042556,-0.10557748112352328,0.17753728582000003,-0.14091164202160036,0.4559559997172748,-0.9641357681343156,0.8758508826120053,,-0.03261365873507904,-0.08565421470318672,0.08101381028,-0.06541713947960498,,1.1697412e-06,-1.7881393e-06,-3.5762787e-06,0.99999994,-1.752004e-05,-1.4681369e-05,1.7516315e-05,1.0,-1.5199184e-06,1.4681369e-05,1.4901161e-06,1.0,489,1.494,0,0,0.0,False,-0.2540989969271239,1.0503840309727575
1.4476412170333788,11:09:37.248190,11:08:33.179014,0,,0.12061765,0.0065345466,0.025877118,-0.56108475,-0.62467784,-0.5431032,-0.35265717,-0.41319156,0.8395865,-0.7488769,0.66260856,0.011538416,,0.05758941,-0.04315918,0.026248157,0.69277245,-0.30650404,0.6527797,-0.6478847,0.13301805,0.75003433,-0.31672007,-0.94252926,-0.10642815,,0.07736036,1.3283167,0.45412618,0.9978649,0.045873545,-0.046488933,0.0052889497,-0.766222,-0.6425542,-0.06509708,0.64093643,-0.7648287,,-0.08960168,0.23971005,-0.09430227,0.6430548,0.57821953,0.5021381,-0.69269186,0.1595451,0.70336574,0.3265862,-0.80012965,0.5031242,,-0.017522218,0.3990736,-0.3555938,-0.60182613,0.43309653,-0.6709938,-0.774526,-0.5213711,0.3581642,-0.19471715,0.7352547,0.64921933,,1.0065114982305545,0.29881570310236893,0.17565766532000002,0.17026823410943376,0.48861212316121505,1.0463848107280023,-0.4042765636823411,,-1.249715801905633,-0.10556975839064905,0.17753469324,-0.14091164202160036,0.4560926362170402,-0.9644105435182931,0.8755241944797367,,-0.03261365873507904,-0.08565421470318672,0.08101381028,-0.06541713947960498,,1.1697412e-06,-1.7881393e-06,-3.5762787e-06,0.99999994,-1.752004e-05,-1.4681369e-05,1.7516315e-05,1.0,-1.5199184e-06,1.4681369e-05,1.4901161e-06,1.0,497,1.519,0,0,0.0,False,-0.2538011083345184,1.049708108161845
1.5426892179530114,11:09:37.274925,11:08:33.338586,0,,0.12058922,0.0065907985,0.026032984,-0.55577564,-0.6303981,-0.54195154,-0.3497108,-0.41413537,0.8403536,-0.7541987,0.65657437,0.009709269,,0.057590034,-0.043160312,0.026248157,0.6927712,-0.30644724,0.65280783,-0.64788914,0.13307476,0.7500205,-0.31671387,-0.94253975,-0.10635355,,0.07736036,1.3283167,0.45412618,0.9978649,0.045873545,-0.046488933,0.0052889497,-0.766222,-0.6425542,-0.06509708,0.64093643,-0.7648287,,-0.08959032,0.23985454,-0.09438747,0.63813674,0.5845102,0.501128,-0.6942866,0.15553439,0.7026914,0.33278766,-0.79633963,0.50506985,,-0.017522767,0.3990727,-0.35559458,-0.60182554,0.43303877,-0.67103165,-0.77452457,-0.52134687,0.35820258,-0.19472466,0.73530596,0.649159,,1.0069671394701338,0.29906283055434413,0.17558507308000001,0.16502598552232065,0.49517067514995616,1.0412001088308553,-0.40411321961620694,,-1.249715801905633,-0.10557748112352328,0.17753469324,-0.14091164202160036,0.4560926362170402,-0.9644922222584338,0.8756875385458711,,-0.03261365873507904,-0.08565421470318672,0.08101381028,-0.06541713947960498,,1.1697412e-06,-1.7881393e-06,-3.5762787e-06,0.99999994,-1.752004e-05,-1.4681369e-05,1.7516315e-05,1.0,-1.5199184e-06,1.4681369e-05,1.4901161e-06,1.0,505,1.543,0,0,0.0,False,-0.25493308498641865,1.050335750771978
1.5694430590374395,11:09:37.301221,11:08:33.338586,0,,0.12055662,0.0066363215,0.026130185,-0.55040324,-0.63413644,-0.54307187,-0.34893352,-0.41621324,0.83964986,-0.7584863,0.651642,0.0078136325,,0.057585925,-0.043162487,0.026245773,0.6927642,-0.3064725,0.65280324,-0.6478924,0.1330593,0.7500203,-0.3167222,-0.94253373,-0.10638258,,0.07736036,1.3283167,0.45412618,0.9978649,0.045873545,-0.046488933,0.0052889497,-0.766222,-0.6425542,-0.06509708,0.64093643,-0.7648287,,-0.089568906,0.23995407,-0.09443459,0.63315564,0.5887774,0.5024491,-0.69690084,0.15116432,0.7010553,0.33681315,-0.7940343,0.50603,,-0.017518235,0.39907008,-0.35559472,-0.6018173,0.43306378,-0.6710229,-0.7745317,-0.52134985,0.35818285,-0.19472165,0.73528916,0.649179,,1.0072914942508513,0.29920183974608017,0.17554618438000003,0.15873528721778493,0.49954304314245024,1.0377164146527105,-0.40378653148393817,,-1.249684910974136,-0.10557748112352328,0.17753469324,-0.14091164202160036,0.4560926362170402,-0.9644922222584338,0.8756875385458711,,-0.03261365873507904,-0.08565421470318672,0.08101381028,-0.06541713947960498,,1.1697412e-06,-1.7881393e-06,-3.5762787e-06,0.99999994,-1.752004e-05,-1.4681369e-05,1.7516315e-05,1.0,-1.5199184e-06,1.4681369e-05,1.4901161e-06,1.0,517,1.58,0,0,0.0,False,-0.25403941920860307,1.0504805913743163
1.5957130449824035,11:09:37.327147,11:08:33.338586,0,,0.12052096,0.006695181,0.026284233,-0.5427538,-0.64173216,-0.5418468,-0.34537548,-0.41753873,0.84046245,-0.7655939,0.6433048,0.0049821436,,0.05758436,-0.043163292,0.02624631,0.6927625,-0.3064789,0.6528021,-0.64789325,0.13305548,0.75002027,-0.3167243,-0.9425322,-0.10638982,,0.07736036,1.3283167,0.45412618,0.9978649,0.045873545,-0.046488933,0.0052889497,-0.766222,-0.6425542,-0.06509708,0.64093643,-0.7648287,,-0.0895503,0.24010009,-0.09451705,0.6260481,0.59716386,0.50145704,-0.6993726,0.14557768,0.69977504,0.34487942,-0.7887981,0.5087787,,-0.017516727,0.39907014,-0.3555958,-0.6018152,0.43307003,-0.6710207,-0.7745335,-0.52135056,0.3581779,-0.19472091,0.7352849,0.6491839,,1.0077471354904306,0.299333126204942,0.17548525875,0.150767069365373,0.5082877791274385,1.0305856688161394,-0.40378653148393817,,-1.2496771882412616,-0.10557748112352328,0.17753339695,-0.14091164202160036,0.4560926362170402,-0.9644922222584338,0.8756875385458711,,-0.03261365873507904,-0.08565421470318672,0.08101381028,-0.06541713947960498,,1.1697412e-06,-1.7881393e-06,-3.5762787e-06,0.99999994,-1.752004e-05,-1.4681369e-05,1.7516315e-05,1.0,-1.5199184e-06,1.4681369e-05,1.4901161e-06,1.0,525,1.605,0,0,0.0,False,-0.25427773008268684,1.050335750771978
1.6216210139682516,11:09:37.357143,11:08:33.338586,0,,0.12047365,0.0067424625,0.026433587,-0.53498256,-0.6475915,-0.5426036,-0.34350747,-0.42003146,0.8399857,-0.7718783,0.63576615,0.0022569597,,0.0575753,-0.04316788,0.026243508,0.69273347,-0.30658138,0.65278476,-0.6479689,0.13281173,0.7499981,-0.31663293,-0.94253325,-0.10665217,,0.07736036,1.3283167,0.45412618,0.9978649,0.045873545,-0.046488933,0.0052889497,-0.766222,-0.6425542,-0.06509708,0.64093643,-0.7648287,,-0.089519165,0.24023531,-0.09460378,0.6188177,0.6038006,0.5024833,-0.7026344,0.13943726,0.69775504,0.35124004,-0.78484523,0.5105373,,-0.017507112,0.39906624,-0.35559765,-0.60179573,0.433185,-0.670964,-0.7745186,-0.5215075,0.3579816,-0.19484049,0.7351059,0.6493508,,1.0081873312642613,0.29944896719805536,0.17541525909000003,0.141960091739023,0.5152562406154759,1.0249033557276221,-0.4034598433516696,,-1.2496154063782678,-0.10556975839064905,0.17753080437000002,-0.14091164202160036,0.4559559997172748,-0.9642991256145967,0.8755241944797367,,-0.03261365873507904,-0.08565421470318672,0.08101381028,-0.06541713947960498,,1.1697412e-06,-1.7881393e-06,-3.5762787e-06,0.99999994,-1.752004e-05,-1.4681369e-05,1.7516315e-05,1.0,-1.5199184e-06,1.4681369e-05,1.4901161e-06,1.0,533,1.629,0,0,0.0,False,-0.2545756186752919,1.0500943497680806
1.6516598199959844,11:09:37.383028,11:08:33.338586,0,,0.12042382,0.006774962,0.026611418,-0.5277816,-0.65385973,-0.54213816,-0.34055138,-0.42182764,0.84028924,-0.7781203,0.62811524,-3.9994717e-05,,0.057564892,-0.043171965,0.026239276,0.6927191,-0.30658862,0.6527966,-0.6479721,0.13284302,0.74998987,-0.31665784,-0.94252646,-0.1066381,,0.07736036,1.3283167,0.45412618,0.9978649,0.045873545,-0.046488933,0.0052889497,-0.766222,-0.6425542,-0.06509708,0.64093643,-0.7648287,,-0.08948751,0.24037743,-0.09472195,0.6121026,0.6108238,0.50221974,-0.7049797,0.13379939,0.69649214,0.35823727,-0.7803794,0.51251733,,-0.01749599,0.39906195,-0.35559824,-0.60177773,0.43318942,-0.67097723,-0.7745362,-0.52147985,0.35798395,-0.19482623,0.7351229,0.64933586,,1.0086815861682117,0.29954163999254607,0.17531674105000003,0.1342015638300956,0.5229078846023405,1.0188273106009036,-0.40378653148393817,,-1.2495459017824,-0.10556203565777482,0.17752950808,-0.14091164202160036,0.4559559997172748,-0.9643808043547373,0.8756875385458711,,-0.03261365873507904,-0.08565421470318672,0.08101381028,-0.06541713947960498,,1.1697412e-06,-1.7881393e-06,-3.5762787e-06,0.99999994,-1.752004e-05,-1.4681369e-05,1.7516315e-05,1.0,-1.5199184e-06,1.4681369e-05,1.4901161e-06,1.0,562,1.718,0,0,0.0,False,-0.25493308498641865,1.0505771517758753
1.6775480209616944,11:09:37.464254,11:08:33.476766,0,,0.120277025,0.006868109,0.027088344,-0.50189227,-0.67469555,-0.541193,-0.32903817,-0.42972523,0.84087455,-0.7998987,0.60010165,-0.006324798,,0.057516642,-0.043185793,0.026220143,0.6926599,-0.30687037,0.65272707,-0.6479707,0.13272604,0.7500118,-0.3167903,-0.94245124,-0.10690904,,0.07736036,1.3283167,0.45412618,0.9978649,0.045873545,-0.046488933,0.0052889497,-0.766222,-0.6425542,-0.06509708,0.64093643,-0.7648287,,-0.08938978,0.2407644,-0.095035635,0.5878597,0.63449323,0.50183594,-0.7123115,0.11194419,0.69287866,0.3834492,-0.764779,0.5177643,,-0.017444769,0.3990458,-0.35559773,-0.60169995,0.43346322,-0.6708702,-0.7746192,-0.521469,0.35781997,-0.1947362,0.7349692,0.6495368,,1.0099172234280875,0.29942579899943267,0.17509248288,0.10694187117710743,0.5509183670542559,0.9993354686889002,-0.403623187417804,,-1.249236992467431,-0.10550025379478102,0.17752432292,-0.14091164202160036,0.4559559997172748,-0.9643808043547373,0.8756875385458711,,-0.03261365873507904,-0.08565421470318672,0.08101381028,-0.06541713947960498,,1.1697412e-06,-1.7881393e-06,-3.5762787e-06,0.99999994,-1.752004e-05,-1.4681369e-05,1.7516315e-05,1.0,-1.5199184e-06,1.4681369e-05,1.4901161e-06,1.0,570,1.744,0,0,0.0,False,-0.254694774112334,1.05014262996886
1.7586999830091372,11:09:37.493743,11:08:33.476766,0,,0.12022107,0.0068419278,0.027237669,-0.49730802,-0.6786184,-0.54051983,-0.3260126,-0.43118885,0.8413037,-0.80399036,0.59460336,-0.0068044662,,0.05750265,-0.043191783,0.026212454,0.69263864,-0.30700955,0.65268415,-0.64797723,0.13261947,0.75002503,-0.31682348,-0.94242096,-0.107077956,,0.07736036,1.3283167,0.45412618,0.9978649,0.045873545,-0.046488933,0.0052889497,-0.766222,-0.6425542,-0.06509708,0.64093643,-0.7648287,,-0.089346796,0.24084392,-0.095169574,0.58354527,0.63896924,0.50119185,-0.71299976,0.1077056,0.6928426,0.3887239,-0.7616547,0.518436,,-0.017429486,0.39903817,-0.3555975,-0.6016737,0.4336022,-0.67080384,-0.77464396,-0.5215027,0.3577174,-0.19471894,0.73486334,0.6496618,,1.010311082804673,0.29925589887619974,0.17498100194000002,0.10232869242044788,0.5569303730439352,0.9957399407685068,-0.403623187417804,,-1.249136596940066,-0.1054925310619068,0.17752432292,-0.14091164202160036,0.4559559997172748,-0.9642991256145967,0.8758508826120054,,-0.03261365873507904,-0.08565421470318672,0.08101381028,-0.06541713947960498,,1.1697412e-06,-1.7881393e-06,-3.5762787e-06,0.99999994,-1.752004e-05,-1.4681369e-05,1.7516315e-05,1.0,-1.5199184e-06,1.4681369e-05,1.4901161e-06,1.0,578,1.769,0,0,0.0,False,-0.2541585746456452,1.0502874705711984
1.7882640829775482,11:09:37.520513,11:08:33.476766,0,,0.1201808,0.0068243295,0.02731593,-0.49295923,-0.6806948,-0.5418907,-0.3257038,-0.43316215,0.84040916,-0.8067888,0.59078336,-0.008173615,,0.05749492,-0.043195896,0.026209414,0.6926265,-0.30705392,0.65267617,-0.6479831,0.13259253,0.7500248,-0.31683803,-0.94241023,-0.10712874,,0.07736036,1.3283167,0.45412618,0.9978649,0.045873545,-0.046488933,0.0052889497,-0.766222,-0.6425542,-0.06509708,0.64093643,-0.7648287,,-0.08931321,0.24088365,-0.09524271,0.5794651,0.6414756,0.5027218,-0.71493703,0.10396506,0.6914162,0.39126113,-0.760066,0.5188588,,-0.017421179,0.3990343,-0.3555988,-0.6016593,0.43364596,-0.6707885,-0.7746565,-0.52150774,0.35768282,-0.1947137,0.7348339,0.64969665,,1.010480982927906,0.2991168896844637,0.17492007631,0.09708644383333477,0.559936376038775,0.9933704256273258,-0.40345984335166984,,-1.2490825378099464,-0.1054925310619068,0.17752302663000002,-0.14091164202160036,0.4559559997172748,-0.9642991256145967,0.8758508826120054,,-0.03261365873507904,-0.08565421470318672,0.08101381028,-0.06541713947960498,,1.1697412e-06,-1.7881393e-06,-3.5762787e-06,0.99999994,-1.752004e-05,-1.4681369e-05,1.7516315e-05,1.0,-1.5199184e-06,1.4681369e-05,1.4901161e-06,1.0,586,1.793,0,0,0.0,False,-0.25439688551972894,1.049804668563404
1.8150125929387286,11:09:37.543774,11:08:33.611351,0,,0.12016831,0.0068401247,0.027465492,-0.48192176,-0.692063,-0.53740114,-0.31795496,-0.4333932,0.84325254,-0.81649,0.5772512,-0.011183292,,0.05748956,-0.043195806,0.02620703,0.69262207,-0.30703303,0.65269065,-0.6479777,0.13264757,0.75001967,-0.31685868,-0.94240934,-0.10707593,,0.07736036,1.3283167,0.45412618,0.9978649,0.045873545,-0.046488933,0.0052889497,-0.766222,-0.6425542,-0.06509708,0.64093643,-0.7648287,,-0.08931534,0.24099156,-0.0953482,0.56904286,0.65404767,0.4984093,-0.71614224,0.0962846,0.6912811,0.40414166,-0.7503005,0.52318126,,-0.017415546,0.3990335,-0.3555974,-0.6016522,0.43362212,-0.6708103,-0.7746665,-0.52147144,0.35771406,-0.1946957,0.7348737,0.64965695,,1.0105968239210192,0.2988620394996143,0.17487081729,0.08681163660259308,0.5744198450139116,0.9817234853157863,-0.4034598433516696,,-1.2490516468784496,-0.10547708559615836,0.17752302663000002,-0.14091164202160036,0.4559559997172748,-0.9643808043547373,0.8755241944797368,,-0.03261365873507904,-0.08565421470318672,0.08101381028,-0.06541713947960498,,1.1697412e-06,-1.7881393e-06,-3.5762787e-06,0.99999994,-1.752004e-05,-1.4681369e-05,1.7516315e-05,1.0,-1.5199184e-06,1.4681369e-05,1.4901161e-06,1.0,598,1.83,0,0,0.0,False,-0.2547543518308557,1.0506254319766548
1.8382372449850664,11:09:37.580824,11:08:33.611351,0,,0.120147124,0.0068072528,0.027596757,-0.4732535,-0.6985259,-0.5367424,-0.31374216,-0.43569073,0.8436465,-0.8231627,0.5676574,-0.0129648745,,0.057486348,-0.043195985,0.02620703,0.69261986,-0.30694258,0.65273553,-0.64797497,0.13276711,0.75000083,-0.31686896,-0.9424219,-0.10693413,,0.07736036,1.3283167,0.45412618,0.9978649,0.045873545,-0.046488933,0.0052889497,-0.766222,-0.6425542,-0.06509708,0.64093643,-0.7648287,,-0.089304976,0.24105129,-0.09547101,0.5608527,0.6614666,0.49790177,-0.7179302,0.08905037,0.6903957,0.4123354,-0.744669,0.524831,,-0.017412357,0.39903378,-0.35559773,-0.6016487,0.433528,-0.6708743,-0.7746715,-0.52140945,0.35779354,-0.1946867,0.73497325,0.6495471,,1.010619992119642,0.2985531301846453,0.17478785473000003,0.07800465897624305,0.583847763497727,0.9752608310628414,-0.403623187417804,,-1.249036201412701,-0.10546936286328414,0.17752173034000002,-0.14091164202160036,0.4559559997172748,-0.9645441618350183,0.8756875385458712,,-0.03261365873507904,-0.08565421470318672,0.08101381028,-0.06541713947960498,,1.1697412e-06,-1.7881393e-06,-3.5762787e-06,0.99999994,-1.752004e-05,-1.4681369e-05,1.7516315e-05,1.0,-1.5199184e-06,1.4681369e-05,1.4901161e-06,1.0,606,1.855,0,0,0.0,False,-0.25540970673458663,1.0500943497680806
1.8753381189890206,11:09:37.604953,11:08:33.611351,0,,0.12014987,0.00675717,0.027762994,-0.46596175,-0.7066934,-0.53241324,-0.30742642,-0.43493208,0.84635866,-0.82967985,0.5580487,-0.014594525,,0.05748313,-0.043196164,0.02620703,0.69261765,-0.3069588,0.6527303,-0.64797235,0.13276404,0.7500037,-0.31687936,-0.94241714,-0.10694623,,0.07736036,1.3283167,0.45412618,0.9978649,0.045873545,-0.046488933,0.0052889497,-0.766222,-0.6425542,-0.06509708,0.64093643,-0.7648287,,-0.089320906,0.24111769,-0.095630676,0.5539246,0.6704477,0.4936268,-0.71787477,0.0843151,0.6910476,0.4216911,-0.7371505,0.52800167,,-0.017409168,0.39903408,-0.35559806,-0.6016451,0.43354344,-0.6708675,-0.77467656,-0.5214059,0.35778785,-0.1946777,0.73496664,0.6495573,,1.0106045466538935,0.29828283453404747,0.17467248492,0.07171396067170732,0.5945054104794314,0.9666519133146613,-0.4034598433516696,,-1.2490207559469526,-0.1054616401304099,0.17752043405,-0.14091164202160036,0.4559559997172748,-0.9645441618350183,0.8756875385458712,,-0.03261365873507904,-0.08565421470318672,0.08101381028,-0.06541713947960498,,1.1697412e-06,-1.7881393e-06,-3.5762787e-06,0.99999994,-1.752004e-05,-1.4681369e-05,1.7516315e-05,1.0,-1.5199184e-06,1.4681369e-05,1.4901161e-06,1.0,639,1.957,0,0,0.0,False,-0.2544564632382502,1.0504805913743163
1.8994127169717103,11:09:37.711661,11:08:33.757900,0,,0.120069325,0.006679237,0.028331563,-0.4423014,-0.7291123,-0.5222686,-0.2908084,-0.43427303,0.8525475,-0.8484101,0.52896315,-0.019952446,,0.057480633,-0.043198936,0.026208103,0.6926129,-0.30691466,0.6527561,-0.64797837,0.13281295,0.74998987,-0.31687737,-0.9424246,-0.10688618,,0.07736036,1.3283167,0.45412618,0.9978649,0.045873545,-0.046488933,0.0052889497,-0.766222,-0.6425542,-0.06509708,0.64093643,-0.7648287,,-0.089290015,0.2414249,-0.09612105,0.53139144,0.6954137,0.4837591,-0.71914613,0.06850821,0.6914734,0.44771865,-0.71533656,0.53650874,,-0.017406702,0.39903328,-0.35560095,-0.6016404,0.4334982,-0.67090094,-0.7746787,-0.52138317,0.3578164,-0.19468369,0.7350095,0.649507,,1.011176028886586,0.2978503614930909,0.17430174598,0.048857756831894174,0.6241555309285319,0.9403505809688832,-0.40411321961620694,,-1.2490053104812042,-0.10546936286328414,0.17751784147000002,-0.14091164202160036,0.4559559997172748,-0.9646258405751589,0.8758508826120054,,-0.03261365873507904,-0.08565421470318672,0.08101381028,-0.06541713947960498,,1.1697412e-06,-1.7881393e-06,-3.5762787e-06,0.99999994,-1.752004e-05,-1.4681369e-05,1.7516315e-05,1.0,-1.5199184e-06,1.4681369e-05,1.4901161e-06,1.0,647,1.981,0,0,0.0,False,-0.2549926627049395,1.05014262996886
2.0061445799656212,11:09:37.734415,11:08:33.757900,0,,0.120035306,0.0066703856,0.028510496,-0.43712434,-0.7348617,-0.51855606,-0.28607258,-0.4330144,0.8547871,-0.8526926,0.521993,-0.020942599,,0.057481162,-0.043198697,0.02620691,0.6926129,-0.30691466,0.6527561,-0.64797837,0.13281295,0.74998987,-0.31687737,-0.9424246,-0.10688618,,0.07736036,1.3283167,0.45412618,0.9978649,0.045873545,-0.046488933,0.0052889497,-0.766222,-0.6425542,-0.06509708,0.64093643,-0.7648287,,-0.089272365,0.24153447,-0.09626578,0.5264296,0.701723,0.4800591,-0.71869516,0.06560153,0.6922238,0.4542567,-0.7094232,0.5388595,,-0.017407076,0.39903256,-0.35559994,-0.6016404,0.4334982,-0.67090094,-0.7746787,-0.52138317,0.3578164,-0.19468369,0.7350095,0.649507,,1.0115312745988005,0.2978580842259651,0.17417730214000002,0.04382519818826559,0.6318071749153966,0.9328043185196349,-0.4046032518146099,,-1.2490053104812042,-0.10546936286328414,0.17751913776000003,-0.14091164202160036,0.4559559997172748,-0.9646258405751589,0.8758508826120054,,-0.03261365873507904,-0.08565421470318672,0.08101381028,-0.06541713947960498,,1.1697412e-06,-1.7881393e-06,-3.5762787e-06,0.99999994,-1.752004e-05,-1.4681369e-05,1.7516315e-05,1.0,-1.5199184e-06,1.4681369e-05,1.4901161e-06,1.0,655,2.006,0,0,0.0,False,-0.254694774112334,1.050963393382111
2.02893289597705,11:09:37.755057,11:08:33.757900,0,,0.11997495,0.006666839,0.028646484,-0.4326726,-0.7372803,-0.5188564,-0.2843618,-0.43453294,0.8545873,-0.8555307,0.51729953,-0.021643847,,0.05748076,-0.043200396,0.026206374,0.6926099,-0.30675748,0.6528331,-0.64798355,0.13298821,0.7499542,-0.3168732,-0.9424511,-0.106664926,,0.07736036,1.3283167,0.45412618,0.9978649,0.045873545,-0.046488933,0.0052889497,-0.766222,-0.6425542,-0.06509708,0.64093643,-0.7648287,,-0.08922476,0.24162337,-0.09637523,0.5221888,0.7046306,0.48043165,-0.71958905,0.061689947,0.6916545,0.4577231,-0.7068876,0.5392583,,-0.017406492,0.399031,-0.35560077,-0.6016378,0.4333371,-0.6710074,-0.774679,-0.5213012,0.357935,-0.19469045,0.7351626,0.6493316,,1.0119019657767634,0.2978503614930909,0.17409045071,0.038792639544637006,0.6354963604090635,0.9297143563796907,-0.40427656368234133,,-1.24899758774833,-0.10547708559615836,0.17751913776000003,-0.14091164202160036,0.4559559997172748,-0.9648708767955805,0.875687538545871,,-0.03261365873507904,-0.08565421470318672,0.08101381028,-0.06541713947960498,,1.1697412e-06,-1.7881393e-06,-3.5762787e-06,0.99999994,-1.752004e-05,-1.4681369e-05,1.7516315e-05,1.0,-1.5199184e-06,1.4681369e-05,1.4901161e-06,1.0,663,2.031,0,0,0.0,False,-0.25588632848275505,1.0507219923782136
2.049562479951419,11:09:37.782662,11:08:33.757900,0,,0.11987693,0.0066877156,0.028882936,-0.42194495,-0.7455267,-0.5158995,-0.27757666,-0.43547833,0.85633504,-0.8630837,0.50452805,-0.023192942,,0.05747973,-0.043200992,0.026205778,0.6926082,-0.3067638,0.65283203,-0.6479844,0.13298437,0.7499542,-0.31687534,-0.94244957,-0.10667217,,0.07736036,1.3283167,0.45412618,0.9978649,0.045873545,-0.046488933,0.0052889497,-0.766222,-0.6425542,-0.06509708,0.64093643,-0.7648287,,-0.08915009,0.24179812,-0.09654797,0.51191825,0.71405834,0.47755674,-0.7201476,0.053651076,0.69174343,0.4683237,-0.69802743,0.5416924,,-0.01740536,0.39903036,-0.3556008,-0.6016357,0.43334332,-0.67100525,-0.77468085,-0.5213019,0.35793006,-0.19468969,0.7351584,0.64933664,,1.012542952605324,0.29774996596572595,0.17396859945,0.02746938259647269,0.6476570088881878,0.9188180180690225,-0.4049299399468782,,-1.2489898650154558,-0.10547708559615836,0.17751913776000003,-0.14091164202160036,0.4559559997172748,-0.9648708767955806,0.8753608504136026,,-0.03261365873507904,-0.08565421470318672,0.08101381028,-0.06541713947960498,,1.1697412e-06,-1.7881393e-06,-3.5762787e-06,0.99999994,-1.752004e-05,-1.4681369e-05,1.7516315e-05,1.0,-1.5199184e-06,1.4681369e-05,1.4901161e-06,1.0,671,2.055,0,0,0.0,False,-0.254694774112334,1.0501909101696396
2.077180227963254,11:09:37.805128,11:08:33.757900,0,,0.119802795,0.006673962,0.029023007,-0.4169328,-0.74754095,-0.51705843,-0.27649552,-0.43759283,0.8556066,-0.86586213,0.49969482,-0.024244905,,0.05747911,-0.04319983,0.026205778,0.6926095,-0.3066607,0.6528791,-0.64798003,0.13311148,0.7499354,-0.31688154,-0.9424652,-0.106515825,,0.07736036,1.3283167,0.45412618,0.9978649,0.045873545,-0.046488933,0.0052889497,-0.766222,-0.6425542,-0.06509708,0.64093643,-0.7648287,,-0.08908872,0.24188304,-0.09666768,0.50714225,0.716603,0.47883916,-0.72154,0.04915524,0.69062567,0.47136694,-0.695747,0.5419864,,-0.01740481,0.39903125,-0.35560003,-0.6016363,0.4332367,-0.67107356,-0.7746823,-0.52123845,0.3580194,-0.1946822,0.73526627,0.6492167,,1.0129522574476577,0.2976881841027322,0.17386359996,0.02117868429193696,0.6512095578820891,0.9154310801320722,-0.4042765636823409,,-1.2489898650154558,-0.10546936286328414,0.17751913776000003,-0.14091164202160036,0.4559559997172748,-0.9650342342758619,0.8756875385458711,,-0.03261365873507904,-0.08565421470318672,0.08101381028,-0.06541713947960498,,1.1697412e-06,-1.7881393e-06,-3.5762787e-06,0.99999994,-1.752004e-05,-1.4681369e-05,1.7516315e-05,1.0,-1.5199184e-06,1.4681369e-05,1.4901161e-06,1.0,679,2.08,0,0,0.0,False,-0.2555288621716292,1.0502391903704191
2.099648503935896,11:09:37.843912,11:08:33.911099,0,,0.119626954,0.0066954046,0.029416218,-0.39621013,-0.7594261,-0.5160323,-0.2676507,-0.44208843,0.85610795,-0.87828267,0.4773151,-0.028100997,,0.057478078,-0.043200366,0.026205182,0.69260776,-0.306667,0.6528779,-0.6479808,0.13310772,0.7499354,-0.31688356,-0.94246364,-0.10652304,,0.07736036,1.3283167,0.45412618,0.9978649,0.045873545,-0.046488933,0.0052889497,-0.766222,-0.6425542,-0.06509708,0.64093643,-0.7648287,,-0.08895118,0.24216461,-0.096963964,0.48728952,0.730697,0.4781536,-0.7245235,0.032647196,0.6884765,0.4874573,-0.6819209,0.54531574,,-0.017403675,0.3990306,-0.35560006,-0.60163426,0.43324292,-0.6710714,-0.7746841,-0.52123916,0.35801446,-0.19468145,0.7352621,0.6492217,,1.013848094461068,0.29751828397949925,0.17364841582,-0.0025162793218142924,0.6697921218501891,0.8975011680645798,-0.40427656368234133,,-1.2489821422825815,-0.10546936286328414,0.17751913776000003,-0.14091164202160036,0.4559559997172748,-0.9650342342758619,0.8756875385458711,,-0.03261365873507904,-0.08565421470318672,0.08101381028,-0.06541713947960498,,1.1697412e-06,-1.7881393e-06,-3.5762787e-06,0.99999994,-1.752004e-05,-1.4681369e-05,1.7516315e-05,1.0,-1.5199184e-06,1.4681369e-05,1.4901161e-06,1.0,704,2.157,0,0,0.0,False,-0.25588632848275505,1.050335750771978
2.138427647994831,11:09:37.904895,11:08:33.911099,0,,0.11933338,0.006735325,0.029931873,-0.362082,-0.7773634,-0.51439524,-0.2528829,-0.44922563,0.85688186,-0.8971882,0.44034332,-0.033925384,,0.057476643,-0.04320263,0.02620399,0.692603,-0.30667615,0.65287864,-0.6479869,0.13309532,0.7499324,-0.31688157,-0.9424623,-0.106540024,,0.07736036,1.3283167,0.45412618,0.9978649,0.045873545,-0.046488933,0.0052889497,-0.766222,-0.6425542,-0.06509708,0.64093643,-0.7648287,,-0.08870869,0.2425488,-0.09734772,0.4544416,0.75227964,0.47703058,-0.7283018,0.005440352,0.6852349,0.512893,-0.6588215,0.55035895,,-0.017401958,0.3990284,-0.35560092,-0.60162956,0.43325245,-0.67106944,-0.7746862,-0.5212456,0.35800043,-0.19468744,0.73525184,0.6492315,,1.01502194985795,0.296993138144052,0.17340860217,-0.042147678640389395,0.6995788787990551,0.8674945532489206,-0.40525662807914653,,-1.2489666968168331,-0.10547708559615836,0.17751913776000003,-0.14091164202160036,0.4559559997172748,-0.9650342342758619,0.8756875385458711,,-0.03261365873507904,-0.08565421470318672,0.08101381028,-0.06541713947960498,,1.1697412e-06,-1.7881393e-06,-3.5762787e-06,0.99999994,-1.752004e-05,-1.4681369e-05,1.7516315e-05,1.0,-1.5199184e-06,1.4681369e-05,1.4901161e-06,1.0,708,2.17,0,0,0.0,False,-0.25672041654204936,1.0503840309727575
2.199417238938622,11:09:37.929259,11:08:33.911099,0,,0.119163886,0.006737113,0.030159518,-0.34667236,-0.78322977,-0.5161096,-0.24855381,-0.45385468,0.85570836,-0.9044552,0.42493153,-0.037335902,,0.05747459,-0.043203734,0.026202798,0.69259953,-0.30668885,0.65287644,-0.6479886,0.13308764,0.7499323,-0.3168857,-0.9424593,-0.10655451,,0.07736036,1.3283167,0.45412618,0.9978649,0.045873545,-0.046488933,0.0052889497,-0.766222,-0.6425542,-0.06509708,0.64093643,-0.7648287,,-0.08856125,0.24270995,-0.09752898,0.4395956,0.75974697,0.4791036,-0.7310033,-0.007322397,0.68233466,0.5219099,-0.6501776,0.5521586,,-0.017399691,0.39902708,-0.355601,-0.6016254,0.43326497,-0.6710651,-0.7746898,-0.5212471,0.35799053,-0.19468595,0.73524344,0.64924145,,1.0156320457550136,0.29670739702770565,0.17328286204,-0.061439153440965635,0.7102365257807595,0.855046734714134,-0.40591000434368385,,-1.2489512513510845,-0.10547708559615836,0.17751913776000003,-0.14091164202160036,0.4559559997172748,-0.9650342342758619,0.8756875385458711,,-0.03261365873507904,-0.08565421470318672,0.08101381028,-0.06541713947960498,,1.1697412e-06,-1.7881393e-06,-3.5762787e-06,0.99999994,-1.752004e-05,-1.4681369e-05,1.7516315e-05,1.0,-1.5199184e-06,1.4681369e-05,1.4901161e-06,1.0,720,2.207,0,0,0.0,False,-0.2561842170753601,1.0507702725789931
2.223747215932235,11:09:37.962118,11:08:33.911099,0,,0.11902096,0.0067668855,0.030439973,-0.3291515,-0.7942828,-0.51066005,-0.2357884,-0.45452932,0.8589568,-0.9143648,0.40313476,-0.037673682,,0.057474047,-0.043204002,0.02620399,0.69259953,-0.30668885,0.65287644,-0.6479886,0.13308764,0.7499323,-0.3168857,-0.9424593,-0.10655451,,0.07736036,1.3283167,0.45412618,0.9978649,0.045873545,-0.046488933,0.0052889497,-0.766222,-0.6425542,-0.06509708,0.64093643,-0.7648287,,-0.08844638,0.24292354,-0.097731814,0.42252225,0.77279073,0.47357088,-0.7290861,-0.02060116,0.6841119,0.53843147,-0.63432646,0.55472654,,-0.017399319,0.3990278,-0.35560206,-0.6016254,0.43326497,-0.6710651,-0.7746898,-0.5212471,0.35799053,-0.19468595,0.73524344,0.64924145,,1.0162112507205805,0.2964216559113594,0.17318045513000002,-0.08073062824154187,0.7297755452472174,0.8360918611003447,-0.4044399077484755,,-1.2489512513510845,-0.10547708559615836,0.17751784147000002,-0.14091164202160036,0.4559559997172748,-0.9650342342758619,0.8756875385458711,,-0.03261365873507904,-0.08565421470318672,0.08101381028,-0.06541713947960498,,1.1697412e-06,-1.7881393e-06,-3.5762787e-06,0.99999994,-1.752004e-05,-1.4681369e-05,1.7516315e-05,1.0,-1.5199184e-06,1.4681369e-05,1.4901161e-06,1.0,728,2.231,0,0,0.0,False,-0.25630337251240265,1.0509151131813312
2.2566337570315227,11:09:37.977597,11:08:33.911099,0,,0.11898071,0.006771624,0.030502021,-0.32520545,-0.79649645,-0.5097398,-0.23278257,-0.45502555,0.85951376,-0.9165444,0.39817715,-0.037433714,,0.057471998,-0.043205075,0.026202738,0.6925961,-0.30670154,0.6528742,-0.6479903,0.13307998,0.74993217,-0.31688988,-0.9424563,-0.10656902,,0.07736036,1.3283167,0.45412618,0.9978649,0.045873545,-0.046488933,0.0052889497,-0.766222,-0.6425542,-0.06509708,0.64093643,-0.7648287,,-0.0884123,0.24297017,-0.09777826,0.41866633,0.7754738,0.4726087,-0.72852063,-0.0239129,0.6846063,0.5421957,-0.6309268,0.5549371,,-0.017397052,0.39902648,-0.35560212,-0.60162127,0.4332775,-0.6710607,-0.77469337,-0.5212485,0.35798067,-0.19468445,0.73523504,0.6492514,,1.0163734281109393,0.2963212603839944,0.17315841820000002,-0.08513411705471688,0.734284549739477,0.8321700340579412,-0.4055833162114153,,-1.2489358058853361,-0.10547708559615836,0.17751784147000002,-0.14091164202160036,0.4559559997172748,-0.9650342342758619,0.8756875385458711,,-0.03261365873507904,-0.08565421470318672,0.08101381028,-0.06541713947960498,,1.1697412e-06,-1.7881393e-06,-3.5762787e-06,0.99999994,-1.752004e-05,-1.4681369e-05,1.7516315e-05,1.0,-1.5199184e-06,1.4681369e-05,1.4901161e-06,1.0,736,2.256,0,0,0.0,False,-0.2559459062012759,1.0500943497680806
2.27208491100464,11:09:38.009029,11:08:33.911099,0,,0.11882219,0.0068108365,0.03080687,-0.29874697,-0.8086394,-0.5068063,-0.21920028,-0.45871663,0.8611215,-0.9288173,0.3683495,-0.040213734,,0.057465006,-0.043210417,0.026208103,0.6925995,-0.30671057,0.65286624,-0.6479808,0.13308588,0.7499392,-0.31690165,-0.94245255,-0.10656741,,0.077355005,1.3283141,0.4541251,0.99786484,0.045888826,-0.04647612,0.0053088535,-0.76622105,-0.6425551,-0.06509708,0.64093643,-0.7648287,,-0.08828174,0.24320571,-0.09799796,0.39288932,0.7904871,0.46985963,-0.7282962,-0.044476923,0.6838175,0.56144685,-0.6108616,0.5582343,,-0.017386872,0.3990267,-0.3556124,-0.6016091,0.43328407,-0.6710673,-0.7747044,-0.5212348,0.35797676,-0.19467802,0.7352409,0.6492467,,1.0167827329532733,0.2959582919389059,0.17308452967000001,-0.11679729852088007,0.7572394817000709,0.8062640971045728,-0.40591000434368385,,-1.2489280831524618,-0.10545391739753568,0.17751654518,-0.14091164202160036,0.4559559997172748,-0.9650342342758619,0.8756875385458711,,-0.03261365873507904,-0.08565421470318672,0.08101381028,-0.06541713947960498,,-4.120171e-06,-8.34465e-07,-9.536743e-07,1.0,-2.2687018e-06,-1.8961728e-06,2.2612512e-06,1.0,-2.3841858e-07,1.8961728e-06,1.7881393e-07,1.0,744,2.281,0,0,0.0,False,-0.2561246393568388,1.0501909101696396
2.303531985031441,11:09:38.040815,11:08:34.100816,0,,0.11868353,0.0068286583,0.030980289,-0.2787625,-0.814375,-0.50900376,-0.21089512,-0.46516508,0.85973525,-0.9369177,0.3470083,-0.042077094,,0.05745615,-0.043213695,0.026203394,0.69258684,-0.3067648,0.65285426,-0.64798313,0.13305968,0.7499419,-0.31692445,-0.9424386,-0.10662308,,0.077355005,1.3283141,0.4541251,0.99786484,0.045888826,-0.04647612,0.0053088535,-0.76622105,-0.6425551,-0.06509708,0.64093643,-0.7648287,,-0.08816067,0.24334201,-0.09812594,0.37339428,0.7984541,0.4722793,-0.7288935,-0.062401395,0.6817773,0.5738388,-0.59881306,0.5586877,,-0.017377257,0.39902237,-0.35561195,-0.6015932,0.43333706,-0.6710474,-0.77472013,-0.52123564,0.35794145,-0.19466452,0.73520905,0.6492868,,1.0168367920833927,0.2956339371581885,0.17304304839,-0.14175040179553847,0.772132860174504,0.7906890385157592,-0.40591000434368407,,-1.248866301289468,-0.10544619466466146,0.17751654518,-0.14091164202160036,0.4559559997172748,-0.9650342342758619,0.8756875385458711,,-0.03261365873507904,-0.08565421470318672,0.08101381028,-0.06541713947960498,,-4.120171e-06,-8.34465e-07,-9.536743e-07,1.0,-2.2687018e-06,-1.8961728e-06,2.2612512e-06,1.0,-2.3841858e-07,1.8961728e-06,1.7881393e-07,1.0,769,2.357,0,0,0.0,False,-0.2561246393568388,1.0505288715750958
2.3352947289822623,11:09:38.115249,11:08:34.100816,0,,0.118438914,0.0067888573,0.031283155,-0.23300724,-0.8293379,-0.5078448,-0.18638563,-0.4744523,0.86032283,-0.95444643,0.29511642,-0.04402575,,0.057439394,-0.043222398,0.026194632,0.69254404,-0.30675805,0.6529028,-0.6480655,0.13296896,0.7498868,-0.3168497,-0.9424536,-0.10671252,,0.077355005,1.3283141,0.4541251,0.99786484,0.045888826,-0.04647612,0.0053088535,-0.76622105,-0.6425551,-0.06509708,0.64093643,-0.7648287,,-0.08794364,0.24352574,-0.098394826,0.328423,0.8185551,0.47128105,-0.7253927,-0.100975804,0.68088865,0.60493284,-0.56548333,0.5606111,,-0.017358948,0.39901254,-0.3556131,-0.60155725,0.43333763,-0.6710792,-0.77471954,-0.52131075,0.35783345,-0.19477813,0.7351555,0.6493134,,1.0160645187959703,0.2944523590284321,0.17301323372000002,-0.19836668653636005,0.8105277166085928,0.7487623713587918,-0.4055833162114153,,-1.2487427375634805,-0.10543847193178724,0.17751524889,-0.14091164202160036,0.4558193632175093,-0.9650861738524464,0.8760142266781397,,-0.03261365873507904,-0.08565421470318672,0.08101381028,-0.06541713947960498,,-4.120171e-06,-8.34465e-07,-9.536743e-07,1.0,-2.2687018e-06,-1.8961728e-06,2.2612512e-06,1.0,-2.3841858e-07,1.8961728e-06,1.7881393e-07,1.0,777,2.383,0,0,0.0,False,-0.25588632848275505,1.0507219923782136
2.4097472770372406,11:09:38.132398,11:08:34.100816,0,,0.11840015,0.0067450777,0.031316712,-0.22332573,-0.831598,-0.50849825,-0.18196476,-0.4769352,0.8598963,-0.9576087,0.28456572,-0.04480961,,0.057434663,-0.04322344,0.026192248,0.69253844,-0.30678692,0.6528953,-0.6480645,0.1329582,0.7498896,-0.3168642,-0.94244576,-0.106739104,,0.077355005,1.3283141,0.4541251,0.99786484,0.045888826,-0.04647612,0.0053088535,-0.76622105,-0.6425551,-0.06509708,0.64093643,-0.7648287,,-0.08790626,0.2435169,-0.09845022,0.31889048,0.82189023,0.47202256,-0.72489446,-0.10934874,0.6801256,0.61060363,-0.5590521,0.56091344,,-0.017353864,0.39901084,-0.3556125,-0.6015496,0.43336558,-0.6710681,-0.7747281,-0.52130866,0.3578179,-0.19476762,0.7351405,0.64933354,,1.0156552139536363,0.29405849965184666,0.17300804856000002,-0.21073839320194698,0.8177694510961611,0.7404068602586646,-0.40591000434368385,,-1.2487118466319835,-0.105430749198913,0.17751524889,-0.14091164202160036,0.4558193632175093,-0.9650861738524464,0.8760142266781397,,-0.03261365873507904,-0.08565421470318672,0.08101381028,-0.06541713947960498,,-4.120171e-06,-8.34465e-07,-9.536743e-07,1.0,-2.2687018e-06,-1.8961728e-06,2.2612512e-06,1.0,-2.3841858e-07,1.8961728e-06,1.7881393e-07,1.0,785,2.407,0,0,0.0,False,-0.25588632848275505,1.0506254319766548
2.426889879978262,11:09:38.164801,11:08:34.100816,0,,0.11838579,0.00668066,0.031386867,-0.21302432,-0.83761334,-0.50301546,-0.1719977,-0.47464368,0.8632091,-0.9617888,0.270402,-0.04295689,,0.05743239,-0.043221682,0.026191711,0.69253916,-0.30680037,0.6528881,-0.6480566,0.13296357,0.74989545,-0.31687856,-0.9424406,-0.10674149,,0.077355005,1.3283141,0.4541251,0.99786484,0.045888826,-0.04647612,0.0053088535,-0.76622105,-0.6425551,-0.06509708,0.64093643,-0.7648287,,-0.087895624,0.24351309,-0.09854588,0.3085909,0.82908493,0.46625087,-0.72083324,-0.11598682,0.6833349,0.62062156,-0.54696,0.56183946,,-0.017351633,0.39901197,-0.35561097,-0.6015487,0.43337777,-0.671061,-0.77473277,-0.52129936,0.35782132,-0.19475187,0.7351399,0.6493389,,1.015091454453818,0.2935333538163994,0.17299767824,-0.22248103003708034,0.8307499185738779,0.7263099735814604,-0.40574666027754946,,-1.2487041238991095,-0.10541530373316456,0.17751524889,-0.14091164202160036,0.4558193632175093,-0.9650861738524464,0.8760142266781397,,-0.03261365873507904,-0.08565421470318672,0.08101381028,-0.06541713947960498,,-4.120171e-06,-8.34465e-07,-9.536743e-07,1.0,-2.2687018e-06,-1.8961728e-06,2.2612512e-06,1.0,-2.3841858e-07,1.8961728e-06,1.7881393e-07,1.0,793,2.432,0,0,0.0,False,-0.2566608388235285,1.0504805913743163
2.459311589016579,11:09:38.187768,11:08:34.100816,0,,0.11833973,0.006637715,0.031411335,-0.2031444,-0.8379672,-0.50650114,-0.16992667,-0.47926635,0.86106247,-0.9642911,0.26098806,-0.04503271,,0.057430334,-0.043222785,0.02619052,0.69253564,-0.306813,0.6528859,-0.6480583,0.13295588,0.74989545,-0.31688273,-0.94243765,-0.10675609,,0.077355005,1.3283141,0.4541251,0.99786484,0.045888826,-0.04647612,0.0053088535,-0.76622105,-0.6425551,-0.06509708,0.64093643,-0.7648287,,-0.08785018,0.24349985,-0.09859409,0.29890355,0.830513,0.47000515,-0.7217428,-0.12546323,0.6806954,0.62429476,-0.54268515,0.5619154,,-0.017349366,0.39901066,-0.35561106,-0.60154456,0.4333903,-0.6710566,-0.77473634,-0.52130085,0.35781145,-0.19475038,0.7351315,0.6493489,,1.0146667041457356,0.2932244445014304,0.17298471534,-0.23611087636357442,0.835395559565903,0.719744687691003,-0.406073348409818,,-1.248688678433361,-0.10541530373316456,0.17751524889,-0.14091164202160036,0.4558193632175093,-0.9650861738524464,0.8760142266781397,,-0.03261365873507904,-0.08565421470318672,0.08101381028,-0.06541713947960498,,-4.120171e-06,-8.34465e-07,-9.536743e-07,1.0,-2.2687018e-06,-1.8961728e-06,2.2612512e-06,1.0,-2.3841858e-07,1.8961728e-06,1.7881393e-07,1.0,801,2.457,0,0,0.0,False,-0.25582675076423333,1.0506737121774343
2.4822849580086768,11:09:38.216806,11:08:34.280628,0,,0.118288755,0.0065951273,0.031484514,-0.19080025,-0.8414082,-0.5055963,-0.16466895,-0.48032486,0.8614941,-0.9677187,0.24762924,-0.046907693,,0.057426624,-0.04322329,0.02618879,0.69253176,-0.3068889,0.6528544,-0.64805645,0.13288772,0.74990904,-0.31689516,-0.94242257,-0.10685238,,0.077355005,1.3283141,0.4541251,0.99786484,0.045888826,-0.04647612,0.0053088535,-0.76622105,-0.6425551,-0.06509708,0.64093643,-0.7648287,,-0.087804385,0.24351814,-0.098679714,0.2867101,0.83522016,0.46925968,-0.72101665,-0.13440748,0.67975706,0.6308188,-0.5332372,0.56367165,,-0.017345415,0.39900962,-0.3556104,-0.60153896,0.43346682,-0.6710122,-0.77474314,-0.52132726,0.35775822,-0.19474062,0.73506767,0.6494241,,1.0141956174404079,0.29294642611795835,0.17295490067000002,-0.25267638189885183,0.8435937495518293,0.70611692055727,-0.40460325181460965,,-1.2486655102347384,-0.10540758100029034,0.17751524889,-0.14091164202160036,0.4558193632175093,-0.9650044951123058,0.8761775707442739,,-0.03261365873507904,-0.08565421470318672,0.08101381028,-0.06541713947960498,,-4.120171e-06,-8.34465e-07,-9.536743e-07,1.0,-2.2687018e-06,-1.8961728e-06,2.2612512e-06,1.0,-2.3841858e-07,1.8961728e-06,1.7881393e-07,1.0,809,2.481,0,0,0.0,False,-0.25677999426057063,1.0503840309727575
2.511325394967571,11:09:38.236166,11:08:34.280628,0,,0.11823827,0.006584041,0.031553343,-0.1817278,-0.84215784,-0.50768614,-0.16122514,-0.48377925,0.8602116,-0.970042,0.23817617,-0.04786089,,0.057426415,-0.0432204,0.026189327,0.692536,-0.3068896,0.6528495,-0.64804685,0.13290083,0.749915,-0.31690538,-0.94242036,-0.10684031,,0.077355005,1.3283141,0.4541251,0.99786484,0.045888826,-0.04647612,0.0053088535,-0.76622105,-0.6425551,-0.06509708,0.64093643,-0.7648287,,-0.087760046,0.24355784,-0.0987419,0.27774882,0.836994,0.47148347,-0.7206823,-0.14297353,0.67836237,0.6351949,-0.5282042,0.56349605,,-0.01734545,0.39901206,-0.3556088,-0.6015422,0.4334665,-0.67100954,-0.7747442,-0.52131647,0.35777155,-0.19472638,0.7350755,0.64941955,,1.0139871036528039,0.2928769215220903,0.17292767858000002,-0.2652577785079233,0.8489225730426815,0.6989128664081898,-0.4044399077484755,,-1.2486732329676125,-0.10539213553454188,0.17751524889,-0.14091164202160036,0.4558193632175093,-0.9650044951123058,0.8761775707442739,,-0.03261365873507904,-0.08565421470318672,0.08101381028,-0.06541713947960498,,-4.120171e-06,-8.34465e-07,-9.536743e-07,1.0,-2.2687018e-06,-1.8961728e-06,2.2612512e-06,1.0,-2.3841858e-07,1.8961728e-06,1.7881393e-07,1.0,834,2.558,0,0,0.0,False,-0.25558843989015,1.051108233984449
