AlexandreBanks6/ExpertPlaybackApp/resources/Motions/P_11/PC1/Data_PC1_1.csv
Task Time,PC1 Time,PC2 Time,Gaze Calib,s_T_psm1,Tx,Ty,Tz,R00,R01,R02,R10,R11,R12,R20,R21,R22,s_T_psm3,Tx,Ty,Tz,R00,R01,R02,R10,R11,R12,R20,R21,R22,cart_T_ecm,Tx,Ty,Tz,R00,R01,R02,R10,R11,R12,R20,R21,R22,ecm_T_psm1,Tx,Ty,Tz,R00,R01,R02,R10,R11,R12,R20,R21,R22,ecm_T_psm3,Tx,Ty,Tz,R00,R01,R02,R10,R11,R12,R20,R21,R22,psm1_joints,q1,q2,q3,q4,q5,q6,jaw,psm3_joints,q1,q2,q3,q4,q5,q6,jaw,ecm_joints,q1,q2,q3,q4,ecmi_T_ecm,Tx,Ty,Tz,R00,R01,R02,R10,R11,R12,R20,R21,R22,Sample #,Task Duration (s),Collisions (binary),Collisions (increments),Cumulative Collision Time (s),Clutch Press,MTMR Angle,MTML Angle
""
lci_T_si,,,,,-0.05741252,0.03306167,0.23964758,0.99439466,0.06102388,0.08634416,0.10237931,-0.7597365,-0.64212066,0.026414111,0.6473612,-0.7617255
rci_T_si,,,,,-0.067677386,0.037969604,0.25228155,0.9957965,0.04637849,0.07898321,0.0866763,-0.7558923,-0.64893305,0.029606264,0.6530512,-0.7567348
ecm_T_lc,,,,,-4.4061628e-05,-0.00034663224,-0.01840835,-0.99912,0.030754527,0.028518902,-0.031987965,-0.99852574,-0.043852776,0.027128186,-0.04472645,0.9986309
ecm_T_rc,,,,,-0.0043358393,0.01870579,-0.007592615,-0.99555075,-0.052743673,-0.078081585,0.04863213,-0.9973746,0.053654674,-0.08070653,0.04961868,0.9955021
cart_T_ecmi,,,,,0.07732047,1.3283298,0.45411256,0.9978804,0.045562778,-0.046462853,0.0050814142,-0.7663648,-0.64238554,-0.06487636,0.64078784,-0.7649719
ecmac_T_ecmrep_psm1,,,,,0.011581071,-0.24422047,-0.31388107,0.99918455,0.03945311,0.008580942,-0.0387743,0.99689597,-0.06852016,-0.011257639,0.068131566,0.99761283
ecmac_T_ecmrep_psm3,,,,,0.00032986852,-0.4435548,-0.5434704,0.9997429,-0.0075566242,-0.021376874,0.008153117,0.9995759,0.027955532,0.021156559,-0.028122634,0.9993806
""
0,10:59:07.274085,10:58:03.349409,0,,0.120920904,0.00076919794,0.029319882,-0.81272286,-0.11521013,-0.57114637,-0.57810825,0.037288517,0.8151076,-0.07261148,0.99264103,-0.096909136,,0.053541005,-0.033957563,0.03894669,0.69129705,-0.30060425,0.65707326,-0.5971088,0.27442828,0.7537575,-0.40690205,-0.9134146,0.010217845,,0.07729179,1.3283308,0.45411754,0.9978803,0.045576826,-0.04645108,0.0050997036,-0.766364,-0.6423864,-0.06487636,0.64078784,-0.7649719,,-0.089697994,0.23674981,-0.09792554,0.8407778,0.018131582,0.5410766,-0.4169508,0.6591768,0.6258098,-0.34531826,-0.7517693,0.5617812,,-0.015530145,0.41383412,-0.3556037,-0.58811563,0.41723266,-0.69284695,-0.80419296,-0.3927554,0.44611308,-0.08598643,0.8195487,0.56652117,,0.9847333915252414,0.3181457034865529,0.17179990628000003,0.4978039258322608,-0.24403278858107663,1.02582626244472,-0.4016630586241927,,-1.2843445361136556,-0.04092276150051568,0.16991380433000003,-0.09960272315514906,0.5077412331283767,-1.0209019693802794,0.8758508826120052,,-0.03261365873507904,-0.08598146393793565,0.08100309464,-0.06541713947960498,,-2.894178e-05,1.1324883e-06,-3.0994415e-06,1.0,1.4021993e-05,1.174584e-05,-1.4021993e-05,1.0,1.1920929e-06,-1.1742115e-05,-1.1920929e-06,1.0,33,0.098,0,0,0.0,False,-0.25695872741613357,1.050432311173537
0.13187081599608064,10:59:07.292984,10:58:03.349409,0,,0.12099296,0.00077949464,0.029528737,-0.813103,-0.11736216,-0.57016623,-0.57731843,0.03703904,0.8156786,-0.074611396,0.99239826,-0.0978719,,0.053541206,-0.033955775,0.038954973,0.69115186,-0.3004211,0.6573098,-0.597353,0.2744639,0.7535509,-0.4067902,-0.9134642,0.010238618,,0.07729179,1.3283308,0.45411754,0.9978803,0.045576826,-0.04645108,0.0050997036,-0.766364,-0.6423864,-0.06487636,0.64078784,-0.7649719,,-0.08979005,0.23688132,-0.098077685,0.8413119,0.020305892,0.5401685,-0.41755003,0.6590352,0.6255594,-0.34328756,-0.7518379,0.56293285,,-0.015531671,0.41384107,-0.35560828,-0.5879751,0.4170572,-0.6930719,-0.8042678,-0.39279088,0.44594678,-0.08624702,0.819621,0.5663769,,0.984717946059493,0.3189102540411011,0.17162231455000002,0.4978039258322608,-0.2425297870836568,1.0244373080237783,-0.40198974675646126,,-1.2843677043122783,-0.040899593301893,0.16990602659,-0.09939303321166454,0.5074679601288459,-1.0209241697933082,0.8763409148104081,,-0.03261365873507904,-0.08598146393793565,0.08100309464,-0.06541713947960498,,-2.894178e-05,1.1324883e-06,-3.0994415e-06,1.0,1.4021993e-05,1.174584e-05,-1.4021993e-05,1.0,1.1920929e-06,-1.1742115e-05,-1.1920929e-06,1.0,40,0.12,0,0,0.0,False,-0.25695872741613357,1.0503840309727575
0.1507511039962992,10:59:07.316505,10:58:03.349409,0,,0.12111017,0.0008428842,0.029847577,-0.81302667,-0.122005105,-0.5692998,-0.5768515,0.036240518,0.81604475,-0.07892993,0.99186766,-0.09984332,,0.053574517,-0.03394439,0.038980007,0.68944854,-0.30017033,0.6592103,-0.59886277,0.2757331,0.75188744,-0.4074603,-0.91316426,0.010342836,,0.07729179,1.3283308,0.45411754,0.9978803,0.045576826,-0.04645108,0.0050997036,-0.766364,-0.6423864,-0.06487636,0.64078784,-0.7649719,,-0.08993988,0.23711835,-0.09827965,0.8416276,0.02500911,0.53947896,-0.4198896,0.6585235,0.62453145,-0.3396406,-0.7521445,0.5647326,,-0.015568926,0.41386157,-0.3556158,-0.5861084,0.41669318,-0.69486964,-0.8055539,-0.39172065,0.4445648,-0.086947665,0.82031804,0.5652596,,0.9848106188539837,0.3203003459584615,0.17137472316000002,0.4963360962278691,-0.23966042058858256,1.0220158533060129,-0.40215309082259554,,-1.2845530499012596,-0.04091503876764145,0.16989824885000002,-0.09666706394636573,0.5069214141297841,-1.020560176918663,0.8765042588765425,,-0.03261365873507904,-0.08598146393793565,0.08100309464,-0.06541713947960498,,-2.894178e-05,1.1324883e-06,-3.0994415e-06,1.0,1.4021993e-05,1.174584e-05,-1.4021993e-05,1.0,1.1920929e-06,-1.1742115e-05,-1.1920929e-06,1.0,52,0.156,0,0,0.0,False,-0.2570183051346544,1.0506737121774343
0.1742407300043851,10:59:07.355478,10:58:03.419602,0,,0.121226884,0.0009640455,0.030151457,-0.8131893,-0.12402719,-0.56863016,-0.57627404,0.034885824,0.81651163,-0.08143255,0.9916654,-0.0998424,,0.053590693,-0.03394123,0.03899598,0.68946344,-0.300097,0.65922827,-0.5990233,0.27541903,0.7518747,-0.40719914,-0.91328317,0.010126144,,0.07729179,1.3283308,0.45411754,0.9978803,0.045576826,-0.04645108,0.0050997036,-0.766364,-0.6423864,-0.06487636,0.64078784,-0.7649719,,-0.09009032,0.2373909,-0.09843365,0.8420027,0.027099362,0.5387922,-0.4209878,0.6575375,0.6248309,-0.33734357,-0.7529343,0.56505686,,-0.01558745,0.4138725,-0.35562378,-0.58615285,0.41665626,-0.69485426,-0.8054895,-0.39203596,0.44440356,-0.08724435,0.8201862,0.5654052,,0.9849727962443424,0.3219916244579167,0.17117379821,0.4959167163409001,-0.23856732859045904,1.0211245100764417,-0.40215309082259554,,-1.2846843363601215,-0.0409304842333899,0.16989047111000002,-0.09666706394636573,0.5066481411302531,-1.0202556623711296,0.8763409148104081,,-0.03261365873507904,-0.08598146393793565,0.08100309464,-0.06541713947960498,,-2.894178e-05,1.1324883e-06,-3.0994415e-06,1.0,1.4021993e-05,1.174584e-05,-1.4021993e-05,1.0,1.1920929e-06,-1.1742115e-05,-1.1920929e-06,1.0,60,0.18,0,0,0.0,False,-0.256541683386486,1.0504805913743163
0.2132417280226946,10:59:07.376795,10:58:03.419602,0,,0.12138033,0.0011204928,0.03041254,-0.81099755,-0.1344599,-0.5693888,-0.57795155,0.032985926,0.8154041,-0.09085739,0.9903699,-0.10446277,,0.05359626,-0.033943735,0.03900397,0.68808943,-0.3000686,0.66067517,-0.6002833,0.2761327,0.7506069,-0.4076675,-0.91307694,0.009877682,,0.07729179,1.3283308,0.45411754,0.9978803,0.045576826,-0.04645108,0.0050997036,-0.766364,-0.6423864,-0.06487636,0.64078784,-0.7649719,,-0.09027479,0.23766068,-0.098530546,0.84079736,0.037682034,0.5400369,-0.4283769,0.65624136,0.6211606,-0.33098796,-0.75360954,0.5679081,,-0.015593994,0.41387543,-0.35563084,-0.58465534,0.41655716,-0.696174,-0.80650693,-0.3913919,0.44312412,-0.087890334,0.820544,0.5647856,,0.985165864566198,0.32367518022449765,0.17101565083,0.4892066381493953,-0.23241868610101418,1.01717252803193,-0.4005196501612527,,-1.2846688908943729,-0.04093820696626413,0.16988269337,-0.09457016451152048,0.5061015951311915,-1.019809990756344,0.8763409148104081,,-0.03261365873507904,-0.08598146393793565,0.08100309464,-0.06541713947960498,,-2.894178e-05,1.1324883e-06,-3.0994415e-06,1.0,1.4021993e-05,1.174584e-05,-1.4021993e-05,1.0,1.1920929e-06,-1.1742115e-05,-1.1920929e-06,1.0,71,0.214,0,0,0.0,False,-0.25731619372725945,1.050963393382111
0.23454868595581502,10:59:07.405804,10:58:03.419602,0,,0.121472865,0.0012116581,0.030539379,-0.810155,-0.1395326,-0.5693676,-0.57818997,0.030028969,0.81534934,-0.09667033,0.98976207,-0.1050044,,0.053600498,-0.033948414,0.039006233,0.68683636,-0.2998938,0.6620569,-0.6014587,0.27688056,0.7493894,-0.40804783,-0.9129079,0.009797722,,0.07729179,1.3283308,0.45411754,0.9978803,0.045576826,-0.04645108,0.0050997036,-0.766364,-0.6423864,-0.06487636,0.64078784,-0.7649719,,-0.090382956,0.23780178,-0.09856722,0.8405252,0.042915728,0.54007,-0.43226853,0.65404767,0.6207782,-0.3265904,-0.75523496,0.5682947,,-0.015598246,0.41387308,-0.35563543,-0.58329517,0.41631714,-0.6974574,-0.8074212,-0.3907705,0.4420061,-0.088531055,0.8209619,0.5640778,,0.9852199236963176,0.32449378990916544,0.17094824375,0.48627097894061194,-0.228319591108051,1.0169337830463787,-0.4023164348887299,,-1.2846302772300018,-0.04095365243201257,0.1698788045,-0.09268295502015976,0.5055550491321297,-1.01960935536198,0.8761775707442739,,-0.03261365873507904,-0.08598146393793565,0.08100309464,-0.06541713947960498,,-2.894178e-05,1.1324883e-06,-3.0994415e-06,1.0,1.4021993e-05,1.174584e-05,-1.4021993e-05,1.0,1.1920929e-06,-1.1742115e-05,-1.1920929e-06,1.0,79,0.238,0,0,0.0,False,-0.2557075953271921,1.050963393382111
0.26357208599802107,10:59:07.436687,10:58:03.508426,0,,0.12161965,0.0013183355,0.030671641,-0.80733544,-0.15062784,-0.5705442,-0.57971853,0.021955907,0.8145209,-0.11016275,0.98834676,-0.105047494,,0.05359394,-0.033984713,0.039019585,0.68549687,-0.29950547,0.6636191,-0.60298073,0.27729893,0.7480104,-0.408054,-0.91290843,0.009491384,,0.07729179,1.3283308,0.45411754,0.9978803,0.045576826,-0.04645108,0.0050997036,-0.766364,-0.6423864,-0.06487636,0.64078784,-0.7649719,,-0.09054629,0.23795319,-0.09859584,0.8390775,0.054442476,0.54128087,-0.44213936,0.6479507,0.6202198,-0.31695703,-0.7597341,0.567752,,-0.015591718,0.41385752,-0.3556709,-0.5818858,0.41591012,-0.698876,-0.80831015,-0.39053056,0.4405912,-0.089686096,0.8212823,0.5634286,,0.9852430918949403,0.3253355677924559,0.17087046635000003,0.47767369125774645,-0.21807185362564296,1.0185422465662957,-0.4028064670871325,,-1.2844912680382659,-0.04108493889087439,0.16985028612000003,-0.09079574552879904,0.5045985936337716,-1.0194011812170891,0.8766676029426766,,-0.03261365873507904,-0.08598146393793565,0.08100309464,-0.06541713947960498,,-2.894178e-05,1.1324883e-06,-3.0994415e-06,1.0,1.4021993e-05,1.174584e-05,-1.4021993e-05,1.0,1.1920929e-06,-1.1742115e-05,-1.1920929e-06,1.0,91,0.274,0,0,0.0,False,-0.25588632848275505,1.0505288715750958
0.2944615950109437,10:59:07.467405,10:58:03.508426,0,,0.12177351,0.001346007,0.030817613,-0.80420005,-0.16589655,-0.570737,-0.5802618,0.011245728,0.81435233,-0.12867993,0.98607904,-0.10530719,,0.053592212,-0.034019224,0.03902948,0.68447626,-0.2988848,0.6649511,-0.603992,0.27830398,0.74682033,-0.40827167,-0.912806,0.009968311,,0.07729179,1.3283308,0.45411754,0.9978803,0.045576826,-0.04645108,0.0050997036,-0.766364,-0.6423864,-0.06487636,0.64078784,-0.7649719,,-0.09071447,0.2380512,-0.098684505,0.8377517,0.07031786,0.54150486,-0.45441103,0.63967067,0.6199452,-0.30279154,-0.7654259,0.5678384,,-0.015589531,0.41384017,-0.35570228,-0.5807886,0.4152253,-0.70019466,-0.8090294,-0.3898374,0.43988436,-0.090310946,0.8219579,0.5623426,,0.9851890327648207,0.32562130890880225,0.17073176332,0.4673988840270048,-0.20249529265238275,1.0203794212899238,-0.3997029298305811,,-1.2843831497780267,-0.04124711628123311,0.16982954548,-0.08932791592440738,0.5041886841344753,-1.019965393647546,0.8758508826120053,,-0.03261365873507904,-0.08598146393793565,0.08100309464,-0.06541713947960498,,-2.894178e-05,1.1324883e-06,-3.0994415e-06,1.0,1.4021993e-05,1.174584e-05,-1.4021993e-05,1.0,1.1920929e-06,-1.1742115e-05,-1.1920929e-06,1.0,98,0.296,0,0,0.0,False,-0.2568991496976123,1.0505771517758753
0.3251730129122734,10:59:07.495056,10:58:03.508426,0,,0.12178718,0.0012948215,0.030900925,-0.80402327,-0.16742207,-0.5705405,-0.580052,0.009910375,0.8145191,-0.13071424,0.98583555,-0.10508165,,0.05360139,-0.034049623,0.039042234,0.6828987,-0.2986413,0.6666802,-0.60560596,0.27892035,0.7452818,-0.40852246,-0.91269755,0.009615213,,0.07729179,1.3283308,0.45411754,0.9978803,0.045576826,-0.04645108,0.0050997036,-0.766364,-0.6423864,-0.06487636,0.64078784,-0.7649719,,-0.090733744,0.23806219,-0.09878072,0.83776087,0.07191738,0.54128057,-0.45553434,0.638627,0.62019676,-0.30107346,-0.76614845,0.5677775,,-0.015598771,0.41382608,-0.35573208,-0.5791025,0.4149339,-0.70176214,-0.810118,-0.38936102,0.43829992,-0.09137335,0.8223308,0.56162536,,0.985165864566198,0.32557497251155687,0.17063065270000002,0.4665601242530667,-0.20058238165566658,1.0207798604015472,-0.40198974675646115,,-1.284321367915033,-0.041401570938717595,0.16981010113000003,-0.08702132654607761,0.5033688651358826,-1.0195419224457891,0.876340914810408,,-0.03261365873507904,-0.08598146393793565,0.08100309464,-0.06541713947960498,,-2.894178e-05,1.1324883e-06,-3.0994415e-06,1.0,1.4021993e-05,1.174584e-05,-1.4021993e-05,1.0,1.1920929e-06,-1.1742115e-05,-1.1920929e-06,1.0,106,0.319,0,0,0.0,False,-0.25672041654204936,1.0512047943860081
0.3528389239218086,10:59:07.523832,10:58:03.579457,0,,0.1218022,0.0012016743,0.031071216,-0.80336,-0.17146583,-0.57027376,-0.5802669,0.010228515,0.8143621,-0.13380224,0.98513705,-0.10771304,,0.05359666,-0.034115545,0.039053082,0.68253696,-0.2977822,0.6674346,-0.6060326,0.27982923,0.744594,-0.40849447,-0.91270006,0.010527939,,0.07729179,1.3283308,0.45411754,0.9978803,0.045576826,-0.04645108,0.0050997036,-0.766364,-0.6423864,-0.06487636,0.64078784,-0.7649719,,-0.090760805,0.23809476,-0.098970726,0.8374057,0.075991236,0.5412736,-0.45769045,0.6388201,0.6184079,-0.29878289,-0.765594,0.569732,,-0.01559198,0.4137875,-0.3557864,-0.5787254,0.41403472,-0.7026038,-0.81034863,-0.38884294,0.43833357,-0.09171722,0.8230288,0.56054574,,0.9851890327648207,0.32555952704580843,0.17043232033000003,0.46467291476170597,-0.1979862881601232,1.018499562751034,-0.40133637049192417,,-1.2841514677918,-0.04174137118518347,0.16978028646,-0.08660194665910856,0.5033688651358826,-1.0207671035478976,0.8761775707442738,,-0.03261365873507904,-0.08598146393793565,0.08100309464,-0.06541713947960498,,-2.894178e-05,1.1324883e-06,-3.0994415e-06,1.0,1.4021993e-05,1.174584e-05,-1.4021993e-05,1.0,1.1920929e-06,-1.1742115e-05,-1.1920929e-06,1.0,117,0.352,0,0,0.0,False,-0.25695872741613357,1.0511565141852286
0.381617664010264,10:59:07.546636,10:58:03.579457,0,,0.12182851,0.001167193,0.031198025,-0.8036704,-0.17511664,-0.5687248,-0.5792208,0.011063784,0.81509566,-0.13644458,0.98448557,-0.1103228,,0.053593345,-0.034185193,0.039043427,0.6814639,-0.29740483,0.6686981,-0.6070227,0.28070703,0.7434561,-0.40881556,-0.91255355,0.010760039,,0.07729179,1.3283308,0.45411754,0.9978803,0.045576826,-0.04645108,0.0050997036,-0.766364,-0.6423864,-0.06487636,0.64078784,-0.7649719,,-0.09079755,0.23814465,-0.09908958,0.8379203,0.07964692,0.5399499,-0.4584983,0.6394066,0.61720216,-0.2960893,-0.76473236,0.57228976,,-0.015583338,0.41373202,-0.3558288,-0.5775623,0.4135907,-0.7038214,-0.81111676,-0.38817436,0.43750462,-0.09225758,0.8235675,0.5596652,,0.9852199236963176,0.3257062589704187,0.17030139504000003,0.46446322481822144,-0.19525355816481438,1.0156177747559814,-0.40133637049192417,,-1.2838888948740763,-0.04210433963027203,0.16976732356000002,-0.08513411705471688,0.5032322286361172,-1.021227436825185,0.8766676029426765,,-0.03261365873507904,-0.08598146393793565,0.08100309464,-0.06541713947960498,,-2.894178e-05,1.1324883e-06,-3.0994415e-06,1.0,1.4021993e-05,1.174584e-05,-1.4021993e-05,1.0,1.1920929e-06,-1.1742115e-05,-1.1920929e-06,1.0,124,0.374,0,0,0.0,False,-0.25761408231986493,1.051108233984449
0.4044223679229617,10:59:07.577123,10:58:03.653887,0,,0.121893376,0.0011552572,0.03141962,-0.803123,-0.18299918,-0.56701374,-0.57842946,0.011271417,0.8156545,-0.14287306,0.9830485,-0.11490446,,0.053575166,-0.034314595,0.039018393,0.68081075,-0.29730907,0.6694055,-0.6078733,0.28053373,0.7428262,-0.4086397,-0.912638,0.010264009,,0.07729179,1.3283308,0.45411754,0.9978803,0.045576826,-0.04645108,0.0050997036,-0.766364,-0.6423864,-0.06487636,0.64078784,-0.7649719,,-0.09088269,0.23826753,-0.099265955,0.8379547,0.087613665,0.53866106,-0.4619473,0.639416,0.61461526,-0.29057983,-0.7638528,0.5762745,,-0.0155543415,0.41362566,-0.35590327,-0.5768956,0.41351855,-0.7044103,-0.8115036,-0.38836932,0.43661332,-0.09302366,0.8235118,0.5596203,,0.985335764689431,0.3262082366072433,0.17009658122000001,0.4619469454964072,-0.18965146167443137,1.0109679619642873,-0.4011730264257898,,-1.2833791945043775,-0.04274532645883266,0.16974528663000002,-0.08450504722426332,0.5030955921363518,-1.0213610551419103,0.8765042588765424,,-0.03261365873507904,-0.08598146393793565,0.08100309464,-0.06541713947960498,,-2.894178e-05,1.1324883e-06,-3.0994415e-06,1.0,1.4021993e-05,1.174584e-05,-1.4021993e-05,1.0,1.1920929e-06,-1.1742115e-05,-1.1920929e-06,1.0,135,0.406,0,0,0.0,False,-0.25731619372725945,1.0513013547875674
0.4349075199570507,10:59:07.605399,10:58:03.653887,0,,0.12198893,0.0011669844,0.03170389,-0.80191654,-0.19042188,-0.5662767,-0.5783743,0.009923637,0.81571114,-0.14970973,0.98165226,-0.11809304,,0.053543217,-0.03449332,0.03897363,0.6808746,-0.29712296,0.6694233,-0.60828495,0.279662,0.74281806,-0.40792042,-0.9129661,0.009679198,,0.07729179,1.3283308,0.45411754,0.9978803,0.045576826,-0.04645108,0.0050997036,-0.766364,-0.6423864,-0.06487636,0.64078784,-0.7649719,,-0.09100538,0.23844497,-0.09947461,0.83740526,0.09518821,0.53823006,-0.4662843,0.63820076,0.61259997,-0.28518656,-0.7639627,0.5788174,,-0.015506027,0.41347268,-0.35599944,-0.57704234,0.41343293,-0.7043404,-0.8113078,-0.38924062,0.4362011,-0.093818,0.8231433,0.5600297,,0.9854361602167959,0.32714268728502444,0.16984510096000002,0.4581725265136858,-0.18432263818357916,1.0078478448222354,-0.4014997145580582,,-1.2826532576142005,-0.04361799527362003,0.16972195341000001,-0.08513411705471688,0.5030955921363518,-1.0218511275827535,0.8771576351410796,,-0.03261365873507904,-0.08598146393793565,0.08100309464,-0.06541713947960498,,-2.894178e-05,1.1324883e-06,-3.0994415e-06,1.0,1.4021993e-05,1.174584e-05,-1.4021993e-05,1.0,1.1920929e-06,-1.1742115e-05,-1.1920929e-06,1.0,146,0.439,0,0,0.0,False,-0.25779281547542787,1.050963393382111
0.4631722189951688,10:59:07.635767,10:58:03.653887,0,,0.12214145,0.0012539625,0.03198172,-0.7997999,-0.20304921,-0.5648814,-0.57788336,0.005871862,0.8160983,-0.16239122,0.97915095,-0.122035,,0.053519487,-0.034690402,0.03892398,0.6805352,-0.29678938,0.6699162,-0.6088889,0.279522,0.74237573,-0.4075854,-0.91311747,0.009512663,,0.07729179,1.3283308,0.45411754,0.9978803,0.045576826,-0.04645108,0.0050997036,-0.766364,-0.6423864,-0.06487636,0.64078784,-0.7649719,,-0.091187425,0.23867138,-0.09962826,0.8364896,0.108163886,0.53720176,-0.47401613,0.6346904,0.6103088,-0.27494344,-0.76515925,0.5821833,,-0.015464052,0.41330215,-0.35610443,-0.576723,0.4131341,-0.7047771,-0.8114554,-0.38949263,0.43570128,-0.09450244,0.8231742,0.5598692,,0.9855520012099093,0.32827020628466125,0.16964417601,0.4520915181526345,-0.17421153720093657,1.0042586081367122,-0.4018264026903269,,-1.281888707059652,-0.044629673280143445,0.16970250906,-0.08513411705471688,0.5033688651358826,-1.022727393311271,0.8761775707442738,,-0.03261365873507904,-0.08598146393793565,0.08100309464,-0.06541713947960498,,-2.894178e-05,1.1324883e-06,-3.0994415e-06,1.0,1.4021993e-05,1.174584e-05,-1.4021993e-05,1.0,1.1920929e-06,-1.1742115e-05,-1.1920929e-06,1.0,157,0.472,0,0,0.0,False,-0.2571374605716965,1.0510116735828905
0.4935457039391622,10:59:07.669580,10:58:03.653887,0,,0.12237122,0.0014553517,0.03229186,-0.79487485,-0.22532089,-0.56338674,-0.57650185,-0.009165496,0.8170444,-0.18926091,0.9742415,-0.122612506,,0.05351431,-0.03492724,0.03887725,0.6802836,-0.2964829,0.67030734,-0.6096566,0.27876484,0.7420304,-0.4068573,-0.91344845,0.008886248,,0.07729179,1.3283308,0.45411754,0.9978803,0.045576826,-0.04645108,0.0050997036,-0.766364,-0.6423864,-0.06487636,0.64078784,-0.7649719,,-0.09145447,0.23899938,-0.09973138,0.83409625,0.13144748,0.5357285,-0.49017543,0.62206715,0.61054116,-0.253005,-0.77185106,0.5832962,,-0.015438584,0.4131028,-0.35623825,-0.5765396,0.41292363,-0.70505047,-0.8114602,-0.39030215,0.43496737,-0.095574416,0.8228963,0.5600957,,0.9859458605864947,0.3296680209348959,0.16945362138000003,0.438671361769625,-0.15139324174010801,1.0046012859320204,-0.4024797789548642,,-1.281124156505104,-0.04590392420439048,0.16967658326,-0.08534380699820142,0.503505501635648,-1.0232472049156702,0.8766676029426766,,-0.03261365873507904,-0.08598146393793565,0.08100309464,-0.06541713947960498,,-2.894178e-05,1.1324883e-06,-3.0994415e-06,1.0,1.4021993e-05,1.174584e-05,-1.4021993e-05,1.0,1.1920929e-06,-1.1742115e-05,-1.1920929e-06,1.0,168,0.505,0,0,0.0,False,-0.25731619372725945,1.0508668329805522
0.5273385099135339,10:59:07.707917,10:58:03.765823,0,,0.12249222,0.0015995353,0.03249426,-0.7927004,-0.24028382,-0.56025875,-0.572978,-0.020115137,0.81932384,-0.20813996,0.9704943,-0.12173203,,0.053524725,-0.035051428,0.038858414,0.6801065,-0.29649284,0.6704825,-0.6100798,0.27824327,0.7418783,-0.40651864,-0.91360426,0.008350641,,0.07729179,1.3283308,0.45411754,0.9978803,0.045576826,-0.04645108,0.0050997036,-0.766364,-0.6423864,-0.06487636,0.64078784,-0.7649719,,-0.09160052,0.2392261,-0.09979196,0.8335804,0.14717065,0.53243273,-0.49942708,0.6126492,0.61256313,-0.23604316,-0.7765319,0.58419335,,-0.015439042,0.4130003,-0.3563116,-0.5763913,0.41298613,-0.7051351,-0.81150067,-0.3907779,0.43446437,-0.09612347,0.8226391,0.5603795,,0.9864401154904451,0.3304016805579472,0.16933565899000003,0.4317515936346356,-0.1337671332703662,1.0049305495804832,-0.4011730264257899,,-1.2807998017243865,-0.04661441562881914,0.16966362036000002,-0.08534380699820142,0.5036421381354135,-1.0231952653390854,0.8766676029426768,,-0.03261365873507904,-0.08598146393793565,0.08100309464,-0.06541713947960498,,-2.894178e-05,1.1324883e-06,-3.0994415e-06,1.0,1.4021993e-05,1.174584e-05,-1.4021993e-05,1.0,1.1920929e-06,-1.1742115e-05,-1.1920929e-06,1.0,179,0.538,0,0,0.0,False,-0.25779281547542787,1.0508668329805522
0.5657014399766922,10:59:07.730113,10:58:03.765823,0,,0.12244101,0.0016027242,0.032683134,-0.79000384,-0.2434633,-0.5626895,-0.5751562,-0.023567498,0.8177041,-0.21234214,0.9696238,-0.121411026,,0.053544052,-0.035103105,0.038865805,0.67884004,-0.2963475,0.671829,-0.6111153,0.27921987,0.7406581,-0.40707996,-0.91335344,0.008442968,,0.07729179,1.3283308,0.45411754,0.9978803,0.045576826,-0.04645108,0.0050997036,-0.766364,-0.6423864,-0.06487636,0.64078784,-0.7649719,,-0.09156777,0.23935126,-0.09993884,0.8313967,0.1505687,0.5348912,-0.5039935,0.60972846,0.61173666,-0.23402998,-0.77817756,0.5828119,,-0.0154562965,0.41296598,-0.35635188,-0.5749988,0.41275007,-0.7064091,-0.8124387,-0.38993368,0.43346858,-0.09653852,0.823158,0.5595455,,0.9871351614491253,0.33070286714004193,0.16917362274000003,0.4267190349910071,-0.13130767627458828,1.0057837832188672,-0.4023164348887296,,-1.2807302971285184,-0.04695421587528502,0.16965065746000002,-0.0834565975068407,0.5036421381354135,-1.0231952653390854,0.8766676029426768,,-0.03261365873507904,-0.08598146393793565,0.08100309464,-0.06541713947960498,,-2.894178e-05,1.1324883e-06,-3.0994415e-06,1.0,1.4021993e-05,1.174584e-05,-1.4021993e-05,1.0,1.1920929e-06,-1.1742115e-05,-1.1920929e-06,1.0,187,0.561,0,0,0.0,False,-0.2574949268828224,1.0507702725789931
0.587899019010365,10:59:07.759479,10:58:03.835375,0,,0.12240296,0.0015975386,0.032787755,-0.78799695,-0.24924877,-0.56297046,-0.57615876,-0.023793936,0.8169913,-0.21702944,0.96814716,-0.12485728,,0.053549103,-0.035108946,0.03887725,0.67818266,-0.29635063,0.6724912,-0.61150897,0.2799571,0.74005467,-0.40758422,-0.9131267,0.008640856,,0.07729179,1.3283308,0.45411754,0.9978803,0.045576826,-0.04645108,0.0050997036,-0.766364,-0.6423864,-0.06487636,0.64078784,-0.7649719,,-0.09153969,0.23941612,-0.100025006,0.829893,0.15647306,0.5355313,-0.5078856,0.60917825,0.60906005,-0.23093252,-0.7774433,0.58502316,,-0.015462657,0.41296902,-0.35636374,-0.5742525,0.4126777,-0.70705813,-0.81297076,-0.38925415,0.43308172,-0.096502155,0.82351583,0.55902505,,0.9876216936202015,0.33069514440716774,0.16907769728000002,0.42273492606480106,-0.12761849078092136,1.0026121423387828,-0.40264312302099825,,-1.280745742594267,-0.04700827500540459,0.16964158343000002,-0.08240814778941807,0.503778774635179,-1.0232250045026414,0.8765042588765424,,-0.03261365873507904,-0.08598146393793565,0.08100309464,-0.06541713947960498,,-2.894178e-05,1.1324883e-06,-3.0994415e-06,1.0,1.4021993e-05,1.174584e-05,-1.4021993e-05,1.0,1.1920929e-06,-1.1742115e-05,-1.1920929e-06,1.0,198,0.594,0,0,0.0,False,-0.25815028178655464,1.0506254319766548
0.6172477529617026,10:59:07.789966,10:58:03.835375,0,,0.12235492,0.0015986115,0.032888785,-0.7849002,-0.2594175,-0.56270266,-0.57706046,-0.02472645,0.816327,-0.22568317,0.96544874,-0.13029182,,0.053547338,-0.035103135,0.038884163,0.6784671,-0.2966203,0.6720853,-0.6112993,0.27942815,0.7404277,-0.4074253,-0.9132011,0.008258849,,0.07729179,1.3283308,0.45411754,0.9978803,0.045576826,-0.04645108,0.0050997036,-0.766364,-0.6423864,-0.06487636,0.64078784,-0.7649719,,-0.091501616,0.23948452,-0.10010491,0.8276797,0.16688432,0.53581333,-0.5142773,0.6077322,0.60512847,-0.22464456,-0.7764092,0.5888324,,-0.015462288,0.4129782,-0.3563647,-0.57456875,0.41298497,-0.70662165,-0.8127536,-0.38964134,0.43314102,-0.09644829,0.8231786,0.5595308,,0.9882781259145105,0.3304943533524379,0.1689843644,0.41644422776026535,-0.12024011979358759,0.9975757204208626,-0.4010096823596555,,-1.280784356258638,-0.04696966134103347,0.16963639827000002,-0.08282752767638712,0.503778774635179,-1.0228166108019385,0.8756875385458711,,-0.03261365873507904,-0.08598146393793565,0.08100309464,-0.06541713947960498,,-2.894178e-05,1.1324883e-06,-3.0994415e-06,1.0,1.4021993e-05,1.174584e-05,-1.4021993e-05,1.0,1.1920929e-06,-1.1742115e-05,-1.1920929e-06,1.0,205,0.614,0,0,0.0,False,-0.25767366003838577,1.050963393382111
0.6477294309297577,10:59:07.810972,10:58:03.835375,0,,0.12234117,0.0016014427,0.032982454,-0.78338534,-0.26682353,-0.5613489,-0.5760641,-0.027400404,0.8169451,-0.23336141,0.96335584,-0.13224235,,0.053542443,-0.035095774,0.038886547,0.67859775,-0.2963703,0.6720636,-0.61125433,0.27948174,0.74044454,-0.40727514,-0.9132659,0.008497894,,0.07729179,1.3283308,0.45411754,0.9978803,0.045576826,-0.04645108,0.0050997036,-0.766364,-0.6423864,-0.06487636,0.64078784,-0.7649719,,-0.09149701,0.23954645,-0.1001764,0.8268623,0.1745676,0.534626,-0.5184384,0.605052,0.60426295,-0.21799178,-0.7768129,0.5907972,,-0.015458222,0.41298577,-0.35636154,-0.57472265,0.41274473,-0.70663685,-0.812637,-0.38968435,0.43332118,-0.0965143,0.8232787,0.55937207,,0.9887105989554671,0.3303707896264503,0.16889880926,0.41287949872102847,-0.11286174880625381,0.9953980544078624,-0.4041132196162067,,-1.2807920789915122,-0.04690787947803967,0.16963380569000003,-0.08303721761987165,0.5036421381354135,-1.023113586598945,0.8765042588765425,,-0.03261365873507904,-0.08598146393793565,0.08100309464,-0.06541713947960498,,-2.894178e-05,1.1324883e-06,-3.0994415e-06,1.0,1.4021993e-05,1.174584e-05,-1.4021993e-05,1.0,1.1920929e-06,-1.1742115e-05,-1.1920929e-06,1.0,216,0.647,0,0,0.0,False,-0.25695872741613357,1.0506737121774343
0.6687475319486111,10:59:07.840914,10:58:03.907651,0,,0.12227948,0.0016323328,0.03314215,-0.78065354,-0.27668777,-0.5603783,-0.574577,-0.034975678,0.8177029,-0.24584797,0.9603232,-0.13167453,,0.053482525,-0.035099603,0.0388757,0.6785569,-0.2962384,0.672163,-0.61128664,0.27965537,0.7403523,-0.4072947,-0.91325545,0.008675396,,0.07731941,1.3283263,0.45411053,0.99788034,0.045568474,-0.04645808,0.0050888285,-0.76636446,-0.6423859,-0.06487636,0.64078784,-0.7649719,,-0.09147898,0.23967652,-0.10029016,0.82526624,0.18500206,0.5335821,-0.52534103,0.59821355,0.60510933,-0.20724957,-0.7796889,0.5908747,,-0.015424282,0.412984,-0.35636762,-0.5746851,0.41260564,-0.70674866,-0.8126627,-0.38957608,0.43337026,-0.096521355,0.82339966,0.5591928,,0.9893361403182792,0.33030128503058226,0.16874973591,0.4065888004164927,-0.10056446382736416,0.9955802855927548,-0.3998662738967156,,-1.2807998017243865,-0.046884711279417,0.16963250940000002,-0.08303721761987165,0.5036421381354135,-1.0233586228193667,0.8766676029426766,,-0.03261365873507904,-0.08598146393793565,0.08100309464,-0.06541713947960498,,-9.3504786e-07,1.1920929e-06,3.8146973e-06,1.0,5.6885183e-06,4.760921e-06,-5.684793e-06,1.0,4.7683716e-07,-4.760921e-06,-5.066395e-07,1.0,227,0.68,0,0,0.0,False,-0.2566608388235285,1.0507702725789931
0.6986756379483268,10:59:07.870971,10:58:03.907651,0,,0.12231012,0.0016566366,0.033301055,-0.7767113,-0.29097134,-0.558619,-0.5731543,-0.041252077,0.8184085,-0.2611776,0.9558421,-0.13473052,,0.05348728,-0.035105236,0.03887695,0.6782713,-0.2963727,0.672392,-0.61157537,0.27956527,0.7401478,-0.40733695,-0.91323954,0.008366704,,0.07731941,1.3283263,0.45411053,0.99788034,0.045568474,-0.04645808,0.0050888285,-0.76636446,-0.6423859,-0.06487636,0.64078784,-0.7649719,,-0.09152571,0.23979163,-0.10039666,0.8227466,0.19991243,0.5320931,-0.5341749,0.59189856,0.6035837,-0.19428128,-0.7808272,0.59377074,,-0.015428842,0.41298017,-0.35637212,-0.57438046,0.41274098,-0.7069172,-0.8128552,-0.38960946,0.43297908,-0.09671344,0.8233161,0.5592827,,0.9898226724893554,0.33025494863333693,0.16862140320000002,0.3988302725075653,-0.08703745035058556,0.9926361084007247,-0.40019296202898413,,-1.2807998017243865,-0.04692332494378812,0.16963121311,-0.0826178377329026,0.503505501635648,-1.0230021686952484,0.8761775707442739,,-0.03261365873507904,-0.08598146393793565,0.08100309464,-0.06541713947960498,,-9.3504786e-07,1.1920929e-06,3.8146973e-06,1.0,5.6885183e-06,4.760921e-06,-5.684793e-06,1.0,4.7683716e-07,-4.760921e-06,-5.066395e-07,1.0,238,0.713,0,0,0.0,False,-0.2564821056679656,1.0503840309727575
0.7287571629276499,10:59:07.901992,10:58:03.981325,0,,0.12235373,0.0016993731,0.03347303,-0.7693696,-0.31086248,-0.5580635,-0.5727903,-0.051052064,0.8181106,-0.2828102,0.94908285,-0.13878107,,0.05350823,-0.0351137,0.038885713,0.6748618,-0.29631555,0.675839,-0.6148453,0.28067064,0.7370138,-0.4080767,-0.912919,0.0072255135,,0.07731941,1.3283263,0.45411053,0.99788034,0.045568474,-0.04645808,0.0050888285,-0.76636446,-0.6423859,-0.06487636,0.64078784,-0.7649719,,-0.0915874,0.23992796,-0.10050115,0.81749517,0.22077298,0.5319407,-0.5480842,0.5819587,0.6007727,-0.17693314,-0.78267705,0.5967506,,-0.015450349,0.41297722,-0.35638288,-0.5707194,0.41257432,-0.70997304,-0.81518984,-0.38861305,0.42947114,-0.098716035,0.82387036,0.5581154,,0.9904482138521676,0.3301159394416009,0.16848529275000002,0.3854101161245557,-0.06804497688318935,0.9891557945875848,-0.4010096823596556,,-1.2807611880600154,-0.04695421587528502,0.16962213908,-0.07758527908927401,0.5017292271386973,-1.0214720572070546,0.8760142266781396,,-0.03261365873507904,-0.08598146393793565,0.08100309464,-0.06541713947960498,,-9.3504786e-07,1.1920929e-06,3.8146973e-06,1.0,5.6885183e-06,4.760921e-06,-5.684793e-06,1.0,4.7683716e-07,-4.760921e-06,-5.066395e-07,1.0,249,0.745,0,0,0.0,False,-0.25725661600873906,1.05105995378367
0.7597205559723079,10:59:07.934558,10:58:03.981325,0,,0.12241317,0.0017293245,0.033604473,-0.76318556,-0.3273804,-0.5571086,-0.5707705,-0.06264874,0.8187161,-0.3029338,0.9428135,-0.13904649,,0.05351104,-0.035111256,0.038892567,0.6742777,-0.29579517,0.67664945,-0.61551833,0.28115493,0.736267,-0.40802747,-0.9129387,0.007509023,,0.07731941,1.3283263,0.45411053,0.99788034,0.045568474,-0.04645808,0.0050888285,-0.76636446,-0.6423859,-0.06487636,0.64078784,-0.7649719,,-0.09166038,0.24002759,-0.10058148,0.81317747,0.2383119,0.5309895,-0.55965793,0.570612,0.6009866,-0.15976672,-0.7858813,0.59738195,,-0.015454286,0.41298327,-0.35638583,-0.5701121,0.41203612,-0.7107731,-0.8155483,-0.38835874,0.42902035,-0.09926307,0.8242595,0.5574434,,0.9908420732287531,0.32985336652387726,0.16838029326,0.3745062390633605,-0.049462412915089446,0.9889501691305943,-0.4014997145580582,,-1.2807766335257638,-0.04692332494378812,0.16961565763000003,-0.07674651931533592,0.5011826811396356,-1.0217614942535338,0.876830947008811,,-0.03261365873507904,-0.08598146393793565,0.08100309464,-0.06541713947960498,,-9.3504786e-07,1.1920929e-06,3.8146973e-06,1.0,5.6885183e-06,4.760921e-06,-5.684793e-06,1.0,4.7683716e-07,-4.760921e-06,-5.066395e-07,1.0,260,0.778,0,0,0.0,False,-0.25624379479388093,1.0507702725789931
0.7923214099137112,10:59:07.970919,10:58:03.981325,0,,0.1224339,0.0017290264,0.033720136,-0.7583609,-0.3382742,-0.55718875,-0.5686221,-0.07459527,0.81920964,-0.31868118,0.93808645,-0.1357801,,0.053525284,-0.035112448,0.038899362,0.6724178,-0.29527617,0.6787238,-0.6173476,0.28214052,0.734356,-0.4083332,-0.91280264,0.0074281394,,0.07731941,1.3283263,0.45411053,0.99788034,0.045568474,-0.04645808,0.0050888285,-0.76636446,-0.6423859,-0.06487636,0.64078784,-0.7649719,,-0.09169202,0.24009758,-0.10067042,0.80978805,0.25012627,0.5307355,-0.56827295,0.55942476,0.6034151,-0.14597662,-0.79024094,0.5951555,,-0.015469298,0.4129851,-0.35639054,-0.5681269,0.41144773,-0.7127009,-0.8167865,-0.38764146,0.42731,-0.100456685,0.8248908,0.55629456,,0.991251378071087,0.329467229880166,0.16827659006,0.36632833126746406,-0.034432397940890994,0.9921314816105543,-0.4016630586241926,,-1.280784356258638,-0.04692332494378812,0.16961047247000002,-0.07402055005003709,0.500089589141512,-1.0215235809450869,0.8761775707442738,,-0.03261365873507904,-0.08598146393793565,0.08100309464,-0.06541713947960498,,-9.3504786e-07,1.1920929e-06,3.8146973e-06,1.0,5.6885183e-06,4.760921e-06,-5.684793e-06,1.0,4.7683716e-07,-4.760921e-06,-5.066395e-07,1.0,271,0.811,0,0,0.0,False,-0.25672041654204936,1.05105995378367
0.8287001089192927,10:59:08.001976,10:58:03.981325,0,,0.122379646,0.0016867816,0.03379117,-0.7549847,-0.3446684,-0.5578546,-0.5695269,-0.07700318,0.81835794,-0.3250187,0.935561,-0.13816172,,0.053527035,-0.035120286,0.038902104,0.672684,-0.2949762,0.6785904,-0.6171996,0.28215188,0.734476,-0.40811843,-0.9128961,0.0077397227,,0.07731941,1.3283263,0.45411053,0.99788034,0.045568474,-0.04645808,0.0050888285,-0.76636446,-0.6423859,-0.06487636,0.64078784,-0.7649719,,-0.09164299,0.24011424,-0.10075461,0.8070759,0.2568328,0.5316628,-0.5732482,0.5565853,0.60133123,-0.14147414,-0.79009473,0.5964356,,-0.015470992,0.41298118,-0.3563979,-0.56843007,0.41116488,-0.7126224,-0.8165719,-0.38774136,0.42762953,-0.100486934,0.8249849,0.55614954,,0.9916915738449177,0.32903475683920946,0.16819233121000002,0.36087639273686645,-0.028966937950273376,0.9901251276669144,-0.4003563060951184,,-1.2807920789915122,-0.04696966134103347,0.16960658360000003,-0.07443992993700614,0.500089589141512,-1.0219319746457898,0.8769942910749453,,-0.03261365873507904,-0.08598146393793565,0.08100309464,-0.06541713947960498,,-9.3504786e-07,1.1920929e-06,3.8146973e-06,1.0,5.6885183e-06,4.760921e-06,-5.684793e-06,1.0,4.7683716e-07,-4.760921e-06,-5.066395e-07,1.0,282,0.845,0,0,0.0,False,-0.25624379479388093,1.0506737121774343
0.8597467240178958,10:59:08.032994,10:58:04.090173,0,,0.12235959,0.0016876608,0.033913553,-0.7465808,-0.36315495,-0.55743665,-0.57005966,-0.082788736,0.81742156,-0.34300017,0.9280434,-0.14521152,,0.053529896,-0.035141684,0.03890562,0.67265856,-0.2950482,0.6785844,-0.6172836,0.28194773,0.73448384,-0.4080334,-0.912936,0.0075259805,,0.07731941,1.3283263,0.45411053,0.99788034,0.045568474,-0.04645808,0.0050888285,-0.76636446,-0.6423859,-0.06487636,0.64078784,-0.7649719,,-0.09163476,0.24019319,-0.1008499,0.8004593,0.27619097,0.53196186,-0.5856753,0.5491537,0.5961667,-0.12747297,-0.78876406,0.60133344,,-0.015473126,0.412968,-0.35641524,-0.56841284,0.41125345,-0.71258503,-0.816569,-0.38790312,0.42748833,-0.10060792,0.8248647,0.55630594,,0.9923480061392268,0.3285096110037622,0.16808603543000003,0.3476659262973414,-0.013253740477247724,0.9833562955122274,-0.40084633829352145,,-1.2807611880600154,-0.04709322506702106,0.16959880586,-0.07443992993700614,0.500089589141512,-1.0217686171655087,0.875687538545871,,-0.03261365873507904,-0.08598146393793565,0.08100309464,-0.06541713947960498,,-9.3504786e-07,1.1920929e-06,3.8146973e-06,1.0,5.6885183e-06,4.760921e-06,-5.684793e-06,1.0,4.7683716e-07,-4.760921e-06,-5.066395e-07,1.0,293,0.878,0,0,0.0,False,-0.25642252794944387,1.0510116735828905
0.8907113169552758,10:59:08.064669,10:58:04.090173,0,,0.12242465,0.0017725974,0.034067333,-0.7385125,-0.38178757,-0.5557315,-0.5649813,-0.09940261,0.8190942,-0.3679611,0.9188893,-0.14229277,,0.053553715,-0.03515575,0.03891301,0.6706204,-0.2949153,0.68065625,-0.6194198,0.28223327,0.73257315,-0.40815076,-0.9128906,0.0065948963,,0.07731941,1.3283263,0.45411053,0.99788034,0.045568474,-0.04645808,0.0050888285,-0.76636446,-0.6423859,-0.06487636,0.64078784,-0.7649719,,-0.09171791,0.24034889,-0.100912705,0.79459417,0.29633078,0.5299133,-0.59807277,0.5323149,0.5991242,-0.104541846,-0.79298735,0.6002017,,-0.015496942,0.41295967,-0.35642877,-0.5662624,0.4110993,-0.7143838,-0.81786895,-0.3876887,0.4251915,-0.10216259,0.8250423,0.55575895,,0.9929349338376678,0.32824703808603856,0.16800048029,0.335503909575239,0.011067556481000676,0.9848420598309511,-0.4036231874178039,,-1.2807766335257638,-0.04717817512863753,0.16959232441000002,-0.07150427072822281,0.4985865876440922,-1.0204613414847075,0.8763409148104082,,-0.03261365873507904,-0.08598146393793565,0.08100309464,-0.06541713947960498,,-9.3504786e-07,1.1920929e-06,3.8146973e-06,1.0,5.6885183e-06,4.760921e-06,-5.684793e-06,1.0,4.7683716e-07,-4.760921e-06,-5.066395e-07,1.0,304,0.91,0,0,0.0,False,-0.25588632848275505,1.0505771517758753
0.9224350770236924,10:59:08.107995,10:58:04.090173,0,,0.12249705,0.0018963516,0.034296572,-0.72672933,-0.4061322,-0.5540046,-0.5573147,-0.12288615,0.8211573,-0.40157795,0.9055141,-0.1370385,,0.053560093,-0.03516657,0.03891629,0.6708749,-0.29442117,0.6806195,-0.61936986,0.2822641,0.7326035,-0.40780833,-0.9130405,0.007008195,,0.07731941,1.3283263,0.45411053,0.99788034,0.045568474,-0.04645808,0.0050888285,-0.76636446,-0.6423859,-0.06487636,0.64078784,-0.7649719,,-0.09181728,0.24058107,-0.101009235,0.7857465,0.3228585,0.5276029,-0.61421454,0.5080531,0.6038398,-0.07309545,-0.7985264,0.59750533,,-0.015503113,0.41295335,-0.35643828,-0.5665674,0.4106321,-0.7144107,-0.8176339,-0.38784194,0.4255037,-0.10235295,0.82520294,0.5554853,,0.9938462163168263,0.3279149605724469,0.16787733274000002,0.318728714096477,0.044680135423299024,0.9874910318933583,-0.40264312302099836,,-1.2807998017243865,-0.047247679724505554,0.16958843554000003,-0.07192365061519186,0.4985865876440922,-1.0211964501459725,0.8760142266781397,,-0.03261365873507904,-0.08598146393793565,0.08100309464,-0.06541713947960498,,-9.3504786e-07,1.1920929e-06,3.8146973e-06,1.0,5.6885183e-06,4.760921e-06,-5.684793e-06,1.0,4.7683716e-07,-4.760921e-06,-5.066395e-07,1.0,315,0.943,0,0,0.0,False,-0.25636295023092304,1.0507702725789931
0.9657749659381807,10:59:08.135083,10:58:04.204233,0,,0.12244433,0.0019252747,0.03448382,-0.71782535,-0.42235258,-0.5534845,-0.555939,-0.13085186,0.8208591,-0.41911644,0.89693713,-0.14087346,,0.053555787,-0.03517679,0.038932502,0.67102075,-0.29439715,0.6804861,-0.61922514,0.2822625,0.7327265,-0.40778825,-0.91304874,0.007105738,,0.07731941,1.3283263,0.45411053,0.99788034,0.045568474,-0.04645808,0.0050888285,-0.76636446,-0.6423859,-0.06487636,0.64078784,-0.7649719,,-0.09178402,0.24072532,-0.101138696,0.77850574,0.3401609,0.52746505,-0.62493205,0.49805507,0.6011665,-0.058213312,-0.79764134,0.60031617,,-0.015500702,0.41295794,-0.35645723,-0.56672263,0.4106097,-0.71430045,-0.81753856,-0.38785222,0.42567757,-0.102255695,0.82520926,0.5554939,,0.9947806669946075,0.32755199212735836,0.16774381487,0.3065666973743746,0.06052996939609012,0.9825710715983486,-0.39872286543377566,,-1.2808075244572608,-0.047294016121750895,0.16957028748000003,-0.07213334055867637,0.49872322414385767,-1.021307868049669,0.875687538545871,,-0.03261365873507904,-0.08598146393793565,0.08100309464,-0.06541713947960498,,-9.3504786e-07,1.1920929e-06,3.8146973e-06,1.0,5.6885183e-06,4.760921e-06,-5.684793e-06,1.0,4.7683716e-07,-4.760921e-06,-5.066395e-07,1.0,326,0.976,0,0,0.0,False,-0.25683957197909146,1.0504805913743163
0.9928611950017512,10:59:08.163736,10:58:04.204233,0,,0.12234855,0.0019384325,0.034635574,-0.70885444,-0.4374836,-0.55329317,-0.55602866,-0.13607123,0.81994927,-0.43400168,0.88887167,-0.1467987,,0.053553253,-0.035192765,0.03895235,0.67086226,-0.29441082,0.68063635,-0.6194425,0.2821429,0.73258877,-0.40771872,-0.91308135,0.0069082975,,0.07731941,1.3283263,0.45411053,0.99788034,0.045568474,-0.04645808,0.0050888285,-0.76636446,-0.6423859,-0.06487636,0.64078784,-0.7649719,,-0.09170384,0.24083929,-0.10125257,0.77101004,0.35620943,0.52788097,-0.635137,0.49040365,0.59674555,-0.046308372,-0.79537356,0.60434794,,-0.015500249,0.41296068,-0.35648268,-0.5665642,0.41063482,-0.7144117,-0.8176217,-0.3879575,0.42542183,-0.10246835,0.8251473,0.55554676,,0.9958077904668794,0.32703456902478534,0.16762974135000003,0.29419499070878763,0.07392034637310328,0.9757360540431274,-0.40068299422738696,,-1.2808075244572608,-0.047363520717618915,0.16954695426000002,-0.07192365061519186,0.4985865876440922,-1.021114771405832,0.8758508826120053,,-0.03261365873507904,-0.08598146393793565,0.08100309464,-0.06541713947960498,,-9.3504786e-07,1.1920929e-06,3.8146973e-06,1.0,5.6885183e-06,4.760921e-06,-5.684793e-06,1.0,4.7683716e-07,-4.760921e-06,-5.066395e-07,1.0,334,0.999,0,0,0.0,False,-0.25624379479388093,1.050963393382111
1.021522577968426,10:59:08.193632,10:58:04.270428,0,,0.12227778,0.0020004064,0.034821868,-0.6960508,-0.4583476,-0.5526579,-0.5517291,-0.1511254,0.82021713,-0.45946518,0.8758303,-0.14769277,,0.05354905,-0.035218485,0.038978755,0.67083055,-0.2944106,0.6806677,-0.61960286,0.2818604,0.73256195,-0.40752724,-0.91316867,0.0066628456,,0.07731941,1.3283263,0.45411053,0.99788034,0.045568474,-0.04645808,0.0050888285,-0.76636446,-0.6423859,-0.06487636,0.64078784,-0.7649719,,-0.09165402,0.24101026,-0.10136133,0.7605184,0.37887022,0.52732265,-0.64889973,0.47256017,0.5963355,-0.023257948,-0.7957036,0.6052395,,-0.015498583,0.4129613,-0.35651973,-0.56655234,0.41066357,-0.7144045,-0.81759846,-0.388218,0.42522877,-0.102718726,0.8250104,0.5557037,,0.9970279822610069,0.3262777412031113,0.16752344557,0.2776294851735102,0.09892482583017889,0.9723357556159192,-0.4011730264257898,,-1.2807998017243865,-0.04747936171073228,0.16951454701000002,-0.07192365061519186,0.4984499511443268,-1.020921674761995,0.8760142266781396,,-0.03261365873507904,-0.08598146393793565,0.08100309464,-0.06541713947960498,,-9.3504786e-07,1.1920929e-06,3.8146973e-06,1.0,5.6885183e-06,4.760921e-06,-5.684793e-06,1.0,4.7683716e-07,-4.760921e-06,-5.066395e-07,1.0,342,1.024,0,0,0.0,False,-0.2561246393568388,1.0502391903704191
1.0514194120187312,10:59:08.222855,10:58:04.270428,0,,0.12224743,0.002056256,0.034950987,-0.6887972,-0.47188663,-0.5503466,-0.5443739,-0.16467485,0.82252,-0.47876447,0.86614394,-0.1434552,,0.05354757,-0.035239406,0.038996875,0.67078745,-0.29436445,0.6807301,-0.61983347,0.28149706,0.7325065,-0.40724733,-0.9132956,0.006367624,,0.07731941,1.3283263,0.45411053,0.99788034,0.045568474,-0.04645808,0.0050888285,-0.76636446,-0.6423859,-0.06487636,0.64078784,-0.7649719,,-0.091638625,0.24113703,-0.10142772,0.7548218,0.3938597,0.52451754,-0.6559215,0.45728508,0.6005475,-0.0033225776,-0.7973487,0.6035098,,-0.015498634,0.41295922,-0.3565474,-0.56653845,0.41065747,-0.71441907,-0.8175624,-0.38856986,0.42497668,-0.10308189,0.8248478,0.55587786,,0.9978543146785489,0.32565992257317333,0.16746381623,0.26924188743412925,0.12010348329382216,0.9731169821140382,-0.40198974675646115,,-1.2807920789915122,-0.04757203450522298,0.16949121379,-0.07192365061519186,0.4981766781447959,-1.0206988389546021,0.8763409148104082,,-0.03261365873507904,-0.08598146393793565,0.08100309464,-0.06541713947960498,,-9.3504786e-07,1.1920929e-06,3.8146973e-06,1.0,5.6885183e-06,4.760921e-06,-5.684793e-06,1.0,4.7683716e-07,-4.760921e-06,-5.066395e-07,1.0,350,1.049,0,0,0.0,False,-0.25672041654204936,1.0507219923782136
1.0806091289268807,10:59:08.244659,10:58:04.270428,0,,0.12213814,0.0020923615,0.03511527,-0.675743,-0.49056852,-0.55019444,-0.5384862,-0.18119568,0.8229221,-0.5033926,0.85235596,-0.14172262,,0.05354645,-0.035264768,0.039028585,0.6707509,-0.2943372,0.6807779,-0.6200738,0.28107557,0.732465,-0.40694165,-0.91343427,0.006020814,,0.07731941,1.3283263,0.45411053,0.99788034,0.045568474,-0.04645808,0.0050888285,-0.76636446,-0.6423859,-0.06487636,0.64078784,-0.7649719,,-0.09154724,0.24127787,-0.10153748,0.74393076,0.41448683,0.5241829,-0.6679546,0.43763182,0.6019261,0.02009133,-0.7979217,0.6024262,,-0.015500819,0.4129633,-0.35658774,-0.5665343,0.41067502,-0.7144123,-0.8175163,-0.38896823,0.42470083,-0.10346966,0.8246513,0.5560973,,0.999128565602796,0.32456329450503346,0.16737307593,0.25351514167278993,0.14565450874995953,0.9715580167959802,-0.40068299422738696,,-1.2808152471901348,-0.04768787549833635,0.16945491767,-0.07192365061519186,0.49790340514526504,-1.0203943244070688,0.8761775707442738,,-0.03261365873507904,-0.08598146393793565,0.08100309464,-0.06541713947960498,,-9.3504786e-07,1.1920929e-06,3.8146973e-06,1.0,5.6885183e-06,4.760921e-06,-5.684793e-06,1.0,4.7683716e-07,-4.760921e-06,-5.066395e-07,1.0,362,1.085,0,0,0.0,False,-0.2564821056679656,1.0499495091657423
1.1023975380230695,10:59:08.280241,10:58:04.338462,0,,0.12196277,0.002072379,0.035246104,-0.66352934,-0.5060708,-0.55101824,-0.5375696,-0.18973777,0.8215952,-0.5203343,0.8413632,-0.14615169,,0.053558335,-0.035282113,0.039072514,0.66858256,-0.2942439,0.68294775,-0.62227076,0.2814653,0.7304495,-0.40715632,-0.91334426,0.005083263,,0.07731941,1.3283263,0.45411053,0.99788034,0.045568474,-0.04645808,0.0050888285,-0.76636446,-0.6423859,-0.06487636,0.64078784,-0.7649719,,-0.091384456,0.24136057,-0.10165967,0.7333621,0.4313314,0.52548385,-0.67896867,0.42561147,0.59821105,0.03437524,-0.79549235,0.6049878,,-0.0155181,0.4129796,-0.3566302,-0.56423736,0.4105475,-0.7163009,-0.8189077,-0.3886434,0.42231098,-0.10500691,0.8248679,0.55548763,,1.0004105392599172,0.3234048845738998,0.16727326160000003,0.23820777579841967,0.16205088872181236,0.9652939187446383,-0.40019296202898413,,-1.2808693063202545,-0.04774965736133014,0.16941084381000002,-0.06877830146292399,0.4965370401476106,-1.0191984666299638,0.875687538545871,,-0.03261365873507904,-0.08598146393793565,0.08100309464,-0.06541713947960498,,-9.3504786e-07,1.1920929e-06,3.8146973e-06,1.0,5.6885183e-06,4.760921e-06,-5.684793e-06,1.0,4.7683716e-07,-4.760921e-06,-5.066395e-07,1.0,370,1.11,0,0,0.0,False,-0.2564821056679656,1.0506737121774343
1.1380197319667786,10:59:08.311144,10:58:04.338462,0,,0.12178056,0.0020364374,0.035353288,-0.6538791,-0.51995814,-0.5496232,-0.53536737,-0.19534364,0.82171935,-0.5346251,0.8315554,-0.15063745,,0.05355134,-0.03529448,0.039110243,0.66798604,-0.2940288,0.68362385,-0.6229668,0.28156367,0.729818,-0.40707105,-0.9133831,0.0049102604,,0.07731941,1.3283263,0.45411053,0.99788034,0.045568474,-0.04645808,0.0050888285,-0.76636446,-0.6423859,-0.06487636,0.64078784,-0.7649719,,-0.09121189,0.2414168,-0.10177388,0.7250324,0.4463266,0.5245194,-0.6870891,0.4164556,0.5953767,0.0472934,-0.7920589,0.6086099,,-0.015516113,0.4129979,-0.3566661,-0.56362176,0.41033536,-0.71690685,-0.8192557,-0.3886317,0.42164615,-0.10559639,0.82497895,0.5552109,,1.001638453786919,0.32216924731402385,0.16718511388,0.22646513896328632,0.1769442671962454,0.9580500916501622,-0.40084633829352123,,-1.2808924745188772,-0.04776510282707859,0.16936936253,-0.06793954168898589,0.49599049414854884,-1.0189978312356,0.8758508826120053,,-0.03261365873507904,-0.08598146393793565,0.08100309464,-0.06541713947960498,,-9.3504786e-07,1.1920929e-06,3.8146973e-06,1.0,5.6885183e-06,4.760921e-06,-5.684793e-06,1.0,4.7683716e-07,-4.760921e-06,-5.066395e-07,1.0,378,1.135,0,0,0.0,False,-0.25588632848275505,1.049804668563404
1.1689293259987608,10:59:08.331561,10:58:04.402798,0,,0.12168802,0.0020407885,0.035421878,-0.6455493,-0.53030723,-0.549582,-0.5333249,-0.20205697,0.821424,-0.54665405,0.8233756,-0.1523884,,0.05355695,-0.0353036,0.03913313,0.6662056,-0.2940277,0.68535936,-0.6248638,0.28156286,0.7281947,-0.4070811,-0.91338384,0.003851384,,0.07731941,1.3283263,0.45411053,0.99788034,0.045568474,-0.04645808,0.0050888285,-0.76636446,-0.6423859,-0.06487636,0.64078784,-0.7649719,,-0.091126606,0.2414717,-0.10182865,0.71780694,0.45769694,0.5246587,-0.6937974,0.407122,0.5940512,0.058295365,-0.7904209,0.60978395,,-0.015524546,0.41300645,-0.35668832,-0.56175536,0.41033444,-0.7183708,-0.82034934,-0.38863283,0.4195134,-0.10704167,0.8249789,0.55493414,,1.0023566679442217,0.3214201422252241,0.16714881776,0.21660971161951365,0.18924155217513502,0.9543934220484482,-0.4024797789548642,,-1.2808924745188772,-0.04776510282707859,0.16934343673000002,-0.0654232623671716,0.49462412915089443,-1.017801973458495,0.8760142266781396,,-0.03261365873507904,-0.08598146393793565,0.08100309464,-0.06541713947960498,,-9.3504786e-07,1.1920929e-06,3.8146973e-06,1.0,5.6885183e-06,4.760921e-06,-5.684793e-06,1.0,4.7683716e-07,-4.760921e-06,-5.066395e-07,1.0,411,1.237,0,0,0.0,False,-0.2561246393568388,1.0505771517758753
1.189333188929595,10:59:08.426653,10:58:04.471874,0,,0.12135139,0.0020834208,0.036019534,-0.6051851,-0.5838329,-0.5411933,-0.5240974,-0.21951813,0.8228813,-0.59922695,0.7816336,-0.1731362,,0.05353768,-0.035354026,0.039255083,0.6643647,-0.29307508,0.68755096,-0.62715346,0.2818096,0.72612804,-0.40656838,-0.9136139,0.0034211278,,0.07731941,1.3283263,0.45411053,0.99788034,0.045568474,-0.04645808,0.0050888285,-0.76636446,-0.6423859,-0.06487636,0.64078784,-0.7649719,,-0.09085081,0.24190949,-0.10228097,0.682278,0.51568514,0.5182332,-0.7232569,0.37258998,0.5814432,0.10675313,-0.7715216,0.6271827,,-0.015520827,0.4130577,-0.35681137,-0.5598847,0.40941426,-0.7203534,-0.8213514,-0.38875476,0.41743454,-0.10913716,0.82537854,0.5539309,,1.005453483826786,0.3193427270820577,0.16676511592,0.16984885422246473,0.2421198775843605,0.9205043909538164,-0.4023164348887297,,-1.2809619791147453,-0.04787322108731774,0.16920732628000001,-0.06290698304535731,0.49271121815417823,-1.0173856251687132,0.875687538545871,,-0.03261365873507904,-0.08598146393793565,0.08100309464,-0.06541713947960498,,-9.3504786e-07,1.1920929e-06,3.8146973e-06,1.0,5.6885183e-06,4.760921e-06,-5.684793e-06,1.0,4.7683716e-07,-4.760921e-06,-5.066395e-07,1.0,419,1.262,0,0,0.0,False,-0.2561842170753601,1.0507219923782136
1.284440294955857,10:59:08.459891,10:58:04.471874,0,,0.12125264,0.0021208078,0.03629586,-0.5953197,-0.5997002,-0.53474677,-0.52128446,-0.21818528,0.82501984,-0.61143845,0.7699058,-0.18272439,,0.053535916,-0.035377152,0.039290845,0.6643469,-0.2928753,0.6876532,-0.62730056,0.281732,0.72603095,-0.40637043,-0.9137019,0.0034467578,,0.07731941,1.3283263,0.45411053,0.99788034,0.045568474,-0.04645808,0.0050888285,-0.76636446,-0.6423859,-0.06487636,0.64078784,-0.7649719,,-0.09078065,0.24212025,-0.10247636,0.6735087,0.53252506,0.5126432,-0.72962654,0.3678057,0.5765103,0.11845309,-0.7623228,0.63626474,,-0.01552311,0.4130663,-0.35685307,-0.5598883,0.40923452,-0.7204527,-0.8213164,-0.3888994,0.41736865,-0.109381974,0.8253995,0.55385125,,1.0065578346278,0.31931955888343505,0.16657845016000003,0.1585255972743004,0.2544171625632501,0.9050859827718616,-0.4023164348887299,,-1.2810005927791164,-0.04798133934755688,0.16916843758000003,-0.06290698304535731,0.4925745816544128,-1.0174375647452978,0.8756875385458711,,-0.03261365873507904,-0.08598146393793565,0.08100309464,-0.06541713947960498,,-9.3504786e-07,1.1920929e-06,3.8146973e-06,1.0,5.6885183e-06,4.760921e-06,-5.684793e-06,1.0,4.7683716e-07,-4.760921e-06,-5.066395e-07,1.0,427,1.286,0,0,0.0,False,-0.2566608388235285,1.0502391903704191
1.3176565959583968,10:59:08.483727,10:58:04.542724,0,,0.12116493,0.0021239072,0.036487773,-0.59210557,-0.6060059,-0.5311947,-0.5205319,-0.2155925,0.82617575,-0.6151891,0.7656871,-0.18779191,,0.053536005,-0.035391785,0.03930849,0.66434133,-0.29282308,0.68768084,-0.62734705,0.28169587,0.72600484,-0.4063078,-0.9137297,0.00344041,,0.07731941,1.3283263,0.45411053,0.99788034,0.045568474,-0.04645808,0.0050888285,-0.76636446,-0.6423859,-0.06487636,0.64078784,-0.7649719,,-0.09071189,0.2422507,-0.1026273,0.6706372,0.5390836,0.50954354,-0.7316867,0.3677806,0.5739094,0.12198496,-0.75771123,0.64108765,,-0.015524989,0.4130681,-0.35687587,-0.5598895,0.40918913,-0.7204776,-0.8213053,-0.38895178,0.41734174,-0.10945933,0.8253973,0.5538392,,1.0073841670453418,0.3194122316779257,0.16642678423,0.15454148834809445,0.258106348056917,0.8970952962234839,-0.4005196501612528,,-1.2810160382448648,-0.048058566676299125,0.16914899323000002,-0.06290698304535731,0.4925745816544128,-1.0174375647452978,0.8756875385458711,,-0.03261365873507904,-0.08598146393793565,0.08100309464,-0.06541713947960498,,-9.3504786e-07,1.1920929e-06,3.8146973e-06,1.0,5.6885183e-06,4.760921e-06,-5.684793e-06,1.0,4.7683716e-07,-4.760921e-06,-5.066395e-07,1.0,435,1.311,0,0,0.0,False,-0.2570778828531757,1.0501909101696396
1.3414570809109136,10:59:08.512367,10:58:04.542724,0,,0.12101382,0.0021373779,0.036837444,-0.5862642,-0.6172701,-0.5246636,-0.5196475,-0.21031123,0.8280916,-0.62149894,0.7581206,-0.19746491,,0.053544305,-0.035421766,0.039328933,0.6643093,-0.29271227,0.6877589,-0.62754077,0.28145316,0.72593164,-0.40606093,-0.91384,0.0032829344,,0.07731941,1.3283263,0.45411053,0.99788034,0.045568474,-0.04645808,0.0050888285,-0.76636446,-0.6423859,-0.06487636,0.64078784,-0.7649719,,-0.09059561,0.2424936,-0.10289703,0.66539156,0.55077356,0.5038874,-0.73548967,0.3682207,0.56874293,0.12770678,-0.7490407,0.6500992,,-0.01553453,0.41305974,-0.35691085,-0.5598837,0.4091099,-0.7205271,-0.8212675,-0.389216,0.4171698,-0.1097724,0.8253121,0.55390435,,1.0088514862914446,0.3196902500613978,0.16615326704000002,0.1472023403261361,0.2639817175468309,0.8821761625871081,-0.4021530908225953,,-1.2810392064434875,-0.048236189532406284,0.16912566001,-0.06290698304535731,0.49243794515464734,-1.0173261468416013,0.8756875385458711,,-0.03261365873507904,-0.08598146393793565,0.08100309464,-0.06541713947960498,,-9.3504786e-07,1.1920929e-06,3.8146973e-06,1.0,5.6885183e-06,4.760921e-06,-5.684793e-06,1.0,4.7683716e-07,-4.760921e-06,-5.066395e-07,1.0,443,1.335,0,0,0.0,False,-0.25725661600873906,1.0503840309727575
1.370136200916022,10:59:08.535917,10:58:04.609809,0,,0.12087895,0.0021463186,0.037079096,-0.582843,-0.62405556,-0.52043116,-0.5205747,-0.20501304,0.8288375,-0.6239359,0.75400555,-0.2053771,,0.053552262,-0.035440452,0.03934008,0.66429996,-0.29262987,0.6878031,-0.62761533,0.28139463,0.7258898,-0.40596116,-0.9138844,0.0032713413,,0.07731941,1.3283263,0.45411053,0.99788034,0.045568474,-0.04645808,0.0050888285,-0.76636446,-0.6423859,-0.06487636,0.64078784,-0.7649719,,-0.09048496,0.24266407,-0.10308511,0.6622633,0.5576793,0.50040096,-0.7380528,0.37040427,0.5639847,0.12917192,-0.7428287,0.6569019,,-0.015542988,0.41305304,-0.35693136,-0.5598851,0.40903848,-0.7205666,-0.82125,-0.38930005,0.4171258,-0.10989609,0.8253078,0.5538861,,1.0100253416883267,0.3199296547804988,0.16595882354000002,0.14237947162599204,0.26548471904425075,0.87114911682958,-0.40215309082259565,,-1.2810623746421101,-0.04835975325839388,0.16911399340000002,-0.06290698304535731,0.49243794515464734,-1.0173261468416013,0.8756875385458711,,-0.03261365873507904,-0.08598146393793565,0.08100309464,-0.06541713947960498,,-9.3504786e-07,1.1920929e-06,3.8146973e-06,1.0,5.6885183e-06,4.760921e-06,-5.684793e-06,1.0,4.7683716e-07,-4.760921e-06,-5.066395e-07,1.0,459,1.384,0,0,0.0,False,-0.25630337251240265,1.0504805913743163
1.39369486796204,10:59:08.575566,10:58:04.609809,0,,0.12059438,0.0022171289,0.037550613,-0.5724496,-0.6393227,-0.51338863,-0.52168113,-0.19906488,0.8295915,-0.6325744,0.74272454,-0.2195679,,0.05358632,-0.03547261,0.039359093,0.66278833,-0.29241616,0.68935055,-0.6293694,0.28125462,0.7244239,-0.4057162,-0.9139959,0.0023743808,,0.07731941,1.3283263,0.45411053,0.99788034,0.045568474,-0.04645808,0.0050888285,-0.76636446,-0.6423859,-0.06487636,0.64078784,-0.7649719,,-0.09025013,0.24304007,-0.10341946,0.6528016,0.57367504,0.49471918,-0.74528325,0.3694223,0.55504966,0.13565785,-0.73104316,0.6687098,,-0.015577624,0.41303846,-0.35696515,-0.55833,0.408852,-0.7218779,-0.82210517,-0.38950723,0.4152436,-0.11140349,0.8253025,0.5535929,,1.012550675338198,0.32036985055432954,0.16561789927,0.12874962529949796,0.2721799075327574,0.8501706789217485,-0.4031331552194011,,-1.2811396019708523,-0.04857598977887217,0.16909714163,-0.060810083610512065,0.4912082166567584,-1.0163233857083336,0.8756875385458711,,-0.03261365873507904,-0.08598146393793565,0.08100309464,-0.06541713947960498,,-9.3504786e-07,1.1920929e-06,3.8146973e-06,1.0,5.6885183e-06,4.760921e-06,-5.684793e-06,1.0,4.7683716e-07,-4.760921e-06,-5.066395e-07,1.0,476,1.438,1,1,0.022,False,-0.25624379479388093,1.0499977893665218
1.4333424599608406,10:59:08.627404,10:58:04.681600,0,,0.12020931,0.0024270415,0.038188487,-0.5627602,-0.66531825,-0.49056354,-0.51104283,-0.18642893,0.8390944,-0.64972013,0.72290796,-0.23509136,,0.053603128,-0.03549353,0.039388597,0.6626337,-0.29230583,0.6895459,-0.62970066,0.28098986,0.7242387,-0.40545452,-0.9141127,0.0021280944,,0.07731941,1.3283263,0.45411053,0.99788034,0.045568474,-0.04645808,0.0050888285,-0.76636446,-0.6423859,-0.06487636,0.64078784,-0.7649719,,-0.08993742,0.24363731,-0.10379991,0.64433146,0.60085815,0.4730819,-0.7486447,0.36931622,0.5505784,0.15610272,-0.70892525,0.68779135,,-0.015597423,0.41304153,-0.35699964,-0.5581976,0.40877542,-0.7220236,-0.8221369,-0.38979143,0.41491398,-0.11183198,0.8252062,0.55364996,,1.0164815463711785,0.32087955092402837,0.16524975291000002,0.1178457482383027,0.29294865549710436,0.8157559071698121,-0.40149971455805844,,-1.2812477202310915,-0.04872272170348243,0.16907121583,-0.06060039366702753,0.4909349436572275,-1.0160188711608003,0.8755241944797367,,-0.03261365873507904,-0.08598146393793565,0.08100309464,-0.06541713947960498,,-9.3504786e-07,1.1920929e-06,3.8146973e-06,1.0,5.6885183e-06,4.760921e-06,-5.684793e-06,1.0,4.7683716e-07,-4.760921e-06,-5.066395e-07,1.0,484,1.462,1,1,0.046,False,-0.257435349164302,1.0502391903704191
1.4851837819442153,10:59:08.656670,10:58:04.681600,0,,0.120090194,0.0024528652,0.03832978,-0.56102335,-0.6721054,-0.48324645,-0.50985974,-0.17934483,0.8413552,-0.6521472,0.7184078,-0.2420628,,0.053605102,-0.035495408,0.039394796,0.66263884,-0.29227918,0.6895523,-0.62970674,0.28099227,0.72423255,-0.4054369,-0.9141204,0.0021460652,,0.07731941,1.3283263,0.45411053,0.99788034,0.045568474,-0.04645808,0.0050888285,-0.76636446,-0.6423859,-0.06487636,0.64078784,-0.7649719,,-0.0898336,0.24375676,-0.103898756,0.6427836,0.6077232,0.46637088,-0.74940544,0.37264502,0.5472908,0.15881051,-0.70129037,0.69496113,,-0.015600195,0.4130442,-0.35700524,-0.5582049,0.40875015,-0.72203225,-0.8221297,-0.38979894,0.41492113,-0.11184834,0.82521516,0.55363333,,1.0174855016448277,0.3208872736569026,0.16515382745,0.11553915885997292,0.29581802199217855,0.803941397335882,-0.4031331552194013,,-1.2812708884297141,-0.04873816716923088,0.16906603067,-0.06060039366702753,0.4909349436572275,-1.0160188711608003,0.8755241944797367,,-0.03261365873507904,-0.08598146393793565,0.08100309464,-0.06541713947960498,,-9.3504786e-07,1.1920929e-06,3.8146973e-06,1.0,5.6885183e-06,4.760921e-06,-5.684793e-06,1.0,4.7683716e-07,-4.760921e-06,-5.066395e-07,1.0,497,1.503,1,1,0.087,False,-0.25731619372725945,1.050046069567301
1.5144206209806725,10:59:08.696399,10:58:04.753558,0,,0.11985344,0.0025037527,0.038579613,-0.55563843,-0.68842894,-0.4661883,-0.5064578,-0.16442397,0.8464427,-0.65936816,0.7064209,-0.25729993,,0.053606644,-0.035499074,0.03940767,0.66250825,-0.29223874,0.6896948,-0.6298028,0.28112692,0.7240968,-0.4055009,-0.91409194,0.002196014,,0.07731941,1.3283263,0.45411053,0.99788034,0.045568474,-0.04645808,0.0050888285,-0.76636446,-0.6423859,-0.06487636,0.64078784,-0.7649719,,-0.08962428,0.24397449,-0.10407149,0.6379673,0.624439,0.45063692,-0.7517809,0.3782828,0.5401181,0.1668026,-0.68335795,0.7107734,,-0.015603428,0.4130503,-0.35701683,-0.5580611,0.40869838,-0.7221727,-0.82222307,-0.38968968,0.41483873,-0.11187934,0.8252924,0.5535119,,1.0194084621305095,0.3206478689378016,0.16499697636000002,0.10903877061195266,0.30442612147740133,0.7771558142889914,-0.402479778954864,,-1.2813017793612111,-0.048761335367853556,0.16905436406000002,-0.060390703723543014,0.4909349436572275,-1.0160188711608003,0.8755241944797367,,-0.03261365873507904,-0.08598146393793565,0.08100309464,-0.06541713947960498,,-9.3504786e-07,1.1920929e-06,3.8146973e-06,1.0,5.6885183e-06,4.760921e-06,-5.684793e-06,1.0,4.7683716e-07,-4.760921e-06,-5.066395e-07,1.0,510,1.544,1,1,0.128,False,-0.25779281547542787,1.0499977893665218
1.554185549961403,10:59:08.734645,10:58:04.753558,0,,0.11959222,0.002513513,0.03882578,-0.54797196,-0.7031037,-0.45317957,-0.50720745,-0.15152982,0.8483981,-0.6651821,0.6947545,-0.2735854,,0.053603753,-0.035512336,0.039423764,0.66248524,-0.2922108,0.6897288,-0.6299218,0.28094265,0.72406477,-0.40535372,-0.9141575,0.0020503402,,0.07731941,1.3283263,0.45411053,0.99788034,0.045568474,-0.04645808,0.0050888285,-0.76636446,-0.6423859,-0.06487636,0.64078784,-0.7649719,,-0.089388445,0.24416035,-0.10426839,0.63093185,0.6395746,0.43916887,-0.7567146,0.3823926,0.53024423,0.17119585,-0.66687346,0.7252391,,-0.015602224,0.41305247,-0.35703775,-0.55805355,0.40869096,-0.72218275,-0.82220244,-0.38986963,0.41471055,-0.11206867,0.8252111,0.5535948,,1.0212696407531976,0.32031579142420996,0.16481290318000003,0.0989736533246955,0.3094816719687226,0.7518785581558182,-0.40427656368234133,,-1.2813017793612111,-0.048815394497973126,0.16903491971,-0.060390703723543014,0.4907983071574621,-1.015907453257104,0.8755241944797367,,-0.03261365873507904,-0.08598146393793565,0.08100309464,-0.06541713947960498,,-9.3504786e-07,1.1920929e-06,3.8146973e-06,1.0,5.6885183e-06,4.760921e-06,-5.684793e-06,1.0,4.7683716e-07,-4.760921e-06,-5.066395e-07,1.0,523,1.585,1,1,0.169,False,-0.25791197091247,1.0499012289649627
1.592419554013759,10:59:08.776977,10:58:04.820573,0,,0.119365975,0.002635613,0.039133027,-0.53726506,-0.7225069,-0.4351207,-0.49792296,-0.14469093,0.8550657,-0.68074894,0.6760535,-0.28201538,,0.05360622,-0.035522647,0.03943652,0.66248405,-0.29210398,0.6897753,-0.6299571,0.28097808,0.72402036,-0.40530086,-0.91418076,0.0021304488,,0.07731941,1.3283263,0.45411053,0.99788034,0.045568474,-0.04645808,0.0050888285,-0.76636446,-0.6423859,-0.06487636,0.64078784,-0.7649719,,-0.08919822,0.24446814,-0.10444034,0.62135917,0.6603524,0.42171967,-0.7602371,0.37786266,0.52845,0.18961109,-0.64896417,0.73681283,,-0.015605964,0.41305357,-0.35705388,-0.5580582,0.40858695,-0.722238,-0.82219076,-0.38987604,0.41472763,-0.11213101,0.82525957,0.55350995,,1.023385669560735,0.32002232757498944,0.16467808902000003,0.08765039637653119,0.3287474184356497,0.7270206148388798,-0.40264312302099836,,-1.2813249475598338,-0.048877176360966924,0.16902195681,-0.060390703723543014,0.4907983071574621,-1.0159891319972445,0.8753608504136025,,-0.03261365873507904,-0.08598146393793565,0.08100309464,-0.06541713947960498,,-9.3504786e-07,1.1920929e-06,3.8146973e-06,1.0,5.6885183e-06,4.760921e-06,-5.684793e-06,1.0,4.7683716e-07,-4.760921e-06,-5.066395e-07,1.0,532,1.614,1,1,0.198,False,-0.2566608388235285,1.0496115477602863
1.6347284319344908,10:59:08.805761,10:58:04.820573,0,,0.11912357,0.0027293116,0.03930235,-0.5348266,-0.7287619,-0.4276291,-0.49158043,-0.14326859,0.8589661,-0.68724763,0.6696121,-0.28162122,,0.053610846,-0.03553138,0.039441228,0.66232646,-0.2920662,0.6899426,-0.63016117,0.2809304,0.7238612,-0.4052411,-0.91420746,0.0020187795,,0.07731941,1.3283263,0.45411053,0.99788034,0.045568474,-0.04645808,0.0050888285,-0.76636446,-0.6423859,-0.06487636,0.64078784,-0.7649719,,-0.08897747,0.2446694,-0.104523934,0.6192736,0.6671246,0.41405913,-0.75960237,0.37553796,0.53101367,0.19875735,-0.64336306,0.73931015,,-0.015610739,0.41304994,-0.357063,-0.55789995,0.4085563,-0.7223776,-0.82227135,-0.38993374,0.41451353,-0.11232728,0.82524747,0.5534882,,1.025378134642285,0.31967480459564934,0.16461975597,0.08513411705471688,0.3385852464187614,0.7189168470325971,-0.402479778954864,,-1.281332670292708,-0.048931235491086494,0.16901677165,-0.060181013780058495,0.49066167065769667,-1.015877714093548,0.8753608504136025,,-0.03261365873507904,-0.08598146393793565,0.08100309464,-0.06541713947960498,,-9.3504786e-07,1.1920929e-06,3.8146973e-06,1.0,5.6885183e-06,4.760921e-06,-5.684793e-06,1.0,4.7683716e-07,-4.760921e-06,-5.066395e-07,1.0,541,1.642,1,1,0.226,False,-0.2575545046013441,1.050046069567301
1.6635444950079545,10:59:08.844078,10:58:04.901071,0,,0.118737064,0.0028728396,0.03955713,-0.5220082,-0.74445117,-0.41629308,-0.4874597,-0.14012375,0.86182857,-0.69992185,0.65280765,-0.28974417,,0.05361875,-0.035533436,0.039449632,0.6614621,-0.2919049,0.69083947,-0.63093936,0.281387,0.72300553,-0.405442,-0.9141186,0.0019524395,,0.07731941,1.3283263,0.45411053,0.99788034,0.045568474,-0.04645808,0.0050888285,-0.76636446,-0.6423859,-0.06487636,0.64078784,-0.7649719,,-0.08862381,0.24497622,-0.10464913,0.60755396,0.6841919,0.4034348,-0.7655253,0.3689749,0.5270945,0.21177647,-0.62907785,0.74793833,,-0.015619682,0.41305318,-0.3570699,-0.55697274,0.40835804,-0.72320473,-0.82283646,-0.38957214,0.41373152,-0.11278982,0.82551634,0.55299294,,1.0282587140043709,0.3191187678287052,0.16453420083,0.0696170612368621,0.3526588058946018,0.6973126391744358,-0.4011730264257899,,-1.2813558384913306,-0.048946680956834944,0.16901029020000002,-0.05892287411915135,0.4902517611584003,-1.0157068178627398,0.875687538545871,,-0.03261365873507904,-0.08598146393793565,0.08100309464,-0.06541713947960498,,-9.3504786e-07,1.1920929e-06,3.8146973e-06,1.0,5.6885183e-06,4.760921e-06,-5.684793e-06,1.0,4.7683716e-07,-4.760921e-06,-5.066395e-07,1.0,554,1.683,1,1,0.267,False,-0.25785239319394915,1.0492253061540504
1.7018636499997228,10:59:08.869475,10:58:04.901071,0,,0.11841987,0.002955854,0.039675415,-0.51094925,-0.75512886,-0.41074488,-0.4895682,-0.13713375,0.861114,-0.70657897,0.6410732,-0.29961866,,0.053629674,-0.035538472,0.039456904,0.66010106,-0.2915247,0.6923003,-0.63239574,0.28170556,0.7216077,-0.40539116,-0.9141418,0.0015950203,,0.07731941,1.3283263,0.45411053,0.99788034,0.045568474,-0.04645808,0.0050888285,-0.76636446,-0.6423859,-0.06487636,0.64078784,-0.7649719,,-0.088323355,0.2451444,-0.104703315,0.5972857,0.6957981,0.39889205,-0.7723597,0.36498162,0.51985466,0.2161256,-0.6185899,0.7554047,,-0.015631257,0.41305304,-0.35707784,-0.5555543,0.40796813,-0.7245146,-0.8236365,-0.38941744,0.4122827,-0.11394043,0.82578206,0.55235994,,1.0302820700174176,0.3185858992603837,0.16450308987,0.0551484551364299,0.3577143563859231,0.6802849357954595,-0.4037865314839383,,-1.281363561224205,-0.048954403689709165,0.16900251246,-0.05703566462779063,0.48915866916027684,-1.0153055470740118,0.8747074741490652,,-0.03261365873507904,-0.08598146393793565,0.08100309464,-0.06541713947960498,,-9.3504786e-07,1.1920929e-06,3.8146973e-06,1.0,5.6885183e-06,4.760921e-06,-5.684793e-06,1.0,4.7683716e-07,-4.760921e-06,-5.066395e-07,1.0,563,1.712,1,1,0.296,False,-0.25820985950507547,1.0499977893665218
1.7272194189717993,10:59:08.905792,10:58:04.970892,0,,0.11811827,0.0030361563,0.039773673,-0.49896142,-0.7677021,-0.4020833,-0.49030918,-0.13249496,0.8614186,-0.71458685,0.6269598,-0.3103015,,0.05362942,-0.035541184,0.03946358,0.6597942,-0.29134852,0.6926668,-0.63273704,0.28184032,0.7212558,-0.4053582,-0.91415644,0.0016094744,,0.07731941,1.3283263,0.45411053,0.99788034,0.045568474,-0.04645808,0.0050888285,-0.76636446,-0.6423859,-0.06487636,0.64078784,-0.7649719,,-0.08803638,0.24529651,-0.10474299,0.5861619,0.7094435,0.39128518,-0.77906394,0.36096206,0.5126068,0.22242647,-0.60530674,0.7642841,,-0.015631855,0.41305575,-0.35708448,-0.55523694,0.40778875,-0.72485876,-0.8238111,-0.38935754,0.41199026,-0.11422425,0.82589895,0.5521266,,1.03215097137298,0.3179217442332004,0.16449401584,0.04005077920554415,0.364819454373726,0.6601157465385065,-0.3998662738967157,,-1.281363561224205,-0.048954403689709165,0.16899473472,-0.05661628474082158,0.48888539616074594,-1.0153277474870406,0.8745441300829311,,-0.03261365873507904,-0.08598146393793565,0.08100309464,-0.06541713947960498,,-9.3504786e-07,1.1920929e-06,3.8146973e-06,1.0,5.6885183e-06,4.760921e-06,-5.684793e-06,1.0,4.7683716e-07,-4.760921e-06,-5.066395e-07,1.0,576,1.753,1,1,0.337,False,-0.25683957197909146,1.049804668563404
1.763575269957073,10:59:08.947747,10:58:04.970892,0,,0.11779825,0.0031773746,0.039913967,-0.48362127,-0.7819927,-0.39318925,-0.4831946,-0.13603494,0.86487997,-0.7298174,0.60826135,-0.31206527,,0.05367446,-0.035526477,0.03947711,0.65832,-0.29087102,0.69426835,-0.6342628,0.28234947,0.7197149,-0.40537038,-0.91415143,0.0013874173,,0.07733643,1.3283302,0.4541138,0.9978804,0.045554202,-0.046470042,0.0050702486,-0.7663653,-0.642385,-0.06487636,0.64078784,-0.7649719,,-0.087752335,0.24552491,-0.10477124,0.57203764,0.72559506,0.38247198,-0.78450567,0.34788844,0.5133464,0.23942402,-0.5937049,0.76823866,,-0.015694337,0.41306874,-0.35707533,-0.5537066,0.40729216,-0.72630715,-0.82467973,-0.38906714,0.41052416,-0.115378976,0.8262807,0.55131465,,1.034012149995668,0.3170799663499099,0.16450049729000002,0.022856203839813155,0.3829921088425296,0.6439903055046334,-0.4021530908225954,,-1.2813558384913306,-0.049000740086954514,0.16898177182000002,-0.05451938530597633,0.48779230416262237,-1.0150081554384531,0.8756875385458709,,-0.03261365873507904,-0.08598146393793565,0.08100309464,-0.06541713947960498,,1.585111e-05,1.2516975e-06,-1.9073486e-06,0.99999994,-8.560717e-06,-7.174909e-06,8.556992e-06,1.0,-7.4505806e-07,7.171184e-06,6.854534e-07,1.0,585,1.782,1,1,0.366,False,-0.257435349164302,1.049804668563404
1.8055307149188593,10:59:08.978128,10:58:05.046450,0,,0.11762726,0.0032186806,0.039958104,-0.47182894,-0.790235,-0.39103186,-0.48210514,-0.1400959,0.8648397,-0.73820865,0.596575,-0.31487516,,0.05366823,-0.035541795,0.039493203,0.65844434,-0.2906854,0.6942281,-0.6342186,0.28235084,0.71975327,-0.40523762,-0.9142101,0.0015541017,,0.07733643,1.3283302,0.4541138,0.9978804,0.045554202,-0.046470042,0.0050702486,-0.7663653,-0.642385,-0.06487636,0.64078784,-0.7649719,,-0.08758834,0.24560066,-0.1047874,0.5610638,0.73508745,0.38059667,-0.7900105,0.33822528,0.5113581,0.24716549,-0.5875799,0.7704928,,-0.015689714,0.4130699,-0.35709786,-0.55385166,0.40711752,-0.72629446,-0.8245747,-0.3891335,0.41067228,-0.11543363,0.82633555,0.551221,,1.034900264276204,0.3164158113227266,0.16451864535000002,0.009016667569834547,0.39146357182798686,0.634713712011379,-0.4010096823596555,,-1.2813403930255822,-0.04906252194994831,0.16896103118000003,-0.05472907524946085,0.48779230416262237,-1.0152531916588747,0.8755241944797367,,-0.03261365873507904,-0.08598146393793565,0.08100309464,-0.06541713947960498,,1.585111e-05,1.2516975e-06,-1.9073486e-06,0.99999994,-8.560717e-06,-7.174909e-06,8.556992e-06,1.0,-7.4505806e-07,7.171184e-06,6.854534e-07,1.0,598,1.823,1,1,0.407,False,-0.2575545046013441,1.0498529487641832
1.8359147189185023,10:59:09.019004,10:58:05.046450,0,,0.117383346,0.0032741874,0.03996755,-0.45115504,-0.80648214,-0.382159,-0.4860103,-0.13712199,0.8631289,-0.7485006,0.5751382,-0.33009547,,0.053684697,-0.03558793,0.039513946,0.65605164,-0.29027498,0.6966609,-0.6364299,0.28336358,0.7173995,-0.4056514,-0.9140271,0.0011612773,,0.07733643,1.3283302,0.4541138,0.9978804,0.045554202,-0.046470042,0.0050702486,-0.7663653,-0.642385,-0.06487636,0.64078784,-0.7649719,,-0.08734914,0.24567264,-0.10477113,0.5416606,0.75315946,0.37330228,-0.8014149,0.32869172,0.4996958,0.25364926,-0.56983554,0.7816326,,-0.015706444,0.41304913,-0.35714388,-0.5513028,0.40662783,-0.72850466,-0.8260812,-0.38834888,0.40838093,-0.11685491,0.82694554,0.55000544,,1.0359042195498531,0.31557403343943613,0.16457179324,-0.016146125648308373,0.39856866981578976,0.6085002959840244,-0.40329649928553546,,-1.2812708884297141,-0.04930964940192349,0.16893251280000002,-0.05137403615370847,0.4866992121644989,-1.0147702421300064,0.8753608504136025,,-0.03261365873507904,-0.08598146393793565,0.08100309464,-0.06541713947960498,,1.585111e-05,1.2516975e-06,-1.9073486e-06,0.99999994,-8.560717e-06,-7.174909e-06,8.556992e-06,1.0,-7.4505806e-07,7.171184e-06,6.854534e-07,1.0,607,1.851,1,1,0.435,False,-0.25731619372725945,1.049804668563404
1.8767505110008642,10:59:09.047734,10:58:05.122524,0,,0.11727829,0.0033034384,0.03996931,-0.44297916,-0.8123562,-0.37927127,-0.48799574,-0.13640101,0.86212224,-0.7520834,0.5669851,-0.33600366,,0.053701766,-0.035624407,0.039516985,0.6548305,-0.2901077,0.69787836,-0.6382346,0.2822959,0.7162161,-0.40478796,-0.91441053,-0.00030103326,,0.07733643,1.3283302,0.4541138,0.9978804,0.045554202,-0.046470042,0.0050702486,-0.7663653,-0.642385,-0.06487636,0.64078784,-0.7649719,,-0.087246135,0.24570636,-0.104758956,0.5339603,0.75974745,0.3710394,-0.80596316,0.3247188,0.49495563,0.2555578,-0.5633307,0.7857154,,-0.015721686,0.4130229,-0.35717058,-0.55012375,0.40658018,-0.729422,-0.82658726,-0.3893945,0.40635633,-0.11881646,0.82647717,0.55028915,,1.0363598607894322,0.31528829232308986,0.16459642275000003,-0.026211242935565544,0.40061821731227143,0.598661153414522,-0.4003563060951184,,-1.2812245520324688,-0.04947182679228221,0.16891954990000002,-0.0499062065493168,0.4849229376675481,-1.013485166862234,0.875687538545871,,-0.03261365873507904,-0.08598146393793565,0.08100309464,-0.06541713947960498,,1.585111e-05,1.2516975e-06,-1.9073486e-06,0.99999994,-8.560717e-06,-7.174909e-06,8.556992e-06,1.0,-7.4505806e-07,7.171184e-06,6.854534e-07,1.0,620,1.892,1,1,0.476,False,-0.2570778828531757,1.0499495091657423
1.9055085040163249,10:59:09.087651,10:58:05.122524,0,,0.11706096,0.0034321994,0.040031254,-0.4260194,-0.82495123,-0.37143344,-0.48234582,-0.140231,0.86468357,-0.7654084,0.5475314,-0.33817074,,0.053724967,-0.035723858,0.039524913,0.65263164,-0.2899934,0.69998246,-0.64040047,0.28260303,0.7141588,-0.4049184,-0.9143519,-0.0012764335,,0.07733643,1.3283302,0.4541138,0.9978804,0.045554202,-0.046470042,0.0050702486,-0.7663653,-0.642385,-0.06487636,0.64078784,-0.7649719,,-0.08704164,0.24586543,-0.10473602,0.5181167,0.7742998,0.36333853,-0.8114969,0.31079963,0.49484983,0.27023664,-0.55123806,0.7893724,,-0.015740147,0.41295454,-0.35724458,-0.5478111,0.40644124,-0.73123765,-0.827894,-0.38915288,0.4039203,-0.120393395,0.82665926,0.54967254,,1.0376032207821824,0.31460096909728386,0.16467549644,-0.04529302779265726,0.41605814178576617,0.5821503507700794,-0.40133637049192405,,-1.281023760977739,-0.0500355862921006,0.16889103152,-0.04697054734053346,0.4839664821691901,-1.0126235627962186,0.8758508826120053,,-0.03261365873507904,-0.08598146393793565,0.08100309464,-0.06541713947960498,,1.585111e-05,1.2516975e-06,-1.9073486e-06,0.99999994,-8.560717e-06,-7.174909e-06,8.556992e-06,1.0,-7.4505806e-07,7.171184e-06,6.854534e-07,1.0,629,1.921,1,1,0.505,False,-0.25558843989015,1.049514987358727
1.9453885349212214,10:59:09.118447,10:58:05.122524,0,,0.11680805,0.003546685,0.0400382,-0.41159496,-0.8324921,-0.37087238,-0.48200092,-0.14652649,0.8638315,-0.77347577,0.53430957,-0.34095246,,0.053743377,-0.03582024,0.039521217,0.65193546,-0.28971854,0.7007446,-0.6411334,0.28283036,0.71341074,-0.4048801,-0.91436875,-0.0013613105,,0.07733643,1.3283302,0.4541138,0.9978804,0.045554202,-0.046470042,0.0050702486,-0.7663653,-0.642385,-0.06487636,0.64078784,-0.7649719,,-0.086795874,0.24598248,-0.104681075,0.50452745,0.78334033,0.36308396,-0.81762594,0.2983787,0.4924002,0.2773804,-0.54529625,0.7910196,,-0.015752332,0.41288108,-0.35730854,-0.547088,0.40615955,-0.73193514,-0.8282862,-0.3890432,0.40322128,-0.120982245,0.82684934,0.5492572,,1.0389469763022976,0.31400631866596856,0.16476753303000002,-0.06269729310187278,0.42357314927286543,0.5721834652801697,-0.4011730264257899,,-1.2808306926558835,-0.050614791257667435,0.16887547604000003,-0.046131787566595354,0.4839664821691901,-1.0127869202764996,0.8755241944797367,,-0.03261365873507904,-0.08598146393793565,0.08100309464,-0.06541713947960498,,1.585111e-05,1.2516975e-06,-1.9073486e-06,0.99999994,-8.560717e-06,-7.174909e-06,8.556992e-06,1.0,-7.4505806e-07,7.171184e-06,6.854534e-07,1.0,642,1.962,1,1,0.546,False,-0.25731619372725945,1.0496115477602863
1.976229429943487,10:59:09.158399,10:58:05.202727,0,,0.11638369,0.0036732703,0.04003881,-0.39335656,-0.84339523,-0.3659985,-0.48263735,-0.14939873,0.8629838,-0.78251624,0.51610506,-0.34828722,,0.053774685,-0.035973303,0.039503932,0.6519781,-0.28931367,0.70087224,-0.64167064,0.28192937,0.7132844,-0.40395924,-0.91477513,-0.0018324554,,0.07733643,1.3283302,0.4541138,0.9978804,0.045554202,-0.046470042,0.0050702486,-0.7663653,-0.642385,-0.06487636,0.64078784,-0.7649719,,-0.08637953,0.24612114,-0.104621574,0.4872819,0.7960485,0.3589751,-0.8254838,0.28582197,0.4867055,0.28483823,-0.53349096,0.796401,,-0.015772013,0.41275612,-0.35740188,-0.54723686,0.40587127,-0.73198384,-0.8280372,-0.3900209,0.4027879,-0.122008964,0.8265302,0.5495103,,1.0411634006372,0.3129096905978287,0.16488031026000002,-0.08534380699820142,0.4316347027590264,0.5532763192008561,-0.4023164348887297,,-1.280544951539537,-0.051533796469700154,0.16886121685000002,-0.046551167453564406,0.4838298456694246,-1.0129205385932247,0.8753608504136026,,-0.03261365873507904,-0.08598146393793565,0.08100309464,-0.06541713947960498,,1.585111e-05,1.2516975e-06,-1.9073486e-06,0.99999994,-8.560717e-06,-7.174909e-06,8.556992e-06,1.0,-7.4505806e-07,7.171184e-06,6.854534e-07,1.0,651,1.991,1,1,0.575,False,-0.25719703829021734,1.0503840309727575
2.0161840659566224,10:59:09.189970,10:58:05.202727,0,,0.116032586,0.0037751794,0.040051684,-0.37869388,-0.8523881,-0.36059037,-0.4817124,-0.15115008,0.86319566,-0.79028106,0.5005878,-0.35336635,,0.05379206,-0.03607016,0.03949541,0.6514155,-0.2889405,0.701549,-0.6423206,0.28213233,0.7126188,-0.403834,-0.91483045,-0.0018072128,,0.07733643,1.3283302,0.4541138,0.9978804,0.045554202,-0.046470042,0.0050702486,-0.7663653,-0.642385,-0.06487636,0.64078784,-0.7649719,,-0.08603613,0.24624139,-0.10458372,0.4734011,0.8065507,0.35407266,-0.8309965,0.27563104,0.4831897,0.29212356,-0.5229757,0.80072486,,-0.015782414,0.41267908,-0.3574628,-0.54666334,0.4054996,-0.7326181,-0.82832986,-0.38996932,0.4022357,-0.12259217,0.8267369,0.54906934,,1.0430091337941396,0.3119752399200475,0.16496716169,-0.10337714213787051,0.43942298324565643,0.537042371133152,-0.4005196501612527,,-1.280336437751933,-0.05211300143526699,0.16884955024,-0.04592209762311083,0.4838298456694246,-1.013247253553787,0.875687538545871,,-0.03261365873507904,-0.08598146393793565,0.08100309464,-0.06541713947960498,,1.585111e-05,1.2516975e-06,-1.9073486e-06,0.99999994,-8.560717e-06,-7.174909e-06,8.556992e-06,1.0,-7.4505806e-07,7.171184e-06,6.854534e-07,1.0,664,2.032,1,1,0.616,False,-0.25642252794944387,1.049804668563404
2.0477299459744245,10:59:09.227507,10:58:05.273656,0,,0.11555232,0.00392437,0.040117428,-0.34865892,-0.8663165,-0.35767668,-0.47936535,-0.1631031,0.862326,-0.80538553,0.47211552,-0.3584148,,0.05377902,-0.036163233,0.03949219,0.6495317,-0.2890181,0.7032616,-0.6438476,0.28291813,0.7109273,-0.40443617,-0.91456324,-0.002319485,,0.07733643,1.3283302,0.4541138,0.9978804,0.045554202,-0.046470042,0.0050702486,-0.7663653,-0.642385,-0.06487636,0.64078784,-0.7649719,,-0.085571416,0.24644354,-0.10456308,0.4448713,0.8236502,0.35169575,-0.84143823,0.24990933,0.4790898,0.30671036,-0.50906354,0.80422825,,-0.015763804,0.41261277,-0.3575268,-0.5446276,0.405492,-0.73413694,-0.8295552,-0.3892167,0.4004354,-0.12336499,0.82709527,0.5483562,,1.0453027854577843,0.3107164344615489,0.16506956860000002,-0.1392341224737242,0.4543163617200895,0.5149330133330935,-0.39823283323537295,,-1.279958023841096,-0.05256864267484624,0.16882103186000003,-0.04340581830129654,0.48355657266989377,-1.0129427390062538,0.8755241944797368,,-0.03261365873507904,-0.08598146393793565,0.08100309464,-0.06541713947960498,,1.585111e-05,1.2516975e-06,-1.9073486e-06,0.99999994,-8.560717e-06,-7.174909e-06,8.556992e-06,1.0,-7.4505806e-07,7.171184e-06,6.854534e-07,1.0,673,2.06,1,1,0.644,False,-0.2564821056679656,1.049804668563404
2.0852808660129085,10:59:09.260776,10:58:05.273656,0,,0.11524448,0.0040163696,0.040163532,-0.3247516,-0.8786737,-0.34995538,-0.47794002,-0.16683221,0.86240375,-0.81615555,0.44732478,-0.36577433,,0.05374249,-0.036196165,0.03948754,0.6497194,-0.28891605,0.70313007,-0.6437652,0.2827781,0.71105754,-0.40426558,-0.91463876,-0.0022678375,,0.07733643,1.3283302,0.4541138,0.9978804,0.045554202,-0.046470042,0.0050702486,-0.7663653,-0.642385,-0.06487636,0.64078784,-0.7649719,,-0.085273765,0.24657276,-0.1045552,0.42206207,0.83847123,0.34471667,-0.8493114,0.2327158,0.47382855,0.3170706,-0.49275687,0.8103437,,-0.015725182,0.41259152,-0.35754913,-0.544843,0.40541044,-0.73402214,-0.82940626,-0.38938284,0.4005824,-0.12341534,0.82705706,0.5484025,,1.0465924818477799,0.3099132702426296,0.1651343831,-0.16754226484413495,0.4645640992024975,0.49122106740943616,-0.3998662738967156,,-1.2796954509233724,-0.05263814727071426,0.16880158751000002,-0.04382519818826559,0.48355657266989377,-1.0133511327069564,0.8753608504136026,,-0.03261365873507904,-0.08598146393793565,0.08100309464,-0.06541713947960498,,1.585111e-05,1.2516975e-06,-1.9073486e-06,0.99999994,-8.560717e-06,-7.174909e-06,8.556992e-06,1.0,-7.4505806e-07,7.171184e-06,6.854534e-07,1.0,686,2.101,1,1,0.685,False,-0.25624379479388093,1.050046069567301
2.118563196971081,10:59:09.292518,10:58:05.343879,0,,0.114965275,0.004057288,0.040101126,-0.30583405,-0.88968205,-0.33901498,-0.48310757,-0.16181536,0.86047816,-0.82041,0.42694435,-0.38032365,,0.053699233,-0.036217682,0.03948468,0.6494148,-0.28871492,0.703494,-0.64428645,0.28249872,0.71069646,-0.40392476,-0.91478866,-0.0025565028,,0.07733643,1.3283302,0.4541138,0.9978804,0.045554202,-0.046470042,0.0050702486,-0.7663653,-0.642385,-0.06487636,0.64078784,-0.7649719,,-0.08499197,0.24659194,-0.10449401,0.40388492,0.8511422,0.33531165,-0.8577621,0.22493117,0.46222305,0.3179955,-0.47430256,0.82092386,,-0.015680833,0.41258055,-0.3575651,-0.5445635,0.40524998,-0.7343181,-0.82949615,-0.38971347,0.4000745,-0.12404344,0.82698,0.54837704,,1.0475732689228063,0.30914871968808133,0.16522253082000002,-0.19081784857091716,0.46497400870179384,0.4642595444125236,-0.4005196501612527,,-1.2794174325399004,-0.05259181087346891,0.16877825429,-0.04361550824478107,0.48287339017106656,-1.0134474731095988,0.8753608504136026,,-0.03261365873507904,-0.08598146393793565,0.08100309464,-0.06541713947960498,,1.585111e-05,1.2516975e-06,-1.9073486e-06,0.99999994,-8.560717e-06,-7.174909e-06,8.556992e-06,1.0,-7.4505806e-07,7.171184e-06,6.854534e-07,1.0,695,2.13,1,1,0.714,False,-0.25672041654204936,1.0499977893665218
2.1502866939408705,10:59:09.325739,10:58:05.343879,0,,0.114646986,0.004156545,0.0400517,-0.27444154,-0.9035308,-0.3291107,-0.48535788,-0.16530114,0.8585471,-0.8301262,0.39535755,-0.3931704,,0.053681113,-0.036227487,0.039491355,0.64935386,-0.28868887,0.70356107,-0.64446,0.2822713,0.7106294,-0.40374577,-0.91486704,-0.0027546883,,0.07733643,1.3283302,0.4541138,0.9978804,0.045554202,-0.046470042,0.0050702486,-0.7663653,-0.642385,-0.06487636,0.64078784,-0.7649719,,-0.08467513,0.24666816,-0.104407966,0.37369436,0.86808455,0.32677472,-0.8685363,0.2038269,0.45177343,0.32557207,-0.4526409,0.83013195,,-0.01566338,0.41258082,-0.35757792,-0.54452014,0.40524876,-0.7343509,-0.8294867,-0.3899325,0.3998804,-0.124296255,0.8268773,0.5484746,,1.0485154423334617,0.3083610009349104,0.16535864127000002,-0.22793296856767795,0.471532560690535,0.4328559669302561,-0.4010096823596556,,-1.2793247597454096,-0.05257636540772046,0.16876140252000002,-0.04361550824478107,0.48260011717153567,-1.013387994782487,0.8756875385458711,,-0.03261365873507904,-0.08598146393793565,0.08100309464,-0.06541713947960498,,1.585111e-05,1.2516975e-06,-1.9073486e-06,0.99999994,-8.560717e-06,-7.174909e-06,8.556992e-06,1.0,-7.4505806e-07,7.171184e-06,6.854534e-07,1.0,704,2.159,1,1,0.743,False,-0.25683957197909146,1.0503840309727575
2.18350973399356,10:59:09.358974,10:58:05.425601,0,,0.11441796,0.0042641163,0.040056214,-0.24742106,-0.9125064,-0.32575262,-0.48172757,-0.17585357,0.8584952,-0.84066725,0.36933386,-0.39606968,,0.053670377,-0.036235146,0.039509237,0.64920634,-0.28869888,0.703693,-0.6445528,0.28238827,0.7104987,-0.40383476,-0.91482776,-0.0027535856,,0.07733643,1.3283302,0.4541138,0.9978804,0.045554202,-0.046470042,0.0050702486,-0.7663653,-0.642385,-0.06487636,0.64078784,-0.7649719,,-0.08445258,0.24677606,-0.10435439,0.34766963,0.879963,0.32371444,-0.87485033,0.18025154,0.4496068,0.33728734,-0.4395163,0.83250386,,-0.015655018,0.4125893,-0.3575967,-0.54435605,0.4052462,-0.734474,-0.82959265,-0.38982105,0.39976946,-0.124308385,0.8269311,0.5483907,,1.049148706429148,0.30782813236658896,0.16546882592,-0.2591767701468721,0.4824634806717702,0.41381437085711265,-0.40068299422738707,,-1.279301591546787,-0.05258408814059469,0.16873936559000002,-0.04340581830129654,0.48260011717153567,-1.013387994782487,0.8756875385458711,,-0.03261365873507904,-0.08598146393793565,0.08100309464,-0.06541713947960498,,1.585111e-05,1.2516975e-06,-1.9073486e-06,0.99999994,-8.560717e-06,-7.174909e-06,8.556992e-06,1.0,-7.4505806e-07,7.171184e-06,6.854534e-07,1.0,717,2.199,1,1,0.783,False,-0.25719703829021734,1.049708108161845
2.2167615719372407,10:59:09.392519,10:58:05.425601,0,,0.11410639,0.004420966,0.0400614,-0.21223597,-0.92521447,-0.3145376,-0.4760257,-0.18321678,0.8601343,-0.8534374,0.3322795,-0.40154076,,0.053665876,-0.036241136,0.039542317,0.649223,-0.2881237,0.7039132,-0.64455247,0.2829313,0.7102829,-0.40380841,-0.91484135,-0.0020255446,,0.07733643,1.3283302,0.4541138,0.9978804,0.045554202,-0.046470042,0.0050702486,-0.7663653,-0.642385,-0.06487636,0.64078784,-0.7649719,,-0.08415018,0.2469304,-0.104274124,0.31364676,0.896465,0.31301153,-0.88171977,0.15262017,0.44640496,0.35241455,-0.41600192,0.8382997,,-0.015655164,0.41260856,-0.35762462,-0.5443765,0.4046497,-0.7347876,-0.8295766,-0.38952878,0.40008748,-0.12432564,0.82736087,0.54773825,,1.0500522661754323,0.3072489274010221,0.16562308443,-0.30006630912635435,0.49626376714807974,0.3813246901472278,-0.4023164348887298,,-1.2793633734097807,-0.05259953360634313,0.16870695834000002,-0.04340581830129654,0.48260011717153567,-1.0141231034437523,0.8758508826120055,,-0.03261365873507904,-0.08598146393793565,0.08100309464,-0.06541713947960498,,1.585111e-05,1.2516975e-06,-1.9073486e-06,0.99999994,-8.560717e-06,-7.174909e-06,8.556992e-06,1.0,-7.4505806e-07,7.171184e-06,6.854534e-07,1.0,726,2.228,1,1,0.812,False,-0.2570778828531757,1.0496115477602863
2.2502705280203372,10:59:09.424584,10:58:05.425601,0,,0.11387153,0.0045244247,0.04000458,-0.18943,-0.9344661,-0.30147815,-0.47761276,-0.18057445,0.8598132,-0.85790575,0.30686432,-0.41210684,,0.053653955,-0.036244176,0.03956914,0.64924747,-0.2867933,0.7044339,-0.6444562,0.28443524,0.7097694,-0.40392286,-0.91479295,-0.00015702844,,0.07733643,1.3283302,0.4541138,0.9978804,0.045554202,-0.046470042,0.0050702486,-0.7663653,-0.642385,-0.06487636,0.64078784,-0.7649719,,-0.08391579,0.24699742,-0.10417583,0.2914645,0.907975,0.3010478,-0.88789374,0.13968608,0.43832922,0.3559398,-0.39505586,0.84689885,,-0.01564721,0.41262665,-0.3576465,-0.54438895,0.40324402,-0.73555076,-0.829591,-0.38862213,0.40093845,-0.12417528,0.82847273,0.5460892,,1.0507936485313578,0.3069863544832985,0.16574752827000003,-0.327116311835858,0.4981766781447959,0.3524024615483896,-0.39953958576444704,,-1.279378818875529,-0.05258408814059469,0.16867843996,-0.04340581830129654,0.48273675367130114,-1.0161131323706816,0.8753608504136026,,-0.03261365873507904,-0.08598146393793565,0.08100309464,-0.06541713947960498,,1.585111e-05,1.2516975e-06,-1.9073486e-06,0.99999994,-8.560717e-06,-7.174909e-06,8.556992e-06,1.0,-7.4505806e-07,7.171184e-06,6.854534e-07,1.0,739,2.269,1,1,0.853,False,-0.2570183051346544,1.049708108161845
2.282349278917536,10:59:09.461723,10:58:05.509011,0,,0.11362259,0.0046467483,0.039951503,-0.16517675,-0.9415823,-0.29349503,-0.47936803,-0.18342152,0.85823226,-0.8619298,0.28245223,-0.42106757,,0.053648062,-0.03625124,0.039587736,0.64916486,-0.286753,0.70452636,-0.6448658,0.28373602,0.70967734,-0.40340155,-0.91502273,-0.00072592497,,0.07733643,1.3283302,0.4541138,0.9978804,0.045554202,-0.046470042,0.0050702486,-0.7663653,-0.642385,-0.06487636,0.64078784,-0.7649719,,-0.08366858,0.24708271,-0.104069196,0.26780805,0.91750884,0.29403472,-0.8940577,0.12291785,0.4307575,0.35908166,-0.37824434,0.8532242,,-0.015643766,0.41263536,-0.35766506,-0.54436195,0.403278,-0.73555213,-0.82950926,-0.38928217,0.40046698,-0.12483781,0.8281463,0.5464332,,1.0516431491475227,0.3068550680244367,0.16587715727000002,-0.35584383409323783,0.4992697701429194,0.328232677378758,-0.3983961773015071,,-1.2793865416084034,-0.05256864267484624,0.16865510674,-0.04340581830129654,0.48205357117247394,-1.0156377215923402,0.8751975063474683,,-0.03261365873507904,-0.08598146393793565,0.08100309464,-0.06541713947960498,,1.585111e-05,1.2516975e-06,-1.9073486e-06,0.99999994,-8.560717e-06,-7.174909e-06,8.556992e-06,1.0,-7.4505806e-07,7.171184e-06,6.854534e-07,1.0,748,2.298,1,1,0.882,False,-0.2564821056679656,1.0500943497680806
2.3194893120089546,10:59:09.494029,10:58:05.509011,0,,0.11334685,0.0048627257,0.03996125,-0.1355516,-0.9493743,-0.28339723,-0.472211,-0.18955365,0.86086357,-0.87100095,0.25051478,-0.4226108,,0.053637095,-0.036259077,0.03960699,0.6491591,-0.28687653,0.70448136,-0.6448731,0.2836083,0.7097217,-0.40339917,-0.9150237,-0.0008922219,,0.07733643,1.3283302,0.4541138,0.9978804,0.045554202,-0.046470042,0.0050702486,-0.7663653,-0.642385,-0.06487636,0.64078784,-0.7649719,,-0.083404884,0.24728237,-0.103953615,0.23889652,0.928579,0.28402376,-0.8969649,0.098969676,0.43088168,0.37199792,-0.35769546,0.8565463,,-0.015635353,0.41264462,-0.3576849,-0.5443561,0.4034073,-0.7354855,-0.829512,-0.38935542,0.4003901,-0.12484498,0.8280489,0.5465792,,1.0526779953526686,0.306901404421682,0.16605345271000002,-0.39128143454212244,0.5100640536243892,0.2999094440931464,-0.40002961796284986,,-1.279371096142655,-0.05257636540772046,0.16863177352000003,-0.04340581830129654,0.48205357117247394,-1.015474364112059,0.8755241944797368,,-0.03261365873507904,-0.08598146393793565,0.08100309464,-0.06541713947960498,,1.585111e-05,1.2516975e-06,-1.9073486e-06,0.99999994,-8.560717e-06,-7.174909e-06,8.556992e-06,1.0,-7.4505806e-07,7.171184e-06,6.854534e-07,1.0,761,2.339,1,1,0.923,False,-0.25636295023092304,1.0502391903704191
2.3517957809381187,10:59:09.531387,10:58:05.509011,0,,0.113140814,0.005022943,0.039941177,-0.10982657,-0.95408446,-0.27867687,-0.46853578,-0.19757387,0.86106837,-0.8765914,0.22513832,-0.42532387,,0.05363117,-0.036262505,0.039615035,0.649296,-0.28688768,0.70435065,-0.64479005,0.28347248,0.7098515,-0.40331152,-0.91506225,-0.0009250045,,0.07733643,1.3283302,0.4541138,0.9978804,0.045554202,-0.046470042,0.0050702486,-0.7663653,-0.642385,-0.06487636,0.64078784,-0.7649719,,-0.08320517,0.2474136,-0.103846766,0.21368535,0.93604153,0.27957964,-0.90003276,0.07735943,0.4289016,0.37984163,-0.34328082,0.8589986,,-0.015630515,0.41264862,-0.35769343,-0.54450905,0.4034317,-0.7353589,-0.8294124,-0.38947675,0.40047833,-0.124839544,0.8279799,0.5466849,,1.0532880912497324,0.30703269088054386,0.16619085945,-0.4208477165734404,0.5156661501147722,0.27998570689516733,-0.3998662738967155,,-1.2793633734097807,-0.05257636540772046,0.16862140320000002,-0.04361550824478107,0.48205357117247394,-1.015474364112059,0.8755241944797368,,-0.03261365873507904,-0.08598146393793565,0.08100309464,-0.06541713947960498,,1.585111e-05,1.2516975e-06,-1.9073486e-06,0.99999994,-8.560717e-06,-7.174909e-06,8.556992e-06,1.0,-7.4505806e-07,7.171184e-06,6.854534e-07,1.0,770,2.367,1,1,0.948,False,-0.2552905512975445,1.0499012289649627
2.3891729009337723,10:59:09.562836,10:58:05.628138,0,,0.11298312,0.0051471144,0.03990139,-0.08909274,-0.9597299,-0.266422,-0.46583474,-0.19627811,0.8628284,-0.88037527,0.20098042,-0.42958865,,0.053629033,-0.036263816,0.039619565,0.649296,-0.28688768,0.70435065,-0.64479005,0.28347248,0.7098515,-0.40331152,-0.91506225,-0.0009250045,,0.07733643,1.3283302,0.4541138,0.9978804,0.045554202,-0.046470042,0.0050702486,-0.7663653,-0.642385,-0.06487636,0.64078784,-0.7649719,,-0.083050065,0.2475,-0.10374506,0.19330832,0.94390506,0.2677221,-0.90225744,0.06382455,0.42644802,0.3854392,-0.32399023,0.8639832,,-0.015629001,0.41265115,-0.3576977,-0.54450905,0.4034317,-0.7353589,-0.8294124,-0.38947675,0.40047833,-0.124839544,0.8279799,0.5466849,,1.0536973960920664,0.30714080914078296,0.16631789587,-0.4451717500176452,0.5193553356084392,0.2547608061771311,-0.40280646708713264,,-1.2793633734097807,-0.05257636540772046,0.16861621804000002,-0.04361550824478107,0.48205357117247394,-1.015474364112059,0.8755241944797368,,-0.03261365873507904,-0.08598146393793565,0.08100309464,-0.06541713947960498,,1.585111e-05,1.2516975e-06,-1.9073486e-06,0.99999994,-8.560717e-06,-7.174909e-06,8.556992e-06,1.0,-7.4505806e-07,7.171184e-06,6.854534e-07,1.0,783,2.408,0,1,0.948,False,-0.25558843989015,1.0503840309727575
2.420622683945112,10:59:09.602291,10:58:05.628138,0,,0.112818524,0.0052699745,0.03980364,-0.06267975,-0.9648258,-0.2553081,-0.46793512,-0.19754131,0.86140233,-0.8815373,0.17346016,-0.4390941,,0.05362439,-0.036262296,0.039628267,0.6493017,-0.28677833,0.7043899,-0.64477426,0.28360528,0.7098127,-0.4033275,-0.9150553,-0.0007621348,,0.07733643,1.3283302,0.4541138,0.9978804,0.045554202,-0.046470042,0.0050702486,-0.7663653,-0.642385,-0.06487636,0.64078784,-0.7649719,,-0.08288249,0.24754988,-0.103599526,0.16724615,0.9516564,0.2576408,-0.90710753,0.04615472,0.41836074,0.38624433,-0.30367714,0.8709739,,-0.015625803,0.4126589,-0.3577031,-0.54451317,0.40331525,-0.73541975,-0.8294131,-0.3893937,0.4005576,-0.12481682,0.8280757,0.54654497,,1.0539985826741611,0.3074265502571293,0.16646696922,-0.4757864817663857,0.5170325151124266,0.22733224282950834,-0.4010096823596555,,-1.279371096142655,-0.05255319720909779,0.16860714401000002,-0.04361550824478107,0.48205357117247394,-1.01563772159234,0.8758508826120054,,-0.03261365873507904,-0.08598146393793565,0.08100309464,-0.06541713947960498,,1.585111e-05,1.2516975e-06,-1.9073486e-06,0.99999994,-8.560717e-06,-7.174909e-06,8.556992e-06,1.0,-7.4505806e-07,7.171184e-06,6.854534e-07,1.0,792,2.437,0,1,0.948,False,-0.2566608388235285,1.0499977893665218
2.460072539979592,10:59:09.632435,10:58:05.700551,0,,0.11272414,0.00537394,0.039738968,-0.042507052,-0.9681179,-0.24686162,-0.46657205,-0.19925238,0.8617475,-0.8834612,0.15180916,-0.4432273,,0.053621337,-0.036265157,0.039635062,0.6491262,-0.28673238,0.70457035,-0.64502317,0.2834881,0.7096334,-0.4032121,-0.915106,-0.00092962384,,0.07733643,1.3283302,0.4541138,0.9978804,0.045554202,-0.046470042,0.0050702486,-0.7663653,-0.642385,-0.06487636,0.64078784,-0.7649719,,-0.08278706,0.24759908,-0.1034883,0.14730884,0.95707345,0.24962063,-0.9091566,0.031629194,0.41525152,0.38953093,-0.2881145,0.87478894,,-0.015623641,0.41266203,-0.35771015,-0.54434305,0.40328404,-0.7355628,-0.8294844,-0.38951835,0.4002888,-0.12508515,0.82803226,0.54654944,,1.0540371963385322,0.30770456864060136,0.16658882048,-0.49906206549316795,0.5181256071105501,0.2070013594464832,-0.3993762416983127,,-1.2793633734097807,-0.05254547447622356,0.16859806998000001,-0.04340581830129654,0.48178029817294304,-1.0154965645250877,0.8756875385458711,,-0.03261365873507904,-0.08598146393793565,0.08100309464,-0.06541713947960498,,1.585111e-05,1.2516975e-06,-1.9073486e-06,0.99999994,-8.560717e-06,-7.174909e-06,8.556992e-06,1.0,-7.4505806e-07,7.171184e-06,6.854534e-07,1.0,805,2.478,0,1,0.948,False,-0.25558843989015,1.0501909101696396
2.490217862999998,10:59:09.665859,10:58:05.700551,0,,0.1126319,0.0055122375,0.03965874,-0.018667016,-0.9705904,-0.24001153,-0.46396613,-0.20423272,0.86198854,-0.88565624,0.12744802,-0.44650882,,0.053614706,-0.036271833,0.039651632,0.6491077,-0.28673148,0.7045878,-0.64511204,0.28332973,0.7096158,-0.4030998,-0.9151553,-0.001062572,,0.07733643,1.3283302,0.4541138,0.9978804,0.045554202,-0.046470042,0.0050702486,-0.7663653,-0.642385,-0.06487636,0.64078784,-0.7649719,,-0.0826938,0.24766503,-0.1033433,0.12369538,0.96207917,0.24311127,-0.91075724,0.012799165,0.41274375,0.39398056,-0.27246985,0.8778038,,-0.015619175,0.41266966,-0.35772696,-0.54433644,0.40329948,-0.7355592,-0.8294671,-0.38966474,0.400182,-0.1252283,0.82795584,0.54663235,,1.0539985826741611,0.30815248714730636,0.16674567157,-0.5265314480896407,0.5199018816075008,0.18644010150553816,-0.4010096823596555,,-1.2793633734097807,-0.05255319720909779,0.16857862563,-0.04340581830129654,0.48164366167317757,-1.0153851466213912,0.8756875385458711,,-0.03261365873507904,-0.08598146393793565,0.08100309464,-0.06541713947960498,,1.585111e-05,1.2516975e-06,-1.9073486e-06,0.99999994,-8.560717e-06,-7.174909e-06,8.556992e-06,1.0,-7.4505806e-07,7.171184e-06,6.854534e-07,1.0,818,2.519,0,1,0.948,False,-0.2549926627049395,1.0504805913743163
2.523633454926312,10:59:09.713267,10:58:05.771139,0,,0.11252983,0.0056708753,0.039535716,0.007661499,-0.9725553,-0.2325456,-0.46285576,-0.20958966,0.86129934,-0.8864005,0.101036265,-0.45175865,,0.053607173,-0.0362828,0.03969109,0.6474997,-0.28444228,0.70699114,-0.6463794,0.28641364,0.7072205,-0.40365523,-0.9149097,0.0015948713,,0.07733643,1.3283302,0.4541138,0.9978804,0.045554202,-0.046470042,0.0050702486,-0.7663653,-0.642385,-0.06487636,0.64078784,-0.7649719,,-0.08258758,0.24772096,-0.103152744,0.097535014,0.96679246,0.23621865,-0.91284794,-0.007650485,0.408228,0.39647895,-0.25544822,0.8817883,,-0.015616996,0.41269028,-0.3577631,-0.5425946,0.40082857,-0.7381921,-0.83051616,-0.387641,0.39997175,-0.12583344,0.8301029,0.54322654,,1.0539908599412868,0.30871624664712477,0.16693881878000003,-0.5567267999514122,0.5190820626089083,0.16399352546793752,-0.40247977895486414,,-1.2793556506769066,-0.05256091994197201,0.16853584806000002,-0.041099228922966774,0.48109711567411584,-1.0181249458720876,0.8755241944797368,,-0.03261365873507904,-0.08598146393793565,0.08100309464,-0.06541713947960498,,1.585111e-05,1.2516975e-06,-1.9073486e-06,0.99999994,-8.560717e-06,-7.174909e-06,8.556992e-06,1.0,-7.4505806e-07,7.171184e-06,6.854534e-07,1.0,827,2.548,0,1,0.948,False,-0.2566608388235285,1.05014262996886
2.571049737976864,10:59:09.742789,10:58:05.771139,0,,0.11250448,0.005736679,0.039487228,0.014957897,-0.9742779,-0.2248526,-0.4620619,-0.20616148,0.8625521,-0.88672155,0.09099388,-0.4532605,,0.053604797,-0.036297135,0.039713383,0.6473275,-0.28423393,0.7072326,-0.64721674,0.28511217,0.7069806,-0.40258843,-0.9153809,0.00059980154,,0.07733643,1.3283302,0.4541138,0.9978804,0.045554202,-0.046470042,0.0050702486,-0.7663653,-0.642385,-0.06487636,0.64078784,-0.7649719,,-0.082560666,0.24774416,-0.10307489,0.090274625,0.96931255,0.2286563,-0.9131218,-0.011094368,0.40753585,0.39756638,-0.24558121,0.8840989,,-0.015617162,0.41269585,-0.35778916,-0.5425361,0.40076658,-0.73826873,-0.8303479,-0.3889188,0.39907965,-0.12718879,0.829535,0.5437782,,1.0539908599412868,0.3089324831676031,0.16701789247,-0.5651143976907931,0.5192186991086737,0.15203869024385966,-0.39872286543377555,,-1.279371096142655,-0.05256091994197201,0.16850603339,-0.041099228922966774,0.4797307506764614,-1.0173374817956857,0.8758508826120053,,-0.03261365873507904,-0.08598146393793565,0.08100309464,-0.06541713947960498,,1.585111e-05,1.2516975e-06,-1.9073486e-06,0.99999994,-8.560717e-06,-7.174909e-06,8.556992e-06,1.0,-7.4505806e-07,7.171184e-06,6.854534e-07,1.0,840,2.589,0,1,0.948,False,-0.2571374605716965,1.049708108161845
