AlexandreBanks6/ExpertPlaybackApp/resources/Motions/P_11/PC1/Data_PC1_8.csv
Task Time,PC1 Time,PC2 Time,Gaze Calib,s_T_psm1,Tx,Ty,Tz,R00,R01,R02,R10,R11,R12,R20,R21,R22,s_T_psm3,Tx,Ty,Tz,R00,R01,R02,R10,R11,R12,R20,R21,R22,cart_T_ecm,Tx,Ty,Tz,R00,R01,R02,R10,R11,R12,R20,R21,R22,ecm_T_psm1,Tx,Ty,Tz,R00,R01,R02,R10,R11,R12,R20,R21,R22,ecm_T_psm3,Tx,Ty,Tz,R00,R01,R02,R10,R11,R12,R20,R21,R22,psm1_joints,q1,q2,q3,q4,q5,q6,jaw,psm3_joints,q1,q2,q3,q4,q5,q6,jaw,ecm_joints,q1,q2,q3,q4,ecmi_T_ecm,Tx,Ty,Tz,R00,R01,R02,R10,R11,R12,R20,R21,R22,Sample #,Task Duration (s),Collisions (binary),Collisions (increments),Cumulative Collision Time (s),Clutch Press,MTMR Angle,MTML Angle
""
lci_T_si,,,,,-0.05843888,0.035118133,0.23779936,0.9970082,0.016813569,0.075444825,0.061249502,-0.76723903,-0.6384299,0.047149926,0.6411408,-0.76597345
rci_T_si,,,,,-0.06818321,0.03876071,0.24761088,0.996384,0.0016606578,0.08494798,0.05701089,-0.7543842,-0.6539527,0.06299742,0.656431,-0.75175107
ecm_T_lc,,,,,-4.4061628e-05,-0.00034663224,-0.01840835,-0.99912,0.030754527,0.028518902,-0.031987965,-0.99852574,-0.043852776,0.027128186,-0.04472645,0.9986309
ecm_T_rc,,,,,-0.0043358393,0.01870579,-0.007592615,-0.99555075,-0.052743673,-0.078081585,0.04863213,-0.9973746,0.053654674,-0.08070653,0.04961868,0.9955021
cart_T_ecmi,,,,,0.077176295,1.3265349,0.45219132,0.99781317,0.046582375,-0.046892695,0.0054881787,-0.76538974,-0.64354366,-0.06586898,0.64187896,-0.7639716
ecmac_T_ecmrep_psm1,,,,,0.011581071,-0.24422047,-0.31388107,0.99918455,0.03945311,0.008580942,-0.0387743,0.99689597,-0.06852016,-0.011257639,0.068131566,0.99761283
ecmac_T_ecmrep_psm3,,,,,0.00032986852,-0.4435548,-0.5434704,0.9997429,-0.0075566242,-0.021376874,0.008153117,0.9995759,0.027955532,0.021156559,-0.028122634,0.9993806
""
0,11:56:50.522393,11:55:46.628179,0,,0.08045269,0.016022146,0.033160463,-0.6198972,0.33875525,-0.707794,0.23618072,0.94073343,0.24339095,0.7482954,-0.016290039,-0.6631655,,0.060410984,0.0057148933,0.045256913,-0.49693605,0.28524357,0.8195674,-0.10780603,0.91682506,-0.38446036,-0.8610647,-0.27940652,-0.42485243,,0.07720026,1.326541,0.45218536,0.99781346,0.04654347,-0.046925407,0.0054374617,-0.7653921,-0.6435413,-0.06586898,0.64187896,-0.7639716,,-0.0486552,0.25603956,-0.093665905,0.5542628,-0.33628735,0.76138264,0.6816164,0.708373,-0.1833214,-0.47769424,0.6205791,0.6218438,,-0.02398256,0.44574782,-0.33259216,0.6124243,-0.25580376,-0.7479979,-0.61720765,0.4365004,-0.65461606,0.49395463,0.8625728,0.10943944,,1.240989113757759,0.2616693579773491,0.18427669753,1.6781486177066482,-0.32943060093447696,-0.527902508038691,-0.4090135416002353,,-1.3925168554829181,0.17299693911550323,0.18291300045000003,1.576448995116654,0.4608749137088306,-0.9991847339208004,0.8758508826120053,,-0.03301944778616772,-0.08405069345291694,0.08364271396,-0.06607131087440103,,2.4329871e-05,-7.390976e-06,-4.7683716e-07,1.0,-3.8832426e-05,-3.2626092e-05,3.88287e-05,1.0,-3.33786e-06,3.2626092e-05,3.3974648e-06,1.0,37,0.111,0,0,0.0,False,-0.26095043455704303,1.0503840309727575
0.12368848698679358,11:56:50.551713,11:55:46.692975,0,,0.080691606,0.01583907,0.034052357,-0.59201854,0.34130207,-0.7300869,0.23419401,0.9396635,0.24937013,0.77114654,-0.023350358,-0.6362292,,0.06041733,0.0057294965,0.045235097,-0.4970409,0.28514546,0.819538,-0.10787794,0.91683173,-0.3844241,-0.8609952,-0.27948454,-0.42494187,,0.07720026,1.326541,0.45218536,0.99781346,0.04654347,-0.046925407,0.0054374617,-0.7653921,-0.6435413,-0.06586898,0.64187896,-0.7639716,,-0.048968773,0.25643668,-0.094459675,0.5245493,-0.33822688,0.78131336,0.69275856,0.7030231,-0.16076104,-0.49490762,0.62558866,0.60307986,,-0.02398603,0.44574267,-0.33256593,0.61251944,-0.2556959,-0.74795693,-0.6172005,0.43646193,-0.6546484,0.49384564,0.8626242,0.10952579,,1.2407188181071613,0.26295905436734457,0.18349633095,1.704359860642214,-0.3563479913882687,-0.5404216093498131,-0.4109736703938466,,-1.392509132750044,0.17302010731412593,0.18293892625000002,1.576448995116654,0.46073827720906524,-0.9991549947572446,0.8760142266781397,,-0.03301944778616772,-0.08405069345291694,0.08364271396,-0.06607131087440103,,2.4329871e-05,-7.390976e-06,-4.7683716e-07,1.0,-3.8832426e-05,-3.2626092e-05,3.88287e-05,1.0,-3.33786e-06,3.2626092e-05,3.3974648e-06,1.0,44,0.133,0,0,0.0,False,-0.2604738128088746,1.0507219923782136
0.15298158302903175,11:56:50.581341,11:55:46.692975,0,,0.08098811,0.015658647,0.034876868,-0.56539106,0.34844252,-0.74761003,0.23532242,0.93686026,0.2586813,0.79054165,-0.029673368,-0.6116888,,0.060425803,0.00573352,0.045223832,-0.4971318,0.28528422,0.8194345,-0.107726276,0.91680205,-0.38453752,-0.8609617,-0.27944046,-0.42503875,,0.07720026,1.326541,0.45218536,0.99781346,0.04654347,-0.046925407,0.0054374617,-0.7653921,-0.6435413,-0.06586898,0.64187896,-0.7639716,,-0.04933402,0.25679106,-0.09519538,0.49637473,-0.3448058,0.79669386,0.70426214,0.6965309,-0.13733011,-0.5075696,0.6292485,0.588574,,-0.023992907,0.44573689,-0.33255428,0.6126029,-0.25583905,-0.7478396,-0.61705893,0.43645626,-0.65478563,0.49391901,0.86258465,0.10950661,,1.240263176867582,0.26427191895596275,0.18274837162000002,1.7314098633517174,-0.37848310435027005,-0.5493258931973783,-0.41130035852611524,,-1.3925168554829181,0.17300466184837746,0.18295318544000003,1.5766586850601387,0.46073827720906524,-0.9991549947572446,0.8760142266781397,,-0.03301944778616772,-0.08405069345291694,0.08364271396,-0.06607131087440103,,2.4329871e-05,-7.390976e-06,-4.7683716e-07,1.0,-3.8832426e-05,-3.2626092e-05,3.88287e-05,1.0,-3.33786e-06,3.2626092e-05,3.3974648e-06,1.0,56,0.169,0,0,0.0,False,-0.26053339052739544,1.05014262996886
0.1826718560187146,11:56:50.616668,11:55:46.692975,0,,0.081262454,0.015487313,0.03561546,-0.5412686,0.35444644,-0.7624933,0.23280627,0.93453443,0.26915866,0.8079786,-0.031826198,-0.58835155,,0.06042823,0.005736962,0.0452165,-0.49722517,0.2851358,0.8194296,-0.107803196,0.9168325,-0.38444328,-0.86089814,-0.27949205,-0.4251335,,0.07720026,1.326541,0.45218536,0.99781346,0.04654347,-0.046925407,0.0054374617,-0.7653921,-0.6435413,-0.06586898,0.64187896,-0.7639716,,-0.04966991,0.25710046,-0.095859915,0.47086248,-0.35060552,0.80954576,0.711831,0.6930583,-0.113871805,-0.5211383,0.6298777,0.57590705,,-0.023994345,0.44573408,-0.33254647,0.6126876,-0.25568533,-0.7478228,-0.61706066,0.43645832,-0.6547826,0.4938118,0.86262923,0.10963923,,1.2396839719020152,0.26541488342134795,0.18208337485,1.7538466873045617,-0.40089149031180227,-0.5550669065924906,-0.4132604873197263,,-1.3925168554829181,0.17300466184837746,0.18296096318000002,1.5766586850601387,0.46060164070929976,-0.9990435768535482,0.8760142266781397,,-0.03301944778616772,-0.08405069345291694,0.08364271396,-0.06607131087440103,,2.4329871e-05,-7.390976e-06,-4.7683716e-07,1.0,-3.8832426e-05,-3.2626092e-05,3.88287e-05,1.0,-3.33786e-06,3.2626092e-05,3.3974648e-06,1.0,64,0.193,0,0,0.0,False,-0.26095043455704303,1.0503840309727575
0.21800721599720418,11:56:50.641830,11:55:46.692975,0,,0.081475936,0.01533927,0.036392346,-0.51338476,0.35608676,-0.7807934,0.21949059,0.9340693,0.28167057,0.8296143,-0.026771545,-0.5576947,,0.060430948,0.0057374686,0.04521495,-0.4972175,0.28514293,0.8194318,-0.10780266,0.9168305,-0.38444823,-0.8609026,-0.27949134,-0.42512485,,0.07720026,1.326541,0.45218536,0.99781346,0.04654347,-0.046925407,0.0054374617,-0.7653921,-0.6435413,-0.06586898,0.64187896,-0.7639716,,-0.0499484,0.25745502,-0.09654385,0.44124827,-0.35266796,0.82518196,0.71335137,0.69574183,-0.08410169,-0.5444537,0.6257544,0.55857104,,-0.023996834,0.4457331,-0.33254474,0.61268055,-0.25569245,-0.7478261,-0.6170642,0.43645665,-0.6547804,0.49381608,0.8626279,0.10962985,,1.2390043714090835,0.26645745235936824,0.18146245194000002,1.7733478520486223,-0.43491397875339693,-0.5596686296677443,-0.4119537347906521,,-1.3925245782157925,0.17299693911550323,0.18296355576,1.5766586850601387,0.46060164070929976,-0.9990435768535482,0.8760142266781397,,-0.03301944778616772,-0.08405069345291694,0.08364271396,-0.06607131087440103,,2.4329871e-05,-7.390976e-06,-4.7683716e-07,1.0,-3.8832426e-05,-3.2626092e-05,3.88287e-05,1.0,-3.33786e-06,3.2626092e-05,3.3974648e-06,1.0,75,0.227,0,0,0.0,False,-0.2599376133421849,1.0504805913743163
0.24314360006246716,11:56:50.665976,11:55:46.817464,0,,0.08159258,0.015256271,0.03692399,-0.49485502,0.35091335,-0.7949707,0.205271,0.9361511,0.28545523,0.84438276,-0.021925598,-0.5352915,,0.06042978,0.0057394505,0.04521054,-0.49723095,0.28513345,0.8194269,-0.107806504,0.9168316,-0.38444448,-0.8608943,-0.27949724,-0.42513776,,0.07720026,1.326541,0.45218536,0.99781346,0.04654347,-0.046925407,0.0054374617,-0.7653921,-0.6435413,-0.06586898,0.64187896,-0.7639716,,-0.05010964,0.25771356,-0.097002454,0.4215363,-0.34792385,0.8374104,0.7104,0.70064956,-0.06649866,-0.56359476,0.6229279,0.5425143,,-0.023995092,0.4457316,-0.33254036,0.61269283,-0.25568226,-0.74781954,-0.6170598,0.43645436,-0.65478605,0.49380627,0.8626321,0.1096412,,1.2385641756352526,0.26717566651667113,0.18107356494000001,1.7829935894489106,-0.46155809620765786,-0.5665296974961389,-0.4103202941293095,,-1.392509132750044,0.17300466184837746,0.18296744463000003,1.5766586850601387,0.46060164070929976,-0.9990435768535482,0.8760142266781397,,-0.03301944778616772,-0.08405069345291694,0.08364271396,-0.06607131087440103,,2.4329871e-05,-7.390976e-06,-4.7683716e-07,1.0,-3.8832426e-05,-3.2626092e-05,3.88287e-05,1.0,-3.33786e-06,3.2626092e-05,3.3974648e-06,1.0,83,0.251,0,0,0.0,False,-0.2602950796533112,1.0505288715750958
0.2672921040793881,11:56:50.688748,11:55:46.817464,0,,0.081724584,0.015195817,0.037442237,-0.47582334,0.34680384,-0.80828166,0.1928007,0.9377573,0.28885815,0.8581492,-0.018391907,-0.5130709,,0.06042978,0.0057394505,0.04521054,-0.49723095,0.28513345,0.8194269,-0.107806504,0.9168316,-0.38444448,-0.8608943,-0.27949724,-0.42513776,,0.07720026,1.326541,0.45218536,0.99781346,0.04654347,-0.046925407,0.0054374617,-0.7653921,-0.6435413,-0.06586898,0.64187896,-0.7639716,,-0.05028505,0.2579806,-0.09743554,0.4014088,-0.34412858,0.8487912,0.7081699,0.704315,-0.049353365,-0.5808325,0.62089926,0.52641976,,-0.023995092,0.4457316,-0.33254036,0.61269283,-0.25568226,-0.74781954,-0.6170598,0.43645436,-0.65478605,0.49380627,0.8626321,0.1096412,,1.2381703162586672,0.2679711080027163,0.18070412229000002,1.794316846397075,-0.48656257566473343,-0.5743193864681877,-0.4114637025922494,,-1.392509132750044,0.17300466184837746,0.18296744463000003,1.5766586850601387,0.46060164070929976,-0.9990435768535482,0.8760142266781397,,-0.03301944778616772,-0.08405069345291694,0.08364271396,-0.06607131087440103,,2.4329871e-05,-7.390976e-06,-4.7683716e-07,1.0,-3.8832426e-05,-3.2626092e-05,3.88287e-05,1.0,-3.33786e-06,3.2626092e-05,3.3974648e-06,1.0,87,0.264,0,0,0.0,False,-0.2599971910607066,1.0505288715750958
0.2900690040551126,11:56:50.710994,11:55:46.817464,0,,0.0819901,0.015111357,0.03810613,-0.45695543,0.34619012,-0.8193559,0.18240297,0.93804705,0.29461262,0.8705864,-0.014828205,-0.4917919,,0.060432248,0.0057409555,0.045211136,-0.4972193,0.2850043,0.81947887,-0.10779989,0.91689616,-0.38429245,-0.86090195,-0.2794174,-0.42517498,,0.07720026,1.326541,0.45218536,0.99781346,0.04654347,-0.046925407,0.0054374617,-0.7653921,-0.6435413,-0.06586898,0.64187896,-0.7639716,,-0.050605834,0.25831217,-0.09798832,0.38155678,-0.34381893,0.8580227,0.70674676,0.70678407,-0.031069426,-0.5957545,0.6182595,0.5126712,,-0.023997629,0.4457328,-0.33253947,0.6126823,-0.2555662,-0.7478679,-0.6170615,0.43656924,-0.6547079,0.49381733,0.8626084,0.109778166,,1.2376451704232199,0.26939209085157356,0.18017264339000003,1.8073176228931154,-0.5092442346257966,-0.5805726727171723,-0.41244376698905505,,-1.3925245782157925,0.17300466184837746,0.18296874092,1.5766586850601387,0.46060164070929976,-0.9988802193732671,0.8760142266781396,,-0.03301944778616772,-0.08405069345291694,0.08364271396,-0.06607131087440103,,2.4329871e-05,-7.390976e-06,-4.7683716e-07,1.0,-3.8832426e-05,-3.2626092e-05,3.88287e-05,1.0,-3.33786e-06,3.2626092e-05,3.3974648e-06,1.0,98,0.296,0,0,0.0,False,-0.26059296824591627,1.050335750771978
0.3122952460544184,11:56:50.736157,11:55:46.817464,0,,0.08219437,0.0151011795,0.03849803,-0.4464038,0.35675216,-0.820641,0.18082938,0.9341339,0.30772454,0.8763699,-0.01102671,-0.48151225,,0.060432248,0.0057409555,0.045211136,-0.4972193,0.2850043,0.81947887,-0.10779989,0.91689616,-0.38429245,-0.86090195,-0.2794174,-0.42517498,,0.07720026,1.326541,0.45218536,0.99781346,0.04654347,-0.046925407,0.0054374617,-0.7653921,-0.6435413,-0.06586898,0.64187896,-0.7639716,,-0.050842553,0.25853643,-0.098286785,0.37055343,-0.35466444,0.8584307,0.70854396,0.70552045,-0.01436387,-0.60054606,0.6135585,0.5127284,,-0.023997629,0.4457328,-0.33253947,0.6126823,-0.2555662,-0.7478679,-0.6170615,0.43656924,-0.6547079,0.49381733,0.8626084,0.109778166,,1.2374366566356159,0.2705350553169588,0.17985375605,1.8175924301238569,-0.5179889706107847,-0.5749121442031314,-0.40999360599704093,,-1.3925245782157925,0.17300466184837746,0.18296874092,1.5766586850601387,0.46060164070929976,-0.9988802193732669,0.8756875385458711,,-0.03301944778616772,-0.08405069345291694,0.08364271396,-0.06607131087440103,,2.4329871e-05,-7.390976e-06,-4.7683716e-07,1.0,-3.8832426e-05,-3.2626092e-05,3.88287e-05,1.0,-3.33786e-06,3.2626092e-05,3.3974648e-06,1.0,106,0.321,0,0,0.0,False,-0.2617249448978165,1.0503840309727575
0.3374813690315932,11:56:50.761683,11:55:46.817464,0,,0.08248147,0.015158817,0.039083466,-0.4367759,0.36516994,-0.82211787,0.17495117,0.930933,0.32055533,0.8823938,-0.0038197637,-0.47049606,,0.06043326,0.0057421327,0.04520899,-0.4972193,0.2850043,0.81947887,-0.10779989,0.91689616,-0.38429245,-0.86090195,-0.2794174,-0.42517498,,0.07720026,1.326541,0.45218536,0.99781346,0.04654347,-0.046925407,0.0054374617,-0.7653921,-0.6435413,-0.06586898,0.64187896,-0.7639716,,-0.051178217,0.2589294,-0.09868852,0.36045077,-0.36366194,0.85896754,0.7071696,0.70703924,0.0025884907,-0.6082651,0.6065027,0.5120235,,-0.023998363,0.44573212,-0.33253706,0.6126823,-0.2555662,-0.7478679,-0.6170615,0.43656924,-0.6547079,0.49381733,0.8626084,0.109778166,,1.2374134884369932,0.2727205887203643,0.17941820261000002,1.824721888202331,-0.5291931635915509,-0.5689613469655068,-0.4108103263277123,,-1.3925245782157925,0.17300466184837746,0.18297133350000003,1.5766586850601387,0.46060164070929976,-0.9988802193732669,0.8756875385458711,,-0.03301944778616772,-0.08405069345291694,0.08364271396,-0.06607131087440103,,2.4329871e-05,-7.390976e-06,-4.7683716e-07,1.0,-3.8832426e-05,-3.2626092e-05,3.88287e-05,1.0,-3.33786e-06,3.2626092e-05,3.3974648e-06,1.0,114,0.346,0,0,0.0,False,-0.2608312791200009,1.0504805913743163
0.3629837960470468,11:56:50.787615,11:55:46.817464,0,,0.08269282,0.015272588,0.039540246,-0.4265899,0.36724806,-0.8265288,0.1687254,0.9301229,0.3261946,0.88856775,-0.00030520558,-0.4587452,,0.06043326,0.0057421327,0.04520899,-0.4972193,0.2850043,0.81947887,-0.10779989,0.91689616,-0.38429245,-0.86090195,-0.2794174,-0.42517498,,0.07720026,1.326541,0.45218536,0.99781346,0.04654347,-0.046925407,0.0054374617,-0.7653921,-0.6435413,-0.06586898,0.64187896,-0.7639716,,-0.0514275,0.25929052,-0.098960005,0.34977934,-0.36603013,0.86236674,0.7055868,0.7084747,0.014522133,-0.61628056,0.603395,0.50607586,,-0.023998363,0.44573212,-0.33253706,0.6126823,-0.2555662,-0.7478679,-0.6170615,0.43656924,-0.6547079,0.49381733,0.8626084,0.109778166,,1.2374907157657353,0.2745972128088009,0.17913690768,1.832061036224289,-0.5409439025713787,-0.570651073387012,-0.41179039072451806,,-1.3925245782157925,0.17300466184837746,0.18297133350000003,1.5766586850601387,0.46060164070929976,-0.9988802193732669,0.8756875385458711,,-0.03301944778616772,-0.08405069345291694,0.08364271396,-0.06607131087440103,,2.4329871e-05,-7.390976e-06,-4.7683716e-07,1.0,-3.8832426e-05,-3.2626092e-05,3.88287e-05,1.0,-3.33786e-06,3.2626092e-05,3.3974648e-06,1.0,122,0.37,0,0,0.0,False,-0.2607121236829584,1.0504805913743163
0.3889230480417609,11:56:50.812762,11:55:46.817464,0,,0.08305246,0.015575886,0.040255204,-0.41422695,0.36442742,-0.8340315,0.15744796,0.9312191,0.32869565,0.89645183,0.00483793,-0.44311452,,0.060432106,0.005741939,0.045208275,-0.49702233,0.2846859,0.819709,-0.108113825,0.9169735,-0.38401967,-0.86097634,-0.2794882,-0.42497772,,0.07720026,1.326541,0.45218536,0.99781346,0.04654347,-0.046925407,0.0054374617,-0.7653921,-0.6435413,-0.06586898,0.64187896,-0.7639716,,-0.05184644,0.25995228,-0.09930508,0.33679464,-0.36365533,0.86851835,0.70099515,0.7126709,0.02656844,-0.62862957,0.5998791,0.4949444,,-0.023997115,0.4457316,-0.3325368,0.6125015,-0.25524214,-0.74812657,-0.6173589,0.4366096,-0.6544005,0.4936698,0.8626839,0.10984804,,1.2378150705464528,0.27829640185555443,0.17876098358,1.8394001842462477,-0.5576135555427625,-0.5778861678718921,-0.4109736703938466,,-1.3925168554829181,0.17299693911550323,0.18297133350000003,1.5762393051731696,0.46060164070929976,-0.9987985406331263,0.8758508826120054,,-0.03301944778616772,-0.08405069345291694,0.08364271396,-0.06607131087440103,,2.4329871e-05,-7.390976e-06,-4.7683716e-07,1.0,-3.8832426e-05,-3.2626092e-05,3.88287e-05,1.0,-3.33786e-06,3.2626092e-05,3.3974648e-06,1.0,130,0.395,0,0,0.0,False,-0.26136747858668974,1.0504805913743163
0.41410415002610534,11:56:50.833385,11:55:46.997527,0,,0.08333418,0.01583992,0.04065132,-0.40764856,0.37045777,-0.8346158,0.15694025,0.9288309,0.33562285,0.89955115,0.0058312416,-0.4367764,,0.06043312,0.005743146,0.04520625,-0.49702233,0.2846859,0.819709,-0.108113825,0.9169735,-0.38401967,-0.86097634,-0.2794882,-0.42497772,,0.07720026,1.326541,0.45218536,0.99781346,0.04654347,-0.046925407,0.0054374617,-0.7653921,-0.6435413,-0.06586898,0.64187896,-0.7639716,,-0.05216074,0.2603897,-0.099431045,0.32997745,-0.36974782,0.8685628,0.7021721,0.71109897,0.035951726,-0.63092726,0.59801733,0.49427325,,-0.023997849,0.44573092,-0.3325344,0.6125015,-0.25524214,-0.74812657,-0.6173589,0.4366096,-0.6544005,0.4936698,0.8626839,0.10984804,,1.2380930889299249,0.2809916356286588,0.17856913266000002,1.8473684020986596,-0.5614393775361948,-0.5780336161740147,-0.41195373479065234,,-1.3925168554829181,0.17299693911550323,0.18297392608000002,1.5762393051731696,0.46060164070929976,-0.9987985406331263,0.8758508826120054,,-0.03301944778616772,-0.08405069345291694,0.08364271396,-0.06607131087440103,,2.4329871e-05,-7.390976e-06,-4.7683716e-07,1.0,-3.8832426e-05,-3.2626092e-05,3.88287e-05,1.0,-3.33786e-06,3.2626092e-05,3.3974648e-06,1.0,138,0.418,0,0,0.0,False,-0.2617249448978165,1.0511565141852286
0.43472478399053216,11:56:50.857251,11:55:46.997527,0,,0.083667874,0.016156286,0.041039318,-0.4059199,0.37361905,-0.83404905,0.15816876,0.9275659,0.33853218,0.9001175,0.005496323,-0.43561235,,0.06043312,0.005743146,0.04520625,-0.49702233,0.2846859,0.819709,-0.108113825,0.9169735,-0.38401967,-0.86097634,-0.2794882,-0.42497772,,0.07720026,1.326541,0.45218536,0.99781346,0.04654347,-0.046925407,0.0054374617,-0.7653921,-0.6435413,-0.06586898,0.64187896,-0.7639716,,-0.05252613,0.2608603,-0.09951469,0.32820687,-0.37286922,0.86789906,0.70339364,0.70973414,0.0389209,-0.63049,0.5977006,0.49521345,,-0.023997849,0.44573092,-0.3325344,0.6125015,-0.25524214,-0.74812657,-0.6173589,0.4366096,-0.6544005,0.4936698,0.8626839,0.10984804,,1.2384097209777682,0.28422746070295885,0.1783824669,1.8517718909118346,-0.5603462855380713,-0.580068461765554,-0.41260711105518943,,-1.3925168554829181,0.17299693911550323,0.18297392608000002,1.5762393051731696,0.46060164070929976,-0.9987985406331263,0.8758508826120054,,-0.03301944778616772,-0.08405069345291694,0.08364271396,-0.06607131087440103,,2.4329871e-05,-7.390976e-06,-4.7683716e-07,1.0,-3.8832426e-05,-3.2626092e-05,3.88287e-05,1.0,-3.33786e-06,3.2626092e-05,3.3974648e-06,1.0,149,0.452,0,0,0.0,False,-0.26005676877922745,1.0508668329805522
0.4585909410379827,11:56:50.894444,11:55:46.997527,0,,0.0842617,0.016885817,0.041776985,-0.4012711,0.38213497,-0.8324388,0.15178478,0.92399275,0.35099646,0.90329546,0.014493048,-0.428774,,0.060434207,0.005742386,0.045205653,-0.49710798,0.28454456,0.81970614,-0.10819018,0.9170018,-0.3839304,-0.8609172,-0.27953905,-0.42506385,,0.07720026,1.326541,0.45218536,0.99781346,0.04654347,-0.046925407,0.0054374617,-0.7653921,-0.6435413,-0.06586898,0.64187896,-0.7639716,,-0.053180408,0.2618574,-0.09959671,0.32330653,-0.382116,0.8657137,0.70012164,0.71206623,0.05283271,-0.63663375,0.58902377,0.49774337,,-0.023998844,0.44572988,-0.33253443,0.61257917,-0.2550955,-0.748113,-0.61736417,0.4366099,-0.65439534,0.49356687,0.8627271,0.109971285,,1.2391047669364483,0.2908072291117981,0.17815691244,1.8561753797250096,-0.5663582915277506,-0.5754927889634738,-0.4116270466583837,,-1.3925245782157925,0.172989216382629,0.18297392608000002,1.5762393051731696,0.4604650042095343,-0.9986871227294298,0.8758508826120054,,-0.03301944778616772,-0.08405069345291694,0.08364271396,-0.06607131087440103,,2.4329871e-05,-7.390976e-06,-4.7683716e-07,1.0,-3.8832426e-05,-3.2626092e-05,3.88287e-05,1.0,-3.33786e-06,3.2626092e-05,3.3974648e-06,1.0,157,0.477,0,0,0.0,False,-0.26011634649774784,1.0503840309727575
0.49576355901081115,11:56:50.919202,11:55:46.997527,0,,0.084545314,0.017277047,0.04210174,-0.39945745,0.38596192,-0.83154505,0.14789265,0.92230546,0.35704374,0.9047438,0.01964429,-0.42550278,,0.060434796,0.0057409704,0.04520613,-0.49719352,0.28440326,0.8197032,-0.10826662,0.9170302,-0.38384113,-0.8608582,-0.27958983,-0.42515004,,0.07720026,1.326541,0.45218536,0.99781346,0.04654347,-0.046925407,0.0054374617,-0.7653921,-0.6435413,-0.06586898,0.64187896,-0.7639716,,-0.053490557,0.26235002,-0.09958775,0.32137725,-0.38636523,0.8645453,0.69787735,0.71373755,0.05954748,-0.64006555,0.5842094,0.49901456,,-0.023999473,0.44572914,-0.33253568,0.6126568,-0.2549489,-0.7480994,-0.6173695,0.4366102,-0.65439016,0.4934639,0.8627703,0.11009454,,1.2394291217171658,0.29408939058334355,0.17810117197000003,1.8574335193859168,-0.5696375675221212,-0.5728187592747596,-0.4116270466583837,,-1.3925323009486668,0.1729814936497548,0.18297262979,1.5762393051731696,0.46032836770976887,-0.9985757048257335,0.8758508826120054,,-0.03301944778616772,-0.08405069345291694,0.08364271396,-0.06607131087440103,,2.4329871e-05,-7.390976e-06,-4.7683716e-07,1.0,-3.8832426e-05,-3.2626092e-05,3.88287e-05,1.0,-3.33786e-06,3.2626092e-05,3.3974648e-06,1.0,165,0.501,0,0,0.0,False,-0.26106958999408425,1.0508668329805522
0.520538778975606,11:56:50.944950,11:55:46.997527,0,,0.084974445,0.017878264,0.042557582,-0.39584935,0.39267147,-0.83012795,0.14246729,0.91928303,0.366908,0.9071969,0.026974142,-0.4198405,,0.060436964,0.0057396293,0.045206487,-0.49728644,0.28447038,0.81962365,-0.10811216,0.91703475,-0.38387364,-0.860824,-0.27950644,-0.42527413,,0.07720026,1.326541,0.45218536,0.99781346,0.04654347,-0.046925407,0.0054374617,-0.7653921,-0.6435413,-0.06586898,0.64187896,-0.7639716,,-0.053956836,0.26308063,-0.09954074,0.3175751,-0.393671,0.8626524,0.6949612,0.7155626,0.07070503,-0.64511627,0.57705575,0.5008309,,-0.024001645,0.44572818,-0.33253667,0.612742,-0.25502694,-0.748003,-0.61722517,0.4366638,-0.6544905,0.49353856,0.8627201,0.1101532,,1.2398384265594997,0.29897788049272767,0.17805450553000002,1.8605788685381845,-0.5748297545132081,-0.5686665576744362,-0.41179039072451806,,-1.3925400236815408,0.17297377091688057,0.18297262979,1.576448995116654,0.46032836770976887,-0.9984940260855929,0.8760142266781397,,-0.03301944778616772,-0.08405069345291694,0.08364271396,-0.06607131087440103,,2.4329871e-05,-7.390976e-06,-4.7683716e-07,1.0,-3.8832426e-05,-3.2626092e-05,3.88287e-05,1.0,-3.33786e-06,3.2626092e-05,3.3974648e-06,1.0,173,0.526,0,0,0.0,False,-0.2620824112089424,1.0507219923782136
0.5462294940371066,11:56:50.970406,11:55:46.997527,0,,0.08523847,0.018227845,0.042798474,-0.39464432,0.39583513,-0.82919866,0.14078087,0.91784,0.37114736,0.90798485,0.029735774,-0.4179464,,0.060437806,0.0057373047,0.045204878,-0.49737597,0.28426453,0.8196407,-0.10819465,0.9170908,-0.3837166,-0.8607619,-0.2795322,-0.4253829,,0.07720026,1.326541,0.45218536,0.99781346,0.04654347,-0.046925407,0.0054374617,-0.7653921,-0.6435413,-0.06586898,0.64187896,-0.7639716,,-0.054240365,0.2634897,-0.099493556,0.31630787,-0.39705703,0.8615655,0.6940661,0.7159783,0.07514886,-0.64670056,0.5742132,0.5020534,,-0.024002226,0.4457253,-0.33253706,0.61282325,-0.25482026,-0.74800694,-0.6172323,0.436708,-0.6544543,0.4934288,0.8627588,0.110341504,,1.240023772148481,0.30192796445068143,0.17803635747000002,1.8624660780295454,-0.5761961195108624,-0.5675523786374721,-0.41179039072451806,,-1.3925400236815408,0.17295832545113213,0.18297262979,1.576448995116654,0.4601917312100034,-0.998300929441756,0.8761775707442739,,-0.03301944778616772,-0.08405069345291694,0.08364271396,-0.06607131087440103,,2.4329871e-05,-7.390976e-06,-4.7683716e-07,1.0,-3.8832426e-05,-3.2626092e-05,3.88287e-05,1.0,-3.33786e-06,3.2626092e-05,3.3974648e-06,1.0,181,0.549,0,0,0.0,False,-0.26106958999408425,1.0503840309727575
0.571699841064401,11:56:50.994354,11:55:47.148527,0,,0.0856265,0.018739685,0.043148994,-0.39024395,0.40161353,-0.82850236,0.13676593,0.91515267,0.37919703,0.9104969,0.034668297,-0.41205996,,0.060441375,0.0057327747,0.045203328,-0.4973536,0.28408223,0.81971747,-0.10843611,0.917101,-0.3836239,-0.8607444,-0.2796837,-0.4253187,,0.07720026,1.326541,0.45218536,0.99781346,0.04654347,-0.046925407,0.0054374617,-0.7653921,-0.6435413,-0.06586898,0.64187896,-0.7639716,,-0.054656755,0.2640872,-0.09942274,0.3117111,-0.40323207,0.86037207,0.69224864,0.71662825,0.08506309,-0.6508671,0.5690763,0.5025179,,-0.024005491,0.44572064,-0.3325388,0.6128018,-0.25461894,-0.748093,-0.6173961,0.43663037,-0.65435153,0.49325043,0.8628575,0.11036712,,1.2401396131415945,0.30592834007952974,0.17802857973000003,1.8670792567862047,-0.5809783970026529,-0.5656130417714706,-0.4121170788567867,,-1.3925477464144151,0.172919711786761,0.18297262979,1.5762393051731696,0.460055094710238,-0.9982711902782002,0.8763409148104081,,-0.03301944778616772,-0.08405069345291694,0.08364271396,-0.06607131087440103,,2.4329871e-05,-7.390976e-06,-4.7683716e-07,1.0,-3.8832426e-05,-3.2626092e-05,3.88287e-05,1.0,-3.33786e-06,3.2626092e-05,3.3974648e-06,1.0,196,0.595,0,0,0.0,False,-0.26106958999408425,1.0505771517758753
0.5956596200121567,11:56:51.033657,11:55:47.148527,0,,0.085990205,0.019214123,0.04347478,-0.38533163,0.4046452,-0.8293261,0.13169414,0.9136426,0.38459557,0.91333234,0.03897935,-0.40534484,,0.06044514,0.00572598,0.045200646,-0.4974358,0.28389543,0.81973237,-0.10852978,0.9171456,-0.383491,-0.8606851,-0.27972752,-0.4254098,,0.07720026,1.326541,0.45218536,0.99781346,0.04654347,-0.046925407,0.0054374617,-0.7653921,-0.6435413,-0.06586898,0.64187896,-0.7639716,,-0.0550468,0.26464137,-0.099357486,0.30657703,-0.40661773,0.86062336,0.68977743,0.7179593,0.09349624,-0.6559097,0.5649748,0.50058556,,-0.024008758,0.4457135,-0.33254126,0.6128762,-0.25442848,-0.7480969,-0.617414,0.4366519,-0.6543203,0.49313563,0.8629028,0.11052583,,1.2401627813402172,0.30971247918789974,0.17803117231,1.87148274559938,-0.587263675991863,-0.5662053300112746,-0.4121170788567865,,-1.3925477464144151,0.17287337538951564,0.18297262979,1.5762393051731696,0.45991845821047256,-0.9980780936343631,0.8761775707442739,,-0.03301944778616772,-0.08405069345291694,0.08364271396,-0.06607131087440103,,2.4329871e-05,-7.390976e-06,-4.7683716e-07,1.0,-3.8832426e-05,-3.2626092e-05,3.88287e-05,1.0,-3.33786e-06,3.2626092e-05,3.3974648e-06,1.0,204,0.62,0,0,0.0,False,-0.2607717014014801,1.0509151131813312
0.6349891569698229,11:56:51.055862,11:55:47.148527,0,,0.08636673,0.01968868,0.04376112,-0.38341105,0.40725222,-0.82894,0.12889019,0.9123423,0.3886113,0.9145398,0.042155474,-0.40229303,,0.060451806,0.0057262033,0.04520589,-0.49719414,0.28360295,0.81998014,-0.10882604,0.91722274,-0.38322237,-0.8607874,-0.27977112,-0.42517427,,0.07720026,1.326541,0.45218536,0.99781346,0.04654347,-0.046925407,0.0054374617,-0.7653921,-0.6435413,-0.06586898,0.64187896,-0.7639716,,-0.055446297,0.26517048,-0.09926056,0.30456144,-0.4094842,0.8599796,0.68823,0.71877325,0.09851161,-0.6584693,0.561861,0.5007299,,-0.024016086,0.44571656,-0.33254424,0.6126548,-0.25413382,-0.74837834,-0.6177226,0.43670815,-0.65399146,0.49302426,0.8629612,0.11056714,,1.2401627813402172,0.3135429546935151,0.17804543150000002,1.8742087148646789,-0.5897231329876409,-0.5668135274292372,-0.4121170788567866,,-1.3925940828116605,0.17285020719089297,0.18297133350000003,1.5758199252862004,0.45991845821047256,-0.9979964148942225,0.8763409148104082,,-0.03301944778616772,-0.08405069345291694,0.08364271396,-0.06607131087440103,,2.4329871e-05,-7.390976e-06,-4.7683716e-07,1.0,-3.8832426e-05,-3.2626092e-05,3.88287e-05,1.0,-3.33786e-06,3.2626092e-05,3.3974648e-06,1.0,208,0.632,0,0,0.0,False,-0.2608312791200009,1.0508185527797727
0.6572043100604787,11:56:51.084613,11:55:47.148527,0,,0.08676027,0.020185173,0.044038624,-0.3819949,0.4116518,-0.8274193,0.12814832,0.91026086,0.3937042,0.9152365,0.04436052,-0.40046754,,0.06045778,0.005721897,0.045205772,-0.4972606,0.28348538,0.81998044,-0.108906984,0.9172413,-0.38315502,-0.86073875,-0.2798295,-0.42523438,,0.07720026,1.326541,0.45218536,0.99781346,0.04654347,-0.046925407,0.0054374617,-0.7653921,-0.6435413,-0.06586898,0.64187896,-0.7639716,,-0.05586199,0.26571044,-0.09914197,0.30309147,-0.41405442,0.8583091,0.6880064,0.71827894,0.10354975,-0.65938056,0.5591371,0.5025763,,-0.024021938,0.44571277,-0.33254662,0.612715,-0.25400957,-0.7483712,-0.6177403,0.4366937,-0.6539844,0.49292728,0.86300504,0.11065684,,1.2402091177374626,0.3175047166579923,0.17806876472000002,1.8777734439039155,-0.5899964059871718,-0.5665906916218442,-0.4121170788567866,,-1.3926172510102832,0.17281159352652187,0.18297133350000003,1.5758199252862004,0.45978182171070714,-0.9978849969905262,0.8763409148104082,,-0.03301944778616772,-0.08405069345291694,0.08364271396,-0.06607131087440103,,2.4329871e-05,-7.390976e-06,-4.7683716e-07,1.0,-3.8832426e-05,-3.2626092e-05,3.88287e-05,1.0,-3.33786e-06,3.2626092e-05,3.3974648e-06,1.0,220,0.669,0,0,0.0,False,-0.26101001227556386,1.050963393382111
0.6859437529928982,11:56:51.114518,11:55:47.148527,0,,0.08713089,0.020712703,0.044328704,-0.38190067,0.41576862,-0.82540196,0.12635502,0.90819806,0.39901188,0.9155251,0.048089147,-0.39937595,,0.0604694,0.0057188123,0.04520929,-0.49729618,0.2833174,0.820017,-0.10897401,0.9172926,-0.3830131,-0.86070967,-0.2798316,-0.42529175,,0.07720026,1.326541,0.45218536,0.99781346,0.04654347,-0.046925407,0.0054374617,-0.7653921,-0.6435413,-0.06586898,0.64187896,-0.7639716,,-0.056255914,0.26628366,-0.09901538,0.30297336,-0.41847196,0.85620576,0.6867767,0.71875894,0.10827469,-0.66071546,0.5552178,0.5051616,,-0.024033887,0.44571176,-0.33255023,0.6127471,-0.25384358,-0.7484013,-0.6177647,0.43674684,-0.6539258,0.49285674,0.86302704,0.110799745,,1.240463967922312,0.3216054878142055,0.17810894971000002,1.8792412735083073,-0.5901330424869373,-0.564927377655477,-0.4122804229229208,,-1.392679032873277,0.1727652571292765,0.18297133350000003,1.5758199252862004,0.45964518521094166,-0.9976919003466893,0.876177570744274,,-0.03301944778616772,-0.08405069345291694,0.08364271396,-0.06607131087440103,,2.4329871e-05,-7.390976e-06,-4.7683716e-07,1.0,-3.8832426e-05,-3.2626092e-05,3.88287e-05,1.0,-3.33786e-06,3.2626092e-05,3.3974648e-06,1.0,228,0.693,0,0,0.0,False,-0.2616653671792948,1.050963393382111
0.7158500200603157,11:56:51.135306,11:55:47.148527,0,,0.08741176,0.021069467,0.04453613,-0.3818888,0.41943604,-0.8235499,0.12520912,0.90635145,0.40354627,0.91568744,0.05099377,-0.39864278,,0.060368016,0.005679086,0.045203865,-0.4973974,0.28327656,0.81996965,-0.10903433,0.9172766,-0.38303408,-0.86064357,-0.27992496,-0.42536405,,0.07717125,1.3265393,0.45219022,0.9978131,0.046593025,-0.046883743,0.0055020624,-0.7653891,-0.64354426,-0.06586898,0.64187896,-0.7639716,,-0.056533203,0.26667133,-0.09893644,0.30294153,-0.42243043,0.854271,0.68599755,0.71889764,0.11222093,-0.66153896,0.55203146,0.5075702,,-0.023911167,0.44568735,-0.33258092,0.61284906,-0.2538475,-0.74831647,-0.6177237,0.4366592,-0.65402305,0.49278137,0.8630702,0.11079855,,1.2407728772372808,0.32455557177215927,0.17815950502000003,1.8802897232257298,-0.5899964059871718,-0.5628334695753783,-0.41244376698905505,,-1.3926944783390254,0.1727343661977796,0.18297133350000003,1.5758199252862004,0.45950854871117625,-0.9975804824429929,0.876177570744274,,-0.03301944778616772,-0.08405069345291694,0.08364271396,-0.06607131087440103,,-4.94346e-06,-4.4107437e-06,-1.7881393e-06,1.0,1.0628253e-05,8.933246e-06,-1.06319785e-05,1.0,9.23872e-07,-8.929521e-06,-8.940697e-07,1.0,243,0.739,0,0,0.0,False,-0.26196325577190027,1.05105995378367
0.7366118649952114,11:56:51.179591,11:55:47.148527,0,,0.0879097,0.022031903,0.04492542,-0.38346088,0.4259892,-0.8194456,0.121614516,0.90283525,0.41242966,0.91551495,0.05849403,-0.3980085,,0.060391136,0.005679041,0.04520327,-0.49755812,0.2825071,0.8201376,-0.109470695,0.9174694,-0.38244757,-0.8604952,-0.2800709,-0.42556798,,0.07717125,1.3265393,0.45219022,0.9978131,0.046593025,-0.046883743,0.0055020624,-0.7653891,-0.64354426,-0.06586898,0.64187896,-0.7639716,,-0.05706251,0.26763976,-0.09860817,0.30452326,-0.42959458,0.8501259,0.68316,0.7204497,0.11935076,-0.6637454,0.544427,0.5128755,,-0.023933986,0.4456845,-0.33257845,0.6129934,-0.25306785,-0.74846226,-0.61791825,0.4367784,-0.6537596,0.49235767,0.8632389,0.11136703,,1.2417150506479362,0.3311585083796212,0.17837857803,1.8800800332822456,-0.5893132234883447,-0.5580814409847239,-0.41260711105518943,,-1.392818042065013,0.17265713886903736,0.18297911124000002,1.5756102353427162,0.45896200271211446,-0.9969714533479259,0.8761775707442739,,-0.03301944778616772,-0.08405069345291694,0.08364271396,-0.06607131087440103,,-4.94346e-06,-4.4107437e-06,-1.7881393e-06,1.0,1.0628253e-05,8.933246e-06,-1.06319785e-05,1.0,9.23872e-07,-8.929521e-06,-8.940697e-07,1.0,251,0.763,0,0,0.0,False,-0.260652545964438,1.0507219923782136
0.7809251040453091,11:56:51.206381,11:55:47.348527,0,,0.08825532,0.022854209,0.045189083,-0.38436097,0.4321671,-0.8157808,0.11833513,0.89943504,0.42072928,0.9155673,0.06517631,-0.39684838,,0.06041667,0.0056780875,0.045212686,-0.49733412,0.28220218,0.8203784,-0.109592736,0.9176057,-0.3820853,-0.8606093,-0.2799315,-0.42542928,,0.07717125,1.3265393,0.45219022,0.9978131,0.046593025,-0.046883743,0.0055020624,-0.7653891,-0.64354426,-0.06586898,0.64187896,-0.7639716,,-0.057429392,0.26842865,-0.0982792,0.30541638,-0.4363155,0.8463744,0.68067306,0.7216052,0.12637296,-0.66588664,0.5375079,0.5173783,,-0.023960557,0.44568762,-0.33258352,0.6127889,-0.2527869,-0.74872464,-0.6181079,0.4370043,-0.6534293,0.49237424,0.8632068,0.11154181,,1.2426881149900886,0.33633273940535163,0.17864042861,1.8798703433387607,-0.5891765869885792,-0.5528837407792839,-0.41244376698905516,,-1.392957051256749,0.17257991154029512,0.18298170382,1.5754005453992312,0.45896200271211446,-0.9966447383873637,0.8755241944797368,,-0.03301944778616772,-0.08405069345291694,0.08364271396,-0.06607131087440103,,-4.94346e-06,-4.4107437e-06,-1.7881393e-06,1.0,1.0628253e-05,8.933246e-06,-1.06319785e-05,1.0,9.23872e-07,-8.929521e-06,-8.940697e-07,1.0,259,0.788,0,0,0.0,False,-0.261427056305211,1.0511565141852286
0.8077017599716783,11:56:51.226934,11:55:47.348527,0,,0.08848886,0.023450494,0.045343727,-0.3855922,0.43598908,-0.81316185,0.11599338,0.89722824,0.42605975,0.91534925,0.06996387,-0.39653605,,0.060429666,0.0056747645,0.045214176,-0.49728033,0.28225204,0.8203939,-0.10958895,0.91759187,-0.3821197,-0.86064076,-0.27992663,-0.42536864,,0.07717125,1.3265393,0.45219022,0.9978131,0.046593025,-0.046883743,0.0055020624,-0.7653891,-0.64354426,-0.06586898,0.64187896,-0.7639716,,-0.05767531,0.26897892,-0.09801326,0.30666208,-0.44052878,0.84373736,0.67876995,0.7226444,0.13060063,-0.6672554,0.5326533,0.5206253,,-0.02397359,0.44568485,-0.33258572,0.61274,-0.25283676,-0.7487478,-0.61813253,0.43699244,-0.65341395,0.4924042,0.8631982,0.1114761,,1.2433754382158946,0.3399469783904887,0.17886209420000002,1.8790315835648228,-0.5887666774892829,-0.549297414963626,-0.4127704551213238,,-1.3930111103868685,0.17252585241017554,0.18298429640000002,1.5754005453992312,0.45896200271211446,-0.9966447383873637,0.8761775707442739,,-0.03301944778616772,-0.08405069345291694,0.08364271396,-0.06607131087440103,,-4.94346e-06,-4.4107437e-06,-1.7881393e-06,1.0,1.0628253e-05,8.933246e-06,-1.06319785e-05,1.0,9.23872e-07,-8.929521e-06,-8.940697e-07,1.0,267,0.812,0,0,0.0,False,-0.26106958999408425,1.05105995378367
0.828234440064989,11:56:51.258205,11:55:47.348527,0,,0.08885521,0.024351448,0.04555005,-0.3861338,0.44219896,-0.80954367,0.11389917,0.8937484,0.43386704,0.9153838,0.07532427,-0.39547265,,0.06044684,0.005674824,0.04521984,-0.49719933,0.2823759,0.8204003,-0.109565765,0.917554,-0.38221726,-0.8606905,-0.27992594,-0.42526847,,0.07717125,1.3265393,0.45219022,0.9978131,0.046593025,-0.046883743,0.0055020624,-0.7653891,-0.64354426,-0.06586898,0.64187896,-0.7639716,,-0.058057994,0.26979274,-0.097589254,0.30719924,-0.4471696,0.84004045,0.6771808,0.7229162,0.13717994,-0.66862154,0.5267177,0.524894,,-0.023991378,0.44568697,-0.33258817,0.6126663,-0.25295904,-0.7487668,-0.61815864,0.43695265,-0.65341586,0.49246308,0.86318254,0.11133737,,1.2443021661608014,0.3453065550052005,0.17921727766,1.8800800332822456,-0.5878102219909248,-0.545421652101489,-0.4122804229229209,,-1.3931037831813593,0.1724795160129302,0.18298688898,1.5754005453992312,0.45896200271211446,-0.9967264171275043,0.8763409148104081,,-0.03301944778616772,-0.08405069345291694,0.08364271396,-0.06607131087440103,,-4.94346e-06,-4.4107437e-06,-1.7881393e-06,1.0,1.0628253e-05,8.933246e-06,-1.06319785e-05,1.0,9.23872e-07,-8.929521e-06,-8.940697e-07,1.0,275,0.836,0,0,0.0,False,-0.26059296824591627,1.0507219923782136
0.8595478180795908,11:56:51.280894,11:55:47.348527,0,,0.08912139,0.024962693,0.04567574,-0.38608506,0.44630468,-0.8073107,0.11397287,0.89154184,0.43836418,0.91539526,0.07723427,-0.39507765,,0.0604532,0.005674854,0.045223176,-0.4971665,0.2824642,0.8203898,-0.10955471,0.9175215,-0.38229868,-0.86071086,-0.27994362,-0.4252156,,0.07717125,1.3265393,0.45219022,0.9978131,0.046593025,-0.046883743,0.0055020624,-0.7653891,-0.64354426,-0.06586898,0.64187896,-0.7639716,,-0.058333978,0.27033505,-0.097289294,0.3071497,-0.45142192,0.8377812,0.677243,0.7221563,0.14082699,-0.66858137,0.52412647,0.5275324,,-0.023998147,0.44568866,-0.33258995,0.6126365,-0.25304362,-0.7487626,-0.6181681,0.43690777,-0.6534369,0.49248824,0.86318046,0.11124214,,1.2448582029277455,0.3489285167232118,0.17946357276000002,1.8821769327170905,-0.5861705839937394,-0.5443899834817697,-0.41440389578266645,,-1.3931423968457304,0.17246407054718174,0.18298688898,1.5754005453992312,0.45896200271211446,-0.9968080958676448,0.8765042588765425,,-0.03301944778616772,-0.08405069345291694,0.08364271396,-0.06607131087440103,,-4.94346e-06,-4.4107437e-06,-1.7881393e-06,1.0,1.0628253e-05,8.933246e-06,-1.06319785e-05,1.0,9.23872e-07,-8.929521e-06,-8.940697e-07,1.0,286,0.87,0,0,0.0,False,-0.2608908568385213,1.0506737121774343
0.8822303920751438,11:56:51.307418,11:55:47.348527,0,,0.08950278,0.025859237,0.045773655,-0.38763806,0.45214635,-0.80330604,0.11336693,0.88821065,0.44522992,0.914814,0.08151966,-0.39556277,,0.060455613,0.00567241,0.045226276,-0.49715114,0.28227746,0.8204634,-0.109553665,0.9176111,-0.38208362,-0.8607199,-0.279838,-0.42526683,,0.07717125,1.3265393,0.45219022,0.9978131,0.046593025,-0.046883743,0.0055020624,-0.7653891,-0.64354426,-0.06586898,0.64187896,-0.7639716,,-0.058722477,0.2710774,-0.096782476,0.3087465,-0.45760483,0.8338306,0.6764903,0.72189724,0.14568865,-0.66860783,0.51909745,0.5324485,,-0.024000926,0.44568875,-0.33259365,0.6126225,-0.2528744,-0.7488312,-0.6181752,0.4370645,-0.6533254,0.4924968,0.8631507,0.11143487,,1.2454374078933124,0.3540332431530742,0.17989394104,1.8830156924910286,-0.5837111269979616,-0.5410047088990283,-0.4114637025922495,,-1.3931578423114788,0.1724486250814333,0.18298429640000002,1.5754005453992312,0.45896200271211446,-0.9965630596472231,0.8763409148104082,,-0.03301944778616772,-0.08405069345291694,0.08364271396,-0.06607131087440103,,-4.94346e-06,-4.4107437e-06,-1.7881393e-06,1.0,1.0628253e-05,8.933246e-06,-1.06319785e-05,1.0,9.23872e-07,-8.929521e-06,-8.940697e-07,1.0,294,0.894,0,0,0.0,False,-0.26196325577190027,1.050335750771978
0.9087548970710486,11:56:51.337785,11:55:47.485403,0,,0.0899043,0.026729524,0.045793295,-0.3903585,0.45621067,-0.79968256,0.1153155,0.88598174,0.44915318,0.9134126,0.08311495,-0.3984587,,0.060456544,0.0056637675,0.045223355,-0.4971575,0.282299,0.82045215,-0.10958031,0.91759145,-0.38212323,-0.86071277,-0.27988082,-0.42525303,,0.07717125,1.3265393,0.45219022,0.9978131,0.046593025,-0.046883743,0.0055020624,-0.7653891,-0.64354426,-0.06586898,0.64187896,-0.7639716,,-0.0591244,0.27174956,-0.096229605,0.31157544,-0.46178922,0.8304646,0.6772904,0.72092694,0.14677234,-0.6664822,0.516735,0.5373885,,-0.024001328,0.44568044,-0.33259746,0.61262816,-0.2528896,-0.74882144,-0.6181888,0.4370187,-0.65334314,0.49247265,0.8631695,0.11139643,,1.2457385944754071,0.35890628759670984,0.18035282770000002,1.8840641422084514,-0.5786555765066402,-0.5405531618879242,-0.4121170788567865,,-1.3931346741128563,0.17240228868418794,0.18298300011000002,1.5754005453992312,0.45896200271211446,-0.9965630596472231,0.8763409148104082,,-0.03301944778616772,-0.08405069345291694,0.08364271396,-0.06607131087440103,,-4.94346e-06,-4.4107437e-06,-1.7881393e-06,1.0,1.0628253e-05,8.933246e-06,-1.06319785e-05,1.0,9.23872e-07,-8.929521e-06,-8.940697e-07,1.0,302,0.919,0,0,0.0,False,-0.2618441003348577,1.0506737121774343
0.9391220570541918,11:56:51.362328,11:55:47.485403,0,,0.09015931,0.027304411,0.045806676,-0.39055794,0.4599056,-0.7974656,0.114282906,0.883787,0.45371798,0.91345716,0.086066455,-0.3977294,,0.06045904,0.0056542307,0.045221627,-0.49724358,0.28218162,0.82044035,-0.10968006,0.91760063,-0.3820725,-0.8606504,-0.27996898,-0.42532134,,0.07717125,1.3265393,0.45219022,0.9978131,0.046593025,-0.046883743,0.0055020624,-0.7653891,-0.64354426,-0.06586898,0.64187896,-0.7639716,,-0.059379738,0.27219436,-0.0958654,0.31177062,-0.4657204,0.82819295,0.6765203,0.7208438,0.15068047,-0.66717273,0.51331156,0.5398072,,-0.024003444,0.44567215,-0.33260265,0.6127061,-0.25276127,-0.748801,-0.61820847,0.43697703,-0.65335244,0.49235103,0.86322814,0.11147934,,1.2458544354685206,0.3620262716778966,0.18067430762000003,1.885112591925874,-0.5783823035071094,-0.5384889929713814,-0.4134238313858607,,-1.393126951379982,0.1723482295540684,0.18298040753000003,1.5754005453992312,0.45882536621234904,-0.9964516417435267,0.8763409148104082,,-0.03301944778616772,-0.08405069345291694,0.08364271396,-0.06607131087440103,,-4.94346e-06,-4.4107437e-06,-1.7881393e-06,1.0,1.0628253e-05,8.933246e-06,-1.06319785e-05,1.0,9.23872e-07,-8.929521e-06,-8.940697e-07,1.0,310,0.944,0,0,0.0,False,-0.2617249448978165,1.0504805913743163
0.9636670980835333,11:56:51.383453,11:55:47.485403,0,,0.09043429,0.027890235,0.045783877,-0.3918948,0.4618265,-0.7956977,0.11491424,0.8826779,0.45571294,0.9128051,0.08715445,-0.39898735,,0.060463116,0.0056447387,0.04521984,-0.4973371,0.2822726,0.82035244,-0.10954875,0.91758674,-0.38214344,-0.8606131,-0.27992266,-0.42542726,,0.07717125,1.3265393,0.45219022,0.9978131,0.046593025,-0.046883743,0.0055020624,-0.7653891,-0.64354426,-0.06586898,0.64187896,-0.7639716,,-0.05965192,0.27262425,-0.095464855,0.31315774,-0.4677263,0.82653755,0.6766808,0.7205488,0.15136856,-0.6663597,0.5118999,0.54214686,,-0.024007104,0.44566363,-0.3326076,0.61279184,-0.25285763,-0.74869835,-0.61807865,0.4369893,-0.653467,0.4924073,0.8631937,0.11149757,,1.2458776036671433,0.3651848694234544,0.18101782447,1.8859513516998119,-0.576059483011097,-0.5389945587518309,-0.412933799187458,,-1.3931192286471077,0.17229417042394882,0.18297911124000002,1.5756102353427162,0.45882536621234904,-0.9963699630033862,0.8761775707442738,,-0.03301944778616772,-0.08405069345291694,0.08364271396,-0.06607131087440103,,-4.94346e-06,-4.4107437e-06,-1.7881393e-06,1.0,1.0628253e-05,8.933246e-06,-1.06319785e-05,1.0,9.23872e-07,-8.929521e-06,-8.940697e-07,1.0,318,0.967,0,0,0.0,False,-0.26112916771260597,1.0505288715750958
0.984761490020901,11:56:51.407379,11:55:47.485403,0,,0.09070915,0.028479367,0.045751393,-0.39288417,0.46512997,-0.7932819,0.115651846,0.88079214,0.4591621,0.91228646,0.08865297,-0.39984244,,0.06046917,0.00563401,0.045223176,-0.49720806,0.2822603,0.8204348,-0.10972121,0.9175559,-0.382168,-0.8606657,-0.28003606,-0.42524627,,0.07717125,1.3265393,0.45219022,0.9978131,0.046593025,-0.046883743,0.0055020624,-0.7653891,-0.64354426,-0.06586898,0.64187896,-0.7639716,,-0.05992316,0.27305073,-0.09505469,0.31418732,-0.4711444,0.8242022,0.6769889,0.71982723,0.15341048,-0.6655617,0.5097761,0.5451201,,-0.02401343,0.44565764,-0.33261693,0.6126736,-0.25282937,-0.7488046,-0.6182523,0.4368905,-0.65336883,0.49233648,0.863252,0.11135895,,1.2458776036671433,0.3683048535046411,0.18137300793000002,1.8872094913607194,-0.5738732990148498,-0.5380818467863352,-0.4127704551213236,,-1.3931346741128563,0.1722246658280808,0.18297392608000002,1.5754005453992312,0.45882536621234904,-0.9964516417435267,0.8760142266781396,,-0.03301944778616772,-0.08405069345291694,0.08364271396,-0.06607131087440103,,-4.94346e-06,-4.4107437e-06,-1.7881393e-06,1.0,1.0628253e-05,8.933246e-06,-1.06319785e-05,1.0,9.23872e-07,-8.929521e-06,-8.940697e-07,1.0,334,1.016,0,0,0.0,False,-0.26178452261633733,1.05105995378367
1.0087218040134758,11:56:51.457978,11:55:47.615539,0,,0.09157919,0.030348271,0.045624956,-0.39414358,0.47426382,-0.787226,0.11872345,0.8756632,0.46810102,0.9113482,0.09103674,-0.4014433,,0.06047967,0.005606726,0.045226753,-0.49695262,0.28163713,0.82080364,-0.110318154,0.9176904,-0.381673,-0.8607369,-0.28022283,-0.42497894,,0.07717125,1.3265393,0.45219022,0.9978131,0.046593025,-0.046883743,0.0055020624,-0.7653891,-0.64354426,-0.06586898,0.64187896,-0.7639716,,-0.060779743,0.2743892,-0.093735434,0.31552106,-0.48044634,0.8183018,0.678878,0.7168079,0.15909465,-0.6630016,0.5053294,0.5523324,,-0.02402396,0.44563934,-0.3326375,0.6124382,-0.2521882,-0.7492133,-0.618757,0.4369243,-0.6528683,0.49199516,0.8634224,0.11154593,,1.2458158218041495,0.37798143779604443,0.1825305949,1.893500189665255,-0.5674513835258741,-0.538662800072055,-0.4129337991874579,,-1.3931423968457304,0.17205476570484785,0.18296225947000003,1.5747714755687778,0.45868872971258356,-0.9960951876194086,0.8761775707442739,,-0.03301944778616772,-0.08405069345291694,0.08364271396,-0.06607131087440103,,-4.94346e-06,-4.4107437e-06,-1.7881393e-06,1.0,1.0628253e-05,8.933246e-06,-1.06319785e-05,1.0,9.23872e-07,-8.929521e-06,-8.940697e-07,1.0,342,1.041,0,0,0.0,False,-0.2616653671792948,1.0502391903704191
1.0593207320198417,11:56:51.484112,11:55:47.615539,0,,0.09187886,0.031028211,0.045551687,-0.39555186,0.47629833,-0.78528893,0.11970943,0.87446404,0.47008738,0.91060877,0.09193736,-0.40291333,,0.06048008,0.0056025684,0.045231104,-0.49694306,0.28164905,0.8208054,-0.11032039,0.91768557,-0.38168398,-0.8607421,-0.2802267,-0.42496586,,0.07717125,1.3265393,0.45219022,0.9978131,0.046593025,-0.046883743,0.0055020624,-0.7653891,-0.64354426,-0.06586898,0.64187896,-0.7639716,,-0.061072268,0.27486017,-0.09323532,0.3169867,-0.48254955,0.8164958,0.67926574,0.71632016,0.15963556,-0.66190445,0.50401527,0.5548433,,-0.024024915,0.44563934,-0.33264345,0.6124295,-0.25219938,-0.7492166,-0.6187632,0.43691695,-0.6528673,0.49199817,0.8634229,0.111529134,,1.245800376338401,0.3813794402607032,0.18297651866000003,1.8945486393826774,-0.5647186535305654,-0.5394209408234532,-0.4127704551213237,,-1.3931501195786047,0.1720393202390994,0.18295707431000002,1.5747714755687778,0.45868872971258356,-0.9960951876194085,0.8765042588765424,,-0.03301944778616772,-0.08405069345291694,0.08364271396,-0.06607131087440103,,-4.94346e-06,-4.4107437e-06,-1.7881393e-06,1.0,1.0628253e-05,8.933246e-06,-1.06319785e-05,1.0,9.23872e-07,-8.929521e-06,-8.940697e-07,1.0,350,1.065,0,0,0.0,False,-0.2612483231496481,1.0506254319766548
1.0854406700236723,11:56:51.504200,11:55:47.615539,0,,0.09218089,0.031666487,0.045497417,-0.39544904,0.480385,-0.7828476,0.12084484,0.8721249,0.4741251,0.9105035,0.09288913,-0.40293297,,0.06048075,0.005597472,0.04523337,-0.49693757,0.2816634,0.8208038,-0.110328704,0.91767704,-0.38170207,-0.8607443,-0.28024024,-0.42495257,,0.07717125,1.3265393,0.45219022,0.9978131,0.046593025,-0.046883743,0.0055020624,-0.7653891,-0.64354426,-0.06586898,0.64187896,-0.7639716,,-0.061368745,0.27531016,-0.09277578,0.31689292,-0.48670167,0.8140641,0.6800837,0.7148633,0.16265483,-0.661109,0.5020876,0.55753297,,-0.024025826,0.44563717,-0.33264855,0.61242443,-0.2522116,-0.7492167,-0.61877126,0.4369,-0.652871,0.4919944,0.8634279,0.11150694,,1.2457154262767844,0.38460754260212904,0.18338614630000002,1.8972746086479766,-0.5628057425338492,-0.538775465491408,-0.41375051951812936,,-1.3931501195786047,0.17201615204047674,0.18295318544000003,1.5747714755687778,0.45868872971258356,-0.9960951876194085,0.8765042588765424,,-0.03301944778616772,-0.08405069345291694,0.08364271396,-0.06607131087440103,,-4.94346e-06,-4.4107437e-06,-1.7881393e-06,1.0,1.0628253e-05,8.933246e-06,-1.06319785e-05,1.0,9.23872e-07,-8.929521e-06,-8.940697e-07,1.0,358,1.091,0,0,0.0,False,-0.26136747858668974,1.0509151131813312
1.1055423460202292,11:56:51.533194,11:55:47.615539,0,,0.09268916,0.03277485,0.04536766,-0.39645708,0.48431745,-0.77990925,0.12210706,0.86979544,0.47806448,0.90989643,0.094299525,-0.40397522,,0.06048044,0.005591929,0.04523492,-0.4969378,0.28167534,0.8207995,-0.11034039,0.9176676,-0.38172126,-0.86074257,-0.28025904,-0.4249435,,0.07717125,1.3265393,0.45219022,0.9978131,0.046593025,-0.046883743,0.0055020624,-0.7653891,-0.64354426,-0.06586898,0.64187896,-0.7639716,,-0.06186442,0.27607042,-0.091951184,0.31794855,-0.490739,0.81122375,0.68074864,0.7137066,0.1649368,-0.6599167,0.49979806,0.5609919,,-0.024025649,0.44563425,-0.33265352,0.6124246,-0.25222072,-0.74921346,-0.61877847,0.43687907,-0.65287817,0.49198508,0.8634358,0.11148673,,1.2455223579549288,0.39007523747708,0.18413021676000002,1.9002102678567596,-0.5595264665394786,-0.5399792778575918,-0.4121170788567867,,-1.3931423968457304,0.17199298384185405,0.18294929657000003,1.5747714755687778,0.45868872971258356,-0.9960951876194085,0.8765042588765424,,-0.03301944778616772,-0.08405069345291694,0.08364271396,-0.06607131087440103,,-4.94346e-06,-4.4107437e-06,-1.7881393e-06,1.0,1.0628253e-05,8.933246e-06,-1.06319785e-05,1.0,9.23872e-07,-8.929521e-06,-8.940697e-07,1.0,366,1.116,0,0,0.0,False,-0.26148663402373185,1.0503840309727575
1.134530422044918,11:56:51.560278,11:55:47.615539,0,,0.09323911,0.033848226,0.045265168,-0.3971229,0.48840797,-0.77701426,0.12243289,0.8672627,0.48256135,0.9095623,0.096504,-0.4042071,,0.060481094,0.005586818,0.045237184,-0.49693224,0.28168964,0.820798,-0.11034873,0.91765916,-0.38173938,-0.8607447,-0.2802726,-0.4249302,,0.07717125,1.3265393,0.45219022,0.9978131,0.046593025,-0.046883743,0.0055020624,-0.7653891,-0.64354426,-0.06586898,0.64187896,-0.7639716,,-0.06240394,0.27681798,-0.09116684,0.31864017,-0.49500096,0.8083579,0.6808316,0.7128748,0.16815993,-0.6594973,0.49677312,0.56416285,,-0.024026558,0.4456321,-0.33265865,0.6124195,-0.2522329,-0.7492135,-0.6187865,0.4368621,-0.65288186,0.4919813,0.8634408,0.11146454,,1.2450744394482238,0.3955661005506536,0.18483539852000003,1.9031459270655429,-0.5574769190429971,-0.5406704015313515,-0.41244376698905516,,-1.3931423968457304,0.17196981564323138,0.1829454077,1.5747714755687778,0.45868872971258356,-0.9960951876194086,0.8761775707442739,,-0.03301944778616772,-0.08405069345291694,0.08364271396,-0.06607131087440103,,-4.94346e-06,-4.4107437e-06,-1.7881393e-06,1.0,1.0628253e-05,8.933246e-06,-1.06319785e-05,1.0,9.23872e-07,-8.929521e-06,-8.940697e-07,1.0,374,1.14,0,0,0.0,False,-0.26106958999408425,1.0503840309727575
1.161618962069042,11:56:51.589127,11:55:47.615539,0,,0.09380564,0.034877494,0.045155987,-0.3979589,0.4927159,-0.77386034,0.12187925,0.8644513,0.48771846,0.90927124,0.09977436,-0.40406796,,0.06048303,0.0055844933,0.045238495,-0.49692273,0.28170156,0.82079965,-0.11035097,0.9176543,-0.3817503,-0.86074996,-0.28027642,-0.42491713,,0.07717125,1.3265393,0.45219022,0.9978131,0.046593025,-0.046883743,0.0055020624,-0.7653891,-0.64354426,-0.06586898,0.64187896,-0.7639716,,-0.06295939,0.277526,-0.09040366,0.31949794,-0.49956983,0.8052025,0.68026197,0.71247435,0.1721162,-0.6596702,0.49275783,0.56747246,,-0.024028616,0.4456311,-0.332661,0.61241084,-0.2522441,-0.74921685,-0.6187927,0.43685475,-0.6528809,0.4919843,0.8634413,0.111447744,,1.2443793934895437,0.40089478623386854,0.18552243222,1.905452516443873,-0.5563838270448734,-0.5401732061785333,-0.41326048731972664,,-1.3931501195786047,0.17195437017748294,0.18294411141000003,1.5747714755687778,0.45868872971258356,-0.9960951876194086,0.8758508826120053,,-0.03301944778616772,-0.08405069345291694,0.08364271396,-0.06607131087440103,,-4.94346e-06,-4.4107437e-06,-1.7881393e-06,1.0,1.0628253e-05,8.933246e-06,-1.06319785e-05,1.0,9.23872e-07,-8.929521e-06,-8.940697e-07,1.0,382,1.165,0,0,0.0,False,-0.26112916771260597,1.0506737121774343
1.1904669239884242,11:56:51.614820,11:55:47.777558,0,,0.0942114,0.03557703,0.045030624,-0.39884585,0.49481845,-0.7720601,0.12224296,0.8630997,0.4900157,0.9088336,0.10106176,-0.40473187,,0.060482018,0.005583316,0.04524052,-0.49692273,0.28170156,0.82079965,-0.11035097,0.9176543,-0.3817503,-0.86074996,-0.28027642,-0.42491713,,0.07717125,1.3265393,0.45219022,0.9978131,0.046593025,-0.046883743,0.0055020624,-0.7653891,-0.64354426,-0.06586898,0.64187896,-0.7639716,,-0.06335321,0.27797437,-0.08984369,0.3204187,-0.5017736,0.8034645,0.68032223,0.71210355,0.17340755,-0.6591612,0.4910517,0.569539,,-0.02402788,0.44563177,-0.3326634,0.61241084,-0.2522441,-0.74921685,-0.6187927,0.43685475,-0.6528809,0.4919843,0.8634413,0.111447744,,1.2436843475308634,0.40443179789026334,0.18602280016000003,1.9071300359917491,-0.5550174620472191,-0.5411240277352163,-0.4129337991874579,,-1.3931501195786047,0.17195437017748294,0.18294151883,1.5747714755687778,0.45868872971258356,-0.9960951876194086,0.8758508826120053,,-0.03301944778616772,-0.08405069345291694,0.08364271396,-0.06607131087440103,,-4.94346e-06,-4.4107437e-06,-1.7881393e-06,1.0,1.0628253e-05,8.933246e-06,-1.06319785e-05,1.0,9.23872e-07,-8.929521e-06,-8.940697e-07,1.0,415,1.266,0,0,0.0,False,-0.26112916771260597,1.0507219923782136
1.216159919044003,11:56:51.713719,11:55:47.777558,0,,0.096469425,0.038839683,0.044223294,-0.40381837,0.5087025,-0.7603635,0.12299475,0.85378736,0.5058847,0.9065335,0.11076477,-0.4073428,,0.060490187,0.005556196,0.045244634,-0.49698085,0.28171083,0.8207613,-0.110480756,0.91759896,-0.3818459,-0.8606998,-0.28044832,-0.42490533,,0.07717125,1.3265393,0.45219022,0.9978131,0.046593025,-0.046883743,0.0055020624,-0.7653891,-0.64354426,-0.06586898,0.64187896,-0.7639716,,-0.06553541,0.27990824,-0.08703416,0.325568,-0.5164277,0.7920278,0.6797473,0.71009696,0.18359175,-0.65722835,0.47860712,0.58222514,,-0.024036186,0.44561425,-0.33268443,0.6124631,-0.25222886,-0.74917924,-0.61884534,0.43669575,-0.6529374,0.49185306,0.86352617,0.11136938,,1.2379386342724406,0.4212441873574501,0.18850519551000003,1.915098253844161,-0.5510550035540214,-0.5398628162346817,-0.41244376698905516,,-1.3931501195786047,0.17180763825287268,0.18292855593000001,1.5747714755687778,0.45855209321281815,-0.9960654484558529,0.8760142266781397,,-0.03301944778616772,-0.08405069345291694,0.08364271396,-0.06607131087440103,,-4.94346e-06,-4.4107437e-06,-1.7881393e-06,1.0,1.0628253e-05,8.933246e-06,-1.06319785e-05,1.0,9.23872e-07,-8.929521e-06,-8.940697e-07,1.0,423,1.291,0,0,0.0,False,-0.25975888018662197,1.0506254319766548
1.3150309859775007,11:56:51.737085,11:55:47.777558,0,,0.09701104,0.039483786,0.044083446,-0.40526995,0.5108632,-0.7581393,0.12272966,0.8521913,0.5086328,0.90592146,0.113087386,-0.40806565,,0.060492292,0.005548328,0.045244396,-0.49707803,0.28179228,0.8206744,-0.11034393,0.91759086,-0.3819049,-0.86066115,-0.28039297,-0.42502016,,0.07717125,1.3265393,0.45219022,0.9978131,0.046593025,-0.046883743,0.0055020624,-0.7653891,-0.64354426,-0.06586898,0.64187896,-0.7639716,,-0.06606337,0.28029707,-0.08648841,0.32706624,-0.5187769,0.7898723,0.679237,0.71017367,0.18517701,-0.65701205,0.4759453,0.5846463,,-0.024038132,0.4456082,-0.33268952,0.6125523,-0.25231707,-0.7490766,-0.6187102,0.43671948,-0.6530496,0.4919119,0.8634884,0.11140238,,1.2363863649647213,0.42488159454120983,0.18897704507000002,1.916356393505068,-0.5506450940547251,-0.5401153912056302,-0.41260711105518955,,-1.3931423968457304,0.17176902458850155,0.18292596335000003,1.5749811655122625,0.45855209321281815,-0.9959837697157123,0.8758508826120053,,-0.03301944778616772,-0.08405069345291694,0.08364271396,-0.06607131087440103,,-4.94346e-06,-4.4107437e-06,-1.7881393e-06,1.0,1.0628253e-05,8.933246e-06,-1.06319785e-05,1.0,9.23872e-07,-8.929521e-06,-8.940697e-07,1.0,431,1.315,0,0,0.0,False,-0.25880563669028556,1.0504805913743163
1.338391675031744,11:56:51.764534,11:55:47.777558,0,,0.09784345,0.040412188,0.04390511,-0.40822455,0.51306736,-0.75505936,0.12276104,0.8504571,0.5115196,0.9045896,0.11612293,-0.41016218,,0.06049455,0.0055493563,0.045247853,-0.49685726,0.28155017,0.82089126,-0.11064485,0.9176389,-0.38170227,-0.86074996,-0.28047892,-0.4247834,,0.07717125,1.3265393,0.45219022,0.9978131,0.046593025,-0.046883743,0.0055020624,-0.7653891,-0.64354426,-0.06586898,0.64187896,-0.7639716,,-0.06687787,0.28086922,-0.08571645,0.330123,-0.5212299,0.7869804,0.6785919,0.71058196,0.18597385,-0.6561492,0.4726443,0.58828187,,-0.024040861,0.4456111,-0.33269104,0.61234987,-0.25206602,-0.74932665,-0.61901075,0.43672037,-0.6527641,0.49178585,0.8635613,0.11139408,,1.2340000405065858,0.4303492894161608,0.18963556039,1.917614533165975,-0.5492787290570706,-0.5414746064630163,-0.4121170788567866,,-1.393165565044353,0.17176130185562732,0.18292466706000002,1.5745617856252934,0.45855209321281815,-0.9959837697157123,0.8758508826120053,,-0.03301944778616772,-0.08405069345291694,0.08364271396,-0.06607131087440103,,-4.94346e-06,-4.4107437e-06,-1.7881393e-06,1.0,1.0628253e-05,8.933246e-06,-1.06319785e-05,1.0,9.23872e-07,-8.929521e-06,-8.940697e-07,1.0,439,1.341,0,0,0.0,False,-0.25922268071993226,1.0504805913743163
1.3658682390814647,11:56:51.786569,11:55:47.777558,0,,0.09876316,0.041364282,0.043776914,-0.41083843,0.516232,-0.75147617,0.12158698,0.8479115,0.51600635,0.9035643,0.120625466,-0.4111218,,0.060492612,0.0055490136,0.04524827,-0.49676228,0.28128672,0.82103896,-0.11080223,0.91772443,-0.3814509,-0.86078465,-0.28046334,-0.42472368,,0.07717125,1.3265393,0.45219022,0.9978131,0.046593025,-0.046883743,0.0055020624,-0.7653891,-0.64354426,-0.06586898,0.64187896,-0.7639716,,-0.06778361,0.28148633,-0.0849631,0.33281457,-0.524764,0.7834904,0.6771753,0.71121407,0.18870142,-0.6562531,0.46775773,0.5920596,,-0.024038991,0.44561133,-0.3326918,0.6122626,-0.25180838,-0.7494845,-0.6191576,0.43682033,-0.65255797,0.49170962,0.8635859,0.11153969,,1.2313356976649785,0.4362571800649426,0.19027722394000002,1.9190823627703668,-0.5492787290570706,-0.5415562852031568,-0.4116270466583837,,-1.3931578423114788,0.17176130185562732,0.18292337077,1.5743520956818087,0.45855209321281815,-0.995820412235431,0.8758508826120054,,-0.03301944778616772,-0.08405069345291694,0.08364271396,-0.06607131087440103,,-4.94346e-06,-4.4107437e-06,-1.7881393e-06,1.0,1.0628253e-05,8.933246e-06,-1.06319785e-05,1.0,9.23872e-07,-8.929521e-06,-8.940697e-07,1.0,451,1.378,0,0,0.0,False,-0.2593418361569748,1.0505771517758753
1.3879061930347234,11:56:51.817568,11:55:47.777558,0,,0.09969034,0.04227531,0.043670446,-0.41453734,0.51813585,-0.7481271,0.11990881,0.8460196,0.5194925,0.9020978,0.12564194,-0.4128359,,0.060490504,0.0055478364,0.045247436,-0.4968614,0.2811359,0.8210306,-0.11088243,0.91775334,-0.38135797,-0.86071706,-0.28051987,-0.42482314,,0.07717125,1.3265393,0.45219022,0.9978131,0.046593025,-0.046883743,0.0055020624,-0.7653891,-0.64354426,-0.06586898,0.64187896,-0.7639716,,-0.06869862,0.2820844,-0.08425175,0.33662474,-0.5270855,0.7802978,0.67514795,0.71274316,0.19019032,-0.6563985,0.4627937,0.5957877,,-0.024036778,0.44561014,-0.3326922,0.6123525,-0.2516516,-0.74946374,-0.6191583,0.43681806,-0.65255874,0.49159676,0.8636327,0.11167444,,1.2285941274946288,0.4421032888507305,0.19088129508,1.9190823627703668,-0.5492787290570706,-0.5418830001637192,-0.4116270466583837,,-1.3931501195786047,0.17176130185562732,0.18292207448000003,1.5743520956818087,0.45841545671305267,-0.9957089943317345,0.8758508826120054,,-0.03301944778616772,-0.08405069345291694,0.08364271396,-0.06607131087440103,,-4.94346e-06,-4.4107437e-06,-1.7881393e-06,1.0,1.0628253e-05,8.933246e-06,-1.06319785e-05,1.0,9.23872e-07,-8.929521e-06,-8.940697e-07,1.0,459,1.402,0,0,0.0,False,-0.259282258438454,1.0502874705711984
1.4188872349914163,11:56:51.845089,11:55:47.777558,0,,0.100301236,0.04282637,0.043616712,-0.41688037,0.51957124,-0.74582607,0.11911219,0.8446764,0.5218563,0.90112317,0.12871465,-0.4140164,,0.060492434,0.005545482,0.045248687,-0.49685186,0.28114778,0.8210324,-0.11088464,0.9177486,-0.38136894,-0.8607222,-0.28052372,-0.42481005,,0.07717125,1.3265393,0.45219022,0.9978131,0.046593025,-0.046883743,0.0055020624,-0.7653891,-0.64354426,-0.06586898,0.64187896,-0.7639716,,-0.06930289,0.28245014,-0.08382646,0.3390421,-0.5287757,0.77810454,0.67404383,0.7135212,0.19118692,-0.6562891,0.45965618,0.59833175,,-0.024038836,0.44560912,-0.3326946,0.6123438,-0.2516628,-0.7494671,-0.6191645,0.43681073,-0.6525578,0.49159977,0.86363316,0.11165766,,1.2267329488719407,0.44581020063035826,0.19123647854000003,1.9192920527138513,-0.5491420925573052,-0.5419944180674157,-0.4116270466583837,,-1.3931578423114788,0.17174585638987888,0.18292077819000002,1.5743520956818087,0.45841545671305267,-0.9957089943317345,0.8758508826120054,,-0.03301944778616772,-0.08405069345291694,0.08364271396,-0.06607131087440103,,-4.94346e-06,-4.4107437e-06,-1.7881393e-06,1.0,1.0628253e-05,8.933246e-06,-1.06319785e-05,1.0,9.23872e-07,-8.929521e-06,-8.940697e-07,1.0,492,1.504,0,0,0.0,False,-0.2594014138754961,1.0505288715750958
1.4463772830786183,11:56:51.945403,11:55:48.060688,0,,0.10351389,0.045298293,0.043136507,-0.4358706,0.5392793,-0.7205517,0.11282265,0.82702875,0.55072165,0.89290977,0.15874875,-0.42132056,,0.0605006,0.0055378526,0.045247793,-0.4969129,0.2810446,0.8210308,-0.110973835,0.9177582,-0.38131982,-0.8606756,-0.28059566,-0.42485714,,0.07717125,1.3265393,0.45219022,0.9978131,0.046593025,-0.046883743,0.0055020624,-0.7653891,-0.64354426,-0.06586898,0.64187896,-0.7639716,,-0.072463825,0.28391746,-0.081701025,0.3586609,-0.550953,0.7535338,0.6650316,0.71728927,0.20791611,-0.6550537,0.42655239,0.6236648,,-0.024046697,0.44560215,-0.3326985,0.6123989,-0.2515508,-0.7494597,-0.6191901,0.43677905,-0.65255475,0.49149895,0.8636818,0.111725256,,1.2153110269509626,0.4633021905904768,0.19299035891000002,1.9115335248049241,-0.5491420925573052,-0.5158572212224356,-0.41097367039384636,,-1.3931810105101015,0.17168407452688508,0.18292077819000002,1.5743520956818087,0.4582788202132873,-0.9955975764280383,0.8758508826120054,,-0.03301944778616772,-0.08405069345291694,0.08364271396,-0.06607131087440103,,-4.94346e-06,-4.4107437e-06,-1.7881393e-06,1.0,1.0628253e-05,8.933246e-06,-1.06319785e-05,1.0,9.23872e-07,-8.929521e-06,-8.940697e-07,1.0,500,1.528,0,0,0.0,False,-0.2589843698458485,1.0506254319766548
1.5466859369771555,11:56:51.968649,11:55:48.060688,0,,0.104200006,0.045709834,0.04302162,-0.4404475,0.54266286,-0.7152085,0.11250433,0.8237249,0.55571574,0.89070123,0.16429952,-0.42385948,,0.060504273,0.005538121,0.04524988,-0.4968935,0.2809894,0.8210614,-0.11096668,0.91778904,-0.38124752,-0.8606876,-0.2805498,-0.42486298,,0.07717125,1.3265393,0.45219022,0.9978131,0.046593025,-0.046883743,0.0055020624,-0.7653891,-0.64354426,-0.06586898,0.64187896,-0.7639716,,-0.07313783,0.2841321,-0.081309885,0.36340848,-0.5547938,0.74842376,0.6636549,0.7179662,0.20996843,-0.65383214,0.4203908,0.6291066,,-0.024050621,0.44560337,-0.33269945,0.61238134,-0.25150284,-0.7494901,-0.6191953,0.43683857,-0.65251,0.4915143,0.86366564,0.111782424,,1.212608070444984,0.46659207479489645,0.19329628335000001,1.9096463153135634,-0.5483222735587124,-0.510971574315056,-0.40917688566636956,,-1.3932041787087242,0.17167635179401086,0.18292077819000002,1.5743520956818087,0.4582788202132873,-0.9955158976878977,0.875687538545871,,-0.03301944778616772,-0.08405069345291694,0.08364271396,-0.06607131087440103,,-4.94346e-06,-4.4107437e-06,-1.7881393e-06,1.0,1.0628253e-05,8.933246e-06,-1.06319785e-05,1.0,9.23872e-07,-8.929521e-06,-8.940697e-07,1.0,508,1.553,0,0,0.0,False,-0.2590439475643693,1.0503840309727575
1.5699716720264405,11:56:51.995635,11:55:48.060688,0,,0.105270386,0.046288148,0.04281479,-0.44701028,0.548933,-0.70629627,0.1178174,0.8188242,0.5618237,0.88673604,0.16792691,-0.43069676,,0.060505986,0.0055374503,0.045250356,-0.49688584,0.28099653,0.82106364,-0.110966176,0.9177871,-0.3812524,-0.86069214,-0.28054914,-0.42485428,,0.07717125,1.3265393,0.45219022,0.9978131,0.046593025,-0.046883743,0.0055020624,-0.7653891,-0.64354426,-0.06586898,0.64187896,-0.7639716,,-0.07418697,0.28439993,-0.08071785,0.37028244,-0.56134766,0.7401214,0.6657019,0.716048,0.21003869,-0.6478672,0.41492662,0.6388302,,-0.024052378,0.44560307,-0.3327001,0.61237437,-0.25150996,-0.7494934,-0.6191988,0.43683687,-0.6525078,0.49151856,0.86366445,0.11177303,,1.2084223492271544,0.4714033373755383,0.19373054050000002,1.909856005257048,-0.5420369945695022,-0.5062953490682238,-0.4119537347906522,,-1.3932119014415985,0.1716686290611366,0.18292077819000002,1.5743520956818087,0.4582788202132873,-0.9955158976878977,0.875687538545871,,-0.03301944778616772,-0.08405069345291694,0.08364271396,-0.06607131087440103,,-4.94346e-06,-4.4107437e-06,-1.7881393e-06,1.0,1.0628253e-05,8.933246e-06,-1.06319785e-05,1.0,9.23872e-07,-8.929521e-06,-8.940697e-07,1.0,516,1.578,0,0,0.0,False,-0.25868648125324345,1.0507702725789931
1.5969535540789366,11:56:52.019830,11:55:48.060688,0,,0.10636778,0.046838135,0.04260266,-0.45394957,0.55587447,-0.6963716,0.12858906,0.8142265,0.56612706,0.8816998,0.16744721,-0.44109723,,0.060504753,0.0055354536,0.04524851,-0.49689567,0.2809966,0.8210577,-0.11097559,0.91778255,-0.3812607,-0.8606853,-0.28056407,-0.42485833,,0.07717125,1.3265393,0.45219022,0.9978131,0.046593025,-0.046883743,0.0055020624,-0.7653891,-0.64354426,-0.06586898,0.64187896,-0.7639716,,-0.07526257,0.28464088,-0.080137506,0.3776211,-0.56822264,0.73111236,0.6713774,0.7117848,0.20643334,-0.6376948,0.41289878,0.65027684,,-0.024050878,0.4456005,-0.3327003,0.61238325,-0.2515079,-0.74948686,-0.6191998,0.4368233,-0.6525159,0.49150625,0.8636719,0.11176962,,1.20428296440657,0.4761914317575575,0.19412979782000003,1.911952904691893,-0.5304228920894398,-0.5040858110423192,-0.41244376698905516,,-1.39319645597585,0.1716609063282624,0.18292077819000002,1.5743520956818087,0.4582788202132873,-0.9955158976878977,0.875687538545871,,-0.03301944778616772,-0.08405069345291694,0.08364271396,-0.06607131087440103,,-4.94346e-06,-4.4107437e-06,-1.7881393e-06,1.0,1.0628253e-05,8.933246e-06,-1.06319785e-05,1.0,9.23872e-07,-8.929521e-06,-8.940697e-07,1.0,524,1.603,0,0,0.0,False,-0.2587460589717643,1.0499495091657423
1.621145577984862,11:56:52.049372,11:55:48.196929,0,,0.10709359,0.047197983,0.04245372,-0.4590882,0.5586704,-0.69074273,0.13776815,0.8128859,0.5658944,0.87764335,0.16463307,-0.4501533,,0.060505737,0.0055358857,0.045249283,-0.4968898,0.2808648,0.8211063,-0.110972255,0.9178456,-0.38110965,-0.86068904,-0.28048947,-0.42489994,,0.07717125,1.3265393,0.45219022,0.9978131,0.046593025,-0.046883743,0.0055020624,-0.7653891,-0.64354426,-0.06586898,0.64187896,-0.7639716,,-0.07597322,0.28479183,-0.07974935,0.38308302,-0.57076985,0.72627074,0.67631865,0.7088425,0.20033818,-0.62915856,0.4144443,0.6575678,,-0.024051964,0.44560125,-0.33270046,0.61237794,-0.25138855,-0.7495312,-0.61920065,0.43693385,-0.6524411,0.49151176,0.86365074,0.11190871,,1.2016186215649627,0.4793345840373669,0.1943916484,1.913420734296285,-0.5204484276065626,-0.5060117337614753,-0.40917688566636967,,-1.3932041787087242,0.1716609063282624,0.18292077819000002,1.5743520956818087,0.4582788202132873,-0.9953525402076165,0.8760142266781396,,-0.03301944778616772,-0.08405069345291694,0.08364271396,-0.06607131087440103,,-4.94346e-06,-4.4107437e-06,-1.7881393e-06,1.0,1.0628253e-05,8.933246e-06,-1.06319785e-05,1.0,9.23872e-07,-8.929521e-06,-8.940697e-07,1.0,536,1.64,0,0,0.0,False,-0.25910352528289105,1.0498529487641832
1.65069596900139,11:56:52.078276,11:55:48.196929,0,,0.10803756,0.047680944,0.042331636,-0.46131182,0.5648709,-0.68418735,0.14461452,0.8087017,0.57016504,0.8753731,0.16408044,-0.4547522,,0.060506463,0.0055348277,0.045249045,-0.496888,0.2808696,0.8211058,-0.110975,0.9178428,-0.38111567,-0.86068976,-0.28049397,-0.42489552,,0.07717125,1.3265393,0.45219022,0.9978131,0.046593025,-0.046883743,0.0055020624,-0.7653891,-0.64354426,-0.06586898,0.64187896,-0.7639716,,-0.07690357,0.28504428,-0.07929113,0.38548952,-0.5769005,0.7201275,0.68038744,0.7048969,0.20048274,-0.62327427,0.4126817,0.6642462,,-0.024052635,0.4456002,-0.33270097,0.6123763,-0.2513926,-0.7495312,-0.6192033,0.43692818,-0.65244234,0.4915105,0.8636524,0.11190131,,1.1980970553743162,0.4834971370565739,0.19472868380000002,1.918243602996429,-0.5144364216168833,-0.5055233246748407,-0.4121170788567865,,-1.3932041787087242,0.17165318359538817,0.18292077819000002,1.5743520956818087,0.4582788202132873,-0.9953525402076165,0.8760142266781396,,-0.03301944778616772,-0.08405069345291694,0.08364271396,-0.06607131087440103,,-4.94346e-06,-4.4107437e-06,-1.7881393e-06,1.0,1.0628253e-05,8.933246e-06,-1.06319785e-05,1.0,9.23872e-07,-8.929521e-06,-8.940697e-07,1.0,565,1.729,0,0,0.0,False,-0.2586269035347226,1.0507219923782136
1.6795825980370864,11:56:52.170189,11:55:48.321471,0,,0.11070634,0.0490762,0.041898474,-0.45755377,0.58700407,-0.6678854,0.16924715,0.7948855,0.5826769,0.87292606,0.15356827,-0.46305168,,0.060511105,0.005523756,0.045252502,-0.49695483,0.280697,0.8211244,-0.11106753,0.9178827,-0.3809928,-0.8606393,-0.28053638,-0.42496985,,0.07717125,1.3265393,0.45219022,0.9978131,0.046593025,-0.046883743,0.0055020624,-0.7653891,-0.64354426,-0.06586898,0.64187896,-0.7639716,,-0.07952634,0.28572673,-0.07790838,0.38194725,-0.5980611,0.7045845,0.6979527,0.6863938,0.20426834,-0.60578734,0.4137469,0.67958456,,-0.024057567,0.44559416,-0.3327107,0.61243665,-0.25121635,-0.749541,-0.619228,0.43694586,-0.6524071,0.49140415,0.8636948,0.112041466,,1.187941661644711,0.494888168046055,0.19580978966,1.9450839157624478,-0.49694694964690694,-0.5099016887909746,-0.41032029412930937,,-1.3932196241744728,0.17159140173239437,0.18291429674,1.5743520956818087,0.45814218371352183,-0.9951594435637796,0.8755241944797367,,-0.03301944778616772,-0.08405069345291694,0.08364271396,-0.06607131087440103,,-4.94346e-06,-4.4107437e-06,-1.7881393e-06,1.0,1.0628253e-05,8.933246e-06,-1.06319785e-05,1.0,9.23872e-07,-8.929521e-06,-8.940697e-07,1.0,573,1.754,0,0,0.0,False,-0.2586269035347226,1.0500943497680806
1.7715315570821986,11:56:52.200307,11:55:48.321471,0,,0.111606196,0.049477547,0.041753113,-0.45253938,0.59569395,-0.663594,0.1780175,0.78952175,0.58733726,0.87379503,0.1476619,-0.4633336,,0.06051459,0.0055122077,0.04525739,-0.4970368,0.2808598,0.82101905,-0.11092961,0.91783965,-0.3811366,-0.86060965,-0.28051418,-0.4250444,,0.07717125,1.3265393,0.45219022,0.9978131,0.046593025,-0.046883743,0.0055020624,-0.7653891,-0.64354426,-0.06586898,0.64187896,-0.7639716,,-0.08041075,0.2859032,-0.07748569,0.37687552,-0.60621846,0.7003314,0.7050915,0.6780735,0.20751458,-0.6006753,0.41559052,0.68298876,,-0.024061553,0.4455889,-0.33272195,0.612512,-0.2513801,-0.7494245,-0.6190999,0.4369131,-0.6525506,0.4914716,0.86366373,0.11198512,,1.184566827378675,0.4981471613189778,0.19611701039,1.9580846922584887,-0.4925745816544128,-0.5130586680085574,-0.4108103263277122,,-1.3932273469073468,0.17153734260227482,0.18290651900000002,1.5745617856252934,0.45814218371352183,-0.9951594435637796,0.8755241944797367,,-0.03301944778616772,-0.08405069345291694,0.08364271396,-0.06607131087440103,,-4.94346e-06,-4.4107437e-06,-1.7881393e-06,1.0,1.0628253e-05,8.933246e-06,-1.06319785e-05,1.0,9.23872e-07,-8.929521e-06,-8.940697e-07,1.0,581,1.778,0,0,0.0,False,-0.2594609915940169,1.0502874705711984
1.8016214600065723,11:56:52.226026,11:55:48.321471,0,,0.11244237,0.0498216,0.041627556,-0.45123336,0.6003992,-0.6602344,0.18402791,0.78653836,0.58948374,0.87322515,0.14449307,-0.46540266,,0.060519084,0.005499482,0.045259893,-0.4968015,0.28038514,0.82132363,-0.11149597,0.91791075,-0.38079986,-0.8606724,-0.28075618,-0.42475757,,0.07717125,1.3265393,0.45219022,0.9978131,0.046593025,-0.046883743,0.0055020624,-0.7653891,-0.64354426,-0.06586898,0.64187896,-0.7639716,,-0.081233345,0.28605044,-0.077118345,0.37562123,-0.6106378,0.6971587,0.7093738,0.67352456,0.20773418,-0.59640384,0.41651672,0.68616056,,-0.024066165,0.44558093,-0.3327321,0.612295,-0.25087753,-0.74977016,-0.6195747,0.43684775,-0.65214354,0.49114358,0.86384284,0.1120423,,1.181161102181142,0.5013520954617809,0.19639700903,1.9656335302239314,-0.48888539616074594,-0.5160669514083607,-0.4108103263277122,,-1.3932350696402211,0.17145239254065833,0.18290003755,1.57393271579484,0.45800554721375636,-0.9950480256600832,0.8755241944797367,,-0.03301944778616772,-0.08405069345291694,0.08364271396,-0.06607131087440103,,-4.94346e-06,-4.4107437e-06,-1.7881393e-06,1.0,1.0628253e-05,8.933246e-06,-1.06319785e-05,1.0,9.23872e-07,-8.929521e-06,-8.940697e-07,1.0,589,1.804,0,0,0.0,False,-0.2585077480976805,1.0500943497680806
1.8273636670783162,11:56:52.247798,11:55:48.321471,0,,0.113027245,0.050048992,0.041553065,-0.45017967,0.603684,-0.65795434,0.18840358,0.78446984,0.5908562,0.87283576,0.14203033,-0.4668886,,0.060526997,0.0054906905,0.04526472,-0.49664724,0.27997035,0.8215584,-0.11188945,0.91799796,-0.3804742,-0.8607104,-0.2808851,-0.4245953,,0.07717125,1.3265393,0.45219022,0.9978131,0.046593025,-0.046883743,0.0055020624,-0.7653891,-0.64354426,-0.06586898,0.64187896,-0.7639716,,-0.08180986,0.28615132,-0.07688002,0.37460342,-0.6137018,0.69501245,0.7125017,0.6702047,0.20776647,-0.5933073,0.41736758,0.6883246,,-0.02407456,0.4455771,-0.332741,0.6121526,-0.25045007,-0.7500293,-0.61989975,0.43686542,-0.65182275,0.49091095,0.86395794,0.11217435,,1.178790223188755,0.5035839652624319,0.19657589705000003,1.971085468754529,-0.48615266616543706,-0.5183769882224297,-0.41097367039384636,,-1.3932736833045922,0.1713828879447903,0.18289485239000003,1.5735133359078708,0.45786891071399094,-0.9948549290162462,0.875687538545871,,-0.03301944778616772,-0.08405069345291694,0.08364271396,-0.06607131087440103,,-4.94346e-06,-4.4107437e-06,-1.7881393e-06,1.0,1.0628253e-05,8.933246e-06,-1.06319785e-05,1.0,9.23872e-07,-8.929521e-06,-8.940697e-07,1.0,597,1.828,0,0,0.0,False,-0.25963972474957986,1.0505288715750958
1.8491026570554823,11:56:52.276784,11:55:48.321471,0,,0.11389612,0.050350517,0.04147269,-0.44586444,0.6102427,-0.65483505,0.19785604,0.7806716,0.5927939,0.8729592,0.1347425,-0.46881405,,0.06057111,0.005480908,0.04527682,-0.496658,0.27995172,0.8215581,-0.11198464,0.91797376,-0.3805043,-0.86069167,-0.2809825,-0.42456874,,0.07717361,1.3265381,0.45218742,0.9978133,0.046571434,-0.046901897,0.0054739146,-0.7653904,-0.64354295,-0.06586898,0.64187896,-0.7639716,,-0.08266662,0.28629404,-0.07657397,0.3702962,-0.6195971,0.69208395,0.71974003,0.66238004,0.20791079,-0.58724356,0.42113197,0.69122565,,-0.024118742,0.44557452,-0.3327555,0.6121575,-0.25039282,-0.7500444,-0.6199665,0.43679014,-0.65180975,0.49082047,0.8640126,0.1121492,,1.1752377660666116,0.5069433540627195,0.19679885893000001,1.9836668653636005,-0.48014066017575774,-0.5239328059061967,-0.4119537347906522,,-1.3933200197018376,0.17126704695167694,0.18288448207000002,1.5735133359078708,0.45773227421422547,-0.9948251898526903,0.8758508826120054,,-0.03301944778616772,-0.08405069345291694,0.08364271396,-0.06607131087440103,,-2.4065375e-06,-5.2452087e-06,9.536743e-07,1.0,-1.0926276e-05,-9.171665e-06,1.0922551e-05,1.0,-9.536743e-07,9.179115e-06,9.834766e-07,1.0,605,1.853,0,0,0.0,False,-0.2583885926606384,1.0504805913743163
1.8780568239744753,11:56:52.301267,11:55:48.455513,0,,0.114461854,0.05054541,0.041402027,-0.44386554,0.6132677,-0.65336525,0.20483348,0.7792597,0.5922816,0.8723684,0.1290622,-0.47150433,,0.060575575,0.005464606,0.045281053,-0.4966377,0.28000423,0.8215526,-0.11201525,0.9179425,-0.38057068,-0.8606994,-0.2810323,-0.42452008,,0.07717361,1.3265381,0.45218742,0.9978133,0.046571434,-0.046901897,0.0054739146,-0.7653904,-0.64354295,-0.06586898,0.64187896,-0.7639716,,-0.08322436,0.2863729,-0.07636011,0.36835334,-0.62212986,0.69084746,0.72472966,0.6575927,0.20576392,-0.5823082,0.4248838,0.6931024,,-0.024123536,0.44556525,-0.33276948,0.61213887,-0.25043756,-0.7500447,-0.61999595,0.4367279,-0.6518234,0.49080652,0.86403114,0.11206784,,1.1731140145262,0.5089280964113951,0.19694274712,1.9903769435551053,-0.4752217461842019,-0.528842316580814,-0.41113701445998085,,-1.3933200197018376,0.17118209689006048,0.18287540804000002,1.5735133359078708,0.45773227421422547,-0.9948251898526903,0.8758508826120054,,-0.03301944778616772,-0.08405069345291694,0.08364271396,-0.06607131087440103,,-2.4065375e-06,-5.2452087e-06,9.536743e-07,1.0,-1.0926276e-05,-9.171665e-06,1.0922551e-05,1.0,-9.536743e-07,9.179115e-06,9.834766e-07,1.0,613,1.877,0,0,0.0,False,-0.2588652144088064,1.0505771517758753
1.902606087969616,11:56:52.326038,11:55:48.455513,0,,0.11522429,0.050768435,0.041333556,-0.44055474,0.61725324,-0.65185124,0.21379715,0.777362,0.59160715,0.8718958,0.12127128,-0.4744376,,0.060584415,0.005438231,0.045290887,-0.49668026,0.27988178,0.8215685,-0.11213228,0.9179547,-0.38050708,-0.8606596,-0.28111482,-0.42454612,,0.07717361,1.3265381,0.45218742,0.9978133,0.046571434,-0.046901897,0.0054739146,-0.7653904,-0.64354295,-0.06586898,0.64187896,-0.7639716,,-0.083978295,0.28646472,-0.07611745,0.3650929,-0.62544096,0.6895874,0.731278,0.65106565,0.20333715,-0.5761421,0.43004316,0.6950707,,-0.024133306,0.44555214,-0.33279404,0.612177,-0.25030503,-0.75005776,-0.62004817,0.43669274,-0.6517973,0.49069294,0.8640873,0.112132095,,1.1700635350408812,0.5116619438488706,0.19710219079000002,2.0004420608423623,-0.4690731036947571,-0.5358980907506672,-0.4109736703938466,,-1.3933431879004603,0.17104308769832444,0.18285855627000003,1.5735133359078708,0.4575956377144601,-0.9946320932088534,0.8760142266781397,,-0.03301944778616772,-0.08405069345291694,0.08364271396,-0.06607131087440103,,-2.4065375e-06,-5.2452087e-06,9.536743e-07,1.0,-1.0926276e-05,-9.171665e-06,1.0922551e-05,1.0,-9.536743e-07,9.179115e-06,9.834766e-07,1.0,638,1.954,0,0,0.0,False,-0.2585077480976805,1.0505771517758753
1.927379316999577,11:56:52.401282,11:55:48.455513,0,,0.11648606,0.05105287,0.041085497,-0.43744406,0.6223427,-0.64910114,0.22675768,0.7748431,0.5900839,0.870186,0.11093995,-0.4800716,,0.060607206,0.005358942,0.045310795,-0.49675554,0.27931073,0.8217174,-0.1124295,0.9181105,-0.38004318,-0.8605774,-0.28117394,-0.4246736,,0.07717361,1.3265381,0.45218742,0.9978133,0.046571434,-0.046901897,0.0054739146,-0.7653904,-0.64354295,-0.06586898,0.64187896,-0.7639716,,-0.08521458,0.28646687,-0.07566346,0.36213595,-0.62963676,0.6873246,0.7401983,0.64241874,0.19850597,-0.56653684,0.43687034,0.698699,,-0.0241576,0.44550648,-0.33286133,0.61224407,-0.24973337,-0.7501936,-0.62019724,0.43682414,-0.65156734,0.4904208,0.8641863,0.11255903,,1.1643641581797035,0.5155542012174799,0.19741070781000003,2.0136525272818875,-0.46032836770976887,-0.5457242350118766,-0.41113701445998085,,-1.3933586333662087,0.17062606012311632,0.18281448241,1.5735133359078708,0.4573223647149292,-0.993755827480336,0.8760142266781394,,-0.03301944778616772,-0.08405069345291694,0.08364271396,-0.06607131087440103,,-2.4065375e-06,-5.2452087e-06,9.536743e-07,1.0,-1.0926276e-05,-9.171665e-06,1.0922551e-05,1.0,-9.536743e-07,9.179115e-06,9.834766e-07,1.0,646,1.979,0,0,0.0,False,-0.2598780356236645,1.0500943497680806
2.0026156660169363,11:56:52.427282,11:55:48.585718,0,,0.1168464,0.05104968,0.040856764,-0.4407818,0.62007505,-0.6490134,0.23049039,0.77698684,0.5858033,0.8675169,0.10861996,-0.48540318,,0.060612157,0.00531777,0.045323133,-0.49681437,0.2791428,0.8217389,-0.112582535,0.9181292,-0.3799525,-0.86052346,-0.2812794,-0.4247131,,0.07717361,1.3265381,0.45218742,0.9978133,0.046571434,-0.046901897,0.0054739146,-0.7653904,-0.64354295,-0.06586898,0.64187896,-0.7639716,,-0.08555426,0.28630352,-0.075463176,0.3656871,-0.6271811,0.6876894,0.74164146,0.64277804,0.19184464,-0.562353,0.4398639,0.7001992,,-0.024163669,0.44548488,-0.3328983,0.6122969,-0.24955276,-0.75021064,-0.6202639,0.4367828,-0.65153164,0.4902706,0.86425936,0.112652175,,1.1621322883790526,0.5160407333885559,0.19754422568000002,2.0126040775644647,-0.4567758187158674,-0.5497646028699514,-0.41179039072451806,,-1.3933431879004603,0.1704329918012607,0.18278726032,1.5735133359078708,0.45718572821516373,-0.9934810520963586,0.8756875385458711,,-0.03301944778616772,-0.08405069345291694,0.08364271396,-0.06607131087440103,,-2.4065375e-06,-5.2452087e-06,9.536743e-07,1.0,-1.0926276e-05,-9.171665e-06,1.0922551e-05,1.0,-9.536743e-07,9.179115e-06,9.834766e-07,1.0,654,2.003,0,0,0.0,True,-0.259580147031059,1.0498529487641832
2.0286192720523104,11:56:52.456038,11:55:48.585718,0,,0.117006734,0.05101654,0.040724173,-0.44229802,0.6195292,-0.64850307,0.23160848,0.77744806,0.5847494,0.86644673,0.10843465,-0.48735207,,0.060617685,0.0052846298,0.045334876,-0.49654886,0.27838278,0.822157,-0.11341348,0.9182486,-0.37941644,-0.86056757,-0.28164262,-0.42438284,,0.07717361,1.3265381,0.45218742,0.9978133,0.046571434,-0.046901897,0.0054739146,-0.7653904,-0.64354295,-0.06586898,0.64187896,-0.7639716,,-0.085702784,0.28618687,-0.07536979,0.36728832,-0.62662154,0.68734616,0.7419331,0.643053,0.18978426,-0.5609229,0.44025934,0.70109713,,-0.02417033,0.44546854,-0.33292922,0.61205083,-0.24875146,-0.75067735,-0.62091917,0.43669888,-0.6509635,0.4897481,0.8645327,0.11282737,,1.1609507102492964,0.5160561788543044,0.19760515131000003,2.0119750077340113,-0.4559559997172748,-0.5503514315519894,-0.4116270466583837,,-1.3933509106333344,0.17025536894515353,0.18276392710000003,1.5726745761339325,0.45691245521563284,-0.9931765375488251,0.8758508826120055,,-0.03301944778616772,-0.08405069345291694,0.08364271396,-0.06607131087440103,,-2.4065375e-06,-5.2452087e-06,9.536743e-07,1.0,-1.0926276e-05,-9.171665e-06,1.0922551e-05,1.0,-9.536743e-07,9.179115e-06,9.834766e-07,1.0,666,2.041,0,0,0.0,True,-0.2593418361569748,1.0499495091657423
2.0573791089700535,11:56:52.476168,11:55:48.585718,0,,0.11722548,0.050962225,0.04055938,-0.43951127,0.62226695,-0.64777607,0.23663566,0.7759013,0.58479106,0.8665064,0.10373527,-0.488268,,0.060625296,0.005265437,0.045339108,-0.4965173,0.2783849,0.8221754,-0.11344913,0.91824067,-0.37942487,-0.86058104,-0.28166616,-0.42433983,,0.07717361,1.3265381,0.45218742,0.9978133,0.046571434,-0.046901897,0.0054739146,-0.7653904,-0.64354295,-0.06586898,0.64187896,-0.7639716,,-0.08590677,0.28603062,-0.07526059,0.36450565,-0.62895125,0.68669933,0.74575794,0.6387836,0.18921052,-0.55765647,0.4431432,0.7018856,,-0.024178205,0.44545686,-0.3329449,0.6120219,-0.24875021,-0.75070137,-0.6209574,0.43667677,-0.6509419,0.48973578,0.8645442,0.11279247,,1.159498836468942,0.5160021197241849,0.19766478065,2.0176366362080933,-0.45322326972196597,-0.5525797896259178,-0.4116270466583837,,-1.3933586333662087,0.1701472506849144,0.18275485307000003,1.5726745761339325,0.45691245521563284,-0.9930948588086845,0.8760142266781397,,-0.03301944778616772,-0.08405069345291694,0.08364271396,-0.06607131087440103,,-2.4065375e-06,-5.2452087e-06,9.536743e-07,1.0,-1.0926276e-05,-9.171665e-06,1.0922551e-05,1.0,-9.536743e-07,9.179115e-06,9.834766e-07,1.0,674,2.066,0,0,0.0,True,-0.2587460589717643,1.0500943497680806
2.077510175993666,11:56:52.503253,11:55:48.585718,0,,0.11732373,0.050914943,0.040487632,-0.44090715,0.6215905,-0.6474768,0.23683599,0.7763846,0.5840682,0.86574215,0.1041739,-0.4895286,,0.060636625,0.0052447096,0.045339406,-0.4964802,0.27846855,0.82216954,-0.113493145,0.9181933,-0.37952644,-0.86059666,-0.28173804,-0.4242605,,0.07717361,1.3265381,0.45218742,0.9978133,0.046571434,-0.046901897,0.0054739146,-0.7653904,-0.64354295,-0.06586898,0.64187896,-0.7639716,,-0.08599858,0.28594393,-0.07522755,0.3659612,-0.6283145,0.686508,0.7455147,0.63946956,0.18784714,-0.55702806,0.44305706,0.7024387,,-0.024189195,0.44544098,-0.33295852,0.6119879,-0.2488225,-0.7507051,-0.6210036,0.4365845,-0.6509597,0.48971963,0.86457,0.112664774,,1.1587111177157712,0.5159635060598137,0.19767774355,2.0165881864906705,-0.4530866332222005,-0.5526912075296142,-0.4116270466583837,,-1.393366356099083,0.17001596422605258,0.18274966791000002,1.5726745761339325,0.45691245521563284,-0.9930948588086845,0.8760142266781397,,-0.03301944778616772,-0.08405069345291694,0.08364271396,-0.06607131087440103,,-2.4065375e-06,-5.2452087e-06,9.536743e-07,1.0,-1.0926276e-05,-9.171665e-06,1.0922551e-05,1.0,-9.536743e-07,9.179115e-06,9.834766e-07,1.0,682,2.09,0,0,0.0,True,-0.2602950796533112,1.0502874705711984
2.104576078010723,11:56:52.533290,11:55:48.585718,0,,0.117412984,0.05088441,0.040427014,-0.44154412,0.6214818,-0.6471469,0.23710164,0.7764454,0.5838795,0.86534476,0.104368895,-0.49018937,,0.060639538,0.005240269,0.045338333,-0.49647284,0.27848765,0.8221675,-0.11350426,0.918182,-0.37955058,-0.8605995,-0.28175616,-0.42424285,,0.07717361,1.3265381,0.45218742,0.9978133,0.046571434,-0.046901897,0.0054739146,-0.7653904,-0.64354295,-0.06586898,0.64187896,-0.7639716,,-0.086082384,0.28587773,-0.075193375,0.3666295,-0.6282227,0.68623537,0.7455098,0.63964385,0.18727231,-0.55659497,0.44293565,0.7028585,,-0.024191873,0.44543675,-0.33296058,0.61198115,-0.24883878,-0.75070524,-0.6210143,0.43656188,-0.6509647,0.48971453,0.86457676,0.1126352,,1.1580392399557138,0.5159635060598137,0.19769589161,2.016378496547186,-0.4530866332222005,-0.5526912075296142,-0.4116270466583837,,-1.393366356099083,0.16998507329455567,0.18274966791000002,1.5726745761339325,0.45691245521563284,-0.9930948588086845,0.8760142266781397,,-0.03301944778616772,-0.08405069345291694,0.08364271396,-0.06607131087440103,,-2.4065375e-06,-5.2452087e-06,9.536743e-07,1.0,-1.0926276e-05,-9.171665e-06,1.0922551e-05,1.0,-9.536743e-07,9.179115e-06,9.834766e-07,1.0,707,2.167,0,0,0.0,True,-0.2598184579051428,1.0505771517758753
2.1346210530027747,11:56:52.609734,11:55:48.757698,0,,0.117364764,0.050939053,0.040466696,-0.44124663,0.62150526,-0.64732736,0.23679495,0.7764195,0.58403826,0.86558044,0.10442096,-0.48976195,,0.06063717,0.005234517,0.0453403,-0.49668458,0.27874187,0.8219533,-0.113205284,0.91813046,-0.37976447,-0.86051667,-0.28167272,-0.4244661,,0.07717361,1.3265381,0.45218742,0.9978133,0.046571434,-0.046901897,0.0054739146,-0.7653904,-0.64354295,-0.06586898,0.64187896,-0.7639716,,-0.086037695,0.28594765,-0.0751935,0.36631316,-0.6282505,0.6863789,0.7454002,0.6396547,0.18767112,-0.55695,0.44288054,0.702612,,-0.024189726,0.4454342,-0.33296618,0.6121755,-0.24910139,-0.7504596,-0.62072027,0.43655547,-0.6512493,0.48984435,0.8645044,0.11262628,,1.1585103266610415,0.5161025152515497,0.19770885451000003,2.016378496547186,-0.4530866332222005,-0.5526912075296142,-0.4116270466583837,,-1.3933509106333344,0.16997735056168145,0.18274448275000002,1.5730939560209016,0.45691245521563284,-0.9930948588086845,0.8760142266781397,,-0.03301944778616772,-0.08405069345291694,0.08364271396,-0.06607131087440103,,-2.4065375e-06,-5.2452087e-06,9.536743e-07,1.0,-1.0926276e-05,-9.171665e-06,1.0922551e-05,1.0,-9.536743e-07,9.179115e-06,9.834766e-07,1.0,715,2.192,0,0,0.0,True,-0.2585077480976805,1.050046069567301
2.2110661399783567,11:56:52.633329,11:55:48.757698,0,,0.1173349,0.050952077,0.04048115,-0.4410924,0.6214962,-0.647441,0.23669204,0.7764321,0.5840633,0.8656872,0.10438159,-0.4895816,,0.06063913,0.005235441,0.04534185,-0.49667293,0.27874658,0.8219588,-0.11319861,0.9181322,-0.37976223,-0.8605243,-0.28166232,-0.4244576,,0.07717361,1.3265381,0.45218742,0.9978133,0.046571434,-0.046901897,0.0054739146,-0.7653904,-0.64354295,-0.06586898,0.64187896,-0.7639716,,-0.086009175,0.2859684,-0.075198635,0.36615047,-0.62823814,0.68647695,0.74537766,0.63964057,0.18780856,-0.55708706,0.44291842,0.7024794,,-0.024191895,0.44543573,-0.33296648,0.6121649,-0.24910752,-0.7504662,-0.62072194,0.43656337,-0.65124243,0.48985544,0.8644986,0.112622276,,1.1587265631815196,0.5160947925186755,0.19770885451000003,2.016378496547186,-0.4530866332222005,-0.5526912075296142,-0.4116270466583837,,-1.393366356099083,0.16997735056168145,0.18274448275000002,1.5730939560209016,0.45691245521563284,-0.9930948588086845,0.8760142266781397,,-0.03301944778616772,-0.08405069345291694,0.08364271396,-0.06607131087440103,,-2.4065375e-06,-5.2452087e-06,9.536743e-07,1.0,-1.0926276e-05,-9.171665e-06,1.0922551e-05,1.0,-9.536743e-07,9.179115e-06,9.834766e-07,1.0,723,2.216,0,0,0.0,True,-0.25815028178655464,1.0497563883626244
2.2346572490641847,11:56:52.654909,11:55:48.757698,0,,0.117311865,0.050958112,0.04048811,-0.4409814,0.62148297,-0.6475294,0.2366358,0.7764493,0.5840632,0.865759,0.10433224,-0.48946497,,0.060641095,0.005236365,0.0453434,-0.4966613,0.2787513,0.8219642,-0.11319199,0.918134,-0.37975997,-0.8605318,-0.281652,-0.42444912,,0.07717361,1.3265381,0.45218742,0.9978133,0.046571434,-0.046901897,0.0054739146,-0.7653904,-0.64354295,-0.06586898,0.64187896,-0.7639716,,-0.08598681,0.28597865,-0.07520183,0.3660338,-0.6282208,0.6865551,0.74537235,0.6396242,0.18788545,-0.55717075,0.44296676,0.7023825,,-0.024194064,0.44543728,-0.33296677,0.61215436,-0.24911366,-0.7504728,-0.6207236,0.43657127,-0.6512355,0.48986652,0.8644929,0.11261827,,1.15887329510613,0.5160639015871786,0.19770885451000003,2.016378496547186,-0.4530866332222005,-0.5526912075296142,-0.4116270466583837,,-1.3933818015648314,0.16997735056168145,0.18274448275000002,1.5730939560209016,0.45691245521563284,-0.9930948588086845,0.8760142266781397,,-0.03301944778616772,-0.08405069345291694,0.08364271396,-0.06607131087440103,,-2.4065375e-06,-5.2452087e-06,9.536743e-07,1.0,-1.0926276e-05,-9.171665e-06,1.0922551e-05,1.0,-9.536743e-07,9.179115e-06,9.834766e-07,1.0,731,2.242,0,0,0.0,True,-0.25856732581620134,1.0499977893665218
2.2562508130213246,11:56:52.684206,11:55:48.757698,0,,0.11730647,0.05096285,0.040491328,-0.44095066,0.6214837,-0.64754975,0.23660877,0.7764488,0.5840748,0.86578214,0.10433209,-0.4894243,,0.06064011,0.005235873,0.045342624,-0.49666712,0.27874896,0.8219615,-0.11319533,0.918133,-0.37976107,-0.86052805,-0.28165716,-0.42445338,,0.07717361,1.3265381,0.45218742,0.9978133,0.046571434,-0.046901897,0.0054739146,-0.7653904,-0.64354295,-0.06586898,0.64187896,-0.7639716,,-0.08598171,0.28598464,-0.07520176,0.36600122,-0.62822145,0.6865719,0.7453639,0.63962364,0.18792088,-0.55720353,0.4429666,0.70235664,,-0.02419298,0.4454365,-0.33296663,0.61215967,-0.2491106,-0.7504695,-0.6207228,0.4365673,-0.651239,0.48986098,0.86449575,0.11262027,,1.1589196315033752,0.5160716243200528,0.1977101508,2.016378496547186,-0.4530866332222005,-0.5526912075296142,-0.4116270466583837,,-1.393374078831957,0.16997735056168145,0.18274448275000002,1.5730939560209016,0.45691245521563284,-0.9930948588086845,0.8760142266781397,,-0.03301944778616772,-0.08405069345291694,0.08364271396,-0.06607131087440103,,-2.4065375e-06,-5.2452087e-06,9.536743e-07,1.0,-1.0926276e-05,-9.171665e-06,1.0922551e-05,1.0,-9.536743e-07,9.179115e-06,9.834766e-07,1.0,739,2.267,0,0,0.0,True,-0.2588652144088064,1.0499012289649627
2.285545533988625,11:56:52.706230,11:55:48.757698,0,,0.11732039,0.050959945,0.04048787,-0.44101623,0.62149286,-0.64749634,0.23663852,0.77643704,0.5840784,0.86574066,0.10436535,-0.4894906,,0.060638875,0.0052364096,0.045343935,-0.49666896,0.27874416,0.82196206,-0.11319253,0.9181359,-0.37975502,-0.8605274,-0.28165263,-0.4244578,,0.07717361,1.3265381,0.45218742,0.9978133,0.046571434,-0.046901897,0.0054739146,-0.7653904,-0.64354295,-0.06586898,0.64187896,-0.7639716,,-0.08599529,0.28597948,-0.07519997,0.36607006,-0.6282334,0.6865243,0.7453649,0.63963455,0.18787973,-0.557157,0.44293395,0.70241416,,-0.02419194,0.4454379,-0.3329673,0.61216134,-0.24910653,-0.75046945,-0.6207201,0.43657297,-0.6512377,0.48986226,0.8644941,0.11262766,,1.1588346814417587,0.5160947925186755,0.1977101508,2.016378496547186,-0.4530866332222005,-0.5526912075296142,-0.4116270466583837,,-1.393374078831957,0.16998507329455567,0.18274318646,1.5730939560209016,0.45691245521563284,-0.9930948588086845,0.8760142266781397,,-0.03301944778616772,-0.08405069345291694,0.08364271396,-0.06607131087440103,,-2.4065375e-06,-5.2452087e-06,9.536743e-07,1.0,-1.0926276e-05,-9.171665e-06,1.0922551e-05,1.0,-9.536743e-07,9.179115e-06,9.834766e-07,1.0,747,2.291,0,0,0.0,True,-0.2590439475643693,1.050335750771978
2.307516533997841,11:56:52.733012,11:55:48.757698,0,,0.1173328,0.050954923,0.04048042,-0.44108152,0.6214958,-0.647449,0.23668441,0.7764328,0.58406544,0.86569476,0.104379326,-0.48956862,,0.060638875,0.0052364096,0.045343935,-0.49666896,0.27874416,0.82196206,-0.11319253,0.9181359,-0.37975502,-0.8605274,-0.28165263,-0.4244578,,0.07717361,1.3265381,0.45218742,0.9978133,0.046571434,-0.046901897,0.0054739146,-0.7653904,-0.64354295,-0.06586898,0.64187896,-0.7639716,,-0.08600703,0.28597027,-0.075196445,0.366139,-0.6282375,0.68648374,0.7453758,0.63963974,0.18781872,-0.557097,0.44292063,0.70247006,,-0.02419194,0.4454379,-0.3329673,0.61216134,-0.24910653,-0.75046945,-0.6207201,0.43657297,-0.6512377,0.48986226,0.8644941,0.11262766,,1.1587420086472682,0.5160947925186755,0.19771144709000002,2.016378496547186,-0.4530866332222005,-0.5526912075296142,-0.4116270466583837,,-1.393374078831957,0.16998507329455567,0.18274318646,1.5730939560209016,0.45691245521563284,-0.9930948588086845,0.8760142266781397,,-0.03301944778616772,-0.08405069345291694,0.08364271396,-0.06607131087440103,,-2.4065375e-06,-5.2452087e-06,9.536743e-07,1.0,-1.0926276e-05,-9.171665e-06,1.0922551e-05,1.0,-9.536743e-07,9.179115e-06,9.834766e-07,1.0,772,2.368,0,0,0.0,True,-0.2596993024681016,1.0499012289649627
2.334342839079909,11:56:52.806296,11:55:48.927983,0,,0.11733402,0.050954923,0.040476635,-0.4410905,0.6214941,-0.6474445,0.23669618,0.7764347,0.58405817,0.865687,0.104374796,-0.48958337,,0.060639605,0.005235292,0.045343637,-0.49666712,0.27874896,0.8219615,-0.11319533,0.918133,-0.37976107,-0.86052805,-0.28165716,-0.42445338,,0.07717361,1.3265381,0.45218742,0.9978133,0.046571434,-0.046901897,0.0054739146,-0.7653904,-0.64354295,-0.06586898,0.64187896,-0.7639716,,-0.086007915,0.28596786,-0.07519341,0.3661486,-0.62823546,0.68648046,0.7453807,0.63963854,0.18780363,-0.55708426,0.44292524,0.70247734,,-0.02419261,0.44543684,-0.33296782,0.61215967,-0.2491106,-0.7504695,-0.6207228,0.4365673,-0.651239,0.48986098,0.86449575,0.11262027,,1.1587265631815196,0.5160870697858013,0.19771403967,2.016378496547186,-0.4530866332222005,-0.5526912075296142,-0.4116270466583837,,-1.393374078831957,0.16997735056168145,0.18274318646,1.5730939560209016,0.45691245521563284,-0.9930948588086845,0.8760142266781397,,-0.03301944778616772,-0.08405069345291694,0.08364271396,-0.06607131087440103,,-2.4065375e-06,-5.2452087e-06,9.536743e-07,1.0,-1.0926276e-05,-9.171665e-06,1.0922551e-05,1.0,-9.536743e-07,9.179115e-06,9.834766e-07,1.0,780,2.392,0,0,0.0,True,-0.2594609915940169,1.0500943497680806
2.4076131699839607,11:56:52.834811,11:55:48.927983,0,,0.11732866,0.05095783,0.0404817,-0.44105977,0.62149477,-0.6474648,0.23666912,0.7764342,0.5840697,0.86571,0.10437468,-0.48954266,,0.060639605,0.005235292,0.045343637,-0.49666712,0.27874896,0.8219615,-0.11319533,0.918133,-0.37976107,-0.86052805,-0.28165716,-0.42445338,,0.07717361,1.3265381,0.45218742,0.9978133,0.046571434,-0.046901897,0.0054739146,-0.7653904,-0.64354295,-0.06586898,0.64187896,-0.7639716,,-0.086003,0.28597355,-0.07519591,0.36611602,-0.6282361,0.6864973,0.7453722,0.639638,0.18783906,-0.557117,0.44292507,0.70245147,,-0.02419261,0.44543684,-0.33296782,0.61215967,-0.2491106,-0.7504695,-0.6207228,0.4365673,-0.651239,0.48986098,0.86449575,0.11262027,,1.158772899578765,0.5160947925186755,0.19771274338000003,2.016378496547186,-0.4530866332222005,-0.5526912075296142,-0.4116270466583837,,-1.393374078831957,0.16997735056168145,0.18274318646,1.5730939560209016,0.45691245521563284,-0.9930948588086845,0.8760142266781397,,-0.03301944778616772,-0.08405069345291694,0.08364271396,-0.06607131087440103,,-2.4065375e-06,-5.2452087e-06,9.536743e-07,1.0,-1.0926276e-05,-9.171665e-06,1.0922551e-05,1.0,-9.536743e-07,9.179115e-06,9.834766e-07,1.0,788,2.417,0,0,0.0,True,-0.2593418361569748,1.05014262996886
2.43614696606528,11:56:52.859892,11:55:48.927983,0,,0.11733168,0.05096291,0.04048504,-0.4408981,0.6216333,-0.6474419,0.23671576,0.77633244,0.58418614,0.86577964,0.10430682,-0.48943397,,0.060638875,0.0052364096,0.045343935,-0.49666896,0.27874416,0.82196206,-0.11319253,0.9181359,-0.37975502,-0.8605274,-0.28165263,-0.4244578,,0.07717361,1.3265381,0.45218742,0.9978133,0.046571434,-0.046901897,0.0054739146,-0.7653904,-0.64354295,-0.06586898,0.64187896,-0.7639716,,-0.086006306,0.28597945,-0.075195156,0.36594903,-0.6283684,0.68646526,0.7454433,0.63950896,0.18799633,-0.5571316,0.4429238,0.7024406,,-0.02419194,0.4454379,-0.3329673,0.61216134,-0.24910653,-0.75046945,-0.6207201,0.43657297,-0.6512377,0.48986226,0.8644941,0.11262766,,1.1587806223116393,0.5161256834501724,0.19771403967,2.0165881864906705,-0.4530866332222005,-0.5526912075296142,-0.4116270466583837,,-1.393374078831957,0.16998507329455567,0.18274318646,1.5730939560209016,0.45691245521563284,-0.9930948588086845,0.8760142266781397,,-0.03301944778616772,-0.08405069345291694,0.08364271396,-0.06607131087440103,,-2.4065375e-06,-5.2452087e-06,9.536743e-07,1.0,-1.0926276e-05,-9.171665e-06,1.0922551e-05,1.0,-9.536743e-07,9.179115e-06,9.834766e-07,1.0,796,2.443,0,0,0.0,True,-0.2593418361569748,1.050335750771978
2.4612249290803447,11:56:52.885997,11:55:48.927983,0,,0.11733565,0.05096136,0.040485173,-0.44091636,0.62163615,-0.6474267,0.23672304,0.77632874,0.5841881,0.8657684,0.1043171,-0.48945174,,0.060636915,0.0052354857,0.045342386,-0.4966806,0.27873942,0.82195663,-0.113199145,0.9181341,-0.37975731,-0.86051977,-0.28166297,-0.42446628,,0.07717361,1.3265381,0.45218742,0.9978133,0.046571434,-0.046901897,0.0054739146,-0.7653904,-0.64354295,-0.06586898,0.64187896,-0.7639716,,-0.086010255,0.2859781,-0.07519597,0.36596817,-0.6283721,0.6864516,0.745443,0.6395123,0.187986,-0.5571194,0.44291365,0.7024567,,-0.024189772,0.4454364,-0.332967,0.6121719,-0.24910039,-0.7504629,-0.6207184,0.43656507,-0.65124464,0.48985118,0.8644998,0.11263167,,1.1587574541130166,0.5161334061830467,0.19771274338000003,2.0165881864906705,-0.4530866332222005,-0.5526912075296142,-0.4116270466583837,,-1.3933586333662087,0.16998507329455567,0.18274318646,1.5730939560209016,0.45691245521563284,-0.9930948588086845,0.8760142266781397,,-0.03301944778616772,-0.08405069345291694,0.08364271396,-0.06607131087440103,,-2.4065375e-06,-5.2452087e-06,9.536743e-07,1.0,-1.0926276e-05,-9.171665e-06,1.0922551e-05,1.0,-9.536743e-07,9.179115e-06,9.834766e-07,1.0,804,2.467,0,0,0.0,True,-0.2596993024681016,1.050335750771978
