AlexandreBanks6/ExpertPlaybackApp/resources/Motions/P_11/PC1/Data_PC1_6.csv
Task Time,PC1 Time,PC2 Time,Gaze Calib,s_T_psm1,Tx,Ty,Tz,R00,R01,R02,R10,R11,R12,R20,R21,R22,s_T_psm3,Tx,Ty,Tz,R00,R01,R02,R10,R11,R12,R20,R21,R22,cart_T_ecm,Tx,Ty,Tz,R00,R01,R02,R10,R11,R12,R20,R21,R22,ecm_T_psm1,Tx,Ty,Tz,R00,R01,R02,R10,R11,R12,R20,R21,R22,ecm_T_psm3,Tx,Ty,Tz,R00,R01,R02,R10,R11,R12,R20,R21,R22,psm1_joints,q1,q2,q3,q4,q5,q6,jaw,psm3_joints,q1,q2,q3,q4,q5,q6,jaw,ecm_joints,q1,q2,q3,q4,ecmi_T_ecm,Tx,Ty,Tz,R00,R01,R02,R10,R11,R12,R20,R21,R22,Sample #,Task Duration (s),Collisions (binary),Collisions (increments),Cumulative Collision Time (s),Clutch Press,MTMR Angle,MTML Angle
""
lci_T_si,,,,,-0.05843888,0.035118133,0.23779936,0.9970082,0.016813569,0.075444825,0.061249502,-0.76723903,-0.6384299,0.047149926,0.6411408,-0.76597345
rci_T_si,,,,,-0.06818321,0.03876071,0.24761088,0.996384,0.0016606578,0.08494798,0.05701089,-0.7543842,-0.6539527,0.06299742,0.656431,-0.75175107
ecm_T_lc,,,,,-4.4061628e-05,-0.00034663224,-0.01840835,-0.99912,0.030754527,0.028518902,-0.031987965,-0.99852574,-0.043852776,0.027128186,-0.04472645,0.9986309
ecm_T_rc,,,,,-0.0043358393,0.01870579,-0.007592615,-0.99555075,-0.052743673,-0.078081585,0.04863213,-0.9973746,0.053654674,-0.08070653,0.04961868,0.9955021
cart_T_ecmi,,,,,0.077176295,1.3265349,0.45219132,0.99781317,0.046582375,-0.046892695,0.0054881787,-0.76538974,-0.64354366,-0.06586898,0.64187896,-0.7639716
ecmac_T_ecmrep_psm1,,,,,0.011581071,-0.24422047,-0.31388107,0.99918455,0.03945311,0.008580942,-0.0387743,0.99689597,-0.06852016,-0.011257639,0.068131566,0.99761283
ecmac_T_ecmrep_psm3,,,,,0.00032986852,-0.4435548,-0.5434704,0.9997429,-0.0075566242,-0.021376874,0.008153117,0.9995759,0.027955532,0.021156559,-0.028122634,0.9993806
""
0,11:48:48.400352,11:47:44.468392,0,,0.090453744,0.018121451,0.045814633,-0.39339975,0.69486284,-0.6019986,0.105293304,0.68454087,0.72133005,0.913318,0.2203845,-0.34246278,,0.06321945,-0.00095261633,0.041699886,-0.7466076,-0.41471124,0.52018416,-0.45232487,0.88982,0.06018865,-0.4878312,-0.190355,-0.8519306,,0.0772326,1.3265395,0.4521898,0.9978136,0.04653057,-0.046936255,0.005420642,-0.7653929,-0.64354044,-0.06586898,0.64187896,-0.7639716,,-0.059721984,0.26499644,-0.101562664,0.31462228,-0.71111345,0.6287531,0.66952443,0.635797,0.38405615,-0.6728669,0.30013296,0.67614377,,-0.02621618,0.4382108,-0.33443663,0.8126113,0.4254567,-0.39830834,-0.5817984,0.55201924,-0.59731513,-0.03425787,0.7171202,0.6961071,,1.2208173354902847,0.3262854639359855,0.17488766906000003,1.8664501869557513,-0.6177336154395563,-0.16334992811645072,-0.4101569500631752,,-1.4083407351422044,0.12978052595134287,0.18305040719000001,1.5015896852926789,-0.12133321179171111,-0.3654045392166741,0.8727473453554541,,-0.03301944778616772,-0.08405069345291694,0.08364271396,-0.06607131087440103,,5.6296587e-05,-1.9073486e-06,-4.4107437e-06,1.0,-5.171448e-05,-4.3444335e-05,5.170703e-05,1.0,-4.440546e-06,4.3444335e-05,4.5001507e-06,1.0,37,0.112,0,0,0.0,False,-0.2589843698458485,1.0479700209337843
0.12241004896350205,11:48:48.435664,11:47:44.468392,0,,0.09047519,0.018446252,0.045933217,-0.3930702,0.69544643,-0.6015398,0.10508555,0.6838863,0.721981,0.91348386,0.22057597,-0.34189677,,0.06321941,-0.00095561147,0.041706383,-0.7466021,-0.41470334,0.5201984,-0.45232007,0.88982254,0.060187012,-0.48784405,-0.19036049,-0.851922,,0.0772326,1.3265395,0.4521898,0.9978136,0.04653057,-0.046936255,0.005420642,-0.7653929,-0.64354044,-0.06586898,0.64187896,-0.7639716,,-0.059753425,0.26532307,-0.1014516,0.31427988,-0.7117111,0.6282479,0.66944724,0.6353725,0.38489243,-0.6731037,0.2996149,0.6761378,,-0.026216997,0.4382131,-0.33444333,0.8126075,0.42544958,-0.3983236,-0.58180434,0.5520165,-0.5973119,-0.034244895,0.71712655,0.6961011,,1.221890795359802,0.32799991063406336,0.17499266855,1.8672889467296894,-0.6166405234414327,-0.164241271346022,-0.4101569500631752,,-1.4083561806079528,0.12977280321846865,0.18304392574000003,1.5015896852926789,-0.12133321179171111,-0.3654045392166741,0.8730740334877226,,-0.03301944778616772,-0.08405069345291694,0.08364271396,-0.06607131087440103,,5.6296587e-05,-1.9073486e-06,-4.4107437e-06,1.0,-5.171448e-05,-4.3444335e-05,5.170703e-05,1.0,-4.440546e-06,4.3444335e-05,4.5001507e-06,1.0,48,0.145,0,0,0.0,False,-0.2589843698458485,1.0479217407330053
0.157708570943214,11:48:48.470747,11:47:44.587127,0,,0.090477064,0.018713757,0.04602167,-0.39315012,0.69549274,-0.601434,0.104546934,0.68367726,0.722257,0.91351116,0.2210772,-0.3414996,,0.06321755,-0.0009585172,0.041715145,-0.7465959,-0.41474232,0.52017623,-0.45231587,0.8898194,0.060265332,-0.48785746,-0.19029015,-0.85193,,0.0772326,1.3265395,0.4521898,0.9978136,0.04653057,-0.046936255,0.005420642,-0.7653929,-0.64354044,-0.06586898,0.64187896,-0.7639716,,-0.059762813,0.2655872,-0.10135397,0.31435728,-0.7117997,0.62810886,0.6690469,0.6355173,0.38534918,-0.6734655,0.29909694,0.67600685,,-0.026216332,0.43821725,-0.3344518,0.8126032,0.42547855,-0.39830154,-0.58181125,0.5520667,-0.5972588,-0.034231827,0.7170707,0.6961593,,1.222817523304709,0.3293513888870527,0.17508989030000002,1.8672889467296894,-0.6158207044428401,-0.16490977876820062,-0.4101569500631752,,-1.4083716260737011,0.12977280321846865,0.18303485171000003,1.5015896852926789,-0.12133321179171111,-0.3653228604765335,0.8732373775538569,,-0.03301944778616772,-0.08405069345291694,0.08364271396,-0.06607131087440103,,5.6296587e-05,-1.9073486e-06,-4.4107437e-06,1.0,-5.171448e-05,-4.3444335e-05,5.170703e-05,1.0,-4.440546e-06,4.3444335e-05,4.5001507e-06,1.0,60,0.182,0,0,0.0,False,-0.25910352528289105,1.0474389387252105
0.19280861201696098,11:48:48.507913,11:47:44.587127,0,,0.0904863,0.019033596,0.046106383,-0.39270303,0.69612896,-0.60098994,0.103919506,0.6828907,0.72309124,0.913775,0.22150545,-0.34051475,,0.06321336,-0.00096319616,0.04171866,-0.7467221,-0.41456687,0.5201349,-0.45215103,0.8899097,0.060168833,-0.4878171,-0.19025022,-0.8519621,,0.0772326,1.3265395,0.4521898,0.9978136,0.04653057,-0.046936255,0.005420642,-0.7653929,-0.64354044,-0.06586898,0.64187896,-0.7639716,,-0.059779245,0.2658896,-0.10122041,0.31388953,-0.71246976,0.62758285,0.66869575,0.63513356,0.3865894,-0.67403215,0.29831558,0.67578727,,-0.026212605,0.43821672,-0.33445787,0.8127205,0.4252981,-0.39825493,-0.58165175,0.55214053,-0.5973458,-0.034157347,0.7171209,0.6961113,,1.2238137558454838,0.330911380927646,0.17522340817,1.867918016560143,-0.6152741584437783,-0.1653554503829862,-0.4101569500631752,,-1.4083561806079528,0.12976508048559443,0.18302837026000002,1.5017993752361634,-0.12133321179171111,-0.3654045392166741,0.8734007216199913,,-0.03301944778616772,-0.08405069345291694,0.08364271396,-0.06607131087440103,,5.6296587e-05,-1.9073486e-06,-4.4107437e-06,1.0,-5.171448e-05,-4.3444335e-05,5.170703e-05,1.0,-4.440546e-06,4.3444335e-05,4.5001507e-06,1.0,68,0.205,0,0,0.0,False,-0.25910352528289105,1.0471975377213132
0.22994139697402716,11:48:48.528714,11:47:44.587127,0,,0.09049809,0.019194618,0.0461241,-0.3928193,0.69616646,-0.60087055,0.103642374,0.68274444,0.7232691,0.91375655,0.22183833,-0.3403476,,0.06321266,-0.00096553564,0.041718602,-0.74660665,-0.41473857,0.5201638,-0.4523211,0.8898183,0.060242563,-0.48783615,-0.19030356,-0.8519392,,0.0772326,1.3265395,0.4521898,0.9978136,0.04653057,-0.046936255,0.005420642,-0.7653929,-0.64354044,-0.06586898,0.64187896,-0.7639716,,-0.059792507,0.26602602,-0.10113321,0.31400695,-0.7125353,0.6274497,0.6684735,0.6352235,0.386826,-0.6741979,0.2979674,0.6757755,,-0.026211873,0.4382151,-0.33445957,0.8126109,0.42547667,-0.39828765,-0.5817992,0.55205625,-0.5972802,-0.03425161,0.7170799,0.69614893,,1.2242076152220693,0.33166820874932,0.17530766702000003,1.867918016560143,-0.614864248944482,-0.16568970409407552,-0.4101569500631752,,-1.4083484578750785,0.1297573577527202,0.18302707397,1.5013799953491944,-0.12133321179171111,-0.3653228604765335,0.8732373775538569,,-0.03301944778616772,-0.08405069345291694,0.08364271396,-0.06607131087440103,,5.6296587e-05,-1.9073486e-06,-4.4107437e-06,1.0,-5.171448e-05,-4.3444335e-05,5.170703e-05,1.0,-4.440546e-06,4.3444335e-05,4.5001507e-06,1.0,75,0.227,0,0,0.0,False,-0.2589247921273281,1.0472458179220927
0.25077572895679623,11:48:48.555678,11:47:44.696278,0,,0.09051917,0.019375592,0.046150595,-0.3927722,0.6964102,-0.60061884,0.10295105,0.68229663,0.72379017,0.91385496,0.2224502,-0.3396834,,0.06321208,-0.00096806884,0.041718602,-0.74637187,-0.41504213,0.5202587,-0.4526596,0.88964033,0.06032735,-0.48788154,-0.1904735,-0.85187525,,0.0772326,1.3265395,0.4521898,0.9978136,0.04653057,-0.046936255,0.005420642,-0.7653929,-0.64354044,-0.06586898,0.64187896,-0.7639716,,-0.059815772,0.266183,-0.101039864,0.3139518,-0.7128299,0.6271426,0.66799086,0.63523954,0.38763243,-0.67470175,0.29722765,0.67559844,,-0.026211267,0.43821332,-0.33446136,0.812389,0.4258031,-0.39839157,-0.5820983,0.5518435,-0.5971853,-0.03443353,0.71704984,0.69617087,,1.224609197331529,0.3325563230298558,0.17539840732,1.867918016560143,-0.614864248944482,-0.16568970409407552,-0.4101569500631752,,-1.4083407351422044,0.129749635019846,0.18302577768000003,1.50117030540571,-0.12133321179171111,-0.365241181736393,0.8730740334877226,,-0.03301944778616772,-0.08405069345291694,0.08364271396,-0.06607131087440103,,5.6296587e-05,-1.9073486e-06,-4.4107437e-06,1.0,-5.171448e-05,-4.3444335e-05,5.170703e-05,1.0,-4.440546e-06,4.3444335e-05,4.5001507e-06,1.0,87,0.264,0,0,0.0,False,-0.2590439475643693,1.0474389387252105
0.2776833079988137,11:48:48.582211,11:47:44.696278,0,,0.09055338,0.019554213,0.04614173,-0.39315003,0.69634044,-0.6004524,0.10292503,0.6822634,0.7238252,0.91369545,0.22277018,-0.33990285,,0.06321354,-0.0009676963,0.041721165,-0.7463656,-0.41503868,0.5202704,-0.4526554,0.8896421,0.060332954,-0.48789495,-0.19047275,-0.8518677,,0.0772326,1.3265395,0.4521898,0.9978136,0.04653057,-0.046936255,0.005420642,-0.7653929,-0.64354044,-0.06586898,0.64187896,-0.7639716,,-0.05984913,0.26631552,-0.10091953,0.31434178,-0.7127875,0.6269954,0.66789156,0.6354156,0.387515,-0.67461854,0.29695275,0.6758024,,-0.026213067,0.43821523,-0.3344628,0.81238467,0.42579955,-0.39840424,-0.58210516,0.55184495,-0.5971773,-0.034420464,0.71705085,0.69617045,,1.2248640475163783,0.3333981009131463,0.17550859197000002,1.867918016560143,-0.6141810664456548,-0.16624679361255762,-0.4101569500631752,,-1.4083561806079528,0.129749635019846,0.18302448139000002,1.50117030540571,-0.12133321179171111,-0.365241181736393,0.8730740334877226,,-0.03301944778616772,-0.08405069345291694,0.08364271396,-0.06607131087440103,,5.6296587e-05,-1.9073486e-06,-4.4107437e-06,1.0,-5.171448e-05,-4.3444335e-05,5.170703e-05,1.0,-4.440546e-06,4.3444335e-05,4.5001507e-06,1.0,95,0.288,0,0,0.0,False,-0.2585077480976805,1.0472458179220927
0.3042306510033086,11:48:48.611029,11:47:44.696278,0,,0.09059335,0.019674882,0.046138108,-0.39292482,0.6969487,-0.5998938,0.10294515,0.68160063,0.7244465,0.91379,0.22289674,-0.33956546,,0.063213825,-0.0009660572,0.04172218,-0.7463618,-0.41504145,0.5202736,-0.45265386,0.88964224,0.060342968,-0.4879022,-0.19046628,-0.851865,,0.0772326,1.3265395,0.4521898,0.9978136,0.04653057,-0.046936255,0.005420642,-0.7653929,-0.64354044,-0.06586898,0.64187896,-0.7639716,,-0.059888676,0.2664056,-0.10083896,0.31410939,-0.71340424,0.6264101,0.667954,0.6349432,0.38818103,-0.67466486,0.29648188,0.67596287,,-0.026213512,0.43821704,-0.33446237,0.81238186,0.42580137,-0.398408,-0.58210945,0.5518498,-0.5971686,-0.034413837,0.717046,0.69617575,,1.2249489975779948,0.33400819681021005,0.17557988792,1.8685470863905964,-0.6140444299458894,-0.16619485403597284,-0.40983026193090655,,-1.4083639033408268,0.1297573577527202,0.18302448139000002,1.50117030540571,-0.12133321179171111,-0.365241181736393,0.8730740334877226,,-0.03301944778616772,-0.08405069345291694,0.08364271396,-0.06607131087440103,,5.6296587e-05,-1.9073486e-06,-4.4107437e-06,1.0,-5.171448e-05,-4.3444335e-05,5.170703e-05,1.0,-4.440546e-06,4.3444335e-05,4.5001507e-06,1.0,110,0.333,0,0,0.0,False,-0.25826943722359585,1.0469078565166363
0.3330640390049666,11:48:48.649980,11:47:44.696278,0,,0.09068671,0.019896388,0.046147525,-0.3929741,0.69770014,-0.5989874,0.102093875,0.6804691,0.72562975,0.9138644,0.22400068,-0.33863774,,0.0632157,-0.0009649098,0.041723788,-0.74647486,-0.4148636,0.5202532,-0.45248112,0.88973534,0.060264856,-0.48788935,-0.19041866,-0.85188305,,0.0772326,1.3265395,0.4521898,0.9978136,0.04653057,-0.046936255,0.005420642,-0.7653929,-0.64354044,-0.06586898,0.64187896,-0.7639716,,-0.059982512,0.2665799,-0.10070229,0.3141523,-0.71424633,0.62542826,0.66733634,0.6347023,0.38963467,-0.6752559,0.2949664,0.6760357,,-0.026215598,0.43821874,-0.33446252,0.81248987,0.42561746,-0.39838424,-0.5819646,0.5519307,-0.59723496,-0.03431312,0.71709293,0.6961324,,1.2250185021738629,0.3352592795358344,0.17569785031000001,1.868756776334081,-0.6143177029454203,-0.16564530326801769,-0.40917688566636945,,-1.4083793488065754,0.1297573577527202,0.18302448139000002,1.5013799953491944,-0.12133321179171111,-0.36532286047653356,0.8729106894215883,,-0.03301944778616772,-0.08405069345291694,0.08364271396,-0.06607131087440103,,5.6296587e-05,-1.9073486e-06,-4.4107437e-06,1.0,-5.171448e-05,-4.3444335e-05,5.170703e-05,1.0,-4.440546e-06,4.3444335e-05,4.5001507e-06,1.0,117,0.354,0,0,0.0,False,-0.25791197091247,1.0470526971189749
0.37202117301058024,11:48:48.677659,11:47:44.696278,0,,0.09078716,0.020100906,0.046153218,-0.39333433,0.6979826,-0.5984217,0.101439,0.67985845,0.7262937,0.91378224,0.22497283,-0.33821443,,0.063213564,-0.00096566975,0.041722238,-0.7466004,-0.41469264,0.5202094,-0.45231688,0.8898249,0.06017548,-0.4878496,-0.19037253,-0.85191613,,0.0772326,1.3265395,0.4521898,0.9978136,0.04653057,-0.046936255,0.005420642,-0.7653929,-0.64354044,-0.06586898,0.64187896,-0.7639716,,-0.06008311,0.2667382,-0.1005728,0.31451824,-0.71461,0.62482864,0.6667919,0.63481224,0.39038694,-0.6756233,0.29384688,0.67615616,,-0.026213262,0.43821737,-0.33446217,0.8126066,0.4254406,-0.3983351,-0.58180606,0.5520088,-0.59731734,-0.034238543,0.71713775,0.6960899,,1.2250107794409886,0.3364640258642134,0.17580544238,1.868756776334081,-0.6143177029454203,-0.16564530326801769,-0.40917688566636945,,-1.4083639033408268,0.1297573577527202,0.18302448139000002,1.5015896852926789,-0.12133321179171111,-0.3654045392166741,0.8727473453554541,,-0.03301944778616772,-0.08405069345291694,0.08364271396,-0.06607131087440103,,5.6296587e-05,-1.9073486e-06,-4.4107437e-06,1.0,-5.171448e-05,-4.3444335e-05,5.170703e-05,1.0,-4.440546e-06,4.3444335e-05,4.5001507e-06,1.0,128,0.387,0,0,0.0,False,-0.2583290149421176,1.0471975377213132
0.39972214691806585,11:48:48.709736,11:47:44.842280,0,,0.09090388,0.020306885,0.04618424,-0.3940115,0.69811606,-0.59782016,0.10052392,0.6792671,0.7269739,0.9135916,0.22634076,-0.33781654,,0.06321229,-0.0009651333,0.04172349,-0.74659973,-0.41473958,0.52017295,-0.45231745,0.88981926,0.06025535,-0.4878502,-0.19029665,-0.85193276,,0.0772326,1.3265395,0.4521898,0.9978136,0.04653057,-0.046936255,0.005420642,-0.7653929,-0.64354044,-0.06586898,0.64187896,-0.7639716,,-0.06020206,0.26691252,-0.100461066,0.31520924,-0.7148588,0.6241955,0.66599315,0.63519055,0.39113438,-0.6760889,0.29242077,0.676309,,-0.026212191,0.4382188,-0.3344628,0.812606,0.42547673,-0.39829776,-0.5818069,0.5520618,-0.5972675,-0.034238454,0.7170755,0.696154,,1.2249953339752402,0.3378077813843285,0.17589229381000002,1.8683373964471122,-0.6143177029454203,-0.16548194578773656,-0.4091768856663695,,-1.4083639033408268,0.12976508048559443,0.1830231851,1.5015896852926789,-0.12133321179171111,-0.3653228604765335,0.8725840012893198,,-0.03301944778616772,-0.08405069345291694,0.08364271396,-0.06607131087440103,,5.6296587e-05,-1.9073486e-06,-4.4107437e-06,1.0,-5.171448e-05,-4.3444335e-05,5.170703e-05,1.0,-4.440546e-06,4.3444335e-05,4.5001507e-06,1.0,139,0.419,0,0,0.0,False,-0.2587460589717643,1.0475837793275489
0.4317968579707667,11:48:48.733231,11:47:44.842280,0,,0.09101997,0.02054803,0.046219975,-0.39800122,0.69586027,-0.5978073,0.096521914,0.6797895,0.72702795,0.91229284,0.2316564,-0.3377229,,0.06321401,-0.00096575916,0.041724026,-0.7465973,-0.4147334,0.52018136,-0.45231476,0.88982093,0.060250968,-0.48785633,-0.19030255,-0.8519279,,0.0772326,1.3265395,0.4521898,0.9978136,0.04653057,-0.046936255,0.005420642,-0.7653929,-0.64354044,-0.06586898,0.64187896,-0.7639716,,-0.06032079,0.26711732,-0.10033117,0.3192951,-0.7130614,0.6241747,0.6622659,0.63901466,0.39123407,-0.6778307,0.28845054,0.6762705,,-0.026213957,0.43821853,-0.33446348,0.81260437,0.42547137,-0.3983067,-0.58180946,0.55205834,-0.5972682,-0.034232013,0.7170814,0.6961483,,1.2250030567081145,0.33946044621941257,0.17600118217000002,1.8624660780295454,-0.614864248944482,-0.16332102062999915,-0.4093402297325037,,-1.4083716260737011,0.1297573577527202,0.1830231851,1.5015896852926789,-0.12133321179171111,-0.3653228604765335,0.8725840012893198,,-0.03301944778616772,-0.08405069345291694,0.08364271396,-0.06607131087440103,,5.6296587e-05,-1.9073486e-06,-4.4107437e-06,1.0,-5.171448e-05,-4.3444335e-05,5.170703e-05,1.0,-4.440546e-06,4.3444335e-05,4.5001507e-06,1.0,150,0.452,0,0,0.0,False,-0.259282258438454,1.04748721892599
0.45521718892268836,11:48:48.773150,11:47:44.842280,0,,0.091188416,0.020830482,0.04626231,-0.39769033,0.6983131,-0.5951481,0.09633407,0.6768429,0.72979677,0.91244835,0.23289995,-0.3364454,,0.06321557,-0.0009647608,0.041723788,-0.7465942,-0.41473165,0.5201872,-0.45231268,0.88982177,0.0602538,-0.487863,-0.1903022,-0.8519242,,0.0772326,1.3265395,0.4521898,0.9978136,0.04653057,-0.046936255,0.005420642,-0.7653929,-0.64354044,-0.06586898,0.64187896,-0.7639716,,-0.06049225,0.26735574,-0.10017727,0.31897217,-0.7156104,0.62141657,0.66219884,0.63734984,0.3940531,-0.67804825,0.28580937,0.67717326,,-0.026215473,0.43821892,-0.33446243,0.8126022,0.4254696,-0.39831305,-0.5818129,0.552059,-0.59726423,-0.03422548,0.7170819,0.6961481,,1.2249644430437432,0.3412675657119811,0.17611914456000002,1.8639339076339372,-0.6147276124447165,-0.1615538275104627,-0.4098302619309067,,-1.4083793488065754,0.1297573577527202,0.18302448139000002,1.5015896852926789,-0.12133321179171111,-0.3653228604765335,0.8725840012893198,,-0.03301944778616772,-0.08405069345291694,0.08364271396,-0.06607131087440103,,5.6296587e-05,-1.9073486e-06,-4.4107437e-06,1.0,-5.171448e-05,-4.3444335e-05,5.170703e-05,1.0,-4.440546e-06,4.3444335e-05,4.5001507e-06,1.0,161,0.485,0,0,0.0,False,-0.2588652144088064,1.047390658524431
0.4951844959286973,11:48:48.804431,11:47:44.842280,0,,0.09140392,0.021125063,0.046332985,-0.39604494,0.7011283,-0.59293145,0.09816706,0.67436117,0.73184705,0.9129685,0.23163787,-0.3359051,,0.06321557,-0.0009647608,0.041723788,-0.7465942,-0.41473165,0.5201872,-0.45231268,0.88982177,0.0602538,-0.487863,-0.1903022,-0.8519242,,0.0772326,1.3265395,0.4521898,0.9978136,0.04653057,-0.046936255,0.005420642,-0.7653929,-0.64354044,-0.06586898,0.64187896,-0.7639716,,-0.060712997,0.26761878,-0.100034796,0.31728843,-0.7183082,0.61916184,0.66386926,0.634476,0.39587596,-0.6772043,0.28543565,0.6781746,,-0.026215473,0.43821892,-0.33446243,0.8126022,0.4254696,-0.39831305,-0.5818129,0.552059,-0.59726423,-0.03422548,0.7170819,0.6961481,,1.2248717702492526,0.3432831989921537,0.17621118115,1.8683373964471122,-0.6136345204465931,-0.16260852822031518,-0.41015695006317515,,-1.4083793488065754,0.1297573577527202,0.18302448139000002,1.5015896852926789,-0.12133321179171111,-0.36532286047653356,0.8732373775538569,,-0.03301944778616772,-0.08405069345291694,0.08364271396,-0.06607131087440103,,5.6296587e-05,-1.9073486e-06,-4.4107437e-06,1.0,-5.171448e-05,-4.3444335e-05,5.170703e-05,1.0,-4.440546e-06,4.3444335e-05,4.5001507e-06,1.0,172,0.518,0,0,0.0,False,-0.25815028178655464,1.0475837793275489
0.5264645309653133,11:48:48.842201,11:47:44.981869,0,,0.09166317,0.021500498,0.04640323,-0.39663061,0.70198315,-0.59152675,0.09830809,0.67315567,0.7329371,0.91269904,0.23255327,-0.33600485,,0.06321398,-0.00096425414,0.04172319,-0.74647725,-0.4148698,0.52024484,-0.45248383,0.8897337,0.060269207,-0.4878832,-0.19041279,-0.8518878,,0.0772326,1.3265395,0.4521898,0.9978136,0.04653057,-0.046936255,0.005420642,-0.7653929,-0.64354044,-0.06586898,0.64187896,-0.7639716,,-0.06097731,0.26794252,-0.09983878,0.3178948,-0.7192374,0.61777055,0.6638435,0.6340549,0.3965932,-0.67694515,0.28402808,0.6790238,,-0.026213832,0.43821904,-0.33446184,0.8124914,0.42562282,-0.39837533,-0.58196205,0.5519342,-0.59723425,-0.03431956,0.71708703,0.69613814,,1.224717315591768,0.34587031450501887,0.17634858789000002,1.8695955361080192,-0.6125414284484696,-0.16366322893016766,-0.4104836381954438,,-1.4083716260737011,0.12976508048559443,0.18302448139000002,1.5013799953491944,-0.12133321179171111,-0.3653228604765335,0.8732373775538569,,-0.03301944778616772,-0.08405069345291694,0.08364271396,-0.06607131087440103,,5.6296587e-05,-1.9073486e-06,-4.4107437e-06,1.0,-5.171448e-05,-4.3444335e-05,5.170703e-05,1.0,-4.440546e-06,4.3444335e-05,4.5001507e-06,1.0,183,0.55,0,0,0.0,False,-0.2580311263495121,1.0477769001306665
0.5642566869501024,11:48:48.873911,11:47:44.981869,0,,0.09190477,0.021774605,0.04645005,-0.39258754,0.7070212,-0.58821434,0.10442269,0.6696917,0.7352611,0.91376734,0.22723134,-0.33674175,,0.06321312,-0.0009649545,0.041722417,-0.746361,-0.41500345,0.52030504,-0.45265442,0.8896463,0.06027749,-0.48790285,-0.19052958,-0.85185045,,0.0772326,1.3265395,0.4521898,0.9978136,0.04653057,-0.046936255,0.005420642,-0.7653929,-0.64354044,-0.06586898,0.64187896,-0.7639716,,-0.06122204,0.26817337,-0.099688716,0.31377503,-0.7238062,0.6145322,0.6690787,0.62777734,0.3977805,-0.6737054,0.2863568,0.68126416,,-0.026212852,0.4382181,-0.3344618,0.8123812,0.42577243,-0.3984402,-0.58211035,0.5518052,-0.597209,-0.03441374,0.7170975,0.6961227,,1.2245242472699125,0.3477006021962101,0.17643155045000003,1.8792412735083073,-0.609262152454099,-0.16690900979986567,-0.4099936059970408,,-1.4083639033408268,0.12976508048559443,0.18302448139000002,1.50117030540571,-0.12133321179171111,-0.3653228604765335,0.8732373775538569,,-0.03301944778616772,-0.08405069345291694,0.08364271396,-0.06607131087440103,,5.6296587e-05,-1.9073486e-06,-4.4107437e-06,1.0,-5.171448e-05,-4.3444335e-05,5.170703e-05,1.0,-4.440546e-06,4.3444335e-05,4.5001507e-06,1.0,194,0.583,0,0,0.0,False,-0.25785239319394915,1.0472458179220927
0.595950721995905,11:48:48.909942,11:47:44.981869,0,,0.0922042,0.022118136,0.04649864,-0.38922226,0.71184075,-0.5846271,0.10695639,0.6653068,0.73886883,0.9149132,0.22505449,-0.33508822,,0.063213825,-0.0009660572,0.04172218,-0.7463618,-0.41499895,0.52030754,-0.45265386,0.8896471,0.06027034,-0.4879022,-0.19053587,-0.85184944,,0.0772326,1.3265395,0.4521898,0.9978136,0.04653057,-0.046936255,0.005420642,-0.7653929,-0.64354044,-0.06586898,0.64187896,-0.7639716,,-0.061524555,0.26845658,-0.09949298,0.3103245,-0.7284236,0.6108173,0.6715948,0.62274075,0.40144038,-0.67279947,0.28564495,0.6824572,,-0.026213512,0.43821704,-0.33446237,0.81238186,0.42576882,-0.39844278,-0.58210945,0.551801,-0.5972137,-0.034413837,0.7171029,0.6961172,,1.224060883297459,0.3500560357228486,0.17656247574000003,1.886370731586781,-0.6087156064550372,-0.16751803889493244,-0.4096669178647723,,-1.4083639033408268,0.1297573577527202,0.18302448139000002,1.50117030540571,-0.12133321179171111,-0.3653228604765335,0.8732373775538569,,-0.03301944778616772,-0.08405069345291694,0.08364271396,-0.06607131087440103,,5.6296587e-05,-1.9073486e-06,-4.4107437e-06,1.0,-5.171448e-05,-4.3444335e-05,5.170703e-05,1.0,-4.440546e-06,4.3444335e-05,4.5001507e-06,1.0,209,0.628,0,0,0.0,False,-0.2590439475643693,1.047390658524431
0.632002233993262,11:48:48.947384,11:47:44.981869,0,,0.09253579,0.022388399,0.046507925,-0.38788414,0.71491295,-0.5817605,0.110004455,0.66257215,0.74087584,0.91512,0.22337763,-0.33564496,,0.06321583,-0.0009651184,0.04172373,-0.74635553,-0.4149955,0.5203193,-0.45264968,0.8896489,0.060275912,-0.48791566,-0.19053513,-0.8518419,,0.0772326,1.3265395,0.4521898,0.9978136,0.04653057,-0.046936255,0.005420642,-0.7653929,-0.64354044,-0.06586898,0.64187896,-0.7639716,,-0.06185577,0.26865637,-0.09931009,0.3089733,-0.7313424,0.608008,0.67403835,0.6193982,0.40251482,-0.6709752,0.28545442,0.68433034,,-0.026215723,0.43821856,-0.33446264,0.81237745,0.42576528,-0.39845547,-0.58211637,0.5518024,-0.5972057,-0.03440077,0.7171039,0.6961168,,1.2231804917497975,0.35219523272900877,0.17666488265000002,1.8916129801738941,-0.6069393319580865,-0.1689664716429859,-0.4096669178647723,,-1.4083793488065754,0.1297573577527202,0.18302448139000002,1.50117030540571,-0.12133321179171111,-0.3653228604765335,0.8732373775538569,,-0.03301944778616772,-0.08405069345291694,0.08364271396,-0.06607131087440103,,5.6296587e-05,-1.9073486e-06,-4.4107437e-06,1.0,-5.171448e-05,-4.3444335e-05,5.170703e-05,1.0,-4.440546e-06,4.3444335e-05,4.5001507e-06,1.0,220,0.661,0,0,0.0,False,-0.25815028178655464,1.0479217407330053
0.669445566018112,11:48:48.980457,11:47:44.981869,0,,0.09280856,0.022568747,0.04650393,-0.3910568,0.7134501,-0.5814325,0.11112848,0.6637203,0.73967946,0.91363275,0.22464286,-0.3388371,,0.063214116,-0.00096443295,0.041723132,-0.7463579,-0.41500172,0.5203109,-0.45265234,0.88964725,0.060280323,-0.48790953,-0.19052929,-0.8518467,,0.0772326,1.3265395,0.4521898,0.9978136,0.04653057,-0.046936255,0.005420642,-0.7653929,-0.64354044,-0.06586898,0.64187896,-0.7639716,,-0.06212724,0.26878068,-0.09917667,0.31226042,-0.729992,0.60795164,0.67416346,0.6211587,0.39958164,-0.6693258,0.28508523,0.6860972,,-0.026213957,0.43821886,-0.33446193,0.81237906,0.42577067,-0.39844656,-0.5821138,0.5518059,-0.597205,-0.03440721,0.71709806,0.6961225,,1.2223155456678843,0.35393284762570926,0.17672580828,1.890354840512987,-0.6043432384625431,-0.1709200543329369,-0.40966691786477244,,-1.4083716260737011,0.12976508048559443,0.18302448139000002,1.50117030540571,-0.12133321179171111,-0.3653228604765335,0.8732373775538569,,-0.03301944778616772,-0.08405069345291694,0.08364271396,-0.06607131087440103,,5.6296587e-05,-1.9073486e-06,-4.4107437e-06,1.0,-5.171448e-05,-4.3444335e-05,5.170703e-05,1.0,-4.440546e-06,4.3444335e-05,4.5001507e-06,1.0,227,0.681,0,0,0.0,False,-0.25826943722359585,1.04748721892599
0.7025050310185179,11:48:49.005241,11:47:44.981869,0,,0.09303287,0.022700608,0.04650539,-0.3903682,0.71598685,-0.57877064,0.11342618,0.6612611,0.7415309,0.9136449,0.22382222,-0.3393471,,0.06321312,-0.0009649545,0.041722417,-0.746361,-0.41500345,0.52030504,-0.45265442,0.8896463,0.06027749,-0.48790285,-0.19052958,-0.85185045,,0.0772326,1.3265395,0.4521898,0.9978136,0.04653057,-0.046936255,0.005420642,-0.7653929,-0.64354044,-0.06586898,0.64187896,-0.7639716,,-0.062350888,0.26887295,-0.0990809,0.31157294,-0.73244995,0.6053423,0.6759332,0.61859095,0.4005741,-0.6678598,0.2843629,0.6878234,,-0.026212852,0.4382181,-0.3344618,0.8123812,0.42577243,-0.3984402,-0.58211035,0.5518052,-0.597209,-0.03441374,0.7170975,0.6961227,,1.2215896087777072,0.3551684848855852,0.17676599327,1.8937098796087395,-0.6029768734648887,-0.1708090522677927,-0.4091768856663696,,-1.4083639033408268,0.12976508048559443,0.18302448139000002,1.50117030540571,-0.12133321179171111,-0.3653228604765335,0.8732373775538569,,-0.03301944778616772,-0.08405069345291694,0.08364271396,-0.06607131087440103,,5.6296587e-05,-1.9073486e-06,-4.4107437e-06,1.0,-5.171448e-05,-4.3444335e-05,5.170703e-05,1.0,-4.440546e-06,4.3444335e-05,4.5001507e-06,1.0,238,0.714,0,0,0.0,False,-0.25910352528289105,1.0479700209337843
0.7272769929841161,11:48:49.044107,11:47:45.176573,0,,0.09354367,0.022982672,0.0464997,-0.38932714,0.72074085,-0.5735479,0.120031804,0.65706646,0.744215,0.9132451,0.22089902,-0.34232575,,0.063214116,-0.00096443295,0.041723132,-0.7463579,-0.41500172,0.5203109,-0.45265234,0.88964725,0.060280323,-0.48790953,-0.19052929,-0.8518467,,0.0772326,1.3265395,0.4521898,0.9978136,0.04653057,-0.046936255,0.005420642,-0.7653929,-0.64354044,-0.06586898,0.64187896,-0.7639716,,-0.06285941,0.26906323,-0.0988671,0.31056872,-0.7369387,0.60039026,0.68080086,0.6132439,0.4005523,-0.6633681,0.28434718,0.6921629,,-0.026213957,0.43821886,-0.33446193,0.81237906,0.42577067,-0.39844656,-0.5821138,0.5518059,-0.597205,-0.03440721,0.71709806,0.6961225,,1.219936943942623,0.3579023323230607,0.17684636325000003,1.9014684075176667,-0.5983312324728638,-0.17255529248995682,-0.4093402297325038,,-1.4083716260737011,0.12976508048559443,0.18302448139000002,1.50117030540571,-0.12133321179171111,-0.3653228604765335,0.8732373775538569,,-0.03301944778616772,-0.08405069345291694,0.08364271396,-0.06607131087440103,,5.6296587e-05,-1.9073486e-06,-4.4107437e-06,1.0,-5.171448e-05,-4.3444335e-05,5.170703e-05,1.0,-4.440546e-06,4.3444335e-05,4.5001507e-06,1.0,253,0.759,0,0,0.0,False,-0.25785239319394915,1.0477769001306665
0.766166809014976,11:48:49.077315,11:47:45.176573,0,,0.094137385,0.023291677,0.04651946,-0.3910816,0.72338086,-0.56901264,0.123578966,0.6539272,0.7463963,0.9120215,0.22158375,-0.34513372,,0.063215114,-0.000963971,0.041723967,-0.7463548,-0.415,0.5203167,-0.45265022,0.8896481,0.060283095,-0.48791623,-0.19052896,-0.85184294,,0.0772326,1.3265395,0.4521898,0.9978136,0.04653057,-0.046936255,0.005420642,-0.7653929,-0.64354044,-0.06586898,0.64187896,-0.7639716,,-0.06345269,0.269286,-0.09865088,0.31242007,-0.7396269,0.59610885,0.68291134,0.6110718,0.40027907,-0.6603225,0.2820343,0.6960107,,-0.026215062,0.43821964,-0.33446208,0.81237686,0.42576888,-0.3984529,-0.5821172,0.55180657,-0.597201,-0.034400675,0.71709853,0.6961223,,1.2178981424638278,0.3612076619932288,0.17692025178,1.9048234466134193,-0.5949153199787277,-0.17305373535843172,-0.4086868534679667,,-1.4083793488065754,0.12976508048559443,0.18302448139000002,1.50117030540571,-0.12133321179171111,-0.3653228604765335,0.8732373775538569,,-0.03301944778616772,-0.08405069345291694,0.08364271396,-0.06607131087440103,,5.6296587e-05,-1.9073486e-06,-4.4107437e-06,1.0,-5.171448e-05,-4.3444335e-05,5.170703e-05,1.0,-4.440546e-06,4.3444335e-05,4.5001507e-06,1.0,264,0.792,0,0,0.0,False,-0.257435349164302,1.04748721892599
0.7993749669985846,11:48:49.113088,11:47:45.176573,0,,0.09463265,0.023526445,0.046526015,-0.39522022,0.72256994,-0.5671805,0.1273228,0.6545801,0.7451937,0.9097196,0.22230053,-0.35070306,,0.063216835,-0.0009646565,0.041724443,-0.74635243,-0.41499376,0.5203251,-0.4526475,0.88964975,0.060278744,-0.48792237,-0.19053474,-0.8518381,,0.0772326,1.3265395,0.4521898,0.9978136,0.04653057,-0.046936255,0.005420642,-0.7653929,-0.64354044,-0.06586898,0.64187896,-0.7639716,,-0.06394677,0.26944768,-0.0984771,0.31673834,-0.7388796,0.5947552,0.68463296,0.6120702,0.39578754,-0.65647125,0.28182793,0.6997275,,-0.026216827,0.43821934,-0.33446276,0.8123753,0.42576352,-0.39846182,-0.58211976,0.5518031,-0.5972017,-0.034394234,0.71710443,0.69611657,,1.21618369576575,0.3639492321635785,0.17696562193,1.9050331365569038,-0.5898597694874064,-0.17611437417337195,-0.4081968212695638,,-1.4083870715394495,0.1297573577527202,0.18302448139000002,1.50117030540571,-0.12133321179171111,-0.3653228604765335,0.8732373775538569,,-0.03301944778616772,-0.08405069345291694,0.08364271396,-0.06607131087440103,,5.6296587e-05,-1.9073486e-06,-4.4107437e-06,1.0,-5.171448e-05,-4.3444335e-05,5.170703e-05,1.0,-4.440546e-06,4.3444335e-05,4.5001507e-06,1.0,271,0.812,0,0,0.0,False,-0.2579715486309908,1.0478251803314462
0.835151141975075,11:48:49.137308,11:47:45.176573,0,,0.094997585,0.023700237,0.046532273,-0.3962903,0.72301525,-0.5658649,0.13083914,0.6545088,0.744647,0.9087546,0.221059,-0.35397434,,0.06321583,-0.0009651184,0.04172373,-0.74635553,-0.4149955,0.5203193,-0.45264968,0.8896489,0.060275912,-0.48791566,-0.19053513,-0.8518419,,0.0772326,1.3265395,0.4521898,0.9978136,0.04653057,-0.046936255,0.005420642,-0.7653929,-0.64354044,-0.06586898,0.64187896,-0.7639716,,-0.064310946,0.26956835,-0.09834965,0.31788585,-0.73921824,0.59372133,0.6868436,0.611221,0.3932617,-0.65360117,0.28278136,0.70202583,,-0.026215723,0.43821856,-0.33446264,0.81237745,0.42576528,-0.39845547,-0.58211637,0.5518024,-0.5972057,-0.03440077,0.7171039,0.6961168,,1.2149326130401257,0.36589536084788304,0.17700191805,1.9077591058222025,-0.5865804934930359,-0.17936015504307,-0.4095035737986381,,-1.4083793488065754,0.1297573577527202,0.18302448139000002,1.50117030540571,-0.12133321179171111,-0.3653228604765335,0.8732373775538569,,-0.03301944778616772,-0.08405069345291694,0.08364271396,-0.06607131087440103,,5.6296587e-05,-1.9073486e-06,-4.4107437e-06,1.0,-5.171448e-05,-4.3444335e-05,5.170703e-05,1.0,-4.440546e-06,4.3444335e-05,4.5001507e-06,1.0,282,0.845,0,0,0.0,False,-0.2579715486309908,1.0473423783236515
0.8593697280157357,11:48:49.167330,11:47:45.176573,0,,0.095535405,0.023970217,0.046552747,-0.39615905,0.72434473,-0.5642541,0.1344367,0.6536702,0.7447428,0.9082866,0.21918005,-0.35633612,,0.06321482,-0.00096558034,0.041722953,-0.74635863,-0.41499722,0.5203134,-0.45265174,0.8896481,0.06027308,-0.48790893,-0.19053549,-0.8518456,,0.0772326,1.3265395,0.4521898,0.9978136,0.04653057,-0.046936255,0.005420642,-0.7653929,-0.64354044,-0.06586898,0.64187896,-0.7639716,,-0.0648486,0.26976398,-0.098162,0.31779432,-0.7403837,0.59231645,0.68936247,0.6093293,0.39178714,-0.6509886,0.283813,0.70403415,,-0.026214616,0.43821782,-0.3344625,0.81237966,0.42576706,-0.39844912,-0.5821129,0.55180174,-0.5972097,-0.034407303,0.7171034,0.696117,,1.213055988951689,0.36878366294284304,0.17706932513,1.912791664465831,-0.5841210364972579,-0.18381603951382255,-0.4093402297325039,,-1.4083716260737011,0.1297573577527202,0.18302448139000002,1.50117030540571,-0.12133321179171111,-0.3653228604765335,0.8732373775538569,,-0.03301944778616772,-0.08405069345291694,0.08364271396,-0.06607131087440103,,5.6296587e-05,-1.9073486e-06,-4.4107437e-06,1.0,-5.171448e-05,-4.3444335e-05,5.170703e-05,1.0,-4.440546e-06,4.3444335e-05,4.5001507e-06,1.0,297,0.89,0,0,0.0,False,-0.257435349164302,1.0476320595283284
0.8893617020221427,11:48:49.212926,11:47:45.353930,0,,0.09642418,0.024407238,0.046569824,-0.39489624,0.725736,-0.5633509,0.14163005,0.6539461,0.7431657,0.9077433,0.2136859,-0.36102694,,0.063144974,-0.000996016,0.04171157,-0.7463976,-0.4149263,0.5203139,-0.4525953,0.88968,0.060224205,-0.48790154,-0.1905404,-0.8518488,,0.077208586,1.3265402,0.4521906,0.99781334,0.046560623,-0.046910986,0.005459818,-0.76539105,-0.6435423,-0.06586898,0.64187896,-0.7639716,,-0.0657173,0.2700693,-0.09784546,0.31657666,-0.74133015,0.5917845,0.6946006,0.60604197,0.38761216,-0.6459948,0.28834486,0.70678705,,-0.026124187,0.43819687,-0.33448136,0.8124349,0.42566246,-0.3984482,-0.5820387,0.55182475,-0.5972608,-0.034357898,0.71714777,0.6960737,,1.2099360048705023,0.37345591633174885,0.17718210236,1.9228567817530884,-0.579475395505233,-0.19462861989158914,-0.41032029412930937,,-1.4083716260737011,0.1297573577527202,0.18302448139000002,1.50117030540571,-0.12133321179171111,-0.3653228604765335,0.8732373775538569,,-0.03301944778616772,-0.08405069345291694,0.08364271396,-0.06607131087440103,,3.2290816e-05,-3.2186508e-06,-4.4107437e-06,1.0,-2.1714717e-05,-1.8239021e-05,2.1710992e-05,1.0,-1.8775463e-06,1.8246472e-05,1.9073486e-06,1.0,308,0.923,0,0,0.0,False,-0.25815028178655464,1.0479217407330053
0.9349879069486633,11:48:49.236959,11:47:45.353930,0,,0.09677041,0.024587378,0.04657103,-0.39374155,0.7272876,-0.5621569,0.1431728,0.6526161,0.7440387,0.90800285,0.21247335,-0.36108994,,0.06314706,-0.0009966567,0.041713715,-0.7463491,-0.41482565,0.5204638,-0.45254156,0.8897104,0.06017849,-0.4880257,-0.19061735,-0.85176045,,0.077208586,1.3265402,0.4521906,0.99781334,0.046560623,-0.046910986,0.005459818,-0.76539105,-0.6435423,-0.06586898,0.64187896,-0.7639716,,-0.06606243,0.27019277,-0.09771135,0.31540385,-0.74277323,0.59059995,0.6959081,0.60416704,0.3881934,-0.6451607,0.2885656,0.7074585,,-0.02612655,0.43819767,-0.33448318,0.81240326,0.42557302,-0.39860824,-0.58209056,0.55178314,-0.5972487,-0.03422762,0.7172328,0.69599247,,1.208654031213381,0.37526303582431736,0.17724821315000003,1.9268408906792942,-0.579202122505702,-0.1968934242024961,-0.40754344500502676,,-1.4083793488065754,0.129749635019846,0.1830231851,1.50117030540571,-0.12119657529194568,-0.3654342783802299,0.8732373775538569,,-0.03301944778616772,-0.08405069345291694,0.08364271396,-0.06607131087440103,,3.2290816e-05,-3.2186508e-06,-4.4107437e-06,1.0,-2.1714717e-05,-1.8239021e-05,2.1710992e-05,1.0,-1.8775463e-06,1.8246472e-05,1.9073486e-06,1.0,312,0.935,0,0,0.0,False,-0.257435349164302,1.0475354991267694
0.9590202559484169,11:48:49.265402,11:47:45.353930,0,,0.097301036,0.02486147,0.046571925,-0.39536864,0.7257644,-0.56298274,0.14262319,0.6539956,0.7429322,0.9073821,0.21343766,-0.36208028,,0.063158184,-0.0009908751,0.041719437,-0.746318,-0.41480836,0.52052224,-0.45252043,0.88971925,0.060206532,-0.48809284,-0.1906138,-0.8517228,,0.077208586,1.3265402,0.4521906,0.99781334,0.046560623,-0.046910986,0.005459818,-0.76539105,-0.6435423,-0.06586898,0.64187896,-0.7639716,,-0.06659126,0.27037984,-0.097506374,0.3170778,-0.7413375,0.5915069,0.6951789,0.60592526,0.3867568,-0.6451263,0.28857115,0.70748764,,-0.026138425,0.4382046,-0.3344822,0.81238145,0.4255553,-0.39867166,-0.5821248,0.5517901,-0.5972088,-0.034162287,0.717238,0.6959904,,1.206584338803089,0.37815133791927735,0.17735450893000002,1.9276796504532323,-0.5796120320049984,-0.20129653741955936,-0.40885019753410096,,-1.4084565761353176,0.129749635019846,0.18302577768000003,1.50117030540571,-0.12119657529194568,-0.3654342783802299,0.8732373775538569,,-0.03301944778616772,-0.08405069345291694,0.08364271396,-0.06607131087440103,,3.2290816e-05,-3.2186508e-06,-4.4107437e-06,1.0,-2.1714717e-05,-1.8239021e-05,2.1710992e-05,1.0,-1.8775463e-06,1.8246472e-05,1.9073486e-06,1.0,323,0.968,0,0,0.0,False,-0.2584481703791588,1.0479217407330053
0.9874566289363429,11:48:49.288876,11:47:45.353930,0,,0.097643845,0.025037885,0.04656993,-0.39364818,0.72757006,-0.5618567,0.14420488,0.6525122,0.7439305,0.90787995,0.21182434,-0.36177957,,0.06316155,-0.0009879097,0.041722894,-0.74634784,-0.41489863,0.5204074,-0.45256162,0.88969415,0.060269117,-0.48800895,-0.19053474,-0.8517885,,0.077208586,1.3265402,0.4521906,0.99781334,0.046560623,-0.046910986,0.005459818,-0.76539105,-0.6435423,-0.06586898,0.64187896,-0.7639716,,-0.0669327,0.27049857,-0.09737232,0.3153211,-0.74299973,0.5903592,0.6966349,0.60366833,0.3876652,-0.64441633,0.2890258,0.7079489,,-0.02614228,0.43820876,-0.33448234,0.8124,0.42563412,-0.39854968,-0.5820936,0.5518359,-0.59719694,-0.034253366,0.71715605,0.6960704,,1.2052946424130935,0.3798966755488521,0.17742450859000003,1.932292829209892,-0.5796120320049984,-0.2037468996237762,-0.40983026193090666,,-1.4084951897996887,0.1297573577527202,0.18302577768000003,1.50117030540571,-0.12133321179171111,-0.3653228604765335,0.8732373775538569,,-0.03301944778616772,-0.08405069345291694,0.08364271396,-0.06607131087440103,,3.2290816e-05,-3.2186508e-06,-4.4107437e-06,1.0,-2.1714717e-05,-1.8239021e-05,2.1710992e-05,1.0,-1.8775463e-06,1.8246472e-05,1.9073486e-06,1.0,334,1.001,0,0,0.0,False,-0.2589843698458485,1.047390658524431
1.0109373070299625,11:48:49.320059,11:47:45.353930,0,,0.098265976,0.025380567,0.04650256,-0.39829546,0.72417253,-0.5629698,0.14305362,0.6552849,0.7417124,0.9060333,0.21488571,-0.36459258,,0.06316498,-0.0009892657,0.041724026,-0.7463431,-0.4148862,0.5204242,-0.45255628,0.8896974,0.060260296,-0.48802122,-0.1905464,-0.85177886,,0.077208586,1.3265402,0.4521906,0.99781334,0.046560623,-0.046910986,0.005459818,-0.76539105,-0.6435423,-0.06586898,0.64187896,-0.7639716,,-0.06754694,0.27069217,-0.09706534,0.32010823,-0.73987406,0.59170693,0.6948342,0.6079165,0.38424346,-0.6440002,0.28813872,0.70868886,,-0.02614581,0.4382082,-0.33448374,0.8123969,0.42562336,-0.39856753,-0.5820987,0.5518289,-0.59719837,-0.034240488,0.71716774,0.6960589,,1.2027229723659767,0.38327150981488817,0.17761376693000003,1.9299862398315621,-0.579202122505702,-0.20816509034189365,-0.41048363819544376,,-1.4085106352654373,0.12974191228697177,0.18302577768000003,1.50117030540571,-0.12133321179171111,-0.3653228604765335,0.8732373775538569,,-0.03301944778616772,-0.08405069345291694,0.08364271396,-0.06607131087440103,,3.2290816e-05,-3.2186508e-06,-4.4107437e-06,1.0,-2.1714717e-05,-1.8239021e-05,2.1710992e-05,1.0,-1.8775463e-06,1.8246472e-05,1.9073486e-06,1.0,342,1.025,0,0,0.0,False,-0.2589843698458485,1.0471975377213132
1.0420829359209165,11:48:49.347742,11:47:45.480646,0,,0.098550655,0.025534883,0.0464655,-0.40179327,0.7216338,-0.56374353,0.1422709,0.6573391,0.7400433,0.904611,0.21714006,-0.36678204,,0.06316469,-0.0009908602,0.041723013,-0.74634695,-0.41492596,0.520387,-0.45255786,0.88969237,0.060323,-0.48801395,-0.19048333,-0.8517971,,0.077208586,1.3265402,0.4521906,0.99781334,0.046560623,-0.046910986,0.005459818,-0.76539105,-0.6435423,-0.06586898,0.64187896,-0.7639716,,-0.06782749,0.27077493,-0.09692154,0.32371408,-0.7375358,0.5926636,0.6935243,0.61105645,0.38162026,-0.6436095,0.2874908,0.7093066,,-0.026145365,0.43820637,-0.33448416,0.8123997,0.42565408,-0.398529,-0.58209443,0.55187285,-0.597162,-0.034247115,0.7171157,0.69611216,,1.201525948770472,0.3848392245883558,0.17770191465000001,1.9272602705662634,-0.5785189400068749,-0.2101107184427653,-0.40999360599704093,,-1.408502912532563,0.12973418955409755,0.18302577768000003,1.50117030540571,-0.12133321179171111,-0.365241181736393,0.8730740334877226,,-0.03301944778616772,-0.08405069345291694,0.08364271396,-0.06607131087440103,,3.2290816e-05,-3.2186508e-06,-4.4107437e-06,1.0,-2.1714717e-05,-1.8239021e-05,2.1710992e-05,1.0,-1.8775463e-06,1.8246472e-05,1.9073486e-06,1.0,350,1.05,0,0,0.0,False,-0.25910352528289105,1.047680339729108
1.069782132981345,11:48:49.378796,11:47:45.480646,0,,0.09894751,0.02576527,0.046424,-0.4045008,0.71992314,-0.56399447,0.1422314,0.65871716,0.7388246,0.9034097,0.21863735,-0.36884743,,0.063162684,-0.0009918138,0.041721463,-0.7463531,-0.41497192,0.52034146,-0.45256203,0.8896857,0.060390025,-0.4880005,-0.19041449,-0.85182023,,0.077208586,1.3265402,0.4521906,0.99781334,0.046560623,-0.046910986,0.005459818,-0.76539105,-0.6435423,-0.06586898,0.64187896,-0.7639716,,-0.068219446,0.2709086,-0.09671953,0.32651362,-0.7359583,0.59308875,0.6928916,0.61315393,0.3793988,-0.6428764,0.28706735,0.71014243,,-0.026143154,0.43820482,-0.3344839,0.81240404,0.42569017,-0.39848155,-0.5820875,0.55192024,-0.59712493,-0.034260184,0.7170578,0.69617116,,1.19995051126413,0.3870247579917613,0.17782895107000002,1.9264215107923253,-0.5776991210082822,-0.21290287310859848,-0.40999360599704093,,-1.4084874670668146,0.12973418955409755,0.18302577768000003,1.50117030540571,-0.12133321179171111,-0.3651595029962524,0.8729106894215883,,-0.03301944778616772,-0.08405069345291694,0.08364271396,-0.06607131087440103,,3.2290816e-05,-3.2186508e-06,-4.4107437e-06,1.0,-2.1714717e-05,-1.8239021e-05,2.1710992e-05,1.0,-1.8775463e-06,1.8246472e-05,1.9073486e-06,1.0,358,1.075,0,0,0.0,False,-0.25910352528289105,1.0478251803314462
1.1008481089957058,11:48:49.401967,11:47:45.480646,0,,0.09927286,0.025994048,0.046391442,-0.40708295,0.7165475,-0.56643033,0.14055163,0.6618955,0.7363012,0.90251243,0.2201229,-0.37015837,,0.06316424,-0.0009907857,0.041721165,-0.74635005,-0.41497016,0.5203473,-0.45255992,0.8896866,0.060392886,-0.48800725,-0.19041413,-0.85181653,,0.077208586,1.3265402,0.4521906,0.99781334,0.046560623,-0.046910986,0.005459818,-0.76539105,-0.6435423,-0.06586898,0.64187896,-0.7639716,,-0.06854091,0.27105027,-0.096530244,0.32916275,-0.73272103,0.59562725,0.69115674,0.6167413,0.3767394,-0.6433928,0.28766322,0.7094333,,-0.02614467,0.4382052,-0.33448285,0.8124019,0.42568842,-0.3984879,-0.582091,0.55192095,-0.59712094,-0.03425365,0.71705836,0.696171,,1.1986917058056314,0.38898633214181433,0.17796506152000002,1.9245343013009644,-0.578245667007344,-0.21719456842196533,-0.4103202941293095,,-1.4084951897996887,0.12973418955409755,0.18302707397,1.50117030540571,-0.12133321179171111,-0.3651595029962524,0.8729106894215883,,-0.03301944778616772,-0.08405069345291694,0.08364271396,-0.06607131087440103,,3.2290816e-05,-3.2186508e-06,-4.4107437e-06,1.0,-2.1714717e-05,-1.8239021e-05,2.1710992e-05,1.0,-1.8775463e-06,1.8246472e-05,1.9073486e-06,1.0,391,1.176,0,0,0.0,False,-0.259580147031059,1.0471975377213132
1.1239871539874002,11:48:49.495627,11:47:45.622261,0,,0.099872194,0.026599675,0.046485707,-0.40984893,0.71122533,-0.5711238,0.13670361,0.6669486,0.7324558,0.9018514,0.22212146,-0.37057537,,0.06316482,-0.000987567,0.041723132,-0.74634236,-0.4149757,0.52035385,-0.45255682,0.8896868,0.060412824,-0.48802182,-0.19040108,-0.85181105,,0.077208586,1.3265402,0.4521906,0.99781334,0.046560623,-0.046910986,0.005459818,-0.76539105,-0.6435423,-0.06586898,0.64187896,-0.7639716,,-0.06914616,0.27155113,-0.09618718,0.33197537,-0.7275881,0.60033983,0.6878809,0.6222171,0.37371877,-0.64545506,0.28889686,0.70705473,,-0.02614556,0.43820885,-0.33448198,0.8123962,0.42569205,-0.3984954,-0.58209956,0.55193067,-0.59710354,-0.034240395,0.7170487,0.6961816,,1.1972552774910257,0.3936663082635944,0.17822950468,1.9230664716965726,-0.5798853050045292,-0.2261490748353192,-0.40934022973250384,,-1.4085106352654373,0.129749635019846,0.18302707397,1.50117030540571,-0.12133321179171111,-0.3651595029962524,0.8729106894215883,,-0.03301944778616772,-0.08405069345291694,0.08364271396,-0.06607131087440103,,3.2290816e-05,-3.2186508e-06,-4.4107437e-06,1.0,-2.1714717e-05,-1.8239021e-05,2.1710992e-05,1.0,-1.8775463e-06,1.8246472e-05,1.9073486e-06,1.0,399,1.201,0,0,0.0,False,-0.25826943722359585,1.0475354991267694
1.2176859920145944,11:48:49.527081,11:47:45.622261,0,,0.09999962,0.02678293,0.0465364,-0.41253465,0.7085312,-0.5725371,0.13612372,0.6694023,0.73032236,0.9007138,0.22334729,-0.37259966,,0.06316453,-0.0009891912,0.04172218,-0.74634624,-0.41493043,0.5203845,-0.4525584,0.8896916,0.060330182,-0.48801455,-0.19047716,-0.8517982,,0.077208586,1.3265402,0.4521906,0.99781334,0.046560623,-0.046910986,0.005459818,-0.76539105,-0.6435423,-0.06586898,0.64187896,-0.7639716,,-0.06927746,0.27171925,-0.096104234,0.33474788,-0.72500783,0.60191983,0.68686354,0.6250402,0.3708682,-0.64510643,0.28928944,0.7072123,,-0.026145115,0.43820703,-0.33448243,0.812399,0.4256577,-0.39852643,-0.58209527,0.551877,-0.5971573,-0.034247022,0.7171104,0.6961177,,1.197224386559529,0.39504095471520634,0.1782917266,1.9205501923747585,-0.5785189400068749,-0.22873347119481344,-0.4103202941293094,,-1.408502912532563,0.12974191228697177,0.18302707397,1.50117030540571,-0.12133321179171111,-0.365241181736393,0.8727473453554541,,-0.03301944778616772,-0.08405069345291694,0.08364271396,-0.06607131087440103,,3.2290816e-05,-3.2186508e-06,-4.4107437e-06,1.0,-2.1714717e-05,-1.8239021e-05,2.1710992e-05,1.0,-1.8775463e-06,1.8246472e-05,1.9073486e-06,1.0,407,1.225,0,0,0.0,False,-0.2587460589717643,1.047390658524431
1.2491251099854708,11:48:49.549259,11:47:45.622261,0,,0.100079924,0.02689448,0.046578914,-0.4142139,0.7071376,-0.57304734,0.13555396,0.6705042,0.7294169,0.9000288,0.22445574,-0.3735876,,0.06316525,-0.0009903237,0.04172194,-0.74634695,-0.41492596,0.520387,-0.45255786,0.88969237,0.060323,-0.48801395,-0.19048333,-0.8517971,,0.077208586,1.3265402,0.4521906,0.99781334,0.046560623,-0.046910986,0.005459818,-0.76539105,-0.6435423,-0.06586898,0.64187896,-0.7639716,,-0.06936108,0.2718287,-0.09606265,0.33647922,-0.7237133,0.60251206,0.68608147,0.6266637,0.36957386,-0.64503795,0.28901842,0.7073856,,-0.026145777,0.438206,-0.334483,0.8123997,0.42565408,-0.398529,-0.58209443,0.55187285,-0.597162,-0.034247115,0.7171157,0.69611216,,1.1972166638266546,0.39592134626286796,0.17832154127000002,1.9188726728268826,-0.5778357575080477,-0.22969895441399837,-0.4098302619309066,,-1.408502912532563,0.12973418955409755,0.18302707397,1.50117030540571,-0.12133321179171111,-0.365241181736393,0.8727473453554541,,-0.03301944778616772,-0.08405069345291694,0.08364271396,-0.06607131087440103,,3.2290816e-05,-3.2186508e-06,-4.4107437e-06,1.0,-2.1714717e-05,-1.8239021e-05,2.1710992e-05,1.0,-1.8775463e-06,1.8246472e-05,1.9073486e-06,1.0,419,1.263,0,0,0.0,False,-0.2588652144088064,1.0478734605322257
1.2712687279563397,11:48:49.580858,11:47:45.622261,0,,0.100221425,0.027062744,0.04664959,-0.4175495,0.70449644,-0.5738791,0.13633949,0.6729952,0.72697234,0.8983674,0.22530453,-0.37705955,,0.06316424,-0.0009907857,0.041721165,-0.74635005,-0.4148852,0.52041507,-0.45255992,0.8896964,0.06024751,-0.48800725,-0.19055331,-0.8517853,,0.077208586,1.3265402,0.4521906,0.99781334,0.046560623,-0.046910986,0.005459818,-0.76539105,-0.6435423,-0.06586898,0.64187896,-0.7639716,,-0.06950809,0.27199677,-0.096003704,0.3399434,-0.7211539,0.60363525,0.6858423,0.6292794,0.3655514,-0.64347404,0.2897318,0.7085172,,-0.02614467,0.4382052,-0.33448285,0.8124019,0.4256233,-0.39855742,-0.582091,0.5518234,-0.59721106,-0.03425365,0.7171721,0.6960538,,1.1972089410937803,0.3973654973103479,0.17835005965000003,1.916356393505068,-0.5748297545132081,-0.23247686325588193,-0.4098302619309067,,-1.4084951897996887,0.12973418955409755,0.18302707397,1.50117030540571,-0.12133321179171111,-0.36532286047653356,0.8729106894215883,,-0.03301944778616772,-0.08405069345291694,0.08364271396,-0.06607131087440103,,3.2290816e-05,-3.2186508e-06,-4.4107437e-06,1.0,-2.1714717e-05,-1.8239021e-05,2.1710992e-05,1.0,-1.8775463e-06,1.8246472e-05,1.9073486e-06,1.0,427,1.288,0,0,0.0,False,-0.25779281547542787,1.0480183011345638
1.3028897159965709,11:48:49.611382,11:47:45.622261,0,,0.10041131,0.02729261,0.046722934,-0.4236654,0.6995114,-0.57549244,0.13567898,0.6771667,0.7232125,0.8955997,0.22831787,-0.3818012,,0.063163534,-0.0009896234,0.041721404,-0.74634933,-0.41505963,0.52027696,-0.4525605,0.8896759,0.060545355,-0.48800778,-0.19026881,-0.8518486,,0.077208586,1.3265402,0.4521906,0.99781334,0.046560623,-0.046910986,0.005459818,-0.76539105,-0.6435423,-0.06586898,0.64187896,-0.7639716,,-0.06970354,0.27221215,-0.09590529,0.34627184,-0.71644264,0.60564494,0.6839322,0.6346765,0.3597534,-0.64213127,0.28964758,0.7097688,,-0.026144011,0.4382063,-0.33448228,0.81240124,0.42575708,-0.39841577,-0.58209187,0.55202264,-0.59702605,-0.034253556,0.7169393,0.6962936,,1.1970853773677927,0.3993193487275267,0.17841098528000002,1.910275385144017,-0.5715504785188374,-0.23547760790515831,-0.4095035737986381,,-1.4084951897996887,0.12974191228697177,0.18302707397,1.50117030540571,-0.12133321179171111,-0.3649961455159713,0.8735640656861254,,-0.03301944778616772,-0.08405069345291694,0.08364271396,-0.06607131087440103,,3.2290816e-05,-3.2186508e-06,-4.4107437e-06,1.0,-2.1714717e-05,-1.8239021e-05,2.1710992e-05,1.0,-1.8775463e-06,1.8246472e-05,1.9073486e-06,1.0,439,1.324,0,0,0.0,False,-0.2583885926606384,1.048114861536123
1.3334403589833528,11:48:49.641474,11:47:45.779255,0,,0.10050697,0.027393699,0.046758607,-0.42762554,0.6962306,-0.5765408,0.1334176,0.67942345,0.7215146,0.89405596,0.23161733,-0.3834283,,0.063163534,-0.0009896234,0.041721404,-0.74634933,-0.41505963,0.52027696,-0.4525605,0.8896759,0.060545355,-0.48800778,-0.19026881,-0.8518486,,0.077208586,1.3265402,0.4521906,0.99781334,0.046560623,-0.046910986,0.005459818,-0.76539105,-0.6435423,-0.06586898,0.64187896,-0.7639716,,-0.0698019,0.27230835,-0.09586386,0.35034883,-0.7134535,0.6068277,0.68141407,0.6386623,0.35747078,-0.6425967,0.28826147,0.7099118,,-0.026144011,0.4382063,-0.33448228,0.81240124,0.42575708,-0.39841577,-0.58209187,0.55202264,-0.59702605,-0.034253556,0.7169393,0.6962936,,1.1969000317788114,0.40027696760393056,0.17843950366000003,1.9052428265003882,-0.5712772055193065,-0.2357821224526917,-0.4096669178647723,,-1.4084951897996887,0.12974191228697177,0.18302707397,1.50117030540571,-0.12133321179171111,-0.3649961455159713,0.8735640656861254,,-0.03301944778616772,-0.08405069345291694,0.08364271396,-0.06607131087440103,,3.2290816e-05,-3.2186508e-06,-4.4107437e-06,1.0,-2.1714717e-05,-1.8239021e-05,2.1710992e-05,1.0,-1.8775463e-06,1.8246472e-05,1.9073486e-06,1.0,472,1.426,0,0,0.0,False,-0.2583885926606384,1.0486942239454764
1.3635219399584457,11:48:49.741736,11:47:45.779255,0,,0.101129174,0.02773118,0.04666333,-0.4438013,0.68395054,-0.5790095,0.12880999,0.68810415,0.7140871,0.88681924,0.24233054,-0.39348137,,0.06316737,-0.0010040477,0.0417158,-0.74636966,-0.41497472,0.5203155,-0.4525628,0.88968575,0.060382515,-0.48797455,-0.19040784,-0.8518367,,0.077208586,1.3265402,0.4521906,0.99781334,0.046560623,-0.046910986,0.005459818,-0.76539105,-0.6435423,-0.06586898,0.64187896,-0.7639716,,-0.07041385,0.27248055,-0.09553835,0.36708015,-0.70212626,0.61014,0.67417467,0.652749,0.34555358,-0.64089054,0.2844951,0.7129669,,-0.026146848,0.43819165,-0.33448797,0.8124168,0.42569205,-0.3984535,-0.5820685,0.5519252,-0.5971389,-0.034280725,0.7170529,0.6961753,,1.1942356889372039,0.4039529884520614,0.17864431748,1.8880482511346572,-0.5675880200256396,-0.23870872711235458,-0.4095035737986381,,-1.408464298868192,0.1296569622253553,0.18302707397,1.50117030540571,-0.12133321179171111,-0.36507782425611185,0.8737274097522597,,-0.03301944778616772,-0.08405069345291694,0.08364271396,-0.06607131087440103,,3.2290816e-05,-3.2186508e-06,-4.4107437e-06,1.0,-2.1714717e-05,-1.8239021e-05,2.1710992e-05,1.0,-1.8775463e-06,1.8246472e-05,1.9073486e-06,1.0,476,1.438,0,0,0.0,False,-0.2589843698458485,1.0485011031423586
1.4637905979761854,11:48:49.762104,11:47:45.779255,0,,0.1012603,0.02774705,0.04660414,-0.44637656,0.6822534,-0.5790321,0.12786388,0.6890647,0.7133306,0.8856629,0.24437669,-0.39481798,,0.06316979,-0.0010058507,0.04171616,-0.746368,-0.41496402,0.5203265,-0.4525596,0.8896882,0.060370952,-0.48798007,-0.19041985,-0.8518307,,0.077208586,1.3265402,0.4521906,0.99781334,0.046560623,-0.046910986,0.005459818,-0.76539105,-0.6435423,-0.06586898,0.64187896,-0.7639716,,-0.07053949,0.27244934,-0.09547363,0.36974418,-0.7006087,0.6102759,0.6728531,0.65485924,0.3441338,-0.64074796,0.2833846,0.71353716,,-0.026149273,0.43819034,-0.33448926,0.8124159,0.42568308,-0.398465,-0.5820702,0.55191755,-0.5971443,-0.03427438,0.7170641,0.696164,,1.1934016337867877,0.4043700160272696,0.17868320618000003,1.8853222818693585,-0.5675880200256396,-0.2384636908919329,-0.409993605997041,,-1.408472021601066,0.12964151675960683,0.18302707397,1.50117030540571,-0.12133321179171111,-0.36507782425611185,0.8737274097522597,,-0.03301944778616772,-0.08405069345291694,0.08364271396,-0.06607131087440103,,3.2290816e-05,-3.2186508e-06,-4.4107437e-06,1.0,-2.1714717e-05,-1.8239021e-05,2.1710992e-05,1.0,-1.8775463e-06,1.8246472e-05,1.9073486e-06,1.0,488,1.476,0,0,0.0,False,-0.2586269035347226,1.048452822941579
1.4841641469392926,11:48:49.794028,11:47:45.779255,0,,0.1015394,0.027758554,0.046431825,-0.4539516,0.67643696,-0.57996637,0.12591416,0.6930653,0.709793,0.8820847,0.24918565,-0.3997912,,0.06317183,-0.0010099187,0.041718304,-0.746367,-0.41494882,0.52033997,-0.45255584,0.8896914,0.060352176,-0.48798507,-0.190438,-0.85182387,,0.077208586,1.3265402,0.4521906,0.99781334,0.046560623,-0.046910986,0.005459818,-0.76539105,-0.6435423,-0.06586898,0.64187896,-0.7639716,,-0.070802994,0.27233675,-0.095313594,0.3775954,-0.695221,0.61162853,0.6695084,0.66128,0.33833024,-0.639672,0.2817385,0.71515256,,-0.026151536,0.4381887,-0.33449343,0.81241554,0.4256705,-0.39847907,-0.582071,0.55190575,-0.59715444,-0.03426813,0.71708065,0.69614726,,1.1914709505682315,0.40511912111606935,0.17878042793,1.877144374073462,-0.5664949280275161,-0.23902831916094194,-0.40966691786477233,,-1.4084797443339403,0.12961834856098417,0.18302448139000002,1.50117030540571,-0.12133321179171111,-0.36507782425611185,0.8737274097522597,,-0.03301944778616772,-0.08405069345291694,0.08364271396,-0.06607131087440103,,3.2290816e-05,-3.2186508e-06,-4.4107437e-06,1.0,-2.1714717e-05,-1.8239021e-05,2.1710992e-05,1.0,-1.8775463e-06,1.8246472e-05,1.9073486e-06,1.0,496,1.501,0,0,0.0,False,-0.2591631030014119,1.0482597021384612
1.5160716070095077,11:48:49.822599,11:47:45.965882,0,,0.10168258,0.027758539,0.04634805,-0.4571398,0.67438567,-0.5798511,0.12503815,0.6942177,0.70882094,0.8805616,0.25152674,-0.40167853,,0.06317154,-0.0010149702,0.041717052,-0.746256,-0.41502824,0.5204358,-0.4527269,0.8896104,0.060263395,-0.4879962,-0.19064337,-0.85177153,,0.077208586,1.3265402,0.4521906,0.99781334,0.046560623,-0.046910986,0.005459818,-0.76539105,-0.6435423,-0.06586898,0.64187896,-0.7639716,,-0.07093857,0.27227724,-0.09523879,0.38090125,-0.6933755,0.61167365,0.6680466,0.66374207,0.33639297,-0.63924015,0.28049397,0.7160273,,-0.02615102,0.43818423,-0.3344961,0.8123094,0.42577854,-0.39858007,-0.5822132,0.5517147,-0.59719235,-0.03436917,0.7171635,0.6960569,,1.1904747180274566,0.40546664409540945,0.17882450179,1.8737893349777097,-0.5662216550279852,-0.23859772504721036,-0.4099936059970409,,-1.408464298868192,0.1295951803623615,0.1830231851,1.5009606154622253,-0.12133321179171111,-0.3651595029962524,0.8735640656861254,,-0.03301944778616772,-0.08405069345291694,0.08364271396,-0.06607131087440103,,3.2290816e-05,-3.2186508e-06,-4.4107437e-06,1.0,-2.1714717e-05,-1.8239021e-05,2.1710992e-05,1.0,-1.8775463e-06,1.8246472e-05,1.9073486e-06,1.0,504,1.525,0,0,0.0,False,-0.259282258438454,1.0479700209337843
1.5446406189585105,11:48:49.849183,11:47:45.965882,0,,0.10190341,0.027751893,0.04620789,-0.4622342,0.6714106,-0.5792645,0.12316939,0.6955184,0.7078724,0.87816215,0.25585514,-0.4041897,,0.06317078,-0.0010249242,0.041714847,-0.74631584,-0.41514337,0.5202582,-0.452781,0.88957864,0.06032592,-0.4878545,-0.19054085,-0.8518756,,0.077208586,1.3265402,0.4521906,0.99781334,0.046560623,-0.046910986,0.005459818,-0.76539105,-0.6435423,-0.06586898,0.64187896,-0.7639716,,-0.071146734,0.27217343,-0.09511898,0.38618088,-0.69077796,0.611302,0.66536516,0.66760135,0.33406237,-0.6388689,0.27773055,0.71743447,,-0.02614983,0.43817565,-0.3345015,0.81234974,0.42587882,-0.39839062,-0.5821484,0.5517745,-0.5972003,-0.034513168,0.71705794,0.6961585,,1.188868389589618,0.4059531762664856,0.17889839032000002,1.8681277065036273,-0.5662216550279852,-0.2368824715042585,-0.41048363819544376,,-1.4084411306695692,0.12954884396511615,0.18302059252000002,1.5009606154622253,-0.12146984829147656,-0.36496640635241545,0.8737274097522597,,-0.03301944778616772,-0.08405069345291694,0.08364271396,-0.06607131087440103,,3.2290816e-05,-3.2186508e-06,-4.4107437e-06,1.0,-2.1714717e-05,-1.8239021e-05,2.1710992e-05,1.0,-1.8775463e-06,1.8246472e-05,1.9073486e-06,1.0,512,1.55,0,0,0.0,False,-0.2593418361569748,1.0482114219376817
1.5712235269602388,11:48:49.872966,11:47:45.965882,0,,0.10204341,0.02772984,0.04611911,-0.4636785,0.6707517,-0.57887346,0.12261301,0.6956454,0.7078442,0.87747824,0.25723466,-0.40479884,,0.06317027,-0.0010304824,0.041716516,-0.746321,-0.4151317,0.52026,-0.4527814,0.88958013,0.06030163,-0.48784602,-0.19055972,-0.85187626,,0.077208586,1.3265402,0.4521906,0.99781334,0.046560623,-0.046910986,0.005459818,-0.76539105,-0.6435423,-0.06586898,0.64187896,-0.7639716,,-0.07127871,0.27209374,-0.095054194,0.387678,-0.6902382,0.610964,0.6645819,0.66859096,0.33364198,-0.63877743,0.27668998,0.71791786,,-0.026149472,0.43817285,-0.33450657,0.8123538,0.42586982,-0.398392,-0.5821423,0.5517613,-0.5972184,-0.03451999,0.7170735,0.69614226,,1.187802652452975,0.4061230763897185,0.17893598273000003,1.8668695668427204,-0.5667682010270471,-0.23627344240919165,-0.4104836381954438,,-1.408433407936695,0.1295256757664935,0.18301670365000003,1.5009606154622253,-0.12146984829147656,-0.36496640635241545,0.8737274097522597,,-0.03301944778616772,-0.08405069345291694,0.08364271396,-0.06607131087440103,,3.2290816e-05,-3.2186508e-06,-4.4107437e-06,1.0,-2.1714717e-05,-1.8239021e-05,2.1710992e-05,1.0,-1.8775463e-06,1.8246472e-05,1.9073486e-06,1.0,545,1.651,0,0,0.0,False,-0.259282258438454,1.0477769001306665
1.5949670339468867,11:48:49.963735,11:47:45.965882,0,,0.10237607,0.027452514,0.04572992,-0.45589224,0.68134224,-0.57265615,0.13206229,0.68807,0.7135258,0.88018274,0.2496645,-0.4036655,,0.06316842,-0.0010480061,0.041722417,-0.74609816,-0.41540268,0.52036345,-0.45311972,0.8894063,0.060323298,-0.48787302,-0.19077986,-0.8518115,,0.077208586,1.3265402,0.4521906,0.99781334,0.046560623,-0.046910986,0.005459818,-0.76539105,-0.6435423,-0.06586898,0.64187896,-0.7639716,,-0.07157717,0.27161777,-0.09490121,0.37968913,-0.7001484,0.60467213,0.67324406,0.6574077,0.33846352,-0.6344908,0.27858102,0.7209813,,-0.026148235,0.4381645,-0.33452317,0.8121411,0.4261709,-0.3985037,-0.5824274,0.5515137,-0.59716916,-0.034715887,0.7170851,0.6961205,,1.1844818773170585,0.404694370807987,0.17899820465000002,1.881967242773606,-0.5660850185282198,-0.23487024216430025,-0.4114637025922494,,-1.4084102397380722,0.12945617117062547,0.18300374075,1.5005412355752563,-0.12146984829147656,-0.3648847276122749,0.8735640656861254,,-0.03301944778616772,-0.08405069345291694,0.08364271396,-0.06607131087440103,,3.2290816e-05,-3.2186508e-06,-4.4107437e-06,1.0,-2.1714717e-05,-1.8239021e-05,2.1710992e-05,1.0,-1.8775463e-06,1.8246472e-05,1.9073486e-06,1.0,553,1.676,0,0,0.0,True,-0.26053339052739544,1.048452822941579
1.6857971230056137,11:48:49.997972,11:47:46.127784,0,,0.10227759,0.027294695,0.045587346,-0.45586276,0.68024206,-0.57398605,0.13323337,0.68977886,0.71165574,0.8800216,0.24794316,-0.40507555,,0.06316929,-0.001050882,0.041723013,-0.7460996,-0.41539374,0.5203686,-0.4531186,0.8894079,0.060308933,-0.4878719,-0.19079223,-0.8518094,,0.077208586,1.3265402,0.4521906,0.99781334,0.046560623,-0.046910986,0.005459818,-0.76539105,-0.6435423,-0.06586898,0.64187896,-0.7639716,,-0.071466945,0.271411,-0.094894744,0.37967324,-0.69890666,0.60611695,0.6740592,0.65773606,0.33619562,-0.6336343,0.28091422,0.72082925,,-0.026149143,0.43816277,-0.3345255,0.8121424,0.4261637,-0.39850885,-0.5824256,0.5515053,-0.5971786,-0.03471608,0.7170958,0.6961095,,1.184227027132209,0.40335833802074617,0.17900727868000002,1.881967242773606,-0.5656751090289234,-0.2363479982373575,-0.41081032632771236,,-1.4084102397380722,0.129440725704877,0.18300244446000002,1.5005412355752563,-0.12146984829147656,-0.3648847276122749,0.8735640656861254,,-0.03301944778616772,-0.08405069345291694,0.08364271396,-0.06607131087440103,,3.2290816e-05,-3.2186508e-06,-4.4107437e-06,1.0,-2.1714717e-05,-1.8239021e-05,2.1710992e-05,1.0,-1.8775463e-06,1.8246472e-05,1.9073486e-06,1.0,561,1.701,0,0,0.0,True,-0.26095043455704303,1.048742504146256
1.7199141830205917,11:48:50.024372,11:47:46.127784,0,,0.102224216,0.027246907,0.045552254,-0.45568594,0.68010765,-0.5742855,0.13344246,0.69006586,0.71133816,0.8800814,0.24751268,-0.4052087,,0.06316929,-0.001050882,0.041723013,-0.7460996,-0.41539374,0.5203686,-0.4531186,0.8894079,0.060308933,-0.4878719,-0.19079223,-0.8518094,,0.077208586,1.3265402,0.4521906,0.99781334,0.046560623,-0.046910986,0.005459818,-0.76539105,-0.6435423,-0.06586898,0.64187896,-0.7639716,,-0.071410775,0.27135468,-0.09490065,0.37949196,-0.69873637,0.6064267,0.67425066,0.6577009,0.33588034,-0.6335392,0.28141972,0.72071564,,-0.026149143,0.43816277,-0.3345255,0.8121424,0.4261637,-0.39850885,-0.5824256,0.5515053,-0.5971786,-0.03471608,0.7170958,0.6961095,,1.1842888089952028,0.40289497404829266,0.17900727868000002,1.881967242773606,-0.5656751090289234,-0.2364296769774981,-0.41064698226157803,,-1.4084102397380722,0.129440725704877,0.18300244446000002,1.5005412355752563,-0.12146984829147656,-0.3648847276122749,0.8735640656861254,,-0.03301944778616772,-0.08405069345291694,0.08364271396,-0.06607131087440103,,3.2290816e-05,-3.2186508e-06,-4.4107437e-06,1.0,-2.1714717e-05,-1.8239021e-05,2.1710992e-05,1.0,-1.8775463e-06,1.8246472e-05,1.9073486e-06,1.0,569,1.726,0,0,0.0,True,-0.2599376133421849,1.0482597021384612
1.746427204925567,11:48:50.050517,11:47:46.127784,0,,0.10216415,0.027218044,0.04553522,-0.4554414,0.68005407,-0.57454294,0.13353333,0.6902429,0.7111494,0.8801942,0.24716619,-0.40517524,,0.06316945,-0.0010525212,0.041723847,-0.7461002,-0.41538924,0.52037114,-0.4531181,0.8894086,0.06030178,-0.48787126,-0.19079843,-0.85180837,,0.077208586,1.3265402,0.4521906,0.99781334,0.046560623,-0.046910986,0.005459818,-0.76539105,-0.6435423,-0.06586898,0.64187896,-0.7639716,,-0.07134949,0.2713247,-0.0949093,0.37923872,-0.69865364,0.6066804,0.6743788,0.6576274,0.3357669,-0.6335544,0.28179657,0.720555,,-0.026149392,0.43816212,-0.33452722,0.81214297,0.4261601,-0.39851144,-0.58242476,0.55150115,-0.5971833,-0.03471618,0.71710116,0.696104,,1.1844818773170585,0.4025320056032041,0.17900727868000002,1.881967242773606,-0.5656751090289234,-0.2364296769774981,-0.41064698226157803,,-1.4084102397380722,0.12943300297200278,0.18300114817000002,1.5005412355752563,-0.12146984829147656,-0.3648847276122749,0.8735640656861254,,-0.03301944778616772,-0.08405069345291694,0.08364271396,-0.06607131087440103,,3.2290816e-05,-3.2186508e-06,-4.4107437e-06,1.0,-2.1714717e-05,-1.8239021e-05,2.1710992e-05,1.0,-1.8775463e-06,1.8246472e-05,1.9073486e-06,1.0,577,1.75,0,0,0.0,True,-0.26041423509035333,1.048549383343138
1.7725780099863186,11:48:50.074410,11:47:46.127784,0,,0.10214175,0.027234226,0.045551345,-0.455303,0.6800812,-0.5746205,0.13341612,0.69022447,0.71118927,0.8802836,0.2471429,-0.4049952,,0.06316932,-0.001055859,0.04172361,-0.74610484,-0.415382,0.52037036,-0.4531191,0.88940924,0.060284585,-0.48786336,-0.1908111,-0.85181,,0.077208586,1.3265402,0.4521906,0.99781334,0.046560623,-0.046910986,0.005459818,-0.76539105,-0.6435423,-0.06586898,0.64187896,-0.7639716,,-0.071328536,0.27134854,-0.0949133,0.37909326,-0.6986787,0.60674244,0.6743351,0.6575971,0.33591387,-0.633688,0.28180507,0.72043425,,-0.026149195,0.4381596,-0.3345294,0.8121464,0.42615467,-0.39851025,-0.5824196,0.5514921,-0.5971967,-0.03472291,0.7171113,0.69609314,,1.1846826683717882,0.402562896534701,0.17900857497000003,1.881967242773606,-0.5656751090289234,-0.2364296769774981,-0.41064698226157803,,-1.4084025170051981,0.12941755750625433,0.18299985188,1.5005412355752563,-0.12146984829147656,-0.3648847276122749,0.8735640656861254,,-0.03301944778616772,-0.08405069345291694,0.08364271396,-0.06607131087440103,,3.2290816e-05,-3.2186508e-06,-4.4107437e-06,1.0,-2.1714717e-05,-1.8239021e-05,2.1710992e-05,1.0,-1.8775463e-06,1.8246472e-05,1.9073486e-06,1.0,585,1.775,0,0,0.0,True,-0.26041423509035333,1.0486459437446969
1.7964609649498016,11:48:50.095740,11:47:46.127784,0,,0.10215466,0.027254462,0.045565873,-0.455332,0.6801166,-0.5745557,0.13332033,0.6901437,0.7112856,0.8802831,0.2472711,-0.40491802,,0.06316932,-0.001055859,0.04172361,-0.74610484,-0.415382,0.52037036,-0.4531191,0.88940924,0.060284585,-0.48786336,-0.1908111,-0.85181,,0.077208586,1.3265402,0.4521906,0.99781334,0.046560623,-0.046910986,0.005459818,-0.76539105,-0.6435423,-0.06586898,0.64187896,-0.7639716,,-0.07134263,0.2713727,-0.09491118,0.37912226,-0.6987248,0.6066713,0.6742614,0.65761155,0.3360337,-0.63374907,0.28165716,0.7204383,,-0.026149195,0.4381596,-0.3345294,0.8121464,0.42615467,-0.39851025,-0.5824196,0.5514921,-0.5971967,-0.03472291,0.7171113,0.69609314,,1.1847058365704108,0.40272507392505974,0.17900987126,1.881967242773606,-0.5656751090289234,-0.2364296769774981,-0.41064698226157803,,-1.4084025170051981,0.12941755750625433,0.18299985188,1.5005412355752563,-0.12146984829147656,-0.3648847276122749,0.8735640656861254,,-0.03301944778616772,-0.08405069345291694,0.08364271396,-0.06607131087440103,,3.2290816e-05,-3.2186508e-06,-4.4107437e-06,1.0,-2.1714717e-05,-1.8239021e-05,2.1710992e-05,1.0,-1.8775463e-06,1.8246472e-05,1.9073486e-06,1.0,597,1.812,0,0,0.0,True,-0.26101001227556386,1.048549383343138
1.8178019759943709,11:48:50.130286,11:47:46.127784,0,,0.10218085,0.027284026,0.04558243,-0.4553646,0.6802138,-0.57441473,0.13308728,0.6899465,0.7115205,0.88030154,0.24755394,-0.4047051,,0.06316878,-0.0010563955,0.04172468,-0.74610484,-0.415382,0.52037036,-0.4531191,0.88940924,0.060284585,-0.48786336,-0.1908111,-0.85181,,0.077208586,1.3265402,0.4521906,0.99781334,0.046560623,-0.046910986,0.005459818,-0.76539105,-0.6435423,-0.06586898,0.64187896,-0.7639716,,-0.07137014,0.27140474,-0.09490396,0.3791532,-0.69884557,0.6065127,0.6740921,0.6576274,0.33634216,-0.63391066,0.28132024,0.7204278,,-0.026148785,0.43815997,-0.33453056,0.8121464,0.42615467,-0.39851025,-0.5824196,0.5514921,-0.5971967,-0.03472291,0.7171113,0.69609314,,1.1846826683717882,0.40297220137703493,0.17901505642,1.881967242773606,-0.5658117455286888,-0.23631825907380163,-0.41064698226157803,,-1.4084025170051981,0.12941755750625433,0.18299855559000003,1.5005412355752563,-0.12146984829147656,-0.3648847276122749,0.8735640656861254,,-0.03301944778616772,-0.08405069345291694,0.08364271396,-0.06607131087440103,,3.2290816e-05,-3.2186508e-06,-4.4107437e-06,1.0,-2.1714717e-05,-1.8239021e-05,2.1710992e-05,1.0,-1.8775463e-06,1.8246472e-05,1.9073486e-06,1.0,626,1.901,0,0,0.0,True,-0.25963972474957986,1.0482597021384612
1.852344073005952,11:48:50.214487,11:47:46.328082,0,,0.10218796,0.027275741,0.04557477,-0.4553636,0.68024814,-0.574375,0.13302955,0.6898881,0.7115879,0.8803108,0.24762233,-0.40464312,,0.06316878,-0.0010563955,0.04172468,-0.74610484,-0.415382,0.52037036,-0.4531191,0.88940924,0.060284585,-0.48786336,-0.1908111,-0.85181,,0.077208586,1.3265402,0.4521906,0.99781334,0.046560623,-0.046910986,0.005459818,-0.76539105,-0.6435423,-0.06586898,0.64187896,-0.7639716,,-0.07137657,0.27139312,-0.09490267,0.3791514,-0.69888556,0.60646784,0.6740526,0.6576223,0.33643126,-0.6339537,0.28123283,0.72042406,,-0.026148785,0.43815997,-0.33453056,0.8121464,0.42615467,-0.39851025,-0.5824196,0.5514921,-0.5971967,-0.03472291,0.7171113,0.69609314,,1.1845977183101717,0.402941310445538,0.17901505642,1.881967242773606,-0.5659483820284543,-0.23620684117010518,-0.41064698226157803,,-1.4084025170051981,0.12941755750625433,0.18299855559000003,1.5005412355752563,-0.12146984829147656,-0.3648847276122749,0.8735640656861254,,-0.03301944778616772,-0.08405069345291694,0.08364271396,-0.06607131087440103,,3.2290816e-05,-3.2186508e-06,-4.4107437e-06,1.0,-2.1714717e-05,-1.8239021e-05,2.1710992e-05,1.0,-1.8775463e-06,1.8246472e-05,1.9073486e-06,1.0,630,1.913,0,0,0.0,True,-0.25719703829021734,1.0482597021384612
1.9365476029925048,11:48:50.243217,11:47:46.328082,0,,0.102183856,0.027273238,0.04557489,-0.45534566,0.6802451,-0.57439274,0.13303375,0.6898994,0.7115762,0.88031936,0.24759947,-0.4046383,,0.063168935,-0.0010580793,0.041725457,-0.7461055,-0.41537753,0.5203729,-0.4531185,0.88941,0.060277432,-0.48786283,-0.19081733,-0.851809,,0.077208586,1.3265402,0.4521906,0.99781334,0.046560623,-0.046910986,0.005459818,-0.76539105,-0.6435423,-0.06586898,0.64187896,-0.7639716,,-0.07137249,0.27139145,-0.094904594,0.3791328,-0.69888055,0.6064852,0.6740603,0.6576171,0.33642602,-0.6339566,0.28125748,0.72041184,,-0.026149033,0.43815932,-0.3345323,0.812147,0.4261511,-0.3985128,-0.5824187,0.5514879,-0.5972014,-0.034723006,0.71711665,0.69608766,,1.1846131637759203,0.40291814224691536,0.17901376013,1.881967242773606,-0.5659483820284543,-0.23620684117010518,-0.41064698226157803,,-1.4084025170051981,0.1294098347733801,0.18299725930000002,1.5005412355752563,-0.12146984829147656,-0.3648847276122749,0.8735640656861254,,-0.03301944778616772,-0.08405069345291694,0.08364271396,-0.06607131087440103,,3.2290816e-05,-3.2186508e-06,-4.4107437e-06,1.0,-2.1714717e-05,-1.8239021e-05,2.1710992e-05,1.0,-1.8775463e-06,1.8246472e-05,1.9073486e-06,1.0,638,1.939,0,0,0.0,True,-0.2584481703791588,1.0482597021384612
1.9652514959452674,11:48:50.262720,11:47:46.328082,0,,0.102180935,0.027274609,0.045576558,-0.45532867,0.6802474,-0.57440335,0.13302213,0.689899,0.7115787,0.88032997,0.24759383,-0.40461886,,0.06316994,-0.0010576174,0.04172623,-0.74610233,-0.4153758,0.52037877,-0.4531164,0.889411,0.060280174,-0.4878695,-0.190817,-0.8518052,,0.077208586,1.3265402,0.4521906,0.99781334,0.046560623,-0.046910986,0.005459818,-0.76539105,-0.6435423,-0.06586898,0.64187896,-0.7639716,,-0.07136972,0.27139372,-0.094905235,0.37911502,-0.69888246,0.6064941,0.6740568,0.6576132,0.33644065,-0.633971,0.2812618,0.72039753,,-0.026150139,0.4381601,-0.33453244,0.8121448,0.4261493,-0.39851916,-0.58242214,0.55148864,-0.5971974,-0.034716472,0.7171172,0.6960874,,1.184636331974543,0.40291814224691536,0.17901376013,1.881967242773606,-0.5659483820284543,-0.23620684117010518,-0.41064698226157803,,-1.4084102397380722,0.1294098347733801,0.18299725930000002,1.5005412355752563,-0.12146984829147656,-0.3648847276122749,0.8735640656861254,,-0.03301944778616772,-0.08405069345291694,0.08364271396,-0.06607131087440103,,3.2290816e-05,-3.2186508e-06,-4.4107437e-06,1.0,-2.1714717e-05,-1.8239021e-05,2.1710992e-05,1.0,-1.8775463e-06,1.8246472e-05,1.9073486e-06,1.0,646,1.963,0,0,0.0,True,-0.25779281547542787,1.048452822941579
1.984762342995964,11:48:50.285440,11:47:46.328082,0,,0.102183,0.027278498,0.045579746,-0.45533183,0.6802545,-0.57439256,0.13300222,0.68988353,0.71159744,0.8803314,0.24761745,-0.40460134,,0.063168935,-0.0010580793,0.041725457,-0.7461055,-0.41537753,0.5203729,-0.4531185,0.88941,0.060277432,-0.48786283,-0.19081733,-0.851809,,0.077208586,1.3265402,0.4521906,0.99781334,0.046560623,-0.046910986,0.005459818,-0.76539105,-0.6435423,-0.06586898,0.64187896,-0.7639716,,-0.07137205,0.27139863,-0.09490517,0.379118,-0.6988915,0.60648185,0.6740423,0.65761536,0.33646557,-0.6339847,0.28123423,0.7203962,,-0.026149033,0.43815932,-0.3345323,0.812147,0.4261511,-0.3985128,-0.5824187,0.5514879,-0.5972014,-0.034723006,0.71711665,0.69608766,,1.184644054707417,0.40294903317841224,0.17901376013,1.881967242773606,-0.5659483820284543,-0.23620684117010518,-0.41064698226157803,,-1.4084025170051981,0.1294098347733801,0.18299725930000002,1.5005412355752563,-0.12146984829147656,-0.3648847276122749,0.8735640656861254,,-0.03301944778616772,-0.08405069345291694,0.08364271396,-0.06607131087440103,,3.2290816e-05,-3.2186508e-06,-4.4107437e-06,1.0,-2.1714717e-05,-1.8239021e-05,2.1710992e-05,1.0,-1.8775463e-06,1.8246472e-05,1.9073486e-06,1.0,654,1.988,0,0,0.0,True,-0.25820985950507547,1.048452822941579
2.007498716004193,11:48:50.306719,11:47:46.456228,0,,0.10218744,0.027278855,0.04557942,-0.45535317,0.68025523,-0.57437474,0.13300586,0.6898763,0.7116039,0.8803198,0.24763583,-0.4046154,,0.063168935,-0.0010580793,0.041725457,-0.7461055,-0.41537753,0.5203729,-0.4531185,0.88941,0.060277432,-0.48786283,-0.19081733,-0.851809,,0.077208586,1.3265402,0.4521906,0.99781334,0.046560623,-0.046910986,0.005459818,-0.76539105,-0.6435423,-0.06586898,0.64187896,-0.7639716,,-0.07137644,0.27139845,-0.094904386,0.37914026,-0.6988938,0.6064653,0.67403907,0.657621,0.33646095,-0.6339748,0.2812154,0.7204123,,-0.026149033,0.43815932,-0.3345323,0.812147,0.4261511,-0.3985128,-0.5824187,0.5514879,-0.5972014,-0.034723006,0.71711665,0.69608766,,1.1846208865087944,0.4029644786441607,0.17901376013,1.881967242773606,-0.5659483820284543,-0.23620684117010518,-0.41064698226157803,,-1.4084025170051981,0.1294098347733801,0.18299725930000002,1.5005412355752563,-0.12146984829147656,-0.3648847276122749,0.8735640656861254,,-0.03301944778616772,-0.08405069345291694,0.08364271396,-0.06607131087440103,,3.2290816e-05,-3.2186508e-06,-4.4107437e-06,1.0,-2.1714717e-05,-1.8239021e-05,2.1710992e-05,1.0,-1.8775463e-06,1.8246472e-05,1.9073486e-06,1.0,662,2.013,0,0,0.0,True,-0.25826943722359585,1.04835626254002
2.028779541957192,11:48:50.335244,11:47:46.456228,0,,0.10218894,0.02727528,0.045574233,-0.45536923,0.6802473,-0.57437134,0.13303348,0.6898882,0.7115871,0.8803073,0.2476242,-0.40464965,,0.06316823,-0.0010569468,0.041725695,-0.74610484,-0.415382,0.52037036,-0.4531191,0.88940924,0.060284585,-0.48786336,-0.1908111,-0.85181,,0.077208586,1.3265402,0.4521906,0.99781334,0.046560623,-0.046910986,0.005459818,-0.76539105,-0.6435423,-0.06586898,0.64187896,-0.7639716,,-0.07137749,0.27139238,-0.09490246,0.37915733,-0.6988849,0.60646486,0.6740538,0.6576236,0.3364264,-0.6339489,0.28123137,0.7204288,,-0.026148373,0.43816036,-0.33453172,0.8121464,0.42615467,-0.39851025,-0.5824196,0.5514921,-0.5971967,-0.03472291,0.7171113,0.69609314,,1.1845899955772976,0.402941310445538,0.17901505642,1.881967242773606,-0.5659483820284543,-0.23620684117010518,-0.41064698226157803,,-1.4084025170051981,0.12941755750625433,0.18299725930000002,1.5005412355752563,-0.12146984829147656,-0.3648847276122749,0.8735640656861254,,-0.03301944778616772,-0.08405069345291694,0.08364271396,-0.06607131087440103,,3.2290816e-05,-3.2186508e-06,-4.4107437e-06,1.0,-2.1714717e-05,-1.8239021e-05,2.1710992e-05,1.0,-1.8775463e-06,1.8246472e-05,1.9073486e-06,1.0,691,2.102,0,0,0.0,True,-0.2585077480976805,1.0482597021384612
2.05726423591841,11:48:50.414641,11:47:46.456228,0,,0.102255255,0.027244702,0.045589328,-0.45531029,0.6801971,-0.57447755,0.13297418,0.6899543,0.71153414,0.88034666,0.247578,-0.40459207,,0.063035876,-0.0011211559,0.04171568,-0.74616253,-0.41527358,0.52037424,-0.45301163,0.8894665,0.060248166,-0.48787487,-0.19078061,-0.8518102,,0.07717502,1.3265396,0.45218933,0.99781317,0.04658931,-0.04688686,0.0054972223,-0.7653893,-0.6435441,-0.06586898,0.64187896,-0.7639716,,-0.07141693,0.27137437,-0.094932795,0.3790912,-0.6988566,0.60653883,0.6740412,0.6576286,0.33644179,-0.63400185,0.28129002,0.7203593,,-0.025986174,0.43812332,-0.33458364,0.8122212,0.42600927,-0.39851317,-0.58232087,0.5515532,-0.5972366,-0.034627117,0.71715075,0.69605726,,1.184636331974543,0.4029335877126638,0.17901635271000002,1.881967242773606,-0.5659483820284543,-0.23620684117010518,-0.41064698226157803,,-1.4084102397380722,0.1294098347733801,0.18299725930000002,1.5005412355752563,-0.12146984829147656,-0.3648847276122749,0.8735640656861254,,-0.03301944778616772,-0.08405069345291694,0.08364271396,-0.06607131087440103,,-1.1138618e-06,-5.1259995e-06,-1.5497208e-06,1.0,6.9215894e-06,5.8226287e-06,-6.9253147e-06,1.0,6.2584877e-07,-5.8189034e-06,-5.364418e-07,1.0,695,2.114,0,0,0.0,True,-0.25815028178655464,1.0484045427407995
2.136699447990395,11:48:50.440968,11:47:46.570141,0,,0.10225419,0.02724564,0.04559207,-0.45530114,0.68020034,-0.574481,0.13296238,0.6899502,0.7115403,0.8803532,0.24758062,-0.40457633,,0.063036874,-0.0011207238,0.041716516,-0.7461595,-0.41527185,0.5203801,-0.45300955,0.88946736,0.060250968,-0.4878816,-0.19078031,-0.85180646,,0.07717502,1.3265396,0.45218933,0.99781317,0.04658931,-0.04688686,0.0054972223,-0.7653893,-0.6435441,-0.06586898,0.64187896,-0.7639716,,-0.071416095,0.27137688,-0.094934426,0.37908155,-0.69886,0.6065409,0.6740355,0.65762687,0.33645657,-0.63401365,0.28128567,0.7203507,,-0.025987279,0.43812406,-0.3345838,0.8122191,0.42600748,-0.39851952,-0.5823243,0.55155385,-0.5972326,-0.034620583,0.7171513,0.6960571,,1.1846517774402914,0.402941310445538,0.17901505642,1.881967242773606,-0.5659483820284543,-0.23620684117010518,-0.41064698226157803,,-1.4084179624709465,0.1294098347733801,0.18299725930000002,1.5005412355752563,-0.12146984829147656,-0.3648847276122749,0.8735640656861254,,-0.03301944778616772,-0.08405069345291694,0.08364271396,-0.06607131087440103,,-1.1138618e-06,-5.1259995e-06,-1.5497208e-06,1.0,6.9215894e-06,5.8226287e-06,-6.9253147e-06,1.0,6.2584877e-07,-5.8189034e-06,-5.364418e-07,1.0,703,2.139,0,0,0.0,True,-0.25815028178655464,1.048452822941579
2.162971362005919,11:48:50.461052,11:47:46.570141,0,,0.102256015,0.027245551,0.045589954,-0.4553125,0.68019867,-0.5744739,0.13297018,0.68995047,0.71153855,0.8803462,0.24758436,-0.40458935,,0.06303516,-0.0011200234,0.04171592,-0.7461618,-0.41527808,0.5203717,-0.4530122,0.8894657,0.06025541,-0.48787546,-0.19077453,-0.8518113,,0.07717502,1.3265396,0.45218933,0.99781317,0.04658931,-0.04688686,0.0054972223,-0.7653893,-0.6435441,-0.06586898,0.64187896,-0.7639716,,-0.07141774,0.27137542,-0.09493272,0.37909344,-0.6988587,0.606535,0.6740379,0.6576295,0.3364468,-0.63400406,0.28128278,0.7203602,,-0.025985515,0.43812436,-0.33458307,0.81222063,0.42601287,-0.39851058,-0.58232176,0.5515573,-0.59723186,-0.03462702,0.71714544,0.6960628,,1.184636331974543,0.402941310445538,0.17901635271000002,1.881967242773606,-0.5659483820284543,-0.23620684117010518,-0.41064698226157803,,-1.4084102397380722,0.12941755750625433,0.18299725930000002,1.5005412355752563,-0.12146984829147656,-0.3648847276122749,0.8735640656861254,,-0.03301944778616772,-0.08405069345291694,0.08364271396,-0.06607131087440103,,-1.1138618e-06,-5.1259995e-06,-1.5497208e-06,1.0,6.9215894e-06,5.8226287e-06,-6.9253147e-06,1.0,6.2584877e-07,-5.8189034e-06,-5.364418e-07,1.0,711,2.164,0,0,0.0,True,-0.2587460589717643,1.0491287457524916
2.183110020007007,11:48:50.484734,11:47:46.570141,0,,0.10225893,0.02724418,0.0455883,-0.45532945,0.6801963,-0.5744633,0.13298187,0.68995076,0.71153605,0.88033557,0.24758999,-0.40460885,,0.06303516,-0.0011200234,0.04171592,-0.7461618,-0.41527808,0.5203717,-0.4530122,0.8894657,0.06025541,-0.48787546,-0.19077453,-0.8518113,,0.07717502,1.3265396,0.45218933,0.99781317,0.04658931,-0.04688686,0.0054972223,-0.7653893,-0.6435441,-0.06586898,0.64187896,-0.7639716,,-0.071420506,0.27137315,-0.09493208,0.37911126,-0.6988568,0.6065261,0.67404133,0.65763336,0.33643216,-0.6339897,0.28127843,0.7203746,,-0.025985515,0.43812436,-0.33458307,0.81222063,0.42601287,-0.39851058,-0.58232176,0.5515573,-0.59723186,-0.03462702,0.71714544,0.6960628,,1.1846131637759203,0.402941310445538,0.17901635271000002,1.881967242773606,-0.5659483820284543,-0.23620684117010518,-0.41064698226157803,,-1.4084102397380722,0.12941755750625433,0.18299725930000002,1.5005412355752563,-0.12146984829147656,-0.3648847276122749,0.8735640656861254,,-0.03301944778616772,-0.08405069345291694,0.08364271396,-0.06607131087440103,,-1.1138618e-06,-5.1259995e-06,-1.5497208e-06,1.0,6.9215894e-06,5.8226287e-06,-6.9253147e-06,1.0,6.2584877e-07,-5.8189034e-06,-5.364418e-07,1.0,719,2.189,0,0,0.0,True,-0.25922268071993226,1.049370146756389
2.2067298180190846,11:48:50.508014,11:47:46.570141,0,,0.102259696,0.027239397,0.045585632,-0.45533985,0.68018913,-0.57446355,0.13300559,0.6899627,0.7115201,0.8803266,0.24757652,-0.4046366,,0.06303416,-0.0011205003,0.041715205,-0.746165,-0.4152798,0.52036583,-0.4530143,0.88946486,0.060252547,-0.4878688,-0.19077486,-0.85181504,,0.07717502,1.3265396,0.45218933,0.99781317,0.04658931,-0.04688686,0.0054972223,-0.7653893,-0.6435441,-0.06586898,0.64187896,-0.7639716,,-0.07142104,0.27136773,-0.09493293,0.37912238,-0.69884855,0.60652864,0.67405486,0.6576347,0.3364025,-0.63396865,0.28129587,0.72038627,,-0.02598441,0.43812358,-0.33458295,0.81222284,0.42601463,-0.39850423,-0.5823183,0.55155665,-0.59723586,-0.03463355,0.7171449,0.696063,,1.1845899955772976,0.40291814224691536,0.17901505642,1.881967242773606,-0.5659483820284543,-0.23620684117010518,-0.41064698226157803,,-1.4084025170051981,0.12941755750625433,0.18299725930000002,1.5005412355752563,-0.12146984829147656,-0.3648847276122749,0.8735640656861254,,-0.03301944778616772,-0.08405069345291694,0.08364271396,-0.06607131087440103,,-1.1138618e-06,-5.1259995e-06,-1.5497208e-06,1.0,6.9215894e-06,5.8226287e-06,-6.9253147e-06,1.0,6.2584877e-07,-5.8189034e-06,-5.364418e-07,1.0,727,2.213,0,0,0.0,True,-0.25791197091247,1.0482597021384612
2.2300677279708907,11:48:50.535547,11:47:46.671105,0,,0.10226219,0.027240649,0.045586377,-0.4553499,0.68019146,-0.5744529,0.1330015,0.6899551,0.7115282,0.8803221,0.24759112,-0.40463758,,0.06303316,-0.001120992,0.04171437,-0.7461681,-0.41528153,0.52036,-0.45301643,0.8894639,0.060249746,-0.48786202,-0.19077516,-0.8518188,,0.07717502,1.3265396,0.45218933,0.99781317,0.04658931,-0.04688686,0.0054972223,-0.7653893,-0.6435441,-0.06586898,0.64187896,-0.7639716,,-0.07142359,0.27136904,-0.09493257,0.37913278,-0.69885206,0.60651803,0.6740494,0.6576377,0.33640763,-0.6339683,0.28127992,0.7203928,,-0.025983304,0.4381228,-0.3345828,0.812225,0.42601642,-0.3984979,-0.5823149,0.55155593,-0.59723985,-0.034640085,0.71714437,0.6960632,,1.1845822728444233,0.4029335877126638,0.17901505642,1.881967242773606,-0.5659483820284543,-0.23620684117010518,-0.41064698226157803,,-1.4083947942723238,0.12941755750625433,0.18299725930000002,1.5005412355752563,-0.12146984829147656,-0.3648847276122749,0.8735640656861254,,-0.03301944778616772,-0.08405069345291694,0.08364271396,-0.06607131087440103,,-1.1138618e-06,-5.1259995e-06,-1.5497208e-06,1.0,6.9215894e-06,5.8226287e-06,-6.9253147e-06,1.0,6.2584877e-07,-5.8189034e-06,-5.364418e-07,1.0,735,2.238,0,0,0.0,True,-0.2589843698458485,1.049080465551712
2.2575913389446214,11:48:50.560497,11:47:46.671105,0,,0.10226099,0.027242437,0.045588166,-0.45534074,0.6801946,-0.5744563,0.13298965,0.68995106,0.7115344,0.88032854,0.24759378,-0.40462184,,0.063032605,-0.0011214986,0.041715443,-0.7461681,-0.41528153,0.52036,-0.45301643,0.8894639,0.060249746,-0.48786202,-0.19077516,-0.8518188,,0.07717502,1.3265396,0.45218933,0.99781317,0.04658931,-0.04688686,0.0054972223,-0.7653893,-0.6435441,-0.06586898,0.64187896,-0.7639716,,-0.071422555,0.2713716,-0.09493293,0.37912312,-0.69885546,0.6065201,0.67404366,0.657636,0.3364224,-0.6339801,0.28127554,0.7203841,,-0.025982894,0.4381232,-0.33458397,0.812225,0.42601642,-0.3984979,-0.5823149,0.55155593,-0.59723985,-0.034640085,0.71714437,0.6960632,,1.1845977183101717,0.402941310445538,0.17901505642,1.881967242773606,-0.5659483820284543,-0.23620684117010518,-0.41064698226157803,,-1.4083947942723238,0.12941755750625433,0.18299596301,1.5005412355752563,-0.12146984829147656,-0.3648847276122749,0.8735640656861254,,-0.03301944778616772,-0.08405069345291694,0.08364271396,-0.06607131087440103,,-1.1138618e-06,-5.1259995e-06,-1.5497208e-06,1.0,6.9215894e-06,5.8226287e-06,-6.9253147e-06,1.0,6.2584877e-07,-5.8189034e-06,-5.364418e-07,1.0,760,2.315,0,0,0.0,True,-0.25910352528289105,1.0489356249493738
2.282557900995016,11:48:50.629884,11:47:46.671105,0,,0.102258295,0.027242497,0.045588613,-0.45532727,0.68019474,-0.57446694,0.13298586,0.6899547,0.7115316,0.8803361,0.24758364,-0.4046116,,0.06303461,-0.0011206046,0.041716993,-0.7461618,-0.41527808,0.5203717,-0.4530122,0.8894657,0.06025541,-0.48787546,-0.19077453,-0.8518113,,0.07717502,1.3265396,0.45218933,0.99781317,0.04658931,-0.04688686,0.0054972223,-0.7653893,-0.6435441,-0.06586898,0.64187896,-0.7639716,,-0.071419895,0.27137208,-0.09493343,0.37910903,-0.6988547,0.6065299,0.67404467,0.6576325,0.33642715,-0.6339875,0.2812857,0.7203737,,-0.025985103,0.43812472,-0.33458427,0.81222063,0.42601287,-0.39851058,-0.58232176,0.5515573,-0.59723186,-0.03462702,0.71714544,0.6960628,,1.1846131637759203,0.4029335877126638,0.17901505642,1.881967242773606,-0.5659483820284543,-0.23620684117010518,-0.41064698226157803,,-1.4084102397380722,0.12941755750625433,0.18299596301,1.5005412355752563,-0.12146984829147656,-0.3648847276122749,0.8735640656861254,,-0.03301944778616772,-0.08405069345291694,0.08364271396,-0.06607131087440103,,-1.1138618e-06,-5.1259995e-06,-1.5497208e-06,1.0,6.9215894e-06,5.8226287e-06,-6.9253147e-06,1.0,6.2584877e-07,-5.8189034e-06,-5.364418e-07,1.0,768,2.339,0,0,0.0,True,-0.25815028178655464,1.04835626254002
2.351945559028536,11:48:50.658113,11:47:46.791667,0,,0.102259055,0.027243331,0.04558927,-0.45532945,0.6801963,-0.5744633,0.13298187,0.68995076,0.71153605,0.88033557,0.24758999,-0.40460885,,0.06303461,-0.0011206046,0.041716993,-0.7461618,-0.41527808,0.5203717,-0.4530122,0.8894657,0.06025541,-0.48787546,-0.19077453,-0.8518113,,0.07717502,1.3265396,0.45218933,0.99781317,0.04658931,-0.04688686,0.0054972223,-0.7653893,-0.6435441,-0.06586898,0.64187896,-0.7639716,,-0.071420714,0.2713731,-0.09493336,0.37911126,-0.6988568,0.6065261,0.67404133,0.65763336,0.33643216,-0.6339897,0.28127843,0.7203746,,-0.025985103,0.43812472,-0.33458427,0.81222063,0.42601287,-0.39851058,-0.58232176,0.5515573,-0.59723186,-0.03462702,0.71714544,0.6960628,,1.1846131637759203,0.402941310445538,0.17901505642,1.881967242773606,-0.5659483820284543,-0.23620684117010518,-0.41064698226157803,,-1.4084102397380722,0.12941755750625433,0.18299596301,1.5005412355752563,-0.12146984829147656,-0.3648847276122749,0.8735640656861254,,-0.03301944778616772,-0.08405069345291694,0.08364271396,-0.06607131087440103,,-1.1138618e-06,-5.1259995e-06,-1.5497208e-06,1.0,6.9215894e-06,5.8226287e-06,-6.9253147e-06,1.0,6.2584877e-07,-5.8189034e-06,-5.364418e-07,1.0,776,2.365,0,0,0.0,True,-0.25791197091247,1.048983905150153
2.3801584729226306,11:48:50.689286,11:47:46.791667,0,,0.102261975,0.02724196,0.0455876,-0.45534644,0.68019384,-0.57445276,0.13299355,0.6899512,0.71153355,0.8803251,0.24759565,-0.40462834,,0.063035324,-0.001121752,0.041716754,-0.74616253,-0.41527358,0.52037424,-0.45301163,0.8894665,0.060248166,-0.48787487,-0.19078061,-0.8518102,,0.07717502,1.3265396,0.45218933,0.99781317,0.04658931,-0.04688686,0.0054972223,-0.7653893,-0.6435441,-0.06586898,0.64187896,-0.7639716,,-0.07142348,0.27137083,-0.09493272,0.37912908,-0.6988548,0.6065172,0.67404485,0.6576373,0.33641753,-0.6339753,0.2812741,0.7203889,,-0.025985762,0.43812367,-0.33458483,0.8122212,0.42600927,-0.39851317,-0.58232087,0.5515532,-0.5972366,-0.034627117,0.71715075,0.69605726,,1.1845899955772976,0.402941310445538,0.17901505642,1.881967242773606,-0.5659483820284543,-0.23620684117010518,-0.41064698226157803,,-1.4084102397380722,0.1294098347733801,0.18299596301,1.5005412355752563,-0.12146984829147656,-0.3648847276122749,0.8735640656861254,,-0.03301944778616772,-0.08405069345291694,0.08364271396,-0.06607131087440103,,-1.1138618e-06,-5.1259995e-06,-1.5497208e-06,1.0,6.9215894e-06,5.8226287e-06,-6.9253147e-06,1.0,6.2584877e-07,-5.8189034e-06,-5.364418e-07,1.0,784,2.389,0,0,0.0,True,-0.2585077480976805,1.0486942239454764
2.4113095729844645,11:48:50.710306,11:47:46.791667,0,,0.102261975,0.02724196,0.0455876,-0.45534644,0.68019384,-0.57445276,0.13299355,0.6899512,0.71153355,0.8803251,0.24759565,-0.40462834,,0.063034035,-0.0011237785,0.041714966,-0.7461695,-0.41527253,0.52036506,-0.4530153,0.8894655,0.06023538,-0.4878609,-0.19078755,-0.8518168,,0.07717502,1.3265396,0.45218933,0.99781317,0.04658931,-0.04688686,0.0054972223,-0.7653893,-0.6435441,-0.06586898,0.64187896,-0.7639716,,-0.07142348,0.27137083,-0.09493272,0.37912908,-0.6988548,0.6065172,0.67404485,0.6576373,0.33641753,-0.6339753,0.2812741,0.7203889,,-0.025984213,0.43812108,-0.3345851,0.81222624,0.4260092,-0.39850304,-0.5823131,0.5515476,-0.59724927,-0.03464028,0.7171551,0.6960522,,1.1845899955772976,0.402941310445538,0.17901505642,1.881967242773606,-0.5659483820284543,-0.23620684117010518,-0.41064698226157803,,-1.4083947942723238,0.1294021120405059,0.18299596301,1.5005412355752563,-0.12146984829147656,-0.3648847276122749,0.8735640656861254,,-0.03301944778616772,-0.08405069345291694,0.08364271396,-0.06607131087440103,,-1.1138618e-06,-5.1259995e-06,-1.5497208e-06,1.0,6.9215894e-06,5.8226287e-06,-6.9253147e-06,1.0,6.2584877e-07,-5.8189034e-06,-5.364418e-07,1.0,792,2.414,0,0,0.0,True,-0.25856732581620134,1.0486459437446969
2.432368024950847,11:48:50.731702,11:47:46.791667,0,,0.102260575,0.02724506,0.04559058,-0.45533383,0.6801993,-0.5744561,0.13297385,0.68994313,0.711545,0.8803346,0.24760272,-0.4046033,,0.06303332,-0.001122646,0.041715205,-0.7461688,-0.41527706,0.5203625,-0.45301586,0.88946474,0.060242563,-0.48786148,-0.19078138,-0.8518177,,0.07717502,1.3265396,0.45218933,0.99781317,0.04658931,-0.04688686,0.0054972223,-0.7653893,-0.6435441,-0.06586898,0.64187896,-0.7639716,,-0.07142234,0.27137518,-0.09493322,0.3791157,-0.69886094,0.60651845,0.67403466,0.6576351,0.33644217,-0.63399416,0.28126395,0.7203763,,-0.025983553,0.43812215,-0.33458453,0.81222564,0.4260128,-0.39850047,-0.582314,0.55155176,-0.59724456,-0.03464018,0.71714973,0.6960577,,1.1846131637759203,0.4029567559112865,0.17901505642,1.881967242773606,-0.5659483820284543,-0.23620684117010518,-0.41064698226157803,,-1.4083947942723238,0.1294098347733801,0.18299596301,1.5005412355752563,-0.12146984829147656,-0.3648847276122749,0.8735640656861254,,-0.03301944778616772,-0.08405069345291694,0.08364271396,-0.06607131087440103,,-1.1138618e-06,-5.1259995e-06,-1.5497208e-06,1.0,6.9215894e-06,5.8226287e-06,-6.9253147e-06,1.0,6.2584877e-07,-5.8189034e-06,-5.364418e-07,1.0,800,2.439,0,0,0.0,True,-0.25910352528289105,1.0488873447485942
2.4537558369338512,11:48:50.751465,11:47:46.791667,0,,0.10225884,0.027244672,0.04559049,-0.45532596,0.68019867,-0.57446325,0.132974,0.68994683,0.71154135,0.8803386,0.24759449,-0.40459955,,0.063032605,-0.0011214986,0.041715443,-0.7461681,-0.41528153,0.52036,-0.45301643,0.8894639,0.060249746,-0.48786202,-0.19077516,-0.8518188,,0.07717502,1.3265396,0.45218933,0.99781317,0.04658931,-0.04688686,0.0054972223,-0.7653893,-0.6435441,-0.06586898,0.64187896,-0.7639716,,-0.0714206,0.2713749,-0.0949335,0.37910753,-0.6988595,0.60652524,0.67403686,0.65763295,0.33644205,-0.6339967,0.28127262,0.72037065,,-0.025982894,0.4381232,-0.33458397,0.812225,0.42601642,-0.3984979,-0.5823149,0.55155593,-0.59723985,-0.034640085,0.71714437,0.6960632,,1.1846208865087944,0.402941310445538,0.17901505642,1.881967242773606,-0.5659483820284543,-0.23620684117010518,-0.41064698226157803,,-1.4083947942723238,0.12941755750625433,0.18299596301,1.5005412355752563,-0.12146984829147656,-0.3648847276122749,0.8735640656861254,,-0.03301944778616772,-0.08405069345291694,0.08364271396,-0.06607131087440103,,-1.1138618e-06,-5.1259995e-06,-1.5497208e-06,1.0,6.9215894e-06,5.8226287e-06,-6.9253147e-06,1.0,6.2584877e-07,-5.8189034e-06,-5.364418e-07,1.0,825,2.515,0,0,0.0,True,-0.2587460589717643,1.048742504146256
2.473523829015903,11:48:50.830441,11:47:46.925708,0,,0.10225926,0.027242035,0.04558806,-0.4553329,0.6801939,-0.5744634,0.13298976,0.68995476,0.7115307,0.8803326,0.24758555,-0.40461805,,0.06303503,-0.0011233464,0.04171574,-0.7461664,-0.41527084,0.5203709,-0.45301318,0.88946635,0.060238153,-0.48786762,-0.19078717,-0.85181296,,0.07717502,1.3265396,0.45218933,0.99781317,0.04658931,-0.04688686,0.0054972223,-0.7653893,-0.6435441,-0.06586898,0.64187896,-0.7639716,,-0.07142082,0.2713713,-0.09493321,0.37911496,-0.698854,0.6065269,0.67404586,0.65763384,0.33642226,-0.63398266,0.28128424,0.72037846,,-0.025985317,0.43812186,-0.33458525,0.8122241,0.42600745,-0.39850938,-0.5823166,0.5515483,-0.5972453,-0.03463375,0.7171556,0.69605196,,1.184605441043046,0.4029335877126638,0.17901505642,1.881967242773606,-0.5659483820284543,-0.23620684117010518,-0.41064698226157803,,-1.4084025170051981,0.1294021120405059,0.18299596301,1.5005412355752563,-0.12146984829147656,-0.3648847276122749,0.8735640656861254,,-0.03301944778616772,-0.08405069345291694,0.08364271396,-0.06607131087440103,,-1.1138618e-06,-5.1259995e-06,-1.5497208e-06,1.0,6.9215894e-06,5.8226287e-06,-6.9253147e-06,1.0,6.2584877e-07,-5.8189034e-06,-5.364418e-07,1.0,829,2.528,0,0,0.0,True,-0.2596993024681016,1.0488873447485942
2.552501764963381,11:48:50.856969,11:47:46.925708,0,,0.10226002,0.027242884,0.045588702,-0.4553351,0.68019545,-0.5744598,0.1329858,0.68995094,0.7115352,0.8803321,0.24759188,-0.40461534,,0.06303332,-0.001122646,0.041715205,-0.7461688,-0.41527706,0.5203625,-0.45301586,0.88946474,0.060242563,-0.48786148,-0.19078138,-0.8518177,,0.07717502,1.3265396,0.45218933,0.99781317,0.04658931,-0.04688686,0.0054972223,-0.7653893,-0.6435441,-0.06586898,0.64187896,-0.7639716,,-0.07142163,0.27137235,-0.094933145,0.3791172,-0.6988561,0.6065231,0.6740425,0.6576347,0.33642727,-0.6339849,0.281277,0.72037935,,-0.025983553,0.43812215,-0.33458453,0.81222564,0.4260128,-0.39850047,-0.582314,0.55155176,-0.59724456,-0.03464018,0.71714973,0.6960577,,1.184605441043046,0.402941310445538,0.17901505642,1.881967242773606,-0.5659483820284543,-0.23620684117010518,-0.41064698226157803,,-1.4083947942723238,0.1294098347733801,0.18299596301,1.5005412355752563,-0.12146984829147656,-0.3648847276122749,0.8735640656861254,,-0.03301944778616772,-0.08405069345291694,0.08364271396,-0.06607131087440103,,-1.1138618e-06,-5.1259995e-06,-1.5497208e-06,1.0,6.9215894e-06,5.8226287e-06,-6.9253147e-06,1.0,6.2584877e-07,-5.8189034e-06,-5.364418e-07,1.0,841,2.566,0,0,0.0,True,-0.2587460589717643,1.048549383343138
2.579027298022993,11:48:50.882626,11:47:46.925708,0,,0.10226002,0.027242884,0.045588702,-0.4553351,0.68019545,-0.5744598,0.1329858,0.68995094,0.7115352,0.8803321,0.24759188,-0.40461534,,0.063034326,-0.0011222139,0.04171598,-0.7461657,-0.4152753,0.5203684,-0.45301372,0.88946563,0.060245395,-0.48786816,-0.19078103,-0.85181403,,0.07717502,1.3265396,0.45218933,0.99781317,0.04658931,-0.04688686,0.0054972223,-0.7653893,-0.6435441,-0.06586898,0.64187896,-0.7639716,,-0.07142163,0.27137235,-0.094933145,0.3791172,-0.6988561,0.6065231,0.6740425,0.6576347,0.33642727,-0.6339849,0.281277,0.72037935,,-0.025984658,0.4381229,-0.33458468,0.81222343,0.42601103,-0.39850682,-0.5823174,0.5515525,-0.59724057,-0.03463365,0.7171503,0.6960575,,1.184605441043046,0.402941310445538,0.17901505642,1.881967242773606,-0.5659483820284543,-0.23620684117010518,-0.41064698226157803,,-1.4084025170051981,0.1294098347733801,0.18299596301,1.5005412355752563,-0.12146984829147656,-0.3648847276122749,0.8735640656861254,,-0.03301944778616772,-0.08405069345291694,0.08364271396,-0.06607131087440103,,-1.1138618e-06,-5.1259995e-06,-1.5497208e-06,1.0,6.9215894e-06,5.8226287e-06,-6.9253147e-06,1.0,6.2584877e-07,-5.8189034e-06,-5.364418e-07,1.0,849,2.59,0,0,0.0,True,-0.25880563669028556,1.049080465551712
2.604689670028165,11:48:50.911123,11:47:47.058754,0,,0.102259815,0.027244195,0.04558994,-0.45533162,0.68019783,-0.57445973,0.13297787,0.68994695,0.71154046,0.8803351,0.24759635,-0.4046061,,0.06303332,-0.001122646,0.041715205,-0.7461688,-0.41527706,0.5203625,-0.45301586,0.88946474,0.060242563,-0.48786148,-0.19078138,-0.8518177,,0.07717502,1.3265396,0.45218933,0.99781317,0.04658931,-0.04688686,0.0054972223,-0.7653893,-0.6435441,-0.06586898,0.64187896,-0.7639716,,-0.07142153,0.27137414,-0.09493329,0.37911347,-0.69885886,0.60652226,0.674038,0.65763426,0.33643717,-0.6339919,0.2812712,0.7203754,,-0.025983553,0.43812215,-0.33458453,0.81222564,0.4260128,-0.39850047,-0.582314,0.55155176,-0.59724456,-0.03464018,0.71714973,0.6960577,,1.1846131637759203,0.40294903317841224,0.17901505642,1.881967242773606,-0.5659483820284543,-0.23620684117010518,-0.41064698226157803,,-1.4083947942723238,0.1294098347733801,0.18299596301,1.5005412355752563,-0.12146984829147656,-0.3648847276122749,0.8735640656861254,,-0.03301944778616772,-0.08405069345291694,0.08364271396,-0.06607131087440103,,-1.1138618e-06,-5.1259995e-06,-1.5497208e-06,1.0,6.9215894e-06,5.8226287e-06,-6.9253147e-06,1.0,6.2584877e-07,-5.8189034e-06,-5.364418e-07,1.0,857,2.615,0,0,0.0,True,-0.25815028178655464,1.049514987358727
2.6331850689603016,11:48:50.940153,11:47:47.058754,0,,0.102259055,0.027243331,0.04558927,-0.45532945,0.6801963,-0.5744633,0.13298187,0.68995076,0.71153605,0.88033557,0.24758999,-0.40460885,,0.06303503,-0.0011233464,0.04171574,-0.7461664,-0.41527084,0.5203709,-0.45301318,0.88946635,0.060238153,-0.48786762,-0.19078717,-0.85181296,,0.07717502,1.3265396,0.45218933,0.99781317,0.04658931,-0.04688686,0.0054972223,-0.7653893,-0.6435441,-0.06586898,0.64187896,-0.7639716,,-0.071420714,0.2713731,-0.09493336,0.37911126,-0.6988568,0.6065261,0.67404133,0.65763336,0.33643216,-0.6339897,0.28127843,0.7203746,,-0.025985317,0.43812186,-0.33458525,0.8122241,0.42600745,-0.39850938,-0.5823166,0.5515483,-0.5972453,-0.03463375,0.7171556,0.69605196,,1.1846131637759203,0.402941310445538,0.17901505642,1.881967242773606,-0.5659483820284543,-0.23620684117010518,-0.41064698226157803,,-1.4084025170051981,0.1294021120405059,0.18299596301,1.5005412355752563,-0.12146984829147656,-0.3648847276122749,0.8735640656861254,,-0.03301944778616772,-0.08405069345291694,0.08364271396,-0.06607131087440103,,-1.1138618e-06,-5.1259995e-06,-1.5497208e-06,1.0,6.9215894e-06,5.8226287e-06,-6.9253147e-06,1.0,6.2584877e-07,-5.8189034e-06,-5.364418e-07,1.0,865,2.639,0,0,0.0,True,-0.2575545046013441,1.0490321853509326
