AlexandreBanks6/ExpertPlaybackApp/resources/Motions/P_11/PC1/Data_PC1_3.csv
Task Time,PC1 Time,PC2 Time,Gaze Calib,s_T_psm1,Tx,Ty,Tz,R00,R01,R02,R10,R11,R12,R20,R21,R22,s_T_psm3,Tx,Ty,Tz,R00,R01,R02,R10,R11,R12,R20,R21,R22,cart_T_ecm,Tx,Ty,Tz,R00,R01,R02,R10,R11,R12,R20,R21,R22,ecm_T_psm1,Tx,Ty,Tz,R00,R01,R02,R10,R11,R12,R20,R21,R22,ecm_T_psm3,Tx,Ty,Tz,R00,R01,R02,R10,R11,R12,R20,R21,R22,psm1_joints,q1,q2,q3,q4,q5,q6,jaw,psm3_joints,q1,q2,q3,q4,q5,q6,jaw,ecm_joints,q1,q2,q3,q4,ecmi_T_ecm,Tx,Ty,Tz,R00,R01,R02,R10,R11,R12,R20,R21,R22,Sample #,Task Duration (s),Collisions (binary),Collisions (increments),Cumulative Collision Time (s),Clutch Press,MTMR Angle,MTML Angle
""
lci_T_si,,,,,-0.05716041,0.03275584,0.23713137,0.994629,0.0609184,0.083678454,0.10083557,-0.7527042,-0.65059096,0.023352161,0.6555344,-0.75480413
rci_T_si,,,,,-0.06778313,0.037861038,0.2520986,0.9957384,0.04780823,0.078863226,0.08774167,-0.7544281,-0.6504919,0.028397763,0.65463936,-0.75540775
ecm_T_lc,,,,,-4.4061628e-05,-0.00034663224,-0.01840835,-0.99912,0.030754527,0.028518902,-0.031987965,-0.99852574,-0.043852776,0.027128186,-0.04472645,0.9986309
ecm_T_rc,,,,,-0.0043358393,0.01870579,-0.007592615,-0.99555075,-0.052743673,-0.078081585,0.04863213,-0.9973746,0.053654674,-0.08070653,0.04961868,0.9955021
cart_T_ecmi,,,,,0.07735911,1.3283129,0.4541247,0.9978648,0.045891095,-0.046474215,0.005311808,-0.7662209,-0.6425553,-0.06509708,0.64093643,-0.7648287
ecmac_T_ecmrep_psm1,,,,,0.011581071,-0.24422047,-0.31388107,0.99918455,0.03945311,0.008580942,-0.0387743,0.99689597,-0.06852016,-0.011257639,0.068131566,0.99761283
ecmac_T_ecmrep_psm3,,,,,0.00032986852,-0.4435548,-0.5434704,0.9997429,-0.0075566242,-0.021376874,0.008153117,0.9995759,0.027955532,0.021156559,-0.028122634,0.9993806
""
0,11:05:37.372524,11:04:33.397016,0,,0.1250534,0.0032721385,0.01684098,-0.8478044,-0.0872388,-0.5230839,-0.5089853,-0.14303258,0.84880835,-0.14886707,0.98586565,0.0768604,,0.07108635,-0.017841958,0.028055787,0.48611513,-0.048279405,0.87256,-0.84449667,0.23084864,0.48325372,-0.22476053,-0.97179115,0.07144722,,0.07734808,1.328314,0.45412588,0.99786484,0.045886982,-0.046477664,0.005306452,-0.76622117,-0.642555,-0.06509708,0.64093643,-0.7648287,,-0.09302286,0.23107068,-0.089246005,0.8795783,0.0017570069,0.47575086,-0.40666354,0.52176905,0.7499212,-0.24691448,-0.853085,0.45965126,,-0.03251803,0.41615507,-0.33800676,-0.4001809,0.17687315,-0.8992058,-0.8185855,-0.5101414,0.26395735,-0.41203514,0.8417076,0.34893465,,0.9513711855085916,0.3042756752444457,0.18074689986,0.5393225346421967,-0.14825060224550288,1.2094209953638901,-0.4016630586241925,,-1.3680435150045007,0.00012356372598759216,0.18802945708000002,0.09226357513319071,0.12146984829147656,-1.0454620783948132,0.83060457629281,,-0.03261365873507904,-0.08567384965727165,0.08101381028,-0.06541713947960498,,-1.1075288e-05,-5.9604645e-07,-1.0728836e-06,1.0,-4.108995e-06,-3.438443e-06,4.1015446e-06,1.0,-4.172325e-07,3.4421682e-06,3.2782555e-07,1.0,34,0.102,0,0,0.0,False,-0.25558843989015,1.0048075214369485
0.13052540097851306,11:05:37.400721,11:04:33.474210,0,,0.12514904,0.0030937493,0.01709418,-0.8480203,-0.090666145,-0.5221504,-0.5079186,-0.1421667,0.8495923,-0.1512617,0.98568165,0.0745092,,0.07108752,-0.017841063,0.028053641,0.48611513,-0.04835067,0.8725561,-0.84449667,0.23080921,0.48327255,-0.22476053,-0.971797,0.071367875,,0.07734808,1.328314,0.45412588,0.99786484,0.045886982,-0.046477664,0.005306452,-0.76622117,-0.642555,-0.06509708,0.64093643,-0.7648287,,-0.093133576,0.2310848,-0.089550346,0.8799678,0.0051451046,0.47500548,-0.40733805,0.5226372,0.74894994,-0.24440211,-0.85253966,0.4619997,,-0.03251892,0.41615403,-0.3380046,-0.4001809,0.1769466,-0.8991914,-0.8185855,-0.51016295,0.2639157,-0.41203514,0.8416791,0.3490034,,0.9508151487416474,0.3043142889088168,0.18043708655000001,0.5393225346421967,-0.1459277817494904,1.2073635335207697,-0.40198974675646115,,-1.3680357922716266,0.00012356372598759216,0.18803334595,0.09226357513319071,0.12146984829147656,-1.0453803996546727,0.8307679203589443,,-0.03261365873507904,-0.08567384965727165,0.08101381028,-0.06541713947960498,,-1.1075288e-05,-5.9604645e-07,-1.0728836e-06,1.0,-4.108995e-06,-3.438443e-06,4.1015446e-06,1.0,-4.172325e-07,3.4421682e-06,3.2782555e-07,1.0,49,0.147,0,0,0.0,False,-0.25672041654204936,1.0051454828424047
0.1586922969436273,11:05:37.442018,11:04:33.474210,0,,0.12554091,0.0029416606,0.017226085,-0.84704787,-0.09435214,-0.52307504,-0.5086018,-0.14196342,0.8492176,-0.15438303,0.9853649,0.07226214,,0.071085334,-0.017840557,0.028051078,0.4861161,-0.048367716,0.87255466,-0.8444945,0.23080683,0.48327744,-0.2247667,-0.97179663,0.071352646,,0.07734808,1.328314,0.45412588,0.99786484,0.045886982,-0.046477664,0.005306452,-0.76622117,-0.642555,-0.06509708,0.64093643,-0.7648287,,-0.09352888,0.23101485,-0.089731835,0.8793197,0.0088320095,0.47614998,-0.40992826,0.52293605,0.7473264,-0.24239561,-0.85232615,0.4634485,,-0.032516424,0.41615295,-0.33800256,-0.40018108,0.17696352,-0.899188,-0.81858844,-0.51016194,0.2639087,-0.41202924,0.8416761,0.34901744,,0.9485523880094996,0.3050247803332455,0.18025301337000002,0.5374353251508359,-0.14524459925066321,1.20713315896285,-0.40133637049192405,,-1.3680280695387523,0.00013128645886181667,0.18803334595,0.09226357513319071,0.12146984829147656,-1.0453803996546727,0.8307679203589443,,-0.03261365873507904,-0.08567384965727165,0.08101381028,-0.06541713947960498,,-1.1075288e-05,-5.9604645e-07,-1.0728836e-06,1.0,-4.108995e-06,-3.438443e-06,4.1015446e-06,1.0,-4.172325e-07,3.4421682e-06,3.2782555e-07,1.0,61,0.183,0,0,0.0,False,-0.2571374605716965,1.005386883846302
0.19999971601646394,11:05:37.472144,11:04:33.474210,0,,0.12581494,0.0027973503,0.01736556,-0.84633404,-0.103683025,-0.52246374,-0.50761014,-0.14022157,0.8500998,-0.16140163,0.9846765,0.066043735,,0.07108663,-0.017841287,0.028049886,0.48611316,-0.048292596,0.8725605,-0.84449786,0.23084101,0.48325527,-0.22476044,-0.97179234,0.07143186,,0.07734808,1.328314,0.45412588,0.99786484,0.045886982,-0.046477664,0.005306452,-0.76622117,-0.642555,-0.06509708,0.64093643,-0.7648287,,-0.09380803,0.23096663,-0.08991925,0.8792162,0.018100573,0.47607908,-0.413672,0.5247078,0.74401426,-0.23633532,-0.85108995,0.4688193,,-0.03251749,0.4161514,-0.33800218,-0.40017888,0.17688677,-0.8992041,-0.818586,-0.51014566,0.26394767,-0.4120362,0.8417021,0.34894654,,0.9470850687633969,0.305248739586598,0.18005856987000002,0.5351287357725062,-0.1395058662605147,1.202290249527319,-0.40133637049192417,,-1.3680280695387523,0.00012356372598759216,0.18803464224000002,0.09226357513319071,0.12146984829147656,-1.0454620783948132,0.8309312644250785,,-0.03261365873507904,-0.08567384965727165,0.08101381028,-0.06541713947960498,,-1.1075288e-05,-5.9604645e-07,-1.0728836e-06,1.0,-4.108995e-06,-3.438443e-06,4.1015446e-06,1.0,-4.172325e-07,3.4421682e-06,3.2782555e-07,1.0,65,0.196,0,0,0.0,False,-0.25600548391979716,1.0055317244486406
0.2301467260112986,11:05:37.508071,11:04:33.568654,0,,0.12621127,0.0025988296,0.017536625,-0.84516037,-0.11334717,-0.52235645,-0.50676703,-0.14084592,0.8504995,-0.16997354,0.9835217,0.06159684,,0.07108135,-0.017842315,0.028045058,0.48611104,-0.048400663,0.8725556,-0.84449744,0.23078781,0.48328134,-0.22476637,-0.97179955,0.071314275,,0.07734808,1.328314,0.45412588,0.99786484,0.045886982,-0.046477664,0.005306452,-0.76622117,-0.642555,-0.06509708,0.64093643,-0.7648287,,-0.09420935,0.23088533,-0.090160236,0.87880564,0.027848229,0.47636664,-0.41855523,0.5243962,0.7414986,-0.2291554,-0.8510189,0.4724983,,-0.032511503,0.41614804,-0.33799985,-0.400176,0.17699754,-0.8991836,-0.81858957,-0.5101726,0.26388448,-0.4120319,0.8416625,0.34904715,,0.9448918126271172,0.3056117080316865,0.17981227477000003,0.5319833866202383,-0.13294731427177356,1.1999643035350918,-0.401826402690327,,-1.3679894558743813,0.00013128645886181667,0.18803593853000003,0.09226357513319071,0.12146984829147656,-1.0453803996546727,0.8307679203589443,,-0.03261365873507904,-0.08567384965727165,0.08101381028,-0.06541713947960498,,-1.1075288e-05,-5.9604645e-07,-1.0728836e-06,1.0,-4.108995e-06,-3.438443e-06,4.1015446e-06,1.0,-4.172325e-07,3.4421682e-06,3.2782555e-07,1.0,80,0.241,0,0,0.0,False,-0.25737577144578117,1.0049523620392868
0.26607551297638565,11:05:37.534054,11:04:33.568654,0,,0.12647562,0.002469033,0.017574966,-0.8454978,-0.11629693,-0.5211605,-0.50515974,-0.14209443,0.8512478,-0.17305152,0.98299754,0.06139201,,0.07108135,-0.017842315,0.028045058,0.48611104,-0.048258126,0.8725635,-0.84449744,0.23086667,0.48324364,-0.22476637,-0.9717879,0.071473,,0.07734808,1.328314,0.45412588,0.99786484,0.045886982,-0.046477664,0.005306452,-0.76622117,-0.642555,-0.06509708,0.64093643,-0.7648287,,-0.09447013,0.23078518,-0.09026106,0.87935555,0.030886058,0.47516295,-0.41923508,0.5233791,0.7418331,-0.22577803,-0.85154,0.47318482,,-0.032511503,0.41614804,-0.33799985,-0.400176,0.17685065,-0.8992124,-0.81858957,-0.5101295,0.26396784,-0.4120319,0.8417195,0.34890968,,0.9432700387235301,0.3057352717576741,0.17971764560000003,0.5324027665072073,-0.13035122077623018,1.20078779800992,-0.4028064670871325,,-1.3679894558743813,0.00013128645886181667,0.18803593853000003,0.09226357513319071,0.12146984829147656,-1.0455437571349537,0.8307679203589442,,-0.03261365873507904,-0.08567384965727165,0.08101381028,-0.06541713947960498,,-1.1075288e-05,-5.9604645e-07,-1.0728836e-06,1.0,-4.108995e-06,-3.438443e-06,4.1015446e-06,1.0,-4.172325e-07,3.4421682e-06,3.2782555e-07,1.0,88,0.265,0,0,0.0,False,-0.256541683386486,1.0051454828424047
0.2920426909113303,11:05:37.562226,11:04:33.568654,0,,0.1267811,0.0023102015,0.017695233,-0.8452026,-0.12063271,-0.52065355,-0.50459176,-0.14092132,0.85177946,-0.17612366,0.9826439,0.058236778,,0.07108109,-0.01784236,0.02804327,0.48594785,-0.048221998,0.8726564,-0.8445611,0.23100284,0.4830676,-0.22488064,-0.9717574,0.07152891,,0.07734808,1.328314,0.45412588,0.99786484,0.045886982,-0.046477664,0.005306452,-0.76622117,-0.642555,-0.06509708,0.64093643,-0.7648287,,-0.094778135,0.23071072,-0.09044162,0.87932146,0.035179954,0.47492754,-0.42076916,0.5244607,0.74019885,-0.22304066,-0.8507076,0.47597215,,-0.032510985,0.41614684,-0.3379987,-0.39999455,0.17680292,-0.89930254,-0.8186906,-0.51001793,0.26387018,-0.4120074,0.8417972,0.34875128,,0.9414397510323389,0.30609824020276266,0.17954005387000002,0.5317736966767538,-0.12857494627927946,1.1990126503013043,-0.40215309082259565,,-1.367981733141507,0.00013128645886181667,0.18803723482,0.09247326507667525,0.12146984829147656,-1.0456254358750943,0.8306045762928099,,-0.03261365873507904,-0.08567384965727165,0.08101381028,-0.06541713947960498,,-1.1075288e-05,-5.9604645e-07,-1.0728836e-06,1.0,-4.108995e-06,-3.438443e-06,4.1015446e-06,1.0,-4.172325e-07,3.4421682e-06,3.2782555e-07,1.0,96,0.29,0,0,0.0,False,-0.25719703829021734,1.0056282848501994
0.3202277459204197,11:05:37.583761,11:04:33.568654,0,,0.12722813,0.0022151694,0.017808527,-0.844037,-0.1289447,-0.5205522,-0.5042297,-0.13974613,0.85218734,-0.18263023,0.98175573,0.052933186,,0.07107567,-0.017845057,0.028037667,0.4857796,-0.04843261,0.8727384,-0.8446275,0.23100144,0.48295206,-0.22499454,-0.9717473,0.071308285,,0.07734808,1.328314,0.45412588,0.99786484,0.045886982,-0.046477664,0.005306452,-0.76622117,-0.642555,-0.06509708,0.64093643,-0.7648287,,-0.095229104,0.23066773,-0.09056997,0.8787488,0.043478504,0.47530013,-0.42471507,0.5255756,0.73714817,-0.21775606,-0.8496352,0.48031488,,-0.03250466,0.41614178,-0.337997,-0.39980802,0.17700954,-0.89934486,-0.8187927,-0.5099817,0.2636233,-0.41198555,0.8417757,0.34882888,,0.9390688720399519,0.30700952268192117,0.17940264713,0.5292574173549395,-0.1246124877860817,1.195618173613827,-0.40215309082259554,,-1.3679353967442616,0.00013128645886181667,0.18803853111000002,0.09268295502015976,0.12146984829147656,-1.0454620783948132,0.83060457629281,,-0.03261365873507904,-0.08567384965727165,0.08101381028,-0.06541713947960498,,-1.1075288e-05,-5.9604645e-07,-1.0728836e-06,1.0,-4.108995e-06,-3.438443e-06,4.1015446e-06,1.0,-4.172325e-07,3.4421682e-06,3.2782555e-07,1.0,115,0.347,0,0,0.0,False,-0.25731619372725945,1.005386883846302
0.3417575459461659,11:05:37.634762,11:04:33.568654,0,,0.12770662,0.0021858811,0.018074647,-0.840592,-0.15038925,-0.52037287,-0.5031524,-0.13899928,0.8529459,-0.20060538,0.9788065,0.04117298,,0.07107921,-0.017843388,0.02804184,0.48578367,-0.04847755,0.8727337,-0.844625,0.2309772,0.4829678,-0.22499469,-0.97175074,0.07125962,,0.07734808,1.328314,0.45412588,0.99786484,0.045886982,-0.046477664,0.005306452,-0.76622117,-0.642555,-0.06509708,0.64093643,-0.7648287,,-0.09572843,0.23076904,-0.09077256,0.8769397,0.065050125,0.4761777,-0.43557775,0.52627903,0.7302756,-0.20309784,-0.84782004,0.48984942,,-0.03250886,0.41614538,-0.3379985,-0.3998121,0.17705578,-0.89933395,-0.81879175,-0.5099947,0.26360103,-0.41198343,0.8417581,0.34887385,,0.9371922479515153,0.3082451599417971,0.17915764832000003,0.5212891995025276,-0.11026565531071043,1.185879583489076,-0.40280646708713286,,-1.3679662876757586,0.00013128645886181667,0.18803723482,0.09268295502015976,0.12146984829147656,-1.0453803996546727,0.8307679203589443,,-0.03261365873507904,-0.08567384965727165,0.08101381028,-0.06541713947960498,,-1.1075288e-05,-5.9604645e-07,-1.0728836e-06,1.0,-4.108995e-06,-3.438443e-06,4.1015446e-06,1.0,-4.172325e-07,3.4421682e-06,3.2782555e-07,1.0,123,0.372,0,0,0.0,False,-0.25719703829021734,1.0050972026416254
0.39274743397254497,11:05:37.666780,11:04:33.568654,0,,0.1278293,0.0022177845,0.018139437,-0.8394837,-0.15498379,-0.5208139,-0.5033488,-0.13929084,0.8527824,-0.2047121,0.9780481,0.038921446,,0.07106084,-0.017849647,0.028027654,0.48577243,-0.048597302,0.8727333,-0.84462845,0.23092303,0.48298776,-0.22500616,-0.97175765,0.0711294,,0.07734808,1.328314,0.45412588,0.99786484,0.045886982,-0.046477664,0.005306452,-0.76622117,-0.642555,-0.06509708,0.64093643,-0.7648287,,-0.095857866,0.23082314,-0.09079672,0.8762263,0.06970353,0.47683218,-0.43842968,0.52600247,0.7287666,-0.20001729,-0.84762186,0.49145728,,-0.032488305,0.41613373,-0.33799422,-0.39979917,0.17717808,-0.8993156,-0.8188005,-0.5100204,0.26352412,-0.41197857,0.84171677,0.34897923,,0.9367829431091814,0.3087625830443701,0.17911875962,0.5189826101241978,-0.10739628881563619,1.1841115586924353,-0.40329649928553546,,-1.3678350012168967,0.00014673192461026567,0.18803853111000002,0.09268295502015976,0.12146984829147656,-1.0453803996546727,0.8307679203589443,,-0.03261365873507904,-0.08567384965727165,0.08101381028,-0.06541713947960498,,-1.1075288e-05,-5.9604645e-07,-1.0728836e-06,1.0,-4.108995e-06,-3.438443e-06,4.1015446e-06,1.0,-4.172325e-07,3.4421682e-06,3.2782555e-07,1.0,131,0.396,0,0,0.0,False,-0.257435349164302,1.0050006422400664
0.4247809399385005,11:05:37.693114,11:04:33.756325,0,,0.12786841,0.002250053,0.018186823,-0.83931714,-0.15675563,-0.52055186,-0.50304675,-0.13912484,0.85298777,-0.20613235,0.9777893,0.037914485,,0.07105628,-0.017851867,0.028022647,0.48576736,-0.04863024,0.87273425,-0.84463143,0.23090398,0.48299164,-0.22500575,-0.9717605,0.071090996,,0.07734808,1.328314,0.45412588,0.99786484,0.045886982,-0.046477664,0.005306452,-0.76622117,-0.642555,-0.06509708,0.64093643,-0.7648287,,-0.09590259,0.2308743,-0.09081088,0.8761789,0.07148269,0.47665575,-0.43911132,0.5261312,0.72826314,-0.19872527,-0.84739375,0.49237394,,-0.03248294,0.41612932,-0.3379926,-0.39979407,0.1772121,-0.8993112,-0.81880164,-0.51003104,0.26349986,-0.41198125,0.8417032,0.34900895,,0.9367443294448103,0.30908693782508756,0.17909413011000003,0.5185632302372287,-0.10630319681751266,1.182975179242442,-0.4024797789548641,,-1.3677963875525256,0.00014673192461026567,0.18803982740000003,0.09268295502015976,0.12146984829147656,-1.0453803996546727,0.8307679203589443,,-0.03261365873507904,-0.08567384965727165,0.08101381028,-0.06541713947960498,,-1.1075288e-05,-5.9604645e-07,-1.0728836e-06,1.0,-4.108995e-06,-3.438443e-06,4.1015446e-06,1.0,-4.172325e-07,3.4421682e-06,3.2782555e-07,1.0,139,0.421,0,0,0.0,False,-0.25677999426057063,1.0053386036455227
0.4510902059264481,11:05:37.721504,11:04:33.756325,0,,0.12794182,0.0022692084,0.018274024,-0.8379782,-0.16746804,-0.51937157,-0.5019394,-0.13690928,0.85399806,-0.21412419,0.9763249,0.030668199,,0.071056716,-0.017856695,0.028022707,0.48597077,-0.048410468,0.8726332,-0.8445223,0.23101103,0.48313138,-0.22497657,-0.97174597,0.07138091,,0.07734808,1.328314,0.45412588,0.99786484,0.045886982,-0.046477664,0.005306452,-0.76622117,-0.642555,-0.06509708,0.64093643,-0.7648287,,-0.09598453,0.23093736,-0.09086254,0.8755386,0.08217645,0.4761084,-0.44343984,0.52790487,0.72434634,-0.19181572,-0.8453186,0.49864137,,-0.03248311,0.4161259,-0.337996,-0.40000528,0.17698695,-0.8992616,-0.81873375,-0.5099773,0.2638148,-0.4119112,0.8417831,0.3488988,,0.9367211612461877,0.3092722834140689,0.17902413045,0.5154178810849609,-0.09892482583017889,1.1758151100808676,-0.40280646708713264,,-1.3677886648196513,0.00011584099311336764,0.18803853111000002,0.09247326507667525,0.121606484791242,-1.0456551750386502,0.8304412322266758,,-0.03261365873507904,-0.08567384965727165,0.08101381028,-0.06541713947960498,,-1.1075288e-05,-5.9604645e-07,-1.0728836e-06,1.0,-4.108995e-06,-3.438443e-06,4.1015446e-06,1.0,-4.172325e-07,3.4421682e-06,3.2782555e-07,1.0,147,0.445,0,0,0.0,False,-0.25767366003838577,1.0051937630431842
0.4795047369552776,11:05:37.745341,11:04:33.756325,0,,0.1279157,0.002281323,0.018274799,-0.83778954,-0.17488734,-0.5172261,-0.50017095,-0.13404638,0.8554885,-0.21894646,0.97542095,0.02482909,,0.07105717,-0.017853253,0.028024316,0.4861409,-0.04830524,0.87254435,-0.8444514,0.23096833,0.48327562,-0.22487491,-0.97176147,0.07149176,,0.07734808,1.328314,0.45412588,0.99786484,0.045886982,-0.046477664,0.005306452,-0.76622117,-0.642555,-0.06509708,0.64093643,-0.7648287,,-0.09595915,0.2309496,-0.09085654,0.87571967,0.089514025,0.4744495,-0.44514802,0.53022444,0.7215991,-0.18697147,-0.8431188,0.50417495,,-0.032483995,0.41612938,-0.3379947,-0.40019217,0.17688765,-0.899198,-0.8186374,-0.510033,0.26400608,-0.4119212,0.84177023,0.34891805,,0.9370455160269051,0.3090097104963453,0.17902413045,0.5145791213110228,-0.09345936583956126,1.1694797829097778,-0.40264312302099825,,-1.3678041102853997,0.00013128645886181667,0.18803853111000002,0.09226357513319071,0.121606484791242,-1.0457368537787908,0.8306045762928099,,-0.03261365873507904,-0.08567384965727165,0.08101381028,-0.06541713947960498,,-1.1075288e-05,-5.9604645e-07,-1.0728836e-06,1.0,-4.108995e-06,-3.438443e-06,4.1015446e-06,1.0,-4.172325e-07,3.4421682e-06,3.2782555e-07,1.0,158,0.478,0,0,0.0,False,-0.2579715486309908,1.0046626808346102
0.5033343909308314,11:05:37.773233,11:04:33.756325,0,,0.12787552,0.0022840202,0.018279687,-0.8378655,-0.17614794,-0.5166752,-0.49967134,-0.13362277,0.85584664,-0.21979523,0.9752522,0.023941845,,0.0710506,-0.017853566,0.02802062,0.4861418,-0.04834593,0.8725415,-0.8444476,0.23095995,0.48328623,-0.22488707,-0.9717614,0.071453676,,0.07734808,1.328314,0.45412588,0.99786484,0.045886982,-0.046477664,0.005306452,-0.76622117,-0.642555,-0.06509708,0.64093643,-0.7648287,,-0.095919766,0.23095849,-0.09086031,0.8758517,0.0907649,0.47396788,-0.44529378,0.5305607,0.721262,-0.18600346,-0.84277344,0.5051095,,-0.032476943,0.41612753,-0.33799273,-0.4001915,0.1769283,-0.89919025,-0.81864333,-0.5100331,0.26398733,-0.41190997,0.84176165,0.34895208,,0.9373080889446287,0.30887070130460925,0.17901894529,0.5145791213110228,-0.0922296373416723,1.1683136642962286,-0.4029698111532669,,-1.3677654966210286,0.00014673192461026567,0.18803853111000002,0.09226357513319071,0.121606484791242,-1.0457368537787908,0.8306045762928099,,-0.03261365873507904,-0.08567384965727165,0.08101381028,-0.06541713947960498,,-1.1075288e-05,-5.9604645e-07,-1.0728836e-06,1.0,-4.108995e-06,-3.438443e-06,4.1015446e-06,1.0,-4.172325e-07,3.4421682e-06,3.2782555e-07,1.0,170,0.515,0,0,0.0,False,-0.2580311263495121,1.0046144006338307
0.5312364099081606,11:05:37.804522,11:04:33.756325,0,,0.12777354,0.002286449,0.018295243,-0.8391264,-0.17665102,-0.5144522,-0.4975232,-0.13302287,0.8571905,-0.2198575,0.9752432,0.023735017,,0.071041904,-0.017857946,0.028012514,0.48613274,-0.04847648,0.8725393,-0.84445304,0.23088613,0.4833121,-0.22488654,-0.97177243,0.07130523,,0.07734808,1.328314,0.45412588,0.99786484,0.045886982,-0.046477664,0.005306452,-0.76622117,-0.642555,-0.06509708,0.64093643,-0.7648287,,-0.09581986,0.23097968,-0.09087513,0.877017,0.09123968,0.4717165,-0.44356418,0.5310631,0.7219576,-0.18464002,-0.8424057,0.506222,,-0.032466926,0.41612002,-0.33799073,-0.4001823,0.17706297,-0.89916784,-0.8186455,-0.51007384,0.26390204,-0.41191474,0.8417086,0.34907433,,0.9379181848416924,0.3085695147225145,0.17900209352000002,0.5166760207458679,-0.09058999934448701,1.1669766494518719,-0.4029698111532669,,-1.3676959920251606,0.00014673192461026567,0.18803982740000003,0.09226357513319071,0.121606484791242,-1.0456551750386502,0.8307679203589442,,-0.03261365873507904,-0.08567384965727165,0.08101381028,-0.06541713947960498,,-1.1075288e-05,-5.9604645e-07,-1.0728836e-06,1.0,-4.108995e-06,-3.438443e-06,4.1015446e-06,1.0,-4.172325e-07,3.4421682e-06,3.2782555e-07,1.0,174,0.528,0,0,0.0,False,-0.25815028178655464,1.0050006422400664
0.5625261450186372,11:05:37.824756,11:04:33.890051,0,,0.12766284,0.0022816807,0.018298104,-0.8392194,-0.1769422,-0.51420057,-0.49730372,-0.13282427,0.8573486,-0.21999949,0.97521746,0.023474634,,0.071044356,-0.017859854,0.02801311,0.48612782,-0.04846216,0.87254286,-0.8444592,0.23087934,0.4833046,-0.22487417,-0.97177476,0.07131256,,0.07734808,1.328314,0.45412588,0.99786484,0.045886982,-0.046477664,0.005306452,-0.76622117,-0.642555,-0.06509708,0.64093643,-0.7648287,,-0.09570981,0.23098814,-0.090885185,0.8771129,0.091522954,0.47148332,-0.44347662,0.5312266,0.7218911,-0.18439487,-0.84227186,0.506534,,-0.032469325,0.41611874,-0.3379923,-0.4001789,0.17704955,-0.899172,-0.8186404,-0.5100823,0.2639014,-0.41192812,0.8417063,0.34906408,,0.9385282807387562,0.3082219917431744,0.17899301949000002,0.5166760207458679,-0.08977018034589437,1.1663081420296932,-0.4029698111532669,,-1.3677037147580349,0.00013128645886181667,0.18803982740000003,0.09226357513319071,0.121606484791242,-1.0456551750386502,0.8307679203589442,,-0.03261365873507904,-0.08567384965727165,0.08101381028,-0.06541713947960498,,-1.1075288e-05,-5.9604645e-07,-1.0728836e-06,1.0,-4.108995e-06,-3.438443e-06,4.1015446e-06,1.0,-4.172325e-07,3.4421682e-06,3.2782555e-07,1.0,186,0.564,0,0,0.0,False,-0.2575545046013441,1.004759241236169
0.5827529520029202,11:05:37.856160,11:04:33.890051,0,,0.1275296,0.0022886768,0.018301144,-0.8397355,-0.17882594,-0.5127041,-0.49590886,-0.13203141,0.8582785,-0.22117557,0.97498155,0.022190094,,0.071048304,-0.017859079,0.028012395,0.48612687,-0.04837383,0.8725483,-0.8444613,0.23092109,0.48328084,-0.22486803,-0.9717692,0.07140714,,0.07734808,1.328314,0.45412588,0.99786484,0.045886982,-0.046477664,0.005306452,-0.76622117,-0.642555,-0.06509708,0.64093643,-0.7648287,,-0.09557788,0.23100783,-0.090888835,0.87767375,0.09338364,0.4700727,-0.44310004,0.53186214,0.72165436,-0.18262315,-0.8416663,0.5081797,,-0.03247316,0.41611823,-0.33799103,-0.40017873,0.17695917,-0.8991899,-0.8186375,-0.5100618,0.26395005,-0.41193402,0.84173775,0.3489813,,0.9393314449576755,0.3077895187022178,0.17898783433,0.5173050905763216,-0.08731072335011646,1.1641392622828763,-0.40329649928553535,,-1.3677191602237833,0.00012356372598759216,0.18804241998000001,0.09226357513319071,0.121606484791242,-1.0457368537787908,0.8306045762928099,,-0.03261365873507904,-0.08567384965727165,0.08101381028,-0.06541713947960498,,-1.1075288e-05,-5.9604645e-07,-1.0728836e-06,1.0,-4.108995e-06,-3.438443e-06,4.1015446e-06,1.0,-4.172325e-07,3.4421682e-06,3.2782555e-07,1.0,205,0.622,0,0,0.0,False,-0.25856732581620134,1.0048075214369485
0.6141635240055621,11:05:37.912923,11:04:33.890051,0,,0.12733907,0.0022984445,0.018392324,-0.8366009,-0.19354373,-0.5124837,-0.49533263,-0.13230553,0.858569,-0.23397508,0.9721296,0.0148184,,0.0711141,-0.01783736,0.028020442,0.48602667,-0.0483473,0.87260544,-0.84448487,0.23107398,0.48316675,-0.22499624,-0.9717342,0.07147953,,0.0773524,1.3283143,0.4541274,0.9978647,0.045898154,-0.046468295,0.0053210026,-0.7662205,-0.6425557,-0.06509708,0.64093643,-0.7648287,,-0.09540315,0.23108882,-0.090960085,0.8757227,0.10830196,0.47051084,-0.45103526,0.5312184,0.71719885,-0.17226999,-0.8402843,0.51404804,,-0.03254622,0.41612867,-0.33797538,-0.4000468,0.17691715,-0.8992568,-0.8187333,-0.5099328,0.2639021,-0.41187176,0.8418247,0.34884495,,0.9411462871831183,0.30694774081892734,0.17891913096,0.5103853224413323,-0.07419361937263416,1.1563018994329397,-0.4044399077484754,,-1.3676959920251606,0.00013900919173604118,0.18804241998000001,0.09247326507667525,0.121606484791242,-1.0458185325189313,0.8304412322266757,,-0.03261365873507904,-0.08567384965727165,0.08101381028,-0.06541713947960498,,-6.8694353e-06,3.5762787e-07,-2.6226044e-06,0.99999994,7.044524e-06,5.904585e-06,-7.0482492e-06,1.0,5.9604645e-07,-5.904585e-06,-5.9604645e-07,1.0,213,0.646,0,0,0.0,False,-0.25791197091247,1.0050489224408459
0.6709207720123231,11:05:37.944131,11:04:34.018602,0,,0.12715879,0.002320461,0.018451259,-0.83504444,-0.2012416,-0.512057,-0.4940667,-0.1352121,0.8588456,-0.24207178,0.97016466,0.013481289,,0.07111196,-0.017833784,0.02802074,0.48603562,-0.048430197,0.8725959,-0.8444747,0.23105043,0.48319572,-0.22501495,-0.9717356,0.07140064,,0.0773524,1.3283143,0.4541274,0.9978647,0.045898154,-0.046468295,0.0053210026,-0.7662205,-0.6425557,-0.06509708,0.64093643,-0.7648287,,-0.09523027,0.2311598,-0.09099918,0.8748687,0.116269514,0.47019807,-0.4553284,0.52845675,0.716526,-0.16516921,-0.8409607,0.51527107,,-0.03254436,0.41613173,-0.3379732,-0.40005344,0.17700055,-0.8992375,-0.81874055,-0.5099385,0.26386866,-0.4118509,0.8418037,0.34892017,,0.9424977654361076,0.30631447672324097,0.17886857565000003,0.5068205934020954,-0.06531224688788054,1.1542871750616683,-0.40411321961620683,,-1.3676959920251606,0.0001621773903587147,0.18804241998000001,0.09247326507667525,0.121606484791242,-1.0457368537787908,0.8302778881605415,,-0.03261365873507904,-0.08567384965727165,0.08101381028,-0.06541713947960498,,-6.8694353e-06,3.5762787e-07,-2.6226044e-06,0.99999994,7.044524e-06,5.904585e-06,-7.0482492e-06,1.0,5.9604645e-07,-5.904585e-06,-5.9604645e-07,1.0,221,0.671,0,0,0.0,False,-0.2580311263495121,1.0046144006338307
0.7021230430109426,11:05:37.966570,11:04:34.018602,0,,0.12701447,0.0023188516,0.018512994,-0.8343535,-0.20577356,-0.5113816,-0.49318063,-0.13572946,0.8592732,-0.24622527,0.96914124,0.011762828,,0.071108416,-0.017838806,0.028016746,0.4858624,-0.048483893,0.87268937,-0.8445473,0.23112112,0.48303488,-0.22511646,-0.97171617,0.07134612,,0.0773524,1.3283143,0.4541274,0.9978647,0.045898154,-0.046468295,0.0053210026,-0.7662205,-0.6425557,-0.06509708,0.64093643,-0.7648287,,-0.09509235,0.23121102,-0.09105392,0.8745271,0.1208952,0.4696666,-0.45733878,0.52783316,0.71570486,-0.16138032,-0.84070003,0.51689446,,-0.032539986,0.41612592,-0.3379742,-0.39986348,0.17704679,-0.89931285,-0.8188376,-0.5098676,0.26370445,-0.41184247,0.8418369,0.34884998,,0.9434862752440083,0.3058588354836617,0.17880765002000001,0.5051430738542192,-0.060393332896324675,1.1519097053314085,-0.4041132196162067,,-1.3676573783607895,0.00014673192461026567,0.18804241998000001,0.09268295502015976,0.121606484791242,-1.0457368537787908,0.8302778881605415,,-0.03261365873507904,-0.08567384965727165,0.08101381028,-0.06541713947960498,,-6.8694353e-06,3.5762787e-07,-2.6226044e-06,0.99999994,7.044524e-06,5.904585e-06,-7.0482492e-06,1.0,5.9604645e-07,-5.904585e-06,-5.9604645e-07,1.0,229,0.695,0,0,0.0,False,-0.2580907040680329,1.0050006422400664
0.7245745649561286,11:05:37.988507,11:04:34.018602,0,,0.12673798,0.0023244917,0.018607259,-0.833153,-0.20886251,-0.5120862,-0.4936014,-0.13677698,0.8588654,-0.2494264,0.9683328,0.010861307,,0.07109659,-0.017845273,0.028009355,0.48590234,-0.04851271,0.8726656,-0.84449685,0.23122752,0.48307216,-0.22521952,-0.97168934,0.071385175,,0.0773524,1.3283143,0.4541274,0.9978647,0.045898154,-0.046468295,0.0053210026,-0.7662205,-0.6425557,-0.06509708,0.64093643,-0.7648287,,-0.0948263,0.23130071,-0.09113478,0.87364805,0.12408896,0.47046894,-0.45979893,0.52680373,0.71488655,-0.15913525,-0.84088033,0.517297,,-0.032526873,0.4161179,-0.3379744,-0.39989066,0.1770654,-0.8992971,-0.8188799,-0.5097702,0.26376128,-0.41173187,0.841892,0.34884763,,0.9452238901407088,0.30521012592222685,0.17871950230000003,0.5024171045889203,-0.056430874403126906,1.150230482186883,-0.4042765636823412,,-1.367572428299173,0.00013900919173604118,0.18804112369,0.09268295502015976,0.12174312129100744,-1.0458482716824873,0.8302778881605415,,-0.03261365873507904,-0.08567384965727165,0.08101381028,-0.06541713947960498,,-6.8694353e-06,3.5762787e-07,-2.6226044e-06,0.99999994,7.044524e-06,5.904585e-06,-7.0482492e-06,1.0,5.9604645e-07,-5.904585e-06,-5.9604645e-07,1.0,237,0.719,0,0,0.0,False,-0.25767366003838577,1.0049040818385075
0.7464787709759548,11:05:38.016827,11:04:34.018602,0,,0.12658806,0.0023338646,0.018663391,-0.8321834,-0.21217935,-0.5122993,-0.49374083,-0.13694984,0.8587576,-0.25236997,0.967587,0.009205878,,0.071094535,-0.017846376,0.028007805,0.4859003,-0.048525874,0.872666,-0.8444981,0.23121995,0.48307374,-0.22521934,-0.97169054,0.07136981,,0.0773524,1.3283143,0.4541274,0.9978647,0.045898154,-0.046468295,0.0053210026,-0.7662205,-0.6425557,-0.06509708,0.64093643,-0.7648287,,-0.09468279,0.23135738,-0.09117847,0.8729624,0.12746501,0.47083896,-0.46185836,0.52650756,0.71377635,-0.15691875,-0.8405608,0.51849204,,-0.03252455,0.41611636,-0.3379742,-0.3998886,0.177079,-0.89929533,-0.8188804,-0.50977445,0.2637516,-0.41173294,0.8418866,0.34885952,,0.9462201226814838,0.3048471574771383,0.17867024328000003,0.5003202051540752,-0.05315159840875633,1.1481282036791527,-0.4037865314839384,,-1.3675569828334246,0.00014673192461026567,0.18804112369,0.09268295502015976,0.12174312129100744,-1.0458482716824873,0.8302778881605415,,-0.03261365873507904,-0.08567384965727165,0.08101381028,-0.06541713947960498,,-6.8694353e-06,3.5762787e-07,-2.6226044e-06,0.99999994,7.044524e-06,5.904585e-06,-7.0482492e-06,1.0,5.9604645e-07,-5.904585e-06,-5.9604645e-07,1.0,248,0.753,0,0,0.0,False,-0.25731619372725945,1.004855801637728
0.7748153349384665,11:05:38.047762,11:04:34.018602,0,,0.12634726,0.0023697093,0.018733457,-0.830788,-0.21310708,-0.5141755,-0.49528772,-0.13840368,0.85763305,-0.25393146,0.96717614,0.009434789,,0.07108724,-0.017845437,0.02800423,0.48590416,-0.048570435,0.87266135,-0.84449095,0.23121679,0.48308772,-0.22523782,-0.9716891,0.07133187,,0.0773524,1.3283143,0.4541274,0.9978647,0.045898154,-0.046468295,0.0053210026,-0.7662205,-0.6425557,-0.06509708,0.64093643,-0.7648287,,-0.09445133,0.23145166,-0.0912199,0.8717873,0.12849008,0.4727337,-0.4641653,0.52521616,0.713231,-0.15664428,-0.8412124,0.51751745,,-0.032516878,0.41611555,-0.33797148,-0.39989012,0.17712298,-0.89928603,-0.8188888,-0.50976926,0.26373556,-0.41171473,0.8418805,0.34889573,,0.9477492237905802,0.30446874356630127,0.17862098426,0.49738454594529175,-0.05151196041157105,1.1479346911967636,-0.4031331552194013,,-1.3675183691690536,0.0001621773903587147,0.18804112369,0.09268295502015976,0.12174312129100744,-1.0458482716824873,0.8302778881605415,,-0.03261365873507904,-0.08567384965727165,0.08101381028,-0.06541713947960498,,-6.8694353e-06,3.5762787e-07,-2.6226044e-06,0.99999994,7.044524e-06,5.904585e-06,-7.0482492e-06,1.0,5.9604645e-07,-5.904585e-06,-5.9604645e-07,1.0,256,0.777,0,0,0.0,False,-0.2570183051346544,1.0050006422400664
0.8057168879313394,11:05:38.072370,11:04:34.018602,0,,0.12626995,0.0024106205,0.018758029,-0.8306324,-0.2129509,-0.51449156,-0.4955313,-0.13872492,0.8574405,-0.25396556,0.9671645,0.009705573,,0.071087636,-0.017848372,0.028003275,0.4858972,-0.04856928,0.8726653,-0.8444983,0.2312024,0.4830818,-0.22522527,-0.97169256,0.07132387,,0.0773524,1.3283143,0.4541274,0.9978647,0.045898154,-0.046468295,0.0053210026,-0.7662205,-0.6425557,-0.06509708,0.64093643,-0.7648287,,-0.09437851,0.23150586,-0.091216035,0.87164634,0.12834997,0.47303158,-0.46438864,0.5249473,0.71328366,-0.15676671,-0.8414016,0.5171727,,-0.032516953,0.41611272,-0.33797285,-0.3998847,0.17712314,-0.8992884,-0.8188842,-0.50978196,0.26372525,-0.4117292,0.84187275,0.34889737,,0.9483052605575244,0.3044996344977982,0.17861839168000002,0.49696516605832275,-0.051375323911805604,1.147823273293067,-0.4031331552194013,,-1.3675106464361793,0.00014673192461026567,0.18804112369,0.09268295502015976,0.12174312129100744,-1.0458482716824873,0.8302778881605415,,-0.03261365873507904,-0.08567384965727165,0.08101381028,-0.06541713947960498,,-6.8694353e-06,3.5762787e-07,-2.6226044e-06,0.99999994,7.044524e-06,5.904585e-06,-7.0482492e-06,1.0,5.9604645e-07,-5.904585e-06,-5.9604645e-07,1.0,264,0.802,0,0,0.0,False,-0.25773323775690704,1.0049523620392868
0.8303705899743363,11:05:38.097424,11:04:34.176959,0,,0.12625381,0.0024996102,0.018791124,-0.82728845,-0.22251152,-0.5158316,-0.496887,-0.13857207,0.8566803,-0.2621011,0.9650318,0.004076004,,0.07109113,-0.017846376,0.028004348,0.4860625,-0.048521034,0.87257594,-0.8444336,0.2311134,0.48323745,-0.22511125,-0.97171617,0.07136275,,0.0773524,1.3283143,0.4541274,0.9978647,0.045898154,-0.046468295,0.0053210026,-0.7662205,-0.6425557,-0.06509708,0.64093643,-0.7648287,,-0.09436945,0.23159672,-0.09118545,0.86913365,0.13805097,0.47491962,-0.47088847,0.5246051,0.70926267,-0.15123084,-0.84007823,0.52095854,,-0.032520685,0.41611442,-0.33797202,-0.4000682,0.17708391,-0.8992145,-0.8187828,-0.5098677,0.2638743,-0.41175255,0.84182906,0.34897512,,0.9488458518587202,0.30463864368953425,0.17863135458,0.490674467753787,-0.04481677192306447,1.1425568926557794,-0.40329649928553546,,-1.367533814634802,0.00014673192461026567,0.18804241998000001,0.09247326507667525,0.12174312129100744,-1.0458482716824873,0.8302778881605415,,-0.03261365873507904,-0.08567384965727165,0.08101381028,-0.06541713947960498,,-6.8694353e-06,3.5762787e-07,-2.6226044e-06,0.99999994,7.044524e-06,5.904585e-06,-7.0482492e-06,1.0,5.9604645e-07,-5.904585e-06,-5.9604645e-07,1.0,272,0.827,0,0,0.0,False,-0.2568991496976123,1.0052420432439637
0.8553827749565244,11:05:38.126574,11:04:34.176959,0,,0.12626123,0.0025513843,0.018797427,-0.826764,-0.22613555,-0.5150959,-0.4958916,-0.13937333,0.85712695,-0.26561755,0.9640735,0.0030901134,,0.07109209,-0.017846093,0.028005183,0.48627678,-0.048371106,0.87246484,-0.844313,0.23120472,0.48340446,-0.22510087,-0.971702,0.07158911,,0.0773524,1.3283143,0.4541274,0.9978647,0.045898154,-0.046468295,0.0053210026,-0.7662205,-0.6425557,-0.06509708,0.64093643,-0.7648287,,-0.09437969,0.23163982,-0.09115694,0.8688938,0.14178002,0.4742594,-0.47239628,0.52371997,0.70891404,-0.14786926,-0.8400094,0.5220334,,-0.03252177,0.41611508,-0.3379723,-0.40028808,0.17692865,-0.8991472,-0.81872165,-0.5098152,0.2641654,-0.4116605,0.84189355,0.34892824,,0.9490389201805758,0.30473903921689915,0.17865079893000002,0.48962601803636435,-0.04126422292916302,1.1412119232223432,-0.40378653148393817,,-1.3675415373676763,0.00013900919173604118,0.18804241998000001,0.09226357513319071,0.12187975779077288,-1.0460413683263243,0.8301145440944072,,-0.03261365873507904,-0.08567384965727165,0.08101381028,-0.06541713947960498,,-6.8694353e-06,3.5762787e-07,-2.6226044e-06,0.99999994,7.044524e-06,5.904585e-06,-7.0482492e-06,1.0,5.9604645e-07,-5.904585e-06,-5.9604645e-07,1.0,280,0.85,0,0,0.0,False,-0.2570778828531757,1.0051937630431842
0.8845458809519187,11:05:38.147813,11:04:34.176959,0,,0.12627058,0.0025968626,0.01878561,-0.8245566,-0.22878176,-0.5174602,-0.4974724,-0.14247763,0.85569936,-0.26949492,0.96299475,0.0036682785,,0.07109002,-0.01784715,0.028003693,0.48627475,-0.04831303,0.8724692,-0.8443142,0.23123655,0.4833871,-0.22510076,-0.9716972,0.07165311,,0.0773524,1.3283143,0.4541274,0.9978647,0.045898154,-0.046468295,0.0053210026,-0.7662205,-0.6425557,-0.06509708,0.64093643,-0.7648287,,-0.09438991,0.23166645,-0.09111843,0.867127,0.14464918,0.47662076,-0.47626984,0.5208969,0.70840204,-0.1458005,-0.8412746,0.5205758,,-0.03251944,0.41611353,-0.33797213,-0.40028602,0.17686883,-0.8991599,-0.8187221,-0.5097979,0.26419735,-0.41166154,0.84191656,0.34887138,,0.9491624839065633,0.3048162665456414,0.17868320618000003,0.4856419091101584,-0.03866812943361965,1.1425254901380149,-0.4034598433516696,,-1.3675260919019276,0.00013900919173604118,0.18804241998000001,0.09226357513319071,0.12187975779077288,-1.0461230470664646,0.8302778881605414,,-0.03261365873507904,-0.08567384965727165,0.08101381028,-0.06541713947960498,,-6.8694353e-06,3.5762787e-07,-2.6226044e-06,0.99999994,7.044524e-06,5.904585e-06,-7.0482492e-06,1.0,5.9604645e-07,-5.904585e-06,-5.9604645e-07,1.0,295,0.896,0,0,0.0,False,-0.25672041654204936,1.0040350382244774
0.9057793169049546,11:05:38.189499,11:04:34.176959,0,,0.12635982,0.0027056336,0.01869984,-0.81811565,-0.24026555,-0.522455,-0.5012814,-0.1472286,0.85266685,-0.28178677,0.959477,9.357929e-06,,0.07109029,-0.017848447,0.028001666,0.48627076,-0.047959432,0.8724909,-0.8443182,0.23142484,0.48329008,-0.2250945,-0.9716699,0.07204208,,0.0773524,1.3283143,0.4541274,0.9978647,0.045898154,-0.046468295,0.0053210026,-0.7662205,-0.6425557,-0.06509708,0.64093643,-0.7648287,,-0.094475545,0.23168752,-0.09097924,0.8620269,0.15660794,0.4820619,-0.4875732,0.51608706,0.70422053,-0.13849938,-0.84209746,0.52123874,,-0.032519344,0.4161112,-0.33797166,-0.40028277,0.17650509,-0.8992328,-0.8187199,-0.5096974,0.26439795,-0.41166902,0.8420538,0.3485313,,0.9490852565778212,0.3049089393401321,0.17881153889,0.47431865216199415,-0.029923393448631458,1.1410305773711427,-0.40394987555007267,,-1.3675183691690536,0.00013128645886181667,0.18804371627000002,0.09226357513319071,0.12187975779077288,-1.0465314407671675,0.82946116782987,,-0.03261365873507904,-0.08567384965727165,0.08101381028,-0.06541713947960498,,-6.8694353e-06,3.5762787e-07,-2.6226044e-06,0.99999994,7.044524e-06,5.904585e-06,-7.0482492e-06,1.0,5.9604645e-07,-5.904585e-06,-5.9604645e-07,1.0,303,0.921,0,0,0.0,False,-0.2579715486309908,1.0032625550120058
0.9474797319853678,11:05:38.216977,11:04:34.176959,0,,0.12637347,0.002726756,0.018673018,-0.81690484,-0.24197471,-0.5235596,-0.50191665,-0.14897788,0.85198903,-0.28415862,0.9587772,0.00024965405,,0.07109246,-0.017847553,0.028003395,0.48632377,-0.047760174,0.8724723,-0.8442599,0.2316598,0.4832793,-0.22519827,-0.9716238,0.072339654,,0.0773524,1.3283143,0.4541274,0.9978647,0.045898154,-0.046468295,0.0053210026,-0.7662205,-0.6425557,-0.06509708,0.64093643,-0.7648287,,-0.09448757,0.23168552,-0.09094453,0.8610703,0.15845013,0.48316827,-0.48967466,0.51445836,0.7039541,-0.13702834,-0.8427492,0.5205738,,-0.03252179,0.41611275,-0.33797207,-0.40032324,0.17628843,-0.8992573,-0.8187592,-0.5095289,0.26460093,-0.41155148,0.8422011,0.34831402,,0.9490775338449469,0.30488577114150944,0.17884524243000002,0.47222175272714884,-0.028147118951680733,1.1417057918667437,-0.4023164348887298,,-1.367533814634802,0.00012356372598759216,0.18804371627000002,0.09226357513319071,0.12201639429053832,-1.046806216151145,0.8284811034330645,,-0.03261365873507904,-0.08567384965727165,0.08101381028,-0.06541713947960498,,-6.8694353e-06,3.5762787e-07,-2.6226044e-06,0.99999994,7.044524e-06,5.904585e-06,-7.0482492e-06,1.0,5.9604645e-07,-5.904585e-06,-5.9604645e-07,1.0,311,0.945,0,0,0.0,False,-0.25820985950507547,1.0031177144096675
0.9749570189742371,11:05:38.246877,11:04:34.313288,0,,0.1263551,0.0027555674,0.018632337,-0.8149852,-0.24260724,-0.52625144,-0.5044465,-0.14991477,0.85032904,-0.28518882,0.9584713,-0.0002040565,,0.07109687,-0.017844737,0.028000712,0.4863258,-0.047746982,0.8724718,-0.8442588,0.23166743,0.48327774,-0.22519842,-0.97162247,0.07235502,,0.0773524,1.3283143,0.4541274,0.9978647,0.045898154,-0.046468295,0.0053210026,-0.7662205,-0.6425557,-0.06509708,0.64093643,-0.7648287,,-0.09446678,0.23168364,-0.090895675,0.8593679,0.159149,0.48596126,-0.4924501,0.5136033,0.7026411,-0.1377667,-0.84313893,0.5197472,,-0.0325259,0.41611218,-0.3379679,-0.4003253,0.1762748,-0.89925903,-0.8187588,-0.5095246,0.26461062,-0.41155043,0.84220654,0.34830213,,0.9491933748380602,0.30487032567576094,0.17889450145000002,0.4688667136313965,-0.028420391951211613,1.1421736638945583,-0.4031331552194011,,-1.3675492601005503,0.00012356372598759216,0.18804890143000003,0.09226357513319071,0.12201639429053832,-1.046806216151145,0.828807791565333,,-0.03261365873507904,-0.08567384965727165,0.08101381028,-0.06541713947960498,,-6.8694353e-06,3.5762787e-07,-2.6226044e-06,0.99999994,7.044524e-06,5.904585e-06,-7.0482492e-06,1.0,5.9604645e-07,-5.904585e-06,-5.9604645e-07,1.0,319,0.97,0,0,0.0,False,-0.2586269035347226,1.0028280332049906
1.0048769959248602,11:05:38.269893,11:04:34.313288,0,,0.12633546,0.0027941242,0.018644467,-0.81344205,-0.24667904,-0.526746,-0.5049722,-0.14990425,0.8500187,-0.28864324,0.95743304,-0.0026276708,,0.071097896,-0.017845511,0.027997792,0.4861596,-0.047991876,0.8725511,-0.84432566,0.23164019,0.48317388,-0.22530636,-0.971617,0.07209329,,0.0773524,1.3283143,0.4541274,0.9978647,0.045898154,-0.046468295,0.0053210026,-0.7662205,-0.6425557,-0.06509708,0.64093643,-0.7648287,,-0.09445007,0.2317228,-0.09088127,0.8581761,0.16329502,0.4866914,-0.49518308,0.51333344,0.70091546,-0.13537896,-0.8425102,0.52139145,,-0.03252645,0.41610944,-0.33796635,-0.40014163,0.1765174,-0.8992932,-0.8188573,-0.5095048,0.26434365,-0.41153297,0.84216774,0.34841666,,0.9494868386872808,0.30488577114150944,0.17890227919,0.46614074436609765,-0.025551025456137362,1.1398338879169334,-0.4031331552194011,,-1.3675415373676763,0.00011584099311336764,0.18805149401000001,0.09247326507667525,0.12201639429053832,-1.0465611799307233,0.8286444474991984,,-0.03261365873507904,-0.08567384965727165,0.08101381028,-0.06541713947960498,,-6.8694353e-06,3.5762787e-07,-2.6226044e-06,0.99999994,7.044524e-06,5.904585e-06,-7.0482492e-06,1.0,5.9604645e-07,-5.904585e-06,-5.9604645e-07,1.0,327,0.993,0,0,0.0,False,-0.25856732581620134,1.003069434208888
1.0278946829494089,11:05:38.288511,11:04:34.313288,0,,0.12634054,0.0028625578,0.018676743,-0.8111252,-0.2567517,-0.5255038,-0.5037474,-0.14984542,0.8507555,-0.29717726,0.95479053,-0.0077946186,,0.071097896,-0.017845511,0.027997792,0.4861596,-0.048063155,0.8725472,-0.84432566,0.2316007,0.48319277,-0.22530636,-0.9716229,0.072013944,,0.0773524,1.3283143,0.4541274,0.9978647,0.045898154,-0.046468295,0.0053210026,-0.7662205,-0.6425557,-0.06509708,0.64093643,-0.7648287,,-0.09446114,0.23179537,-0.09086222,0.85660803,0.17355672,0.48590198,-0.49985522,0.5126441,0.69809794,-0.1279352,-0.840877,0.5258883,,-0.03252645,0.41610944,-0.33796635,-0.40014163,0.17659084,-0.8992788,-0.8188573,-0.5095264,0.26430202,-0.41153297,0.84213924,0.34848544,,0.9498806980638662,0.3049012166072579,0.17890746435000002,0.46215663543989166,-0.017352835470210937,1.1342106373169756,-0.403623187417804,,-1.3675415373676763,0.00011584099311336764,0.18805149401000001,0.09247326507667525,0.12201639429053832,-1.046479501190583,0.8284811034330642,,-0.03261365873507904,-0.08567384965727165,0.08101381028,-0.06541713947960498,,-6.8694353e-06,3.5762787e-07,-2.6226044e-06,0.99999994,7.044524e-06,5.904585e-06,-7.0482492e-06,1.0,5.9604645e-07,-5.904585e-06,-5.9604645e-07,1.0,335,1.018,0,0,0.0,False,-0.25815028178655464,1.0025866322010937
1.0465120900189504,11:05:38.311498,11:04:34.313288,0,,0.12633198,0.003001891,0.018727869,-0.8075832,-0.2688918,-0.5248871,-0.500383,-0.15863407,0.85114753,-0.3121316,0.950017,-0.0064386725,,0.07110295,-0.017845616,0.027995765,0.48631787,-0.04794256,0.87246555,-0.8442682,0.23153684,0.48332363,-0.22517976,-0.97164404,0.07212414,,0.0773524,1.3283143,0.4541274,0.9978647,0.045898154,-0.046468295,0.0053210026,-0.7662205,-0.6425557,-0.06509708,0.64093643,-0.7648287,,-0.09446351,0.23193564,-0.09081303,0.8543216,0.1864629,0.48514557,-0.5070576,0.5039964,0.69919974,-0.11413681,-0.84333813,0.5251224,,-0.032531146,0.41610727,-0.33796468,-0.40031967,0.1764784,-0.8992216,-0.8187513,-0.5096032,0.2644824,-0.41157076,0.84211636,0.3484961,,0.9507147532142824,0.30491666207300633,0.17893209386000003,0.45628531702232505,-0.0023228204960124878,1.1346148726321563,-0.40427656368234133,,-1.3675569828334246,0.00010039552736491862,0.18805538288,0.09226357513319071,0.12201639429053832,-1.0465611799307235,0.8283177593669301,,-0.03261365873507904,-0.08567384965727165,0.08101381028,-0.06541713947960498,,-6.8694353e-06,3.5762787e-07,-2.6226044e-06,0.99999994,7.044524e-06,5.904585e-06,-7.0482492e-06,1.0,5.9604645e-07,-5.904585e-06,-5.9604645e-07,1.0,343,1.044,0,0,0.0,False,-0.25856732581620134,1.0024900717995346
1.069451884017326,11:05:38.339580,11:04:34.313288,0,,0.12631366,0.0031050965,0.018787965,-0.8036185,-0.27866822,-0.52587175,-0.50012755,-0.16274902,0.85052055,-0.32259822,0.9464971,-0.0085814595,,0.07110937,-0.017844751,0.027991772,0.48631397,-0.04806416,0.8724611,-0.8442738,0.23145491,0.4833532,-0.2251674,-0.9716576,0.07198042,,0.0773524,1.3283143,0.4541274,0.9978647,0.045898154,-0.046468295,0.0053210026,-0.7662205,-0.6425557,-0.06509708,0.64093643,-0.7648287,,-0.094455406,0.23205471,-0.090794206,0.85133624,0.19669539,0.48635122,-0.51385087,0.4995153,0.6974538,-0.10575394,-0.84367967,0.52632755,,-0.03253694,0.41610414,-0.33796087,-0.4003173,0.17660505,-0.8991978,-0.818746,-0.5096527,0.26440337,-0.41158363,0.84205985,0.34861746,,0.9513789082414658,0.3050325030661197,0.17893209386000003,0.4497849287743047,0.007105097987802903,1.1323178341263802,-0.4037865314839383,,-1.367572428299173,7.72273287422451e-05,0.18806316062000003,0.09226357513319071,0.12201639429053832,-1.0463978224504424,0.8283177593669301,,-0.03261365873507904,-0.08567384965727165,0.08101381028,-0.06541713947960498,,-6.8694353e-06,3.5762787e-07,-2.6226044e-06,0.99999994,7.044524e-06,5.904585e-06,-7.0482492e-06,1.0,5.9604645e-07,-5.904585e-06,-5.9604645e-07,1.0,355,1.08,0,0,0.0,False,-0.25826943722359585,1.0025866322010937
1.0975804689805955,11:05:38.371414,11:04:34.313288,0,,0.1262427,0.0032498613,0.01886858,-0.8002178,-0.28683257,-0.52666724,-0.5004391,-0.16455933,0.8499888,-0.3304725,0.9437411,-0.01185891,,0.07110989,-0.017847404,0.027987838,0.48630598,-0.04821212,0.87245727,-0.8442818,0.2313577,0.48338586,-0.22515485,-0.9716734,0.07180601,,0.0773524,1.3283143,0.4541274,0.9978647,0.045898154,-0.046468295,0.0053210026,-0.7662205,-0.6425557,-0.06509708,0.64093643,-0.7648287,,-0.0943987,0.23222362,-0.09076694,0.8486967,0.20515189,0.4874696,-0.51938784,0.49713954,0.6950457,-0.09975048,-0.8430688,0.5284741,,-0.03253674,0.4160995,-0.33795995,-0.40031084,0.17675892,-0.89917046,-0.8187416,-0.5097107,0.26430497,-0.4115986,0.84199244,0.3487626,,0.9523905862479892,0.30536458057971133,0.17893468644000002,0.44412330030022257,0.013936922976074925,1.1284621924845109,-0.40460325181460977,,-1.3675569828334246,6.950459586802059e-05,0.18806445691,0.09226357513319071,0.12201639429053832,-1.0462344649701611,0.8279910712346615,,-0.03261365873507904,-0.08567384965727165,0.08101381028,-0.06541713947960498,,-6.8694353e-06,3.5762787e-07,-2.6226044e-06,0.99999994,7.044524e-06,5.904585e-06,-7.0482492e-06,1.0,5.9604645e-07,-5.904585e-06,-5.9604645e-07,1.0,363,1.105,0,0,0.0,False,-0.2580311263495121,1.0027797530042115
1.129416053998284,11:05:38.401828,11:04:34.313288,0,,0.12617683,0.003444992,0.01896207,-0.79747283,-0.296869,-0.5252672,-0.4986805,-0.16575548,0.8507895,-0.339639,0.9404221,-0.01585731,,0.07111181,-0.017845899,0.027986169,0.48641816,-0.04807812,0.8724022,-0.84427524,0.23119175,0.4834766,-0.2249369,-0.97171944,0.07186468,,0.0773524,1.3283143,0.4541274,0.9978647,0.045898154,-0.046468295,0.0053210026,-0.7662205,-0.6425557,-0.06509708,0.64093643,-0.7648287,,-0.09435044,0.23243892,-0.0907172,0.84673786,0.2154956,0.48641205,-0.5240895,0.49505407,0.69300187,-0.091461405,-0.8417144,0.53212,,-0.032538474,0.4160991,-0.3379576,-0.40045384,0.17664257,-0.8991296,-0.81860083,-0.50987846,0.26441747,-0.41173947,0.84191525,0.34878254,,0.9535644416448713,0.3058665582165359,0.17895283450000002,0.43971981148704753,0.022818295460828555,1.1228536035470549,-0.4032964992855357,,-1.367564705566299,7.72273287422451e-05,0.18806704949000003,0.0920538851897062,0.12187975779077288,-1.046286404546746,0.8279910712346615,,-0.03261365873507904,-0.08567384965727165,0.08101381028,-0.06541713947960498,,-6.8694353e-06,3.5762787e-07,-2.6226044e-06,0.99999994,7.044524e-06,5.904585e-06,-7.0482492e-06,1.0,5.9604645e-07,-5.904585e-06,-5.9604645e-07,1.0,371,1.13,0,0,0.0,False,-0.25767366003838577,1.0025383520003142
1.159829047974199,11:05:38.427493,11:04:34.313288,0,,0.12608908,0.003697805,0.019094333,-0.7950205,-0.30378386,-0.52503085,-0.49696124,-0.17010167,0.8509377,-0.3478098,0.937433,-0.015734494,,0.07111477,-0.017847538,0.027985752,0.48662642,-0.048205547,0.872279,-0.8441613,0.23111448,0.48371243,-0.22491398,-0.9717316,0.07177316,,0.0773524,1.3283143,0.4541274,0.9978647,0.045898154,-0.046468295,0.0053210026,-0.7662205,-0.6425557,-0.06509708,0.64093643,-0.7648287,,-0.09428656,0.23272513,-0.090661444,0.8449796,0.22284266,0.48615906,-0.5281643,0.49046478,0.6931715,-0.0839757,-0.84248763,0.5321303,,-0.03254124,0.4160972,-0.33795825,-0.40066925,0.1767745,-0.89900774,-0.81853473,-0.50992286,0.26453647,-0.4116613,0.8418607,0.34900647,,0.9550240381580998,0.30671605883270064,0.17896709369000002,0.43573570256084165,0.03060657594745866,1.121158471224371,-0.4050932840130126,,-1.367572428299173,5.405913011957157e-05,0.18806834578,0.09184419524622166,0.12201639429053832,-1.0461527862300208,0.8284811034330644,,-0.03261365873507904,-0.08567384965727165,0.08101381028,-0.06541713947960498,,-6.8694353e-06,3.5762787e-07,-2.6226044e-06,0.99999994,7.044524e-06,5.904585e-06,-7.0482492e-06,1.0,5.9604645e-07,-5.904585e-06,-5.9604645e-07,1.0,404,1.231,0,0,0.0,False,-0.25779281547542787,1.0022969509964168
1.1854313149815425,11:05:38.521456,11:04:34.534728,0,,0.12598933,0.00440941,0.019582257,-0.78410727,-0.33463743,-0.5226791,-0.49097043,-0.18070042,0.85222965,-0.37963635,0.9248595,-0.022608519,,0.07112591,-0.017867193,0.027982414,0.48667997,-0.04799191,0.8722609,-0.8441017,0.23136199,0.483698,-0.22502166,-0.97168326,0.072089165,,0.0773524,1.3283143,0.4541274,0.9978647,0.045898154,-0.046468295,0.0053210026,-0.7662205,-0.6425557,-0.06509708,0.64093643,-0.7648287,,-0.09426395,0.2335902,-0.09058706,0.8368079,0.255166,0.48439944,-0.54470587,0.47723207,0.6895978,-0.05520903,-0.8409161,0.538342,,-0.032550666,0.41607952,-0.3379692,-0.40070966,0.17654262,-0.8990353,-0.81857586,-0.50974613,0.2647497,-0.41154018,0.8420164,0.34877372,,0.9586459998761111,0.3094267380715534,0.17892042725,0.4193798869690487,0.06025669639655924,1.1088242034426288,-0.403623187417804,,-1.367564705566299,-8.495006161646961e-05,0.18806964207000001,0.09184419524622166,0.12228966729006921,-1.046457300777554,0.8270110068378559,,-0.03261365873507904,-0.08567384965727165,0.08101381028,-0.06541713947960498,,-6.8694353e-06,3.5762787e-07,-2.6226044e-06,0.99999994,7.044524e-06,5.904585e-06,-7.0482492e-06,1.0,5.9604645e-07,-5.904585e-06,-5.9604645e-07,1.0,412,1.256,0,0,0.0,False,-0.25779281547542787,1.001041665776151
1.2794112080009654,11:05:38.542638,11:04:34.534728,0,,0.12596448,0.0044938102,0.019762829,-0.78346354,-0.33754522,-0.5217739,-0.48785257,-0.18602711,0.8528738,-0.38494757,0.92274433,-0.018926889,,0.0711256,-0.017868951,0.02798152,0.48667598,-0.047994617,0.872263,-0.8441057,0.23135284,0.48369545,-0.2250154,-0.9716853,0.07208133,,0.0773524,1.3283143,0.4541274,0.9978647,0.045898154,-0.046468295,0.0053210026,-0.7662205,-0.6425557,-0.06509708,0.64093643,-0.7648287,,-0.09425968,0.23377164,-0.09067314,0.836522,0.2584895,0.4831295,-0.5457282,0.47206897,0.69233775,-0.04910842,-0.8428132,0.5359611,,-0.032550123,0.4160777,-0.33796984,-0.4007064,0.17654611,-0.89903605,-0.8185737,-0.5097536,0.26474214,-0.41154766,0.84201115,0.34877753,,0.9593719367662882,0.3099209929755038,0.17881153889,0.4187508171385952,0.06626870238623862,1.110946187332075,-0.40394987555007267,,-1.3675569828334246,-9.267279449069412e-05,0.18806964207000001,0.09184419524622166,0.12228966729006921,-1.046457300777554,0.8266843187055871,,-0.03261365873507904,-0.08567384965727165,0.08101381028,-0.06541713947960498,,-6.8694353e-06,3.5762787e-07,-2.6226044e-06,0.99999994,7.044524e-06,5.904585e-06,-7.0482492e-06,1.0,5.9604645e-07,-5.904585e-06,-5.9604645e-07,1.0,420,1.281,0,0,0.0,False,-0.25773323775690704,1.000848544973033
1.3006349930074066,11:05:38.578407,11:04:34.534728,0,,0.12590104,0.004487328,0.019967616,-0.78293526,-0.3384902,-0.5219547,-0.48822278,-0.18566391,0.8527411,-0.38555267,0.9224713,-0.019895792,,0.07112818,-0.01787047,0.027979195,0.48667002,-0.04798687,0.87226677,-0.8441125,0.23134217,0.4836887,-0.22500291,-0.9716883,0.07208097,,0.0773524,1.3283143,0.4541274,0.9978647,0.045898154,-0.046468295,0.0053210026,-0.7662205,-0.6425557,-0.06509708,0.64093643,-0.7648287,,-0.09421527,0.23390208,-0.09083751,0.83606887,0.25943872,0.483405,-0.5464448,0.4722634,0.6916396,-0.048856378,-0.84241253,0.53661364,,-0.032552253,0.41607463,-0.33796912,-0.400702,0.17653948,-0.8990393,-0.8185689,-0.5097642,0.26473665,-0.41156158,0.8420061,0.34877324,,0.9599974781291003,0.3102607932219697,0.17862616942,0.41770236742117256,0.0665419753857695,1.1093348129422922,-0.4036231874178041,,-1.3675569828334246,-0.00010811826023914314,0.18807223465000003,0.09184419524622166,0.12228966729006921,-1.046457300777554,0.8266843187055871,,-0.03261365873507904,-0.08567384965727165,0.08101381028,-0.06541713947960498,,-6.8694353e-06,3.5762787e-07,-2.6226044e-06,0.99999994,7.044524e-06,5.904585e-06,-7.0482492e-06,1.0,5.9604645e-07,-5.904585e-06,-5.9604645e-07,1.0,428,1.306,0,0,0.0,False,-0.25868648125324345,1.0008002647722536
1.3363861269317567,11:05:38.601930,11:04:34.534728,0,,0.1258555,0.004482113,0.020097837,-0.7830377,-0.33897504,-0.521486,-0.4881748,-0.18458506,0.8530028,-0.38540518,0.9225098,-0.020941973,,0.071131825,-0.017869487,0.027973711,0.48666707,-0.04798299,0.8722686,-0.84411585,0.23133686,0.4836854,-0.22499669,-0.9716897,0.072080836,,0.0773524,1.3283143,0.4541274,0.9978647,0.045898154,-0.046468295,0.0053210026,-0.7662205,-0.6425557,-0.06509708,0.64093643,-0.7648287,,-0.09418181,0.23398468,-0.090942934,0.83615506,0.25986984,0.48302418,-0.54630506,0.47316235,0.6911354,-0.04894362,-0.84177494,0.5376053,,-0.0325551,0.41607097,-0.33796436,-0.4006998,0.17653616,-0.899041,-0.81856644,-0.5097695,0.26473394,-0.41156852,0.8420036,0.3487711,,0.9603913375056858,0.3104615842766995,0.17851598477000002,0.41770236742117256,0.06640533888600406,1.1078126560431776,-0.40378653148393817,,-1.3675569828334246,-0.00011584099311336764,0.18807871610000002,0.09184419524622166,0.12228966729006921,-1.046457300777554,0.8266843187055871,,-0.03261365873507904,-0.08567384965727165,0.08101381028,-0.06541713947960498,,-6.8694353e-06,3.5762787e-07,-2.6226044e-06,0.99999994,7.044524e-06,5.904585e-06,-7.0482492e-06,1.0,5.9604645e-07,-5.904585e-06,-5.9604645e-07,1.0,436,1.33,0,0,0.0,False,-0.2585077480976805,1.0008002647722536
1.3599291479913518,11:05:38.629906,11:04:34.682490,0,,0.1258115,0.0045311674,0.020297661,-0.77986187,-0.3446262,-0.5225399,-0.48966616,-0.18413988,0.8522438,-0.38992605,0.92050266,-0.025148064,,0.07113473,-0.017865822,0.027967513,0.48672104,-0.048157107,0.8722289,-0.8440555,0.23137209,0.48377407,-0.22510663,-0.9716727,0.071966365,,0.0773524,1.3283143,0.4541274,0.9978647,0.045898154,-0.046468295,0.0053210026,-0.7662205,-0.6425557,-0.06509708,0.64093643,-0.7648287,,-0.09415872,0.23415293,-0.0910672,0.83348066,0.26565745,0.4844957,-0.55060697,0.47276077,0.6879893,-0.046281066,-0.84019244,0.5403098,,-0.03255728,0.41606882,-0.33795726,-0.40074039,0.17670368,-0.89899,-0.81860864,-0.50970805,0.2647218,-0.41144508,0.84200567,0.34891176,,0.9610786607314917,0.31094039371490145,0.17837080029000002,0.4126698087775439,0.06941134188084375,1.1033194936583421,-0.4042765636823412,,-1.3675569828334246,-0.00011584099311336764,0.18808649384,0.09184419524622166,0.12242630378983464,-1.0463236824608289,0.8261942865071844,,-0.03261365873507904,-0.08567384965727165,0.08101381028,-0.06541713947960498,,-6.8694353e-06,3.5762787e-07,-2.6226044e-06,0.99999994,7.044524e-06,5.904585e-06,-7.0482492e-06,1.0,5.9604645e-07,-5.904585e-06,-5.9604645e-07,1.0,444,1.355,0,0,0.0,False,-0.2588652144088064,1.0009933855753714
1.3878912299405783,11:05:38.651498,11:04:34.682490,0,,0.12580961,0.004616894,0.020431831,-0.77826667,-0.35120302,-0.52053547,-0.48781228,-0.18383268,0.8533726,-0.39539847,0.9180751,-0.028250307,,0.0711395,-0.017861038,0.027958333,0.486826,-0.04807402,0.8721749,-0.8439379,0.23167422,0.48383456,-0.22532043,-0.97160476,0.072213516,,0.0773524,1.3283143,0.4541274,0.9978647,0.045898154,-0.046468295,0.0053210026,-0.7662205,-0.6425557,-0.06509708,0.64093643,-0.7648287,,-0.09417305,0.23430388,-0.09111578,0.832319,0.27241093,0.48273936,-0.55279166,0.47207323,0.6867083,-0.040821493,-0.83841467,0.54350203,,-0.03256091,0.4160651,-0.3379471,-0.4008194,0.17659484,-0.89897615,-0.81869054,-0.5094606,0.26494464,-0.4112051,0.84217817,0.34877825,,0.961603806566939,0.3114037576873549,0.17830339321000002,0.4105729093426987,0.07487680187146135,1.0987810987703448,-0.40411321961620683,,-1.3675569828334246,-0.00012356372598759216,0.18809816045000002,0.09184419524622166,0.12269957678936552,-1.0465465182682216,0.8258675983749161,,-0.03261365873507904,-0.08567384965727165,0.08101381028,-0.06541713947960498,,-6.8694353e-06,3.5762787e-07,-2.6226044e-06,0.99999994,7.044524e-06,5.904585e-06,-7.0482492e-06,1.0,5.9604645e-07,-5.904585e-06,-5.9604645e-07,1.0,452,1.38,0,0,0.0,False,-0.2583290149421176,1.0004623033667974
1.4094353159889579,11:05:38.673570,11:04:34.682490,0,,0.12577744,0.004788108,0.020654127,-0.776191,-0.3578583,-0.51910007,-0.48590448,-0.18512991,0.8541801,-0.40177643,0.91524005,-0.030188799,,0.07115486,-0.017858475,0.027936578,0.48686212,-0.048082422,0.87215436,-0.8438976,0.23175657,0.48386532,-0.22539297,-0.9715848,0.07225686,,0.0773524,1.3283143,0.4541274,0.9978647,0.045898154,-0.046468295,0.0053210026,-0.7662205,-0.6425557,-0.06509708,0.64093643,-0.7648287,,-0.09416919,0.23457915,-0.0911789,0.8307609,0.27935094,0.48145548,-0.55555236,0.4699015,0.6859695,-0.034610435,-0.83735037,0.5455699,,-0.032573044,0.41604945,-0.33792904,-0.40084672,0.17659561,-0.8989638,-0.8187182,-0.50938773,0.2649994,-0.4111234,0.84222215,0.34876844,,0.9626386527720852,0.312369099296633,0.17820487517000003,0.40763725013391533,0.08088880786114075,1.094858855889389,-0.4044399077484754,,-1.3675569828334246,-0.00016990012323293922,0.18812408625000002,0.09184419524622166,0.12283621328913097,-1.0465762574317774,0.8260309424410502,,-0.03261365873507904,-0.08567384965727165,0.08101381028,-0.06541713947960498,,-6.8694353e-06,3.5762787e-07,-2.6226044e-06,0.99999994,7.044524e-06,5.904585e-06,-7.0482492e-06,1.0,5.9604645e-07,-5.904585e-06,-5.9604645e-07,1.0,477,1.456,0,0,0.0,False,-0.2589843698458485,1.0006554241699153
1.4315360819455236,11:05:38.752486,11:04:34.824095,0,,0.1256887,0.0053579435,0.021182105,-0.77115613,-0.37276876,-0.51610225,-0.48197937,-0.18780622,0.85581815,-0.41594952,0.90872,-0.034838945,,0.071180925,-0.017860308,0.02790618,0.48687854,-0.04798587,0.8721504,-0.8438804,0.23184505,0.4838529,-0.22542188,-0.97156847,0.072386,,0.0773524,1.3283143,0.4541274,0.9978647,0.045898154,-0.046468295,0.0053210026,-0.7662205,-0.6425557,-0.06509708,0.64093643,-0.7648287,,-0.09415499,0.2353595,-0.09122524,0.82689244,0.29490486,0.47883198,-0.56196827,0.4651065,0.6840085,-0.020990448,-0.8346898,0.5503202,,-0.03259424,0.4160232,-0.33790743,-0.40085962,0.17649293,-0.8989782,-0.8187287,-0.5093281,0.26508147,-0.41108987,0.84227973,0.3486689,,0.9655346775999193,0.3154273015148259,0.17805709811,0.400298102111957,0.09345936583956126,1.0849351237098805,-0.40411321961620705,,-1.367564705566299,-0.00027029565059785785,0.18816038237000002,0.09184419524622166,0.1229728497888964,-1.046687675335474,0.8263576305733188,,-0.03261365873507904,-0.08567384965727165,0.08101381028,-0.06541713947960498,,-6.8694353e-06,3.5762787e-07,-2.6226044e-06,0.99999994,7.044524e-06,5.904585e-06,-7.0482492e-06,1.0,5.9604645e-07,-5.904585e-06,-5.9604645e-07,1.0,485,1.481,0,0,0.0,False,-0.2583885926606384,1.0009933855753714
1.5104508019285277,11:05:38.774335,11:04:34.824095,0,,0.12565413,0.0056211874,0.021392956,-0.7672694,-0.38075417,-0.5160657,-0.48019865,-0.19229859,0.8558216,-0.4250964,0.9044598,-0.035292834,,0.0711845,-0.017864361,0.02790171,0.4868656,-0.048048187,0.87215424,-0.84389454,0.23178044,0.4838592,-0.22539687,-0.9715808,0.0722983,,0.0773524,1.3283143,0.4541274,0.9978647,0.045898154,-0.046468295,0.0053210026,-0.7662205,-0.6425557,-0.06509708,0.64093643,-0.7648287,,-0.09415175,0.2356985,-0.09122096,0.82379496,0.30344108,0.47883758,-0.5667467,0.4597003,0.6837206,-0.012652853,-0.8346252,0.550673,,-0.032596894,0.41601673,-0.33790696,-0.40084976,0.1765599,-0.8989695,-0.81871927,-0.5093731,0.2650241,-0.41111824,0.8422385,0.34873506,,0.966832096722789,0.31664749330895336,0.17802080199,0.3948461635813594,0.10165755582548769,1.082415665235264,-0.40492993994687854,,-1.3675569828334246,-0.00030118658209475586,0.18816427124000001,0.09184419524622166,0.1229728497888964,-1.0466059965953334,0.8261942865071846,,-0.03261365873507904,-0.08567384965727165,0.08101381028,-0.06541713947960498,,-6.8694353e-06,3.5762787e-07,-2.6226044e-06,0.99999994,7.044524e-06,5.904585e-06,-7.0482492e-06,1.0,5.9604645e-07,-5.904585e-06,-5.9604645e-07,1.0,493,1.505,0,0,0.0,False,-0.2590439475643693,1.0005588637683562
1.5323366129305214,11:05:38.803157,11:04:34.824095,0,,0.12566012,0.0057568923,0.021516189,-0.7648456,-0.3876917,-0.514496,-0.477548,-0.19483101,0.8567314,-0.43238747,0.9009639,-0.03612572,,0.07118791,-0.017867267,0.027899444,0.4869077,-0.047993116,0.8721338,-0.8438476,0.23191288,0.48387772,-0.22548193,-0.9715519,0.0724213,,0.0773524,1.3283143,0.4541274,0.9978647,0.045898154,-0.046468295,0.0053210026,-0.7662205,-0.6425557,-0.06509708,0.64093643,-0.7648287,,-0.09417511,0.23588024,-0.091228895,0.8219425,0.31077757,0.47731313,-0.5695463,0.45618713,0.6837473,-0.0052508,-0.8338529,0.5519618,,-0.032599762,0.41601261,-0.3379072,-0.40088153,0.17649388,-0.8989683,-0.81875175,-0.5092679,0.2651259,-0.4110226,0.8423159,0.34866077,,0.9674576380856013,0.31722669827452016,0.1779935799,0.391910504372576,0.10903592681282148,1.0798296055215606,-0.40525662807914664,,-1.3675569828334246,-0.0003320775135916539,0.18816686382000003,0.09184419524622166,0.12310948628866183,-1.0467174144990299,0.8261942865071846,,-0.03261365873507904,-0.08567384965727165,0.08101381028,-0.06541713947960498,,-6.8694353e-06,3.5762787e-07,-2.6226044e-06,0.99999994,7.044524e-06,5.904585e-06,-7.0482492e-06,1.0,5.9604645e-07,-5.904585e-06,-5.9604645e-07,1.0,501,1.531,0,0,0.0,False,-0.2588652144088064,1.0010899459769305
1.561160404002294,11:05:38.823420,11:04:34.824095,0,,0.12566927,0.0058646277,0.021630093,-0.76067936,-0.3956981,-0.51457727,-0.47614014,-0.19867131,0.85663307,-0.44119984,0.89663404,-0.037282556,,0.07118809,-0.01787208,0.027897656,0.48694772,-0.04787998,0.87211764,-0.8438018,0.23207727,0.4838788,-0.2255669,-0.97151816,0.07260829,,0.0773524,1.3283143,0.4541274,0.9978647,0.045898154,-0.046468295,0.0053210026,-0.7662205,-0.6425557,-0.06509708,0.64093643,-0.7648287,,-0.094199516,0.23603429,-0.09124737,0.8185525,0.31931233,0.47750545,-0.5744258,0.45124024,0.68294746,0.002603872,-0.8333198,0.5527851,,-0.032599416,0.416008,-0.3379094,-0.4009112,0.17636804,-0.8989797,-0.8187847,-0.5091453,0.2652596,-0.410928,0.84241635,0.34852952,,0.9679827839210485,0.31762055765110564,0.17796117265000003,0.3864585658419784,0.1172341167987479,1.0776368620075063,-0.40607334840981824,,-1.3675415373676763,-0.000362968445088552,0.18816686382000003,0.09184419524622166,0.12324612278842728,-1.0469105111428667,0.8260309424410502,,-0.03261365873507904,-0.08567384965727165,0.08101381028,-0.06541713947960498,,-6.8694353e-06,3.5762787e-07,-2.6226044e-06,0.99999994,7.044524e-06,5.904585e-06,-7.0482492e-06,1.0,5.9604645e-07,-5.904585e-06,-5.9604645e-07,1.0,509,1.556,0,0,0.0,False,-0.25826943722359585,1.000751984571474
1.58141078799963,11:05:38.853981,11:04:34.824095,0,,0.12569883,0.0059661046,0.02179733,-0.75359786,-0.41073227,-0.5132144,-0.47225946,-0.20477435,0.8573439,-0.45723194,0.8884629,-0.039654672,,0.07118943,-0.017874062,0.027899742,0.48658496,-0.04760427,0.8723352,-0.84349287,0.23441654,0.48328924,-0.22749653,-0.97097003,0.073909685,,0.0773524,1.3283143,0.4541274,0.9978647,0.045898154,-0.046468295,0.0053210026,-0.7662205,-0.6425557,-0.06509708,0.64093643,-0.7648287,,-0.0942489,0.23621535,-0.091309965,0.81282234,0.3352935,0.4763382,-0.58224225,0.44277745,0.68186665,0.017713634,-0.83158064,0.5551215,,-0.03260093,0.41600785,-0.33791214,-0.40028802,0.17588511,-0.89935195,-0.81986433,-0.50716174,0.26572433,-0.40937993,0.84371287,0.3472127,,0.9685928798181123,0.3177981805072128,0.1778898767,0.37786127815911286,0.13322058727130442,1.0731772349897841,-0.4042765636823411,,-1.367533814634802,-0.00045564123957924605,0.18816686382000003,0.09310233490712881,0.12488576078561256,-1.0481658472470832,0.8261942865071846,,-0.03261365873507904,-0.08567384965727165,0.08101381028,-0.06541713947960498,,-6.8694353e-06,3.5762787e-07,-2.6226044e-06,0.99999994,7.044524e-06,5.904585e-06,-7.0482492e-06,1.0,5.9604645e-07,-5.904585e-06,-5.9604645e-07,1.0,521,1.592,0,0,0.0,False,-0.25725661600873906,0.9997863805558849
1.6119673369685188,11:05:38.884492,11:04:34.965107,0,,0.12571262,0.0060124025,0.02194199,-0.7434019,-0.42477936,-0.51663893,-0.47267157,-0.21285552,0.8551457,-0.4732177,0.8799176,-0.042543918,,0.07119632,-0.01788643,0.027905285,0.4860079,-0.04979468,0.8725345,-0.84293604,0.23691592,0.48304194,-0.23077032,-0.97025317,0.073169276,,0.0773524,1.3283143,0.4541274,0.9978647,0.045898154,-0.046468295,0.0053210026,-0.7662205,-0.6425557,-0.06509708,0.64093643,-0.7648287,,-0.09427806,0.23634118,-0.09139107,0.8041794,0.35041478,0.48010936,-0.59361976,0.4324652,0.6786674,0.030184487,-0.83077276,0.55579275,,-0.032607853,0.41600206,-0.3379244,-0.39927056,0.17780435,-0.8994268,-0.8216785,-0.5045955,0.2650052,-0.40672767,0.84484845,0.34756815,,0.9690253528590688,0.31771323044559635,0.17780821043000003,0.3644411217761033,0.14715751024737936,1.0703071977873675,-0.402969811153267,,-1.3675260919019276,-0.0006718777600575323,0.18816427124000001,0.09519923434197405,0.12775512728068683,-1.0472384736190856,0.8245608458458416,,-0.03261365873507904,-0.08567384965727165,0.08101381028,-0.06541713947960498,,-6.8694353e-06,3.5762787e-07,-2.6226044e-06,0.99999994,7.044524e-06,5.904585e-06,-7.0482492e-06,1.0,5.9604645e-07,-5.904585e-06,-5.9604645e-07,1.0,550,1.682,0,0,0.0,False,-0.2570778828531757,0.9982896943317217
1.6424328109715134,11:05:38.974243,11:04:34.965107,0,,0.12582956,0.0061889514,0.022452518,-0.7172132,-0.47768366,-0.507369,-0.45740113,-0.22658667,0.85990846,-0.52572733,0.848809,-0.055982083,,0.07127047,-0.01804258,0.027890861,0.48646992,-0.05067689,0.8722263,-0.8426567,0.23652565,0.4837202,-0.23081744,-0.9703028,0.07235941,,0.0773524,1.3283143,0.4541274,0.9978647,0.045898154,-0.046468295,0.0053210026,-0.7662205,-0.6425557,-0.06509708,0.64093643,-0.7648287,,-0.094449475,0.23678899,-0.09166597,0.7823195,0.4065278,0.47192302,-0.6175309,0.40715066,0.67296654,0.08143582,-0.8179019,0.56956536,,-0.032670274,0.41587192,-0.33802056,-0.39973554,0.17870471,-0.8990418,-0.8215816,-0.5047776,0.264959,-0.40646672,0.8445497,0.34859803,,0.9703459401805612,0.3174197665963758,0.17755154501,0.3357135995187235,0.20181211015355555,1.0474665811861885,-0.40525662807914675,,-1.3674488645731855,-0.0016912784994551676,0.18815778979000003,0.09477985445500502,0.12912149227834124,-1.0463106841525358,0.8204772441924846,,-0.03261365873507904,-0.08567384965727165,0.08101381028,-0.06541713947960498,,-6.8694353e-06,3.5762787e-07,-2.6226044e-06,0.99999994,7.044524e-06,5.904585e-06,-7.0482492e-06,1.0,5.9604645e-07,-5.904585e-06,-5.9604645e-07,1.0,558,1.706,0,0,0.0,False,-0.2568991496976123,0.9937513554584525
1.732246654923074,11:05:39.004885,11:04:34.965107,0,,0.12589666,0.0063180104,0.022660479,-0.70548826,-0.49803892,-0.50422555,-0.44705966,-0.23932561,0.86189383,-0.5499308,0.8334749,-0.05381173,,0.07130227,-0.018102005,0.027886987,0.48654032,-0.050639756,0.8721891,-0.8427007,0.23619649,0.4838043,-0.23050782,-0.97038484,0.07224496,,0.0773524,1.3283143,0.4541274,0.9978647,0.045898154,-0.046468295,0.0053210026,-0.7662205,-0.6425557,-0.06509708,0.64093643,-0.7648287,,-0.09454119,0.23701353,-0.09174063,0.7724422,0.42875844,0.46850747,-0.6259806,0.38954946,0.67557347,0.10715099,-0.815118,0.5692989,,-0.032697808,0.415823,-0.33805808,-0.39984792,0.17869839,-0.8989931,-0.82140625,-0.50507104,0.26494333,-0.40671042,0.84437555,0.3487356,,0.9709637588104991,0.31736570746625625,0.17749450825000002,0.3246000325140437,0.22886613710711273,1.0444369827070479,-0.4021530908225954,,-1.3674411418403112,-0.0020696924102921684,0.18815519721,0.09457016451152048,0.12925812877810666,-1.0461770658358103,0.8193338357295445,,-0.03261365873507904,-0.08567384965727165,0.08101381028,-0.06541713947960498,,-6.8694353e-06,3.5762787e-07,-2.6226044e-06,0.99999994,7.044524e-06,5.904585e-06,-7.0482492e-06,1.0,5.9604645e-07,-5.904585e-06,-5.9604645e-07,1.0,566,1.731,0,0,0.0,False,-0.25791197091247,0.99307543264754
1.7628890329506248,11:05:39.026507,11:04:34.965107,0,,0.12601261,0.00638441,0.022831574,-0.69491935,-0.5159299,-0.5009026,-0.43962163,-0.24642274,0.8637178,-0.5690517,0.8204219,-0.055570126,,0.07129732,-0.018142745,0.027873516,0.48647803,-0.05061436,0.87222534,-0.8427601,0.23610637,0.48374498,-0.23042235,-0.97040814,0.07220478,,0.07737728,1.3283172,0.45412585,0.99786496,0.045865,-0.0464961,0.0052778223,-0.7662225,-0.6425537,-0.06509708,0.64093643,-0.7648287,,-0.09469494,0.23716694,-0.09182095,0.76335466,0.44806746,0.46532267,-0.6333651,0.37748286,0.67554075,0.12703651,-0.8103963,0.57194364,,-0.03270925,0.41578794,-0.33807632,-0.399834,0.17868844,-0.89900124,-0.8213672,-0.50515765,0.26489922,-0.40680295,0.84432584,0.34874806,,0.9716047456390597,0.3171880846101491,0.17744784181,0.31432522528330203,0.2501814310705215,1.0379190621691012,-0.40296981115326713,,-1.3674411418403112,-0.0023245425951415773,0.18815519721,0.09457016451152048,0.1293947652778721,-1.0461251262592257,0.8186804594650076,,-0.03261365873507904,-0.08567384965727165,0.08101381028,-0.06541713947960498,,1.808256e-05,-1.66893e-06,-4.529953e-06,0.99999994,-2.6050955e-05,-2.1830201e-05,2.604723e-05,1.0,-2.2351742e-06,2.1830201e-05,2.1755695e-06,1.0,574,1.756,0,0,0.0,False,-0.25785239319394915,0.992640910840525
1.7844409859972075,11:05:39.054874,11:04:34.965107,0,,0.1260152,0.006451763,0.022929162,-0.6858747,-0.53074497,-0.49788103,-0.4355633,-0.24868336,0.8651249,-0.58297545,0.8102261,-0.060607433,,0.07130648,-0.018153712,0.027874053,0.48645064,-0.05056227,0.87224364,-0.84279287,0.23606098,0.4837099,-0.23036021,-0.9704219,0.07221846,,0.07737728,1.3283172,0.45412585,0.99786496,0.045865,-0.0464961,0.0052778223,-0.7662225,-0.6425537,-0.06509708,0.64093643,-0.7648287,,-0.09470954,0.23728023,-0.091852926,0.7554688,0.46384856,0.46272174,-0.63989353,0.37067288,0.6731552,0.14072365,-0.80464035,0.57684547,,-0.032717757,0.4157793,-0.33808386,-0.39981422,0.17864154,-0.89901936,-0.8213429,-0.5052065,0.26488158,-0.4068716,0.8443065,0.3487147,,0.9720217732142679,0.3169872935554192,0.17743358262000003,0.3048891778264984,0.2650748095449545,1.029205017752095,-0.4042765636823411,,-1.3674565873060598,-0.0024017699238838225,0.18815519721,0.09457016451152048,0.1293947652778721,-1.0461251262592257,0.8186804594650076,,-0.03261365873507904,-0.08567384965727165,0.08101381028,-0.06541713947960498,,1.808256e-05,-1.66893e-06,-4.529953e-06,0.99999994,-2.6050955e-05,-2.1830201e-05,2.604723e-05,1.0,-2.2351742e-06,2.1830201e-05,2.1755695e-06,1.0,582,1.781,0,0,0.0,False,-0.2570778828531757,0.992109828631951
1.812857209937647,11:05:39.077209,11:04:35.158651,0,,0.12600681,0.0065418705,0.023050308,-0.6722705,-0.5512333,-0.49415997,-0.42907786,-0.25382453,0.8668709,-0.60327804,0.79480493,-0.06588334,,0.07130899,-0.018152535,0.02787745,0.48645374,-0.05089875,0.8722223,-0.84279096,0.23587486,0.48380393,-0.23036036,-0.97044957,0.07184516,,0.07737728,1.3283172,0.45412585,0.99786496,0.045865,-0.0464961,0.0052778223,-0.7662225,-0.6425537,-0.06509708,0.64093643,-0.7648287,,-0.0947164,0.2374269,-0.09188896,0.7435313,0.48588413,0.4594321,-0.64901495,0.35887018,0.6708143,0.16106151,-0.7969497,0.5821773,,-0.0327208,0.41578212,-0.33808526,-0.39981738,0.1789883,-0.89894897,-0.8213421,-0.5053083,0.26468977,-0.40686995,0.84417224,0.34904164,,0.9726241463784574,0.3165393750487142,0.17743099004000001,0.2910496415565198,0.2873465590067213,1.0183949860622288,-0.40329649928553546,,-1.3674797555046825,-0.0024017699238838225,0.18815390092,0.09457016451152048,0.1293947652778721,-1.0457167325585228,0.8178637391343361,,-0.03261365873507904,-0.08567384965727165,0.08101381028,-0.06541713947960498,,1.808256e-05,-1.66893e-06,-4.529953e-06,0.99999994,-2.6050955e-05,-2.1830201e-05,2.604723e-05,1.0,-2.2351742e-06,2.1830201e-05,2.1755695e-06,1.0,594,1.818,0,0,0.0,False,-0.2585077480976805,0.99307543264754
1.8351421490078792,11:05:39.116119,11:04:35.158651,0,,0.12596053,0.006647654,0.023182616,-0.6515344,-0.5744838,-0.49545038,-0.42692176,-0.26219922,0.86544156,-0.62708896,0.77538365,-0.07442784,,0.07131086,-0.018145174,0.027879953,0.48646978,-0.05103046,0.8722058,-0.8427749,0.23583227,0.48385274,-0.23038551,-0.970453,0.07171804,,0.07737728,1.3283172,0.45412585,0.99786496,0.045865,-0.0464961,0.0052778223,-0.7662225,-0.6425537,-0.06509708,0.64093643,-0.7648287,,-0.09468726,0.23759626,-0.091925226,0.72501546,0.51118046,0.4615703,-0.66434765,0.34230778,0.66443026,0.18164465,-0.78836536,0.58777994,,-0.03272343,0.4157888,-0.33808166,-0.3998304,0.17912126,-0.8989167,-0.8213507,-0.5053217,0.26463756,-0.4068399,0.844136,0.34916434,,0.9733114696042634,0.31599106101464425,0.17743358262000003,0.2675643678862531,0.31071140046661155,1.0054684300406829,-0.40345984335166984,,-1.3675106464361793,-0.0023708789923869247,0.18815519721,0.09457016451152048,0.1293947652778721,-1.0455533750782418,0.8175370510020675,,-0.03261365873507904,-0.08567384965727165,0.08101381028,-0.06541713947960498,,1.808256e-05,-1.66893e-06,-4.529953e-06,0.99999994,-2.6050955e-05,-2.1830201e-05,2.604723e-05,1.0,-2.2351742e-06,2.1830201e-05,2.1755695e-06,1.0,602,1.842,0,0,0.0,False,-0.2591631030014119,0.9924960702381866
1.874117102008313,11:05:39.142318,11:04:35.158651,0,,0.12590764,0.0067107603,0.023257077,-0.6411865,-0.59184855,-0.4884619,-0.4206491,-0.26130104,0.8687784,-0.6418209,0.7625202,-0.08141795,,0.071313396,-0.018142,0.027879477,0.4864748,-0.051092427,0.8721993,-0.8427702,0.23580566,0.4838738,-0.23039183,-0.97045624,0.071654305,,0.07737728,1.3283172,0.45412585,0.99786496,0.045865,-0.0464961,0.0052778223,-0.7662225,-0.6425537,-0.06509708,0.64093643,-0.7648287,,-0.09464434,0.2376968,-0.09194453,0.71581036,0.5296056,0.45511913,-0.669806,0.33647618,0.66192424,0.19742204,-0.77865374,0.5955861,,-0.03272603,0.41579032,-0.33807892,-0.39983472,0.1791844,-0.8989022,-0.8213526,-0.5053337,0.2646087,-0.40683183,0.8441154,0.34922355,,0.9739447336999498,0.3154273015148259,0.17745043439000002,0.25770894054248045,0.32820087243658796,0.9916970108083845,-0.4041132196162067,,-1.3675260919019276,-0.0023631562595127,0.18815778979000003,0.09457016451152048,0.1293947652778721,-1.0454716963381012,0.8180270832004705,,-0.03261365873507904,-0.08567384965727165,0.08101381028,-0.06541713947960498,,1.808256e-05,-1.66893e-06,-4.529953e-06,0.99999994,-2.6050955e-05,-2.1830201e-05,2.604723e-05,1.0,-2.2351742e-06,2.1830201e-05,2.1755695e-06,1.0,627,1.919,0,0,0.0,False,-0.2596993024681016,0.9923512296358483
1.9003221199382097,11:05:39.215662,11:04:35.287012,0,,0.12587893,0.00705003,0.023456156,-0.60564333,-0.64031947,-0.4724267,-0.3964064,-0.27200353,0.8768557,-0.68996954,0.7183349,-0.08908969,,0.07131772,-0.018142864,0.027881503,0.48663425,-0.05096652,0.87211776,-0.84271276,0.23574504,0.48400348,-0.23026547,-0.9704776,0.07177144,,0.07737728,1.3283172,0.45412585,0.99786496,0.045865,-0.0464961,0.0052778223,-0.7662225,-0.6425537,-0.06509708,0.64093643,-0.7648287,,-0.09464918,0.23808628,-0.09188244,0.6838464,0.582386,0.43952313,-0.6849288,0.3048043,0.66179067,0.2514491,-0.75360525,0.6073323,,-0.032730546,0.4157905,-0.33808067,-0.4000139,0.17906655,-0.898846,-0.82124674,-0.5054091,0.26479313,-0.40686935,0.84409523,0.3492285,,0.9753888847474298,0.31437700984393135,0.17764098902000003,0.22583606913283272,0.3872278403352582,0.9619421929431566,-0.40394987555007256,,-1.3675492601005503,-0.002378601725261149,0.18815778979000003,0.09436047456803597,0.1293947652778721,-1.0455533750782418,0.8175370510020675,,-0.03261365873507904,-0.08567384965727165,0.08101381028,-0.06541713947960498,,1.808256e-05,-1.66893e-06,-4.529953e-06,0.99999994,-2.6050955e-05,-2.1830201e-05,2.604723e-05,1.0,-2.2351742e-06,2.1830201e-05,2.1755695e-06,1.0,635,1.944,0,0,0.0,False,-0.2585077480976805,0.9923995098366278
1.9736067519988865,11:05:39.243702,11:04:35.287012,0,,0.12590507,0.007258557,0.023523867,-0.5867047,-0.66145146,-0.4671825,-0.38354844,-0.28112108,0.879694,-0.7132097,0.69530773,-0.088763714,,0.071317375,-0.018143117,0.027879834,0.48668402,-0.051072054,0.8720838,-0.8426558,0.23581046,0.4840709,-0.23036897,-0.97045624,0.071728945,,0.07737728,1.3283172,0.45412585,0.99786496,0.045865,-0.0464961,0.0052778223,-0.7662225,-0.6425537,-0.06509708,0.64093643,-0.7648287,,-0.09469064,0.238287,-0.09180037,0.66659373,0.6059419,0.4341512,-0.69150466,0.2851927,0.6636915,0.2783417,-0.7426302,0.6091193,,-0.03272995,0.4157892,-0.3380797,-0.40005106,0.179164,-0.89880997,-0.8212862,-0.50533324,0.26481557,-0.40675315,0.84412,0.34930402,,0.975844525987009,0.31406810052896234,0.17779524753,0.2092705635975553,0.4166046877848279,0.9512192995511974,-0.40362318741780423,,-1.3675415373676763,-0.0023863244581353734,0.18815908608,0.09436047456803597,0.12953140177763753,-1.0455014355016572,0.8178637391343361,,-0.03261365873507904,-0.08567384965727165,0.08101381028,-0.06541713947960498,,1.808256e-05,-1.66893e-06,-4.529953e-06,0.99999994,-2.6050955e-05,-2.1830201e-05,2.604723e-05,1.0,-2.2351742e-06,2.1830201e-05,2.1755695e-06,1.0,643,1.969,0,0,0.0,False,-0.2588652144088064,0.992834031643643
2.0016724369488657,11:05:39.268953,11:04:35.287012,0,,0.12590124,0.0073906854,0.023525864,-0.5751964,-0.67399096,-0.46355718,-0.3784101,-0.28317076,0.8812604,-0.7252274,0.6823126,-0.092166275,,0.071319245,-0.018142104,0.027881265,0.48684824,-0.050960533,0.87199855,-0.842592,0.23575664,0.48420805,-0.23025495,-0.9704751,0.07183877,,0.07737728,1.3283172,0.45412585,0.99786496,0.045865,-0.0464961,0.0052778223,-0.7662225,-0.6425537,-0.06509708,0.64093643,-0.7648287,,-0.094692856,0.23839024,-0.0917178,0.6560329,0.61970943,0.4307912,-0.6962261,0.27656245,0.6624065,0.29135886,-0.73448855,0.612892,,-0.032732062,0.41579062,-0.33807987,-0.40023354,0.17905962,-0.89874953,-0.82118535,-0.5054001,0.2650006,-0.40677723,0.8441021,0.34931922,,0.9760993761718585,0.31390592313860366,0.17791580250000003,0.19815699659287553,0.4310881567599646,0.9412876127826095,-0.4057466602775499,,-1.3675569828334246,-0.0023863244581353734,0.18815908608,0.09415078462455143,0.12953140177763753,-1.0455831142417977,0.8177003950682018,,-0.03261365873507904,-0.08567384965727165,0.08101381028,-0.06541713947960498,,1.808256e-05,-1.66893e-06,-4.529953e-06,0.99999994,-2.6050955e-05,-2.1830201e-05,2.604723e-05,1.0,-2.2351742e-06,2.1830201e-05,2.1755695e-06,1.0,651,1.994,0,0,0.0,False,-0.2589247921273281,0.9928823118444223
2.0269532409729436,11:05:39.293723,11:04:35.287012,0,,0.12593824,0.0075806007,0.023549914,-0.5569222,-0.69497514,-0.45480454,-0.36808878,-0.28434956,0.8852434,-0.74454564,0.6604202,-0.097452015,,0.07131455,-0.018134221,0.027883768,0.486567,-0.050697956,0.8721709,-0.8423003,0.2377823,0.4837247,-0.23191065,-0.96999454,0.07299407,,0.07737728,1.3283172,0.45412585,0.99786496,0.045865,-0.0464961,0.0052778223,-0.7662225,-0.6425537,-0.06509708,0.64093643,-0.7648287,,-0.09474026,0.23854803,-0.09161355,0.6391898,0.642663,0.42239878,-0.7022097,0.263759,0.6613114,0.31358886,-0.71931595,0.61987627,,-0.032728236,0.4157986,-0.33807632,-0.39972994,0.17861713,-0.8990617,-0.82209736,-0.5036818,0.26544422,-0.40542808,0.84522223,0.34817734,,0.9762538308293429,0.3136742411523769,0.17808950536,0.1815914910575981,0.4556827267177439,0.9234377161010489,-0.40296981115326713,,-1.3675492601005503,-0.0024017699238838225,0.18815908608,0.09519923434197405,0.13089776677529194,-1.046697293278762,0.8177003950682018,,-0.03261365873507904,-0.08567384965727165,0.08101381028,-0.06541713947960498,,1.808256e-05,-1.66893e-06,-4.529953e-06,0.99999994,-2.6050955e-05,-2.1830201e-05,2.604723e-05,1.0,-2.2351742e-06,2.1830201e-05,2.1755695e-06,1.0,659,2.018,0,0,0.0,False,-0.2580311263495121,0.9924477900374071
2.051696153008379,11:05:39.318094,11:04:35.287012,0,,0.12599212,0.007705264,0.023597687,-0.54394454,-0.71032685,-0.44672137,-0.35741112,-0.28553766,0.8892274,-0.75919795,0.64335364,-0.09856215,,0.07131007,-0.01812452,0.027888358,0.48578233,-0.051237337,0.8725767,-0.8419614,0.24069828,0.48287183,-0.23476872,-0.9692467,0.07378705,,0.07737728,1.3283172,0.45412585,0.99786496,0.045865,-0.0464961,0.0052778223,-0.7662225,-0.6425537,-0.06509708,0.64093643,-0.7648287,,-0.094803765,0.23866907,-0.09156843,0.62716717,0.6595672,0.41428548,-0.7044752,0.2534773,0.6629207,0.33222878,-0.707616,0.6236214,,-0.03272502,0.41580927,-0.3380729,-0.39855602,0.17887804,-0.8995308,-0.8237442,-0.5010379,0.26534224,-0.40323514,0.8467371,0.34704143,,0.9762692762950914,0.31349661829626974,0.17819709743,0.1713166838268564,0.47617820168256,0.9112990399944572,-0.40591000434368385,,-1.3675415373676763,-0.0024481063211291695,0.18815908608,0.09729613377681931,0.133083950771539,-1.0474181561160774,0.8183537713327391,,-0.03261365873507904,-0.08567384965727165,0.08101381028,-0.06541713947960498,,1.808256e-05,-1.66893e-06,-4.529953e-06,0.99999994,-2.6050955e-05,-2.1830201e-05,2.604723e-05,1.0,-2.2351742e-06,2.1830201e-05,2.1755695e-06,1.0,671,2.055,0,0,0.0,False,-0.2589247921273281,0.9920615484311714
2.076093323994428,11:05:39.355435,11:04:35.425933,0,,0.12603039,0.0078963265,0.023644269,-0.5190848,-0.73519534,-0.4359342,-0.34391358,-0.28726578,0.89398074,-0.7824795,0.61397564,-0.10372844,,0.07131666,-0.018140063,0.027887046,0.4861524,-0.052640036,0.87228703,-0.8415357,0.2408309,0.48354724,-0.23552763,-0.9691386,0.07278198,,0.07737728,1.3283172,0.45412585,0.99786496,0.045865,-0.0464961,0.0052778223,-0.7662225,-0.6425537,-0.06509708,0.64093643,-0.7648287,,-0.094854586,0.23884189,-0.09148074,0.6040004,0.68710226,0.4038242,-0.7111362,0.23587757,0.66230434,0.35981774,-0.6872061,0.63109344,,-0.032730475,0.4157965,-0.33808264,-0.39883435,0.18024027,-0.8991355,-0.82402885,-0.5006688,0.26515505,-0.4023775,0.8466665,0.34820712,,0.9762615535622172,0.3130332543238163,0.17838894835000002,0.14867016993052776,0.5073313236290804,0.8882644414157492,-0.40574666027754946,,-1.3675260919019276,-0.0025948382457394352,0.18815908608,0.09729613377681931,0.13417704276966252,-1.0462675308421348,0.8173737069359336,,-0.03261365873507904,-0.08567384965727165,0.08101381028,-0.06541713947960498,,1.808256e-05,-1.66893e-06,-4.529953e-06,0.99999994,-2.6050955e-05,-2.1830201e-05,2.604723e-05,1.0,-2.2351742e-06,2.1830201e-05,2.1755695e-06,1.0,696,2.132,0,0,0.0,False,-0.2598780356236645,0.9922546692342893
2.1134198259096593,11:05:39.424598,11:04:35.425933,0,,0.12588347,0.008017145,0.02369684,-0.48655283,-0.76258636,-0.4262959,-0.3429434,-0.28207082,0.89600545,-0.80352724,0.58214945,-0.124281645,,0.071339056,-0.01818034,0.027882695,0.48605466,-0.052588936,0.87234455,-0.84164965,0.24061337,0.4834573,-0.23532224,-0.9691954,0.0726897,,0.07737728,1.3283172,0.45412585,0.99786496,0.045865,-0.0464961,0.0052778223,-0.7662225,-0.6425537,-0.06509708,0.64093643,-0.7648287,,-0.09471865,0.23898171,-0.091450445,0.5735472,0.71706814,0.39605162,-0.7267298,0.22228684,0.6499634,0.37803096,-0.66060716,0.6486068,,-0.032749712,0.415762,-0.3381068,-0.39876148,0.18021023,-0.8991738,-0.82395124,-0.5008684,0.2650193,-0.40260854,0.8465549,0.34821147,,0.9765550174114377,0.3121451400432805,0.17850302187000003,0.11134535999028242,0.5297397095906126,0.8495722201743957,-0.40607334840981824,,-1.3675183691690536,-0.002849688430588844,0.18815908608,0.09729613377681931,0.13417704276966252,-1.0461858521019942,0.817210362869799,,-0.03261365873507904,-0.08567384965727165,0.08101381028,-0.06541713947960498,,1.808256e-05,-1.66893e-06,-4.529953e-06,0.99999994,-2.6050955e-05,-2.1830201e-05,2.604723e-05,1.0,-2.2351742e-06,2.1830201e-05,2.1755695e-06,1.0,704,2.157,0,0,0.0,False,-0.2589843698458485,0.9915787464233767
2.182602471904829,11:05:39.456159,11:04:35.425933,0,,0.12577209,0.008065157,0.023768336,-0.47492653,-0.7728575,-0.4208752,-0.3433413,-0.27762496,0.8972408,-0.81028485,0.57062733,-0.13350245,,0.07134332,-0.018187582,0.0278821,0.48603708,-0.052779276,0.87234294,-0.8416702,0.24046317,0.48349616,-0.2352849,-0.96922225,0.07245125,,0.07737728,1.3283172,0.45412585,0.99786496,0.045865,-0.0464961,0.0052778223,-0.7662225,-0.6425537,-0.06509708,0.64093643,-0.7648287,,-0.0946166,0.23907422,-0.09147964,0.5626258,0.72815645,0.3914593,-0.7323916,0.21937184,0.6445763,0.38347724,-0.6493567,0.6567199,,-0.032753423,0.41575587,-0.33811122,-0.39874843,0.18041052,-0.89913946,-0.82393706,-0.50096524,0.26488018,-0.40265045,0.84645486,0.34840602,,0.9770261041167654,0.31189028985843104,0.17849654042000002,0.09729613377681931,0.5365715345788846,0.8323212651494742,-0.4055833162114155,,-1.3675183691690536,-0.002896024827834191,0.18815908608,0.09729613377681931,0.13417704276966252,-1.0459408158815724,0.8167203306713963,,-0.03261365873507904,-0.08567384965727165,0.08101381028,-0.06541713947960498,,1.808256e-05,-1.66893e-06,-4.529953e-06,0.99999994,-2.6050955e-05,-2.1830201e-05,2.604723e-05,1.0,-2.2351742e-06,2.1830201e-05,2.1755695e-06,1.0,712,2.182,0,0,0.0,False,-0.2589843698458485,0.9913856256202589
2.214158806949854,11:05:39.475371,11:04:35.425933,0,,0.12567027,0.008118667,0.023828894,-0.46554574,-0.7785419,-0.42087936,-0.34491968,-0.2783473,0.89641124,-0.8150444,0.56249005,-0.13895112,,0.07134414,-0.018188953,0.0278821,0.48608473,-0.052731737,0.8723192,-0.84161556,0.24060598,0.48352027,-0.23538205,-0.96918947,0.072575,,0.07737728,1.3283172,0.45412585,0.99786496,0.045865,-0.0464961,0.0052778223,-0.7662225,-0.6425537,-0.06509708,0.64093643,-0.7648287,,-0.09452328,0.23916313,-0.091496475,0.55380505,0.7345966,0.39200476,-0.73748845,0.21419767,0.64049214,0.38653684,-0.64380676,0.6603803,,-0.03275416,0.41575485,-0.33811218,-0.3987843,0.18035081,-0.89913553,-0.8239735,-0.50084895,0.26498693,-0.40254048,0.8465364,0.34833497,,0.9774817453563447,0.3117976170639404,0.17849005897,0.08534380699820142,0.5405339930720824,0.8230459191718763,-0.40721675687275805,,-1.3675183691690536,-0.00291147029358264,0.18815908608,0.09729613377681931,0.13431367926942794,-1.046052233785269,0.8167203306713963,,-0.03261365873507904,-0.08567384965727165,0.08101381028,-0.06541713947960498,,1.808256e-05,-1.66893e-06,-4.529953e-06,0.99999994,-2.6050955e-05,-2.1830201e-05,2.604723e-05,1.0,-2.2351742e-06,2.1830201e-05,2.1755695e-06,1.0,720,2.207,0,0,0.0,False,-0.25922268071993226,0.9910959444155825
2.233372104004957,11:05:39.499660,11:04:35.425933,0,,0.12553358,0.008217879,0.02396293,-0.45478922,-0.7869868,-0.41691527,-0.34151506,-0.2782355,0.8977485,-0.8225169,0.55066925,-0.14222947,,0.071344845,-0.01819016,0.02788204,0.48608178,-0.05287031,0.8723124,-0.841619,0.24052173,0.4835562,-0.23537588,-0.9692029,0.07241653,,0.07737728,1.3283172,0.45412585,0.99786496,0.045865,-0.0464961,0.0052778223,-0.7662225,-0.6425537,-0.06509708,0.64093643,-0.7648287,,-0.09440409,0.23933692,-0.091542184,0.54364747,0.7440871,0.38830632,-0.74059784,0.20759147,0.6390779,0.3949206,-0.6350119,0.6639259,,-0.03275478,0.41575384,-0.33811292,-0.39878213,0.18049434,-0.8991077,-0.8239711,-0.5008976,0.26490238,-0.40254745,0.8464771,0.3484711,,0.9783698596368805,0.311751280666695,0.17847191091000003,0.07339148021958353,0.5502351845554286,0.8109696322622617,-0.40607334840981824,,-1.3675183691690536,-0.0029191930264568645,0.18815908608,0.09729613377681931,0.13431367926942794,-1.0458888763049878,0.8167203306713964,,-0.03261365873507904,-0.08567384965727165,0.08101381028,-0.06541713947960498,,1.808256e-05,-1.66893e-06,-4.529953e-06,0.99999994,-2.6050955e-05,-2.1830201e-05,2.604723e-05,1.0,-2.2351742e-06,2.1830201e-05,2.1755695e-06,1.0,728,2.231,0,0,0.0,False,-0.2587460589717643,0.9910959444155825
2.2575608369661495,11:05:39.528437,11:04:35.425933,0,,0.1254482,0.0082789585,0.024033323,-0.45178556,-0.789607,-0.41522342,-0.33915997,-0.27846685,0.8985691,-0.8251425,0.5467878,-0.1419959,,0.071345426,-0.018189713,0.027880967,0.48608178,-0.052941583,0.87230814,-0.841619,0.24048221,0.48357588,-0.23537588,-0.9692088,0.072337344,,0.07737728,1.3283172,0.45412585,0.99786496,0.045865,-0.0464961,0.0052778223,-0.7662225,-0.6425537,-0.06509708,0.64093643,-0.7648287,,-0.09432839,0.23943634,-0.091561034,0.540799,0.7470632,0.3865656,-0.74072725,0.20520194,0.63969934,0.39857188,-0.63228846,0.6643431,,-0.032755226,0.4157533,-0.33811182,-0.39878213,0.18056779,-0.8990929,-0.8239711,-0.5009192,0.26486146,-0.40254745,0.8464486,0.34854025,,0.9790185691983153,0.3117821715981919,0.17846283688000003,0.07024613106731566,0.554334279548392,0.8074637376710878,-0.4057466602775497,,-1.3675183691690536,-0.0029191930264568645,0.18816038237000002,0.09729613377681931,0.13431367926942794,-1.045807197564847,0.816556986605262,,-0.03261365873507904,-0.08567384965727165,0.08101381028,-0.06541713947960498,,1.808256e-05,-1.66893e-06,-4.529953e-06,0.99999994,-2.6050955e-05,-2.1830201e-05,2.604723e-05,1.0,-2.2351742e-06,2.1830201e-05,2.1755695e-06,1.0,736,2.256,0,0,0.0,False,-0.259282258438454,0.9914821860218181
2.2864360159728676,11:05:39.551050,11:04:35.425933,0,,0.1253429,0.008376591,0.024163246,-0.44395545,-0.79712397,-0.40926376,-0.33376,-0.2767676,0.90111256,-0.83156943,0.53664976,-0.14317569,,0.071345426,-0.018189713,0.027880967,0.48608178,-0.052941583,0.87230814,-0.841619,0.24048221,0.48357588,-0.23537588,-0.9692088,0.072337344,,0.07737728,1.3283172,0.45412585,0.99786496,0.045865,-0.0464961,0.0052778223,-0.7662225,-0.6425537,-0.06509708,0.64093643,-0.7648287,,-0.094239995,0.2396034,-0.091603234,0.5333675,0.75540483,0.38063455,-0.7413689,0.20079447,0.6403544,0.40729746,-0.62373483,0.6671309,,-0.032755226,0.4157533,-0.33811182,-0.39878213,0.18056779,-0.8990929,-0.8239711,-0.5009192,0.26486146,-0.40254745,0.8464486,0.34854025,,0.9802233155266944,0.31183623072831146,0.17844468882000003,0.05745504451475967,0.5674513835258741,0.7924386456887819,-0.40656338060822117,,-1.3675183691690536,-0.0029191930264568645,0.18816038237000002,0.09729613377681931,0.13431367926942794,-1.045807197564847,0.8162302984729936,,-0.03261365873507904,-0.08567384965727165,0.08101381028,-0.06541713947960498,,1.808256e-05,-1.66893e-06,-4.529953e-06,0.99999994,-2.6050955e-05,-2.1830201e-05,2.604723e-05,1.0,-2.2351742e-06,2.1830201e-05,2.1755695e-06,1.0,761,2.333,0,0,0.0,False,-0.25856732581620134,0.99220638903351
2.309044638997875,11:05:39.628981,11:04:35.695526,0,,0.12487716,0.008713625,0.02449888,-0.41291708,-0.81795657,-0.40055764,-0.32909405,-0.27608907,0.90303475,-0.8492329,0.5046997,-0.15518287,,0.071349405,-0.018194154,0.027881503,0.48612168,-0.052946996,0.8722856,-0.84157395,0.2405735,0.48360884,-0.23545444,-0.96918577,0.072389126,,0.07737728,1.3283172,0.45412585,0.99786496,0.045865,-0.0464961,0.0052778223,-0.7662225,-0.6425537,-0.06509708,0.64093643,-0.7648287,,-0.09382265,0.24011816,-0.09166653,0.5039236,0.77905744,0.37300196,-0.7518412,0.18304284,0.6334273,0.42520094,-0.5996372,0.6779671,,-0.032758985,0.41575,-0.3381151,-0.39881256,0.1805647,-0.89908004,-0.8240001,-0.5008384,0.264924,-0.4024579,0.84649706,0.34852597,,0.9826405309163266,0.31192890352280217,0.17844209624000001,0.0249531032746584,0.585077491995616,0.7607498432021442,-0.40394987555007256,,-1.3675260919019276,-0.002957806690827987,0.18816038237000002,0.09729613377681931,0.1344503157691934,-1.045836936728403,0.8170470188036649,,-0.03261365873507904,-0.08567384965727165,0.08101381028,-0.06541713947960498,,1.808256e-05,-1.66893e-06,-4.529953e-06,0.99999994,-2.6050955e-05,-2.1830201e-05,2.604723e-05,1.0,-2.2351742e-06,2.1830201e-05,2.1755695e-06,1.0,769,2.357,0,0,0.0,False,-0.25815028178655464,0.9924477900374071
2.386958932969719,11:05:39.651167,11:04:35.695526,0,,0.12478402,0.008781962,0.02454558,-0.40760666,-0.822191,-0.39731422,-0.32984835,-0.27315468,0.9036517,-0.85150266,0.49938798,-0.1598587,,0.071351245,-0.018194973,0.027882338,0.48617038,-0.053106636,0.87224877,-0.84151864,0.24060166,0.48369116,-0.23555174,-0.9691701,0.072283104,,0.07737728,1.3283172,0.45412585,0.99786496,0.045865,-0.0464961,0.0052778223,-0.7662225,-0.6425537,-0.06509708,0.64093643,-0.7648287,,-0.09373735,0.24020891,-0.091662884,0.49888477,0.7836323,0.37018165,-0.7543508,0.18233284,0.6306423,0.42669535,-0.5938646,0.68209666,,-0.03276089,0.41574976,-0.33811617,-0.39884952,0.18071851,-0.8990328,-0.82403624,-0.5007849,0.26491287,-0.40234733,0.8464959,0.34865642,,0.9831733994846481,0.31201385358441863,0.17844728140000002,0.017823645196184568,0.5868537664925667,0.7512968939203157,-0.40591000434368407,,-1.367533814634802,-0.0029732521565764363,0.18816038237000002,0.09729613377681931,0.13458695226895884,-1.0457033184116775,0.8172103628697991,,-0.03261365873507904,-0.08567384965727165,0.08101381028,-0.06541713947960498,,1.808256e-05,-1.66893e-06,-4.529953e-06,0.99999994,-2.6050955e-05,-2.1830201e-05,2.604723e-05,1.0,-2.2351742e-06,2.1830201e-05,2.1755695e-06,1.0,777,2.383,0,0,0.0,False,-0.25826943722359585,0.9916753068249358
2.409167564008385,11:05:39.679114,11:04:35.695526,0,,0.12469774,0.008892886,0.024622083,-0.3993217,-0.8274022,-0.39490208,-0.3288692,-0.27279705,0.90411645,-0.8557962,0.49090457,-0.16317344,,0.07135318,-0.018198669,0.02788186,0.48632395,-0.053068817,0.8721654,-0.841467,0.2404845,0.48383915,-0.2354191,-0.9692012,0.07229769,,0.07737728,1.3283172,0.45412585,0.99786496,0.045865,-0.0464961,0.0052778223,-0.7662225,-0.6425537,-0.06509708,0.64093643,-0.7648287,,-0.0936635,0.24035063,-0.091654696,0.49099812,0.78958607,0.36806884,-0.75708437,0.17772605,0.6286785,0.43098038,-0.58733916,0.68504643,,-0.03276252,0.41574657,-0.33811834,-0.39902347,0.18069223,-0.8989608,-0.8239293,-0.5008941,0.26503876,-0.40239376,0.84643686,0.34874612,,0.9837294362515923,0.3122532583035196,0.17846542946000002,0.0077585279089274015,0.5916360439843571,0.741598076740961,-0.4044399077484755,,-1.367533814634802,-0.0029964203551991098,0.18816038237000002,0.09708644383333477,0.13458695226895884,-1.0457033184116777,0.8175370510020677,,-0.03261365873507904,-0.08567384965727165,0.08101381028,-0.06541713947960498,,1.808256e-05,-1.66893e-06,-4.529953e-06,0.99999994,-2.6050955e-05,-2.1830201e-05,2.604723e-05,1.0,-2.2351742e-06,2.1830201e-05,2.1755695e-06,1.0,785,2.408,0,0,0.0,False,-0.25791197091247,0.9914821860218181
2.4371114959940314,11:05:39.703339,11:04:35.695526,0,,0.12463437,0.00904835,0.024709582,-0.38874635,-0.8326131,-0.3945016,-0.32561713,-0.2763909,0.9042021,-0.8618872,0.4799618,-0.16366723,,0.07135639,-0.018204942,0.027879655,0.48635876,-0.053225983,0.87213635,-0.8414267,0.24048385,0.48390964,-0.2354913,-0.96919274,0.07217561,,0.07737728,1.3283172,0.45412585,0.99786496,0.045865,-0.0464961,0.0052778223,-0.7662225,-0.6425537,-0.06509708,0.64093643,-0.7648287,,-0.09361542,0.2405314,-0.09162557,0.48089945,0.79594177,0.36771244,-0.7594204,0.16852526,0.6283947,0.43819678,-0.581443,0.6854981,,-0.032765016,0.41574016,-0.33812106,-0.39904952,0.18084626,-0.8989183,-0.8239565,-0.50086623,0.26500702,-0.40231228,0.8464205,0.34887987,,0.9842236911555426,0.31264711768010506,0.17851468848000002,-0.0041937988696904875,0.5995609609707527,0.7339923359646007,-0.40411321961620694,,-1.3675260919019276,-0.0030427567524444568,0.18816167866000003,0.09708644383333477,0.13472358876872428,-1.0455697000949526,0.8163936425391277,,-0.03261365873507904,-0.08567384965727165,0.08101381028,-0.06541713947960498,,1.808256e-05,-1.66893e-06,-4.529953e-06,0.99999994,-2.6050955e-05,-2.1830201e-05,2.604723e-05,1.0,-2.2351742e-06,2.1830201e-05,2.1755695e-06,1.0,793,2.432,0,0,0.0,False,-0.2587460589717643,0.9909511038132439
2.4613163199974224,11:05:39.730737,11:04:35.814014,0,,0.124595225,0.009217076,0.024773419,-0.3813026,-0.83761305,-0.39116812,-0.32165715,-0.2764867,0.9055891,-0.86668617,0.4711256,-0.16399926,,0.07136673,-0.018215075,0.027877986,0.4863316,-0.053173773,0.8721548,-0.8414598,0.2404387,0.4838746,-0.2354292,-0.9692068,0.072189316,,0.07737728,1.3283172,0.45412585,0.99786496,0.045865,-0.0464961,0.0052778223,-0.7662225,-0.6425537,-0.06509708,0.64093643,-0.7648287,,-0.09358984,0.24070516,-0.091568716,0.47376496,0.80173814,0.36436614,-0.76010346,0.16332704,0.6289412,0.4447353,-0.57492626,0.6867826,,-0.03277442,0.41573042,-0.33812642,-0.39902997,0.18079928,-0.89893645,-0.8239324,-0.50091517,0.2649894,-0.40238103,0.8464016,0.34884655,,0.9847025005937445,0.31314909531692964,0.17858728072000002,-0.012162016722102414,0.6065294224587902,0.7258596606718662,-0.4044399077484755,,-1.3675415373676763,-0.003119984081186702,0.18816427124000001,0.09708644383333477,0.13472358876872428,-1.0455697000949524,0.8160669544068591,,-0.03261365873507904,-0.08567384965727165,0.08101381028,-0.06541713947960498,,1.808256e-05,-1.66893e-06,-4.529953e-06,0.99999994,-2.6050955e-05,-2.1830201e-05,2.604723e-05,1.0,-2.2351742e-06,2.1830201e-05,2.1755695e-06,1.0,826,2.534,0,0,0.0,False,-0.2587460589717643,0.9915304662225977
2.488736226921901,11:05:39.828456,11:04:35.814014,0,,0.124350555,0.00978943,0.025102377,-0.34679627,-0.85354567,-0.38883412,-0.31648743,-0.2837585,0.90516114,-0.8829315,0.43696767,-0.17173016,,0.071394384,-0.01825066,0.027872384,0.4867786,-0.052978408,0.87191725,-0.8413236,0.24008578,0.4842864,-0.23499173,-0.969305,0.07229662,,0.07737728,1.3283172,0.45412585,0.99786496,0.045865,-0.0464961,0.0052778223,-0.7662225,-0.6425537,-0.06509708,0.64093643,-0.7648287,,-0.09340217,0.24137607,-0.0914672,0.4407178,0.82107174,0.36277953,-0.7696138,0.1376101,0.62350464,0.46201995,-0.5539897,0.69255537,,-0.032798927,0.41569757,-0.33814603,-0.39954296,0.18064032,-0.89874053,-0.8235952,-0.5012591,0.26538703,-0.40256223,0.8462319,0.34904903,,0.9865945701479296,0.3151261149327311,0.17871431714000002,-0.05410000541900729,0.6247020769275937,0.6951954038929732,-0.4047665958807438,,-1.367564705566299,-0.003374834266036111,0.18816945640000002,0.09645737400288121,0.13486022526848973,-1.0455994392585084,0.8162302984729933,,-0.03261365873507904,-0.08567384965727165,0.08101381028,-0.06541713947960498,,1.808256e-05,-1.66893e-06,-4.529953e-06,0.99999994,-2.6050955e-05,-2.1830201e-05,2.604723e-05,1.0,-2.2351742e-06,2.1830201e-05,2.1755695e-06,1.0,834,2.558,0,0,0.0,False,-0.25815028178655464,0.9908062632109056
