AlexandreBanks6/ExpertPlaybackApp/resources/Motions/P_11/PC1/Data_PC1_2.csv
Task Time,PC1 Time,PC2 Time,Gaze Calib,s_T_psm1,Tx,Ty,Tz,R00,R01,R02,R10,R11,R12,R20,R21,R22,s_T_psm3,Tx,Ty,Tz,R00,R01,R02,R10,R11,R12,R20,R21,R22,cart_T_ecm,Tx,Ty,Tz,R00,R01,R02,R10,R11,R12,R20,R21,R22,ecm_T_psm1,Tx,Ty,Tz,R00,R01,R02,R10,R11,R12,R20,R21,R22,ecm_T_psm3,Tx,Ty,Tz,R00,R01,R02,R10,R11,R12,R20,R21,R22,psm1_joints,q1,q2,q3,q4,q5,q6,jaw,psm3_joints,q1,q2,q3,q4,q5,q6,jaw,ecm_joints,q1,q2,q3,q4,ecmi_T_ecm,Tx,Ty,Tz,R00,R01,R02,R10,R11,R12,R20,R21,R22,Sample #,Task Duration (s),Collisions (binary),Collisions (increments),Cumulative Collision Time (s),Clutch Press,MTMR Angle,MTML Angle
""
lci_T_si,,,,,-0.05741252,0.03306167,0.23964758,0.99439466,0.06102388,0.08634416,0.10237931,-0.7597365,-0.64212066,0.026414111,0.6473612,-0.7617255
rci_T_si,,,,,-0.067677386,0.037969604,0.25228155,0.9957965,0.04637849,0.07898321,0.0866763,-0.7558923,-0.64893305,0.029606264,0.6530512,-0.7567348
ecm_T_lc,,,,,-4.4061628e-05,-0.00034663224,-0.01840835,-0.99912,0.030754527,0.028518902,-0.031987965,-0.99852574,-0.043852776,0.027128186,-0.04472645,0.9986309
ecm_T_rc,,,,,-0.0043358393,0.01870579,-0.007592615,-0.99555075,-0.052743673,-0.078081585,0.04863213,-0.9973746,0.053654674,-0.08070653,0.04961868,0.9955021
cart_T_ecmi,,,,,0.07732047,1.3283298,0.45411256,0.9978804,0.045562778,-0.046462853,0.0050814142,-0.7663648,-0.64238554,-0.06487636,0.64078784,-0.7649719
ecmac_T_ecmrep_psm1,,,,,0.011581071,-0.24422047,-0.31388107,0.99918455,0.03945311,0.008580942,-0.0387743,0.99689597,-0.06852016,-0.011257639,0.068131566,0.99761283
ecmac_T_ecmrep_psm3,,,,,0.00032986852,-0.4435548,-0.5434704,0.9997429,-0.0075566242,-0.021376874,0.008153117,0.9995759,0.027955532,0.021156559,-0.028122634,0.9993806
""
0,11:00:38.624286,10:59:34.684217,0,,0.12204419,0.0030428916,0.029444665,-0.5874913,-0.62464905,-0.51445836,-0.48884952,-0.23268062,0.840765,-0.6448877,0.74543494,-0.16866153,,0.04964514,-0.023904689,0.031999648,0.32342958,-0.7095041,0.62609667,-0.27716738,0.5616054,0.77960086,-0.90474933,-0.42567968,-0.015011758,,0.07737853,1.3283302,0.454117,0.99788064,0.045524877,-0.046494626,0.0050320607,-0.766367,-0.6423832,-0.06487636,0.64078784,-0.7649719,,-0.09100621,0.2384855,-0.096532755,0.6674541,0.56030214,0.49047577,-0.7261049,0.34362304,0.59556264,0.16515625,-0.7536476,0.6361908,,-0.011298317,0.41671997,-0.3438736,-0.16894746,0.73209274,-0.65992194,-0.86798424,0.20670642,0.45152608,0.46696907,0.64908606,0.6005224,,0.9932129522211399,0.3038895386007345,0.17299897453000002,0.16670350507019685,0.3148104954595748,0.9153830709005131,-0.39953958576444704,,-1.2460938401876216,0.007606891881111142,0.1805083825,0.5305155570158466,1.0003158147827895,-0.5536650745905775,0.8758508826120053,,-0.03261365873507904,-0.08598146393793565,0.08100309464,-0.06541713947960498,,5.7648867e-05,5.185604e-06,-6.3180923e-06,1.0,-3.783405e-05,-3.169477e-05,3.783405e-05,1.0,-3.2484531e-06,3.1691045e-05,3.1888485e-06,1.0,36,0.107,0,0,0.0,False,-0.25427773008268684,1.0500943497680806
0.12346892699133605,11:00:38.652627,10:59:34.684217,0,,0.12228039,0.0031748116,0.029617235,-0.58762527,-0.6274058,-0.5109388,-0.4861995,-0.23095612,0.8427747,-0.64676636,0.74365395,-0.16932869,,0.049650572,-0.023913495,0.032004476,0.32334387,-0.7093982,0.626261,-0.27720267,0.561771,0.7794691,-0.9047692,-0.42563784,-0.015001982,,0.07737853,1.3283302,0.454117,0.99788064,0.045524877,-0.046494626,0.0050320607,-0.766367,-0.6423832,-0.06487636,0.64078784,-0.7649719,,-0.09126341,0.2386732,-0.09657256,0.6676494,0.56313723,0.48695046,-0.72520876,0.34410992,0.5963729,0.16827531,-0.75130874,0.6381368,,-0.011303906,0.41671628,-0.34388286,-0.1688579,0.7319725,-0.6600782,-0.8680105,0.20683731,0.45141566,0.46695265,0.64917994,0.6004337,,0.9925410744610824,0.3055653716344412,0.172925086,0.167961644731104,0.3161768604572292,0.9128803532811594,-0.40133637049192405,,-1.2461015629204957,0.007552832750991571,0.18050319734,0.5307252469593312,1.0003158147827895,-0.5536650745905775,0.8755241944797367,,-0.03261365873507904,-0.08598146393793565,0.08100309464,-0.06541713947960498,,5.7648867e-05,5.185604e-06,-6.3180923e-06,1.0,-3.783405e-05,-3.169477e-05,3.783405e-05,1.0,-3.2484531e-06,3.1691045e-05,3.1888485e-06,1.0,43,0.129,0,0,0.0,False,-0.2544564632382502,1.0498529487641832
0.1517971489811316,11:00:38.671771,10:59:34.756506,0,,0.1224044,0.003257215,0.029706836,-0.5892031,-0.6284882,-0.5077817,-0.48420507,-0.22845161,0.8446036,-0.64682704,0.7435137,-0.16971269,,0.04966232,-0.023934804,0.03202015,0.32286775,-0.7088526,0.62712383,-0.27713197,0.56276083,0.77877986,-0.9049609,-0.42523912,-0.014748514,,0.07737853,1.3283302,0.454117,0.99788064,0.045524877,-0.046494626,0.0050320607,-0.766367,-0.6423832,-0.06487636,0.64078784,-0.7649719,,-0.09139895,0.23878132,-0.096584454,0.669136,0.56411606,0.4837666,-0.72355044,0.34606743,0.5972538,0.16950461,-0.74967355,0.6397326,,-0.0113166515,0.41671035,-0.3439082,-0.16836333,0.73131853,-0.6609289,-0.8680239,0.20773518,0.4509774,0.4671063,0.6496301,0.599827,,0.992247610611862,0.30653843597659347,0.17289267875000003,0.1704779240529183,0.3163134969569946,0.9110536818345112,-0.3998662738967155,,-1.2461015629204957,0.0074369917578782025,0.18048764186000002,0.5317736966767538,1.000452451282555,-0.5538581712344144,0.8756875385458711,,-0.03261365873507904,-0.08598146393793565,0.08100309464,-0.06541713947960498,,5.7648867e-05,5.185604e-06,-6.3180923e-06,1.0,-3.783405e-05,-3.169477e-05,3.783405e-05,1.0,-3.2484531e-06,3.1691045e-05,3.1888485e-06,1.0,51,0.153,0,0,0.0,False,-0.2538011083345184,1.0505771517758753
0.17096329294145107,11:00:38.698879,10:59:34.756506,0,,0.122491434,0.0033507943,0.029784739,-0.58886737,-0.6281131,-0.50863457,-0.48444083,-0.22944497,0.84419906,-0.6469562,0.74352473,-0.16917092,,0.04966121,-0.02394431,0.03202802,0.3229854,-0.70891196,0.6269961,-0.27717948,0.5625961,0.778882,-0.90490425,-0.42535803,-0.014785647,,0.07737853,1.3283302,0.454117,0.99788064,0.045524877,-0.046494626,0.0050320607,-0.766367,-0.6423832,-0.06487636,0.64078784,-0.7649719,,-0.09149707,0.23889428,-0.09658191,0.66882485,0.56378603,0.48458087,-0.72384566,0.3452683,0.5973586,0.169472,-0.75029004,0.63901806,,-0.011316175,0.41670915,-0.3439205,-0.1684852,0.7314042,-0.660803,-0.8680355,0.2075449,0.45104265,0.46704078,0.6495945,0.5999166,,0.9921086014201259,0.3074728866543746,0.17287323440000002,0.17005854416594926,0.3153570414586365,0.9119152859005266,-0.3997029298305811,,-1.2461015629204957,0.0073906553606328555,0.18047727154,0.5315640067332692,1.000452451282555,-0.5538581712344144,0.8756875385458711,,-0.03261365873507904,-0.08598146393793565,0.08100309464,-0.06541713947960498,,5.7648867e-05,5.185604e-06,-6.3180923e-06,1.0,-3.783405e-05,-3.169477e-05,3.783405e-05,1.0,-3.2484531e-06,3.1691045e-05,3.1888485e-06,1.0,59,0.177,0,0,0.0,False,-0.25278828711966117,1.0507219923782136
0.1980622879927978,11:00:38.720466,10:59:34.756506,0,,0.12255372,0.0034433454,0.02985394,-0.58687484,-0.6287287,-0.5101746,-0.48523977,-0.23129508,0.8432348,-0.6481669,0.7424303,-0.16934288,,0.049672544,-0.02397319,0.032056212,0.3222582,-0.7079333,0.62847435,-0.2773676,0.5641447,0.777694,-0.90510595,-0.42493677,-0.0145576,,0.07737853,1.3283302,0.454117,0.99788064,0.045524877,-0.046494626,0.0050320607,-0.766367,-0.6423832,-0.06487636,0.64078784,-0.7649719,,-0.09156972,0.23900339,-0.096574426,0.6669944,0.5645847,0.4861714,-0.72540903,0.34320843,0.59664875,0.1700006,-0.7506345,0.6384729,,-0.011329933,0.41670653,-0.34396,-0.16772665,0.7302878,-0.6622292,-0.8682028,0.20879163,0.45014432,0.4670028,0.65045047,0.599018,,0.9920622650228805,0.3082606054075455,0.17286286408,0.16754226484413495,0.31522040495887116,0.9121083825443637,-0.3998662738967157,,-1.2461015629204957,0.007259368901771039,0.18044616058000001,0.5330318363376609,1.0003158147827895,-0.5544001832518426,0.8761775707442739,,-0.03261365873507904,-0.08598146393793565,0.08100309464,-0.06541713947960498,,5.7648867e-05,5.185604e-06,-6.3180923e-06,1.0,-3.783405e-05,-3.169477e-05,3.783405e-05,1.0,-3.2484531e-06,3.1691045e-05,3.1888485e-06,1.0,67,0.202,0,0,0.0,False,-0.2531457534307875,1.0502391903704191
0.21965725696645677,11:00:38.749356,10:59:34.828027,0,,0.12266965,0.0036207289,0.029987812,-0.58203906,-0.6364628,-0.5061083,-0.4814527,-0.23185019,0.8452506,-0.65531206,0.73563623,-0.17148086,,0.04967545,-0.024057724,0.03212458,0.32229298,-0.7076004,0.6288312,-0.27874953,0.56388646,0.77738714,-0.90466887,-0.42583296,-0.015506715,,0.07737853,1.3283302,0.454117,0.99788064,0.045524877,-0.046494626,0.0050320607,-0.766367,-0.6423832,-0.06487636,0.64078784,-0.7649719,,-0.09170566,0.23921356,-0.0965612,0.66270006,0.5729492,0.48224258,-0.7273863,0.3392691,0.59649444,0.17815098,-0.74607354,0.64158905,,-0.011338196,0.4166934,-0.34406763,-0.16774797,0.7301072,-0.6624229,-0.8688854,0.20794165,0.44921976,0.46572387,0.65092534,0.5994977,,0.9920699877557547,0.30937267894143383,0.17286286408,0.16313877603095994,0.3225987759462049,0.9059284582644758,-0.3995395857644469,,-1.24610928565337,0.006873232258059814,0.18035153141000002,0.5328221463941764,0.999222722784666,-0.5544889849039578,0.8756875385458711,,-0.03261365873507904,-0.08598146393793565,0.08100309464,-0.06541713947960498,,5.7648867e-05,5.185604e-06,-6.3180923e-06,1.0,-3.783405e-05,-3.169477e-05,3.783405e-05,1.0,-3.2484531e-06,3.1691045e-05,3.1888485e-06,1.0,74,0.223,0,0,0.0,False,-0.2536223751789555,1.0510116735828905
0.24852063693106174,11:00:38.769109,10:59:34.828027,0,,0.122745425,0.003743872,0.030072331,-0.5789112,-0.64025897,-0.5049062,-0.47860003,-0.23451698,0.8461346,-0.6601544,0.731485,-0.17066342,,0.049676254,-0.024084873,0.0321458,0.32232106,-0.70749485,0.6289356,-0.27886513,0.5639461,0.7773024,-0.90462327,-0.42592928,-0.015524119,,0.07737853,1.3283302,0.454117,0.99788064,0.045524877,-0.046494626,0.0050320607,-0.766367,-0.6423832,-0.06487636,0.64078784,-0.7649719,,-0.09179452,0.23935467,-0.09654573,0.65992564,0.5772387,0.48092997,-0.7284903,0.3349688,0.5975766,0.18384777,-0.74470896,0.6415673,,-0.011340627,0.4166887,-0.34410176,-0.16777597,0.73001397,-0.6625185,-0.8689399,0.20790213,0.44913265,0.46561214,0.65104246,0.5994573,,0.9920931559543774,0.31010633856448516,0.17287064182,0.16041280676566114,0.32779096293729165,0.9045533338289313,-0.3990495535660441,,-1.2461015629204957,0.006726500333449548,0.18032171674000003,0.5328221463941764,0.999222722784666,-0.5545706636440983,0.8758508826120054,,-0.03261365873507904,-0.08598146393793565,0.08100309464,-0.06541713947960498,,5.7648867e-05,5.185604e-06,-6.3180923e-06,1.0,-3.783405e-05,-3.169477e-05,3.783405e-05,1.0,-3.2484531e-06,3.1691045e-05,3.1888485e-06,1.0,82,0.247,0,0,0.0,False,-0.2544564632382502,1.05014262996886
0.26830180501565337,11:00:38.790393,10:59:34.828027,0,,0.122822225,0.00386855,0.030144632,-0.5758478,-0.6434611,-0.50433815,-0.47676745,-0.23682788,0.84652543,-0.6641477,0.72792184,-0.17040446,,0.04957296,-0.024216913,0.032210946,0.3223926,-0.70729274,0.62912625,-0.27958772,0.5638138,0.7771388,-0.9043747,-0.42643988,-0.015981048,,0.07737853,1.3283302,0.454117,0.99788064,0.045524877,-0.046494626,0.0050320607,-0.766367,-0.6423832,-0.06487636,0.64078784,-0.7649719,,-0.09188332,0.23948924,-0.09651974,0.6571794,0.5808656,0.4803231,-0.7298497,0.3312554,0.5979877,0.18824087,-0.74354887,0.6416389,,-0.0112408865,0.4166551,-0.34424755,-0.16784278,0.7298979,-0.6626295,-0.86929065,0.20742656,0.4486736,0.46493286,0.6513243,0.5996784,,0.9920777104886289,0.3108863345847819,0.17288619730000002,0.15747714755687778,0.331616784930724,0.9032305648085239,-0.3997029298305813,,-1.2461170083862443,0.006232245429499179,0.18023745789,0.5328221463941764,0.9989494497851351,-0.5543478278367057,0.8761775707442738,,-0.03261365873507904,-0.08598146393793565,0.08100309464,-0.06541713947960498,,5.7648867e-05,5.185604e-06,-6.3180923e-06,1.0,-3.783405e-05,-3.169477e-05,3.783405e-05,1.0,-3.2484531e-06,3.1691045e-05,3.1888485e-06,1.0,90,0.271,0,0,0.0,False,-0.25451604095677105,1.0505771517758753
0.2895837969845161,11:00:38.819113,10:59:34.897715,0,,0.1231064,0.0040339977,0.030268446,-0.5691334,-0.6489957,-0.504868,-0.4762985,-0.24028935,0.8458136,-0.67024386,0.7218487,-0.17235899,,0.049687758,-0.0243354,0.032278776,0.32262245,-0.7075711,0.6286951,-0.28066587,0.56282645,0.7774657,-0.9039587,-0.42728132,-0.017010748,,0.07728274,1.328329,0.4541155,0.99788016,0.045598526,-0.04643289,0.005127961,-0.76636267,-0.6423877,-0.06487636,0.64078784,-0.7649719,,-0.09210125,0.23966637,-0.09650892,0.6511057,0.5871244,0.4809847,-0.7338773,0.32535145,0.5962974,0.19361167,-0.7412364,0.64271545,,-0.011271549,0.41660717,-0.34437567,-0.16803531,0.7302986,-0.662139,-0.869816,0.20623574,0.4482042,0.46387962,0.6512532,0.6005705,,0.9919695922283899,0.31227642650214227,0.17291082681000003,0.15013799953491944,0.33598915292321807,0.8997468706303791,-0.3998662738967157,,-1.2461247311191184,0.005560367669441647,0.18014931017000002,0.5326124564506919,0.9984029037860733,-0.5534937625212171,0.875687538545871,,-0.03261365873507904,-0.08598146393793565,0.08100309464,-0.06541713947960498,,-3.7845224e-05,6.556511e-07,0.0,1.0,3.5684556e-05,2.9888004e-05,-3.5684556e-05,1.0,3.0100346e-06,-2.989173e-05,-3.0398369e-06,1.0,105,0.317,0,0,0.0,False,-0.25493308498641865,1.0501909101696396
0.3182952409842983,11:00:38.859867,10:59:34.897715,0,,0.12338242,0.0043738037,0.030419037,-0.5657544,-0.65373063,-0.50255156,-0.47329327,-0.24161947,0.84712064,-0.67521507,0.7171166,-0.17270899,,0.049755067,-0.024463117,0.032331645,0.32223406,-0.70773464,0.6287102,-0.2813911,0.56250846,0.7774337,-0.9038718,-0.4274293,-0.01789099,,0.07728274,1.328329,0.4541155,0.99788016,0.045598526,-0.04643289,0.005127961,-0.76636267,-0.6423877,-0.06487636,0.64078784,-0.7649719,,-0.0924052,0.23999783,-0.09639901,0.64808685,0.59234387,0.47865662,-0.73496723,0.3218146,0.59687394,0.19951594,-0.7386231,0.64391714,,-0.0113386335,0.41654342,-0.34449843,-0.1676238,0.73050004,-0.6620211,-0.8702137,0.20593186,0.4475715,0.46328223,0.65112346,0.60117203,,0.9915139509888106,0.3148326510835106,0.17297564131,0.14741203026962063,0.3395417019171195,0.8967683263941316,-0.40002961796284986,,-1.2462096811807348,0.004764926183396523,0.18008449567,0.533870596111599,0.998266267286308,-0.55183044855485,0.875034162281334,,-0.03261365873507904,-0.08598146393793565,0.08100309464,-0.06541713947960498,,-3.7845224e-05,6.556511e-07,0.0,1.0,3.5684556e-05,2.9888004e-05,-3.5684556e-05,1.0,3.0100346e-06,-2.989173e-05,-3.0398369e-06,1.0,113,0.341,0,0,0.0,False,-0.254218152364166,1.0504805913743163
0.3590171879623085,11:00:38.883235,10:59:34.897715,0,,0.123673946,0.0047106445,0.030574873,-0.5596975,-0.6586075,-0.5029659,-0.47244322,-0.24504848,0.84661007,-0.6808349,0.7114685,-0.17400163,,0.049800053,-0.024597108,0.032396555,0.3228111,-0.7082107,0.6278776,-0.2820713,0.56125885,0.77809006,-0.90345377,-0.42828247,-0.018585533,,0.07728274,1.328329,0.4541155,0.99788016,0.045598526,-0.04643289,0.005127961,-0.76636267,-0.6423877,-0.06487636,0.64078784,-0.7649719,,-0.092724934,0.2403288,-0.09629433,0.6425625,0.59788513,0.4792148,-0.73838687,0.3160915,0.5957105,0.20469074,-0.73662716,0.64457905,,-0.011385126,0.4164868,-0.3446356,-0.16821715,0.7311678,-0.6611328,-0.8704906,0.2045261,0.44767758,0.46254635,0.6508169,0.6020699,,0.9908961323588726,0.3174583802607469,0.17303397436,0.1411213319650849,0.34241106841219376,0.8942651929362255,-0.4003563060951185,,-1.246279185776603,0.003961761964477174,0.18000023682000002,0.5332415262811455,0.998266267286308,-0.5508503036731633,0.876177570744274,,-0.03261365873507904,-0.08598146393793565,0.08100309464,-0.06541713947960498,,-3.7845224e-05,6.556511e-07,0.0,1.0,3.5684556e-05,2.9888004e-05,-3.5684556e-05,1.0,3.0100346e-06,-2.989173e-05,-3.0398369e-06,1.0,125,0.378,0,0,0.0,False,-0.25344364202339253,1.0508185527797727
0.38241039600688964,11:00:38.920249,10:59:34.970227,0,,0.124041654,0.0051133037,0.030783728,-0.5563578,-0.66240335,-0.5016849,-0.4701373,-0.24689193,0.84735775,-0.6851547,0.70729494,-0.17406023,,0.04986664,-0.024712756,0.03245938,0.32303435,-0.7079858,0.62801635,-0.2826324,0.5611401,0.7779721,-0.9031984,-0.4288097,-0.018832415,,0.07728274,1.328329,0.4541155,0.99788016,0.045598526,-0.04643289,0.005127961,-0.76636267,-0.6423877,-0.06487636,0.64078784,-0.7649719,,-0.093128406,0.24073671,-0.09618576,0.6395515,0.6021402,0.47791323,-0.7396092,0.31241623,0.5961329,0.20964773,-0.73472667,0.64515465,,-0.011453679,0.4164386,-0.34475702,-0.16844381,0.731031,-0.6612264,-0.87074435,0.2040453,0.4474034,0.4619859,0.6511215,0.60217094,,0.9901624727358213,0.32081004632816035,0.17308193709000003,0.13839536269978608,0.3441873429091445,0.8924083664874694,-0.39953958576444726,,-1.2464568086327101,0.0032049341428031716,0.17993153345000001,0.53345121622463,0.998266267286308,-0.5504419099724605,0.8753608504136025,,-0.03261365873507904,-0.08598146393793565,0.08100309464,-0.06541713947960498,,-3.7845224e-05,6.556511e-07,0.0,1.0,3.5684556e-05,2.9888004e-05,-3.5684556e-05,1.0,3.0100346e-06,-2.989173e-05,-3.0398369e-06,1.0,133,0.402,0,0,0.0,False,-0.25451604095677105,1.050335750771978
0.41944269300438464,11:00:38.945493,10:59:34.970227,0,,0.12447079,0.0056058466,0.031056657,-0.5500194,-0.66796446,-0.5013003,-0.46791226,-0.2507221,0.8474647,-0.6917635,0.7006867,-0.1746467,,0.04995635,-0.024815261,0.032539845,0.3221547,-0.7070812,0.62948567,-0.28365454,0.56228966,0.7767693,-0.9031923,-0.42879647,-0.01942271,,0.07728274,1.328329,0.4541155,0.99788016,0.045598526,-0.04643289,0.005127961,-0.76636267,-0.6423877,-0.06487636,0.64078784,-0.7649719,,-0.09360308,0.24124853,-0.09606749,0.63378066,0.6084714,0.47758207,-0.7426059,0.30584747,0.5958135,0.21646823,-0.73227036,0.6456947,,-0.011548417,0.4164085,-0.34488007,-0.16751848,0.7300709,-0.662521,-0.871337,0.20473813,0.44593063,0.46120426,0.6519807,0.6018404,,0.9893593085169019,0.32484131288850554,0.17313119611000002,0.13231435433873487,0.3473299824037496,0.889764075962311,-0.39937624169831265,,-1.2467502724819306,0.00251761091699719,0.17985505234000002,0.5357578056029597,0.9975830847874807,-0.5496397842335567,0.8755241944797367,,-0.03261365873507904,-0.08598146393793565,0.08100309464,-0.06541713947960498,,-3.7845224e-05,6.556511e-07,0.0,1.0,3.5684556e-05,2.9888004e-05,-3.5684556e-05,1.0,3.0100346e-06,-2.989173e-05,-3.0398369e-06,1.0,148,0.448,0,0,0.0,False,-0.25350321974191337,1.050432311173537
0.4446277560200542,11:00:38.990874,10:59:35.036637,0,,0.12498376,0.006249249,0.031468824,-0.5385359,-0.6764258,-0.50242114,-0.46595556,-0.25773036,0.8464398,-0.70204306,0.68994427,-0.17638731,,0.05006194,-0.024897262,0.03262204,0.32276246,-0.70684004,0.6294453,-0.28442326,0.5618653,0.77679515,-0.9027334,-0.42974934,-0.019692838,,0.07728274,1.328329,0.4541155,0.99788016,0.045598526,-0.04643289,0.005127961,-0.76636267,-0.6423877,-0.06487636,0.64078784,-0.7649719,,-0.0941811,0.2419563,-0.095958345,0.6232557,0.6182225,0.47890842,-0.7485876,0.2945081,0.59403837,0.22620548,-0.7287427,0.6463475,,-0.011660258,0.41639188,-0.3449889,-0.16814329,0.72999865,-0.6624423,-0.8716529,0.20374449,0.44576833,0.46037924,0.6523727,0.60204715,,0.9885870352294794,0.3300618803114813,0.17315582562,0.12036202756011699,0.3525221693948363,0.8854485168817066,-0.3998662738967158,,-1.2472676955845037,0.0018225649583169842,0.17979153413,0.5355481156594752,0.9971731752881844,-0.5492238517823267,0.8760142266781397,,-0.03261365873507904,-0.08598146393793565,0.08100309464,-0.06541713947960498,,-3.7845224e-05,6.556511e-07,0.0,1.0,3.5684556e-05,2.9888004e-05,-3.5684556e-05,1.0,3.0100346e-06,-2.989173e-05,-3.0398369e-06,1.0,156,0.472,0,0,0.0,False,-0.2539202637715605,1.0502391903704191
0.49006753496360034,11:00:39.018192,10:59:35.036637,0,,0.1252878,0.0066580176,0.031754717,-0.53370255,-0.68067575,-0.5018386,-0.4636007,-0.26080966,0.8467896,-0.7072736,0.6845866,-0.17636696,,0.050153196,-0.02493462,0.03267145,0.32241064,-0.7062494,0.63028795,-0.2853075,0.5623787,0.776099,-0.90258014,-0.4300486,-0.020181537,,0.07728274,1.328329,0.4541155,0.99788016,0.045598526,-0.04643289,0.005127961,-0.76636267,-0.6423877,-0.06487636,0.64078784,-0.7649719,,-0.09452888,0.24242304,-0.09590867,0.6188442,0.623097,0.4783116,-0.75048137,0.28917822,0.59426737,0.2319689,-0.72672284,0.64657897,,-0.011755592,0.4163863,-0.3450441,-0.16776873,0.7294311,-0.66316205,-0.87212276,0.20381619,0.44481555,0.45962545,0.65298486,0.60195947,,0.9883090168460074,0.333421269111769,0.17315193675,0.11574884880345744,0.35525489939014515,0.8832201588077782,-0.3998662738967158,,-1.247692445892586,0.0014287055817315342,0.17976301575,0.5368062553203824,0.9963533562895918,-0.5486370231002888,0.8761775707442739,,-0.03261365873507904,-0.08598146393793565,0.08100309464,-0.06541713947960498,,-3.7845224e-05,6.556511e-07,0.0,1.0,3.5684556e-05,2.9888004e-05,-3.5684556e-05,1.0,3.0100346e-06,-2.989173e-05,-3.0398369e-06,1.0,164,0.497,0,0,0.0,False,-0.25350321974191337,1.0506737121774343
0.5173484230181202,11:00:39.050796,10:59:35.118010,0,,0.1254723,0.0069318265,0.031982288,-0.5295228,-0.68501747,-0.5003564,-0.46122342,-0.26254672,0.84755063,-0.711954,0.6795736,-0.17692158,,0.050243303,-0.02494423,0.032705426,0.32283333,-0.70622444,0.6300996,-0.28548378,0.5620773,0.77625257,-0.90237325,-0.43048352,-0.0201585,,0.07728274,1.328329,0.4541155,0.99788016,0.045598526,-0.04643289,0.005127961,-0.76636267,-0.6423877,-0.06487636,0.64078784,-0.7649719,,-0.09474626,0.24276,-0.095904246,0.6150291,0.62797034,0.47685683,-0.7519527,0.28511325,0.59437156,0.23728952,-0.7241296,0.64755696,,-0.0118490625,0.41638994,-0.34506893,-0.16820683,0.7294882,-0.66298825,-0.87216604,0.20329864,0.44496754,0.4593832,0.6530824,0.6020386,,0.9882781259145105,0.33563769344667144,0.17312471466,0.11176473987725148,0.3586708118842812,0.8800263175146648,-0.39937624169831265,,-1.248178978063662,0.0011275189996367784,0.17976171946000002,0.5368062553203824,0.9962167197898263,-0.5481172114958897,0.8755241944797367,,-0.03261365873507904,-0.08598146393793565,0.08100309464,-0.06541713947960498,,-3.7845224e-05,6.556511e-07,0.0,1.0,3.5684556e-05,2.9888004e-05,-3.5684556e-05,1.0,3.0100346e-06,-2.989173e-05,-3.0398369e-06,1.0,176,0.533,0,0,0.0,False,-0.25397984149008224,1.0506737121774343
0.5499882469885051,11:00:39.082149,10:59:35.118010,0,,0.12551856,0.0070530027,0.032136276,-0.52269876,-0.69109565,-0.49917188,-0.45990655,-0.2644292,0.847681,-0.71782446,0.6726544,-0.17962259,,0.05035369,-0.02494438,0.032749057,0.32309458,-0.70613605,0.6300646,-0.28584024,0.5618623,0.776277,-0.90216684,-0.4309089,-0.02030763,,0.07728274,1.328329,0.4541155,0.99788016,0.045598526,-0.04643289,0.005127961,-0.76636267,-0.6423877,-0.06487636,0.64078784,-0.7649719,,-0.094812326,0.2429457,-0.09594525,0.60874516,0.634759,0.475931,-0.7552391,0.27991027,0.5926754,0.24298808,-0.72023,0.64978886,,-0.011964528,0.41640395,-0.34509256,-0.16847531,0.7294765,-0.66293293,-0.872314,0.20283975,0.44488692,0.45900372,0.6532381,0.602159,,0.9884557487706177,0.3364640258642134,0.17307934451,0.10442559185529314,0.36399963537513336,0.8745375169085364,-0.40002961796284975,,-1.2487967966936002,0.000834055150416247,0.17976042317000002,0.5372256352073513,0.9958068102905301,-0.5472928853439569,0.8760142266781397,,-0.03261365873507904,-0.08598146393793565,0.08100309464,-0.06541713947960498,,-3.7845224e-05,6.556511e-07,0.0,1.0,3.5684556e-05,2.9888004e-05,-3.5684556e-05,1.0,3.0100346e-06,-2.989173e-05,-3.0398369e-06,1.0,195,0.592,0,0,0.0,False,-0.25481392954937654,1.0502391903704191
0.5813022459624335,11:00:39.132641,10:59:35.184049,0,,0.12535568,0.006964311,0.032343343,-0.5064624,-0.7073659,-0.49308148,-0.455584,-0.26598603,0.8495261,-0.7320786,0.65489316,-0.1875526,,0.05045548,-0.024936825,0.03279102,0.32338825,-0.70630234,0.6297275,-0.28577232,0.5615168,0.77655196,-0.90208316,-0.4310867,-0.020253956,,0.07728274,1.328329,0.4541155,0.99788016,0.045598526,-0.04643289,0.005127961,-0.76636267,-0.6423877,-0.06487636,0.64078784,-0.7649719,,-0.09466618,0.24302149,-0.09616924,0.59376824,0.65270376,0.4705498,-0.7623148,0.26915842,0.588583,0.25751787,-0.70818895,0.65738344,,-0.0120717,0.4164236,-0.3451102,-0.16878155,0.7296867,-0.66262364,-0.87225056,0.20249623,0.44516763,0.4590117,0.65310997,0.602292,,0.9891971311265432,0.3353056159330798,0.17290693794,0.08723101648956214,0.38080592484628256,0.8578110013686757,-0.39953958576444715,,-1.2493837243920412,0.0005946504313152873,0.17976301575,0.5376450150943204,0.9958068102905301,-0.5462310617221297,0.8761775707442739,,-0.03261365873507904,-0.08598146393793565,0.08100309464,-0.06541713947960498,,-3.7845224e-05,6.556511e-07,0.0,1.0,3.5684556e-05,2.9888004e-05,-3.5684556e-05,1.0,3.0100346e-06,-2.989173e-05,-3.0398369e-06,1.0,203,0.615,0,0,0.0,False,-0.25397984149008224,1.0502874705711984
0.6318165599368513,11:00:39.161915,10:59:35.184049,0,,0.1251542,0.006803885,0.032481432,-0.4926562,-0.71935004,-0.48971957,-0.45608228,-0.26583683,0.8493054,-0.7411336,0.64176804,-0.19711658,,0.050483167,-0.024934337,0.032801986,0.32307512,-0.70601404,0.6302113,-0.28571987,0.5620815,0.7761626,-0.9022119,-0.43082288,-0.020127892,,0.07728274,1.328329,0.4541155,0.99788016,0.045598526,-0.04643289,0.005127961,-0.76636267,-0.6423877,-0.06487636,0.64078784,-0.7649719,,-0.0944719,0.24300227,-0.09638668,0.5809255,0.665868,0.46812963,-0.76965624,0.26221755,0.5821265,0.2648676,-0.698471,0.6648183,,-0.012100802,0.4164289,-0.34511435,-0.16845618,0.72933084,-0.66309804,-0.872257,0.20303683,0.44490874,0.459119,0.6533395,0.60196114,,0.9898303952222296,0.3338923558170967,0.1727306425,0.07129458078473827,0.3903704798298634,0.8429056977176972,-0.40133637049192417,,-1.249515010850903,0.0005483140340699402,0.17976431204,0.5384837748682585,0.9958068102905301,-0.5460677042418486,0.8758508826120053,,-0.03261365873507904,-0.08598146393793565,0.08100309464,-0.06541713947960498,,-3.7845224e-05,6.556511e-07,0.0,1.0,3.5684556e-05,2.9888004e-05,-3.5684556e-05,1.0,3.0100346e-06,-2.989173e-05,-3.0398369e-06,1.0,211,0.64,0,0,0.0,False,-0.25427773008268684,1.0501909101696396
0.6611012249486521,11:00:39.184470,10:59:35.263607,0,,0.12493222,0.0066703707,0.032666847,-0.4788486,-0.73067045,-0.48664632,-0.45590562,-0.26675236,0.8491132,-0.7502361,0.62846154,-0.20538276,,0.050496675,-0.02493544,0.03280866,0.3230315,-0.70578647,0.63048863,-0.28571388,0.56239027,0.77594113,-0.9022295,-0.4307929,-0.019983351,,0.07728274,1.328329,0.4541155,0.99788016,0.045598526,-0.04643289,0.005127961,-0.76636267,-0.6423877,-0.06487636,0.64078784,-0.7649719,,-0.09426293,0.24303536,-0.09662483,0.56805605,0.6784367,0.46587124,-0.776504,0.25427485,0.5765292,0.2726792,-0.6892518,0.6712511,,-0.012115063,0.41643074,-0.34511897,-0.16841085,0.7290842,-0.66338074,-0.8722585,0.2032434,0.44481146,0.45913276,0.65355057,0.60172147,,0.9907107867698912,0.332664441290095,0.17253101384000002,0.055358145079914434,0.40020830781297506,0.8287577031410129,-0.4023164348887297,,-1.249584515446771,0.0005097003696988176,0.17976301575,0.5386934648117431,0.9958068102905301,-0.5462310617221298,0.8758508826120054,,-0.03261365873507904,-0.08598146393793565,0.08100309464,-0.06541713947960498,,-3.7845224e-05,6.556511e-07,0.0,1.0,3.5684556e-05,2.9888004e-05,-3.5684556e-05,1.0,3.0100346e-06,-2.989173e-05,-3.0398369e-06,1.0,219,0.665,0,0,0.0,False,-0.25439688551972894,1.0503840309727575
0.6836458939360455,11:00:39.215194,10:59:35.263607,0,,0.124799065,0.006625265,0.032852903,-0.4687866,-0.7386712,-0.4843592,-0.45386845,-0.26898986,0.8494985,-0.757788,0.618069,-0.20916069,,0.050493374,-0.024942324,0.032806218,0.32312196,-0.70576197,0.6304697,-0.2857625,0.5623441,0.77595675,-0.9021817,-0.43089336,-0.019974679,,0.07728274,1.328329,0.4541155,0.99788016,0.045598526,-0.04643289,0.005127961,-0.76636267,-0.6423877,-0.06487636,0.64078784,-0.7649719,,-0.09414628,0.24312904,-0.09680369,0.55868065,0.6874846,0.46394053,-0.7805869,0.24681096,0.5742547,0.28028566,-0.6829709,0.67452997,,-0.012111057,0.4164247,-0.3451223,-0.16850457,0.7290776,-0.66336423,-0.872273,0.20313771,0.44483125,0.45907077,0.6535908,0.60172504,,0.9914135554614456,0.33215474092039615,0.17237805162000003,0.04424457807523464,0.40895304379796327,0.819748346281209,-0.4010096823596555,,-1.249553624515274,0.0004788094382019196,0.17976171946000002,0.5384837748682585,0.9958068102905301,-0.5463944192024108,0.8755241944797368,,-0.03261365873507904,-0.08598146393793565,0.08100309464,-0.06541713947960498,,-3.7845224e-05,6.556511e-07,0.0,1.0,3.5684556e-05,2.9888004e-05,-3.5684556e-05,1.0,3.0100346e-06,-2.989173e-05,-3.0398369e-06,1.0,227,0.689,0,0,0.0,False,-0.2540989969271239,1.0501909101696396
0.7143831589492038,11:00:39.237535,10:59:35.263607,0,,0.12460871,0.0065891147,0.03319058,-0.46018088,-0.74617434,-0.4811001,-0.4499972,-0.2710927,0.8508885,-0.765334,0.60805637,-0.2110247,,0.050489746,-0.02495186,0.03280419,0.32309657,-0.7057124,0.6305381,-0.28581554,0.5623947,0.7759005,-0.902174,-0.43090853,-0.019995898,,0.07728274,1.328329,0.4541155,0.99788016,0.045598526,-0.04643289,0.005127961,-0.76636267,-0.6423877,-0.06487636,0.64078784,-0.7649719,,-0.09398763,0.24332969,-0.0970972,0.5506715,0.69599545,0.46081582,-0.78310573,0.23964159,0.5738617,0.28897452,-0.67687684,0.67700183,,-0.012106626,0.416417,-0.34512782,-0.16847762,0.72902805,-0.6634255,-0.87230164,0.20315593,0.44476685,0.4590263,0.65364045,0.6017051,,0.9927418655158122,0.3319153362012952,0.17210583072000002,0.03480853061843105,0.4185175987815441,0.8110506268809132,-0.4011730264257898,,-1.2495072881180287,0.00044019577383079707,0.17975912688,0.5384837748682585,0.9958068102905301,-0.5464760979425514,0.8753608504136026,,-0.03261365873507904,-0.08598146393793565,0.08100309464,-0.06541713947960498,,-3.7845224e-05,6.556511e-07,0.0,1.0,3.5684556e-05,2.9888004e-05,-3.5684556e-05,1.0,3.0100346e-06,-2.989173e-05,-3.0398369e-06,1.0,242,0.735,0,0,0.0,False,-0.2538011083345184,1.0506737121774343
0.7366891249548644,11:00:39.282220,10:59:35.336315,0,,0.124352776,0.006658599,0.03370799,-0.4383842,-0.76190865,-0.47677505,-0.44766673,-0.27488634,0.85090065,-0.77936757,0.5864578,-0.22057527,,0.050493367,-0.024983674,0.032819152,0.32300803,-0.70536816,0.6309685,-0.28595847,0.5628017,0.77555263,-0.9021603,-0.4309407,-0.019916683,,0.07728274,1.328329,0.4541155,0.99788016,0.045598526,-0.04643289,0.005127961,-0.76636267,-0.6423877,-0.06487636,0.64078784,-0.7649719,,-0.09378561,0.24373065,-0.09746664,0.5302326,0.71387297,0.45742628,-0.7921147,0.22470964,0.5675032,0.3023371,-0.6632428,0.68461764,,-0.012110631,0.41640428,-0.3451605,-0.16838413,0.72866994,-0.6638425,-0.87238073,0.20337237,0.4445127,0.45891026,0.6539723,0.6014329,,0.994626212337123,0.3322396909820126,0.17175842500000002,0.00964573740028812,0.4327277947571499,0.7903151460007425,-0.40149971455805844,,-1.249476397186532,0.00027801838347208237,0.17973708995,0.5386934648117431,0.9958068102905301,-0.5468028129031136,0.8760142266781397,,-0.03261365873507904,-0.08598146393793565,0.08100309464,-0.06541713947960498,,-3.7845224e-05,6.556511e-07,0.0,1.0,3.5684556e-05,2.9888004e-05,-3.5684556e-05,1.0,3.0100346e-06,-2.989173e-05,-3.0398369e-06,1.0,250,0.759,0,0,0.0,False,-0.2549926627049395,1.0500943497680806
0.7813911479897797,11:00:39.302482,10:59:35.336315,0,,0.12420759,0.006718546,0.033988684,-0.42848128,-0.77034706,-0.47219598,-0.44600797,-0.27416992,0.85200214,-0.78579944,0.57567024,-0.22610423,,0.050502956,-0.025005937,0.03282243,0.32292736,-0.705496,0.6308669,-0.28671297,0.5623313,0.77561533,-0.9019498,-0.43134525,-0.020682901,,0.07728274,1.328329,0.4541155,0.99788016,0.045598526,-0.04643289,0.005127961,-0.76636267,-0.6423877,-0.06487636,0.64078784,-0.7649719,,-0.093670696,0.243966,-0.09765334,0.5209253,0.7232628,0.45335174,-0.79577726,0.2193321,0.564475,0.30882916,-0.65481627,0.6898117,,-0.012119334,0.4163894,-0.3451779,-0.16829315,0.728883,-0.6636316,-0.8727583,0.20277815,0.44404274,0.45822522,0.65391934,0.6020126,,0.9957846222682567,0.3325563230298558,0.17157953698000003,-0.0018872094913607192,0.43942298324565643,0.7775862608471078,-0.40133637049192405,,-1.249484119919406,0.0001544546574844902,0.17972542334000002,0.5386934648117431,0.9951236277917028,-0.546327402124772,0.8761775707442739,,-0.03261365873507904,-0.08598146393793565,0.08100309464,-0.06541713947960498,,-3.7845224e-05,6.556511e-07,0.0,1.0,3.5684556e-05,2.9888004e-05,-3.5684556e-05,1.0,3.0100346e-06,-2.989173e-05,-3.0398369e-06,1.0,258,0.783,0,0,0.0,False,-0.2545756186752919,1.050432311173537
0.8016746590146795,11:00:39.326380,10:59:35.408052,0,,0.12401402,0.0067590177,0.034371123,-0.42032233,-0.77857566,-0.4659925,-0.44405326,-0.27136084,0.8539203,-0.79129374,0.56584734,-0.23167002,,0.050520405,-0.025044084,0.03283435,0.32293257,-0.70557857,0.63077193,-0.28729188,0.5619498,0.7756776,-0.9017636,-0.43170738,-0.021235257,,0.07728274,1.328329,0.4541155,0.99788016,0.045598526,-0.04643289,0.005127961,-0.76636267,-0.6423877,-0.06487636,0.64078784,-0.7649719,,-0.09351651,0.24425432,-0.09793345,0.5132496,0.7322589,0.44762903,-0.7984604,0.21615997,0.5619037,0.31469953,-0.6458109,0.69562376,,-0.012136169,0.41636807,-0.345212,-0.16829327,0.72904,-0.6634592,-0.8730408,0.20226966,0.4437192,0.4576867,0.6539019,0.6024411,,0.997375505240347,0.3329810733379382,0.17130213092000002,-0.011742636835133364,0.4452983527355704,0.7637289508325592,-0.4011730264257898,,-1.2495072881180287,-7.72273287422451e-05,0.17970597899000001,0.5386934648117431,0.9947137182924064,-0.5459114696735422,0.8760142266781397,,-0.03261365873507904,-0.08598146393793565,0.08100309464,-0.06541713947960498,,-3.7845224e-05,6.556511e-07,0.0,1.0,3.5684556e-05,2.9888004e-05,-3.5684556e-05,1.0,3.0100346e-06,-2.989173e-05,-3.0398369e-06,1.0,266,0.808,0,0,0.0,False,-0.25540970673458663,1.0507702725789931
0.8255024499958381,11:00:39.353921,10:59:35.408052,0,,0.12387068,0.0067876577,0.03462173,-0.41254374,-0.7863291,-0.45988482,-0.44347692,-0.2676136,0.8554011,-0.7956984,0.55683887,-0.23831654,,0.050552323,-0.025074989,0.03285551,0.32206756,-0.70480394,0.63207877,-0.287359,0.5633765,0.7746171,-0.90205157,-0.43111274,-0.021086603,,0.07728274,1.328329,0.4541155,0.99788016,0.045598526,-0.04643289,0.005127961,-0.76636267,-0.6423877,-0.06487636,0.64078784,-0.7649719,,-0.09339916,0.24444646,-0.09811644,0.50590926,0.7406632,0.44212425,-0.8014969,0.21417882,0.558328,0.31883934,-0.63682455,0.7019943,,-0.012169075,0.41635615,-0.34524658,-0.16739264,0.728106,-0.6647114,-0.873162,0.20357922,0.4428811,0.45778584,0.6545358,0.6016768,,0.9984798560413611,0.33321275532416494,0.17111676145000002,-0.021598064178906008,0.4495340842282991,0.7497384383398377,-0.4031331552194011,,-1.2495613472481484,-0.00027801838347208237,0.17968912722000002,0.5405806743031037,0.9947137182924064,-0.5458297909334016,0.8761775707442739,,-0.03261365873507904,-0.08598146393793565,0.08100309464,-0.06541713947960498,,-3.7845224e-05,6.556511e-07,0.0,1.0,3.5684556e-05,2.9888004e-05,-3.5684556e-05,1.0,3.0100346e-06,-2.989173e-05,-3.0398369e-06,1.0,285,0.866,0,0,0.0,False,-0.25546928445310746,1.0505771517758753
0.853112904005684,11:00:39.408539,10:59:35.408052,0,,0.12341424,0.0068427175,0.035269678,-0.39472952,-0.8045605,-0.4437013,-0.4457944,-0.25455657,0.85817724,-0.8034028,0.53654754,-0.25818762,,0.050577484,-0.025117397,0.032861233,0.3222483,-0.704898,0.6318818,-0.28837314,0.5626701,0.7747537,-0.9016633,-0.43188092,-0.021954268,,0.07728274,1.328329,0.4541155,0.99788016,0.045598526,-0.04643289,0.005127961,-0.76636267,-0.6423877,-0.06487636,0.64078784,-0.7649719,,-0.093009576,0.2449366,-0.098605506,0.48903254,0.7601514,0.4278049,-0.8097858,0.21337003,0.546553,0.32418233,-0.61371255,0.71990466,,-0.012192371,0.4163264,-0.34527874,-0.16757147,0.7283532,-0.6643955,-0.8736387,0.20256174,0.44240728,0.45680985,0.6545765,0.60237396,,1.00167706745129,0.3337456238924864,0.17062935641000002,-0.04445426801871916,0.4547262712193858,0.7130780981635705,-0.4018264026903272,,-1.2496154063782678,-0.0005560367669441647,0.17967357174,0.5401612944161347,0.9938938992938139,-0.5454879984717854,0.8761775707442738,,-0.03261365873507904,-0.08598146393793565,0.08100309464,-0.06541713947960498,,-3.7845224e-05,6.556511e-07,0.0,1.0,3.5684556e-05,2.9888004e-05,-3.5684556e-05,1.0,3.0100346e-06,-2.989173e-05,-3.0398369e-06,1.0,293,0.89,0,0,0.0,False,-0.25624379479388093,1.0505288715750958
0.9077312089502811,11:00:39.434542,10:59:35.489706,0,,0.12326484,0.0068668723,0.035463914,-0.39166126,-0.8107721,-0.43502858,-0.44760025,-0.24519795,0.85996044,-0.80390024,0.53153217,-0.26686728,,0.0505831,-0.025131106,0.03285849,0.3223722,-0.7049916,0.63171417,-0.28846446,0.5624388,0.77488756,-0.9015899,-0.43202946,-0.02205059,,0.07728274,1.328329,0.4541155,0.99788016,0.045598526,-0.04643289,0.005127961,-0.76636267,-0.6423877,-0.06487636,0.64078784,-0.7649719,,-0.09288063,0.24509066,-0.09874788,0.486109,0.76639205,0.41993007,-0.811787,0.21808754,0.5417007,0.32357362,-0.6042194,0.72816145,,-0.012196731,0.41631398,-0.34528613,-0.16769953,0.72848076,-0.6642233,-0.87367064,0.2023088,0.44245994,0.4567018,0.6545127,0.6025252,,1.0028045864509267,0.33403136500883274,0.17047639419000002,-0.049277136718863225,0.4537698157210277,0.698094026642317,-0.4016630586241928,,-1.2496076836453938,-0.0006487095614348588,0.17967357174,0.5399516044726502,0.9938938992938139,-0.5454063197316448,0.8760142266781396,,-0.03261365873507904,-0.08598146393793565,0.08100309464,-0.06541713947960498,,-3.7845224e-05,6.556511e-07,0.0,1.0,3.5684556e-05,2.9888004e-05,-3.5684556e-05,1.0,3.0100346e-06,-2.989173e-05,-3.0398369e-06,1.0,301,0.914,0,0,0.0,False,-0.25636295023092304,1.050432311173537
0.9337190019432455,11:00:39.465349,10:59:35.489706,0,,0.12301783,0.00693056,0.035775915,-0.38428155,-0.8203303,-0.42353958,-0.4511926,-0.23337018,0.86137307,-0.8054521,0.5221078,-0.2804471,,0.050601467,-0.025141343,0.032862365,0.32233784,-0.70484275,0.63189775,-0.2885142,0.56261766,0.77473927,-0.9015862,-0.4320394,-0.022004366,,0.07728274,1.328329,0.4541155,0.99788016,0.045598526,-0.04643289,0.005127961,-0.76636267,-0.6423877,-0.06487636,0.64078784,-0.7649719,,-0.09266761,0.24535808,-0.09896125,0.47907788,0.7762721,0.40973893,-0.81623954,0.22228575,0.53323734,0.32285815,-0.58990735,0.7401162,,-0.012214863,0.41630676,-0.34529483,-0.16766335,0.7283252,-0.664403,-0.87369835,0.20240714,0.44236013,0.45666194,0.65465546,0.6024003,,1.0046503196078664,0.33457967904290264,0.17024565457000002,-0.05997132383657396,0.45240345072337335,0.6752763348180963,-0.4044399077484754,,-1.2496694655083875,-0.0007491050887997774,0.17967357174,0.5401612944161347,0.9938938992938139,-0.5454063197316448,0.8761775707442738,,-0.03261365873507904,-0.08598146393793565,0.08100309464,-0.06541713947960498,,-3.7845224e-05,6.556511e-07,0.0,1.0,3.5684556e-05,2.9888004e-05,-3.5684556e-05,1.0,3.0100346e-06,-2.989173e-05,-3.0398369e-06,1.0,309,0.939,0,0,0.0,False,-0.25683957197909146,1.05014262996886
0.964537784922868,11:00:39.486562,10:59:35.489706,0,,0.122836836,0.00698711,0.035962,-0.38026118,-0.82608575,-0.4159129,-0.4548695,-0.22450736,0.86179465,-0.805292,0.51689327,-0.2903898,,0.0506163,-0.025143638,0.03286767,0.32240996,-0.7047875,0.63192266,-0.2885268,0.562637,0.7747205,-0.9015564,-0.43210435,-0.021950424,,0.07728274,1.328329,0.4541155,0.99788016,0.045598526,-0.04643289,0.005127961,-0.76636267,-0.6423877,-0.06487636,0.64078784,-0.7649719,,-0.09250789,0.24553517,-0.09907836,0.47522777,0.7821002,0.40308535,-0.819372,0.22645128,0.52663964,0.32060578,-0.5805507,0.74844694,,-0.012230175,0.41630667,-0.34529924,-0.1677383,0.72827923,-0.66443455,-0.87369716,0.20236799,0.4423805,0.4566368,0.6547187,0.6023506,,1.0060017978608558,0.33499670661811076,0.17011084041000002,-0.06647171208459422,0.4495340842282991,0.6599735029253597,-0.40084633829352145,,-1.2497466928371297,-0.000803164218919349,0.17967357174,0.5401612944161347,0.9938938992938139,-0.5454063197316448,0.8760142266781396,,-0.03261365873507904,-0.08598146393793565,0.08100309464,-0.06541713947960498,,-3.7845224e-05,6.556511e-07,0.0,1.0,3.5684556e-05,2.9888004e-05,-3.5684556e-05,1.0,3.0100346e-06,-2.989173e-05,-3.0398369e-06,1.0,317,0.964,0,0,0.0,False,-0.25719703829021734,1.0507702725789931
0.9857543089892715,11:00:39.516057,10:59:35.570893,0,,0.12252428,0.0070932508,0.036305115,-0.3728341,-0.8359028,-0.4028165,-0.45854044,-0.2114289,0.8631561,-0.80668175,0.50652176,-0.30446738,,0.05062911,-0.025138214,0.032875,0.32248217,-0.70479786,0.6318742,-0.28849313,0.56259793,0.7747614,-0.90154135,-0.43213826,-0.021901667,,0.07728274,1.328329,0.4541155,0.99788016,0.045598526,-0.04643289,0.005127961,-0.76636267,-0.6423877,-0.06487636,0.64078784,-0.7649719,,-0.092234544,0.24586114,-0.09929217,0.46813756,0.7922726,0.39134556,-0.8237889,0.23105319,0.51767397,0.31971726,-0.56472874,0.76083004,,-0.012244214,0.4163137,-0.34529975,-0.16781372,0.72829676,-0.6643963,-0.8736734,0.2023184,0.44245014,0.45665458,0.6547145,0.60234165,,1.0083958450518653,0.3356608616452941,0.16987750821000003,-0.07758527908927401,0.4477578097313484,0.6351213813481522,-0.4044399077484754,,-1.2498393656316205,-0.0008108869517935736,0.17967357174,0.5401612944161347,0.9938938992938139,-0.5453246409915042,0.8758508826120053,,-0.03261365873507904,-0.08598146393793565,0.08100309464,-0.06541713947960498,,-3.7845224e-05,6.556511e-07,0.0,1.0,3.5684556e-05,2.9888004e-05,-3.5684556e-05,1.0,3.0100346e-06,-2.989173e-05,-3.0398369e-06,1.0,337,1.025,0,0,0.0,False,-0.2575545046013441,1.0506254319766548
1.0151962619274855,11:00:39.565880,10:59:35.644493,0,,0.121921144,0.0072295815,0.036856875,-0.36556584,-0.85017973,-0.3788879,-0.46244347,-0.18737207,0.86662436,-0.80777955,0.49202245,-0.32466322,,0.050638884,-0.025134385,0.032880485,0.3225368,-0.7047145,0.63193923,-0.28846958,0.56267935,0.774711,-0.9015293,-0.43216825,-0.021804065,,0.07728274,1.328329,0.4541155,0.99788016,0.045598526,-0.04643289,0.005127961,-0.76636267,-0.6423877,-0.06487636,0.64078784,-0.7649719,,-0.0916935,0.24636817,-0.09966227,0.46118772,0.8067871,0.36932448,-0.82818854,0.24201731,0.50550115,0.31844887,-0.53900117,0.7797872,,-0.012254891,0.41631877,-0.3453003,-0.16787077,0.72821426,-0.6644722,-0.8736563,0.20234333,0.44247246,0.4566663,0.65479857,0.60224146,,1.0129522574476577,0.3362400666108609,0.16948213976,-0.09037636564182999,0.4452983527355704,0.5951440311824387,-0.4049299399468783,,-1.2499088702274885,-0.000818609684667798,0.17967357174,0.5401612944161347,0.9938938992938139,-0.5454063197316448,0.8758508826120053,,-0.03261365873507904,-0.08598146393793565,0.08100309464,-0.06541713947960498,,-3.7845224e-05,6.556511e-07,0.0,1.0,3.5684556e-05,2.9888004e-05,-3.5684556e-05,1.0,3.0100346e-06,-2.989173e-05,-3.0398369e-06,1.0,345,1.05,0,0,0.0,False,-0.2570183051346544,1.0505771517758753
1.065042748930864,11:00:39.596243,10:59:35.644493,0,,0.12148258,0.007261023,0.03716509,-0.3612463,-0.8572216,-0.36697698,-0.464999,-0.17552108,0.8677374,-0.80825555,0.48411095,-0.3352009,,0.050639413,-0.02513422,0.032882273,0.32254267,-0.704608,0.63205487,-0.28846624,0.5628079,0.77461886,-0.90152824,-0.43217432,-0.02172622,,0.07728274,1.328329,0.4541155,0.99788016,0.045598526,-0.04643289,0.005127961,-0.76636267,-0.6423877,-0.06487636,0.64078784,-0.7649719,,-0.09128821,0.24662633,-0.09990187,0.4570511,0.8140194,0.35843655,-0.8308763,0.24693963,0.49866363,0.31740966,-0.5257312,0.7892134,,-0.012255695,0.41632006,-0.3453014,-0.1678769,0.72810286,-0.66459274,-0.87365407,0.20241487,0.44244415,0.45666832,0.6549003,0.6021292,,1.0158637277412406,0.33605472102187955,0.16924621498,-0.09792520360727286,0.44420526073744687,0.5746355444951828,-0.4067267246743552,,-1.2499165929603626,-0.000818609684667798,0.17967227545000003,0.5401612944161347,0.9938938992938139,-0.5455696772119258,0.8756875385458711,,-0.03261365873507904,-0.08598146393793565,0.08100309464,-0.06541713947960498,,-3.7845224e-05,6.556511e-07,0.0,1.0,3.5684556e-05,2.9888004e-05,-3.5684556e-05,1.0,3.0100346e-06,-2.989173e-05,-3.0398369e-06,1.0,353,1.074,0,0,0.0,False,-0.2580311263495121,1.0505771517758753
1.0954324000049382,11:00:39.620410,10:59:35.644493,0,,0.12101165,0.0072401315,0.037454054,-0.35898703,-0.86221915,-0.35736015,-0.4673543,-0.16536537,0.8684666,-0.8079036,0.47878215,-0.3435979,,0.05063706,-0.025132537,0.032881916,0.32253295,-0.70461804,0.6320488,-0.2884564,0.5628061,0.7746239,-0.9015349,-0.4321604,-0.021728247,,0.07728274,1.328329,0.4541155,0.99788016,0.045598526,-0.04643289,0.005127961,-0.76636267,-0.6423877,-0.06487636,0.64078784,-0.7649719,,-0.09084656,0.24683495,-0.10016099,0.45487532,0.8190473,0.34964266,-0.83269733,0.25196514,0.49308088,0.3157588,-0.5154368,0.7966312,,-0.012253403,0.41632134,-0.3453001,-0.16786686,0.72811073,-0.6645867,-0.87365025,0.20242466,0.44244716,0.45667925,0.6548886,0.60213375,,1.0189219299594334,0.3354832387891869,0.16899214214000002,-0.10337714213787051,0.44270225924002704,0.5576467823844979,-0.4003563060951185,,-1.2499088702274885,-0.000803164218919349,0.17967227545000003,0.5401612944161347,0.9938938992938139,-0.5455696772119258,0.8756875385458711,,-0.03261365873507904,-0.08598146393793565,0.08100309464,-0.06541713947960498,,-3.7845224e-05,6.556511e-07,0.0,1.0,3.5684556e-05,2.9888004e-05,-3.5684556e-05,1.0,3.0100346e-06,-2.989173e-05,-3.0398369e-06,1.0,361,1.099,0,0,0.0,False,-0.2568991496976123,1.0505771517758753
1.1196024880046025,11:00:39.649996,10:59:35.711912,0,,0.120691374,0.0072156787,0.03763552,-0.35803235,-0.8650729,-0.35137108,-0.467519,-0.15965284,0.8694463,-0.80823195,0.47556263,-0.34727716,,0.050636046,-0.025133103,0.03288126,0.3225271,-0.7046212,0.6320483,-0.2884598,0.5628041,0.774624,-0.901536,-0.4321579,-0.02173546,,0.07728274,1.328329,0.4541155,0.99788016,0.045598526,-0.04643289,0.005127961,-0.76636267,-0.6423877,-0.06487636,0.64078784,-0.7649719,,-0.09054431,0.24695948,-0.100331984,0.45396456,0.82193905,0.3439947,-0.83312017,0.2546574,0.49097902,0.31595406,-0.509476,0.80037946,,-0.012252281,0.41632065,-0.3453001,-0.16786073,0.7281136,-0.6645851,-0.8736525,0.2024254,0.4424424,0.45667723,0.6548852,0.60213894,,1.0209684541711028,0.33491947928936855,0.16883269847000001,-0.10610311140316933,0.44324880523908883,0.5478897343936883,-0.40591000434368385,,-1.2499011474946142,-0.000803164218919349,0.17967227545000003,0.5401612944161347,0.9938938992938139,-0.5455696772119258,0.8756875385458711,,-0.03261365873507904,-0.08598146393793565,0.08100309464,-0.06541713947960498,,-3.7845224e-05,6.556511e-07,0.0,1.0,3.5684556e-05,2.9888004e-05,-3.5684556e-05,1.0,3.0100346e-06,-2.989173e-05,-3.0398369e-06,1.0,369,1.123,0,0,0.0,False,-0.2561246393568388,1.0507702725789931
1.1491644820198417,11:00:39.674832,10:59:35.711912,0,,0.120204955,0.007170871,0.037864923,-0.35262865,-0.871384,-0.34109068,-0.4684586,-0.1511544,0.87045896,-0.81006145,0.4667357,-0.35490596,,0.05063571,-0.025134727,0.032880545,0.3225232,-0.70456934,0.63210815,-0.2884697,0.56286526,0.77457595,-0.9015342,-0.43216288,-0.021710008,,0.07728274,1.328329,0.4541155,0.99788016,0.045598526,-0.04643289,0.005127961,-0.76636267,-0.6423877,-0.06487636,0.64078784,-0.7649719,,-0.09008051,0.24711384,-0.10056068,0.4488073,0.8286808,0.33445498,-0.8355014,0.2563388,0.48603275,0.31703222,-0.49757263,0.8074107,,-0.012251746,0.416319,-0.34530076,-0.16785657,0.72805965,-0.66464525,-0.87365776,0.20245776,0.44241723,0.45666873,0.6549351,0.6020911,,1.0238567562660628,0.33385374215272556,0.16862918094,-0.11470039908603481,0.4450250797360395,0.5293704449562573,-0.4050932840130125,,-1.24989342476174,-0.0008108869517935736,0.17967227545000003,0.5401612944161347,0.9938938992938139,-0.5456513559520666,0.8758508826120054,,-0.03261365873507904,-0.08598146393793565,0.08100309464,-0.06541713947960498,,-3.7845224e-05,6.556511e-07,0.0,1.0,3.5684556e-05,2.9888004e-05,-3.5684556e-05,1.0,3.0100346e-06,-2.989173e-05,-3.0398369e-06,1.0,377,1.148,0,0,0.0,False,-0.25558843989015,1.050432311173537
1.1740160569315776,11:00:39.700745,10:59:35.711912,0,,0.11974664,0.0071058273,0.038095996,-0.34842736,-0.87562525,-0.3344826,-0.468395,-0.14644656,0.8712976,-0.8119141,0.46025395,-0.35911253,,0.050636925,-0.025135666,0.032882214,0.32253096,-0.7045628,0.6321114,-0.28847298,0.56286716,0.7745734,-0.9015304,-0.43217108,-0.021705389,,0.07728274,1.328329,0.4541155,0.99788016,0.045598526,-0.04643289,0.005127961,-0.76636267,-0.6423877,-0.06487636,0.64078784,-0.7649719,,-0.08964392,0.24725088,-0.100802094,0.44480345,0.8333085,0.3282481,-0.83700514,0.25634742,0.48343393,0.31870407,-0.48977843,0.81150776,,-0.012253136,0.4163193,-0.34530252,-0.16786465,0.7280543,-0.66464907,-0.87365854,0.20245248,0.44241813,0.45666426,0.6549427,0.60208625,,1.0265751582377898,0.33274166861883725,0.16841658938,-0.12162016722102413,0.44748453673181743,0.5165016502510269,-0.4042765636823411,,-1.2499011474946142,-0.000818609684667798,0.17967097916000002,0.5401612944161347,0.9938938992938139,-0.5456513559520666,0.8758508826120054,,-0.03261365873507904,-0.08598146393793565,0.08100309464,-0.06541713947960498,,-3.7845224e-05,6.556511e-07,0.0,1.0,3.5684556e-05,2.9888004e-05,-3.5684556e-05,1.0,3.0100346e-06,-2.989173e-05,-3.0398369e-06,1.0,393,1.197,0,0,0.0,False,-0.2556480176086704,1.0505288715750958
1.199916768935509,11:00:39.742102,10:59:35.711912,0,,0.11915739,0.0069884807,0.03839703,-0.34468824,-0.88156307,-0.3225468,-0.47115934,-0.13471621,0.8716997,-0.8119107,0.45243564,-0.3689216,,0.05063895,-0.025139019,0.032881796,0.3225368,-0.7045526,0.63211983,-0.28849274,0.5628667,0.7745663,-0.90152186,-0.4321882,-0.021713227,,0.07728274,1.328329,0.4541155,0.99788016,0.045598526,-0.04643289,0.005127961,-0.76636267,-0.6423877,-0.06487636,0.64078784,-0.7649719,,-0.08908148,0.24740338,-0.10113679,0.44120747,0.8394393,0.3172974,-0.83950084,0.26112995,0.47649714,0.31713456,-0.47660553,0.81992245,,-0.012254893,0.4163164,-0.34530446,-0.16787054,0.72804683,-0.6646558,-0.87366754,0.20243889,0.44240648,0.4566448,0.6549552,0.6020874,,1.0300581107640652,0.33135929943435105,0.16810807236000003,-0.12916900518646698,0.4466647177332248,0.49560697027609707,-0.4049299399468783,,-1.2499011474946142,-0.0008417778832904715,0.17967097916000002,0.5401612944161347,0.9938938992938139,-0.5456513559520666,0.8758508826120054,,-0.03261365873507904,-0.08598146393793565,0.08100309464,-0.06541713947960498,,-3.7845224e-05,6.556511e-07,0.0,1.0,3.5684556e-05,2.9888004e-05,-3.5684556e-05,1.0,3.0100346e-06,-2.989173e-05,-3.0398369e-06,1.0,422,1.287,0,0,0.0,False,-0.2555288621716292,1.050335750771978
1.241276566986926,11:00:39.825848,10:59:35.837033,0,,0.11816244,0.00696072,0.03877996,-0.3409985,-0.8859005,-0.31448406,-0.46941054,-0.12937987,0.8734498,-0.81447756,0.44546723,-0.3717327,,0.050655037,-0.025168791,0.032878995,0.32258135,-0.70441574,0.6322495,-0.28866717,0.5629244,0.77445936,-0.90145004,-0.43233597,-0.021752954,,0.07728274,1.328329,0.4541155,0.99788016,0.045598526,-0.04643289,0.005127961,-0.76636267,-0.6423877,-0.06487636,0.64078784,-0.7649719,,-0.0881274,0.24771483,-0.101497404,0.43770573,0.8441812,0.30947024,-0.8400947,0.2613315,0.47533855,0.32039753,-0.4680427,0.8235784,,-0.012268681,0.41629106,-0.34532237,-0.16791536,0.7279305,-0.66477185,-0.87374806,0.20235795,0.44228446,0.4564742,0.65510947,0.6020489,,1.0362208515976963,0.3291042614350775,0.16781511082000003,-0.13797598281281703,0.45144699522501525,0.47855706648409185,-0.4034598433516696,,-1.24989342476174,-0.0010425689380203088,0.17966968287,0.5401612944161347,0.9938938992938139,-0.5457330346922071,0.8760142266781397,,-0.03261365873507904,-0.08598146393793565,0.08100309464,-0.06541713947960498,,-3.7845224e-05,6.556511e-07,0.0,1.0,3.5684556e-05,2.9888004e-05,-3.5684556e-05,1.0,3.0100346e-06,-2.989173e-05,-3.0398369e-06,1.0,430,1.312,0,0,0.0,False,-0.256541683386486,1.0505771517758753
1.3250216839369386,11:00:39.854721,10:59:35.914339,0,,0.11786365,0.006937444,0.038835213,-0.3407821,-0.88825464,-0.3080115,-0.46956354,-0.1230181,0.8742863,-0.81447995,0.44257218,-0.37516966,,0.05066315,-0.025177687,0.032879114,0.3226105,-0.70437884,0.63227576,-0.28871974,0.56292725,0.77443767,-0.90142286,-0.43239236,-0.021761984,,0.07728274,1.328329,0.4541155,0.99788016,0.045598526,-0.04643289,0.005127961,-0.76636267,-0.6423877,-0.06487636,0.64078784,-0.7649719,,-0.08783451,0.2477595,-0.10156877,0.43749756,0.8465164,0.30332476,-0.8402353,0.26468262,0.47323114,0.32031313,-0.46190166,0.82707095,,-0.012276193,0.41628364,-0.34532815,-0.16794522,0.72790235,-0.66479516,-0.8737707,0.20231569,0.44225907,0.45641991,0.6551538,0.6020418,,1.0379507437615225,0.32822386988741586,0.1677658518,-0.1396535023606932,0.45199354122407703,0.4691267334538442,-0.40084633829352123,,-1.2499088702274885,-0.0011120735338883295,0.17966968287,0.5401612944161347,0.9938938992938139,-0.5457330346922071,0.8760142266781397,,-0.03261365873507904,-0.08598146393793565,0.08100309464,-0.06541713947960498,,-3.7845224e-05,6.556511e-07,0.0,1.0,3.5684556e-05,2.9888004e-05,-3.5684556e-05,1.0,3.0100346e-06,-2.989173e-05,-3.0398369e-06,1.0,438,1.336,0,0,0.0,False,-0.2564821056679656,1.0502874705711984
1.3539076519664377,11:00:39.882771,10:59:35.914339,0,,0.117613725,0.0068897605,0.03886521,-0.33643624,-0.89267397,-0.299906,-0.469001,-0.117332265,0.8753691,-0.8166081,0.43516222,-0.37919027,,0.0506647,-0.02518478,0.032877207,0.32272267,-0.70449287,0.63209146,-0.28877163,0.5626968,0.7745858,-0.9013661,-0.43250662,-0.021842718,,0.07728274,1.328329,0.4541155,0.99788016,0.045598526,-0.04643289,0.005127961,-0.76636267,-0.6423877,-0.06487636,0.64078784,-0.7649719,,-0.08758672,0.24776486,-0.101633646,0.4333541,0.8513664,0.29560015,-0.8415376,0.26488754,0.47079623,0.3225193,-0.45278013,0.8312469,,-0.012277039,0.41627705,-0.34533167,-0.16806148,0.7280449,-0.6646096,-0.87378454,0.20208995,0.44233498,0.45635068,0.65506506,0.60219085,,1.0391554900899016,0.327196746415144,0.16773214826000002,-0.1455248207782599,0.4549995442189167,0.45646569705495266,-0.4042765636823411,,-1.2499011474946142,-0.0011584099311336765,0.17966968287,0.5399516044726502,0.9938938992938139,-0.5456513559520666,0.8758508826120054,,-0.03261365873507904,-0.08598146393793565,0.08100309464,-0.06541713947960498,,-3.7845224e-05,6.556511e-07,0.0,1.0,3.5684556e-05,2.9888004e-05,-3.5684556e-05,1.0,3.0100346e-06,-2.989173e-05,-3.0398369e-06,1.0,446,1.361,0,0,0.0,False,-0.25546928445310746,1.049804668563404
1.3819399969652295,11:00:39.908752,10:59:35.914339,0,,0.11746858,0.0068292767,0.038879886,-0.3313181,-0.89632165,-0.2946787,-0.46886885,-0.11461806,0.8757994,-0.8187736,0.4283339,-0.38228238,,0.050667875,-0.02518545,0.03287822,0.3226241,-0.70456165,0.63206506,-0.28876588,0.5626733,0.77460504,-0.9014033,-0.4324252,-0.021921545,,0.07728274,1.328329,0.4541155,0.99788016,0.045598526,-0.04643289,0.005127961,-0.76636267,-0.6423877,-0.06487636,0.64078784,-0.7649719,,-0.0874411,0.2477408,-0.10168984,0.42846534,0.8555254,0.29067805,-0.8432701,0.2630773,0.46870655,0.32451954,-0.44594464,0.83415854,,-0.012280293,0.41627684,-0.34533268,-0.16795893,0.728102,-0.66457295,-0.8737918,0.20213947,0.44229802,0.4563745,0.6549863,0.60225844,,1.0396806359253488,0.3264090276619731,0.16769974101000001,-0.15181551908279564,0.4575956377144601,0.4471610277523513,-0.40394987555007256,,-1.2499088702274885,-0.001166132664007901,0.17966968287,0.5401612944161347,0.9938938992938139,-0.5454063197316448,0.8753608504136026,,-0.03261365873507904,-0.08598146393793565,0.08100309464,-0.06541713947960498,,-3.7845224e-05,6.556511e-07,0.0,1.0,3.5684556e-05,2.9888004e-05,-3.5684556e-05,1.0,3.0100346e-06,-2.989173e-05,-3.0398369e-06,1.0,458,1.398,0,0,0.0,False,-0.2555288621716292,1.0498529487641832
1.4079153980128467,11:00:39.943980,10:59:35.995046,0,,0.11720982,0.006660059,0.03894843,-0.32490566,-0.90237415,-0.28312016,-0.46660402,-0.10744262,0.8779162,-0.82262814,0.41734502,-0.3861427,,0.05065722,-0.025188215,0.032875597,0.32259288,-0.7046736,0.6319562,-0.28874654,0.56256366,0.7746918,-0.9014206,-0.4323854,-0.02199316,,0.07734037,1.328328,0.4541155,0.9978804,0.045555297,-0.046469122,0.0050716754,-0.76636523,-0.64238507,-0.06487636,0.64078784,-0.7649719,,-0.08723332,0.2476767,-0.10185726,0.42233157,0.8622707,0.27950892,-0.8445414,0.26232016,0.46683827,0.32922015,-0.4332174,0.8390094,,-0.012321241,0.41627038,-0.34533247,-0.16794789,0.7282452,-0.6644189,-0.8737767,0.20207642,0.4423567,0.45640752,0.65484655,0.60238534,,1.0402135044936702,0.32490309475149937,0.16758177862,-0.1593643570482385,0.4637442802039049,0.43095723468675523,-0.4011730264257899,,-1.2499088702274885,-0.0011275189996367784,0.17967097916000002,0.5401612944161347,0.9938938992938139,-0.5452429622513637,0.875034162281334,,-0.03261365873507904,-0.08598146393793565,0.08100309464,-0.06541713947960498,,1.9665807e-05,4.1127205e-06,-2.026558e-06,0.99999994,-7.469207e-06,-6.2547624e-06,7.4654818e-06,1.0,-6.556511e-07,6.2547624e-06,6.2584877e-07,1.0,466,1.422,0,0,0.0,False,-0.2557075953271921,1.0499977893665218
1.443172113969922,11:00:39.969744,10:59:35.995046,0,,0.11712597,0.006572947,0.03901516,-0.31699422,-0.9073154,-0.27621233,-0.46543652,-0.104931,0.8788392,-0.8263676,0.40714633,-0.38903522,,0.050658166,-0.025185622,0.03287804,0.32262656,-0.7045714,0.63205284,-0.28860286,0.5627379,0.77461886,-0.90145457,-0.43232507,-0.021787316,,0.07734037,1.328328,0.4541155,0.9978804,0.045555297,-0.046469122,0.0050716754,-0.76636523,-0.64238507,-0.06487636,0.64078784,-0.7649719,,-0.08715245,0.24765868,-0.10196774,0.4147694,0.86804706,0.2728748,-0.8467166,0.25837186,0.4650968,0.33322275,-0.42395553,0.84215456,,-0.0123226885,0.41627377,-0.34533235,-0.16798419,0.7281256,-0.66454077,-0.8737032,0.20222682,0.44243312,0.45653483,0.65493315,0.6021947,,1.0403216227539094,0.32424666245719025,0.16749751977000002,-0.16838102461807306,0.4682532846961644,0.4191942485908577,-0.4036231874178041,,-1.249924315693237,-0.0011197962667625538,0.17967097916000002,0.5401612944161347,0.9940305357935793,-0.5454360588952007,0.8751975063474683,,-0.03261365873507904,-0.08598146393793565,0.08100309464,-0.06541713947960498,,1.9665807e-05,4.1127205e-06,-2.026558e-06,0.99999994,-7.469207e-06,-6.2547624e-06,7.4654818e-06,1.0,-6.556511e-07,6.2547624e-06,6.2584877e-07,1.0,499,1.525,0,0,0.0,False,-0.2552309735790237,1.0499495091657423
1.4689364479854703,11:00:40.070273,10:59:36.140576,0,,0.11656545,0.006124839,0.039614722,-0.26579756,-0.93854237,-0.22020395,-0.47694278,-0.07048297,0.8761037,-0.8377812,0.33789092,-0.42889684,,0.05069177,-0.025173523,0.032889903,0.32241005,-0.7046055,0.6321253,-0.2894034,0.5624393,0.77453697,-0.9012754,-0.4326579,-0.022579312,,0.07734037,1.328328,0.4541155,0.9978804,0.045555297,-0.046469122,0.0050716754,-0.76636523,-0.64238507,-0.06487636,0.64078784,-0.7649719,,-0.08663243,0.24773812,-0.10274089,0.365457,0.9041868,0.22110517,-0.86760116,0.24483235,0.43281096,0.33720824,-0.35000488,0.87394917,,-0.012358317,0.4162857,-0.34532997,-0.16775185,0.72822565,-0.6644898,-0.8741154,0.20179033,0.44181773,0.45583063,0.6549565,0.60270256,,1.0418970602602513,0.3223314247043826,0.16677937511000002,-0.23002986800252323,0.4712592876910041,0.32346593346901437,-0.40525662807914686,,-1.2501405522137152,-0.0011197962667625538,0.17966968287,0.5405806743031037,0.9930740802952212,-0.5447378123094664,0.875034162281334,,-0.03261365873507904,-0.08598146393793565,0.08100309464,-0.06541713947960498,,1.9665807e-05,4.1127205e-06,-2.026558e-06,0.99999994,-7.469207e-06,-6.2547624e-06,7.4654818e-06,1.0,-6.556511e-07,6.2547624e-06,6.2584877e-07,1.0,507,1.549,0,0,0.0,False,-0.2559459062012759,1.0496115477602863
1.5694659899454564,11:00:40.093860,10:59:36.140576,0,,0.11635117,0.006004587,0.039964706,-0.2516464,-0.9453194,-0.20747341,-0.47970176,-0.064357296,0.87506825,-0.8405715,0.31973314,-0.437276,,0.050708413,-0.025164448,0.032898724,0.3225037,-0.7045551,0.63213384,-0.28934976,0.56247187,0.77453345,-0.90125906,-0.43269783,-0.022463828,,0.07734037,1.328328,0.4541155,0.9978804,0.045555297,-0.046469122,0.0050716754,-0.76636523,-0.64238507,-0.06487636,0.64078784,-0.7649719,,-0.08644743,0.24788345,-0.10309798,0.3517732,0.9123885,0.20929137,-0.8728194,0.23889491,0.42557663,0.33829257,-0.33238003,0.88038725,,-0.012376572,0.4162958,-0.34532872,-0.16784975,0.72817993,-0.6645152,-0.8740797,0.20177846,0.44189373,0.455863,0.655011,0.6026189,,1.043055470191385,0.32221558371126924,0.1664306731,-0.24743413331173872,0.47139592419076953,0.30007607462525776,-0.4031331552194012,,-1.2502641159397028,-0.0011197962667625538,0.17967097916000002,0.5405806743031037,0.9930740802952212,-0.5447378123094664,0.875034162281334,,-0.03261365873507904,-0.08598146393793565,0.08100309464,-0.06541713947960498,,1.9665807e-05,4.1127205e-06,-2.026558e-06,0.99999994,-7.469207e-06,-6.2547624e-06,7.4654818e-06,1.0,-6.556511e-07,6.2547624e-06,6.2584877e-07,1.0,515,1.574,0,0,0.0,False,-0.25642252794944387,1.049708108161845
1.593042719992809,11:00:40.120340,10:59:36.140576,0,,0.116181865,0.0059428066,0.04019603,-0.24125925,-0.9501275,-0.19761488,-0.48150855,-0.059600964,0.87441254,-0.84258145,0.3061134,-0.4431153,,0.050721556,-0.02515734,0.03290677,0.32257977,-0.7045141,0.6321407,-0.28930628,0.5624982,0.77453053,-0.90124583,-0.43273032,-0.022369951,,0.07734037,1.328328,0.4541155,0.9978804,0.045555297,-0.046469122,0.0050716754,-0.76636523,-0.64238507,-0.06487636,0.64078784,-0.7649719,,-0.08629841,0.24799588,-0.10332414,0.34171578,0.91825956,0.20007424,-0.8764566,0.2345407,0.42049304,0.3391962,-0.3190455,0.88496095,,-0.012391145,0.4163045,-0.34532857,-0.16792929,0.7281428,-0.66453576,-0.87405074,0.20176882,0.44195548,0.4558893,0.6550553,0.60255086,,1.0440594254650342,0.32213835638252697,0.16619734090000002,-0.26085428969474833,0.471532560690535,0.2807701527885291,-0.4034598433516697,,-1.2503645114670676,-0.0011197962667625538,0.17967097916000002,0.5405806743031037,0.9930740802952212,-0.5447378123094664,0.875034162281334,,-0.03261365873507904,-0.08598146393793565,0.08100309464,-0.06541713947960498,,1.9665807e-05,4.1127205e-06,-2.026558e-06,0.99999994,-7.469207e-06,-6.2547624e-06,7.4654818e-06,1.0,-6.556511e-07,6.2547624e-06,6.2584877e-07,1.0,527,1.611,0,0,0.0,False,-0.254694774112334,1.0499977893665218
1.6195319800172001,11:00:40.157499,10:59:36.213345,0,,0.11574335,0.0058175772,0.040630206,-0.21678366,-0.9595309,-0.17973655,-0.4863407,-0.0534876,0.87213063,-0.84645003,0.27647692,-0.45506376,,0.05074332,-0.025145866,0.032919765,0.3226143,-0.70437557,0.6322774,-0.28909978,0.5627467,0.7744271,-0.9012997,-0.43263268,-0.022084802,,0.07734037,1.328328,0.4541155,0.9978804,0.045555297,-0.046469122,0.0050716754,-0.76636523,-0.64238507,-0.06487636,0.64078784,-0.7649719,,-0.08589824,0.24821107,-0.103760086,0.31795976,0.9301697,0.18353733,-0.88493145,0.22167964,0.40957835,0.34029087,-0.2926474,0.8936216,,-0.012415221,0.41631845,-0.34532824,-0.16796707,0.72797745,-0.66470736,-0.8739466,0.20199227,0.4420593,0.45607495,0.65517014,0.6022854,,1.0463067407314335,0.32169816060869616,0.16579678729000003,-0.2904205717260662,0.4708493781917078,0.2466954564874128,-0.40296981115326697,,-1.2505189661245522,-0.0011197962667625538,0.17967227545000003,0.5407903642465883,0.9932107167949866,-0.5447675514730221,0.8751975063474683,,-0.03261365873507904,-0.08598146393793565,0.08100309464,-0.06541713947960498,,1.9665807e-05,4.1127205e-06,-2.026558e-06,0.99999994,-7.469207e-06,-6.2547624e-06,7.4654818e-06,1.0,-6.556511e-07,6.2547624e-06,6.2584877e-07,1.0,535,1.635,0,0,0.0,False,-0.25535012901606535,1.049708108161845
1.6566928859101608,11:00:40.182340,10:59:36.213345,0,,0.11549824,0.0057782084,0.040770546,-0.20022358,-0.9631623,-0.17952336,-0.48876333,-0.0606115,0.8703083,-0.8491295,0.2620007,-0.45862266,,0.050760627,-0.02513621,0.032928288,0.32266384,-0.7044722,0.6321445,-0.2892969,0.56250465,0.7745294,-0.9012187,-0.43279028,-0.022301942,,0.07734037,1.328328,0.4541155,0.9978804,0.045555297,-0.046469122,0.0050716754,-0.76636523,-0.64238507,-0.06487636,0.64078784,-0.7649719,,-0.08566615,0.24829125,-0.10390509,0.30185494,0.93547904,0.18374592,-0.8900474,0.20746408,0.40592402,0.34161276,-0.28607273,0.8952447,,-0.012434109,0.41632864,-0.34532627,-0.16801687,0.72810996,-0.6645496,-0.87403756,0.20172586,0.4420011,0.45588225,0.655105,0.60250217,,1.0473879233338248,0.3212965784992365,0.16566975087000002,-0.31034111635709605,0.47112265119123864,0.2357727057216063,-0.40100968235965556,,-1.250650252583414,-0.0011120735338883295,0.17967227545000003,0.5407903642465883,0.9929374437954557,-0.5444630369254888,0.8753608504136025,,-0.03261365873507904,-0.08598146393793565,0.08100309464,-0.06541713947960498,,1.9665807e-05,4.1127205e-06,-2.026558e-06,0.99999994,-7.469207e-06,-6.2547624e-06,7.4654818e-06,1.0,-6.556511e-07,6.2547624e-06,6.2584877e-07,1.0,543,1.66,0,0,0.0,False,-0.25588632848275505,1.05014262996886
1.6814993019215763,11:00:40.203088,10:59:36.213345,0,,0.11526039,0.005757317,0.040881142,-0.18472807,-0.96794975,-0.17014325,-0.4880215,-0.059925303,0.8707721,-0.85305953,0.24388966,-0.46131042,,0.05077012,-0.025131635,0.0329327,0.32269248,-0.7044913,0.6321085,-0.28939715,0.56241614,0.7745563,-0.9011763,-0.43287402,-0.022390515,,0.07734037,1.328328,0.4541155,0.9978804,0.045555297,-0.046469122,0.0050716754,-0.76636523,-0.64238507,-0.06487636,0.64078784,-0.7649719,,-0.085439265,0.24836653,-0.10401506,0.28678793,0.94193876,0.174654,-0.89338815,0.19714822,0.4037204,0.3458472,-0.27181596,0.8980567,,-0.012444407,0.4163336,-0.34532562,-0.16804579,0.7281464,-0.6645024,-0.87408346,0.20160809,0.44196418,0.45578367,0.65510076,0.6025813,,1.0483996013403483,0.32075598719804077,0.16559067718,-0.3287938313837342,0.47467520018514014,0.21678512841780864,-0.4049299399468783,,-1.250719757179282,-0.0011120735338883295,0.17967227545000003,0.5407903642465883,0.9928008072956902,-0.5443516190217923,0.8753608504136025,,-0.03261365873507904,-0.08598146393793565,0.08100309464,-0.06541713947960498,,1.9665807e-05,4.1127205e-06,-2.026558e-06,0.99999994,-7.469207e-06,-6.2547624e-06,7.4654818e-06,1.0,-6.556511e-07,6.2547624e-06,6.2584877e-07,1.0,576,1.762,0,0,0.0,False,-0.25588632848275505,1.0501909101696396
1.7022749329917133,11:00:40.305586,10:59:36.365694,0,,0.11409938,0.005431995,0.040867463,-0.05770904,-0.98977256,-0.13046001,-0.50043213,-0.08439488,0.8616526,-0.86385036,0.115011536,-0.49044365,,0.0507821,-0.025153406,0.032931745,0.32291168,-0.7043566,0.6321467,-0.28915355,0.5625692,0.774536,-0.901176,-0.4328943,-0.022007227,,0.07734037,1.328328,0.4541155,0.9978804,0.045555297,-0.046469122,0.0050716754,-0.76636523,-0.64238507,-0.06487636,0.64078784,-0.7649719,,-0.08426899,0.24821535,-0.10426314,0.16205509,0.9770312,0.13837732,-0.9217499,0.09981429,0.37471884,0.35229996,-0.18827438,0.91675377,,-0.012454851,0.41631573,-0.3453394,-0.16827598,0.7280078,-0.664596,-0.8739423,0.20168309,0.442209,0.45596936,0.6552317,0.6022984,,1.0505928574766281,0.3171649164115264,0.16546364076,-0.4751574119359322,0.47276228918842395,0.10366802791220914,-0.4055833162114154,,-1.250719757179282,-0.0012742509242470441,0.17967357174,0.5405806743031037,0.9932107167949866,-0.5446858727328816,0.8753608504136025,,-0.03261365873507904,-0.08598146393793565,0.08100309464,-0.06541713947960498,,1.9665807e-05,4.1127205e-06,-2.026558e-06,0.99999994,-7.469207e-06,-6.2547624e-06,7.4654818e-06,1.0,-6.556511e-07,6.2547624e-06,6.2584877e-07,1.0,584,1.787,0,0,0.0,False,-0.2551713958605024,1.050432311173537
1.8047786289826035,11:00:40.326211,10:59:36.365694,0,,0.11397791,0.005392432,0.04080753,-0.033952888,-0.99138224,-0.12652394,-0.5019007,-0.09256196,0.8599582,-0.86425865,0.09270053,-0.4944327,,0.05078975,-0.025168799,0.032931507,0.32298088,-0.7043203,0.63215184,-0.2889883,0.5626523,0.7745373,-0.9012041,-0.43284535,-0.021814585,,0.07734037,1.328328,0.4541155,0.9978804,0.045555297,-0.046469122,0.0050716754,-0.76636523,-0.64238507,-0.06487636,0.64078784,-0.7649719,,-0.0841407,0.24815874,-0.1042472,0.13853502,0.9811243,0.13491912,-0.92538846,0.079709895,0.3705435,0.35279486,-0.17618586,0.91896373,,-0.012461509,0.4163036,-0.3453496,-0.16834946,0.72795993,-0.6646298,-0.8738547,0.2017705,0.4423422,0.4561101,0.65525794,0.60216326,,1.0504615710177663,0.3168251161650605,0.16549086285,-0.5017880347584668,0.4712592876910041,0.0873326957226489,-0.3975794569708357,,-1.2507120344464078,-0.0013823691844861872,0.17967357174,0.5405806743031037,0.9934839897945175,-0.5447453510599933,0.8756875385458711,,-0.03261365873507904,-0.08598146393793565,0.08100309464,-0.06541713947960498,,1.9665807e-05,4.1127205e-06,-2.026558e-06,0.99999994,-7.469207e-06,-6.2547624e-06,7.4654818e-06,1.0,-6.556511e-07,6.2547624e-06,6.2584877e-07,1.0,592,1.811,0,0,0.0,False,-0.2539202637715605,1.0501909101696396
1.825360512943007,11:00:40.355850,10:59:36.429992,0,,0.11384578,0.0053770393,0.040715113,-0.0018648766,-0.9937306,-0.11178467,-0.5015425,-0.09577926,0.85981476,-0.865131,0.05766823,-0.49821958,,0.050806098,-0.025204651,0.03293109,0.32302716,-0.7044312,0.6320047,-0.28919247,0.5623911,0.7746508,-0.90112203,-0.43300438,-0.022048771,,0.07734037,1.328328,0.4541155,0.9978804,0.045555297,-0.046469122,0.0050716754,-0.76636523,-0.64238507,-0.06487636,0.64078784,-0.7649719,,-0.0839998,0.24810162,-0.10419135,0.10669274,0.98694736,0.12062972,-0.92868686,0.055577446,0.36667684,0.35518646,-0.15114899,0.92249477,,-0.01247556,0.41627553,-0.34537342,-0.16839585,0.7281078,-0.66445607,-0.8739494,0.20149164,0.4422822,0.45591146,0.65517944,0.60239905,,1.0501526617027972,0.3165625432473369,0.16556345509,-0.5376450150943204,0.4708493781917078,0.05622063447962171,-0.39806948916923846,,-1.2506965889806594,-0.0016140511707129226,0.17966838658,0.5405806743031037,0.9934839897945175,-0.544418636099431,0.8753608504136026,,-0.03261365873507904,-0.08598146393793565,0.08100309464,-0.06541713947960498,,1.9665807e-05,4.1127205e-06,-2.026558e-06,0.99999994,-7.469207e-06,-6.2547624e-06,7.4654818e-06,1.0,-6.556511e-07,6.2547624e-06,6.2584877e-07,1.0,600,1.836,0,0,0.0,False,-0.2545756186752919,1.0501909101696396
1.8550370519515127,11:00:40.383107,10:59:36.429992,0,,0.11375998,0.0053766817,0.040629253,0.020085901,-0.9940126,-0.10740302,-0.50321317,-0.10287704,0.8580167,-0.8639288,0.036812596,-0.50226665,,0.050821476,-0.025236659,0.032936454,0.32317343,-0.70466644,0.63166744,-0.28950298,0.5618671,0.77491504,-0.90097,-0.43330172,-0.022422701,,0.07734037,1.328328,0.4541155,0.9978804,0.045555297,-0.046469122,0.0050716754,-0.76636523,-0.64238507,-0.06487636,0.64078784,-0.7649719,,-0.08390626,0.24805588,-0.10412894,0.08482318,0.9895338,0.11673856,-0.9313068,0.037085168,0.36234286,0.35422122,-0.13945448,0.9247052,,-0.012489726,0.4162543,-0.34539872,-0.16854535,0.728414,-0.66408247,-0.87408555,0.20094903,0.44226006,0.45559514,0.65500575,0.60282713,,1.0499982070453129,0.31652392958296577,0.16562826959000002,-0.5628078083124634,0.46743346569757177,0.0405466868002652,-0.4046032518146096,,-1.2507120344464078,-0.0018225649583169842,0.17965801626000003,0.5403709843596192,0.993347353294752,-0.5439805032351723,0.8756875385458711,,-0.03261365873507904,-0.08598146393793565,0.08100309464,-0.06541713947960498,,1.9665807e-05,4.1127205e-06,-2.026558e-06,0.99999994,-7.469207e-06,-6.2547624e-06,7.4654818e-06,1.0,-6.556511e-07,6.2547624e-06,6.2584877e-07,1.0,608,1.861,0,0,0.0,False,-0.25481392954937654,1.0503840309727575
1.8822537859668955,11:00:40.405103,10:59:36.429992,0,,0.11362971,0.0054124147,0.040528134,0.04953187,-0.99342334,-0.103230216,-0.5020219,-0.114115134,0.8572933,-0.8634354,0.0093605,-0.50437266,,0.050841622,-0.025276862,0.03295088,0.32314828,-0.70467186,0.63167435,-0.28970098,0.56178004,0.77490413,-0.90091527,-0.43340576,-0.022606075,,0.07734037,1.328328,0.4541155,0.9978804,0.045555297,-0.046469122,0.0050716754,-0.76636523,-0.64238507,-0.06487636,0.64078784,-0.7649719,,-0.08376866,0.2480328,-0.10403408,0.055440914,0.9920673,0.11282209,-0.932857,0.011182928,0.36007333,0.35595527,-0.12520967,0.9260769,,-0.012509491,0.41623285,-0.34543586,-0.16851744,0.72843975,-0.6640613,-0.8741845,0.20081629,0.4421247,0.45541555,0.6550178,0.60294974,,1.0499287024494448,0.31652392958296577,0.1657306765,-0.5948903696655956,0.46620373719968283,0.022028229039938604,-0.39823283323537273,,-1.2507352026450305,-0.0020774151431663932,0.17963986820000002,0.5405806743031037,0.993347353294752,-0.5436537882746102,0.8760142266781397,,-0.03261365873507904,-0.08598146393793565,0.08100309464,-0.06541713947960498,,1.9665807e-05,4.1127205e-06,-2.026558e-06,0.99999994,-7.469207e-06,-6.2547624e-06,7.4654818e-06,1.0,-6.556511e-07,6.2547624e-06,6.2584877e-07,1.0,616,1.885,0,0,0.0,False,-0.2538011083345184,1.050432311173537
1.904249996994622,11:00:40.436677,10:59:36.503532,0,,0.113486834,0.0054507703,0.040451914,0.07873734,-0.9920775,-0.097890176,-0.49879727,-0.12422538,0.85776997,-0.86313486,-0.018711165,-0.50462675,,0.05085689,-0.025307842,0.032969892,0.32320756,-0.7048219,0.63147664,-0.28997573,0.56142884,0.7750559,-0.9008056,-0.43361697,-0.02292338,,0.07734037,1.328328,0.4541155,0.9978804,0.045555297,-0.046469122,0.0050716754,-0.76636523,-0.64238507,-0.06487636,0.64078784,-0.7649719,,-0.08362099,0.24802849,-0.10395745,0.026226107,0.9938575,0.107514866,-0.93292755,-0.014302489,0.35977998,0.35910776,-0.10973921,0.92682195,,-0.012525638,0.41622186,-0.3454701,-0.16857675,0.7286391,-0.6638275,-0.8743121,0.20044322,0.44204172,0.4551486,0.6549103,0.6032679,,1.0499673161138159,0.31653165231583996,0.16582271309000002,-0.6278116907926659,0.46620373719968283,0.0018535802252197392,-0.39904955356604416,,-1.2507815390422758,-0.002270483465022006,0.17961783127000003,0.5405806743031037,0.9932107167949866,-0.5432156554103516,0.8753608504136026,,-0.03261365873507904,-0.08598146393793565,0.08100309464,-0.06541713947960498,,1.9665807e-05,4.1127205e-06,-2.026558e-06,0.99999994,-7.469207e-06,-6.2547624e-06,7.4654818e-06,1.0,-6.556511e-07,6.2547624e-06,6.2584877e-07,1.0,649,1.988,0,0,0.0,False,-0.2543373078012081,1.0500943497680806
1.9358661459991708,11:00:40.524154,10:59:36.575802,0,,0.112964034,0.0055088997,0.040325746,0.15797599,-0.9845105,-0.07604343,-0.49080184,-0.14511165,0.859102,-0.85682976,-0.09839523,-0.5061237,,0.050894573,-0.025320418,0.03299755,0.32215762,-0.7043172,0.6325753,-0.29055628,0.5623871,0.7741432,-0.9009947,-0.43319502,-0.023466676,,0.07734037,1.328328,0.4541155,0.9978804,0.045555297,-0.046469122,0.0050716754,-0.76636523,-0.64238507,-0.06487636,0.64078784,-0.7649719,,-0.083091624,0.24804427,-0.10384727,-0.053528678,0.994867,0.08587341,-0.9302781,-0.0809388,0.357815,0.36292884,-0.060732786,0.92983556,,-0.012566247,0.41622654,-0.34549597,-0.16747923,0.7280239,-0.6647796,-0.8747021,0.20134068,0.44086078,0.45480436,0.65531915,0.6030836,,1.0512029533736917,0.3165084841172173,0.16596400870000003,-0.7177686765475269,0.45991845821047256,-0.060732871781270965,-0.40149971455805844,,-1.250928270966886,-0.0023708789923869247,0.17959838692000002,0.5426775737379491,0.9925275342961595,-0.5424135296714476,0.8758508826120053,,-0.03261365873507904,-0.08598146393793565,0.08100309464,-0.06541713947960498,,1.9665807e-05,4.1127205e-06,-2.026558e-06,0.99999994,-7.469207e-06,-6.2547624e-06,7.4654818e-06,1.0,-6.556511e-07,6.2547624e-06,6.2584877e-07,1.0,653,2.0,0,0,0.0,False,-0.25439688551972894,1.0503840309727575
2.023348563001491,11:00:40.552283,10:59:36.575802,0,,0.11270867,0.0055698305,0.040330693,0.18046044,-0.9810309,-0.07079765,-0.48758078,-0.15173855,0.8597909,-0.8542243,-0.12063867,-0.5057146,,0.050899394,-0.025313206,0.033005178,0.32242537,-0.7039345,0.6328647,-0.29052842,0.56271106,0.7739183,-0.9009079,-0.43339622,-0.023080826,,0.07734037,1.328328,0.4541155,0.9978804,0.045555297,-0.046469122,0.0050716754,-0.76636523,-0.64238507,-0.06487636,0.64078784,-0.7649719,,-0.08284085,0.24811876,-0.1038246,-0.07627974,0.9938245,0.08058719,-0.9282782,-0.10028715,0.35810906,0.3639794,-0.04749087,0.93019545,,-0.012572554,0.41623622,-0.345496,-0.16775809,0.72765774,-0.66511005,-0.87466115,0.20137595,0.4409259,0.4547803,0.6557148,0.6026715,,1.0524231451678192,0.31655482051446265,0.16599900853000002,-0.7439799194830924,0.4573223647149292,-0.0782188292447739,-0.39725276883856714,,-1.2510054982956282,-0.0023554335266384755,0.17959579434000003,0.5422581938509801,0.9925275342961595,-0.5432303170728534,0.8765042588765425,,-0.03261365873507904,-0.08598146393793565,0.08100309464,-0.06541713947960498,,1.9665807e-05,4.1127205e-06,-2.026558e-06,0.99999994,-7.469207e-06,-6.2547624e-06,7.4654818e-06,1.0,-6.556511e-07,6.2547624e-06,6.2584877e-07,1.0,661,2.024,0,0,0.0,False,-0.2545756186752919,1.0505771517758753
2.05147558497265,11:00:40.574649,10:59:36.645058,0,,0.112513974,0.0056354254,0.04035233,0.19206145,-0.9790884,-0.06706773,-0.4847464,-0.15406674,0.86097866,-0.85330725,-0.13284999,-0.5042,,0.050906673,-0.025310867,0.033010542,0.32246825,-0.7038056,0.63298625,-0.29051158,0.56285155,0.77382237,-0.90089786,-0.4334231,-0.022962064,,0.07734037,1.328328,0.4541155,0.9978804,0.045555297,-0.046469122,0.0050716754,-0.76636523,-0.64238507,-0.06487636,0.64078784,-0.7649719,,-0.08265221,0.24820153,-0.103809126,-0.08802948,0.99316204,0.07668071,-0.9266035,-0.10989605,0.35962307,0.3655909,-0.039395183,0.92994153,,-0.012580662,0.41624054,-0.34549767,-0.16780284,0.72752655,-0.6652423,-0.8746486,0.2014383,0.44092238,0.454788,0.65584123,0.6025281,,1.0535120505030848,0.31657798871308535,0.16602752691000003,-0.7580291456965556,0.4567758187158674,-0.08896314502924522,-0.4039498755500726,,-1.251059557425748,-0.0023631562595127,0.17959449805000002,0.5422581938509801,0.9925275342961595,-0.5433936745531345,0.8755241944797367,,-0.03261365873507904,-0.08598146393793565,0.08100309464,-0.06541713947960498,,1.9665807e-05,4.1127205e-06,-2.026558e-06,0.99999994,-7.469207e-06,-6.2547624e-06,7.4654818e-06,1.0,-6.556511e-07,6.2547624e-06,6.2584877e-07,1.0,669,2.049,0,0,0.0,False,-0.2545756186752919,1.0505288715750958
2.0738431439967826,11:00:40.602998,10:59:36.645058,0,,0.11213434,0.005755231,0.040359452,0.21016297,-0.97568685,-0.06218214,-0.48387074,-0.15907076,0.8605612,-0.8495297,-0.15076998,-0.50553715,,0.05091636,-0.025307827,0.033016026,0.3224985,-0.7039249,0.6328382,-0.2906183,0.5626366,0.77393866,-0.9008527,-0.43350857,-0.023124129,,0.07734037,1.328328,0.4541155,0.9978804,0.045555297,-0.046469122,0.0050716754,-0.76636523,-0.64238507,-0.06487636,0.64078784,-0.7649719,,-0.082280666,0.24833477,-0.10375686,-0.106429935,0.9917123,0.07196846,-0.9252775,-0.12528047,0.3580033,0.3640525,-0.028488526,0.93094265,,-0.01259122,0.4162451,-0.34549877,-0.16783342,0.7276692,-0.6650786,-0.8746973,0.20124419,0.44091427,0.45468295,0.6557426,0.6027148,,1.0558365930982265,0.31655482051446265,0.16609104512,-0.7796272098754615,0.45117372222548435,-0.10407958735156746,-0.3972527688385671,,-1.251129062021616,-0.0023708789923869247,0.17959320176000002,0.5422581938509801,0.992390897796394,-0.5431188991691569,0.8755241944797367,,-0.03261365873507904,-0.08598146393793565,0.08100309464,-0.06541713947960498,,1.9665807e-05,4.1127205e-06,-2.026558e-06,0.99999994,-7.469207e-06,-6.2547624e-06,7.4654818e-06,1.0,-6.556511e-07,6.2547624e-06,6.2584877e-07,1.0,681,2.086,0,0,0.0,False,-0.254694774112334,1.050335750771978
2.1021901950007305,11:00:40.631796,10:59:36.645058,0,,0.111689754,0.0059076697,0.040382624,0.22803804,-0.9718714,-0.058860105,-0.47893763,-0.1645998,0.8622794,-0.8477132,-0.1684422,-0.50300074,,0.050917894,-0.025307052,0.03301841,0.3225102,-0.7039186,0.6328392,-0.29061157,0.56264067,0.7739382,-0.90085065,-0.43351352,-0.023109704,,0.07734037,1.328328,0.4541155,0.9978804,0.045555297,-0.046469122,0.0050716754,-0.76636523,-0.64238507,-0.06487636,0.64078784,-0.7649719,,-0.081847526,0.24850948,-0.103699505,-0.1245978,0.9898506,0.06834654,-0.9220062,-0.14095667,0.3606048,0.36657876,-0.018085366,0.93021125,,-0.012593142,0.41624707,-0.34549984,-0.16784565,0.72766346,-0.66508174,-0.87469286,0.20124272,0.44092378,0.454687,0.6557494,0.6027043,,1.0584932132069598,0.3163926431241039,0.16618048913000003,-0.8020640338283057,0.4496707207280645,-0.11910805969887867,-0.40117302642578984,,-1.2511445074873644,-0.0023708789923869247,0.17959190547,0.5422581938509801,0.992390897796394,-0.5431188991691569,0.8755241944797367,,-0.03261365873507904,-0.08598146393793565,0.08100309464,-0.06541713947960498,,1.9665807e-05,4.1127205e-06,-2.026558e-06,0.99999994,-7.469207e-06,-6.2547624e-06,7.4654818e-06,1.0,-6.556511e-07,6.2547624e-06,6.2584877e-07,1.0,689,2.11,0,0,0.0,False,-0.2550522404234603,1.0503840309727575
2.130969170946628,11:00:40.657062,10:59:36.645058,0,,0.11140227,0.005987212,0.04036118,0.23969346,-0.9690343,-0.059324365,-0.47831953,-0.1710467,0.8613671,-0.8448417,-0.17808811,-0.5045069,,0.050917894,-0.025307052,0.03301841,0.3225102,-0.7038669,0.63289666,-0.29061157,0.56270385,0.7738923,-0.90085065,-0.4335154,-0.023074329,,0.07734037,1.328328,0.4541155,0.9978804,0.045555297,-0.046469122,0.0050716754,-0.76636523,-0.64238507,-0.06487636,0.64078784,-0.7649719,,-0.081563115,0.24858497,-0.10364612,-0.13649003,0.98823607,0.068992466,-0.9208364,-0.15224437,0.3590013,0.36528176,-0.014530675,0.93078357,,-0.012593142,0.41624707,-0.34549984,-0.16784565,0.72760916,-0.66514117,-0.87469286,0.20127873,0.44090736,0.454687,0.6557986,0.60265076,,1.060223105370786,0.3161995748022483,0.16624659992000002,-0.8161132600417688,0.44557162573510134,-0.12524025644429132,-0.39872286543377566,,-1.2511445074873644,-0.0023708789923869247,0.17959190547,0.5422581938509801,0.992390897796394,-0.5432005779092974,0.8758508826120053,,-0.03261365873507904,-0.08598146393793565,0.08100309464,-0.06541713947960498,,1.9665807e-05,4.1127205e-06,-2.026558e-06,0.99999994,-7.469207e-06,-6.2547624e-06,7.4654818e-06,1.0,-6.556511e-07,6.2547624e-06,6.2584877e-07,1.0,718,2.201,0,0,0.0,False,-0.25493308498641865,1.0502874705711984
2.1562493999954313,11:00:40.746549,10:59:36.812121,0,,0.110207796,0.006116003,0.039980337,0.3058229,-0.95096964,-0.046139438,-0.4688152,-0.1925915,0.8620446,-0.8286644,-0.24200214,-0.50472796,,0.050918505,-0.0253089,0.03301835,0.3224878,-0.70391124,0.6328588,-0.29074842,0.562597,0.7739185,-0.90081453,-0.43358216,-0.023230582,,0.07734037,1.328328,0.4541155,0.9978804,0.045555297,-0.046469122,0.0050716754,-0.76636523,-0.64238507,-0.06487636,0.64078784,-0.7649719,,-0.08034462,0.24856012,-0.103325136,-0.20421802,0.9773297,0.055871893,-0.909618,-0.2105436,0.35814303,0.3617873,0.022317177,0.9319935,,-0.012593616,0.4162456,-0.34550104,-0.16782118,0.7276689,-0.665082,-0.87476164,0.20116332,0.44082355,0.45456368,0.65576774,0.60277736,,1.0659919868278318,0.3139754277344717,0.16665622756,-0.8947469888484654,0.42917524576324845,-0.1753344890899376,-0.40182640269032693,,-1.2511445074873644,-0.002378601725261149,0.17959060918000003,0.5422581938509801,0.9922542612966285,-0.5430891600056009,0.8756875385458711,,-0.03261365873507904,-0.08598146393793565,0.08100309464,-0.06541713947960498,,1.9665807e-05,4.1127205e-06,-2.026558e-06,0.99999994,-7.469207e-06,-6.2547624e-06,7.4654818e-06,1.0,-6.556511e-07,6.2547624e-06,6.2584877e-07,1.0,726,2.225,0,0,0.0,False,-0.2551713958605024,1.0501909101696396
2.245721868937835,11:00:40.767391,10:59:36.812121,0,,0.11014722,0.006098181,0.039935097,0.3103466,-0.94959384,-0.044231288,-0.46827272,-0.19320175,0.8622029,-0.82728815,-0.24686944,-0.5046285,,0.050918505,-0.0253089,0.03301835,0.3224878,-0.70391124,0.6328588,-0.29074842,0.562597,0.7739185,-0.90081453,-0.43358216,-0.023230582,,0.07734037,1.328328,0.4541155,0.9978804,0.045555297,-0.046469122,0.0050716754,-0.76636523,-0.64238507,-0.06487636,0.64078784,-0.7649719,,-0.080279276,0.24852379,-0.10330407,-0.20887202,0.9764533,0.053957824,-0.9087659,-0.21418397,0.3581476,0.3612713,0.02577198,0.9321045,,-0.012593616,0.4162456,-0.34550104,-0.16782118,0.7276689,-0.665082,-0.87476164,0.20116332,0.44082355,0.45456368,0.65576774,0.60277736,,1.0661696096839388,0.31371285481674804,0.16668344965,-0.8999892374355786,0.4279455172653595,-0.17964084606580635,-0.40068299422738696,,-1.2511445074873644,-0.002378601725261149,0.17959060918000003,0.5422581938509801,0.9922542612966285,-0.5430891600056009,0.8756875385458711,,-0.03261365873507904,-0.08598146393793565,0.08100309464,-0.06541713947960498,,1.9665807e-05,4.1127205e-06,-2.026558e-06,0.99999994,-7.469207e-06,-6.2547624e-06,7.4654818e-06,1.0,-6.556511e-07,6.2547624e-06,6.2584877e-07,1.0,734,2.25,0,0,0.0,False,-0.25451604095677105,1.0501909101696396
2.2665764479897916,11:00:40.797348,10:59:36.812121,0,,0.10997775,0.006045744,0.039823487,0.32742164,-0.9438592,-0.04387093,-0.46403635,-0.20107096,0.8626939,-0.82308286,-0.26210696,-0.50381994,,0.050921597,-0.025313698,0.03301668,0.32247117,-0.7039454,0.6328293,-0.29090497,0.5624896,0.7739377,-0.90076995,-0.433666,-0.023394674,,0.07734037,1.328328,0.4541155,0.9978804,0.045555297,-0.046469122,0.0050716754,-0.76636523,-0.64238507,-0.06487636,0.64078784,-0.7649719,,-0.080097765,0.24842949,-0.10325838,-0.22644147,0.9725543,0.053500503,-0.9044691,-0.23033771,0.35899892,0.36146915,0.03290269,0.93180335,,-0.012596165,0.41624063,-0.34550306,-0.16780254,0.72772115,-0.6650295,-0.87483937,0.20103432,0.4407281,0.45442092,0.6557493,0.60290504,,1.0665789145262727,0.3130641452553132,0.16675085673,-0.920958231784031,0.4254860602695815,-0.18956041985979286,-0.40133637049192417,,-1.2511445074873644,-0.002409492656758047,0.17959060918000003,0.5422581938509801,0.992117624796863,-0.5429777421019046,0.8756875385458711,,-0.03261365873507904,-0.08598146393793565,0.08100309464,-0.06541713947960498,,1.9665807e-05,4.1127205e-06,-2.026558e-06,0.99999994,-7.469207e-06,-6.2547624e-06,7.4654818e-06,1.0,-6.556511e-07,6.2547624e-06,6.2584877e-07,1.0,742,2.274,0,0,0.0,False,-0.25350321974191337,1.050432311173537
2.2965278399642557,11:00:40.819411,10:59:36.812121,0,,0.1098287,0.0060139596,0.03975694,0.34585476,-0.9373023,-0.04299677,-0.4588216,-0.20891702,0.86361825,-0.81845427,-0.27895865,-0.50230956,,0.050927,-0.025318198,0.033017337,0.32249248,-0.703922,0.6328444,-0.2909312,0.5624931,0.7739254,-0.90075386,-0.4336995,-0.023393273,,0.07734037,1.328328,0.4541155,0.9978804,0.045555297,-0.046469122,0.0050716754,-0.76636523,-0.64238507,-0.06487636,0.64078784,-0.7649719,,-0.07994179,0.2483774,-0.103233695,-0.2454453,0.9679907,0.052446,-0.89927745,-0.24755834,0.36057585,0.3620175,0.04133814,0.93125427,,-0.012601331,0.41623712,-0.34550628,-0.1678245,0.72770286,-0.66504395,-0.8748499,0.20101021,0.44071817,0.45439252,0.655777,0.6028964,,1.066995942101481,0.31277068140609265,0.16678844914000002,-0.9419272261324835,0.4228899667740382,-0.2000220056712074,-0.40100968235965556,,-1.2511599529531128,-0.0024481063211291695,0.17959060918000003,0.5422581938509801,0.992117624796863,-0.5429777421019046,0.8756875385458711,,-0.03261365873507904,-0.08598146393793565,0.08100309464,-0.06541713947960498,,1.9665807e-05,4.1127205e-06,-2.026558e-06,0.99999994,-7.469207e-06,-6.2547624e-06,7.4654818e-06,1.0,-6.556511e-07,6.2547624e-06,6.2584877e-07,1.0,750,2.299,0,0,0.0,False,-0.2548735072678969,1.0506254319766548
2.3185719619505107,11:00:40.848787,10:59:36.812121,0,,0.10967155,0.006004289,0.03970562,0.36870793,-0.92881846,-0.036751263,-0.45634902,-0.21531543,0.8633567,-0.8098149,-0.30155507,-0.50325394,,0.05093226,-0.025330164,0.033016622,0.3225059,-0.70389116,0.6328719,-0.29100028,0.5624896,0.77390194,-0.9007267,-0.433754,-0.023426503,,0.07734037,1.328328,0.4541155,0.9978804,0.045555297,-0.046469122,0.0050716754,-0.76636523,-0.64238507,-0.06487636,0.64078784,-0.7649719,,-0.07978017,0.2483527,-0.103207275,-0.269106,0.96199524,0.046336975,-0.89412814,-0.26742253,0.3591936,0.3579341,0.055229954,0.93211204,,-0.012605741,0.41622734,-0.34551385,-0.16783784,0.72768074,-0.6650648,-0.8748821,0.20096566,0.44067457,0.4543256,0.6558152,0.6029052,,1.0677913835875261,0.3128401860019607,0.16680659720000002,-0.9677190891810799,0.41414523078904997,-0.21625137951483722,-0.3990495535660442,,-1.2511522302202387,-0.0025253336498714148,0.17958931289000002,0.5422581938509801,0.992117624796863,-0.5429777421019046,0.8756875385458711,,-0.03261365873507904,-0.08598146393793565,0.08100309464,-0.06541713947960498,,1.9665807e-05,4.1127205e-06,-2.026558e-06,0.99999994,-7.469207e-06,-6.2547624e-06,7.4654818e-06,1.0,-6.556511e-07,6.2547624e-06,6.2584877e-07,1.0,779,2.389,0,0,0.0,False,-0.2551118181419816,1.0505288715750958
2.347953178919852,11:00:40.926506,10:59:37.008918,0,,0.109094635,0.006240055,0.03981939,0.4049015,-0.91407543,-0.022822097,-0.4502875,-0.2210596,0.865086,-0.795799,-0.33999813,-0.5011041,,0.05096759,-0.025351785,0.033021986,0.3225389,-0.7038275,0.63292587,-0.29111838,0.5624912,0.7738564,-0.9006768,-0.43385527,-0.023471951,,0.07734037,1.328328,0.4541155,0.9978804,0.045555297,-0.046469122,0.0050716754,-0.76636523,-0.64238507,-0.06487636,0.64078784,-0.7649719,,-0.079227775,0.2486611,-0.103173874,-0.30670547,0.95125955,0.03220328,-0.88410056,-0.2972582,0.3605603,0.35255912,0.082114875,0.9321798,,-0.012640202,0.41621065,-0.3455305,-0.16787122,0.7276328,-0.6651088,-0.87493604,0.20088762,0.44060314,0.45420942,0.6558922,0.60290897,,1.0721006685313432,0.3136974093509996,0.16683770816000001,-1.0104958376519229,0.39843203331602434,-0.2479532339663552,-0.4003563060951184,,-1.251268071213352,-0.0027338474374754766,0.17959060918000003,0.5424678837944645,0.992117624796863,-0.5427327058814828,0.8755241944797367,,-0.03261365873507904,-0.08598146393793565,0.08100309464,-0.06541713947960498,,1.9665807e-05,4.1127205e-06,-2.026558e-06,0.99999994,-7.469207e-06,-6.2547624e-06,7.4654818e-06,1.0,-6.556511e-07,6.2547624e-06,6.2584877e-07,1.0,787,2.414,0,0,0.0,False,-0.25576717304571295,1.0501909101696396
2.425682944012806,11:00:40.956365,10:59:37.008918,0,,0.10870735,0.0063939244,0.039904937,0.41861778,-0.90796155,-0.01910074,-0.44499195,-0.22340822,0.86722016,-0.79167,-0.35453415,-0.4975583,,0.0509836,-0.025346376,0.03302723,0.32254952,-0.70418143,0.63252664,-0.29146877,0.5618831,0.7741662,-0.90055966,-0.43406883,-0.02401197,,0.07734037,1.328328,0.4541155,0.9978804,0.045555297,-0.046469122,0.0050716754,-0.76636523,-0.64238507,-0.06487636,0.64078784,-0.7649719,,-0.07885763,0.24887042,-0.10316134,-0.32097453,0.9466718,0.028069427,-0.87871236,-0.3087276,0.3640767,0.35332695,0.09219439,0.9309459,,-0.012657098,0.4162158,-0.34552935,-0.16787931,0.72804844,-0.66465175,-0.875105,0.20036045,0.4405076,0.4538808,0.6555922,0.6034825,,1.0748576841674415,0.3138750322071068,0.16687270799,-1.0283194828481075,0.3944695748228266,-0.2607311478267092,-0.4008463382935213,,-1.251376189473591,-0.002741570170349701,0.17959060918000003,0.5424678837944645,0.9917077152975667,-0.5419900584696908,0.8760142266781397,,-0.03261365873507904,-0.08598146393793565,0.08100309464,-0.06541713947960498,,1.9665807e-05,4.1127205e-06,-2.026558e-06,0.99999994,-7.469207e-06,-6.2547624e-06,7.4654818e-06,1.0,-6.556511e-07,6.2547624e-06,6.2584877e-07,1.0,795,2.438,0,0,0.0,False,-0.2551118181419816,1.0502874705711984
2.4555025309091434,11:00:40.980045,10:59:37.008918,0,,0.10831283,0.00652346,0.039918527,0.4339531,-0.90076256,-0.017644662,-0.44308978,-0.23043445,0.8663553,-0.7844465,-0.36813945,-0.49911645,,0.05101329,-0.025333129,0.033044517,0.3223757,-0.703916,0.63291067,-0.29135677,0.5623642,0.77385896,-0.90065813,-0.43387622,-0.023798287,,0.07734037,1.328328,0.4541155,0.9978804,0.045555297,-0.046469122,0.0050716754,-0.76636523,-0.64238507,-0.06487636,0.64078784,-0.7649719,,-0.078472346,0.24901666,-0.10310864,-0.3369987,0.94112337,0.026808565,-0.8741786,-0.3233473,0.36229593,0.34963363,0.09865779,0.9316775,,-0.012689734,0.41623282,-0.3455303,-0.16769938,0.7277306,-0.66504526,-0.8750685,0.20079601,0.44038182,0.45401773,0.65581185,0.6031407,,1.0776764816665334,0.3138518640084841,0.16693881878000003,-1.0467721978747455,0.38558820233807295,-0.2692529809335703,-0.39774280103696996,,-1.2515692577954467,-0.002741570170349701,0.17959060918000003,0.543096953624918,0.9917077152975667,-0.5419083797295503,0.8761775707442738,,-0.03261365873507904,-0.08598146393793565,0.08100309464,-0.06541713947960498,,1.9665807e-05,4.1127205e-06,-2.026558e-06,0.99999994,-7.469207e-06,-6.2547624e-06,7.4654818e-06,1.0,-6.556511e-07,6.2547624e-06,6.2584877e-07,1.0,803,2.463,0,0,0.0,False,-0.25642252794944387,1.0499977893665218
2.4792195779737085,11:00:41.008973,10:59:37.080537,0,,0.10805109,0.006632194,0.039942756,0.4371364,-0.8993105,-0.012334723,-0.44239995,-0.22694167,0.8676288,-0.7830671,-0.37381533,-0.4970594,,0.05104266,-0.025323264,0.03306049,0.3216257,-0.7032263,0.63405776,-0.29121327,0.56371593,0.7729289,-0.90097255,-0.43324,-0.023483455,,0.07734037,1.328328,0.4541155,0.9978804,0.045555297,-0.046469122,0.0050716754,-0.76636523,-0.64238507,-0.06487636,0.64078784,-0.7649719,,-0.07821919,0.24914086,-0.10307115,-0.3403266,0.9400666,0.02127526,-0.8730836,-0.32431656,0.36406565,0.34914586,0.105326146,0.9311303,,-0.01272166,0.41624656,-0.34553272,-0.16692027,0.7268785,-0.666172,-0.8750754,0.20209344,0.4397741,0.45429137,0.656358,0.60234004,,1.0795685512207185,0.3137514684811192,0.16699455925,-1.051385376631405,0.3829921088425296,-0.27750924076118966,-0.40182640269032693,,-1.2517082669871828,-0.0027338474374754766,0.17959060918000003,0.5447744731727943,0.9917077152975667,-0.5419083797295503,0.8758508826120053,,-0.03261365873507904,-0.08598146393793565,0.08100309464,-0.06541713947960498,,1.9665807e-05,4.1127205e-06,-2.026558e-06,0.99999994,-7.469207e-06,-6.2547624e-06,7.4654818e-06,1.0,-6.556511e-07,6.2547624e-06,6.2584877e-07,1.0,811,2.487,0,0,0.0,False,-0.25600548391979716,1.0496115477602863
2.5081620359560475,11:00:41.037192,10:59:37.080537,0,,0.10767597,0.006746933,0.03994392,0.4466567,-0.89465666,-0.009334426,-0.44234782,-0.22988643,0.8668798,-0.7777058,-0.38306868,-0.49842975,,0.051068768,-0.025306784,0.03307748,0.32189426,-0.7031174,0.63404244,-0.29112256,0.56373495,0.7729492,-0.90090597,-0.43339208,-0.023230463,,0.07734037,1.328328,0.4541155,0.9978804,0.045555297,-0.046469122,0.0050716754,-0.76636523,-0.64238507,-0.06487636,0.64078784,-0.7649719,,-0.07785135,0.24926604,-0.10301724,-0.35030824,0.9364526,0.018455679,-0.8705975,-0.33281428,0.36234614,0.34546232,0.11086538,0.93186086,,-0.012750894,0.4162662,-0.3455314,-0.16720043,0.7267925,-0.6661957,-0.87500405,0.20198612,0.4399654,0.45432585,0.6564863,0.6021742,,1.0822406167952001,0.3135120637620182,0.16706715149,-1.062918323523054,0.37534046485566486,-0.2848285090175234,-0.4011730264257898,,-1.251924503507661,-0.002726124704601252,0.17959060918000003,0.5445647832293098,0.9917077152975667,-0.5420717372098316,0.8755241944797367,,-0.03261365873507904,-0.08598146393793565,0.08100309464,-0.06541713947960498,,1.9665807e-05,4.1127205e-06,-2.026558e-06,0.99999994,-7.469207e-06,-6.2547624e-06,7.4654818e-06,1.0,-6.556511e-07,6.2547624e-06,6.2584877e-07,1.0,819,2.512,0,0,0.0,False,-0.2552905512975445,1.0499977893665218
2.536384626990184,11:00:41.058792,10:59:37.080537,0,,0.107445806,0.0068341345,0.039942607,0.44971702,-0.8931427,-0.007120613,-0.44147387,-0.22920802,0.86750484,-0.77643764,-0.3869881,-0.49737787,,0.051080108,-0.025297984,0.033075392,0.32195294,-0.70293707,0.6342126,-0.29108965,0.56393623,0.7728148,-0.9008956,-0.43342286,-0.023056954,,0.07731328,1.3283255,0.4541177,0.9978802,0.04558496,-0.04644426,0.005110297,-0.7663635,-0.6423869,-0.06487636,0.64078784,-0.7649719,,-0.07760383,0.24935044,-0.1029745,-0.35349417,0.9352983,0.01609217,-0.8694288,-0.3348492,0.36327615,0.34516,0.114424996,0.9315425,,-0.012738842,0.41626775,-0.3455235,-0.1672471,0.7265854,-0.66640985,-0.87498814,0.20210128,0.4399441,0.45433924,0.6566801,0.60195273,,1.0837697179042967,0.313264936310043,0.16711381793000002,-1.0673218123362291,0.3732909173591833,-0.28960986093318153,-0.40002961796284986,,-1.252024899035026,-0.002726124704601252,0.17959060918000003,0.5445647832293098,0.9917077152975667,-0.5423167734302532,0.875034162281334,,-0.03261365873507904,-0.08598146393793565,0.08100309464,-0.06541713947960498,,-7.5288117e-06,6.2584877e-06,-8.34465e-07,1.0,2.2143126e-05,1.854822e-05,-2.2143126e-05,1.0,1.8775463e-06,-1.854822e-05,-1.8775463e-06,1.0,848,2.602,0,0,0.0,False,-0.25636295023092304,1.0502874705711984
2.5579861879814416,11:00:41.150415,10:59:37.225597,0,,0.10663609,0.0067362487,0.039697915,0.4806142,-0.87692755,-0.0028448775,-0.43263474,-0.23993176,0.86905694,-0.7627825,-0.41645032,-0.49470395,,0.051098265,-0.025288314,0.03308165,0.32197642,-0.70277166,0.63438404,-0.2914168,0.56396663,0.77266943,-0.9007814,-0.43365163,-0.023215681,,0.07731328,1.3283255,0.4541177,0.9978802,0.04558496,-0.04644426,0.005110297,-0.7663635,-0.6423869,-0.06487636,0.64078784,-0.7649719,,-0.07677091,0.24919835,-0.1028839,-0.3859156,0.9224622,0.01151602,-0.85697216,-0.36308354,0.36574447,0.34156674,0.13127759,0.93064404,,-0.012758242,0.41627628,-0.34551993,-0.16726881,0.7264544,-0.66654724,-0.87514454,0.20194088,0.43970662,0.45402992,0.65687436,0.6019742,,1.087770093533145,0.31056970253693866,0.16729789111,-1.106114451880866,0.3615401783793554,-0.3122093448306708,-0.39937624169831276,,-1.2521561854938879,-0.0027184019717270275,0.17959190547,0.5445647832293098,0.9912978057982704,-0.5423909134198667,0.8758508826120053,,-0.03261365873507904,-0.08598146393793565,0.08100309464,-0.06541713947960498,,-7.5288117e-06,6.2584877e-06,-8.34465e-07,1.0,2.2143126e-05,1.854822e-05,-2.2143126e-05,1.0,1.8775463e-06,-1.854822e-05,-1.8775463e-06,1.0,856,2.627,0,0,0.0,False,-0.25576717304571295,1.0500943497680806
2.6495822279248387,11:00:41.169856,10:59:37.225597,0,,0.10651876,0.0066310614,0.039562777,0.48783034,-0.87293565,0.002211243,-0.4340541,-0.24036698,0.8682285,-0.7573761,-0.42450804,-0.49615967,,0.051098265,-0.025288314,0.03308165,0.32197642,-0.70277166,0.63438404,-0.2914168,0.56396663,0.77266943,-0.9007814,-0.43365163,-0.023215681,,0.07731328,1.3283255,0.4541177,0.9978802,0.04558496,-0.04644426,0.005110297,-0.7663635,-0.6423869,-0.06487636,0.64078784,-0.7649719,,-0.076636665,0.24904354,-0.102850735,-0.39354494,0.91928124,0.006663752,-0.8553819,-0.36882612,0.36371568,0.33681476,0.13743842,0.9314862,,-0.012758242,0.41627628,-0.34551993,-0.16726881,0.7264544,-0.66654724,-0.87514454,0.20194088,0.43970662,0.45402992,0.65687436,0.6019742,,1.0881330619782335,0.3095734699961637,0.16734455755000002,-1.1140826697332777,0.35525489939014515,-0.31974432598242253,-0.3998662738967156,,-1.2521561854938879,-0.0027184019717270275,0.17959190547,0.5445647832293098,0.9912978057982704,-0.5423909134198667,0.8758508826120053,,-0.03261365873507904,-0.08598146393793565,0.08100309464,-0.06541713947960498,,-7.5288117e-06,6.2584877e-06,-8.34465e-07,1.0,2.2143126e-05,1.854822e-05,-2.2143126e-05,1.0,1.8775463e-06,-1.854822e-05,-1.8775463e-06,1.0,864,2.651,0,0,0.0,False,-0.2555288621716292,1.0496115477602863
2.669007031014189,11:00:41.199782,10:59:37.225597,0,,0.106295004,0.0064495206,0.039372727,0.50504434,-0.8630903,0.002315741,-0.42926678,-0.2488595,0.8682159,-0.7487725,-0.43948168,-0.49618107,,0.05109895,-0.025289431,0.033081472,0.3219784,-0.7027682,0.63438684,-0.29142335,0.5639665,0.77266693,-0.9007786,-0.43365735,-0.023218215,,0.07731328,1.3283255,0.4541177,0.9978802,0.04558496,-0.04644426,0.005110297,-0.7663635,-0.6423869,-0.06487636,0.64078784,-0.7649719,,-0.076387964,0.2488053,-0.102828,-0.41169715,0.9112971,0.00656244,-0.847927,-0.38568735,0.36368272,0.33395407,0.14416267,0.9314998,,-0.012758827,0.4162753,-0.34552056,-0.16727075,0.7264519,-0.6665495,-0.8751475,0.20193635,0.43970272,0.45402342,0.65687853,0.6019745,,1.0886273168821838,0.3080598143528157,0.16739900173000002,-1.1344225942512767,0.3492428934004658,-0.32807389412255106,-0.40182640269032693,,-1.2521561854938879,-0.002726124704601252,0.17959190547,0.5445647832293098,0.9912978057982704,-0.5423909134198667,0.8758508826120053,,-0.03261365873507904,-0.08598146393793565,0.08100309464,-0.06541713947960498,,-7.5288117e-06,6.2584877e-06,-8.34465e-07,1.0,2.2143126e-05,1.854822e-05,-2.2143126e-05,1.0,1.8775463e-06,-1.854822e-05,-1.8775463e-06,1.0,872,2.676,0,0,0.0,False,-0.2559459062012759,1.0495632675595068
