AlexandreBanks6/ExpertPlaybackApp/resources/Motions/P_11/PC1/Data_PC1_10.csv
Task Time,PC1 Time,PC2 Time,Gaze Calib,s_T_psm1,Tx,Ty,Tz,R00,R01,R02,R10,R11,R12,R20,R21,R22,s_T_psm3,Tx,Ty,Tz,R00,R01,R02,R10,R11,R12,R20,R21,R22,cart_T_ecm,Tx,Ty,Tz,R00,R01,R02,R10,R11,R12,R20,R21,R22,ecm_T_psm1,Tx,Ty,Tz,R00,R01,R02,R10,R11,R12,R20,R21,R22,ecm_T_psm3,Tx,Ty,Tz,R00,R01,R02,R10,R11,R12,R20,R21,R22,psm1_joints,q1,q2,q3,q4,q5,q6,jaw,psm3_joints,q1,q2,q3,q4,q5,q6,jaw,ecm_joints,q1,q2,q3,q4,ecmi_T_ecm,Tx,Ty,Tz,R00,R01,R02,R10,R11,R12,R20,R21,R22,Sample #,Task Duration (s),Collisions (binary),Collisions (increments),Cumulative Collision Time (s),Clutch Press,MTMR Angle,MTML Angle
""
lci_T_si,,,,,-0.05844233,0.035165705,0.2376954,0.9966917,0.01703488,0.07946972,0.06403218,-0.76677525,-0.638714,0.050054993,0.6416896,-0.7653293
rci_T_si,,,,,-0.06812765,0.03966638,0.2481097,0.996245,0.0002454029,0.08657847,0.056614123,-0.75842214,-0.6493002,0.06550369,0.6517636,-0.7555881
ecm_T_lc,,,,,-4.4061628e-05,-0.00034663224,-0.01840835,-0.99912,0.030754527,0.028518902,-0.031987965,-0.99852574,-0.043852776,0.027128186,-0.04472645,0.9986309
ecm_T_rc,,,,,-0.0043358393,0.01870579,-0.007592615,-0.99555075,-0.052743673,-0.078081585,0.04863213,-0.9973746,0.053654674,-0.08070653,0.04961868,0.9955021
cart_T_ecmi,,,,,0.077116005,1.3264961,0.4522238,0.997811,0.046645723,-0.046876296,0.0055057476,-0.7649841,-0.6440257,-0.06590066,0.6423578,-0.7635663
ecmac_T_ecmrep_psm1,,,,,0.011581071,-0.24422047,-0.31388107,0.99918455,0.03945311,0.008580942,-0.0387743,0.99689597,-0.06852016,-0.011257639,0.068131566,0.99761283
ecmac_T_ecmrep_psm3,,,,,0.00032986852,-0.4435548,-0.5434704,0.9997429,-0.0075566242,-0.021376874,0.008153117,0.9995759,0.027955532,0.021156559,-0.028122634,0.9993806
""
0,12:07:09.790456,12:06:05.947781,0,,0.08181699,0.0108409375,0.022876486,-0.41207358,0.7262697,-0.5502069,0.116061956,0.64077955,0.75890124,0.90372837,0.24886516,-0.34834048,,0.05671443,0.018317677,0.031188965,-0.41583452,-0.38631,0.8233141,-0.4219504,0.883914,0.20162815,-0.80562997,-0.26355365,-0.5305657,,0.07722114,1.3264987,0.4522185,0.9978115,0.046577204,-0.046933983,0.0054163733,-0.76498824,-0.64402145,-0.06590066,0.6423578,-0.7635663,,-0.04928307,0.24525975,-0.08861406,0.33024848,-0.74568266,0.5786997,0.6743501,0.61538124,0.408115,-0.6604452,0.25546685,0.70607984,,-0.01871407,0.4452951,-0.31405014,0.53156686,0.40821072,-0.7421595,-0.8119364,0.4951246,-0.3092102,0.24123847,0.76695216,0.594633,,1.1804660562224616,0.21802047177223213,0.19065444433,1.7980912653797962,-0.6644632983593369,0.019898116177504588,-0.4132604873197266,,-1.366367681970794,0.2150781105471526,0.19799014944,1.252478032433064,0.3021033009813888,-0.5523952243794743,0.8750341622813339,,-0.03301944778616772,-0.08312785061092492,0.08364271396,-0.06607131087440103,,0.00010526553,-4.172325e-07,-2.6226044e-06,1.0,-6.838888e-05,-5.7540834e-05,6.839633e-05,1.0,-5.930662e-06,5.753711e-05,5.90086e-06,0.99999994,32,0.096,0,0,0.0,False,-0.26232072208302704,1.049804668563404
0.1288074350450188,12:07:09.811413,12:06:05.947781,0,,0.08188431,0.010800898,0.023073182,-0.40184206,0.7289203,-0.5542546,0.11505303,0.64066726,0.7591497,0.9084524,0.24128976,-0.3413114,,0.056710377,0.018317305,0.031186879,-0.4158509,-0.38638836,0.823269,-0.42195666,0.8838941,0.20170239,-0.8056183,-0.26350567,-0.53060734,,0.07722114,1.3264987,0.4522185,0.9978115,0.046577204,-0.046933983,0.0054163733,-0.76498824,-0.64402145,-0.06590066,0.6423578,-0.7635663,,-0.049367547,0.24534671,-0.08878762,0.3196386,-0.74765074,0.58210784,0.6759238,0.6104464,0.4128949,-0.6640468,0.2614834,0.7004772,,-0.018709758,0.44529384,-0.3140493,0.53158146,0.4082817,-0.74210995,-0.8119311,0.49515176,-0.3091807,0.24122421,0.76689684,0.5947101,,1.180272987900606,0.21805908543660327,0.19048333405,1.8096242122714452,-0.6737545803433869,0.011628858041592194,-0.409503573798638,,-1.3663445137721715,0.2150858332800268,0.19799014944,1.252478032433064,0.3021033009813888,-0.5523135456393338,0.8751975063474682,,-0.03301944778616772,-0.08312785061092492,0.08364271396,-0.06607131087440103,,0.00010526553,-4.172325e-07,-2.6226044e-06,1.0,-6.838888e-05,-5.7540834e-05,6.839633e-05,1.0,-5.930662e-06,5.753711e-05,5.90086e-06,0.99999994,40,0.12,0,0,0.0,False,-0.26285692154971585,1.0499977893665218
0.14976054104045033,12:07:09.833316,12:06:06.009057,0,,0.08202114,0.010760009,0.023450643,-0.3818884,0.73375493,-0.5619296,0.11604732,0.6412697,0.7584895,0.91689384,0.22444804,-0.33004364,,0.056708,0.018317915,0.031186163,-0.41539913,-0.38695887,0.82322913,-0.42234796,0.88358974,0.20221578,-0.80564624,-0.26368886,-0.5304738,,0.07722114,1.3264987,0.4522185,0.9978115,0.046577204,-0.046933983,0.0054163733,-0.76498824,-0.64402145,-0.06590066,0.6423578,-0.7635663,,-0.049537316,0.24554132,-0.08909775,0.29901448,-0.7509726,0.5887533,0.6808315,0.60020053,0.419795,-0.6686246,0.27531695,0.6907545,,-0.018707313,0.44529402,-0.3140486,0.5311434,0.40887642,-0.7420962,-0.8122801,0.4948691,-0.30871597,0.24101378,0.76676244,0.5949687,,1.18013397870887,0.21820581736121353,0.19021629831000003,1.830383516676413,-0.6861885018220419,-0.004941060747997383,-0.4114637025922494,,-1.3663367910392972,0.2150858332800268,0.19799014944,1.2518489626026104,0.3021033009813888,-0.5520685094189122,0.875034162281334,,-0.03301944778616772,-0.08312785061092492,0.08364271396,-0.06607131087440103,,0.00010526553,-4.172325e-07,-2.6226044e-06,1.0,-6.838888e-05,-5.7540834e-05,6.839633e-05,1.0,-5.930662e-06,5.753711e-05,5.90086e-06,0.99999994,51,0.154,0,0,0.0,False,-0.2622015666459845,1.0496598279610654
0.171651536016725,12:07:09.860042,12:06:06.009057,0,,0.0820799,0.010771751,0.023626804,-0.37131903,0.73572505,-0.5664192,0.11525297,0.6418369,0.75813067,0.9213245,0.2162269,-0.32312068,,0.0567067,0.018318988,0.031186283,-0.4149419,-0.38759422,0.8231608,-0.42273605,0.88326967,0.20280282,-0.80567837,-0.26382825,-0.5303557,,0.07722114,1.3264987,0.4522185,0.9978115,0.046577204,-0.046933983,0.0054163733,-0.76498824,-0.64402145,-0.06590066,0.6423578,-0.7635663,,-0.04961147,0.24565654,-0.089223646,0.28809398,-0.7522059,0.59261125,0.6823724,0.5954344,0.42405865,-0.67184055,0.28221285,0.68482566,,-0.018706057,0.44529504,-0.31404802,0.5307005,0.40952927,-0.7420531,-0.8126303,0.49461213,-0.3082059,0.2408091,0.7665798,0.5952868,,1.180103087777373,0.2183525492858238,0.19011000253000002,1.8412873937376086,-0.6941134188084375,-0.013997782960311733,-0.41113701445998097,,-1.3663367910392972,0.2150858332800268,0.19799014944,1.2512198927721567,0.3021033009813888,-0.5517417944583499,0.8756875385458711,,-0.03301944778616772,-0.08312785061092492,0.08364271396,-0.06607131087440103,,0.00010526553,-4.172325e-07,-2.6226044e-06,1.0,-6.838888e-05,-5.7540834e-05,6.839633e-05,1.0,-5.930662e-06,5.753711e-05,5.90086e-06,0.99999994,55,0.165,0,0,0.0,False,-0.2616653671792948,1.0496115477602863
0.19839410204440355,12:07:09.883226,12:06:06.009057,0,,0.08219373,0.010811672,0.023842618,-0.354751,0.7376042,-0.574536,0.11764255,0.6448337,0.755215,0.92753,0.20032349,-0.315529,,0.056704544,0.018317975,0.031184673,-0.41495246,-0.38786757,0.8230267,-0.42274216,0.88320106,0.20308837,-0.80566967,-0.26365608,-0.5304545,,0.07722114,1.3264987,0.4522185,0.9978115,0.046577204,-0.046933983,0.0054163733,-0.76498824,-0.64402145,-0.06590066,0.6423578,-0.7635663,,-0.04974401,0.24581534,-0.08935907,0.27104008,-0.7526679,0.60002357,0.68717223,0.5878079,0.4269381,-0.6740412,0.29660222,0.67653203,,-0.018703679,0.44529343,-0.31404778,0.5307098,0.40977624,-0.74191004,-0.81262755,0.49471092,-0.3080544,0.24079764,0.76638407,0.59554344,,1.1800181377157566,0.21855334034055363,0.18998296611,1.8614176283121227,-0.7034047007924874,-0.033375349755340566,-0.4075434450050268,,-1.3663213455735488,0.2150858332800268,0.19799014944,1.2512198927721567,0.3021033009813888,-0.5514150794977877,0.8750341622813339,,-0.03301944778616772,-0.08312785061092492,0.08364271396,-0.06607131087440103,,0.00010526553,-4.172325e-07,-2.6226044e-06,1.0,-6.838888e-05,-5.7540834e-05,6.839633e-05,1.0,-5.930662e-06,5.753711e-05,5.90086e-06,0.99999994,70,0.211,0,0,0.0,False,-0.26243987752006825,1.0501909101696396
0.22152268898207694,12:07:09.921206,12:06:06.009057,0,,0.082306504,0.010842621,0.023993775,-0.34242624,0.7368936,-0.58286524,0.12179464,0.6499504,0.7501537,0.931617,0.1858826,-0.31230965,,0.056703895,0.018319942,0.031185567,-0.41433716,-0.3884208,0.8230758,-0.4232561,0.8828463,0.20355982,-0.8057165,-0.2640294,-0.5301976,,0.07722114,1.3264987,0.4522185,0.9978115,0.046577204,-0.046933983,0.0054163733,-0.76498824,-0.64402145,-0.06590066,0.6423578,-0.7635663,,-0.049869753,0.24592708,-0.08944978,0.2584001,-0.75068074,0.608036,0.6922721,0.5828908,0.42543817,-0.6737868,0.3109931,0.6702944,,-0.018703192,0.44529554,-0.31404713,0.5301142,0.41038153,-0.7420013,-0.81309533,0.49425936,-0.30754456,0.24053049,0.7663515,0.59569323,,1.1799177421883917,0.2187309631966608,0.18987926291,1.878402513734369,-0.7081869782842778,-0.05332591524700997,-0.4122804229229208,,-1.3663290683064229,0.2150858332800268,0.19799014944,1.2503811329982188,0.3021033009813888,-0.5513334007576471,0.8748708182151996,,-0.03301944778616772,-0.08312785061092492,0.08364271396,-0.06607131087440103,,0.00010526553,-4.172325e-07,-2.6226044e-06,1.0,-6.838888e-05,-5.7540834e-05,6.839633e-05,1.0,-5.930662e-06,5.753711e-05,5.90086e-06,0.99999994,78,0.236,0,0,0.0,False,-0.26249945523859,1.0496115477602863
0.2595140370540321,12:07:09.950225,12:06:06.123956,0,,0.082425684,0.010877863,0.024154156,-0.32879007,0.74071515,-0.58586514,0.12382358,0.6488108,0.75080776,0.9362504,0.17431435,-0.30504048,,0.056704707,0.01831878,0.03118521,-0.41433668,-0.38868523,0.8229512,-0.42325908,0.88277984,0.20384167,-0.8057152,-0.26386243,-0.5302828,,0.07722114,1.3264987,0.4522185,0.9978115,0.046577204,-0.046933983,0.0054163733,-0.76498824,-0.64402145,-0.06590066,0.6423578,-0.7635663,,-0.050002705,0.24604753,-0.089544564,0.24440603,-0.75346076,0.61037904,0.6959772,0.5746102,0.43062618,-0.6751899,0.31956226,0.66482973,,-0.018703934,0.44529438,-0.3140476,0.5301136,0.4106204,-0.74186957,-0.8130966,0.4943551,-0.3073873,0.24052753,0.7661618,0.59593844,,1.1797401193322845,0.21893175425139064,0.18978333745,1.8953873991566157,-0.7154287127718462,-0.06506337422146113,-0.411790390724518,,-1.3663290683064229,0.2150781105471526,0.19799014944,1.2503811329982188,0.3021033009813888,-0.5510066857970849,0.8755241944797367,,-0.03301944778616772,-0.08312785061092492,0.08364271396,-0.06607131087440103,,0.00010526553,-4.172325e-07,-2.6226044e-06,1.0,-6.838888e-05,-5.7540834e-05,6.839633e-05,1.0,-5.930662e-06,5.753711e-05,5.90086e-06,0.99999994,86,0.26,0,0,0.0,False,-0.26160578946077395,1.049418426957168
0.28855828603263944,12:07:09.971940,12:06:06.123956,0,,0.08250652,0.010883868,0.024234936,-0.32264495,0.74087834,-0.5890666,0.12553802,0.65034723,0.74919194,0.93815804,0.16777283,-0.30283958,,0.056704707,0.01831878,0.03118521,-0.41433668,-0.38868523,0.8229512,-0.42325908,0.88277984,0.20384167,-0.8057152,-0.26386243,-0.5302828,,0.07722114,1.3264987,0.4522185,0.9978115,0.046577204,-0.046933983,0.0054163733,-0.76498824,-0.64402145,-0.06590066,0.6423578,-0.7635663,,-0.050090387,0.24609786,-0.08959816,0.23811539,-0.7530435,0.61337316,0.6981609,0.5717447,0.43090528,-0.67518324,0.32562798,0.6618867,,-0.018703934,0.44529438,-0.3140476,0.5301136,0.4106204,-0.74186957,-0.8130966,0.4943551,-0.3073873,0.24052753,0.7661618,0.59593844,,1.1795702192090516,0.21906304071025245,0.18971852295000002,1.9037749968959967,-0.7180248062673895,-0.07372802774978332,-0.41309714325359215,,-1.3663290683064229,0.2150781105471526,0.19799014944,1.2503811329982188,0.3021033009813888,-0.5510066857970849,0.8755241944797367,,-0.03301944778616772,-0.08312785061092492,0.08364271396,-0.06607131087440103,,0.00010526553,-4.172325e-07,-2.6226044e-06,1.0,-6.838888e-05,-5.7540834e-05,6.839633e-05,1.0,-5.930662e-06,5.753711e-05,5.90086e-06,0.99999994,94,0.284,0,0,0.0,False,-0.2623802998015474,1.0494667071579475
0.31026694900356233,12:07:09.993956,12:06:06.123956,0,,0.082617536,0.0109074265,0.024346337,-0.3123561,0.7438121,-0.59091216,0.12613487,0.64900184,0.7502577,0.94155383,0.15981302,-0.29654026,,0.056703623,0.01832112,0.031186163,-0.41356835,-0.38956165,0.8229233,-0.42390168,0.8822893,0.20462874,-0.8057721,-0.26421055,-0.53002286,,0.07722114,1.3264987,0.4522185,0.9978115,0.046577204,-0.046933983,0.0054163733,-0.76498824,-0.64402145,-0.06590066,0.6423578,-0.7635663,,-0.050210856,0.24617925,-0.08966262,0.22756568,-0.75525916,0.61465234,0.70016366,0.5655909,0.4357496,-0.67674565,0.33119556,0.6575141,,-0.018703027,0.44529682,-0.31404677,0.52936965,0.41154376,-0.7418892,-0.81368023,0.49385837,-0.3066405,0.24019219,0.76598674,0.59629864,,1.1792922008255795,0.21924838629923382,0.18965241216,1.9161467035615838,-0.7241734487568343,-0.0817011417657938,-0.410646982261578,,-1.3663367910392972,0.2150781105471526,0.19799014944,1.249332683280796,0.3021033009813888,-0.5506799708365226,0.8748708182151996,,-0.03301944778616772,-0.08312785061092492,0.08364271396,-0.06607131087440103,,0.00010526553,-4.172325e-07,-2.6226044e-06,1.0,-6.838888e-05,-5.7540834e-05,6.839633e-05,1.0,-5.930662e-06,5.753711e-05,5.90086e-06,0.99999994,105,0.318,0,0,0.0,False,-0.2626186106756321,1.0499012289649627
0.3323054440552369,12:07:10.024405,12:06:06.123956,0,,0.082732454,0.010928303,0.024387896,-0.3075575,0.74176055,-0.5959862,0.12987691,0.6532085,0.7459562,0.9426242,0.15201965,-0.29723668,,0.05670336,0.018319435,0.031185031,-0.41357327,-0.38989544,0.8227628,-0.4239077,0.88220465,0.20498095,-0.8057664,-0.26400077,-0.530136,,0.07722114,1.3264987,0.4522185,0.9978115,0.046577204,-0.046933983,0.0054163733,-0.76498824,-0.64402145,-0.06590066,0.6423578,-0.7635663,,-0.050329015,0.24621499,-0.08967404,0.22268988,-0.75252575,0.6197695,0.7034888,0.5641606,0.43223408,-0.6749168,0.3397468,0.6550263,,-0.01870258,0.44529486,-0.31404713,0.5293737,0.41184545,-0.7417188,-0.8136801,0.49397793,-0.30644807,0.2401835,0.7657474,0.5966094,,1.1790064597092331,0.21949551375120901,0.18960574572000002,1.9247439912444493,-0.7241734487568343,-0.0942796677474404,-0.41326048731972653,,-1.3663290683064229,0.21507038781427837,0.19799014944,1.249332683280796,0.3021033009813888,-0.5502715771358198,0.8753608504136026,,-0.03301944778616772,-0.08312785061092492,0.08364271396,-0.06607131087440103,,0.00010526553,-4.172325e-07,-2.6226044e-06,1.0,-6.838888e-05,-5.7540834e-05,6.839633e-05,1.0,-5.930662e-06,5.753711e-05,5.90086e-06,0.99999994,113,0.343,0,0,0.0,False,-0.2622611443645053,1.0497563883626244
0.36273268901277333,12:07:10.053558,12:06:06.123956,0,,0.08281361,0.010967523,0.02443692,-0.30149853,0.7429152,-0.5976416,0.13330299,0.65349674,0.7450988,0.94410217,0.14497891,-0.29606107,,0.056702547,0.018320598,0.031185389,-0.41357362,-0.3898999,0.8227604,-0.42390478,0.88220453,0.20498751,-0.8057678,-0.26399454,-0.5301371,,0.07722114,1.3264987,0.4522185,0.9978115,0.046577204,-0.046933983,0.0054163733,-0.76498824,-0.64402145,-0.06590066,0.6423578,-0.7635663,,-0.050414212,0.24627158,-0.08968221,0.21652263,-0.75305146,0.62131435,0.7067498,0.55995387,0.43238455,-0.67351514,0.34549275,0.65346164,,-0.018701838,0.44529602,-0.31404665,0.5293743,0.41184896,-0.74171644,-0.81367886,0.49398264,-0.30644387,0.24018645,0.7657425,0.59661454,,1.1789215096476167,0.21968858207306463,0.18957463476000003,1.9343897286447373,-0.724993267755427,-0.1024324642604425,-0.41195373479065234,,-1.3663290683064229,0.2150781105471526,0.19799014944,1.249332683280796,0.3021033009813888,-0.5502715771358198,0.8753608504136026,,-0.03301944778616772,-0.08312785061092492,0.08364271396,-0.06607131087440103,,0.00010526553,-4.172325e-07,-2.6226044e-06,1.0,-6.838888e-05,-5.7540834e-05,6.839633e-05,1.0,-5.930662e-06,5.753711e-05,5.90086e-06,0.99999994,121,0.366,0,0,0.0,False,-0.2622015666459845,1.049370146756389
0.391889960039407,12:07:10.079724,12:06:06.123956,0,,0.08290759,0.011024147,0.02453199,-0.2927622,0.74414504,-0.6004484,0.13588294,0.6539675,0.7442193,0.9464809,0.1362887,-0.2925735,,0.056700118,0.018320747,0.031184316,-0.41281492,-0.39077568,0.8227259,-0.42455587,0.8817103,0.2057647,-0.805814,-0.26435038,-0.5298894,,0.07722114,1.3264987,0.4522185,0.9978115,0.046577204,-0.046933983,0.0054163733,-0.76498824,-0.64402145,-0.06590066,0.6423578,-0.7635663,,-0.05051627,0.24636963,-0.089714505,0.20760891,-0.7535057,0.623801,0.70975906,0.5548623,0.43401602,-0.6731572,0.3526428,0.6500019,,-0.018699292,0.4452957,-0.31404606,0.5286384,0.4127728,-0.7417277,-0.81426024,0.49347794,-0.30571187,0.23983674,0.76557046,0.5969759,,1.1788828959832456,0.21997432318941093,0.18952537574000003,1.9465517453668395,-0.7279992707502667,-0.11288651132133015,-0.4099936059970408,,-1.3663213455735488,0.21507038781427837,0.19799014944,1.2482842335633735,0.3021033009813888,-0.5499448621752575,0.8747074741490655,,-0.03301944778616772,-0.08312785061092492,0.08364271396,-0.06607131087440103,,0.00010526553,-4.172325e-07,-2.6226044e-06,1.0,-6.838888e-05,-5.7540834e-05,6.839633e-05,1.0,-5.930662e-06,5.753711e-05,5.90086e-06,0.99999994,129,0.391,0,0,0.0,False,-0.2631548101423209,1.049418426957168
0.41807444603182375,12:07:10.104496,12:06:06.284774,0,,0.0830037,0.011094153,0.024580896,-0.28524753,0.7451737,-0.60278505,0.1422025,0.65485716,0.74225366,0.9478462,0.12600857,-0.29276186,,0.056700762,0.018321611,0.03118515,-0.41265678,-0.39102966,0.8226846,-0.42468178,0.8815925,0.20600967,-0.8058287,-0.26436785,-0.5298584,,0.07722114,1.3264987,0.4522185,0.9978115,0.046577204,-0.046933983,0.0054163733,-0.76498824,-0.64402145,-0.06590066,0.6423578,-0.7635663,,-0.05061637,0.24644943,-0.08970236,0.2000008,-0.75361866,0.6261458,0.7151329,0.54912335,0.43249106,-0.66976464,0.3612789,0.6487626,,-0.018700061,0.44529682,-0.31404597,0.52848566,0.4130282,-0.7416944,-0.8143778,0.49340886,-0.30551022,0.23977426,0.76547724,0.5971205,,1.1789215096476167,0.220252341572883,0.18949685736000002,1.9599719017498491,-0.7269061787521433,-0.125049520690299,-0.4129337991874581,,-1.3663290683064229,0.21507038781427837,0.19799014944,1.2480745436198888,0.3021033009813888,-0.5497815046949763,0.8748708182151996,,-0.03301944778616772,-0.08312785061092492,0.08364271396,-0.06607131087440103,,0.00010526553,-4.172325e-07,-2.6226044e-06,1.0,-6.838888e-05,-5.7540834e-05,6.839633e-05,1.0,-5.930662e-06,5.753711e-05,5.90086e-06,0.99999994,148,0.449,0,0,0.0,False,-0.2630356547052788,1.0499495091657423
0.4428447469836101,12:07:10.153245,12:06:06.284774,0,,0.08309083,0.011206806,0.024691135,-0.27687803,0.7427567,-0.6096318,0.14396814,0.6593395,0.7379327,0.9500588,0.11654994,-0.2894898,,0.05669836,0.018321209,0.031185508,-0.4123565,-0.3915441,0.82259053,-0.42494273,0.88135326,0.20649499,-0.8058449,-0.26440424,-0.5298156,,0.07722114,1.3264987,0.4522185,0.9978115,0.046577204,-0.046933983,0.0054163733,-0.76498824,-0.64402145,-0.06590066,0.6423578,-0.7635663,,-0.050712958,0.24660109,-0.08971206,0.19146745,-0.7503736,0.6326766,0.7174224,0.54689574,0.4315207,-0.6698099,0.37127423,0.6430476,,-0.01869772,0.445297,-0.31404668,0.5281941,0.4135457,-0.74161375,-0.81460875,0.49326771,-0.3051222,0.23963213,0.7652888,0.5974191,,1.1790759643051012,0.2208083783398272,0.18946704269000003,1.9712951586980134,-0.7299121817469829,-0.14048597089976095,-0.41309714325359226,,-1.3663213455735488,0.21507038781427837,0.19798885315000003,1.2476551637329198,0.3021033009813888,-0.5494547897344142,0.8753608504136025,,-0.03301944778616772,-0.08312785061092492,0.08364271396,-0.06607131087440103,,0.00010526553,-4.172325e-07,-2.6226044e-06,1.0,-6.838888e-05,-5.7540834e-05,6.839633e-05,1.0,-5.930662e-06,5.753711e-05,5.90086e-06,0.99999994,152,0.461,0,0,0.0,False,-0.2626186106756321,1.0495632675595068
0.4915939620696008,12:07:10.172619,12:06:06.284774,0,,0.083156064,0.011289522,0.024757266,-0.2716344,0.74528635,-0.6089031,0.14497927,0.65716034,0.7396765,0.95141774,0.11264339,-0.28655827,,0.056700088,0.018322594,0.031187117,-0.41219303,-0.39186296,0.8225206,-0.4250654,0.8812194,0.20681334,-0.8058638,-0.26437795,-0.5297999,,0.07722114,1.3264987,0.4522185,0.9978115,0.046577204,-0.046933983,0.0054163733,-0.76498824,-0.64402145,-0.06590066,0.6423578,-0.7635663,,-0.05078383,0.24670322,-0.08970758,0.18612362,-0.752546,0.6316902,0.71876556,0.5426269,0.4346632,-0.66987616,0.37313604,0.6418998,,-0.01869968,0.44529894,-0.31404674,0.52803665,0.4138593,-0.7415509,-0.81472754,0.4932242,-0.30487528,0.23957539,0.76514727,0.597623,,1.1791454689009693,0.22123312864790953,0.18945537608000002,1.9784246167764872,-0.731825092743699,-0.14350012969588255,-0.41179039072451795,,-1.3663367910392972,0.21507038781427837,0.19798885315000003,1.2474454737894354,0.3021033009813888,-0.5492097535139925,0.8748708182151997,,-0.03301944778616772,-0.08312785061092492,0.08364271396,-0.06607131087440103,,0.00010526553,-4.172325e-07,-2.6226044e-06,1.0,-6.838888e-05,-5.7540834e-05,6.839633e-05,1.0,-5.930662e-06,5.753711e-05,5.90086e-06,0.99999994,160,0.485,0,0,0.0,False,-0.26297607698675796,1.049514987358727
0.510968561982736,12:07:10.202285,12:06:06.394779,0,,0.08327504,0.011421695,0.02480039,-0.2693561,0.7470003,-0.6078139,0.14889988,0.6558546,0.7400564,0.95146,0.1088354,-0.2878866,,0.05670362,0.018319584,0.03118682,-0.4121864,-0.39191455,0.8224993,-0.4250712,0.881204,0.20686716,-0.8058641,-0.26435292,-0.529812,,0.07722114,1.3264987,0.4522185,0.9978115,0.046577204,-0.046933983,0.0054163733,-0.76498824,-0.64402145,-0.06590066,0.6423578,-0.7635663,,-0.050906215,0.24682678,-0.08965061,0.18384933,-0.7539151,0.630723,0.72173244,0.5391478,0.43407592,-0.6673093,0.37540868,0.64324695,,-0.018703097,0.4452962,-0.31404832,0.5280302,0.41390702,-0.74152887,-0.8147327,0.49323595,-0.30484262,0.2395722,0.7651139,0.59766704,,1.1791609143667177,0.22208262926407424,0.18945278350000003,1.9845056251375386,-0.7293656357479211,-0.14722090550536987,-0.4127704551213236,,-1.3663367910392972,0.2150472196156557,0.19798885315000003,1.247235783845951,0.3021033009813888,-0.5490463960337113,0.8751975063474683,,-0.03301944778616772,-0.08312785061092492,0.08364271396,-0.06607131087440103,,0.00010526553,-4.172325e-07,-2.6226044e-06,1.0,-6.838888e-05,-5.7540834e-05,6.839633e-05,1.0,-5.930662e-06,5.753711e-05,5.90086e-06,0.99999994,172,0.522,0,0,0.0,False,-0.2632143878608417,1.049804668563404
0.5406119860708714,12:07:10.234008,12:06:06.394779,0,,0.0833922,0.011581406,0.024868935,-0.26825964,0.74621534,-0.6092613,0.14910126,0.6569829,0.7390144,0.9517382,0.10740614,-0.2875036,,0.056700803,0.018320508,0.031186163,-0.41157997,-0.39273927,0.8224096,-0.4255895,0.8807759,0.20762298,-0.80590045,-0.26455536,-0.5296556,,0.07722114,1.3264987,0.4522185,0.9978115,0.046577204,-0.046933983,0.0054163733,-0.76498824,-0.64402145,-0.06590066,0.6423578,-0.7635663,,-0.05102904,0.24698775,-0.089596435,0.18273246,-0.75300676,0.63213104,0.7220018,0.5391873,0.43357867,-0.6673247,0.37717086,0.6421993,,-0.018700225,0.4452967,-0.31404743,0.527442,0.41475767,-0.7414722,-0.8151954,0.49287868,-0.30418277,0.23929368,0.76488346,0.5980734,,1.179168637099592,0.2231715345993399,0.18945926495,1.9868122145158682,-0.7293656357479211,-0.15122316377225742,-0.4127704551213236,,-1.3663367910392972,0.2150472196156557,0.19798885315000003,1.2466067140154973,0.3021033009813888,-0.5487196810731492,0.8751975063474682,,-0.03301944778616772,-0.08312785061092492,0.08364271396,-0.06607131087440103,,0.00010526553,-4.172325e-07,-2.6226044e-06,1.0,-6.838888e-05,-5.7540834e-05,6.839633e-05,1.0,-5.930662e-06,5.753711e-05,5.90086e-06,0.99999994,180,0.546,0,0,0.0,False,-0.26255903295711036,1.0496115477602863
0.5723358530085534,12:07:10.253853,12:06:06.394779,0,,0.0834854,0.0117165,0.024925202,-0.2676849,0.745712,-0.6101297,0.14887458,0.6576457,0.73847044,0.9519355,0.10684472,-0.28705922,,0.05670162,0.01831936,0.031185865,-0.4115796,-0.39286914,0.8223477,-0.42559248,0.8807421,0.20776032,-0.80589914,-0.2644751,-0.5296977,,0.07722114,1.3264987,0.4522185,0.9978115,0.046577204,-0.046933983,0.0054163733,-0.76498824,-0.64402145,-0.06590066,0.6423578,-0.7635663,,-0.0511269,0.24712315,-0.08954968,0.18214256,-0.7524558,0.63295686,0.7219149,0.53938544,0.43347698,-0.66757995,0.37798637,0.64145404,,-0.018700968,0.44529554,-0.31404793,0.52744144,0.41487527,-0.7414068,-0.81519663,0.49292365,-0.30410647,0.2392907,0.76479065,0.5981933,,1.1791840825653404,0.22409053981137259,0.18946833898,1.9880703541767752,-0.7295022722476866,-0.1536437868129184,-0.412933799187458,,-1.3663367910392972,0.21503949688278148,0.19798885315000003,1.2466067140154973,0.3021033009813888,-0.548556323592868,0.8745441300829311,,-0.03301944778616772,-0.08312785061092492,0.08364271396,-0.06607131087440103,,0.00010526553,-4.172325e-07,-2.6226044e-06,1.0,-6.838888e-05,-5.7540834e-05,6.839633e-05,1.0,-5.930662e-06,5.753711e-05,5.90086e-06,0.99999994,184,0.559,0,0,0.0,False,-0.26243987752006825,1.049514987358727
0.5921997569967061,12:07:10.276489,12:06:06.394779,0,,0.08365425,0.011950433,0.025007993,-0.26428592,0.7482416,-0.6085125,0.15020066,0.65518016,0.7403909,0.95267653,0.10427609,-0.28554118,,0.05670075,0.018320076,0.031185865,-0.41127363,-0.39324668,0.8223204,-0.4258499,0.8805367,0.20810293,-0.80591935,-0.26459783,-0.5296057,,0.07722114,1.3264987,0.4522185,0.9978115,0.046577204,-0.046933983,0.0054163733,-0.76498824,-0.64402145,-0.06590066,0.6423578,-0.7635663,,-0.051302504,0.24734816,-0.08945681,0.17869084,-0.7547468,0.6312107,0.7232235,0.5357226,0.4358315,-0.6670962,0.37862727,0.64157933,,-0.018700128,0.4452962,-0.31404755,0.52714485,0.41526905,-0.7413973,-0.81542844,0.49273267,-0.30379426,0.23915431,0.7647,0.5983637,,1.1791995280310887,0.22555785905747525,0.18949426478000003,1.9941513625378269,-0.729638908747452,-0.1560644098535795,-0.41244376698905505,,-1.3663367910392972,0.21503949688278148,0.19798885315000003,1.2461873341285281,0.3021033009813888,-0.5483929661125869,0.8751975063474683,,-0.03301944778616772,-0.08312785061092492,0.08364271396,-0.06607131087440103,,0.00010526553,-4.172325e-07,-2.6226044e-06,1.0,-6.838888e-05,-5.7540834e-05,6.839633e-05,1.0,-5.930662e-06,5.753711e-05,5.90086e-06,0.99999994,195,0.592,0,0,0.0,False,-0.26297607698675796,1.0499012289649627
0.614766673068516,12:07:10.301850,12:06:06.394779,0,,0.08375515,0.012120098,0.025065094,-0.262054,0.7494751,-0.60795945,0.15044108,0.6539991,0.7413856,0.95325506,0.10282114,-0.28413484,,0.05670176,0.018319182,0.031187415,-0.41111484,-0.39336157,0.8223449,-0.42597857,0.8804522,0.20819722,-0.8059324,-0.26470822,-0.52953064,,0.07722114,1.3264987,0.4522185,0.9978115,0.046577204,-0.046933983,0.0054163733,-0.76498824,-0.64402145,-0.06590066,0.6423578,-0.7635663,,-0.051408123,0.24751072,-0.08938862,0.17641632,-0.755846,0.63053477,0.7236466,0.53382754,0.43745148,-0.66724277,0.37911072,0.6411413,,-0.018701328,0.44529647,-0.31404915,0.52699125,0.41539955,-0.7414334,-0.81554693,0.49260852,-0.30367762,0.23908886,0.7647091,0.5983782,,1.1792767553598311,0.22656953706399866,0.18952278316,1.9977160915770635,-0.7301854547465138,-0.15790574296272952,-0.41244376698905516,,-1.3663445137721715,0.21503177414990723,0.19798755686000002,1.2459776441850439,0.3021033009813888,-0.5483929661125869,0.8751975063474683,,-0.03301944778616772,-0.08312785061092492,0.08364271396,-0.06607131087440103,,0.00010526553,-4.172325e-07,-2.6226044e-06,1.0,-6.838888e-05,-5.7540834e-05,6.839633e-05,1.0,-5.930662e-06,5.753711e-05,5.90086e-06,0.99999994,203,0.617,0,0,0.0,False,-0.262797343831195,1.049418426957168
0.6401883530197665,12:07:10.332114,12:06:06.520880,0,,0.08389565,0.012403831,0.02516839,-0.2578587,0.7500445,-0.6090501,0.14944372,0.65374327,0.7418128,0.9545551,0.10026428,-0.28066275,,0.05670701,0.018317543,0.031188786,-0.41094464,-0.3937317,0.8222528,-0.42610693,0.8803021,0.20856912,-0.80595136,-0.2646572,-0.5295273,,0.07722114,1.3264987,0.4522185,0.9978115,0.046577204,-0.046933983,0.0054163733,-0.76498824,-0.64402145,-0.06590066,0.6423578,-0.7635663,,-0.05155732,0.24778897,-0.089282654,0.17212255,-0.7561863,0.631313,0.7234401,0.5320095,0.44000036,-0.66858673,0.38098314,0.63862634,,-0.018706704,0.4452957,-0.3140508,0.5268271,0.41576067,-0.7413476,-0.81567055,0.4925759,-0.30339837,0.23902889,0.7645339,0.5986261,,1.1795007146131835,0.22818358823471158,0.18957852363000002,2.003168030107661,-0.7325082752425263,-0.16279097403155696,-0.41195373479065234,,-1.366367681970794,0.21500860595128457,0.19798755686000002,1.2457679542415592,0.3021033009813888,-0.5480662511520247,0.8751975063474682,,-0.03301944778616772,-0.08312785061092492,0.08364271396,-0.06607131087440103,,0.00010526553,-4.172325e-07,-2.6226044e-06,1.0,-6.838888e-05,-5.7540834e-05,6.839633e-05,1.0,-5.930662e-06,5.753711e-05,5.90086e-06,0.99999994,211,0.64,0,0,0.0,False,-0.2626186106756321,1.049514987358727
0.670465735020116,12:07:10.354606,12:06:06.520880,0,,0.08397767,0.012599528,0.025224209,-0.25560755,0.7500173,-0.6100318,0.14904833,0.65402055,0.74164796,0.9552222,0.09864667,-0.27896136,,0.056708477,0.018317215,0.031189263,-0.4107858,-0.3941152,0.8221485,-0.42623538,0.88014925,0.20895101,-0.80596435,-0.2645946,-0.5295388,,0.07722114,1.3264987,0.4522185,0.9978115,0.046577204,-0.046933983,0.0054163733,-0.76498824,-0.64402145,-0.06590066,0.6423578,-0.7635663,,-0.051644024,0.24797215,-0.08919859,0.16982122,-0.7560158,0.6321399,0.7234197,0.5312243,0.44098142,-0.669197,0.3824145,0.6371299,,-0.018708214,0.44529563,-0.3140512,0.52667344,0.4161333,-0.7412477,-0.8157889,0.49255073,-0.30312082,0.23896343,0.7643473,0.59889036,,1.1797015056679134,0.22924932537135456,0.18962907894000003,2.006313379259929,-0.7334647307408843,-0.16625834319299132,-0.41391386358426363,,-1.3663754047036683,0.21500088321841035,0.19798755686000002,1.2455582642980747,0.3021033009813888,-0.5477395361914624,0.8751975063474683,,-0.03301944778616772,-0.08312785061092492,0.08364271396,-0.06607131087440103,,0.00010526553,-4.172325e-07,-2.6226044e-06,1.0,-6.838888e-05,-5.7540834e-05,6.839633e-05,1.0,-5.930662e-06,5.753711e-05,5.90086e-06,0.99999994,219,0.665,0,0,0.0,False,-0.26255903295711036,1.0500943497680806
0.6929401149973273,12:07:10.378603,12:06:06.520880,0,,0.0841122,0.012924179,0.025315583,-0.2525657,0.7507644,-0.61037964,0.14967409,0.6535527,0.7419343,0.9559332,0.09602925,-0.27743495,,0.056709938,0.018316977,0.03118974,-0.41062695,-0.39443144,0.8220761,-0.42636395,0.88001335,0.20926093,-0.8059772,-0.26457533,-0.5295287,,0.07722114,1.3264987,0.4522185,0.9978115,0.046577204,-0.046933983,0.0054163733,-0.76498824,-0.64402145,-0.06590066,0.6423578,-0.7635663,,-0.051786233,0.24827535,-0.08905824,0.16672812,-0.75652766,0.6323509,0.72418153,0.529193,0.44217175,-0.6691508,0.3842144,0.63609475,,-0.018709727,0.4452956,-0.3140516,0.5265198,0.41644537,-0.7411816,-0.8159073,0.49250063,-0.30288354,0.23889796,0.7642096,0.5990921,,1.180095365044499,0.23103327666530044,0.18970556005000003,2.0115556278470423,-0.7334647307408843,-0.17083235264086277,-0.4122804229229209,,-1.3663831274365426,0.21499316048553613,0.19798755686000002,1.24534857435459,0.3021033009813888,-0.5474944999710407,0.8756875385458711,,-0.03301944778616772,-0.08312785061092492,0.08364271396,-0.06607131087440103,,0.00010526553,-4.172325e-07,-2.6226044e-06,1.0,-6.838888e-05,-5.7540834e-05,6.839633e-05,1.0,-5.930662e-06,5.753711e-05,5.90086e-06,0.99999994,227,0.69,0,0,0.0,False,-0.26255903295711036,1.05014262996886
0.7169229610590264,12:07:10.404698,12:06:06.520880,0,,0.08419377,0.013141006,0.025370002,-0.25185186,0.7511118,-0.6102472,0.15001324,0.6532512,0.74213135,0.9560683,0.09536207,-0.27719915,,0.056711327,0.018315189,0.031190872,-0.41031456,-0.3949318,0.82199186,-0.42662403,0.87977445,0.20973548,-0.8059988,-0.26462388,-0.52947176,,0.07722114,1.3264987,0.4522185,0.9978115,0.046577204,-0.046933983,0.0054163733,-0.76498824,-0.64402145,-0.06590066,0.6423578,-0.7635663,,-0.051872384,0.24847421,-0.08895996,0.16600497,-0.75681436,0.63219804,0.7244911,0.5285239,0.44246477,-0.66899544,0.38457054,0.6360429,,-0.018711247,0.445295,-0.31405354,0.52621704,0.41695064,-0.74111253,-0.81614256,0.49234983,-0.3024946,0.23876132,0.7640313,0.59937406,,1.1803811061608451,0.23224574572655368,0.18976000423000003,2.0134428373384026,-0.7327815482420571,-0.17261462326145327,-0.41309714325359226,,-1.3663908501694166,0.21497771501978769,0.19798626057000002,1.244929194467621,0.3021033009813888,-0.5471677850104785,0.8756875385458711,,-0.03301944778616772,-0.08312785061092492,0.08364271396,-0.06607131087440103,,0.00010526553,-4.172325e-07,-2.6226044e-06,1.0,-6.838888e-05,-5.7540834e-05,6.839633e-05,1.0,-5.930662e-06,5.753711e-05,5.90086e-06,0.99999994,238,0.723,0,0,0.0,False,-0.262797343831195,1.049708108161845
0.7430016690632328,12:07:10.433611,12:06:06.520880,0,,0.0843626,0.013515368,0.025473982,-0.24974474,0.7528057,-0.60902476,0.15226534,0.6516621,0.74306905,0.9562651,0.09284434,-0.27737534,,0.056714974,0.018309705,0.031189203,-0.41015926,-0.39516526,0.82195723,-0.42676735,0.87965465,0.2099457,-0.8060019,-0.2646733,-0.5294422,,0.07722114,1.3264987,0.4522185,0.9978115,0.046577204,-0.046933983,0.0054163733,-0.76498824,-0.64402145,-0.06590066,0.6423578,-0.7635663,,-0.052049886,0.24882223,-0.0887961,0.163888,-0.7582777,0.63099575,0.7262581,0.52562475,0.44302127,-0.66760015,0.38565987,0.6368489,,-0.018714538,0.44528946,-0.3140558,0.52606565,0.4171903,-0.7410852,-0.81626445,0.49225515,-0.30231965,0.23867817,0.76396143,0.5994961,,1.1808367474004244,0.2343926654655881,0.18983518905000002,2.0188947758690006,-0.7305953642458101,-0.17611256326354785,-0.41326048731972653,,-1.3663908501694166,0.21493910135541655,0.19798626057000002,1.2447195045241366,0.3021033009813888,-0.5470044275301973,0.8753608504136023,,-0.03301944778616772,-0.08312785061092492,0.08364271396,-0.06607131087440103,,0.00010526553,-4.172325e-07,-2.6226044e-06,1.0,-6.838888e-05,-5.7540834e-05,6.839633e-05,1.0,-5.930662e-06,5.753711e-05,5.90086e-06,0.99999994,250,0.759,0,0,0.0,False,-0.2631548101423209,1.0495632675595068
0.7719601360149682,12:07:10.467081,12:06:06.520880,0,,0.08458743,0.014056757,0.025625184,-0.24891478,0.75295734,-0.609177,0.15495613,0.651832,0.7423636,0.9560491,0.09038967,-0.2789259,,0.056725264,0.01830805,0.03119278,-0.40935346,-0.39593118,0.8219903,-0.42740613,0.8791811,0.21062905,-0.8060731,-0.2651019,-0.5291194,,0.07722114,1.3264987,0.4522185,0.9978115,0.046577204,-0.046933983,0.0054163733,-0.76498824,-0.64402145,-0.06590066,0.6423578,-0.7635663,,-0.05228741,0.24932708,-0.088561155,0.16307962,-0.75821114,0.63128513,0.7281831,0.52422625,0.4415158,-0.6656984,0.38768893,0.63760716,,-0.018725215,0.44528967,-0.31405857,0.52528656,0.41801548,-0.74117273,-0.8168592,0.49170333,-0.3016106,0.23835921,0.76386577,0.599745,,1.1815704070234758,0.2375435404782717,0.18994407741000002,2.0237176445691443,-0.7266329057526123,-0.18203908089538268,-0.41375051951812925,,-1.3664449092995363,0.2148927649581712,0.19798626057000002,1.243671054806714,0.3021033009813888,-0.5467593913097756,0.8755241944797367,,-0.03301944778616772,-0.08312785061092492,0.08364271396,-0.06607131087440103,,0.00010526553,-4.172325e-07,-2.6226044e-06,1.0,-6.838888e-05,-5.7540834e-05,6.839633e-05,1.0,-5.930662e-06,5.753711e-05,5.90086e-06,0.99999994,258,0.784,0,0,0.0,False,-0.26196325577190027,1.0495632675595068
0.8054065960459411,12:07:10.496331,12:06:06.689300,0,,0.0847057,0.014337614,0.025694236,-0.24906793,0.7525015,-0.6096775,0.15646845,0.6525116,0.74144876,0.9557629,0.08927593,-0.28026235,,0.056730114,0.018306263,0.031195521,-0.40948996,-0.39592862,0.82192355,-0.42727435,0.8792365,0.21066476,-0.8060736,-0.26492167,-0.5292088,,0.07722114,1.3264987,0.4522185,0.9978115,0.046577204,-0.046933983,0.0054163733,-0.76498824,-0.64402145,-0.06590066,0.6423578,-0.7635663,,-0.05241143,0.24958308,-0.08843184,0.16325708,-0.7576585,0.6319025,0.7291971,0.52409226,0.43999875,-0.664544,0.3889486,0.6380441,,-0.018730378,0.4452897,-0.3140613,0.52542,0.41798663,-0.74109447,-0.81675017,0.49186677,-0.30163923,0.23843858,0.7637763,0.5998273,,1.18192565273569,0.2391884825804815,0.19000629933000002,2.0256048540605054,-0.7241734487568343,-0.18543314174430786,-0.41260711105518943,,-1.366468077498159,0.21487731949242275,0.19798496428,1.2438807447501985,0.3021033009813888,-0.5465960338294945,0.8755241944797367,,-0.03301944778616772,-0.08312785061092492,0.08364271396,-0.06607131087440103,,0.00010526553,-4.172325e-07,-2.6226044e-06,1.0,-6.838888e-05,-5.7540834e-05,6.839633e-05,1.0,-5.930662e-06,5.753711e-05,5.90086e-06,0.99999994,266,0.808,0,0,0.0,False,-0.2626781883941529,1.0496115477602863
0.8346683679847047,12:07:10.525375,12:06:06.689300,0,,0.084903985,0.014838472,0.025832146,-0.24727517,0.7548312,-0.60752356,0.1574677,0.64996517,0.74347097,0.95606434,0.0881767,-0.27958167,,0.056735285,0.018310405,0.031200409,-0.40899834,-0.39654765,0.8218699,-0.4276411,0.87891567,0.211259,-0.80612874,-0.26506072,-0.5290552,,0.07722114,1.3264987,0.4522185,0.9978115,0.046577204,-0.046933983,0.0054163733,-0.76498824,-0.64402145,-0.06590066,0.6423578,-0.7635663,,-0.05262132,0.25004947,-0.08821359,0.16144435,-0.75988066,0.629696,0.7300663,0.52128893,0.4418835,-0.66403234,0.38838026,0.6389224,,-0.01873625,0.4452955,-0.31406143,0.52494603,0.4186233,-0.741071,-0.8171046,0.49160776,-0.3011012,0.23826826,0.7635944,0.60012656,,1.182582085029999,0.24203044827819614,0.19012426172000002,2.030218032817165,-0.7223971742598836,-0.1872899681930641,-0.4127704551213237,,-1.3665144138954044,0.21487731949242275,0.19798496428,1.2432516749197449,0.3021033009813888,-0.5462693188689323,0.8748708182151996,,-0.03301944778616772,-0.08312785061092492,0.08364271396,-0.06607131087440103,,0.00010526553,-4.172325e-07,-2.6226044e-06,1.0,-6.838888e-05,-5.7540834e-05,6.839633e-05,1.0,-5.930662e-06,5.753711e-05,5.90086e-06,0.99999994,285,0.867,0,0,0.0,False,-0.262797343831195,1.0499495091657423
0.8637253950582817,12:07:10.577503,12:06:06.689300,0,,0.08528501,0.015779078,0.026096731,-0.24335797,0.76040494,-0.6021306,0.15925178,0.6436938,0.74853003,0.95677364,0.08627048,-0.2777438,,0.056737885,0.018319942,0.03120792,-0.4050415,-0.40008408,0.8221155,-0.4307397,0.8766389,0.21440026,-0.8064767,-0.2672768,-0.5274073,,0.07722114,1.3264987,0.4522185,0.9978115,0.046577204,-0.046933983,0.0054163733,-0.76498824,-0.64402145,-0.06590066,0.6423578,-0.7635663,,-0.053024597,0.2509283,-0.0878075,0.15747912,-0.7652614,0.6241597,0.7316847,0.5148908,0.44668218,-0.6632027,0.38634497,0.64101464,,-0.01874001,0.44530722,-0.31405988,0.5211198,0.42246822,-0.74158937,-0.8199966,0.4888321,-0.29773945,0.23672724,0.7632587,0.60116255,,1.1837868313583781,0.24737457942715949,0.19034592731000002,2.039444390330484,-0.7193911712650439,-0.18925108963354204,-0.4132604873197264,,-1.3665839184912723,0.21484642856092587,0.19798496428,1.2380094263326318,0.3022399374811543,-0.545563949371223,0.8755241944797367,,-0.03301944778616772,-0.08312785061092492,0.08364271396,-0.06607131087440103,,0.00010526553,-4.172325e-07,-2.6226044e-06,1.0,-6.838888e-05,-5.7540834e-05,6.839633e-05,1.0,-5.930662e-06,5.753711e-05,5.90086e-06,0.99999994,293,0.891,0,0,0.0,False,-0.2629164992682367,1.05014262996886
0.9158205749699846,12:07:10.599578,12:06:06.689300,0,,0.085540466,0.016399145,0.026238918,-0.24051178,0.765556,-0.5967228,0.161012,0.63771796,0.75325346,0.9571986,0.08508688,-0.27664232,,0.05673585,0.018319108,0.031201303,-0.40371147,-0.4024688,0.82160556,-0.4329654,0.87515926,0.21595661,-0.80595165,-0.26854253,-0.52756697,,0.07722114,1.3264987,0.4522185,0.9978115,0.046577204,-0.046933983,0.0054163733,-0.76498824,-0.64402145,-0.06590066,0.6423578,-0.7635663,,-0.053291865,0.25148743,-0.087514386,0.1546059,-0.7702853,0.61867404,0.73316747,0.5091957,0.45076066,-0.6622405,0.38390145,0.6434728,,-0.01873705,0.4453023,-0.31405595,0.5197579,0.42502776,-0.7410824,-0.8213772,0.48715746,-0.29667675,0.23492795,0.7629083,0.6023121,,1.1845050455156811,0.25082664102193786,0.19051833388000003,2.046154468521989,-0.7170683507690315,-0.18861315305202364,-0.41326048731972653,,-1.3666148094227692,0.21482326036230318,0.19798626057000002,1.2354931470108175,0.3011468454830307,-0.5446726061416516,0.8755241944797367,,-0.03301944778616772,-0.08312785061092492,0.08364271396,-0.06607131087440103,,0.00010526553,-4.172325e-07,-2.6226044e-06,1.0,-6.838888e-05,-5.7540834e-05,6.839633e-05,1.0,-5.930662e-06,5.753711e-05,5.90086e-06,0.99999994,301,0.915,0,0,0.0,False,-0.2623802998015474,1.050046069567301
0.9379086840199307,12:07:10.626356,12:06:06.689300,0,,0.08571306,0.01682201,0.026341379,-0.2384689,0.7693447,-0.592656,0.16140673,0.6331724,0.7569945,0.9576432,0.0848611,-0.2751692,,0.05674561,0.018314652,0.031202972,-0.40445924,-0.40163916,0.82164377,-0.43232727,0.8756547,0.2152252,-0.8059193,-0.26816913,-0.52780634,,0.07722114,1.3264987,0.4522185,0.9978115,0.046577204,-0.046933983,0.0054163733,-0.76498824,-0.64402145,-0.06590066,0.6423578,-0.7635663,,-0.053472992,0.25187224,-0.08731889,0.1525315,-0.77403766,0.6144915,0.7336387,0.50528926,0.4543755,-0.6621997,0.38150817,0.6449365,,-0.018746892,0.4452992,-0.31405935,0.5204851,0.4241471,-0.7410766,-0.8208159,0.48768017,-0.29737058,0.23527947,0.76306444,0.601977,,1.184983854953883,0.25318207454857633,0.19063759256,2.050348267391679,-0.7162485317704388,-0.18723969197068818,-0.41244376698905505,,-1.366645700354266,0.2147923694308063,0.19798626057000002,1.2365415967282403,0.3011468454830307,-0.5449176423620734,0.8753608504136025,,-0.03301944778616772,-0.08312785061092492,0.08364271396,-0.06607131087440103,,0.00010526553,-4.172325e-07,-2.6226044e-06,1.0,-6.838888e-05,-5.7540834e-05,6.839633e-05,1.0,-5.930662e-06,5.753711e-05,5.90086e-06,0.99999994,309,0.939,0,0,0.0,False,-0.26255903295711036,1.049804668563404
0.9647052540676668,12:07:10.656610,12:06:06.689300,0,,0.086025625,0.017552063,0.026528582,-0.23436213,0.77711755,-0.5840913,0.16245976,0.6236836,0.76460814,0.9584786,0.084303975,-0.27241802,,0.056758665,0.018313445,0.03120935,-0.4041636,-0.40175408,0.821733,-0.4326539,0.87549007,0.21523874,-0.80589235,-0.26853427,-0.5276618,,0.07722114,1.3264987,0.4522185,0.9978115,0.046577204,-0.046933983,0.0054163733,-0.76498824,-0.64402145,-0.06590066,0.6423578,-0.7635663,,-0.053801168,0.25254217,-0.0869884,0.14836648,-0.78172743,0.60571414,0.7347529,0.49708903,0.46156335,-0.6619106,0.37656966,0.64812785,,-0.018760696,0.4453013,-0.3140635,0.5201929,0.42431486,-0.74118567,-0.8210639,0.4873233,-0.29727113,0.23506051,0.76319915,0.60189176,,1.185810187371425,0.2573986866979029,0.1908398138,2.05873586513106,-0.714745530273019,-0.18340120702263396,-0.4121170788567865,,-1.3667229276830084,0.21475375576643516,0.19798496428,1.236122216841271,0.3010102089832653,-0.5450512606787987,0.8755241944797368,,-0.03301944778616772,-0.08312785061092492,0.08364271396,-0.06607131087440103,,0.00010526553,-4.172325e-07,-2.6226044e-06,1.0,-6.838888e-05,-5.7540834e-05,6.839633e-05,1.0,-5.930662e-06,5.753711e-05,5.90086e-06,0.99999994,317,0.964,0,0,0.0,False,-0.26196325577190027,1.0498529487641832
0.9949619700200856,12:07:10.678628,12:06:06.865831,0,,0.086253434,0.01804784,0.026659504,-0.2330117,0.7813991,-0.57889634,0.16362482,0.6182978,0.7687228,0.9586097,0.08439967,-0.27192676,,0.056766655,0.01831282,0.031212151,-0.404044,-0.40196776,0.82168734,-0.43285912,0.87535524,0.21537443,-0.80584204,-0.2686541,-0.52767754,,0.07722114,1.3264987,0.4522185,0.9978115,0.046577204,-0.046933983,0.0054163733,-0.76498824,-0.64402145,-0.06590066,0.6423578,-0.7635663,,-0.054039843,0.2529986,-0.08676585,0.14700939,-0.7859989,0.6004948,0.7356707,0.49269748,0.4647987,-0.66119355,0.37343666,0.6506675,,-0.01876899,0.4453019,-0.31406516,0.52007014,0.4245451,-0.74114,-0.8211896,0.48716724,-0.29717958,0.234893,0.7631707,0.60199314,,1.1862889968096269,0.26017887053262373,0.19095777619,2.062719974057266,-0.712559346276772,-0.18150835017545136,-0.4122804229229208,,-1.3667692640802538,0.2147305875678125,0.19798496428,1.2359125268977864,0.3008735724834999,-0.5449398427751022,0.8755241944797368,,-0.03301944778616772,-0.08312785061092492,0.08364271396,-0.06607131087440103,,0.00010526553,-4.172325e-07,-2.6226044e-06,1.0,-6.838888e-05,-5.7540834e-05,6.839633e-05,1.0,-5.930662e-06,5.753711e-05,5.90086e-06,0.99999994,337,1.026,0,0,0.0,False,-0.26243987752006825,1.0498529487641832
1.0169796149712056,12:07:10.737825,12:06:06.865831,0,,0.08706041,0.019704506,0.027083606,-0.22880352,0.7920346,-0.565977,0.16775647,0.60478246,0.77852166,0.95890915,0.083182275,-0.27124518,,0.056789555,0.01829911,0.03121525,-0.40714434,-0.3997586,0.82123464,-0.43038923,0.8770211,0.2135397,-0.8056046,-0.26650903,-0.52912605,,0.07722114,1.3264987,0.4522185,0.9978115,0.046577204,-0.046933983,0.0054163733,-0.76498824,-0.64402145,-0.06590066,0.6423578,-0.7635663,,-0.054881778,0.25451297,-0.08600856,0.14278995,-0.7964803,0.58756286,0.7388552,0.48077878,0.47217032,-0.6585621,0.3667027,0.65713394,,-0.018791921,0.44529173,-0.31407478,0.5230726,0.422032,-0.74046206,-0.8189176,0.4895992,-0.29944387,0.2361547,0.7630083,0.6017054,,1.187733147857107,0.26995585035139197,0.19138166302,2.076559510327245,-0.7049077022899072,-0.1805600236500815,-0.41260711105518955,,-1.3668310459432476,0.2146688057048187,0.19798366799000003,1.2401063257674771,0.3007369359837344,-0.5446650673911246,0.8755241944797368,,-0.03301944778616772,-0.08312785061092492,0.08364271396,-0.06607131087440103,,0.00010526553,-4.172325e-07,-2.6226044e-06,1.0,-6.838888e-05,-5.7540834e-05,6.839633e-05,1.0,-5.930662e-06,5.753711e-05,5.90086e-06,0.99999994,345,1.05,0,0,0.0,False,-0.26255903295711036,1.049514987358727
1.0761608639732003,12:07:10.763776,12:06:06.865831,0,,0.08756808,0.020621434,0.027295277,-0.22867212,0.7965659,-0.55963534,0.17193013,0.5988764,0.78216815,0.958201,0.08264199,-0.2738999,,0.05679413,0.01829847,0.031218529,-0.40650693,-0.40062165,0.8211298,-0.4308979,0.87657285,0.2143523,-0.8056545,-0.2666874,-0.5289601,,0.07722114,1.3264987,0.4522185,0.9978115,0.046577204,-0.046933983,0.0054163733,-0.76498824,-0.64402145,-0.06590066,0.6423578,-0.7635663,,-0.055406515,0.25533342,-0.08556722,0.14272057,-0.800944,0.5814805,0.7416736,0.47557178,0.47302407,-0.6554015,0.36375847,0.66191286,,-0.01879691,0.44529304,-0.31407717,0.52245545,0.42291743,-0.74039257,-0.8193861,0.48924816,-0.29873505,0.23589544,0.7627431,0.60214305,,1.1882660164254284,0.2755779998838274,0.19161629151,2.0828502086317804,-0.6979392408018699,-0.18125993359002474,-0.41309714325359215,,-1.3668619368747443,0.21464563750619603,0.19798237170000002,1.239267565993539,0.3007369359837344,-0.5441749949502813,0.8751975063474683,,-0.03301944778616772,-0.08312785061092492,0.08364271396,-0.06607131087440103,,0.00010526553,-4.172325e-07,-2.6226044e-06,1.0,-6.838888e-05,-5.7540834e-05,6.839633e-05,1.0,-5.930662e-06,5.753711e-05,5.90086e-06,0.99999994,353,1.075,0,0,0.0,False,-0.26196325577190027,1.049514987358727
1.1021256339736283,12:07:10.787416,12:06:06.975095,0,,0.08792634,0.021253228,0.027449071,-0.22809993,0.7994156,-0.5557923,0.17272294,0.5950109,0.78493875,0.9581948,0.083046526,-0.2737993,,0.05680016,0.018295698,0.031222105,-0.4066673,-0.4002561,0.8212287,-0.43047065,0.8768235,0.21418591,-0.80580205,-0.26641238,-0.528874,,0.07722114,1.3264987,0.4522185,0.9978115,0.046577204,-0.046933983,0.0054163733,-0.76498824,-0.64402145,-0.06590066,0.6423578,-0.7635663,,-0.055777203,0.2559032,-0.08526874,0.14215095,-0.8038171,0.5776428,0.7422582,0.47264054,0.4750407,-0.65486324,0.3612326,0.66382617,,-0.018803347,0.44529283,-0.31408107,0.52262956,0.42251325,-0.74050045,-0.81916344,0.48957765,-0.29880598,0.23628299,0.76275575,0.60197514,,1.188528589343152,0.2794625345195623,0.19178610550000003,2.0866246276145017,-0.6953431473063264,-0.18149826273702385,-0.4126071110551893,,-1.366877382340493,0.21462246930757334,0.19798107541,1.239686945880508,0.3010102089832653,-0.544234473277393,0.8751975063474682,,-0.03301944778616772,-0.08312785061092492,0.08364271396,-0.06607131087440103,,0.00010526553,-4.172325e-07,-2.6226044e-06,1.0,-6.838888e-05,-5.7540834e-05,6.839633e-05,1.0,-5.930662e-06,5.753711e-05,5.90086e-06,0.99999994,361,1.099,0,0,0.0,False,-0.26190367805337944,1.049418426957168
1.1257661150302738,12:07:10.814341,12:06:06.975095,0,,0.0885243,0.02225563,0.027700722,-0.2253491,0.804299,-0.5498371,0.17389053,0.58849514,0.7895793,0.95863444,0.08231962,-0.27247676,,0.056824353,0.018286608,0.03123343,-0.4099038,-0.39779773,0.820814,-0.42686254,0.8789246,0.21279077,-0.80608153,-0.26315093,-0.53007954,,0.07722114,1.3264987,0.4522185,0.9978115,0.046577204,-0.046933983,0.0054163733,-0.76498824,-0.64402145,-0.06590066,0.6423578,-0.7635663,,-0.056395438,0.25681034,-0.08479907,0.13937159,-0.80861473,0.57159233,0.74329174,0.46682125,0.47916108,-0.6542882,0.3580784,0.66609824,,-0.018828776,0.44529146,-0.31409317,0.5258253,0.41958913,-0.73990047,-0.81641513,0.49306285,-0.3005917,0.2386924,0.76212466,0.60182387,,1.1888297759252469,0.28564072081894193,0.19205573382000002,2.0948025354103983,-0.6922005078117213,-0.18316240838049536,-0.41309714325359215,,-1.3669314414706124,0.21458385564320223,0.19797848283000002,1.244929194467621,0.30183002798185793,-0.5434327633770414,0.8748708182151996,,-0.03301944778616772,-0.08312785061092492,0.08364271396,-0.06607131087440103,,0.00010526553,-4.172325e-07,-2.6226044e-06,1.0,-6.838888e-05,-5.7540834e-05,6.839633e-05,1.0,-5.930662e-06,5.753711e-05,5.90086e-06,0.99999994,369,1.124,0,0,0.0,False,-0.26249945523859,1.049804668563404
1.152689757058397,12:07:10.837498,12:06:06.975095,0,,0.08894529,0.022894189,0.027870968,-0.22407034,0.8074648,-0.545704,0.17441148,0.5841262,0.79270244,0.9588394,0.08244413,-0.27171642,,0.056751974,0.018264957,0.031246185,-0.40818858,-0.39932117,0.82092905,-0.42754838,0.87815833,0.21457012,-0.80658823,-0.26340172,-0.5291834,,0.07718495,1.3264933,0.45222223,0.99781126,0.04661308,-0.04690378,0.005463167,-0.76498604,-0.64402366,-0.06590066,0.6423578,-0.7635663,,-0.056800365,0.25738552,-0.08450827,0.1380726,-0.81180507,0.56736976,0.7437625,0.46327478,0.48186496,-0.65402853,0.355456,0.6677557,,-0.018728772,0.44528794,-0.31412575,0.5242307,0.4211021,-0.7401724,-0.8174236,0.49251783,-0.29873887,0.23874852,0.76164246,0.60241175,,1.188976507849857,0.28968743284503556,0.19222814039000002,2.099415714167058,-0.6901509603152397,-0.18352681709369267,-0.4127704551213237,,-1.366985500600732,0.21456068744457954,0.19797459396000003,1.242832295032776,0.3025132104806852,-0.542601314313134,0.8756875385458711,,-0.03301944778616772,-0.08312785061092492,0.08364271396,-0.06607131087440103,,6.888807e-05,4.4703484e-06,-1.1920929e-07,1.0,-3.258139e-05,-2.7414411e-05,3.258884e-05,1.0,-2.8014183e-06,2.7410686e-05,2.8014183e-06,0.99999994,377,1.148,0,0,0.0,False,-0.26243987752006825,1.0497563883626244
1.1758362679975107,12:07:10.859418,12:06:06.975095,0,,0.089374185,0.023577958,0.028034076,-0.22302842,0.810448,-0.5416938,0.1755727,0.5799996,0.79547125,0.9588704,0.08230612,-0.27164894,,0.05678144,0.018267445,0.0312652,-0.40885848,-0.39902166,0.8207413,-0.4265539,0.87861776,0.21466853,-0.80677545,-0.2623213,-0.5294347,,0.07718495,1.3264933,0.45222223,0.99781126,0.04661308,-0.04690378,0.005463167,-0.76498604,-0.64402366,-0.06590066,0.6423578,-0.7635663,,-0.057242278,0.2579978,-0.0841798,0.13703161,-0.8147628,0.5633684,0.7446323,0.45979527,0.4838502,-0.65325725,0.3531995,0.6697052,,-0.018760672,0.44529966,-0.31413484,0.5249073,0.4206461,-0.73995215,-0.81676584,0.49355823,-0.2988207,0.23951173,0.7612208,0.6026417,,1.189076903377222,0.29396582685735595,0.19241869502000003,2.1042385828672017,-0.6872815938201655,-0.1845597332290685,-0.4127704551213237,,-1.3671476779910907,0.21452207378020843,0.19797200138,1.244090434693683,0.30278648348021603,-0.5419256839789807,0.8751975063474682,,-0.03301944778616772,-0.08312785061092492,0.08364271396,-0.06607131087440103,,6.888807e-05,4.4703484e-06,-1.1920929e-07,1.0,-3.258139e-05,-2.7414411e-05,3.258884e-05,1.0,-2.8014183e-06,2.7410686e-05,2.8014183e-06,0.99999994,385,1.173,0,0,0.0,False,-0.26196325577190027,1.049514987358727
1.197744754026644,12:07:10.888771,12:06:06.975095,0,,0.08997408,0.024514109,0.028253749,-0.22174837,0.81436616,-0.5363164,0.17643276,0.5744401,0.799306,0.9590094,0.0826211,-0.27106187,,0.05681152,0.01826518,0.031279564,-0.4109874,-0.39748454,0.8204238,-0.424496,0.87986565,0.2136341,-0.8067792,-0.26046556,-0.53034437,,0.07718495,1.3264933,0.45222223,0.99781126,0.04661308,-0.04690378,0.005463167,-0.76498604,-0.64402366,-0.06590066,0.6423578,-0.7635663,,-0.05785964,0.25883314,-0.08372637,0.13574398,-0.81869143,0.5579587,0.74532026,0.45542383,0.48691568,-0.6527414,0.34976208,0.67200834,,-0.018792456,0.44530463,-0.31414384,0.52698785,0.41884467,-0.73949504,-0.8150606,0.4955638,-0.30015454,0.24074885,0.76091105,0.6025399,,1.189115517041593,0.2998428265746408,0.19268961963000003,2.110319591228253,-0.6840023178257949,-0.18568186685511184,-0.4132604873197264,,-1.3672866871828269,0.2144834601158373,0.19797070509000003,1.247235783845951,0.30292311997998145,-0.5414653507016931,0.8760142266781396,,-0.03301944778616772,-0.08312785061092492,0.08364271396,-0.06607131087440103,,6.888807e-05,4.4703484e-06,-1.1920929e-07,1.0,-3.258139e-05,-2.7414411e-05,3.258884e-05,1.0,-2.8014183e-06,2.7410686e-05,2.8014183e-06,0.99999994,393,1.199,0,0,0.0,False,-0.26154621174225356,1.0502391903704191
1.2271232439670712,12:07:10.911556,12:06:06.975095,0,,0.0903661,0.025118575,0.028380439,-0.22085229,0.81671494,-0.53310496,0.1778315,0.57116,0.8013439,0.95895785,0.08217588,-0.27137947,,0.056845397,0.018264808,0.031302273,-0.41122672,-0.3966031,0.8207303,-0.42329144,0.88050324,0.21339719,-0.80728996,-0.25965345,-0.5299653,,0.07718495,1.3264933,0.45222223,0.99781126,0.04661308,-0.04690378,0.005463167,-0.76498604,-0.64402366,-0.06590066,0.6423578,-0.7635663,,-0.05826157,0.25936285,-0.083421454,0.13485548,-0.82099026,0.55478734,0.74633276,0.45245114,0.48813462,-0.6517679,0.34822834,0.6737474,,-0.018829208,0.4453163,-0.31415713,0.52728146,0.41784847,-0.7398492,-0.8145212,0.4964846,-0.3000971,0.24192865,0.76085854,0.6021336,,1.189115517041593,0.3036115202172624,0.19287498910000003,2.1147230800414283,-0.6811329513307206,-0.18720485543133114,-0.41260711105518943,,-1.3674488645731855,0.21441395551996928,0.19796681622,1.2482842335633735,0.30374293897857413,-0.5414804282027471,0.8750341622813339,,-0.03301944778616772,-0.08312785061092492,0.08364271396,-0.06607131087440103,,6.888807e-05,4.4703484e-06,-1.1920929e-07,1.0,-3.258139e-05,-2.7414411e-05,3.258884e-05,1.0,-2.8014183e-06,2.7410686e-05,2.8014183e-06,0.99999994,422,1.288,0,0,0.0,False,-0.26190367805337944,1.0501909101696396
1.249901756993495,12:07:10.996051,12:06:07.113747,0,,0.09176143,0.027407542,0.028719977,-0.22099923,0.82309335,-0.523141,0.18119857,0.5617179,0.8072423,0.9582934,0.083607584,-0.27328247,,0.056933485,0.01826509,0.031405866,-0.40857455,-0.3987493,0.821015,-0.42450804,0.8793273,0.21581571,-0.8079975,-0.26035058,-0.5285431,,0.07718495,1.3264933,0.45222223,0.99781126,0.04661308,-0.04690378,0.005463167,-0.76498604,-0.64402366,-0.06590066,0.6423578,-0.7635663,,-0.05968234,0.26128668,-0.082163736,0.13505958,-0.82746714,0.5450294,0.7485628,0.44559854,0.49101493,-0.649163,0.34167248,0.6795935,,-0.018931122,0.4453782,-0.31422254,0.52477294,0.4200872,-0.74036485,-0.81616825,0.49539334,-0.29741368,0.24183212,0.7603369,0.6028308,,1.1890691806443479,0.31736570746625625,0.19372665163000002,2.1256269571026234,-0.6707485773485472,-0.1918337153256527,-0.41309714325359226,,-1.3681052968674945,0.21424405539673635,0.1979175572,1.2455582642980747,0.3041528484778704,-0.5403444645913063,0.8753608504136026,,-0.03301944778616772,-0.08312785061092492,0.08364271396,-0.06607131087440103,,6.888807e-05,4.4703484e-06,-1.1920929e-07,1.0,-3.258139e-05,-2.7414411e-05,3.258884e-05,1.0,-2.8014183e-06,2.7410686e-05,2.8014183e-06,0.99999994,430,1.312,0,0,0.0,False,-0.26160578946077395,1.0503840309727575
1.3344040560768917,12:07:11.020800,12:06:07.113747,0,,0.09208642,0.027977511,0.028764844,-0.22147149,0.82400554,-0.52150273,0.18123645,0.56024647,0.8082556,0.9581772,0.08449033,-0.2734184,,0.056934,0.018262126,0.0314337,-0.4086756,-0.39861915,0.82102793,-0.4243396,0.8794243,0.21575162,-0.8080348,-0.26022214,-0.52854925,,0.07718495,1.3264933,0.45222223,0.99781126,0.04661308,-0.04690378,0.005463167,-0.76498604,-0.64402366,-0.06590066,0.6423578,-0.7635663,,-0.060010232,0.26174235,-0.081821196,0.13554026,-0.82845354,0.5434092,0.7485466,0.44494444,0.4916324,-0.6490815,0.34013116,0.68044394,,-0.018935544,0.44539517,-0.31424436,0.52487606,0.41993883,-0.74037594,-0.81606203,0.49553722,-0.2974653,0.2419666,0.7603251,0.6027918,,1.1890228442471025,0.320624700739179,0.19398202076,2.1273044766504996,-0.668835666351831,-0.19314852975698088,-0.41309714325359226,,-1.3681825241962369,0.21426722359535902,0.19789422398,1.2457679542415592,0.3041528484778704,-0.5403444645913063,0.8753608504136026,,-0.03301944778616772,-0.08312785061092492,0.08364271396,-0.06607131087440103,,6.888807e-05,4.4703484e-06,-1.1920929e-07,1.0,-3.258139e-05,-2.7414411e-05,3.258884e-05,1.0,-2.8014183e-06,2.7410686e-05,2.8014183e-06,0.99999994,438,1.337,0,0,0.0,False,-0.2617249448978165,1.0499012289649627
1.3591392140369862,12:07:11.047148,12:06:07.113747,0,,0.09225454,0.028281584,0.028770402,-0.22146732,0.82509965,-0.5197719,0.18052274,0.55848384,0.80963403,0.9583129,0.085476935,-0.27263507,,0.0569262,0.018258981,0.031447828,-0.4080594,-0.39904523,0.82112736,-0.42484498,0.8790971,0.2160901,-0.8080807,-0.26067418,-0.52825636,,0.07718495,1.3264933,0.45222223,0.99781126,0.04661308,-0.04690378,0.005463167,-0.76498604,-0.64402366,-0.06590066,0.6423578,-0.7635663,,-0.06017829,0.26197436,-0.08162449,0.13552433,-0.82963014,0.5416152,0.7480722,0.4441169,0.4931006,-0.64963156,0.3383401,0.6808119,,-0.018929783,0.44540346,-0.3142573,0.52427936,0.4204291,-0.7405204,-0.8165231,0.49503762,-0.29703164,0.2417047,0.7603796,0.6028281,,1.18894561691836,0.32228508830713726,0.19413887185,2.128143236424438,-0.6686990298520655,-0.1925248389994123,-0.4127704551213236,,-1.368190246929111,0.21428266906110746,0.19787866850000002,1.244929194467621,0.3041528484778704,-0.5404261433314468,0.8755241944797367,,-0.03301944778616772,-0.08312785061092492,0.08364271396,-0.06607131087440103,,6.888807e-05,4.4703484e-06,-1.1920929e-07,1.0,-3.258139e-05,-2.7414411e-05,3.258884e-05,1.0,-2.8014183e-06,2.7410686e-05,2.8014183e-06,0.99999994,450,1.374,0,0,0.0,False,-0.26190367805337944,1.0496598279610654
1.385500401025638,12:07:11.088289,12:06:07.113747,0,,0.09253715,0.02881144,0.028704494,-0.22174463,0.8272203,-0.51627105,0.18108648,0.5551766,0.81177986,0.95814246,0.08651817,-0.27290574,,0.05691815,0.018251292,0.031470478,-0.40743187,-0.3994621,0.8212363,-0.42534682,0.87877196,0.2164252,-0.8081333,-0.2611317,-0.5279497,,0.07718495,1.3264933,0.45222223,0.99781126,0.04661308,-0.04690378,0.005463167,-0.76498604,-0.64402366,-0.06590066,0.6423578,-0.7635663,,-0.060454134,0.2623323,-0.08122354,0.13581547,-0.83183366,0.53815144,0.74842286,0.44205785,0.49441692,-0.6491667,0.33561537,0.6826016,,-0.018924937,0.4454144,-0.31427953,0.5236723,0.42091098,-0.7406762,-0.8169875,0.4945347,-0.29659197,0.24145126,0.76044023,0.6028531,,1.188737103130756,0.32498804481311583,0.19446424064,2.1300304459157986,-0.6667861188553494,-0.19147096996666424,-0.4127704551213237,,-1.3682134151277336,0.21429039179398168,0.19785403899,1.244090434693683,0.3041528484778704,-0.5405078220715874,0.8756875385458711,,-0.03301944778616772,-0.08312785061092492,0.08364271396,-0.06607131087440103,,6.888807e-05,4.4703484e-06,-1.1920929e-07,1.0,-3.258139e-05,-2.7414411e-05,3.258884e-05,1.0,-2.8014183e-06,2.7410686e-05,2.8014183e-06,0.99999994,458,1.398,0,0,0.0,False,-0.26106958999408425,1.0503840309727575
1.4266402020584792,12:07:11.109613,12:06:07.297492,0,,0.092648156,0.029021636,0.028652474,-0.22238576,0.8276296,-0.5153384,0.18150589,0.5544788,0.812163,0.9579144,0.087076604,-0.27352777,,0.056918524,0.018249728,0.031478226,-0.40735307,-0.3992034,0.8214011,-0.42525345,0.8788636,0.21623659,-0.8082221,-0.26121905,-0.5277705,,0.07718495,1.3264933,0.45222223,0.99781126,0.04661308,-0.04690378,0.005463167,-0.76498604,-0.64402366,-0.06590066,0.6423578,-0.7635663,,-0.060560163,0.2624583,-0.0810444,0.13647416,-0.83229065,0.5372775,0.7486451,0.44183567,0.494279,-0.6487721,0.33477387,0.6833895,,-0.018926393,0.4454186,-0.31428614,0.5236057,0.42066613,-0.74086237,-0.81699014,0.49451238,-0.296622,0.24158677,0.76059026,0.6026096,,1.1885980939390202,0.3260151682853877,0.19461201770000003,2.1302401358592826,-0.6656930268572259,-0.1913821683145488,-0.4127704551213236,,-1.3682288605934823,0.21429039179398168,0.19784755754000002,1.244090434693683,0.30428948497763586,-0.5407825974555649,0.8753608504136026,,-0.03301944778616772,-0.08312785061092492,0.08364271396,-0.06607131087440103,,6.888807e-05,4.4703484e-06,-1.1920929e-07,1.0,-3.258139e-05,-2.7414411e-05,3.258884e-05,1.0,-2.8014183e-06,2.7410686e-05,2.8014183e-06,0.99999994,466,1.423,0,0,0.0,False,-0.26095043455704303,1.0498529487641832
1.4479241489898413,12:07:11.133422,12:06:07.297492,0,,0.092809096,0.029332027,0.028559312,-0.22222283,0.828629,-0.5138003,0.18184564,0.55295473,0.8131255,0.95788777,0.08726281,-0.27356166,,0.05691317,0.018247403,0.03147888,-0.40697253,-0.39982638,0.82128674,-0.42573214,0.8785122,0.21672218,-0.8081619,-0.26144814,-0.5277493,,0.07718495,1.3264933,0.45222223,0.99781126,0.04661308,-0.04690378,0.005463167,-0.76498604,-0.64402366,-0.06590066,0.6423578,-0.7635663,,-0.060712315,0.26263437,-0.08076733,0.13631411,-0.8333021,0.5357481,0.74888533,0.44070342,0.49492556,-0.6485285,0.33374858,0.6841218,,-0.01892115,0.4454179,-0.31428868,0.5232268,0.42131993,-0.74075854,-0.8173335,0.49417,-0.29624647,0.24124612,0.7604509,0.60292184,,1.1883586892199192,0.327436151134245,0.19484794248,2.1317079654636744,-0.6648732078586332,-0.19147892455574345,-0.4122804229229208,,-1.3682134151277336,0.21429039179398168,0.19784366867000003,1.2434613648632293,0.3041528484778704,-0.5405078220715873,0.8753608504136023,,-0.03301944778616772,-0.08312785061092492,0.08364271396,-0.06607131087440103,,6.888807e-05,4.4703484e-06,-1.1920929e-07,1.0,-3.258139e-05,-2.7414411e-05,3.258884e-05,1.0,-2.8014183e-06,2.7410686e-05,2.8014183e-06,0.99999994,495,1.513,0,0,0.0,False,-0.2618441003348577,1.0502391903704191
1.471704422030598,12:07:11.221137,12:06:07.297492,0,,0.09333359,0.03025958,0.02839844,-0.2220643,0.8314672,-0.5092637,0.18145981,0.5484222,0.81627524,0.95799774,0.08885479,-0.2726628,,0.056916043,0.018248968,0.031487226,-0.40685603,-0.39999205,0.82126385,-0.42592615,0.8783957,0.216813,-0.80811834,-0.261586,-0.52774775,,0.07718495,1.3264933,0.45222223,0.99781126,0.04661308,-0.04690378,0.005463167,-0.76498604,-0.64402366,-0.06590066,0.6423578,-0.7635663,,-0.061220806,0.26323107,-0.08002792,0.13614659,-0.83626866,0.53114855,0.74864286,0.43798766,0.49769536,-0.6488435,0.32988107,0.6856971,,-0.018925203,0.4454245,-0.31429327,0.5231078,0.42150503,-0.74073726,-0.8174555,0.4940095,-0.2961777,0.24109086,0.76045257,0.6029818,,1.1876868114598615,0.3320697908587797,0.19546368023000002,2.1352726945029117,-0.6633702063612134,-0.19131598291401447,-0.41244376698905505,,-1.368259751524979,0.21429811452685593,0.19783848351000002,1.2432516749197449,0.304016211978105,-0.5404780829080316,0.8755241944797367,,-0.03301944778616772,-0.08312785061092492,0.08364271396,-0.06607131087440103,,6.888807e-05,4.4703484e-06,-1.1920929e-07,1.0,-3.258139e-05,-2.7414411e-05,3.258884e-05,1.0,-2.8014183e-06,2.7410686e-05,2.8014183e-06,0.99999994,503,1.538,0,0,0.0,False,-0.2613079008681689,1.049804668563404
1.5594716239720583,12:07:11.251953,12:06:07.417317,0,,0.09358909,0.03067106,0.028403684,-0.22144258,0.83314234,-0.50679064,0.18077442,0.5457568,0.8182115,0.9582712,0.08957216,-0.27146456,,0.05691623,0.018249251,0.031489074,-0.40669748,-0.4001112,0.8212843,-0.42605144,0.8783101,0.21691352,-0.8081321,-0.2616911,-0.52767456,,0.07718495,1.3264933,0.45222223,0.99781126,0.04661308,-0.04690378,0.005463167,-0.76498604,-0.64402366,-0.06590066,0.6423578,-0.7635663,,-0.06147591,0.26354206,-0.079758026,0.13550332,-0.8379999,0.5285783,0.74824184,0.4362545,0.49981615,-0.6494405,0.32777762,0.68614054,,-0.018925652,0.44542596,-0.3142944,0.5229545,0.42163903,-0.74076927,-0.817572,0.4938887,-0.29605743,0.24102819,0.76045674,0.6030016,,1.1874628522065092,0.3343402743238017,0.19567886437,2.137369593937757,-0.663233569861448,-0.19093732837686755,-0.4127704551213238,,-1.3682674742578533,0.21429811452685593,0.19783718722000002,1.2430419849762604,0.304016211978105,-0.5404780829080316,0.8755241944797367,,-0.03301944778616772,-0.08312785061092492,0.08364271396,-0.06607131087440103,,6.888807e-05,4.4703484e-06,-1.1920929e-07,1.0,-3.258139e-05,-2.7414411e-05,3.258884e-05,1.0,-2.8014183e-06,2.7410686e-05,2.8014183e-06,0.99999994,511,1.562,0,0,0.0,False,-0.2621419889274632,1.049708108161845
1.590301531017758,12:07:11.271055,12:06:07.417317,0,,0.09378989,0.030981883,0.02840969,-0.22216435,0.83389723,-0.5052309,0.18021774,0.544373,0.8192555,0.95820904,0.09095785,-0.2712232,,0.05691515,0.018248744,0.0314883,-0.40670282,-0.40011337,0.8212806,-0.4260545,0.878309,0.21691203,-0.80812776,-0.26169154,-0.52768093,,0.07718495,1.3264933,0.45222223,0.99781126,0.04661308,-0.04690378,0.005463167,-0.76498604,-0.64402366,-0.06590066,0.6423578,-0.7635663,,-0.061676566,0.26377776,-0.079555206,0.13622794,-0.83887416,0.52700293,0.7478078,0.43598974,0.500696,-0.6497888,0.3258881,0.6867106,,-0.018924465,0.44542515,-0.31429428,0.52295923,0.42164126,-0.7407647,-0.8175707,0.49388784,-0.2960625,0.24102248,0.7604561,0.60300475,,1.187254338418905,0.3361242256177476,0.19583701175,2.1375792838812413,-0.6626870238623862,-0.19040285510996652,-0.4127704551213237,,-1.368259751524979,0.21429811452685593,0.19783718722000002,1.2430419849762604,0.304016211978105,-0.5404780829080316,0.8755241944797367,,-0.03301944778616772,-0.08312785061092492,0.08364271396,-0.06607131087440103,,6.888807e-05,4.4703484e-06,-1.1920929e-07,1.0,-3.258139e-05,-2.7414411e-05,3.258884e-05,1.0,-2.8014183e-06,2.7410686e-05,2.8014183e-06,0.99999994,519,1.587,0,0,0.0,False,-0.26202283349042155,1.05014262996886
1.6093674399890006,12:07:11.294653,12:06:07.417317,0,,0.09407072,0.031422853,0.028418943,-0.22446518,0.83503556,-0.5023253,0.17934927,0.5420739,0.82096875,0.95783556,0.09418729,-0.2714396,,0.05691252,0.018248416,0.031491816,-0.40655005,-0.40023917,0.82129496,-0.42617983,0.8782221,0.21701755,-0.8081386,-0.26179078,-0.5276152,,0.07718495,1.3264933,0.45222223,0.99781126,0.04661308,-0.04690378,0.005463167,-0.76498604,-0.64402366,-0.06590066,0.6423578,-0.7635663,,-0.061957266,0.2641129,-0.07926831,0.13855313,-0.8402937,0.52412736,0.74702454,0.4361315,0.50174063,-0.6501979,0.32201827,0.6881474,,-0.018922355,0.4454276,-0.31429723,0.52281123,0.421781,-0.7407896,-0.8176846,0.4937708,-0.29594308,0.24095711,0.7604546,0.6030327,,1.1869685973025588,0.3386881729319901,0.19605997363000002,2.136321144220334,-0.6614572953644973,-0.18805678789747127,-0.41195373479065234,,-1.368259751524979,0.21430583725973015,0.19783329835000002,1.242832295032776,0.304016211978105,-0.5404780829080316,0.8755241944797367,,-0.03301944778616772,-0.08312785061092492,0.08364271396,-0.06607131087440103,,6.888807e-05,4.4703484e-06,-1.1920929e-07,1.0,-3.258139e-05,-2.7414411e-05,3.258884e-05,1.0,-2.8014183e-06,2.7410686e-05,2.8014183e-06,0.99999994,527,1.611,0,0,0.0,False,-0.2612483231496481,1.049804668563404
1.6330028820084408,12:07:11.324922,12:06:07.417317,0,,0.0943556,0.03184724,0.02841933,-0.22661145,0.8359703,-0.4998006,0.18003118,0.54025924,0.822015,0.9572021,0.09629835,-0.27292964,,0.056910925,0.018246822,0.031491756,-0.4062485,-0.40047947,0.8213271,-0.42644256,0.8780476,0.2172075,-0.80815166,-0.2620085,-0.5274871,,0.07718495,1.3264933,0.45222223,0.99781126,0.04661308,-0.04690378,0.005463167,-0.76498604,-0.64402366,-0.06590066,0.6423578,-0.7635663,,-0.062241208,0.2644293,-0.07898457,0.1407469,-0.84141135,0.5217444,0.7472842,0.43596974,0.5014945,-0.64942795,0.31930754,0.6901348,,-0.018920746,0.44542658,-0.31429845,0.52251804,0.42205206,-0.74084204,-0.81791484,0.49352184,-0.29572207,0.24081163,0.7604658,0.6030767,,1.186667410720464,0.3411826156503646,0.19627256519000003,2.135901764333365,-0.6588612018689539,-0.18698825720222134,-0.41375051951812936,,-1.3682520287921047,0.21429811452685593,0.19783200206,1.2424129151458068,0.304016211978105,-0.5404780829080316,0.8755241944797367,,-0.03301944778616772,-0.08312785061092492,0.08364271396,-0.06607131087440103,,6.888807e-05,4.4703484e-06,-1.1920929e-07,1.0,-3.258139e-05,-2.7414411e-05,3.258884e-05,1.0,-2.8014183e-06,2.7410686e-05,2.8014183e-06,0.99999994,535,1.636,0,0,0.0,False,-0.2620824112089424,1.0499012289649627
1.6632626299979165,12:07:11.351522,12:06:07.535363,0,,0.09454018,0.032124713,0.028409362,-0.22914001,0.8364767,-0.49779657,0.1792992,0.53892326,0.82305133,0.9567374,0.09933956,-0.27346838,,0.05690807,0.018246345,0.03149128,-0.4063223,-0.40060616,0.82122874,-0.4265298,0.87799215,0.21726042,-0.8080685,-0.2620007,-0.52761835,,0.07718495,1.3264933,0.45222223,0.99781126,0.04661308,-0.04690378,0.005463167,-0.76498604,-0.64402366,-0.06590066,0.6423578,-0.7635663,,-0.062424276,0.26462993,-0.07879119,0.14330699,-0.842185,0.51979566,0.7465636,0.43678322,0.5018597,-0.6496967,0.31614053,0.6913388,,-0.018917853,0.44542626,-0.31429875,0.52258044,0.4221771,-0.7407268,-0.8179123,0.49350107,-0.2957637,0.24068482,0.7604099,0.6031978,,1.186397115069866,0.342812112286826,0.19642423112000001,2.13380486489852,-0.6579047463705957,-0.184664390402755,-0.4114637025922494,,-1.3682443060592306,0.21430583725973015,0.19783070577000003,1.2424129151458068,0.30387957547833955,-0.5403666650043352,0.8755241944797367,,-0.03301944778616772,-0.08312785061092492,0.08364271396,-0.06607131087440103,,6.888807e-05,4.4703484e-06,-1.1920929e-07,1.0,-3.258139e-05,-2.7414411e-05,3.258884e-05,1.0,-2.8014183e-06,2.7410686e-05,2.8014183e-06,0.99999994,543,1.661,0,0,0.0,False,-0.26190367805337944,1.0499012289649627
1.6898719680029899,12:07:11.373371,12:06:07.535363,0,,0.09472962,0.032394424,0.028367087,-0.2317265,0.8367374,-0.49615836,0.18117037,0.53823894,0.82308936,0.9557615,0.10084252,-0.2763161,,0.05690869,0.018246211,0.031493127,-0.40631697,-0.40060398,0.8212325,-0.42652667,0.8779933,0.21726194,-0.80807275,-0.26200026,-0.527612,,0.07718495,1.3264933,0.45222223,0.99781126,0.04661308,-0.04690378,0.005463167,-0.76498604,-0.64402366,-0.06590066,0.6423578,-0.7635663,,-0.062609315,0.26480418,-0.07857716,0.14596917,-0.84257776,0.5184165,0.7475656,0.43716586,0.5000317,-0.6479496,0.31456116,0.6936949,,-0.018918727,0.4454274,-0.3143001,0.52257574,0.42217484,-0.7407314,-0.8179136,0.49350193,-0.29575863,0.24069053,0.76041055,0.6031947,,1.1861113739535198,0.3443721043274193,0.19658237850000002,2.132756415181097,-0.6544888338764597,-0.18401933090926187,-0.41375051951812936,,-1.3682520287921047,0.21430583725973015,0.19782940948000002,1.2424129151458068,0.30387957547833955,-0.5403666650043352,0.8755241944797367,,-0.03301944778616772,-0.08312785061092492,0.08364271396,-0.06607131087440103,,6.888807e-05,4.4703484e-06,-1.1920929e-07,1.0,-3.258139e-05,-2.7414411e-05,3.258884e-05,1.0,-2.8014183e-06,2.7410686e-05,2.8014183e-06,0.99999994,572,1.751,0,0,0.0,False,-0.2612483231496481,1.049708108161845
1.7116925399750471,12:07:11.461495,12:06:07.653953,0,,0.09551373,0.033540532,0.028114974,-0.24584484,0.8336253,-0.49459988,0.18070507,0.5407312,0.8215566,0.95231605,0.11259881,-0.28357622,,0.056905083,0.018244214,0.031498432,-0.40585706,-0.4011017,0.821217,-0.4269114,0.8776971,0.21770231,-0.80810076,-0.26223078,-0.52745456,,0.07718495,1.3264933,0.45222223,0.99781126,0.04661308,-0.04690378,0.005463167,-0.76498604,-0.64402366,-0.06590066,0.6423578,-0.7635663,,-0.06336839,0.26550084,-0.07761256,0.16033764,-0.84052163,0.5175087,0.74584806,0.44658217,0.49424186,-0.6465311,0.3067373,0.69850534,,-0.01891588,0.44542995,-0.31430557,0.5221296,0.42270416,-0.7407442,-0.8182588,0.49318475,-0.29533258,0.2404854,0.76032233,0.6033877,,1.1844509863855615,0.35076652714727724,0.19735626363000003,2.1210137783459637,-0.6472470993888915,-0.18183828453125656,-0.41260711105518943,,-1.3682520287921047,0.21430583725973015,0.19782292803,1.2417838453153531,0.30387957547833955,-0.540203307524054,0.8755241944797367,,-0.03301944778616772,-0.08312785061092492,0.08364271396,-0.06607131087440103,,6.888807e-05,4.4703484e-06,-1.1920929e-07,1.0,-3.258139e-05,-2.7414411e-05,3.258884e-05,1.0,-2.8014183e-06,2.7410686e-05,2.8014183e-06,0.99999994,584,1.787,0,0,0.0,False,-0.26178452261633733,1.0505288715750958
1.7998265570495278,12:07:11.494695,12:06:07.653953,0,,0.095775604,0.033886686,0.027982786,-0.25138125,0.83267474,-0.49341673,0.18122971,0.5412645,0.82108986,0.9507698,0.11698486,-0.28696907,,0.05690027,0.018243931,0.03149724,-0.40562946,-0.401607,0.8210825,-0.4272582,0.8774309,0.21809493,-0.8080318,-0.26234832,-0.5275018,,0.07718495,1.3264933,0.45222223,0.99781126,0.04661308,-0.04690378,0.005463167,-0.76498604,-0.64402366,-0.06590066,0.6423578,-0.7635663,,-0.063617624,0.2656751,-0.077275835,0.16598919,-0.83996403,0.51663136,0.7456066,0.44977328,0.491706,-0.64538234,0.3035859,0.70094025,,-0.018910952,0.44542947,-0.3143054,0.52189904,0.42322445,-0.7406095,-0.81848496,0.49296746,-0.29506862,0.24021612,0.76017374,0.6036821,,1.18371732676251,0.3526740421672107,0.19762589195000002,2.1164005995893045,-0.6441044598942863,-0.1801536018289649,-0.41309714325359215,,-1.3682365833263563,0.21431355999260437,0.19782163174000003,1.2413644654283842,0.30374293897857413,-0.5399285321400764,0.8758508826120053,,-0.03301944778616772,-0.08312785061092492,0.08364271396,-0.06607131087440103,,6.888807e-05,4.4703484e-06,-1.1920929e-07,1.0,-3.258139e-05,-2.7414411e-05,3.258884e-05,1.0,-2.8014183e-06,2.7410686e-05,2.8014183e-06,0.99999994,592,1.812,0,0,0.0,False,-0.26106958999408425,1.0502874705711984
1.8330476509872824,12:07:11.523829,12:06:07.653953,0,,0.09605582,0.03422357,0.027862653,-0.25637567,0.8320127,-0.4919617,0.18105248,0.5413012,0.82110465,0.949469,0.121440455,-0.28941435,,0.056900095,0.018245988,0.031498432,-0.40547115,-0.40179738,0.82106745,-0.4273802,0.877327,0.21827362,-0.80804664,-0.2624043,-0.5274512,,0.07718495,1.3264933,0.45222223,0.99781126,0.04661308,-0.04690378,0.005463167,-0.76498604,-0.64402366,-0.06590066,0.6423578,-0.7635663,,-0.0638862,0.26584855,-0.07695299,0.17107937,-0.83969986,0.5153989,0.7449383,0.4526031,0.49011973,-0.6448246,0.300091,0.70295566,,-0.018910972,0.4454318,-0.31430483,0.5217461,0.42342222,-0.7406042,-0.81859994,0.49287504,-0.2949039,0.24015647,0.76012355,0.60376906,,1.1828832716120938,0.35459700265289257,0.19788385366000003,2.1122068007196138,-0.6419182758980392,-0.17817906624164187,-0.4132604873197265,,-1.3682443060592306,0.2143212827254786,0.19782163174000003,1.2411547754848997,0.30374293897857413,-0.5398468533999359,0.8756875385458711,,-0.03301944778616772,-0.08312785061092492,0.08364271396,-0.06607131087440103,,6.888807e-05,4.4703484e-06,-1.1920929e-07,1.0,-3.258139e-05,-2.7414411e-05,3.258884e-05,1.0,-2.8014183e-06,2.7410686e-05,2.8014183e-06,0.99999994,600,1.837,0,0,0.0,False,-0.2604738128088746,1.0496115477602863
1.8621790329925716,12:07:11.553497,12:06:07.653953,0,,0.096323125,0.034546256,0.027740762,-0.26092145,0.83185583,-0.48983222,0.18081978,0.5405422,0.82165575,0.94827425,0.12581632,-0.29145497,,0.056899995,0.018243574,0.03150016,-0.4054707,-0.40199414,0.82097137,-0.4273832,0.8772737,0.21848206,-0.8080453,-0.26228127,-0.5275145,,0.07718495,1.3264933,0.45222223,0.99781126,0.04661308,-0.04690378,0.005463167,-0.76498604,-0.64402366,-0.06590066,0.6423578,-0.7635663,,-0.064141765,0.2660105,-0.0766385,0.17571329,-0.83993155,0.51345867,0.74426746,0.45473287,0.48916656,-0.644353,0.2961975,0.70503634,,-0.018911086,0.44543123,-0.31430775,0.5217455,0.42360017,-0.7405029,-0.8186012,0.49294266,-0.2947874,0.24015345,0.75998056,0.60395026,,1.1820723846603003,0.35640412214546113,0.19813792650000003,2.1084323817368924,-0.640005364901323,-0.17549162240608251,-0.4119537347906523,,-1.3682443060592306,0.21431355999260437,0.19781903916000002,1.2411547754848997,0.30374293897857413,-0.5396018171795143,0.8755241944797368,,-0.03301944778616772,-0.08312785061092492,0.08364271396,-0.06607131087440103,,6.888807e-05,4.4703484e-06,-1.1920929e-07,1.0,-3.258139e-05,-2.7414411e-05,3.258884e-05,1.0,-2.8014183e-06,2.7410686e-05,2.8014183e-06,0.99999994,608,1.861,0,0,0.0,False,-0.26101001227556386,1.0506737121774343
1.8918135620187968,12:07:11.574091,12:06:07.653953,0,,0.09647021,0.034723446,0.027664691,-0.26330358,0.83097184,-0.490058,0.1808143,0.5414897,0.8210329,0.94761664,0.12757151,-0.29282767,,0.05689974,0.018244214,0.031502068,-0.40515852,-0.4023682,0.8209422,-0.42763633,0.8770649,0.21882477,-0.808068,-0.26240596,-0.5274177,,0.07718495,1.3264933,0.45222223,0.99781126,0.04661308,-0.04690378,0.005463167,-0.76498604,-0.64402366,-0.06590066,0.6423578,-0.7635663,,-0.06428158,0.26609376,-0.07645868,0.17814437,-0.83920705,0.5138055,0.74398744,0.45661214,0.48784018,-0.64400876,0.29535884,0.7057024,,-0.01891111,0.44543302,-0.31430867,0.52144307,0.42399085,-0.7404923,-0.8188323,0.4927475,-0.29447168,0.24002242,0.75988925,0.6041172,,1.1815858524892242,0.357431245617733,0.19829348130000002,2.1063354823020473,-0.6389122729031995,-0.17572953571452937,-0.4121170788567865,,-1.3682520287921047,0.21431355999260437,0.19781774287,1.2407353955979306,0.30374293897857413,-0.5394384596992331,0.8753608504136026,,-0.03301944778616772,-0.08312785061092492,0.08364271396,-0.06607131087440103,,6.888807e-05,4.4703484e-06,-1.1920929e-07,1.0,-3.258139e-05,-2.7414411e-05,3.258884e-05,1.0,-2.8014183e-06,2.7410686e-05,2.8014183e-06,0.99999994,616,1.886,0,0,0.0,False,-0.261427056305211,1.05014262996886
1.9123932369984686,12:07:11.594628,12:06:07.653953,0,,0.0966364,0.034918696,0.02761142,-0.26571488,0.83100146,-0.48870432,0.18014464,0.5407981,0.82163566,0.94707096,0.13028345,-0.29339847,,0.056900095,0.018242382,0.031502783,-0.40515813,-0.40249783,0.8208789,-0.42763937,0.8770293,0.21896145,-0.80806655,-0.26232606,-0.52745956,,0.07718495,1.3264933,0.45222223,0.99781126,0.04661308,-0.04690378,0.005463167,-0.76498604,-0.64402366,-0.06590066,0.6423578,-0.7635663,,-0.06444246,0.26620424,-0.07628406,0.1805948,-0.8394769,0.5125076,0.74325895,0.45775196,0.48788244,-0.6441674,0.29281685,0.70661634,,-0.018911537,0.44543216,-0.3143104,0.52144253,0.4241083,-0.74042547,-0.81883353,0.49279094,-0.29439548,0.2400194,0.75979555,0.60423625,,1.181130211249645,0.35850470548725016,0.19842570288000003,2.1044482728106866,-0.6383657269041378,-0.17405156008566036,-0.4116270466583836,,-1.3682520287921047,0.21430583725973015,0.19781644658000003,1.2407353955979306,0.30374293897857413,-0.5392751022189519,0.8755241944797368,,-0.03301944778616772,-0.08312785061092492,0.08364271396,-0.06607131087440103,,6.888807e-05,4.4703484e-06,-1.1920929e-07,1.0,-3.258139e-05,-2.7414411e-05,3.258884e-05,1.0,-2.8014183e-06,2.7410686e-05,2.8014183e-06,0.99999994,645,1.976,0,0,0.0,False,-0.2608312791200009,1.050046069567301
1.9329796290257946,12:07:11.685036,12:06:07.813504,0,,0.097311825,0.03580165,0.027442634,-0.27225676,0.8317077,-0.4838784,0.18216962,0.5383328,0.8228073,0.9448229,0.135867,-0.29807657,,0.05689522,0.018240906,0.0315094,-0.40469807,-0.40293238,0.82089263,-0.42802045,0.87674963,0.21933651,-0.80809534,-0.26259378,-0.5272823,,0.07718495,1.3264933,0.45222223,0.99781126,0.04661308,-0.04690378,0.005463167,-0.76498604,-0.64402366,-0.06590066,0.6423578,-0.7635663,,-0.065100566,0.26675275,-0.07555583,0.18730961,-0.8406747,0.5081153,0.74381167,0.45924827,0.4856287,-0.6416068,0.28697914,0.7113253,,-0.018907635,0.4454362,-0.31431663,0.5209963,0.4245801,-0.74046916,-0.81917673,0.4924531,-0.2940058,0.23981734,0.7597511,0.6043724,,1.1797246738665361,0.3634626999925023,0.19900384822000003,2.1017223035453876,-0.6323537209144584,-0.1720929336764958,-0.4122804229229208,,-1.3682520287921047,0.21431355999260437,0.19780866884,1.2401063257674771,0.30374293897857413,-0.5391934234788114,0.8756875385458711,,-0.03301944778616772,-0.08312785061092492,0.08364271396,-0.06607131087440103,,6.888807e-05,4.4703484e-06,-1.1920929e-07,1.0,-3.258139e-05,-2.7414411e-05,3.258884e-05,1.0,-2.8014183e-06,2.7410686e-05,2.8014183e-06,0.99999994,653,2.0,0,0,0.0,False,-0.26101001227556386,1.0496115477602863
2.0233554060105234,12:07:11.712906,12:06:07.813504,0,,0.09755531,0.036125004,0.027457476,-0.27361614,0.83214104,-0.48236427,0.18253559,0.53731275,0.82339275,0.9443594,0.13724495,-0.2989127,,0.056894697,0.018239848,0.031510174,-0.40439057,-0.4031698,0.8209276,-0.4282794,0.87657523,0.21952789,-0.8081121,-0.26281133,-0.5271482,,0.07718495,1.3264933,0.45222223,0.99781126,0.04661308,-0.04690378,0.005463167,-0.76498604,-0.64402366,-0.06590066,0.6423578,-0.7635663,,-0.06534453,0.2670014,-0.075349145,0.18870458,-0.8412282,0.5066811,0.74388593,0.4592811,0.48548386,-0.64111173,0.28529993,0.7124463,,-0.018907214,0.44543603,-0.31431794,0.5206977,0.42484832,-0.74052536,-0.81940746,0.49220398,-0.29378,0.2396776,0.7597626,0.60441333,,1.179408041818693,0.3654088286768069,0.19916199560000003,2.1017223035453876,-0.630714082917273,-0.17204140993846334,-0.4124437669890551,,-1.3682520287921047,0.21430583725973015,0.19780737255000003,1.239686945880508,0.30374293897857413,-0.5391934234788114,0.8756875385458711,,-0.03301944778616772,-0.08312785061092492,0.08364271396,-0.06607131087440103,,6.888807e-05,4.4703484e-06,-1.1920929e-07,1.0,-3.258139e-05,-2.7414411e-05,3.258884e-05,1.0,-2.8014183e-06,2.7410686e-05,2.8014183e-06,0.99999994,661,2.025,0,0,0.0,False,-0.260652545964438,1.0500943497680806
2.051253203069791,12:07:11.733622,12:06:07.813504,0,,0.09772022,0.03633082,0.027485445,-0.27451718,0.83202505,-0.4820523,0.18276545,0.53732,0.82333696,0.94405353,0.13791771,-0.29956892,,0.05689484,0.018240176,0.031509995,-0.40429965,-0.40347537,0.8208222,-0.42849153,0.87641656,0.21974736,-0.8080451,-0.26287153,-0.5272208,,0.07718495,1.3264933,0.45222223,0.99781126,0.04661308,-0.04690378,0.005463167,-0.76498604,-0.64402366,-0.06590066,0.6423578,-0.7635663,,-0.06551134,0.2671706,-0.07523134,0.18962912,-0.84117234,0.50642854,0.743926,0.45971063,0.48501578,-0.6407924,0.28477222,0.71294445,,-0.018907329,0.44543612,-0.31431755,0.520601,0.4251614,-0.74041367,-0.8195235,0.49208176,-0.29366094,0.23949075,0.75966656,0.604608,,1.179207250763963,0.3667216932654251,0.19924755074000003,2.1017223035453876,-0.6296209909191496,-0.17285107442789405,-0.4122804229229207,,-1.368259751524979,0.21430583725973015,0.19780737255000003,1.2394772559370233,0.30360630247880865,-0.5390003268349745,0.8755241944797368,,-0.03301944778616772,-0.08312785061092492,0.08364271396,-0.06607131087440103,,6.888807e-05,4.4703484e-06,-1.1920929e-07,1.0,-3.258139e-05,-2.7414411e-05,3.258884e-05,1.0,-2.8014183e-06,2.7410686e-05,2.8014183e-06,0.99999994,669,2.05,0,0,0.0,False,-0.26136747858668974,1.0497563883626244
2.071891385014169,12:07:11.763627,12:06:07.947708,0,,0.09795967,0.03667304,0.027508885,-0.275649,0.83210933,-0.4812602,0.1820265,0.536783,0.8238509,0.94386643,0.13949169,-0.29942957,,0.056892682,0.018239178,0.031508386,-0.4043103,-0.40347978,0.82081485,-0.42849767,0.8764143,0.21974435,-0.80803657,-0.26287228,-0.5272336,,0.07718495,1.3264933,0.45222223,0.99781126,0.04661308,-0.04690378,0.005463167,-0.76498604,-0.64402366,-0.06590066,0.6423578,-0.7635663,,-0.06575205,0.26743957,-0.07501985,0.19077338,-0.84139574,0.50562704,0.74329466,0.46026227,0.4854603,-0.6411853,0.28321698,0.71321076,,-0.018904952,0.4454345,-0.31431732,0.5206104,0.4251659,-0.7404045,-0.8195209,0.4920801,-0.2936711,0.23947936,0.75966513,0.6046143,,1.178929232380491,0.3687218810798492,0.19941866102000003,2.101512613601903,-0.6290744449200878,-0.17321506730253927,-0.41211707885678656,,-1.3682443060592306,0.21430583725973015,0.19780737255000003,1.2394772559370233,0.30360630247880865,-0.5390003268349745,0.8755241944797368,,-0.03301944778616772,-0.08312785061092492,0.08364271396,-0.06607131087440103,,6.888807e-05,4.4703484e-06,-1.1920929e-07,1.0,-3.258139e-05,-2.7414411e-05,3.258884e-05,1.0,-2.8014183e-06,2.7410686e-05,2.8014183e-06,0.99999994,677,2.074,0,0,0.0,False,-0.26053339052739544,1.0499495091657423
2.1019742090720683,12:07:11.788004,12:06:07.947708,0,,0.09813606,0.036893815,0.027525723,-0.27648562,0.8320199,-0.48093474,0.18243188,0.5367838,0.8237606,0.9435434,0.14002022,-0.30019987,,0.056892682,0.018239178,0.031508386,-0.4043103,-0.40347978,0.82081485,-0.42849767,0.8764143,0.21974435,-0.80803657,-0.26287228,-0.5272336,,0.07718495,1.3264933,0.45222223,0.99781126,0.04661308,-0.04690378,0.005463167,-0.76498604,-0.64402366,-0.06590066,0.6423578,-0.7635663,,-0.065929316,0.26761293,-0.07488327,0.19163519,-0.8413536,0.5053712,0.74345785,0.46059585,0.48489368,-0.6407389,0.2827995,0.7137773,,-0.018904952,0.4454345,-0.31431732,0.5206104,0.4251659,-0.7404045,-0.8195209,0.4920801,-0.2936711,0.23947936,0.75966513,0.6046143,,1.17868982766139,0.37008880479858697,0.19952106793000002,2.1017223035453876,-0.6278447164221989,-0.17421782843580697,-0.412443766989055,,-1.3682443060592306,0.21430583725973015,0.19780737255000003,1.2394772559370233,0.30360630247880865,-0.5390003268349745,0.8755241944797368,,-0.03301944778616772,-0.08312785061092492,0.08364271396,-0.06607131087440103,,6.888807e-05,4.4703484e-06,-1.1920929e-07,1.0,-3.258139e-05,-2.7414411e-05,3.258884e-05,1.0,-2.8014183e-06,2.7410686e-05,2.8014183e-06,0.99999994,685,2.099,0,0,0.0,False,-0.2599971910607066,1.0500943497680806
2.1263287200126797,12:07:11.809201,12:06:07.947708,0,,0.0983005,0.037104875,0.02754797,-0.2787137,0.83116984,-0.48111865,0.18182257,0.537578,0.8233774,0.9430053,0.14200844,-0.3009557,,0.056893524,0.018241279,0.031510055,-0.4038388,-0.40377086,0.82090384,-0.4288752,0.8761723,0.21997273,-0.808072,-0.26323172,-0.52699983,,0.07718495,1.3264933,0.45222223,0.99781126,0.04661308,-0.04690378,0.005463167,-0.76498604,-0.64402366,-0.06590066,0.6423578,-0.7635663,,-0.066095166,0.26778272,-0.074757755,0.19390242,-0.84068346,0.50562155,0.7427711,0.46249783,0.48413515,-0.6408533,0.28168607,0.71411484,,-0.018906053,0.4454371,-0.314317,0.5201537,0.42550826,-0.74052876,-0.8198674,0.4916907,-0.29335603,0.23928568,0.7597256,0.6046151,,1.178450422942289,0.3714402830515762,0.19961699339000002,2.099835094054027,-0.6270248974236062,-0.17455962089742327,-0.4122804229229207,,-1.368259751524979,0.21430583725973015,0.19780737255000003,1.2388481861065699,0.30360630247880865,-0.5390820055751151,0.8753608504136026,,-0.03301944778616772,-0.08312785061092492,0.08364271396,-0.06607131087440103,,6.888807e-05,4.4703484e-06,-1.1920929e-07,1.0,-3.258139e-05,-2.7414411e-05,3.258884e-05,1.0,-2.8014183e-06,2.7410686e-05,2.8014183e-06,0.99999994,714,2.189,0,0,0.0,False,-0.26095043455704303,1.0498529487641832
2.1475522819673643,12:07:11.898430,12:06:08.063544,0,,0.09921605,0.038130134,0.027474225,-0.29074997,0.83025867,-0.47553647,0.18277374,0.53605056,0.82416224,0.9391795,0.15270963,-0.3076061,,0.056890056,0.018243171,0.03151083,-0.4036002,-0.40420818,0.820806,-0.42921218,0.87592447,0.22030261,-0.80801237,-0.26338568,-0.52701443,,0.07718495,1.3264933,0.45222223,0.99781126,0.04661308,-0.04690378,0.005463167,-0.76498604,-0.64402366,-0.06590066,0.6423578,-0.7635663,,-0.067000926,0.2684882,-0.07399835,0.20623025,-0.8407245,0.500651,0.74181,0.4679927,0.48031318,-0.63811207,0.2723328,0.7201721,,-0.018902758,0.4454394,-0.31431654,0.5199135,0.42596617,-0.74043417,-0.82009405,0.4914542,-0.29311866,0.23903085,0.759622,0.604846,,1.176457957860739,0.37793510139879904,0.20019384244000002,2.091447496314646,-0.6195098899365069,-0.1704777630831562,-0.4119537347906523,,-1.368259751524979,0.2143212827254786,0.19780607626000002,1.238428806219601,0.30346966597904323,-0.538888908931278,0.8753608504136025,,-0.03301944778616772,-0.08312785061092492,0.08364271396,-0.06607131087440103,,6.888807e-05,4.4703484e-06,-1.1920929e-07,1.0,-3.258139e-05,-2.7414411e-05,3.258884e-05,1.0,-2.8014183e-06,2.7410686e-05,2.8014183e-06,0.99999994,722,2.213,0,0,0.0,False,-0.260652545964438,1.0502391903704191
2.2367826780537143,12:07:11.926191,12:06:08.063544,0,,0.099592194,0.038493976,0.027408764,-0.29565322,0.82992285,-0.47309303,0.1823332,0.5351522,0.8248434,0.9377333,0.15760717,-0.30954185,,0.056888975,0.018242694,0.031510055,-0.40360552,-0.40427738,0.82076925,-0.42921525,0.8759053,0.22037266,-0.8080081,-0.263343,-0.5270423,,0.07718495,1.3264933,0.45222223,0.99781126,0.04661308,-0.04690378,0.005463167,-0.76498604,-0.64402366,-0.06590066,0.6423578,-0.7635663,,-0.067369916,0.26871133,-0.07369467,0.21124265,-0.8408242,0.49838865,0.7408404,0.470347,0.4795094,-0.6375987,0.2679336,0.7222738,,-0.01890157,0.4454386,-0.31431642,0.5199182,0.4260289,-0.7403948,-0.82009274,0.4914773,-0.29308358,0.23902516,0.75957185,0.6049112,,1.175384497991222,0.3802905349254375,0.20042847093000002,2.0876730773319245,-0.6175969789397908,-0.16803535546801857,-0.41211707885678656,,-1.3682520287921047,0.2143212827254786,0.19780607626000002,1.238428806219601,0.30346966597904323,-0.5388072301911374,0.8753608504136025,,-0.03301944778616772,-0.08312785061092492,0.08364271396,-0.06607131087440103,,6.888807e-05,4.4703484e-06,-1.1920929e-07,1.0,-3.258139e-05,-2.7414411e-05,3.258884e-05,1.0,-2.8014183e-06,2.7410686e-05,2.8014183e-06,0.99999994,730,2.238,0,0,0.0,False,-0.2608312791200009,1.05014262996886
2.264525613049045,12:07:11.950920,12:06:08.063544,0,,0.09995419,0.03884943,0.02731292,-0.301828,0.82920337,-0.47044826,0.18244195,0.53457993,0.82519037,0.93574286,0.16323613,-0.3126326,,0.056930143,0.018250905,0.031527698,-0.40345293,-0.4045975,0.8206866,-0.42940652,0.8757436,0.22064255,-0.8079826,-0.26338917,-0.52705824,,0.07718495,1.3264933,0.45222223,0.99781126,0.04661308,-0.04690378,0.005463167,-0.76498604,-0.64402366,-0.06590066,0.6423578,-0.7635663,,-0.067722104,0.26890984,-0.073373534,0.21756959,-0.8406066,0.49602833,0.7400335,0.47343156,0.47771642,-0.636407,0.26314104,0.7250813,,-0.018944934,0.44545218,-0.31431943,0.5197661,0.42635444,-0.7403142,-0.82022905,0.49136418,-0.2928918,0.23888814,0.7594624,0.6051027,,1.1742260880600883,0.38256101839045953,0.20067346974000003,2.082640518688296,-0.6147276124447165,-0.16506601333650683,-0.412933799187458,,-1.368259751524979,0.2143212827254786,0.19780477997,1.2382191162761165,0.3033330294792778,-0.5386141335473005,0.8755241944797367,,-0.03301944778616772,-0.08312785061092492,0.08364271396,-0.06607131087440103,,6.888807e-05,4.4703484e-06,-1.1920929e-07,1.0,-3.258139e-05,-2.7414411e-05,3.258884e-05,1.0,-2.8014183e-06,2.7410686e-05,2.8014183e-06,0.99999994,738,2.263,0,0,0.0,False,-0.26017592421626956,1.0499012289649627
2.2892701000673696,12:07:11.970073,12:06:08.063544,0,,0.10011624,0.038960174,0.027271166,-0.3033412,0.82910275,-0.46965146,0.1829052,0.5343723,0.8252224,0.93516296,0.16442227,-0.31374437,,0.056960523,0.018243842,0.03152883,-0.40329382,-0.40473413,0.82069737,-0.42955014,0.8756461,0.22074996,-0.80798566,-0.26350355,-0.5269964,,0.07715092,1.326499,0.45222256,0.99781114,0.0466293,-0.046890125,0.0054843244,-0.7649851,-0.64402467,-0.06590066,0.6423578,-0.7635663,,-0.06784927,0.2689663,-0.07325895,0.2191248,-0.8406228,0.4953157,0.7401246,0.47399664,0.4770144,-0.63576716,0.26206967,0.72603005,,-0.018944062,0.4454505,-0.3143196,0.51962095,0.42648885,-0.7403386,-0.82034343,0.49123612,-0.29278618,0.23881106,0.75946975,0.6051239,,1.1738013377520058,0.38328695528063667,0.20076161746,2.0818017589143576,-0.6136345204465931,-0.1646504967238292,-0.41228042292292083,,-1.3682520287921047,0.21431355999260437,0.19780477997,1.2380094263326318,0.3033330294792778,-0.5386141335473005,0.8755241944797367,,-0.03301944778616772,-0.08312785061092492,0.08364271396,-0.06607131087440103,,3.4943223e-05,-1.2516975e-06,-2.503395e-06,1.0,-1.6387552e-05,-1.3791025e-05,1.6395003e-05,1.0,-1.4007092e-06,1.3791025e-05,1.4007092e-06,1.0,746,2.287,0,0,0.0,False,-0.26005676877922745,1.0499012289649627
2.308415253064595,12:07:11.998382,12:06:08.172913,0,,0.10054691,0.039311886,0.027140975,-0.30683807,0.82876045,-0.46798125,0.184564,0.53417826,0.82497865,0.93369514,0.1667624,-0.3168655,,0.056957718,0.01824557,0.03153354,-0.4029818,-0.40498206,0.8207284,-0.42979646,0.8754716,0.22096246,-0.80801034,-0.2637023,-0.52685905,,0.07715092,1.326499,0.45222256,0.99781114,0.0466293,-0.046890125,0.0054843244,-0.7649851,-0.64402467,-0.06590066,0.6423578,-0.7635663,,-0.06826683,0.26913673,-0.07290864,0.2227374,-0.84048927,0.493929,0.74070585,0.47531566,0.47479457,-0.6338319,0.2601016,0.72842586,,-0.018941972,0.44545528,-0.314322,0.5193189,0.42676482,-0.7403916,-0.82057106,0.491001,-0.29254258,0.23868614,0.75946677,0.6051769,,1.1723803549031486,0.3855419932799102,0.20102865320000002,2.080753309196935,-0.6106285174517534,-0.16514140084177698,-0.41097367039384664,,-1.368259751524979,0.21432900545835282,0.19780089110000001,1.2375900464456626,0.3033330294792778,-0.5386141335473005,0.8755241944797367,,-0.03301944778616772,-0.08312785061092492,0.08364271396,-0.06607131087440103,,3.4943223e-05,-1.2516975e-06,-2.503395e-06,1.0,-1.6387552e-05,-1.3791025e-05,1.6395003e-05,1.0,-1.4007092e-06,1.3791025e-05,1.4007092e-06,1.0,754,2.312,0,0,0.0,False,-0.26106958999408425,1.0501909101696396
2.336734003969468,12:07:12.025860,12:06:08.172913,0,,0.100999266,0.03965512,0.027003795,-0.30688828,0.83030385,-0.46520424,0.18864816,0.5321599,0.8253591,0.932862,0.16553316,-0.31994888,,0.056953885,0.018241309,0.031538963,-0.40298712,-0.40498433,0.8207247,-0.42979962,0.8754705,0.22096094,-0.80800605,-0.26370275,-0.5268655,,0.07715092,1.326499,0.45222256,0.99781114,0.0466293,-0.046890125,0.0054843244,-0.7649851,-0.64402467,-0.06590066,0.6423578,-0.7635663,,-0.06870536,0.269295,-0.07255666,0.22285977,-0.8419168,0.49143627,0.7433868,0.47288835,0.473025,-0.6306422,0.259909,0.7312576,,-0.018938899,0.4454564,-0.3143292,0.5193235,0.42676708,-0.740387,-0.82056975,0.49100018,-0.29254764,0.23868045,0.75946605,0.6051801,,1.1709284811227945,0.38770435848469303,0.20129050378000002,2.084737418123141,-0.606802695458321,-0.16719927852344946,-0.4114637025922495,,-1.3682520287921047,0.21432900545835282,0.19779311336000002,1.2375900464456626,0.3033330294792778,-0.5386141335473005,0.8755241944797367,,-0.03301944778616772,-0.08312785061092492,0.08364271396,-0.06607131087440103,,3.4943223e-05,-1.2516975e-06,-2.503395e-06,1.0,-1.6387552e-05,-1.3791025e-05,1.6395003e-05,1.0,-1.4007092e-06,1.3791025e-05,1.4007092e-06,1.0,779,2.389,0,0,0.0,False,-0.2611887454311268,1.0499495091657423
2.364211524021812,12:07:12.101001,12:06:08.299965,0,,0.10220225,0.040517986,0.026624173,-0.30763602,0.8332762,-0.4593589,0.19782001,0.52823395,0.8257338,0.93071336,0.16315506,-0.32734245,,0.056936093,0.018232517,0.031565845,-0.4024416,-0.40574253,0.82061785,-0.43038246,0.87502766,0.22157958,-0.8079676,-0.26400673,-0.5267721,,0.07715092,1.326499,0.45222256,0.99781114,0.0466293,-0.046890125,0.0054843244,-0.7649851,-0.64402467,-0.06590066,0.6423578,-0.7635663,,-0.06987026,0.26966769,-0.071640186,0.22379169,-0.84466505,0.4862697,0.7492705,0.46817648,0.46840632,-0.6233065,0.25952214,0.7376566,,-0.018924983,0.44547045,-0.3143561,0.51878583,0.4275666,-0.7403027,-0.82102084,0.49055532,-0.29202777,0.2382981,0.7593038,0.60553426,,1.1668508781652038,0.3932261124897636,0.20198013006,2.093754085692976,-0.5981945959730983,-0.17307510409435617,-0.41179039072451795,,-1.3682520287921047,0.21436761912272395,0.19776070611000002,1.2367512866717245,0.3031963929795124,-0.5383393581633229,0.8758508826120053,,-0.03301944778616772,-0.08312785061092492,0.08364271396,-0.06607131087440103,,3.4943223e-05,-1.2516975e-06,-2.503395e-06,1.0,-1.6387552e-05,-1.3791025e-05,1.6395003e-05,1.0,-1.4007092e-06,1.3791025e-05,1.4007092e-06,1.0,787,2.414,0,0,0.0,False,-0.26160578946077395,1.050432311173537
2.439300136989914,12:07:12.120969,12:06:08.299965,0,,0.10233514,0.040612906,0.026600495,-0.30848917,0.8335597,-0.4582713,0.19804409,0.527493,0.8261535,0.9303833,0.16410148,-0.3278074,,0.056932483,0.01823046,0.03157109,-0.40197983,-0.406104,0.8206654,-0.43076518,0.8747641,0.2218764,-0.8079936,-0.26432428,-0.52657294,,0.07715092,1.326499,0.45222256,0.99781114,0.0466293,-0.046890125,0.0054843244,-0.7649851,-0.64402467,-0.06590066,0.6423578,-0.7635663,,-0.07000057,0.26971987,-0.0715534,0.22467063,-0.845031,0.48522744,0.74928844,0.46816832,0.46838585,-0.6229687,0.25834274,0.73835564,,-0.018922135,0.44547302,-0.3143616,0.5183375,0.4279729,-0.74038196,-0.82136345,0.49018684,-0.2916829,0.23809311,0.75931287,0.6056035,,1.1664106823913731,0.39389799024982114,0.20204494456000002,2.093544395749491,-0.5976480499740365,-0.17245895208731443,-0.4116270466583836,,-1.3682520287921047,0.21436761912272395,0.19775422466000003,1.236122216841271,0.3031963929795124,-0.5383393581633229,0.8758508826120053,,-0.03301944778616772,-0.08312785061092492,0.08364271396,-0.06607131087440103,,3.4943223e-05,-1.2516975e-06,-2.503395e-06,1.0,-1.6387552e-05,-1.3791025e-05,1.6395003e-05,1.0,-1.4007092e-06,1.3791025e-05,1.4007092e-06,1.0,795,2.439,0,0,0.0,False,-0.2618441003348577,1.050432311173537
2.4593048490351066,12:07:12.151495,12:06:08.299965,0,,0.10279857,0.040925145,0.02653101,-0.31018448,0.8356018,-0.45338184,0.20305452,0.5241319,0.82707596,0.9287381,0.16448495,-0.33225024,,0.05693063,0.018229298,0.031579316,-0.40181556,-0.4062244,0.8206862,-0.4308835,0.87467825,0.22198492,-0.8080122,-0.2644232,-0.5264948,,0.07715092,1.326499,0.45222256,0.99781114,0.0466293,-0.046890125,0.0054843244,-0.7649851,-0.64402467,-0.06590066,0.6423578,-0.7635663,,-0.070456125,0.2698953,-0.07127273,0.22650328,-0.8470979,0.48075098,0.7522816,0.46566334,0.46607947,-0.61868304,0.25609156,0.7427304,,-0.018921455,0.44547802,-0.31436846,0.5181791,0.42810732,-0.7404151,-0.82147896,0.49007025,-0.2915535,0.23803923,0.7593124,0.60562533,,1.1650437586726352,0.39620708737921423,0.20223161032000003,2.095850985127821,-0.5920459534836535,-0.1717996467698718,-0.412933799187458,,-1.3682674742578533,0.21437534185559817,0.19774644692,1.2359125268977864,0.3031963929795124,-0.5383393581633229,0.8758508826120053,,-0.03301944778616772,-0.08312785061092492,0.08364271396,-0.06607131087440103,,3.4943223e-05,-1.2516975e-06,-2.503395e-06,1.0,-1.6387552e-05,-1.3791025e-05,1.6395003e-05,1.0,-1.4007092e-06,1.3791025e-05,1.4007092e-06,1.0,807,2.475,0,0,0.0,False,-0.2608908568385213,1.0504805913743163
2.4898407560540363,12:07:12.182207,12:06:08.299965,0,,0.10337707,0.041352496,0.026538923,-0.3080614,0.83998793,-0.44667473,0.20894432,0.5177825,0.8296045,0.9281382,0.16223897,-0.3350195,,0.056925528,0.018225588,0.03158617,-0.40182135,-0.40623108,0.8206801,-0.43088362,0.87467706,0.22199,-0.80800927,-0.26441732,-0.5265022,,0.07715092,1.326499,0.45222256,0.99781114,0.0466293,-0.046890125,0.0054843244,-0.7649851,-0.64402467,-0.06590066,0.6423578,-0.7635663,,-0.071033195,0.27020237,-0.07097269,0.22443956,-0.851265,0.47431502,0.7563991,0.45905912,0.46596688,-0.61439997,0.25419006,0.74692714,,-0.018917326,0.4454806,-0.31437635,0.5181844,0.4281131,-0.74040806,-0.8214764,0.49007407,-0.29155427,0.23803659,0.75930667,0.60563356,,1.1636150530909037,0.3993811305905205,0.20243253527000002,2.1036095130367483,-0.5865804934930359,-0.17209074717055994,-0.41244376698905516,,-1.368259751524979,0.2143830645884724,0.19773737289,1.2359125268977864,0.3031963929795124,-0.5383393581633229,0.8758508826120053,,-0.03301944778616772,-0.08312785061092492,0.08364271396,-0.06607131087440103,,3.4943223e-05,-1.2516975e-06,-2.503395e-06,1.0,-1.6387552e-05,-1.3791025e-05,1.6395003e-05,1.0,-1.4007092e-06,1.3791025e-05,1.4007092e-06,1.0,815,2.5,0,0,0.0,False,-0.26011634649774784,1.050046069567301
