AlexandreBanks6/ExpertPlaybackApp/resources/Motions/P_11/PC1/Data_PC1_4.csv
Task Time,PC1 Time,PC2 Time,Gaze Calib,s_T_psm1,Tx,Ty,Tz,R00,R01,R02,R10,R11,R12,R20,R21,R22,s_T_psm3,Tx,Ty,Tz,R00,R01,R02,R10,R11,R12,R20,R21,R22,cart_T_ecm,Tx,Ty,Tz,R00,R01,R02,R10,R11,R12,R20,R21,R22,ecm_T_psm1,Tx,Ty,Tz,R00,R01,R02,R10,R11,R12,R20,R21,R22,ecm_T_psm3,Tx,Ty,Tz,R00,R01,R02,R10,R11,R12,R20,R21,R22,psm1_joints,q1,q2,q3,q4,q5,q6,jaw,psm3_joints,q1,q2,q3,q4,q5,q6,jaw,ecm_joints,q1,q2,q3,q4,ecmi_T_ecm,Tx,Ty,Tz,R00,R01,R02,R10,R11,R12,R20,R21,R22,Sample #,Task Duration (s),Collisions (binary),Collisions (increments),Cumulative Collision Time (s),Clutch Press,MTMR Angle,MTML Angle
""
lci_T_si,,,,,-0.05716041,0.03275584,0.23713137,0.994629,0.0609184,0.083678454,0.10083557,-0.7527042,-0.65059096,0.023352161,0.6555344,-0.75480413
rci_T_si,,,,,-0.06778313,0.037861038,0.2520986,0.9957384,0.04780823,0.078863226,0.08774167,-0.7544281,-0.6504919,0.028397763,0.65463936,-0.75540775
ecm_T_lc,,,,,-4.4061628e-05,-0.00034663224,-0.01840835,-0.99912,0.030754527,0.028518902,-0.031987965,-0.99852574,-0.043852776,0.027128186,-0.04472645,0.9986309
ecm_T_rc,,,,,-0.0043358393,0.01870579,-0.007592615,-0.99555075,-0.052743673,-0.078081585,0.04863213,-0.9973746,0.053654674,-0.08070653,0.04961868,0.9955021
cart_T_ecmi,,,,,0.07735911,1.3283129,0.4541247,0.9978648,0.045891095,-0.046474215,0.005311808,-0.7662209,-0.6425553,-0.06509708,0.64093643,-0.7648287
ecmac_T_ecmrep_psm1,,,,,0.011581071,-0.24422047,-0.31388107,0.99918455,0.03945311,0.008580942,-0.0387743,0.99689597,-0.06852016,-0.011257639,0.068131566,0.99761283
ecmac_T_ecmrep_psm3,,,,,0.00032986852,-0.4435548,-0.5434704,0.9997429,-0.0075566242,-0.021376874,0.008153117,0.9995759,0.027955532,0.021156559,-0.028122634,0.9993806
""
0,11:07:02.809841,11:05:58.875328,0,,0.13052657,0.006740615,0.016219705,-0.73416376,-0.09365544,-0.6724822,-0.6087444,-0.34788004,0.71302843,-0.30072206,0.93284947,0.19838864,,0.05625602,-0.04396137,0.039484978,0.51552576,-0.6630536,0.54276425,-0.46307275,0.31737643,0.8275481,-0.7209693,-0.67796177,-0.1434263,,0.07734818,1.3283143,0.45413116,0.9978647,0.045903966,-0.046463422,0.005328569,-0.76622015,-0.6425561,-0.06509708,0.64093643,-0.7648287,,-0.09856509,0.23283078,-0.0863156,0.7850198,0.02209743,0.61907643,-0.5899843,0.33132493,0.73630315,-0.18884505,-0.9432579,0.27313378,,-0.018086119,0.40794507,-0.36551782,-0.37794796,0.73629105,-0.5612761,-0.9020357,-0.15629889,0.40237075,0.20853516,0.65836626,0.72323364,,0.9318095031381809,0.3302086122360916,0.18314762894000003,0.34577871680598066,-0.09509900383674655,1.4055614969181107,-0.3990495535660443,,-1.2665822505029392,-0.12626668249357073,0.16740159431,0.2092705635975553,0.8849946089807579,-0.6184935134441913,0.8756875385458711,,-0.03261365873507904,-0.08566730467257667,0.08101381028,-0.06541713947960498,,-1.1321157e-05,2.5629997e-06,-5.364418e-06,1.0,1.2844801e-05,1.0766089e-05,-1.2848526e-05,1.0,1.0728836e-06,-1.0766089e-05,-1.1026859e-06,1.0,36,0.108,0,0,0.0,False,-0.254218152364166,1.0499977893665218
0.12328746600542217,11:07:02.841539,11:05:58.875328,0,,0.13065422,0.0066952407,0.016214132,-0.73501176,-0.093189344,-0.67162,-0.60811496,-0.3475337,0.71373415,-0.29992297,0.9330252,0.1987715,,0.0560076,-0.043933026,0.03945303,0.5145942,-0.66303384,0.54367155,-0.46291527,0.31888703,0.82705534,-0.7217356,-0.67727184,-0.1428312,,0.07734818,1.3283143,0.45413116,0.9978647,0.045903966,-0.046463422,0.005328569,-0.76622015,-0.6425561,-0.06509708,0.64093643,-0.7648287,,-0.09868955,0.2327805,-0.08633473,0.78576154,0.02160222,0.61815226,-0.58891594,0.33165902,0.7370077,-0.18909475,-0.94315195,0.27332678,,-0.017837675,0.40797815,-0.3654911,-0.3769246,0.7360865,-0.5622317,-0.9023274,-0.15476063,0.40231133,0.2091246,0.65895814,0.7225241,,0.930990893453513,0.3303707896264503,0.18313596233,0.34724654641037234,-0.0959188228353392,1.4061483256001486,-0.39953958576444704,,-1.2653234450444406,-0.12537856821303492,0.16733029836000002,0.20948025354103983,0.8848579724809924,-0.6205057427841496,0.8756875385458711,,-0.03261365873507904,-0.08566730467257667,0.08101381028,-0.06541713947960498,,-1.1321157e-05,2.5629997e-06,-5.364418e-06,1.0,1.2844801e-05,1.0766089e-05,-1.2848526e-05,1.0,1.0728836e-06,-1.0766089e-05,-1.1026859e-06,1.0,47,0.141,0,0,0.0,False,-0.25427773008268684,1.050432311173537
0.15495653299149126,11:07:02.873221,11:05:58.875328,0,,0.13078842,0.006660402,0.01622735,-0.7348745,-0.09374523,-0.6716928,-0.6083225,-0.34675094,0.71393794,-0.29983833,0.9332607,0.19779105,,0.055688232,-0.043928884,0.03938389,0.51365805,-0.663438,0.5440637,-0.463454,0.31910223,0.8266706,-0.72205657,-0.6767745,-0.14356366,,0.07734818,1.3283143,0.45413116,0.9978647,0.045903966,-0.046463422,0.005328569,-0.76622015,-0.6425561,-0.06509708,0.64093643,-0.7648287,,-0.09882271,0.23274958,-0.08636129,0.78562635,0.022098802,0.61830646,-0.58903474,0.3324616,0.736551,-0.18928625,-0.94285786,0.27420753,,-0.017512357,0.40797842,-0.36545998,-0.37592298,0.7364009,-0.5624905,-0.9027955,-0.15420456,0.4014738,0.20890707,0.6587371,0.7227885,,0.930195451967468,0.33064108527704816,0.18311392540000002,0.34724654641037234,-0.09660200533416641,1.4058069489770846,-0.3997029298305814,,-1.2635703846819917,-0.12439005840513417,0.16725122467,0.20906087365407078,0.8839015169826342,-0.6220945009223509,0.8758508826120053,,-0.03261365873507904,-0.08566730467257667,0.08101381028,-0.06541713947960498,,-1.1321157e-05,2.5629997e-06,-5.364418e-06,1.0,1.2844801e-05,1.0766089e-05,-1.2848526e-05,1.0,1.0728836e-06,-1.0766089e-05,-1.1026859e-06,1.0,55,0.166,0,0,0.0,False,-0.25493308498641865,1.0499012289649627
0.18665546807460487,11:07:02.898089,11:05:58.969277,0,,0.13087006,0.0066314638,0.016261354,-0.735623,-0.09276481,-0.6710093,-0.6079804,-0.34637764,0.7144104,-0.29869476,0.93349725,0.19840412,,0.055560626,-0.04393404,0.039352894,0.51328564,-0.6634348,0.5444189,-0.46383828,0.319277,0.82638747,-0.7220747,-0.6766952,-0.14384621,,0.07734818,1.3283143,0.45413116,0.9978647,0.045903966,-0.046463422,0.005328569,-0.76622015,-0.6425561,-0.06509708,0.64093643,-0.7648287,,-0.0989058,0.23274125,-0.08640235,0.7862498,0.021085158,0.6175489,-0.58797866,0.33280703,0.73723847,-0.18997982,-0.9427592,0.27406707,,-0.017381495,0.40797135,-0.36545002,-0.37553108,0.73637646,-0.56278425,-0.9030243,-0.1540271,0.40102714,0.2086229,0.658806,0.72280777,,0.9297011970635176,0.3308804899961491,0.18307503670000003,0.3485046860712795,-0.09783173383205536,1.4064013164096496,-0.3998662738967156,,-1.2628444477918146,-0.12402708996004562,0.16722011371,0.20885118371058628,0.8833549709835725,-0.6229556891498141,0.8758508826120053,,-0.03261365873507904,-0.08566730467257667,0.08101381028,-0.06541713947960498,,-1.1321157e-05,2.5629997e-06,-5.364418e-06,1.0,1.2844801e-05,1.0766089e-05,-1.2848526e-05,1.0,1.0728836e-06,-1.0766089e-05,-1.1026859e-06,1.0,63,0.19,0,0,0.0,False,-0.2547543518308557,1.0502874705711984
0.21147400501649827,11:07:02.922656,11:05:58.969277,0,,0.13099596,0.0065409243,0.016397402,-0.7360432,-0.09335749,-0.67046607,-0.6079143,-0.34455058,0.7153495,-0.29779273,0.9341141,0.19685069,,0.055406608,-0.04394161,0.039316237,0.5121677,-0.6626333,0.5464442,-0.4651667,0.3208315,0.8250376,-0.7220139,-0.6767453,-0.14391544,,0.07734818,1.3283143,0.45413116,0.9978647,0.045903966,-0.046463422,0.005328569,-0.76622015,-0.6425561,-0.06509708,0.64093643,-0.7648287,,-0.09903965,0.23274598,-0.08655928,0.7865813,0.021536918,0.617111,-0.5873182,0.33465716,0.73692733,-0.1906495,-0.9420938,0.2758841,,-0.0172236,0.40796247,-0.3654395,-0.37436166,0.7355054,-0.5646992,-0.90375334,-0.15308684,0.39974278,0.20756498,0.6599971,0.72202533,,0.9289366465089693,0.33125890390698615,0.1829194819,0.3493434458452176,-0.09919809882970976,1.405065133242397,-0.39888620949990994,,-1.2619254425797817,-0.12355600325471792,0.16717603985,0.20968994348452435,0.8818519694861527,-0.6247522055943544,0.8756875385458711,,-0.03261365873507904,-0.08566730467257667,0.08101381028,-0.06541713947960498,,-1.1321157e-05,2.5629997e-06,-5.364418e-06,1.0,1.2844801e-05,1.0766089e-05,-1.2848526e-05,1.0,1.0728836e-06,-1.0766089e-05,-1.1026859e-06,1.0,74,0.223,0,0,0.0,False,-0.2546351963938136,1.0506254319766548
0.23608955601230264,11:07:02.960232,11:05:58.969277,0,,0.13175377,0.0063434243,0.016466588,-0.7321795,-0.09555249,-0.67437595,-0.6116249,-0.3434463,0.71271276,-0.29971337,0.9342988,0.19302197,,0.055302195,-0.04393982,0.0392915,0.5116103,-0.66231006,0.5473574,-0.46615002,0.32118493,0.8243449,-0.7217748,-0.67689407,-0.14441437,,0.07734818,1.3283143,0.45413116,0.9978647,0.045903966,-0.046463422,0.005328569,-0.76622015,-0.6425561,-0.06509708,0.64093643,-0.7648287,,-0.099791154,0.23256738,-0.08670563,0.78307974,0.023654466,0.62147135,-0.5917456,0.33582735,0.7328418,-0.19137208,-0.9416265,0.276977,,-0.017116962,0.4079614,-0.36542758,-0.37379134,0.7351882,-0.56548953,-0.904196,-0.15298921,0.398778,0.20666307,0.6603731,0.7219403,,0.9244651841747934,0.33272622315308875,0.18280151951,0.34473026708855803,-0.10206746532478402,1.4068331580390379,-0.3987228654337758,,-1.2613385148813407,-0.12319303480962938,0.16714622518000002,0.20989963342800885,0.8806222409882637,-0.6255463767441789,0.8763409148104082,,-0.03261365873507904,-0.08566730467257667,0.08101381028,-0.06541713947960498,,-1.1321157e-05,2.5629997e-06,-5.364418e-06,1.0,1.2844801e-05,1.0766089e-05,-1.2848526e-05,1.0,1.0728836e-06,-1.0766089e-05,-1.1026859e-06,1.0,86,0.26,1,1,0.01,False,-0.2551713958605024,1.0497563883626244
0.2736702160909772,11:07:02.989849,11:05:58.969277,0,,0.13235205,0.00631696,0.016651645,-0.73334885,-0.0969366,-0.6729062,-0.61024576,-0.34241802,0.7143878,-0.29966548,0.93453366,0.19195665,,0.055251732,-0.043921463,0.039288998,0.5114593,-0.6622537,0.5475667,-0.46613067,0.3215013,0.82423246,-0.7218944,-0.67679906,-0.14426202,,0.07734818,1.3283143,0.45413116,0.9978647,0.045903966,-0.046463422,0.005328569,-0.76622015,-0.6425561,-0.06509708,0.64093643,-0.7648287,,-0.100402236,0.23260844,-0.08683889,0.7841776,0.024964118,0.6200341,-0.59054613,0.33689532,0.73331904,-0.1905799,-0.9412111,0.27892822,,-0.01706777,0.4079797,-0.36541596,-0.37362573,0.7351009,-0.56571233,-0.90424436,-0.15270913,0.3987757,0.20675096,0.66053504,0.72176695,,0.9213683682922293,0.3347804700976325,0.18266540906,0.34724654641037234,-0.1043902858207965,1.407012008858925,-0.3992128976321785,,-1.2611300010937367,-0.12293818462477997,0.1671306697,0.20989963342800885,0.8804856044884982,-0.6260067100214666,0.8755241944797368,,-0.03261365873507904,-0.08566730467257667,0.08101381028,-0.06541713947960498,,-1.1321157e-05,2.5629997e-06,-5.364418e-06,1.0,1.2844801e-05,1.0766089e-05,-1.2848526e-05,1.0,1.0728836e-06,-1.0766089e-05,-1.1026859e-06,1.0,94,0.284,1,1,0.034,False,-0.2550522404234603,1.05014262996886
0.30325117602478713,11:07:03.016976,11:05:58.969277,0,,0.13279316,0.006354019,0.016787812,-0.732434,-0.10030942,-0.67340815,-0.61012316,-0.34223443,0.7145804,-0.30214253,0.93424493,0.18946294,,0.055232555,-0.04390227,0.039295018,0.5114081,-0.6623601,0.547486,-0.4663468,0.32121092,0.8242234,-0.721791,-0.6768329,-0.14461967,,0.07734818,1.3283143,0.45413116,0.9978647,0.045903966,-0.046463422,0.005328569,-0.76622015,-0.6425561,-0.06509708,0.64093643,-0.7648287,,-0.10085526,0.23268202,-0.08690087,0.7834916,0.028337771,0.6207559,-0.5921039,0.33716762,0.73193645,-0.18855734,-0.94101804,0.2809469,,-0.017050782,0.4080001,-0.36540774,-0.3735782,0.7352271,-0.5655798,-0.90431637,-0.15292117,0.39853102,0.20652169,0.66034555,0.7220059,,0.9192677849504403,0.33645630313133923,0.18259411311,0.34640778663643423,-0.1043902858207965,1.406113542717379,-0.3990495535660443,,-1.261106832895114,-0.12276056176867281,0.16711900309000002,0.20989963342800885,0.8800756949892019,-0.6257541350505178,0.8753608504136026,,-0.03261365873507904,-0.08566730467257667,0.08101381028,-0.06541713947960498,,-1.1321157e-05,2.5629997e-06,-5.364418e-06,1.0,1.2844801e-05,1.0766089e-05,-1.2848526e-05,1.0,1.0728836e-06,-1.0766089e-05,-1.1026859e-06,1.0,102,0.309,1,1,0.059,False,-0.25558843989015,1.0499977893665218
0.33041657600551844,11:07:03.042057,11:05:58.969277,0,,0.13303447,0.006326586,0.016796052,-0.73236006,-0.10219751,-0.6732045,-0.6096642,-0.34188837,0.71513766,-0.30324608,0.93416697,0.1880792,,0.055240028,-0.043891422,0.039301395,0.51145464,-0.66223574,0.5475927,-0.46628815,0.32138717,0.8241879,-0.721796,-0.6768708,-0.14441782,,0.07734818,1.3283143,0.45413116,0.9978647,0.045903966,-0.046463422,0.005328569,-0.76622015,-0.6425561,-0.06509708,0.64093643,-0.7648287,,-0.10109487,0.23264371,-0.08691425,0.7835001,0.03020785,0.62065697,-0.5924559,0.33756003,0.7314706,-0.18741284,-0.94081914,0.28237516,,-0.017059699,0.4080111,-0.36540398,-0.37362674,0.7351001,-0.56571275,-0.9042854,-0.15284184,0.3986319,0.20656978,0.6605053,0.72184604,,0.9179240294303253,0.33697372623391225,0.18258763166000003,0.34661747657991876,-0.10411701282126563,1.4056456706895644,-0.3992128976321785,,-1.2611917829567305,-0.12272194810430169,0.16711900309000002,0.20989963342800885,0.8800756949892019,-0.6259174925307989,0.8756875385458711,,-0.03261365873507904,-0.08566730467257667,0.08101381028,-0.06541713947960498,,-1.1321157e-05,2.5629997e-06,-5.364418e-06,1.0,1.2844801e-05,1.0766089e-05,-1.2848526e-05,1.0,1.0728836e-06,-1.0766089e-05,-1.1026859e-06,1.0,110,0.333,1,1,0.083,False,-0.25600548391979716,1.0501909101696396
0.3555009050760418,11:07:03.069785,11:05:58.969277,0,,0.13306394,0.0062132776,0.017026588,-0.7326348,-0.10474843,-0.6725132,-0.608467,-0.3419549,0.7161247,-0.30498213,0.93386006,0.18679202,,0.055273257,-0.043861173,0.03932792,0.511639,-0.66206914,0.54762185,-0.4661266,0.3215291,0.8242239,-0.72176963,-0.67696637,-0.14410138,,0.07734818,1.3283143,0.45413116,0.9978647,0.045903966,-0.046463422,0.005328569,-0.76622015,-0.6425561,-0.06509708,0.64093643,-0.7648287,,-0.10114054,0.23269966,-0.087162524,0.7838813,0.032776672,0.62004495,-0.59260803,0.33755207,0.731351,-0.1853262,-0.94073606,0.28402448,,-0.017098082,0.4080461,-0.36539897,-0.3738217,0.7349416,-0.5657898,-0.90418005,-0.15283291,0.39887404,0.20667782,0.6606837,0.72165185,,0.9177695747728407,0.3371127354256483,0.18233226253,0.3470368564668878,-0.10220410182454945,1.4040858200378146,-0.39953958576444704,,-1.261516137737448,-0.12265244350843366,0.16711641051,0.20989963342800885,0.8800756949892019,-0.6259174925307988,0.8760142266781397,,-0.03261365873507904,-0.08566730467257667,0.08101381028,-0.06541713947960498,,-1.1321157e-05,2.5629997e-06,-5.364418e-06,1.0,1.2844801e-05,1.0766089e-05,-1.2848526e-05,1.0,1.0728836e-06,-1.0766089e-05,-1.1026859e-06,1.0,123,0.373,1,1,0.123,False,-0.25624379479388093,1.0499495091657423
0.38322771608363837,11:07:03.110004,11:05:58.969277,0,,0.13278174,0.0062206686,0.017276347,-0.7338358,-0.10888783,-0.67054343,-0.6053063,-0.3432505,0.71818054,-0.30836546,0.93291074,0.18597892,,0.055260457,-0.043859296,0.039323807,0.5117135,-0.66215974,0.5474428,-0.46607995,0.32133135,0.8243274,-0.721747,-0.6769716,-0.14418983,,0.07734818,1.3283143,0.45413116,0.9978647,0.045903966,-0.046463422,0.005328569,-0.76622015,-0.6425561,-0.06509708,0.64093643,-0.7648287,,-0.10088328,0.23288958,-0.087362066,0.7852499,0.03703935,0.6180702,-0.5922063,0.33634052,0.7322341,-0.18076058,-0.9410118,0.2860463,,-0.01708494,0.40804636,-0.36539558,-0.3739012,0.73504287,-0.56560576,-0.90414214,-0.15296225,0.3989104,0.20669992,0.66054106,0.721776,,0.9196693670599,0.33684243977505046,0.18210022662000003,0.34829499612779496,-0.09687527833369727,1.4006389879352001,-0.40068299422738685,,-1.261454355874454,-0.12260610711118831,0.16711511422000003,0.20968994348452435,0.8800756949892019,-0.6259174925307989,0.8756875385458711,,-0.03261365873507904,-0.08566730467257667,0.08101381028,-0.06541713947960498,,-1.1321157e-05,2.5629997e-06,-5.364418e-06,1.0,1.2844801e-05,1.0766089e-05,-1.2848526e-05,1.0,1.0728836e-06,-1.0766089e-05,-1.1026859e-06,1.0,131,0.399,1,1,0.149,False,-0.2568991496976123,1.05014262996886
0.4234503140905872,11:07:03.130881,11:05:58.969277,0,,0.13278028,0.0061821938,0.017380476,-0.733876,-0.112714946,-0.6698667,-0.6033286,-0.34496105,0.7190246,-0.3121227,0.9318247,0.18515444,,0.055248663,-0.043862067,0.03932494,0.5116725,-0.66224635,0.54737633,-0.46610764,0.3212329,0.8243501,-0.7217582,-0.67693365,-0.14431208,,0.07734818,1.3283143,0.45413116,0.9978647,0.045903966,-0.046463422,0.005328569,-0.76622015,-0.6425561,-0.06509708,0.64093643,-0.7648287,,-0.10088979,0.232926,-0.08746674,0.78555065,0.04102239,0.6174361,-0.5930586,0.3346943,0.7322986,-0.1766117,-0.9414334,0.287248,,-0.017073307,0.4080469,-0.3653991,-0.3738575,0.73512834,-0.5655235,-0.90416354,-0.15299237,0.3988504,0.20668547,0.66043895,0.7218736,,0.9197774853201391,0.33674976698055975,0.18198615310000002,0.34829499612779496,-0.09250291034120318,1.399442298480991,-0.40019296202898413,,-1.2613848512785861,-0.12260610711118831,0.16710733648,0.20968994348452435,0.8800756949892019,-0.6258358137906583,0.8755241944797368,,-0.03261365873507904,-0.0856607596878817,0.08101381028,-0.06541713947960498,,-1.1321157e-05,2.5629997e-06,-5.364418e-06,1.0,1.2844801e-05,1.0766089e-05,-1.2848526e-05,1.0,1.0728836e-06,-1.0766089e-05,-1.1026859e-06,1.0,144,0.439,1,1,0.189,False,-0.25683957197909146,1.0502874705711984
0.4443011290859431,11:07:03.172948,11:05:59.236269,0,,0.1326527,0.006055534,0.017769903,-0.7337667,-0.12089498,-0.6685587,-0.59911966,-0.34889308,0.72064495,-0.32037783,0.929332,0.18357554,,0.055261686,-0.043854855,0.039327502,0.5117186,-0.66221356,0.547373,-0.46618825,0.32114163,0.82434005,-0.7216735,-0.6770091,-0.14438209,,0.07734818,1.3283143,0.45413116,0.9978647,0.045903966,-0.046463422,0.005328569,-0.76622015,-0.6425561,-0.06509708,0.64093643,-0.7648287,,-0.10079337,0.23308684,-0.08785249,0.78602093,0.04956374,0.6162098,-0.5950545,0.33085522,0.732424,-0.16757457,-0.94237906,0.28955224,,-0.017086953,0.4080519,-0.36539492,-0.3739109,0.7351121,-0.56550944,-0.9041674,-0.15311371,0.39879498,0.20657176,0.660429,0.72191525,,0.9207659951280398,0.33647947132996187,0.18157263659000003,0.3478756162408259,-0.08266508235809147,1.3964842913035636,-0.40084633829352123,,-1.2614775240730767,-0.1225983843783141,0.16711122535,0.20968994348452435,0.8799390584894365,-0.625724395886962,0.8755241944797368,,-0.03261365873507904,-0.0856607596878817,0.08101381028,-0.06541713947960498,,-1.1321157e-05,2.5629997e-06,-5.364418e-06,1.0,1.2844801e-05,1.0766089e-05,-1.2848526e-05,1.0,1.0728836e-06,-1.0766089e-05,-1.1026859e-06,1.0,152,0.465,1,1,0.215,False,-0.256541683386486,1.0499012289649627
0.486362784053199,11:07:03.199002,11:05:59.236269,0,,0.13258779,0.0060198307,0.017911285,-0.7331286,-0.124818444,-0.6685378,-0.59767157,-0.35081524,0.7209141,-0.32451662,0.92808884,0.1825922,,0.055257104,-0.043840252,0.03932953,0.5117162,-0.6622629,0.5473154,-0.46621716,0.3210435,0.824362,-0.7216565,-0.6770073,-0.14447528,,0.07734818,1.3283143,0.45413116,0.9978647,0.045903966,-0.046463422,0.005328569,-0.76622015,-0.6425561,-0.06509708,0.64093643,-0.7648287,,-0.10074031,0.23315486,-0.08798681,0.7857057,0.053666502,0.6162682,-0.59661853,0.32895592,0.732007,-0.16344082,-0.9428191,0.29048097,,-0.017083539,0.40806425,-0.36538628,-0.3739094,0.7351661,-0.5654402,-0.9041755,-0.15317427,0.39875343,0.20653912,0.66035485,0.72199243,,0.9212756954977387,0.3363250166724774,0.18142615582000002,0.3468271665234033,-0.07801944136606649,1.395146444782102,-0.40019296202898413,,-1.2615006922716994,-0.12249798885094917,0.16710992906000002,0.20968994348452435,0.8798024219896711,-0.6256129779832655,0.8755241944797368,,-0.03261365873507904,-0.0856607596878817,0.08101381028,-0.06541713947960498,,-1.1321157e-05,2.5629997e-06,-5.364418e-06,1.0,1.2844801e-05,1.0766089e-05,-1.2848526e-05,1.0,1.0728836e-06,-1.0766089e-05,-1.1026859e-06,1.0,169,0.517,1,1,0.267,False,-0.25683957197909146,1.05014262996886
0.5124162170104682,11:07:03.251849,11:05:59.236269,0,,0.13225956,0.0058224723,0.018398255,-0.73202163,-0.1307651,-0.668614,-0.5944988,-0.3567143,0.7206427,-0.33273914,0.92501646,0.1833829,,0.05522856,-0.043799125,0.03932798,0.5116199,-0.6624829,0.5471391,-0.46628484,0.32078442,0.82442445,-0.7216809,-0.6769149,-0.14478624,,0.07733509,1.3283135,0.45412442,0.9978646,0.045916423,-0.046452973,0.0053447937,-0.76621944,-0.6425568,-0.06509708,0.64093643,-0.7648287,,-0.10043957,0.23334487,-0.08850847,0.78523535,0.06013264,0.61627066,-0.5994734,0.3230316,0.7323129,-0.15503898,-0.9444759,0.28970373,,-0.017046053,0.40810058,-0.36536384,-0.37379792,0.73537934,-0.5652365,-0.9042312,-0.15325134,0.3985975,0.20649712,0.66009945,0.722238,,0.9234148925038989,0.3354832387891869,0.18088301031,0.34473026708855803,-0.06777170388365845,1.3944679035780831,-0.40084633829352123,,-1.2613694058128375,-0.12224313866609976,0.16710992906000002,0.20968994348452435,0.8795291489901401,-0.6253901421758727,0.8755241944797368,,-0.03261365873507904,-0.0856607596878817,0.08101381028,-0.06541713947960498,,-2.3953617e-05,-1.7881393e-06,9.536743e-07,0.99999994,2.527982e-05,2.1189451e-05,-2.528727e-05,1.0,2.0861626e-06,-2.1185726e-05,-2.1457672e-06,1.0,190,0.582,1,1,0.332,False,-0.25683957197909146,1.0501909101696396
0.565222577075474,11:07:03.321916,11:05:59.397388,0,,0.13236839,0.0054491684,0.018825263,-0.727473,-0.13936806,-0.67183286,-0.59543437,-0.35831022,0.71907693,-0.34094095,0.92314154,0.17767654,,0.055213556,-0.043739133,0.03933549,0.51164365,-0.6624255,0.54718643,-0.46605703,0.3210511,0.8244495,-0.7218113,-0.6768446,-0.1444644,,0.07733509,1.3283135,0.45412442,0.9978646,0.045916423,-0.046452973,0.0053447937,-0.76621944,-0.6425568,-0.06509708,0.64093643,-0.7648287,,-0.100570895,0.2333178,-0.0890702,0.7815119,0.06893436,0.6200703,-0.6058042,0.32141897,0.7277988,-0.149132,-0.9444246,0.2929535,,-0.017035678,0.40815002,-0.3653274,-0.373815,0.7352975,-0.5653317,-0.9041659,-0.1530235,0.39883307,0.20675193,0.66024345,0.7220334,,0.9225190554904888,0.33501987481673345,0.18032819819,0.3384395687840223,-0.060803242395621,1.391562667654345,-0.4005196501612529,,-1.2614775240730767,-0.12185700202238854,0.16710992906000002,0.20968994348452435,0.8793925124903748,-0.6256054392327384,0.8755241944797368,,-0.03261365873507904,-0.0856607596878817,0.08101381028,-0.06541713947960498,,-2.3953617e-05,-1.7881393e-06,9.536743e-07,0.99999994,2.527982e-05,2.1189451e-05,-2.528727e-05,1.0,2.0861626e-06,-2.1185726e-05,-2.1457672e-06,1.0,198,0.608,1,1,0.358,False,-0.25642252794944387,1.0502391903704191
0.6353547960752621,11:07:03.345551,11:05:59.397388,0,,0.13249011,0.0053071603,0.01890713,-0.7263898,-0.14195463,-0.67246306,-0.594848,-0.36024255,0.7185966,-0.344258,0.9219947,0.17723513,,0.055188708,-0.043714277,0.0393281,0.5115646,-0.66243047,0.5472545,-0.46613657,0.3210808,0.8243929,-0.72181594,-0.67682564,-0.14452961,,0.07733509,1.3283135,0.45412442,0.9978646,0.045916423,-0.046452973,0.0053447937,-0.76621944,-0.6425568,-0.06509708,0.64093643,-0.7648287,,-0.1006933,0.2332491,-0.08921847,0.7807158,0.07169886,0.62075925,-0.60755235,0.3194484,0.7272089,-0.1461605,-0.9448873,0.29295924,,-0.017011441,0.40816584,-0.3653061,-0.37373176,0.7352979,-0.56538624,-0.90421367,-0.15298876,0.39873815,0.20669357,0.660251,0.72204316,,0.9216541094085756,0.33480363829625515,0.18019079145000003,0.33718142912311516,-0.05766060290101587,1.3923488842150904,-0.40068299422738707,,-1.2614002967443345,-0.12163304276903603,0.16710992906000002,0.20968994348452435,0.8791192394908438,-0.6257093183859078,0.8755241944797368,,-0.03261365873507904,-0.0856607596878817,0.08101381028,-0.06541713947960498,,-2.3953617e-05,-1.7881393e-06,9.536743e-07,0.99999994,2.527982e-05,2.1189451e-05,-2.528727e-05,1.0,2.0861626e-06,-2.1185726e-05,-2.1457672e-06,1.0,211,0.648,1,1,0.398,False,-0.25588632848275505,1.0499012289649627
0.658975986065343,11:07:03.377752,11:05:59.397388,0,,0.13249311,0.0052268878,0.01899144,-0.7254305,-0.14691955,-0.6724322,-0.5936218,-0.36092612,0.7192673,-0.3483728,0.920949,0.17461218,,0.05515597,-0.043684773,0.039324164,0.5115918,-0.6624929,0.54715335,-0.46615183,0.32093394,0.82444143,-0.7217868,-0.6768342,-0.14463514,,0.07733509,1.3283135,0.45412442,0.9978646,0.045916423,-0.046452973,0.0053447937,-0.76621944,-0.6425568,-0.06509708,0.64093643,-0.7648287,,-0.10070054,0.23324041,-0.08933437,0.7800886,0.07676461,0.620942,-0.60930175,0.31872335,0.72606254,-0.14217281,-0.94473416,0.2954053,,-0.016980164,0.4081884,-0.36528444,-0.3737621,0.735369,-0.56527364,-0.9042078,-0.15308875,0.39871293,0.20666412,0.6601486,0.7221452,,0.9216154957442045,0.33447928351553774,0.18007542164,0.335923289462208,-0.05315159840875633,1.389897274495217,-0.4005196501612529,,-1.261315346682718,-0.12136274711843817,0.16710474390000002,0.20948025354103983,0.8788459664913129,-0.6258131975390773,0.8751975063474682,,-0.03261365873507904,-0.0856607596878817,0.08101381028,-0.06541713947960498,,-2.3953617e-05,-1.7881393e-06,9.536743e-07,0.99999994,2.527982e-05,2.1189451e-05,-2.528727e-05,1.0,2.0861626e-06,-2.1185726e-05,-2.1457672e-06,1.0,219,0.673,1,1,0.423,False,-0.2566608388235285,1.050432311173537
0.6911963340826333,11:07:03.407359,11:05:59.397388,0,,0.13239723,0.0051554516,0.019117892,-0.7254303,-0.15078378,-0.6715764,-0.5912258,-0.3630804,0.7201559,-0.35242414,0.9194764,0.17424229,,0.05513887,-0.04365986,0.0393219,0.51154643,-0.6622761,0.5474581,-0.4662323,0.32124904,0.8242732,-0.72176695,-0.67689687,-0.14444086,,0.07733509,1.3283135,0.45412442,0.9978646,0.045916423,-0.046452973,0.0053447937,-0.76621944,-0.6425568,-0.06509708,0.64093643,-0.7648287,,-0.10061373,0.23327442,-0.0894813,0.78035796,0.08083998,0.6200858,-0.61002225,0.31649497,0.7264322,-0.13752925,-0.9451433,0.29629356,,-0.016964346,0.4082068,-0.36526626,-0.37371567,0.7351465,-0.56559366,-0.90424395,-0.1529426,0.39868712,0.20659009,0.66043025,0.72190887,,0.9221947007097714,0.33400819681021005,0.17992245942,0.335923289462208,-0.047822774917904154,1.3887374471165386,-0.4016630586241927,,-1.2612921784840954,-0.12116195606370833,0.16710344761,0.20948025354103983,0.8785726934917821,-0.626243791652809,0.8758508826120053,,-0.03261365873507904,-0.0856607596878817,0.08101381028,-0.06541713947960498,,-2.3953617e-05,-1.7881393e-06,9.536743e-07,0.99999994,2.527982e-05,2.1189451e-05,-2.528727e-05,1.0,2.0861626e-06,-2.1185726e-05,-2.1457672e-06,1.0,232,0.713,1,1,0.463,False,-0.25719703829021734,1.0496598279610654
0.7207539409864694,11:07:03.445448,11:05:59.397388,0,,0.1323044,0.0050308034,0.019261032,-0.72479934,-0.15450068,-0.67141294,-0.58905256,-0.3664704,0.7202197,-0.35732746,0.91751236,0.17460851,,0.055131607,-0.043636613,0.039319396,0.51150733,-0.662126,0.5476762,-0.46666723,0.3211222,0.82407653,-0.7215136,-0.6771039,-0.14473623,,0.07733509,1.3283135,0.45412442,0.9978646,0.045916423,-0.046452973,0.0053447937,-0.76621944,-0.6425568,-0.06509708,0.64093643,-0.7648287,,-0.10052914,0.23327774,-0.08967492,0.78008854,0.08486892,0.6198864,-0.6115117,0.3129919,0.7266977,-0.13234536,-0.9459563,0.29605973,,-0.016958091,0.40822232,-0.36524838,-0.37368983,0.7350356,-0.5657549,-0.90436625,-0.1531976,0.3983117,0.20610099,0.6604946,0.72198975,,0.9226580646822249,0.33332087358440404,0.17972801592,0.3350845296882699,-0.04167413242845934,1.3888694020790548,-0.4018264026903269,,-1.261315346682718,-0.12098433320760117,0.16710344761,0.20948025354103983,0.8778895109929549,-0.6262584533153107,0.8748708182151996,,-0.03261365873507904,-0.0856607596878817,0.08101381028,-0.06541713947960498,,-2.3953617e-05,-1.7881393e-06,9.536743e-07,0.99999994,2.527982e-05,2.1189451e-05,-2.528727e-05,1.0,2.0861626e-06,-2.1185726e-05,-2.1457672e-06,1.0,240,0.739,1,1,0.489,False,-0.25677999426057063,1.0497563883626244
0.7588958150008693,11:07:03.469082,11:05:59.534478,0,,0.1322359,0.0048560873,0.01938869,-0.72609806,-0.15483612,-0.6699308,-0.58746207,-0.36660978,0.7214468,-0.35730928,0.9174002,0.17523436,,0.05511997,-0.043602966,0.03932053,0.51161504,-0.66209203,0.5476167,-0.4666704,0.32101825,0.8241153,-0.7214352,-0.67718637,-0.14474118,,0.07733509,1.3283135,0.45412442,0.9978646,0.045916423,-0.046452973,0.0053447937,-0.76621944,-0.6425568,-0.06509708,0.64093643,-0.7648287,,-0.10046511,0.23323055,-0.08988749,0.7813085,0.08521914,0.6182999,-0.6101564,0.31284496,0.7278992,-0.13140106,-0.94597346,0.2964254,,-0.016948644,0.4082484,-0.36522606,-0.37380746,0.7350199,-0.56569755,-0.9043291,-0.153333,0.3983439,0.2060506,0.6604807,0.72201693,,0.9227507374767155,0.33267216402296923,0.17952449839,0.33697173917963064,-0.04030776743080493,1.388817046663918,-0.4010096823596556,,-1.2613616830799634,-0.12075265122137444,0.16710344761,0.2092705635975553,0.8776162379934239,-0.6263623324684802,0.8756875385458711,,-0.03261365873507904,-0.0856607596878817,0.08101381028,-0.06541713947960498,,-2.3953617e-05,-1.7881393e-06,9.536743e-07,0.99999994,2.527982e-05,2.1189451e-05,-2.528727e-05,1.0,2.0861626e-06,-2.1185726e-05,-2.1457672e-06,1.0,253,0.779,1,1,0.529,False,-0.25636295023092304,1.0504805913743163
0.782466545002535,11:07:03.508292,11:05:59.534478,0,,0.1321654,0.00461594,0.01956527,-0.72614473,-0.15868989,-0.66897774,-0.58554345,-0.36722708,0.72269154,-0.3603506,0.91649437,0.17374018,,0.055097885,-0.043554746,0.039316297,0.5115756,-0.6621882,0.5475372,-0.4666232,0.32097346,0.8241594,-0.7214936,-0.6771136,-0.14479032,,0.07733509,1.3283135,0.45412442,0.9978646,0.045916423,-0.046452973,0.0053447937,-0.76621944,-0.6425568,-0.06509708,0.64093643,-0.7648287,,-0.10040074,0.23316416,-0.09017949,0.78155196,0.089163736,0.61743534,-0.61060077,0.3121559,0.72782236,-0.12784071,-0.9458375,0.2984095,,-0.016928898,0.40828237,-0.36519015,-0.37376264,0.73510677,-0.5656143,-0.9043312,-0.1532998,0.39835188,0.20612259,0.66039175,0.7220777,,0.9228047966068351,0.33171454514656534,0.17924449975,0.33718142912311516,-0.0357987629385454,1.3871005456053096,-0.4023164348887298,,-1.2613694058128375,-0.12040512824203434,0.16710733648,0.2092705635975553,0.8773429649938931,-0.6263028541413685,0.8753608504136026,,-0.03261365873507904,-0.0856607596878817,0.08101381028,-0.06541713947960498,,-2.3953617e-05,-1.7881393e-06,9.536743e-07,0.99999994,2.527982e-05,2.1189451e-05,-2.528727e-05,1.0,2.0861626e-06,-2.1185726e-05,-2.1457672e-06,1.0,261,0.804,1,1,0.554,False,-0.2561246393568388,1.0497563883626244
0.8217199640348554,11:07:03.529597,11:05:59.534478,0,,0.13198826,0.0044180527,0.01971136,-0.72570413,-0.1587607,-0.66943884,-0.58590287,-0.36744627,0.7222886,-0.36065394,0.9163942,0.17363894,,0.055084996,-0.04353278,0.03931296,0.51155317,-0.6622677,0.54746205,-0.46649826,0.3210028,0.82421863,-0.7215904,-0.6770219,-0.14473683,,0.07733509,1.3283135,0.45412442,0.9978646,0.045916423,-0.046452973,0.0053447937,-0.76621944,-0.6425568,-0.06509708,0.64093643,-0.7648287,,-0.10022934,0.23312089,-0.09042574,0.7811577,0.08925314,0.6179212,-0.61111,0.3119306,0.7274915,-0.12781763,-0.94590336,0.29821044,,-0.016916914,0.40829733,-0.36517304,-0.37373328,0.7351702,-0.5655512,-0.90430796,-0.1532038,0.39844155,0.20627776,0.66034335,0.7220776,,0.9234535061682699,0.3307337580715389,0.17900727868000002,0.33634266934917706,-0.03456903444065643,1.386996250613588,-0.4005196501612527,,-1.2613539603470891,-0.12024295085167562,0.16710992906000002,0.2092705635975553,0.8773429649938931,-0.6263028541413685,0.8753608504136026,,-0.03261365873507904,-0.0856607596878817,0.08101381028,-0.06541713947960498,,-2.3953617e-05,-1.7881393e-06,9.536743e-07,0.99999994,2.527982e-05,2.1189451e-05,-2.528727e-05,1.0,2.0861626e-06,-2.1185726e-05,-2.1457672e-06,1.0,274,0.844,1,1,0.594,False,-0.25642252794944387,1.0502391903704191
0.8430436330381781,11:07:03.577433,11:05:59.534478,0,,0.13168296,0.0042730942,0.019900158,-0.72498095,-0.15988524,-0.6699546,-0.585987,-0.3679976,0.7219396,-0.36196923,0.9159773,0.17310059,,0.05506432,-0.043499283,0.039309442,0.5115109,-0.6623224,0.54743534,-0.46641845,0.32105488,0.82424355,-0.72167194,-0.67694366,-0.14469647,,0.07733509,1.3283135,0.45412442,0.9978646,0.045916423,-0.046452973,0.0053447937,-0.76621944,-0.6425568,-0.06509708,0.64093643,-0.7648287,,-0.09993673,0.23315728,-0.090676576,0.7805639,0.09043471,0.61849946,-0.61207396,0.31134766,0.7269306,-0.1268286,-0.9459832,0.29837945,,-0.016897846,0.4083213,-0.3651481,-0.37368408,0.73520994,-0.5655321,-0.90430295,-0.15310478,0.39849102,0.2063889,0.66032207,0.7220654,,0.9250134982088634,0.3296911891335185,0.17875320584,0.3348748397447854,-0.03197294094511307,1.3856960978447614,-0.40182640269032666,,-1.2613307921484664,-0.11998037793395198,0.16711122535,0.2092705635975553,0.8772063284941277,-0.6263547937179531,0.8756875385458711,,-0.03261365873507904,-0.0856607596878817,0.08101381028,-0.06541713947960498,,-2.3953617e-05,-1.7881393e-06,9.536743e-07,0.99999994,2.527982e-05,2.1189451e-05,-2.528727e-05,1.0,2.0861626e-06,-2.1185726e-05,-2.1457672e-06,1.0,282,0.87,1,1,0.62,False,-0.256065061638318,1.0502874705711984
0.8908704990753904,11:07:03.595694,11:05:59.534478,0,,0.13161118,0.0042512193,0.019945353,-0.7241508,-0.16167511,-0.67042273,-0.58594877,-0.3684231,0.72175366,-0.36368886,0.915492,0.17206056,,0.05505702,-0.043483578,0.039304733,0.5114892,-0.66235256,0.5474192,-0.46644506,0.3210153,0.8242439,-0.72167003,-0.67693305,-0.1447553,,0.07733509,1.3283135,0.45412442,0.9978646,0.045916423,-0.046452973,0.0053447937,-0.76621944,-0.6425568,-0.06509708,0.64093643,-0.7648287,,-0.099868566,0.23317572,-0.090728395,0.77989566,0.09227887,0.61906976,-0.6132096,0.31088,0.7261732,-0.12544596,-0.9459589,0.29904026,,-0.016890815,0.40833002,-0.36513403,-0.37366143,0.73524034,-0.5655076,-0.9043172,-0.15312082,0.39845246,0.20636733,0.6602846,0.7221058,,0.9254382485169457,0.32943633894866914,0.17869876166,0.3336167000838782,-0.030060029948396898,1.3846263196338549,-0.4010096823596554,,-1.2613230694155924,-0.11987225967371284,0.16711511422000003,0.2092705635975553,0.8770696919943622,-0.6263250545543972,0.8755241944797367,,-0.03261365873507904,-0.0856607596878817,0.08101381028,-0.06541713947960498,,-2.3953617e-05,-1.7881393e-06,9.536743e-07,0.99999994,2.527982e-05,2.1189451e-05,-2.528727e-05,1.0,2.0861626e-06,-2.1185726e-05,-2.1457672e-06,1.0,295,0.91,1,1,0.66,False,-0.25636295023092304,1.0499977893665218
0.9091424039797857,11:07:03.637332,11:05:59.707005,0,,0.13122869,0.0042263046,0.020171136,-0.7172778,-0.16341124,-0.6773545,-0.59056956,-0.37332368,0.71544176,-0.3697838,0.9131956,0.17127109,,0.05505088,-0.043458126,0.039302588,0.51149386,-0.6623592,0.54740673,-0.46630502,0.32113004,0.8242785,-0.7217573,-0.676872,-0.14460546,,0.07733509,1.3283135,0.45412442,0.9978646,0.045916423,-0.046452973,0.0053447937,-0.76621944,-0.6425568,-0.06509708,0.64093643,-0.7648287,,-0.0995079,0.23333497,-0.090934455,0.77382773,0.09443499,0.6263168,-0.6212575,0.30582088,0.72146565,-0.12340916,-0.94739413,0.29532114,,-0.016885867,0.40834728,-0.36511487,-0.3736611,0.7352316,-0.56551915,-0.9042806,-0.1529968,0.39858317,0.20652832,0.660323,0.7220246,,0.927824572975081,0.32871040205849206,0.17847061462000002,0.32313220290965206,-0.025414388956371922,1.3857388353166105,-0.40149971455805855,,-1.2613539603470891,-0.11971008228335413,0.16712029938,0.2092705635975553,0.8770696919943622,-0.6264067332945378,0.8753608504136026,,-0.03261365873507904,-0.0856607596878817,0.08101381028,-0.06541713947960498,,-2.3953617e-05,-1.7881393e-06,9.536743e-07,0.99999994,2.527982e-05,2.1189451e-05,-2.528727e-05,1.0,2.0861626e-06,-2.1185726e-05,-2.1457672e-06,1.0,303,0.936,1,1,0.686,False,-0.2564821056679656,1.0499495091657423
0.950779072009027,11:07:03.666538,11:05:59.707005,0,,0.1310644,0.0042394325,0.020253494,-0.7135498,-0.16345668,-0.68126965,-0.5939831,-0.37451538,0.71198475,-0.3715247,0.9126994,0.17014493,,0.055054247,-0.0434502,0.03929299,0.51137567,-0.6622536,0.54764473,-0.4663039,0.32145667,0.82415175,-0.7218417,-0.6768202,-0.1444265,,0.07733509,1.3283135,0.45412442,0.9978646,0.045916423,-0.046452973,0.0053447937,-0.76621944,-0.6425568,-0.06509708,0.64093643,-0.7648287,,-0.09935269,0.23341246,-0.09099652,0.77043146,0.09457878,0.63046825,-0.62533027,0.30459493,0.7184595,-0.12408642,-0.94777465,0.29381248,,-0.016888235,0.40834564,-0.36510232,-0.3735321,0.7351016,-0.5657733,-0.90432197,-0.15274669,0.39858532,0.2065807,0.6605256,0.7218243,,0.9288671419131014,0.3285405019352591,0.17839802238000002,0.31747057443556986,-0.025004479457075603,1.3858946540463646,-0.40117302642579,,-1.2613539603470891,-0.119671468618983,0.16713196599000002,0.20948025354103983,0.8770696919943622,-0.6265700907748191,0.8753608504136026,,-0.03261365873507904,-0.0856607596878817,0.08101381028,-0.06541713947960498,,-2.3953617e-05,-1.7881393e-06,9.536743e-07,0.99999994,2.527982e-05,2.1189451e-05,-2.528727e-05,1.0,2.0861626e-06,-2.1185726e-05,-2.1457672e-06,1.0,316,0.975,1,1,0.725,False,-0.25767366003838577,1.0499012289649627
0.9799843369983137,11:07:03.708199,11:05:59.707005,0,,0.130581,0.0043012276,0.020388186,-0.70766294,-0.16444416,-0.6871471,-0.59851587,-0.377326,0.706685,-0.37548876,0.91136336,0.16859719,,0.05505564,-0.043439977,0.039272785,0.5115966,-0.66234714,0.5473253,-0.46620327,0.32109842,0.82434833,-0.7217502,-0.67689884,-0.1445157,,0.07733509,1.3283135,0.45412442,0.9978646,0.045916423,-0.046452973,0.0053447937,-0.76621944,-0.6425568,-0.06509708,0.64093643,-0.7648287,,-0.09888705,0.23359014,-0.091081604,0.76514304,0.09580895,0.63669205,-0.6318708,0.30168062,0.7139524,-0.12367462,-0.9485828,0.2913677,,-0.016887223,0.40833852,-0.3650808,-0.3737693,0.7352254,-0.5654557,-0.90421903,-0.15303941,0.3987065,0.20660216,0.66032004,0.72200626,,0.9318867304669232,0.327745060449214,0.17828913402000002,0.3082442169222508,-0.021998476462235912,1.385158713707995,-0.4010096823596554,,-1.261346237614215,-0.11961740948886343,0.16715270663,0.20906087365407078,0.8770696919943622,-0.6265700907748191,0.8751975063474683,,-0.03261365873507904,-0.0856607596878817,0.08101381028,-0.06541713947960498,,-2.3953617e-05,-1.7881393e-06,9.536743e-07,0.99999994,2.527982e-05,2.1189451e-05,-2.528727e-05,1.0,2.0861626e-06,-2.1185726e-05,-2.1457672e-06,1.0,329,1.016,1,1,0.766,False,-0.25779281547542787,1.0493218665556094
1.0215970349963754,11:07:03.756302,11:05:59.707005,0,,0.13019882,0.0043089017,0.020434082,-0.7051243,-0.16487446,-0.6896491,-0.59993494,-0.37974367,0.70418227,-0.37799165,0.9102808,0.1688526,,0.05505964,-0.043417744,0.039248526,0.5115833,-0.66219234,0.547525,-0.4662187,0.32133582,0.8242471,-0.72174966,-0.67693764,-0.14433646,,0.07733509,1.3283135,0.45412442,0.9978646,0.045916423,-0.046452973,0.0053447937,-0.76621944,-0.6425568,-0.06509708,0.64093643,-0.7648287,,-0.09851148,0.23366065,-0.09112856,0.7629124,0.09644404,0.63926774,-0.63478136,0.29917696,0.7124225,-0.12254528,-0.9493112,0.28946668,,-0.01688887,0.40833658,-0.36504778,-0.37375543,0.7350649,-0.5656735,-0.90422755,-0.15292221,0.3987322,0.20659,0.66052586,0.7218214,,0.9341031548018256,0.3267256597098163,0.17823468984000002,0.30405041805256033,-0.018855836967630782,1.3851281428673348,-0.40149971455805833,,-1.2613539603470891,-0.11949384576287583,0.16717992872,0.20906087365407078,0.8769330554945969,-0.6268670665718254,0.8745441300829311,,-0.03261365873507904,-0.0856607596878817,0.08101381028,-0.06541713947960498,,-2.3953617e-05,-1.7881393e-06,9.536743e-07,0.99999994,2.527982e-05,2.1189451e-05,-2.528727e-05,1.0,2.0861626e-06,-2.1185726e-05,-2.1457672e-06,1.0,342,1.057,1,1,0.807,False,-0.2566012611050077,1.0493218665556094
1.0697452820604667,11:07:03.789015,11:05:59.855953,0,,0.12984073,0.0042157695,0.02043578,-0.7031348,-0.1645691,-0.6917502,-0.60179996,-0.3804407,0.7022119,-0.37873238,0.910045,0.16846342,,0.05506801,-0.04338526,0.039209962,0.5116903,-0.6621256,0.54750574,-0.46616194,0.32133856,0.82427824,-0.72171044,-0.67700166,-0.14423198,,0.07733509,1.3283135,0.45412442,0.9978646,0.045916423,-0.046452973,0.0053447937,-0.76621944,-0.6425568,-0.06509708,0.64093643,-0.7648287,,-0.09815132,0.23362343,-0.09120476,0.7610843,0.096192904,0.6414808,-0.6368691,0.2984634,0.7108568,-0.123079166,-0.94956124,0.2884181,,-0.01689331,0.4083312,-0.36499712,-0.37387,0.7350081,-0.5656715,-0.9041757,-0.15297456,0.3988297,0.20660973,0.6605769,0.7217691,,0.9358484924314003,0.32528150866233635,0.17816857905000003,0.3006953789568079,-0.017216198970445497,1.3847712729046646,-0.4011730264257898,,-1.2613771285457118,-0.1193239456396429,0.16722400258,0.20885118371058628,0.8767964189948314,-0.6270823636286912,0.8748708182151996,,-0.03261365873507904,-0.0856607596878817,0.08101381028,-0.06541713947960498,,-2.3953617e-05,-1.7881393e-06,9.536743e-07,0.99999994,2.527982e-05,2.1189451e-05,-2.528727e-05,1.0,2.0861626e-06,-2.1185726e-05,-2.1457672e-06,1.0,351,1.086,1,1,0.836,False,-0.2571374605716965,1.0499012289649627
1.1024598460644484,11:07:03.819002,11:05:59.855953,0,,0.12957269,0.004121609,0.020447046,-0.70269144,-0.16302449,-0.692566,-0.60265464,-0.38103223,0.7011574,-0.37819582,0.91007555,0.16950059,,0.05506614,-0.043350063,0.03917861,0.511788,-0.6620695,0.5474822,-0.4659647,0.32146996,0.82433844,-0.72176856,-0.6769941,-0.14397669,,0.07733509,1.3283135,0.45412442,0.9978646,0.045916423,-0.046452973,0.0053447937,-0.76621944,-0.6425568,-0.06509708,0.64093643,-0.7648287,,-0.097881585,0.2335831,-0.091285095,0.7606313,0.09467974,0.6422427,-0.6372281,0.29788423,0.710778,-0.124017715,-0.9498951,0.28691268,,-0.01688884,0.40833423,-0.36495024,-0.37396896,0.73494434,-0.56568897,-0.90409195,-0.15288517,0.39905366,0.20679678,0.66066855,0.7216316,,0.9370918524241505,0.3241539896626996,0.17809857939,0.2996469292393853,-0.016669652971383734,1.3854691036518467,-0.40084633829352123,,-1.2613771285457118,-0.11911543185203884,0.16725900241000002,0.20864149376710175,0.8767964189948314,-0.6274090785892534,0.8748708182151996,,-0.03261365873507904,-0.0856607596878817,0.08101381028,-0.06541713947960498,,-2.3953617e-05,-1.7881393e-06,9.536743e-07,0.99999994,2.527982e-05,2.1189451e-05,-2.528727e-05,1.0,2.0861626e-06,-2.1185726e-05,-2.1457672e-06,1.0,364,1.127,1,1,0.877,False,-0.25672041654204936,1.0497563883626244
1.1324233619961888,11:07:03.856690,11:05:59.855953,0,,0.12930734,0.0040591285,0.02050504,-0.7000073,-0.16316196,-0.6952466,-0.60498434,-0.38180077,0.6987288,-0.3794517,0.90972877,0.16855292,,0.055065267,-0.043313436,0.03914219,0.511761,-0.6621277,0.5474372,-0.46579635,0.3215785,0.82439125,-0.7218964,-0.6768856,-0.14384544,,0.07733509,1.3283135,0.45412442,0.9978646,0.045916423,-0.046452973,0.0053447937,-0.76621944,-0.6425568,-0.06509708,0.64093643,-0.7648287,,-0.09762025,0.23359643,-0.09138103,0.7581806,0.09488256,0.6451042,-0.6400636,0.2970867,0.7085606,-0.12442184,-0.9501246,0.28597623,,-0.016884701,0.40833458,-0.36489877,-0.37393296,0.73497987,-0.5656666,-0.9040594,-0.15272501,0.39918882,0.20700431,0.66066605,0.72157437,,0.9384742216086367,0.3232658753821637,0.17800524651000002,0.29545313036969484,-0.01543992447349477,1.3850380936995628,-0.40133637049192394,,-1.2613616830799634,-0.11889919533156056,0.16729918740000002,0.20864149376710175,0.8767964189948314,-0.627490757329394,0.8750341622813339,,-0.03261365873507904,-0.0856607596878817,0.08101381028,-0.06541713947960498,,-2.3953617e-05,-1.7881393e-06,9.536743e-07,0.99999994,2.527982e-05,2.1189451e-05,-2.528727e-05,1.0,2.0861626e-06,-2.1185726e-05,-2.1457672e-06,1.0,377,1.168,0,1,0.89,False,-0.2566012611050077,1.0492253061540504
1.1701366370543838,11:07:03.903007,11:05:59.959870,0,,0.1288072,0.0040687844,0.020713806,-0.6977006,-0.16073398,-0.6981248,-0.6075036,-0.38372415,0.69548184,-0.37967497,0.90935165,0.17007811,,0.05508127,-0.04325711,0.03904432,0.51229566,-0.6618625,0.54725766,-0.46553886,0.32146394,0.8245813,-0.7216832,-0.67719924,-0.14343825,,0.07733509,1.3283135,0.45412442,0.9978646,0.045916423,-0.046452973,0.0053447937,-0.76621944,-0.6425568,-0.06509708,0.64093643,-0.7648287,,-0.09714251,0.23378246,-0.09155705,0.75601804,0.09258728,0.64796937,-0.64235646,0.29514337,0.70729667,-0.12575719,-0.95095634,0.28260773,,-0.016889343,0.40830344,-0.36478916,-0.3745066,0.73477024,-0.56555945,-0.9038064,-0.15306234,0.39963225,0.20707202,0.66082114,0.7214129,,0.9415015328953327,0.32250904756048976,0.17781080301000002,0.2912593315000043,-0.014893378474433009,1.3856542457066046,-0.40084633829352123,,-1.261346237614215,-0.11861345421521424,0.16740418689000003,0.2075930440496791,0.8766597824950659,-0.6284411630475248,0.8755241944797367,,-0.03261365873507904,-0.0856607596878817,0.08101381028,-0.06541713947960498,,-2.3953617e-05,-1.7881393e-06,9.536743e-07,0.99999994,2.527982e-05,2.1189451e-05,-2.528727e-05,1.0,2.0861626e-06,-2.1185726e-05,-2.1457672e-06,1.0,386,1.197,0,1,0.89,False,-0.2561842170753601,1.049080465551712
1.216434943024069,11:07:03.929128,11:05:59.959870,0,,0.12862283,0.0041232184,0.020807669,-0.6979819,-0.15952356,-0.6981213,-0.6073772,-0.38456148,0.69512975,-0.3793602,0.90921104,0.171526,,0.05510162,-0.0432327,0.038986325,0.5122914,-0.6615264,0.547668,-0.4653563,0.32214752,0.8244176,-0.721804,-0.6772028,-0.14281216,,0.07733509,1.3283135,0.45412442,0.9978646,0.045916423,-0.046452973,0.0053447937,-0.76621944,-0.6425568,-0.06509708,0.64093643,-0.7648287,,-0.09697021,0.23390083,-0.0916025,0.75626314,0.09143324,0.64784724,-0.64203393,0.29429802,0.7079415,-0.12593077,-0.95132995,0.28126997,,-0.016902324,0.40827712,-0.36472988,-0.37449488,0.73440063,-0.5660471,-0.90376216,-0.15263365,0.39989614,0.20728616,0.66133094,0.720884,,0.9427680610867055,0.3225013248276155,0.17775117367,0.2912593315000043,-0.014756741974667567,1.385951221503611,-0.4003563060951183,,-1.2613385148813407,-0.11852850415359778,0.16747029768000002,0.2075930440496791,0.8767964189948314,-0.6292060108723458,0.8745441300829311,,-0.03261365873507904,-0.0856607596878817,0.08101381028,-0.06541713947960498,,-2.3953617e-05,-1.7881393e-06,9.536743e-07,0.99999994,2.527982e-05,2.1189451e-05,-2.528727e-05,1.0,2.0861626e-06,-2.1185726e-05,-2.1457672e-06,1.0,399,1.238,0,1,0.89,False,-0.25683957197909146,1.0495632675595068
1.2425711570540443,11:07:03.967246,11:05:59.959870,0,,0.12830992,0.0042684153,0.020967543,-0.6980353,-0.1576262,-0.6984987,-0.6074749,-0.3860871,0.694198,-0.3791052,0.9088954,0.17374854,,0.055126168,-0.0432147,0.038923144,0.512518,-0.66147435,0.5475187,-0.46526492,0.32199132,0.8245302,-0.721702,-0.677328,-0.14273456,,0.07733509,1.3283135,0.45412442,0.9978646,0.045916423,-0.046452973,0.0053447937,-0.76621944,-0.6425568,-0.06509708,0.64093643,-0.7648287,,-0.09668018,0.23414274,-0.09164635,0.75629693,0.089642525,0.648058,-0.64194286,0.29274866,0.7086661,-0.1261915,-0.95197815,0.2789503,,-0.01691834,0.4082421,-0.3646713,-0.37473878,0.73437625,-0.56591725,-0.9036592,-0.15283804,0.4000506,0.20729399,0.66131085,0.72090024,,0.9450539900174759,0.322725284080968,0.17767728514000003,0.29063026166955075,-0.01462010547490213,1.3862481973006173,-0.40084633829352123,,-1.2613385148813407,-0.11848989048922665,0.16754029734,0.20717366416271008,0.8767964189948314,-0.6294510470927676,0.8745441300829311,,-0.03261365873507904,-0.0856607596878817,0.08101381028,-0.06541713947960498,,-2.3953617e-05,-1.7881393e-06,9.536743e-07,0.99999994,2.527982e-05,2.1189451e-05,-2.528727e-05,1.0,2.0861626e-06,-2.1185726e-05,-2.1457672e-06,1.0,412,1.279,0,1,0.89,False,-0.2561246393568388,1.04927358635483
1.2806914410321042,11:07:04.010960,11:06:00.093454,0,,0.12797637,0.004402764,0.021099657,-0.69794124,-0.15646331,-0.69885415,-0.6074545,-0.3875147,0.69341993,-0.37931105,0.90848863,0.17541815,,0.05514104,-0.043206505,0.03884673,0.5128288,-0.66137695,0.54734534,-0.4647478,0.32218403,0.82474655,-0.72181433,-0.67733145,-0.14214832,,0.07733509,1.3283135,0.45412442,0.9978646,0.045916423,-0.046452973,0.0053447937,-0.76621944,-0.6425568,-0.06509708,0.64093643,-0.7648287,,-0.09636657,0.23436064,-0.0916767,0.75622153,0.08858649,0.6482911,-0.6420661,0.29128557,0.7091571,-0.12601611,-0.9525257,0.2771548,,-0.01692232,0.40819234,-0.36461097,-0.3750582,0.7342698,-0.5658438,-0.9034197,-0.15271932,0.40063664,0.2077601,0.66145647,0.72063243,,0.9474017008112402,0.32273300681384226,0.17762154467000002,0.28979150189561265,-0.013800286476309485,1.3859880835791416,-0.40002961796284997,,-1.2612303966211016,-0.11849761322210088,0.16761937103000002,0.20654459433225647,0.8773429649938931,-0.6302234336681154,0.8747074741490655,,-0.03261365873507904,-0.0856607596878817,0.08101381028,-0.06541713947960498,,-2.3953617e-05,-1.7881393e-06,9.536743e-07,0.99999994,2.527982e-05,2.1189451e-05,-2.528727e-05,1.0,2.0861626e-06,-2.1185726e-05,-2.1457672e-06,1.0,421,1.307,0,1,0.89,False,-0.2571374605716965,1.0491287457524916
1.3243576950626448,11:07:04.040104,11:06:00.093454,0,,0.12789728,0.0044537857,0.021144778,-0.6974827,-0.16309278,-0.69779545,-0.60455287,-0.38890037,0.69517785,-0.38475144,0.9067289,0.17265308,,0.05514115,-0.04320895,0.03881228,0.5127661,-0.6614392,0.54732895,-0.46478927,0.32214004,0.82474035,-0.72183233,-0.67729163,-0.14224744,,0.07733509,1.3283135,0.45412442,0.9978646,0.045916423,-0.046452973,0.0053447937,-0.76621944,-0.6425568,-0.06509708,0.64093643,-0.7648287,,-0.09629433,0.23443575,-0.09168227,0.75614125,0.09540518,0.64741665,-0.64331913,0.2897238,0.70866114,-0.119962074,-0.9523434,0.2804481,,-0.016917255,0.40816653,-0.3645886,-0.3749913,0.7343279,-0.56581277,-0.9034523,-0.15271339,0.40056542,0.20773917,0.66139334,0.7206964,,0.9481276377014173,0.32253221575911245,0.17760598919,0.2891624320651591,-0.007241734487568344,1.382028562784103,-0.40133637049192417,,-1.2611222783608624,-0.1185053359549751,0.1676491857,0.20654459433225647,0.8773429649938931,-0.6302234336681154,0.8747074741490655,,-0.03261365873507904,-0.0856607596878817,0.08101381028,-0.06541713947960498,,-2.3953617e-05,-1.7881393e-06,9.536743e-07,0.99999994,2.527982e-05,2.1189451e-05,-2.528727e-05,1.0,2.0861626e-06,-2.1185726e-05,-2.1457672e-06,1.0,434,1.348,0,1,0.89,False,-0.256065061638318,1.049370146756389
1.3535014960216358,11:07:04.080315,11:06:00.093454,0,,0.12790236,0.004481323,0.021176502,-0.6950055,-0.1676137,-0.6991945,-0.6020628,-0.39592844,0.69336927,-0.39304924,0.90285456,0.17425849,,0.05514425,-0.043207757,0.038800836,0.51275706,-0.6614486,0.5473261,-0.4647942,0.32213402,0.8247399,-0.7218354,-0.6772853,-0.14226109,,0.07733509,1.3283135,0.45412442,0.9978646,0.045916423,-0.046452973,0.0053447937,-0.76621944,-0.6425568,-0.06509708,0.64093643,-0.7648287,,-0.09630352,0.23447654,-0.09168888,0.7543359,0.10057151,0.6487394,-0.646884,0.28228983,0.7084162,-0.11188605,-0.95404285,0.27799946,,-0.01691871,0.40815893,-0.36457953,-0.37498158,0.73433656,-0.56580794,-0.9034567,-0.15271188,0.4005559,0.20773725,0.66138405,0.72070545,,0.9483515969547698,0.3223082565057599,0.17759302629,0.28601708291289124,0.001503001497419845,1.3842908720636968,-0.40296981115326713,,-1.261106832895114,-0.1185053359549751,0.16766085231000002,0.20654459433225647,0.8773429649938931,-0.6302234336681154,0.8747074741490655,,-0.03261365873507904,-0.0856607596878817,0.08101381028,-0.06541713947960498,,-2.3953617e-05,-1.7881393e-06,9.536743e-07,0.99999994,2.527982e-05,2.1189451e-05,-2.528727e-05,1.0,2.0861626e-06,-2.1185726e-05,-2.1457672e-06,1.0,447,1.389,0,1,0.89,False,-0.256065061638318,1.049370146756389
1.3937604409875348,11:07:04.123888,11:06:00.196732,0,,0.12792733,0.0044486597,0.021200389,-0.69179803,-0.17028375,-0.70172566,-0.6023262,-0.39991277,0.69084936,-0.3982695,0.900596,0.17409249,,0.055153817,-0.04320725,0.038792253,0.51277256,-0.66137975,0.54739463,-0.4648053,0.32220536,0.8247058,-0.7218174,-0.6773186,-0.14219487,,0.07733509,1.3283135,0.45412442,0.9978646,0.045916423,-0.046452973,0.0053447937,-0.76621944,-0.6425568,-0.06509708,0.64093643,-0.7648287,,-0.096329145,0.23446418,-0.091726996,0.75164056,0.10361265,0.6513838,-0.6506872,0.27804613,0.7066092,-0.107901104,-0.9549632,0.27641016,,-0.016926927,0.4081519,-0.36457253,-0.37499896,0.7342695,-0.56588346,-0.903454,-0.15269494,0.4005685,0.20771769,0.6614624,0.72063917,,0.9482357559616564,0.3220611290537847,0.17755673017,0.28182328404320073,0.006148642489444821,1.3857301027070141,-0.40002961796284997,,-1.2611300010937367,-0.11852850415359778,0.16767251892,0.20654459433225647,0.8773429649938931,-0.6303051124082559,0.8745441300829311,,-0.03261365873507904,-0.0856607596878817,0.08101381028,-0.06541713947960498,,-2.3953617e-05,-1.7881393e-06,9.536743e-07,0.99999994,2.527982e-05,2.1189451e-05,-2.528727e-05,1.0,2.0861626e-06,-2.1185726e-05,-2.1457672e-06,1.0,456,1.418,0,1,0.89,False,-0.25719703829021734,1.0492253061540504
1.4373305729823187,11:07:04.154750,11:06:00.196732,0,,0.12795627,0.004456766,0.021241903,-0.6891228,-0.17832294,-0.70236063,-0.6010507,-0.4007568,0.6914708,-0.40478098,0.8986628,0.16898958,,0.055155337,-0.043206356,0.038785815,0.5128874,-0.6614125,0.54724747,-0.46477503,0.32202205,0.8247945,-0.7217552,-0.6773738,-0.14224708,,0.07733509,1.3283135,0.45412442,0.9978646,0.045916423,-0.046452973,0.0053447937,-0.76621944,-0.6425568,-0.06509708,0.64093643,-0.7648287,,-0.09636214,0.23449399,-0.0917525,0.74952644,0.111825764,0.6524608,-0.6540744,0.27692226,0.70391816,-0.10196472,-0.95436317,0.28070292,,-0.016927538,0.40814784,-0.3645673,-0.37512317,0.7343201,-0.5657354,-0.9034058,-0.15285736,0.40061522,0.20770301,0.6613687,0.7207294,,0.9482512014274048,0.3219607335264198,0.17752691550000002,0.2784682449474484,0.01257055797842052,1.3809835336741259,-0.40100968235965584,,-1.2611300010937367,-0.11852850415359778,0.16767900037000003,0.20633490438877194,0.8773429649938931,-0.6303051124082559,0.8745441300829311,,-0.03261365873507904,-0.0856607596878817,0.08101381028,-0.06541713947960498,,-2.3953617e-05,-1.7881393e-06,9.536743e-07,0.99999994,2.527982e-05,2.1189451e-05,-2.528727e-05,1.0,2.0861626e-06,-2.1185726e-05,-2.1457672e-06,1.0,469,1.459,0,1,0.89,False,-0.2566608388235285,1.0491770259532711
1.4681847430765629,11:07:04.191051,11:06:00.196732,0,,0.12793998,0.0044771507,0.02128449,-0.6890045,-0.18061213,-0.7018916,-0.59883666,-0.40364897,0.6917095,-0.40824902,0.89690953,0.16995884,,0.055157967,-0.043206416,0.038784087,0.51289254,-0.66140443,0.54725236,-0.46477866,0.3220234,0.8247918,-0.7217491,-0.67738104,-0.14224344,,0.07733509,1.3283135,0.45412442,0.9978646,0.045916423,-0.046452973,0.0053447937,-0.76621944,-0.6425568,-0.06509708,0.64093643,-0.7648287,,-0.096350774,0.23453814,-0.09177296,0.74963224,0.11439302,0.6518939,-0.65457684,0.27380243,0.70467114,-0.097880684,-0.95495886,0.28013015,,-0.016929884,0.4081462,-0.36456597,-0.37512895,0.7343132,-0.5657406,-0.9034049,-0.15286261,0.40061527,0.20769648,0.6613752,0.7207253,,0.9485137743451285,0.3219066743963002,0.17750098970000003,0.2784682449474484,0.016806289471149174,1.3814501581862837,-0.40068299422738707,,-1.2611377238266108,-0.118536226886472,0.16768159295,0.20633490438877194,0.8773429649938931,-0.6303051124082559,0.8745441300829311,,-0.03261365873507904,-0.0856607596878817,0.08101381028,-0.06541713947960498,,-2.3953617e-05,-1.7881393e-06,9.536743e-07,0.99999994,2.527982e-05,2.1189451e-05,-2.528727e-05,1.0,2.0861626e-06,-2.1185726e-05,-2.1457672e-06,1.0,482,1.5,0,1,0.89,False,-0.25576717304571295,1.0492253061540504
1.5044971770839766,11:07:04.232194,11:06:00.196732,0,,0.12784433,0.0045376346,0.021420002,-0.68638337,-0.18397237,-0.703585,-0.5977767,-0.4082653,0.6899146,-0.4141746,0.89413285,0.17025211,,0.055163987,-0.043207668,0.03877783,0.51289904,-0.66138977,0.54726404,-0.46479475,0.3220213,0.8247836,-0.7217342,-0.67739636,-0.14224616,,0.07733509,1.3283135,0.45412442,0.9978646,0.045916423,-0.046452973,0.0053447937,-0.76621944,-0.6425568,-0.06509708,0.64093643,-0.7648287,,-0.09627086,0.23467927,-0.091842726,0.7475271,0.11819659,0.65363044,-0.6577541,0.26880923,0.7036342,-0.09253472,-0.9559138,0.2786865,,-0.016934829,0.40814006,-0.36456206,-0.37513664,0.73430103,-0.5657513,-0.9034067,-0.15287688,0.4006059,0.20767501,0.6613854,0.72072214,,0.9494559477557839,0.3219839017250425,0.17741413827000002,0.27490351590821144,0.022681658961063115,1.381804948956193,-0.40019296202898413,,-1.2611454465594851,-0.11855939508509468,0.16768937069,0.20633490438877194,0.8773429649938931,-0.6303051124082559,0.8747074741490652,,-0.03261365873507904,-0.0856607596878817,0.08101381028,-0.06541713947960498,,-2.3953617e-05,-1.7881393e-06,9.536743e-07,0.99999994,2.527982e-05,2.1189451e-05,-2.528727e-05,1.0,2.0861626e-06,-2.1185726e-05,-2.1457672e-06,1.0,491,1.528,0,1,0.89,False,-0.2557075953271921,1.0485976635439174
1.5456042400328442,11:07:04.262369,11:06:00.196732,0,,0.12778352,0.0045923665,0.021520704,-0.6859368,-0.18983045,-0.70246345,-0.59454864,-0.4103657,0.6914562,-0.41952643,0.89194417,0.16862157,,0.055173434,-0.043205403,0.038772523,0.5130424,-0.6613876,0.5471323,-0.4647618,0.32185268,0.8248681,-0.7216536,-0.67747855,-0.14226377,,0.07733509,1.3283135,0.45412442,0.9978646,0.045916423,-0.046452973,0.0053447937,-0.76621944,-0.6425568,-0.06509708,0.64093643,-0.7648287,,-0.09622212,0.2347907,-0.09188788,0.74743617,0.12431928,0.6525978,-0.658699,0.26635477,0.70368373,-0.086341076,-0.9558242,0.28097218,,-0.016943527,0.40813664,-0.36455616,-0.3752918,0.73432034,-0.5656233,-0.90334773,-0.1530528,0.40067163,0.20765112,0.66132325,0.7207861,,0.9501587164473383,0.3220070699236652,0.17735580522000002,0.2744841360212424,0.029103574450038815,1.378855312206397,-0.40051965016125246,,-1.2611917829567305,-0.11857484055084312,0.16769844472,0.20612521444528742,0.8773429649938931,-0.6303051124082559,0.8745441300829311,,-0.03261365873507904,-0.0856607596878817,0.08101381028,-0.06541713947960498,,-2.3953617e-05,-1.7881393e-06,9.536743e-07,0.99999994,2.527982e-05,2.1189451e-05,-2.528727e-05,1.0,2.0861626e-06,-2.1185726e-05,-2.1457672e-06,1.0,504,1.569,0,1,0.89,False,-0.2557075953271921,1.0489356249493738
1.575811812072061,11:07:04.302812,11:06:00.365756,0,,0.12765822,0.0046376213,0.021686018,-0.6853447,-0.18997362,-0.7030026,-0.5922352,-0.41634065,0.689868,-0.42374527,0.8891403,0.1728278,,0.05518896,-0.043199502,0.038767695,0.5130961,-0.6614039,0.5470623,-0.46463203,0.32187408,0.82493275,-0.721699,-0.67745256,-0.14215717,,0.07733509,1.3283135,0.45412442,0.9978646,0.045916423,-0.046452973,0.0053447937,-0.76621944,-0.6425568,-0.06509708,0.64093643,-0.7648287,,-0.096114784,0.23494172,-0.09199155,0.7471358,0.12498529,0.6528145,-0.659644,0.2600004,0.70517343,-0.08159573,-0.9574855,0.2767014,,-0.016958486,0.4081352,-0.3645476,-0.37534544,0.73433137,-0.5655734,-0.9032961,-0.15301736,0.40080148,0.20777856,0.66131926,0.720753,,0.9512553445154782,0.3220611290537847,0.17723525025,0.2736453762473043,0.034159124941360114,1.3823289726027017,-0.3990495535660443,,-1.2612690102854727,-0.11859028601659156,0.16771140762000003,0.20612521444528742,0.8774796014936586,-0.6302531728316713,0.8745441300829311,,-0.03261365873507904,-0.0856607596878817,0.08101381028,-0.06541713947960498,,-2.3953617e-05,-1.7881393e-06,9.536743e-07,0.99999994,2.527982e-05,2.1189451e-05,-2.528727e-05,1.0,2.0861626e-06,-2.1185726e-05,-2.1457672e-06,1.0,517,1.61,0,1,0.89,False,-0.2561842170753601,1.0490321853509326
1.6162389470264316,11:07:04.344100,11:06:00.365756,0,,0.1278535,0.0046697333,0.021860719,-0.68481356,-0.19834276,-0.70120645,-0.58778024,-0.4184451,0.6924001,-0.43074897,0.8863204,0.16997491,,0.055261068,-0.043203346,0.03876388,0.51315105,-0.66138357,0.5470353,-0.46463057,0.32182822,0.82495147,-0.72166085,-0.67749417,-0.1421526,,0.07733509,1.3283135,0.45412442,0.9978646,0.045916423,-0.046452973,0.0053447937,-0.76621944,-0.6425568,-0.06509708,0.64093643,-0.7648287,,-0.096326634,0.23505877,-0.092096925,0.7470596,0.13366441,0.6511803,-0.6606984,0.25737724,0.7051486,-0.07334571,-0.95702183,0.280588,,-0.017028935,0.40811953,-0.3645431,-0.3754054,0.73432,-0.5655484,-0.9032763,-0.15308145,0.40082166,0.20775637,0.66131705,0.7207614,,0.9523674180493665,0.3222001382455208,0.17714969511,0.27343568630381976,0.04276722442658286,1.37718825569306,-0.3998662738967156,,-1.2613230694155924,-0.11861345421521424,0.16772566681,0.20612521444528742,0.8774796014936586,-0.6302531728316713,0.8745441300829311,,-0.03261365873507904,-0.0856607596878817,0.08101381028,-0.06541713947960498,,-2.3953617e-05,-1.7881393e-06,9.536743e-07,0.99999994,2.527982e-05,2.1189451e-05,-2.528727e-05,1.0,2.0861626e-06,-2.1185726e-05,-2.1457672e-06,1.0,526,1.639,0,1,0.89,False,-0.25630337251240265,1.049370146756389
1.6575277330121025,11:07:04.373157,11:06:00.365756,0,,0.12774423,0.004764214,0.021968737,-0.68370736,-0.20336391,-0.7008475,-0.5827282,-0.42597216,0.69208056,-0.43928576,0.8815842,0.17273438,,0.055214643,-0.043208383,0.038757503,0.51311225,-0.6614162,0.54703236,-0.46466267,0.321804,0.8249429,-0.72166777,-0.67747384,-0.14221391,,0.0773876,1.328317,0.45412612,0.99786496,0.04586654,-0.046494804,0.0052798316,-0.7662224,-0.6425538,-0.06509708,0.64093643,-0.7648287,,-0.096276574,0.2352136,-0.09211536,0.7464914,0.13940261,0.65062857,-0.6623544,0.24905004,0.7065838,-0.06353944,-0.95840544,0.27824762,,-0.017029073,0.4081168,-0.3645401,-0.37540054,0.73437047,-0.565486,-0.9032785,-0.15311344,0.4008044,0.20775542,0.6612536,0.72081995,,0.9532864232613992,0.32226192010851457,0.17711469528,0.27238723658639713,0.05287832540922545,1.3788264583765328,-0.40068299422738707,,-1.261315346682718,-0.11861345421521424,0.16772825939000002,0.20612521444528742,0.8774796014936586,-0.6301714940915307,0.8747074741490655,,-0.03261365873507904,-0.0856607596878817,0.08101381028,-0.06541713947960498,,2.8360635e-05,-1.0728836e-06,-5.1259995e-06,1.0,-2.4508685e-05,-2.0537525e-05,2.4508685e-05,1.0,-2.0861626e-06,2.0537525e-05,2.0861626e-06,1.0,539,1.68,0,1,0.89,False,-0.2564821056679656,1.0491770259532711
1.6865509330527857,11:07:04.412263,11:06:00.480656,0,,0.12762722,0.0049089342,0.022081017,-0.6826651,-0.20850332,-0.70035315,-0.57660073,-0.4350586,0.69156015,-0.44888726,0.8759282,0.17677614,,0.055214867,-0.043207876,0.03875369,0.5130999,-0.6614439,0.5470105,-0.464776,0.32167333,0.8249301,-0.7216035,-0.67750895,-0.14237267,,0.0773876,1.328317,0.45412612,0.99786496,0.04586654,-0.046494804,0.0052798316,-0.7662224,-0.6425538,-0.06509708,0.64093643,-0.7648287,,-0.09617697,0.23540679,-0.09211447,0.74607396,0.14543957,0.64978534,-0.66381365,0.23896365,0.70869446,-0.05220287,-0.96007484,0.27482933,,-0.01702877,0.40811446,-0.3645371,-0.37539145,0.7344102,-0.5654404,-0.9033114,-0.15322556,0.40068758,0.20762911,0.6611835,0.7209206,,0.95462245604864,0.32228508830713726,0.17709654722,0.271548476812459,0.06462906438905333,1.381251293459303,-0.3998662738967156,,-1.2613076239498437,-0.11860573148234002,0.16773085197,0.20612521444528742,0.8773429649938931,-0.6300600761878343,0.8747074741490655,,-0.03261365873507904,-0.0856607596878817,0.08101381028,-0.06541713947960498,,2.8360635e-05,-1.0728836e-06,-5.1259995e-06,1.0,-2.4508685e-05,-2.0537525e-05,2.4508685e-05,1.0,-2.0861626e-06,2.0537525e-05,2.0861626e-06,1.0,552,1.721,0,1,0.89,False,-0.25582675076423333,1.0486459437446969
1.7257112039951608,11:07:04.453032,11:06:00.480656,0,,0.12737478,0.0051279366,0.022228196,-0.68125093,-0.21792689,-0.6988598,-0.56961,-0.4418556,0.6930425,-0.45982772,0.87021345,0.1768812,,0.055209763,-0.043210976,0.038743317,0.51356417,-0.6614796,0.5465313,-0.46433222,0.3213781,0.82529485,-0.7215589,-0.67761403,-0.14209813,,0.0773876,1.328317,0.45412612,0.99786496,0.04586654,-0.046494804,0.0052798316,-0.7662224,-0.6425538,-0.06509708,0.64093643,-0.7648287,,-0.09594915,0.23569176,-0.09209889,0.7453725,0.15564255,0.6482247,-0.6654906,0.23099875,0.7097618,-0.039269973,-0.96042436,0.27575877,,-0.01702204,0.40810576,-0.36453235,-0.37588125,0.7344774,-0.56502765,-0.90303546,-0.15350088,0.40120366,0.20794278,0.66104496,0.7209572,,0.9569624441095301,0.32226192010851457,0.17708617690000003,0.27008064720806735,0.07829271436559737,1.3781956983635766,-0.3993762416983129,,-1.261276733018347,-0.1186288996809627,0.167739926,0.20528645467134934,0.8777528744931894,-0.6304760086390641,0.8745441300829311,,-0.03261365873507904,-0.0856607596878817,0.08101381028,-0.06541713947960498,,2.8360635e-05,-1.0728836e-06,-5.1259995e-06,1.0,-2.4508685e-05,-2.0537525e-05,2.4508685e-05,1.0,-2.0861626e-06,2.0537525e-05,2.0861626e-06,1.0,565,1.762,0,1,0.89,False,-0.25588632848275505,1.0494667071579475
1.7664419270586222,11:07:04.490971,11:06:00.480656,0,,0.12726025,0.0052904487,0.022337228,-0.6800834,-0.22539487,-0.6976271,-0.5621372,-0.45052773,0.6935608,-0.47062543,0.8638413,0.17969358,,0.05521316,-0.04321348,0.03873986,0.51356614,-0.6614696,0.5465416,-0.46435088,0.32137302,0.8252864,-0.7215456,-0.67762625,-0.14210773,,0.0773876,1.328317,0.45412612,0.99786496,0.04586654,-0.046494804,0.0052798316,-0.7662224,-0.6425538,-0.06509708,0.64093643,-0.7648287,,-0.09585249,0.23589633,-0.092084035,0.7448819,0.16404386,0.6467152,-0.6666837,0.22099449,0.71182466,-0.02615003,-0.96137977,0.27398017,,-0.017024757,0.4081011,-0.3645315,-0.3758841,0.73446953,-0.56503594,-0.90303946,-0.1535144,0.40118954,0.20792034,0.66105056,0.7209586,,0.9583525360268905,0.3222696428413888,0.17708488061000002,0.2694515773776138,0.09181972784237599,1.3788453857377316,-0.3979061451031043,,-1.261276733018347,-0.11865206787958536,0.16774381487,0.20528645467134934,0.8777528744931894,-0.6304760086390642,0.8742174419506625,,-0.03261365873507904,-0.0856607596878817,0.08101381028,-0.06541713947960498,,2.8360635e-05,-1.0728836e-06,-5.1259995e-06,1.0,-2.4508685e-05,-2.0537525e-05,2.4508685e-05,1.0,-2.0861626e-06,2.0537525e-05,2.0861626e-06,1.0,574,1.791,0,1,0.89,False,-0.25695872741613357,1.0491287457524916
1.8044142390135676,11:07:04.522518,11:06:00.480656,0,,0.12720014,0.0054168105,0.022421971,-0.67835385,-0.23355721,-0.6966254,-0.5557608,-0.4570627,0.69442314,-0.480589,0.8582218,0.18024828,,0.055214368,-0.04321363,0.03874141,0.5134591,-0.66141415,0.54670936,-0.46427053,0.32168406,0.82521045,-0.7216735,-0.67753285,-0.14190352,,0.0773876,1.328317,0.45412612,0.99786496,0.04586654,-0.046494804,0.0052798316,-0.7662224,-0.6425538,-0.06509708,0.64093643,-0.7648287,,-0.095806114,0.23605268,-0.092071205,0.7438034,0.17297187,0.64562935,-0.6682445,0.2131741,0.7127454,-0.014346545,-0.96158075,0.27414712,,-0.017026162,0.40810192,-0.36453262,-0.37576413,0.73438376,-0.56522727,-0.90305716,-0.15323901,0.40125498,0.20806028,0.66120976,0.7207722,,0.9592947094375459,0.3222696428413888,0.17708747319,0.2681934377167067,0.10398037632150017,1.3777504962439306,-0.40002961796284997,,-1.261276733018347,-0.1186597906124596,0.16774381487,0.20549614461483387,0.8778895109929549,-0.6305874265427605,0.8742174419506625,,-0.03261365873507904,-0.0856607596878817,0.08101381028,-0.06541713947960498,,2.8360635e-05,-1.0728836e-06,-5.1259995e-06,1.0,-2.4508685e-05,-2.0537525e-05,2.4508685e-05,1.0,-2.0861626e-06,2.0537525e-05,2.0861626e-06,1.0,587,1.832,0,1,0.89,False,-0.25588632848275505,1.049080465551712
1.8359186510788277,11:07:04.557265,11:06:00.480656,0,,0.12718762,0.0055399984,0.022513613,-0.67627335,-0.24439068,-0.69492984,-0.54719615,-0.46491975,0.69600713,-0.49318427,0.85095406,0.18068315,,0.05521831,-0.04322233,0.038739502,0.51357895,-0.6614647,0.5465355,-0.46428972,0.3214197,0.8253026,-0.7215758,-0.6776089,-0.14203689,,0.0773876,1.328317,0.45412612,0.99786496,0.04586654,-0.046494804,0.0052798316,-0.7662224,-0.6425538,-0.06509708,0.64093643,-0.7648287,,-0.09580759,0.23620653,-0.092063636,0.742523,0.18476793,0.6438326,-0.66982,0.20354299,0.7140808,0.00089162146,-0.9614734,0.2748966,,-0.01702929,0.40809393,-0.3645372,-0.3758958,0.7344595,-0.5650412,-0.90301955,-0.15347026,0.40125132,0.20798582,0.6610719,0.7209201,,0.9600283690605973,0.3222310291770177,0.17708876948000002,0.267144987999284,0.11955693729476038,1.3762388426217957,-0.3980694891692387,,-1.261276733018347,-0.11872157247545338,0.16774511116000002,0.20528645467134934,0.8778895109929549,-0.6305057478026199,0.8742174419506625,,-0.03261365873507904,-0.0856607596878817,0.08101381028,-0.06541713947960498,,2.8360635e-05,-1.0728836e-06,-5.1259995e-06,1.0,-2.4508685e-05,-2.0537525e-05,2.4508685e-05,1.0,-2.0861626e-06,2.0537525e-05,2.0861626e-06,1.0,600,1.873,0,1,0.89,False,-0.25642252794944387,1.0492253061540504
1.8707027450436726,11:07:04.603638,11:06:00.647132,0,,0.12731555,0.005714655,0.022669628,-0.67067534,-0.26615942,-0.6923537,-0.5284037,-0.4836271,0.69777805,-0.5205612,0.8338249,0.1837171,,0.055230126,-0.04323428,0.038733065,0.51359195,-0.66141653,0.5465816,-0.46436778,0.3214007,0.8252661,-0.7215164,-0.67766494,-0.14207172,,0.0773876,1.328317,0.45412612,0.99786496,0.04586654,-0.046494804,0.0052798316,-0.7662224,-0.6425538,-0.06509708,0.64093643,-0.7648287,,-0.095956996,0.23642762,-0.09206665,0.7386621,0.20883359,0.6409109,-0.67320913,0.18034792,0.7171221,0.034172222,-0.961178,0.27380487,,-0.017039355,0.40807936,-0.3645405,-0.3759129,0.73442125,-0.56507957,-0.90303457,-0.15352958,0.40119475,0.20788953,0.6611007,0.7209215,,0.960468564834428,0.32204568358803626,0.17709136206,0.26462870867746974,0.15344278923658963,1.376623010373296,-0.4005196501612529,,-1.261284455751221,-0.1188219680028183,0.1677528889,0.20528645467134934,0.8778895109929549,-0.6305057478026199,0.8747074741490655,,-0.03261365873507904,-0.0856607596878817,0.08101381028,-0.06541713947960498,,2.8360635e-05,-1.0728836e-06,-5.1259995e-06,1.0,-2.4508685e-05,-2.0537525e-05,2.4508685e-05,1.0,-2.0861626e-06,2.0537525e-05,2.0861626e-06,1.0,609,1.901,0,1,0.89,False,-0.2556480176086704,1.048983905150153
1.9170465370407328,11:07:04.630284,11:06:00.647132,0,,0.12736548,0.005788386,0.02274032,-0.66780376,-0.27467975,-0.69180137,-0.5204875,-0.49208462,0.6978148,-0.5321004,0.8260773,0.18564858,,0.055234008,-0.04324033,0.038728893,0.5137105,-0.6614291,0.54645497,-0.46437448,0.32120717,0.8253377,-0.72142756,-0.67774445,-0.14214337,,0.0773876,1.328317,0.45412612,0.99786496,0.04586654,-0.046494804,0.0052798316,-0.7662224,-0.6425538,-0.06509708,0.64093643,-0.7648287,,-0.09601647,0.23652439,-0.09207181,0.73652565,0.21839964,0.6401809,-0.67468876,0.16973644,0.7183207,0.04821896,-0.96098447,0.27236703,,-0.017042248,0.40807167,-0.36454162,-0.37604266,0.73445606,-0.564948,-0.9029942,-0.15371904,0.401213,0.20783004,0.661018,0.7210145,,0.9606770786220321,0.32196845625929404,0.17709136206,0.26316087907307806,0.16778962171196088,1.3776660139470995,-0.3979061451031043,,-1.261284455751221,-0.11886830440006366,0.16775677777,0.20507676472786485,0.8778895109929549,-0.6305057478026199,0.8747074741490655,,-0.03261365873507904,-0.0856607596878817,0.08101381028,-0.06541713947960498,,2.8360635e-05,-1.0728836e-06,-5.1259995e-06,1.0,-2.4508685e-05,-2.0537525e-05,2.4508685e-05,1.0,-2.0861626e-06,2.0537525e-05,2.0861626e-06,1.0,622,1.942,0,1,0.89,False,-0.25558843989015,1.0492253061540504
1.943725286051631,11:07:04.673641,11:06:00.647132,0,,0.12729253,0.0058962256,0.022829816,-0.6645732,-0.28462186,-0.6908928,-0.5124017,-0.4993874,0.6986105,-0.54386294,0.8182925,0.1860387,,0.055252925,-0.04325532,0.03872317,0.5139909,-0.6614231,0.5461985,-0.46429682,0.3208912,0.8255043,-0.72127783,-0.67789996,-0.14216149,,0.0773876,1.328317,0.45412612,0.99786496,0.04586654,-0.046494804,0.0052798316,-0.7662224,-0.6425538,-0.06509708,0.64093643,-0.7648287,,-0.09595695,0.2366707,-0.09207501,0.73404527,0.22933252,0.6392059,-0.6762127,0.16012152,0.7190949,0.06256122,-0.96008736,0.272614,,-0.017059263,0.4080544,-0.36454704,-0.3763458,0.73449045,-0.5647014,-0.90287524,-0.15405004,0.40135378,0.20779824,0.6609027,0.7211293,,0.9616733111628071,0.32172132880731885,0.17709265835000002,0.2610639796382328,0.18281963668615933,1.3761916382390473,-0.39888620949991016,,-1.2613385148813407,-0.11901503632467392,0.16776714809,0.20465738484089577,0.8780261474927203,-0.6305354869661759,0.8745441300829311,,-0.03261365873507904,-0.0856607596878817,0.08101381028,-0.06541713947960498,,2.8360635e-05,-1.0728836e-06,-5.1259995e-06,1.0,-2.4508685e-05,-2.0537525e-05,2.4508685e-05,1.0,-2.0861626e-06,2.0537525e-05,2.0861626e-06,1.0,631,1.971,0,1,0.89,False,-0.25535012901606535,1.0491770259532711
1.987064672051929,11:07:04.703058,11:06:00.777236,0,,0.12713152,0.00598678,0.022899553,-0.66119194,-0.29046917,-0.6917028,-0.508749,-0.50401103,0.6979594,-0.55136144,0.81338835,0.1854721,,0.05527714,-0.043279372,0.03872007,0.51416934,-0.661335,0.5461372,-0.46418837,0.3208728,0.8255724,-0.7212205,-0.6779946,-0.14200112,,0.0773876,1.328317,0.45412612,0.99786496,0.04586654,-0.046494804,0.0052798316,-0.7662224,-0.6425538,-0.06509708,0.64093643,-0.7648287,,-0.09580723,0.23679942,-0.092077844,0.73121554,0.23580718,0.6400928,-0.67846197,0.15400799,0.71831113,0.07080353,-0.9595189,0.27259925,,-0.01708138,0.40803194,-0.36456043,-0.37653646,0.73441833,-0.56466806,-0.90278465,-0.15414165,0.40152237,0.2078465,0.6609615,0.7210615,,0.962978453018551,0.32139697402660145,0.17709136206,0.2574992505989959,0.19197428217044385,1.3746075079815077,-0.3992128976321785,,-1.2613925740114602,-0.11923127284515221,0.16777622212,0.20444769489741124,0.8782994204922512,-0.6306766440334282,0.8743807860167969,,-0.03261365873507904,-0.0856607596878817,0.08101381028,-0.06541713947960498,,2.8360635e-05,-1.0728836e-06,-5.1259995e-06,1.0,-2.4508685e-05,-2.0537525e-05,2.4508685e-05,1.0,-2.0861626e-06,2.0537525e-05,2.0861626e-06,1.0,644,2.012,0,1,0.89,False,-0.25588632848275505,1.0492253061540504
2.016485163010657,11:07:04.744930,11:06:00.777236,0,,0.12675145,0.006183207,0.023039356,-0.6552979,-0.29849637,-0.6938909,-0.5001255,-0.5169766,0.69470114,-0.5660911,0.8022687,0.18948795,,0.055346057,-0.043346725,0.038713276,0.51458186,-0.6615057,0.5455417,-0.46386498,0.3203318,0.8259642,-0.7211343,-0.6780838,-0.14201245,,0.0773876,1.328317,0.45412612,0.99786496,0.04586654,-0.046494804,0.0052798316,-0.7662224,-0.6425538,-0.06509708,0.64093643,-0.7648287,,-0.095450796,0.23707423,-0.09207652,0.72633684,0.24539389,0.642041,-0.68169713,0.13775136,0.71854967,0.08788568,-0.95958656,0.2673382,,-0.017144691,0.40797007,-0.36459914,-0.37697446,0.7346301,-0.5641,-0.9025567,-0.15455885,0.4018742,0.20804226,0.66062856,0.72131014,,0.9659594279080017,0.320624700739179,0.17709913980000003,0.25162793218142926,0.21096675563784006,1.376681348497926,-0.3997029298305814,,-1.2615470286689447,-0.11984136874221595,0.16780085163000003,0.2040283150104422,0.8791192394908438,-0.6302833278337794,0.8745441300829311,,-0.03261365873507904,-0.0856607596878817,0.08101381028,-0.06541713947960498,,2.8360635e-05,-1.0728836e-06,-5.1259995e-06,1.0,-2.4508685e-05,-2.0537525e-05,2.4508685e-05,1.0,-2.0861626e-06,2.0537525e-05,2.0861626e-06,1.0,657,2.053,0,1,0.89,False,-0.25558843989015,1.0488873447485942
2.0580398510210216,11:07:04.787855,11:06:00.777236,0,,0.12641539,0.0063425303,0.023136169,-0.6489308,-0.30742577,-0.6959728,-0.49500167,-0.52408475,0.6930429,-0.57780796,0.7942446,0.18791841,,0.055441037,-0.04341998,0.038710117,0.51528853,-0.6615554,0.5448138,-0.463975,0.31914514,0.8263616,-0.7205587,-0.6785947,-0.14249343,,0.0773876,1.328317,0.45412612,0.99786496,0.04586654,-0.046494804,0.0052798316,-0.7662224,-0.6425538,-0.06509708,0.64093643,-0.7648287,,-0.095132485,0.23728923,-0.09206392,0.7208629,0.25533298,0.64433044,-0.68576133,0.1280405,0.7164754,0.10043941,-0.9583375,0.26739714,,-0.017233964,0.40790296,-0.36464298,-0.3777505,0.73482007,-0.563333,-0.9023328,-0.1557406,0.4019209,0.20760573,0.6601396,0.7218833,,0.9684538706263762,0.31992193204762454,0.17711988044000002,0.24449847410295542,0.22531358811321128,1.3734770575844202,-0.3997029298305812,,-1.2618482152510395,-0.12054413743377038,0.16782807372000003,0.20318955523650412,0.8793925124903748,-0.6296893762397666,0.8742174419506625,,-0.03261365873507904,-0.0856607596878817,0.08101381028,-0.06541713947960498,,2.8360635e-05,-1.0728836e-06,-5.1259995e-06,1.0,-2.4508685e-05,-2.0537525e-05,2.4508685e-05,1.0,-2.0861626e-06,2.0537525e-05,2.0861626e-06,1.0,666,2.081,0,1,0.89,False,-0.2552905512975445,1.049418426957168
2.101296007982455,11:07:04.814618,11:06:00.777236,0,,0.1263006,0.0064310133,0.023190781,-0.6440298,-0.31152153,-0.6986987,-0.49118695,-0.531808,0.6898663,-0.5864818,0.78748614,0.18948491,,0.055492744,-0.043452166,0.038713098,0.5155611,-0.66153425,0.54458153,-0.46381235,0.318941,0.82653177,-0.72046846,-0.6787113,-0.1423943,,0.0773876,1.328317,0.45412612,0.99786496,0.04586654,-0.046494804,0.0052798316,-0.7662224,-0.6425538,-0.06509708,0.64093643,-0.7648287,,-0.095027275,0.23740248,-0.09205445,0.7166231,0.2603738,0.6470369,-0.6887708,0.11820775,0.7152774,0.10975471,-0.95824444,0.26404828,,-0.017283672,0.40787506,-0.36466467,-0.37804192,0.7348276,-0.5631276,-0.9021946,-0.15596822,0.4021427,0.20767555,0.6600775,0.7219201,,0.9694578259000254,0.31961302273265557,0.17713802850000002,0.23946591545932683,0.23556132559561932,1.3753305573247587,-0.39757945697083596,,-1.2620335608400208,-0.12089166041311047,0.16784233291,0.20297986529301956,0.8798024219896711,-0.6295335575100125,0.8751975063474682,,-0.03261365873507904,-0.0856607596878817,0.08101381028,-0.06541713947960498,,2.8360635e-05,-1.0728836e-06,-5.1259995e-06,1.0,-2.4508685e-05,-2.0537525e-05,2.4508685e-05,1.0,-2.0861626e-06,2.0537525e-05,2.0861626e-06,1.0,679,2.122,0,1,0.89,False,-0.2559459062012759,1.0486942239454764
2.1280339900404215,11:07:04.857435,11:06:00.937923,0,,0.1261344,0.006650731,0.023299411,-0.63153636,-0.3234777,-0.7046445,-0.48103142,-0.54929745,0.6832869,-0.60808754,0.7704767,0.19129837,,0.055614047,-0.04350277,0.03872305,0.5159104,-0.66138256,0.5444351,-0.46404922,0.31844813,0.8265888,-0.7200658,-0.6790905,-0.14262348,,0.0773876,1.328317,0.45412612,0.99786496,0.04586654,-0.046494804,0.0052798316,-0.7662224,-0.6425538,-0.06509708,0.64093643,-0.7648287,,-0.09488169,0.2376556,-0.09200503,0.7057494,0.27461386,0.6530735,-0.6957913,0.095112406,0.7119186,0.13338733,-0.95683897,0.25819948,,-0.017402118,0.4078292,-0.3646999,-0.37843263,0.73476064,-0.5629525,-0.90212935,-0.15660034,0.40204352,0.20724721,0.66000235,0.7221118,,0.9712417771939712,0.3190955996300825,0.17721321332,0.2273038987372244,0.2611123510517567,1.3778555290137287,-0.3987228654337758,,-1.2625278157439712,-0.12153264724167111,0.16787344387000003,0.20297986529301956,0.8799390584894365,-0.6288281880123032,0.8748708182151996,,-0.03261365873507904,-0.0856607596878817,0.08101381028,-0.06541713947960498,,2.8360635e-05,-1.0728836e-06,-5.1259995e-06,1.0,-2.4508685e-05,-2.0537525e-05,2.4508685e-05,1.0,-2.0861626e-06,2.0537525e-05,2.0861626e-06,1.0,688,2.151,0,1,0.89,False,-0.2564821056679656,1.0495632675595068
2.170879057026468,11:07:04.886372,11:06:00.937923,0,,0.12598382,0.0068709105,0.023273334,-0.62331617,-0.33189246,-0.70804256,-0.47477162,-0.55884427,0.67991525,-0.6213443,0.75996083,0.19076347,,0.05570309,-0.043519728,0.038739383,0.5160932,-0.66107005,0.5446413,-0.46399677,0.3187104,0.8265172,-0.71996856,-0.6792717,-0.14225024,,0.0773876,1.328317,0.45412612,0.99786496,0.04586654,-0.046494804,0.0052798316,-0.7662224,-0.6425538,-0.06509708,0.64093643,-0.7648287,,-0.094739206,0.2378224,-0.09185105,0.69852465,0.2843794,0.65665185,-0.70012856,0.08190236,0.70930386,0.14793007,-0.955207,0.25631297,,-0.017491512,0.40781602,-0.36471775,-0.37863025,0.7344639,-0.56320685,-0.9020508,-0.1565878,0.40222457,0.20722811,0.6603356,0.7218126,,0.9726550373099543,0.31875579938361664,0.17738561989,0.21912599094132792,0.2769621850245478,1.3771828632060281,-0.39790614510310407,,-1.2629602887849278,-0.12189561568675966,0.16789418451000002,0.20318955523650412,0.8802123314889674,-0.6287243088591339,0.8745441300829311,,-0.03261365873507904,-0.0856607596878817,0.08101381028,-0.06541713947960498,,2.8360635e-05,-1.0728836e-06,-5.1259995e-06,1.0,-2.4508685e-05,-2.0537525e-05,2.4508685e-05,1.0,-2.0861626e-06,2.0537525e-05,2.0861626e-06,1.0,701,2.192,0,1,0.89,False,-0.25624379479388093,1.0486942239454764
2.1998042840277776,11:07:04.924696,11:06:00.937923,0,,0.12586255,0.007014334,0.023243934,-0.6186175,-0.3344549,-0.71095175,-0.47406125,-0.5627155,0.6772128,-0.6265606,0.75597024,0.18955351,,0.055741496,-0.043513767,0.038745522,0.5163569,-0.66103894,0.544429,-0.46384227,0.3185256,0.8266752,-0.7198791,-0.67938864,-0.14214504,,0.0773876,1.328317,0.45412612,0.99786496,0.04586654,-0.046494804,0.0052798316,-0.7662224,-0.6425538,-0.06509708,0.64093643,-0.7648287,,-0.09462218,0.23792537,-0.091742225,0.6943027,0.28746873,0.65977687,-0.703319,0.07663978,0.706731,0.1525979,-0.9547188,0.25539342,,-0.017530672,0.40781897,-0.36471537,-0.37891242,0.73446053,-0.56302136,-0.90191764,-0.15680344,0.40243915,0.20729199,0.6602881,0.7218377,,0.9736126561863582,0.3186862947877486,0.17749710083,0.2134643624672458,0.28229100851539995,1.3764314295280526,-0.3985595213676416,,-1.2631919707711545,-0.12198056574837612,0.16790714741,0.20297986529301956,0.8803489679887329,-0.6285906905424086,0.8747074741490654,,-0.03261365873507904,-0.0856607596878817,0.08101381028,-0.06541713947960498,,2.8360635e-05,-1.0728836e-06,-5.1259995e-06,1.0,-2.4508685e-05,-2.0537525e-05,2.4508685e-05,1.0,-2.0861626e-06,2.0537525e-05,2.0861626e-06,1.0,714,2.233,0,1,0.89,False,-0.2561246393568388,1.0491770259532711
2.2381367640336975,11:07:04.965432,11:06:00.937923,0,,0.12578677,0.007224962,0.023268625,-0.6115289,-0.342925,-0.71304613,-0.46734726,-0.570638,0.67524713,-0.6384504,0.7461734,0.18869652,,0.055754878,-0.043505423,0.038749635,0.51641494,-0.6609813,0.5444441,-0.46380347,0.31856662,0.82668114,-0.7198624,-0.67942554,-0.14205295,,0.0773876,1.328317,0.45412612,0.99786496,0.04586654,-0.046494804,0.0052798316,-0.7662224,-0.6425538,-0.06509708,0.64093643,-0.7648287,,-0.09455837,0.23810999,-0.09163015,0.68805695,0.2971511,0.6620263,-0.706337,0.06513865,0.70487237,0.1663301,-0.952606,0.2547079,,-0.017544959,0.4078258,-0.36471146,-0.37897438,0.73440665,-0.56305,-0.9018871,-0.15680872,0.40250552,0.2073116,0.6603468,0.7217784,,0.9746552251243785,0.31872490845211976,0.17762284096000003,0.20696397421922555,0.29677447749053665,1.3749126529939428,-0.39921289763217827,,-1.2632923662985196,-0.1219728430155019,0.16791103628,0.20297986529301956,0.8803489679887329,-0.6285906905424086,0.8747074741490654,,-0.03261365873507904,-0.0856607596878817,0.08101381028,-0.06541713947960498,,2.8360635e-05,-1.0728836e-06,-5.1259995e-06,1.0,-2.4508685e-05,-2.0537525e-05,2.4508685e-05,1.0,-2.0861626e-06,2.0537525e-05,2.0861626e-06,1.0,723,2.262,0,1,0.89,False,-0.25582675076423333,1.04927358635483
2.2788781790295616,11:07:04.988514,11:06:00.937923,0,,0.12574251,0.007377699,0.023299634,-0.60530967,-0.34801736,-0.71587986,-0.46182367,-0.57896507,0.67195106,-0.6483201,0.73734885,0.18973048,,0.055754468,-0.04350435,0.038746774,0.5164098,-0.6609893,0.5444392,-0.46379977,0.3185653,0.82668376,-0.7198685,-0.6794183,-0.1420565,,0.0773876,1.328317,0.45412612,0.99786496,0.04586654,-0.046494804,0.0052798316,-0.7662224,-0.6425538,-0.06509708,0.64093643,-0.7648287,,-0.09452395,0.23825116,-0.09155849,0.6825414,0.3034013,0.66489464,-0.7089116,0.05362743,0.7032556,0.17771207,-0.9513526,0.25168765,,-0.017544199,0.4078246,-0.36470872,-0.3789686,0.7344136,-0.5630448,-0.901888,-0.15680347,0.40250552,0.20731816,0.6603403,0.72178245,,0.9753657165488071,0.3187403539178682,0.17770839610000003,0.20130234574514336,0.3087984894698954,1.3762978648679147,-0.39872286543377555,,-1.2632846435656453,-0.12196512028262768,0.16791362886000002,0.20297986529301956,0.8803489679887329,-0.6285906905424086,0.8747074741490654,,-0.03261365873507904,-0.0856607596878817,0.08101381028,-0.06541713947960498,,2.8360635e-05,-1.0728836e-06,-5.1259995e-06,1.0,-2.4508685e-05,-2.0537525e-05,2.4508685e-05,1.0,-2.0861626e-06,2.0537525e-05,2.0861626e-06,1.0,736,2.303,0,1,0.89,False,-0.25642252794944387,1.0492253061540504
2.3019328269874677,11:07:05.035044,11:06:00.937923,0,,0.12569848,0.0075232536,0.023351386,-0.5951526,-0.35481718,-0.7210396,-0.45831984,-0.587149,0.66723216,-0.66010314,0.7275718,0.1868235,,0.055754855,-0.043507062,0.038743317,0.51640207,-0.660992,0.5444432,-0.46381724,0.31855583,0.8266775,-0.7198628,-0.6794201,-0.14207661,,0.0773876,1.328317,0.45412612,0.99786496,0.04586654,-0.046494804,0.0052798316,-0.7662224,-0.6425538,-0.06509708,0.64093643,-0.7648287,,-0.09449136,0.2383999,-0.091507345,0.673375,0.31143185,0.6705045,-0.71461576,0.04178245,0.69826823,0.18944766,-0.94934946,0.25068936,,-0.017543923,0.40782025,-0.3647082,-0.3789608,0.7344171,-0.5630455,-0.90189517,-0.15681095,0.40248656,0.20730132,0.66033465,0.7217924,,0.9759989806444935,0.31873263118499395,0.17777580318000002,0.19060815862743263,0.3215056839480814,1.3749206612396094,-0.3990495535660441,,-1.263269198099897,-0.12198056574837612,0.16791622144,0.20297986529301956,0.8803489679887329,-0.6285906905424086,0.8747074741490654,,-0.03261365873507904,-0.0856607596878817,0.08101381028,-0.06541713947960498,,2.8360635e-05,-1.0728836e-06,-5.1259995e-06,1.0,-2.4508685e-05,-2.0537525e-05,2.4508685e-05,1.0,-2.0861626e-06,2.0537525e-05,2.0861626e-06,1.0,749,2.344,0,1,0.89,False,-0.2561842170753601,1.049370146756389
2.348452292033471,11:07:05.082968,11:06:01.119812,0,,0.12567724,0.0076307505,0.023432657,-0.58196723,-0.35769102,-0.73032266,-0.45715833,-0.5988269,0.6575808,-0.6725476,0.71656364,0.18497615,,0.055757806,-0.04350602,0.03874308,0.5164187,-0.66104907,0.5443581,-0.4637015,0.31855452,0.826743,-0.7199254,-0.6793653,-0.14202186,,0.0773876,1.328317,0.45412612,0.99786496,0.04586654,-0.046494804,0.0052798316,-0.7662224,-0.6425538,-0.06509708,0.64093643,-0.7648287,,-0.09448252,0.23853594,-0.09150221,0.66136086,0.31582528,0.68033534,-0.72282094,0.026107218,0.69054204,0.20032899,-0.94845814,0.24555142,,-0.017546853,0.40782037,-0.3647071,-0.37897462,0.7344655,-0.5629731,-0.9018601,-0.15676539,0.40258288,0.20742853,0.6602917,0.7217952,,0.9763619490895821,0.31872490845211976,0.17779784011000002,0.17592986258351595,0.33352969592744014,1.3776127329558303,-0.39692608070629865,,-1.2632846435656453,-0.12198828848125036,0.16791881402000003,0.20297986529301956,0.8804856044884982,-0.628538750965824,0.8747074741490655,,-0.03261365873507904,-0.0856607596878817,0.08101381028,-0.06541713947960498,,2.8360635e-05,-1.0728836e-06,-5.1259995e-06,1.0,-2.4508685e-05,-2.0537525e-05,2.4508685e-05,1.0,-2.0861626e-06,2.0537525e-05,2.0861626e-06,1.0,758,2.372,0,1,0.89,False,-0.25540970673458663,1.049514987358727
2.396402101032436,11:07:05.107073,11:06:01.119812,0,,0.12567602,0.007661611,0.023463488,-0.57768905,-0.36062297,-0.7322748,-0.45642042,-0.6010473,0.65606594,-0.6767242,0.71322733,0.1826227,,0.055761375,-0.04350432,0.038740814,0.51642776,-0.6611286,0.54425293,-0.4636964,0.3184255,0.8267955,-0.7199221,-0.67934835,-0.14211926,,0.0773876,1.328317,0.45412612,0.99786496,0.04586654,-0.046494804,0.0052798316,-0.7662224,-0.6425538,-0.06509708,0.64093643,-0.7648287,,-0.09448553,0.23857929,-0.09150627,0.6574597,0.31914878,0.682562,-0.7252934,0.022562195,0.68807006,0.20419663,-0.94743603,0.24631023,,-0.01755014,0.40781948,-0.36470407,-0.3789843,0.73454875,-0.5628579,-0.9018556,-0.15683267,0.40256673,0.20743039,0.6601831,0.721894,,0.9764468991511985,0.3187171857192455,0.17780043269,0.1713166838268564,0.3377654274201688,1.3759557102243334,-0.39953958576444704,,-1.2633000890313937,-0.12198828848125036,0.16792270289000003,0.20297986529301956,0.8804856044884982,-0.6283753934855428,0.875034162281334,,-0.03261365873507904,-0.0856607596878817,0.08101381028,-0.06541713947960498,,2.8360635e-05,-1.0728836e-06,-5.1259995e-06,1.0,-2.4508685e-05,-2.0537525e-05,2.4508685e-05,1.0,-2.0861626e-06,2.0537525e-05,2.0861626e-06,1.0,771,2.413,0,1,0.89,False,-0.25582675076423333,1.0496115477602863
2.4205134420190006,11:07:05.146598,11:06:01.119812,0,,0.12561502,0.007726744,0.023536205,-0.56807125,-0.36195806,-0.7391085,-0.4584663,-0.6066406,0.64945805,-0.6834498,0.70779485,0.17866945,,0.05577097,-0.043500923,0.038737416,0.51645553,-0.6612304,0.5441029,-0.46368754,0.31823936,0.82687217,-0.71990794,-0.6793364,-0.14224789,,0.0773876,1.328317,0.45412612,0.99786496,0.04586654,-0.046494804,0.0052798316,-0.7662224,-0.6425538,-0.06509708,0.64093643,-0.7648287,,-0.094434455,0.23868105,-0.09152329,0.6486059,0.32122672,0.6900173,-0.7320154,0.0149491895,0.6811241,0.20848006,-0.94688433,0.24483903,,-0.01755932,0.40781814,-0.36469868,-0.37901425,0.73465794,-0.5626952,-0.9018434,-0.1569403,0.40255204,0.2074285,0.6600359,0.7220291,,0.9768793721921551,0.3187480766507424,0.17778746979,0.15957404699172303,0.34282097791149013,1.3753454336136102,-0.3987228654337758,,-1.263346425428639,-0.12199601121412458,0.16793048063000002,0.20297986529301956,0.8804856044884982,-0.6281303572651211,0.8748708182151996,,-0.03261365873507904,-0.0856607596878817,0.08101381028,-0.06541713947960498,,2.8360635e-05,-1.0728836e-06,-5.1259995e-06,1.0,-2.4508685e-05,-2.0537525e-05,2.4508685e-05,1.0,-2.0861626e-06,2.0537525e-05,2.0861626e-06,1.0,780,2.442,0,1,0.89,False,-0.254694774112334,1.049080465551712
2.4600357230519876,11:07:05.170195,11:06:01.119812,0,,0.12550749,0.007795453,0.023619369,-0.5612207,-0.3627182,-0.74395347,-0.45913228,-0.61143905,0.64446855,-0.6886427,0.7032622,0.17661656,,0.055780336,-0.043505363,0.03873688,0.5164928,-0.66123545,0.5440613,-0.46349323,0.31836158,0.8269341,-0.72000635,-0.6792742,-0.14204678,,0.0773876,1.328317,0.45412612,0.99786496,0.04586654,-0.046494804,0.0052798316,-0.7662224,-0.6425538,-0.06509708,0.64093643,-0.7648287,,-0.09433822,0.23879647,-0.09154807,0.6423019,0.32261434,0.6952469,-0.7364494,0.008463136,0.67643964,0.21234517,-0.9464927,0.24302503,,-0.017568244,0.4078133,-0.36470088,-0.3790475,0.7346471,-0.562687,-0.90178126,-0.15681042,0.4027419,0.20763798,0.6600789,0.7219296,,0.9776439227467033,0.31873263118499395,0.17776543286000002,0.15118644925234206,0.3473299824037496,1.3752625073578129,-0.39953958576444704,,-1.263377316360136,-0.12205779307711838,0.16793566579000002,0.20297986529301956,0.8807588774880291,-0.6281898355922328,0.8745441300829311,,-0.03261365873507904,-0.0856607596878817,0.08101381028,-0.06541713947960498,,2.8360635e-05,-1.0728836e-06,-5.1259995e-06,1.0,-2.4508685e-05,-2.0537525e-05,2.4508685e-05,1.0,-2.0861626e-06,2.0537525e-05,2.0861626e-06,1.0,793,2.483,0,1,0.89,False,-0.25588632848275505,1.0493218665556094
2.483600943000056,11:07:05.216097,11:06:01.119812,0,,0.12530589,0.007924855,0.023802817,-0.55561334,-0.3656729,-0.7467109,-0.45451838,-0.61843604,0.6410536,-0.69620883,0.69557184,0.1774062,,0.05579096,-0.043517075,0.03873259,0.5165126,-0.661346,0.5439082,-0.46345437,0.3182018,0.82701737,-0.7200172,-0.67924154,-0.1421485,,0.0773876,1.328317,0.45412612,0.99786496,0.04586654,-0.046494804,0.0052798316,-0.7662224,-0.6425538,-0.06509708,0.64093643,-0.7648287,,-0.094160385,0.23903078,-0.09161532,0.63722163,0.32657441,0.6980672,-0.7382094,-0.0015067895,0.6745699,0.2213491,-0.9451703,0.24012016,,-0.017577454,0.40780056,-0.3647055,-0.3790677,0.73476034,-0.56252545,-0.9017644,-0.15688379,0.40275112,0.20767443,0.65993536,0.7220503,,0.9793120330475359,0.3187480766507424,0.17770580352,0.14531513083477537,0.35703117388709593,1.3756013889495637,-0.3988862094999097,,-1.2633850390930101,-0.1221581886044833,0.16794214724,0.20297986529301956,0.8808955139877945,-0.6279745385353669,0.8748708182151996,,-0.03261365873507904,-0.0856607596878817,0.08101381028,-0.06541713947960498,,2.8360635e-05,-1.0728836e-06,-5.1259995e-06,1.0,-2.4508685e-05,-2.0537525e-05,2.4508685e-05,1.0,-2.0861626e-06,2.0537525e-05,2.0861626e-06,1.0,806,2.524,0,1,0.89,False,-0.25558843989015,1.049370146756389
2.529538467992097,11:07:05.260793,11:06:01.328147,0,,0.12507641,0.008126602,0.024019495,-0.54863113,-0.37298024,-0.7482577,-0.4449587,-0.6274413,0.6390063,-0.70782447,0.6835225,0.178273,,0.055801623,-0.043522768,0.038732827,0.5166666,-0.6614342,0.5436548,-0.4633476,0.3179476,0.8271749,-0.7199755,-0.6792748,-0.14220107,,0.0773876,1.328317,0.45412612,0.99786496,0.04586654,-0.046494804,0.0052798316,-0.7662224,-0.6425538,-0.06509708,0.64093643,-0.7648287,,-0.09396108,0.23934428,-0.09166319,0.63093084,0.3353566,0.6996158,-0.7388561,-0.015373371,0.6736879,0.23668112,-0.9419658,0.23808073,,-0.017587693,0.4077952,-0.36470902,-0.37923178,0.73486644,-0.5622763,-0.90168244,-0.15707263,0.40286103,0.20773083,0.65977234,0.72218305,,0.9814048936564507,0.3187712448493651,0.17767858143,0.1392341224737242,0.3732909173591833,1.3742677544702118,-0.3992128976321785,,-1.2634313754902555,-0.12222769320035132,0.16794603611000003,0.20277017534953504,0.88103215048756,-0.6278409202186417,0.8747074741490654,,-0.03261365873507904,-0.0856607596878817,0.08101381028,-0.06541713947960498,,2.8360635e-05,-1.0728836e-06,-5.1259995e-06,1.0,-2.4508685e-05,-2.0537525e-05,2.4508685e-05,1.0,-2.0861626e-06,2.0537525e-05,2.0861626e-06,1.0,815,2.552,0,1,0.89,False,-0.2557075953271921,1.048983905150153
2.5742285860469565,11:07:05.287479,11:06:01.328147,0,,0.12491684,0.008296043,0.02418296,-0.5424329,-0.37896883,-0.74976605,-0.43538243,-0.6364568,0.6366826,-0.7184766,0.67179257,0.1802387,,0.055808276,-0.043524824,0.03873396,0.51668715,-0.66144633,0.5436202,-0.4633624,0.3178854,0.8271905,-0.71995115,-0.67929196,-0.14224216,,0.0773876,1.328317,0.45412612,0.99786496,0.04586654,-0.046494804,0.0052798316,-0.7662224,-0.6425538,-0.06509708,0.64093643,-0.7648287,,-0.093824975,0.2395928,-0.091687724,0.6253299,0.34279782,0.7010365,-0.73880756,-0.029168438,0.67328495,0.25124875,-0.93895626,0.23502171,,-0.017594323,0.4077936,-0.36471087,-0.37925485,0.7348845,-0.562237,-0.90167874,-0.1571265,0.40284824,0.2077046,0.6597394,0.7222207,,0.982964885697044,0.3187480766507424,0.17767987772000002,0.1344112537735801,0.3887308418326781,1.3746644510348656,-0.3977428010369697,,-1.2634622664217525,-0.12225858413184822,0.1679473324,0.20277017534953504,0.88103215048756,-0.6277592414785012,0.8748708182151996,,-0.03261365873507904,-0.0856607596878817,0.08101381028,-0.06541713947960498,,2.8360635e-05,-1.0728836e-06,-5.1259995e-06,1.0,-2.4508685e-05,-2.0537525e-05,2.4508685e-05,1.0,-2.0861626e-06,2.0537525e-05,2.0861626e-06,1.0,828,2.593,0,1,0.89,False,-0.25624379479388093,1.0491287457524916
2.6009198980173096,11:07:05.326591,11:06:01.328147,0,,0.124717146,0.008478448,0.02433227,-0.531309,-0.38208708,-0.75612175,-0.43032858,-0.6470808,0.62936777,-0.72974515,0.6597696,0.1793768,,0.05581373,-0.043526553,0.038737178,0.5167148,-0.66143954,0.5436022,-0.46326017,0.31795248,0.827222,-0.71999705,-0.67926717,-0.14212793,,0.0773876,1.328317,0.45412612,0.99786496,0.04586654,-0.046494804,0.0052798316,-0.7662224,-0.6425538,-0.06509708,0.64093643,-0.7648287,,-0.0936482,0.2398461,-0.09169485,0.6150858,0.3474819,0.7077611,-0.7430844,-0.04465261,0.6677064,0.26361927,-0.9366229,0.2307432,,-0.01760008,0.40779388,-0.364714,-0.37928113,0.73487043,-0.56223774,-0.9016431,-0.1570631,0.40295267,0.2078112,0.65977013,0.72216195,,0.984578936867757,0.3187094629863713,0.17769543320000003,0.12245892699496222,0.4022578553094566,1.3753958171491607,-0.398722865433776,,-1.2634931573532493,-0.12228947506334512,0.1679473324,0.20277017534953504,0.8811687869873255,-0.6277889806420571,0.8747074741490654,,-0.03261365873507904,-0.0856607596878817,0.08101381028,-0.06541713947960498,,2.8360635e-05,-1.0728836e-06,-5.1259995e-06,1.0,-2.4508685e-05,-2.0537525e-05,2.4508685e-05,1.0,-2.0861626e-06,2.0537525e-05,2.0861626e-06,1.0,837,2.622,0,1,0.89,False,-0.25558843989015,1.0492253061540504
2.639991195057519,11:07:05.351801,11:06:01.328147,0,,0.12465882,0.0085641295,0.024388358,-0.5257053,-0.38544333,-0.75833195,-0.42725003,-0.6512232,0.6271887,-0.7355891,0.6537138,0.17767072,,0.05581545,-0.04352846,0.038735986,0.51671606,-0.6614773,0.5435552,-0.46327257,0.31788152,0.8272424,-0.7199881,-0.6792636,-0.14218986,,0.0773876,1.328317,0.45412612,0.99786496,0.04586654,-0.046494804,0.0052798316,-0.7662224,-0.6425538,-0.06509708,0.64093643,-0.7648287,,-0.09359917,0.23995286,-0.091685854,0.6099173,0.35156414,0.7102138,-0.74493515,-0.051356293,0.66515726,0.27031937,-0.9347541,0.23056939,,-0.017601501,0.40779147,-0.3647144,-0.379283,0.73491114,-0.56218326,-0.9016458,-0.15710497,0.40293038,0.20779623,0.6597148,0.7222168,,0.9851195281689527,0.3187094629863713,0.17771876642,0.11679729852088007,0.409499589797025,1.373901320220841,-0.39937624169831265,,-1.2634931573532493,-0.12230492052909356,0.16794862869000002,0.20277017534953504,0.8811687869873255,-0.6277073019019164,0.8745441300829311,,-0.03261365873507904,-0.0856607596878817,0.08101381028,-0.06541713947960498,,2.8360635e-05,-1.0728836e-06,-5.1259995e-06,1.0,-2.4508685e-05,-2.0537525e-05,2.4508685e-05,1.0,-2.0861626e-06,2.0537525e-05,2.0861626e-06,1.0,850,2.663,0,1,0.89,False,-0.25558843989015,1.048983905150153
2.6652096490142867,11:07:05.392313,11:06:01.473824,0,,0.124645114,0.008712158,0.024490401,-0.51028025,-0.3959166,-0.7634553,-0.42029732,-0.65968955,0.6230247,-0.75030935,0.6387955,0.17022385,,0.055815242,-0.04353624,0.03873551,0.51696557,-0.66146237,0.543336,-0.4629127,0.31788534,0.8274423,-0.7200405,-0.67927635,-0.14186361,,0.0773876,1.328317,0.45412612,0.99786496,0.04586654,-0.046494804,0.0052798316,-0.7662224,-0.6425538,-0.06509708,0.64093643,-0.7648287,,-0.09360152,0.24013253,-0.09167051,0.5956308,0.36373752,0.7161836,-0.75033534,-0.06632903,0.65772134,0.2867417,-0.92913693,0.23341751,,-0.0176008,0.4077857,-0.36471966,-0.37954187,0.73489803,-0.56202567,-0.9014657,-0.15711333,0.40332985,0.2081046,0.6597274,0.7221165,,0.985474773881167,0.31870174025349707,0.17777580318000002,0.10148993264650978,0.4272623347665323,1.3673398305339404,-0.39823283323537284,,-1.2634854346203752,-0.12236670239208736,0.16794992498000003,0.20235079546256599,0.8815786964866218,-0.6280415556130057,0.8748708182151996,,-0.03261365873507904,-0.0856607596878817,0.08101381028,-0.06541713947960498,,2.8360635e-05,-1.0728836e-06,-5.1259995e-06,1.0,-2.4508685e-05,-2.0537525e-05,2.4508685e-05,1.0,-2.0861626e-06,2.0537525e-05,2.0861626e-06,1.0,859,2.692,0,1,0.89,False,-0.25540970673458663,1.0491770259532711
2.7057581710396335,11:07:05.419257,11:06:01.473824,0,,0.124639556,0.008810967,0.024473801,-0.498146,-0.40308097,-0.7677084,-0.42073733,-0.6618028,0.6204813,-0.75817585,0.6320939,0.16008316,,0.055816516,-0.04354357,0.038734198,0.5170789,-0.6614792,0.54320776,-0.46292186,0.31768835,0.82751286,-0.7199533,-0.6793521,-0.14194337,,0.0773876,1.328317,0.45412612,0.99786496,0.04586654,-0.046494804,0.0052798316,-0.7662224,-0.6425538,-0.06509708,0.64093643,-0.7648287,,-0.0935988,0.24019851,-0.09159494,0.5843087,0.37157813,0.7214659,-0.7567783,-0.07152687,0.64974654,0.29303578,-0.92564225,0.23940848,,-0.017601458,0.40777948,-0.36472386,-0.37966597,0.7349367,-0.56189126,-0.9014274,-0.157302,0.40334192,0.20804416,0.65963936,0.72221434,,0.9854361602167959,0.31870174025349707,0.17786913606000002,0.08765039637653119,0.4343674327543352,1.3585239861565257,-0.398396177301507,,-1.263477711887501,-0.1224130387893327,0.16794992498000003,0.2021411055190815,0.8815786964866218,-0.6280415556130057,0.8748708182151996,,-0.03261365873507904,-0.0856607596878817,0.08101381028,-0.06541713947960498,,2.8360635e-05,-1.0728836e-06,-5.1259995e-06,1.0,-2.4508685e-05,-2.0537525e-05,2.4508685e-05,1.0,-2.0861626e-06,2.0537525e-05,2.0861626e-06,1.0,872,2.733,0,1,0.89,False,-0.2548735072678969,1.0495632675595068
2.732700447086245,11:07:05.459671,11:06:01.473824,0,,0.12466106,0.008943483,0.02450201,-0.48279643,-0.42138487,-0.7676863,-0.41599193,-0.66105133,0.6244692,-0.77062196,0.6208429,0.14386052,,0.05582708,-0.04356613,0.038734376,0.51709473,-0.6613949,0.5432954,-0.46293765,0.31777915,0.8274691,-0.7199317,-0.67939174,-0.14186278,,0.0773876,1.328317,0.45412612,0.99786496,0.04586654,-0.046494804,0.0052798316,-0.7662224,-0.6425538,-0.06509708,0.64093643,-0.7648287,,-0.09362865,0.24031624,-0.09153119,0.56998396,0.3907946,0.7227709,-0.76243013,-0.0763639,0.64254874,0.3062982,-0.9173048,0.25442737,,-0.017610667,0.40776232,-0.36473936,-0.37968388,0.73485416,-0.56198716,-0.9014257,-0.15727808,0.40335506,0.20801887,0.65973705,0.7221324,,0.985374378353802,0.3186940175206228,0.17797154297,0.07192365061519186,0.4488509017294719,1.3390358867914922,-0.3987228654337758,,-1.2634699891546266,-0.12257521617969142,0.16794992498000003,0.2021411055190815,0.8817153329863873,-0.6281529735167022,0.8748708182151996,,-0.03261365873507904,-0.0856607596878817,0.08101381028,-0.06541713947960498,,2.8360635e-05,-1.0728836e-06,-5.1259995e-06,1.0,-2.4508685e-05,-2.0537525e-05,2.4508685e-05,1.0,-2.0861626e-06,2.0537525e-05,2.0861626e-06,1.0,885,2.774,0,1,0.89,False,-0.256541683386486,1.0491770259532711
