AlexandreBanks6/ExpertPlaybackApp/resources/Motions/Pilot_02/PC1/Data_PC1_9.csv
Task Time,PC1 Time,PC2 Time,Gaze Calib,s_T_psm1,Tx,Ty,Tz,R00,R01,R02,R10,R11,R12,R20,R21,R22,s_T_psm3,Tx,Ty,Tz,R00,R01,R02,R10,R11,R12,R20,R21,R22,cart_T_ecm,Tx,Ty,Tz,R00,R01,R02,R10,R11,R12,R20,R21,R22,ecm_T_psm1,Tx,Ty,Tz,R00,R01,R02,R10,R11,R12,R20,R21,R22,ecm_T_psm3,Tx,Ty,Tz,R00,R01,R02,R10,R11,R12,R20,R21,R22,psm1_joints,q1,q2,q3,q4,q5,q6,jaw,psm3_joints,q1,q2,q3,q4,q5,q6,jaw,ecm_joints,q1,q2,q3,q4,ecmi_T_ecm,Tx,Ty,Tz,R00,R01,R02,R10,R11,R12,R20,R21,R22,Sample #,Task Duration (s),Collisions (binary),Collisions (increments),Cumulative Collision Time (s),Clutch Press,MTMR Angle,MTML Angle
""
lci_T_si,,,,,-0.06456479,0.007406022,0.24720375,0.9973357,0.020147903,0.070111655,0.061827518,-0.74354374,-0.66582286,0.038716145,0.6683837,-0.74280834
rci_T_si,,,,,-0.0744026,0.011494783,0.25608665,0.9940877,0.004322488,0.1084939,0.07677014,-0.7345955,-0.67414826,0.07678513,0.6784916,-0.73058414
ecm_T_lc,,,,,-4.4061628e-05,-0.00034663224,-0.01840835,-0.99912,0.030754527,0.028518902,-0.031987965,-0.99852574,-0.043852776,0.027128186,-0.04472645,0.9986309
ecm_T_rc,,,,,-0.0043358393,0.01870579,-0.007592615,-0.99555075,-0.052743673,-0.078081585,0.04863213,-0.9973746,0.053654674,-0.08070653,0.04961868,0.9955021
cart_T_ecmi,,,,,0.107823744,1.3464102,0.44466496,0.99667186,-0.0035817337,-0.081439786,-0.054998454,-0.76694757,-0.63934857,-0.06017007,0.64169973,-0.76459205
ecmac_T_ecmrep_psm1,,,,,0.0019077883,-0.24418817,-0.31129345,0.9990406,0.03670117,0.023893757,-0.03487346,0.99673134,-0.072872825,-0.026490174,0.07196965,0.997055
ecmac_T_ecmrep_psm3,,,,,-0.025437847,-0.43631262,-0.5392238,0.9997681,0.02112905,0.0041644988,-0.020983119,0.99925387,-0.03242474,-0.0048464956,0.032329835,0.9994655
""
0,16:59:44.390454,16:59:28.629212,0,,0.12084809,0.0015208721,0.010974392,0.9680683,0.16310671,-0.19036786,0.06615106,0.5662618,0.82156646,0.24180108,-0.80792564,0.5373904,,0.044969067,-0.027925596,0.026055932,0.33325082,0.57927746,0.74389607,-0.48191428,-0.5734912,0.66247,0.8103719,-0.57926273,0.08804566,,0.10793332,1.3464053,0.44466895,0.99666566,-0.0036675744,-0.08151134,-0.055110008,-0.7669472,-0.63933945,-0.06017007,0.64169973,-0.76459205,,-0.074648514,0.2577836,-0.07333348,-0.9833904,-0.11558946,0.13993727,0.15154403,-0.098586954,0.98352176,-0.099888764,0.9883925,0.114466354,,0.019992834,0.443929,-0.32780066,-0.40236074,-0.5149021,-0.7569555,0.16709596,-0.8542549,0.49226776,-0.9001027,0.07158501,0.42975667,,0.9418645013404212,0.33501987481673345,0.21028286751000003,4.047225599194804,-0.19484364866551807,-1.6584700374564127,-0.4152206161133376,,-0.7535302147367081,0.12357144872046638,0.18642205748000001,-0.9467500948326275,-0.8728339605016335,-0.9754184875307136,0.8186804594650077,,-0.04375976767062783,-0.08274169651392119,0.07694186708,-0.052660797281082014,,0.00010923855,6.020069e-06,-8.940697e-06,1.0,-8.557364e-05,-7.181987e-05,8.5581094e-05,1.0,-6.735325e-06,7.182732e-05,6.765127e-06,1.0,35,0.105,0,0,0.0,False,-0.26339312101640555,0.9942341574662472
0.12605269798950758,16:59:44.423907,16:59:28.711483,0,,0.12078647,0.0014546514,0.011416733,0.96782696,0.16233796,-0.19224283,0.067782894,0.56757265,0.8205283,0.2423147,-0.8071603,0.5383084,,0.04491359,-0.027942419,0.026176453,0.33280277,0.5783597,0.7448102,-0.4832037,-0.5736698,0.6613752,0.8097879,-0.58000255,0.08854669,,0.10793332,1.3464053,0.44466895,0.99666566,-0.0036675744,-0.08151134,-0.055110008,-0.7669472,-0.63933945,-0.06017007,0.64169973,-0.76459205,,-0.074616626,0.25802183,-0.07371566,-0.98321056,-0.114895955,0.14176014,0.15313272,-0.097050756,0.9834285,-0.09923402,0.98862535,0.11301566,,0.020036887,0.44400185,-0.3279038,-0.40184376,-0.5139165,-0.7578994,0.16578694,-0.85481757,0.4917333,-0.9005755,0.071950145,0.42870373,,0.9425209336347303,0.3355064069878096,0.20986157326000002,4.045128699759959,-0.19470701216575265,-1.658989849060812,-0.415710648311741,,-0.7535379374695823,0.12378768524094466,0.18629113219000001,-0.9446531953977823,-0.872970597001399,-0.9760421782882822,0.8191704916634104,,-0.04375976767062783,-0.08274169651392119,0.07694186708,-0.052660797281082014,,0.00010923855,6.020069e-06,-8.940697e-06,1.0,-8.557364e-05,-7.181987e-05,8.5581094e-05,1.0,-6.735325e-06,7.182732e-05,6.765127e-06,1.0,47,0.142,0,0,0.0,False,-0.2632143878608417,0.9940893168639089
0.15950061100011226,16:59:44.461385,16:59:28.711483,0,,0.12071427,0.0013797134,0.0117504,0.9678192,0.16191836,-0.19263512,0.06821644,0.56802654,0.8201782,0.24222378,-0.8069253,0.5387015,,0.044875942,-0.027951106,0.026276529,0.33200473,0.57854205,0.74502474,-0.4831946,-0.5740215,0.66107666,0.8101209,-0.5794724,0.08897051,,0.10793332,1.3464053,0.44466895,0.99666566,-0.0036675744,-0.08151134,-0.055110008,-0.7669472,-0.63933945,-0.06017007,0.64169973,-0.76459205,,-0.074566536,0.25818396,-0.07402122,-0.9832033,-0.114500746,0.14212966,0.153405,-0.09652949,0.9834373,-0.0988846,0.9887222,0.1124731,,0.020065019,0.4440656,-0.32798535,-0.4010809,-0.5141437,-0.7581493,0.16607617,-0.8547325,0.49178353,-0.9008623,0.071334444,0.42820388,,0.9430924158674229,0.3357226435082879,0.20953231560000002,4.044499629929506,-0.19470701216575265,-1.658989849060812,-0.415710648311741,,-0.7535302147367081,0.12394213989842916,0.18619261415000002,-0.9446531953977823,-0.8739270524997571,-0.9759156828835319,0.8191704916634102,,-0.04375976767062783,-0.08274169651392119,0.07694186708,-0.052660797281082014,,0.00010923855,6.020069e-06,-8.940697e-06,1.0,-8.557364e-05,-7.181987e-05,8.5581094e-05,1.0,-6.735325e-06,7.182732e-05,6.765127e-06,1.0,62,0.187,0,0,0.0,False,-0.26273776611267374,0.994330717867806
0.19697802400332876,16:59:44.497581,16:59:28.711483,0,,0.12059734,0.0012713671,0.012153491,0.96728617,0.16102377,-0.19603203,0.07130408,0.5690113,0.81923246,0.24346036,-0.8064103,0.53891504,,0.04483193,-0.027973935,0.026397169,0.3312362,0.5789813,0.7450255,-0.48303866,-0.5742306,0.6610091,0.8105284,-0.57882625,0.08946431,,0.10793332,1.3464053,0.44466895,0.99666566,-0.0036675744,-0.08151134,-0.055110008,-0.7669472,-0.63933945,-0.06017007,0.64169973,-0.76459205,,-0.07447611,0.25836793,-0.07440316,-0.9828052,-0.11365934,0.14551795,0.15658604,-0.09539621,0.9830465,-0.09785055,0.9889293,0.11155336,,0.020097718,0.44413328,-0.32809195,-0.4003563,-0.5146394,-0.75819594,0.16652142,-0.85448307,0.49206638,-0.90110236,0.07074601,0.42779616,,0.9438724118877195,0.3358230390356528,0.20912657683000002,4.040725210946784,-0.19484364866551807,-1.659041788637397,-0.41538396017947243,,-0.7535147692709596,0.1240502581586683,0.1860694666,-0.9448628853412668,-0.8748835079981152,-0.9759525449590625,0.8191704916634104,,-0.04375976767062783,-0.08274169651392119,0.07694186708,-0.052660797281082014,,0.00010923855,6.020069e-06,-8.940697e-06,1.0,-8.557364e-05,-7.181987e-05,8.5581094e-05,1.0,-6.735325e-06,7.182732e-05,6.765127e-06,1.0,70,0.211,0,0,0.0,False,-0.2632143878608417,0.9941858772654677
0.2331773269979749,16:59:44.521918,16:59:28.711483,0,,0.120516375,0.0012010485,0.012391552,0.96661377,0.16026318,-0.1999336,0.07479541,0.5698132,0.8183633,0.24507833,-0.8059955,0.53880227,,0.044800073,-0.028000906,0.02649951,0.33051288,0.579279,0.7451154,-0.48260438,-0.57473403,0.6608887,0.8110821,-0.57802814,0.0896056,,0.10793332,1.3464053,0.44466895,0.99666566,-0.0036675744,-0.08151134,-0.055110008,-0.7669472,-0.63933945,-0.06017007,0.64169973,-0.76459205,,-0.07441073,0.2584724,-0.07463333,-0.98230064,-0.11294182,0.149431,0.1603286,-0.09447445,0.9825321,-0.09685154,0.9891,0.11091011,,0.020120095,0.4441847,-0.3281872,-0.39969385,-0.515005,-0.75829726,0.16726656,-0.85433745,0.49206644,-0.9012584,0.069838166,0.42761654,,0.9443666667916699,0.33581531630277855,0.20888417060000003,4.036531412077093,-0.1949802851652835,-1.659012049473841,-0.415383960179472,,-0.7535070465380854,0.1240811490901652,0.1859657634,-0.9454919551717204,-0.8758399634964732,-0.9754176558536091,0.8193338357295445,,-0.04375976767062783,-0.08274169651392119,0.07694186708,-0.052660797281082014,,0.00010923855,6.020069e-06,-8.940697e-06,1.0,-8.557364e-05,-7.181987e-05,8.5581094e-05,1.0,-6.735325e-06,7.182732e-05,6.765127e-06,1.0,78,0.236,0,0,0.0,False,-0.26339312101640555,0.9949100802771598
0.25748322300205473,16:59:44.556568,16:59:28.839181,0,,0.12035637,0.0011182427,0.012827322,0.96561456,0.1592933,-0.20546046,0.079605564,0.57117546,0.8169587,0.24749003,-0.80522317,0.5388547,,0.044781774,-0.028018236,0.02655065,0.33051288,0.57952243,0.74492615,-0.48260438,-0.5745181,0.6610764,0.8110821,-0.5779988,0.08979443,,0.10793332,1.3464053,0.44466895,0.99666566,-0.0036675744,-0.08151134,-0.055110008,-0.7669472,-0.63933945,-0.06017007,0.64169973,-0.76459205,,-0.074279994,0.25869936,-0.07502545,-0.98154557,-0.11204899,0.15496214,0.16560672,-0.09288313,0.98180807,-0.095617235,0.98935217,0.109725095,,0.02013369,0.44420776,-0.32823753,-0.39969385,-0.5152527,-0.75812894,0.16726656,-0.85417664,0.49234554,-0.9012584,0.06997787,0.4275937,,0.9454478493940613,0.3359543254945146,0.20846287635000002,4.030450403716043,-0.1955268311643453,-1.6588930928196175,-0.4155473042456064,,-0.7535070465380854,0.1240811490901652,0.18590872664000002,-0.9454919551717204,-0.8758399634964732,-0.9757443708141715,0.8203139001263502,,-0.04375976767062783,-0.08274169651392119,0.07694186708,-0.052660797281082014,,0.00010923855,6.020069e-06,-8.940697e-06,1.0,-8.557364e-05,-7.181987e-05,8.5581094e-05,1.0,-6.735325e-06,7.182732e-05,6.765127e-06,1.0,89,0.269,0,0,0.0,False,-0.26309523242380006,0.998531095335619
0.2921592769998824,16:59:44.582220,16:59:28.839181,0,,0.12027201,0.0011038482,0.013016149,0.96511257,0.15860984,-0.20832786,0.0821455,0.57205945,0.81608826,0.24861556,-0.8047304,0.5390727,,0.04477877,-0.028026551,0.02657032,0.33013588,0.5796319,0.74500805,-0.48255837,-0.57469195,0.6609588,0.81126297,-0.5777161,0.0899798,,0.10793332,1.3464053,0.44466895,0.99666566,-0.0036675744,-0.08151134,-0.055110008,-0.7669472,-0.63933945,-0.06017007,0.64169973,-0.76459205,,-0.07420869,0.25881493,-0.07518211,-0.9811622,-0.111415096,0.15782076,0.16829693,-0.091852896,0.9814475,-0.09485178,0.98951995,0.10887341,,0.020134928,0.4442151,-0.32825774,-0.39933625,-0.5153863,-0.7582266,0.16744976,-0.8541221,0.49237794,-0.9013829,0.06965951,0.4273832,,0.9460270543596282,0.33606244375475375,0.20829046978000001,4.027305054563775,-0.19566346766411072,-1.6590267111363426,-0.415383960179472,,-0.7535224920038338,0.12407342635729098,0.18588539342000002,-0.9457016451152049,-0.8765231459953005,-0.9755956749963923,0.8234174373829015,,-0.04375976767062783,-0.08274169651392119,0.07694186708,-0.052660797281082014,,0.00010923855,6.020069e-06,-8.940697e-06,1.0,-8.557364e-05,-7.181987e-05,8.5581094e-05,1.0,-6.735325e-06,7.182732e-05,6.765127e-06,1.0,101,0.305,0,0,0.0,False,-0.2641080536386573,1.003697076819021
0.3178155139903538,16:59:44.617461,16:59:28.839181,0,,0.12010583,0.0011600703,0.013338551,0.9639829,0.15735513,-0.21442047,0.08740418,0.5739944,0.81418115,0.25119174,-0.80359817,0.53956723,,0.044779085,-0.028029919,0.026585996,0.32995343,0.58044547,0.74445534,-0.48229522,-0.57427233,0.6615155,0.81149375,-0.5773165,0.09046292,,0.10793332,1.3464053,0.44466895,0.99666566,-0.0036675744,-0.08151134,-0.055110008,-0.7669472,-0.63933945,-0.06017007,0.64169973,-0.76459205,,-0.07406611,0.25907508,-0.07539824,-0.98029536,-0.11027196,0.16389345,0.17403038,-0.08957694,0.98065764,-0.09345797,0.9898566,0.10700253,,0.020133177,0.44422317,-0.3282715,-0.39917964,-0.516239,-0.7577288,0.16781205,-0.8536036,0.49315313,-0.9013849,0.06970066,0.4273723,,0.947293582551001,0.33649491679571036,0.20803510065000003,4.02059497637227,-0.19607337716340703,-1.6591825298660967,-0.41636402457627786,,-0.7535302147367081,0.12406570362441675,0.18587761568000002,-0.9459113350586893,-0.8765231459953005,-0.9763307836576572,0.8255409102426474,,-0.04375976767062783,-0.08274169651392119,0.07694186708,-0.052660797281082014,,0.00010923855,6.020069e-06,-8.940697e-06,1.0,-8.557364e-05,-7.181987e-05,8.5581094e-05,1.0,-6.735325e-06,7.182732e-05,6.765127e-06,1.0,109,0.33,0,0,0.0,False,-0.26339312101640555,1.0052903234447432
0.353058416993008,16:59:44.643791,16:59:28.839181,0,,0.120052904,0.0012114942,0.013456881,0.9643302,0.15740918,-0.21281351,0.08594142,0.5742351,0.81416714,0.25036237,-0.80341554,0.5402242,,0.0447864,-0.028023317,0.026591063,0.32999852,0.58088136,0.7440952,-0.48208195,-0.5740079,0.6619002,0.81160206,-0.57714105,0.09061068,,0.10793332,1.3464053,0.44466895,0.99666566,-0.0036675744,-0.08151134,-0.055110008,-0.7669472,-0.63933945,-0.06017007,0.64169973,-0.76459205,,-0.07402231,0.25919357,-0.07545728,-0.9805616,-0.110342234,0.16224527,0.17236096,-0.08927879,0.9809796,-0.09375843,0.9898757,0.10656204,,0.020125337,0.4442309,-0.3282703,-0.39923733,-0.51669276,-0.757389,0.16803855,-0.85332274,0.49356192,-0.9013171,0.0697778,0.4275026,,0.9478110056535741,0.33681927157642777,0.20795602696,4.022062805976661,-0.19621001366317248,-1.6592344694426815,-0.4160373364440093,,-0.7535765511339534,0.1240811490901652,0.18587761568000002,-0.9463307149456585,-0.8765231459953005,-0.9764941411379384,0.8301145440944071,,-0.04375976767062783,-0.08274169651392119,0.07694186708,-0.052660797281082014,,0.00010923855,6.020069e-06,-8.940697e-06,1.0,-8.557364e-05,-7.181987e-05,8.5581094e-05,1.0,-6.735325e-06,7.182732e-05,6.765127e-06,1.0,117,0.355,0,0,0.0,False,-0.26351227645344677,1.0096838217156738
0.3793406269978732,16:59:44.668264,16:59:28.839181,0,,0.119990475,0.001317814,0.013641894,0.9637156,0.15678419,-0.21603437,0.08859435,0.575579,0.81293285,0.25179988,-0.80257565,0.54080427,,0.044807777,-0.02801302,0.026604414,0.33004832,0.58170867,0.7434266,-0.4816506,-0.57354647,0.662614,0.8118379,-0.57676643,0.09088221,,0.10793332,1.3464053,0.44466895,0.99666566,-0.0036675744,-0.08151134,-0.055110008,-0.7669472,-0.63933945,-0.06017007,0.64169973,-0.76459205,,-0.07397448,0.25939745,-0.07553198,-0.9800893,-0.10979783,0.16543709,0.17534484,-0.087677404,0.9805952,-0.09316212,0.99007934,0.10518416,,0.020102667,0.4442459,-0.3282718,-0.3993145,-0.51755726,-0.75675786,0.1685111,-0.8527914,0.49431854,-0.90119475,0.06986647,0.42774612,,0.9485446652766254,0.33743709020636575,0.20784454602000002,4.0184980769374254,-0.19634665016293792,-1.6593680877594068,-0.4155473042456064,,-0.7537078375928152,0.12408887182303942,0.18587631939000002,-0.9471694747195964,-0.8765231459953005,-0.97673917735836,0.8319113288218845,,-0.04375976767062783,-0.08274169651392119,0.07694186708,-0.052660797281082014,,0.00010923855,6.020069e-06,-8.940697e-06,1.0,-8.557364e-05,-7.181987e-05,8.5581094e-05,1.0,-6.735325e-06,7.182732e-05,6.765127e-06,1.0,125,0.378,0,0,0.0,False,-0.26351227645344677,1.0131117159710155
0.40386229699652176,16:59:44.696620,16:59:28.987793,0,,0.11997606,0.0014020205,0.013740718,0.9637138,0.15668312,-0.2161154,0.088542625,0.5761448,0.8125376,0.2518247,-0.80218935,0.54136556,,0.044899076,-0.027988076,0.02661872,0.33000857,0.58164483,0.7434941,-0.48164335,-0.5736336,0.6625438,0.8118584,-0.5767441,0.09084138,,0.10793332,1.3464053,0.44466895,0.99666566,-0.0036675744,-0.08151134,-0.055110008,-0.7669472,-0.63933945,-0.06017007,0.64169973,-0.76459205,,-0.073968254,0.25952616,-0.075553335,-0.9800885,-0.10973252,0.16548522,0.1753215,-0.08699135,0.98066044,-0.09321456,0.9901471,0.10449769,,0.020010125,0.4442672,-0.3282598,-0.39927694,-0.51749486,-0.7568203,0.1685331,-0.8528358,0.49423453,-0.90120727,0.06978717,0.42773265,,0.9489153564545881,0.3379313451103161,0.20779787958,4.01828838699394,-0.19634665016293792,-1.6594497664995473,-0.41571064831174076,,-0.7538468467845513,0.1240811490901652,0.18587631939000002,-0.9471694747195964,-0.8765231459953005,-0.9764941411379384,0.8340348016816301,,-0.04375976767062783,-0.08274169651392119,0.07694186708,-0.052660797281082014,,0.00010923855,6.020069e-06,-8.940697e-06,1.0,-8.557364e-05,-7.181987e-05,8.5581094e-05,1.0,-6.735325e-06,7.182732e-05,6.765127e-06,1.0,136,0.412,0,0,0.0,False,-0.2634526987349264,1.0180362964505203
0.43219666999357287,16:59:44.725361,16:59:28.987793,0,,0.119963504,0.0015466958,0.013842046,0.963705,0.15693867,-0.21596958,0.08809829,0.57670474,0.81218857,0.25201452,-0.80173683,0.54194725,,0.044900753,-0.027971268,0.026629806,0.32972217,0.58220303,0.7431842,-0.48137394,-0.57350844,0.6628478,0.8121345,-0.57630515,0.09115893,,0.10798982,1.3464022,0.44465783,0.9966619,-0.003720053,-0.08155509,-0.055178203,-0.7669469,-0.63933384,-0.06017007,0.64169973,-0.76459205,,-0.074011855,0.259711,-0.07554104,-0.9800808,-0.10998848,0.16536081,0.1751566,-0.0862773,0.98075294,-0.09360464,0.99018115,0.10382393,,0.019958884,0.44428948,-0.32826498,-0.39905196,-0.5181351,-0.7565009,0.16895528,-0.8524614,0.494736,-0.90122783,0.06961055,0.42771804,,0.9492628794339283,0.33870361839773855,0.20777454636000003,4.01828838699394,-0.19648328666270337,-1.6593383485958508,-0.41571064831174076,,-0.754148033366646,0.1240811490901652,0.18587761568000002,-0.94779854455005,-0.8766597824950659,-0.9764644019743823,0.8410585965254038,,-0.04375976767062783,-0.08274169651392119,0.07694186708,-0.052660797281082014,,0.00016638264,1.0728836e-06,-3.0994415e-06,1.0,-0.00013789535,-0.000115733594,0.00013789162,1.0,-1.0877848e-05,0.000115733594,1.0848045e-05,1.0,144,0.437,0,0,0.0,False,-0.2641080536386573,1.0188570598637712
0.4609563559934031,16:59:44.752174,16:59:28.987793,0,,0.12000562,0.0016745627,0.013951063,0.9636846,0.1571164,-0.21593124,0.087725565,0.57746476,0.8116888,0.25222233,-0.8011548,0.5427108,,0.044945054,-0.027971163,0.026653528,0.32910752,0.5822802,0.7433961,-0.4825096,-0.57302237,0.6624423,0.81170976,-0.5767106,0.092369795,,0.10798982,1.3464022,0.44465783,0.9966619,-0.003720053,-0.08155509,-0.055178203,-0.7669469,-0.63933384,-0.06017007,0.64169973,-0.76459205,,-0.07406339,0.25987637,-0.075539485,-0.9800691,-0.1102178,0.16527747,0.17500766,-0.08533273,0.9808622,-0.0940049,0.99023753,0.10292093,,0.01991255,0.44430226,-0.32827955,-0.39838615,-0.5181795,-0.7568213,0.16787875,-0.8523826,0.49523795,-0.90172344,0.07024173,0.42656875,,0.9494791159544066,0.33952222808240634,0.20773954653,4.01828838699394,-0.19648328666270337,-1.659501706076132,-0.4157106483117403,,-0.7544723881473635,0.12409659455591365,0.18587243052000002,-0.9459113350586893,-0.8766597824950659,-0.9780979767771936,0.8436721015835524,,-0.04375976767062783,-0.08274169651392119,0.07694186708,-0.052660797281082014,,0.00016638264,1.0728836e-06,-3.0994415e-06,1.0,-0.00013789535,-0.000115733594,0.00013789162,1.0,-1.0877848e-05,0.000115733594,1.0848045e-05,1.0,156,0.473,0,0,0.0,False,-0.26309523242380006,1.0200640648832575
0.4877659469930222,16:59:44.788303,16:59:28.987793,0,,0.120079584,0.0018042773,0.014141947,0.96365714,0.15729305,-0.21592511,0.08730719,0.5784559,0.8110279,0.25247225,-0.8004048,0.54370034,,0.04501114,-0.027948946,0.026737511,0.32761824,0.5831746,0.74335295,-0.48258045,-0.57311684,0.66230893,0.81227,-0.57571214,0.09366509,,0.10798982,1.3464022,0.44465783,0.9966619,-0.003720053,-0.08155509,-0.055178203,-0.7669469,-0.63933384,-0.06017007,0.64169973,-0.76459205,,-0.07415239,0.26009417,-0.07559768,-0.98005253,-0.11046125,0.1652131,0.17485146,-0.08410361,0.9809962,-0.09446705,0.99031556,0.10174026,,0.019838559,0.44437036,-0.328322,-0.39695567,-0.51916295,-0.75689894,0.16831253,-0.8518448,0.4960155,-0.9022733,0.06950058,0.42552623,,0.9496490160776395,0.3405956879519236,0.20763325075000003,4.01828838699394,-0.19634665016293792,-1.6597764814601097,-0.4160373364440091,,-0.7549898112499365,0.12422788101477546,0.18583613440000002,-0.9459113350586893,-0.8778895109929549,-0.9784837542263154,0.8451421981787606,,-0.04375976767062783,-0.08274169651392119,0.07694186708,-0.052660797281082014,,0.00016638264,1.0728836e-06,-3.0994415e-06,1.0,-0.00013789535,-0.000115733594,0.00013789162,1.0,-1.0877848e-05,0.000115733594,1.0848045e-05,1.0,168,0.509,0,0,0.0,False,-0.2636910096090097,1.025809408776013
0.5238576559931971,16:59:44.824577,16:59:28.987793,0,,0.12010527,0.0018831491,0.0143148005,0.9637386,0.15742174,-0.2154674,0.08662143,0.57917553,0.8105877,0.2523976,-0.7998589,0.54453766,,0.045043297,-0.027940527,0.026790261,0.3269528,0.5843466,0.74272525,-0.48326188,-0.5720094,0.6627694,0.81213295,-0.5756252,0.09537238,,0.10798982,1.3464022,0.44465783,0.9966619,-0.003720053,-0.08155509,-0.055178203,-0.7669469,-0.63933384,-0.06017007,0.64169973,-0.76459205,,-0.07419118,0.26026428,-0.07567712,-0.980118,-0.1106385,0.1647054,0.17427601,-0.083210394,0.98117477,-0.0948505,0.9903712,0.10083764,,0.019801468,0.44440973,-0.328353,-0.39627197,-0.52035135,-0.756441,0.16776755,-0.8510571,0.49754986,-0.9026752,0.07025882,0.42454815,,0.9499193117282374,0.34132162484210066,0.20751917723000002,4.018707766880909,-0.19634665016293792,-1.6600215176805313,-0.4155473042456064,,-0.7552987205649055,0.12432055380926615,0.18580502344000002,-0.9448628853412668,-0.8781627839924858,-0.9807112806231396,0.850369208295058,,-0.04375976767062783,-0.08274169651392119,0.07694186708,-0.052660797281082014,,0.00016638264,1.0728836e-06,-3.0994415e-06,1.0,-0.00013789535,-0.000115733594,0.00013789162,1.0,-1.0877848e-05,0.000115733594,1.0848045e-05,1.0,179,0.543,0,0,0.0,False,-0.26309523242380006,1.028126858413427
0.560105853001005,16:59:44.858008,16:59:29.151084,0,,0.12009065,0.0019408762,0.014528275,0.96382815,0.15738524,-0.21509334,0.0861508,0.5797366,0.8102367,0.25221682,-0.7994595,0.54520756,,0.045053348,-0.02794744,0.026891649,0.32512507,0.5849872,0.7430232,-0.4834286,-0.57247376,0.6622466,0.81276727,-0.5745117,0.096673936,,0.10798982,1.3464022,0.44465783,0.9966619,-0.003720053,-0.08155509,-0.055178203,-0.7669469,-0.63933384,-0.06017007,0.64169973,-0.76459205,,-0.074192256,0.26044676,-0.07580286,-0.9801875,-0.11063841,0.16429137,0.17379564,-0.08252315,0.981318,-0.09501362,0.99042875,0.10011663,,0.019781966,0.44447222,-0.32843137,-0.39451048,-0.52108854,-0.7568542,0.16820548,-0.8506954,0.49802038,-0.9033651,0.06916724,0.4232582,,0.9503826757006908,0.3419548889377871,0.20735973356,4.0189174568243935,-0.19634665016293792,-1.6600215176805313,-0.4155473042456064,,-0.7555304025511322,0.12443639480237953,0.18572854233000002,-0.9444435054542977,-0.8799390584894365,-0.981141458898319,0.8524926811548033,,-0.04375976767062783,-0.08274169651392119,0.07694186708,-0.052660797281082014,,0.00016638264,1.0728836e-06,-3.0994415e-06,1.0,-0.00013789535,-0.000115733594,0.00013789162,1.0,-1.0877848e-05,0.000115733594,1.0848045e-05,1.0,187,0.568,0,0,0.0,False,-0.2630356547052788,1.0274509356025145
0.5935912549903151,16:59:44.882592,16:59:29.151084,0,,0.12003679,0.0020006597,0.014781728,0.96396935,0.15716466,-0.21462108,0.085675985,0.580385,0.80982274,0.2518384,-0.79903233,0.5460081,,0.04504142,-0.027954713,0.026979268,0.32468215,0.5848221,0.7433468,-0.48460144,-0.57207024,0.6617379,0.8122457,-0.5750814,0.097664595,,0.10798982,1.3464022,0.44465783,0.9966619,-0.003720053,-0.08155509,-0.055178203,-0.7669469,-0.63933384,-0.06017007,0.64169973,-0.76459205,,-0.074157,0.2606588,-0.075959414,-0.9802948,-0.11045799,0.1637713,0.17318173,-0.08174094,0.981492,-0.095026806,0.99051374,0.099259526,,0.019785658,0.44452676,-0.32850128,-0.39400598,-0.52087533,-0.7572636,0.16702387,-0.8507703,0.49828997,-0.90380436,0.06984813,0.4222072,,0.9510854443922453,0.34258815303347345,0.20716658635000001,4.019127146767878,-0.19634665016293792,-1.6600215176805313,-0.4155473042456064,,-0.7557003026743652,0.12458312672698979,0.18564428348,-0.942556295962937,-0.8799390584894365,-0.9825299974807085,0.8533094014854747,,-0.04375976767062783,-0.08274169651392119,0.07694186708,-0.052660797281082014,,0.00016638264,1.0728836e-06,-3.0994415e-06,1.0,-0.00013789535,-0.000115733594,0.00013789162,1.0,-1.0877848e-05,0.000115733594,1.0848045e-05,1.0,203,0.617,0,0,0.0,False,-0.2629164992682367,1.0261473701814692
0.618188463995466,16:59:44.929342,16:59:29.151084,0,,0.11991218,0.0021303594,0.0152041465,0.9641868,0.15625057,-0.21431182,0.08547128,0.58187944,0.8087713,0.2510746,-0.7981242,0.54768544,,0.045000836,-0.027962565,0.027170837,0.3231735,0.58536714,0.7435753,-0.4842586,-0.5727766,0.6613778,0.8130514,-0.5738225,0.09836286,,0.10798982,1.3464022,0.44465783,0.9966619,-0.003720053,-0.08155509,-0.055178203,-0.7669469,-0.63933384,-0.06017007,0.64169973,-0.76459205,,-0.07406394,0.2610371,-0.07620235,-0.9804557,-0.109632134,0.16336301,0.17252089,-0.07996459,0.98175466,-0.0945686,0.99075043,0.09731557,,0.019808058,0.444653,-0.32864952,-0.39258444,-0.5215281,-0.75755256,0.16792871,-0.85048157,0.49847874,-0.90425515,0.06848017,0.42146537,,0.9524755363096057,0.3436847811016134,0.20685936562,4.0189174568243935,-0.19607337716340703,-1.6603260322280646,-0.41571064831174076,,-0.7558470345989754,0.12485342237758765,0.18546928433,-0.9431853657933905,-0.8817153329863873,-0.9818983521340606,0.8503692082950576,,-0.04375976767062783,-0.08274169651392119,0.07694186708,-0.052660797281082014,,0.00016638264,1.0728836e-06,-3.0994415e-06,1.0,-0.00013789535,-0.000115733594,0.00013789162,1.0,-1.0877848e-05,0.000115733594,1.0848045e-05,1.0,211,0.64,0,0,0.0,False,-0.2636910096090097,1.0243127225518498
0.6649256629898446,16:59:44.958227,16:59:29.151084,0,,0.11986616,0.0022072345,0.01534611,0.9642686,0.15604334,-0.2140944,0.085241556,0.5824095,0.8084139,0.25083822,-0.797778,0.54829776,,0.04497906,-0.027964443,0.027223825,0.3230825,0.58533144,0.74364287,-0.4842999,-0.5728363,0.66129583,0.8130629,-0.5737993,0.09840256,,0.10798982,1.3464022,0.44465783,0.9966619,-0.003720053,-0.08155509,-0.055178203,-0.7669469,-0.63933384,-0.06017007,0.64169973,-0.76459205,,-0.07402905,0.26118985,-0.07626263,-0.9805174,-0.1094576,0.16310929,0.17218873,-0.0793256,0.9818648,-0.09453382,0.9908211,0.096627496,,0.019824764,0.44468886,-0.32869092,-0.39249447,-0.52149403,-0.7576226,0.16791274,-0.85050726,0.4984403,-0.9042972,0.068420574,0.4213849,,0.953039295809424,0.3441713132726895,0.20677251419000003,4.0189174568243935,-0.19607337716340703,-1.6603260322280646,-0.41571064831174076,,-0.7558470345989754,0.12494609517207834,0.18541484015,-0.9431853657933905,-0.8818519694861527,-0.9817869342303641,0.8503692082950576,,-0.04375976767062783,-0.08274169651392119,0.07694186708,-0.052660797281082014,,0.00016638264,1.0728836e-06,-3.0994415e-06,1.0,-0.00013789535,-0.000115733594,0.00013789162,1.0,-1.0877848e-05,0.000115733594,1.0848045e-05,1.0,226,0.686,0,0,0.0,False,-0.2634526987349264,1.0245058433549676
0.6938092179916566,16:59:44.997468,16:59:29.151084,0,,0.11980884,0.0023887455,0.015574053,0.9644114,0.1556296,-0.21375199,0.08481927,0.5835995,0.80759966,0.250432,-0.7969888,0.5496296,,0.044961736,-0.027964652,0.027283013,0.32300645,0.585772,0.743329,-0.4838578,-0.572804,0.66164744,0.8133564,-0.5733819,0.098410875,,0.10798982,1.3464022,0.44465783,0.9966619,-0.003720053,-0.08155509,-0.055178203,-0.7669469,-0.63933384,-0.06017007,0.64169973,-0.76459205,,-0.07399046,0.26147842,-0.076321125,-0.9806252,-0.10911793,0.16268818,0.17159683,-0.07788617,0.9820836,-0.09449178,0.99097276,0.09510144,,0.019836415,0.44472983,-0.32873553,-0.39245188,-0.52197236,-0.7573152,0.1684411,-0.85023445,0.49872738,-0.9042174,0.06816349,0.42159772,,0.9539891919529537,0.34522160494358406,0.20666103325000001,4.0189174568243935,-0.1959367406636416,-1.6605191288719017,-0.4155473042456066,,-0.7558624800647239,0.1250233225008206,0.18535780339000002,-0.9440241255673286,-0.8821252424856835,-0.9814824196828308,0.8498791760966546,,-0.04375976767062783,-0.08274169651392119,0.07694186708,-0.052660797281082014,,0.00016638264,1.0728836e-06,-3.0994415e-06,1.0,-0.00013789535,-0.000115733594,0.00013789162,1.0,-1.0877848e-05,0.000115733594,1.0848045e-05,1.0,234,0.711,0,0,0.0,False,-0.26339312101640555,1.0233471185362608
0.7330595569947036,16:59:45.030128,16:59:29.305734,0,,0.119796425,0.0025930256,0.015727147,0.9642902,0.15530013,-0.2145371,0.08526732,0.58486956,0.80663323,0.2507465,-0.7961216,0.55074203,,0.044959024,-0.027971506,0.02730304,0.32298458,0.5858432,0.74328226,-0.4838585,-0.57275367,0.66169035,0.81336457,-0.5733592,0.09847465,,0.10798982,1.3464022,0.44465783,0.9966619,-0.003720053,-0.08155509,-0.055178203,-0.7669469,-0.63933384,-0.06017007,0.64169973,-0.76459205,,-0.073991835,0.26173356,-0.076306,-0.980533,-0.10886893,0.16340931,0.17214797,-0.07634031,0.9821086,-0.09444639,0.99112046,0.09359576,,0.019837305,0.4447385,-0.32875502,-0.39243084,-0.5220461,-0.7572753,0.16844772,-0.8501874,0.4988053,-0.9042253,0.068185285,0.42157724,,0.9546765151787596,0.3463027875459755,0.20662603342000002,4.017869007106971,-0.19580010416387617,-1.6607122255157387,-0.415710648311741,,-0.7558856482633466,0.12501559976794635,0.18533706275000003,-0.9440241255673286,-0.8821252424856835,-0.9815640984229714,0.8493891438982522,,-0.04375976767062783,-0.08274169651392119,0.07694186708,-0.052660797281082014,,0.00016638264,1.0728836e-06,-3.0994415e-06,1.0,-0.00013789535,-0.000115733594,0.00013789162,1.0,-1.0877848e-05,0.000115733594,1.0848045e-05,1.0,246,0.748,0,0,0.0,False,-0.2632143878608417,1.0235885195401577
0.7657192939950619,16:59:45.065801,16:59:29.305734,0,,0.119822875,0.0027424246,0.015811384,0.9642901,0.15542696,-0.21444571,0.08489007,0.585591,0.80614936,0.25087488,-0.7955663,0.5514854,,0.044958107,-0.027976632,0.027309299,0.32285625,0.58573467,0.7434236,-0.48383433,-0.57294786,0.6615399,0.81342995,-0.57327616,0.09841871,,0.10798982,1.3464022,0.44465783,0.9966619,-0.003720053,-0.08155509,-0.055178203,-0.7669469,-0.63933384,-0.06017007,0.64169973,-0.76459205,,-0.074026346,0.26190025,-0.076272324,-0.9805359,-0.109045036,0.16327418,0.17194322,-0.07543948,0.98221403,-0.094788246,0.99117005,0.09272068,,0.019837689,0.44473904,-0.32876316,-0.39230958,-0.5219435,-0.75740886,0.16851889,-0.85026634,0.49864668,-0.9042647,0.06798616,0.42152497,,0.9549854244937287,0.3471213972306433,0.20662473713,4.017869007106971,-0.19580010416387617,-1.660793904255879,-0.4158739923778749,,-0.7558856482633466,0.1250001543021979,0.18533058130000002,-0.9440241255673286,-0.8822618789854489,-0.9813710017791345,0.8492257998321178,,-0.04375976767062783,-0.08274169651392119,0.07694186708,-0.052660797281082014,,0.00016638264,1.0728836e-06,-3.0994415e-06,1.0,-0.00013789535,-0.000115733594,0.00013789162,1.0,-1.0877848e-05,0.000115733594,1.0848045e-05,1.0,258,0.784,0,0,0.0,False,-0.2634526987349264,1.0242644423510703
0.801398290990619,16:59:45.094517,16:59:29.305734,0,,0.11985172,0.00288786,0.015891567,0.9639584,0.15504628,-0.21620548,0.08624633,0.5866514,0.8052339,0.2516858,-0.79485905,0.5521353,,0.0449552,-0.02797772,0.02731657,0.3228589,0.5859784,0.7432304,-0.483839,-0.572726,0.6617286,0.81342614,-0.57324886,0.09860951,,0.10798982,1.3464022,0.44465783,0.9966619,-0.003720053,-0.08155509,-0.055178203,-0.7669469,-0.63933384,-0.06017007,0.64169973,-0.76459205,,-0.07406293,0.26206118,-0.07623801,-0.9802821,-0.10873065,0.16499873,0.17351869,-0.07415364,0.98203486,-0.094542034,0.9913016,0.09155829,,0.0198399,0.44474334,-0.3287694,-0.39231178,-0.5221914,-0.75723684,0.16851266,-0.8501025,0.49892807,-0.90426487,0.06813138,0.4215011,,0.9553561156716914,0.3482334707645316,0.20662603342000002,4.01598179761561,-0.1955268311643453,-1.661016740063272,-0.4158739923778749,,-0.7558856482633466,0.12500787703507213,0.18532280356000003,-0.9440241255673286,-0.8822618789854489,-0.9816977167396966,0.8498791760966549,,-0.04375976767062783,-0.08274169651392119,0.07694186708,-0.052660797281082014,,0.00016638264,1.0728836e-06,-3.0994415e-06,1.0,-0.00013789535,-0.000115733594,0.00013789162,1.0,-1.0877848e-05,0.000115733594,1.0848045e-05,1.0,273,0.83,0,0,0.0,False,-0.2635718541719685,1.025712848374454
0.8301150240004063,16:59:45.138292,16:59:29.305734,0,,0.11989211,0.0031186044,0.016025692,0.9639403,0.15509135,-0.21625331,0.08590296,0.5877783,0.8044485,0.25187203,-0.7940173,0.5532604,,0.044951938,-0.02797918,0.027319133,0.322829,0.5860133,0.7432158,-0.4839576,-0.5726301,0.6617249,0.8133675,-0.57330894,0.098743975,,0.10798982,1.3464022,0.44465783,0.9966619,-0.003720053,-0.08155509,-0.055178203,-0.7669469,-0.63933384,-0.06017007,0.64169973,-0.76459205,,-0.074116066,0.26232126,-0.07618904,-0.98027176,-0.108851284,0.16498074,0.17337805,-0.07275447,0.9821644,-0.09490677,0.991392,0.09019158,,0.019842928,0.44474423,-0.32877246,-0.39227507,-0.5222216,-0.757235,0.1683881,-0.850075,0.49901697,-0.904304,0.06824256,0.42139912,,0.9557268068496542,0.3491910896409354,0.20661955197,4.015772107672126,-0.19539019466457985,-1.6611281579669686,-0.4158739923778749,,-0.7558779255304723,0.12501559976794635,0.18531891469000003,-0.9438144356238442,-0.8822618789854489,-0.9819427529601185,0.8503692082950576,,-0.04375976767062783,-0.08274169651392119,0.07694186708,-0.052660797281082014,,0.00016638264,1.0728836e-06,-3.0994415e-06,1.0,-0.00013789535,-0.000115733594,0.00013789162,1.0,-1.0877848e-05,0.000115733594,1.0848045e-05,1.0,281,0.854,0,0,0.0,False,-0.2632143878608417,1.0260508097799104
0.8738758849940496,16:59:45.176033,16:59:29.464339,0,,0.11989791,0.0033832341,0.016238973,0.96372813,0.1548196,-0.21739116,0.086511016,0.5893488,0.8032334,0.2524755,-0.79290545,0.5545784,,0.044943333,-0.027986139,0.02732259,0.32289702,0.5858154,0.74334216,-0.48419192,-0.5725983,0.661581,0.81320095,-0.57354283,0.09875685,,0.10798982,1.3464022,0.44465783,0.9966619,-0.003720053,-0.08155509,-0.055178203,-0.7669469,-0.63933384,-0.06017007,0.64169973,-0.76459205,,-0.0741407,0.26266018,-0.076179914,-0.9801112,-0.10868145,0.16604333,0.17424269,-0.07082507,0.9821524,-0.094981715,0.9915504,0.088353395,,0.019851254,0.44474202,-0.32878023,-0.39232415,-0.522003,-0.7573603,0.16809866,-0.85019475,0.49891058,-0.9043366,0.06842341,0.42129993,,0.9565531392671962,0.3506970225514092,0.20656121892,4.014304278067734,-0.19525355816481438,-1.6612395758706648,-0.4158739923778749,,-0.7558470345989754,0.12500787703507213,0.18530984066000003,-0.9433950557368751,-0.8821252424856835,-0.9821358496039553,0.8511859286257293,,-0.04375976767062783,-0.08274169651392119,0.07694186708,-0.052660797281082014,,0.00016638264,1.0728836e-06,-3.0994415e-06,1.0,-0.00013789535,-0.000115733594,0.00013789162,1.0,-1.0877848e-05,0.000115733594,1.0848045e-05,1.0,293,0.891,0,0,0.0,False,-0.2636314318904893,1.0270164137954993
0.9116182519937865,16:59:45.207014,16:59:29.464339,0,,0.11985983,0.0035874099,0.016450867,0.96399045,0.15296789,-0.21753903,0.0870776,0.5913547,0.80169636,0.25127655,-0.7917706,0.55674016,,0.04493075,-0.027994782,0.027330935,0.3225404,0.58562356,0.74364823,-0.4842484,-0.5729529,0.6612325,0.81330884,-0.57338476,0.0987868,,0.10798982,1.3464022,0.44465783,0.9966619,-0.003720053,-0.08155509,-0.055178203,-0.7669469,-0.63933384,-0.06017007,0.64169973,-0.76459205,,-0.07412054,0.2629546,-0.076210685,-0.98029864,-0.10694396,0.166065,0.17388661,-0.068459556,0.9823832,-0.093691215,0.9919054,0.08570693,,0.019863095,0.44474223,-0.328793,-0.39197868,-0.5218226,-0.7576635,0.16815577,-0.85033506,0.49865216,-0.90447575,0.068055525,0.42106068,,0.9573794716847382,0.3518631552154171,0.20647566378,4.013884898180765,-0.19375055666739455,-1.6624651728113256,-0.4158739923778749,,-0.7557852527359816,0.12500787703507213,0.18529817405000001,-0.9431853657933905,-0.8825351519849798,-0.9819649533731474,0.8518393048902662,,-0.04375976767062783,-0.08274169651392119,0.07694186708,-0.052660797281082014,,0.00016638264,1.0728836e-06,-3.0994415e-06,1.0,-0.00013789535,-0.000115733594,0.00013789162,1.0,-1.0877848e-05,0.000115733594,1.0848045e-05,1.0,301,0.916,0,0,0.0,False,-0.26297607698675796,1.0269681335947198
0.9425847660022555,16:59:45.229110,16:59:29.464339,0,,0.1198058,0.0038058162,0.016691625,0.9639093,0.15228389,-0.21837668,0.08769131,0.5928751,0.8005057,0.25137424,-0.79076475,0.5581238,,0.044914566,-0.028002173,0.027335167,0.32256556,0.5855624,0.7436854,-0.4843459,-0.5729227,0.6611873,0.81324077,-0.57347727,0.09880963,,0.10798982,1.3464022,0.44465783,0.9966619,-0.003720053,-0.08155509,-0.055178203,-0.7669469,-0.63933384,-0.06017007,0.64169973,-0.76459205,,-0.07408667,0.26327938,-0.07625494,-0.98023397,-0.1063548,0.16682324,0.17442197,-0.06661339,0.9824152,-0.09337191,0.9920944,0.08384732,,0.019878898,0.44474083,-0.32880205,-0.39199612,-0.5217534,-0.7577021,0.16803637,-0.8503707,0.49863154,-0.90449035,0.06814011,0.42101556,,0.9584065951570101,0.35309106974241883,0.20637325687000002,4.012626758519858,-0.19347728366786368,-1.6626880086187183,-0.4155473042456066,,-0.7557080254072394,0.12500787703507213,0.18528650744000003,-0.9429756758499059,-0.8825351519849798,-0.9821283108534284,0.8521659930225349,,-0.04375976767062783,-0.08274169651392119,0.07694186708,-0.052660797281082014,,0.00016638264,1.0728836e-06,-3.0994415e-06,1.0,-0.00013789535,-0.000115733594,0.00013789162,1.0,-1.0877848e-05,0.000115733594,1.0848045e-05,1.0,320,0.973,0,0,0.0,False,-0.2635718541719685,1.0271129741970584
0.964667277992703,16:59:45.285861,16:59:29.464339,0,,0.119752444,0.0040679425,0.01720491,0.9618897,0.16647796,-0.21691754,0.079237014,0.5895555,0.80383193,0.26170528,-0.79038566,0.55389607,,0.044877417,-0.028019592,0.027340353,0.32252228,0.5854955,0.7437569,-0.4845123,-0.57289207,0.6610919,0.81315887,-0.5735763,0.09890929,,0.10798982,1.3464022,0.44465783,0.9966619,-0.003720053,-0.08155509,-0.055178203,-0.7669469,-0.63933384,-0.06017007,0.64169973,-0.76459205,,-0.07407303,0.26381317,-0.076478295,-0.9788035,-0.12048803,0.16560885,0.17475381,-0.069702,0.9821419,-0.106793076,0.9902648,0.08928031,,0.019915609,0.44473422,-0.32881993,-0.39194325,-0.52167773,-0.7577815,0.16786201,-0.85041,0.49862334,-0.90454566,0.06822931,0.4208823,,0.9608624242110135,0.3549368028993585,0.20599992535000003,4.013255828350312,-0.21274303013479076,-1.653103989708065,-0.41636402457627786,,-0.7555149570853837,0.1250001543021979,0.18526447051000003,-0.942556295962937,-0.8826717884847453,-0.9825069653905754,0.8531460574193404,,-0.04375976767062783,-0.08274169651392119,0.07694186708,-0.052660797281082014,,0.00016638264,1.0728836e-06,-3.0994415e-06,1.0,-0.00013789535,-0.000115733594,0.00013789162,1.0,-1.0877848e-05,0.000115733594,1.0848045e-05,1.0,332,1.01,0,0,0.0,False,-0.2636314318904893,1.0288510614251192
1.0213909299927764,16:59:45.329782,16:59:29.464339,0,,0.11972221,0.004212871,0.017700046,0.9578904,0.18696798,-0.21791917,0.06731539,0.5915679,0.80344015,0.2791316,-0.7842771,0.55407137,,0.04486087,-0.02802889,0.027351499,0.32186422,0.5854158,0.7441046,-0.48440513,-0.5734504,0.66068625,0.81348336,-0.5730994,0.09900528,,0.10798982,1.3464022,0.44465783,0.9966619,-0.003720053,-0.08155509,-0.055178203,-0.7669469,-0.63933384,-0.06017007,0.64169973,-0.76459205,,-0.07407937,0.26424465,-0.07676268,-0.97583574,-0.1413803,0.16660188,0.17712997,-0.0653879,0.9820129,-0.12794353,0.9877935,0.08885054,,0.019931136,0.4447361,-0.32883543,-0.39132014,-0.52163666,-0.75813174,0.16820736,-0.8504936,0.49836424,-0.90475124,0.06749662,0.4205584,,0.9623451889228646,0.35559323519366753,0.20576400057000002,4.0130461384068274,-0.22954931960593997,-1.6538567245582847,-0.4162006805101435,,-0.7554222842908931,0.12500787703507213,0.18525150761,-0.942556295962937,-0.883491607483338,-0.9821651729289589,0.8541261218161462,,-0.04375976767062783,-0.08274169651392119,0.07694186708,-0.052660797281082014,,0.00016638264,1.0728836e-06,-3.0994415e-06,1.0,-0.00013789535,-0.000115733594,0.00013789162,1.0,-1.0877848e-05,0.000115733594,1.0848045e-05,1.0,357,1.087,0,0,0.0,False,-0.2626781883941529,1.0293338634329134
1.0653517750033643,16:59:45.397798,16:59:29.649531,0,,0.1194427,0.004360333,0.018706784,0.9528494,0.21116216,-0.21791852,0.053794682,0.58922625,0.8061753,0.29863706,-0.77988654,0.5500845,,0.044844456,-0.028039455,0.027374566,0.32170045,0.585124,0.74440485,-0.4846213,-0.5736594,0.66034615,0.81341934,-0.5731881,0.099017054,,0.10798982,1.3464022,0.44465783,0.9966619,-0.003720053,-0.08155509,-0.055178203,-0.7669469,-0.63933384,-0.06017007,0.64169973,-0.76459205,,-0.073872514,0.265022,-0.07744553,-0.9719479,-0.16578117,0.1668348,0.17968687,-0.06570985,0.9815268,-0.15175597,0.98397094,0.09365526,,0.019945428,0.44474506,-0.32886052,-0.39114845,-0.5213353,-0.75842756,0.16801722,-0.85068583,0.49810016,-0.9048608,0.067402214,0.42033777,,0.9662992281544676,0.3569060997822857,0.20502122640000003,4.01178799874592,-0.25578352756090456,-1.645859800431624,-0.4142405517165324,,-0.755383670626522,0.1250233225008206,0.18522298923000002,-0.9421369160759678,-0.8836282439831034,-0.982135433765403,0.8542894658822806,,-0.04375976767062783,-0.08274169651392119,0.07694186708,-0.052660797281082014,,0.00016638264,1.0728836e-06,-3.0994415e-06,1.0,-0.00013789535,-0.000115733594,0.00013789162,1.0,-1.0877848e-05,0.000115733594,1.0848045e-05,1.0,365,1.111,0,0,0.0,False,-0.2636314318904893,1.0292373030313546
1.1333971849962836,16:59:45.427656,16:59:29.649531,0,,0.11939131,0.0044597685,0.01914303,0.94904715,0.2277382,-0.21781795,0.04422786,0.5880944,0.80758214,0.31201488,-0.77606726,0.54805696,,0.04484196,-0.02804114,0.02738285,0.32158017,0.5850785,0.7444926,-0.48461092,-0.5737823,0.66024697,0.81347317,-0.5731116,0.099018395,,0.10798982,1.3464022,0.44465783,0.9966619,-0.003720053,-0.08155509,-0.055178203,-0.7669469,-0.63933384,-0.06017007,0.64169973,-0.76459205,,-0.07385297,0.26538202,-0.07771545,-0.968933,-0.18256226,0.16685303,0.1812362,-0.06504725,0.98128605,-0.16829248,0.9810402,0.09611331,,0.019947149,0.44474956,-0.32886785,-0.3910339,-0.5212957,-0.75851387,0.16806987,-0.85072136,0.49802175,-0.90490055,0.067260064,0.420275,,0.9679982293867969,0.35760886847384016,0.20473345002,4.011578308802435,-0.27340963603064633,-1.6420234483329184,-0.4134238313858609,,-0.755383670626522,0.12503104523369482,0.18521521149000003,-0.9421369160759678,-0.8837648804828687,-0.9820240158617066,0.8542894658822806,,-0.04375976767062783,-0.08274169651392119,0.07694186708,-0.052660797281082014,,0.00016638264,1.0728836e-06,-3.0994415e-06,1.0,-0.00013789535,-0.000115733594,0.00013789162,1.0,-1.0877848e-05,0.000115733594,1.0848045e-05,1.0,373,1.137,0,0,0.0,False,-0.2632143878608417,1.02875450102356
1.163248423996265,16:59:45.454168,16:59:29.649531,0,,0.11930567,0.004572481,0.019530237,0.94659597,0.23689294,-0.21871842,0.0398331,0.58724034,0.80843186,0.31995213,-0.77397066,0.5464431,,0.044842683,-0.028042331,0.027392507,0.32148343,0.5851234,0.744499,-0.48448408,-0.5738923,0.6602445,0.81358695,-0.5729556,0.09898603,,0.10798982,1.3464022,0.44465783,0.9966619,-0.003720053,-0.08155509,-0.055178203,-0.7669469,-0.63933384,-0.06017007,0.64169973,-0.76459205,,-0.07379609,0.26572245,-0.07794091,-0.96696913,-0.19182582,0.16784975,0.18314318,-0.06486404,0.98094404,-0.17728299,0.97928315,0.09785312,,0.019945526,0.44475517,-0.32887572,-0.3909499,-0.5213538,-0.7585172,0.16824688,-0.8507005,0.49799767,-0.90490395,0.06707398,0.42029744,,0.9695350532287677,0.3583811417612626,0.20447937718000003,4.0099007892545595,-0.28338410051352353,-1.6387089870313725,-0.4148939279810693,,-0.7553991160922704,0.12503104523369482,0.18520743375,-0.9423466060194524,-0.8839015169826342,-0.9818309192178697,0.8544528099484148,,-0.04375976767062783,-0.08274169651392119,0.07694186708,-0.052660797281082014,,0.00016638264,1.0728836e-06,-3.0994415e-06,1.0,-0.00013789535,-0.000115733594,0.00013789162,1.0,-1.0877848e-05,0.000115733594,1.0848045e-05,1.0,385,1.174,0,0,0.0,False,-0.2630356547052788,1.028126858413427
1.1897260249970714,16:59:45.490048,16:59:29.786440,0,,0.119285926,0.004659936,0.019894183,0.94472134,0.24562472,-0.21718626,0.03472951,0.58371586,0.8112149,0.32602954,-0.773915,0.5429184,,0.04484102,-0.028043896,0.027397156,0.32148343,0.5850017,0.74459463,-0.48448408,-0.5740002,0.66015077,0.81358695,-0.5729718,0.09889245,,0.10798982,1.3464022,0.44465783,0.9966619,-0.003720053,-0.08155509,-0.055178203,-0.7669469,-0.63933384,-0.06017007,0.64169973,-0.76459205,,-0.07380293,0.26602492,-0.078162186,-0.96544087,-0.20048496,0.16652228,0.18327798,-0.06800844,0.98070586,-0.18529186,0.9773334,0.102402605,,0.019946769,0.44475725,-0.3288803,-0.3909499,-0.52122986,-0.7586024,0.16824688,-0.8507818,0.4978587,-0.90490395,0.06700532,0.42030838,,0.9706316812969075,0.3592306423774273,0.20422919321000002,4.010110479198044,-0.29171892699921537,-1.6328926397875778,-0.41456723984880095,,-0.7553991160922704,0.12503104523369482,0.18520224859,-0.9423466060194524,-0.8839015169826342,-0.9816675617375886,0.854126121816146,,-0.04375976767062783,-0.08274169651392119,0.07694186708,-0.052660797281082014,,0.00016638264,1.0728836e-06,-3.0994415e-06,1.0,-0.00013789535,-0.000115733594,0.00013789162,1.0,-1.0877848e-05,0.000115733594,1.0848045e-05,1.0,393,1.198,0,0,0.0,False,-0.26327396557936344,1.027788897007971
1.2256011279969243,16:59:45.515002,16:59:29.786440,0,,0.11935918,0.0047370195,0.020178035,0.94160485,0.2564882,-0.21816038,0.029334694,0.58295,0.8119783,0.3354395,-0.77096254,0.5413845,,0.044838168,-0.028046489,0.02739811,0.32149366,0.5850541,0.7445492,-0.48447573,-0.57395333,0.6601976,0.81358784,-0.5729653,0.09892213,,0.10798982,1.3464022,0.44465783,0.9966619,-0.003720053,-0.08155509,-0.055178203,-0.7669469,-0.63933384,-0.06017007,0.64169973,-0.76459205,,-0.07389684,0.26626256,-0.07832524,-0.96289986,-0.21151355,0.16758828,0.18540996,-0.067302674,0.9803538,-0.19607897,0.97505504,0.10402246,,0.019949548,0.4447562,-0.3288829,-0.39096025,-0.5212831,-0.7585605,0.16825287,-0.8507468,0.49791646,-0.90489835,0.067035556,0.42031556,,0.9712417771939712,0.3599951929319755,0.20405030519000003,4.008852339537137,-0.30292311997998145,-1.630290670895716,-0.4148939279810693,,-0.755383670626522,0.1250233225008206,0.18519965601000002,-0.9423466060194524,-0.8839015169826342,-0.9817492404777293,0.8536360896177431,,-0.04375976767062783,-0.08274169651392119,0.07694186708,-0.052660797281082014,,0.00016638264,1.0728836e-06,-3.0994415e-06,1.0,-0.00013789535,-0.000115733594,0.00013789162,1.0,-1.0877848e-05,0.000115733594,1.0848045e-05,1.0,401,1.223,0,0,0.0,False,-0.2636910096090097,1.0285613802204423
1.25060059200041,16:59:45.558541,16:59:29.786440,0,,0.11950652,0.0047413856,0.02048333,0.9377926,0.26917586,-0.21929246,0.023357034,0.58126813,0.8133768,0.34640914,-0.7679009,0.5388218,,0.044835724,-0.02804549,0.027403235,0.32149896,0.5851167,0.7444977,-0.48448515,-0.5738879,0.6602476,0.81358016,-0.572967,0.0989759,,0.10798982,1.3464022,0.44465783,0.9966619,-0.003720053,-0.08155509,-0.055178203,-0.7669469,-0.63933384,-0.06017007,0.64169973,-0.76459205,,-0.074065,0.26645443,-0.07854849,-0.9597638,-0.22435509,0.1688732,0.18814276,-0.06732798,0.9798312,-0.20846023,0.9721789,0.10682975,,0.019951476,0.4447606,-0.32888618,-0.39096472,-0.52134603,-0.75851494,0.1682404,-0.8507044,0.4979932,-0.90489876,0.0670849,0.42030686,,0.9714194000500784,0.3606593479591588,0.20382086186,4.007384509932745,-0.3156303144581674,-1.6267898200237563,-0.4135871754519951,,-0.755383670626522,0.12503876796656904,0.18519447085000001,-0.9423466060194524,-0.8839015169826342,-0.9818309192178698,0.8534727455516089,,-0.04375976767062783,-0.08274169651392119,0.07694186708,-0.052660797281082014,,0.00016638264,1.0728836e-06,-3.0994415e-06,1.0,-0.00013789535,-0.000115733594,0.00013789162,1.0,-1.0877848e-05,0.000115733594,1.0848045e-05,1.0,442,1.349,0,0,0.0,False,-0.2636910096090097,1.0285131000196626
1.2667611740034772,16:59:45.662007,16:59:29.786440,0,,0.11972526,0.0045849085,0.020914823,0.9307623,0.2925548,-0.21930161,0.010380372,0.5784138,0.81567746,0.36547747,-0.76147836,0.53532887,,0.044829406,-0.028051063,0.027433097,0.32128453,0.58523846,0.74449456,-0.48435253,-0.57400703,0.66024125,0.81374377,-0.5727231,0.09904215,,0.10798982,1.3464022,0.44465783,0.9966619,-0.003720053,-0.08155509,-0.055178203,-0.7669469,-0.63933384,-0.06017007,0.64169973,-0.76459205,,-0.074310616,0.26660103,-0.078968845,-0.9538698,-0.24807544,0.16908844,0.19094497,-0.066684335,0.97933304,-0.23167293,0.9664428,0.110976934,,0.019955026,0.44477704,-0.3289122,-0.39076832,-0.52148885,-0.758518,0.16846374,-0.85063666,0.49803334,-0.90494204,0.06683288,0.4202538,,0.9714966273788207,0.3608446935481402,0.20343456744000002,4.007384509932745,-0.339678338416885,-1.6226175508597522,-0.4134238313858607,,-0.7553991160922704,0.12505421343231748,0.18516595247,-0.942556295962937,-0.8841747899821651,-0.9816897621506174,0.8536360896177433,,-0.04375976767062783,-0.08274169651392119,0.07694186708,-0.052660797281082014,,0.00016638264,1.0728836e-06,-3.0994415e-06,1.0,-0.00013789535,-0.000115733594,0.00013789162,1.0,-1.0877848e-05,0.000115733594,1.0848045e-05,1.0,450,1.373,0,0,0.0,False,-0.26381016504605226,1.028126858413427
1.3695851689990377,16:59:45.690381,16:59:29.970672,0,,0.119771585,0.0045511127,0.021047935,0.9274472,0.30392778,-0.21787499,0.004455149,0.57360345,0.819121,0.37392753,-0.76066226,0.53063285,,0.044823952,-0.028057516,0.02745378,0.32091814,0.58497816,0.7448571,-0.48431194,-0.5744948,0.65984666,0.8139125,-0.57249993,0.098946095,,0.10798982,1.3464022,0.44465783,0.9966619,-0.003720053,-0.08155509,-0.055178203,-0.7669469,-0.63933384,-0.06017007,0.64169973,-0.76459205,,-0.07436552,0.26665848,-0.079090066,-0.9510561,-0.2594019,0.16793709,0.19206493,-0.070467845,0.978849,-0.24208112,0.96319515,0.116840884,,0.019958574,0.44478664,-0.3289321,-0.39042002,-0.5212449,-0.75886494,0.16863397,-0.8508261,0.49765202,-0.90506065,0.06632292,0.42007914,,0.971782368495167,0.3608060798837691,0.20333475311000002,4.007384509932745,-0.35074589489788566,-1.6165331353054027,-0.41375051951812925,,-0.7553991160922704,0.1250619361651917,0.18514650812000003,-0.942556295962937,-0.8845846994814615,-0.981192150959247,0.8539627777500118,,-0.04375976767062783,-0.08274169651392119,0.07694186708,-0.052660797281082014,,0.00016638264,1.0728836e-06,-3.0994415e-06,1.0,-0.00013789535,-0.000115733594,0.00013789162,1.0,-1.0877848e-05,0.000115733594,1.0848045e-05,1.0,458,1.399,0,0,0.0,False,-0.2631548101423209,1.0288993416258982
1.398601241002325,16:59:45.714163,16:59:29.970672,0,,0.119780585,0.0045107156,0.021184579,0.9250166,0.3107379,-0.21860035,0.0001462549,0.575084,0.8180943,0.37992656,-0.75678295,0.5319168,,0.044814482,-0.028061792,0.027463198,0.3207424,0.5843775,0.745404,-0.48491007,-0.574715,0.65921545,0.81362563,-0.5728922,0.099035025,,0.10798982,1.3464022,0.44465783,0.9966619,-0.003720053,-0.08155509,-0.055178203,-0.7669469,-0.63933384,-0.06017007,0.64169973,-0.76459205,,-0.074383326,0.2667153,-0.07921983,-0.94898015,-0.2664862,0.16858765,0.19278635,-0.06722299,0.97893536,-0.24953982,0.96149164,0.115168184,,0.019967161,0.44479054,-0.32894245,-0.3902107,-0.52060723,-0.7594101,0.16801366,-0.85120845,0.49720776,-0.9052663,0.06642451,0.4196198,,0.972129891474507,0.3607442980207753,0.20322067959,4.007384509932745,-0.3588074483840466,-1.6182090317415103,-0.41162704665838357,,-0.7553913933593962,0.12510054982956284,0.18513354522000003,-0.9415078462455143,-0.8845846994814615,-0.9813555084395281,0.8539627777500118,,-0.04375976767062783,-0.08274169651392119,0.07694186708,-0.052660797281082014,,0.00016638264,1.0728836e-06,-3.0994415e-06,1.0,-0.00013789535,-0.000115733594,0.00013789162,1.0,-1.0877848e-05,0.000115733594,1.0848045e-05,1.0,470,1.436,0,0,0.0,False,-0.26285692154971585,1.0288510614251192
1.4223673550004605,16:59:45.752072,16:59:29.970672,0,,0.119797364,0.004406482,0.02152972,0.9191652,0.32715255,-0.2193318,-0.010112748,0.57627904,0.8171904,0.3937423,-0.7489151,0.53300405,,0.04479658,-0.028075844,0.027493715,0.32044432,0.58499175,0.7450504,-0.4858598,-0.5736882,0.65941036,0.81317633,-0.57329434,0.100388885,,0.10798982,1.3464022,0.44465783,0.9966619,-0.003720053,-0.08155509,-0.055178203,-0.7669469,-0.63933384,-0.06017007,0.64169973,-0.76459205,,-0.07442234,0.26685745,-0.07954929,-0.94394076,-0.28342244,0.16925602,0.19420634,-0.062167007,0.9789888,-0.26694524,0.956978,0.11372441,,0.019982275,0.44480205,-0.32897544,-0.38985994,-0.5211932,-0.7591883,0.16703416,-0.8507689,0.49828887,-0.9055986,0.06745248,0.4187378,,0.9729793920906717,0.3606130115619135,0.20292901434000002,4.0075941998762294,-0.3776632853516774,-1.6195775027602197,-0.41244376698905505,,-0.7553913933593962,0.12514688622680817,0.18509595281000002,-0.9398303266976382,-0.8845846994814615,-0.9837241919036044,0.8541261218161464,,-0.04375976767062783,-0.08274169651392119,0.07694186708,-0.052660797281082014,,0.00016638264,1.0728836e-06,-3.0994415e-06,1.0,-0.00013789535,-0.000115733594,0.00013789162,1.0,-1.0877848e-05,0.000115733594,1.0848045e-05,1.0,478,1.461,0,0,0.0,False,-0.2631548101423209,1.0288993416258982
1.4601857590023428,16:59:45.781486,16:59:29.970672,0,,0.11977202,0.0043147355,0.0218039,0.91556245,0.3381274,-0.21775,-0.015934914,0.5715041,0.82044446,0.40185982,-0.7476985,0.5286357,,0.0447841,-0.028082103,0.027546883,0.319791,0.58513653,0.7452173,-0.48557395,-0.57416874,0.6592027,0.8136041,-0.5726652,0.10051304,,0.10798982,1.3464022,0.44465783,0.9966619,-0.003720053,-0.08155509,-0.055178203,-0.7669469,-0.63933384,-0.06017007,0.64169973,-0.76459205,,-0.074414596,0.26696575,-0.079818435,-0.9408187,-0.29437998,0.16793013,0.19520669,-0.0656428,0.9785629,-0.27704594,0.9534314,0.11922291,,0.019989753,0.44483417,-0.32901943,-0.3892535,-0.52139086,-0.7593637,0.16758026,-0.85070914,0.4982076,-0.90575856,0.06667468,0.41851634,,0.9736821607822261,0.36048172510305165,0.20268271924000003,4.007384509932745,-0.3888674783324435,-1.6136267055225948,-0.4126071110551892,,-0.7554068388251446,0.12520094535692775,0.18504799008000003,-0.9402497065846072,-0.8854045184800541,-0.983219041961707,0.8544528099484148,,-0.04375976767062783,-0.08274169651392119,0.07694186708,-0.052660797281082014,,0.00016638264,1.0728836e-06,-3.0994415e-06,1.0,-0.00013789535,-0.000115733594,0.00013789162,1.0,-1.0877848e-05,0.000115733594,1.0848045e-05,1.0,490,1.497,0,0,0.0,False,-0.2629164992682367,1.0278854574095297
1.4896969050023472,16:59:45.803532,16:59:29.970672,0,,0.11981027,0.0042034835,0.022096172,0.9089941,0.35610592,-0.21660595,-0.026178211,0.56742704,0.82300746,0.41598597,-0.74243873,0.52511,,0.04476796,-0.028093964,0.027583182,0.31980655,0.5850689,0.7452638,-0.485575,-0.57421815,0.6591588,0.8135974,-0.57268476,0.10045612,,0.10798982,1.3464022,0.44465783,0.9966619,-0.003720053,-0.08155509,-0.055178203,-0.7669469,-0.63933384,-0.06017007,0.64169973,-0.76459205,,-0.074471265,0.26706725,-0.08011127,-0.9350859,-0.31261414,0.16699325,0.19687934,-0.066375524,0.9781783,-0.29470813,0.9475583,0.12361409,,0.020002536,0.44485107,-0.32905507,-0.3892683,-0.5213211,-0.75940406,0.1675738,-0.8507537,0.49813363,-0.9057534,0.06665142,0.4185312,,0.9743463158094094,0.3602500431168249,0.20243901672000003,4.007384509932745,-0.40813322479937064,-1.6090250897605158,-0.4148939279810695,,-0.7553913933593962,0.12520866808980197,0.18500650880000002,-0.9402497065846072,-0.8854045184800541,-0.9831373632215665,0.8539627777500121,,-0.04375976767062783,-0.08274169651392119,0.07694186708,-0.052660797281082014,,0.00016638264,1.0728836e-06,-3.0994415e-06,1.0,-0.00013789535,-0.000115733594,0.00013789162,1.0,-1.0877848e-05,0.000115733594,1.0848045e-05,1.0,515,1.574,0,0,0.0,False,-0.2631548101423209,1.0279820178110888
1.5117472270067083,16:59:45.887194,16:59:30.133434,0,,0.12008935,0.0036564916,0.023412272,0.87552565,0.42939916,-0.22152,-0.07029185,0.56678945,0.8208585,0.47803128,-0.7031118,0.52642184,,0.044713907,-0.02813384,0.02767694,0.3197643,0.58570135,0.74478495,-0.48527294,-0.5738972,0.65966064,0.8137942,-0.5723598,0.10071316,,0.10795086,1.3464028,0.4446642,0.9966646,-0.0036824124,-0.08152371,-0.05512929,-0.7669471,-0.63933784,-0.06017007,0.64169973,-0.76459205,,-0.07480049,0.26747683,-0.08145462,-0.9053085,-0.3884616,0.17179693,0.20512317,-0.045664705,0.9776703,-0.3719423,0.92033273,0.12102311,,0.020080883,0.4448868,-0.32915017,-0.3892263,-0.5219555,-0.7589897,0.16791973,-0.85036474,0.49868107,-0.90570736,0.06665044,0.41863093,,0.9765009582813181,0.3593619288362891,0.20134624425000003,4.005916680328354,-0.49339440065300544,-1.6122760753191898,-0.41375051951812947,,-0.7555072343525095,0.12519322262405352,0.18491447221,-0.9408787764150608,-0.8854045184800541,-0.9833007207018476,0.8536360896177437,,-0.04375976767062783,-0.08274169651392119,0.07694186708,-0.052660797281082014,,0.00012714416,4.887581e-06,-5.1259995e-06,1.0,-0.0001003705,-8.4236264e-05,0.0001003705,0.9999999,-7.927418e-06,8.423999e-05,7.897615e-06,1.0,523,1.599,0,0,0.0,False,-0.2636910096090097,1.0282716990157654
1.595398475008551,16:59:45.914888,16:59:30.133434,0,,0.120045945,0.0034769028,0.023761049,0.87235755,0.43695867,-0.21922435,-0.07418741,0.5615651,0.8240999,0.48320648,-0.7026464,0.5223023,,0.04471256,-0.028136149,0.027694225,0.3197067,0.58595127,0.7446131,-0.48503104,-0.5738817,0.6598519,0.81396097,-0.57211953,0.10073063,,0.10795086,1.3464028,0.4446642,0.9966646,-0.0036824124,-0.08152371,-0.05512929,-0.7669471,-0.63933784,-0.06017007,0.64169973,-0.76459205,,-0.07477853,0.2675673,-0.081838176,-0.90244603,-0.39595318,0.16974181,0.20567028,-0.04977447,0.9773547,-0.3785379,0.9169207,0.12635458,,0.020080626,0.44489685,-0.32916448,-0.3891877,-0.5222271,-0.7588226,0.16821417,-0.8502097,0.49884608,-0.90566933,0.06650005,0.41873717,,0.977080163246885,0.3591070786514397,0.20098717192,4.005706990384869,-0.5011826811396356,-1.606415327249337,-0.4144038957826668,,-0.755522679818258,0.12519322262405352,0.18489891673000003,-0.9412981563020297,-0.8855411549798196,-0.9831893027981512,0.8536360896177437,,-0.04375976767062783,-0.08274169651392119,0.07694186708,-0.052660797281082014,,0.00012714416,4.887581e-06,-5.1259995e-06,1.0,-0.0001003705,-8.4236264e-05,0.0001003705,0.9999999,-7.927418e-06,8.423999e-05,7.897615e-06,1.0,531,1.624,0,0,0.0,False,-0.26351227645344677,1.028223418814986
1.6230973140045535,16:59:45.946053,16:59:30.133434,0,,0.12005025,0.00320521,0.024350151,0.86331415,0.45584968,-0.21654004,-0.083064735,0.55157393,0.8299797,0.4977839,-0.6985466,0.51404655,,0.04470866,-0.028142527,0.027714908,0.31957084,0.5859123,0.74470216,-0.48501945,-0.57400906,0.65974975,0.8140213,-0.5720316,0.10074219,,0.10795086,1.3464028,0.4446642,0.9966646,-0.0036824124,-0.08152371,-0.05512929,-0.7669471,-0.63933784,-0.06017007,0.64169973,-0.76459205,,-0.07481938,0.26773983,-0.08246222,-0.89429635,-0.41492528,0.16754426,0.20881547,-0.055815443,0.976361,-0.39576527,0.90814185,0.13655837,,0.020082626,0.44490638,-0.32918423,-0.38905826,-0.52219504,-0.7589111,0.16827329,-0.85024136,0.4987722,-0.905714,0.06634699,0.4186649,,0.9779528320616724,0.35877500113784805,0.20042717464,4.003400401006539,-0.5212682466051554,-1.594937619814397,-0.4121170788567865,,-0.7555381252840064,0.12519322262405352,0.18487817609,-0.9412981563020297,-0.8856777914795849,-0.9830778848944548,0.8536360896177437,,-0.04375976767062783,-0.08274169651392119,0.07694186708,-0.052660797281082014,,0.00012714416,4.887581e-06,-5.1259995e-06,1.0,-0.0001003705,-8.4236264e-05,0.0001003705,0.9999999,-7.927418e-06,8.423999e-05,7.897615e-06,1.0,543,1.661,0,0,0.0,False,-0.26309523242380006,1.0275474960040736
1.654268113008584,16:59:45.971321,16:59:30.284097,0,,0.12013659,0.0028952807,0.025022432,0.84898955,0.48126167,-0.21818317,-0.09758669,0.54860437,0.8303673,0.5193203,-0.6836816,0.51272404,,0.04469703,-0.028153747,0.027743697,0.31933758,0.58575046,0.74492943,-0.4849852,-0.5743215,0.6595029,0.8141332,-0.57188374,0.10067779,,0.10795086,1.3464028,0.4446642,0.9966646,-0.0036824124,-0.08152371,-0.05512929,-0.7669471,-0.63933784,-0.06017007,0.64169973,-0.76459205,,-0.07494721,0.26793224,-0.08317083,-0.8812726,-0.44125578,0.16926877,0.21244441,-0.049931623,0.9758966,-0.42216817,0.89599115,0.1377457,,0.020091617,0.4449184,-0.32921365,-0.38883707,-0.5220441,-0.7591282,0.16839084,-0.85035974,0.4985307,-0.9057871,0.06601697,0.41855884,,0.978802332677837,0.3584120326927595,0.19982569608000003,4.001303501571694,-0.5517381860528485,-1.593451546970296,-0.4121170788567867,,-0.755522679818258,0.12519322262405352,0.18484706513000002,-0.9412981563020297,-0.8859510644791159,-0.9827733703469214,0.8534727455516093,,-0.04375976767062783,-0.08274169651392119,0.07694186708,-0.052660797281082014,,0.00012714416,4.887581e-06,-5.1259995e-06,1.0,-0.0001003705,-8.4236264e-05,0.0001003705,0.9999999,-7.927418e-06,8.423999e-05,7.897615e-06,1.0,555,1.698,0,0,0.0,False,-0.2626186106756321,1.026630172189264
1.679514098999789,16:59:46.014165,16:59:30.284097,0,,0.12016371,0.0024890304,0.025837392,0.8360355,0.5018862,-0.22170855,-0.10956903,0.54865754,0.8288361,0.53762364,-0.6686443,0.5136883,,0.044690825,-0.028160468,0.027756095,0.31922475,0.58545184,0.74521255,-0.48496154,-0.5746725,0.6592144,0.8141915,-0.5718369,0.100471854,,0.10795086,1.3464028,0.4446642,0.9966646,-0.0036824124,-0.08152371,-0.05512929,-0.7669471,-0.63933784,-0.06017007,0.64169973,-0.76459205,,-0.075024344,0.26814654,-0.0840529,-0.8694318,-0.46286976,0.1727423,0.21584673,-0.041361798,0.97555083,-0.44440806,0.8854608,0.13587019,,0.020096708,0.44492224,-0.32922766,-0.38873053,-0.521747,-0.7593871,0.16845575,-0.8505646,0.49815914,-0.9058207,0.06572654,0.4185317,,0.9797831197528636,0.3579409459874318,0.19904014434000003,3.998787222249879,-0.5781090305075786,-1.5953080112370872,-0.4101569500631752,,-0.7555072343525095,0.1251854998911793,0.18483280594,-0.9412981563020297,-0.8860877009788813,-0.9823352374826628,0.8528193692870722,,-0.04375976767062783,-0.08274169651392119,0.07694186708,-0.052660797281082014,,0.00012714416,4.887581e-06,-5.1259995e-06,1.0,-0.0001003705,-8.4236264e-05,0.0001003705,0.9999999,-7.927418e-06,8.423999e-05,7.897615e-06,1.0,563,1.723,0,0,0.0,False,-0.2629164992682367,1.0275474960040736
1.722364330009441,16:59:46.037962,16:59:30.284097,0,,0.12014717,0.0022231191,0.026328668,0.82986134,0.5127835,-0.21996155,-0.11487423,0.5427877,0.8319767,0.5460165,-0.6651576,0.5093441,,0.04468266,-0.028164804,0.027764559,0.31920755,0.58535755,0.7452939,-0.48507583,-0.5746863,0.6591183,0.8141302,-0.57191956,0.10049853,,0.10795086,1.3464028,0.4446642,0.9966646,-0.0036824124,-0.08152371,-0.05512929,-0.7669471,-0.63933784,-0.06017007,0.64169973,-0.76459205,,-0.07503771,0.26826158,-0.084599644,-0.86377156,-0.47388983,0.17125158,0.21756433,-0.044204317,0.9750445,-0.45449358,0.8794739,0.14128396,,0.020104093,0.44492534,-0.32923728,-0.38870624,-0.5216452,-0.7594694,0.16833161,-0.8506235,0.49810052,-0.9058543,0.065772064,0.41845202,,0.9803700474513046,0.35758570027521747,0.19854107269000001,3.9973193926454877,-0.5904063154864682,-1.5890376219508753,-0.41505727204720344,,-0.7554840661538869,0.12519322262405352,0.18482113933000002,-0.9410884663585453,-0.8860877009788813,-0.9824169162228035,0.8526560252209379,,-0.04375976767062783,-0.08274169651392119,0.07694186708,-0.052660797281082014,,0.00012714416,4.887581e-06,-5.1259995e-06,1.0,-0.0001003705,-8.4236264e-05,0.0001003705,0.9999999,-7.927418e-06,8.423999e-05,7.897615e-06,1.0,596,1.824,0,0,0.0,False,-0.26249945523859,1.0268232929923817
1.7461680810083635,16:59:46.135644,16:59:30.284097,0,,0.12018679,0.0014332086,0.027642801,0.8059014,0.54992545,-0.21932803,-0.13384801,0.53009593,0.83730686,0.5767214,-0.6454305,0.5008114,,0.044682965,-0.02816622,0.027771473,0.31919467,0.5853043,0.7453412,-0.48507947,-0.57473886,0.6590699,0.81413305,-0.5719212,0.10046545,,0.10795086,1.3464028,0.4446642,0.9966646,-0.0036824124,-0.08152371,-0.05512929,-0.7669471,-0.63933784,-0.06017007,0.64169973,-0.76459205,,-0.075155914,0.26850465,-0.08610942,-0.8417022,-0.51210624,0.17112735,0.22425729,-0.043259606,0.97356933,-0.49116802,0.8578321,0.15125525,,0.020103155,0.4449289,-0.32924333,-0.38869366,-0.52159137,-0.7595128,0.16833183,-0.85065943,0.49803913,-0.9058596,0.06573447,0.41844636,,0.9816829120399228,0.35618016289210863,0.19723311608000002,3.9916577641714057,-0.6353597239092981,-1.5774565048579052,-0.412933799187458,,-0.7554995116196354,0.12519322262405352,0.18481465788,-0.9410884663585453,-0.8860877009788813,-0.9823352374826628,0.8528193692870722,,-0.04375976767062783,-0.08274169651392119,0.07694186708,-0.052660797281082014,,0.00012714416,4.887581e-06,-5.1259995e-06,1.0,-0.0001003705,-8.4236264e-05,0.0001003705,0.9999999,-7.927418e-06,8.423999e-05,7.897615e-06,1.0,608,1.862,0,0,0.0,False,-0.2629164992682367,1.026340490984587
1.8438515900052153,16:59:46.170398,16:59:30.442742,0,,0.120058775,0.0012686551,0.02785872,0.7999833,0.5582807,-0.21988447,-0.1384389,0.5283077,0.8376906,0.58383334,-0.63969815,0.49992496,,0.044678524,-0.028168678,0.0277704,0.31917483,0.5850874,0.74551994,-0.48518902,-0.574866,0.6588783,0.8140756,-0.5720154,0.1003952,,0.10795086,1.3464028,0.4446642,0.9966646,-0.0036824124,-0.08152371,-0.05512929,-0.7669471,-0.63933784,-0.06017007,0.64169973,-0.76459205,,-0.07504061,0.2685257,-0.08638573,-0.83621985,-0.5208095,0.17173778,0.22567892,-0.04139919,0.9733217,-0.49980536,0.8526685,0.15215454,,0.020107713,0.4449267,-0.32924443,-0.3886671,-0.521365,-0.75968176,0.16821395,-0.8508005,0.49783787,-0.9058929,0.065704145,0.41837904,,0.9826019172519554,0.3553538304745666,0.19702441339,3.9901899345670135,-0.646837189889595,-1.5763469537016026,-0.4127704551213236,,-0.7554763434210127,0.12519322262405352,0.18481336159000003,-0.9408787764150608,-0.8860877009788813,-0.9822535587425221,0.8526560252209379,,-0.04375976767062783,-0.08274169651392119,0.07694186708,-0.052660797281082014,,0.00012714416,4.887581e-06,-5.1259995e-06,1.0,-0.0001003705,-8.4236264e-05,0.0001003705,0.9999999,-7.927418e-06,8.423999e-05,7.897615e-06,1.0,616,1.886,0,0,0.0,False,-0.262797343831195,1.0261956503822487
1.8785732630058192,16:59:46.198465,16:59:30.442742,0,,0.119929045,0.0012336224,0.027880564,0.79917216,0.55990833,-0.21869269,-0.1394273,0.52656376,0.83862406,0.5847084,-0.6397135,0.49888146,,0.04467593,-0.028174803,0.027769804,0.31885839,0.58486664,0.7458286,-0.48575318,-0.57486093,0.65846694,0.81386316,-0.5722462,0.1008015,,0.10795086,1.3464028,0.4446642,0.9966646,-0.0036824124,-0.08152371,-0.05512929,-0.7669471,-0.63933784,-0.06017007,0.64169973,-0.76459205,,-0.07491217,0.2685204,-0.086430565,-0.83545595,-0.5224048,0.17060672,0.22553569,-0.042830404,0.97329295,-0.5011457,0.85162127,0.15360384,,0.020110415,0.444922,-0.32924834,-0.38832512,-0.52112347,-0.7600223,0.16767904,-0.8509362,0.4977865,-0.9061387,0.06586319,0.41782138,,0.9832737950120131,0.35487502103636465,0.19700108017,3.9901899345670135,-0.6491600103856076,-1.5746162068190444,-0.4130971432535919,,-0.7554763434210127,0.12520094535692775,0.18481206530000002,-0.9398303266976382,-0.8862243374786468,-0.9828772495000908,0.8515126167579976,,-0.04375976767062783,-0.08274169651392119,0.07694186708,-0.052660797281082014,,0.00012714416,4.887581e-06,-5.1259995e-06,1.0,-0.0001003705,-8.4236264e-05,0.0001003705,0.9999999,-7.927418e-06,8.423999e-05,7.897615e-06,1.0,628,1.923,0,0,0.0,False,-0.26232072208302704,1.0258576889767925
1.9066659130039625,16:59:46.228513,16:59:30.442742,0,,0.11968137,0.0012335926,0.02795443,0.79392505,0.5681994,-0.21640788,-0.1445514,0.5221095,0.8405393,0.5905827,-0.6360433,0.49664977,,0.044673614,-0.028183073,0.027766585,0.31865618,0.5856538,0.7452972,-0.48669615,-0.5736278,0.6588459,0.8133789,-0.57267845,0.1022453,,0.10795086,1.3464028,0.4446642,0.9966646,-0.0036824124,-0.08152371,-0.05512929,-0.7669471,-0.63933784,-0.06017007,0.64169973,-0.76459205,,-0.07467024,0.26858205,-0.086497396,-0.830549,-0.5308599,0.16845237,0.22571485,-0.04432812,0.97318435,-0.50915736,0.84629947,0.15663962,,0.020113127,0.44491395,-0.32925174,-0.38806653,-0.5218813,-0.7596343,0.16667403,-0.8503778,0.4990765,-0.90643483,0.06706357,0.4169872,,0.9849496280457197,0.3541259159475649,0.19699848759000002,3.9895608647365606,-0.6602275668666083,-1.570492081028068,-0.4121170788567865,,-0.7554917888867612,0.12520866808980197,0.18481076901000001,-0.938152807149762,-0.8860877009788813,-0.9855207083481448,0.8513492726918634,,-0.04375976767062783,-0.08274169651392119,0.07694186708,-0.052660797281082014,,0.00012714416,4.887581e-06,-5.1259995e-06,1.0,-0.0001003705,-8.4236264e-05,0.0001003705,0.9999999,-7.927418e-06,8.423999e-05,7.897615e-06,1.0,636,1.948,0,0,0.0,False,-0.26351227645344677,1.0262439305830282
1.9367011889989953,16:59:46.261865,16:59:30.442742,0,,0.119513094,0.0012670904,0.028064802,0.78541136,0.57935476,-0.217892,-0.14981557,0.51948637,0.84124255,0.60056996,-0.62807804,0.4948068,,0.044675246,-0.028181434,0.02777201,0.31816587,0.5855947,0.7455529,-0.48664957,-0.5740176,0.6585407,0.8135986,-0.5723481,0.10234654,,0.10795086,1.3464028,0.4446642,0.9966646,-0.0036824124,-0.08152371,-0.05512929,-0.7669471,-0.63933784,-0.06017007,0.64169973,-0.76459205,,-0.07451054,0.26868826,-0.08656692,-0.8226661,-0.5424976,0.17004937,0.22862421,-0.041822612,0.97261596,-0.5205299,0.8390156,0.15843414,,0.020110976,0.44491866,-0.32925448,-0.3875998,-0.521849,-0.7598947,0.16689208,-0.85043764,0.4989016,-0.9065944,0.06655375,0.41672194,,0.9864169472918224,0.3536162155778661,0.19700496904000003,3.9855767558103543,-0.6755308548403376,-1.5672429734499524,-0.4122804229229209,,-0.7554995116196354,0.12523183628842466,0.18481076901000001,-0.938152807149762,-0.8866342469779431,-0.9852383942136399,0.8516759608241318,,-0.04375976767062783,-0.08274169651392119,0.07694186708,-0.052660797281082014,,0.00012714416,4.887581e-06,-5.1259995e-06,1.0,-0.0001003705,-8.4236264e-05,0.0001003705,0.9999999,-7.927418e-06,8.423999e-05,7.897615e-06,1.0,665,2.037,0,0,0.0,False,-0.2641080536386573,1.0255197275713361
1.970053110999288,16:59:46.349956,16:59:30.588728,0,,0.11884406,0.0014809817,0.028576091,0.7486632,0.6182688,-0.23926334,-0.15469953,0.5138693,0.8438046,0.6446484,-0.5947118,0.4803608,,0.04466951,-0.028185114,0.027780175,0.3181787,0.585709,0.7454578,-0.486646,-0.5739113,0.658636,0.8135958,-0.57233787,0.10242644,,0.10795086,1.3464028,0.4446642,0.9966646,-0.0036824124,-0.08152371,-0.05512929,-0.7669471,-0.63933784,-0.06017007,0.64169973,-0.76459205,,-0.07388189,0.26921886,-0.08684629,-0.7889847,-0.5835354,0.19232674,0.25540423,-0.026790714,0.9664631,-0.55881286,0.8116457,0.17017487,,0.020115957,0.44492188,-0.3292633,-0.38761237,-0.5219649,-0.7598087,0.16689187,-0.85036093,0.49903244,-0.9065891,0.066625245,0.41672212,,0.9917996921051568,0.3516700868935615,0.19699978388000003,3.947203496152686,-0.7316884562439336,-1.5447286559707836,-0.414077207650398,,-0.7554840661538869,0.12523183628842466,0.18480039869,-0.938152807149762,-0.8866342469779431,-0.9854017516939212,0.8520026489564005,,-0.04375976767062783,-0.08274169651392119,0.07694186708,-0.052660797281082014,,0.00012714416,4.887581e-06,-5.1259995e-06,1.0,-0.0001003705,-8.4236264e-05,0.0001003705,0.9999999,-7.927418e-06,8.423999e-05,7.897615e-06,1.0,677,2.075,0,0,0.0,False,-0.26285692154971585,1.026437051386146
2.058180223000818,16:59:46.387203,16:59:30.588728,0,,0.11832883,0.0015127361,0.028853789,0.73077804,0.6357846,-0.24847792,-0.1540241,0.50820065,0.84735376,0.6650114,-0.58095616,0.46930793,,0.04466045,-0.028204247,0.027791321,0.31753707,0.58453554,0.7466514,-0.48776156,-0.57455915,0.65724456,0.8131783,-0.57288724,0.10267004,,0.10795086,1.3464028,0.4446642,0.9966646,-0.0036824124,-0.08152371,-0.05512929,-0.7669471,-0.63933784,-0.06017007,0.64169973,-0.76459205,,-0.07338766,0.2694513,-0.087059155,-0.7725641,-0.6018709,0.20222786,0.27006188,-0.023232758,0.9625626,-0.57464015,0.7982554,0.18049118,,0.020124152,0.44491598,-0.32928503,-0.38692054,-0.52073705,-0.7610029,0.16583699,-0.85112184,0.49808607,-0.907078,0.06651729,0.415674,,0.9950200717137085,0.3499401947297352,0.19693756196,3.924347292312873,-0.7573761181998364,-1.526804203461057,-0.412933799187458,,-0.7554840661538869,0.12523183628842466,0.18478354692,-0.9360559077149168,-0.8869075199774739,-0.9856689883273717,0.8520026489564003,,-0.04375976767062783,-0.08274169651392119,0.07694186708,-0.052660797281082014,,0.00012714416,4.887581e-06,-5.1259995e-06,1.0,-0.0001003705,-8.4236264e-05,0.0001003705,0.9999999,-7.927418e-06,8.423999e-05,7.897615e-06,1.0,685,2.099,0,0,0.0,False,-0.2637505873275314,1.0262439305830282
2.0954048270068597,16:59:46.415789,16:59:30.588728,0,,0.117897704,0.0014806241,0.029093996,0.7179583,0.6463417,-0.25841492,-0.15188685,0.5077584,0.8480046,0.6793132,-0.56958216,0.46272,,0.044642836,-0.028226018,0.027812183,0.3171981,0.58621025,0.74548155,-0.48878735,-0.5725702,0.65821743,0.8126945,-0.57316715,0.10491395,,0.10795086,1.3464028,0.4446642,0.9966646,-0.0036824124,-0.08152371,-0.05512929,-0.7669471,-0.63933784,-0.06017007,0.64169973,-0.76459205,,-0.072973736,0.2696061,-0.08728118,-0.7607994,-0.6131816,0.21258558,0.28163868,-0.016833028,0.9593729,-0.58469135,0.7897626,0.18550222,,0.020139981,0.44491532,-0.3293161,-0.38652486,-0.5224021,-0.7600622,0.16478136,-0.84996974,0.5003984,-0.90743905,0.06817232,0.41461655,,0.9974604553019635,0.34837247995626763,0.19682867360000003,3.9056848873427508,-0.7748655901698127,-1.516299933834381,-0.41326048731972675,,-0.7554608979552642,0.12523183628842466,0.18475243596000002,-0.9341686982235561,-0.8869075199774739,-0.9896712465942595,0.8518393048902664,,-0.04375976767062783,-0.08274169651392119,0.07694186708,-0.052660797281082014,,0.00012714416,4.887581e-06,-5.1259995e-06,1.0,-0.0001003705,-8.4236264e-05,0.0001003705,0.9999999,-7.927418e-06,8.423999e-05,7.897615e-06,1.0,693,2.124,0,0,0.0,False,-0.2629164992682367,1.0255680077721157
2.1240092130028643,16:59:46.440143,16:59:30.745616,0,,0.11762016,0.0014146417,0.029264584,0.7096184,0.65442646,-0.26108944,-0.15360044,0.50532913,0.8491461,0.68764,-0.56246644,0.45911095,,0.04461489,-0.028263748,0.027842522,0.31540316,0.5862095,0.7462434,-0.49007416,-0.57277954,0.65707743,0.81261814,-0.5729588,0.10662955,,0.10795086,1.3464028,0.4446642,0.9966646,-0.0036824124,-0.08152371,-0.05512929,-0.7669471,-0.63933784,-0.06017007,0.64169973,-0.76459205,,-0.072707675,0.2696815,-0.08746559,-0.7530301,-0.62170064,0.21548541,0.28617388,-0.0145537155,0.9580672,-0.5924949,0.7831197,0.18887387,,0.020165404,0.44491,-0.3293656,-0.3847151,-0.5224184,-0.7609687,0.1639144,-0.84998333,0.50066,-0.90836465,0.06787775,0.41263333,,0.9990745064726764,0.3472681291552535,0.19673145185000002,3.897506979546854,-0.7874361481482333,-1.509806708740776,-0.412933799187458,,-0.7553682251607735,0.12523183628842466,0.18471484355,-0.9314427289582573,-0.8884105214748937,-0.9917127992592212,0.8515126167579976,,-0.04375976767062783,-0.08274169651392119,0.07694186708,-0.052660797281082014,,0.00012714416,4.887581e-06,-5.1259995e-06,1.0,-0.0001003705,-8.4236264e-05,0.0001003705,0.9999999,-7.927418e-06,8.423999e-05,7.897615e-06,1.0,730,2.238,0,0,0.0,False,-0.26243987752006825,1.025712848374454
2.1483666249987436,16:59:46.548503,16:59:30.745616,0,,0.11607197,0.0010504574,0.029939145,0.65200007,0.7027057,-0.28478143,-0.16516486,0.4982017,0.8511847,0.74001116,-0.50793684,0.44088972,,0.044432335,-0.028384164,0.028048038,0.31234795,0.586811,0.7470552,-0.49003232,-0.5741694,0.6558947,0.81382257,-0.5709485,0.10821569,,0.10795086,1.3464028,0.4446642,0.9966646,-0.0036824124,-0.08152371,-0.05512929,-0.7669471,-0.63933784,-0.06017007,0.64169973,-0.76459205,,-0.0712044,0.26992652,-0.0882809,-0.6990013,-0.673521,0.24034695,0.3143903,0.012443629,0.94921225,-0.64230514,0.7390634,0.20305035,,0.020329194,0.4449732,-0.32960904,-0.38178805,-0.5231901,-0.76191205,0.16497937,-0.8496952,0.50079924,-0.90940624,0.06549938,0.41071904,,1.0073918897782161,0.33997014658911134,0.19652923061000002,3.8417294545799705,-0.8685982290089049,-1.4753975038597804,-0.4144038957826668,,-0.7546731792020933,0.12525500448704732,0.18445817813,-0.9303942792408346,-0.8922363434683261,-0.9925953562226089,0.8506958964273266,,-0.04375976767062783,-0.08274169651392119,0.07694186708,-0.052660797281082014,,0.00012714416,4.887581e-06,-5.1259995e-06,1.0,-0.0001003705,-8.4236264e-05,0.0001003705,0.9999999,-7.927418e-06,8.423999e-05,7.897615e-06,1.0,738,2.262,0,0,0.0,False,-0.26285692154971585,1.0254231671697775
2.2567233510053484,16:59:46.578122,16:59:30.745616,0,,0.11572774,0.0009685755,0.030047521,0.63510543,0.71435493,-0.29383346,-0.16340065,0.49604586,0.85278285,0.7549446,-0.4935946,0.4317674,,0.044374183,-0.028416634,0.028114319,0.31238848,0.58673024,0.7471018,-0.48997524,-0.57425547,0.6558619,0.81384134,-0.57094496,0.10809246,,0.10795086,1.3464028,0.4446642,0.9966646,-0.0036824124,-0.08152371,-0.05512929,-0.7669471,-0.63933784,-0.06017007,0.64169973,-0.76459205,,-0.07086727,0.26995346,-0.08843108,-0.6832099,-0.6860998,0.2499826,0.32632065,0.01938948,0.94506025,-0.65325266,0.72724897,0.21064146,,0.020381225,0.4449982,-0.32968315,-0.38183084,-0.5231089,-0.7619464,0.16503103,-0.8497503,0.50068873,-0.9093789,0.06543361,0.41079006,,1.008797427161325,0.3379545133089388,0.19653700835000001,3.8184538708531885,-0.8881372484753629,-1.4590563499304894,-0.4142405517165324,,-0.7544801108802377,0.12526272721992154,0.18437003041000002,-0.9303942792408346,-0.8923729799680916,-0.992565617059053,0.850859240493461,,-0.04375976767062783,-0.08274169651392119,0.07694186708,-0.052660797281082014,,0.00012714416,4.887581e-06,-5.1259995e-06,1.0,-0.0001003705,-8.4236264e-05,0.0001003705,0.9999999,-7.927418e-06,8.423999e-05,7.897615e-06,1.0,746,2.288,0,0,0.0,False,-0.2636314318904893,1.0245058433549676
2.286342934006825,16:59:46.612144,16:59:30.910564,0,,0.11540894,0.0008748621,0.03009905,0.6207317,0.7227122,-0.30393934,-0.1588473,0.49555513,0.8539277,0.7677629,-0.4817802,0.42240757,,0.044322178,-0.02844894,0.028170884,0.311818,0.5864069,0.74759376,-0.48982787,-0.5749933,0.6553254,0.8141488,-0.5705344,0.107945114,,0.10795086,1.3464028,0.4446642,0.9966646,-0.0036824124,-0.08152371,-0.05512929,-0.7669471,-0.63933784,-0.06017007,0.64169973,-0.76459205,,-0.07055139,0.2699333,-0.08854458,-0.66983,-0.695246,0.26069292,0.33887038,0.02616073,0.94046926,-0.66067743,0.71829563,0.21807502,,0.020428041,0.44501638,-0.3297497,-0.38129383,-0.5228168,-0.76241565,0.16538814,-0.8499928,0.50015897,-0.90953934,0.06461302,0.41056472,,1.0097859369692257,0.33593115729589196,0.19655645270000002,3.794339527352468,-0.9028939904500305,-1.4429392793242477,-0.41391386358426385,,-0.7542793198255079,0.12526272721992154,0.18429743817000002,-0.9303942792408346,-0.8931927989666841,-0.9919787883770151,0.8506958964273263,,-0.04375976767062783,-0.08274169651392119,0.07694186708,-0.052660797281082014,,0.00012714416,4.887581e-06,-5.1259995e-06,1.0,-0.0001003705,-8.4236264e-05,0.0001003705,0.9999999,-7.927418e-06,8.423999e-05,7.897615e-06,1.0,758,2.325,0,0,0.0,False,-0.26285692154971585,1.0249403651619828
2.3203228659986053,16:59:46.643904,16:59:30.910564,0,,0.11513542,0.00064125657,0.030139282,0.5992788,0.7419119,-0.30071828,-0.16389334,0.48139173,0.86104625,0.783584,-0.46672136,0.41008222,,0.044252098,-0.028487578,0.028234959,0.31155777,0.5863846,0.74771976,-0.4896958,-0.5752651,0.6551855,0.81432784,-0.57028323,0.10792169,,0.10795086,1.3464028,0.4446642,0.9966646,-0.0036824124,-0.08152371,-0.05512929,-0.7669471,-0.63933784,-0.06017007,0.64169973,-0.76459205,,-0.070277706,0.26979667,-0.08873808,-0.6494476,-0.71521956,0.2582224,0.3464401,0.023988876,0.9377653,-0.67690253,0.69848806,0.2322012,,0.020492228,0.4450362,-0.32982716,-0.3810533,-0.522815,-0.7625371,0.16562489,-0.8500219,0.5000311,-0.90959704,0.06424339,0.41049483,,1.0105736557223968,0.33321275532416494,0.19660052656000002,3.774838362608407,-0.9302212904031185,-1.4165717615779354,-0.41375051951812947,,-0.7540013014420358,0.12526272721992154,0.18420669787000002,-0.9303942792408346,-0.8937393449657459,-0.9919415104629322,0.8502058642289234,,-0.04375976767062783,-0.08274169651392119,0.07694186708,-0.052660797281082014,,0.00012714416,4.887581e-06,-5.1259995e-06,1.0,-0.0001003705,-8.4236264e-05,0.0001003705,0.9999999,-7.927418e-06,8.423999e-05,7.897615e-06,1.0,795,2.438,0,0,0.0,False,-0.2632143878608417,1.0249403651619828
2.3521173909975914,16:59:46.751816,16:59:30.910564,0,,0.114648536,8.6054206e-05,0.030158624,0.54582584,0.7761666,-0.3156571,-0.172297,0.47264302,0.8642466,0.8199927,-0.41734147,0.39171183,,0.044157304,-0.028541505,0.028326869,0.311526,0.586511,0.7476339,-0.4894378,-0.5753544,0.65529984,0.8144951,-0.570063,0.107822716,,0.10795086,1.3464028,0.4446642,0.9966646,-0.0036824124,-0.08152371,-0.05512929,-0.7669471,-0.63933784,-0.06017007,0.64169973,-0.76459205,,-0.069784775,0.2694135,-0.08913289,-0.5985181,-0.75266916,0.27434513,0.36653703,0.04722344,0.9292043,-0.7123389,0.6567032,0.24761705,,0.020578565,0.44506538,-0.32993686,-0.38104063,-0.52296054,-0.76244366,0.16592965,-0.8499485,0.50005484,-0.9095468,0.0640292,0.41063958,,1.0108825650373656,0.3270654599562822,0.19675867394000002,3.7205286672459157,-0.9906146232994433,-1.3757379583785951,-0.4147305839149351,,-0.7536383329969473,0.1252472817541731,0.18407966145000002,-0.9306039691843192,-0.8941492544650423,-0.9920156504525457,0.8495524879643863,,-0.04375976767062783,-0.08274169651392119,0.07694186708,-0.052660797281082014,,0.00012714416,4.887581e-06,-5.1259995e-06,1.0,-0.0001003705,-8.4236264e-05,0.0001003705,0.9999999,-7.927418e-06,8.423999e-05,7.897615e-06,1.0,811,2.489,0,0,0.0,False,-0.26327396557936344,1.024023041347173
2.4599904810020234,16:59:46.800852,16:59:31.073157,0,,0.1144871,2.105534e-05,0.030328408,0.5135111,0.793282,-0.3271236,-0.17341042,0.46929902,0.86584467,0.840378,-0.38789445,0.37855357,,0.044153117,-0.028547093,0.028339446,0.3115233,0.5866933,0.7474919,-0.48943305,-0.57519954,0.6554393,0.81449896,-0.5700317,0.10795894,,0.10795086,1.3464028,0.4446642,0.9966646,-0.0036824124,-0.08152371,-0.05512929,-0.7669471,-0.63933784,-0.06017007,0.64169973,-0.76459205,,-0.06963449,0.26948258,-0.08931107,-0.5676781,-0.77172714,0.28666845,0.3806621,0.06269428,0.92258644,-0.72995746,0.63285595,0.2581771,,0.020581622,0.44507,-0.3299501,-0.38103837,-0.52314687,-0.76231694,0.16593593,-0.8498268,0.5002595,-0.9095466,0.06412231,0.41062552,,1.0106817739826357,0.325096163073355,0.19681959957000003,3.677542228831588,-1.0219043817457292,-1.3429538505596046,-0.4148939279810693,,-0.7536383329969473,0.12523955902129888,0.18406540226,-0.9306039691843192,-0.8941492544650423,-0.9922606866729674,0.8495524879643863,,-0.04375976767062783,-0.08274169651392119,0.07694186708,-0.052660797281082014,,0.00012714416,4.887581e-06,-5.1259995e-06,1.0,-0.0001003705,-8.4236264e-05,0.0001003705,0.9999999,-7.927418e-06,8.423999e-05,7.897615e-06,1.0,823,2.525,0,0,0.0,False,-0.26202283349042155,1.024747244358865
2.5090719840081874,16:59:46.841949,16:59:31.073157,0,,0.11441164,5.558133e-05,0.030500844,0.49144948,0.8055252,-0.33106875,-0.17096817,0.46198004,0.8702552,0.8539598,-0.3710844,0.36475888,,0.044155844,-0.028549537,0.028341234,0.31150505,0.5867603,0.74744695,-0.48942715,-0.5751561,0.6554818,0.81450945,-0.57000667,0.10801229,,0.10795086,1.3464028,0.4446642,0.9966646,-0.0036824124,-0.08152371,-0.05512929,-0.7669471,-0.63933784,-0.06017007,0.64169973,-0.76459205,,-0.06957168,0.26962435,-0.089423224,-0.54664963,-0.7849891,0.29148972,0.3925301,0.06726231,0.9172763,-0.7396582,0.6158473,0.27136296,,0.020578768,0.44506922,-0.32995287,-0.3810213,-0.5232164,-0.7622777,0.16594866,-0.8497829,0.50033,-0.90955144,0.0641374,0.41061246,,1.0102647464074277,0.3242621079229387,0.19682867360000003,3.6414755585522496,-1.0399403997147674,-1.3081537171970985,-0.4142405517165322,,-0.7536537784626957,0.12522411355555044,0.18406410597000003,-0.9306039691843192,-0.8941492544650423,-0.9923423654131078,0.8503692082950576,,-0.04375976767062783,-0.08274169651392119,0.07694186708,-0.052660797281082014,,0.00012714416,4.887581e-06,-5.1259995e-06,1.0,-0.0001003705,-8.4236264e-05,0.0001003705,0.9999999,-7.927418e-06,8.423999e-05,7.897615e-06,1.0,831,2.55,0,0,0.0,False,-0.26190367805337944,1.0248438047604238
2.55015578000166,16:59:46.869372,16:59:31.073157,0,,0.11440934,0.00014291704,0.030771941,0.46211922,0.820676,-0.3360605,-0.17571059,0.4561716,0.8723721,0.86923635,-0.34409067,0.35500696,,0.044153437,-0.028549328,0.0283432,0.3115142,0.5867573,0.7474455,-0.4894301,-0.5751511,0.655484,0.8145042,-0.5700148,0.10800886,,0.10795086,1.3464028,0.4446642,0.9966646,-0.0036824124,-0.08152371,-0.05512929,-0.7669471,-0.63933784,-0.06017007,0.64169973,-0.76459205,,-0.06958951,0.26986587,-0.08957317,-0.5183767,-0.8018795,0.29711086,0.4004259,0.0793839,0.91288406,-0.75560886,0.5921887,0.27994257,,0.020580968,0.44507092,-0.32995436,-0.38102984,-0.5232128,-0.762276,0.1659423,-0.84978443,0.50032943,-0.909549,0.06414662,0.41061637,,1.0097318778391062,0.323860525813479,0.19685071053000003,3.603521678781551,-1.0672676996678554,-1.274925185278979,-0.4142405517165322,,-0.7536460557298215,0.12523183628842466,0.18406151339000001,-0.9306039691843192,-0.8941492544650423,-0.9923423654131078,0.8503692082950576,,-0.04375976767062783,-0.08274169651392119,0.07694186708,-0.052660797281082014,,0.00012714416,4.887581e-06,-5.1259995e-06,1.0,-0.0001003705,-8.4236264e-05,0.0001003705,0.9999999,-7.927418e-06,8.423999e-05,7.897615e-06,1.0,856,2.627,0,0,0.0,False,-0.262797343831195,1.0249886453627624
2.577590586995939,16:59:46.942149,16:59:31.073157,0,,0.11439183,0.00028590858,0.03125216,0.40458578,0.8474764,-0.34364784,-0.18603751,0.4441921,0.8764036,0.8953773,-0.2906492,0.33737612,,0.044142082,-0.0285566,0.028346062,0.3113561,0.5863939,0.74779654,-0.48962727,-0.5754286,0.6550931,0.81444615,-0.57010865,0.107951134,,0.10795086,1.3464028,0.4446642,0.9966646,-0.0036824124,-0.08152371,-0.05512929,-0.7669471,-0.63933784,-0.06017007,0.64169973,-0.76459205,,-0.069607496,0.27028552,-0.0898469,-0.46263674,-0.83212453,0.30583653,0.4126668,0.10319676,0.90501744,-0.78464854,0.54490286,0.29564756,,0.020592084,0.44506833,-0.3299621,-0.3808646,-0.5228387,-0.76261514,0.16576968,-0.8500253,0.49997738,-0.9096497,0.06400521,0.41041535,,1.0080946584697705,0.32294924333432057,0.19691811761000003,3.524049190200916,-1.1187796600794262,-1.2035979678749664,-0.41505727204720344,,-0.7535919965997019,0.12523183628842466,0.18405373565000002,-0.93018458929735,-0.8942858909648077,-0.9922309475094115,0.8503692082950576,,-0.04375976767062783,-0.08274169651392119,0.07694186708,-0.052660797281082014,,0.00012714416,4.887581e-06,-5.1259995e-06,1.0,-0.0001003705,-8.4236264e-05,0.0001003705,0.9999999,-7.927418e-06,8.423999e-05,7.897615e-06,1.0,864,2.651,0,0,0.0,False,-0.26232072208302704,1.0248920849612033
2.6503603809978813,16:59:46.965324,16:59:31.073157,0,,0.11444093,0.00028672814,0.031488046,0.37672788,0.85818243,-0.3487104,-0.19364661,0.44108912,0.87632275,0.90585715,-0.26260868,0.33235464,,0.04417608,-0.0285559,0.028341055,0.31139943,0.58622783,0.7479086,-0.48971862,-0.5754836,0.65497655,0.81437474,-0.570224,0.10788137,,0.10793657,1.3464072,0.4446724,0.99666417,-0.0036881466,-0.08152849,-0.05513674,-0.7669471,-0.63933724,-0.06017007,0.64169973,-0.76459205,,-0.06965671,0.27043387,-0.09001568,-0.4354575,-0.8446925,0.31124163,0.41520324,0.118312135,0.9020025,-0.7987384,0.5220123,0.29919916,,0.020574648,0.44506076,-0.32994816,-0.38090324,-0.5226664,-0.7627139,0.16565298,-0.85012823,0.49984103,-0.9096548,0.06404525,0.41039786,,1.0071833759906121,0.32240865203312485,0.19694533970000003,3.4858856204867332,-1.1444673220353292,-1.1721148445019063,-0.4168540567746808,,-0.7535533829353308,0.12523183628842466,0.18405114307,-0.9299748993538655,-0.8942858909648077,-0.9922309475094115,0.8503692082950576,,-0.04375976767062783,-0.08274169651392119,0.07694186708,-0.052660797281082014,,0.00011215918,6.7949295e-06,-1.3113022e-05,1.0,-0.00010608509,-8.903816e-05,0.00010608509,1.0,-8.374453e-06,8.903816e-05,8.34465e-06,1.0,876,2.689,0,0,0.0,False,-0.26255903295711036,1.0245058433549676
2.6735154960042564,16:59:47.003325,16:59:31.298223,0,,0.11433943,0.00033654273,0.031631157,0.35485995,0.8662827,-0.35160863,-0.19238067,0.43569583,0.8792945,0.9149121,-0.24438375,0.32126695,,0.044161625,-0.028561726,0.028346479,0.31145728,0.5861936,0.74791133,-0.48970237,-0.57548934,0.6549836,0.8143623,-0.5702533,0.107819974,,0.10793657,1.3464072,0.4446724,0.99666417,-0.0036881466,-0.08152849,-0.05513674,-0.7669471,-0.63933724,-0.06017007,0.64169973,-0.76459205,,-0.06956614,0.2705699,-0.09009671,-0.41429082,-0.8539498,0.3148537,0.4232445,0.12549482,0.89728206,-0.8057464,0.5049958,0.30943823,,0.020588597,0.4450612,-0.32995698,-0.3809599,-0.5226295,-0.7627109,0.16565232,-0.85014975,0.49980465,-0.9096312,0.06406069,0.41044778,,1.006140807052592,0.32175221973881574,0.19696867292000003,3.441850732354983,-1.1588141545107005,-1.1304398669821958,-0.41571064831174076,,-0.7534838783394627,0.12523183628842466,0.18403947646000002,-0.9299748993538655,-0.8942858909648077,-0.9922309475094115,0.8503692082950576,,-0.04375976767062783,-0.08274169651392119,0.07694186708,-0.052660797281082014,,0.00011215918,6.7949295e-06,-1.3113022e-05,1.0,-0.00010608509,-8.903816e-05,0.00010608509,1.0,-8.374453e-06,8.903816e-05,8.34465e-06,1.0,884,2.714,0,0,0.0,False,-0.26309523242380006,1.024747244358865
2.711511100002099,16:59:47.035609,16:59:31.298223,0,,0.11420348,0.00039301813,0.03173849,0.33628196,0.8764094,-0.344704,-0.18713737,0.42090708,0.88759047,0.9229811,-0.2339737,0.30555236,,0.044143997,-0.028567135,0.02834642,0.3114971,0.5860042,0.74804324,-0.48979878,-0.57556343,0.6548465,0.8142891,-0.57037336,0.10773778,,0.10793657,1.3464072,0.4446724,0.99666417,-0.0036881466,-0.08152849,-0.05513674,-0.7669471,-0.63933724,-0.06017007,0.64169973,-0.76459205,,-0.06943884,0.27068982,-0.090147674,-0.39639926,-0.864542,0.30892518,0.43349546,0.120362096,0.89308155,-0.8092894,0.48793453,0.3270636,,0.020606209,0.44505847,-0.32996166,-0.38099137,-0.5224287,-0.76283276,0.16552922,-0.8502712,0.49963883,-0.9096404,0.064086966,0.41042322,,1.0050596244502004,0.3211344011088778,0.19697904324,3.396138324675356,-1.1671489809963922,-1.0752895606935016,-0.41554730424560615,,-0.7533912055449721,0.12523955902129888,0.18403169872000003,-0.9297652094103809,-0.8942858909648077,-0.9922309475094115,0.8503692082950576,,-0.04375976767062783,-0.08274169651392119,0.07694186708,-0.052660797281082014,,0.00011215918,6.7949295e-06,-1.3113022e-05,1.0,-0.00010608509,-8.903816e-05,0.00010608509,1.0,-8.374453e-06,8.903816e-05,8.34465e-06,1.0,896,2.751,0,0,0.0,False,-0.26255903295711036,1.0248920849612033
2.7438211999979103,16:59:47.071073,16:59:31.298223,0,,0.113950685,0.00053440034,0.03195606,0.30289182,0.8878392,-0.34640732,-0.18233433,0.41075352,0.8933285,0.9354201,-0.20741996,0.28629738,,0.04411929,-0.02857554,0.028340638,0.3115001,0.58587956,0.7481396,-0.4897411,-0.5757111,0.65475976,0.8143227,-0.5703524,0.107595116,,0.10793657,1.3464072,0.4446724,0.99666417,-0.0036881466,-0.08152849,-0.05513674,-0.7669471,-0.63933724,-0.06017007,0.64169973,-0.76459205,,-0.06920391,0.2709522,-0.09023259,-0.36402842,-0.8776229,0.31186754,0.4470669,0.12909865,0.8851354,-0.8170768,0.4616401,0.34536058,,0.020631457,0.44505018,-0.32996467,-0.38099828,-0.5223048,-0.7629142,0.16559403,-0.85035664,0.49947196,-0.9096257,0.06396394,0.41047496,,1.0033529004849968,0.32045480061594606,0.1970101542,3.3172949059251753,-1.1835453609682451,-0.9975565650191677,-0.41636402457627786,,-0.7532367508874875,0.12523183628842466,0.18402651356000002,-0.9297652094103809,-0.8944225274645732,-0.992119529605715,0.8503692082950576,,-0.04375976767062783,-0.08274169651392119,0.07694186708,-0.052660797281082014,,0.00011215918,6.7949295e-06,-1.3113022e-05,1.0,-0.00010608509,-8.903816e-05,0.00010608509,1.0,-8.374453e-06,8.903816e-05,8.34465e-06,1.0,921,2.828,0,0,0.0,False,-0.2626781883941529,1.0248920849612033
2.7792726030020276,16:59:47.136269,16:59:31.298223,0,,0.11352281,0.00078848004,0.032288298,0.24088027,0.9075157,-0.34408107,-0.17580628,0.3894543,0.90411144,0.95449936,-0.15729097,0.25335875,,0.044076614,-0.028587148,0.02833289,0.31166846,0.58579725,0.7481339,-0.4898014,-0.5756376,0.6547793,0.814222,-0.57051104,0.10751614,,0.10793657,1.3464072,0.4446724,0.99666417,-0.0036881466,-0.08152849,-0.05513674,-0.7669471,-0.63933724,-0.06017007,0.64169973,-0.76459205,,-0.06880405,0.2713843,-0.09033934,-0.3035944,-0.90038824,0.31165916,0.46785456,0.14407504,0.87198305,-0.8300256,0.41054034,0.3775104,,0.020674817,0.44503954,-0.32996944,-0.38115564,-0.52220875,-0.7629013,0.16546951,-0.8504034,0.49943352,-0.90958244,0.06412501,0.4105457,,0.9992366838630351,0.3199528229791214,0.19708663531,3.1642212471814726,-1.2090963864243824,-0.8428499619375555,-0.4158739923778749,,-0.7529896234355123,0.12523955902129888,0.18401484695,-0.9295555194668965,-0.8944225274645732,-0.9923645658261369,0.8505325523611922,,-0.04375976767062783,-0.08274169651392119,0.07694186708,-0.052660797281082014,,0.00011215918,6.7949295e-06,-1.3113022e-05,1.0,-0.00010608509,-8.903816e-05,0.00010608509,1.0,-8.374453e-06,8.903816e-05,8.34465e-06,1.0,929,2.852,0,0,0.0,False,-0.2623802998015474,1.0248438047604238
2.844443952999427,16:59:47.166789,16:59:31.454112,0,,0.113423266,0.0008484274,0.032300696,0.22672102,0.9106514,-0.3454151,-0.16932967,0.3861042,0.90678054,0.9591273,-0.14709724,0.24173817,,0.044063784,-0.028593019,0.028334558,0.3117237,0.58582324,0.74809057,-0.48978046,-0.5755956,0.65483177,0.8142134,-0.5705267,0.1074979,,0.10793657,1.3464072,0.4446724,0.99666417,-0.0036881466,-0.08152849,-0.05513674,-0.7669471,-0.63933724,-0.06017007,0.64169973,-0.76459205,,-0.06870654,0.27144364,-0.09031425,-0.28989154,-0.9041694,0.3137525,0.47657672,0.14791729,0.86659974,-0.8299624,0.4007471,0.3880261,,0.020687496,0.4450373,-0.32997546,-0.38121006,-0.52223366,-0.7628571,0.16547514,-0.850385,0.49946302,-0.9095586,0.06416645,0.41059202,,0.9978311464799262,0.31996826844486986,0.19711126482000002,3.122283258484568,-1.2090963864243824,-0.8020922706074148,-0.4173440889730837,,-0.7529201188396444,0.12523183628842466,0.18400706921,-0.9295555194668965,-0.8944225274645732,-0.9924462445662774,0.8506958964273266,,-0.04375976767062783,-0.08274169651392119,0.07694186708,-0.052660797281082014,,0.00011215918,6.7949295e-06,-1.3113022e-05,1.0,-0.00010608509,-8.903816e-05,0.00010608509,1.0,-8.374453e-06,8.903816e-05,8.34465e-06,1.0,941,2.89,0,0,0.0,False,-0.26249945523859,1.0251817661658802
2.8750125100050354,16:59:47.200419,16:59:31.454112,0,,0.11329089,0.00092692673,0.03238307,0.19287376,0.91933024,-0.34297448,-0.16917092,0.37545896,0.9112693,0.9665304,-0.117738634,0.22794014,,0.044045515,-0.028621256,0.028335214,0.3109906,0.58416903,0.74968755,-0.49155867,-0.57624143,0.6529287,0.8134218,-0.57157004,0.10794762,,0.10793657,1.3464072,0.4446724,0.99666417,-0.0036881466,-0.08152849,-0.05513674,-0.7669471,-0.63933724,-0.06017007,0.64169973,-0.76459205,,-0.06858142,0.27156407,-0.09033181,-0.25664422,-0.9146928,0.31220317,0.4833867,0.15824334,0.8609857,-0.8369415,0.37188184,0.4015381,,0.020705968,0.4450183,-0.32999617,-0.38038376,-0.5204805,-0.764466,0.16368757,-0.8514421,0.4982497,-0.9102278,0.064392515,0.40907094,,0.9946030441385004,0.32016905949959973,0.19719033851,3.036520071599397,-1.2215303079030375,-0.716155370520599,-0.4178341211714862,,-0.752873782442399,0.12522411355555044,0.18399281002,-0.926200480371144,-0.8945591639643387,-0.9933149715442677,0.8510225845595951,,-0.04375976767062783,-0.08274169651392119,0.07694186708,-0.052660797281082014,,0.00011215918,6.7949295e-06,-1.3113022e-05,1.0,-0.00010608509,-8.903816e-05,0.00010608509,1.0,-8.374453e-06,8.903816e-05,8.34465e-06,1.0,949,2.915,0,0,0.0,False,-0.2629164992682367,1.0252783265674388
2.9086422010004753,16:59:47.230750,16:59:31.454112,0,,0.11319767,0.0009786487,0.032432318,0.16729158,0.92216283,-0.34875375,-0.1717068,0.3755846,0.91074306,0.9708401,-0.09247629,0.22117373,,0.044025198,-0.028647706,0.028360903,0.30998415,0.5864956,0.74828655,-0.4919699,-0.5745392,0.65411794,0.81355727,-0.57090056,0.110440075,,0.10793657,1.3464072,0.4446724,0.99666417,-0.0036881466,-0.08152849,-0.05513674,-0.7669471,-0.63933724,-0.06017007,0.64169973,-0.76459205,,-0.06849264,0.27164054,-0.09033982,-0.23138532,-0.91926825,0.31844425,0.48568037,0.17446879,0.8565484,-0.84295636,0.35285485,0.40610102,,0.020724097,0.4450176,-0.33003414,-0.37938964,-0.5228806,-0.7633213,0.16354978,-0.8499089,0.50090545,-0.9106673,0.06519733,0.40796366,,0.9914521691258168,0.32061697800630473,0.19728756026000002,2.959354172397092,-1.2354672308791126,-0.6441034404191261,-0.4184874974360233,,-0.7527965551136567,0.12520094535692775,0.18396169906,-0.9251520306537214,-0.8955156194626968,-0.9971090556662644,0.8513492726918634,,-0.04375976767062783,-0.08274169651392119,0.07694186708,-0.052660797281082014,,0.00011215918,6.7949295e-06,-1.3113022e-05,1.0,-0.00010608509,-8.903816e-05,0.00010608509,1.0,-8.374453e-06,8.903816e-05,8.34465e-06,1.0,982,3.016,0,0,0.0,False,-0.26309523242380006,1.0249886453627624
2.9389430270093726,16:59:47.328385,16:59:31.624431,0,,0.11284017,0.001250416,0.03248094,0.104294315,0.9326771,-0.3453056,-0.1829839,0.35926706,0.91511965,0.97756827,-0.032256454,0.20813432,,0.043908164,-0.028716207,0.028381288,0.30958343,0.58634233,0.7485725,-0.4921052,-0.57482386,0.653766,0.8136281,-0.5707715,0.11058611,,0.10793657,1.3464072,0.4446724,0.99666417,-0.0036881466,-0.08152849,-0.05513674,-0.7669471,-0.63933724,-0.06017007,0.64169973,-0.76459205,,-0.06814362,0.27189925,-0.09021624,-0.16883728,-0.9336699,0.31583917,0.48498797,0.20026764,0.8512811,-0.858068,0.2969062,0.41900605,,0.020839509,0.4449895,-0.33010262,-0.37899578,-0.5227367,-0.7636154,0.16352718,-0.8500202,0.5007241,-0.9108354,0.06490044,0.40763572,,0.9865018973534389,0.3224009293002506,0.19757533664000002,2.806909583483843,-1.2545963408462744,-0.49830902211757067,-0.41685405677468057,,-0.7521555682850961,0.12510054982956284,0.18388781053000003,-0.9243132708797833,-0.8963354384612893,-0.9978290868264752,0.850532552361192,,-0.04375976767062783,-0.08274169651392119,0.07694186708,-0.052660797281082014,,0.00011215918,6.7949295e-06,-1.3113022e-05,1.0,-0.00010608509,-8.903816e-05,0.00010608509,1.0,-8.374453e-06,8.903816e-05,8.34465e-06,1.0,990,3.041,0,0,0.0,False,-0.2623802998015474,1.0243610027526293
3.036606228997698,16:59:47.357932,16:59:31.624431,0,,0.11275847,0.0014027208,0.032510385,0.08997849,0.9358053,-0.34084025,-0.18672073,0.3520108,0.9171825,0.9782839,-0.018884763,0.20640758,,0.043839946,-0.028747931,0.028369129,0.30941287,0.58530396,0.749455,-0.49264008,-0.5754584,0.65280414,0.81336915,-0.57119757,0.1102899,,0.10793657,1.3464072,0.4446724,0.99666417,-0.0036881466,-0.08152849,-0.05513674,-0.7669471,-0.63933724,-0.06017007,0.64169973,-0.76459205,,-0.06806654,0.27203897,-0.090143576,-0.15454905,-0.937603,0.31147256,0.48341113,0.20318216,0.85148734,-0.8616428,0.28216586,0.42184615,,0.020908946,0.44496298,-0.33011946,-0.378795,-0.52165514,-0.7644542,0.16297184,-0.8506981,0.49975282,-0.9110184,0.064719364,0.4072553,,0.9853975465524247,0.3234898346355163,0.19767255839000003,2.766649114334814,-1.2592419818382992,-0.4551516606441416,-0.41652736864241224,,-0.7517617089085107,0.12507738163094015,0.18386706989,-0.9230551312188762,-0.8966087114608202,-0.9977696084993636,0.8502058642289232,,-0.04375976767062783,-0.08274169651392119,0.07694186708,-0.052660797281082014,,0.00011215918,6.7949295e-06,-1.3113022e-05,1.0,-0.00010608509,-8.903816e-05,0.00010608509,1.0,-8.374453e-06,8.903816e-05,8.34465e-06,1.0,1002,3.078,0,0,0.0,False,-0.26243987752006825,1.0234919591385991
3.066121526004281,16:59:47.388925,16:59:31.624431,0,,0.112647146,0.001597926,0.032552496,0.07640192,0.93670446,-0.34168318,-0.1913588,0.35008976,0.9169618,0.9785421,-0.0046735704,0.20599413,,0.04376009,-0.028776482,0.028357089,0.30923608,0.585014,0.7497544,-0.49267805,-0.5757925,0.65248096,0.81341344,-0.5711582,0.11016765,,0.10793657,1.3464072,0.4446724,0.99666417,-0.0036881466,-0.08152849,-0.05513674,-0.7669471,-0.63933724,-0.06017007,0.64169973,-0.76459205,,-0.067961425,0.2722212,-0.09005407,-0.14095259,-0.9394534,0.31234542,0.48081064,0.21083082,0.85110015,-0.865421,0.27014378,0.42198205,,0.020989932,0.4449397,-0.3301348,-0.37862274,-0.52136606,-0.7647367,0.16298662,-0.85089606,0.4994109,-0.91108733,0.06444647,0.4071443,,0.9846252732650023,0.3247640855597633,0.19778403933000002,2.727227404959724,-1.2640242593300897,-0.418580537958542,-0.41718074490694934,,-0.7512828994703088,0.12506965889806593,0.18384503296000002,-0.9226357513319072,-0.897155257459882,-0.9978956880655617,0.8493891438982522,,-0.04375976767062783,-0.08274169651392119,0.07694186708,-0.052660797281082014,,0.00011215918,6.7949295e-06,-1.3113022e-05,1.0,-0.00010608509,-8.903816e-05,0.00010608509,1.0,-8.374453e-06,8.903816e-05,8.34465e-06,1.0,1023,3.143,0,0,0.0,False,-0.2626186106756321,1.0232505581347018
