AlexandreBanks6/ExpertPlaybackApp/resources/Motions/Pilot_02/PC1/Data_PC1_7.csv
Task Time,PC1 Time,PC2 Time,Gaze Calib,s_T_psm1,Tx,Ty,Tz,R00,R01,R02,R10,R11,R12,R20,R21,R22,s_T_psm3,Tx,Ty,Tz,R00,R01,R02,R10,R11,R12,R20,R21,R22,cart_T_ecm,Tx,Ty,Tz,R00,R01,R02,R10,R11,R12,R20,R21,R22,ecm_T_psm1,Tx,Ty,Tz,R00,R01,R02,R10,R11,R12,R20,R21,R22,ecm_T_psm3,Tx,Ty,Tz,R00,R01,R02,R10,R11,R12,R20,R21,R22,psm1_joints,q1,q2,q3,q4,q5,q6,jaw,psm3_joints,q1,q2,q3,q4,q5,q6,jaw,ecm_joints,q1,q2,q3,q4,ecmi_T_ecm,Tx,Ty,Tz,R00,R01,R02,R10,R11,R12,R20,R21,R22,Sample #,Task Duration (s),Collisions (binary),Collisions (increments),Cumulative Collision Time (s),Clutch Press,MTMR Angle,MTML Angle
""
lci_T_si,,,,,-0.06456479,0.007406022,0.24720375,0.9973357,0.020147903,0.070111655,0.061827518,-0.74354374,-0.66582286,0.038716145,0.6683837,-0.74280834
rci_T_si,,,,,-0.0744026,0.011494783,0.25608665,0.9940877,0.004322488,0.1084939,0.07677014,-0.7345955,-0.67414826,0.07678513,0.6784916,-0.73058414
ecm_T_lc,,,,,-4.4061628e-05,-0.00034663224,-0.01840835,-0.99912,0.030754527,0.028518902,-0.031987965,-0.99852574,-0.043852776,0.027128186,-0.04472645,0.9986309
ecm_T_rc,,,,,-0.0043358393,0.01870579,-0.007592615,-0.99555075,-0.052743673,-0.078081585,0.04863213,-0.9973746,0.053654674,-0.08070653,0.04961868,0.9955021
cart_T_ecmi,,,,,0.107823744,1.3464102,0.44466496,0.99667186,-0.0035817337,-0.081439786,-0.054998454,-0.76694757,-0.63934857,-0.06017007,0.64169973,-0.76459205
ecmac_T_ecmrep_psm1,,,,,0.0019077883,-0.24418817,-0.31129345,0.9990406,0.03670117,0.023893757,-0.03487346,0.99673134,-0.072872825,-0.026490174,0.07196965,0.997055
ecmac_T_ecmrep_psm3,,,,,-0.025437847,-0.43631262,-0.5392238,0.9997681,0.02112905,0.0041644988,-0.020983119,0.99925387,-0.03242474,-0.0048464956,0.032329835,0.9994655
""
0,16:53:08.969555,16:52:53.158821,0,,0.12656146,0.004299,0.020132765,0.8674831,0.4461157,-0.22012208,0.29229692,-0.099045694,0.95118475,0.40253633,-0.8894778,-0.21631888,,0.044915155,-0.028060243,-0.0017969608,-0.52159286,0.29480723,0.8006432,0.84586954,0.3013821,0.4400835,-0.11155981,0.90678406,-0.40656725,,0.10788526,1.3464044,0.44466582,0.9966689,-0.0036227338,-0.08147396,-0.055051737,-0.7669474,-0.6393442,-0.06017007,0.64169973,-0.76459205,,-0.080985665,0.2654811,-0.07827185,-0.89771104,-0.3818985,0.21970068,0.4332193,-0.67432916,0.59799767,-0.08022381,0.6320077,0.77079856,,0.022718921,0.42507565,-0.30748224,0.519334,-0.38282442,-0.76402724,0.5850683,0.810938,-0.00863981,0.6228863,-0.44252115,0.6451261,,0.9225576691548599,0.37834440624113297,0.20363160352,3.750304639220718,-0.18254636368662844,-0.8430523009285688,-0.4080334772034294,,-0.7280220280531445,0.08067166760414923,0.20877268966,-3.502241436078526,0.15863497622767636,0.7321094860709647,0.852819369287072,,-0.042994004461315315,-0.08314748556500987,0.076974014,-0.05200662588628596,,6.15716e-05,4.887581e-06,-2.026558e-06,1.0,-4.0873885e-05,-3.4302473e-05,4.0873885e-05,1.0,-3.2186508e-06,3.43062e-05,3.2186508e-06,1.0,35,0.105,0,0,0.0,False,-0.2611887454311268,1.0262439305830282
0.13064666400896385,16:53:09.000279,16:52:53.280674,0,,0.12683356,0.0044202805,0.020611867,0.86090934,0.46123928,-0.2146934,0.2882662,-0.0945178,0.95287406,0.4192106,-0.8822272,-0.21433109,,0.04491271,-0.028060451,-0.001790762,-0.5215954,0.2948078,0.8006413,0.8458688,0.30137655,0.44008863,-0.11155304,0.9067857,-0.40656534,,0.10788526,1.3464044,0.44466582,0.9966689,-0.0036227338,-0.08147396,-0.055051737,-0.7669474,-0.6393442,-0.06017007,0.64169973,-0.76459205,,-0.081292115,0.26586708,-0.07854645,-0.8922448,-0.3975563,0.21412179,0.4412715,-0.6670592,0.60025954,-0.095805064,0.6300643,0.7706104,,0.022720769,0.42507985,-0.30748707,0.5193359,-0.38282505,-0.7640256,0.58507246,0.810935,-0.008634652,0.6228807,-0.4425261,0.6451281,,0.9224418281617466,0.3799352892132232,0.20331271618000002,3.74296549119876,-0.19812292465988865,-0.8403154662043253,-0.4103202941293095,,-0.7280220280531445,0.08067939033702345,0.20876620821000003,-3.502241436078526,0.15863497622767636,0.7321094860709647,0.852819369287072,,-0.042994004461315315,-0.08314748556500987,0.076974014,-0.05200662588628596,,6.15716e-05,4.887581e-06,-2.026558e-06,1.0,-4.0873885e-05,-3.4302473e-05,4.0873885e-05,1.0,-3.2186508e-06,3.43062e-05,3.2186508e-06,1.0,51,0.154,0,0,0.0,False,-0.2621419889274632,1.026437051386146
0.16136326499690767,16:53:09.034285,16:52:53.280674,0,,0.12701222,0.0044711083,0.021030784,0.84897625,0.48658416,-0.20609489,0.28115338,-0.08570179,0.9558284,0.44742835,-0.86941993,-0.2095637,,0.044910036,-0.028060809,-0.0017847419,-0.52144176,0.2949151,0.80070186,0.8459755,0.30125535,0.43996668,-0.11146298,0.9067911,-0.4065781,,0.10788526,1.3464044,0.44466582,0.9966689,-0.0036227338,-0.08147396,-0.055051737,-0.7669474,-0.6393442,-0.06017007,0.64169973,-0.76459205,,-0.08150011,0.26616582,-0.07882479,-0.8821834,-0.4238611,0.20516898,0.45472154,-0.65351677,0.6050984,-0.12239632,0.62710255,0.7692604,,0.022722857,0.42508388,-0.30749193,0.51917315,-0.38293093,-0.7640832,0.58520037,0.8108416,-0.00873734,0.6228963,-0.44260558,0.6450585,,0.9228511330040805,0.3803677622541798,0.20303531012,3.730174404646204,-0.2269532261103966,-0.8374710097799427,-0.40917688566636956,,-0.7280220280531445,0.08068711306989768,0.20875972676000001,-3.5020317461350414,0.15863497622767636,0.7321094860709647,0.852819369287072,,-0.042994004461315315,-0.08314748556500987,0.076974014,-0.05200662588628596,,6.15716e-05,4.887581e-06,-2.026558e-06,1.0,-4.0873885e-05,-3.4302473e-05,4.0873885e-05,1.0,-3.2186508e-06,3.43062e-05,3.2186508e-06,1.0,58,0.175,0,0,0.0,False,-0.26154621174225356,1.026775012791602
0.1953798050089972,16:53:09.067111,16:52:53.280674,0,,0.12701201,0.004458308,0.02118124,0.84208274,0.49939176,-0.20372653,0.2807592,-0.08335945,0.9561514,0.46051162,-0.8623567,-0.21040449,,0.044907823,-0.028061807,-0.0017828941,-0.52144325,0.29485628,0.8007226,0.8459748,0.30122137,0.43999112,-0.111460656,0.90682155,-0.40651083,,0.10788526,1.3464044,0.44466582,0.9966689,-0.0036227338,-0.08147396,-0.055051737,-0.7669474,-0.6393442,-0.06017007,0.64169973,-0.76459205,,-0.08151012,0.2662531,-0.078947626,-0.8762064,-0.43716168,0.20285971,0.46324807,-0.64790237,0.6046683,-0.13290453,0.6237886,0.77021044,,0.02272491,0.42508453,-0.30749404,0.5191744,-0.3828748,-0.7641105,0.58520156,0.81084144,-0.0086755715,0.6228941,-0.44265452,0.64502704,,0.9232449923806659,0.3801438030008273,0.20292382918000001,3.721157737076369,-0.23938714758905166,-0.8333762073139699,-0.40787013313729525,,-0.7280143053202703,0.08068711306989768,0.20875713418000003,-3.5020317461350414,0.15863497622767636,0.7321911648111052,0.8526560252209376,,-0.042994004461315315,-0.08314748556500987,0.076974014,-0.05200662588628596,,6.15716e-05,4.887581e-06,-2.026558e-06,1.0,-4.0873885e-05,-3.4302473e-05,4.0873885e-05,1.0,-3.2186508e-06,3.43062e-05,3.2186508e-06,1.0,70,0.211,0,0,0.0,False,-0.26160578946077395,1.0261956503822487
0.2282064159953734,16:53:09.097802,16:52:53.280674,0,,0.12697364,0.004381418,0.021424755,0.82956696,0.5204671,-0.20231818,0.2828533,-0.07926214,0.9558826,0.48146927,-0.85019505,-0.21296924,,0.044907257,-0.028063849,-0.0017792583,-0.52138877,0.29489785,0.8007427,0.84599197,0.30134764,0.43987158,-0.11158484,0.9067661,-0.40660053,,0.10788526,1.3464044,0.44466582,0.9966689,-0.0036227338,-0.08147396,-0.055051737,-0.7669474,-0.6393442,-0.06017007,0.64169973,-0.76459205,,-0.081487484,0.2663537,-0.07918436,-0.865205,-0.45908937,0.20163657,0.47906744,-0.638131,0.6027298,-0.14803632,0.61808234,0.7720489,,0.022725144,0.42508554,-0.30749816,0.5191317,-0.38291252,-0.7641206,0.5851266,0.81089395,-0.008825383,0.6230001,-0.44252574,0.64501303,,0.9238550882777297,0.3794950934393924,0.20271383020000003,3.7037534717671536,-0.2582429845566825,-0.8260867318777795,-0.40852350940183235,,-0.7280143053202703,0.08068711306989768,0.20875324531000003,-3.5020317461350414,0.1587716127274418,0.7320797469074087,0.8526560252209376,,-0.042994004461315315,-0.08314748556500987,0.076974014,-0.05200662588628596,,6.15716e-05,4.887581e-06,-2.026558e-06,1.0,-4.0873885e-05,-3.4302473e-05,4.0873885e-05,1.0,-3.2186508e-06,3.43062e-05,3.2186508e-06,1.0,78,0.236,0,0,0.0,False,-0.2626781883941529,1.0265336117877049
0.25882365299912635,16:53:09.129068,16:52:53.422991,0,,0.12686685,0.004299134,0.021651149,0.8183541,0.5407773,-0.19456682,0.28125513,-0.08160442,0.9561571,0.50119054,-0.8371981,-0.21887785,,0.04489796,-0.028069004,-0.0017753243,-0.5212373,0.29503673,0.8007902,0.84609693,0.3012473,0.43973854,-0.111496925,0.90675426,-0.40665105,,0.10788526,1.3464044,0.44466582,0.9966689,-0.0036227338,-0.08147396,-0.055051737,-0.7669474,-0.6393442,-0.06017007,0.64169973,-0.76459205,,-0.08139534,0.266443,-0.0794145,-0.85536015,-0.48021126,0.19430932,0.4912013,-0.63268614,0.5986898,-0.16456077,0.6075404,0.77705497,,0.022734098,0.42508504,-0.30750507,0.5189714,-0.38304842,-0.7641614,0.5852519,0.81080204,-0.008960714,0.623016,-0.44257656,0.64496285,,0.9248127071541334,0.37859153369310816,0.20251938670000003,3.69012362544066,-0.2783285500222022,-0.8132204858604497,-0.4099936059970407,,-0.7279756916558991,0.08067939033702345,0.20874546757,-3.501822056191557,0.1587716127274418,0.7320797469074087,0.8529827133532062,,-0.042994004461315315,-0.08314748556500987,0.076974014,-0.05200662588628596,,6.15716e-05,4.887581e-06,-2.026558e-06,1.0,-4.0873885e-05,-3.4302473e-05,4.0873885e-05,1.0,-3.2186508e-06,3.43062e-05,3.2186508e-06,1.0,89,0.269,0,0,0.0,False,-0.2618441003348577,1.0259542493783513
0.2901122769981157,16:53:09.158120,16:52:53.422991,0,,0.12670653,0.0042488575,0.021870002,0.8074565,0.55819327,-0.19087717,0.28373685,-0.08379319,0.95523405,0.5172111,-0.8254689,-0.22603953,,0.044890076,-0.02807121,-0.0017758012,-0.5212447,0.29500392,0.80079746,0.8460939,0.30122125,0.43976232,-0.11148569,0.9067737,-0.406611,,0.10788526,1.3464044,0.44466582,0.9966689,-0.0036227338,-0.08147396,-0.055051737,-0.7669474,-0.6393442,-0.06017007,0.64169973,-0.76459205,,-0.08124979,0.2665549,-0.079620466,-0.84563726,-0.49836084,0.19113894,0.50404084,-0.6277778,0.5931592,-0.17561455,0.5979394,0.7820665,,0.022742018,0.42508367,-0.3075067,0.5189777,-0.38301724,-0.76417273,0.58525777,0.8107983,-0.008916792,0.6230052,-0.4426104,0.64495003,,0.9259170579551476,0.37785787407005683,0.20233531352000003,3.674816259566289,-0.29294865549710436,-0.800481982763527,-0.40950357379863833,,-0.7279370779915281,0.08067939033702345,0.20874287499000002,-3.501822056191557,0.1587716127274418,0.7321614256475493,0.8528193692870718,,-0.042994004461315315,-0.08314748556500987,0.076974014,-0.05200662588628596,,6.15716e-05,4.887581e-06,-2.026558e-06,1.0,-4.0873885e-05,-3.4302473e-05,4.0873885e-05,1.0,-3.2186508e-06,3.43062e-05,3.2186508e-06,1.0,101,0.306,0,0,0.0,False,-0.2612483231496481,1.0260508097799104
0.3192119779996574,16:53:09.190584,16:52:53.422991,0,,0.12653065,0.0042209774,0.022125855,0.79966605,0.5681676,-0.19421554,0.29030842,-0.08271152,0.953352,0.5255998,-0.8187457,-0.23108557,,0.044878535,-0.028072879,-0.0017760396,-0.52125764,0.29505002,0.800772,0.8460889,0.30122945,0.43976623,-0.11146313,0.9067558,-0.40665674,,0.10788526,1.3464044,0.44466582,0.9966689,-0.0036227338,-0.08147396,-0.055051737,-0.7669474,-0.6393442,-0.06017007,0.64169973,-0.76459205,,-0.08109162,0.26670858,-0.07984077,-0.8385494,-0.5087921,0.1948474,0.51490045,-0.623183,0.5886599,-0.1780799,0.5939474,0.78454703,,0.022753544,0.42508316,-0.3075084,0.5189885,-0.3830616,-0.76414317,0.5852702,0.810789,-0.00894286,0.6229845,-0.442589,0.64498466,,0.9269673496260421,0.3776339148167043,0.20210716648000002,3.6611864132397955,-0.2980042059884256,-0.7935007644218397,-0.40934022973250384,,-0.7278830188614085,0.08068711306989768,0.20873898612000003,-3.501822056191557,0.1587716127274418,0.7321614256475493,0.8528193692870718,,-0.042994004461315315,-0.08314748556500987,0.076974014,-0.05200662588628596,,6.15716e-05,4.887581e-06,-2.026558e-06,1.0,-4.0873885e-05,-3.4302473e-05,4.0873885e-05,1.0,-3.2186508e-06,3.43062e-05,3.2186508e-06,1.0,109,0.33,0,0,0.0,False,-0.26196325577190027,1.0266784523900434
0.3516734550066758,16:53:09.220662,16:52:53.422991,0,,0.12647355,0.0042531043,0.022365794,0.79369545,0.5789015,-0.18687001,0.2876157,-0.08643195,0.9538379,0.5360267,-0.81080365,-0.23510188,,0.044881515,-0.028083786,-0.0017719269,-0.5206126,0.29599652,0.8008423,0.8463495,0.302502,0.43838924,-0.1124948,0.9060234,-0.4080029,,0.10788526,1.3464044,0.44466582,0.9966689,-0.0036227338,-0.08147396,-0.055051737,-0.7669474,-0.6393442,-0.06017007,0.64169973,-0.76459205,,-0.081051774,0.26689103,-0.08000507,-0.83327335,-0.51999056,0.18779072,0.5199098,-0.6215057,0.58602434,-0.18801412,0.5859527,0.78823227,,0.022750327,0.42507768,-0.30751863,0.5184406,-0.38395026,-0.764069,0.58471984,0.8111625,-0.010867502,0.62395674,-0.4411322,0.64504296,,0.9277936820435841,0.3776956966796981,0.20194383394,3.6548957149352597,-0.3093450354689572,-0.7835996484939123,-0.40934022973250384,,-0.7278752961285343,0.08068711306989768,0.20873509725000003,-3.501612366248072,0.16000134122533075,0.7305869133332976,0.8526560252209379,,-0.042994004461315315,-0.08314748556500987,0.076974014,-0.05200662588628596,,6.15716e-05,4.887581e-06,-2.026558e-06,1.0,-4.0873885e-05,-3.4302473e-05,4.0873885e-05,1.0,-3.2186508e-06,3.43062e-05,3.2186508e-06,1.0,117,0.355,0,0,0.0,False,-0.2611887454311268,1.0262439305830282
0.3817219470074633,16:53:09.250134,16:52:53.422991,0,,0.12643158,0.004238799,0.022514284,0.7896321,0.58335304,-0.19021091,0.29101378,-0.08314684,0.9530989,0.54017776,-0.8079517,-0.23541933,,0.04488197,-0.028085902,-0.0017664433,-0.5205566,0.296228,0.8007932,0.84636706,0.3027334,0.4381954,-0.11262116,0.90587056,-0.40830755,,0.10788526,1.3464044,0.44466582,0.9966689,-0.0036227338,-0.08147396,-0.055051737,-0.7669474,-0.6393442,-0.06017007,0.64169973,-0.76459205,,-0.08101997,0.26697826,-0.08012914,-0.82956046,-0.5246794,0.1911567,0.52540684,-0.61741483,0.58544564,-0.18914832,0.58609766,0.78785306,,0.022749389,0.42507976,-0.30752403,0.5183966,-0.3841691,-0.7639889,0.5846436,0.8112128,-0.011211702,0.62406474,-0.44084913,0.64513195,,0.9281025913585531,0.3777497558098177,0.20181290865,3.64797594680027,-0.31153121946520423,-0.7828787856565969,-0.40983026193090666,,-0.7278830188614085,0.08068711306989768,0.20872991209000002,-3.501612366248072,0.1601379777250962,0.7302304592091795,0.8531460574193406,,-0.042994004461315315,-0.08314748556500987,0.076974014,-0.05200662588628596,,6.15716e-05,4.887581e-06,-2.026558e-06,1.0,-4.0873885e-05,-3.4302473e-05,4.0873885e-05,1.0,-3.2186508e-06,3.43062e-05,3.2186508e-06,1.0,132,0.4,0,0,0.0,False,-0.2612483231496481,1.0263887711853665
0.4112020129978191,16:53:09.290964,16:52:53.565688,0,,0.12635821,0.0042139143,0.022600517,0.78725094,0.5846344,-0.19605735,0.29583734,-0.079126954,0.9519555,0.54103255,-0.80742896,-0.23524961,,0.04503543,-0.028023034,-0.001744926,-0.5207111,0.29608074,0.8007472,0.8462869,0.30261737,0.43843025,-0.11250928,0.9059574,-0.40814552,,0.10789935,1.3464088,0.4446775,0.99666756,-0.0036415167,-0.08148962,-0.055076145,-0.7669473,-0.6393422,-0.06017007,0.64169973,-0.76459205,,-0.08096172,0.26701644,-0.08020016,-0.82731265,-0.52605873,0.19701782,0.5297848,-0.61407554,0.5850122,-0.18676697,0.588365,0.7867304,,0.022583842,0.42512444,-0.30747584,0.51856154,-0.38402104,-0.7639514,0.58466256,0.81120324,-0.010911183,0.62390995,-0.44099566,0.6451815,,0.9281103140914273,0.3777034194125723,0.20171439061000002,3.6425240082696724,-0.30989158146801893,-0.7847058729417972,-0.40917688566636945,,-0.7278752961285343,0.08068711306989768,0.20872602322000003,-3.501612366248072,0.16000134122533075,0.7304235558530164,0.8529827133532064,,-0.042994004461315315,-0.08314748556500987,0.076974014,-0.05200662588628596,,7.467531e-05,8.881092e-06,-1.50203705e-05,1.0,-5.9597194e-05,-5.0023198e-05,5.960092e-05,1.0,-4.708767e-06,5.0023198e-05,4.708767e-06,1.0,140,0.424,0,0,0.0,False,-0.2622611443645053,1.0261473701814692
0.45204349100822583,16:53:09.321027,16:52:53.565688,0,,0.1263057,0.004109293,0.022587404,0.78699577,0.5843259,-0.197992,0.29742652,-0.07816905,0.95153934,0.5405323,-0.8077455,-0.23531279,,0.04499592,-0.028043956,-0.0017204285,-0.5207331,0.2966017,0.8005401,0.84627664,0.3028881,0.4382631,-0.112484545,0.90569645,-0.40873098,,0.10789935,1.3464088,0.4446775,0.99666756,-0.0036415167,-0.08148962,-0.055076145,-0.7669473,-0.6393422,-0.06017007,0.64169973,-0.76459205,,-0.08090679,0.2669312,-0.08026011,-0.82704824,-0.52574396,0.19895846,0.5306879,-0.61353207,0.5847638,-0.18536866,0.5892127,0.7864266,,0.022621114,0.42512846,-0.3075104,0.5185812,-0.38451833,-0.76368785,0.5846733,0.8111886,-0.011413412,0.62388355,-0.44058913,0.64548475,,0.9280794231599304,0.3771628281113766,0.20166902046000001,3.6414755585522496,-0.3090717624694263,-0.785701095324538,-0.409503573798638,,-0.7277208414710498,0.080663944871275,0.20868583823000003,-3.501612366248072,0.16000134122533075,0.7299334834121731,0.851675960824132,,-0.042994004461315315,-0.08314748556500987,0.076974014,-0.05200662588628596,,7.467531e-05,8.881092e-06,-1.50203705e-05,1.0,-5.9597194e-05,-5.0023198e-05,5.960092e-05,1.0,-4.708767e-06,5.0023198e-05,4.708767e-06,1.0,152,0.461,0,0,0.0,False,-0.2617249448978165,1.0257611285752335
0.482062698007212,16:53:09.352205,16:52:53.565688,0,,0.1261869,0.00397262,0.022509918,0.7848094,0.5842981,-0.20656715,0.30464095,-0.07346016,0.94963014,0.53969264,-0.8082075,-0.23565352,,0.04495559,-0.028060913,-0.0017075539,-0.52071023,0.29744634,0.8002416,0.8462802,0.30342254,0.43788636,-0.1125637,0.9052405,-0.4097182,,0.10789935,1.3464088,0.4446775,0.99666756,-0.0036415167,-0.08148962,-0.055076145,-0.7669473,-0.6393422,-0.06017007,0.64169973,-0.76459205,,-0.08078082,0.2667838,-0.08029465,-0.8249216,-0.52575755,0.20756531,0.53576934,-0.6102392,0.58357453,-0.18015423,0.5926104,0.7850843,,0.022660254,0.4251276,-0.30753377,0.5185659,-0.3853226,-0.76329285,0.5846209,0.81121284,-0.012333661,0.62394536,-0.43984112,0.64593494,,0.9280871458928047,0.3762669910979666,0.20165346498000003,3.6351848602477137,-0.3053825769757594,-0.788791057464482,-0.40966691786477216,,-0.7275432186149426,0.08065622213840078,0.20865731985000002,-3.501612366248072,0.1601379777250962,0.7290052781070712,0.8523293370886691,,-0.042994004461315315,-0.08314748556500987,0.076974014,-0.05200662588628596,,7.467531e-05,8.881092e-06,-1.50203705e-05,1.0,-5.9597194e-05,-5.0023198e-05,5.960092e-05,1.0,-4.708767e-06,5.0023198e-05,4.708767e-06,1.0,160,0.486,0,0,0.0,False,-0.2626186106756321,1.0260508097799104
0.5132511900010286,16:53:09.380031,16:52:53.565688,0,,0.12609252,0.0039218813,0.02247174,0.7811821,0.5854395,-0.21682931,0.31325722,-0.06714681,0.94729155,0.5400225,-0.8079307,-0.23584718,,0.044916354,-0.02806899,-0.0017076731,-0.5207509,0.2976688,0.8001323,0.8462641,0.30349445,0.4378676,-0.11249623,0.90514326,-0.40995145,,0.10789935,1.3464088,0.4446775,0.99666756,-0.0036415167,-0.08148962,-0.055076145,-0.7669473,-0.6393422,-0.06017007,0.64169973,-0.76459205,,-0.08068323,0.26672587,-0.08030245,-0.82146055,-0.52701354,0.21785143,0.542755,-0.6053131,0.5822483,-0.17498441,0.59653395,0.78328013,,0.02269942,0.42512444,-0.30754155,0.5186002,-0.38553578,-0.7631618,0.5846575,0.811184,-0.012496613,0.62388253,-0.43970752,0.6460866,,0.9281875414201696,0.3758422407898842,0.20164827982000003,3.626377882621364,-0.3016933914820925,-0.7919626983445665,-0.4093402297325037,,-0.7273578730259612,0.08067166760414923,0.20864306066000002,-3.501612366248072,0.1601379777250962,0.7289235993669305,0.8524926811548035,,-0.042994004461315315,-0.08314748556500987,0.076974014,-0.05200662588628596,,7.467531e-05,8.881092e-06,-1.50203705e-05,1.0,-5.9597194e-05,-5.0023198e-05,5.960092e-05,1.0,-4.708767e-06,5.0023198e-05,4.708767e-06,1.0,175,0.531,0,0,0.0,False,-0.26148663402373185,1.0256162879728952
0.5410970410011942,16:53:09.414801,16:52:53.704778,0,,0.12598248,0.0038975328,0.022448003,0.7806697,0.5842422,-0.22184591,0.31705284,-0.064353615,0.94622207,0.5385463,-0.80902386,-0.23547474,,0.044886477,-0.028078243,-0.0017133951,-0.5207781,0.29786372,0.8000421,0.84625256,0.30357507,0.4378342,-0.11245805,0.9050521,-0.41016316,,0.10789935,1.3464088,0.4446775,0.99666756,-0.0036415167,-0.08148962,-0.055076145,-0.7669473,-0.6393422,-0.06017007,0.64169973,-0.76459205,,-0.08057145,0.2666982,-0.08030484,-0.8209064,-0.52578723,0.22284628,0.5447253,-0.60382116,0.58195734,-0.17142643,0.59912246,0.7820903,,0.02272982,0.4251159,-0.30754545,0.51862377,-0.38572216,-0.7630516,0.5846767,0.81116766,-0.0126572065,0.623845,-0.43957418,0.6462136,,0.9285427871323839,0.375525608742041,0.20164568724,3.6236519133560656,-0.29882402498701827,-0.7942207955820506,-0.409503573798638,,-0.7272034183684767,0.080663944871275,0.20863657921000003,-3.501612366248072,0.1601379777250962,0.72884192062679,0.851675960824132,,-0.042994004461315315,-0.08314748556500987,0.076974014,-0.05200662588628596,,7.467531e-05,8.881092e-06,-1.50203705e-05,1.0,-5.9597194e-05,-5.0023198e-05,5.960092e-05,1.0,-4.708767e-06,5.0023198e-05,4.708767e-06,1.0,183,0.555,0,0,0.0,False,-0.2618441003348577,1.0251334859651007
0.5758955759956734,16:53:09.447433,16:52:53.704778,0,,0.12579206,0.003924817,0.022440657,0.7785711,0.5837798,-0.23027822,0.32360435,-0.0590747,0.94434655,0.5376868,-0.8097601,-0.23490766,,0.044862635,-0.028084159,-0.001718998,-0.52080184,0.29816374,0.7999149,0.8462427,0.3037138,0.43775696,-0.11242199,0.90490675,-0.4104936,,0.10789935,1.3464088,0.4446775,0.99666756,-0.0036415167,-0.08148962,-0.055076145,-0.7669473,-0.6393422,-0.06017007,0.64169973,-0.76459205,,-0.080381416,0.26672506,-0.08028972,-0.81885564,-0.5253571,0.2312473,0.5492836,-0.600246,0.581371,-0.16662215,0.60307926,0.7800849,,0.022754153,0.42510957,-0.30754682,0.51864415,-0.38600883,-0.76289284,0.58469546,0.8111499,-0.012927305,0.62381047,-0.43935528,0.64639574,,0.929369119549926,0.37526303582431736,0.20165087240000001,3.6173612150515297,-0.2952714759931168,-0.7971993398182982,-0.40966691786477216,,-0.7270798546424891,0.080663944871275,0.20863269034,-3.501612366248072,0.1601379777250962,0.7285968844063684,0.8511859286257293,,-0.042994004461315315,-0.08314748556500987,0.076974014,-0.05200662588628596,,7.467531e-05,8.881092e-06,-1.50203705e-05,1.0,-5.9597194e-05,-5.0023198e-05,5.960092e-05,1.0,-4.708767e-06,5.0023198e-05,4.708767e-06,1.0,199,0.605,0,0,0.0,False,-0.26255903295711036,1.0250852057643212
0.6084920419962145,16:53:09.496887,16:52:53.704778,0,,0.12531053,0.0040713996,0.022493899,0.7747519,0.58378345,-0.2428092,0.33380225,-0.051514894,0.94123447,0.5369688,-0.8102735,-0.2347796,,0.04485777,-0.02808465,-0.0017151237,-0.5208073,0.2981773,0.79990625,0.84624076,0.3037122,0.43776172,-0.112410724,0.9049028,-0.41050532,,0.10789935,1.3464088,0.4446775,0.99666756,-0.0036415167,-0.08148962,-0.055076145,-0.7669473,-0.6393422,-0.06017007,0.64169973,-0.76459205,,-0.07990707,0.2668984,-0.08025595,-0.81515515,-0.525443,0.24378635,0.55681,-0.594815,0.5797911,-0.1596394,0.6083624,0.7774384,,0.022758635,0.42511216,-0.30755028,0.51864856,-0.3860219,-0.7628832,0.584702,0.81114507,-0.012931058,0.6238006,-0.43935266,0.646407,,0.9318867304669232,0.3749232355778515,0.20165346498000003,3.60624764804685,-0.29076247150085727,-0.7996509495381717,-0.41048363819544365,,-0.7270644091767406,0.08067166760414923,0.20862750518000003,-3.501612366248072,0.1601379777250962,0.7285968844063684,0.8511859286257293,,-0.042994004461315315,-0.08314748556500987,0.076974014,-0.05200662588628596,,7.467531e-05,8.881092e-06,-1.50203705e-05,1.0,-5.9597194e-05,-5.0023198e-05,5.960092e-05,1.0,-4.708767e-06,5.0023198e-05,4.708767e-06,1.0,207,0.629,0,0,0.0,False,-0.26243987752006825,1.0243127225518498
0.657970631000353,16:53:09.521702,16:52:53.704778,0,,0.12508032,0.0041198283,0.022512645,0.771523,0.5858347,-0.24809277,0.33870858,-0.048134357,0.9396593,0.5385432,-0.8089999,-0.23556408,,0.04486125,-0.028085098,-0.001713872,-0.5207499,0.29807535,0.79998165,0.846259,0.30376258,0.43769157,-0.11253941,0.9049195,-0.4104333,,0.10789935,1.3464088,0.4446775,0.99666756,-0.0036415167,-0.08148962,-0.055076145,-0.7669473,-0.6393422,-0.06017007,0.64169973,-0.76459205,,-0.07967948,0.2669604,-0.08024872,-0.81211966,-0.52762985,0.24913542,0.56174785,-0.5915332,0.57838386,-0.1578007,0.60966814,0.7767906,,0.022755058,0.42511246,-0.3075513,0.5186034,-0.38592264,-0.7629641,0.5846246,0.8112008,-0.012939612,0.6239108,-0.43933704,0.6463113,,0.933052863130931,0.3745757125985114,0.20165476127,3.5993278799118604,-0.29048919850132643,-0.7993837129047211,-0.4101569500631751,,-0.7270798546424891,0.08067166760414923,0.20862750518000003,-3.501612366248072,0.16027461422486164,0.7286488239829529,0.8511859286257293,,-0.042994004461315315,-0.08314748556500987,0.076974014,-0.05200662588628596,,7.467531e-05,8.881092e-06,-1.50203705e-05,1.0,-5.9597194e-05,-5.0023198e-05,5.960092e-05,1.0,-4.708767e-06,5.0023198e-05,4.708767e-06,1.0,226,0.687,0,0,0.0,False,-0.262797343831195,1.0243127225518498
0.6827588250016561,16:53:09.579073,16:52:53.858024,0,,0.12428974,0.004135087,0.022558257,0.77206916,0.58291364,-0.253221,0.34215125,-0.045470357,0.9385441,0.5355761,-0.81126094,-0.23455101,,0.04486704,-0.028089732,-0.0017096996,-0.5202139,0.2997959,0.79968745,0.84642607,0.3057077,0.43601117,-0.11375633,0.9036952,-0.41278845,,0.10789935,1.3464088,0.4446775,0.99666756,-0.0036415167,-0.08148962,-0.055076145,-0.7669473,-0.6393422,-0.06017007,0.64169973,-0.76459205,,-0.0788943,0.26704624,-0.080307305,-0.81251276,-0.52460116,0.254198,0.5624277,-0.59079516,0.5784775,-0.153291,0.61298835,0.77507883,,0.02274896,0.42511144,-0.30755717,0.51818264,-0.38754365,-0.76242816,0.5838886,0.8116812,-0.01574047,0.62494874,-0.43701667,0.6468814,,0.9369451204995402,0.37288443409905625,0.20160031709,3.5961825307595925,-0.289122833503672,-0.8002528557212638,-0.4103202941293095,,-0.7270875773753633,0.08070255853564613,0.20862620889000003,-3.501612366248072,0.16164097922251605,0.7259010701431775,0.8492257998321178,,-0.042994004461315315,-0.08314748556500987,0.076974014,-0.05200662588628596,,7.467531e-05,8.881092e-06,-1.50203705e-05,1.0,-5.9597194e-05,-5.0023198e-05,5.960092e-05,1.0,-4.708767e-06,5.0023198e-05,4.708767e-06,1.0,238,0.723,0,0,0.0,False,-0.26202283349042155,1.0233471185362608
0.7400765700003831,16:53:09.614836,16:52:53.858024,0,,0.12379122,0.003984034,0.022690788,0.77146685,0.5819711,-0.25719342,0.34528014,-0.043394566,0.93749595,0.53443474,-0.8120508,-0.23442066,,0.044864327,-0.028084025,-0.0017106533,-0.5204338,0.29978517,0.7995483,0.84629935,0.30575532,0.43622366,-0.11369285,0.9036827,-0.4128334,,0.10789935,1.3464088,0.4446775,0.99666756,-0.0036415167,-0.08148962,-0.055076145,-0.7669473,-0.6393422,-0.06017007,0.64169973,-0.76459205,,-0.078403845,0.2670448,-0.08052724,-0.8118817,-0.5236387,0.2581677,0.56411076,-0.5896689,0.57798755,-0.15042317,0.6148927,0.77413166,,0.022751676,0.42511517,-0.30755275,0.5183971,-0.38753235,-0.7622881,0.5838542,0.81170857,-0.015604327,0.62480295,-0.43697587,0.6470498,,0.9391538221015684,0.3713939466543309,0.20139809585000001,3.59282749166384,-0.28871292400437565,-0.8007504669126341,-0.4103202941293095,,-0.7270798546424891,0.0807257267342688,0.20862750518000003,-3.501822056191557,0.16150434272275063,0.7258491305665928,0.8495524879643863,,-0.042994004461315315,-0.08314748556500987,0.076974014,-0.05200662588628596,,7.467531e-05,8.881092e-06,-1.50203705e-05,1.0,-5.9597194e-05,-5.0023198e-05,5.960092e-05,1.0,-4.708767e-06,5.0023198e-05,4.708767e-06,1.0,250,0.76,0,0,0.0,False,-0.2608312791200009,1.0232505581347018
0.7759256599965738,16:53:09.655371,16:52:53.858024,0,,0.123480305,0.0038452893,0.022824451,0.77117115,0.5801678,-0.26210767,0.34894267,-0.040842056,0.93625367,0.53247917,-0.8134724,-0.23394161,,0.04486137,-0.028081879,-0.0017110705,-0.51997155,0.3001805,0.7997007,0.846619,0.3054329,0.43582904,-0.11342758,0.9036605,-0.41295493,,0.10789935,1.3464088,0.4446775,0.99666756,-0.0036415167,-0.08148962,-0.055076145,-0.7669473,-0.6393422,-0.06017007,0.64169973,-0.76459205,,-0.07810081,0.26704285,-0.08073203,-0.8115085,-0.52178127,0.26305577,0.56565815,-0.5885379,0.5776279,-0.14657712,0.6175496,0.7727533,,0.022754636,0.4251167,-0.30755118,0.517908,-0.3879198,-0.76242346,0.58423424,0.8114276,-0.01598752,0.6248533,-0.43715382,0.64688087,,0.9404435184915639,0.3704826641751724,0.20120105977000002,3.590101522398542,-0.2863901035083632,-0.8026445712754732,-0.4103202941293095,,-0.727072131909615,0.08074117220001725,0.20862750518000003,-3.501192986361103,0.16150434272275063,0.7257674518264523,0.8490624557659836,,-0.042994004461315315,-0.08314748556500987,0.076974014,-0.05200662588628596,,7.467531e-05,8.881092e-06,-1.50203705e-05,1.0,-5.9597194e-05,-5.0023198e-05,5.960092e-05,1.0,-4.708767e-06,5.0023198e-05,4.708767e-06,1.0,269,0.818,0,0,0.0,False,-0.26101001227556386,1.022767756126907
0.8164672349957982,16:53:09.704649,16:52:53.999242,0,,0.123201385,0.003603533,0.023261428,0.77198064,0.5781922,-0.2640824,0.3499282,-0.039734542,0.9359335,0.5306563,-0.81493247,-0.23300016,,0.044869892,-0.028069183,-0.0017062426,-0.5200295,0.3000244,0.79972166,0.8466031,0.3052231,0.4360069,-0.11328092,0.9037832,-0.4127266,,0.10789935,1.3464088,0.4446775,0.99666756,-0.0036415167,-0.08148962,-0.055076145,-0.7669473,-0.6393422,-0.06017007,0.64169973,-0.76459205,,-0.07784906,0.26715612,-0.081233025,-0.8122052,-0.51972693,0.26496542,0.56518805,-0.5885233,0.57810277,-0.14451724,0.61929333,0.77174515,,0.022745542,0.42512864,-0.30754557,0.51795197,-0.38777345,-0.76246804,0.58432555,0.8113674,-0.015704477,0.6247315,-0.4373954,0.64683527,,0.9417872740116789,0.36989573647673135,0.20069421038000002,3.5898918324550566,-0.2852970115102396,-0.8037809507254663,-0.4095035737986382,,-0.7271339137726087,0.0807875085972626,0.20862880147,-3.501192986361103,0.16136770622298516,0.7259605484702893,0.8488991116998492,,-0.042994004461315315,-0.08314748556500987,0.076974014,-0.05200662588628596,,7.467531e-05,8.881092e-06,-1.50203705e-05,1.0,-5.9597194e-05,-5.0023198e-05,5.960092e-05,1.0,-4.708767e-06,5.0023198e-05,4.708767e-06,1.0,277,0.842,0,0,0.0,False,-0.2607121236829584,1.0229125967292456
0.8657298580073984,16:53:09.735185,16:52:53.999242,0,,0.12308791,0.003489837,0.023569271,0.7723163,0.5775845,-0.26443055,0.34991425,-0.039387852,0.9359534,0.5301768,-0.8153801,-0.23252508,,0.044870034,-0.028064415,-0.0017049313,-0.5200356,0.30008477,0.7996949,0.8466017,0.3052402,0.4359976,-0.11326292,0.90375733,-0.4127881,,0.10789935,1.3464088,0.4446775,0.99666756,-0.0036415167,-0.08148962,-0.055076145,-0.7669473,-0.6393422,-0.06017007,0.64169973,-0.76459205,,-0.07775541,0.2672744,-0.081545755,-0.81250656,-0.5190952,0.2652795,0.56484926,-0.5885133,0.57844394,-0.14414695,0.61983246,0.7713815,,0.022745218,0.42513305,-0.30754334,0.51795644,-0.38783133,-0.76243556,0.5843371,0.81135815,-0.015750794,0.624717,-0.43736115,0.6468724,,0.942474597237485,0.3698802910109829,0.20036884159,3.5898918324550566,-0.28516037501047425,-0.8038923686291627,-0.4095035737986382,,-0.7271416365054829,0.08081067679588527,0.20863009776000002,-3.501192986361103,0.16136770622298516,0.7258788697301487,0.8490624557659836,,-0.042994004461315315,-0.08314748556500987,0.076974014,-0.05200662588628596,,7.467531e-05,8.881092e-06,-1.50203705e-05,1.0,-5.9597194e-05,-5.0023198e-05,5.960092e-05,1.0,-4.708767e-06,5.0023198e-05,4.708767e-06,1.0,285,0.867,0,0,0.0,False,-0.2608908568385213,1.0225746353237892
0.8962491389975185,16:53:09.762603,16:52:53.999242,0,,0.12292948,0.0033791363,0.023955062,0.7737141,0.57589793,-0.26402268,0.3485756,-0.038980156,0.9364698,0.52901936,-0.81659186,-0.2309036,,0.044869162,-0.028059646,-0.0017052889,-0.52004325,0.30021697,0.79964036,0.8465997,0.3052949,0.4359632,-0.113242716,0.903695,-0.41293022,,0.10789935,1.3464088,0.4446775,0.99666756,-0.0036415167,-0.08148962,-0.055076145,-0.7669473,-0.6393422,-0.06017007,0.64169973,-0.76459205,,-0.07762235,0.26744777,-0.08191783,-0.8137999,-0.51733536,0.26475242,0.56300336,-0.58888835,0.57986003,-0.14407249,0.6209466,0.7704989,,0.022746066,0.42513633,-0.30753985,0.51796216,-0.3879577,-0.76236737,0.5843498,0.8113467,-0.015867835,0.6247003,-0.43727028,0.64694995,,0.9435171661755053,0.36994979560685093,0.19997736201000002,3.5915693520029333,-0.28516037501047425,-0.8047091560305684,-0.4090135416002354,,-0.7271416365054829,0.08083384499450794,0.20863009776000002,-3.501192986361103,0.16136770622298516,0.7257155122498676,0.8490624557659836,,-0.042994004461315315,-0.08314748556500987,0.076974014,-0.05200662588628596,,7.467531e-05,8.881092e-06,-1.50203705e-05,1.0,-5.9597194e-05,-5.0023198e-05,5.960092e-05,1.0,-4.708767e-06,5.0023198e-05,4.708767e-06,1.0,297,0.904,0,0,0.0,False,-0.261427056305211,1.0223815145206714
0.9236307840037625,16:53:09.792962,16:52:53.999242,0,,0.12272158,0.0032754093,0.02435334,0.77547807,0.5735383,-0.26398385,0.34694904,-0.037776142,0.9371229,0.52750367,-0.8183073,-0.22828326,,0.044869587,-0.028061137,-0.0017055273,-0.5200407,0.3004124,0.79956865,0.8466004,0.30540726,0.4358832,-0.11324942,0.90359205,-0.41315347,,0.10789935,1.3464088,0.4446775,0.99666756,-0.0036415167,-0.08148962,-0.055076145,-0.7669473,-0.6393422,-0.06017007,0.64169973,-0.76459205,,-0.07744092,0.2676373,-0.08229699,-0.8154292,-0.51488173,0.26452217,0.5606863,-0.5889432,0.5820454,-0.14389601,0.62293077,0.7689286,,0.022745686,0.42513505,-0.30754066,0.51796025,-0.3881439,-0.7622739,0.5843456,0.81134576,-0.016071811,0.62470585,-0.43710682,0.64705503,,0.9448454762298719,0.3699575183397251,0.19957810469,3.5936662514377784,-0.28516037501047425,-0.8065060883136606,-0.408850197534101,,-0.7271416365054829,0.08082612226163371,0.20863009776000002,-3.501192986361103,0.16136770622298516,0.7254704760294458,0.8485724235675807,,-0.042994004461315315,-0.08314748556500987,0.076974014,-0.05200662588628596,,7.467531e-05,8.881092e-06,-1.50203705e-05,1.0,-5.9597194e-05,-5.0023198e-05,5.960092e-05,1.0,-4.708767e-06,5.0023198e-05,4.708767e-06,1.0,305,0.927,0,0,0.0,False,-0.2611887454311268,1.0229125967292456
0.9540500879957108,16:53:09.821087,16:52:53.999242,0,,0.12245974,0.003210783,0.024732307,0.77771235,0.57044256,-0.2641188,0.3447734,-0.035743684,0.9380052,0.52563757,-0.8205594,-0.22447187,,0.04488316,-0.028061315,-0.0017009377,-0.5200222,0.3003529,0.799603,0.8466072,0.30540058,0.43587455,-0.11328316,0.9036141,-0.41309607,,0.10789935,1.3464088,0.4446775,0.99666756,-0.0036415167,-0.08148962,-0.055076145,-0.7669473,-0.6393422,-0.06017007,0.64169973,-0.76459205,,-0.07720495,0.26784724,-0.08263847,-0.81749487,-0.5116696,0.2643793,0.55769813,-0.5886709,0.5851832,-0.14378805,0.6258281,0.7665926,,0.022731733,0.425137,-0.30754334,0.51794493,-0.3880867,-0.7623134,0.58432657,0.81136,-0.016042035,0.62473637,-0.4371311,0.6470092,,0.9465213092635786,0.3699420728739767,0.19921514349000002,3.596392220703077,-0.2852970115102396,-0.8093351050550246,-0.40901354160023506,,-0.727211141101351,0.08081067679588527,0.20863009776000002,-3.501192986361103,0.16136770622298516,0.7254704760294458,0.8482457354353123,,-0.042994004461315315,-0.08314748556500987,0.076974014,-0.05200662588628596,,7.467531e-05,8.881092e-06,-1.50203705e-05,1.0,-5.9597194e-05,-5.0023198e-05,5.960092e-05,1.0,-4.708767e-06,5.0023198e-05,4.708767e-06,1.0,316,0.961,0,0,0.0,False,-0.2623802998015474,1.022960876930025
0.9821619389986154,16:53:09.853927,16:52:53.999242,0,,0.12215248,0.0032059103,0.025093064,0.77930826,0.5681125,-0.2644366,0.34224296,-0.032375067,0.9390536,0.5249269,-0.8223139,-0.21966273,,0.044893496,-0.028060675,-0.0016971827,-0.52000916,0.30030698,0.79962873,0.8466122,0.30539235,0.43587068,-0.1133056,0.90363216,-0.4130504,,0.10789935,1.3464088,0.4446775,0.99666756,-0.0036415167,-0.08148962,-0.055076145,-0.7669473,-0.6393422,-0.06017007,0.64169973,-0.76459205,,-0.076923355,0.26809356,-0.082929336,-0.8189982,-0.5092764,0.2643472,0.5552207,-0.58710265,0.5891014,-0.14481649,0.629244,0.76359683,,0.02272109,0.42513928,-0.30754498,0.517934,-0.38804257,-0.7623433,0.58431417,0.8113695,-0.016016005,0.624757,-0.43715274,0.6469747,,0.9485601107423739,0.36994979560685093,0.19890144131,3.5982794301944376,-0.28680001300765945,-0.8126018388220948,-0.4109736703938466,,-0.7272652002314706,0.08080295406301105,0.20863009776000002,-3.501192986361103,0.16136770622298516,0.7254704760294458,0.8482457354353123,,-0.042994004461315315,-0.08314748556500987,0.076974014,-0.05200662588628596,,7.467531e-05,8.881092e-06,-1.50203705e-05,1.0,-5.9597194e-05,-5.0023198e-05,5.960092e-05,1.0,-4.708767e-06,5.0023198e-05,4.708767e-06,1.0,324,0.986,0,0,0.0,False,-0.26112916771260597,1.022429794721451
1.0149714910076,16:53:09.880989,16:52:53.999242,0,,0.12182729,0.0032867044,0.025387779,0.77896315,0.56897473,-0.26359805,0.34012857,-0.030218542,0.93989336,0.52681005,-0.82179964,-0.21706384,,0.044896558,-0.028059855,-0.001695931,-0.5201626,0.30025187,0.7995497,0.84650636,0.3055404,0.43597263,-0.11339328,0.90360045,-0.41309577,,0.10789935,1.3464088,0.4446775,0.99666756,-0.0036415167,-0.08148962,-0.055076145,-0.7669473,-0.6393422,-0.06017007,0.64169973,-0.76459205,,-0.07662063,0.2683636,-0.08311525,-0.8187514,-0.5102057,0.26331785,0.55484295,-0.5851761,0.5913698,-0.14763291,0.6302849,0.7621978,,0.022717914,0.42514047,-0.30754519,0.51809627,-0.3879865,-0.7622616,0.5841884,0.81146103,-0.015965804,0.6247401,-0.43703255,0.64707214,,0.9508151487416474,0.36999613200409626,0.19869403491,3.5974406704204998,-0.29048919850132643,-0.8124523113272111,-0.4095035737986381,,-0.727280645697219,0.08080295406301105,0.20863009776000002,-3.5014026763045876,0.16136770622298516,0.7253887972893053,0.8484090795014465,,-0.042994004461315315,-0.08314748556500987,0.076974014,-0.05200662588628596,,7.467531e-05,8.881092e-06,-1.50203705e-05,1.0,-5.9597194e-05,-5.0023198e-05,5.960092e-05,1.0,-4.708767e-06,5.0023198e-05,4.708767e-06,1.0,336,1.022,0,0,0.0,False,-0.26160578946077395,1.023057437331584
1.0420220130035887,16:53:09.911568,16:52:54.199463,0,,0.12149216,0.0034414232,0.0256695,0.7749698,0.5744415,-0.26351207,0.3388221,-0.025666118,0.9405004,0.5334991,-0.8181431,-0.21452412,,0.044898205,-0.028059408,-0.0016952753,-0.52031726,0.30013788,0.7994918,0.84639966,0.30565482,0.4360993,-0.11347878,0.9035996,-0.41307408,,0.10789935,1.3464088,0.4446775,0.99666756,-0.0036415167,-0.08148962,-0.055076145,-0.7669473,-0.6393422,-0.06017007,0.64169973,-0.76459205,,-0.07630825,0.26868218,-0.08324391,-0.8152106,-0.51598257,0.26304692,0.55838656,-0.5796579,0.5934653,-0.15374054,0.6306811,0.76066107,,0.022716204,0.42514116,-0.30754527,0.5182597,-0.38787436,-0.76220757,0.5840637,0.81155294,-0.015853805,0.6247211,-0.4369614,0.64713854,,0.9532941459942734,0.37008880479858697,0.19854625785000002,3.5915693520029333,-0.29814084248819106,-0.8110319543885047,-0.4077067890711612,,-0.727280645697219,0.08080295406301105,0.20863009776000002,-3.501612366248072,0.16136770622298516,0.7255521547695865,0.848735767633715,,-0.042994004461315315,-0.08314748556500987,0.076974014,-0.05200662588628596,,7.467531e-05,8.881092e-06,-1.50203705e-05,1.0,-5.9597194e-05,-5.0023198e-05,5.960092e-05,1.0,-4.708767e-06,5.0023198e-05,4.708767e-06,1.0,361,1.099,0,0,0.0,False,-0.262797343831195,1.022767756126907
1.072647463006433,16:53:09.978885,16:52:54.199463,0,,0.12093373,0.003701821,0.026084498,0.77059853,0.5802481,-0.26360935,0.33755848,-0.020759583,0.9410756,0.5405849,-0.8141751,-0.21186507,,0.044897474,-0.028065592,-0.0016986132,-0.52031004,0.29995283,0.7995659,0.8464011,0.305574,0.43615323,-0.11350122,0.90368843,-0.4128737,,0.10789935,1.3464088,0.4446775,0.99666756,-0.0036415167,-0.08148962,-0.055076145,-0.7669473,-0.6393422,-0.06017007,0.64169973,-0.76459205,,-0.07578399,0.26917988,-0.083415136,-0.81132096,-0.52212554,0.262951,0.5622401,-0.5736882,0.59562397,-0.16013856,0.6310838,0.7590052,,0.022717321,0.4251344,-0.30754706,0.5182546,-0.38769758,-0.76230097,0.5840491,0.81156677,-0.01568453,0.624739,-0.43709263,0.6470327,,0.9577887765270722,0.3703591004491848,0.19830774049000002,3.582552684433099,-0.30784203397153737,-0.8076136139337897,-0.4077067890711611,,-0.727280645697219,0.08077206313151415,0.20863139405000003,-3.501612366248072,0.16136770622298516,0.725633833509727,0.8495524879643863,,-0.042994004461315315,-0.08314748556500987,0.076974014,-0.05200662588628596,,7.467531e-05,8.881092e-06,-1.50203705e-05,1.0,-5.9597194e-05,-5.0023198e-05,5.960092e-05,1.0,-4.708767e-06,5.0023198e-05,4.708767e-06,1.0,373,1.137,0,0,0.0,False,-0.2626186106756321,1.0231057175323635
1.139932594000129,16:53:10.024890,16:52:54.199463,0,,0.12080139,0.003823623,0.026408896,0.76254183,0.5904994,-0.26427343,0.3362495,-0.012771606,0.94168633,0.55268997,-0.8069371,-0.2082941,,0.04490094,-0.02806966,-0.0016969442,-0.5199349,0.30019575,0.7997188,0.8466349,0.30547366,0.4357696,-0.11347693,0.9036417,-0.41298258,,0.10789935,1.3464088,0.4446775,0.99666756,-0.0036415167,-0.08148962,-0.055076145,-0.7669473,-0.6393422,-0.06017007,0.64169973,-0.76459205,,-0.07567633,0.26948938,-0.08358889,-0.80410177,-0.5329762,0.26335678,0.5695043,-0.5635128,0.59842974,-0.17054388,0.6311812,0.75665385,,0.022713766,0.4251323,-0.30755082,0.51787597,-0.38793373,-0.7624381,0.58421004,0.81144375,-0.01605122,0.6249025,-0.4371115,0.646862,,0.9587850090678471,0.3706680097641538,0.19815477827000003,3.5739553967502333,-0.31849968095324166,-0.8071725701996656,-0.40934022973250384,,-0.7272883684300931,0.0807566176657657,0.20863009776000002,-3.501192986361103,0.16150434272275063,0.7255224156060306,0.8495524879643863,,-0.042994004461315315,-0.08314748556500987,0.076974014,-0.05200662588628596,,7.467531e-05,8.881092e-06,-1.50203705e-05,1.0,-5.9597194e-05,-5.0023198e-05,5.960092e-05,1.0,-4.708767e-06,5.0023198e-05,4.708767e-06,1.0,381,1.162,0,0,0.0,False,-0.2618441003348577,1.0232505581347018
1.1859852490015328,16:53:10.056052,16:52:54.199463,0,,0.12088095,0.003839329,0.026697025,0.7534085,0.60203445,-0.26444292,0.3341357,-0.0041508973,0.94251585,0.56632936,-0.79845935,-0.20428872,,0.04489918,-0.028076917,-0.0016983151,-0.51997966,0.30016416,0.7997016,0.84662014,0.30537978,0.43586406,-0.11338201,0.9036839,-0.4129163,,0.10789935,1.3464088,0.4446775,0.99666756,-0.0036415167,-0.08148962,-0.055076145,-0.7669473,-0.6393422,-0.06017007,0.64169973,-0.76459205,,-0.07577588,0.26968265,-0.08379465,-0.7959023,-0.5452031,0.2632358,0.5772054,-0.55212843,0.6016544,-0.18268389,0.6307993,0.75413454,,0.022715732,0.42512614,-0.30755484,0.51791173,-0.38790512,-0.7624284,0.58426636,0.8114055,-0.015935838,0.6248202,-0.43720794,0.64687634,,0.9589394637253316,0.370984641811997,0.19795255703000003,3.563680589519491,-0.3317534214304894,-0.806983269759386,-0.4095035737986379,,-0.7272729229643448,0.08071800400139457,0.20862880147,-3.501192986361103,0.16136770622298516,0.725633833509727,0.849225799832118,,-0.042994004461315315,-0.08314748556500987,0.076974014,-0.05200662588628596,,7.467531e-05,8.881092e-06,-1.50203705e-05,1.0,-5.9597194e-05,-5.0023198e-05,5.960092e-05,1.0,-4.708767e-06,5.0023198e-05,4.708767e-06,1.0,393,1.199,0,0,0.0,False,-0.26136747858668974,1.0224780749222304
1.2171262790070614,16:53:10.089952,16:52:54.351441,0,,0.1209421,0.0038340837,0.026973024,0.74257284,0.6134377,-0.2688488,0.33881176,0.0022079349,0.9408516,0.57774746,-0.7897401,-0.20620039,,0.044902794,-0.02808559,-0.0016964674,-0.5200671,0.3013302,0.799206,0.8465338,0.30632302,0.4353696,-0.11362532,0.9029763,-0.41439474,,0.10789935,1.3464088,0.4446775,0.99666756,-0.0036415167,-0.08148962,-0.055076145,-0.7669473,-0.6393422,-0.06017007,0.64169973,-0.76459205,,-0.07585589,0.26985317,-0.08400551,-0.78595686,-0.55728,0.26778877,0.588746,-0.54230493,0.59940267,-0.18881194,0.6287642,0.7543246,,0.022712061,0.42512077,-0.30756187,0.51802284,-0.38901064,-0.7617894,0.58404535,0.8115375,-0.01725921,0.6249347,-0.4359789,0.6475948,,0.9589162955267089,0.37134761025708557,0.19773478031000002,3.5483732236451213,-0.3392684289175886,-0.8029789322997374,-0.4090135416002352,,-0.727280645697219,0.08067939033702345,0.20862620889000003,-3.5014026763045876,0.16150434272275063,0.7239705195433599,0.848082391369178,,-0.042994004461315315,-0.08314748556500987,0.076974014,-0.05200662588628596,,7.467531e-05,8.881092e-06,-1.50203705e-05,1.0,-5.9597194e-05,-5.0023198e-05,5.960092e-05,1.0,-4.708767e-06,5.0023198e-05,4.708767e-06,1.0,401,1.223,0,0,0.0,False,-0.261427056305211,1.022864316528466
1.2510296889959136,16:53:10.114925,16:52:54.351441,0,,0.12105118,0.0037828833,0.027447,0.72873896,0.6317531,-0.26424894,0.33869076,0.002869606,0.9408934,0.59517056,-0.7751644,-0.21187782,,0.0448995,-0.028095499,-0.0016901493,-0.52000535,0.30183998,0.79905385,0.8465521,0.3067229,0.4350525,-0.113771886,0.90267026,-0.41502082,,0.10789935,1.3464088,0.4446775,0.99666756,-0.0036415167,-0.08148962,-0.055076145,-0.7669473,-0.6393422,-0.06017007,0.64169973,-0.76459205,,-0.07599669,0.2701136,-0.084394775,-0.77336156,-0.5765681,0.2635927,0.6006722,-0.533439,0.59551305,-0.20274323,0.6188797,0.75886965,,0.022714874,0.42511794,-0.30757338,0.517975,-0.38949412,-0.76157486,0.5839555,0.8115882,-0.017903045,0.6250583,-0.4354525,0.64782965,,0.9589394637253316,0.3717646378322937,0.19734848589,3.5318077181098433,-0.35484498989084884,-0.7898688975776422,-0.40917688566636956,,-0.7272652002314706,0.08064849940552656,0.20861713486000003,-3.5014026763045876,0.16164097922251605,0.7232873504586795,0.848735767633715,,-0.042994004461315315,-0.08314748556500987,0.076974014,-0.05200662588628596,,7.467531e-05,8.881092e-06,-1.50203705e-05,1.0,-5.9597194e-05,-5.0023198e-05,5.960092e-05,1.0,-4.708767e-06,5.0023198e-05,4.708767e-06,1.0,413,1.26,0,0,0.0,False,-0.26148663402373185,1.0221883937175535
1.2759237970021786,16:53:10.153621,16:52:54.351441,0,,0.121058114,0.0037939996,0.027787,0.7157112,0.6468762,-0.2632651,0.34038794,0.0060593784,0.94026554,0.60983074,-0.7625709,-0.21585223,,0.044900164,-0.028102458,-0.0016807318,-0.5200467,0.30184826,0.79902387,0.8465391,0.30665138,0.43512803,-0.11367926,0.9026917,-0.41499943,,0.10789935,1.3464088,0.4446775,0.99666756,-0.0036415167,-0.08148962,-0.055076145,-0.7669473,-0.6393422,-0.06017007,0.64169973,-0.76459205,,-0.07602731,0.27034092,-0.0846461,-0.76140743,-0.59257436,0.26289612,0.6121569,-0.52374345,0.592416,-0.2133604,0.6120036,0.76153064,,0.022713406,0.42511916,-0.30758497,0.5180075,-0.3895035,-0.7615479,0.58401144,0.81154954,-0.017830877,0.6249791,-0.43551618,0.64786327,,0.9593487685676655,0.3719963198185204,0.1971008945,3.515242212574566,-0.36727891136950397,-0.7799749045616897,-0.40934022973250384,,-0.727280645697219,0.08061760847402966,0.20860676454000002,-3.5014026763045876,0.16150434272275063,0.7233170896222353,0.8484090795014463,,-0.042994004461315315,-0.08314748556500987,0.076974014,-0.05200662588628596,,7.467531e-05,8.881092e-06,-1.50203705e-05,1.0,-5.9597194e-05,-5.0023198e-05,5.960092e-05,1.0,-4.708767e-06,5.0023198e-05,4.708767e-06,1.0,442,1.349,0,0,0.0,False,-0.26154621174225356,1.021802152111318
1.3147159780055517,16:53:10.240745,16:52:54.498978,0,,0.12078482,0.0039203316,0.028858453,0.6679845,0.70121956,-0.24917439,0.33061808,0.020335466,0.94354546,0.66669965,-0.7126554,-0.21825215,,0.04489764,-0.028136283,-0.0016397238,-0.52041805,0.30362716,0.79810745,0.846246,0.30833966,0.43450463,-0.114160866,0.9015193,-0.41740876,,0.10789935,1.3464088,0.4446775,0.99666756,-0.0036415167,-0.08148962,-0.055076145,-0.7669473,-0.6393422,-0.06017007,0.64169973,-0.76459205,,-0.07583081,0.2711436,-0.08539158,-0.7175839,-0.650457,0.2489559,0.6440837,-0.48375246,0.5925705,-0.2650086,0.5855675,0.7660817,,0.022712462,0.42512208,-0.3076381,0.5184263,-0.39118436,-0.76040053,0.5834986,0.81187165,-0.01984541,0.62511086,-0.43340427,0.6491511,,0.9624841981146006,0.37150206491457005,0.19644756434000002,3.4617712769860125,-0.42685242526723594,-0.7460171930352107,-0.4101569500631752,,-0.7273038138958416,0.0805017674809163,0.2085600981,-3.5020317461350414,0.16164097922251605,0.720591952034041,0.8474290151046406,,-0.042994004461315315,-0.08314748556500987,0.076974014,-0.05200662588628596,,7.467531e-05,8.881092e-06,-1.50203705e-05,1.0,-5.9597194e-05,-5.0023198e-05,5.960092e-05,1.0,-4.708767e-06,5.0023198e-05,4.708767e-06,1.0,450,1.375,0,0,0.0,False,-0.2608908568385213,1.022140113516774
1.401832863004529,16:53:10.271377,16:52:54.498978,0,,0.12053722,0.00390923,0.029211119,0.65790904,0.7134692,-0.24107535,0.32588357,0.018876582,0.9452214,0.6789371,-0.7004323,-0.22008893,,0.04489883,-0.028150782,-0.0016305447,-0.5203961,0.30355144,0.79815066,0.84625196,0.30834606,0.4344886,-0.11421701,0.9015426,-0.41734308,,0.10789935,1.3464088,0.4446775,0.99666756,-0.0036415167,-0.08148962,-0.055076145,-0.7669473,-0.6393422,-0.06017007,0.64169973,-0.76459205,,-0.07560806,0.27137655,-0.08567777,-0.7083069,-0.66349894,0.24097824,0.64893657,-0.4776764,0.59220487,-0.27781767,0.5758424,0.76891017,,0.022710588,0.4251175,-0.3076546,0.51840967,-0.39111125,-0.76044947,0.5834635,0.8118976,-0.019816099,0.62515736,-0.43342164,0.6490947,,0.9642063675455527,0.37096147361337434,0.19619478779000002,3.4510770898683014,-0.44201907674119983,-0.7334864482446268,-0.40983026193090666,,-0.7273115366287158,0.0804399856179225,0.20854843149000002,-3.5020317461350414,0.16164097922251605,0.7206736307741816,0.8472656710385065,,-0.042994004461315315,-0.08314748556500987,0.076974014,-0.05200662588628596,,7.467531e-05,8.881092e-06,-1.50203705e-05,1.0,-5.9597194e-05,-5.0023198e-05,5.960092e-05,1.0,-4.708767e-06,5.0023198e-05,4.708767e-06,1.0,462,1.412,0,0,0.0,False,-0.2604738128088746,1.022767756126907
1.4324532640021062,16:53:10.322514,16:52:54.498978,0,,0.12007505,0.0039111674,0.029743567,0.6334246,0.7388089,-0.2300751,0.32020995,0.02041307,0.9471266,0.7044422,-0.67360574,-0.2236439,,0.044907153,-0.02816923,-0.0016157627,-0.520359,0.3035722,0.7981669,0.84626293,0.30843005,0.43440756,-0.11430466,0.9015069,-0.41739625,,0.10789935,1.3464088,0.4446775,0.99666756,-0.0036415167,-0.08148962,-0.055076145,-0.7669473,-0.6393422,-0.06017007,0.64169973,-0.76459205,,-0.07518393,0.27174756,-0.08610155,-0.68556064,-0.69065505,0.23022202,0.66244507,-0.46064168,0.59074175,-0.3019489,0.5574987,0.7733188,,0.022701127,0.4251133,-0.30767742,0.5183809,-0.39112958,-0.76045966,0.58340985,0.81193376,-0.019912701,0.6252313,-0.43333727,0.6490798,,0.967141006037758,0.36962544082613347,0.19584738207000002,3.4225592575544064,-0.47194247018983126,-0.7087592123745482,-0.409503573798638,,-0.7273578730259612,0.08035503555630602,0.20853287601000003,-3.5020317461350414,0.16164097922251605,0.7205919520340409,0.8477557032369092,,-0.042994004461315315,-0.08314748556500987,0.076974014,-0.05200662588628596,,7.467531e-05,8.881092e-06,-1.50203705e-05,1.0,-5.9597194e-05,-5.0023198e-05,5.960092e-05,1.0,-4.708767e-06,5.0023198e-05,4.708767e-06,1.0,478,1.461,0,0,0.0,False,-0.26160578946077395,1.0223815145206714
1.4534078130091075,16:53:10.352377,16:52:54.638136,0,,0.11979125,0.003913,0.030094951,0.6119974,0.7590517,-0.22203518,0.31578416,0.022862226,0.9485556,0.72507894,-0.6506288,-0.22570503,,0.04491228,-0.028176025,-0.0016089678,-0.52039486,0.30350175,0.7981703,0.8462519,0.30832484,0.4345037,-0.11422321,0.9015666,-0.41728964,,0.10789935,1.3464088,0.4446775,0.99666756,-0.0036415167,-0.08148962,-0.055076145,-0.7669473,-0.6393422,-0.06017007,0.64169973,-0.76459205,,-0.074925184,0.2719916,-0.08637997,-0.6655465,-0.71247494,0.22232272,0.67359227,-0.44510508,0.5900465,-0.32143638,0.54245824,0.7761557,,0.022695474,0.4251125,-0.30768666,0.518409,-0.3910638,-0.7604743,0.5834592,0.81190175,-0.01977044,0.62516195,-0.43345657,0.649067,,0.9688013936057163,0.3686214855524843,0.19564386454000002,3.398654603997171,-0.49544394814948706,-0.6894319754584827,-0.40983026193090655,,-0.7273964866903323,0.08030869915906068,0.20852250569000003,-3.5020317461350414,0.16150434272275063,0.720785048677878,0.8479190473030438,,-0.042994004461315315,-0.08314748556500987,0.076974014,-0.05200662588628596,,7.467531e-05,8.881092e-06,-1.50203705e-05,1.0,-5.9597194e-05,-5.0023198e-05,5.960092e-05,1.0,-4.708767e-06,5.0023198e-05,4.708767e-06,1.0,495,1.513,1,1,0.028,False,-0.2620824112089424,1.0226711957253483
1.4832676500082016,16:53:10.403574,16:52:54.638136,0,,0.11937006,0.0038682818,0.030719087,0.5718991,0.7943983,-0.20460343,0.30639946,0.024507225,0.9515875,0.76095384,-0.60690254,-0.22938776,,0.04489991,-0.02820231,-0.0016129613,-0.52033806,0.3034987,0.7982085,0.8462714,0.30841276,0.4344032,-0.11433694,0.90153754,-0.41732118,,0.107916825,1.3464066,0.4446653,0.99666667,-0.0036536667,-0.08149975,-0.055091932,-0.76694727,-0.6393409,-0.06017007,0.64169973,-0.76459205,,-0.07456341,0.2723908,-0.08691089,-0.6278807,-0.75078374,0.20515758,0.6918503,-0.4176474,0.5889939,-0.3565235,0.51175624,0.7816627,,0.022692235,0.42509693,-0.30771232,0.5183764,-0.39105365,-0.76050174,0.58338714,0.8119514,-0.01985853,0.62525624,-0.43337274,0.6490321,,0.9710178179406187,0.36690703885440645,0.19526016270000002,3.3542003359784514,-0.537937899576539,-0.6503703554413052,-0.40934022973250406,,-0.7273887639574581,0.08018513543307308,0.20851213537000002,-3.5020317461350414,0.16150434272275063,0.7207033699377372,0.8477557032369092,,-0.042994004461315315,-0.08314748556500987,0.076974014,-0.05200662588628596,,9.294599e-05,2.7418137e-06,-5.6028366e-06,1.0,-7.170811e-05,-6.018579e-05,7.171184e-05,1.0,-5.6922436e-06,6.0189515e-05,5.6624413e-06,1.0,503,1.539,1,1,0.054,False,-0.26136747858668974,1.0225746353237892
1.5344331200030865,16:53:10.430341,16:52:54.638136,0,,0.11922908,0.0038325787,0.031103894,0.5481472,0.81485146,-0.18855166,0.29807597,0.0203107,0.954326,0.7814636,-0.579314,-0.23175454,,0.04483135,-0.028255194,-0.0016157627,-0.52025944,0.30348143,0.79826623,0.84631217,0.30841932,0.4343192,-0.114392996,0.9015412,-0.41729817,,0.107916825,1.3464066,0.4446653,0.99666667,-0.0036536667,-0.08149975,-0.055091932,-0.76694727,-0.6393409,-0.06017007,0.64169973,-0.76459205,,-0.07444886,0.27261972,-0.08723292,-0.6054783,-0.773029,0.18926738,0.70007604,-0.40421423,0.58864623,-0.37853605,0.48891407,0.78592205,,0.022761395,0.42506114,-0.3077503,0.518303,-0.39103693,-0.7605604,0.5833736,0.81195986,-0.019909037,0.62532973,-0.43337196,0.64896184,,0.9719986050156453,0.36598803364237376,0.19503331195,3.329876302534247,-0.5636255615324419,-0.623052847815414,-0.4095035737986382,,-0.7274042094232066,0.08010790810433084,0.20850176505,-3.5020317461350414,0.16150434272275063,0.720785048677878,0.8479190473030438,,-0.042994004461315315,-0.08314748556500987,0.076974014,-0.05200662588628596,,9.294599e-05,2.7418137e-06,-5.6028366e-06,1.0,-7.170811e-05,-6.018579e-05,7.171184e-05,1.0,-5.6922436e-06,6.0189515e-05,5.6624413e-06,1.0,516,1.578,0,1,0.069,False,-0.2608908568385213,1.022429794721451
1.5612095140095335,16:53:10.470188,16:52:54.638136,0,,0.1189823,0.0038128346,0.031675443,0.5095619,0.84437835,-0.16544399,0.2861316,0.015047163,0.95807207,0.8114649,-0.53553593,-0.23393613,,0.044847094,-0.028266415,-0.0016106367,-0.52022296,0.30348387,0.7982892,0.84632367,0.3084864,0.4342491,-0.11447391,0.9015174,-0.41732734,,0.107916825,1.3464066,0.4446653,0.99666667,-0.0036536667,-0.08149975,-0.055091932,-0.76694727,-0.6393409,-0.06017007,0.64169973,-0.76459205,,-0.07424195,0.2729872,-0.08769129,-0.5688803,-0.80542904,0.16631058,0.7125022,-0.3816687,0.58878654,-0.41075027,0.45344576,0.7909938,,0.022745376,0.42505524,-0.30776072,0.5182741,-0.3910379,-0.7605796,0.5833249,0.81199306,-0.01998192,0.62539905,-0.4333089,0.64893717,,0.9731570149467789,0.3648759601084854,0.19472220235,3.288357693724311,-0.602157054466296,-0.5792178304716578,-0.4101569500631753,,-0.7274737140190746,0.08003840350846282,0.20849917247000002,-3.5020317461350414,0.16150434272275063,0.7207033699377372,0.8477557032369092,,-0.042994004461315315,-0.08314748556500987,0.076974014,-0.05200662588628596,,9.294599e-05,2.7418137e-06,-5.6028366e-06,1.0,-7.170811e-05,-6.018579e-05,7.171184e-05,1.0,-5.6922436e-06,6.0189515e-05,5.6624413e-06,1.0,524,1.604,0,1,0.069,False,-0.26178452261633733,1.022140113516774
1.6010747510008514,16:53:10.496705,16:52:54.638136,0,,0.11878584,0.0038036406,0.032121584,0.48212048,0.8644691,-0.1423122,0.27307895,0.0060655475,0.9619725,0.83245885,-0.50264925,-0.23314416,,0.044857033,-0.02826786,-0.0016047955,-0.52020735,0.30343753,0.7983169,0.84632933,0.30848372,0.43424007,-0.114503086,0.90153396,-0.41728362,,0.107916825,1.3464066,0.4446653,0.99666667,-0.0036536667,-0.08149975,-0.055091932,-0.76694727,-0.6393409,-0.06017007,0.64169973,-0.76459205,,-0.07407671,0.27327898,-0.08804524,-0.5427577,-0.8276051,0.14312159,0.7176443,-0.36844596,0.59096044,-0.43634933,0.42345873,0.793903,,0.02273495,0.42505735,-0.3077654,0.5182613,-0.39099333,-0.76061124,0.5833083,0.8120056,-0.019961117,0.6254252,-0.43332574,0.6489007,,0.9741300792889312,0.36406507315669184,0.19449275902000002,3.2602592412973848,-0.6326269939139892,-0.5430999718079583,-0.4114637025922492,,-0.7275277731491941,0.08002295804271436,0.20849657989000003,-3.5020317461350414,0.16150434272275063,0.7207033699377372,0.8477557032369092,,-0.042994004461315315,-0.08314748556500987,0.076974014,-0.05200662588628596,,9.294599e-05,2.7418137e-06,-5.6028366e-06,1.0,-7.170811e-05,-6.018579e-05,7.171184e-05,1.0,-5.6922436e-06,6.0189515e-05,5.6624413e-06,1.0,537,1.644,0,1,0.069,False,-0.26136747858668974,1.0220918333159945
1.6275622190005379,16:53:10.530342,16:52:54.638136,0,,0.11847395,0.0038311034,0.032599658,0.4449909,0.88530874,-0.13494971,0.26771146,0.012294248,0.9634207,0.854584,-0.46484113,-0.2315366,,0.044861756,-0.028268442,-0.0016018748,-0.5205127,0.30320194,0.79820734,0.84611714,0.30871713,0.43448743,-0.114683,0.90153325,-0.41723564,,0.107916825,1.3464066,0.4446653,0.99666667,-0.0036536667,-0.08149975,-0.055091932,-0.76694727,-0.6393409,-0.06017007,0.64169973,-0.76459205,,-0.07379911,0.27362585,-0.08840468,-0.50716907,-0.85110533,0.13564385,0.72992224,-0.34049842,0.59268403,-0.45825002,0.39960048,0.79393095,,0.022729978,0.42505854,-0.30776763,0.51858485,-0.3907616,-0.7605098,0.58305335,0.81219405,-0.019738879,0.6253947,-0.43318152,0.6490264,,0.9756282894665308,0.36303794968442,0.19414664959000003,3.2021751269521714,-0.6686990298520655,-0.4991468294870829,-0.4101569500631751,,-0.7275509413478168,0.08001523530984014,0.20849528360000003,-3.5024511260220104,0.16150434272275063,0.7207033699377372,0.8477557032369092,,-0.042994004461315315,-0.08314748556500987,0.076974014,-0.05200662588628596,,9.294599e-05,2.7418137e-06,-5.6028366e-06,1.0,-7.170811e-05,-6.018579e-05,7.171184e-05,1.0,-5.6922436e-06,6.0189515e-05,5.6624413e-06,1.0,545,1.67,0,1,0.069,False,-0.26196325577190027,1.0222849541191128
1.6611721100052819,16:53:10.564237,16:52:54.839724,0,,0.11801982,0.0038232803,0.03324558,0.40210247,0.9079967,-0.11770989,0.25698325,0.011470422,0.9663478,0.87879086,-0.41882035,-0.22872776,,0.044860527,-0.028267682,-0.0015992522,-0.52051526,0.30326766,0.79818076,0.84611654,0.30874717,0.4344674,-0.11467621,0.90150094,-0.41730744,,0.107916825,1.3464066,0.4446653,0.99666667,-0.0036536667,-0.08149975,-0.055091932,-0.76694727,-0.6393409,-0.06017007,0.64169973,-0.76459205,,-0.0733907,0.27406213,-0.08892082,-0.46589676,-0.87690777,0.11820754,0.7397826,-0.3127354,0.5957502,-0.4854503,0.36500597,0.79442346,,0.022730945,0.425061,-0.3077691,0.51858675,-0.39082432,-0.76047623,0.58305764,0.8121895,-0.019800035,0.62538916,-0.43313345,0.6490638,,0.9768562039935325,0.3622502309312491,0.19387961385000002,3.1642212471814726,-0.6931569633100794,-0.46278559795717056,-0.40868685346796685,,-0.7275509413478168,0.08002295804271436,0.20849269102,-3.5024511260220104,0.16150434272275063,0.7206216911975967,0.8479190473030433,,-0.042994004461315315,-0.08314748556500987,0.076974014,-0.05200662588628596,,9.294599e-05,2.7418137e-06,-5.6028366e-06,1.0,-7.170811e-05,-6.018579e-05,7.171184e-05,1.0,-5.6922436e-06,6.0189515e-05,5.6624413e-06,1.0,562,1.722,0,1,0.069,False,-0.26148663402373185,1.0223815145206714
1.6951302660017973,16:53:10.612406,16:52:54.839724,0,,0.11732142,0.0037643462,0.03390442,0.3542392,0.9293952,-0.10362935,0.24770308,0.013604328,0.96874046,0.9017526,-0.36883524,-0.225395,,0.04486376,-0.02827996,-0.001594007,-0.52038914,0.30568802,0.79733926,0.8461546,0.31030282,0.43328336,-0.11496717,0.9001482,-0.4201376,,0.107916825,1.3464066,0.4446653,0.99666667,-0.0036536667,-0.08149975,-0.055091932,-0.76694727,-0.6393409,-0.06017007,0.64169973,-0.76459205,,-0.07273873,0.27448156,-0.08949028,-0.41959852,-0.9017444,0.103894636,0.7502255,-0.2800886,0.5989258,-0.5109783,0.3292528,0.7940364,,0.022727376,0.4250552,-0.30778107,0.5184882,-0.39312506,-0.75935674,0.58288044,0.8122459,-0.022515843,0.6256359,-0.43093997,0.6502849,,0.979180746588674,0.36053578423317123,0.19348165282000002,3.1029917836839913,-0.7254031772547233,-0.41010873961941346,-0.40787013313729537,,-0.727558664080691,0.07997662164546902,0.20848620957000003,-3.5024511260220104,0.1617776157222815,0.7174584207451438,0.8472656710385066,,-0.042994004461315315,-0.08314748556500987,0.076974014,-0.05200662588628596,,9.294599e-05,2.7418137e-06,-5.6028366e-06,1.0,-7.170811e-05,-6.018579e-05,7.171184e-05,1.0,-5.6922436e-06,6.0189515e-05,5.6624413e-06,1.0,583,1.787,0,1,0.069,False,-0.26196325577190027,1.0222849541191128
1.7432072820083704,16:53:10.679914,16:52:54.839724,0,,0.11638714,0.0036324412,0.034339115,0.30969378,0.9471892,-0.083199754,0.24074322,0.006539583,0.9705668,0.91985464,-0.32060835,-0.22600433,,0.044859655,-0.028298855,-0.0015856624,-0.52052534,0.30582923,0.7971962,0.846111,0.31014103,0.43348423,-0.11467114,0.9001561,-0.42020175,,0.107916825,1.3464066,0.4446653,0.99666667,-0.0036536667,-0.08149975,-0.055091932,-0.76694727,-0.6393409,-0.06017007,0.64169973,-0.76459205,,-0.071834825,0.27471423,-0.08994642,-0.3763096,-0.92272085,0.083530225,0.75911534,-0.25538293,0.5987683,-0.5311638,0.28873134,0.7965546,,0.022730907,0.42504728,-0.30780023,0.51859635,-0.39326435,-0.75921077,0.5830577,0.81212187,-0.022400862,0.6253811,-0.43104666,0.65045923,,0.9820922168822567,0.3577247094669535,0.19321591337000002,3.0421817000734794,-0.7520472947089842,-0.34827798698959533,-0.4103202941293095,,-0.7275432186149426,0.07988394885097833,0.20847195038000002,-3.5024511260220104,0.16136770622298516,0.7174659594956707,0.8472656710385066,,-0.042994004461315315,-0.08314748556500987,0.076974014,-0.05200662588628596,,9.294599e-05,2.7418137e-06,-5.6028366e-06,1.0,-7.170811e-05,-6.018579e-05,7.171184e-05,1.0,-5.6922436e-06,6.0189515e-05,5.6624413e-06,1.0,591,1.813,0,1,0.069,False,-0.2613079008681689,1.0216090313082002
1.8108012360025896,16:53:10.706941,16:52:54.839724,0,,0.11588521,0.0035647452,0.034453675,0.28878066,0.9539797,-0.080798656,0.23899958,0.009889692,0.97096926,0.9270842,-0.29970804,-0.22514486,,0.044862747,-0.028319955,-0.0015733242,-0.5204916,0.30568004,0.7972754,0.8461202,0.31013188,0.433473,-0.114756495,0.9002099,-0.42006317,,0.107916825,1.3464066,0.4446653,0.99666667,-0.0036536667,-0.08149975,-0.055091932,-0.76694727,-0.6393409,-0.06017007,0.64169973,-0.76459205,,-0.07134104,0.27476493,-0.090098865,-0.35592225,-0.93099254,0.08106943,0.7636322,-0.23973672,0.5994933,-0.5386885,0.27528024,0.79626346,,0.022726938,0.4250398,-0.30782333,0.5185708,-0.39312086,-0.75930256,0.5830045,0.8121623,-0.022321593,0.6254519,-0.43110144,0.65035486,,0.9835518133954851,0.3561415492277375,0.19315498774,3.012196038155192,-0.7622950321913923,-0.3248927560265001,-0.4086868534679666,,-0.727558664080691,0.07979127605648763,0.2084563949,-3.5024511260220104,0.16136770622298516,0.717629316975952,0.8475923591707751,,-0.042994004461315315,-0.08314748556500987,0.076974014,-0.05200662588628596,,9.294599e-05,2.7418137e-06,-5.6028366e-06,1.0,-7.170811e-05,-6.018579e-05,7.171184e-05,1.0,-5.6922436e-06,6.0189515e-05,5.6624413e-06,1.0,604,1.853,0,1,0.069,False,-0.26136747858668974,1.0217538719105386
1.8378171070071403,16:53:10.751247,16:52:55.022377,0,,0.115279764,0.003514275,0.034566537,0.26139295,0.96263754,-0.070729546,0.23345912,0.008048862,0.97233325,0.93657386,-0.27067357,-0.2226327,,0.04486431,-0.028349712,-0.0015611649,-0.5204481,0.3056716,0.797307,0.8461313,0.31022483,0.43338463,-0.114871085,0.9001807,-0.42009428,,0.107916825,1.3464066,0.4446653,0.99666667,-0.0036536667,-0.08149975,-0.055091932,-0.76694727,-0.6393409,-0.06017007,0.64169973,-0.76459205,,-0.07074414,0.2748335,-0.0902433,-0.32917398,-0.941609,0.07083064,0.76707906,-0.22290777,0.60158277,-0.55066705,0.2523581,0.79566395,,0.022724587,0.425026,-0.30785236,0.5185382,-0.3931108,-0.75933,0.58293235,0.8122116,-0.022409843,0.62554616,-0.43101764,0.65031976,,0.9852122009634434,0.35424947967355247,0.19314202484,2.97361308855404,-0.7778715931646525,-0.28817756540378275,-0.4099936059970408,,-0.727558664080691,0.07965998959762582,0.20843824684,-3.5024511260220104,0.16136770622298516,0.7176293169759518,0.8472656710385065,,-0.042994004461315315,-0.08314748556500987,0.076974014,-0.05200662588628596,,9.294599e-05,2.7418137e-06,-5.6028366e-06,1.0,-7.170811e-05,-6.018579e-05,7.171184e-05,1.0,-5.6922436e-06,6.0189515e-05,5.6624413e-06,1.0,625,1.918,0,1,0.069,False,-0.26232072208302704,1.0215607511074207
1.8821278179966612,16:53:10.804475,16:52:55.022377,0,,0.11468446,0.003498748,0.034672216,0.23164141,0.97110516,-0.05741827,0.22930962,0.0028528422,0.97334933,0.94538856,-0.23863463,-0.2220231,,0.044862695,-0.02838403,-0.0015470982,-0.5204026,0.3056099,0.7973604,0.8461426,0.31029716,0.43331084,-0.114994735,0.90017676,-0.42006907,,0.107916825,1.3464066,0.4446653,0.99666667,-0.0036536667,-0.08149975,-0.055091932,-0.76694727,-0.6393409,-0.06017007,0.64169973,-0.76459205,,-0.0701574,0.27492353,-0.09035922,-0.30004278,-0.95219153,0.057494897,0.77128464,-0.2066881,0.60199666,-0.56133264,0.22496969,0.796426,,0.02272529,0.42501035,-0.30788603,0.5185044,-0.39304993,-0.75938463,0.58285403,0.81226665,-0.022451025,0.6256472,-0.43096945,0.65025455,,0.986710411141043,0.3526817649000849,0.19314332113000002,2.9306266501397125,-0.7912619701416657,-0.24426039982474645,-0.4096669178647724,,-0.7275432186149426,0.07951325767301555,0.20841620991,-3.5024511260220104,0.16136770622298516,0.7177109957160924,0.8467756388401038,,-0.042994004461315315,-0.08314748556500987,0.076974014,-0.05200662588628596,,9.294599e-05,2.7418137e-06,-5.6028366e-06,1.0,-7.170811e-05,-6.018579e-05,7.171184e-05,1.0,-5.6922436e-06,6.0189515e-05,5.6624413e-06,1.0,633,1.944,0,1,0.069,False,-0.26101001227556386,1.021802152111318
1.9353561530006118,16:53:10.835889,16:52:55.022377,0,,0.11436781,0.0035583973,0.034777746,0.2110891,0.9762364,-0.049028058,0.22679186,-0.000125736,0.97394323,0.9507928,-0.21670802,-0.22142917,,0.04486476,-0.02838771,-0.0015416741,-0.52039444,0.30572623,0.7973212,0.84614515,0.31037498,0.43325013,-0.115012616,0.9001104,-0.42020625,,0.107916825,1.3464066,0.4446653,0.99666667,-0.0036536667,-0.08149975,-0.055091932,-0.76694727,-0.6393409,-0.06017007,0.64169973,-0.76459205,,-0.06984979,0.27505496,-0.09041444,-0.279877,-0.9587807,0.049075473,0.77401406,-0.19511007,0.60235727,-0.5679534,0.20657106,0.7967166,,0.022722773,0.42501113,-0.30789235,0.51849794,-0.3931604,-0.7593318,0.58284324,0.8122707,-0.022585198,0.62566257,-0.43086103,0.6503116,,0.9874749616955911,0.35231879645499636,0.19314202484,2.9008506781649097,-0.7987769776287649,-0.21460893796096125,-0.40999360599704093,,-0.727558664080691,0.07949781220726711,0.20841102475,-3.5024511260220104,0.16136770622298516,0.7175476382358114,0.846448950707835,,-0.042994004461315315,-0.08314748556500987,0.076974014,-0.05200662588628596,,9.294599e-05,2.7418137e-06,-5.6028366e-06,1.0,-7.170811e-05,-6.018579e-05,7.171184e-05,1.0,-5.6922436e-06,6.0189515e-05,5.6624413e-06,1.0,650,1.996,0,1,0.069,False,-0.261427056305211,1.0213193501035234
1.9667375860008178,16:53:10.884152,16:52:55.022377,0,,0.11413692,0.003633529,0.034940824,0.18856432,0.981034,-0.044896767,0.22318757,0.0017114729,0.974774,0.95636344,-0.19382802,-0.21863195,,0.044864982,-0.028390214,-0.0015366673,-0.52039033,0.30584952,0.79727644,0.8461464,0.3104493,0.4331944,-0.115021616,0.90004295,-0.42034832,,0.107916825,1.3464066,0.4446653,0.99666667,-0.0036536667,-0.08149975,-0.055091932,-0.76694727,-0.6393409,-0.06017007,0.64169973,-0.76459205,,-0.06963193,0.27523047,-0.09049986,-0.25773832,-0.965178,0.044748113,0.7761342,-0.17922765,0.6045603,-0.5754882,0.1905489,0.79530144,,0.022722103,0.42501268,-0.30789772,0.5184947,-0.39327767,-0.75927323,0.5828378,0.8122709,-0.02271863,0.62567025,-0.43075368,0.65037525,,0.9878302074078055,0.35241919198236127,0.19310183985,2.868768116811778,-0.8068385311149259,-0.1879423115682941,-0.4096669178647723,,-0.7275663868135653,0.07949008947439287,0.20840583959000003,-3.5024511260220104,0.16136770622298516,0.7173842807555302,0.8469389829062377,,-0.042994004461315315,-0.08314748556500987,0.076974014,-0.05200662588628596,,9.294599e-05,2.7418137e-06,-5.6028366e-06,1.0,-7.170811e-05,-6.018579e-05,7.171184e-05,1.0,-5.6922436e-06,6.0189515e-05,5.6624413e-06,1.0,658,2.022,0,1,0.069,False,-0.2617249448978165,1.0212227897019646
2.0150045690097613,16:53:10.914414,16:52:55.213730,0,,0.113998264,0.003654331,0.035117522,0.17306423,0.9839917,-0.04253135,0.22098044,0.0032885,0.97527266,0.95980024,-0.17818345,-0.21687394,,0.04486236,-0.028391525,-0.0015336275,-0.5203919,0.305856,0.7972731,0.8461458,0.31045115,0.43319422,-0.11501938,0.90004003,-0.42035514,,0.107916825,1.3464066,0.4446653,0.99666667,-0.0036536667,-0.08149975,-0.055091932,-0.76694727,-0.6393409,-0.06017007,0.64169973,-0.76459205,,-0.06950617,0.27536812,-0.090626806,-0.24248075,-0.96923536,0.04225924,0.7775457,-0.16810499,0.6059401,-0.5801946,0.17978731,0.79438704,,0.022724448,0.42501393,-0.30790097,0.51849604,-0.39328384,-0.7592692,0.582839,0.81226987,-0.02272308,0.6256681,-0.43074986,0.6503799,,0.9880001075310384,0.3526122603042169,0.19299813665,2.8465409828024177,-0.8116208086067163,-0.16983058415446162,-0.40803347720342964,,-0.727558664080691,0.07949008947439287,0.20840195072000003,-3.5024511260220104,0.16136770622298516,0.7173842807555302,0.8467756388401035,,-0.042994004461315315,-0.08314748556500987,0.076974014,-0.05200662588628596,,9.294599e-05,2.7418137e-06,-5.6028366e-06,1.0,-7.170811e-05,-6.018579e-05,7.171184e-05,1.0,-5.6922436e-06,6.0189515e-05,5.6624413e-06,1.0,671,2.062,0,1,0.069,False,-0.2618441003348577,1.0210296688988465
2.0452943819982465,16:53:10.954559,16:52:55.213730,0,,0.1138591,0.003621295,0.03532429,0.15732086,0.98679876,-0.03844758,0.22123897,0.002725169,0.9752158,0.9624467,-0.16192791,-0.21788967,,0.044860967,-0.028393656,-0.0015332699,-0.5203908,0.30579683,0.79729635,0.84614587,0.31042325,0.43321416,-0.11502388,0.90006983,-0.42029017,,0.107916825,1.3464066,0.4446653,0.99666667,-0.0036536667,-0.08149975,-0.055091932,-0.76694727,-0.6393409,-0.06017007,0.64169973,-0.76459205,,-0.069381155,0.27548414,-0.09081152,-0.22696416,-0.97315145,0.03825692,0.7803406,-0.15821125,0.60501057,-0.5827142,0.16716914,0.7952978,,0.022725824,0.4250127,-0.30790275,0.5184954,-0.39322743,-0.7592988,0.5828359,0.8122737,-0.022666374,0.6256715,-0.4307942,0.65034723,,0.9880927803255292,0.35276671496170137,0.19282313750000002,2.8234750890191207,-0.8136703561031979,-0.14888313292584243,-0.40770678907116087,,-0.7275509413478168,0.07948236674151865,0.20840065443000003,-3.5024511260220104,0.16136770622298516,0.7174659594956708,0.8462856066417008,,-0.042994004461315315,-0.08314748556500987,0.076974014,-0.05200662588628596,,9.294599e-05,2.7418137e-06,-5.6028366e-06,1.0,-7.170811e-05,-6.018579e-05,7.171184e-05,1.0,-5.6922436e-06,6.0189515e-05,5.6624413e-06,1.0,692,2.127,0,1,0.069,False,-0.26178452261633733,1.0211262293004055
2.0854276070022024,16:53:11.015535,16:52:55.213730,0,,0.11354234,0.0035471618,0.03564857,0.1227234,0.9920109,-0.029209819,0.21799353,0.0017684922,0.9759486,0.9682034,-0.1261393,-0.21603513,,0.044860587,-0.028395787,-0.0015311837,-0.5203883,0.30592653,0.7972483,0.84614646,0.31049946,0.43315828,-0.11503065,0.8999994,-0.42043903,,0.107916825,1.3464066,0.4446653,0.99666667,-0.0036536667,-0.08149975,-0.055091932,-0.76694727,-0.6393409,-0.06017007,0.64169973,-0.76459205,,-0.06908648,0.27565467,-0.09111986,-0.19280168,-0.98081195,0.028902698,0.7835379,-0.13615802,0.60624194,-0.59067404,0.13953082,0.7947549,,0.022726033,0.4250126,-0.30790576,0.5184935,-0.39335087,-0.7592362,0.5828317,0.81227285,-0.022804257,0.62567705,-0.43068305,0.65041554,,0.988123671257026,0.3527358240302045,0.19256906466,2.7731495025828345,-0.8213220000900625,-0.10327457757109193,-0.40738010093889243,,-0.7275509413478168,0.07947464400864443,0.20839806185,-3.5024511260220104,0.16136770622298516,0.7173026020153896,0.8459589185094323,,-0.042994004461315315,-0.08314748556500987,0.076974014,-0.05200662588628596,,9.294599e-05,2.7418137e-06,-5.6028366e-06,1.0,-7.170811e-05,-6.018579e-05,7.171184e-05,1.0,-5.6922436e-06,6.0189515e-05,5.6624413e-06,1.0,700,2.153,0,1,0.069,False,-0.26160578946077395,1.019484702473904
2.146424485006719,16:53:11.054452,16:52:55.340792,0,,0.113341376,0.0035189837,0.035795227,0.10123445,0.9945687,-0.024176791,0.21519715,0.0018349141,0.9765688,0.9713093,-0.10406522,-0.21384266,,0.04486329,-0.02839762,-0.0015302896,-0.5202775,0.30854252,0.796312,0.84618056,0.31212345,0.43192288,-0.115281135,0.8985435,-0.42347354,,0.107916825,1.3464066,0.4446653,0.99666667,-0.0036536667,-0.08149975,-0.055091932,-0.76694727,-0.6393409,-0.06017007,0.64169973,-0.76459205,,-0.068895735,0.27573916,-0.09125831,-0.17153828,-0.98489183,0.023720987,0.7846259,-0.1220182,0.6078435,-0.5957657,0.12288053,0.7937024,,0.022723278,0.42501163,-0.30790746,0.51840645,-0.39583737,-0.75800234,0.58267987,0.8122957,-0.025688514,0.6258905,-0.4283556,0.6517458,,0.9881159485241517,0.3527049330987076,0.19246795404000003,2.741696011060156,-0.826104277581853,-0.07544308008053235,-0.4081968212695639,,-0.727558664080691,0.07947464400864443,0.20839806185,-3.5024511260220104,0.16164097922251605,0.7138942953425148,0.8451421981787608,,-0.042994004461315315,-0.08314748556500987,0.076974014,-0.05200662588628596,,9.294599e-05,2.7418137e-06,-5.6028366e-06,1.0,-7.170811e-05,-6.018579e-05,7.171184e-05,1.0,-5.6922436e-06,6.0189515e-05,5.6624413e-06,1.0,713,2.193,0,1,0.069,False,-0.261427056305211,1.0189536202653298
2.185342116004904,16:53:11.085609,16:52:55.340792,0,,0.11310573,0.0034812242,0.035890833,0.077733524,0.9967425,-0.021492045,0.2146343,0.0043207556,0.9766849,0.97359633,-0.08053409,-0.21359932,,0.044862002,-0.028395474,-0.0015305877,-0.52038676,0.30884838,0.7961219,0.8461471,0.31208748,0.43201426,-0.11503288,0.89845085,-0.4237374,,0.107916825,1.3464066,0.4446653,0.99666667,-0.0036536667,-0.08149975,-0.055091932,-0.76694727,-0.6393409,-0.06017007,0.64169973,-0.76459205,,-0.068666704,0.27578536,-0.09136558,-0.14824602,-0.98872703,0.021024356,0.7870022,-0.105072945,0.60793686,-0.5988745,0.10667043,0.79370695,,0.022724567,0.4250131,-0.30790588,0.51849216,-0.39613265,-0.7577894,0.5828305,0.8121845,-0.025785195,0.6256792,-0.42829335,0.6519895,,0.9881082257912776,0.35259681483846844,0.19238888035,2.706887480441725,-0.8281538250783346,-0.0471445422392629,-0.4075434450050267,,-0.727558664080691,0.07947464400864443,0.20839806185,-3.5024511260220104,0.16136770622298516,0.7136270587090644,0.8448155100464925,,-0.042994004461315315,-0.08314748556500987,0.076974014,-0.05200662588628596,,9.294599e-05,2.7418137e-06,-5.6028366e-06,1.0,-7.170811e-05,-6.018579e-05,7.171184e-05,1.0,-5.6922436e-06,6.0189515e-05,5.6624413e-06,1.0,721,2.218,0,1,0.069,False,-0.2622611443645053,1.0178914558481817
2.2164966160053154,16:53:11.114253,16:52:55.340792,0,,0.11275252,0.0034267902,0.0359935,0.04343725,0.9989967,-0.0108946785,0.21331093,0.001379665,0.97698337,0.9760183,-0.044761438,-0.21303716,,0.044858344,-0.028394952,-0.0015302896,-0.5203923,0.30821142,0.7963652,0.8461453,0.31173298,0.43227386,-0.115021616,0.8987926,-0.42301515,,0.107916825,1.3464066,0.4446653,0.99666667,-0.0036536667,-0.08149975,-0.055091932,-0.76694727,-0.6393409,-0.06017007,0.64169973,-0.76459205,,-0.06832064,0.27583006,-0.09149405,-0.11418312,-0.99340516,0.010410133,0.7894972,-0.08437509,0.60792685,-0.6030393,0.07763375,0.7939248,,0.02272817,0.42501396,-0.30790597,0.5184967,-0.3955265,-0.7581029,0.5828371,0.8122005,-0.025125498,0.62566936,-0.428823,0.6516508,,0.988123671257026,0.3524346374481097,0.19230073263000003,2.6559328241749856,-0.8303400090745816,0.001031668619719206,-0.40819682126956386,,-0.7275432186149426,0.07948236674151865,0.20839676556000003,-3.5024511260220104,0.16136770622298516,0.71444384611047,0.843508757517418,,-0.042994004461315315,-0.08314748556500987,0.076974014,-0.05200662588628596,,9.294599e-05,2.7418137e-06,-5.6028366e-06,1.0,-7.170811e-05,-6.018579e-05,7.171184e-05,1.0,-5.6922436e-06,6.0189515e-05,5.6624413e-06,1.0,734,2.258,0,1,0.069,False,-0.26255903295711036,1.0168775716318132
2.2450981130095897,16:53:11.151778,16:52:55.340792,0,,0.11244321,0.0033792555,0.036047116,0.013070572,0.9999127,-0.0018968843,0.21310529,-0.00093217194,0.9770287,0.97694194,-0.01317456,-0.21309894,,0.044859104,-0.028393328,-0.0015295744,-0.52023727,0.31019926,0.7956944,0.84625256,0.3126306,0.43141472,-0.114934,0.8977964,-0.42514905,,0.107916825,1.3464066,0.4446653,0.99666667,-0.0036536667,-0.08149975,-0.055091932,-0.76694727,-0.6393409,-0.06017007,0.64169973,-0.76459205,,-0.068015076,0.27584592,-0.091578834,-0.08395361,-0.9964686,0.0014385679,0.7916553,-0.065820955,0.60741216,-0.60517246,0.052133296,0.79438555,,0.022727327,0.42501557,-0.30790535,0.51833266,-0.39742225,-0.75722307,0.5829637,0.81204456,-0.027145807,0.62568724,-0.42736304,0.652592,,0.9881391167227744,0.3523574101193675,0.192239807,2.610849486325813,-0.8299300995752852,0.04333371726200347,-0.4085235094018324,,-0.7275509413478168,0.07949008947439287,0.20839676556000003,-3.502241436078526,0.16136770622298516,0.7120751626463937,0.8420386609222096,,-0.042994004461315315,-0.08314748556500987,0.076974014,-0.05200662588628596,,9.294599e-05,2.7418137e-06,-5.6028366e-06,1.0,-7.170811e-05,-6.018579e-05,7.171184e-05,1.0,-5.6922436e-06,6.0189515e-05,5.6624413e-06,1.0,742,2.284,0,1,0.069,False,-0.2623802998015474,1.0158636874154445
2.2826423200021964,16:53:11.184774,16:52:55.340792,0,,0.11207833,0.0033313334,0.03608127,-0.021815898,0.9996881,0.01215468,0.21219969,-0.0072504748,0.9771993,0.97698283,0.023897707,-0.21197551,,0.044860803,-0.028392866,-0.0015274286,-0.52070415,0.31097206,0.7950871,0.84593105,0.31358197,0.43135482,-0.11518574,0.8971971,-0.42634442,,0.107916825,1.3464066,0.4446653,0.99666667,-0.0036536667,-0.08149975,-0.055091932,-0.76694727,-0.6393409,-0.06017007,0.64169973,-0.76459205,,-0.06765274,0.27585208,-0.09165144,-0.04914374,-0.9987115,-0.0126580065,0.7929667,-0.04671892,0.60747105,-0.6072797,0.019816022,0.79424095,,0.022725426,0.4250172,-0.3079065,0.51882523,-0.39814663,-0.7565049,0.5825918,0.8122842,-0.027950758,0.62562543,-0.42623195,0.6533905,,0.9882472349830136,0.3523110737221221,0.19219184427000002,2.559056070285135,-0.8285637345776309,0.09563743427696697,-0.40917688566636945,,-0.727558664080691,0.07949008947439287,0.20839546927000002,-3.5028705059089797,0.16136770622298516,0.710686624064004,0.8412219405915381,,-0.042994004461315315,-0.08314748556500987,0.076974014,-0.05200662588628596,,9.294599e-05,2.7418137e-06,-5.6028366e-06,1.0,-7.170811e-05,-6.018579e-05,7.171184e-05,1.0,-5.6922436e-06,6.0189515e-05,5.6624413e-06,1.0,755,2.324,0,1,0.069,False,-0.26232072208302704,1.0153326052068705
2.315658423001878,16:53:11.213115,16:52:55.340792,0,,0.11161387,0.0032836348,0.03605984,-0.06343325,0.9976819,0.024638431,0.21268523,-0.010606573,0.9770632,0.9750596,0.067218535,-0.21151954,,0.044858232,-0.028395146,-0.0015275478,-0.5208608,0.3111357,0.79492044,0.845823,0.31385046,0.43137142,-0.11527115,0.8970465,-0.4266382,,0.107916825,1.3464066,0.4446653,0.99666667,-0.0036536667,-0.08149975,-0.055091932,-0.76694727,-0.6393409,-0.06017007,0.64169973,-0.76459205,,-0.06718722,0.2758282,-0.09168583,-0.007505665,-0.9996558,-0.025139757,0.7944531,-0.02122889,0.6069544,-0.6072792,-0.01541676,0.79433894,,0.022728024,0.42501566,-0.30790812,0.5189905,-0.3982986,-0.7563115,0.5824662,0.8123682,-0.028124252,0.6256053,-0.42592967,0.6536069,,0.9886256488938506,0.35227246005775104,0.19216980734000003,2.4976169168441698,-0.8230982745870132,0.15341991811621847,-0.40917688566636956,,-0.7275432186149426,0.07948236674151865,0.20839417298000001,-3.503080195852464,0.16136770622298516,0.7103599091034418,0.840568564327001,,-0.042994004461315315,-0.08314748556500987,0.076974014,-0.05200662588628596,,9.294599e-05,2.7418137e-06,-5.6028366e-06,1.0,-7.170811e-05,-6.018579e-05,7.171184e-05,1.0,-5.6922436e-06,6.0189515e-05,5.6624413e-06,1.0,763,2.35,0,1,0.069,False,-0.2631548101423209,1.0150912042029732
2.344007646999671,16:53:11.236223,16:52:55.340792,0,,0.11132845,0.003262341,0.036042735,-0.08626377,0.9955666,0.037491083,0.21243557,-0.018384881,0.97700214,0.97336006,0.092244335,-0.20990795,,0.04485888,-0.028396174,-0.0015274286,-0.52080613,0.31208667,0.7945833,0.84583974,0.31446677,0.4308895,-0.11539531,0.8965001,-0.42775157,,0.107916825,1.3464066,0.4446653,0.99666667,-0.0036536667,-0.08149975,-0.055091932,-0.76694727,-0.6393409,-0.06017007,0.64169973,-0.76459205,,-0.06690101,0.2758171,-0.09169876,0.015388847,-0.99915653,-0.038070608,0.79445946,-0.010900589,0.60721934,-0.6071222,-0.03958996,0.79362166,,0.022727378,0.42501494,-0.3079089,0.51894766,-0.3992012,-0.75586486,0.5823909,0.8123841,-0.029204085,0.62571096,-0.42505345,0.654076,,0.9890503992019329,0.3522338463933799,0.19216332589000001,2.463856835943161,-0.8195457255931118,0.19119906521011154,-0.40885019753410096,,-0.7275432186149426,0.07948236674151865,0.20839417298000001,-3.503080195852464,0.16150434272275063,0.7091049888377774,0.841221940591538,,-0.042994004461315315,-0.08314748556500987,0.076974014,-0.05200662588628596,,9.294599e-05,2.7418137e-06,-5.6028366e-06,1.0,-7.170811e-05,-6.018579e-05,7.171184e-05,1.0,-5.6922436e-06,6.0189515e-05,5.6624413e-06,1.0,776,2.389,0,1,0.069,False,-0.26190367805337944,1.0150429240021939
2.3671035559964366,16:53:11.283323,16:52:55.340792,0,,0.11050086,0.0032399744,0.035979584,-0.14488225,0.98787636,0.05576175,0.21010259,-0.02435534,0.977376,0.96688473,0.15332013,-0.20402676,,0.044856414,-0.028395772,-0.0015269518,-0.52086234,0.3126998,0.79430544,0.8458224,0.31469738,0.4307551,-0.115268916,0.89620554,-0.42840257,,0.107916825,1.3464066,0.4446653,0.99666667,-0.0036536667,-0.08149975,-0.055091932,-0.76694727,-0.6393409,-0.06017007,0.64169973,-0.76459205,,-0.06607077,0.2758062,-0.09170052,0.07434408,-0.995619,-0.05670804,0.7918247,0.024367465,0.61026216,-0.6062067,-0.0902722,0.7901673,,0.02272978,0.42501575,-0.30790913,0.5189918,-0.39978656,-0.7555251,0.5824674,0.8123105,-0.029721115,0.62560314,-0.42464373,0.6544452,,0.9914058327285714,0.3521102826673923,0.19218277024000002,2.3636250429575587,-0.803149345621259,0.2888303246175652,-0.40803347720342953,,-0.7275354958820683,0.07948236674151865,0.20839287669000003,-3.503080195852464,0.16136770622298516,0.7083996193400685,0.8402418761947326,,-0.042994004461315315,-0.08314748556500987,0.076974014,-0.05200662588628596,,9.294599e-05,2.7418137e-06,-5.6028366e-06,1.0,-7.170811e-05,-6.018579e-05,7.171184e-05,1.0,-5.6922436e-06,6.0189515e-05,5.6624413e-06,1.0,784,2.415,0,1,0.069,False,-0.26249945523859,1.0135945179788102
2.4141705079964595,16:53:11.312251,16:52:55.598426,0,,0.109844655,0.003241852,0.03586273,-0.18678012,0.98041254,0.062484354,0.21395704,-0.021480486,0.97660685,0.95881987,0.19577976,-0.20575416,,0.044858843,-0.028395504,-0.0015246272,-0.5208593,0.3124923,0.7943891,0.8458236,0.31458792,0.43083265,-0.11527336,0.89631635,-0.42816946,,0.107916825,1.3464066,0.4446653,0.99666667,-0.0036536667,-0.08149975,-0.055091932,-0.76694727,-0.6393409,-0.06017007,0.64169973,-0.76459205,,-0.06540817,0.27576944,-0.09163839,0.11663454,-0.99115676,-0.06328222,0.7919345,0.054360565,0.6081815,-0.5993631,-0.12105034,0.79127157,,0.022727147,0.42501733,-0.3079105,0.5189892,-0.39958912,-0.7556313,0.58246505,0.8123198,-0.029513188,0.62560743,-0.4248118,0.6543319,,0.992904042906171,0.3520407780715243,0.19220480717000002,2.317493255390963,-0.7918085161407274,0.3231990858458224,-0.4090135416002353,,-0.7275509413478168,0.07948236674151865,0.20839158040000003,-3.503080195852464,0.16136770622298516,0.70864465556049,0.838771779599524,,-0.042994004461315315,-0.08314748556500987,0.076974014,-0.05200662588628596,,9.294599e-05,2.7418137e-06,-5.6028366e-06,1.0,-7.170811e-05,-6.018579e-05,7.171184e-05,1.0,-5.6922436e-06,6.0189515e-05,5.6624413e-06,1.0,797,2.455,0,1,0.069,False,-0.26243987752006825,1.0144152813920608
2.4431409719982184,16:53:11.344754,16:52:55.598426,0,,0.10879345,0.0033326447,0.03571026,-0.24074022,0.96744776,0.07803127,0.21353799,-0.025632419,0.9765984,0.9468082,0.2517692,-0.20041624,,0.04486026,-0.028395236,-0.0015240312,-0.52085775,0.3126805,0.79431605,0.84582424,0.31469154,0.43075576,-0.11527565,0.89621437,-0.4283823,,0.107916825,1.3464066,0.4446653,0.99666667,-0.0036536667,-0.08149975,-0.055091932,-0.76694727,-0.6393409,-0.06017007,0.64169973,-0.76459205,,-0.06435047,0.27579984,-0.091508485,0.17129645,-0.98203427,-0.079159215,0.78692484,0.088033564,0.6107368,-0.5927958,-0.1669094,0.787867,,0.022725683,0.42501783,-0.30791062,0.51898795,-0.3997681,-0.75553757,0.58246386,0.81231356,-0.029707795,0.62560964,-0.42465532,0.6544314,,0.9969353094665162,0.35177820515380065,0.19231628811,2.239698286358205,-0.7713130411759113,0.39527119082415024,-0.4085235094018324,,-0.727558664080691,0.07948236674151865,0.20839158040000003,-3.503080195852464,0.16136770622298516,0.7083996193400683,0.8392618117979269,,-0.042994004461315315,-0.08314748556500987,0.076974014,-0.05200662588628596,,9.294599e-05,2.7418137e-06,-5.6028366e-06,1.0,-7.170811e-05,-6.018579e-05,7.171184e-05,1.0,-5.6922436e-06,6.0189515e-05,5.6624413e-06,1.0,805,2.481,0,1,0.069,False,-0.26255903295711036,1.0139807595850459
2.475622954996652,16:53:11.374625,16:52:55.598426,0,,0.10792983,0.0034152716,0.035525635,-0.27979657,0.95572954,0.09107585,0.21580824,-0.029826224,0.9759801,0.93548965,0.2927308,-0.19790918,,0.044858016,-0.028394356,-0.0015231371,-0.5208618,0.3128172,0.7942596,0.84582293,0.31475842,0.43070936,-0.11526665,0.8961432,-0.42853364,,0.107916825,1.3464066,0.4446653,0.99666667,-0.0036536667,-0.08149975,-0.055091932,-0.76694727,-0.6393409,-0.06017007,0.64169973,-0.76459205,,-0.06347754,0.27579266,-0.09135134,0.2110023,-0.9731147,-0.092334814,0.7835681,0.11191367,0.6111435,-0.58437926,-0.2013033,0.7861157,,0.02272782,0.4250192,-0.30791083,0.5189911,-0.39989826,-0.75546646,0.5824693,0.81230485,-0.029839713,0.6256019,-0.42454946,0.65450746,,1.0006576667118925,0.3512916729827245,0.19244850969000002,2.185388590995713,-0.7510908392106261,0.44690141035430875,-0.4081968212695638,,-0.7275509413478168,0.07949008947439287,0.20839028411000002,-3.503080195852464,0.16136770622298516,0.7082362618597873,0.8395884999301955,,-0.042994004461315315,-0.08314748556500987,0.076974014,-0.05200662588628596,,9.294599e-05,2.7418137e-06,-5.6028366e-06,1.0,-7.170811e-05,-6.018579e-05,7.171184e-05,1.0,-5.6922436e-06,6.0189515e-05,5.6624413e-06,1.0,818,2.521,0,1,0.069,False,-0.2617249448978165,1.013691078380369
2.505489294009749,16:53:11.411924,16:52:55.598426,0,,0.106573,0.0035240501,0.035227254,-0.3346646,0.93576074,0.1111364,0.21588957,-0.03866353,0.975652,0.9172739,0.35050946,-0.18908179,,0.04485339,-0.028397411,-0.0015227795,-0.5208637,0.31257647,0.794353,0.84582174,0.31462896,0.43080628,-0.11526662,0.89627254,-0.42826286,,0.107916825,1.3464066,0.4446653,0.99666667,-0.0036536667,-0.08149975,-0.055091932,-0.76694727,-0.6393409,-0.06017007,0.64169973,-0.76459205,,-0.06210518,0.27576,-0.091111794,0.2669914,-0.9570568,-0.112950556,0.7749907,0.14356564,0.6154497,-0.5728045,-0.2518554,0.7800409,,0.022732418,0.42501757,-0.30791348,0.5189931,-0.3996693,-0.75558627,0.58246857,0.8123144,-0.029592857,0.62560093,-0.42474675,0.6543803,,1.0067895166140266,0.35010237212009393,0.19267924931000002,2.1092711415108303,-0.7217139917610564,0.5215328004092369,-0.407706789071161,,-0.7275277731491941,0.07948236674151865,0.20838769153000003,-3.503080195852464,0.16136770622298516,0.7085629768203494,0.8386084355333896,,-0.042994004461315315,-0.08314748556500987,0.076974014,-0.05200662588628596,,9.294599e-05,2.7418137e-06,-5.6028366e-06,1.0,-7.170811e-05,-6.018579e-05,7.171184e-05,1.0,-5.6922436e-06,6.0189515e-05,5.6624413e-06,1.0,839,2.586,0,1,0.069,False,-0.26249945523859,1.013159996171795
2.542766433005454,16:53:11.471367,16:52:55.598426,0,,0.10456205,0.0036526173,0.034599885,-0.3954947,0.9050278,0.15655188,0.23624203,-0.06447627,0.9695527,0.8875662,0.42043716,-0.18830574,,0.0448514,-0.028402612,-0.0015064478,-0.5208582,0.31282267,0.79425985,0.84582365,0.31477118,0.43069866,-0.11527789,0.8961367,-0.428544,,0.107916825,1.3464066,0.4446653,0.99666667,-0.0036536667,-0.08149975,-0.055091932,-0.76694727,-0.6393409,-0.06017007,0.64169973,-0.76459205,,-0.060057875,0.27556732,-0.09063693,0.32940736,-0.93083847,-0.1582105,0.77479166,0.17072204,0.6087297,-0.539619,-0.3231002,0.777443,,0.022732923,0.4250249,-0.30792907,0.5189886,-0.39990327,-0.75546557,0.58246195,0.8123095,-0.02985459,0.6256108,-0.42453575,0.6545078,,1.0170453058709967,0.34683565611429695,0.19310832130000002,2.0365087311217005,-0.6633702063612134,0.6140363948719291,-0.40852350940183235,,-0.7275432186149426,0.07947464400864443,0.20837083976,-3.503080195852464,0.16136770622298516,0.7082362618597872,0.8382817474011213,,-0.042994004461315315,-0.08314748556500987,0.076974014,-0.05200662588628596,,9.294599e-05,2.7418137e-06,-5.6028366e-06,1.0,-7.170811e-05,-6.018579e-05,7.171184e-05,1.0,-5.6922436e-06,6.0189515e-05,5.6624413e-06,1.0,847,2.612,0,1,0.069,False,-0.26202283349042155,1.0129185951678976
2.6022611780063016,16:53:11.502066,16:52:55.598426,0,,0.103385806,0.0036301017,0.034316108,-0.42837384,0.8879517,0.16744383,0.23805955,-0.067857295,0.96887714,0.8716786,0.45490336,-0.18231726,,0.044846565,-0.02840662,-0.0014922023,-0.5208582,0.31275776,0.79428536,0.84582365,0.31473604,0.43072438,-0.11527789,0.8961717,-0.42847082,,0.107916825,1.3464066,0.4446653,0.99666667,-0.0036536667,-0.08149975,-0.055091932,-0.76694727,-0.6393409,-0.06017007,0.64169973,-0.76459205,,-0.0588646,0.27543375,-0.090485744,0.3632748,-0.9161377,-0.16947888,0.76779383,0.19133657,0.6114597,-0.5277538,-0.35225275,0.7729126,,0.022736441,0.4250319,-0.3079425,0.5189886,-0.39984155,-0.75549823,0.58246195,0.81231195,-0.029788243,0.6256108,-0.42458922,0.6544731,,1.022899137389659,0.3444184407246647,0.19331054254000002,1.9933126027638886,-0.637819180905076,0.655767161828369,-0.40852350940183235,,-0.7275432186149426,0.07947464400864443,0.20835528428000002,-3.503080195852464,0.16136770622298516,0.7083179405999278,0.8381184033349869,,-0.042994004461315315,-0.08314748556500987,0.076974014,-0.05200662588628596,,9.294599e-05,2.7418137e-06,-5.6028366e-06,1.0,-7.170811e-05,-6.018579e-05,7.171184e-05,1.0,-5.6922436e-06,6.0189515e-05,5.6624413e-06,1.0,860,2.652,1,2,0.1,False,-0.26273776611267374,1.0126771941640003
2.6329308319982374,16:53:11.535108,16:52:55.598426,0,,0.10224594,0.003594011,0.03411658,-0.44989434,0.87525576,0.17754483,0.24550945,-0.06993286,0.9668684,0.8586735,0.47857767,-0.18342128,,0.044861525,-0.028409004,-0.0014442801,-0.520717,0.3129497,0.7943024,0.84591985,0.31468794,0.43057072,-0.11521047,0.8961216,-0.42859372,,0.10785738,1.3464093,0.44467643,0.9966698,-0.00360939,-0.08146284,-0.055034395,-0.76694745,-0.6393456,-0.06017007,0.64169973,-0.76459205,,-0.05766197,0.27533463,-0.090401605,0.38551036,-0.90507495,-0.1795023,0.76632357,0.2057006,0.60863405,-0.51393574,-0.37219158,0.77288,,0.022769773,0.42505816,-0.30797058,0.51879156,-0.4000474,-0.75552464,0.5825885,0.81221265,-0.030020958,0.6256564,-0.4245853,0.65443206,,1.0282818822029935,0.3419317207391644,0.19342980122000003,1.9683594994892302,-0.6141810664456548,0.6805983841647917,-0.4091768856663695,,-0.7275432186149426,0.07948236674151865,0.20832806219000002,-3.5028705059089797,0.16136770622298516,0.7081545831196467,0.8384450914672554,,-0.042994004461315315,-0.08314748556500987,0.076974014,-0.05200662588628596,,3.2873824e-05,7.987022e-06,-1.1086464e-05,1.0,-2.7574599e-05,-2.3141503e-05,2.7570873e-05,1.0,-2.2053719e-06,2.3141503e-05,2.1755695e-06,1.0,869,2.68,1,2,0.128,False,-0.2636314318904893,1.0124357931601031
2.666000894008903,16:53:11.575439,16:52:55.598426,0,,0.10094315,0.0034908056,0.033906773,-0.47626624,0.8589311,0.18816873,0.25033462,-0.072691694,0.9654266,0.84291345,0.5069053,-0.18039975,,0.044854313,-0.028416887,-0.0014305115,-0.5207149,0.31309134,0.79424787,0.84591997,0.31477302,0.43050835,-0.115219474,0.8960423,-0.4287572,,0.10785738,1.3464093,0.44467643,0.9966698,-0.00360939,-0.08146284,-0.055034395,-0.76694745,-0.6393456,-0.06017007,0.64169973,-0.76459205,,-0.056346323,0.2751945,-0.09036429,0.412831,-0.89070857,-0.19028603,0.7613332,0.22278929,0.6088815,-0.49994224,-0.3962362,0.7701004,,0.022775756,0.42506215,-0.30798644,0.5187903,-0.40018195,-0.7554542,0.58258235,0.81221145,-0.030172957,0.6256632,-0.42446086,0.6545063,,1.03483848241321,0.33873450932923543,0.19355035619000002,1.9358575582491289,-0.5876735854911594,0.712891279340457,-0.4088501975341009,,-0.7275277731491941,0.07946692127577021,0.20831121042000003,-3.5028705059089797,0.16136770622298516,0.7079912256393656,0.8377917152027183,,-0.042994004461315315,-0.08314748556500987,0.076974014,-0.05200662588628596,,3.2873824e-05,7.987022e-06,-1.1086464e-05,1.0,-2.7574599e-05,-2.3141503e-05,2.7570873e-05,1.0,-2.2053719e-06,2.3141503e-05,2.1755695e-06,1.0,882,2.722,1,2,0.17,False,-0.26243987752006825,1.0124357931601031
2.7063238639966585,16:53:11.609944,16:52:55.598426,0,,0.100314185,0.0034218282,0.03376104,-0.49291813,0.8470075,0.1990221,0.25656834,-0.07707167,0.9634483,0.83138704,0.525964,-0.17932543,,0.044854537,-0.028419405,-0.0014254451,-0.52071077,0.31301954,0.7942789,0.84592116,0.31474134,0.430529,-0.115228444,0.89607847,-0.4286791,,0.10785738,1.3464093,0.44467643,0.9966698,-0.00360939,-0.08146284,-0.055034395,-0.76694745,-0.6393456,-0.06017007,0.64169973,-0.76459205,,-0.05570779,0.2750836,-0.09032484,0.4301412,-0.8800653,-0.2011555,0.75959575,0.23241599,0.6074513,-0.4878451,-0.4140867,0.7684656,,0.022775086,0.4250637,-0.30799183,0.5187871,-0.40011352,-0.7554926,0.58257693,0.8122178,-0.030107396,0.6256709,-0.42451325,0.65446496,,1.0381592575491265,0.337135903624271,0.19360868924000002,1.9184532929399134,-0.567997929524936,0.7339292492319877,-0.40885019753410096,,-0.7275354958820683,0.07945919854289599,0.20830602526000003,-3.5028705059089797,0.16136770622298516,0.7080729043795061,0.837628371136584,,-0.042994004461315315,-0.08314748556500987,0.076974014,-0.05200662588628596,,3.2873824e-05,7.987022e-06,-1.1086464e-05,1.0,-2.7574599e-05,-2.3141503e-05,2.7570873e-05,1.0,-2.2053719e-06,2.3141503e-05,2.1755695e-06,1.0,891,2.75,1,2,0.198,False,-0.2622611443645053,1.0119529911523084
2.740833221003413,16:53:11.639188,16:52:55.907864,0,,0.09990795,0.003384009,0.033630952,-0.5088364,0.83704823,0.2010864,0.25816202,-0.074463755,0.9632276,0.82124174,0.5420382,-0.1782043,,0.04485151,-0.028421044,-0.0014212728,-0.52071226,0.31302598,0.7942754,0.8459206,0.31474328,0.43052882,-0.11522618,0.89607555,-0.42868584,,0.10785738,1.3464093,0.44467643,0.9966698,-0.00360939,-0.08146284,-0.055034395,-0.76694745,-0.6393456,-0.06017007,0.64169973,-0.76459205,,-0.055292983,0.2749939,-0.09026764,0.44669646,-0.8712841,-0.20328872,0.75517046,0.24533327,0.60788906,-0.4797706,-0.42505953,0.7675575,,0.022777723,0.42506552,-0.30799618,0.51878834,-0.40011966,-0.7554885,0.5825781,0.81221676,-0.030111836,0.62566876,-0.4245094,0.65446955,,1.0402752863566642,0.33623234387798673,0.19367480003,1.900419957800244,-0.5535144605497992,0.7467859309626167,-0.40983026193090666,,-0.7275277731491941,0.07945919854289599,0.20830084010000002,-3.5028705059089797,0.16136770622298516,0.7080729043795061,0.837628371136584,,-0.042994004461315315,-0.08314748556500987,0.076974014,-0.05200662588628596,,3.2873824e-05,7.987022e-06,-1.1086464e-05,1.0,-2.7574599e-05,-2.3141503e-05,2.7570873e-05,1.0,-2.2053719e-06,2.3141503e-05,2.1755695e-06,1.0,900,2.779,1,2,0.227,False,-0.26190367805337944,1.0122909525577648
2.770078586996533,16:53:11.672519,16:52:55.907864,0,,0.09978038,0.003380999,0.03347914,-0.5211613,0.82962346,0.20028853,0.25626212,-0.07173441,0.9639419,0.8140765,0.55369574,-0.17521608,,0.044848643,-0.02842094,-0.0014196634,-0.5207684,0.31305507,0.7942271,0.8459033,0.3146573,0.43062574,-0.11509979,0.8960955,-0.42867786,,0.10785738,1.3464093,0.44467643,0.9966698,-0.00360939,-0.08146284,-0.055034395,-0.76694745,-0.6393456,-0.06017007,0.64169973,-0.76459205,,-0.055155184,0.27490094,-0.09015946,0.4595159,-0.8647274,-0.2027108,0.7498004,0.25535145,0.6104056,-0.47607195,-0.43248373,0.765711,,0.022780417,0.42506692,-0.30799752,0.5188325,-0.40014943,-0.75544244,0.5826546,0.81216484,-0.030031651,0.62556094,-0.42458057,0.6545264,,1.0408158776578598,0.33600838462463417,0.19377979952000002,1.8855319718128432,-0.5457261800631692,0.7557090348582058,-0.4096669178647724,,-0.72752005041632,0.07945919854289599,0.20829824752,-3.5028705059089797,0.1612310697232197,0.708102643543062,0.8377917152027183,,-0.042994004461315315,-0.08314748556500987,0.076974014,-0.05200662588628596,,3.2873824e-05,7.987022e-06,-1.1086464e-05,1.0,-2.7574599e-05,-2.3141503e-05,2.7570873e-05,1.0,-2.2053719e-06,2.3141503e-05,2.1755695e-06,1.0,913,2.82,1,2,0.268,False,-0.2626186106756321,1.0118564307507496
2.803361690006568,16:53:11.715472,16:52:55.907864,0,,0.09992862,0.0033787042,0.033094004,-0.5357498,0.8194883,0.20349656,0.25877583,-0.07005373,0.96339375,0.80374575,0.5687982,-0.17453265,,0.044843197,-0.028422832,-0.0014177561,-0.52077293,0.31313917,0.794191,0.84590137,0.31469825,0.43059936,-0.11509311,0.8960517,-0.42877126,,0.10785738,1.3464093,0.44467643,0.9966698,-0.00360939,-0.08146284,-0.055034395,-0.76694745,-0.6393456,-0.06017007,0.64169973,-0.76459205,,-0.055276357,0.27464244,-0.08986145,0.47474322,-0.855689,-0.20594947,0.74588144,0.2669453,0.6102467,-0.46720418,-0.4433244,0.76497304,,0.022785688,0.42506716,-0.3080005,0.5188364,-0.40022957,-0.7553973,0.58265805,0.81215936,-0.030111307,0.62555444,-0.42451552,0.6545748,,1.039788754185588,0.33605472102187955,0.19403257607000002,1.8719021254863488,-0.5332922585845141,0.7656629756964098,-0.4083601653356981,,-0.7274968822176973,0.07945919854289599,0.20829435865,-3.5028705059089797,0.1612310697232197,0.7080209648029213,0.837628371136584,,-0.042994004461315315,-0.08314748556500987,0.076974014,-0.05200662588628596,,3.2873824e-05,7.987022e-06,-1.1086464e-05,1.0,-2.7574599e-05,-2.3141503e-05,2.7570873e-05,1.0,-2.2053719e-06,2.3141503e-05,2.1755695e-06,1.0,935,2.89,1,2,0.338,False,-0.2629164992682367,1.01180815054997
2.846362844007672,16:53:11.778071,16:52:55.907864,0,,0.100195594,0.0032333434,0.03226088,-0.5793346,0.7824442,0.22836879,0.27735665,-0.07421775,0.9578961,0.76644933,0.6182822,-0.17401934,,0.04484117,-0.0284255,-0.0014163256,-0.52061576,0.3133835,0.7941977,0.8460088,0.31465748,0.43041807,-0.115014374,0.8959807,-0.42894086,,0.10785738,1.3464093,0.44467643,0.9966698,-0.00360939,-0.08146284,-0.055034395,-0.76694745,-0.6393456,-0.06017007,0.64169973,-0.76459205,,-0.055482753,0.2739793,-0.08930998,0.5205089,-0.8220973,-0.23070873,0.7384641,0.2977792,0.6049779,-0.42865047,-0.48526654,0.7620861,,0.022787603,0.42506632,-0.30800346,0.51867115,-0.40046555,-0.7553857,0.58277863,0.81206363,-0.030359393,0.6255792,-0.42447612,0.6545767,,1.038584007857209,0.3357767026384075,0.19441887049,1.837093594867918,-0.48260011717153567,0.8033919538811017,-0.407706789071161,,-0.7274891594848231,0.07945147581002175,0.20829176607000002,-3.5026608159654944,0.1612310697232197,0.7078576073226404,0.8373016830043156,,-0.042994004461315315,-0.08314748556500987,0.076974014,-0.05200662588628596,,3.2873824e-05,7.987022e-06,-1.1086464e-05,1.0,-2.7574599e-05,-2.3141503e-05,2.7570873e-05,1.0,-2.2053719e-06,2.3141503e-05,2.1755695e-06,1.0,944,2.918,1,2,0.366,False,-0.2616653671792948,1.0111322277390575
