AlexandreBanks6/ExpertPlaybackApp/resources/Motions/Pilot_02/PC1/Data_PC1_10.csv
Task Time,PC1 Time,PC2 Time,Gaze Calib,s_T_psm1,Tx,Ty,Tz,R00,R01,R02,R10,R11,R12,R20,R21,R22,s_T_psm3,Tx,Ty,Tz,R00,R01,R02,R10,R11,R12,R20,R21,R22,cart_T_ecm,Tx,Ty,Tz,R00,R01,R02,R10,R11,R12,R20,R21,R22,ecm_T_psm1,Tx,Ty,Tz,R00,R01,R02,R10,R11,R12,R20,R21,R22,ecm_T_psm3,Tx,Ty,Tz,R00,R01,R02,R10,R11,R12,R20,R21,R22,psm1_joints,q1,q2,q3,q4,q5,q6,jaw,psm3_joints,q1,q2,q3,q4,q5,q6,jaw,ecm_joints,q1,q2,q3,q4,ecmi_T_ecm,Tx,Ty,Tz,R00,R01,R02,R10,R11,R12,R20,R21,R22,Sample #,Task Duration (s),Collisions (binary),Collisions (increments),Cumulative Collision Time (s),Clutch Press,MTMR Angle,MTML Angle
""
lci_T_si,,,,,-0.06456479,0.007406022,0.24720375,0.9973357,0.020147903,0.070111655,0.061827518,-0.74354374,-0.66582286,0.038716145,0.6683837,-0.74280834
rci_T_si,,,,,-0.0744026,0.011494783,0.25608665,0.9940877,0.004322488,0.1084939,0.07677014,-0.7345955,-0.67414826,0.07678513,0.6784916,-0.73058414
ecm_T_lc,,,,,-4.4061628e-05,-0.00034663224,-0.01840835,-0.99912,0.030754527,0.028518902,-0.031987965,-0.99852574,-0.043852776,0.027128186,-0.04472645,0.9986309
ecm_T_rc,,,,,-0.0043358393,0.01870579,-0.007592615,-0.99555075,-0.052743673,-0.078081585,0.04863213,-0.9973746,0.053654674,-0.08070653,0.04961868,0.9955021
cart_T_ecmi,,,,,0.107823744,1.3464102,0.44466496,0.99667186,-0.0035817337,-0.081439786,-0.054998454,-0.76694757,-0.63934857,-0.06017007,0.64169973,-0.76459205
ecmac_T_ecmrep_psm1,,,,,0.0019077883,-0.24418817,-0.31129345,0.9990406,0.03670117,0.023893757,-0.03487346,0.99673134,-0.072872825,-0.026490174,0.07196965,0.997055
ecmac_T_ecmrep_psm3,,,,,-0.025437847,-0.43631262,-0.5392238,0.9997681,0.02112905,0.0041644988,-0.020983119,0.99925387,-0.03242474,-0.0048464956,0.032329835,0.9994655
""
0,17:01:31.906068,17:01:16.157242,0,,0.11679551,0.007137969,0.021263808,0.75426877,0.6549533,-0.045987844,-0.022782624,0.09610945,0.99511003,0.65617037,-0.7495327,0.08741385,,0.050373994,-0.02730897,0.022229135,0.586898,0.13875262,0.7976831,-0.37554514,-0.82616735,0.42001593,0.7172981,-0.5460725,-0.4327681,,0.107924566,1.3464038,0.44467115,0.9966658,-0.003665887,-0.08150994,-0.055107813,-0.7669472,-0.6393396,-0.06017007,0.64169973,-0.76459205,,-0.07139697,0.26892686,-0.07770392,-0.79741997,-0.6029329,0.024358686,0.36305502,-0.44713908,0.8174703,-0.48198795,0.6607107,0.5754554,,0.014974812,0.4414081,-0.3242469,-0.6473685,-0.07641328,-0.758337,0.16412668,-0.9855953,-0.040797003,-0.74429595,-0.15087403,0.6505848,,0.9976998600210644,0.3518863234140398,0.20584437055000002,3.7972751865612513,-0.662003841363559,-0.9960672861939706,-0.4031331552194011,,-0.7793395880023664,0.10352323417897956,0.19021111315000003,-1.0975171641980006,-0.5733267530157882,-0.3605495436348357,0.8706238724957085,,-0.04375976767062783,-0.08274169651392119,0.07694186708,-0.052660797281082014,,0.00010046363,8.46386e-06,-8.940697e-06,1.0,-8.389354e-05,-7.041544e-05,8.389354e-05,1.0,-6.6161156e-06,7.041171e-05,6.645918e-06,1.0,38,0.115,1,1,0.091,False,-0.26053339052739544,1.043817923666751
0.1210597199969925,17:01:31.950616,17:01:16.239182,0,,0.116837494,0.0072252452,0.021308735,0.75298476,0.6566181,-0.043202847,-0.025053918,0.094213516,0.9952367,0.6575608,-0.74831575,0.08739206,,0.050379418,-0.027347133,0.02224058,0.5869641,0.13922052,0.797553,-0.37529263,-0.8260866,0.4204003,0.71737623,-0.5460755,-0.4326347,,0.107924566,1.3464038,0.44467115,0.9966658,-0.003665887,-0.08150994,-0.055107813,-0.7669472,-0.6393396,-0.06017007,0.64169973,-0.76459205,,-0.07144332,0.26902,-0.077679835,-0.79620016,-0.6046483,0.021580236,0.36229303,-0.44789374,0.8173952,-0.48457098,0.6586286,0.5756729,,0.014968805,0.4413873,-0.32428077,-0.6474447,-0.076879755,-0.7582248,0.16436024,-0.9855721,-0.040414963,-0.7441781,-0.15078846,0.65073943,,0.9978311464799262,0.3523574101193675,0.20586381490000003,3.7976945664482202,-0.6645999348591023,-0.9941953822441604,-0.40329649928553546,,-0.7793550334681149,0.10332244312424972,0.19019166880000002,-1.097726854141485,-0.5731901165160227,-0.36098767649909436,0.8696438080989026,,-0.04375976767062783,-0.08274169651392119,0.07694186708,-0.052660797281082014,,0.00010046363,8.46386e-06,-8.940697e-06,1.0,-8.389354e-05,-7.041544e-05,8.389354e-05,1.0,-6.6161156e-06,7.041171e-05,6.645918e-06,1.0,50,0.152,1,1,0.128,False,-0.26101001227556386,1.043093720655059
0.1656328359968029,17:01:31.982719,17:01:16.239182,0,,0.11728067,0.007173583,0.021256953,0.74793094,0.6628277,-0.03547851,-0.030145586,0.087313294,0.9957247,0.66309166,-0.7436638,0.085285515,,0.0503861,-0.027391285,0.022244036,0.5869271,0.13960835,0.7975125,-0.37503308,-0.8260945,0.42061633,0.7175422,-0.54596454,-0.43249947,,0.107924566,1.3464038,0.44467115,0.9966658,-0.003665887,-0.08150994,-0.055107813,-0.7669472,-0.6393396,-0.06017007,0.64169973,-0.76459205,,-0.07188099,0.26892212,-0.07765492,-0.79146266,-0.61105686,0.014013532,0.36226457,-0.45050508,0.81597155,-0.49229184,0.6508876,0.5779222,,0.014962366,0.44135666,-0.3243128,-0.6474268,-0.07727621,-0.7581998,0.16466564,-0.98553145,-0.04016199,-0.7441262,-0.1508514,0.6507842,,0.9957305631381371,0.3529288923520601,0.20591177763000001,3.7985333262221586,-0.6719783058464361,-0.9885055304051156,-0.4029698111532669,,-0.7793473107352407,0.10308303840514875,0.19017870590000002,-1.0979365440849695,-0.5731901165160227,-0.3613143914596566,0.8689904318343655,,-0.04375976767062783,-0.08274169651392119,0.07694186708,-0.052660797281082014,,0.00010046363,8.46386e-06,-8.940697e-06,1.0,-8.389354e-05,-7.041544e-05,8.389354e-05,1.0,-6.6161156e-06,7.041171e-05,6.645918e-06,1.0,63,0.192,1,1,0.168,False,-0.26112916771260597,1.0434799622612947
0.19778303000202868,17:01:32.018690,17:01:16.239182,0,,0.11771737,0.0071602315,0.021221548,0.74303335,0.66846824,-0.032429107,-0.032862067,0.084839135,0.9958526,0.66844714,-0.73888606,0.0850054,,0.050390124,-0.027427629,0.022247314,0.586771,0.13966542,0.79761726,-0.3756146,-0.8256843,0.4209028,0.7173656,-0.5465702,-0.43202722,,0.107924566,1.3464038,0.44467115,0.9966658,-0.003665887,-0.08150994,-0.055107813,-0.7669472,-0.6393396,-0.06017007,0.64169973,-0.76459205,,-0.072313935,0.2688644,-0.07761795,-0.78690577,-0.61697537,0.0109891975,0.3639246,-0.44962943,0.8157158,-0.49833548,0.6458907,0.57834846,,0.014958498,0.44133186,-0.32433963,-0.6472476,-0.07728086,-0.7583523,0.16413037,-0.98564184,-0.039640866,-0.74440026,-0.1501261,0.65063846,,0.9936685934607192,0.35367799744085987,0.20595714778000002,3.7970654966177673,-0.6775804023368193,-0.9857343286366549,-0.403623187417804,,-0.7793473107352407,0.10291313828191581,0.19016703929,-1.0970977843110314,-0.5731901165160227,-0.3623762150814839,0.8688270877682313,,-0.04375976767062783,-0.08274169651392119,0.07694186708,-0.052660797281082014,,0.00010046363,8.46386e-06,-8.940697e-06,1.0,-8.389354e-05,-7.041544e-05,8.389354e-05,1.0,-6.6161156e-06,7.041171e-05,6.645918e-06,1.0,71,0.217,1,1,0.193,False,-0.26005676877922745,1.0425143582457057
0.2337518709973665,17:01:32.048454,17:01:16.239182,0,,0.118116975,0.007233113,0.02123037,0.74054706,0.6711003,-0.034848467,-0.03266087,0.087739974,0.99560785,0.6712103,-0.7361563,0.086894155,,0.05040127,-0.02746743,0.022262812,0.585842,0.14005345,0.7982319,-0.37565237,-0.82582384,0.42059514,0.7181047,-0.5462599,-0.43119088,,0.107924566,1.3464038,0.44467115,0.9966658,-0.003665887,-0.08150994,-0.055107813,-0.7669472,-0.6393396,-0.06017007,0.64169973,-0.76459205,,-0.072714284,0.26890302,-0.07756045,-0.78462005,-0.6198348,0.013275578,0.3660005,-0.4458071,0.8168841,-0.5004148,0.6458025,0.576649,,0.014946427,0.44131222,-0.32437727,-0.64639217,-0.077694714,-0.75903934,0.16466822,-0.9855638,-0.03934862,-0.7450245,-0.1504243,0.6498546,,0.991907810365396,0.35489046650211314,0.20598436987000002,3.7949685971829217,-0.6784002213354118,-0.9875161834186932,-0.40296981115326713,,-0.7793550334681149,0.10272779269293443,0.19015148381000002,-1.0970977843110314,-0.5742832085141462,-0.3626283742138805,0.868173711503694,,-0.04375976767062783,-0.08274169651392119,0.07694186708,-0.052660797281082014,,0.00010046363,8.46386e-06,-8.940697e-06,1.0,-8.389354e-05,-7.041544e-05,8.389354e-05,1.0,-6.6161156e-06,7.041171e-05,6.645918e-06,1.0,79,0.242,1,1,0.218,False,-0.2602950796533112,1.0415970344308958
0.26351021499431226,17:01:32.075987,17:01:16.357450,0,,0.11845353,0.007452458,0.02134949,0.7388255,0.67297834,-0.035172503,-0.03343311,0.08873284,0.9954942,0.673067,-0.73432064,0.08805767,,0.05041378,-0.027504727,0.022270977,0.58578026,0.14112131,0.7980891,-0.37541598,-0.8254652,0.42150933,0.71827865,-0.5465272,-0.43056202,,0.107924566,1.3464038,0.44467115,0.9966658,-0.003665887,-0.08150994,-0.055107813,-0.7669472,-0.6393396,-0.06017007,0.64169973,-0.76459205,,-0.07306164,0.26912796,-0.07749479,-0.7830193,-0.6218505,0.013520051,0.36670655,-0.44397292,0.8175661,-0.50240135,0.64512795,0.57567596,,0.014933664,0.44128937,-0.32440773,-0.64635,-0.078736864,-0.7589678,0.1649638,-0.985558,-0.038242225,-0.74499565,-0.14992008,0.65000415,,0.9909424687561179,0.3567825360562981,0.20599214761,3.793710457522015,-0.6788101308347082,-0.9872636084477445,-0.4028064670871325,,-0.7793936471324859,0.10251927890533037,0.19013852091000003,-1.097307474254516,-0.5742832085141462,-0.36377187657584836,0.8668669589746201,,-0.04375976767062783,-0.08274169651392119,0.07694186708,-0.052660797281082014,,0.00010046363,8.46386e-06,-8.940697e-06,1.0,-8.389354e-05,-7.041544e-05,8.389354e-05,1.0,-6.6161156e-06,7.041171e-05,6.645918e-06,1.0,96,0.294,1,1,0.27,False,-0.26053339052739544,1.0411625126238806
0.29105393300415017,17:01:32.116451,17:01:16.357450,0,,0.11876504,0.007930383,0.021624386,0.7391575,0.67269987,-0.033483796,-0.036624044,0.08978295,0.9952878,0.67253625,-0.7344481,0.09100053,,0.050425112,-0.02755101,0.022282362,0.5857893,0.14120562,0.7980675,-0.37531263,-0.82549566,0.42154175,0.7183253,-0.54645944,-0.43057024,,0.107924566,1.3464038,0.44467115,0.9966658,-0.003665887,-0.08150994,-0.055107813,-0.7669472,-0.6393396,-0.06017007,0.64169973,-0.76459205,,-0.07339881,0.2696519,-0.07738146,-0.7832641,-0.62158024,0.011635168,0.3639133,-0.4432389,0.8192108,-0.5040481,0.6458926,0.57337445,,0.014921879,0.44126216,-0.3244467,-0.64636475,-0.07882682,-0.75894594,0.16507053,-0.98554087,-0.03822238,-0.7449593,-0.14998521,0.65003085,,0.9909424687561179,0.36005697479496934,0.20599344390000002,3.79580735695686,-0.6777170388365846,-0.9880732729371753,-0.40296981115326713,,-0.7794322607968571,0.10227215145335518,0.19011907656000002,-1.097307474254516,-0.5741465720143808,-0.36396497321968524,0.8670303030407542,,-0.04375976767062783,-0.08274169651392119,0.07694186708,-0.052660797281082014,,0.00010046363,8.46386e-06,-8.940697e-06,1.0,-8.389354e-05,-7.041544e-05,8.389354e-05,1.0,-6.6161156e-06,7.041171e-05,6.645918e-06,1.0,104,0.32,1,1,0.296,False,-0.260652545964438,1.0400520680059533
0.3314681640040362,17:01:32.148740,17:01:16.357450,0,,0.11893229,0.008369327,0.02189155,0.7397156,0.6721085,-0.033028975,-0.03922373,0.09206483,0.9949802,0.67177546,-0.73470694,0.0944643,,0.050430745,-0.027584895,0.022287905,0.5858656,0.14167356,0.79792863,-0.37506443,-0.8254065,0.42193708,0.7183927,-0.54647297,-0.43044055,,0.107924566,1.3464038,0.44467115,0.9966658,-0.003665887,-0.08150994,-0.055107813,-0.7669472,-0.6393396,-0.06017007,0.64169973,-0.76459205,,-0.07359095,0.27014926,-0.07729362,-0.7837278,-0.6210079,0.010946594,0.3614096,-0.44163302,0.82118416,-0.5051275,0.64754105,0.5705583,,0.014916159,0.44124058,-0.3244734,-0.6464501,-0.079292454,-0.75882477,0.16529295,-0.9855186,-0.037834104,-0.7448359,-0.14988624,0.65019506,,0.9915216737216848,0.362798544965319,0.20598566616000002,3.7972751865612513,-0.6767605833382265,-0.9897516644045965,-0.40296981115326713,,-0.7794399835297313,0.1020868058643738,0.19010611366000002,-1.0975171641980006,-0.5740099355146153,-0.3644031060839439,0.86572355051168,,-0.04375976767062783,-0.08274169651392119,0.07694186708,-0.052660797281082014,,0.00010046363,8.46386e-06,-8.940697e-06,1.0,-8.389354e-05,-7.041544e-05,8.389354e-05,1.0,-6.6161156e-06,7.041171e-05,6.645918e-06,1.0,117,0.36,1,1,0.336,False,-0.2611887454311268,1.0395209857973793
0.36378768700524233,17:01:32.181957,17:01:16.357450,0,,0.119083256,0.008727834,0.022133201,0.7391179,0.6727486,-0.033375822,-0.041591465,0.09503806,0.9946044,0.6722908,-0.7337418,0.09822485,,0.05043509,-0.027619362,0.022292018,0.5858444,0.14187868,0.7979078,-0.37482622,-0.8254877,0.4219898,0.71853435,-0.546297,-0.43042746,,0.107924566,1.3464038,0.44467115,0.9966658,-0.003665887,-0.08150994,-0.055107813,-0.7669472,-0.6393396,-0.06017007,0.64169973,-0.76459205,,-0.073763825,0.2705698,-0.07723912,-0.78313047,-0.6217595,0.01103819,0.359971,-0.43878067,0.82334226,-0.5070775,0.6487578,0.5674378,,0.014911875,0.44121766,-0.3244995,-0.6464453,-0.07951225,-0.7588059,0.16556512,-0.98547477,-0.037784986,-0.74477965,-0.1500577,0.6502199,,0.9919695922283899,0.365069028430341,0.20596751810000002,3.7974848765047358,-0.6773071293372883,-0.9916746762538872,-0.40329649928553546,,-0.7794322607968571,0.1019014602753924,0.19009444705000003,-1.097726854141485,-0.5740099355146153,-0.3644847848240844,0.8655602064455458,,-0.04375976767062783,-0.08274169651392119,0.07694186708,-0.052660797281082014,,0.00010046363,8.46386e-06,-8.940697e-06,1.0,-8.389354e-05,-7.041544e-05,8.389354e-05,1.0,-6.6161156e-06,7.041171e-05,6.645918e-06,1.0,125,0.385,1,1,0.361,False,-0.2612483231496481,1.0387967827856874
0.39695999400282744,17:01:32.214022,17:01:16.357450,0,,0.11923275,0.008936629,0.022319585,0.7368888,0.67522484,-0.032655008,-0.04535207,0.09757474,0.9941943,0.674491,-0.7311297,0.10252446,,0.050454624,-0.02765356,0.022300482,0.58583313,0.14199446,0.7978954,-0.3747523,-0.82548714,0.4220565,0.7185821,-0.54626775,-0.43038493,,0.107924566,1.3464038,0.44467115,0.9966658,-0.003665887,-0.08150994,-0.055107813,-0.7669472,-0.6393396,-0.06017007,0.64169973,-0.76459205,,-0.07392909,0.27084067,-0.07723948,-0.7810008,-0.62444955,0.010028048,0.35864946,-0.43530294,0.82576144,-0.5112811,0.64851683,0.56393045,,0.014892045,0.4411968,-0.32452765,-0.64643943,-0.07963026,-0.7587984,0.16565241,-0.9854631,-0.0377064,-0.7447653,-0.1500717,0.65023315,,0.9920931559543774,0.3665517931421921,0.20593640714000003,3.797904256391705,-0.6809963148309552,-0.9938938322230796,-0.4042765636823409,,-0.7795172108584736,0.10170066922066257,0.19008407673000002,-1.097726854141485,-0.5738732990148498,-0.36467788146792146,0.8653968623794115,,-0.04375976767062783,-0.08274169651392119,0.07694186708,-0.052660797281082014,,0.00010046363,8.46386e-06,-8.940697e-06,1.0,-8.389354e-05,-7.041544e-05,8.389354e-05,1.0,-6.6161156e-06,7.041171e-05,6.645918e-06,1.0,138,0.425,1,1,0.401,False,-0.2604738128088746,1.0386036619825694
0.42905429399979766,17:01:32.249312,17:01:16.357450,0,,0.11932813,0.0089401305,0.022479683,0.73345387,0.67898244,-0.03206607,-0.050628453,0.101611525,0.99353504,0.6778512,-0.7270887,0.10890311,,0.050469138,-0.027668267,0.022306383,0.5857556,0.14219894,0.79791594,-0.37473178,-0.8254258,0.42219472,0.71865606,-0.5463072,-0.4302113,,0.107924566,1.3464038,0.44467115,0.9966658,-0.003665887,-0.08150994,-0.055107813,-0.7669472,-0.6393396,-0.06017007,0.64169973,-0.76459205,,-0.074035354,0.27094117,-0.07735501,-0.777725,-0.6285401,0.0090094665,0.35698885,-0.42983294,0.82933867,-0.5174,0.6482137,0.5586736,,0.014877217,0.4411889,-0.32454106,-0.6463695,-0.07983084,-0.7588369,0.16572303,-0.9854595,-0.037489276,-0.7448103,-0.14998867,0.6502008,,0.9920777104886289,0.3669842661831487,0.20583788910000003,3.7991623960526124,-0.6876915033194617,-0.9988075549398064,-0.40411321961620694,,-0.7795867154543416,0.10160799642617187,0.19008018786000003,-1.097726854141485,-0.5738732990148498,-0.36492291768834323,0.8639267657842029,,-0.04375976767062783,-0.08274169651392119,0.07694186708,-0.052660797281082014,,0.00010046363,8.46386e-06,-8.940697e-06,1.0,-8.389354e-05,-7.041544e-05,8.389354e-05,1.0,-6.6161156e-06,7.041171e-05,6.645918e-06,1.0,146,0.451,1,1,0.427,False,-0.2604738128088746,1.038024299573216
0.46437778700783383,17:01:32.283847,17:01:16.581116,0,,0.11928785,0.008801296,0.022593737,0.7332513,0.6791894,-0.03231685,-0.050325453,0.10160589,0.993551,0.6780929,-0.72689617,0.10868302,,0.050475314,-0.027673617,0.022310197,0.58574855,0.14245589,0.79787517,-0.37456125,-0.82542217,0.42235303,0.7187506,-0.5462458,-0.43013144,,0.107924566,1.3464038,0.44467115,0.9966658,-0.003665887,-0.08150994,-0.055107813,-0.7669472,-0.6393396,-0.06017007,0.64169973,-0.76459205,,-0.07400091,0.2709112,-0.077533394,-0.7775443,-0.62875974,0.009274593,0.35738716,-0.42972484,0.8292231,-0.51739657,0.64807236,0.55884075,,0.014870773,0.44118708,-0.32454714,-0.64637357,-0.080092475,-0.7588059,0.16591257,-0.9854342,-0.03731606,-0.7447645,-0.15001555,0.650247,,0.9921394923516228,0.36658268407368905,0.20567066769000003,3.798743016165643,-0.6881014128187581,-0.9987183374491387,-0.403623187417804,,-0.7796176063858384,0.10156938276180075,0.19007759528,-1.0979365440849695,-0.5738732990148498,-0.3650045964284838,0.8637634217180686,,-0.04375976767062783,-0.08274169651392119,0.07694186708,-0.052660797281082014,,0.00010046363,8.46386e-06,-8.940697e-06,1.0,-8.389354e-05,-7.041544e-05,8.389354e-05,1.0,-6.6161156e-06,7.041171e-05,6.645918e-06,1.0,163,0.503,1,1,0.479,False,-0.2607717014014801,1.0375414975654216
0.49890017199504655,17:01:32.319919,17:01:16.581116,0,,0.11918372,0.008622572,0.02286394,0.73154086,0.68108857,-0.031085834,-0.050946027,0.10007262,0.993675,0.6798916,-0.7253301,0.107905805,,0.050481044,-0.027672753,0.02231437,0.5857205,0.1423427,0.7979161,-0.3745704,-0.8254864,0.42221925,0.7187687,-0.5461781,-0.4301869,,0.107924566,1.3464038,0.44467115,0.9966658,-0.003665887,-0.08150994,-0.055107813,-0.7669472,-0.6393396,-0.06017007,0.64169973,-0.76459205,,-0.07391297,0.2709551,-0.07785917,-0.77595305,-0.6307387,0.00809853,0.3581708,-0.42999122,0.8287468,-0.5192404,0.6459692,0.5595652,,0.014864664,0.44119015,-0.32454926,-0.64634717,-0.07998542,-0.7588397,0.16592017,-0.9854276,-0.037454795,-0.7447858,-0.15011561,0.65019953,,0.9926878063856927,0.36611932010123555,0.20536474325,3.7970654966177673,-0.6911074158135978,-0.9962671435678174,-0.403623187417804,,-0.7796562200502096,0.10156938276180075,0.19007629899000003,-1.0979365440849695,-0.5738732990148498,-0.3648412389482027,0.8637634217180687,,-0.04375976767062783,-0.08274169651392119,0.07694186708,-0.052660797281082014,,0.00010046363,8.46386e-06,-8.940697e-06,1.0,-8.389354e-05,-7.041544e-05,8.389354e-05,1.0,-6.6161156e-06,7.041171e-05,6.645918e-06,1.0,167,0.516,1,1,0.492,False,-0.2607717014014801,1.0369621351560678
0.5349890030047391,17:01:32.351435,17:01:16.581116,0,,0.11910106,0.0085531175,0.023171961,0.72646624,0.6865821,-0.029183887,-0.052355796,0.09764159,0.99384356,0.68520486,-0.7204659,0.10687971,,0.050482787,-0.027671754,0.022314727,0.585818,0.14312668,0.7977042,-0.37456045,-0.82503945,0.42310095,0.7186945,-0.54664844,-0.42971337,,0.107924566,1.3464038,0.44467115,0.9966658,-0.003665887,-0.08150994,-0.055107813,-0.7669472,-0.6393396,-0.06017007,0.64169973,-0.76459205,,-0.07385076,0.27110544,-0.078142114,-0.771237,-0.6365172,0.0062697507,0.36080962,-0.4290186,0.8281059,-0.5244139,0.64092815,0.56053656,,0.014862885,0.44119096,-0.32454872,-0.64643735,-0.080726884,-0.75868434,0.16587037,-0.9854729,-0.03647188,-0.7447186,-0.14942004,0.6504367,,0.9934369114744924,0.3660343700396191,0.20510678154000003,3.7918232480306537,-0.6982125138014007,-0.9906367700558848,-0.40394987555007256,,-0.779671665515958,0.10156938276180075,0.19007629899000003,-1.0979365440849695,-0.5737366625150844,-0.36585112299344524,0.8616399488583231,,-0.04375976767062783,-0.08274169651392119,0.07694186708,-0.052660797281082014,,0.00010046363,8.46386e-06,-8.940697e-06,1.0,-8.389354e-05,-7.041544e-05,8.389354e-05,1.0,-6.6161156e-06,7.041171e-05,6.645918e-06,1.0,184,0.568,1,1,0.544,False,-0.26154621174225356,1.0373000965615242
0.5664983129972825,17:01:32.390222,17:01:16.581116,0,,0.11897044,0.008477926,0.02365303,0.7225167,0.69075555,-0.028745309,-0.05409345,0.09793371,0.9937217,0.689234,-0.71642566,0.10812399,,0.050495386,-0.02768302,0.022325277,0.5843834,0.14250813,0.79886633,-0.3753717,-0.8253273,0.4218188,0.71943873,-0.5463757,-0.42881402,,0.107924566,1.3464038,0.44467115,0.9966658,-0.003665887,-0.08150994,-0.055107813,-0.7669472,-0.6393396,-0.06017007,0.64169973,-0.76459205,,-0.07375257,0.27136573,-0.078562535,-0.7675492,-0.64096427,0.0057480712,0.36230686,-0.4264269,0.8287906,-0.528774,0.63822013,0.55952936,,0.014849482,0.44118887,-0.32456335,-0.64506966,-0.08013339,-0.7599104,0.16587971,-0.98545563,-0.036893904,-0.7459015,-0.14985284,0.64898,,0.9946725487343684,0.36624288382722314,0.20469326503000002,3.7876294491609634,-0.70422451979108,-0.988021387017178,-0.40394987555007256,,-0.7796948337145807,0.1015539372960523,0.19007629899000003,-1.0970977843110314,-0.5753763005122697,-0.3655759317709155,0.8627833573212629,,-0.04375976767062783,-0.08274169651392119,0.07694186708,-0.052660797281082014,,0.00010046363,8.46386e-06,-8.940697e-06,1.0,-8.389354e-05,-7.041544e-05,8.389354e-05,1.0,-6.6161156e-06,7.041171e-05,6.645918e-06,1.0,192,0.594,1,1,0.57,False,-0.2612483231496481,1.0362862123451555
0.6052916670014383,17:01:32.418179,17:01:16.581116,0,,0.11886009,0.008381367,0.02406545,0.71885943,0.69459474,-0.02791496,-0.056212187,0.09810701,0.9935871,0.69287896,-0.7126803,0.1095697,,0.050494395,-0.027686968,0.022323668,0.58480436,0.14313723,0.7984457,-0.37530702,-0.8248746,0.42276067,0.71913034,-0.5468945,-0.4286698,,0.107924566,1.3464038,0.44467115,0.9966658,-0.003665887,-0.08150994,-0.055107813,-0.7669472,-0.6393396,-0.06017007,0.64169973,-0.76459205,,-0.07366954,0.27156433,-0.078943655,-0.7641204,-0.6450556,0.00482187,0.36324933,-0.424097,0.82957315,-0.53307587,0.63564533,0.5583772,,0.01485068,0.4411849,-0.32456484,-0.6454603,-0.08071618,-0.75951684,0.16568883,-0.9855181,-0.036073335,-0.7456059,-0.14912736,0.6494866,,0.9957073949395144,0.36628922022446847,0.20431734093,3.7844841000086955,-0.7102365257807595,-0.9861411126397363,-0.40378653148393817,,-0.7797025564474549,0.1015230463645554,0.19007370641000002,-1.0970977843110314,-0.5748297545132081,-0.36651167582654454,0.8618032929244572,,-0.04375976767062783,-0.08274169651392119,0.07694186708,-0.052660797281082014,,0.00010046363,8.46386e-06,-8.940697e-06,1.0,-8.389354e-05,-7.041544e-05,8.389354e-05,1.0,-6.6161156e-06,7.041171e-05,6.645918e-06,1.0,205,0.634,1,1,0.61,False,-0.26059296824591627,1.0365276133490526
0.633245438002632,17:01:32.455822,17:01:16.745541,0,,0.118776605,0.008263499,0.024487063,0.7134608,0.7001403,-0.027877724,-0.05772513,0.09838086,0.9934732,0.69831336,-0.70719504,0.11060649,,0.05050321,-0.027702495,0.022329807,0.58477616,0.1433196,0.79843366,-0.37511683,-0.824934,0.42281353,0.7192526,-0.5467571,-0.42864007,,0.107924566,1.3464038,0.44467115,0.9966658,-0.003665887,-0.08150994,-0.055107813,-0.7669472,-0.6393396,-0.06017007,0.64169973,-0.76459205,,-0.07361361,0.27175108,-0.07934444,-0.7590879,-0.650971,0.0047147586,0.36590594,-0.42066512,0.8301528,-0.5384221,0.63188416,0.557516,,0.014841512,0.441177,-0.32457936,-0.6454461,-0.080909975,-0.7595083,0.16591306,-0.9854826,-0.036013525,-0.74556834,-0.14925714,0.6494999,,0.9965028364255596,0.3662506065600974,0.20394919457000002,3.7788224715346135,-0.7174782602683277,-0.9828496834283239,-0.40411321961620694,,-0.7797411701118261,0.10143037357006471,0.19006722496000003,-1.097307474254516,-0.5748297545132081,-0.36651167582654454,0.8618032929244572,,-0.04375976767062783,-0.08274169651392119,0.07694186708,-0.052660797281082014,,0.00010046363,8.46386e-06,-8.940697e-06,1.0,-8.389354e-05,-7.041544e-05,8.389354e-05,1.0,-6.6161156e-06,7.041171e-05,6.645918e-06,1.0,213,0.66,1,1,0.636,False,-0.2613079008681689,1.0366724539513914
0.6708924319973448,17:01:32.484508,17:01:16.745541,0,,0.118725166,0.0081115365,0.024934635,0.7078217,0.7058323,-0.02809124,-0.059752256,0.09945068,0.99324685,0.7038594,-0.7013632,0.11256832,,0.05050829,-0.02771373,0.022338688,0.58476245,0.14357105,0.7983985,-0.3749372,-0.8249429,0.4229556,0.7193573,-0.54667777,-0.4285655,,0.107924566,1.3464038,0.44467115,0.9966658,-0.003665887,-0.08150994,-0.055107813,-0.7669472,-0.6393396,-0.06017007,0.64169973,-0.76459205,,-0.07359091,0.27192676,-0.07978564,-0.7538153,-0.65706885,0.004795506,0.36825627,-0.41641137,0.8312574,-0.5441964,0.62838054,0.555867,,0.014835748,0.44117436,-0.32459316,-0.64544463,-0.08116766,-0.7594821,0.16611676,-0.98545396,-0.035856247,-0.7455243,-0.14930592,0.6495393,,0.9971515459869945,0.36621199289572626,0.20353438177000002,3.7735802229475004,-0.725266540754958,-0.9807461574049371,-0.40443990774847527,,-0.779772061043323,0.10136859170707091,0.19005815093000003,-1.0975171641980006,-0.5748297545132081,-0.3665933545666852,0.8619666369905918,,-0.04375976767062783,-0.08274169651392119,0.07694186708,-0.052660797281082014,,0.00010046363,8.46386e-06,-8.940697e-06,1.0,-8.389354e-05,-7.041544e-05,8.389354e-05,1.0,-6.6161156e-06,7.041171e-05,6.645918e-06,1.0,226,0.7,1,1,0.676,False,-0.2603546573718325,1.0366241737506119
0.6995737520046532,17:01:32.523911,17:01:16.745541,0,,0.11868264,0.00789389,0.025548995,0.7000074,0.71369064,-0.02520704,-0.06516582,0.098986834,0.9929527,0.71115625,-0.69343156,0.115799636,,0.050517924,-0.027747393,0.022357047,0.5846738,0.1435549,0.7984663,-0.37488186,-0.82502913,0.42283636,0.71945816,-0.54655176,-0.42855677,,0.107924566,1.3464038,0.44467115,0.9966658,-0.003665887,-0.08150994,-0.055107813,-0.7669472,-0.6393396,-0.06017007,0.64169973,-0.76459205,,-0.07358762,0.27215943,-0.08039597,-0.74644136,-0.665449,0.0016995431,0.3692775,-0.4120952,0.8329536,-0.5535878,0.6223786,0.55334026,,0.014824845,0.44116125,-0.32462883,-0.64536655,-0.08116241,-0.75954896,0.16623187,-0.98543143,-0.03594305,-0.7455662,-0.1494577,0.64945626,,0.9979933238702849,0.366204270162852,0.20296919933000002,3.769176734134325,-0.7374271892340821,-0.9777726568879034,-0.40394987555007233,,-0.7798261201734425,0.10119869158383797,0.190036114,-1.0975171641980006,-0.5748297545132081,-0.3665933545666852,0.8619666369905918,,-0.04375976767062783,-0.08274169651392119,0.07694186708,-0.052660797281082014,,0.00010046363,8.46386e-06,-8.940697e-06,1.0,-8.389354e-05,-7.041544e-05,8.389354e-05,1.0,-6.6161156e-06,7.041171e-05,6.645918e-06,1.0,234,0.725,1,1,0.701,False,-0.2607121236829584,1.0361413717428172
0.7389785419945838,17:01:32.553356,17:01:16.745541,0,,0.118627235,0.007774502,0.026014894,0.69171023,0.7217174,-0.025707318,-0.06877485,0.10126713,0.9924792,0.71889293,-0.68474,0.119683474,,0.050437756,-0.027784362,0.022337973,0.58469206,0.14368875,0.7984289,-0.37470597,-0.8250845,0.4228842,0.71953505,-0.5464329,-0.42857927,,0.10793043,1.3464036,0.44466993,0.9966659,-0.0036641276,-0.08150847,-0.055105526,-0.7669472,-0.6393398,-0.06017007,0.64169973,-0.76459205,,-0.07356902,0.27237234,-0.08083089,-0.73864424,-0.6740927,0.0019348888,0.3719839,-0.40520814,0.8351253,-0.5621679,0.61758024,0.5500563,,0.014900668,0.44112766,-0.32464528,-0.6453933,-0.081304245,-0.7595111,0.16641065,-0.985402,-0.035921726,-0.7455032,-0.14957437,0.64950174,,0.9987501516919589,0.3661965474299778,0.20258160862000002,3.7622569659993363,-0.7489046552143791,-0.9759279970703358,-0.4023164348887296,,-0.7798647338378136,0.10105195965922771,0.19001407707,-1.097726854141485,-0.5748297545132081,-0.3666750333068257,0.8618032929244575,,-0.04375976767062783,-0.08274169651392119,0.07694186708,-0.052660797281082014,,0.00010639243,7.987022e-06,-8.34465e-06,1.0,-8.2138926e-05,-6.89365e-05,8.2138926e-05,1.0,-6.467104e-06,6.894022e-05,6.4969063e-06,1.0,247,0.765,0,1,0.704,False,-0.2598184579051428,1.0355620093334637
0.7684255649946863,17:01:32.585733,17:01:16.745541,0,,0.118559845,0.0076910853,0.026489109,0.6791674,0.7335773,-0.024411011,-0.073387,0.100960255,0.9921802,0.73030543,-0.67206496,0.12240389,,0.05046747,-0.027815908,0.022378743,0.58454746,0.1444362,0.7983999,-0.37435776,-0.8250109,0.42333588,0.7198337,-0.54634696,-0.42818725,,0.10793043,1.3464036,0.44466993,0.9966659,-0.0036641276,-0.08150847,-0.055105526,-0.7669472,-0.6393398,-0.06017007,0.64169973,-0.76459205,,-0.07353332,0.27261835,-0.081248716,-0.72685105,-0.686795,0.0004582535,0.37653756,-0.3979402,0.8365782,-0.5743754,0.60824025,0.54784733,,0.014867624,0.44112974,-0.32469475,-0.64528185,-0.08205731,-0.7595248,0.16687848,-0.9853445,-0.035323307,-0.7454951,-0.14954184,0.64951855,,0.9996846023697401,0.3660961519026129,0.20223549919000003,3.751143398994656,-0.7654376716859974,-0.9689807299343136,-0.4049299399468782,,-0.7800655248925435,0.10087433680312055,0.18998037353000002,-1.098146234028454,-0.5748297545132081,-0.3670834270075284,0.8613132607260545,,-0.04375976767062783,-0.08274169651392119,0.07694186708,-0.052660797281082014,,0.00010639243,7.987022e-06,-8.34465e-06,1.0,-8.2138926e-05,-6.89365e-05,8.2138926e-05,1.0,-6.467104e-06,6.894022e-05,6.4969063e-06,1.0,255,0.791,0,1,0.704,False,-0.26148663402373185,1.035706849935802
0.800803204998374,17:01:32.616957,17:01:16.907936,0,,0.118352726,0.0076512545,0.026909798,0.6698925,0.74178344,-0.031642742,-0.070507675,0.105984986,0.9918648,0.7391026,-0.66221184,0.12329993,,0.050501652,-0.02784665,0.022415161,0.58444124,0.14468442,0.79843265,-0.37432605,-0.8249461,0.42349026,0.7199364,-0.5463792,-0.42797345,,0.10793043,1.3464036,0.44466993,0.9966659,-0.0036641276,-0.08150847,-0.055105526,-0.7669472,-0.6393398,-0.06017007,0.64169973,-0.76459205,,-0.07335521,0.272871,-0.08160356,-0.71825296,-0.6957404,0.007614672,0.38492998,-0.38822117,0.83732504,-0.5796047,0.60434234,0.5466523,,0.014830543,0.44112915,-0.32474014,-0.64518625,-0.08230216,-0.7595795,0.16697873,-0.98533666,-0.03506815,-0.74555534,-0.14945911,0.6494684,,1.0009974669583583,0.365825856252015,0.20191401927000002,3.735206963289832,-0.7741824076709856,-0.9635652376406945,-0.4034598433516696,,-0.780289484145896,0.10069671394701338,0.18995185515000002,-1.098146234028454,-0.5746931180134426,-0.36735820239150613,0.8606598844615176,,-0.04375976767062783,-0.08274169651392119,0.07694186708,-0.052660797281082014,,0.00010639243,7.987022e-06,-8.34465e-06,1.0,-8.2138926e-05,-6.89365e-05,8.2138926e-05,1.0,-6.467104e-06,6.894022e-05,6.4969063e-06,1.0,272,0.843,1,2,0.704,False,-0.26017592421626956,1.0353206083295663
0.8320223420014372,17:01:32.668146,17:01:16.907936,0,,0.117921725,0.0076682568,0.027538821,0.6498804,0.75926244,-0.034291975,-0.06897047,0.10384691,0.992199,0.7569006,-0.6424457,0.11985466,,0.050561726,-0.0278918,0.02247566,0.58424085,0.1452244,0.7984813,-0.37396786,-0.825012,0.42367828,0.7202851,-0.5461364,-0.4276965,,0.10793043,1.3464036,0.44466993,0.9966659,-0.0036641276,-0.08150847,-0.055105526,-0.7669472,-0.6393398,-0.06017007,0.64169973,-0.76459205,,-0.07296908,0.27331397,-0.08208978,-0.6995467,-0.71450984,0.010490434,0.3987112,-0.37809452,0.83550817,-0.59301245,0.58865964,0.54937786,,0.01476558,0.4411323,-0.3248114,-0.6450241,-0.082861826,-0.75965637,0.1674917,-0.98526096,-0.03474684,-0.7455806,-0.1496487,0.64939576,,1.0036927007314627,0.36509991936183794,0.20152772485,3.705850371201999,-0.7952244286348634,-0.9419962285038552,-0.4029698111532667,,-0.7806756207896073,0.1004186955635413,0.18990778129000002,-1.0985656139154232,-0.5745564815136771,-0.3674696202952026,0.8606598844615176,,-0.04375976767062783,-0.08274169651392119,0.07694186708,-0.052660797281082014,,0.00010639243,7.987022e-06,-8.34465e-06,1.0,-8.2138926e-05,-6.89365e-05,8.2138926e-05,1.0,-6.467104e-06,6.894022e-05,6.4969063e-06,1.0,293,0.908,1,2,0.769,False,-0.26017592421626956,1.035803410337361
0.8831790520052891,17:01:32.734199,17:01:16.907936,0,,0.11709791,0.007764235,0.028142482,0.623974,0.7803665,-0.041041836,-0.06804788,0.1065813,0.99197274,0.7784767,-0.6161725,0.11960611,,0.0505862,-0.02792786,0.022536337,0.58306056,0.14477867,0.7994244,-0.37488586,-0.8250262,0.42283848,0.7207641,-0.5462333,-0.4267648,,0.10793043,1.3464036,0.44466993,0.9966659,-0.0036641276,-0.08150847,-0.055105526,-0.7669472,-0.6393398,-0.06017007,0.64169973,-0.76459205,,-0.072190605,0.27382302,-0.08252236,-0.67521286,-0.73742133,0.01724402,0.4147939,-0.36026326,0.8355575,-0.6099456,0.5713319,0.5491323,,0.014735929,0.44114485,-0.3248788,-0.64388317,-0.08240878,-0.76067287,0.16722524,-0.9853042,-0.03480577,-0.74662584,-0.14961456,0.6482016,,1.0082259449286324,0.3632927998692694,0.2012619854,3.667267421600846,-0.8230982745870132,-0.9184501887483797,-0.40345984335166984,,-0.7808686891114629,0.10030285457042794,0.18985852227000002,-1.0975171641980006,-0.5756495735118006,-0.367721779427599,0.8603331963292489,,-0.04375976767062783,-0.08274169651392119,0.07694186708,-0.052660797281082014,,0.00010639243,7.987022e-06,-8.34465e-06,1.0,-8.2138926e-05,-6.89365e-05,8.2138926e-05,1.0,-6.467104e-06,6.894022e-05,6.4969063e-06,1.0,301,0.934,1,2,0.795,False,-0.2617249448978165,1.0353206083295663
0.9492582389939344,17:01:32.755445,17:01:16.907936,0,,0.11685112,0.0078116655,0.028285265,0.6138898,0.78811324,-0.04490848,-0.06716886,0.108834594,0.99178797,0.7865288,-0.60583216,0.1197491,,0.050575852,-0.027932882,0.022555292,0.5828639,0.14491238,0.79954356,-0.3749134,-0.82501346,0.42283893,0.7209089,-0.5462171,-0.42654106,,0.10793043,1.3464036,0.44466993,0.9966659,-0.0036641276,-0.08150847,-0.055105526,-0.7669472,-0.6393398,-0.06017007,0.64169973,-0.76459205,,-0.071955055,0.2739652,-0.08261089,-0.6657249,-0.7458991,0.021093907,0.42122704,-0.35231653,0.83572775,-0.6159368,0.5652501,0.5487387,,0.014744497,0.4411547,-0.32489672,-0.6437008,-0.08254356,-0.76081264,0.16731688,-0.9852936,-0.034663413,-0.74676263,-0.14960967,0.6480452,,1.0094461367227598,0.3626363675749603,0.20123605960000002,3.651960055726476,-0.8329361025701251,-0.9101830634618157,-0.4036231874178038,,-0.7808455209128402,0.10031830003617638,0.18983778163,-1.0975171641980006,-0.5759228465113315,-0.3678256585807682,0.860986572593786,,-0.04375976767062783,-0.08274169651392119,0.07694186708,-0.052660797281082014,,0.00010639243,7.987022e-06,-8.34465e-06,1.0,-8.2138926e-05,-6.89365e-05,8.2138926e-05,1.0,-6.467104e-06,6.894022e-05,6.4969063e-06,1.0,314,0.974,1,2,0.835,False,-0.2598184579051428,1.0353206083295663
0.9704538679943653,17:01:32.799615,17:01:17.078524,0,,0.11624799,0.007848799,0.028573439,0.59132904,0.8051708,-0.045054555,-0.06958529,0.10660568,0.9918634,0.8034226,-0.5833826,0.11906704,,0.050559677,-0.02794592,0.02260071,0.5825714,0.1449163,0.7997561,-0.3747927,-0.82522,0.42254296,0.72120804,-0.54590404,-0.42643598,,0.10793043,1.3464036,0.44466993,0.9966659,-0.0036641276,-0.08150847,-0.055105526,-0.7669472,-0.6393398,-0.06017007,0.64169973,-0.76459205,,-0.07137396,0.2742135,-0.08283198,-0.6443523,-0.76443243,0.021285634,0.4315559,-0.34050494,0.83535373,-0.63132364,0.5474481,0.5493005,,0.014756471,0.44117686,-0.32493988,-0.64343923,-0.08257451,-0.7610305,0.16762856,-0.9852349,-0.03482581,-0.7469181,-0.14997873,0.64778066,,1.0123576070163425,0.36070568435640415,0.20119068945000002,3.621974393808189,-0.8576673090276697,-0.887239345727984,-0.40329649928553546,,-0.7808377981799659,0.1003260227690506,0.18978981890000002,-1.097726854141485,-0.5763327560106278,-0.367491404869679,0.860986572593786,,-0.04375976767062783,-0.08274169651392119,0.07694186708,-0.052660797281082014,,0.00010639243,7.987022e-06,-8.34465e-06,1.0,-8.2138926e-05,-6.89365e-05,8.2138926e-05,1.0,-6.467104e-06,6.894022e-05,6.4969063e-06,1.0,327,1.015,1,2,0.876,False,-0.26101001227556386,1.0354654489319046
1.0146640919992933,17:01:32.846376,17:01:17.078524,0,,0.11575351,0.007850096,0.028802335,0.5706721,0.81993806,-0.045110248,-0.07179183,0.104539156,0.9919262,0.8180338,-0.5628261,0.118522435,,0.050539754,-0.027961478,0.022659898,0.5825367,0.14542016,0.7996898,-0.37432158,-0.82532394,0.4227574,0.72148067,-0.54561275,-0.42634758,,0.10793043,1.3464036,0.44466993,0.9966659,-0.0036641276,-0.08150847,-0.055105526,-0.7669472,-0.6393398,-0.06017007,0.64169973,-0.76459205,,-0.07089659,0.27439007,-0.08302651,-0.62472415,-0.7805528,0.0213779,0.44046515,-0.32966062,0.8350535,-0.6447559,0.5310943,0.54975325,,0.014770903,0.44120678,-0.32499504,-0.64343625,-0.08310231,-0.76097554,0.1681612,-0.98515195,-0.034603752,-0.7468009,-0.15023187,0.64785707,,1.0145276949539996,0.3589140103295841,0.2011582822,3.594295321268232,-0.8793925124903748,-0.8657666769937874,-0.40460325181460965,,-0.7808455209128402,0.1003260227690506,0.18972630069000002,-1.0983559239719385,-0.5764693925103933,-0.3673799869659826,0.860986572593786,,-0.04375976767062783,-0.08274169651392119,0.07694186708,-0.052660797281082014,,0.00010639243,7.987022e-06,-8.34465e-06,1.0,-8.2138926e-05,-6.89365e-05,8.2138926e-05,1.0,-6.467104e-06,6.894022e-05,6.4969063e-06,1.0,340,1.056,1,2,0.917,False,-0.26136747858668974,1.0353206083295663
1.061442676000297,17:01:32.881065,17:01:17.078524,0,,0.11527113,0.007839829,0.02900739,0.5488864,0.834809,-0.04263322,-0.075556636,0.10034342,0.9920799,0.8324752,-0.54131794,0.11815241,,0.050528497,-0.027973637,0.022690952,0.58232176,0.14529382,0.79986936,-0.37434345,-0.82545996,0.42247227,0.72164273,-0.54544055,-0.4262936,,0.10793043,1.3464036,0.44466993,0.9966659,-0.0036641276,-0.08150847,-0.055105526,-0.7669472,-0.6393398,-0.06017007,0.64169973,-0.76459205,,-0.07042945,0.27454177,-0.083209835,-0.6039341,-0.79680943,0.01893032,0.448141,-0.31983152,0.83479184,-0.6591155,0.51264274,0.55024016,,0.014779329,0.44121954,-0.32502666,-0.6432374,-0.08299114,-0.7611558,0.16826996,-0.98512685,-0.03479018,-0.7469477,-0.150458,0.64763534,,1.0165201600355496,0.3570296635082733,0.20115309704,3.5661968688413053,-0.9024840809507342,-0.8416279331599557,-0.4031331552194013,,-0.7808377981799659,0.10031830003617638,0.18969259715000003,-1.0983559239719385,-0.576742665509924,-0.3671571511585898,0.860986572593786,,-0.04375976767062783,-0.08274169651392119,0.07694186708,-0.052660797281082014,,0.00010639243,7.987022e-06,-8.34465e-06,1.0,-8.2138926e-05,-6.89365e-05,8.2138926e-05,1.0,-6.467104e-06,6.894022e-05,6.4969063e-06,1.0,349,1.085,1,2,0.946,False,-0.26148663402373185,1.0353688885303458
1.0961100700078532,17:01:32.916077,17:01:17.208036,0,,0.11494563,0.0077914894,0.029133797,0.53306043,0.8450441,-0.041797377,-0.0792636,0.099062204,0.9919194,0.84235615,-0.52544,0.119787365,,0.050513804,-0.027984768,0.022726595,0.58229744,0.14510867,0.79992074,-0.37450862,-0.8254427,0.42235976,0.7215767,-0.54551613,-0.42630872,,0.10793043,1.3464036,0.44466993,0.9966659,-0.0036641276,-0.08150847,-0.055105526,-0.7669472,-0.6393398,-0.06017007,0.64169973,-0.76459205,,-0.070112765,0.27460486,-0.08335125,-0.5887741,-0.80809754,0.017985957,0.45258293,-0.31114888,0.83567643,-0.6697117,0.50016475,0.54892755,,0.014790724,0.44123644,-0.32506126,-0.64320487,-0.082799904,-0.7612041,0.1681058,-0.9851514,-0.03488686,-0.7470127,-0.15040222,0.64757335,,1.0177171836310543,0.35553145333067376,0.20115050446000002,3.5466957040972447,-0.9195636434214143,-0.8264755140957943,-0.40460325181460965,,-0.7808377981799659,0.1003260227690506,0.18965241216,-1.098146234028454,-0.576742665509924,-0.3671571511585898,0.860986572593786,,-0.04375976767062783,-0.08274169651392119,0.07694186708,-0.052660797281082014,,0.00010639243,7.987022e-06,-8.34465e-06,1.0,-8.2138926e-05,-6.89365e-05,8.2138926e-05,1.0,-6.467104e-06,6.894022e-05,6.4969063e-06,1.0,362,1.126,1,2,0.987,False,-0.2618441003348577,1.0350309271248894
1.1311355570069281,17:01:32.951175,17:01:17.208036,0,,0.114647575,0.007729456,0.029271066,0.51453805,0.8564326,-0.04211505,-0.083831936,0.0991244,0.9915376,0.8533597,-0.5066532,0.122799635,,0.05049493,-0.027999908,0.022746027,0.58230937,0.1450194,0.79992825,-0.37464672,-0.8253806,0.42235848,0.72149545,-0.5456336,-0.4262958,,0.10793043,1.3464036,0.44466993,0.9966659,-0.0036641276,-0.08150847,-0.055105526,-0.7669472,-0.6393398,-0.06017007,0.64169973,-0.76459205,,-0.069823995,0.27466297,-0.083508596,-0.5709888,-0.82075834,0.018100314,0.45724475,-0.29963192,0.8373458,-0.68183506,0.48639128,0.5463739,,0.014807865,0.44123977,-0.32508692,-0.6432073,-0.0827007,-0.7612128,0.16794865,-0.9851785,-0.034879655,-0.74704593,-0.15027952,0.64756346,,1.0186439115759613,0.35397918402295464,0.20114920817,3.524049190200916,-0.9389660263881067,-0.8103274568103405,-0.40525662807914653,,-0.7807760163169721,0.10030285457042794,0.18962389378000002,-1.0979365440849695,-0.576742665509924,-0.367320508638871,0.860986572593786,,-0.04375976767062783,-0.08274169651392119,0.07694186708,-0.052660797281082014,,0.00010639243,7.987022e-06,-8.34465e-06,1.0,-8.2138926e-05,-6.89365e-05,8.2138926e-05,1.0,-6.467104e-06,6.894022e-05,6.4969063e-06,1.0,371,1.154,1,2,1.015,False,-0.26160578946077395,1.0353688885303458
1.1662457979982719,17:01:32.996936,17:01:17.208036,0,,0.1142088,0.0075318962,0.029399365,0.4882235,0.8716855,-0.042449657,-0.08377206,0.095225096,0.99192464,0.8686887,-0.48072484,0.11951405,,0.050464503,-0.028025344,0.022779286,0.5821323,0.14465404,0.8001232,-0.37479427,-0.82553256,0.42193058,0.72156173,-0.5455009,-0.4263536,,0.10793043,1.3464036,0.44466993,0.9966659,-0.0036641276,-0.08150847,-0.055105526,-0.7669472,-0.6393398,-0.06017007,0.64169973,-0.76459205,,-0.06939213,0.27461994,-0.08375286,-0.5458021,-0.8377064,0.018655417,0.46866465,-0.28674817,0.8355411,-0.6945887,0.46478322,0.5491111,,0.014835317,0.4412457,-0.3251304,-0.64303553,-0.08234769,-0.7613962,0.16789766,-0.98517406,-0.035247546,-0.74720526,-0.15050207,0.6473279,,1.019254007473025,0.35121444565398224,0.20111161576000003,3.4842081009388566,-0.9612377758498735,-0.7769740928416792,-0.40525662807914653,,-0.780667898056733,0.1002642409060568,0.18957722734000002,-1.097726854141485,-0.577015938509455,-0.36709767283147804,0.8606598844615172,,-0.04375976767062783,-0.08274169651392119,0.07694186708,-0.052660797281082014,,0.00010639243,7.987022e-06,-8.34465e-06,1.0,-8.2138926e-05,-6.89365e-05,8.2138926e-05,1.0,-6.467104e-06,6.894022e-05,6.4969063e-06,1.0,385,1.199,1,2,1.06,False,-0.26136747858668974,1.0353206083295663
1.1827468970004702,17:01:33.022870,17:01:17.208036,0,,0.113962665,0.007364154,0.029491872,0.4688462,0.88204634,-0.046662513,-0.08128628,0.09569116,0.99208665,0.8795316,-0.461343,0.116562694,,0.050452806,-0.028045222,0.022788584,0.58133346,0.14386007,0.8008468,-0.37598157,-0.8253708,0.42118993,0.721588,-0.54595536,-0.42572698,,0.10793043,1.3464036,0.44466993,0.9966659,-0.0036641276,-0.08150847,-0.055105526,-0.7669472,-0.6393398,-0.06017007,0.64169973,-0.76459205,,-0.06915041,0.27456567,-0.08394234,-0.5272625,-0.8493895,0.023059368,0.47864813,-0.27448148,0.83399993,-0.7020614,0.45077422,0.55128247,,0.014846333,0.4412382,-0.32515138,-0.6422283,-0.08151638,-0.76216656,0.16710036,-0.98530334,-0.03542298,-0.7480777,-0.15010794,0.6464111,,1.0190763846169177,0.34935326703129416,0.20105198642000002,3.4519158496422397,-0.9747647893266522,-0.7530384794335245,-0.4055833162114155,,-0.780598393460865,0.10024107270743414,0.18956296815,-1.0962590245370933,-0.5778357575080477,-0.3675726677712674,0.8606598844615174,,-0.04375976767062783,-0.08274169651392119,0.07694186708,-0.052660797281082014,,0.00010639243,7.987022e-06,-8.34465e-06,1.0,-8.2138926e-05,-6.89365e-05,8.2138926e-05,1.0,-6.467104e-06,6.894022e-05,6.4969063e-06,1.0,394,1.228,1,2,1.089,False,-0.26196325577190027,1.0343067241131978
1.2078795859997626,17:01:33.053577,17:01:17.344658,0,,0.11372942,0.0069909096,0.029553026,0.4464389,0.8935327,-0.047868982,-0.07893255,0.09261197,0.99256873,0.89132595,-0.43934292,0.11187437,,0.05041778,-0.028074801,0.022834718,0.5801617,0.14500774,0.8014893,-0.3759297,-0.8252723,0.42142907,0.7225575,-0.54580057,-0.4242787,,0.10793043,1.3464036,0.44466993,0.9966659,-0.0036641276,-0.08150847,-0.055105526,-0.7669472,-0.6393398,-0.06017007,0.64169973,-0.76459205,,-0.06891618,0.2743338,-0.08424038,-0.50576437,-0.86232144,0.024579724,0.48931605,-0.26329243,0.8314126,-0.71047324,0.4325261,0.55511165,,0.014877197,0.44125012,-0.3252074,-0.64115405,-0.08267467,-0.7629459,0.16787706,-0.9852104,-0.034318443,-0.74882495,-0.15008451,0.6455508,,1.0181342112062624,0.3465653604636991,0.20092624629000003,3.415639489419417,-0.9904779867996778,-0.7224194551577935,-0.4029698111532667,,-0.7804362160705063,0.10021790450881146,0.18950852397,-1.0964687144805778,-0.579475395505233,-0.3684409789107056,0.8595164759985774,,-0.04375976767062783,-0.08274169651392119,0.07694186708,-0.052660797281082014,,0.00010639243,7.987022e-06,-8.34465e-06,1.0,-8.2138926e-05,-6.89365e-05,8.2138926e-05,1.0,-6.467104e-06,6.894022e-05,6.4969063e-06,1.0,408,1.273,1,2,1.134,False,-0.26243987752006825,1.0339204825069621
1.2393870270025218,17:01:33.099275,17:01:17.344658,0,,0.11355488,0.006626278,0.029607505,0.42933762,0.9018688,-0.047975928,-0.075383335,0.08872089,0.99319994,0.8999925,-0.42280152,0.106077135,,0.050367378,-0.028099686,0.022879481,0.58018273,0.14493355,0.80148757,-0.3759007,-0.825325,0.42135197,0.72255564,-0.5457407,-0.42435867,,0.10793043,1.3464036,0.44466993,0.9966659,-0.0036641276,-0.08150847,-0.055105526,-0.7669472,-0.6393398,-0.06017007,0.64169973,-0.76459205,,-0.06874018,0.27410087,-0.084525265,-0.489361,-0.8717207,0.025077736,0.4985779,-0.25606385,0.8281615,-0.71550393,0.41777313,0.5599283,,0.0149234515,0.4412656,-0.32526016,-0.6411751,-0.08260582,-0.76293564,0.16789569,-0.9852034,-0.03442887,-0.7488027,-0.15016854,0.64555705,,1.0170993650011164,0.34419448147131215,0.20076939520000003,3.385863517444615,-1.000725724282086,-0.6955220383686542,-0.4068900687404895,,-0.7802508704815249,0.10021790450881146,0.18944370947000003,-1.0964687144805778,-0.5796120320049984,-0.3684112397471497,0.8596798200647116,,-0.04375976767062783,-0.08274169651392119,0.07694186708,-0.052660797281082014,,0.00010639243,7.987022e-06,-8.34465e-06,1.0,-8.2138926e-05,-6.89365e-05,8.2138926e-05,1.0,-6.467104e-06,6.894022e-05,6.4969063e-06,1.0,417,1.302,1,2,1.163,False,-0.26106958999408425,1.0334376804991676
1.2850868309906218,17:01:33.121601,17:01:17.344658,0,,0.113435715,0.00629054,0.029589057,0.4224682,0.9051822,-0.046537198,-0.069884,0.0837217,0.9940357,0.90367967,-0.41669628,0.09862739,,0.050343126,-0.028113797,0.02289772,0.5799318,0.1448978,0.80167556,-0.37591112,-0.82543534,0.42112625,0.7227516,-0.5455832,-0.4242275,,0.10793043,1.3464036,0.44466993,0.9966659,-0.0036641276,-0.08150847,-0.055105526,-0.7669472,-0.6393398,-0.06017007,0.64169973,-0.76459205,,-0.06861483,0.27383983,-0.08473359,-0.48284945,-0.87537044,0.024145128,0.5055361,-0.2561251,0.82391334,-0.7150452,0.41003233,0.5662012,,0.014946047,0.44126928,-0.32528457,-0.64094377,-0.082583755,-0.7631324,0.16803825,-0.98517585,-0.03452028,-0.7489688,-0.15036099,0.6453195,,1.0162575871178259,0.3423024119171272,0.20062291443000002,3.3703464616267595,-1.0022287257795057,-0.6783690871005841,-0.4049299399468782,,-0.78015047495416,0.10021018177593724,0.18941648738000003,-1.0964687144805778,-0.5800219415042946,-0.3683220222564822,0.8595164759985774,,-0.04375976767062783,-0.08274169651392119,0.07694186708,-0.052660797281082014,,0.00010639243,7.987022e-06,-8.34465e-06,1.0,-8.2138926e-05,-6.89365e-05,8.2138926e-05,1.0,-6.467104e-06,6.894022e-05,6.4969063e-06,1.0,431,1.347,1,2,1.208,False,-0.2618441003348577,1.0328100378890346
1.3073426839982858,17:01:33.167281,17:01:17.344658,0,,0.11308648,0.0052254647,0.029638559,0.39359608,0.91821903,-0.04422436,-0.06484875,0.07572077,0.9950181,0.9169934,-0.3887674,0.089348674,,0.0502859,-0.028143093,0.022951365,0.579546,0.14495802,0.8019436,-0.37592828,-0.8255437,0.42089862,0.723052,-0.5454033,-0.42394677,,0.10793043,1.3464036,0.44466993,0.9966659,-0.0036641276,-0.08150847,-0.055105526,-0.7669472,-0.6393398,-0.06017007,0.64169973,-0.76459205,,-0.06825333,0.2730797,-0.085475415,-0.45504957,-0.8901827,0.022464892,0.5195936,-0.24495225,0.818548,-0.7231545,0.38415256,0.57399863,,0.014998307,0.44128805,-0.32534724,-0.64058787,-0.08265935,-0.76342297,0.16825621,-0.9851388,-0.034518167,-0.74922425,-0.15056257,0.6449759,,1.013685917070709,0.33630957120672894,0.20017180551000002,3.3214887047948656,-1.0206746532478401,-0.6322080701080129,-0.4034598433516696,,-0.7799342384336817,0.10021790450881146,0.18934259885000002,-1.0964687144805778,-0.5807051240031219,-0.368336683918984,0.8580463794033687,,-0.04375976767062783,-0.08274169651392119,0.07694186708,-0.052660797281082014,,0.00010639243,7.987022e-06,-8.34465e-06,1.0,-8.2138926e-05,-6.89365e-05,8.2138926e-05,1.0,-6.467104e-06,6.894022e-05,6.4969063e-06,1.0,454,1.42,1,2,1.281,False,-0.2617249448978165,1.0335342409007262
1.353091893994133,17:01:33.245250,17:01:17.493990,0,,0.11238696,0.0043875426,0.029831171,0.3482752,0.9361113,-0.048989333,-0.05915138,0.07410398,0.9954947,0.9355242,-0.34380838,0.08118075,,0.05022069,-0.028177887,0.023022592,0.5792695,0.14462039,0.8022043,-0.37593228,-0.8258271,0.42033872,0.7232716,-0.54506373,-0.424009,,0.10793043,1.3464036,0.44466993,0.9966659,-0.0036641276,-0.08150847,-0.055105526,-0.7669472,-0.6393398,-0.06017007,0.64169973,-0.76459205,,-0.06755589,0.27260482,-0.08619414,-0.41121364,-0.9111157,0.027775656,0.53845114,-0.2182066,0.8139141,-0.73550916,0.34964845,0.58032084,,0.015056911,0.44131523,-0.32542703,-0.6403333,-0.08235186,-0.7636697,0.16842134,-0.98509383,-0.034990884,-0.7494048,-0.1510241,0.6446582,,1.0119869158383799,0.3303862350921988,0.19979199254000002,3.2376127274010558,-1.045815769204681,-0.5622915380428314,-0.40280646708713275,,-0.7797180019132034,0.10022562724168568,0.18924796968000002,-1.0964687144805778,-0.5812516700021837,-0.36789101230419835,0.8583730675356374,,-0.04375976767062783,-0.08274169651392119,0.07694186708,-0.052660797281082014,,0.00010639243,7.987022e-06,-8.34465e-06,1.0,-8.2138926e-05,-6.89365e-05,8.2138926e-05,1.0,-6.467104e-06,6.894022e-05,6.4969063e-06,1.0,477,1.494,1,2,1.355,False,-0.26148663402373185,1.032230675479681
1.4310622030025115,17:01:33.317467,17:01:17.493990,0,,0.1115679,0.004305199,0.03040947,0.30053672,0.9524092,-0.050935224,-0.053118676,0.07003522,0.9961293,0.95228994,-0.29666784,0.07163885,,0.050154105,-0.028206408,0.023055732,0.5790283,0.1442544,0.8024442,-0.3760774,-0.8260045,0.41986006,0.7233892,-0.5448919,-0.42402923,,0.10793043,1.3464036,0.44466993,0.9966659,-0.0036641276,-0.08150847,-0.055105526,-0.7669472,-0.6393398,-0.06017007,0.64169973,-0.76459205,,-0.066777624,0.27296132,-0.08672263,-0.36484927,-0.93057126,0.03036705,0.5565629,-0.19183291,0.80835503,-0.74640656,0.3118289,0.5879115,,0.015120425,0.44132137,-0.32547468,-0.64010257,-0.0820016,-0.7639008,0.1684114,-0.98508185,-0.035374086,-0.7496041,-0.15129265,0.64436346,,1.0124193888793362,0.32851733373663644,0.19943940166000002,3.13905845396333,-1.0641250601732504,-0.4752392114033943,-0.40574666027754946,,-0.7794168153311086,0.10023334997455992,0.18918834034,-1.0962590245370933,-0.5817982160012454,-0.3676903769098344,0.8578830353372345,,-0.04375976767062783,-0.08274169651392119,0.07694186708,-0.052660797281082014,,0.00010639243,7.987022e-06,-8.34465e-06,1.0,-8.2138926e-05,-6.89365e-05,8.2138926e-05,1.0,-6.467104e-06,6.894022e-05,6.4969063e-06,1.0,491,1.539,1,2,1.4,False,-0.26136747858668974,1.0312650714640919
1.5032799189939396,17:01:33.363378,17:01:17.644530,0,,0.11111075,0.0043636113,0.030744776,0.27447942,0.96049356,-0.045968413,-0.048217177,0.061491787,0.9969423,0.9603834,-0.27142367,0.06319049,,0.050064363,-0.028239638,0.02306205,0.578965,0.14343226,0.8026373,-0.3764888,-0.8261493,0.4192059,0.72322595,-0.5448894,-0.4243109,,0.10793043,1.3464036,0.44466993,0.9966659,-0.0036641276,-0.08150847,-0.055105526,-0.7669472,-0.6393398,-0.06017007,0.64169973,-0.76459205,,-0.06634574,0.27324793,-0.08695959,-0.33949378,-0.9402493,0.025984704,0.56699294,-0.18252443,0.80324584,-0.7505085,0.28743008,0.5950806,,0.015209564,0.44130778,-0.32550737,-0.640019,-0.081181645,-0.76405835,0.16800345,-0.9851267,-0.03605903,-0.74976695,-0.15144292,0.64413863,,1.012790080057299,0.32821614715454167,0.19925273590000003,3.0811840295616006,-1.070000429663164,-0.41686698801223954,-0.4042765636823411,,-0.7789457286257809,0.10023334997455992,0.18914167390000003,-1.0956299547066397,-0.5822081255005418,-0.3675194806790262,0.857556347204966,,-0.04375976767062783,-0.08274169651392119,0.07694186708,-0.052660797281082014,,0.00010639243,7.987022e-06,-8.34465e-06,1.0,-8.2138926e-05,-6.89365e-05,8.2138926e-05,1.0,-6.467104e-06,6.894022e-05,6.4969063e-06,1.0,500,1.568,1,2,1.429,False,-0.26160578946077395,1.0306374288539588
1.5491785569902277,17:01:33.394712,17:01:17.644530,0,,0.11062604,0.0044022053,0.031030297,0.24385269,0.96862346,-0.04800486,-0.044056296,0.06051211,0.99719477,0.96881104,-0.24105373,0.05742988,,0.050003976,-0.02825804,0.023073852,0.57889515,0.14349987,0.80267566,-0.37629908,-0.8262844,0.41911003,0.72338057,-0.54466677,-0.42433313,,0.10793043,1.3464036,0.44466993,0.9966659,-0.0036641276,-0.08150847,-0.055105526,-0.7669472,-0.6393398,-0.06017007,0.64169973,-0.76459205,,-0.0658826,0.2734889,-0.08717264,-0.309592,-0.95044494,0.02841071,0.5773327,-0.16414796,0.79983896,-0.75553936,0.2640262,0.59954184,,0.015268788,0.4413066,-0.32553217,-0.6399664,-0.081268296,-0.7640932,0.16825223,-0.985081,-0.036147315,-0.7497561,-0.15169345,0.6440923,,1.012759189125802,0.3278222877779562,0.19911273658000003,3.0161801470813985,-1.0766956181516707,-0.3606033343636852,-0.40607334840981824,,-0.778636819310812,0.10024879544030836,0.18910537778000003,-1.0958396446501244,-0.5826180349998381,-0.3674302631883586,0.8569029709404288,,-0.04375976767062783,-0.08274169651392119,0.07694186708,-0.052660797281082014,,0.00010639243,7.987022e-06,-8.34465e-06,1.0,-8.2138926e-05,-6.89365e-05,8.2138926e-05,1.0,-6.467104e-06,6.894022e-05,6.4969063e-06,1.0,514,1.613,1,2,1.474,False,-0.26148663402373185,1.0306374288539588
1.5805200739996508,17:01:33.441049,17:01:17.644530,0,,0.11010964,0.0043718666,0.031298935,0.20755404,0.97674835,-0.05370274,-0.044864386,0.06434521,0.9969188,0.97719425,-0.20450516,0.057176292,,0.049932733,-0.028285176,0.023107708,0.5786234,0.14336956,0.80289483,-0.37612963,-0.8265865,0.41866603,0.723686,-0.54424244,-0.42435682,,0.10793043,1.3464036,0.44466993,0.9966659,-0.0036641276,-0.08150847,-0.055105526,-0.7669472,-0.6393398,-0.06017007,0.64169973,-0.76459205,,-0.06538562,0.27366823,-0.08741883,-0.27395228,-0.961138,0.03411608,0.58417726,-0.13811862,0.7997876,-0.76399416,0.23903346,0.59931284,,0.015336843,0.4413146,-0.3255797,-0.6397269,-0.08117496,-0.7643037,0.1686024,-0.9850079,-0.036505796,-0.7498818,-0.15221718,0.6438223,,1.0122572114889776,0.3271890236822698,0.19898829274000002,2.940901457370454,-1.0880364476322024,-0.29965300584790616,-0.4042765636823411,,-0.7783047417972203,0.1002642409060568,0.18904445215000001,-1.0960493345936086,-0.5833012174986653,-0.3670365311501576,0.8560862506097575,,-0.04375976767062783,-0.08274169651392119,0.07694186708,-0.052660797281082014,,0.00010639243,7.987022e-06,-8.34465e-06,1.0,-8.2138926e-05,-6.89365e-05,8.2138926e-05,1.0,-6.467104e-06,6.894022e-05,6.4969063e-06,1.0,523,1.642,0,2,1.487,False,-0.26095043455704303,1.0292373030313546
1.6268572589906398,17:01:33.465551,17:01:17.644530,0,,0.10988302,0.0043151677,0.03142464,0.18821302,0.9812467,-0.041601367,-0.041297555,0.050228007,0.9978836,0.9812596,-0.18609664,0.049976647,,0.04990243,-0.028293937,0.023119926,0.5787243,0.14338067,0.8028201,-0.37610483,-0.82655984,0.41874105,0.7236182,-0.5442801,-0.42442414,,0.10793043,1.3464036,0.44466993,0.9966659,-0.0036641276,-0.08150847,-0.055105526,-0.7669472,-0.6393398,-0.06017007,0.64169973,-0.76459205,,-0.06516738,0.2737189,-0.087560885,-0.2549967,-0.96667945,0.022528367,0.59061235,-0.13726342,0.79519546,-0.76560676,0.21607773,0.60593456,,0.015365965,0.44131863,-0.32559645,-0.63982123,-0.0811828,-0.7642239,0.16856766,-0.98501444,-0.03649053,-0.74980915,-0.15217084,0.6439179,,1.011577610996046,0.3270036780932884,0.19887421922,2.898963468673549,-1.0891295396303258,-0.24926434609315412,-0.4055833162114154,,-0.7781734553383585,0.10027968637180526,0.18901982264000003,-1.0960493345936086,-0.5833012174986653,-0.3671182098902981,0.8552695302790861,,-0.04375976767062783,-0.08274169651392119,0.07694186708,-0.052660797281082014,,0.00010639243,7.987022e-06,-8.34465e-06,1.0,-8.2138926e-05,-6.89365e-05,8.2138926e-05,1.0,-6.467104e-06,6.894022e-05,6.4969063e-06,1.0,546,1.715,0,2,1.487,False,-0.26178452261633733,1.0291890228305751
1.6512896539934445,17:01:33.546179,17:01:17.843697,0,,0.10936572,0.004284039,0.03184411,0.13426626,0.99010634,-0.04076633,-0.038236916,0.046284646,0.99819624,0.9902073,-0.1324653,0.044073045,,0.049892686,-0.028296739,0.023141325,0.5785506,0.14370674,0.802887,-0.375975,-0.8265555,0.4188661,0.7238245,-0.54420066,-0.424174,,0.10793043,1.3464036,0.44466993,0.9966659,-0.0036641276,-0.08150847,-0.055105526,-0.7669472,-0.6393398,-0.06017007,0.64169973,-0.76459205,,-0.064679936,0.27399495,-0.08792244,-0.2018525,-0.97916657,0.022099085,0.601769,-0.106187634,0.7915796,-0.7727417,0.17308086,0.6106663,,0.015373676,0.44133168,-0.32561463,-0.6396693,-0.08151494,-0.76431566,0.16881481,-0.98498154,-0.036234956,-0.7498831,-0.1522062,0.6438234,,1.009724155106232,0.32776822864783667,0.19857347994000002,2.784892139417968,-1.0940484536218817,-0.14658538347028371,-0.40394987555007245,,-0.7781580098726101,0.10030285457042794,0.18899778571000003,-1.0962590245370933,-0.5835744904981961,-0.36722208904346765,0.8536360896177433,,-0.04375976767062783,-0.08274169651392119,0.07694186708,-0.052660797281082014,,0.00010639243,7.987022e-06,-8.34465e-06,1.0,-8.2138926e-05,-6.89365e-05,8.2138926e-05,1.0,-6.467104e-06,6.894022e-05,6.4969063e-06,1.0,555,1.744,0,2,1.487,False,-0.2611887454311268,1.0272578147993967
1.7319869509956334,17:01:33.572031,17:01:17.843697,0,,0.1093052,0.004322663,0.0319421,0.12304388,0.9915703,-0.040601198,-0.038134307,0.04560601,0.9982314,0.99166834,-0.12127798,0.04342425,,0.049891718,-0.028295353,0.02314502,0.5784456,0.1436493,0.8029729,-0.37599424,-0.82661223,0.41873702,0.72389853,-0.54412967,-0.4241389,,0.10793043,1.3464036,0.44466993,0.9966659,-0.0036641276,-0.08150847,-0.055105526,-0.7669472,-0.6393398,-0.06017007,0.64169973,-0.76459205,,-0.06462695,0.274091,-0.087974615,-0.19076107,-0.9813904,0.021978708,0.60342455,-0.09957386,0.79117876,-0.7742668,0.1641886,0.6111899,,0.015374276,0.4413353,-0.32561645,-0.6395716,-0.08146377,-0.7644029,0.16885814,-0.9849712,-0.036312528,-0.7499567,-0.15230012,0.64371544,,1.0092685138666526,0.328331988147655,0.19851903576000002,2.761616555691186,-1.0945949996209434,-0.12580170556049824,-0.40541997214528125,,-0.7781580098726101,0.10031830003617638,0.18899519313000002,-1.0962590245370933,-0.5837111269979616,-0.3671106711397712,0.8536360896177433,,-0.04375976767062783,-0.08274169651392119,0.07694186708,-0.052660797281082014,,0.00010639243,7.987022e-06,-8.34465e-06,1.0,-8.2138926e-05,-6.89365e-05,8.2138926e-05,1.0,-6.467104e-06,6.894022e-05,6.4969063e-06,1.0,578,1.818,0,2,1.487,False,-0.26160578946077395,1.0271129741970584
1.757823041989468,17:01:33.644737,17:01:17.843697,0,,0.10918835,0.0046013743,0.032302126,0.08657339,0.9955671,-0.03675801,-0.03881511,0.04023925,0.998436,0.9954891,-0.08501123,0.042126566,,0.049888775,-0.028296426,0.023148537,0.57837445,0.14409655,0.802944,-0.37584215,-0.82652104,0.41905332,0.7240343,-0.54414976,-0.42388114,,0.10793043,1.3464036,0.44466993,0.9966659,-0.0036641276,-0.08150847,-0.055105526,-0.7669472,-0.6393398,-0.06017007,0.64169973,-0.76459205,,-0.064539626,0.2745422,-0.08807328,-0.1546362,-0.9878032,0.018231815,0.6074339,-0.08050494,0.7902803,-0.7791737,0.13328058,0.6124742,,0.01537688,0.44133708,-0.32561997,-0.63951546,-0.08190821,-0.7644024,0.16906668,-0.9849504,-0.03590417,-0.7499576,-0.15219624,0.643739,,1.0079170356136635,0.33126662663986034,0.19837125870000002,2.6867572458672107,-1.0948682726204741,-0.055988583153346316,-0.4064000365420868,,-0.7781425644068616,0.10031830003617638,0.18899130426000002,-1.0964687144805778,-0.583847763497727,-0.3674076469367775,0.8521659930225347,,-0.04375976767062783,-0.08274169651392119,0.07694186708,-0.052660797281082014,,0.00010639243,7.987022e-06,-8.34465e-06,1.0,-8.2138926e-05,-6.89365e-05,8.2138926e-05,1.0,-6.467104e-06,6.894022e-05,6.4969063e-06,1.0,587,1.846,0,2,1.487,False,-0.26243987752006825,1.0255680077721157
1.8304368940007407,17:01:33.674716,17:01:17.843697,0,,0.10913046,0.0048618913,0.032441273,0.07366163,0.99677503,-0.031834014,-0.037855327,0.034692403,0.9986807,0.9965646,-0.07235938,0.040288478,,0.04988029,-0.028303966,0.023157418,0.5783889,0.1440543,0.8029413,-0.37584,-0.826539,0.41901967,0.72402394,-0.54413366,-0.42391962,,0.107941575,1.3464056,0.4446739,0.9966644,-0.003684729,-0.081525646,-0.0551323,-0.7669471,-0.6393376,-0.06017007,0.64169973,-0.76459205,,-0.064502195,0.2748342,-0.08800715,-0.14184722,-0.9897969,0.013470404,0.6095917,-0.07662248,0.78900373,-0.77992135,0.120129436,0.6142407,,0.015377289,0.44133645,-0.3256278,-0.6395383,-0.0818903,-0.7643852,0.16907209,-0.9849483,-0.035937853,-0.74993694,-0.15221985,0.64375746,,1.007693076360311,0.3331278052625484,0.19835829580000003,2.6599169331011914,-1.092272179124931,-0.027721031991288947,-0.407053412806624,,-0.7781348416739874,0.10031830003617638,0.18899000797,-1.0964687144805778,-0.583847763497727,-0.3674076469367775,0.8521659930225347,,-0.04375976767062783,-0.08274169651392119,0.07694186708,-0.052660797281082014,,0.00011715107,8.821487e-06,-1.3589859e-05,1.0,-0.00010268018,-8.6180866e-05,0.00010268018,0.9999999,-8.106232e-06,8.617714e-05,8.076429e-06,1.0,601,1.891,0,2,1.487,False,-0.261427056305211,1.0247955245596445
1.8605284079967532,17:01:33.717644,17:01:17.996128,0,,0.10914774,0.00545913,0.032763094,0.05277123,0.99801236,-0.03444308,-0.04025632,0.0365892,0.9985192,0.9977949,-0.051306557,0.042106926,,0.04988184,-0.028302848,0.023159146,0.578276,0.14439198,0.80296195,-0.3758579,-0.82639354,0.41929036,0.7241048,-0.54426503,-0.42361274,,0.107941575,1.3464056,0.4446739,0.9966644,-0.003684729,-0.081525646,-0.0551323,-0.7669471,-0.6393376,-0.06017007,0.64169973,-0.76459205,,-0.06455097,0.27549595,-0.0878649,-0.121057294,-0.99251735,0.015949585,0.6097371,-0.061671216,0.79020077,-0.7833044,0.105384625,0.61264044,,0.015375561,0.44133833,-0.32562822,-0.6394333,-0.08221582,-0.7644381,0.1691217,-0.9849544,-0.035533555,-0.75001526,-0.1520044,0.64371717,,1.0078243628191728,0.337205408220139,0.19838940676000003,2.61860801423474,-1.0906325411277455,0.005492060243811658,-0.4068900687404895,,-0.7781425644068616,0.1003260227690506,0.18899000797,-1.0964687144805778,-0.5839843999974925,-0.3677863014739244,0.8502058642289235,,-0.04375976767062783,-0.08274169651392119,0.07694186708,-0.052660797281082014,,0.00011715107,8.821487e-06,-1.3589859e-05,1.0,-0.00010268018,-8.6180866e-05,0.00010268018,0.9999999,-8.106232e-06,8.617714e-05,8.076429e-06,1.0,610,1.92,0,2,1.487,False,-0.26190367805337944,1.0242161621502908
1.9034516629908467,17:01:33.752159,17:01:17.996128,0,,0.10923151,0.005985424,0.032958746,0.043757092,0.9986206,-0.029018486,-0.04044512,0.030793224,0.99870706,0.9982233,-0.042526882,0.041736513,,0.049880885,-0.028303966,0.023160577,0.57817215,0.1443275,0.80304825,-0.37586892,-0.8264597,0.4191502,0.724182,-0.54418176,-0.42358783,,0.107941575,1.3464056,0.4446739,0.9966644,-0.003684729,-0.081525646,-0.0551323,-0.7669471,-0.6393376,-0.06017007,0.64169973,-0.76459205,,-0.064656235,0.27601853,-0.08766966,-0.112092555,-0.9936416,0.01056136,0.6103795,-0.060462095,0.7897982,-0.78413785,0.09497694,0.6132758,,0.0153763965,0.44133857,-0.3256301,-0.6393371,-0.08215869,-0.7645247,0.16917314,-0.98494226,-0.03562619,-0.75008565,-0.15211418,0.6436092,,1.0082877267916261,0.34045667876018754,0.19847496190000002,2.601413438869009,-1.087353265133375,0.02544304157403332,-0.40770678907116087,,-0.7781348416739874,0.1003260227690506,0.18898871168000003,-1.0964687144805778,-0.5841210364972579,-0.36767488357022804,0.8502058642289235,,-0.04375976767062783,-0.08274169651392119,0.07694186708,-0.052660797281082014,,0.00011715107,8.821487e-06,-1.3589859e-05,1.0,-0.00010268018,-8.6180866e-05,0.00010268018,0.9999999,-8.106232e-06,8.617714e-05,8.076429e-06,1.0,619,1.949,0,2,1.487,False,-0.261427056305211,1.022960876930025
1.9379683199949795,17:01:33.781576,17:01:17.996128,0,,0.10922572,0.0065864474,0.033108056,0.031715993,0.9989944,-0.03168866,-0.0396066,0.032935895,0.99867225,0.9987119,-0.030418817,0.040611207,,0.049875185,-0.028307274,0.02315861,0.5781409,0.14400493,0.80312866,-0.3761841,-0.8264033,0.41897842,0.72404325,-0.54435265,-0.42360526,,0.107941575,1.3464056,0.4446739,0.9966644,-0.003684729,-0.081525646,-0.0551323,-0.7669471,-0.6393376,-0.06017007,0.64169973,-0.76459205,,-0.06467012,0.27657324,-0.08739463,-0.1001286,-0.99488556,0.013303221,0.6120151,-0.051042404,0.78919715,-0.7844818,0.08716298,0.6139958,,0.015382296,0.4413352,-0.32563123,-0.6392891,-0.08182214,-0.76460093,0.16885015,-0.98499244,-0.035770126,-0.7501994,-0.15197045,0.6435106,,1.009067722811923,0.3438624039577205,0.19863440557000003,2.5777184752552578,-1.0824343511418193,0.0429951844380706,-0.40345984335166984,,-0.7781039507424905,0.1003260227690506,0.18898741539000002,-1.0960493345936086,-0.5841210364972579,-0.3677565623103687,0.8493891438982519,,-0.04375976767062783,-0.08274169651392119,0.07694186708,-0.052660797281082014,,0.00011715107,8.821487e-06,-1.3589859e-05,1.0,-0.00010268018,-8.6180866e-05,0.00010268018,0.9999999,-8.106232e-06,8.617714e-05,8.076429e-06,1.0,633,1.994,0,2,1.487,False,-0.26190367805337944,1.022767756126907
1.967344990989659,17:01:33.816599,17:01:17.996128,0,,0.1091907,0.007155046,0.03328468,0.020394947,0.99918,-0.034975246,-0.043281525,0.035832107,0.99842006,0.99885476,-0.018848952,0.043976605,,0.049868785,-0.028310165,0.023157954,0.5779561,0.14412464,0.80324024,-0.3761987,-0.8264024,0.4189672,0.7241833,-0.5443225,-0.42340478,,0.107941575,1.3464056,0.4446739,0.9966644,-0.003684729,-0.081525646,-0.0551323,-0.7669471,-0.6393376,-0.06017007,0.64169973,-0.76459205,,-0.064656235,0.27712253,-0.087162636,-0.08878892,-0.99591625,0.016352572,0.6099468,-0.041384738,0.791361,-0.7874525,0.08023828,0.6111304,,0.015388758,0.44133312,-0.32563308,-0.6391181,-0.08194418,-0.7647309,0.16894719,-0.9849801,-0.03565151,-0.75032324,-0.15198465,0.6433628,,1.0099481143595845,0.34702872443615257,0.19879255295,2.5546525814719603,-1.082024441642523,0.05924171497551556,-0.4042765636823411,,-0.7780576143452451,0.1003260227690506,0.18898611910000002,-1.0960493345936086,-0.5843943094967888,-0.36786044146353813,0.8484090795014463,,-0.04375976767062783,-0.08274169651392119,0.07694186708,-0.052660797281082014,,0.00011715107,8.821487e-06,-1.3589859e-05,1.0,-0.00010268018,-8.6180866e-05,0.00010268018,0.9999999,-8.106232e-06,8.617714e-05,8.076429e-06,1.0,642,2.023,0,2,1.487,False,-0.2621419889274632,1.021995272914436
2.0024119849986164,17:01:33.853553,17:01:17.996128,0,,0.10895864,0.007759586,0.0334682,0.0007024333,0.99923974,-0.03897927,-0.046206623,0.0389701,0.9981714,0.9989317,0.0010999404,0.046198606,,0.049864255,-0.028309971,0.023157537,0.57797533,0.14405061,0.8032397,-0.37619638,-0.8264352,0.4189045,0.72416914,-0.5442922,-0.42346784,,0.107941575,1.3464056,0.4446739,0.9966644,-0.003684729,-0.081525646,-0.0551323,-0.7669471,-0.6393376,-0.06017007,0.64169973,-0.76459205,,-0.06444683,0.2777148,-0.08692102,-0.06910592,-0.9974049,0.02019662,0.6088812,-0.026132612,0.7928309,-0.7902456,0.06708665,0.609107,,0.015393307,0.44133332,-0.32563293,-0.63913596,-0.08187293,-0.76472354,0.16893797,-0.9849785,-0.03574003,-0.75031006,-0.15203357,0.6433666,,1.0112764244139512,0.3503417768391949,0.19896107065000002,2.5135533525489935,-1.079291711647214,0.09066499783949872,-0.403623187417804,,-0.7780344461466224,0.10033374550192482,0.18898482281,-1.0960493345936086,-0.5843943094967888,-0.3677787627233975,0.8485724235675807,,-0.04375976767062783,-0.08274169651392119,0.07694186708,-0.052660797281082014,,0.00011715107,8.821487e-06,-1.3589859e-05,1.0,-0.00010268018,-8.6180866e-05,0.00010268018,0.9999999,-8.106232e-06,8.617714e-05,8.076429e-06,1.0,656,2.068,1,3,1.529,False,-0.2618441003348577,1.0223815145206714
2.039357483998174,17:01:33.887720,17:01:18.159293,0,,0.10866946,0.008058071,0.033495635,-0.016297493,0.9993177,-0.033142954,-0.04479471,0.03238436,0.998471,0.99886334,0.0177572,0.044236183,,0.049862564,-0.028305635,0.023158193,0.57803935,0.14449093,0.8031144,-0.37587845,-0.8264192,0.41922122,0.72428304,-0.54419965,-0.4233919,,0.107941575,1.3464056,0.4446739,0.9966644,-0.003684729,-0.081525646,-0.0551323,-0.7669471,-0.6393376,-0.06017007,0.64169973,-0.76459205,,-0.06416491,0.27797636,-0.08676111,-0.052165966,-0.99853307,0.01450614,0.6108753,-0.020415766,0.79146355,-0.7900064,0.050148904,0.61104417,,0.015394876,0.44133705,-0.32563058,-0.6392144,-0.08232018,-0.76460993,0.16924387,-0.98493654,-0.035446785,-0.7501743,-0.15206364,0.6435178,,1.0122417660232292,0.35185543248254286,0.19907644046000003,2.478535131987078,-1.0736896151568311,0.1269362338582265,-0.40394987555007267,,-0.7780267234137482,0.10034919096767328,0.18898482281,-1.0964687144805778,-0.5843943094967888,-0.36786044146353813,0.8484090795014463,,-0.04375976767062783,-0.08274169651392119,0.07694186708,-0.052660797281082014,,0.00011715107,8.821487e-06,-1.3589859e-05,1.0,-0.00010268018,-8.6180866e-05,0.00010268018,0.9999999,-8.106232e-06,8.617714e-05,8.076429e-06,1.0,670,2.113,1,3,1.574,False,-0.26106958999408425,1.0222849541191128
2.073528451990569,17:01:33.938736,17:01:18.159293,0,,0.108271986,0.008098617,0.03343706,-0.03388455,0.998936,-0.031282283,-0.04069242,0.029895362,0.99872434,0.998597,0.03511428,0.039635897,,0.049860932,-0.028302059,0.0231601,0.57804614,0.1444308,0.80312043,-0.37588796,-0.8264409,0.41917014,0.7242727,-0.54418284,-0.42343122,,0.107941575,1.3464056,0.4446739,0.9966644,-0.003684729,-0.081525646,-0.0551323,-0.7669471,-0.6393376,-0.06017007,0.64169973,-0.76459205,,-0.06376501,0.27799198,-0.08670727,-0.03466841,-0.9993148,0.012964543,0.61482567,-0.011098989,0.78858495,-0.7879007,0.03530992,0.6147892,,0.015396275,0.4413411,-0.32562965,-0.63922,-0.08226166,-0.76461154,0.16922948,-0.9849367,-0.03551128,-0.7501728,-0.15209433,0.64351237,,1.0130603757078969,0.3519403825441594,0.19911532916000002,2.4426781516512244,-1.0660379711699663,0.1601476627391184,-0.40738010093889254,,-0.7780267234137482,0.10037235916629596,0.18898352652000003,-1.0964687144805778,-0.5843943094967888,-0.3677787627233976,0.8482457354353121,,-0.04375976767062783,-0.08274169651392119,0.07694186708,-0.052660797281082014,,0.00011715107,8.821487e-06,-1.3589859e-05,1.0,-0.00010268018,-8.6180866e-05,0.00010268018,0.9999999,-8.106232e-06,8.617714e-05,8.076429e-06,1.0,679,2.141,1,3,1.602,False,-0.26202283349042155,1.0212710699027439
2.1245083449903177,17:01:33.965663,17:01:18.159293,0,,0.10813265,0.008087426,0.03343454,-0.039116487,0.9987346,-0.03160563,-0.039906025,0.030043233,0.9987516,0.9984375,0.04032891,0.038680047,,0.049859703,-0.028302267,0.023159504,0.5780518,0.14442739,0.803117,-0.37588608,-0.8264418,0.4191699,0.72426915,-0.54418236,-0.42343798,,0.107941575,1.3464056,0.4446739,0.9966644,-0.003684729,-0.081525646,-0.0551323,-0.7669471,-0.6393376,-0.06017007,0.64169973,-0.76459205,,-0.063625686,0.27798972,-0.08671856,-0.029450811,-0.999477,0.013352797,0.61561835,-0.007612334,0.7880077,-0.78749394,0.031427693,0.6155206,,0.015397559,0.4413406,-0.32562944,-0.6392253,-0.08225829,-0.7646074,0.169228,-0.98493683,-0.03551574,-0.75016856,-0.15209556,0.64351696,,1.0133770077557402,0.35185543248254286,0.19910625513000002,2.431774274590029,-1.0641250601732504,0.1693694057859229,-0.4031331552194012,,-0.778019000680874,0.10037235916629596,0.18898352652000003,-1.0964687144805778,-0.5843943094967888,-0.3677787627233975,0.8479190473030436,,-0.04375976767062783,-0.08274169651392119,0.07694186708,-0.052660797281082014,,0.00011715107,8.821487e-06,-1.3589859e-05,1.0,-0.00010268018,-8.6180866e-05,0.00010268018,0.9999999,-8.106232e-06,8.617714e-05,8.076429e-06,1.0,693,2.186,1,3,1.647,False,-0.2626186106756321,1.0214159105050824
2.15146154598915,17:01:34.011812,17:01:18.289061,0,,0.10778706,0.008056238,0.033502266,-0.056379717,0.9978862,-0.03231549,-0.038377047,0.030177072,0.99880743,0.9976716,0.057552654,0.03659427,,0.049858086,-0.028301239,0.023159146,0.57805973,0.14455698,0.8030879,-0.37588745,-0.82637006,0.41931015,0.7242621,-0.5442569,-0.42335415,,0.107941575,1.3464056,0.4446739,0.9966644,-0.003684729,-0.081525646,-0.0551323,-0.7669471,-0.6393376,-0.06017007,0.64169973,-0.76459205,,-0.063285165,0.27802917,-0.08680504,-0.012201765,-0.99982464,0.014204323,0.6172668,0.0036440815,0.7867455,-0.7866593,0.01836754,0.6171141,,0.015399193,0.44134125,-0.32562858,-0.6392325,-0.08238114,-0.7645882,0.16922171,-0.9849437,-0.03535399,-0.75016385,-0.15198435,0.6435487,,1.014056608248672,0.3520485008043985,0.19901292225000003,2.396965743971598,-1.0583863271831018,0.19891324594956855,-0.4072167568727582,,-0.7780112779479997,0.10038008189917018,0.18898352652000003,-1.0964687144805778,-0.5843943094967888,-0.36794212020367867,0.8472656710385065,,-0.04375976767062783,-0.08274169651392119,0.07694186708,-0.052660797281082014,,0.00011715107,8.821487e-06,-1.3589859e-05,1.0,-0.00010268018,-8.6180866e-05,0.00010268018,0.9999999,-8.106232e-06,8.617714e-05,8.076429e-06,1.0,702,2.215,0,3,1.664,False,-0.2622015666459845,1.0212710699027439
2.197621781990165,17:01:34.043922,17:01:18.289061,0,,0.10758467,0.008060798,0.033592984,-0.06647998,0.9973315,-0.030169053,-0.03532234,0.027864646,0.9989873,0.99716246,0.06747831,0.033375412,,0.049858086,-0.028301239,0.023159146,0.57805973,0.14449139,0.8030998,-0.37588745,-0.82640433,0.4192427,0.7242621,-0.54422235,-0.4233986,,0.107941575,1.3464056,0.4446739,0.9966644,-0.003684729,-0.081525646,-0.0551323,-0.7669471,-0.6393376,-0.06017007,0.64169973,-0.76459205,,-0.06308963,0.2781026,-0.0868798,-0.002139093,-0.9999223,0.012283232,0.61983836,0.008313228,0.7846855,-0.7847266,0.009292133,0.6197724,,0.015399193,0.44134125,-0.32562858,-0.6392325,-0.082318686,-0.7645949,0.16922171,-0.9849408,-0.035434436,-0.75016385,-0.1520369,0.6435363,,1.0147053178101069,0.3523883010508644,0.19890792276000002,2.3778839591145062,-1.0523743211934222,0.2173709778671269,-0.40362318741780406,,-0.7780112779479997,0.10038008189917018,0.18898352652000003,-1.0964687144805778,-0.5843943094967888,-0.367860441463538,0.8474290151046409,,-0.04375976767062783,-0.08274169651392119,0.07694186708,-0.052660797281082014,,0.00011715107,8.821487e-06,-1.3589859e-05,1.0,-0.00010268018,-8.6180866e-05,0.00010268018,0.9999999,-8.106232e-06,8.617714e-05,8.076429e-06,1.0,716,2.26,0,3,1.664,False,-0.26202283349042155,1.0208365480957287
2.2297220719920006,17:01:34.081406,17:01:18.289061,0,,0.10724713,0.008045509,0.033698678,-0.08033199,0.99627393,-0.031383537,-0.03665629,0.028511256,0.99892104,0.996094,0.08139573,0.03422916,,0.049855568,-0.028302088,0.02315706,0.57796717,0.14461686,0.8031437,-0.37589478,-0.8263695,0.4193046,0.7243321,-0.5442417,-0.4232539,,0.107941575,1.3464056,0.4446739,0.9966644,-0.003684729,-0.081525646,-0.0551323,-0.7669471,-0.6393376,-0.06017007,0.64169973,-0.76459205,,-0.06276001,0.27817822,-0.086984575,0.011772676,-0.99984044,0.013436615,0.61891645,0.017840309,0.7852542,-0.78536856,-0.00092840096,0.61902773,,0.015401905,0.4413394,-0.3256278,-0.639147,-0.08244217,-0.7646531,0.1692702,-0.9849375,-0.035294637,-0.7502258,-0.15199146,0.6434749,,1.0156552139536363,0.35257364663984575,0.19881329359000002,2.348946746913642,-1.0493683181985825,0.24130201705120718,-0.4031331552194012,,-0.7779881097493772,0.10038008189917018,0.18898482281,-1.0964687144805778,-0.5845309459965543,-0.3679940597802632,0.8466122947739693,,-0.04375976767062783,-0.08274169651392119,0.07694186708,-0.052660797281082014,,0.00011715107,8.821487e-06,-1.3589859e-05,1.0,-0.00010268018,-8.6180866e-05,0.00010268018,0.9999999,-8.106232e-06,8.617714e-05,8.076429e-06,1.0,725,2.289,0,3,1.664,False,-0.2617249448978165,1.0202571856863754
2.2672151869919617,17:01:34.117247,17:01:18.289061,0,,0.10693978,0.008015558,0.033709496,-0.094937086,0.99501026,-0.030682143,-0.033644974,0.027596641,0.9990527,0.99491465,0.09587947,0.030856967,,0.049850255,-0.02830179,0.023154914,0.5779922,0.14460501,0.80312794,-0.37589058,-0.82636917,0.41930926,0.72431433,-0.5442456,-0.4232793,,0.107941575,1.3464056,0.4446739,0.9966644,-0.003684729,-0.081525646,-0.0551323,-0.7669471,-0.6393376,-0.06017007,0.64169973,-0.76459205,,-0.062453724,0.27817973,-0.08702532,0.026375886,-0.999568,0.012968288,0.6212778,0.026554214,0.78314036,-0.7831464,-0.012599112,0.62170976,,0.015407393,0.44133857,-0.32562634,-0.6391702,-0.08243002,-0.764635,0.16925949,-0.9849389,-0.03530717,-0.7502084,-0.15198903,0.6434957,,1.0164197645081847,0.35261998303709113,0.19875366425000002,2.321477364317169,-1.0418533107114833,0.26547684494005275,-0.40492993994687815,,-0.7779572188178802,0.1003878046320444,0.18898482281,-1.0964687144805778,-0.5845309459965543,-0.3679940597802632,0.8466122947739693,,-0.04375976767062783,-0.08274169651392119,0.07694186708,-0.052660797281082014,,0.00011715107,8.821487e-06,-1.3589859e-05,1.0,-0.00010268018,-8.6180866e-05,0.00010268018,0.9999999,-8.106232e-06,8.617714e-05,8.076429e-06,1.0,734,2.317,1,4,1.664,False,-0.26136747858668974,1.020112345084037
2.3030556189914932,17:01:34.148245,17:01:18.425750,0,,0.10667683,0.007953271,0.033626884,-0.11307187,0.9932662,-0.025235984,-0.022141188,0.022873692,0.9994931,0.99334013,0.11357332,0.019405574,,0.049842976,-0.028305143,0.023153007,0.5778898,0.14433616,0.80324996,-0.3760537,-0.82642704,0.4190488,0.7243115,-0.544229,-0.4233057,,0.107941575,1.3464056,0.4446739,0.9966644,-0.003684729,-0.081525646,-0.0551323,-0.7669471,-0.6393376,-0.06017007,0.64169973,-0.76459205,,-0.06218475,0.27809387,-0.08701398,0.04439547,-0.9989794,0.0083214035,0.6300573,0.034462467,0.7757836,-0.77527857,-0.029198315,0.6309442,,0.015414857,0.44133532,-0.32562765,-0.63906604,-0.08216326,-0.76475084,0.16914508,-0.9849507,-0.035525445,-0.750323,-0.15205693,0.6433461,,1.0169371876107576,0.3526277057699653,0.19868107201000001,2.2935886018337275,-1.0250470212403342,0.2936736364775012,-0.407706789071161,,-0.7779108824206349,0.1003878046320444,0.18898352652000003,-1.0962590245370933,-0.5846675824963197,-0.3678826418765668,0.8466122947739693,,-0.04375976767062783,-0.08274169651392119,0.07694186708,-0.052660797281082014,,0.00011715107,8.821487e-06,-1.3589859e-05,1.0,-0.00010268018,-8.6180866e-05,0.00010268018,0.9999999,-8.106232e-06,8.617714e-05,8.076429e-06,1.0,748,2.363,1,4,1.71,False,-0.26202283349042155,1.0199675044816985
2.3340228979941458,17:01:34.187505,17:01:18.425750,0,,0.10632463,0.00785996,0.03348002,-0.14074491,0.9897897,-0.02251974,-0.005869925,0.021911528,0.9997426,0.9900286,0.14084089,0.0027258396,,0.04983761,-0.028306544,0.023151755,0.57791257,0.14425687,0.80324775,-0.3760463,-0.826465,0.41898045,0.72429717,-0.5441923,-0.42337725,,0.107941575,1.3464056,0.4446739,0.9966644,-0.003684729,-0.081525646,-0.0551323,-0.7669471,-0.6393376,-0.06017007,0.64169973,-0.76459205,,-0.061821826,0.277948,-0.086977646,0.071975514,-0.9973835,0.0067622936,0.6418903,0.05150875,0.76506454,-0.76341105,-0.050725263,0.64391816,,0.01542034,0.44133386,-0.325628,-0.6390874,-0.08208733,-0.7647411,0.16913918,-0.98494816,-0.03562374,-0.7503061,-0.15211436,0.6433521,,1.0175936199050668,0.3526740421672107,0.19859292429000003,2.253118442741214,-1.0000425417832586,0.3285806671762168,-0.4059100043436839,,-0.777879991489138,0.1003878046320444,0.18898223023000002,-1.0962590245370933,-0.5846675824963197,-0.3678009631364264,0.8461222625755667,,-0.04375976767062783,-0.08274169651392119,0.07694186708,-0.052660797281082014,,0.00011715107,8.821487e-06,-1.3589859e-05,1.0,-0.00010268018,-8.6180866e-05,0.00010268018,0.9999999,-8.106232e-06,8.617714e-05,8.076429e-06,1.0,762,2.408,1,4,1.755,False,-0.26202283349042155,1.0209813886980672
2.3733015909965616,17:01:34.231684,17:01:18.425750,0,,0.10599907,0.007769257,0.03335139,-0.16885193,0.98543876,-0.019987954,0.010758907,0.022120688,0.9996974,0.9855827,0.1685858,-0.01433751,,0.049829938,-0.028307468,0.02314967,0.57797354,0.14448924,0.80316216,-0.3758741,-0.8264493,0.41916606,0.7243379,-0.54415464,-0.42335606,,0.107941575,1.3464056,0.4446739,0.9966644,-0.003684729,-0.081525646,-0.0551323,-0.7669471,-0.6393376,-0.06017007,0.64169973,-0.76459205,,-0.06148678,0.27781433,-0.08695232,0.1000614,-0.9949665,0.005418305,0.653289,0.069805145,0.7538838,-0.7504673,-0.07189494,0.65698546,,0.015428182,0.44133234,-0.32562757,-0.6391541,-0.08232238,-0.7646601,0.16928878,-0.98492813,-0.035466712,-0.7502156,-0.15211707,0.64345706,,1.0185821297129676,0.3528284968246952,0.19845422126,2.2048897557397735,-0.9687527833369728,0.3694707829640133,-0.4044399077484755,,-0.7778336550918926,0.1003878046320444,0.18898093394,-1.0964687144805778,-0.5846675824963197,-0.36788264187656683,0.8462856066417008,,-0.04375976767062783,-0.08274169651392119,0.07694186708,-0.052660797281082014,,0.00011715107,8.821487e-06,-1.3589859e-05,1.0,-0.00010268018,-8.6180866e-05,0.00010268018,0.9999999,-8.106232e-06,8.617714e-05,8.076429e-06,1.0,785,2.481,1,5,1.784,False,-0.26136747858668974,1.0193398618715654
2.4174192849895917,17:01:34.314330,17:01:18.575583,0,,0.105002254,0.007626161,0.033123598,-0.23564568,0.971838,0.0013695918,0.037191868,0.007609822,0.999279,0.97112715,0.23552677,-0.03793785,,0.049825735,-0.028308988,0.023148179,0.5778867,0.14480808,0.80316716,-0.37587962,-0.8263127,0.41943023,0.7244042,-0.54427725,-0.42308474,,0.107941575,1.3464056,0.4446739,0.9966644,-0.003684729,-0.081525646,-0.0551323,-0.7669471,-0.6393376,-0.06017007,0.64169973,-0.76459205,,-0.060474493,0.27761477,-0.08691414,0.16727711,-0.985807,-0.01424593,0.6678954,0.10267972,0.73713815,-0.72521317,-0.13282113,0.6755919,,0.0154325245,0.44133052,-0.32562774,-0.63907385,-0.08262989,-0.764694,0.1693358,-0.98493356,-0.035090026,-0.7502733,-0.15191518,0.64343745,,1.0217716183900223,0.35291344688631165,0.19828699985,2.123110677780809,-0.918880460922587,0.4509946433651007,-0.40574666027754963,,-0.7778027641603957,0.1003878046320444,0.18898093394,-1.0964687144805778,-0.584804218996085,-0.36826129641371386,0.8453055422448952,,-0.04375976767062783,-0.08274169651392119,0.07694186708,-0.052660797281082014,,0.00011715107,8.821487e-06,-1.3589859e-05,1.0,-0.00010268018,-8.6180866e-05,0.00010268018,0.9999999,-8.106232e-06,8.617714e-05,8.076429e-06,1.0,794,2.51,1,5,1.813,False,-0.26232072208302704,1.0190984608676685
2.5001365529897157,17:01:34.333584,17:01:18.575583,0,,0.104717165,0.007597685,0.033088833,-0.25198713,0.96771985,0.004546497,0.040526092,0.005858481,0.9991612,0.9668817,0.25196004,-0.040694326,,0.049823277,-0.02830951,0.023146987,0.5778981,0.14480126,0.8031603,-0.37587595,-0.82631457,0.41942987,0.72439706,-0.54427624,-0.42309836,,0.107941575,1.3464056,0.4446739,0.9966644,-0.003684729,-0.081525646,-0.0551323,-0.7669471,-0.6393376,-0.06017007,0.64169973,-0.76459205,,-0.06018727,0.2775868,-0.086918294,0.18381946,-0.9828091,-0.01722227,0.6686239,0.11217452,0.7350911,-0.72052234,-0.14663927,0.6777496,,0.015435092,0.4413295,-0.32562736,-0.6390845,-0.082623154,-0.7646858,0.16933283,-0.98493373,-0.035098948,-0.7502649,-0.1519176,0.64344674,,1.0228759691910363,0.3528980014205632,0.19824551857000003,2.099835094054027,-0.9074029949422899,0.4718566733066093,-0.404766595880744,,-0.7777873186946472,0.1003878046320444,0.18898093394,-1.0964687144805778,-0.584804218996085,-0.36826129641371386,0.8453055422448952,,-0.04375976767062783,-0.08274169651392119,0.07694186708,-0.052660797281082014,,0.00011715107,8.821487e-06,-1.3589859e-05,1.0,-0.00010268018,-8.6180866e-05,0.00010268018,0.9999999,-8.106232e-06,8.617714e-05,8.076429e-06,1.0,808,2.555,1,5,1.858,False,-0.26255903295711036,1.020015784682478
2.5193889279908035,17:01:34.381881,17:01:18.575583,0,,0.10416171,0.007590458,0.03302136,-0.2812635,0.9595042,0.015568789,0.049394816,-0.0017267019,0.9987778,0.9583585,0.28168878,-0.046909064,,0.04981383,-0.028310344,0.023144126,0.57794005,0.14477915,0.803134,-0.3758663,-0.8263169,0.41943395,0.7243686,-0.5442785,-0.4231441,,0.107941575,1.3464056,0.4446739,0.9966644,-0.003684729,-0.081525646,-0.0551323,-0.7669471,-0.6393376,-0.06017007,0.64169973,-0.76459205,,-0.05962843,0.2775692,-0.08689534,0.21347429,-0.9765536,-0.027780829,0.6715447,0.12602776,0.7301676,-0.7095466,-0.17452808,0.6827031,,0.015444779,0.4413277,-0.32562643,-0.63912374,-0.08260089,-0.7646554,0.16931769,-0.9849354,-0.035124864,-0.75023484,-0.15191883,0.64348143,,1.025409025573782,0.3528593877561921,0.19818070407000002,2.061252144452874,-0.8830816979840417,0.5109963368301322,-0.40411321961620683,,-0.7777332595645277,0.10039552736491862,0.18897963765000003,-1.0964687144805778,-0.584804218996085,-0.36817961767357343,0.845142198178761,,-0.04375976767062783,-0.08274169651392119,0.07694186708,-0.052660797281082014,,0.00011715107,8.821487e-06,-1.3589859e-05,1.0,-0.00010268018,-8.6180866e-05,0.00010268018,0.9999999,-8.106232e-06,8.617714e-05,8.076429e-06,1.0,822,2.6,1,5,1.903,False,-0.2616653671792948,1.0192915816707862
2.5676930850022472,17:01:34.422284,17:01:18.575583,0,,0.103633076,0.0075948685,0.03296706,-0.30839056,0.95080215,0.029503744,0.058344275,-0.012051381,0.99822366,0.949469,0.30956417,-0.051757544,,0.049812593,-0.028310582,0.02314353,0.57794577,0.14471012,0.8031424,-0.37586445,-0.8263521,0.4193662,0.724365,-0.5442435,-0.42319533,,0.107941575,1.3464056,0.4446739,0.9966644,-0.003684729,-0.081525646,-0.0551323,-0.7669471,-0.6393376,-0.06017007,0.64169973,-0.76459205,,-0.059097447,0.27756748,-0.086873755,0.24100931,-0.9696421,-0.041336607,0.67416906,0.13662532,0.72583026,-0.69814795,-0.20279971,0.68663067,,0.015446062,0.44132718,-0.32562625,-0.6391291,-0.08253507,-0.7646581,0.16931622,-0.98493266,-0.03520977,-0.75023067,-0.1519726,0.6434736,,1.0286680188467048,0.35274354676307873,0.19810292667,2.019523845699454,-0.8528850315358792,0.5565350178939661,-0.40492993994687826,,-0.7777255368316535,0.10039552736491862,0.18897963765000003,-1.0964687144805778,-0.584804218996085,-0.36817961767357327,0.8454688863110295,,-0.04375976767062783,-0.08274169651392119,0.07694186708,-0.052660797281082014,,0.00011715107,8.821487e-06,-1.3589859e-05,1.0,-0.00010268018,-8.6180866e-05,0.00010268018,0.9999999,-8.106232e-06,8.617714e-05,8.076429e-06,1.0,831,2.629,1,5,1.932,False,-0.2620824112089424,1.0187122192614324
2.6080288520024624,17:01:34.454440,17:01:18.575583,0,,0.10324129,0.007598385,0.03290747,-0.328137,0.9439277,0.036421705,0.064946055,-0.015921727,0.9977616,0.9423949,0.329768,-0.056080043,,0.049812198,-0.028309241,0.023143828,0.57794803,0.14477755,0.8031286,-0.3758676,-0.8263136,0.41943917,0.7243616,-0.544284,-0.42314914,,0.107941575,1.3464056,0.4446739,0.9966644,-0.003684729,-0.081525646,-0.0551323,-0.7669471,-0.6393376,-0.06017007,0.64169973,-0.76459205,,-0.058702577,0.2775539,-0.08684286,0.2610931,-0.96412295,-0.047930885,0.675757,0.14709228,0.72229934,-0.6893351,-0.22097701,0.68991756,,0.015446413,0.44132838,-0.32562557,-0.63913095,-0.082598835,-0.7646496,0.16931142,-0.98493654,-0.035124008,-0.75023013,-0.15191275,0.64348835,,1.0300272198325682,0.35264315123571377,0.19808348232000003,2.0037970999381147,-0.8407243830567551,0.5718575551684183,-0.4037865314839383,,-0.7777255368316535,0.10040325009779286,0.18897963765000003,-1.0964687144805778,-0.584804218996085,-0.36826129641371397,0.8449788541126267,,-0.04375976767062783,-0.08274169651392119,0.07694186708,-0.052660797281082014,,0.00011715107,8.821487e-06,-1.3589859e-05,1.0,-0.00010268018,-8.6180866e-05,0.00010268018,0.9999999,-8.106232e-06,8.617714e-05,8.076429e-06,1.0,845,2.674,1,5,1.977,False,-0.2622015666459845,1.0190019004661093
2.6402498069946887,17:01:34.494533,17:01:18.575583,0,,0.10263166,0.007585883,0.032860428,-0.3538211,0.93446416,0.03983944,0.06666994,-0.017288595,0.99762523,0.9329339,0.35563707,-0.056183815,,0.049804434,-0.02830948,0.02314043,0.5779843,0.14475885,0.80310583,-0.37585983,-0.82631505,0.41944343,0.7243367,-0.54428685,-0.4231881,,0.107941575,1.3464056,0.4446739,0.9966644,-0.003684729,-0.081525646,-0.0551323,-0.7669471,-0.6393376,-0.06017007,0.64169973,-0.76459205,,-0.058091026,0.27754852,-0.086841196,0.2873405,-0.9564521,-0.05133072,0.6724237,0.16326708,0.72193503,-0.6821156,-0.24195717,0.69005436,,0.015454469,0.4413265,-0.32562372,-0.63916487,-0.08257994,-0.76462334,0.16929775,-0.9849381,-0.03514546,-0.7502044,-0.15191276,0.6435184,,1.0330159174548932,0.3522338463933799,0.19805496394000002,1.967520739715292,-0.8217319095893589,0.60202888229319,-0.40280646708713264,,-0.7776792004344081,0.10041097283066708,0.18897963765000003,-1.0964687144805778,-0.584804218996085,-0.36826129641371397,0.8449788541126267,,-0.04375976767062783,-0.08274169651392119,0.07694186708,-0.052660797281082014,,0.00011715107,8.821487e-06,-1.3589859e-05,1.0,-0.00010268018,-8.6180866e-05,0.00010268018,0.9999999,-8.106232e-06,8.617714e-05,8.076429e-06,1.0,868,2.748,1,5,2.051,False,-0.26202283349042155,1.0189053400645502
2.680310064999503,17:01:34.581051,17:01:18.816406,0,,0.101918995,0.007358238,0.032542914,-0.40114364,0.9143072,0.05591234,0.07400328,-0.028491825,0.9968508,0.913021,0.40401813,-0.05623263,,0.049785793,-0.028310671,0.023135126,0.57785714,0.14459091,0.8032276,-0.37586746,-0.8264468,0.41917685,0.72443414,-0.54413134,-0.42322123,,0.107941575,1.3464056,0.4446739,0.9966644,-0.003684729,-0.081525646,-0.0551323,-0.7669471,-0.6393376,-0.06017007,0.64169973,-0.76459205,,-0.05735465,0.2772106,-0.0867773,0.33580798,-0.9395197,-0.067347765,0.6678509,0.18706587,0.72040373,-0.66423506,-0.28689557,0.6902773,,0.015473542,0.4413234,-0.32562178,-0.6390474,-0.082425825,-0.76473814,0.16936705,-0.98491806,-0.035372745,-0.7502888,-0.1521263,0.64336956,,1.0358424376868594,0.3510445455307493,0.19803292701000003,1.9104850750875013,-0.7847034181529245,0.658740809901018,-0.40329649928553546,,-0.7775633594412947,0.10043414102928974,0.18897834136000002,-1.0964687144805778,-0.585077491995616,-0.368038460606321,0.8443254778480894,,-0.04375976767062783,-0.08274169651392119,0.07694186708,-0.052660797281082014,,0.00011715107,8.821487e-06,-1.3589859e-05,1.0,-0.00010268018,-8.6180866e-05,0.00010268018,0.9999999,-8.106232e-06,8.617714e-05,8.076429e-06,1.0,882,2.793,1,5,2.096,False,-0.2626781883941529,1.0176500548442844
2.7668377419904573,17:01:34.615613,17:01:18.816406,0,,0.10159653,0.007124856,0.032361075,-0.42129117,0.9051207,0.057185084,0.07339382,-0.028821394,0.99688643,0.9039509,0.42417654,-0.054288268,,0.04976096,-0.028312042,0.023126364,0.5778375,0.14441612,0.8032731,-0.37601924,-0.82643175,0.41907054,0.724371,-0.5442008,-0.4232401,,0.107941575,1.3464056,0.4446739,0.9966644,-0.003684729,-0.081525646,-0.0551323,-0.7669471,-0.6393376,-0.06017007,0.64169973,-0.76459205,,-0.057016797,0.2769337,-0.08680368,0.35654187,-0.9317462,-0.06875239,0.66267776,0.20033328,0.72161263,-0.65858644,-0.30284578,0.6888747,,0.015499106,0.4413183,-0.32561782,-0.63902,-0.082245454,-0.7647804,0.16921431,-0.98494095,-0.035466947,-0.75034654,-0.15207587,0.6433141,,1.0367151065016467,0.34985524466811874,0.19801218637,1.8834350723779978,-0.7715863141754422,0.6804711509819649,-0.40378653148393834,,-0.7774166275166845,0.10046503196078664,0.18897704507000002,-1.0962590245370933,-0.5852141284953815,-0.3680904001829056,0.8433454134512838,,-0.04375976767062783,-0.08274169651392119,0.07694186708,-0.052660797281082014,,0.00011715107,8.821487e-06,-1.3589859e-05,1.0,-0.00010268018,-8.6180866e-05,0.00010268018,0.9999999,-8.106232e-06,8.617714e-05,8.076429e-06,1.0,891,2.821,1,5,2.124,False,-0.26309523242380006,1.0177466152458434
2.8014227759995265,17:01:34.652197,17:01:18.816406,0,,0.10135427,0.0068835467,0.032177746,-0.43510532,0.8982061,0.062522635,0.077521384,-0.03181088,0.99648297,0.8970362,0.43842196,-0.05578935,,0.049736783,-0.028318107,0.023117185,0.57770735,0.1441713,0.80341077,-0.3761724,-0.82649523,0.41880754,0.7243953,-0.54416907,-0.42323914,,0.107941575,1.3464056,0.4446739,0.9966644,-0.003684729,-0.081525646,-0.0551323,-0.7669471,-0.6393376,-0.06017007,0.64169973,-0.76459205,,-0.056758717,0.27664524,-0.08683063,0.37073568,-0.92578834,-0.073966384,0.66214687,0.20763177,0.72003514,-0.6512424,-0.3159193,0.6899843,,0.015524108,0.44130942,-0.3256167,-0.63889086,-0.08200397,-0.7649143,0.16912751,-0.9849485,-0.035669792,-0.75047606,-0.15215716,0.6431437,,1.0373252023987103,0.3484497072850099,0.19798366799000003,1.8683373964471122,-0.7587424831974907,0.6960533861393403,-0.4023164348887298,,-0.7772621728592,0.10047275469366088,0.18897574878,-1.0960493345936086,-0.5854874014949123,-0.3680309218557941,0.8433454134512839,,-0.04375976767062783,-0.08274169651392119,0.07694186708,-0.052660797281082014,,0.00011715107,8.821487e-06,-1.3589859e-05,1.0,-0.00010268018,-8.6180866e-05,0.00010268018,0.9999999,-8.106232e-06,8.617714e-05,8.076429e-06,1.0,905,2.866,1,5,2.169,False,-0.2626781883941529,1.017070692434931
2.8380087690020446,17:01:34.691995,17:01:18.984917,0,,0.100929275,0.006450966,0.031936705,-0.4514663,0.8894623,0.07095687,0.08393869,-0.036834195,0.9957899,0.88833135,0.45552167,-0.05803114,,0.049700208,-0.028326288,0.023102105,0.5778719,0.1442034,0.8032866,-0.37611932,-0.826454,0.4189368,0.7242916,-0.5442233,-0.42334697,,0.107941575,1.3464056,0.4446739,0.9966644,-0.003684729,-0.081525646,-0.0551323,-0.7669471,-0.6393376,-0.06017007,0.64169973,-0.76459205,,-0.056311402,0.27618414,-0.08694526,0.38755822,-0.9181719,-0.082213506,0.662351,0.21532404,0.71758395,-0.6411629,-0.33255976,0.69160265,,0.015562045,0.4412959,-0.32561338,-0.6390456,-0.08203132,-0.7647821,0.16908471,-0.984957,-0.035638288,-0.750354,-0.15208745,0.6433027,,1.0384372759325986,0.3457621962447798,0.19789940914,1.8509331311378963,-0.7419361937263417,0.7163273398831547,-0.4023164348887298,,-0.7770382136058475,0.10047275469366088,0.18897315620000002,-1.0960493345936086,-0.5854874014949123,-0.3681942793360752,0.8430187253190153,,-0.04375976767062783,-0.08274169651392119,0.07694186708,-0.052660797281082014,,0.00011715107,8.821487e-06,-1.3589859e-05,1.0,-0.00010268018,-8.6180866e-05,0.00010268018,0.9999999,-8.106232e-06,8.617714e-05,8.076429e-06,1.0,919,2.911,1,5,2.214,False,-0.2622015666459845,1.0173120934388282
2.8777994440024486,17:01:34.735579,17:01:18.984917,0,,0.10015995,0.005838722,0.03178288,-0.4594562,0.88541096,0.07033784,0.085287064,-0.03484595,0.9957468,0.88409626,0.46350104,-0.05950421,,0.04966738,-0.02833201,0.023087919,0.5780217,0.14405075,0.8032062,-0.3760748,-0.8265083,0.41886953,0.7241951,-0.5441813,-0.42356598,,0.107941575,1.3464056,0.4446739,0.9966644,-0.003684729,-0.081525646,-0.0551323,-0.7669471,-0.6393376,-0.06017007,0.64169973,-0.76459205,,-0.055523872,0.27566183,-0.08725724,0.3958001,-0.9147137,-0.08149344,0.66110003,0.22221415,0.7166363,-0.6374081,-0.33752006,0.69266963,,0.0155961355,0.44128454,-0.32560885,-0.63918614,-0.081882656,-0.7646805,0.16904151,-0.98495746,-0.035829432,-0.75024396,-0.15216443,0.64341277,,1.0407077593976206,0.3413911294379687,0.19774255805000002,1.8375129747548868,-0.734284549739477,0.7271587939655324,-0.405419972145281,,-0.7768374225511177,0.1004804774265351,0.18897185991,-1.0960493345936086,-0.5854874014949123,-0.36811260059593454,0.842855381252881,,-0.04375976767062783,-0.08274169651392119,0.07694186708,-0.052660797281082014,,0.00011715107,8.821487e-06,-1.3589859e-05,1.0,-0.00010268018,-8.6180866e-05,0.00010268018,0.9999999,-8.106232e-06,8.617714e-05,8.076429e-06,1.0,928,2.94,1,5,2.243,False,-0.2626781883941529,1.016539610226357
2.9213150540017523,17:01:34.766748,17:01:18.984917,0,,0.09967211,0.0054800957,0.031656116,-0.47272956,0.87820363,0.07269789,0.089114755,-0.03443183,0.995426,0.87669003,0.47704583,-0.06198418,,0.04965955,-0.028333902,0.023085415,0.5780558,0.14403024,0.80318534,-0.37606382,-0.8265138,0.4188683,0.72417367,-0.5441782,-0.42360666,,0.107941575,1.3464056,0.4446739,0.9966644,-0.003684729,-0.081525646,-0.0551323,-0.7669471,-0.6393376,-0.06017007,0.64169973,-0.76459205,,-0.055022918,0.27533433,-0.08741369,0.40949318,-0.90846825,-0.08367096,0.65999293,0.23167172,0.71465904,-0.6298608,-0.34787023,0.6944506,,0.015604188,0.44128206,-0.32560882,-0.63921815,-0.081862465,-0.7646559,0.16903265,-0.984958,-0.0358562,-0.7502187,-0.15217175,0.6434405,,1.0424299288285728,0.33895846858258794,0.19763496598000002,1.8222056088805165,-0.720620899762933,0.739948874457075,-0.4026431230209983,,-0.7767910861538723,0.1004804774265351,0.18897056362000003,-1.0960493345936086,-0.5854874014949123,-0.36811260059593454,0.842855381252881,,-0.04375976767062783,-0.08274169651392119,0.07694186708,-0.052660797281082014,,0.00011715107,8.821487e-06,-1.3589859e-05,1.0,-0.00010268018,-8.6180866e-05,0.00010268018,0.9999999,-8.106232e-06,8.617714e-05,8.076429e-06,1.0,942,2.985,1,5,2.288,False,-0.2620824112089424,1.0162982092224597
2.9525304309936473,17:01:34.815398,17:01:18.984917,0,,0.0991161,0.005139455,0.031538144,-0.49155053,0.866602,0.08590124,0.09860781,-0.042618662,0.99421334,0.8652483,0.49717668,-0.06450465,,0.0496578,-0.028346047,0.023094952,0.57792526,0.1441691,0.8032545,-0.3760863,-0.8264759,0.41892338,0.7242662,-0.5441992,-0.42342126,,0.107945405,1.3464041,0.4446711,0.9966649,-0.0036788392,-0.081520736,-0.055124644,-0.76694715,-0.63933825,-0.06017007,0.64169973,-0.76459205,,-0.05446012,0.27503037,-0.08757109,0.42891034,-0.89816123,-0.09665546,0.6609187,0.23906389,0.7113613,-0.61581033,-0.3689916,0.6961486,,0.015600126,0.44128048,-0.32562673,-0.63909394,-0.081992626,-0.76474583,0.16908461,-0.9849548,-0.03570065,-0.7503128,-0.15212281,0.6433423,,1.045287339992036,0.3365412531929557,0.1975157073,1.8050110335147855,-0.6969827853035117,0.7632282007308272,-0.40182640269032693,,-0.7767601952223754,0.10048820015940932,0.18896926733000002,-1.0960493345936086,-0.5856240379946778,-0.36824621891265985,0.8426920371867468,,-0.04375976767062783,-0.08274169651392119,0.07694186708,-0.052660797281082014,,0.00012121722,8.225441e-06,-1.0728836e-05,1.0,-9.6805394e-05,-8.124858e-05,9.6805394e-05,1.0,-7.6293945e-06,8.1244856e-05,7.6293945e-06,1.0,956,3.03,0,5,2.304,False,-0.2630356547052788,1.0159119676162243
3.0011746499949368,17:01:34.853686,17:01:19.157879,0,,0.09844702,0.0050292015,0.031563923,-0.49884623,0.86273384,0.082720235,0.09695375,-0.039295197,0.9945129,0.8612505,0.5041291,-0.064043105,,0.04965701,-0.02834341,0.023095489,0.57792974,0.14417273,0.8032506,-0.37609258,-0.8264675,0.41893426,0.72425926,-0.5442111,-0.42341778,,0.107945405,1.3464041,0.4446711,0.9966649,-0.0036788392,-0.081520736,-0.055124644,-0.76694715,-0.63933825,-0.06017007,0.64169973,-0.76459205,,-0.053792793,0.27500084,-0.08769065,0.43649,-0.89483553,-0.09351905,0.65749294,0.24629916,0.71206725,-0.6141494,-0.37229833,0.6958552,,0.015600828,0.4412828,-0.32562536,-0.6390977,-0.08199523,-0.76474243,0.169075,-0.9849568,-0.035690024,-0.7503118,-0.15210822,0.6433469,,1.0484999968677133,0.3347804700976325,0.19747811489000003,1.7924296369057142,-0.6901509603152397,0.7699091165670903,-0.40345984335166973,,-0.7767601952223754,0.10050364562515778,0.18896926733000002,-1.0960493345936086,-0.5856240379946778,-0.36824621891265985,0.8420386609222097,,-0.04375976767062783,-0.08274169651392119,0.07694186708,-0.052660797281082014,,0.00012121722,8.225441e-06,-1.0728836e-05,1.0,-9.6805394e-05,-8.124858e-05,9.6805394e-05,1.0,-7.6293945e-06,8.1244856e-05,7.6293945e-06,1.0,965,3.059,1,6,2.33,False,-0.2626781883941529,1.0146566823959582
