AlexandreBanks6/ExpertPlaybackApp/resources/Motions/Pilot_02/PC1/OneHanded_01.csv
Task Time,PC1 Time,PC2 Time,Gaze Calib,s_T_psm1,Tx,Ty,Tz,R00,R01,R02,R10,R11,R12,R20,R21,R22,s_T_psm3,Tx,Ty,Tz,R00,R01,R02,R10,R11,R12,R20,R21,R22,cart_T_ecm,Tx,Ty,Tz,R00,R01,R02,R10,R11,R12,R20,R21,R22,ecm_T_psm1,Tx,Ty,Tz,R00,R01,R02,R10,R11,R12,R20,R21,R22,ecm_T_psm3,Tx,Ty,Tz,R00,R01,R02,R10,R11,R12,R20,R21,R22,psm1_joints,q1,q2,q3,q4,q5,q6,jaw,psm3_joints,q1,q2,q3,q4,q5,q6,jaw,ecm_joints,q1,q2,q3,q4,ecmi_T_ecm,Tx,Ty,Tz,R00,R01,R02,R10,R11,R12,R20,R21,R22,Sample #,Task Duration (s),Collisions (binary),Collisions (increments),Cumulative Collision Time (s),Clutch Press,MTMR Angle,MTML Angle
""
lci_T_si,,,,,-0.06456479,0.007406022,0.24720375,0.9973357,0.020147903,0.070111655,0.061827518,-0.74354374,-0.66582286,0.038716145,0.6683837,-0.74280834
rci_T_si,,,,,-0.0744026,0.011494783,0.25608665,0.9940877,0.004322488,0.1084939,0.07677014,-0.7345955,-0.67414826,0.07678513,0.6784916,-0.73058414
ecm_T_lc,,,,,-4.4061628e-05,-0.00034663224,-0.01840835,-0.99912,0.030754527,0.028518902,-0.031987965,-0.99852574,-0.043852776,0.027128186,-0.04472645,0.9986309
ecm_T_rc,,,,,-0.0043358393,0.01870579,-0.007592615,-0.99555075,-0.052743673,-0.078081585,0.04863213,-0.9973746,0.053654674,-0.08070653,0.04961868,0.9955021
cart_T_ecmi,,,,,0.107823744,1.3464102,0.44466496,0.99667186,-0.0035817337,-0.081439786,-0.054998454,-0.76694757,-0.63934857,-0.06017007,0.64169973,-0.76459205
ecmac_T_ecmrep_psm1,,,,,0.0019077883,-0.24418817,-0.31129345,0.9990406,0.03670117,0.023893757,-0.03487346,0.99673134,-0.072872825,-0.026490174,0.07196965,0.997055
ecmac_T_ecmrep_psm3,,,,,-0.025437847,-0.43631262,-0.5392238,0.9997681,0.02112905,0.0041644988,-0.020983119,0.99925387,-0.03242474,-0.0048464956,0.032329835,0.9994655
""
0,16:51:04.801996,16:50:49.059250,0,,0.12167968,0.0023778975,0.017198682,0.9927144,0.10049734,-0.066470124,0.062134806,0.04567361,0.9970221,0.103234015,-0.9938885,0.039096385,,0.07009366,-0.01710011,0.015616953,0.3386824,0.33563676,0.87900066,-0.693523,-0.5422909,0.474285,0.6358617,-0.7702392,0.049107432,,0.107948095,1.3464036,0.44468024,0.9966649,-0.0036782725,-0.08152026,-0.05512391,-0.76694715,-0.6393383,-0.06017007,0.64169973,-0.76459205,,-0.07593405,0.2623956,-0.07747203,-0.9983231,-0.03218012,0.048119158,0.057746116,-0.61176276,0.7889307,0.004049625,0.79038644,0.6125952,,-0.004176626,0.4430174,-0.31126896,-0.38869995,-0.2547229,-0.8854539,-0.106482424,-0.9421658,0.31778154,-0.9151906,0.21780695,0.33909628,,0.9350221600138583,0.35833480536401724,0.20497844883000002,4.120197699527419,-0.053561507908052655,-1.1035020870251993,-0.40394987555007245,,-0.8718502051027018,0.1275177652191951,0.20790547165000003,-0.6678624699982101,-0.6697921218501891,-0.9010133538906239,0.8343614898138985,,-0.042994004461315315,-0.08314748556500987,0.076974014,-0.05200662588628596,,0.00012337789,1.4543533e-05,-1.7642975e-05,1.0,-9.6242875e-05,-8.076802e-05,9.6242875e-05,1.0,-7.599592e-06,8.077547e-05,7.56979e-06,1.0,36,0.106,0,0,0.0,False,-0.26053339052739544,1.0061593670587736
0.13235770899336785,16:51:04.836826,16:50:49.059250,0,,0.12159784,0.0022967905,0.017226562,0.9925231,0.10275684,-0.06587029,0.06221495,0.038384616,0.99732435,0.105010316,-0.9939656,0.031704515,,0.07008926,-0.017101914,0.015614688,0.3388052,0.33596855,0.8788265,-0.69353354,-0.5420188,0.47458065,0.63578475,-0.7702861,0.049366668,,0.107948095,1.3464036,0.44468024,0.9966649,-0.0036782725,-0.08152026,-0.05512391,-0.76694715,-0.6393383,-0.06017007,0.64169973,-0.76459205,,-0.07585309,0.26235637,-0.07754923,-0.9982564,-0.034315437,0.048027627,0.058963444,-0.6174963,0.78436065,0.0027412025,0.7858249,0.618443,,-0.0041720066,0.44301483,-0.31126872,-0.3888148,-0.25505206,-0.8853087,-0.106550924,-0.9420214,0.31818628,-0.91513383,0.21804601,0.33909586,,0.9353465147945758,0.35783282772719266,0.20491493062000002,4.119149249809996,-0.05561105540453427,-1.0962766641401949,-0.404276563682341,,-0.8718270369040791,0.1275100424863209,0.20790417536000003,-0.6678624699982101,-0.6696554853504236,-0.9014514867548827,0.8327280491525555,,-0.042994004461315315,-0.08314748556500987,0.076974014,-0.05200662588628596,,0.00012337789,1.4543533e-05,-1.7642975e-05,1.0,-9.6242875e-05,-8.076802e-05,9.6242875e-05,1.0,-7.599592e-06,8.077547e-05,7.56979e-06,1.0,50,0.148,0,0,0.0,False,-0.26017592421626956,1.0061110868579939
0.16718857899832074,16:51:04.876977,16:50:49.059250,0,,0.12155103,0.0022233278,0.017282605,0.9924258,0.10433127,-0.06485336,0.061703295,0.033145815,0.99754393,0.106224656,-0.9939902,0.026457101,,0.070090525,-0.017104462,0.015617013,0.33847368,0.33585542,0.87899756,-0.69347996,-0.54236156,0.4742673,0.6360198,-0.77009416,0.04933387,,0.107948095,1.3464036,0.44468024,0.9966649,-0.0036782725,-0.08152026,-0.05512391,-0.76694715,-0.6393383,-0.06017007,0.64169973,-0.76459205,,-0.07580913,0.26233914,-0.07764143,-0.9982354,-0.035802875,0.047372945,0.059361994,-0.62159437,0.7810868,0.0014816051,0.78252065,0.62262285,,-0.004173456,0.44301444,-0.3112721,-0.38850763,-0.25495335,-0.88547194,-0.10632902,-0.942136,0.31792128,-0.9152901,0.21766621,0.3389181,,0.9355473058493056,0.357500750213601,0.20482678290000003,4.118729869923028,-0.057250693401719545,-1.0911007485092314,-0.40411321961620683,,-0.8718270369040791,0.1275100424863209,0.20790417536000003,-0.6678624699982101,-0.6700653948497199,-0.9011989117839339,0.8325647050864211,,-0.042994004461315315,-0.08314748556500987,0.076974014,-0.05200662588628596,,0.00012337789,1.4543533e-05,-1.7642975e-05,1.0,-9.6242875e-05,-8.076802e-05,9.6242875e-05,1.0,-7.599592e-06,8.077547e-05,7.56979e-06,1.0,61,0.181,0,0,0.0,False,-0.2611887454311268,1.0048075214369485
0.2072925490065245,16:51:04.902484,16:50:49.173974,0,,0.121514365,0.0021547526,0.017344981,0.9921268,0.10553604,-0.06742768,0.0643272,0.032515556,0.997399,0.107454,-0.9938838,0.025470644,,0.07009269,-0.017106518,0.015618324,0.3383544,0.3357262,0.87909275,-0.69346064,-0.5425325,0.47409993,0.63610435,-0.7700301,0.049244642,,0.107948095,1.3464036,0.44468024,0.9966649,-0.0036782725,-0.08152026,-0.05512391,-0.76694715,-0.6393383,-0.06017007,0.64169973,-0.76459205,,-0.07577581,0.2623292,-0.077734865,-0.99806297,-0.037002195,0.0500113,0.062171657,-0.62207437,0.78048587,0.0022310577,0.78208333,0.6231699,,-0.0041757124,0.44301364,-0.31127432,-0.38839713,-0.2548287,-0.88555634,-0.10624918,-0.9422091,0.3177311,-0.91534626,0.21749549,0.33887598,,0.935632255910922,0.35729223642599695,0.20474252405,4.116003900657728,-0.057250693401719545,-1.0903656398479664,-0.4046032518146099,,-0.8718347596369533,0.12750231975344664,0.20790417536000003,-0.6678624699982101,-0.6702020313494853,-0.9010058151400969,0.8320746728880184,,-0.042994004461315315,-0.08314748556500987,0.076974014,-0.05200662588628596,,0.00012337789,1.4543533e-05,-1.7642975e-05,1.0,-9.6242875e-05,-8.076802e-05,9.6242875e-05,1.0,-7.599592e-06,8.077547e-05,7.56979e-06,1.0,68,0.201,0,0,0.0,False,-0.26243987752006825,1.0043729996299333
0.2328472539957147,16:51:04.925031,16:50:49.173974,0,,0.121471375,0.0020522326,0.017434537,0.9917662,0.10719681,-0.070061155,0.06727679,0.029378325,0.9973017,0.108965866,-0.99380374,0.021924496,,0.07009269,-0.017106518,0.015618324,0.3383544,0.3358698,0.8790379,-0.69346064,-0.542455,0.47418857,0.63610435,-0.77002203,0.049370393,,0.107948095,1.3464036,0.44468024,0.9966649,-0.0036782725,-0.08152026,-0.05512391,-0.76694715,-0.6393383,-0.06017007,0.64169973,-0.76459205,,-0.075737536,0.26231122,-0.0778712,-0.9978537,-0.038615614,0.052885026,0.06541521,-0.624508,0.7782741,0.0029735896,0.78006315,0.6256937,,-0.0041757124,0.44301364,-0.31127432,-0.38839713,-0.25497335,-0.8855147,-0.10624918,-0.9421572,0.317885,-0.91534626,0.21755084,0.33884045,,0.9357172059725385,0.35697560437815373,0.20461419134000003,4.1126488615619765,-0.05738732990148499,-1.0871504298189285,-0.4032964992855357,,-0.8718347596369533,0.12750231975344664,0.20790417536000003,-0.6678624699982101,-0.6702020313494853,-0.9011691726203781,0.8304412322266759,,-0.042994004461315315,-0.08314748556500987,0.076974014,-0.05200662588628596,,0.00012337789,1.4543533e-05,-1.7642975e-05,1.0,-9.6242875e-05,-8.076802e-05,9.6242875e-05,1.0,-7.599592e-06,8.077547e-05,7.56979e-06,1.0,79,0.234,0,0,0.0,False,-0.26190367805337944,1.003165994610447
0.2553920579957776,16:51:04.964669,16:50:49.173974,0,,0.12149513,0.0018681884,0.017652526,0.9902578,0.11769881,-0.074406974,0.072054684,0.02412209,0.9971089,0.119153395,-0.99275637,0.015406281,,0.07009224,-0.017105117,0.015618622,0.3383579,0.33601445,0.87898135,-0.69346356,-0.5423712,0.47428018,0.6360993,-0.770018,0.049498156,,0.107948095,1.3464036,0.44468024,0.9966649,-0.0036782725,-0.08152026,-0.05512391,-0.76694715,-0.6393383,-0.06017007,0.64169973,-0.76459205,,-0.075773455,0.26231018,-0.07815522,-0.9971282,-0.049082045,0.057673927,0.07571165,-0.62843347,0.77417,-0.0017536209,0.7763133,0.6303448,,-0.0041753044,0.44301492,-0.31127357,-0.38840008,-0.25511876,-0.8854715,-0.10625494,-0.9421034,0.3180426,-0.91534436,0.2176135,0.3388054,,0.9357172059725385,0.3565894677344425,0.20433808157000002,4.103422504048657,-0.064219154889757,-1.080926104712983,-0.404276563682341,,-0.8718347596369533,0.1275100424863209,0.20790417536000003,-0.6678624699982101,-0.6702020313494853,-0.9013325301006592,0.8297878559621386,,-0.042994004461315315,-0.08314748556500987,0.076974014,-0.05200662588628596,,0.00012337789,1.4543533e-05,-1.7642975e-05,1.0,-9.6242875e-05,-8.076802e-05,9.6242875e-05,1.0,-7.599592e-06,8.077547e-05,7.56979e-06,1.0,90,0.266,0,0,0.0,False,-0.26249945523859,1.0023452311971963
0.29502354000578634,16:51:04.986410,16:50:49.173974,0,,0.12166329,0.0016914606,0.01781179,0.9885981,0.13029154,-0.075484626,0.07363908,0.018931955,0.9971051,0.13134345,-0.991295,0.009121358,,0.07019164,-0.01707226,0.01561147,0.33846584,0.33616036,0.87888396,-0.69343,-0.54226243,0.47445348,0.63607836,-0.7700307,0.04956627,,0.10792065,1.3464054,0.44467413,0.99666727,-0.0036456813,-0.081493095,-0.055081557,-0.76694727,-0.6393418,-0.06017007,0.64169973,-0.76459205,,-0.075928755,0.2622717,-0.07839073,-0.9963432,-0.061664127,0.059141476,0.084841415,-0.63216394,0.77017576,-0.010105107,0.772377,0.6350839,,-0.0042527947,0.4430331,-0.3112448,-0.3884776,-0.25523946,-0.88540274,-0.10626249,-0.9420516,0.31819344,-0.91531056,0.21769612,0.33884355,,0.9357094832396643,0.35622649928935396,0.20416048984000001,4.096083356026699,-0.07446689237216504,-1.0746117304392653,-0.4057466602775498,,-0.8718270369040791,0.1275100424863209,0.20790417536000003,-0.6678624699982101,-0.6702020313494853,-0.9014142088407997,0.8289711356314671,,-0.042994004461315315,-0.08314748556500987,0.076974014,-0.05200662588628596,,9.628199e-05,9.23872e-06,-1.1920929e-05,1.0,-6.375089e-05,-5.350262e-05,6.375089e-05,0.9999999,-5.0365925e-06,5.3506345e-05,5.00679e-06,1.0,97,0.287,0,0,0.0,False,-0.26255903295711036,1.0003174627644589
0.31676831799268257,16:51:05.015973,16:50:49.173974,0,,0.12169184,0.0014228076,0.01803708,0.98650753,0.14555094,-0.07495134,0.073882945,0.012740046,0.9971854,0.14609617,-0.9892687,0.0018141568,,0.070189245,-0.017073333,0.0156129,0.3384711,0.33615506,0.8788839,-0.69342846,-0.5422637,0.47445422,0.63607717,-0.77003217,0.049558863,,0.10792065,1.3464054,0.44467413,0.99666727,-0.0036456813,-0.081493095,-0.055081557,-0.76694727,-0.6393418,-0.06017007,0.64169973,-0.76459205,,-0.07596865,0.26221058,-0.07873486,-0.9952826,-0.07692891,0.05911392,0.094658665,-0.6364411,0.7654949,-0.02126616,0.7674794,0.6407208,,-0.0042505325,0.44303343,-0.3112467,-0.38848272,-0.25523403,-0.885402,-0.10626259,-0.9420531,0.318189,-0.91530836,0.21769604,0.3388495,,0.9357635423697839,0.3553538304745666,0.20384289879000003,4.088534518061256,-0.08785726934917822,-1.0673683191833414,-0.4042765636823412,,-0.871819314171205,0.1275100424863209,0.20790158278,-0.6678624699982101,-0.6702020313494853,-0.9014142088407998,0.8283177593669302,,-0.042994004461315315,-0.08314748556500987,0.076974014,-0.05200662588628596,,9.628199e-05,9.23872e-06,-1.1920929e-05,1.0,-6.375089e-05,-5.350262e-05,6.375089e-05,0.9999999,-5.0365925e-06,5.3506345e-05,5.00679e-06,1.0,108,0.32,0,0,0.0,False,-0.26196325577190027,0.9995932597527672
0.3463323979958659,16:51:05.053120,16:50:49.173974,0,,0.12164707,0.0011103153,0.018267438,0.9836017,0.16145018,-0.08038344,0.0796765,0.010859042,0.99676156,0.16180022,-0.9868212,-0.00218302,,0.07017638,-0.017078683,0.015614033,0.338615,0.33639377,0.87873715,-0.6934331,-0.54203516,0.47470862,0.6359956,-0.77008885,0.04972531,,0.10792065,1.3464054,0.44467413,0.99666727,-0.0036456813,-0.081493095,-0.055081557,-0.76694727,-0.6393418,-0.06017007,0.64169973,-0.76459205,,-0.07593506,0.26212347,-0.07911434,-0.9935609,-0.0929282,0.06481553,0.109365664,-0.6371969,0.7629019,-0.029594846,0.76507807,0.6432571,,-0.0042377613,0.4430312,-0.31125194,-0.3886182,-0.2554691,-0.88527477,-0.10633145,-0.9419406,0.3184989,-0.91524285,0.21790703,0.33889085,,0.9359952243560106,0.3541568068790618,0.20349938194000003,4.0755337415652155,-0.09974464482877153,-1.0638825458124355,-0.4049299399468783,,-0.8717575323082111,0.12750231975344664,0.20789121246000003,-0.6678624699982101,-0.6700653948497199,-0.9018523417050582,0.8265209746394528,,-0.042994004461315315,-0.08314748556500987,0.076974014,-0.05200662588628596,,9.628199e-05,9.23872e-06,-1.1920929e-05,1.0,-6.375089e-05,-5.350262e-05,6.375089e-05,0.9999999,-5.0365925e-06,5.3506345e-05,5.00679e-06,1.0,119,0.353,0,0,0.0,False,-0.2622015666459845,0.998531095335619
0.3834613979997812,16:51:05.084247,16:50:49.173974,0,,0.121582456,0.00072814524,0.01858373,0.97971827,0.18220854,-0.0833795,0.08364058,0.006264746,0.9964762,0.18208885,-0.98324,-0.0091024935,,0.070162795,-0.017087847,0.015612662,0.33865193,0.33662984,0.87863255,-0.69341105,-0.54191005,0.47488353,0.636,-0.77007365,0.0499039,,0.10792065,1.3464054,0.44467413,0.99666727,-0.0036456813,-0.081493095,-0.055081557,-0.76694727,-0.6393418,-0.06017007,0.64169973,-0.76459205,,-0.07588655,0.26203978,-0.079605155,-0.9911529,-0.11381058,0.06828728,0.1256898,-0.63956505,0.75839216,-0.04263889,0.7602655,0.64821154,,-0.004224009,0.44302455,-0.311258,-0.38865563,-0.25570706,-0.88518965,-0.10631503,-0.9418556,0.3187555,-0.9152289,0.21799509,0.33887202,,0.9364663110613383,0.3526585967014622,0.20305345818,4.061694205295237,-0.11696084379921703,-1.0570316190790559,-0.40525662807914675,,-0.8716880277123431,0.12747142882194976,0.20788473101000002,-0.6678624699982101,-0.6700653948497199,-0.9020156991853394,0.8245608458458416,,-0.042994004461315315,-0.08314748556500987,0.076974014,-0.05200662588628596,,9.628199e-05,9.23872e-06,-1.1920929e-05,1.0,-6.375089e-05,-5.350262e-05,6.375089e-05,0.9999999,-5.0365925e-06,5.3506345e-05,5.00679e-06,1.0,130,0.385,0,0,0.0,False,-0.26351227645344677,0.9951514812810569
0.4146040049963631,16:51:05.114551,16:50:49.381459,0,,0.12141886,0.00032190979,0.01887022,0.976908,0.19515641,-0.08697476,0.08784111,0.0042279363,0.99612546,0.19476801,-0.980763,-0.013012707,,0.07015525,-0.017100379,0.015609562,0.3385574,0.33659643,0.8786817,-0.69336545,-0.5420452,0.47479594,0.63610005,-0.7699932,0.04987085,,0.10792065,1.3464054,0.44467413,0.99666727,-0.0036456813,-0.081493095,-0.055081557,-0.76694727,-0.6393418,-0.06017007,0.64169973,-0.76459205,,-0.075736865,0.26192415,-0.080093116,-0.98929244,-0.12686552,0.07214952,0.13722658,-0.6402536,0.755807,-0.049691852,0.757615,0.6508074,,-0.004216039,0.44301376,-0.31126466,-0.38857156,-0.25567976,-0.8852344,-0.10620715,-0.94189835,0.31866524,-0.9152771,0.21784247,0.3388399,,0.9370686842255278,0.3509441500033844,0.20261660845,4.051419398064495,-0.12761849078092136,-1.0536501406998715,-0.4050932840130125,,-0.8716416913150977,0.12743281515757862,0.20788084214000002,-0.6678624699982101,-0.6702020313494853,-0.9021493175020648,0.8237441255151705,,-0.042994004461315315,-0.08314748556500987,0.076974014,-0.05200662588628596,,9.628199e-05,9.23872e-06,-1.1920929e-05,1.0,-6.375089e-05,-5.350262e-05,6.375089e-05,0.9999999,-5.0365925e-06,5.3506345e-05,5.00679e-06,1.0,141,0.418,0,0,0.0,False,-0.2626781883941529,0.9936065148561142
0.4449087899993174,16:51:05.145302,16:50:49.381459,0,,0.12120024,-6.5431e-05,0.019185469,0.97401965,0.20600444,-0.09406311,0.09579566,0.0015705824,0.99539965,0.20520452,-0.97854984,-0.018204749,,0.07015598,-0.01712349,0.015610039,0.33849296,0.3370836,0.87851983,-0.69318604,-0.54204106,0.4750625,0.63632977,-0.769783,0.050184444,,0.10792065,1.3464054,0.44467413,0.99666727,-0.0036456813,-0.081493095,-0.055081557,-0.76694727,-0.6393418,-0.06017007,0.64169973,-0.76459205,,-0.07553458,0.26184458,-0.080593064,-0.98725736,-0.13779801,0.079590596,0.15018308,-0.64146626,0.7523072,-0.052611757,0.75467396,0.65398717,,-0.004216531,0.442997,-0.3112806,-0.38853133,-0.2561846,-0.88510615,-0.10591575,-0.94178927,0.31908432,-0.91532797,0.21772094,0.33878067,,0.9378564029786987,0.349314653366923,0.20216031437,4.038838001455424,-0.13458695226895884,-1.0491930087134624,-0.40476659588074404,,-0.871618523116475,0.1273246968973395,0.20787436069,-0.6680721599416947,-0.6703386678492508,-0.9024462932990713,0.8211306204570219,,-0.042994004461315315,-0.08314748556500987,0.076974014,-0.05200662588628596,,9.628199e-05,9.23872e-06,-1.1920929e-05,1.0,-6.375089e-05,-5.350262e-05,6.375089e-05,0.9999999,-5.0365925e-06,5.3506345e-05,5.00679e-06,1.0,152,0.451,0,0,0.0,False,-0.2622611443645053,0.991771867226495
0.4756601999979466,16:51:05.177381,16:50:49.381459,0,,0.120950446,-0.0005146861,0.019679338,0.9700371,0.21973574,-0.10365377,0.10643639,-0.00082969666,0.9943191,0.21840145,-0.9755591,-0.02419296,,0.070159316,-0.017152801,0.015609324,0.33838293,0.3368283,0.8786602,-0.69338465,-0.5420108,0.47480714,0.6361719,-0.76991606,0.050144345,,0.10792065,1.3464054,0.44467413,0.99666727,-0.0036456813,-0.081493095,-0.055081557,-0.76694727,-0.6393418,-0.06017007,0.64169973,-0.76459205,,-0.0753126,0.26183474,-0.0812704,-0.9843637,-0.1516643,0.08958829,0.16702901,-0.64214486,0.74816525,-0.0559413,0.7514306,0.65743643,,-0.004219427,0.44297472,-0.31129977,-0.38840443,-0.25591826,-0.8852389,-0.10616011,-0.94183797,0.31885928,-0.9153535,0.21782342,0.33864573,,0.9389066946495932,0.34767743399758744,0.20151994711000001,4.022272495920146,-0.14292177875465073,-1.0437850551703702,-0.40541997214528114,,-0.871618523116475,0.12718568770560346,0.20786658295000002,-0.6676527800547256,-0.6702020313494853,-0.9025577112027677,0.8168836747375305,,-0.042994004461315315,-0.08314748556500987,0.076974014,-0.05200662588628596,,9.628199e-05,9.23872e-06,-1.1920929e-05,1.0,-6.375089e-05,-5.350262e-05,6.375089e-05,0.9999999,-5.0365925e-06,5.3506345e-05,5.00679e-06,1.0,163,0.484,0,0,0.0,False,-0.2618441003348577,0.9897440987937576
0.5077148569980636,16:51:05.209804,16:50:49.381459,0,,0.12081917,-0.0007302463,0.020061165,0.9668847,0.23052582,-0.10950739,0.11324561,-0.0030061603,0.9935624,0.22871262,-0.9730616,-0.029012889,,0.07015339,-0.017184168,0.015594363,0.3391112,0.33651757,0.87849844,-0.6950075,-0.53973144,0.47503096,0.63400954,-0.77165127,0.050853178,,0.10792065,1.3464054,0.44467413,0.99666727,-0.0036456813,-0.081493095,-0.055081557,-0.76694727,-0.6393418,-0.06017007,0.64169973,-0.76459205,,-0.07520471,0.2619241,-0.08170614,-0.9820386,-0.16256617,0.09577246,0.17904665,-0.6428044,0.74481195,-0.05951827,0.7485818,0.66036564,,-0.0042117275,0.44294205,-0.31131038,-0.38890523,-0.25547308,-0.8851476,-0.1088634,-0.94130766,0.31951317,-0.9148232,0.22062051,0.3382678,,0.9397330270671352,0.3470673381005237,0.20108957883000003,4.010529859085013,-0.1497536037429227,-1.0387042324263926,-0.4050932840130126,,-0.8716339685822235,0.1270157875823705,0.20785491634000003,-0.6651365007329113,-0.6680158473532384,-0.9049121488428943,0.8183537713327391,,-0.042994004461315315,-0.08314748556500987,0.076974014,-0.05200662588628596,,9.628199e-05,9.23872e-06,-1.1920929e-05,1.0,-6.375089e-05,-5.350262e-05,6.375089e-05,0.9999999,-5.0365925e-06,5.3506345e-05,5.00679e-06,1.0,174,0.516,0,0,0.0,False,-0.26190367805337944,0.988440533372712
0.5401635210000677,16:51:05.236589,16:50:49.381459,0,,0.12072779,-0.0008112192,0.02030766,0.964564,0.23652777,-0.11692225,0.12078926,-0.0018729866,0.9926763,0.23457655,-0.97162294,-0.030376911,,0.07014692,-0.017222956,0.0155902505,0.33914492,0.33491662,0.879097,-0.69638646,-0.5388919,0.47396338,0.6324766,-0.7729335,0.050468847,,0.10792065,1.3464054,0.44467413,0.99666727,-0.0036456813,-0.081493095,-0.055081557,-0.76694727,-0.6393418,-0.06017007,0.64169973,-0.76459205,,-0.07512937,0.2620265,-0.08195007,-0.980247,-0.16867019,0.103276834,0.18870927,-0.64135283,0.7436769,-0.05919924,0.7484764,0.6605139,,-0.004204424,0.44291124,-0.31133407,-0.38877705,-0.25376862,-0.885694,-0.11091265,-0.941437,0.3184254,-0.9146315,0.22203116,0.33786297,,0.9403276774984505,0.3469437743745361,0.20083680228000003,4.000464741797756,-0.15180315123940433,-1.0373596788315087,-0.4050932840130125,,-0.8716416913150977,0.12684588745913758,0.20783547199000002,-0.662620221411097,-0.6667861188553494,-0.9054248375353188,0.8159036103407251,,-0.042994004461315315,-0.08314748556500987,0.076974014,-0.05200662588628596,,9.628199e-05,9.23872e-06,-1.1920929e-05,1.0,-6.375089e-05,-5.350262e-05,6.375089e-05,0.9999999,-5.0365925e-06,5.3506345e-05,5.00679e-06,1.0,185,0.549,0,0,0.0,False,-0.2620824112089424,0.9875232095579025
0.566944363003131,16:51:05.285031,16:50:49.562443,0,,0.12054756,-0.00069108605,0.020794943,0.95850277,0.25161937,-0.13401538,0.13745996,0.0039203167,0.99049944,0.24975425,-0.96781826,-0.030830175,,0.07015407,-0.017324537,0.015617907,0.3395189,0.33461562,0.87906724,-0.6960504,-0.5392184,0.4740857,0.6326459,-0.772836,0.04983443,,0.10792065,1.3464054,0.44467413,0.99666727,-0.0036456813,-0.081493095,-0.055081557,-0.76694727,-0.6393418,-0.06017007,0.64169973,-0.76459205,,-0.07498518,0.26244247,-0.08225094,-0.9755108,-0.18407723,0.120392166,0.21154638,-0.6353383,0.7426933,-0.060223166,0.74997383,0.65872025,,-0.0042129047,0.44285458,-0.3114227,-0.38916945,-0.2534742,-0.885606,-0.11057875,-0.9415896,0.31809017,-0.91450506,0.22172017,0.33840904,,0.9421888561211387,0.347731493127707,0.20047513737000003,3.9765600882405203,-0.15795179372884915,-1.035776380251073,-0.40476659588074415,,-0.8716571367808462,0.12636707802093566,0.20778232410000003,-0.6632492912415505,-0.6662395728562877,-0.9048903642684176,0.8137801374809792,,-0.042994004461315315,-0.08314748556500987,0.076974014,-0.05200662588628596,,9.628199e-05,9.23872e-06,-1.1920929e-05,1.0,-6.375089e-05,-5.350262e-05,6.375089e-05,0.9999999,-5.0365925e-06,5.3506345e-05,5.00679e-06,1.0,196,0.582,0,0,0.0,False,-0.2626781883941529,0.9856402817275036
0.6153881219943287,16:51:05.308993,16:50:49.562443,0,,0.12040538,-0.0004235357,0.021004438,0.95604396,0.2558528,-0.14324535,0.14600544,0.008277088,0.9892491,0.25428778,-0.9666803,-0.029442817,,0.07015823,-0.017383248,0.015634596,0.33958182,0.3348661,0.8789475,-0.6958528,-0.53928304,0.47430205,0.63282937,-0.7726824,0.04988675,,0.10792065,1.3464054,0.44467413,0.99666727,-0.0036456813,-0.081493095,-0.055081557,-0.76694727,-0.6393418,-0.06017007,0.64169973,-0.76459205,,-0.07486202,0.26278955,-0.08224333,-0.97350496,-0.18844654,0.12952235,0.22112255,-0.6315234,0.7431575,-0.05824906,0.7521078,0.6564609,,-0.004217898,0.44282237,-0.31147447,-0.38925186,-0.25373727,-0.8854944,-0.110314436,-0.941552,0.3182933,-0.9145019,0.22157907,0.33850995,,0.9436947890316124,0.3488512893944696,0.20042069319000003,3.9656562111793248,-0.1580884302286146,-1.0360733560480795,-0.40525662807914664,,-0.8716648595137204,0.1260967823703378,0.20775121314000003,-0.663458981185035,-0.6661029363565222,-0.9050834609122547,0.8123100408857706,,-0.042994004461315315,-0.08314748556500987,0.076974014,-0.05200662588628596,,9.628199e-05,9.23872e-06,-1.1920929e-05,1.0,-6.375089e-05,-5.350262e-05,6.375089e-05,0.9999999,-5.0365925e-06,5.3506345e-05,5.00679e-06,1.0,207,0.615,0,0,0.0,False,-0.26232072208302704,0.9845781173103556
0.6393021160038188,16:51:05.337133,16:50:49.562443,0,,0.120311216,-0.00020548701,0.021117687,0.9560617,0.25500053,-0.1446403,0.14687641,0.010356545,0.9891006,0.25371912,-0.96688545,-0.027552307,,0.070161715,-0.017432898,0.01565063,0.33955547,0.33498958,0.87891066,-0.6956545,-0.5394759,0.4743737,0.63306147,-0.7724943,0.049854964,,0.10792065,1.3464054,0.44467413,0.99666727,-0.0036456813,-0.081493095,-0.055081557,-0.76694727,-0.6393418,-0.06017007,0.64169973,-0.76459205,,-0.07477932,0.2630341,-0.08219245,-0.9734968,-0.18761459,0.13078529,0.22141872,-0.6300224,0.7443423,-0.05725182,0.7535732,0.65486616,,-0.004222271,0.44279638,-0.31151962,-0.38924998,-0.25387558,-0.8854556,-0.11001032,-0.94157606,0.31832728,-0.91453934,0.22131814,0.33857954,,0.9447528034353811,0.349762571873628,0.20042587835000003,3.9646077614619024,-0.15726861123002195,-1.0368235422103989,-0.40541997214528125,,-0.8716725822465946,0.12587282311698528,0.20772399105000003,-0.6636686711285196,-0.6661029363565222,-0.9050834609122547,0.8119833527535023,,-0.042994004461315315,-0.08314748556500987,0.076974014,-0.05200662588628596,,9.628199e-05,9.23872e-06,-1.1920929e-05,1.0,-6.375089e-05,-5.350262e-05,6.375089e-05,0.9999999,-5.0365925e-06,5.3506345e-05,5.00679e-06,1.0,218,0.647,0,0,0.0,False,-0.2631548101423209,0.9826951894799565
0.6674772190017393,16:51:05.372153,16:50:49.562443,0,,0.12014925,0.0002733171,0.021328539,0.955279,0.25586003,-0.14824894,0.14970618,0.013885081,0.9886329,0.25501013,-0.9666141,-0.02504,,0.070165485,-0.017464742,0.015669286,0.33957675,0.33469993,0.87901276,-0.6956281,-0.53965044,0.4742139,0.6330791,-0.7724979,0.04957387,,0.10792065,1.3464054,0.44467413,0.99666727,-0.0036456813,-0.081493095,-0.055081557,-0.76694727,-0.6393418,-0.06017007,0.64169973,-0.76459205,,-0.0746398,0.2635442,-0.08205002,-0.9728494,-0.18854566,0.13421828,0.22445247,-0.62720656,0.7458103,-0.05643671,0.75568676,0.6524971,,-0.004227398,0.44278526,-0.31155467,-0.38927317,-0.25358474,-0.88552874,-0.10998057,-0.94168574,0.31801295,-0.914533,0.22118486,0.3386836,,0.9468611095100444,0.3517241460236811,0.20047384108000002,3.9602042726487268,-0.15713197473025653,-1.0368532813739546,-0.40525662807914664,,-0.8717111959109658,0.12573381392524924,0.20769936154000002,-0.6636686711285196,-0.6659662998567567,-0.9047864851152483,0.8078997511001451,,-0.042994004461315315,-0.08314748556500987,0.076974014,-0.05200662588628596,,9.628199e-05,9.23872e-06,-1.1920929e-05,1.0,-6.375089e-05,-5.350262e-05,6.375089e-05,0.9999999,-5.0365925e-06,5.3506345e-05,5.00679e-06,1.0,226,0.671,0,0,0.0,False,-0.2621419889274632,0.9816330250628083
0.7025120670004981,16:51:05.392399,16:50:49.562443,0,,0.12002145,0.0005995333,0.021423787,0.95441586,0.25602683,-0.1534296,0.15409788,0.0175744,0.9878991,0.25562516,-0.96650994,-0.022680104,,0.070164844,-0.01747568,0.015680373,0.33954886,0.33477712,0.87899417,-0.69561666,-0.539641,0.47424132,0.6331066,-0.7724711,0.049641997,,0.10792065,1.3464054,0.44467413,0.99666727,-0.0036456813,-0.081493095,-0.055081557,-0.76694727,-0.6393418,-0.06017007,0.64169973,-0.76459205,,-0.07452399,0.2638615,-0.081916876,-0.9720994,-0.18877667,0.139234,0.22824539,-0.6243367,0.7470661,-0.054099753,0.758002,0.65000474,,-0.0042276685,0.44278473,-0.31157023,-0.38924813,-0.25366426,-0.885517,-0.1099516,-0.94166636,0.31808037,-0.91454715,0.22117619,0.3386511,,0.9478110056535741,0.35256592390697156,0.20052569268,3.957478303383428,-0.15617551923189843,-1.0376332066998295,-0.4050932840130125,,-0.8717266413767142,0.12569520026087813,0.20768639864000002,-0.6636686711285196,-0.6659662998567567,-0.9048681638553888,0.8087164714308166,,-0.042994004461315315,-0.08314748556500987,0.076974014,-0.05200662588628596,,9.628199e-05,9.23872e-06,-1.1920929e-05,1.0,-6.375089e-05,-5.350262e-05,6.375089e-05,0.9999999,-5.0365925e-06,5.3506345e-05,5.00679e-06,1.0,237,0.704,0,0,0.0,False,-0.26333354329788383,0.9809571022518961
0.7227596150041791,16:51:05.430095,16:50:49.701349,0,,0.11991353,0.00082989037,0.021495655,0.95445627,0.2552599,-0.15445232,0.15468496,0.019290894,0.9877753,0.25511897,-0.96668005,-0.021072835,,0.07016516,-0.017478317,0.015688777,0.33961475,0.33479163,0.8789632,-0.69550025,-0.5397318,0.4743087,0.63319916,-0.77240133,0.049546733,,0.10792065,1.3464054,0.44467413,0.99666727,-0.0036456813,-0.081493095,-0.055081557,-0.76694727,-0.6393418,-0.06017007,0.64169973,-0.76459205,,-0.074424915,0.26408955,-0.08182711,-0.9721139,-0.18802664,0.14014487,0.2283642,-0.6230946,0.74806607,-0.053332828,0.7592095,0.6486575,,-0.004228744,0.44278845,-0.31157818,-0.3893239,-0.25368416,-0.88547796,-0.10980848,-0.9416872,0.318068,-0.9145321,0.22106446,0.33876467,,0.9493709976941674,0.3537706702353506,0.20059698863000003,3.9543329542311603,-0.1550824272337749,-1.0384428711892604,-0.4050932840130125,,-0.8717420868424627,0.12568747752800388,0.20767862090000003,-0.6638783610720042,-0.6659662998567567,-0.9047048063751078,0.807736407034011,,-0.042994004461315315,-0.08314748556500987,0.076974014,-0.05200662588628596,,9.628199e-05,9.23872e-06,-1.1920929e-05,1.0,-6.375089e-05,-5.350262e-05,6.375089e-05,0.9999999,-5.0365925e-06,5.3506345e-05,5.00679e-06,1.0,248,0.737,0,0,0.0,False,-0.26243987752006825,0.9801846190394246
0.7604427799960831,16:51:05.469516,16:50:49.701349,0,,0.11977373,0.0010003,0.021559536,0.95242393,0.2573825,-0.16322637,0.16288608,0.022794336,0.9863814,0.25759798,-0.96604073,-0.020214409,,0.07016372,-0.01747547,0.015692174,0.33970153,0.33487043,0.87889963,-0.69538957,-0.53976727,0.47443074,0.63327426,-0.7723424,0.049505576,,0.10792065,1.3464054,0.44467413,0.99666727,-0.0036456813,-0.081493095,-0.055081557,-0.76694727,-0.6393418,-0.06017007,0.64169973,-0.76459205,,-0.074292526,0.26426855,-0.08177144,-0.97038585,-0.19024268,0.1488591,0.23632893,-0.62013215,0.74805397,-0.049999483,0.7610807,0.6467273,,-0.004227668,0.44279292,-0.3115788,-0.38941872,-0.25376773,-0.88541234,-0.109682806,-0.94167936,0.31813467,-0.91450685,0.2210021,0.33887362,,0.9504135666321878,0.35424947967355247,0.20062291443000002,3.945106596717841,-0.15357942573635508,-1.0391783956890777,-0.405419972145281,,-0.8717420868424627,0.12570292299375235,0.20767602832,-0.6640880510154886,-0.6659662998567567,-0.9046231276349671,0.8067563426372051,,-0.042994004461315315,-0.08314748556500987,0.076974014,-0.05200662588628596,,9.628199e-05,9.23872e-06,-1.1920929e-05,1.0,-6.375089e-05,-5.350262e-05,6.375089e-05,0.9999999,-5.0365925e-06,5.3506345e-05,5.00679e-06,1.0,259,0.769,0,0,0.0,False,-0.26285692154971585,0.9783499714098054
0.7998748980025994,16:51:05.502027,16:50:49.701349,0,,0.119637616,0.0011307448,0.021625072,0.95242935,0.2552842,-0.16645783,0.16552797,0.02528137,0.98588085,0.2558881,-0.96653545,-0.018178225,,0.07016188,-0.017476156,0.015692532,0.33970678,0.33479333,0.878927,-0.6953881,-0.5398072,0.47438744,0.63327307,-0.7723479,0.049435005,,0.10792065,1.3464054,0.44467413,0.99666727,-0.0036456813,-0.081493095,-0.055081557,-0.76694727,-0.6393418,-0.06017007,0.64169973,-0.76459205,,-0.074163325,0.26441795,-0.081742726,-0.9703141,-0.18815412,0.15194935,0.23723975,-0.6184367,0.7491684,-0.046988063,0.7629771,0.6447155,,-0.0042258548,0.44279277,-0.3115796,-0.38942385,-0.25368994,-0.88543236,-0.1096829,-0.94170684,0.3180533,-0.91450465,0.22097434,0.33889768,,0.9513557400428432,0.35465106178301214,0.20062680330000002,3.9432193872264807,-0.15111996874057715,-1.040857202995051,-0.40460325181460954,,-0.8717343641095884,0.12570292299375235,0.20767473203000003,-0.6640880510154886,-0.6659662998567567,-0.9045414488948267,0.8047962138435938,,-0.042994004461315315,-0.08314748556500987,0.076974014,-0.05200662588628596,,9.628199e-05,9.23872e-06,-1.1920929e-05,1.0,-6.375089e-05,-5.350262e-05,6.375089e-05,0.9999999,-5.0365925e-06,5.3506345e-05,5.00679e-06,1.0,277,0.824,0,0,0.0,False,-0.2618441003348577,0.9779637298035697
0.832390701994882,16:51:05.551256,16:50:49.701349,0,,0.11933683,0.0015501827,0.021861583,0.9527105,0.25231987,-0.16934371,0.16724943,0.029888272,0.98546135,0.25371286,-0.9671823,-0.013725728,,0.07016271,-0.017474443,0.015693545,0.33970502,0.33494326,0.87887055,-0.69539243,-0.53972214,0.4744779,0.63326925,-0.7723423,0.04957062,,0.10792065,1.3464054,0.44467413,0.99666727,-0.0036456813,-0.081493095,-0.055081557,-0.76694727,-0.6393418,-0.06017007,0.64169973,-0.76459205,,-0.073886186,0.26490718,-0.08166416,-0.9704708,-0.1852242,0.15452638,0.23713331,-0.61517435,0.75188315,-0.04420629,0.76632404,0.6409316,,-0.004226812,0.44279468,-0.3115792,-0.3894217,-0.25384077,-0.8853901,-0.10968856,-0.94165146,0.31821528,-0.9145049,0.22103709,0.33885607,,0.9539891919529537,0.3561647174263602,0.20062550701,3.941541867678604,-0.14907042124409553,-1.0430185439913406,-0.4050932840130126,,-0.8717420868424627,0.12571064572662657,0.20767473203000003,-0.6640880510154886,-0.6659662998567567,-0.9047048063751078,0.8044695257113252,,-0.042994004461315315,-0.08314748556500987,0.076974014,-0.05200662588628596,,9.628199e-05,9.23872e-06,-1.1920929e-05,1.0,-6.375089e-05,-5.350262e-05,6.375089e-05,0.9999999,-5.0365925e-06,5.3506345e-05,5.00679e-06,1.0,288,0.856,0,0,0.0,False,-0.26202283349042155,0.9781568506066876
0.8815925090020755,16:51:05.589086,16:50:49.854565,0,,0.11912012,0.0019507855,0.022095546,0.95284444,0.25210845,-0.16890442,0.16589901,0.03329113,0.98558056,0.2540962,-0.96712613,-0.010103494,,0.07016188,-0.017476156,0.015692532,0.33970678,0.3348651,0.87889963,-0.6953881,-0.5397685,0.4744315,0.63327307,-0.7723439,0.04949811,,0.10792065,1.3464054,0.44467413,0.99666727,-0.0036456813,-0.081493095,-0.055081557,-0.76694727,-0.6393418,-0.06017007,0.64169973,-0.76459205,,-0.073692456,0.26537567,-0.08159228,-0.9706099,-0.18507019,0.15383568,0.23634359,-0.6125325,0.75428486,-0.045366276,0.7684744,0.63827026,,-0.0042258548,0.44279277,-0.3115796,-0.38942385,-0.25376225,-0.8854116,-0.1096829,-0.94168085,0.31813022,-0.91450465,0.22100201,0.33887962,,0.956306011815221,0.3576938185354566,0.20062291443000002,3.94133217773512,-0.15057342274151536,-1.0439165942943345,-0.4077067890711611,,-0.8717343641095884,0.12570292299375235,0.20767473203000003,-0.6640880510154886,-0.6659662998567567,-0.9046231276349672,0.8046328697774596,,-0.042994004461315315,-0.08314748556500987,0.076974014,-0.05200662588628596,,9.628199e-05,9.23872e-06,-1.1920929e-05,1.0,-6.375089e-05,-5.350262e-05,6.375089e-05,0.9999999,-5.0365925e-06,5.3506345e-05,5.00679e-06,1.0,303,0.9,0,0,0.0,False,-0.2617249448978165,0.9779154496027902
0.9194404390000273,16:51:05.623439,16:50:49.854565,0,,0.11881523,0.0025702417,0.02247177,0.9517371,0.25618112,-0.16901985,0.16435693,0.039666772,0.9856029,0.25919735,-0.9658146,-0.004353076,,0.07016133,-0.017476574,0.015693605,0.33970678,0.3349369,0.8788723,-0.6953881,-0.5397297,0.4744756,0.63327307,-0.7723398,0.049561203,,0.10792065,1.3464054,0.44467413,0.99666727,-0.0036456813,-0.081493095,-0.055081557,-0.76694727,-0.6393418,-0.06017007,0.64169973,-0.76459205,,-0.073424004,0.2661077,-0.08149082,-0.96983427,-0.1893226,0.15355258,0.23852026,-0.6070577,0.75801647,-0.05029438,0.7717758,0.63390267,,-0.004225406,0.44279325,-0.31158075,-0.38942385,-0.25383458,-0.88539094,-0.1096829,-0.94165486,0.31820714,-0.91450465,0.2210297,0.33886155,,0.959881637135987,0.3600260838634724,0.20061384040000002,3.9379771386393676,-0.15658542873119474,-1.0452217907823749,-0.4057466602775498,,-0.8717343641095884,0.12570292299375235,0.20767343574000002,-0.6640880510154886,-0.6659662998567567,-0.9047048063751076,0.8047962138435938,,-0.042994004461315315,-0.08314748556500987,0.076974014,-0.05200662588628596,,9.628199e-05,9.23872e-06,-1.1920929e-05,1.0,-6.375089e-05,-5.350262e-05,6.375089e-05,0.9999999,-5.0365925e-06,5.3506345e-05,5.00679e-06,1.0,314,0.933,0,0,0.0,False,-0.2622015666459845,0.9765636039809653
0.9537960790039506,16:51:05.656384,16:50:49.854565,0,,0.11855257,0.0029981732,0.022733957,0.95076025,0.2581398,-0.17151918,0.16625339,0.042262524,0.9851769,0.26156217,-0.9651828,-0.0027353466,,0.07016346,-0.017474607,0.015695453,0.33969977,0.33473325,0.8789525,-0.6953939,-0.5398372,0.47434485,0.63327044,-0.77235305,0.04938884,,0.10792065,1.3464054,0.44467413,0.99666727,-0.0036456813,-0.081493095,-0.055081557,-0.76694727,-0.6393418,-0.06017007,0.64169973,-0.76459205,,-0.073186815,0.26661783,-0.081424676,-0.96905303,-0.19136046,0.1559403,0.24154602,-0.60478264,0.75887644,-0.050908953,0.7730583,0.6322889,,-0.004227727,0.44279578,-0.31158066,-0.38941658,-0.2536293,-0.8854529,-0.10968845,-0.94172794,0.317989,-0.9145071,0.22095415,0.33890423,,0.9625150890460975,0.3615783531711915,0.20060476637000002,3.9335736498261924,-0.1583617032281455,-1.0441000729948837,-0.4050932840130126,,-0.8717498095753369,0.12571064572662657,0.20767343574000002,-0.6640880510154886,-0.6659662998567567,-0.904459770154686,0.8026727409838481,,-0.042994004461315315,-0.08314748556500987,0.076974014,-0.05200662588628596,,9.628199e-05,9.23872e-06,-1.1920929e-05,1.0,-6.375089e-05,-5.350262e-05,6.375089e-05,0.9999999,-5.0365925e-06,5.3506345e-05,5.00679e-06,1.0,321,0.955,0,0,0.0,False,-0.2623802998015474,0.976515323780186
0.9867460200039204,16:51:05.678148,16:50:49.854565,0,,0.118337154,0.003337115,0.0229356,0.95070755,0.25955412,-0.16966668,0.16430116,0.042395562,0.98549867,0.26298338,-0.9647975,-0.002339512,,0.07016215,-0.017475292,0.01569295,0.3396252,0.33472297,0.8789853,-0.6955089,-0.53975147,0.47427368,0.6331841,-0.77241737,0.049489573,,0.10792065,1.3464054,0.44467413,0.99666727,-0.0036456813,-0.081493095,-0.055081557,-0.76694727,-0.6393418,-0.06017007,0.64169973,-0.76459205,,-0.07299116,0.2670184,-0.08136802,-0.96906847,-0.19279999,0.15406007,0.24097739,-0.60451293,0.75927204,-0.05325634,0.77291155,0.63227487,,-0.0042261765,0.4427937,-0.31157935,-0.38933277,-0.25361407,-0.8854942,-0.10982574,-0.9417075,0.31800213,-0.9145263,0.2210587,0.33878422,,0.964700622449503,0.36274448583519947,0.20060606266000003,3.9333639598827084,-0.1612310697232197,-1.0418419757573993,-0.4049299399468784,,-0.8717420868424627,0.12571064572662657,0.20767473203000003,-0.6638783610720042,-0.6659662998567567,-0.904623127634967,0.8026727409838481,,-0.042994004461315315,-0.08314748556500987,0.076974014,-0.05200662588628596,,9.628199e-05,9.23872e-06,-1.1920929e-05,1.0,-6.375089e-05,-5.350262e-05,6.375089e-05,0.9999999,-5.0365925e-06,5.3506345e-05,5.00679e-06,1.0,348,1.037,1,1,0.073,False,-0.26160578946077395,0.9759359613708323
1.0084974710043753,16:51:05.754902,16:50:50.008077,0,,0.11823787,0.0036689937,0.02314639,0.94533217,0.2792461,-0.16843013,0.162987,0.042775214,0.9857005,0.28245765,-0.9592663,-0.005076885,,0.070160374,-0.017474487,0.015690744,0.33955407,0.33478564,0.87898886,-0.6956268,-0.5396207,0.47424966,0.63309276,-0.77248156,0.049655363,,0.10792065,1.3464054,0.44467413,0.99666727,-0.0036456813,-0.081493095,-0.055081557,-0.76694727,-0.6393418,-0.06017007,0.64169973,-0.76459205,,-0.07291188,0.2674129,-0.081317954,-0.9650337,-0.21283099,0.1530129,0.2528377,-0.60177195,0.75759065,-0.06915989,0.7697879,0.6345419,,-0.004224219,0.44279292,-0.31157732,-0.3892519,-0.25367197,-0.8855131,-0.10996877,-0.9416591,0.31809586,-0.9145435,0.2211982,0.3386466,,0.9668012057912921,0.36361715464998684,0.20061902556000002,3.922250392878028,-0.1796769971915542,-1.0351317902527197,-0.40607334840981824,,-0.8717343641095884,0.1257183684595008,0.20767602832,-0.6636686711285196,-0.6659662998567567,-0.9048681638553887,0.8021827087854452,,-0.042994004461315315,-0.08314748556500987,0.076974014,-0.05200662588628596,,9.628199e-05,9.23872e-06,-1.1920929e-05,1.0,-6.375089e-05,-5.350262e-05,6.375089e-05,0.9999999,-5.0365925e-06,5.3506345e-05,5.00679e-06,1.0,356,1.06,1,1,0.096,False,-0.26243987752006825,0.9750669177568021
1.0852604419924319,16:51:05.789011,16:50:50.008077,0,,0.118298925,0.0036952347,0.02317363,0.9419071,0.28910992,-0.17095752,0.1643565,0.04714945,0.9852734,0.29291287,-0.9561342,-0.003106892,,0.07016167,-0.017474264,0.015691578,0.33954883,0.33486277,0.87896156,-0.6956283,-0.5395807,0.47429293,0.63309395,-0.7724761,0.04972589,,0.10792065,1.3464054,0.44467413,0.99666727,-0.0036456813,-0.081493095,-0.055081557,-0.76694727,-0.6393418,-0.06017007,0.64169973,-0.76459205,,-0.072975084,0.26744702,-0.0813191,-0.96236205,-0.22295481,0.15540428,0.26081735,-0.59697664,0.7586786,-0.076378316,0.77065563,0.6326581,,-0.004225583,0.44279355,-0.31157765,-0.38924676,-0.25374976,-0.8854931,-0.10996866,-0.9416316,0.31817722,-0.9145457,0.22122595,0.33862254,,0.9668475421885375,0.3636094319171126,0.20062161814,3.9149112448560697,-0.18814846017701148,-1.0363917542375978,-0.4062366924759526,,-0.8717420868424627,0.1257183684595008,0.20767602832,-0.6636686711285196,-0.6659662998567567,-0.9049498425955295,0.8013659884547741,,-0.042994004461315315,-0.08314748556500987,0.076974014,-0.05200662588628596,,9.628199e-05,9.23872e-06,-1.1920929e-05,1.0,-6.375089e-05,-5.350262e-05,6.375089e-05,0.9999999,-5.0365925e-06,5.3506345e-05,5.00679e-06,1.0,401,1.199,1,1,0.235,False,-0.26255903295711036,0.9745358355482281
1.1193582949927077,16:51:05.921195,16:50:50.206832,0,,0.1185982,0.0039619207,0.023588717,0.9225193,0.3445114,-0.17398268,0.16819243,0.046876162,0.9846389,0.34737498,-0.9376111,-0.014700264,,0.07015996,-0.017473638,0.015689969,0.33966422,0.33463168,0.87900496,-0.69564474,-0.5396094,0.47423625,0.63301396,-0.7725562,0.049498707,,0.10792065,1.3464054,0.44467413,0.99666727,-0.0036456813,-0.081493095,-0.055081557,-0.76694727,-0.6393418,-0.06017007,0.64169973,-0.76459205,,-0.07330648,0.267901,-0.081449695,-0.9468514,-0.27949423,0.15923391,0.29995784,-0.588378,0.75089055,-0.11617984,0.7587452,0.64094305,,-0.0042237346,0.44279307,-0.3115762,-0.38935387,-0.25351182,-0.88551414,-0.110043086,-0.9416898,0.31797934,-0.9144912,0.22125119,0.33875334,,0.9678360519964382,0.364551605327768,0.20047902624000002,3.878005814802793,-0.23392168759843407,-1.0174444730309231,-0.406400036542087,,-0.8717343641095884,0.1257183684595008,0.20767602832,-0.6636686711285196,-0.6658296633569913,-0.9047345455386635,0.7987524833966255,,-0.042994004461315315,-0.08314748556500987,0.076974014,-0.05200662588628596,,9.628199e-05,9.23872e-06,-1.1920929e-05,1.0,-6.375089e-05,-5.350262e-05,6.375089e-05,0.9999999,-5.0365925e-06,5.3506345e-05,5.00679e-06,1.0,409,1.224,1,1,0.26,False,-0.26202283349042155,0.9723149463123728
1.2515541530010523,16:51:05.952291,16:50:50.206832,0,,0.118560955,0.0039762408,0.023757577,0.91878444,0.3539739,-0.17474982,0.16933471,0.046479315,0.98446184,0.35659608,-0.9340997,-0.017235816,,0.070163965,-0.017471924,0.01569122,0.339895,0.33515313,0.87871706,-0.6952938,-0.53960395,0.47475672,0.6332755,-0.772334,0.04962115,,0.10792065,1.3464054,0.44467413,0.99666727,-0.0036456813,-0.081493095,-0.055081557,-0.76694727,-0.6393418,-0.06017007,0.64169973,-0.76459205,,-0.073281236,0.26802292,-0.08157056,-0.9437818,-0.2891697,0.16017732,0.30698606,-0.5869521,0.74916404,-0.12261913,0.7562196,0.64272577,,-0.004227862,0.44279486,-0.31157568,-0.38961262,-0.25405195,-0.8852455,-0.10962564,-0.94157416,0.31846562,-0.9144311,0.22112383,0.33899856,,0.9684847615578731,0.36457477352639067,0.20035717498000002,3.8708763567243194,-0.2418466045848296,-1.0132692393404663,-0.40656338060822117,,-0.8717420868424627,0.12571064572662657,0.20767732461000002,-0.6642977409589732,-0.6658296633569913,-0.9048162242788041,0.7985891393304914,,-0.042994004461315315,-0.08314748556500987,0.076974014,-0.05200662588628596,,9.628199e-05,9.23872e-06,-1.1920929e-05,1.0,-6.375089e-05,-5.350262e-05,6.375089e-05,0.9999999,-5.0365925e-06,5.3506345e-05,5.00679e-06,1.0,417,1.249,1,1,0.285,False,-0.26160578946077395,0.9722183859108142
1.2826537179935258,16:51:05.978890,16:50:50.206832,0,,0.11856289,0.0039510876,0.023989514,0.9138006,0.36665705,-0.17473128,0.16920087,0.047446012,0.9844388,0.3692417,-0.9291456,-0.018682629,,0.070197485,-0.017484874,0.015741885,0.33736804,0.3368446,0.879044,-0.69072926,-0.54586154,0.4742658,0.6395904,-0.76718354,0.04851213,,0.10792065,1.3464054,0.44467413,0.99666727,-0.0036456813,-0.081493095,-0.055081557,-0.76694727,-0.6393418,-0.06017007,0.64169973,-0.76459205,,-0.07329883,0.2681532,-0.0817633,-0.93968344,-0.30217874,0.1602593,0.31532055,-0.5837389,0.74821246,-0.1325443,0.75361586,0.64381295,,-0.0042658546,0.442817,-0.31161952,-0.38774967,-0.25614524,-0.8854602,-0.10183036,-0.9428308,0.31733364,-0.9161227,0.21321274,0.33949897,,0.9690485210576915,0.36454388259489373,0.20016921293,3.8626984489284233,-0.25346070706489204,-1.0095979080762505,-0.40721675687275827,,-0.8717111959109658,0.12571064572662657,0.20767991719,-0.671007819150478,-0.6721149423462015,-0.899445964488347,0.7987524833966255,,-0.042994004461315315,-0.08314748556500987,0.076974014,-0.05200662588628596,,9.628199e-05,9.23872e-06,-1.1920929e-05,1.0,-6.375089e-05,-5.350262e-05,6.375089e-05,0.9999999,-5.0365925e-06,5.3506345e-05,5.00679e-06,1.0,458,1.376,1,1,0.412,False,-0.2616653671792948,0.9708182600882096
1.309216280002147,16:51:06.093809,16:50:50.364744,0,,0.11868496,0.0037339926,0.025446206,0.8832872,0.4371112,-0.1695215,0.15608117,0.06679326,0.98548317,0.44208866,-0.8969239,-0.009227425,,0.07019025,-0.01749888,0.015741765,0.33662355,0.33854967,0.8786744,-0.69005185,-0.5462336,0.47482318,0.64071286,-0.7661675,0.0497417,,0.10792065,1.3464054,0.44467413,0.99666727,-0.0036456813,-0.081493095,-0.055081557,-0.76694727,-0.6393418,-0.06017007,0.64169973,-0.76459205,,-0.073518,0.26892012,-0.08300739,-0.91408336,-0.3749863,0.15439212,0.35402215,-0.55220413,0.7548105,-0.19778763,0.74461794,0.63751405,,-0.004258472,0.44280714,-0.31162938,-0.3871229,-0.25793397,-0.88521516,-0.10052172,-0.9425445,0.31859884,-0.91653216,0.21232025,0.3389526,,0.9719677140841484,0.3643971506702835,0.19897792242,3.823905809383786,-0.32792759943705707,-1.0035999064558776,-0.4062366924759526,,-0.871618523116475,0.12567975479512966,0.20767991719,-0.671846578924416,-0.6734813073438559,-0.9003737539548969,0.7910753122883143,,-0.042994004461315315,-0.08314748556500987,0.076974014,-0.05200662588628596,,9.628199e-05,9.23872e-06,-1.1920929e-05,1.0,-6.375089e-05,-5.350262e-05,6.375089e-05,0.9999999,-5.0365925e-06,5.3506345e-05,5.00679e-06,1.0,466,1.4,1,1,0.436,False,-0.2621419889274632,0.9644452735853215
1.4241264440061059,16:51:06.122588,16:50:50.364744,0,,0.11868775,0.003703922,0.025731012,0.8766184,0.4505641,-0.16891447,0.15130037,0.07513726,0.985628,0.45678037,-0.88957655,-0.0023038983,,0.07020143,-0.017504528,0.015736341,0.33662274,0.3384732,0.8787041,-0.6900392,-0.54629064,0.4747761,0.64072686,-0.7661607,0.049665928,,0.10790885,1.3464074,0.44466993,0.9966676,-0.0036406557,-0.0814889,-0.055075023,-0.7669473,-0.6393423,-0.06017007,0.64169973,-0.76459205,,-0.07352942,0.26908445,-0.083246596,-0.9083745,-0.38904402,0.15329881,0.36022487,-0.54187036,0.75935143,-0.21235304,0.7449975,0.6323645,,-0.0042583277,0.44280267,-0.31163126,-0.38711923,-0.25785396,-0.8852401,-0.100504495,-0.9425776,0.31850636,-0.9165356,0.21227054,0.33897445,,0.9727399873715707,0.3642813096771701,0.19877051602,3.8178248010227347,-0.34364079691008276,-1.00687755933848,-0.40803347720342953,,-0.8716108003836008,0.125656586596507,0.20767991719,-0.671846578924416,-0.6734813073438559,-0.9002920752147564,0.7909119682221801,,-0.042994004461315315,-0.08314748556500987,0.076974014,-0.05200662588628596,,8.468144e-05,5.1259995e-06,-9.059906e-06,1.0,-5.8736652e-05,-4.929304e-05,5.8740377e-05,1.0,-4.61936e-06,4.9296767e-05,4.6491623e-06,1.0,474,1.425,1,1,0.461,False,-0.26196325577190027,0.9634796695697321
1.452934486005688,16:51:06.155438,16:50:50.364744,0,,0.11839752,0.0035418123,0.026389867,0.8677808,0.46614012,-0.17224906,0.15058905,0.0836567,0.9850505,0.47358137,-0.88074684,0.0023999512,,0.070239514,-0.017491147,0.015727699,0.33674288,0.33864298,0.87859267,-0.6900135,-0.54615206,0.4749729,0.6406915,-0.7661845,0.04975541,,0.10790885,1.3464074,0.44466993,0.9966676,-0.0036406557,-0.0814889,-0.055075023,-0.7669473,-0.6393423,-0.06017007,0.64169973,-0.76459205,,-0.07328299,0.26940218,-0.0838654,-0.9007107,-0.40532446,0.15630852,0.37101695,-0.5305651,0.7621333,-0.22597942,0.7444547,0.6282679,,-0.004295595,0.44280392,-0.31161353,-0.3872358,-0.2580224,-0.88514006,-0.100518174,-0.9425041,0.3187195,-0.9164849,0.21239226,0.33903536,,0.9748714616448567,0.3637793320403455,0.19816255601000002,3.805033714470179,-0.3608569958805282,-1.0072960404776103,-0.4081968212695639,,-0.8716030776507266,0.1255948047335132,0.20767732461000002,-0.671846578924416,-0.6733446708440904,-0.900566850598734,0.7909119682221799,,-0.042994004461315315,-0.08314748556500987,0.076974014,-0.05200662588628596,,8.468144e-05,5.1259995e-06,-9.059906e-06,1.0,-5.8736652e-05,-4.929304e-05,5.8740377e-05,1.0,-4.61936e-06,4.9296767e-05,4.6491623e-06,1.0,515,1.552,1,1,0.588,False,-0.2616653671792948,0.9629968675619374
1.4857996140053729,16:51:06.280312,16:50:50.572886,0,,0.11810057,0.002700135,0.02811037,0.8438544,0.5121256,-0.16011533,0.14117181,0.07598856,0.9870645,0.51766795,-0.85554266,-0.008174568,,0.070236176,-0.017544419,0.015738249,0.3346077,0.34063208,0.8786395,-0.6869469,-0.55009484,0.47486788,0.64509034,-0.76247317,0.04993017,,0.10790885,1.3464074,0.44466993,0.9966676,-0.0036406557,-0.0814889,-0.055075023,-0.7669473,-0.6393423,-0.06017007,0.64169973,-0.76459205,,-0.07309274,0.26988688,-0.08573239,-0.8797485,-0.45281878,0.14490569,0.39362225,-0.5227618,0.75616246,-0.2666534,0.7222709,0.6381385,,-0.0042926115,0.4427721,-0.31165755,-0.3855635,-0.26030448,-0.8852019,-0.09514383,-0.94304925,0.31875658,-0.91776276,0.2071224,0.338839,,0.9779837229931693,0.3615551849725689,0.19641645338000002,3.778612781591129,-0.40990949929632137,-0.9815907925751934,-0.4055833162114153,,-0.8713713956644998,0.12541718187740603,0.20767602832,-0.6760403777941065,-0.6779903118361155,-0.8982488591955855,0.7873183987672259,,-0.042994004461315315,-0.08314748556500987,0.076974014,-0.05200662588628596,,8.468144e-05,5.1259995e-06,-9.059906e-06,1.0,-5.8736652e-05,-4.929304e-05,5.8740377e-05,1.0,-4.61936e-06,4.9296767e-05,4.6491623e-06,1.0,527,1.589,1,1,0.625,False,-0.26297607698675796,0.9599069347120521
1.61066261799715,16:51:06.310646,16:50:50.572886,0,,0.11813255,0.002479285,0.02837415,0.8402152,0.5190762,-0.15683818,0.13902166,0.073361695,0.98756826,0.52412915,-0.8515738,-0.010523349,,0.07027029,-0.017554924,0.015796542,0.33209723,0.3428864,0.87871516,-0.68159896,-0.5567287,0.47484308,0.6520232,-0.7566254,0.04882294,,0.10790885,1.3464074,0.44466993,0.9966676,-0.0036406557,-0.0814889,-0.055075023,-0.7669473,-0.6393423,-0.06017007,0.64169973,-0.76459205,,-0.07313944,0.26988682,-0.0860747,-0.876532,-0.45998558,0.14179148,0.3963558,-0.5225985,0.7548463,-0.27311838,0.7178468,0.6403923,,-0.004331945,0.44280115,-0.3117053,-0.38378498,-0.26301923,-0.8851723,-0.08635733,-0.94415396,0.31798702,-0.9193756,0.19847976,0.33963847,,0.977767486472691,0.3608910299453856,0.19600423316,3.7750480525518917,-0.4196106907796676,-0.975640411176121,-0.40607334840981824,,-0.8713250592672546,0.12541718187740603,0.20767602832,-0.6840085956465184,-0.684685500324622,-0.8923809882137581,0.7865016784365544,,-0.042994004461315315,-0.08314748556500987,0.076974014,-0.05200662588628596,,8.468144e-05,5.1259995e-06,-9.059906e-06,1.0,-5.8736652e-05,-4.929304e-05,5.8740377e-05,1.0,-4.61936e-06,4.9296767e-05,4.6491623e-06,1.0,584,1.765,0,2,0.659,False,-0.2618441003348577,0.9584585286886684
1.6409254919999512,16:51:06.485808,16:50:50.737371,0,,0.119091585,0.0014935881,0.029299542,0.83701307,0.53145105,-0.13026457,0.1163709,0.059726,0.9914084,0.5346653,-0.84498084,-0.011854142,,0.07022242,-0.017605662,0.015816808,0.32775822,0.35042435,0.8773695,-0.67326087,-0.56486845,0.47711992,0.6627928,-0.7470785,0.05078672,,0.10790885,1.3464074,0.44466993,0.9966676,-0.0036406557,-0.0814889,-0.055075023,-0.7669473,-0.6393423,-0.06017007,0.64169973,-0.76459205,,-0.07414474,0.2696779,-0.087376036,-0.87371427,-0.47257313,0.11531706,0.38606617,-0.5294415,0.75541025,-0.29593295,0.70453274,0.6450251,,-0.004285591,0.442781,-0.3117575,-0.3805854,-0.2713245,-0.88404626,-0.07265367,-0.94426024,0.3210826,-0.9218873,0.18642855,0.33965895,,0.9730102830221686,0.3610918210001154,0.19486738683000002,3.7916135580871697,-0.437100162749644,-0.9708536533592842,-0.4067267246743551,,-0.8706068451099517,0.12535540001441225,0.20768380606000003,-0.6959609224251363,-0.6957530568056227,-0.8885018986432036,0.7814380123863922,,-0.042994004461315315,-0.08314748556500987,0.076974014,-0.05200662588628596,,8.468144e-05,5.1259995e-06,-9.059906e-06,1.0,-5.8736652e-05,-4.929304e-05,5.8740377e-05,1.0,-4.61936e-06,4.9296767e-05,4.6491623e-06,1.0,592,1.789,0,2,0.659,False,-0.26255903295711036,0.9540167502169583
1.8161666889936896,16:51:06.517101,16:50:50.737371,0,,0.119444825,0.0011841804,0.02950351,0.83606,0.5346069,-0.12328441,0.11111601,0.055055708,0.9922812,0.537268,-0.8433057,-0.013373673,,0.0702232,-0.017604396,0.015815914,0.32835424,0.35100573,0.87691414,-0.672701,-0.5648172,0.47796962,0.66306627,-0.74684435,0.050661832,,0.10790885,1.3464074,0.44466993,0.9966676,-0.0036406557,-0.0814889,-0.055075023,-0.7669473,-0.6393423,-0.06017007,0.64169973,-0.76459205,,-0.074506395,0.26955357,-0.087716416,-0.87286186,-0.47576421,0.10844605,0.38379306,-0.5320998,0.7547004,-0.30135536,0.7003701,0.6470446,,-0.0042862827,0.44278124,-0.3117559,-0.38121143,-0.271926,-0.8835916,-0.07210121,-0.94410723,0.32165664,-0.921672,0.18632722,0.34029827,,0.9710100952077445,0.36109954373298964,0.19454849949000003,3.79580735695686,-0.44133589424237263,-0.9686248794468035,-0.4068900687404895,,-0.8705913996442032,0.12533223181578956,0.20768380606000003,-0.697009372142559,-0.6954797838060919,-0.888398019490034,0.7807846361218549,,-0.042994004461315315,-0.08314748556500987,0.076974014,-0.05200662588628596,,8.468144e-05,5.1259995e-06,-9.059906e-06,1.0,-5.8736652e-05,-4.929304e-05,5.8740377e-05,1.0,-4.61936e-06,4.9296767e-05,4.6491623e-06,1.0,600,1.814,0,2,0.659,False,-0.2626781883941529,0.9534373878076048
1.8474220460047945,16:51:06.546728,16:50:50.737371,0,,0.119678594,0.0009417087,0.029728249,0.8328077,0.5407846,-0.11825048,0.10699475,0.052336276,0.9928812,0.54312366,-0.8395314,-0.014275193,,0.07022923,-0.01759313,0.015818655,0.3295684,0.35268846,0.8757828,-0.6717393,-0.56423295,0.4800077,0.66343874,-0.74649304,0.050961345,,0.10790885,1.3464074,0.44466993,0.9966676,-0.0036406557,-0.0814889,-0.055075023,-0.7669473,-0.6393423,-0.06017007,0.64169973,-0.76459205,,-0.07475135,0.26950046,-0.08803443,-0.8699588,-0.48214516,0.10347783,0.38461182,-0.53208876,0.7542913,-0.3086185,0.6960012,0.648334,,-0.004292689,0.44279093,-0.3117499,-0.38246706,-0.2736414,-0.88251877,-0.07123164,-0.94356376,0.32344002,-0.9212193,0.18656841,0.34139013,,0.9698053488793654,0.3609682572741278,0.19425813053000002,3.79580735695686,-0.448577628729941,-0.9658235226762347,-0.40656338060822117,,-0.8706068451099517,0.12532450908291534,0.20768380606000003,-0.6988965816339197,-0.6947966013072647,-0.888955109008516,0.7794778835927805,,-0.042994004461315315,-0.08314748556500987,0.076974014,-0.05200662588628596,,8.468144e-05,5.1259995e-06,-9.059906e-06,1.0,-5.8736652e-05,-4.929304e-05,5.8740377e-05,1.0,-4.61936e-06,4.9296767e-05,4.6491623e-06,1.0,612,1.851,0,2,0.659,False,-0.26232072208302704,0.9531477066029279
1.8770664689945988,16:51:06.579568,16:50:50.737371,0,,0.119879775,0.00067166984,0.03000848,0.83077776,0.54563147,-0.109975144,0.097917706,0.05123186,0.9938749,0.54792374,-0.83645785,-0.010864854,,0.07023073,-0.0175955,0.015816152,0.32944554,0.35237864,0.8759537,-0.67210966,-0.5640615,0.47969064,0.6631246,-0.7467689,0.051009476,,0.10790885,1.3464074,0.44466993,0.9966676,-0.0036406557,-0.0814889,-0.055075023,-0.7669473,-0.6393423,-0.06017007,0.64169973,-0.76459205,,-0.074967206,0.26946393,-0.08841389,-0.8681247,-0.48717535,0.09497187,0.38090324,-0.53122306,0.7567792,-0.3182329,0.69315386,0.64673454,,-0.004293913,0.4427874,-0.31174958,-0.38231057,-0.27330905,-0.88268954,-0.07170666,-0.9436009,0.32322675,-0.9212474,0.18686771,0.34115052,,0.9689326800645781,0.360767466219398,0.19391461368000001,3.801049605543973,-0.45786891071399094,-0.9669867304199182,-0.4070534128066241,,-0.8706222905757001,0.12531678635004112,0.20768510235,-0.6982675118034661,-0.6946599648074993,-0.8891482056523532,0.7789878513943775,,-0.042994004461315315,-0.08314748556500987,0.076974014,-0.05200662588628596,,8.468144e-05,5.1259995e-06,-9.059906e-06,1.0,-5.8736652e-05,-4.929304e-05,5.8740377e-05,1.0,-4.61936e-06,4.9296767e-05,4.6491623e-06,1.0,661,2.002,0,2,0.659,False,-0.2632143878608417,0.9524235035912361
1.9098853379982756,16:51:06.720928,16:50:50.892030,0,,0.119939946,-0.0008317381,0.031649783,0.8071118,0.58278495,-0.09451048,0.07842901,0.05282572,0.99551904,0.5851662,-0.8109076,-0.0030710995,,0.07025982,-0.017635569,0.015827537,0.32982415,0.35516778,0.87468386,-0.66922903,-0.5655281,0.48198587,0.66584414,-0.7443344,0.051163763,,0.10790885,1.3464074,0.44466993,0.9966676,-0.0036406557,-0.0814889,-0.055075023,-0.7669473,-0.6393423,-0.06017007,0.64169973,-0.76459205,,-0.07511739,0.26937294,-0.090633556,-0.84679186,-0.52602804,0.07898126,0.3914038,-0.5156368,0.76218224,-0.3602036,0.6763233,0.6425264,,-0.004323457,0.4427635,-0.31178334,-0.38297972,-0.2762974,-0.88146824,-0.067783736,-0.94324327,0.32511148,-0.92126644,0.18426032,0.34251457,,0.9687164435440998,0.35662808139881363,0.19193906772000002,3.789516658652324,-0.5078778696281421,-0.9615746721478913,-0.4068900687404897,,-0.8706068451099517,0.12504649069944326,0.20768380606000003,-0.7028806905601256,-0.6960263298051537,-0.8881973840956701,0.7740875294103493,,-0.042994004461315315,-0.08314748556500987,0.076974014,-0.05200662588628596,,8.468144e-05,5.1259995e-06,-9.059906e-06,1.0,-5.8736652e-05,-4.929304e-05,5.8740377e-05,1.0,-4.61936e-06,4.9296767e-05,4.6491623e-06,1.0,669,2.027,0,2,0.659,False,-0.2620824112089424,0.9465815992969215
2.0512915199942654,16:51:06.757208,16:50:50.892030,0,,0.11987579,-0.0012659729,0.03193967,0.798613,0.5945608,-0.09335271,0.075847775,0.054446757,0.99563175,0.59704643,-0.80220515,-0.0016143322,,0.07027787,-0.017676502,0.015837431,0.32849234,0.3551035,0.87521094,-0.66817284,-0.56755894,0.4810633,0.6675612,-0.74281776,0.050831705,,0.10790885,1.3464074,0.44466993,0.9966676,-0.0036406557,-0.0814889,-0.055075023,-0.7669473,-0.6393423,-0.06017007,0.64169973,-0.76459205,,-0.07506669,0.2692325,-0.09113796,-0.83909637,-0.53840166,0.077723846,0.39757833,-0.50945646,0.76314193,-0.37127995,0.6712509,0.6415399,,-0.004341852,0.44273874,-0.3118172,-0.38182914,-0.2763517,-0.88195026,-0.06575314,-0.9437107,0.3241708,-0.92189103,0.18176885,0.34216526,,0.9687009980783514,0.35471284364600597,0.19153203266000002,3.782177510630366,-0.5224979751030443,-0.9594544052692416,-0.40721675687275805,,-0.8705991223770774,0.1248688678433361,0.20768250977000002,-0.7041388302210329,-0.6980758773016352,-0.8865261155402239,0.7714740243522009,,-0.042994004461315315,-0.08314748556500987,0.076974014,-0.05200662588628596,,8.468144e-05,5.1259995e-06,-9.059906e-06,1.0,-5.8736652e-05,-4.929304e-05,5.8740377e-05,1.0,-4.61936e-06,4.9296767e-05,4.6491623e-06,1.0,677,2.051,0,2,0.659,False,-0.2621419889274632,0.9451331932735378
2.0875676659925375,16:51:06.787595,16:50:50.892030,0,,0.11974941,-0.0017149299,0.0321244,0.79484373,0.59981936,-0.09187028,0.07640904,0.05126095,0.99575794,0.6019844,-0.79849184,-0.005087316,,0.07031359,-0.017701939,0.015886068,0.3260907,0.35759804,0.87509334,-0.66306734,-0.5732777,0.48134637,0.6738002,-0.7372083,0.050170988,,0.10790885,1.3464074,0.44466993,0.9966676,-0.0036406557,-0.0814889,-0.055075023,-0.7669473,-0.6393423,-0.06017007,0.64169973,-0.76459205,,-0.07494642,0.2690166,-0.09157449,-0.835687,-0.5438543,0.076483496,0.40140373,-0.5097881,0.7609147,-0.37483636,0.6665873,0.6443284,,-0.0043816925,0.4427502,-0.3118679,-0.38009045,-0.2792943,-0.8817743,-0.057620224,-0.94432044,0.32394254,-0.92315286,0.1739355,0.34283417,,0.9686392162153575,0.3526585967014622,0.19117296033000003,3.777983711760675,-0.5286466175924891,-0.954767314563465,-0.4068900687404897,,-0.8705450632469579,0.12476074958309695,0.20768380606000003,-0.7116876681864757,-0.7040878832913147,-0.8814603702973,0.7721274006167382,,-0.042994004461315315,-0.08314748556500987,0.076974014,-0.05200662588628596,,8.468144e-05,5.1259995e-06,-9.059906e-06,1.0,-5.8736652e-05,-4.929304e-05,5.8740377e-05,1.0,-4.61936e-06,4.9296767e-05,4.6491623e-06,1.0,722,2.191,1,3,0.756,False,-0.26232072208302704,0.944408990261846
2.1179545759950997,16:51:06.912717,16:50:51.083885,0,,0.119527124,-0.00299339,0.03305973,0.7763966,0.62342936,-0.09243506,0.069422185,0.061176717,0.9957098,0.6264096,-0.7794827,0.004217416,,0.070296235,-0.017801806,0.01588738,0.32216498,0.36166194,0.8748773,-0.65839934,-0.5784462,0.4815706,0.68023527,-0.73116374,0.05176282,,0.10790885,1.3464074,0.44466993,0.9966676,-0.0036406557,-0.0814889,-0.055075023,-0.7669473,-0.6393423,-0.06017007,0.64169973,-0.76459205,,-0.0747695,0.26865783,-0.09312329,-0.8188676,-0.5688746,0.07640376,0.412873,-0.49130958,0.7669099,-0.39873764,0.65954274,0.63719046,,-0.004363314,0.44267884,-0.31193754,-0.3768478,-0.28384706,-0.8817123,-0.049565785,-0.9443469,0.3251955,-0.9249481,0.16625197,0.34180596,,0.9687009980783514,0.3475152566072287,0.18986889259000003,3.763934485547212,-0.5611661045366639,-0.9577358786744596,-0.40803347720342975,,-0.8700816992745044,0.1243977811380084,0.20768639864000002,-0.7177686765475269,-0.7114662542786484,-0.8793643830244404,0.763306821045487,,-0.042994004461315315,-0.08314748556500987,0.076974014,-0.05200662588628596,,8.468144e-05,5.1259995e-06,-9.059906e-06,1.0,-5.8736652e-05,-4.929304e-05,5.8740377e-05,1.0,-4.61936e-06,4.9296767e-05,4.6491623e-06,1.0,730,2.215,1,3,0.78,False,-0.26255903295711036,0.9358633947238815
2.2429470859933645,16:51:06.946406,16:50:51.235894,0,,0.11950534,-0.0031016022,0.03318025,0.77431464,0.62604433,-0.09222358,0.0691137,0.061200142,0.9957298,0.6290152,-0.7773822,0.0041197836,,0.07029334,-0.01781319,0.015876353,0.3233124,0.3642143,0.87339395,-0.6582854,-0.57647735,0.48408076,0.679801,-0.7314518,0.053374708,,0.10790885,1.3464074,0.44466993,0.9966676,-0.0036406557,-0.0814889,-0.055075023,-0.7669473,-0.6393423,-0.06017007,0.64169973,-0.76459205,,-0.074754424,0.26865432,-0.09328598,-0.8169665,-0.57162875,0.07619925,0.41443592,-0.4900853,0.76685023,-0.4010095,0.6580706,0.6372868,,-0.0043592523,0.44266328,-0.31193736,-0.37795037,-0.28638488,-0.8804188,-0.04985828,-0.94327915,0.3282357,-0.92448235,0.16795297,0.34223405,,0.9687705026742194,0.3471368426963917,0.1897250044,3.761837586112367,-0.564308744031269,-0.9565618054718316,-0.40738010093889265,,-0.8700508083430075,0.12429738561064349,0.20768380606000003,-0.7181880564344959,-0.7102365257807595,-0.8823274339210816,0.7613466922518755,,-0.042994004461315315,-0.08314748556500987,0.076974014,-0.05200662588628596,,8.468144e-05,5.1259995e-06,-9.059906e-06,1.0,-5.8736652e-05,-4.929304e-05,5.8740377e-05,1.0,-4.61936e-06,4.9296767e-05,4.6491623e-06,1.0,771,2.342,1,3,0.907,False,-0.2621419889274632,0.933883906491924
2.276761917004478,16:51:07.062331,16:50:51.235894,0,,0.11912696,-0.0031474233,0.033588752,0.7761903,0.62318456,-0.09575802,0.067416966,0.06897342,0.99533796,0.626884,-0.77902746,0.011523157,,0.07033661,-0.017871186,0.015876234,0.32704154,0.37156627,0.8688971,-0.6539126,-0.5748079,0.49192908,0.6822332,-0.729064,0.05498582,,0.10790885,1.3464074,0.44466993,0.9966676,-0.0036406557,-0.0814889,-0.055075023,-0.7669473,-0.6393423,-0.06017007,0.64169973,-0.76459205,,-0.07440456,0.2689042,-0.09364274,-0.8186635,-0.56878334,0.0792186,0.4116622,-0.48505926,0.7715256,-0.4004052,0.6642311,0.6312469,,-0.0044016,0.44261736,-0.31197393,-0.38194606,-0.29394946,-0.87619114,-0.04527599,-0.94097954,0.33542156,-0.9230749,0.16778336,0.34609455,,0.9712881135912166,0.3469128834430392,0.18935167288000002,3.763515105660243,-0.5647186535305654,-0.9643954257747984,-0.4068900687404897,,-0.8700508083430075,0.123764517042322,0.20767602832,-0.7259465843434233,-0.7085968877835741,-0.8848896298675472,0.7562830262017128,,-0.042994004461315315,-0.08314748556500987,0.076974014,-0.05200662588628596,,8.468144e-05,5.1259995e-06,-9.059906e-06,1.0,-5.8736652e-05,-4.929304e-05,5.8740377e-05,1.0,-4.61936e-06,4.9296767e-05,4.6491623e-06,1.0,779,2.367,1,3,0.932,False,-0.26095043455704303,0.9304077320358028
2.392625331005547,16:51:07.094961,16:50:51.376463,0,,0.11894004,-0.003054157,0.033731446,0.77448213,0.62472373,-0.099487,0.06808981,0.07402974,0.9949288,0.6289208,-0.7773286,0.0147973,,0.07034132,-0.017879352,0.015871406,0.32854345,0.37332663,0.867575,-0.65293705,-0.5739391,0.4942339,0.68244594,-0.72884905,0.055194825,,0.10790885,1.3464074,0.44466993,0.9966676,-0.0036406557,-0.0814889,-0.055075023,-0.7669473,-0.6393423,-0.06017007,0.64169973,-0.76459205,,-0.074229434,0.2690779,-0.09369896,-0.817111,-0.570515,0.082718,0.4135851,-0.48019698,0.7735362,-0.40159306,0.66627586,0.6283307,,-0.0044057313,0.4426078,-0.31197563,-0.38347325,-0.2957328,-0.87492305,-0.04452484,-0.9403243,0.33735403,-0.9224781,0.16832206,0.34742177,,0.9726704827757028,0.3470132789704041,0.18928685838,3.7597406866775214,-0.5670414740265779,-0.9665852584189876,-0.405256628079147,,-0.870035362877259,0.12364867604920862,0.20767343574000002,-0.7278337938347841,-0.7075037957854506,-0.8856992943569779,0.7561196821355787,,-0.042994004461315315,-0.08314748556500987,0.076974014,-0.05200662588628596,,8.468144e-05,5.1259995e-06,-9.059906e-06,1.0,-5.8736652e-05,-4.929304e-05,5.8740377e-05,1.0,-4.61936e-06,4.9296767e-05,4.6491623e-06,1.0,808,2.457,1,3,1.022,False,-0.26243987752006825,0.9292972874178753
2.4252786500001093,16:51:07.176157,16:50:51.376463,0,,0.118445694,-0.002814576,0.034054533,0.76432127,0.6353045,-0.110459015,0.07302746,0.084916174,0.9937083,0.6406871,-0.767579,0.018508404,,0.07034533,-0.017879829,0.015876472,0.32873368,0.37307972,0.8676091,-0.652577,-0.5743485,0.49423382,0.6826986,-0.72865295,0.054655522,,0.10790885,1.3464074,0.44466993,0.9966676,-0.0036406557,-0.0814889,-0.055075023,-0.7669473,-0.6393423,-0.06017007,0.64169973,-0.76459205,,-0.073762424,0.26949686,-0.09381098,-0.8078669,-0.58191323,0.0934246,0.42551145,-0.46621138,0.77562034,-0.40778813,0.6663512,0.6242475,,-0.0044101933,0.44261056,-0.3119794,-0.3836909,-0.29550046,-0.8749061,-0.04410367,-0.9404753,0.3369882,-0.9224078,0.16788588,0.34781915,,0.9765086810141923,0.34681248791567426,0.18917926631,3.735836033120286,-0.5808417605028874,-0.9622747430575966,-0.40607334840981824,,-0.8700508083430075,0.12363323058346018,0.20767084316,-0.7284628636652376,-0.7075037957854506,-0.8848825069555724,0.7541595533419672,,-0.042994004461315315,-0.08314748556500987,0.076974014,-0.05200662588628596,,8.468144e-05,5.1259995e-06,-9.059906e-06,1.0,-5.8736652e-05,-4.929304e-05,5.8740377e-05,1.0,-4.61936e-06,4.9296767e-05,4.6491623e-06,1.0,825,2.51,1,3,1.075,False,-0.26136747858668974,0.9278971615952711
2.5065029690013034,16:51:07.235962,16:50:51.376463,0,,0.11813825,-0.0025755316,0.034311697,0.75035924,0.6510972,-0.114163846,0.074992,0.08774403,0.9933163,0.6567627,-0.7539054,0.017012298,,0.070353985,-0.017880574,0.015896916,0.32790756,0.37424484,0.8674199,-0.64995986,-0.57696736,0.49463212,0.6855865,-0.7259817,0.054052144,,0.10790885,1.3464074,0.44466993,0.9966676,-0.0036406557,-0.0814889,-0.055075023,-0.7669473,-0.6393423,-0.06017007,0.64169973,-0.76459205,,-0.07347727,0.2698623,-0.09386514,-0.7950829,-0.5986564,0.097229734,0.43816563,-0.45613322,0.7745666,-0.41934955,0.6584474,0.6249744,,-0.00442073,0.4426231,-0.31199437,-0.38317347,-0.2968804,-0.87466574,-0.040173225,-0.9406871,0.33688855,-0.9228024,0.1642249,0.34851968,,0.9786015416231072,0.34673526058693205,0.18916371083000003,3.720318977302431,-0.5943687739796659,-0.9535313753155867,-0.40574666027754924,,-0.8699890264800136,0.12362550785058594,0.20767213945000002,-0.7324469725914435,-0.710099889280994,-0.8821938156043564,0.7533428330112957,,-0.042994004461315315,-0.08314748556500987,0.076974014,-0.05200662588628596,,8.468144e-05,5.1259995e-06,-9.059906e-06,1.0,-5.8736652e-05,-4.929304e-05,5.8740377e-05,1.0,-4.61936e-06,4.9296767e-05,4.6491623e-06,1.0,842,2.563,1,3,1.128,False,-0.2621419889274632,0.9265935961742255
2.566321763006272,16:51:07.286732,16:50:51.537747,0,,0.11790999,-0.0022498667,0.034691334,0.7259103,0.6782056,-0.11441663,0.06533146,0.097610354,0.993078,0.6846795,-0.7283607,0.026548147,,0.0702925,-0.01792474,0.015931606,0.32746825,0.37471932,0.86738104,-0.6492679,-0.5776935,0.49469328,0.6864517,-0.725159,0.054116935,,0.10792806,1.3464048,0.44467068,0.9966662,-0.0036599622,-0.081505,-0.055100113,-0.7669472,-0.6393402,-0.06017007,0.64169973,-0.76459205,,-0.07329647,0.27036712,-0.09395186,-0.77247554,-0.62761575,0.09685077,0.45020244,-0.433663,0.7805473,-0.4478832,0.64655614,0.61754817,,-0.004378019,0.44261575,-0.31205362,-0.38284203,-0.29743695,-0.87462175,-0.039043557,-0.9406957,0.33699733,-0.9229884,0.16316508,0.34852484,,0.9814357845879476,0.34671209238830936,0.18916889599000003,3.697043393575649,-0.6301675369182114,-0.9461481081646544,-0.40591000434368407,,-0.8699658582813911,0.12361778511771172,0.20767602832,-0.7334954223088662,-0.7109197082795867,-0.881688665662459,0.7520360804822217,,-0.042994004461315315,-0.08314748556500987,0.076974014,-0.05200662588628596,,0.000103918836,7.5101852e-06,-9.536743e-06,1.0,-7.798895e-05,-6.5457076e-05,7.798523e-05,1.0,-6.1392784e-06,6.5457076e-05,6.1392784e-06,1.0,859,2.617,1,3,1.182,False,-0.26101001227556386,0.9247589485446066
2.6170813490025466,16:51:07.339721,16:50:51.537747,0,,0.11722256,-0.001709044,0.03516075,0.7046781,0.7005793,-0.1123267,0.059141845,0.09976423,0.99325186,0.7070581,-0.70656615,0.02886808,,0.07036127,-0.017927319,0.016031027,0.3220853,0.3798021,0.8671859,-0.6397339,-0.5879004,0.49508953,0.69785506,-0.71422917,0.053618193,,0.10792806,1.3464048,0.44467068,0.9966662,-0.0036599622,-0.081505,-0.055100113,-0.7669472,-0.6393402,-0.06017007,0.64169973,-0.76459205,,-0.07265167,0.27112097,-0.09398857,-0.752749,-0.65147465,0.09460286,0.46111694,-0.41923416,0.78205746,-0.4698299,0.632316,0.6159841,,-0.004455831,0.4426758,-0.312124,-0.37867755,-0.3034036,-0.87438524,-0.023957314,-0.9412116,0.3369671,-0.9252185,0.1485498,0.34914696,,0.9870038749902634,0.3468742697786681,0.18920519211000003,3.6716709104140213,-0.6598176573673119,-0.9285864010139167,-0.40607334840981846,,-0.8699195218841457,0.12361778511771172,0.20769028751000002,-0.7475446485223293,-0.7226704472594145,-0.8724334409051289,0.750402639820879,,-0.042994004461315315,-0.08314748556500987,0.076974014,-0.05200662588628596,,0.000103918836,7.5101852e-06,-9.536743e-06,1.0,-7.798895e-05,-6.5457076e-05,7.798523e-05,1.0,-6.1392784e-06,6.5457076e-05,6.1392784e-06,1.0,876,2.67,1,3,1.235,False,-0.2618441003348577,0.9230208613165458
2.6700438239931827,16:51:07.392988,16:50:51.537747,0,,0.116637364,-0.0011959076,0.03555128,0.68373936,0.72101897,-0.112392075,0.051947057,0.10553616,0.9930577,0.727875,-0.6848312,0.034704357,,0.070367575,-0.017936766,0.016041696,0.31906557,0.382497,0.86711776,-0.63649195,-0.59141314,0.49508435,0.70219314,-0.7098778,0.05475667,,0.10792806,1.3464048,0.44467068,0.9966662,-0.0036599622,-0.081505,-0.055100113,-0.7669472,-0.6393402,-0.06017007,0.64169973,-0.76459205,,-0.07210295,0.27179703,-0.09397877,-0.7331916,-0.67345655,0.09426724,0.47024167,-0.40197647,0.7856766,-0.49122584,0.62037987,0.6114131,,-0.0044630007,0.44267556,-0.31213784,-0.37612107,-0.3064541,-0.8744249,-0.018430382,-0.9410607,0.33773512,-0.9263872,0.14314528,0.34830472,,0.9917996921051568,0.3470673381005237,0.18929852499000002,3.6477662568567855,-0.688374685818289,-0.9156732591392159,-0.40656338060822117,,-0.8697418990280386,0.12361778511771172,0.20771232444,-0.7519481373355044,-0.7279992707502667,-0.8704568261250448,0.748769199159536,,-0.042994004461315315,-0.08314748556500987,0.076974014,-0.05200662588628596,,0.000103918836,7.5101852e-06,-9.536743e-06,1.0,-7.798895e-05,-6.5457076e-05,7.798523e-05,1.0,-6.1392784e-06,6.5457076e-05,6.1392784e-06,1.0,893,2.723,1,3,1.288,False,-0.2617249448978165,0.9209930928838088
2.7232955700019374,16:51:07.446454,16:50:51.704526,0,,0.11572614,-0.00036221743,0.036040008,0.6507014,0.7505107,-0.11541822,0.044932544,0.11367601,0.9925013,0.7580032,-0.65100807,0.040246695,,0.07031903,-0.017949209,0.016002834,0.32047293,0.38511637,0.86543775,-0.63514376,-0.59045875,0.49794656,0.70277274,-0.70925575,0.0553782,,0.10792806,1.3464048,0.44467068,0.9966662,-0.0036599622,-0.081505,-0.055100113,-0.7669472,-0.6393402,-0.06017007,0.64169973,-0.76459205,,-0.07124079,0.27279922,-0.093850195,-0.7022125,-0.705341,0.096910894,0.48619297,-0.37563154,0.7889977,-0.5201096,0.6011614,0.606705,,-0.0044108536,0.4426438,-0.3121208,-0.37759334,-0.30913204,-0.8728463,-0.017151142,-0.940131,0.34038153,-0.92581266,0.14349611,0.34968522,,0.9988351017535754,0.34733763375112153,0.18955778299,3.6049895083859425,-0.728409180249563,-0.890950651149799,-0.40672672467435533,,-0.8693866533158242,0.12353283505609526,0.20771621331,-0.7542547267138341,-0.7274527247512049,-0.8719643213616577,0.745829005969119,,-0.042994004461315315,-0.08314748556500987,0.076974014,-0.05200662588628596,,0.000103918836,7.5101852e-06,-9.536743e-06,1.0,-7.798895e-05,-6.5457076e-05,7.798523e-05,1.0,-6.1392784e-06,6.5457076e-05,6.1392784e-06,1.0,910,2.776,1,3,1.341,False,-0.2622015666459845,0.9202688898721165
2.77680776300258,16:51:07.499839,16:50:51.704526,0,,0.115162544,0.00016525388,0.036372095,0.6159151,0.7794043,-0.114792675,0.03912154,0.115271956,0.9925633,0.78684056,-0.6158258,0.040506184,,0.07030327,-0.017982006,0.015985548,0.32051247,0.38507527,0.8654414,-0.6350501,-0.590554,0.49795312,0.7028393,-0.7091987,0.05526218,,0.10792806,1.3464048,0.44467068,0.9966662,-0.0036599622,-0.081505,-0.055100113,-0.7669472,-0.6393402,-0.06017007,0.64169973,-0.76459205,,-0.0707098,0.27344733,-0.09378571,-0.669419,-0.73662114,0.09626802,0.5023282,-0.35336423,0.7891768,-0.54730666,0.5766481,0.6065743,,-0.004393132,0.44260922,-0.3121313,-0.37764013,-0.30909532,-0.87283903,-0.017040288,-0.9401596,0.34030792,-0.9257956,0.14338735,0.34977493,,1.0027041909235619,0.34695921984028455,0.18978204116000003,3.5622127599151,-0.7653010351862319,-0.8600510297503595,-0.406400036542087,,-0.8692476441240882,0.12338610313148499,0.20771362073000002,-0.7542547267138341,-0.7274527247512049,-0.8720460001017982,0.7456656619029849,,-0.042994004461315315,-0.08314748556500987,0.076974014,-0.05200662588628596,,0.000103918836,7.5101852e-06,-9.536743e-06,1.0,-7.798895e-05,-6.5457076e-05,7.798523e-05,1.0,-6.1392784e-06,6.5457076e-05,6.1392784e-06,1.0,927,2.83,1,3,1.395,False,-0.2622015666459845,0.9196412472619837
2.8301596700039227,16:51:07.557284,16:50:51.704526,0,,0.11461975,0.0005785227,0.036761284,0.5652408,0.8160465,-0.12070929,0.03501314,0.12246278,0.9918553,0.8241826,-0.5648636,0.04064861,,0.07031424,-0.018013105,0.015981615,0.32036602,0.38462156,0.8656973,-0.6351008,-0.5908488,0.4975387,0.7028604,-0.7091994,0.054985523,,0.10792806,1.3464048,0.44467068,0.9966662,-0.0036599622,-0.081505,-0.055100113,-0.7669472,-0.6393402,-0.06017007,0.64169973,-0.76459205,,-0.070201725,0.274044,-0.09383771,-0.62139225,-0.77680933,0.102170885,0.5261448,-0.31709576,0.789064,-0.5805543,0.54407495,0.60575503,,-0.004403303,0.44258285,-0.3121488,-0.3774957,-0.30864,-0.8730626,-0.017052628,-0.9403438,0.3397981,-0.9258543,0.14316034,0.34971264,,1.0054843747582827,0.34572358258040864,0.18997259579000003,3.49595073777399,-0.8120307181060126,-0.8172087397580308,-0.4070534128066239,,-0.8692630895898366,0.12322392574112628,0.20771232444,-0.7540450367703496,-0.7274527247512049,-0.8717192851412361,0.7450122856384478,,-0.042994004461315315,-0.08314748556500987,0.076974014,-0.05200662588628596,,0.000103918836,7.5101852e-06,-9.536743e-06,1.0,-7.798895e-05,-6.5457076e-05,7.798523e-05,1.0,-6.1392784e-06,6.5457076e-05,6.1392784e-06,1.0,944,2.883,1,3,1.448,False,-0.2607121236829584,0.9186273630456152
2.8876353579980787,16:51:07.608105,16:50:51.895498,0,,0.1140955,0.00076435506,0.036978006,0.5196531,0.8455307,-0.12263072,0.028043926,0.12657458,0.9915606,0.853917,-0.5187067,0.04206285,,0.07031424,-0.018019632,0.015981376,0.32053643,0.3848968,0.8655119,-0.63498086,-0.59071267,0.49785322,0.702891,-0.70916355,0.055057168,,0.10792806,1.3464048,0.44467068,0.9966662,-0.0036599622,-0.081505,-0.055100113,-0.7669472,-0.6393402,-0.06017007,0.64169973,-0.76459205,,-0.06969668,0.2743551,-0.09390484,-0.5778685,-0.8094771,0.103994206,0.5425872,-0.2858675,0.78986007,-0.60964507,0.5128612,0.60440576,,-0.0044031944,0.44257787,-0.31215304,-0.3776697,-0.30891904,-0.8728887,-0.016956294,-0.94023955,0.34009123,-0.9257851,0.14324312,0.34986186,,1.007283771517977,0.34355349464275153,0.19017481703000003,3.4374472435418078,-0.8539781235340028,-0.7761424291514221,-0.4067267246743551,,-0.8692553668569624,0.12318531207675515,0.20770973186000002,-0.7542547267138341,-0.7273160882514395,-0.8719123817850731,0.743868877175508,,-0.042994004461315315,-0.08314748556500987,0.076974014,-0.05200662588628596,,0.000103918836,7.5101852e-06,-9.536743e-06,1.0,-7.798895e-05,-6.5457076e-05,7.798523e-05,1.0,-6.1392784e-06,6.5457076e-05,6.1392784e-06,1.0,961,2.936,1,3,1.501,False,-0.26202283349042155,0.9169375560183339
2.9384657420014264,16:51:07.657880,16:50:51.895498,0,,0.11341135,0.0009979755,0.03727603,0.47022194,0.87331384,-0.12733433,0.018685967,0.13439628,0.9907515,0.8823504,-0.46825254,0.046877354,,0.070316225,-0.018043473,0.015979946,0.32049784,0.38507953,0.8654449,-0.6349264,-0.5906849,0.49795568,0.70295775,-0.7090875,0.055183887,,0.10792806,1.3464048,0.44467068,0.9966662,-0.0036599622,-0.081505,-0.055100113,-0.7669472,-0.6393402,-0.06017007,0.64169973,-0.76459205,,-0.06903851,0.27476406,-0.09400971,-0.5303838,-0.84080315,0.10836541,0.55658746,-0.24894418,0.79261416,-0.6394555,0.48070455,0.6000165,,-0.0044047446,0.44255924,-0.312168,-0.37763828,-0.30910847,-0.8728352,-0.016868422,-0.94018126,0.34025684,-0.92579955,0.14321736,0.34983426,,1.009623759578867,0.34135251577359754,0.19036277908000002,3.3709755314572134,-0.8975651669591783,-0.731207062756099,-0.4075434450050266,,-0.8692399213912139,0.12306947108364179,0.20770454670000002,-0.7542547267138341,-0.7273160882514395,-0.8721574180054948,0.741092028051225,,-0.042994004461315315,-0.08314748556500987,0.076974014,-0.05200662588628596,,0.000103918836,7.5101852e-06,-9.536743e-06,1.0,-7.798895e-05,-6.5457076e-05,7.798523e-05,1.0,-6.1392784e-06,6.5457076e-05,6.1392784e-06,1.0,978,2.989,1,3,1.554,False,-0.2623802998015474,0.9144269855778022
2.9882365679950453,16:51:07.710992,16:50:51.895498,0,,0.112719595,0.0013505965,0.037445545,0.43361077,0.8925308,-0.12397766,0.008066565,0.1337345,0.99098444,0.9010642,-0.4307016,0.050789,,0.070330225,-0.018082783,0.01598537,0.32051495,0.3851572,0.86540395,-0.6346019,-0.5909574,0.49804592,0.70324296,-0.70881814,0.055010796,,0.10792806,1.3464048,0.44467068,0.9966662,-0.0036599622,-0.081505,-0.055100113,-0.7669472,-0.6393402,-0.06017007,0.64169973,-0.76459205,,-0.06836571,0.27518132,-0.0939401,-0.4949946,-0.86255974,0.104742885,0.56263304,-0.22632259,0.795124,-0.66213626,0.45251387,0.5973331,,-0.0044187144,0.442533,-0.31219777,-0.37768623,-0.3092079,-0.87277925,-0.016438967,-0.94020593,0.34020957,-0.9257877,0.14284006,0.35001978,,1.0124193888793362,0.3399547011233629,0.19066351836,3.3200208751904743,-0.9307678364021804,-0.688940266491724,-0.40656338060822095,,-0.8692708123227109,0.12286095729603773,0.20769417638,-0.7546741066008031,-0.7273160882514395,-0.8719123817850731,0.7396219314560166,,-0.042994004461315315,-0.08314748556500987,0.076974014,-0.05200662588628596,,0.000103918836,7.5101852e-06,-9.536743e-06,1.0,-7.798895e-05,-6.5457076e-05,7.798523e-05,1.0,-6.1392784e-06,6.5457076e-05,6.1392784e-06,1.0,995,3.043,1,3,1.608,False,-0.2618441003348577,0.9112404923263582
3.041354875997058,16:51:07.763781,16:50:51.895498,0,,0.1120754,0.0021342188,0.03746164,0.39124325,0.9112186,-0.1288772,-0.003555715,0.14153592,0.9899267,0.92028046,-0.38684398,0.058615,,0.07033393,-0.018140823,0.016020179,0.32057118,0.38538474,0.8652818,-0.63413906,-0.5912601,0.49827617,0.70363474,-0.7084419,0.054846555,,0.10792806,1.3464048,0.44467068,0.9966662,-0.0036599622,-0.081505,-0.055100113,-0.7669472,-0.6393402,-0.06017007,0.64169973,-0.76459205,,-0.06773644,0.27582547,-0.09347277,-0.45388278,-0.88435656,0.10910501,0.568564,-0.19315343,0.7996416,-0.6860943,0.42497677,0.5904823,,-0.0044249757,0.44251347,-0.3122624,-0.37778488,-0.30946618,-0.87264496,-0.01583873,-0.94019175,0.3402772,-0.92575794,0.14237316,0.3502887,,1.0150373953236984,0.3402249967739608,0.19133370029000002,3.2569042022016323,-0.9643804153444786,-0.6447056417134487,-0.408850197534101,,-0.8693017032542077,0.12265244350843366,0.20766176913,-0.7553031764312568,-0.7273160882514395,-0.871749024304792,0.7365183941994649,,-0.042994004461315315,-0.08314748556500987,0.076974014,-0.05200662588628596,,0.000103918836,7.5101852e-06,-9.536743e-06,1.0,-7.798895e-05,-6.5457076e-05,7.798523e-05,1.0,-6.1392784e-06,6.5457076e-05,6.1392784e-06,1.0,1023,3.132,1,3,1.697,False,-0.26285692154971585,0.9096472457006359
3.094128308002837,16:51:07.851501,16:50:52.099173,0,,0.1119785,0.003327176,0.03695047,0.35690302,0.9254647,-0.12702444,-0.019048214,0.1431617,0.989516,0.93394727,-0.35074177,0.06872326,,0.070326805,-0.018209964,0.016074479,0.3206263,0.3858167,0.8650689,-0.63366747,-0.5914538,0.49864608,0.7040343,-0.70804507,0.054843873,,0.10792806,1.3464048,0.44467068,0.9966662,-0.0036599622,-0.081505,-0.055100113,-0.7669472,-0.6393402,-0.06017007,0.64169973,-0.76459205,,-0.06762295,0.27641064,-0.09231584,-0.42033386,-0.9010902,0.10656385,0.5675121,-0.16944097,0.8057418,-0.70798975,0.39915684,0.58260137,,-0.004422162,0.44249973,-0.31234944,-0.37788326,-0.3099313,-0.8724373,-0.015226739,-0.9400984,0.340563,-0.925728,0.14197743,0.3505282,,1.0154235319674096,0.3428893396155682,0.19261443481,3.2101433448045835,-0.992664170795925,-0.6077567498243938,-0.408850197534101,,-0.8693403169185788,0.12233581146059046,0.20757880657000002,-0.7559322462617103,-0.7273160882514395,-0.8716673455646515,0.7325981366122425,,-0.042994004461315315,-0.08314748556500987,0.076974014,-0.05200662588628596,,0.000103918836,7.5101852e-06,-9.536743e-06,1.0,-7.798895e-05,-6.5457076e-05,7.798523e-05,1.0,-6.1392784e-06,6.5457076e-05,6.1392784e-06,1.0,1042,3.191,0,3,1.709,False,-0.2622015666459845,0.9051089068273668
3.1817695869976887,16:51:07.918603,16:50:52.099173,0,,0.112077676,0.004462853,0.036476046,0.31995934,0.9375725,-0.13632198,-0.029717922,0.15374675,0.9876633,0.94696516,-0.3119609,0.077055335,,0.07032791,-0.018233016,0.016083658,0.32057726,0.38587508,0.8650611,-0.63362455,-0.5914917,0.49865562,0.70409524,-0.7079816,0.054881066,,0.10792806,1.3464048,0.44467068,0.9966662,-0.0036599622,-0.081505,-0.055100113,-0.7669472,-0.6393402,-0.06017007,0.64169973,-0.76459205,,-0.06770671,0.27696475,-0.09121555,-0.38421807,-0.9160156,0.115290225,0.56986517,-0.1370512,0.81022877,-0.72638154,0.37700438,0.574663,,-0.004423844,0.44248885,-0.31237173,-0.37784076,-0.30999494,-0.8724331,-0.015150517,-0.9400878,0.34059566,-0.9257466,0.14190874,0.3505069,,1.0142419538376533,0.34614061015561676,0.19379276242000001,3.1545755097811843,-1.0157557392562842,-0.5727547335518672,-0.4101569500631752,,-0.869348039651453,0.12223541593322554,0.20756454738000002,-0.7559322462617103,-0.7273160882514395,-0.8717490243047922,0.7291679112234226,,-0.042994004461315315,-0.08314748556500987,0.076974014,-0.05200662588628596,,0.000103918836,7.5101852e-06,-9.536743e-06,1.0,-7.798895e-05,-6.5457076e-05,7.798523e-05,1.0,-6.1392784e-06,6.5457076e-05,6.1392784e-06,1.0,1061,3.252,0,3,1.709,False,-0.2630356547052788,0.9024534957844965
3.2489599529944826,16:51:07.979249,16:50:52.099173,0,,0.11235763,0.0052480996,0.03643757,0.29039508,0.94674736,-0.13906808,-0.035230964,0.15581045,0.98715854,0.9562582,-0.2817665,0.0786013,,0.07032727,-0.01823531,0.016085565,0.32057396,0.38566175,0.8651574,-0.63362116,-0.59162,0.49850774,0.7040999,-0.7079905,0.05470547,,0.10792806,1.3464048,0.44467068,0.9966662,-0.0036599622,-0.081505,-0.055100113,-0.7669472,-0.6393402,-0.06017007,0.64169973,-0.76459205,,-0.0679955,0.27752262,-0.09066615,-0.35528556,-0.92728883,0.117930286,0.57332915,-0.11652737,0.81099635,-0.7382858,0.35574815,0.5730422,,-0.004423352,0.4424885,-0.3123747,-0.37783793,-0.30978018,-0.8725106,-0.0151446555,-0.9401727,0.34036157,-0.9257479,0.14181538,0.35054135,,1.0124116661464622,0.34975484914075383,0.19433979680000002,3.1073952724971665,-1.0292827527330628,-0.5359955579416447,-0.4050932840130126,,-0.869348039651453,0.12222769320035132,0.20756195480000003,-0.7559322462617103,-0.7273160882514395,-0.8715039880843704,0.7283511908927511,,-0.042994004461315315,-0.08314748556500987,0.076974014,-0.05200662588628596,,0.000103918836,7.5101852e-06,-9.536743e-06,1.0,-7.798895e-05,-6.5457076e-05,7.798523e-05,1.0,-6.1392784e-06,6.5457076e-05,6.1392784e-06,1.0,1094,3.356,0,3,1.709,False,-0.26136747858668974,0.9011016501626719
3.3095975920005003,16:51:08.076062,16:50:52.340703,0,,0.11261172,0.005890131,0.036660552,0.24180053,0.9600658,-0.14073396,-0.034751087,0.15351301,0.98753536,0.96970356,-0.23389599,0.07048285,,0.07032631,-0.018231302,0.016089559,0.3207102,0.3861822,0.8648747,-0.6333892,-0.5914742,0.49897537,0.7042466,-0.70782864,0.054911792,,0.10792806,1.3464048,0.44467068,0.9966662,-0.0036599622,-0.081505,-0.055100113,-0.7669472,-0.6393402,-0.06017007,0.64169973,-0.76459205,,-0.06827437,0.2781414,-0.090409555,-0.30775124,-0.94385046,0.120147884,0.585116,-0.0881642,0.80614287,-0.75028557,0.31839192,0.57939464,,-0.0044228374,0.4424942,-0.312375,-0.37799025,-0.3103153,-0.87225443,-0.014885183,-0.93999434,0.3408651,-0.92568994,0.14182736,0.3506896,,1.0089982182160548,0.35357760191349497,0.19458998077000003,3.0210030157815426,-1.0422632202107798,-0.46186479726112706,-0.4070534128066239,,-0.869348039651453,0.12224313866609976,0.20755936222000002,-0.7563516261486793,-0.7273160882514395,-0.8717490243047921,0.7239409011071254,,-0.042994004461315315,-0.08314748556500987,0.076974014,-0.05200662588628596,,0.000103918836,7.5101852e-06,-9.536743e-06,1.0,-7.798895e-05,-6.5457076e-05,7.798523e-05,1.0,-6.1392784e-06,6.5457076e-05,6.1392784e-06,1.0,1113,3.416,0,3,1.709,False,-0.26136747858668974,0.8975771955057712
3.406371646997286,16:51:08.145636,16:50:52.340703,0,,0.1125265,0.0059548765,0.03678438,0.21307668,0.96733356,-0.13734645,-0.039576948,0.14900479,0.98804414,0.9762336,-0.20509344,0.07003361,,0.070328146,-0.018234923,0.01609385,0.3206921,0.3860479,0.86494136,-0.6333855,-0.59156585,0.4988714,0.7042581,-0.7078253,0.05480665,,0.10792806,1.3464048,0.44467068,0.9966662,-0.0036599622,-0.081505,-0.055100113,-0.7669472,-0.6393402,-0.06017007,0.64169973,-0.76459205,,-0.068198934,0.27827543,-0.09046556,-0.27947652,-0.95302284,0.11679209,0.58727455,-0.07343923,0.80604917,-0.7596061,0.29386085,0.58021057,,-0.0044250228,0.4424943,-0.3123805,-0.37797335,-0.3101808,-0.87230957,-0.0148734,-0.9400497,0.34071293,-0.92569697,0.14175461,0.3507003,,1.0074150579768388,0.3539096794270866,0.19462368431000002,2.9702580494582875,-1.0551070511887313,-0.4147177599905508,-0.40656338060822095,,-0.8693634851172015,0.12222769320035132,0.20755547335000002,-0.7563516261486793,-0.7273160882514395,-0.871585666824511,0.7236142129748571,,-0.042994004461315315,-0.08314748556500987,0.076974014,-0.05200662588628596,,0.000103918836,7.5101852e-06,-9.536743e-06,1.0,-7.798895e-05,-6.5457076e-05,7.798523e-05,1.0,-6.1392784e-06,6.5457076e-05,6.1392784e-06,1.0,1146,3.522,0,3,1.709,False,-0.26196325577190027,0.8957908280769313
3.4759976049972465,16:51:08.251950,16:50:52.483759,0,,0.11196003,0.006165862,0.036845416,0.17030124,0.9760952,-0.13503891,-0.046025276,0.14477056,0.98839414,0.98431665,-0.16210958,0.06957972,,0.070284665,-0.018274873,0.016147137,0.32066363,0.38604346,0.86495394,-0.63346,-0.5915101,0.49884295,0.7042041,-0.7078744,0.054867268,,0.10792806,1.3464048,0.44467068,0.9966662,-0.0036599622,-0.081505,-0.055100113,-0.7669472,-0.6393402,-0.06017007,0.64169973,-0.76459205,,-0.0676414,0.27850768,-0.09039968,-0.23726784,-0.9646709,0.11451631,0.5899933,-0.04944544,0.8058927,-0.7717589,0.25877628,0.5808812,,-0.004386277,0.44250396,-0.31244928,-0.37793902,-0.31017244,-0.87232745,-0.014962452,-0.9400414,0.34073195,-0.9257096,0.14182805,0.35063738,,1.007005753134505,0.3537938384339732,0.19483886845,2.8868014519514467,-1.071503431160584,-0.33943512652043417,-0.40917688566636956,,-0.869278535055585,0.12216591133735752,0.20747899224000002,-0.7561419362051948,-0.7273160882514395,-0.8718307030449326,0.7175704825278886,,-0.042994004461315315,-0.08314748556500987,0.076974014,-0.05200662588628596,,0.000103918836,7.5101852e-06,-9.536743e-06,1.0,-7.798895e-05,-6.5457076e-05,7.798523e-05,1.0,-6.1392784e-06,6.5457076e-05,6.1392784e-06,1.0,1165,3.583,0,3,1.709,False,-0.2623802998015474,0.8899006435818371
3.5823129630007315,16:51:08.319317,16:50:52.483759,0,,0.11147459,0.006257251,0.03682542,0.1333859,0.98150176,-0.13734005,-0.046883374,0.14467232,0.9883683,0.98995465,-0.12539545,0.06531331,,0.07024792,-0.018303916,0.016200006,0.32035345,0.385743,0.8652028,-0.6333862,-0.59193707,0.49843,0.7044115,-0.70768124,0.05469519,,0.10792806,1.3464048,0.44467068,0.9966662,-0.0036599622,-0.081505,-0.055100113,-0.7669472,-0.6393402,-0.06017007,0.64169973,-0.76459205,,-0.06715721,0.2785919,-0.09034604,-0.20082223,-0.97260284,0.11710728,0.59506476,-0.026152065,0.8032521,-0.7781827,0.23099731,0.58401364,,-0.0043543368,0.44252095,-0.31250995,-0.37765077,-0.30988637,-0.8725539,-0.014745849,-0.9402034,0.34029418,-0.92583066,0.14137891,0.350499,,1.0062025889155857,0.3536239383107403,0.19498405293,2.811103382353534,-1.0787451656481524,-0.2745579272430381,-0.4062366924759526,,-0.8692167531925913,0.12215046587160908,0.20741158516000002,-0.7561419362051948,-0.7277259977507359,-0.8714147705937028,0.7141402571390691,,-0.042994004461315315,-0.08314748556500987,0.076974014,-0.05200662588628596,,0.000103918836,7.5101852e-06,-9.536743e-06,1.0,-7.798895e-05,-6.5457076e-05,7.798523e-05,1.0,-6.1392784e-06,6.5457076e-05,6.1392784e-06,1.0,1184,3.645,1,4,1.757,False,-0.2618441003348577,0.8881625563537767
3.649674019005033,16:51:08.380635,16:50:52.483759,0,,0.11090319,0.0062592924,0.036790863,0.078898236,0.98682487,-0.14124978,-0.049749553,0.14541264,0.9881195,0.9956406,-0.0709338,0.060566872,,0.07025125,-0.018309593,0.016218603,0.32034272,0.3855254,0.86530375,-0.633495,-0.5919592,0.4982653,0.7043185,-0.7077814,0.0545986,,0.10787811,1.346408,0.44467214,0.9966684,-0.003629574,-0.08147967,-0.055060625,-0.7669474,-0.63934344,-0.06017007,0.64169973,-0.76459205,,-0.066541,0.27860305,-0.09034485,-0.14681883,-0.98169774,0.1213003,0.5996286,0.009199185,0.8002255,-0.7866954,0.1902233,0.58730346,,-0.004314742,0.4425309,-0.3125272,-0.37760597,-0.30963516,-0.8726625,-0.0148970345,-0.9402809,0.34007335,-0.9258465,0.14141381,0.35044304,,1.00436457849152,0.3536625519751114,0.19512405225,2.6987095726458286,-1.086670082634548,-0.17882082585501102,-0.40770678907116076,,-0.8692013077268428,0.12215046587160908,0.20737269646000003,-0.7559322462617103,-0.7277259977507359,-0.8713330918535622,0.7120167842793232,,-0.042994004461315315,-0.08314748556500987,0.076974014,-0.05200662588628596,,5.3867698e-05,6.198883e-06,-8.583069e-06,1.0,-4.7691166e-05,-4.003197e-05,4.769489e-05,1.0,-3.8146973e-06,4.003197e-05,3.7550926e-06,1.0,1217,3.751,1,4,1.863,False,-0.2616653671792948,0.8850726235038913
3.7109720290027326,16:51:08.478956,16:50:52.713279,0,,0.109354526,0.006016612,0.03628634,-0.07158317,0.98535496,-0.15476198,-0.05499026,0.15102535,0.9869993,0.9959177,0.07916293,0.043373942,,0.07024848,-0.01831542,0.016230404,0.32039514,0.38575125,0.86518365,-0.63337034,-0.591924,0.49846548,0.7044068,-0.7076877,0.05467382,,0.10787811,1.346408,0.44467214,0.9966684,-0.003629574,-0.08147967,-0.055060625,-0.7669474,-0.63934344,-0.06017007,0.64169973,-0.76459205,,-0.06495754,0.27818045,-0.090183966,0.0033460837,-0.99070513,0.13598561,0.6043366,0.11034734,0.7890505,-0.79672205,0.07954086,0.59908867,,-0.0043130266,0.44253477,-0.31254,-0.37766802,-0.30986926,-0.8725525,-0.014749749,-0.94020844,0.34028003,-0.92582357,0.14138281,0.35051617,,0.9989354972809403,0.35518393035133367,0.19543256927000002,2.388578146232217,-1.078335256148856,0.08122712605872406,-0.40852350940183246,,-0.869209030459717,0.12213502040586062,0.20735973356,-0.7561419362051948,-0.7277259977507359,-0.8714147705937028,0.7069531182291606,,-0.042994004461315315,-0.08314748556500987,0.076974014,-0.05200662588628596,,5.3867698e-05,6.198883e-06,-8.583069e-06,1.0,-4.7691166e-05,-4.003197e-05,4.769489e-05,1.0,-3.8146973e-06,4.003197e-05,3.7550926e-06,1.0,1236,3.813,1,4,1.925,False,-0.2613079008681689,0.8796652410165922
3.809256848995574,16:51:08.546133,16:50:52.713279,0,,0.10862018,0.005990386,0.035712168,-0.16167884,0.97473025,-0.15414508,-0.05664459,0.1467762,0.98754656,0.98521644,0.16839688,0.031482548,,0.070247926,-0.018315837,0.016231537,0.32039514,0.38589257,0.86512065,-0.63337034,-0.5918426,0.49856216,0.7044068,-0.7076788,0.054789424,,0.10787811,1.346408,0.44467214,0.9966684,-0.003629574,-0.08147967,-0.055060625,-0.7669474,-0.63934344,-0.06017007,0.64169973,-0.76459205,,-0.0641849,0.27783182,-0.089795254,0.0939811,-0.98621565,0.13618457,0.60127854,0.16525102,0.7817648,-0.79349333,0.008413742,0.60852075,,-0.004312579,0.44253525,-0.31254113,-0.37766802,-0.31001177,-0.8725019,-0.014749749,-0.9401529,0.3404336,-0.92582357,0.14144006,0.35049307,,0.9967885775419059,0.35780965952856997,0.19574108629000003,2.215374252914,-1.052237684693657,0.2311449457873262,-0.40819682126956375,,-0.869209030459717,0.12213502040586062,0.20735843727000003,-0.7561419362051948,-0.7277259977507359,-0.8715781280739838,0.7023794843774007,,-0.042994004461315315,-0.08314748556500987,0.076974014,-0.05200662588628596,,5.3867698e-05,6.198883e-06,-8.583069e-06,1.0,-4.7691166e-05,-4.003197e-05,4.769489e-05,1.0,-3.8146973e-06,4.003197e-05,3.7550926e-06,1.0,1269,3.919,1,4,2.031,False,-0.26160578946077395,0.8748372209386464
3.876478406993556,16:51:08.652184,16:50:52.932652,0,,0.10760207,0.0060755163,0.033873215,-0.31136665,0.9414937,-0.12899733,-0.04898718,0.1196625,0.9916054,0.94902647,0.31507206,0.008862078,,0.07026511,-0.01831083,0.016258657,0.3203108,0.38663438,0.86482066,-0.6324866,-0.5923505,0.49908075,0.7052388,-0.7068485,0.05480483,,0.10787811,1.346408,0.44467214,0.9966684,-0.003629574,-0.08147967,-0.055060625,-0.7669474,-0.63934344,-0.06017007,0.64169973,-0.76459205,,-0.06304343,0.27676857,-0.08838382,0.24567674,-0.96278954,0.11260215,0.5922578,0.24104737,0.76884776,-0.767381,-0.12219851,0.62943935,,-0.004332301,0.44255593,-0.31255654,-0.3776735,-0.3108224,-0.8722111,-0.013533145,-0.9400213,0.34084728,-0.9258399,0.14053275,0.35081473,,0.9955606630149042,0.3611304346644865,0.19680404409000002,1.969198259263168,-0.9732617878292323,0.45825682101246107,-0.4070534128066239,,-0.8693094259870819,0.12214274313873484,0.20734806695000002,-0.7576097658095865,-0.7282725437497977,-0.8709690989789171,0.7000926674515209,,-0.042994004461315315,-0.08314748556500987,0.076974014,-0.05200662588628596,,5.3867698e-05,6.198883e-06,-8.583069e-06,1.0,-4.7691166e-05,-4.003197e-05,4.769489e-05,1.0,-3.8146973e-06,4.003197e-05,3.7550926e-06,1.0,1288,3.981,1,4,2.093,False,-0.26148663402373185,0.8746441001355283
3.9825385120057035,16:51:08.711353,16:50:52.932652,0,,0.107199475,0.006015703,0.031991586,-0.4005765,0.9112863,-0.09537108,-0.03281316,0.089752704,0.99542344,0.91567564,0.4018727,-0.006050706,,0.07027858,-0.018311277,0.016282022,0.3201785,0.3860853,0.86511487,-0.63237154,-0.5928589,0.49862266,0.70540196,-0.7067224,0.05432871,,0.10787811,1.346408,0.44467214,0.9966684,-0.003629574,-0.08147967,-0.055060625,-0.7669474,-0.63934344,-0.06017007,0.64169973,-0.76459205,,-0.062510714,0.27553245,-0.08700743,0.33671758,-0.93819827,0.080033004,0.58813363,0.27593204,0.76023704,-0.7353367,-0.20891507,0.6446971,,-0.0043479153,0.44257036,-0.31257316,-0.3775587,-0.31028143,-0.87245333,-0.013328943,-0.9402702,0.34016815,-0.92588973,0.14006232,0.35087144,,0.9947574987959849,0.36045083417155477,0.19790070543000002,1.85386879034668,-0.9053534474458085,0.5781646992169863,-0.40672672467435533,,-0.8694175442473211,0.12214274313873484,0.20733510405000002,-0.7578194557530711,-0.728409180249563,-0.870040893673815,0.6994392911869836,,-0.042994004461315315,-0.08314748556500987,0.076974014,-0.05200662588628596,,5.3867698e-05,6.198883e-06,-8.583069e-06,1.0,-4.7691166e-05,-4.003197e-05,4.769489e-05,1.0,-3.8146973e-06,4.003197e-05,3.7550926e-06,1.0,1307,4.042,1,4,2.154,False,-0.26136747858668974,0.8726163317027913
4.041713065002114,16:51:08.774208,16:50:52.932652,0,,0.107235715,0.0059400946,0.031188771,-0.44440627,0.8915798,-0.0871111,-0.024602711,0.08505729,0.9960723,0.8954875,0.44480404,-0.01586482,,0.07028034,-0.018310308,0.016287863,0.32016468,0.38603035,0.8651445,-0.6323798,-0.59289026,0.49857488,0.7054009,-0.706726,0.05429527,,0.10787811,1.346408,0.44467214,0.9966684,-0.003629574,-0.08147967,-0.055060625,-0.7669474,-0.63934344,-0.06017007,0.64169973,-0.76459205,,-0.06249014,0.2749551,-0.08644373,0.38170594,-0.92143893,0.07246281,0.58385664,0.3011527,0.75393534,-0.7165277,-0.2454737,0.65294003,,-0.004350246,0.44257492,-0.31257674,-0.3775447,-0.31022602,-0.87247914,-0.013334719,-0.9402917,0.34010834,-0.92589533,0.14004037,0.35086536,,0.9937535435223357,0.3605203387674228,0.19828959243000002,1.8037528938538785,-0.8692814115077322,0.6204643064845445,-0.40607334840981824,,-0.8694407124459438,0.12215046587160908,0.20733121518000003,-0.7578194557530711,-0.728409180249563,-0.8698775361935339,0.6986225708563125,,-0.042994004461315315,-0.08314748556500987,0.076974014,-0.05200662588628596,,5.3867698e-05,6.198883e-06,-8.583069e-06,1.0,-4.7691166e-05,-4.003197e-05,4.769489e-05,1.0,-3.8146973e-06,4.003197e-05,3.7550926e-06,1.0,1321,4.087,1,4,2.199,False,-0.2607717014014801,0.8715541672856433
4.1045595000032336,16:51:08.819213,16:50:53.093179,0,,0.10748067,0.0057995617,0.030752242,-0.4790626,0.87548053,-0.06350234,0.0011790097,0.07298595,0.9973323,0.87778,0.47770977,-0.035997093,,0.070275865,-0.018311247,0.01629293,0.3201737,0.38602692,0.8651427,-0.6323816,-0.5928852,0.49857855,0.70539516,-0.70673215,0.054290026,,0.10787811,1.346408,0.44467214,0.9966684,-0.003629574,-0.08147967,-0.055060625,-0.7669474,-0.63934344,-0.06017007,0.64169973,-0.76459205,,-0.062702075,0.2745526,-0.08619194,0.41709834,-0.9074691,0.050286956,0.59405285,0.31408212,0.74057657,-0.6878446,-0.27902013,0.67008775,,-0.004346245,0.44257793,-0.3125813,-0.37755314,-0.31022206,-0.8724769,-0.01334061,-0.9402919,0.34010765,-0.9258918,0.14004809,0.3508716,,0.9928422610431772,0.3605666751646681,0.19827662953000003,1.7853001788272402,-0.8251478220834948,0.6460620936565844,-0.40492993994687826,,-0.8694329897130695,0.1221581886044833,0.20732473373000002,-0.7578194557530711,-0.728409180249563,-0.8699592149336745,0.6973158183272383,,-0.042994004461315315,-0.08314748556500987,0.076974014,-0.05200662588628596,,5.3867698e-05,6.198883e-06,-8.583069e-06,1.0,-4.7691166e-05,-4.003197e-05,4.769489e-05,1.0,-3.8146973e-06,4.003197e-05,3.7550926e-06,1.0,1340,4.149,0,4,2.215,False,-0.2620824112089424,0.8699126404591415
