AlexandreBanks6/ExpertPlaybackApp/resources/Motions/Pilot_02/PC1/OneHanded_03.csv
Task Time,PC1 Time,PC2 Time,Gaze Calib,s_T_psm1,Tx,Ty,Tz,R00,R01,R02,R10,R11,R12,R20,R21,R22,s_T_psm3,Tx,Ty,Tz,R00,R01,R02,R10,R11,R12,R20,R21,R22,cart_T_ecm,Tx,Ty,Tz,R00,R01,R02,R10,R11,R12,R20,R21,R22,ecm_T_psm1,Tx,Ty,Tz,R00,R01,R02,R10,R11,R12,R20,R21,R22,ecm_T_psm3,Tx,Ty,Tz,R00,R01,R02,R10,R11,R12,R20,R21,R22,psm1_joints,q1,q2,q3,q4,q5,q6,jaw,psm3_joints,q1,q2,q3,q4,q5,q6,jaw,ecm_joints,q1,q2,q3,q4,ecmi_T_ecm,Tx,Ty,Tz,R00,R01,R02,R10,R11,R12,R20,R21,R22,Sample #,Task Duration (s),Collisions (binary),Collisions (increments),Cumulative Collision Time (s),Clutch Press,MTMR Angle,MTML Angle
""
lci_T_si,,,,,-0.06456479,0.007406022,0.24720375,0.9973357,0.020147903,0.070111655,0.061827518,-0.74354374,-0.66582286,0.038716145,0.6683837,-0.74280834
rci_T_si,,,,,-0.0744026,0.011494783,0.25608665,0.9940877,0.004322488,0.1084939,0.07677014,-0.7345955,-0.67414826,0.07678513,0.6784916,-0.73058414
ecm_T_lc,,,,,-4.4061628e-05,-0.00034663224,-0.01840835,-0.99912,0.030754527,0.028518902,-0.031987965,-0.99852574,-0.043852776,0.027128186,-0.04472645,0.9986309
ecm_T_rc,,,,,-0.0043358393,0.01870579,-0.007592615,-0.99555075,-0.052743673,-0.078081585,0.04863213,-0.9973746,0.053654674,-0.08070653,0.04961868,0.9955021
cart_T_ecmi,,,,,0.107823744,1.3464102,0.44466496,0.99667186,-0.0035817337,-0.081439786,-0.054998454,-0.76694757,-0.63934857,-0.06017007,0.64169973,-0.76459205
ecmac_T_ecmrep_psm1,,,,,0.0019077883,-0.24418817,-0.31129345,0.9990406,0.03670117,0.023893757,-0.03487346,0.99673134,-0.072872825,-0.026490174,0.07196965,0.997055
ecmac_T_ecmrep_psm3,,,,,-0.025437847,-0.43631262,-0.5392238,0.9997681,0.02112905,0.0041644988,-0.020983119,0.99925387,-0.03242474,-0.0048464956,0.032329835,0.9994655
""
0,16:57:30.435301,16:57:14.726626,0,,0.1214421,0.008744076,0.0119665265,0.8726524,0.47544587,-0.11148439,0.39922783,-0.5630953,0.72356117,0.28123778,-0.67592514,-0.681198,,0.0951663,-0.011671603,0.0012776256,0.2538014,0.47816667,0.84079814,-0.53016555,-0.6582832,0.534404,0.80901754,-0.58139455,0.086434215,,0.107936725,1.3464051,0.44466516,0.99666446,-0.0036845456,-0.08152549,-0.05513206,-0.7669471,-0.6393376,-0.06017007,0.64169973,-0.76459205,,-0.07542207,0.26389897,-0.06939101,-0.89611065,-0.41874033,0.14711295,0.43627062,-0.8919691,0.118571065,0.08156972,0.17043386,0.9819871,,-0.02783586,0.43553287,-0.295557,-0.32256374,-0.4130248,-0.85168254,0.13649672,-0.9106699,0.38993448,-0.9366543,0.009526844,0.35012564,,0.9495640660160231,0.36930108604541606,0.21277304060000002,3.7121410695065347,-0.045909863921187996,-0.3086364063335646,-0.4127704551213237,,-0.9304734703509401,0.09958464041312505,0.23362775412000003,-0.9251520306537214,-0.7845667816531591,-0.7875743809314734,0.8243975017797074,,-0.04375976767062783,-0.08274169651392119,0.07694186708,-0.052660797281082014,,0.00011286326,3.695488e-06,-6.198883e-06,1.0,-0.00010249764,-8.60244e-05,0.00010249764,0.9999999,-8.106232e-06,8.60244e-05,8.076429e-06,1.0,35,0.105,1,1,0.082,False,-0.2616653671792948,0.9994001389496494
0.13019660400459543,16:57:30.465573,16:57:14.726626,0,,0.12148071,0.008757681,0.011982486,0.8711813,0.47892982,-0.108024515,0.39945033,-0.5635042,0.72311985,0.2854514,-0.67311895,-0.68222314,,0.09522098,-0.011647791,0.0012747645,0.25387794,0.47813952,0.8407904,-0.5301563,-0.6582722,0.5344268,0.80899954,-0.58142954,0.086367935,,0.10794471,1.3464048,0.44467294,0.99666506,-0.003676127,-0.08151847,-0.05512112,-0.76694715,-0.6393385,-0.06017007,0.64169973,-0.76459205,,-0.075471126,0.26391158,-0.06938677,-0.89494246,-0.42239702,0.14373165,0.43923295,-0.890672,0.11737848,0.078437455,0.16817866,0.9826309,,-0.027899401,0.4355391,-0.295529,-0.32263288,-0.41298705,-0.8516747,0.13648368,-0.9106868,0.38989976,-0.9366324,0.009554776,0.3501835,,0.9495563432831489,0.36930880877829025,0.21277174431,3.7094151002412357,-0.049462412915089446,-0.30590289831773876,-0.41309714325359226,,-0.9304657476180658,0.09959236314599927,0.23362775412000003,-0.9251520306537214,-0.7845667816531591,-0.7874927021913327,0.824234157713573,,-0.04375976767062783,-0.08274169651392119,0.07694186708,-0.052660797281082014,,0.000120382756,8.940697e-06,-1.2516975e-05,1.0,-9.410456e-05,-7.897988e-05,9.410083e-05,1.0,-7.4505806e-06,7.8976154e-05,7.4207783e-06,1.0,48,0.145,1,1,0.122,False,-0.2618441003348577,1.000124341961341
0.16043666099722032,16:57:30.503118,16:57:14.726626,0,,0.12148457,0.00875853,0.01198338,0.8715587,0.47837847,-0.10742107,0.3983981,-0.5632975,0.7238611,0.28576958,-0.6736839,-0.681532,,0.0952193,-0.011647329,0.0012754798,0.25392267,0.4784242,0.8406149,-0.5300295,-0.6581619,0.5346884,0.8090687,-0.58132017,0.086456686,,0.10794471,1.3464048,0.44467294,0.99666506,-0.003676127,-0.08151847,-0.05512112,-0.76694715,-0.6393385,-0.06017007,0.64169973,-0.76459205,,-0.07547506,0.2639126,-0.069386736,-0.8953246,-0.4218112,0.14307038,0.4386147,-0.8908475,0.118354954,0.07753045,0.16871887,0.9826103,,-0.027897805,0.43554005,-0.29552934,-0.3226855,-0.4132821,-0.8515116,0.13662028,-0.9105528,0.39016473,-0.93659437,0.009566749,0.3502849,,0.9495640660160231,0.3692933633125418,0.21277174431,3.710253860015174,-0.05028223191368208,-0.30654125073780925,-0.41375051951812936,,-0.9304580248851916,0.09959236314599927,0.23362645783000002,-0.925361720597206,-0.7845667816531591,-0.7876560596716139,0.8242341577135732,,-0.04375976767062783,-0.08274169651392119,0.07694186708,-0.052660797281082014,,0.000120382756,8.940697e-06,-1.2516975e-05,1.0,-9.410456e-05,-7.897988e-05,9.410083e-05,1.0,-7.4505806e-06,7.8976154e-05,7.4207783e-06,1.0,56,0.171,1,1,0.148,False,-0.2618441003348577,0.9984828151348395
0.19801325800654013,16:57:30.534283,16:57:14.726626,0,,0.12148121,0.008757874,0.011984512,0.87156224,0.47836894,-0.10743502,0.398401,-0.5632959,0.72386074,0.28575477,-0.673692,-0.68153024,,0.0952186,-0.011649564,0.0012741685,0.253846,0.47819057,0.84077096,-0.5302797,-0.6581656,0.53443563,0.8089287,-0.58150816,0.086502016,,0.10794471,1.3464048,0.44467294,0.99666506,-0.003676127,-0.08151847,-0.05512112,-0.76694715,-0.6393385,-0.06017007,0.64169973,-0.76459205,,-0.075471774,0.263913,-0.06938816,-0.89532715,-0.42180115,0.1430842,0.4386072,-0.89085096,0.11835663,0.07754373,0.16872565,0.9826081,,-0.027896963,0.43553758,-0.29552996,-0.32259288,-0.41303176,-0.8516681,0.13634756,-0.9106651,0.389998,-0.936666,0.009687703,0.35008997,,0.9495795114817714,0.3692856405796676,0.21277044802000003,3.710253860015174,-0.05028223191368208,-0.30654125073780925,-0.41375051951812936,,-0.9304580248851916,0.09959236314599927,0.23362645783000002,-0.9249423407102368,-0.7845667816531591,-0.7877377384117544,0.8243975017797074,,-0.04375976767062783,-0.08274169651392119,0.07694186708,-0.052660797281082014,,0.000120382756,8.940697e-06,-1.2516975e-05,1.0,-9.410456e-05,-7.897988e-05,9.410083e-05,1.0,-7.4505806e-06,7.8976154e-05,7.4207783e-06,1.0,64,0.195,1,1,0.172,False,-0.2618441003348577,0.9988207765402957
0.2291581320023397,16:57:30.558398,16:57:14.857406,0,,0.121479094,0.008757353,0.011984214,0.87146175,0.4785365,-0.107503876,0.3985624,-0.5632098,0.7238389,0.28583613,-0.67364496,-0.6815426,,0.09521639,-0.011649296,0.001275599,0.25372827,0.4781197,0.8408469,-0.5302698,-0.65827155,0.53431493,0.8089721,-0.58144647,0.08651036,,0.10794471,1.3464048,0.44467294,0.99666506,-0.003676127,-0.08151847,-0.05512112,-0.76694715,-0.6393385,-0.06017007,0.64169973,-0.76459205,,-0.075469635,0.26391253,-0.06938836,-0.89523506,-0.42197287,0.14315405,0.43878835,-0.8907645,0.11833591,0.077582,0.16875279,0.9826004,,-0.027894894,0.4355389,-0.29553092,-0.3224799,-0.41296574,-0.8517429,0.13639267,-0.9106963,0.3899093,-0.9366983,0.009566426,0.35000676,,0.9495872342146457,0.36927791784679337,0.21277044802000003,3.7100441700716895,-0.05028223191368208,-0.30654125073780925,-0.41375051951812936,,-0.9304503021523174,0.0996000858788735,0.23362516154000001,-0.9249423407102368,-0.7847034181529245,-0.787626320508058,0.8234174373829017,,-0.04375976767062783,-0.08274169651392119,0.07694186708,-0.052660797281082014,,0.000120382756,8.940697e-06,-1.2516975e-05,1.0,-9.410456e-05,-7.897988e-05,9.410083e-05,1.0,-7.4505806e-06,7.8976154e-05,7.4207783e-06,1.0,81,0.248,1,1,0.225,False,-0.2618441003348577,0.9988690567410752
0.2532519050000701,16:57:30.604304,16:57:14.857406,0,,0.12147916,0.008759737,0.011987165,0.87043226,0.48030007,-0.1079789,0.40006846,-0.5623348,0.72368836,0.2868673,-0.67312056,-0.6816274,,0.09521589,-0.011647671,0.0012758374,0.25373146,0.47819042,0.8408057,-0.5302739,-0.6582221,0.53437173,0.8089685,-0.58144414,0.08656019,,0.10794471,1.3464048,0.44467294,0.99666506,-0.003676127,-0.08151847,-0.05512112,-0.76694715,-0.6393385,-0.06017007,0.64169973,-0.76459205,,-0.07546994,0.26391625,-0.06938905,-0.89430285,-0.42378187,0.1436361,0.44065952,-0.88985926,0.11819331,0.077727735,0.16899523,0.9825472,,-0.027894441,0.43554032,-0.29553005,-0.3224827,-0.41303697,-0.85170734,0.13638695,-0.9106636,0.38998762,-0.9366982,0.009602508,0.35000613,,0.9495949569475199,0.3692856405796676,0.21276915173000002,3.707947270636844,-0.050418868413447525,-0.3065115115742534,-0.4135871754519951,,-0.9304503021523174,0.09960780861174773,0.23362516154000001,-0.9249423407102368,-0.7847034181529245,-0.7877079992481986,0.8235807814490359,,-0.04375976767062783,-0.08274169651392119,0.07694186708,-0.052660797281082014,,0.000120382756,8.940697e-06,-1.2516975e-05,1.0,-9.410456e-05,-7.897988e-05,9.410083e-05,1.0,-7.4505806e-06,7.8976154e-05,7.4207783e-06,1.0,89,0.273,1,1,0.25,False,-0.26160578946077395,0.9992552983473109
0.299188563003554,16:57:30.635290,16:57:14.857406,0,,0.12150945,0.008777216,0.011997908,0.86850315,0.484627,-0.1041097,0.40061498,-0.5625856,0.72319084,0.29190722,-0.66980153,-0.68275636,,0.095214486,-0.011647925,0.0012748837,0.2537379,0.47818664,0.8408059,-0.5302722,-0.6582229,0.53437245,0.8089676,-0.5814465,0.08655292,,0.10794471,1.3464048,0.44467294,0.99666506,-0.003676127,-0.08151847,-0.05512112,-0.76694715,-0.6393385,-0.06017007,0.64169973,-0.76459205,,-0.07550117,0.2639348,-0.06938464,-0.89273584,-0.4283237,0.13986248,0.44443515,-0.8881551,0.11686719,0.07416259,0.16649133,0.98324996,,-0.027892947,0.43553957,-0.2955296,-0.32248905,-0.41303295,-0.85170686,0.13638717,-0.91066545,0.3899833,-0.936696,0.009603445,0.35001203,,0.9496026796803941,0.3692856405796676,0.21277044802000003,3.7043825415976075,-0.05451796340641074,-0.30341401068378243,-0.414077207650398,,-0.9304425794194432,0.09960780861174773,0.23362516154000001,-0.9249423407102368,-0.7847034181529245,-0.7877079992481986,0.8235807814490359,,-0.04375976767062783,-0.08274169651392119,0.07694186708,-0.052660797281082014,,0.000120382756,8.940697e-06,-1.2516975e-05,1.0,-9.410456e-05,-7.897988e-05,9.410083e-05,1.0,-7.4505806e-06,7.8976154e-05,7.4207783e-06,1.0,106,0.325,1,1,0.302,False,-0.26136747858668974,0.999158737945752
0.3301354160066694,16:57:30.687874,16:57:14.857406,0,,0.12152029,0.008788064,0.012034103,0.8687099,0.4849338,-0.100907,0.39875996,-0.5638444,0.72323585,0.29382566,-0.6685198,-0.6831895,,0.095214486,-0.011647925,0.0012748837,0.2537379,0.47818664,0.8408059,-0.5302722,-0.6582229,0.53437245,0.8089676,-0.5814465,0.08655292,,0.10794471,1.3464048,0.44467294,0.99666506,-0.003676127,-0.08151847,-0.05512112,-0.76694715,-0.6393385,-0.06017007,0.64169973,-0.76459205,,-0.07551465,0.2639658,-0.0694047,-0.893046,-0.42869884,0.13669711,0.44424656,-0.8883054,0.11644089,0.07151071,0.16471429,0.98374563,,-0.027892947,0.43553957,-0.2955296,-0.32248905,-0.41303295,-0.85170686,0.13638717,-0.91066545,0.3899833,-0.936696,0.009603445,0.35001203,,0.9496876297420106,0.36933197697691295,0.21274581851000002,3.7050116114280605,-0.057114056901954105,-0.3015421067339721,-0.4139138635842636,,-0.9304425794194432,0.09960780861174773,0.23362516154000001,-0.9249423407102368,-0.7847034181529245,-0.7877079992481986,0.8235807814490359,,-0.04375976767062783,-0.08274169651392119,0.07694186708,-0.052660797281082014,,0.000120382756,8.940697e-06,-1.2516975e-05,1.0,-9.410456e-05,-7.897988e-05,9.410083e-05,1.0,-7.4505806e-06,7.8976154e-05,7.4207783e-06,1.0,114,0.351,1,1,0.328,False,-0.26243987752006825,0.999158737945752
0.38276345099438913,16:57:30.717030,16:57:14.990569,0,,0.121519476,0.008797705,0.012121558,0.86876297,0.48528022,-0.09876162,0.39759225,-0.564578,0.72330636,0.29524764,-0.6676487,-0.6834282,,0.095214486,-0.011647925,0.0012748837,0.2537379,0.47818664,0.8408059,-0.5302722,-0.6582229,0.53437245,0.8089676,-0.5814465,0.08655292,,0.10794471,1.3464048,0.44467294,0.99666506,-0.003676127,-0.08151847,-0.05512112,-0.76694715,-0.6393385,-0.06017007,0.64169973,-0.76459205,,-0.075520046,0.26402956,-0.069465086,-0.89317924,-0.42909333,0.13457257,0.44427046,-0.8883225,0.11621925,0.06967493,0.16359125,0.9840647,,-0.027892947,0.43553957,-0.2955296,-0.32248905,-0.41303295,-0.85170686,0.13638717,-0.91066545,0.3899833,-0.936696,0.009603445,0.35001203,,0.9498652525981178,0.3694864316343974,0.21267581885000003,3.705221301371546,-0.05889033139890483,-0.30017535272605916,-0.4137505195181293,,-0.9304425794194432,0.09960780861174773,0.23362516154000001,-0.9249423407102368,-0.7847034181529245,-0.7877079992481986,0.824234157713573,,-0.04375976767062783,-0.08274169651392119,0.07694186708,-0.052660797281082014,,0.000120382756,8.940697e-06,-1.2516975e-05,1.0,-9.410456e-05,-7.897988e-05,9.410083e-05,1.0,-7.4505806e-06,7.8976154e-05,7.4207783e-06,1.0,127,0.391,1,1,0.368,False,-0.2611887454311268,0.9994966993512082
0.411879797000438,16:57:30.749455,16:57:14.990569,0,,0.121543124,0.008798063,0.012339309,0.8689637,0.4856961,-0.09487489,0.39533925,-0.5659906,0.7234373,0.29767236,-0.66614854,-0.68384016,,0.0952153,-0.01165022,0.001275599,0.25360733,0.47811544,0.84088576,-0.5302558,-0.6583395,0.5342451,0.8090192,-0.581373,0.086563766,,0.10794471,1.3464048,0.44467294,0.99666506,-0.003676127,-0.08151847,-0.05512112,-0.76694715,-0.6393385,-0.06017007,0.64169973,-0.76459205,,-0.0755587,0.26416892,-0.06962958,-0.89351225,-0.42959,0.13072209,0.44410533,-0.88845545,0.11583344,0.06637986,0.16155298,0.98462903,,-0.0278938,0.43553832,-0.29553163,-0.32236415,-0.4129676,-0.85178584,0.1364435,-0.9106965,0.38989103,-0.93673074,0.009466253,0.34992266,,0.9501046573172187,0.36989573647673135,0.21248915309000002,3.705850371201999,-0.06189633439374452,-0.2977241588447379,-0.41407720765039796,,-0.9304425794194432,0.0996000858788735,0.23362516154000001,-0.9249423407102368,-0.7848400546526899,-0.7875965813445023,0.8245608458458418,,-0.04375976767062783,-0.08274169651392119,0.07694186708,-0.052660797281082014,,0.000120382756,8.940697e-06,-1.2516975e-05,1.0,-9.410456e-05,-7.897988e-05,9.410083e-05,1.0,-7.4505806e-06,7.8976154e-05,7.4207783e-06,1.0,135,0.416,1,1,0.393,False,-0.26255903295711036,1.000414023166018
0.4443351030058693,16:57:30.774354,16:57:14.990569,0,,0.12157048,0.008820534,0.012620375,0.8692198,0.48563647,-0.09281266,0.39345673,-0.56573737,0.72466063,0.29941407,-0.66640717,-0.6828271,,0.09521445,-0.011649743,0.0012752414,0.2535722,0.478035,0.8409421,-0.53038496,-0.6583139,0.53414845,0.8089456,-0.5814682,0.08661249,,0.10794471,1.3464048,0.44467294,0.99666506,-0.003676127,-0.08151847,-0.05512112,-0.76694715,-0.6393385,-0.06017007,0.64169973,-0.76459205,,-0.075605795,0.26436573,-0.06982781,-0.8938589,-0.42951655,0.12857597,0.44377902,-0.88842577,0.117302515,0.06384683,0.16191122,0.9847377,,-0.027892927,0.4355385,-0.2955311,-0.3223206,-0.41287887,-0.8518453,0.13630146,-0.9107359,0.38984874,-0.93676645,0.0095485225,0.34982494,,0.9504290120979362,0.37056761423678886,0.21225841347000002,3.7064794410324526,-0.06394588189022614,-0.2975231076118217,-0.4140772076503979,,-0.9304425794194432,0.09960780861174773,0.23362516154000001,-0.9247326507667525,-0.7848400546526899,-0.7876782600846428,0.825377566176513,,-0.04375976767062783,-0.08274169651392119,0.07694186708,-0.052660797281082014,,0.000120382756,8.940697e-06,-1.2516975e-05,1.0,-9.410456e-05,-7.897988e-05,9.410083e-05,1.0,-7.4505806e-06,7.8976154e-05,7.4207783e-06,1.0,148,0.456,1,1,0.433,False,-0.26148663402373185,1.0012830667800483
0.4692421610088786,16:57:30.812642,16:57:14.990569,0,,0.12164518,0.008881837,0.013060719,0.86997634,0.48505625,-0.08866531,0.38921663,-0.56511205,0.727433,0.30274013,-0.66735953,-0.6804262,,0.09521145,-0.011651903,0.0012758374,0.25354022,0.47774267,0.84111786,-0.5305083,-0.6584254,0.5338884,0.8088747,-0.5815821,0.08650908,,0.10794471,1.3464048,0.44467294,0.99666506,-0.003676127,-0.08151847,-0.05512112,-0.76694715,-0.6393385,-0.06017007,0.64169973,-0.76459205,,-0.07571173,0.2646922,-0.07012011,-0.8947779,-0.42888165,0.12422988,0.442649,-0.88853043,0.12072909,0.05860354,0.16301595,0.9848814,,-0.027889963,0.43553746,-0.29553315,-0.3222806,-0.4125757,-0.8520073,0.13616538,-0.9108734,0.38957497,-0.9368,0.00953854,0.34973532,,0.9508769306046412,0.37175691509941944,0.21191100775000002,3.708366650523813,-0.06818161338295478,-0.2978263746436985,-0.41440389578266645,,-0.9304348566865689,0.09960780861174773,0.23362256896000003,-0.9245229608232679,-0.7848400546526899,-0.7875149026043617,0.8257042543087816,,-0.04375976767062783,-0.08274169651392119,0.07694186708,-0.052660797281082014,,0.000120382756,8.940697e-06,-1.2516975e-05,1.0,-9.410456e-05,-7.897988e-05,9.410083e-05,1.0,-7.4505806e-06,7.8976154e-05,7.4207783e-06,1.0,156,0.482,1,1,0.459,False,-0.26112916771260597,1.0013313469808274
0.5074698370008264,16:57:30.837239,16:57:14.990569,0,,0.12170705,0.008925751,0.013309091,0.8703182,0.48545942,-0.08291766,0.38519275,-0.5660782,0.72882235,0.3068758,-0.6662466,-0.6796638,,0.095209144,-0.011654094,0.0012735724,0.25354987,0.47773293,0.8411205,-0.5305007,-0.6584326,0.533887,0.8088767,-0.58158195,0.08649212,,0.10794471,1.3464048,0.44467294,0.99666506,-0.003676127,-0.08151847,-0.05512112,-0.76694715,-0.6393385,-0.06017007,0.64169973,-0.76459205,,-0.075791314,0.26488233,-0.07027812,-0.8953426,-0.42934576,0.11842236,0.44222936,-0.88857204,0.121954404,0.052866194,0.16156082,0.98544574,,-0.027887428,0.43553454,-0.29553312,-0.32229045,-0.41256595,-0.85200834,0.13617158,-0.9108778,0.38956237,-0.9367957,0.009532916,0.349747,,0.9511317807894906,0.3724056246608543,0.21172174941000002,3.7096247901847206,-0.07337380037404152,-0.2958794990271702,-0.41407720765039785,,-0.9304194112208205,0.0996000858788735,0.23362256896000003,-0.9245229608232679,-0.7848400546526899,-0.7875149026043617,0.8257042543087816,,-0.04375976767062783,-0.08274169651392119,0.07694186708,-0.052660797281082014,,0.000120382756,8.940697e-06,-1.2516975e-05,1.0,-9.410456e-05,-7.897988e-05,9.410083e-05,1.0,-7.4505806e-06,7.8976154e-05,7.4207783e-06,1.0,169,0.522,1,1,0.499,False,-0.26249945523859,1.0017658687878426
0.5321303410019027,16:57:30.875501,16:57:14.990569,0,,0.12179165,0.008994356,0.013770536,0.87065893,0.48587385,-0.07667824,0.37976977,-0.5649174,0.7325594,0.3126146,-0.6669295,-0.6763707,,0.09520068,-0.011655241,0.0012721419,0.2534578,0.47778407,0.8411191,-0.5304837,-0.6584543,0.53387713,0.8089166,-0.58151543,0.08656627,,0.10794471,1.3464048,0.44467294,0.99666506,-0.003676127,-0.08151847,-0.05512112,-0.76694715,-0.6393385,-0.06017007,0.64169973,-0.76459205,,-0.07590869,0.26522738,-0.07058136,-0.8959954,-0.4297299,0.11191276,0.44177708,-0.888151,0.12657325,0.045003124,0.16284953,0.985624,,-0.027878858,0.43553334,-0.29553336,-0.32220283,-0.4126229,-0.8520139,0.13621764,-0.9108527,0.3896051,-0.93681914,0.009472543,0.34968582,,0.9516492038920636,0.3735949255234849,0.21136267708000003,3.711092619789112,-0.08034226186207899,-0.29624141270905435,-0.4134238313858608,,-0.9303807975564493,0.09960780861174773,0.23361997638,-0.9245229608232679,-0.7849766911524554,-0.7875668421809463,0.8257042543087816,,-0.04375976767062783,-0.08274169651392119,0.07694186708,-0.052660797281082014,,0.000120382756,8.940697e-06,-1.2516975e-05,1.0,-9.410456e-05,-7.897988e-05,9.410083e-05,1.0,-7.4505806e-06,7.8976154e-05,7.4207783e-06,1.0,173,0.534,1,1,0.511,False,-0.2607717014014801,1.0003174627644589
0.5703934799967101,16:57:30.897769,16:57:14.990569,0,,0.12181747,0.009009615,0.013979107,0.87036556,0.4869535,-0.07307471,0.37786672,-0.5653591,0.7332024,0.31572205,-0.66576666,-0.6760728,,0.09519943,-0.011658281,0.0012702346,0.2534226,0.47762704,0.84121895,-0.53060293,-0.6584844,0.5337216,0.80884945,-0.5816104,0.08655548,,0.10794471,1.3464048,0.44467294,0.99666506,-0.003676127,-0.08151847,-0.05512112,-0.76694715,-0.6393385,-0.06017007,0.64169973,-0.76459205,,-0.07594911,0.26537204,-0.07072916,-0.89588827,-0.4308805,0.108287714,0.4423469,-0.887799,0.1270515,0.041393712,0.16172469,0.9859674,,-0.027877396,0.43552992,-0.2955341,-0.32215998,-0.4124572,-0.8521103,0.13608733,-0.9109273,0.38947615,-0.9368528,0.009512214,0.34959453,,0.9519117768097873,0.3740351212973157,0.21119286309000002,3.710882929845628,-0.08375817435621499,-0.29459946747861165,-0.41505727204720366,,-0.9303730748235751,0.0996000858788735,0.23361997638,-0.9243132708797833,-0.7849766911524554,-0.7875668421809464,0.8260309424410504,,-0.04375976767062783,-0.08274169651392119,0.07694186708,-0.052660797281082014,,0.000120382756,8.940697e-06,-1.2516975e-05,1.0,-9.410456e-05,-7.897988e-05,9.410083e-05,1.0,-7.4505806e-06,7.8976154e-05,7.4207783e-06,1.0,190,0.587,1,1,0.564,False,-0.26095043455704303,0.9994484191504285
0.5926507230033167,16:57:30.943167,16:57:15.208897,0,,0.12189704,0.009008437,0.014628619,0.8688209,0.49168533,-0.0582722,0.36975488,-0.56604457,0.7368004,0.3292893,-0.66169405,-0.67359453,,0.09519869,-0.011660725,0.0012720227,0.2534194,0.47769368,0.84118205,-0.5305988,-0.6584465,0.5337724,0.8088532,-0.5815986,0.08660057,,0.10794471,1.3464048,0.44467294,0.99666506,-0.003676127,-0.08151847,-0.05512112,-0.76694715,-0.6393385,-0.06017007,0.64169973,-0.76459205,,-0.07607341,0.26578546,-0.07122092,-0.8951603,-0.43587154,0.09329512,0.4449998,-0.8859632,0.13055424,0.025751162,0.1583833,0.98704183,,-0.0278768,0.4355294,-0.29553714,-0.32215717,-0.41252515,-0.8520785,0.13609305,-0.9108963,0.3895466,-0.93685293,0.009533276,0.3495936,,0.9527535546930778,0.3750467993038391,0.21064453242000003,3.709834480128205,-0.09919809882970976,-0.2897687246742695,-0.4129337991874579,,-0.9303730748235751,0.09959236314599927,0.23361738380000002,-0.9243132708797833,-0.7849766911524554,-0.787648520921087,0.8242341577135732,,-0.04375976767062783,-0.08274169651392119,0.07694186708,-0.052660797281082014,,0.000120382756,8.940697e-06,-1.2516975e-05,1.0,-9.410456e-05,-7.897988e-05,9.410083e-05,1.0,-7.4505806e-06,7.8976154e-05,7.4207783e-06,1.0,211,0.653,1,1,0.63,False,-0.26136747858668974,0.996841288308338
0.6380332929984434,16:57:31.008623,16:57:15.208897,0,,0.12196665,0.009166092,0.015285164,0.8668839,0.49678606,-0.041422673,0.35958165,-0.565581,0.7421719,0.34527278,-0.6582717,-0.6689283,,0.09519786,-0.011670008,0.0012745261,0.2533681,0.47774038,0.841171,-0.53070754,-0.6583621,0.5337685,0.80879796,-0.5816557,0.08673245,,0.10794471,1.3464048,0.44467294,0.99666506,-0.003676127,-0.08151847,-0.05512112,-0.76694715,-0.6393385,-0.06017007,0.64169973,-0.76459205,,-0.076190725,0.26632506,-0.07161566,-0.8941762,-0.44120345,0.07608172,0.44766176,-0.8836917,0.13670379,0.0069186036,0.15629616,0.987686,,-0.02787609,0.4355243,-0.2955453,-0.3220996,-0.4125673,-0.85207987,0.13597968,-0.91087615,0.38963333,-0.93688923,0.009635182,0.34949362,,0.9540741420145702,0.3765372867485644,0.21017657173,3.7087860304107823,-0.11764402629804423,-0.2856722588540879,-0.41293379918745793,,-0.9303730748235751,0.09956147221450237,0.23361219864000002,-0.9241035809362987,-0.7849766911524554,-0.7878935571415087,0.8217839967215588,,-0.04375976767062783,-0.08274169651392119,0.07694186708,-0.052660797281082014,,0.000120382756,8.940697e-06,-1.2516975e-05,1.0,-9.410456e-05,-7.897988e-05,9.410083e-05,1.0,-7.4505806e-06,7.8976154e-05,7.4207783e-06,1.0,219,0.679,0,1,0.642,False,-0.26059296824591627,0.9933651138522168
0.7035163830005331,16:57:31.033569,16:57:15.208897,0,,0.12198326,0.009299785,0.015604958,0.86687416,0.49710298,-0.03765187,0.3567555,-0.56582576,0.74334836,0.3482163,-0.6578221,-0.66784406,,0.09519898,-0.011675611,0.0012773871,0.25318947,0.47772586,0.841233,-0.53081375,-0.6583765,0.53364515,0.8087842,-0.5816514,0.086889416,,0.10794471,1.3464048,0.44467294,0.99666506,-0.003676127,-0.08151847,-0.05512112,-0.76694715,-0.6393385,-0.06017007,0.64169973,-0.76459205,,-0.07623149,0.26663223,-0.07177188,-0.8943263,-0.4415469,0.07222711,0.44740617,-0.8836062,0.1380863,0.0028487435,0.15580907,0.9877831,,-0.027877418,0.43552205,-0.29555115,-0.32191914,-0.41255304,-0.8521549,0.13590533,-0.9108828,0.38964385,-0.936962,0.009621418,0.34929878,,0.9548000789047473,0.3776725284810754,0.20996916533,3.709205410297751,-0.12105993879218024,-0.2841119923637858,-0.41244376698905505,,-0.9303807975564493,0.09954602674875393,0.23360960606000003,-0.9238938909928144,-0.7851133276522209,-0.7880271754582339,0.8193338357295445,,-0.04375976767062783,-0.08274169651392119,0.07694186708,-0.052660797281082014,,0.000120382756,8.940697e-06,-1.2516975e-05,1.0,-9.410456e-05,-7.897988e-05,9.410083e-05,1.0,-7.4505806e-06,7.8976154e-05,7.4207783e-06,1.0,236,0.731,0,1,0.642,False,-0.26285692154971585,0.992109828631951
0.7284642209997401,16:57:31.083493,16:57:15.208897,0,,0.12201819,0.009476185,0.016087323,0.8664795,0.49836028,-0.029157761,0.35139346,-0.5673828,0.7447144,0.35459244,-0.65552557,-0.66674626,,0.09519838,-0.011688039,0.0012772679,0.25313812,0.47769597,0.8412654,-0.53091234,-0.6583479,0.5335822,0.8087355,-0.5817083,0.086961776,,0.10794471,1.3464048,0.44467294,0.99666506,-0.003676127,-0.08151847,-0.05512112,-0.76694715,-0.6393385,-0.06017007,0.64169973,-0.76459205,,-0.07630245,0.26707575,-0.07202339,-0.8942906,-0.44293573,0.06365722,0.44745296,-0.88338333,0.13935469,-0.005491454,0.1531072,0.98819435,,-0.027876643,0.43551284,-0.29555947,-0.32186225,-0.41251826,-0.8521933,0.1358037,-0.9108979,0.38964394,-0.9369963,0.009680675,0.34920514,,0.9558194796441449,0.37917073865867496,0.20965675944000003,3.7096247901847206,-0.12857494627927946,-0.27986261868371554,-0.41456723984880073,,-0.9303730748235751,0.09949969035150859,0.23360571719000003,-0.9236842010493298,-0.7851133276522209,-0.7881905329385149,0.8180270832004706,,-0.04375976767062783,-0.08274169651392119,0.07694186708,-0.052660797281082014,,0.000120382756,8.940697e-06,-1.2516975e-05,1.0,-9.410456e-05,-7.897988e-05,9.410083e-05,1.0,-7.4505806e-06,7.8976154e-05,7.4207783e-06,1.0,261,0.809,0,1,0.642,False,-0.26196325577190027,0.9901786206007726
0.7783658349944744,16:57:31.162782,16:57:15.389268,0,,0.121997856,0.00944528,0.01658456,0.8666906,0.49811158,-0.027060382,0.34777397,-0.5644396,0.7486396,0.3576321,-0.65824974,-0.66242486,,0.09520145,-0.011693209,0.0012804866,0.25311568,0.47790357,0.8411543,-0.5309036,-0.6582327,0.533733,0.8087483,-0.581668,0.08711174,,0.10794471,1.3464048,0.44467294,0.99666506,-0.003676127,-0.08151847,-0.05512112,-0.76694715,-0.6393385,-0.06017007,0.64169973,-0.76459205,,-0.076316096,0.26737398,-0.07242276,-0.8946552,-0.44254488,0.06120514,0.4466422,-0.88288254,0.14501445,-0.010138448,0.15707473,0.9875347,,-0.02787994,0.43551096,-0.29556516,-0.3218412,-0.41273016,-0.85209864,0.13582042,-0.91080123,0.38986394,-0.9370011,0.009741892,0.34919053,,0.9566071983973158,0.37995073467897167,0.20921861342000003,3.7106732399021434,-0.1328106777720081,-0.283024641620512,-0.4134238313858608,,-0.9303885202893236,0.09947652215288591,0.23360312461000002,-0.9236842010493298,-0.7851133276522209,-0.7884355691589366,0.8149235459439192,,-0.04375976767062783,-0.08274169651392119,0.07694186708,-0.052660797281082014,,0.000120382756,8.940697e-06,-1.2516975e-05,1.0,-9.410456e-05,-7.897988e-05,9.410083e-05,1.0,-7.4505806e-06,7.8976154e-05,7.4207783e-06,1.0,265,0.822,0,1,0.642,False,-0.26101001227556386,0.9871852481524461
0.8576724309968995,16:57:31.190269,16:57:15.389268,0,,0.12198381,0.009391621,0.01674442,0.8668153,0.49788412,-0.027248356,0.34746832,-0.5639416,0.74915665,0.35762677,-0.65884846,-0.66183233,,0.0952018,-0.011692062,0.0012810826,0.2531542,0.47791734,0.8411349,-0.5307787,-0.6582963,0.5337789,0.8088183,-0.5815848,0.087017834,,0.10794471,1.3464048,0.44467294,0.99666506,-0.003676127,-0.08151847,-0.05512112,-0.76694715,-0.6393385,-0.06017007,0.64169973,-0.76459205,,-0.07631232,0.26743695,-0.07257975,-0.89477456,-0.44228432,0.061343618,0.4463987,-0.8828761,0.1458013,-0.0103268195,0.15784302,0.98741025,,-0.027880363,0.4355122,-0.29556483,-0.32188767,-0.41275093,-0.852071,0.13595666,-0.91079295,0.38983586,-0.9369654,0.009638635,0.34928924,,0.9567693757876745,0.380066575672085,0.20905398459000002,3.710882929845628,-0.13294731427177356,-0.28364833237808074,-0.4135871754519951,,-0.9303885202893236,0.09947652215288591,0.23360312461000002,-0.9238938909928144,-0.7851133276522209,-0.7882722116786555,0.814923545943919,,-0.04375976767062783,-0.08274169651392119,0.07694186708,-0.052660797281082014,,0.000120382756,8.940697e-06,-1.2516975e-05,1.0,-9.410456e-05,-7.897988e-05,9.410083e-05,1.0,-7.4505806e-06,7.8976154e-05,7.4207783e-06,1.0,282,0.874,0,1,0.642,False,-0.26041423509035333,0.9865576055423133
0.8851633230078733,16:57:31.232063,16:57:15.389268,0,,0.122017,0.009381846,0.017011195,0.86378044,0.5032526,-0.024902131,0.34910014,-0.5620926,0.74978733,0.36333513,-0.65634495,-0.6612102,,0.09520526,-0.01168935,0.0012815595,0.2533071,0.4779392,0.8410763,-0.53066945,-0.6582911,0.5338939,0.808842,-0.5815727,0.08687788,,0.10794471,1.3464048,0.44467294,0.99666506,-0.003676127,-0.08151847,-0.05512112,-0.76694715,-0.6393385,-0.06017007,0.64169973,-0.76459205,,-0.076363735,0.26759964,-0.07278773,-0.8921676,-0.4478412,0.05895046,0.45149523,-0.8801563,0.14655037,-0.013745678,0.15736336,0.9874451,,-0.027883897,0.4355143,-0.29556313,-0.3220435,-0.4127739,-0.85200095,0.13604176,-0.9107826,0.38983044,-0.9368995,0.009634652,0.34946612,,0.9570087805067755,0.3805376623774127,0.20882454126000002,3.70543099131503,-0.13677313626520587,-0.28208052713725157,-0.4130971432535922,,-0.930403965755072,0.09947652215288591,0.23360442090000003,-0.9241035809362987,-0.7849766911524554,-0.7881385933619303,0.8124733849519052,,-0.04375976767062783,-0.08274169651392119,0.07694186708,-0.052660797281082014,,0.000120382756,8.940697e-06,-1.2516975e-05,1.0,-9.410456e-05,-7.897988e-05,9.410083e-05,1.0,-7.4505806e-06,7.8976154e-05,7.4207783e-06,1.0,290,0.9,0,1,0.642,False,-0.26095043455704303,0.9861230837352981
0.9269560249958886,16:57:31.264863,16:57:15.556050,0,,0.12205489,0.009364128,0.017295197,0.86313933,0.5044489,-0.02283965,0.347491,-0.5605418,0.7516933,0.3663883,-0.6567527,-0.6591173,,0.09520667,-0.011689097,0.0012825727,0.25330073,0.47794303,0.84107614,-0.53067124,-0.6582904,0.53389305,0.80884284,-0.58157045,0.086885184,,0.10794471,1.3464048,0.44467294,0.99666506,-0.003676127,-0.08151847,-0.05512112,-0.76694715,-0.6393385,-0.06017007,0.64169973,-0.76459205,,-0.076420896,0.26776713,-0.073013745,-0.8917145,-0.44903034,0.05671876,0.45227376,-0.8793049,0.14923602,-0.017138422,0.15872833,0.98717356,,-0.02788539,0.43551505,-0.29556358,-0.3220372,-0.41277793,-0.8520014,0.13604152,-0.9107807,0.38983476,-0.9369017,0.009633716,0.3494602,,0.9572404624930022,0.38107053094573423,0.20857565358000002,3.704801921484576,-0.139915775759811,-0.28294842243813756,-0.4134238313858608,,-0.9304116884879463,0.09947652215288591,0.23360442090000003,-0.9241035809362987,-0.7849766911524554,-0.7881385933619303,0.8124733849519052,,-0.04375976767062783,-0.08274169651392119,0.07694186708,-0.052660797281082014,,0.000120382756,8.940697e-06,-1.2516975e-05,1.0,-9.410456e-05,-7.897988e-05,9.410083e-05,1.0,-7.4505806e-06,7.8976154e-05,7.4207783e-06,1.0,307,0.952,0,1,0.642,False,-0.26112916771260597,0.9857368421290624
0.9596704930008855,16:57:31.313060,16:57:15.556050,0,,0.1220717,0.009310961,0.017561346,0.8630221,0.5046647,-0.022499088,0.3465747,-0.5590948,0.7531925,0.3675306,-0.65781945,-0.6574154,,0.09520667,-0.011689097,0.0012825727,0.25330073,0.47794303,0.84107614,-0.53067124,-0.6582904,0.53389305,0.80884284,-0.58157045,0.086885184,,0.10794471,1.3464048,0.44467294,0.99666506,-0.003676127,-0.08151847,-0.05512112,-0.76694715,-0.6393385,-0.06017007,0.64169973,-0.76459205,,-0.07645525,0.26789728,-0.073250026,-0.89166236,-0.4491943,0.056238003,0.45231855,-0.878902,0.15145692,-0.018605897,0.16048592,0.9868628,,-0.02788539,0.43551505,-0.29556358,-0.3220372,-0.41277793,-0.8520014,0.13604152,-0.9107807,0.38983476,-0.9369017,0.009633716,0.3494602,,0.9574258080819836,0.3814566675894454,0.20832158074,3.704801921484576,-0.14114550425769998,-0.28439602350908655,-0.41309714325359226,,-0.9304116884879463,0.09947652215288591,0.23360442090000003,-0.9241035809362987,-0.7849766911524554,-0.7881385933619302,0.8121466968196362,,-0.04375976767062783,-0.08274169651392119,0.07694186708,-0.052660797281082014,,0.000120382756,8.940697e-06,-1.2516975e-05,1.0,-9.410456e-05,-7.897988e-05,9.410083e-05,1.0,-7.4505806e-06,7.8976154e-05,7.4207783e-06,1.0,315,0.978,0,1,0.642,False,-0.2618441003348577,0.9853023203220472
1.0079471339995507,16:57:31.340019,16:57:15.556050,0,,0.12208401,0.0092215985,0.017757758,0.8629699,0.5047693,-0.02215483,0.34627947,-0.5589411,0.7534423,0.36793134,-0.6578698,-0.65714073,,0.09520808,-0.0116888285,0.0012835264,0.2532943,0.4780156,0.8410369,-0.53067297,-0.658246,0.533946,0.80884373,-0.581561,0.08693999,,0.10794471,1.3464048,0.44467294,0.99666506,-0.003676127,-0.08151847,-0.05512112,-0.76694715,-0.6393385,-0.06017007,0.64169973,-0.76459205,,-0.07647974,0.26795512,-0.07345685,-0.8916334,-0.4492975,0.05587173,0.45235485,-0.8788233,0.15180495,-0.019104203,0.16062821,0.98683006,,-0.027886884,0.4355158,-0.29556403,-0.32203084,-0.41285157,-0.85196817,0.1360413,-0.9107471,0.38991347,-0.9369039,0.009661322,0.3494535,,0.957441253547732,0.3815725085825588,0.20810769289000003,3.704801921484576,-0.1415554137569963,-0.28447016349870013,-0.4132604873197265,,-0.9304194112208205,0.09947652215288591,0.23360442090000003,-0.9241035809362987,-0.7849766911524554,-0.7882202721020709,0.8113299764889652,,-0.04375976767062783,-0.08274169651392119,0.07694186708,-0.052660797281082014,,0.000120382756,8.940697e-06,-1.2516975e-05,1.0,-9.410456e-05,-7.897988e-05,9.410083e-05,1.0,-7.4505806e-06,7.8976154e-05,7.4207783e-06,1.0,328,1.018,0,1,0.642,False,-0.26160578946077395,0.9853506005228267
1.0349050329969032,16:57:31.376871,16:57:15.556050,0,,0.122099325,0.009052813,0.018031657,0.8629301,0.5048234,-0.022467006,0.34620395,-0.5582341,0.754001,0.36809555,-0.6584283,-0.656489,,0.09520667,-0.011689097,0.0012825727,0.25330073,0.47814912,0.8409591,-0.53067124,-0.65815955,0.53405434,0.80884284,-0.5815491,0.0870277,,0.10794471,1.3464048,0.44467294,0.99666506,-0.003676127,-0.08151847,-0.05512112,-0.76694715,-0.6393385,-0.06017007,0.64169973,-0.76459205,,-0.076511346,0.2680022,-0.0737739,-0.89160395,-0.4493238,0.056129344,0.45240545,-0.87864757,0.15266867,-0.019279754,0.16151321,0.9866822,,-0.02788539,0.43551505,-0.29556358,-0.3220372,-0.4129867,-0.8519003,0.13604152,-0.9106852,0.39005792,-0.9369017,0.009719346,0.34945783,,0.9573640262189897,0.381580231315433,0.20778621297000002,3.704801921484576,-0.14169205025676176,-0.285420569216831,-0.41244376698905505,,-0.9304116884879463,0.09947652215288591,0.23360442090000003,-0.9241035809362987,-0.7849766911524554,-0.788383629582352,0.8119833527535023,,-0.04375976767062783,-0.08274169651392119,0.07694186708,-0.052660797281082014,,0.000120382756,8.940697e-06,-1.2516975e-05,1.0,-9.410456e-05,-7.897988e-05,9.410083e-05,1.0,-7.4505806e-06,7.8976154e-05,7.4207783e-06,1.0,341,1.06,0,1,0.642,False,-0.2608908568385213,0.983902194499443
1.0717272110050544,16:57:31.410723,16:57:15.556050,0,,0.12212221,0.008851171,0.018368617,0.8630131,0.50466084,-0.022928711,0.34610555,-0.55758893,0.7545234,0.36799368,-0.6590993,-0.65587264,,0.09520808,-0.0116888285,0.0012835264,0.2532943,0.47774073,0.841193,-0.53067297,-0.65842044,0.5337309,0.80884373,-0.5815894,0.08674997,,0.10794471,1.3464048,0.44467294,0.99666506,-0.003676127,-0.08151847,-0.05512112,-0.76694715,-0.6393385,-0.06017007,0.64169973,-0.76459205,,-0.076554365,0.2680645,-0.07415989,-0.8916781,-0.44912526,0.05653913,0.45226005,-0.87857926,0.15349045,-0.019262334,0.16243446,0.9865313,,-0.027886884,0.4355158,-0.29556403,-0.32203084,-0.4125732,-0.852103,0.1360413,-0.9108744,0.3896159,-0.9369039,0.009547151,0.34945667,,0.9572559079587506,0.3816342904455526,0.20739343710000002,3.7050116114280605,-0.1415554137569963,-0.2864304532620736,-0.41358717545199497,,-0.9304194112208205,0.09947652215288591,0.23360442090000003,-0.9241035809362987,-0.7849766911524554,-0.7878935571415085,0.8106766002244281,,-0.04375976767062783,-0.08274169651392119,0.07694186708,-0.052660797281082014,,0.000120382756,8.940697e-06,-1.2516975e-05,1.0,-9.410456e-05,-7.897988e-05,9.410083e-05,1.0,-7.4505806e-06,7.8976154e-05,7.4207783e-06,1.0,350,1.087,0,1,0.642,False,-0.26148663402373185,0.9832262716885307
1.1055109580047429,16:57:31.445507,16:57:15.556050,0,,0.12213101,0.008748502,0.0185536,0.86321074,0.50425804,-0.024309028,0.34644985,-0.556669,0.75504446,0.3672052,-0.6601844,-0.6552229,,0.09520998,-0.011690199,0.0012841821,0.2532847,0.47774255,0.8411948,-0.53067064,-0.6584253,0.53372717,0.80884826,-0.58158237,0.08675486,,0.10794471,1.3464048,0.44467294,0.99666506,-0.003676127,-0.08151847,-0.05512112,-0.76694715,-0.6393385,-0.06017007,0.64169973,-0.76459205,,-0.07657435,0.26810503,-0.07436676,-0.89182603,-0.44866267,0.057862915,0.45200288,-0.87855494,0.15438475,-0.018430928,0.16383855,0.98631495,,-0.02788883,0.4355151,-0.29556534,-0.32202172,-0.41257557,-0.85210526,0.13604678,-0.9108734,0.38961628,-0.9369062,0.009538722,0.34945062,,0.9572095715615053,0.38171924050716904,0.20718084554000002,3.705221301371546,-0.14059895825863825,-0.28786380850907306,-0.41326048731972653,,-0.9304271339536947,0.09946879942001169,0.23360442090000003,-0.9241035809362987,-0.7849766911524554,-0.7878935571415087,0.8096965358276222,,-0.04375976767062783,-0.08274169651392119,0.07694186708,-0.052660797281082014,,0.000120382756,8.940697e-06,-1.2516975e-05,1.0,-9.410456e-05,-7.897988e-05,9.410083e-05,1.0,-7.4505806e-06,7.8976154e-05,7.4207783e-06,1.0,363,1.128,0,1,0.642,False,-0.26148663402373185,0.9826469092791772
1.1403960620082216,16:57:31.483662,16:57:15.556050,0,,0.12216325,0.008576319,0.018943235,0.8632885,0.5041292,-0.024220772,0.34613475,-0.5564425,0.7553559,0.3673195,-0.6604738,-0.65486705,,0.095204435,-0.011704773,0.0012732744,0.2529981,0.47679552,0.8418182,-0.53244454,-0.6578783,0.5326339,0.80777144,-0.5829769,0.08742523,,0.10794471,1.3464048,0.44467294,0.99666506,-0.003676127,-0.08151847,-0.05512112,-0.76694715,-0.6393385,-0.06017007,0.64169973,-0.76459205,,-0.07663079,0.2682232,-0.07477339,-0.8919066,-0.44851756,0.05774543,0.451832,-0.87856156,0.15484661,-0.018718507,0.16419995,0.98624945,,-0.027882095,0.43549743,-0.29556754,-0.321613,-0.41150787,-0.8527757,0.13403764,-0.9113413,0.3892183,-0.9373361,0.010873631,0.3482568,,0.9571941260957568,0.3820204270892638,0.20675825500000003,3.70543099131503,-0.14059895825863825,-0.28810884472949483,-0.4134238313858608,,-0.9304271339536947,0.09946879942001169,0.23360442090000003,-0.9211679217275154,-0.7847034181529245,-0.7893415740510099,0.8088798154969508,,-0.04375976767062783,-0.08274169651392119,0.07694186708,-0.052660797281082014,,0.000120382756,8.940697e-06,-1.2516975e-05,1.0,-9.410456e-05,-7.897988e-05,9.410083e-05,1.0,-7.4505806e-06,7.8976154e-05,7.4207783e-06,1.0,376,1.169,0,1,0.642,False,-0.2613079008681689,0.9805708606456602
1.1785499670077115,16:57:31.540149,16:57:15.828292,0,,0.12221551,0.00831528,0.019567654,0.86229146,0.5056459,-0.027850289,0.34770098,-0.5511668,0.758498,0.36818123,-0.6637299,-0.6510801,,0.09520474,-0.011709392,0.001273334,0.25258067,0.4786301,0.840902,-0.5325258,-0.65684783,0.5338231,0.8078485,-0.58263546,0.08897579,,0.10794471,1.3464048,0.44467294,0.99666506,-0.003676127,-0.08151847,-0.05512112,-0.76694715,-0.6393385,-0.06017007,0.64169973,-0.76459205,,-0.07672208,0.26842391,-0.07541539,-0.89099604,-0.44988707,0.061054975,0.45363796,-0.8767258,0.15988897,-0.018403506,0.17015728,0.98524505,,-0.027882352,0.43549404,-0.2955707,-0.32120377,-0.41337895,-0.8520246,0.13406025,-0.9104873,0.3912042,-0.9374732,0.01143363,0.34786963,,0.9571709578971341,0.38257646385620797,0.20608807307000002,3.7033340918801847,-0.14005241225957646,-0.2936185982329953,-0.4140772076503979,,-0.9304194112208205,0.09945335395426323,0.23360571719000003,-0.920958231784031,-0.7851133276522209,-0.7916210400244186,0.8069196867033395,,-0.04375976767062783,-0.08274169651392119,0.07694186708,-0.052660797281082014,,0.000120382756,8.940697e-06,-1.2516975e-05,1.0,-9.410456e-05,-7.897988e-05,9.410083e-05,1.0,-7.4505806e-06,7.8976154e-05,7.4207783e-06,1.0,398,1.239,0,1,0.642,False,-0.26101001227556386,0.981777865665147
1.2350402930023847,16:57:31.598339,16:57:15.828292,0,,0.12230389,0.007928297,0.020428106,0.8619931,0.5060733,-0.029286116,0.3460533,-0.54524755,0.76351297,0.3704254,-0.66827756,-0.64512813,,0.0953781,-0.011658877,0.0012764931,0.25266266,0.47885284,0.8407505,-0.532436,-0.65673363,0.5340532,0.80788213,-0.5825811,0.08902639,,0.10793729,1.346405,0.44466949,0.9966652,-0.003674682,-0.08151727,-0.055119243,-0.76694715,-0.6393387,-0.06017007,0.64169973,-0.76459205,,-0.07685685,0.26868114,-0.07632001,-0.8908287,-0.4500896,0.061996043,0.45384476,-0.87517136,0.16763073,-0.021191685,0.17746685,0.9838986,,-0.028048905,0.43552312,-0.29553112,-0.32128873,-0.41360593,-0.85188246,0.13414268,-0.9103836,0.3914173,-0.9374323,0.0114841815,0.3479782,,0.9572790761573733,0.3830784414930326,0.20515604056000003,3.7033340918801847,-0.1425118692553544,-0.3006794161220621,-0.41358717545199497,,-0.9304194112208205,0.09938384935839521,0.23359534687000003,-0.920958231784031,-0.7851133276522209,-0.7917843975046996,0.8078997511001451,,-0.04375976767062783,-0.08274169651392119,0.07694186708,-0.052660797281082014,,0.000113178045,6.4969063e-06,-9.536743e-06,1.0,-9.266287e-05,-7.777661e-05,9.266287e-05,1.0,-7.301569e-06,7.776916e-05,7.301569e-06,1.0,411,1.28,0,1,0.642,False,-0.2607121236829584,0.9817295854643675
1.2931423720001476,16:57:31.639278,16:57:15.828292,0,,0.12231511,0.0077521503,0.020842746,0.8620668,0.5059713,-0.028872628,0.3442162,-0.5427532,0.7661162,0.3719621,-0.67038184,-0.64205337,,0.09534178,-0.011713237,0.0013073683,0.2520378,0.47729075,0.8418256,-0.53438145,-0.6566042,0.53226626,0.8067921,-0.58400714,0.08956623,,0.10793729,1.346405,0.44466949,0.9966652,-0.003674682,-0.08151727,-0.055119243,-0.76694715,-0.6393387,-0.06017007,0.64169973,-0.76459205,,-0.07689401,0.2688136,-0.07674914,-0.8909802,-0.44988102,0.06133041,0.45343122,-0.8746213,0.17157422,-0.0235471,0.18067835,0.98326033,,-0.028015004,0.43550664,-0.29559284,-0.3205399,-0.41191784,-0.85298175,0.13202316,-0.91113496,0.39038822,-0.93798935,0.012521668,0.34643778,,0.9574489762806062,0.38329467801351086,0.20471270938000002,3.703963161710638,-0.14469805325160143,-0.3037974540713531,-0.4135871754519951,,-0.9303807975564493,0.09930662202965297,0.23353571753000002,-0.9176031926882785,-0.7851133276522209,-0.792846221126527,0.807736407034011,,-0.04375976767062783,-0.08274169651392119,0.07694186708,-0.052660797281082014,,0.000113178045,6.4969063e-06,-9.536743e-06,1.0,-9.266287e-05,-7.777661e-05,9.266287e-05,1.0,-7.301569e-06,7.776916e-05,7.301569e-06,1.0,420,1.308,0,1,0.642,False,-0.2604738128088746,0.9819227062674851
1.3341660449950723,16:57:31.671590,16:57:15.968523,0,,0.12233874,0.0075239837,0.021480933,0.86070734,0.5084491,-0.025734358,0.34048274,-0.53731924,0.7715955,0.37848946,-0.67288,-0.63559294,,0.09533499,-0.011741996,0.0013245344,0.2519599,0.47869608,0.8410506,-0.534457,-0.6556953,0.53330976,0.8067664,-0.58387804,0.09063354,,0.10793729,1.346405,0.44466949,0.9966652,-0.003674682,-0.08151727,-0.055119243,-0.76694715,-0.6393387,-0.06017007,0.64169973,-0.76459205,,-0.076958194,0.26904988,-0.07738155,-0.89001775,-0.45226407,0.057667915,0.45487142,-0.8722304,0.17973892,-0.030989744,0.18620232,0.9820226,,-0.028009517,0.4354975,-0.29562533,-0.32045898,-0.4133401,-0.8523239,0.13195594,-0.91048205,0.39193115,-0.9380265,0.013128661,0.34631482,,0.9578737265886886,0.38364220099285096,0.20405808293000002,3.7029147119932153,-0.15221306073870067,-0.308859456767307,-0.41375051951812936,,-0.9303807975564493,0.09921394923516227,0.23350979173000003,-0.917393502744794,-0.7851133276522209,-0.7947248321497599,0.8078997511001451,,-0.04375976767062783,-0.08274169651392119,0.07694186708,-0.052660797281082014,,0.000113178045,6.4969063e-06,-9.536743e-06,1.0,-9.266287e-05,-7.777661e-05,9.266287e-05,1.0,-7.301569e-06,7.776916e-05,7.301569e-06,1.0,433,1.349,0,1,0.642,False,-0.26112916771260597,0.9830331508854129
1.366443453996908,16:57:31.715958,16:57:15.968523,0,,0.12231778,0.007311791,0.022150591,0.8600226,0.50973016,-0.023156505,0.33704722,-0.5334264,0.77579343,0.38309306,-0.6750047,-0.6305621,,0.09532825,-0.011793584,0.0013253689,0.25135553,0.47805572,0.84159553,-0.53612447,-0.65516967,0.53228116,0.805848,-0.58499175,0.09161681,,0.10793729,1.346405,0.44466949,0.9966652,-0.003674682,-0.08151727,-0.055119243,-0.76694715,-0.6393387,-0.06017007,0.64169973,-0.76459205,,-0.07698033,0.26932114,-0.078029506,-0.8895999,-0.45345536,0.054683246,0.45526007,-0.8707058,0.18603688,-0.0367464,0.1903935,0.9810199,,-0.028002253,0.43546063,-0.2956613,-0.31975022,-0.4126039,-0.8529465,0.13015501,-0.9107989,0.3917972,-0.93851984,0.014261983,0.34493062,,0.9585533270816203,0.384090119499556,0.20338271584000003,3.702705022049731,-0.15795179372884915,-0.31242945756625407,-0.4122804229229207,,-0.9303730748235751,0.09907494004342624,0.23349034738000002,-0.9144578435360108,-0.7851133276522209,-0.7965217644328522,0.8085531273646822,,-0.04375976767062783,-0.08274169651392119,0.07694186708,-0.052660797281082014,,0.000113178045,6.4969063e-06,-9.536743e-06,1.0,-9.266287e-05,-7.777661e-05,9.266287e-05,1.0,-7.301569e-06,7.776916e-05,7.301569e-06,1.0,446,1.39,0,1,0.642,False,-0.2604738128088746,0.9831779914877512
1.4108316189958714,16:57:31.748349,16:57:15.968523,0,,0.12226784,0.007178366,0.022627637,0.85887545,0.5117099,-0.022038002,0.33707565,-0.53231823,0.7765418,0.38563305,-0.67438126,-0.6296803,,0.09533381,-0.011820838,0.0013321042,0.25108615,0.4788661,0.84121513,-0.5359143,-0.6549329,0.5327839,0.80607176,-0.58459383,0.09218651,,0.10793729,1.346405,0.44466949,0.9966652,-0.003674682,-0.08151727,-0.055119243,-0.76694715,-0.6393387,-0.06017007,0.64169973,-0.76459205,,-0.07696146,0.26952988,-0.0784811,-0.8886319,-0.45549056,0.05349492,0.45698452,-0.86957115,0.18711269,-0.03871043,0.19072066,0.9808808,,-0.028008083,0.4354447,-0.29568434,-0.31950578,-0.4134511,-0.8526278,0.13047996,-0.9104159,0.3925785,-0.938558,0.014180256,0.34483024,,0.9591865911773068,0.38446081067751875,0.20290827370000003,3.7006081226148857,-0.1601379777250962,-0.31187195220921976,-0.4130971432535922,,-0.9303807975564493,0.09895909905031287,0.23348127335000002,-0.9146675334794951,-0.7853866006517517,-0.7972790735071462,0.8085531273646824,,-0.04375976767062783,-0.08274169651392119,0.07694186708,-0.052660797281082014,,0.000113178045,6.4969063e-06,-9.536743e-06,1.0,-9.266287e-05,-7.777661e-05,9.266287e-05,1.0,-7.301569e-06,7.776916e-05,7.301569e-06,1.0,455,1.419,0,1,0.642,False,-0.26017592421626956,0.9817295854643675
1.4432021210086532,16:57:31.787495,16:57:16.074138,0,,0.12227537,0.0070428103,0.023281991,0.85722893,0.5146979,-0.01563486,0.32898143,-0.5240548,0.7855811,0.39614344,-0.67856646,-0.61856127,,0.09533664,-0.011841208,0.0013375878,0.25067252,0.47946262,0.84099865,-0.5358339,-0.6548033,0.5330241,0.8062539,-0.5842501,0.09277108,,0.10793729,1.346405,0.44466949,0.9966652,-0.003674682,-0.08151727,-0.055119243,-0.76694715,-0.6393387,-0.06017007,0.64169973,-0.76459205,,-0.07701214,0.26984808,-0.07906658,-0.8875911,-0.45830968,0.046198133,0.45768553,-0.8661404,0.2008101,-0.05201914,0.19938149,0.97854024,,-0.028011171,0.4354332,-0.29570195,-0.3191122,-0.41407898,-0.8524705,0.13069198,-0.91013247,0.3931647,-0.93866235,0.0140526015,0.3445512,,0.9600901509235911,0.3849473428485949,0.20229772111000002,3.7006081226148857,-0.17352835470210937,-0.3199841440997215,-0.4126071110551894,,-0.9303807975564493,0.09888187172157062,0.23347479190000003,-0.9146675334794951,-0.785796510151048,-0.7979249646777435,0.8062663104388024,,-0.04375976767062783,-0.08274169651392119,0.07694186708,-0.052660797281082014,,0.000113178045,6.4969063e-06,-9.536743e-06,1.0,-9.266287e-05,-7.777661e-05,9.266287e-05,1.0,-7.301569e-06,7.776916e-05,7.301569e-06,1.0,468,1.46,0,1,0.642,False,-0.2611887454311268,0.9797983774331891
1.4823850789980497,16:57:31.811766,16:57:16.074138,0,,0.12230857,0.006978154,0.023748994,0.8535892,0.52085286,-0.009884216,0.32442778,-0.5166455,0.79235345,0.40759295,-0.6795512,-0.60998225,,0.09533459,-0.011850789,0.001339674,0.2504182,0.4794458,0.84108406,-0.53578764,-0.65496427,0.5328728,0.80636364,-0.5840835,0.09286615,,0.10793729,1.346405,0.44466949,0.9966652,-0.003674682,-0.08151727,-0.055119243,-0.76694715,-0.6393387,-0.06017007,0.64169973,-0.76459205,,-0.07707656,0.27009806,-0.07946249,-0.88468206,-0.46449605,0.03976316,0.4618036,-0.86147606,0.2111787,-0.063836664,0.20518878,0.9766383,,-0.028009214,0.4354277,-0.29571012,-0.31886995,-0.41407597,-0.8525626,0.1308185,-0.9101374,0.39311123,-0.938727,0.013820389,0.34438428,,0.9607156922864032,0.38536437042380306,0.20188420460000003,3.6966240136886803,-0.185825639680999,-0.32498542095290694,-0.4122804229229209,,-0.9303653520907009,0.09885098079007372,0.23347090303,-0.9146675334794951,-0.7860697831505788,-0.7978654863506319,0.8059396223065338,,-0.04375976767062783,-0.08274169651392119,0.07694186708,-0.052660797281082014,,0.000113178045,6.4969063e-06,-9.536743e-06,1.0,-9.266287e-05,-7.777661e-05,9.266287e-05,1.0,-7.301569e-06,7.776916e-05,7.301569e-06,1.0,481,1.501,0,1,0.642,False,-0.26011634649774784,0.9794121358269534
1.5066227759962203,16:57:31.868125,16:57:16.074138,0,,0.122279584,0.0068544745,0.024364516,0.8533361,0.52131003,-0.0072958656,0.32114482,-0.5145574,0.7950451,0.41071084,-0.6807838,-0.6065066,,0.09533425,-0.0118496865,0.0013430715,0.250415,0.47972643,0.840925,-0.5357934,-0.6547836,0.53308886,0.8063607,-0.5840555,0.0930666,,0.10793729,1.346405,0.44466949,0.9966652,-0.003674682,-0.08151727,-0.055119243,-0.76694715,-0.6393387,-0.06017007,0.64169973,-0.76459205,,-0.077088326,0.27040234,-0.08001229,-0.8845944,-0.46489918,0.03689903,0.46132603,-0.8607052,0.21532501,-0.068345234,0.20749778,0.9758451,,-0.028009206,0.43543082,-0.29571187,-0.31886643,-0.4143602,-0.8524258,0.13081251,-0.9100062,0.3934168,-0.93872905,0.0139394505,0.34437394,,0.9615420247039452,0.3860825845811059,0.20130087410000003,3.697043393575649,-0.19006137117372765,-0.3265138690868922,-0.41179039072451795,,-0.9303730748235751,0.09885870352294795,0.23346831045000002,-0.9146675334794951,-0.7860697831505788,-0.7981922013111943,0.8046328697774596,,-0.04375976767062783,-0.08274169651392119,0.07694186708,-0.052660797281082014,,0.000113178045,6.4969063e-06,-9.536743e-06,1.0,-9.266287e-05,-7.777661e-05,9.266287e-05,1.0,-7.301569e-06,7.776916e-05,7.301569e-06,1.0,490,1.53,0,1,0.642,False,-0.25975888018662197,0.978108570405908
1.5630119859997649,16:57:31.887977,16:57:16.074138,0,,0.122277275,0.0068140775,0.024573818,0.8532371,0.52148455,-0.00634484,0.31985155,-0.5136446,0.79615587,0.411924,-0.68133926,-0.60505843,,0.095336474,-0.011851743,0.0013447404,0.25027823,0.47965908,0.8410042,-0.53577787,-0.65490043,0.532961,0.80641353,-0.5839799,0.09308338,,0.10793729,1.346405,0.44466949,0.9966652,-0.003674682,-0.08151727,-0.055119243,-0.76694715,-0.6393387,-0.06017007,0.64169973,-0.76459205,,-0.077099875,0.27050665,-0.08019785,-0.88455945,-0.465049,0.035832938,0.46112815,-0.86037743,0.21705173,-0.07010984,0.20851874,0.9755022,,-0.028011547,0.4354303,-0.29571435,-0.31873545,-0.41429883,-0.8525047,0.13086952,-0.91003627,0.39332828,-0.9387656,0.013800801,0.34427992,,0.9617968748887946,0.38634515749882953,0.20110383802,3.6972530835191333,-0.19170100917091293,-0.3273005014861898,-0.41342383138586075,,-0.9303807975564493,0.09885098079007372,0.23346831045000002,-0.9146675334794951,-0.7862064196503443,-0.7980807834074979,0.8046328697774596,,-0.04375976767062783,-0.08274169651392119,0.07694186708,-0.052660797281082014,,0.000113178045,6.4969063e-06,-9.536743e-06,1.0,-9.266287e-05,-7.777661e-05,9.266287e-05,1.0,-7.301569e-06,7.776916e-05,7.301569e-06,1.0,503,1.571,0,1,0.642,False,-0.26041423509035333,0.9769015653864217
1.5828369469963945,16:57:31.930607,16:57:16.074138,0,,0.12231663,0.0068263113,0.024953142,0.84921044,0.5280485,-0.0024912395,0.31750864,-0.50683796,0.8014384,0.42193574,-0.6813809,-0.59807223,,0.09533828,-0.011847958,0.0013472438,0.25027186,0.47973952,0.84096014,-0.53578955,-0.6548439,0.53301877,0.80640787,-0.5839772,0.09315041,,0.10793729,1.346405,0.44466949,0.9966652,-0.003674682,-0.08151727,-0.055119243,-0.76694715,-0.6393387,-0.06017007,0.64169973,-0.76459205,,-0.077165574,0.27075833,-0.080476984,-0.88119936,-0.47169927,0.03142359,0.46602607,-0.8555877,0.22536498,-0.07941885,0.21323569,0.9737675,,-0.02801363,0.43543464,-0.2957135,-0.31872845,-0.41437986,-0.8524679,0.13085753,-0.9099988,0.3934191,-0.9387697,0.0138420155,0.3442672,,0.9623683571214873,0.3869706988616417,0.20080309874000002,3.69201083493202,-0.20140220065425923,-0.33098821142370366,-0.4137505195181293,,-0.9303962430221978,0.09886642625582218,0.23346831045000002,-0.9146675334794951,-0.7862064196503443,-0.7981624621476384,0.8021827087854454,,-0.04375976767062783,-0.08274169651392119,0.07694186708,-0.052660797281082014,,0.000113178045,6.4969063e-06,-9.536743e-06,1.0,-9.266287e-05,-7.777661e-05,9.266287e-05,1.0,-7.301569e-06,7.776916e-05,7.301569e-06,1.0,516,1.611,0,1,0.642,False,-0.26106958999408425,0.9741978741427719
1.6254692289949162,16:57:31.970724,16:57:16.074138,0,,0.12233613,0.0068680644,0.025239006,0.8461979,0.5328679,0.0008720495,0.31483078,-0.5012725,0.8059823,0.42991927,-0.681746,-0.59193915,,0.09533678,-0.011852384,0.0013457537,0.2501511,0.48020798,0.84072864,-0.53576463,-0.65462035,0.53331834,0.8064618,-0.5838428,0.093524426,,0.10793729,1.346405,0.44466949,0.9966652,-0.003674682,-0.08151727,-0.055119243,-0.76694715,-0.6393387,-0.06017007,0.64169973,-0.76459205,,-0.07720544,0.27097338,-0.08066673,-0.87870526,-0.4765677,0.027573816,0.4693035,-0.8518537,0.23259293,-0.08735742,0.21732111,0.9721832,,-0.028011942,0.43543044,-0.2957155,-0.31861362,-0.41486165,-0.85227644,0.13092104,-0.909778,0.39390826,-0.9387998,0.013923621,0.34418178,,0.9629475620870541,0.3875112901628375,0.20059569234000002,3.6884461058927833,-0.20960039064018565,-0.33426794349906697,-0.4134238313858608,,-0.9303807975564493,0.09885098079007372,0.23346831045000002,-0.9146675334794951,-0.7863430561501098,-0.7987044741650665,0.7995692037272968,,-0.04375976767062783,-0.08274169651392119,0.07694186708,-0.052660797281082014,,0.000113178045,6.4969063e-06,-9.536743e-06,1.0,-9.266287e-05,-7.777661e-05,9.266287e-05,1.0,-7.301569e-06,7.776916e-05,7.301569e-06,1.0,525,1.64,0,1,0.642,False,-0.2616653671792948,0.9737150721349774
1.6656006510020234,16:57:32.007350,16:57:16.297025,0,,0.122266926,0.006921962,0.02538085,0.8444344,0.53565884,-0.0001825057,0.3169601,-0.49939394,0.80631375,0.43181804,-0.68093705,-0.59148806,,0.095339306,-0.0118551105,0.0013484359,0.24988715,0.4802774,0.84076744,-0.5357357,-0.65471834,0.53322697,0.80656284,-0.58367574,0.09369609,,0.10793729,1.346405,0.44466949,0.9966652,-0.003674682,-0.08151727,-0.055119243,-0.76694715,-0.6393387,-0.06017007,0.64169973,-0.76459205,,-0.07714707,0.27110985,-0.080742784,-0.8771106,-0.4794368,0.02858936,0.4722507,-0.85005814,0.23319612,-0.08750019,0.21804014,0.97200936,,-0.028014679,0.43543008,-0.29571918,-0.31836078,-0.41494533,-0.8523302,0.13102955,-0.9097426,0.39395386,-0.93887043,0.013739003,0.34399644,,0.9635885489156147,0.3878433676764291,0.20050365575,3.6846716869100615,-0.2101469366392474,-0.33390395062442185,-0.41326048731972653,,-0.9303885202893236,0.0988432580571995,0.23346831045000002,-0.9146675334794951,-0.7866163291496406,-0.7987266745780953,0.7990791715288941,,-0.04375976767062783,-0.08274169651392119,0.07694186708,-0.052660797281082014,,0.000113178045,6.4969063e-06,-9.536743e-06,1.0,-9.266287e-05,-7.777661e-05,9.266287e-05,1.0,-7.301569e-06,7.776916e-05,7.301569e-06,1.0,538,1.681,0,1,0.642,False,-0.26005676877922745,0.9715907433006812
1.7022416069958126,16:57:32.039161,16:57:16.297025,0,,0.122210085,0.0069440156,0.025442407,0.8401705,0.54231817,-0.0020948127,0.32220492,-0.49605197,0.806298,0.43623096,-0.6781028,-0.591506,,0.09533981,-0.011856735,0.0013481379,0.24988389,0.48055008,0.84061265,-0.5357317,-0.65454984,0.53343797,0.8065666,-0.58364034,0.09388438,,0.10793729,1.346405,0.44466949,0.9966652,-0.003674682,-0.08151727,-0.055119243,-0.76694715,-0.6393387,-0.06017007,0.64169973,-0.76459205,,-0.07709497,0.27116957,-0.08077779,-0.8732443,-0.48632735,0.030498335,0.47933537,-0.8460601,0.23328076,-0.08764739,0.21833001,0.97193104,,-0.028015131,0.43542865,-0.29572004,-0.31835794,-0.41522214,-0.85219646,0.1310353,-0.90961474,0.39424714,-0.9388706,0.013843897,0.34399185,,0.9639592400935775,0.3878433676764291,0.20046476705000002,3.6762840891706814,-0.21137666513713638,-0.3329011894911541,-0.41326048731972653,,-0.9303885202893236,0.09883553532432528,0.23346831045000002,-0.9146675334794951,-0.7866163291496406,-0.7990533895386577,0.7980991071320884,,-0.04375976767062783,-0.08274169651392119,0.07694186708,-0.052660797281082014,,0.000113178045,6.4969063e-06,-9.536743e-06,1.0,-9.266287e-05,-7.777661e-05,9.266287e-05,1.0,-7.301569e-06,7.776916e-05,7.301569e-06,1.0,551,1.722,0,1,0.642,False,-0.2617249448978165,0.970094057076518
1.7340326170087792,16:57:32.079465,16:57:16.297025,0,,0.12216012,0.00695087,0.02550967,0.8341942,0.5514706,0.00034003332,0.3264044,-0.4942397,0.8057216,0.4444998,-0.67201734,-0.59229445,,0.09534103,-0.011855483,0.0013504028,0.24975353,0.48055536,0.8406483,-0.5357242,-0.6546117,0.53336954,0.80661184,-0.5835666,0.09395355,,0.10793729,1.346405,0.44466949,0.9966652,-0.003674682,-0.08151727,-0.055119243,-0.76694715,-0.6393387,-0.06017007,0.64169973,-0.76459205,,-0.0770499,0.271221,-0.080826685,-0.8679204,-0.4959059,0.028133133,0.4882066,-0.8412727,0.23219515,-0.09147931,0.2152617,0.97226226,,-0.02801657,0.435431,-0.2957208,-0.31823257,-0.41523364,-0.85223764,0.1310808,-0.9096109,0.39424083,-0.9389067,0.013748269,0.34389699,,0.964353099470163,0.38764257662169926,0.20042069319000003,3.6660092819399392,-0.21670548862798855,-0.3283925337667125,-0.4132604873197264,,-0.9303962430221978,0.0988432580571995,0.23346831045000002,-0.9146675334794951,-0.7867529656494061,-0.7990236503751018,0.7969556986691484,,-0.04375976767062783,-0.08274169651392119,0.07694186708,-0.052660797281082014,,0.000113178045,6.4969063e-06,-9.536743e-06,1.0,-9.266287e-05,-7.777661e-05,9.266287e-05,1.0,-7.301569e-06,7.776916e-05,7.301569e-06,1.0,564,1.763,0,1,0.642,False,-0.26059296824591627,0.9694181342656054
1.7743532760068774,16:57:32.119269,16:57:16.297025,0,,0.122177556,0.0069031715,0.025632635,0.8286787,0.5596862,0.006532125,0.3266589,-0.49306625,0.8063372,0.4545166,-0.6660608,-0.5914203,,0.095342785,-0.011854127,0.0013519526,0.24978672,0.4808471,0.8404716,-0.53560174,-0.6544998,0.53362966,0.80668294,-0.5834517,0.09405717,,0.10793729,1.346405,0.44466949,0.9966652,-0.003674682,-0.08151727,-0.055119243,-0.76694715,-0.6393387,-0.06017007,0.64169973,-0.76459205,,-0.07707506,0.27126294,-0.08095042,-0.86311597,-0.50453126,0.021886582,0.49517187,-0.8370023,0.23287761,-0.099174924,0.21183799,0.97225976,,-0.028018495,0.43543297,-0.2957209,-0.31827378,-0.41553628,-0.85207474,0.13121632,-0.9094725,0.39451483,-0.9388738,0.01375762,0.34398642,,0.9644766631961506,0.38739544916972407,0.20030791596000003,3.658250754031012,-0.22558686111274218,-0.32417248341164595,-0.41260711105518943,,-0.930403965755072,0.0988432580571995,0.23346831045000002,-0.9148772234229797,-0.7867529656494061,-0.7991870078553828,0.7953222580078056,,-0.04375976767062783,-0.08274169651392119,0.07694186708,-0.052660797281082014,,0.000113178045,6.4969063e-06,-9.536743e-06,1.0,-9.266287e-05,-7.777661e-05,9.266287e-05,1.0,-7.301569e-06,7.776916e-05,7.301569e-06,1.0,573,1.792,0,1,0.642,False,-0.26053339052739544,0.9676800470375448
1.8141591669991612,16:57:32.152861,16:57:16.297025,0,,0.12220408,0.0068615377,0.025764689,0.8228498,0.56818163,0.0093644895,0.32922214,-0.49008727,0.80711037,0.4631747,-0.6610478,-0.5903264,,0.09534189,-0.0118560195,0.0013507605,0.24978991,0.48097852,0.84039557,-0.53559595,-0.6544191,0.53373444,0.8066858,-0.5834338,0.094142824,,0.10793729,1.346405,0.44466949,0.9966652,-0.003674682,-0.08151727,-0.055119243,-0.76694715,-0.6393387,-0.06017007,0.64169973,-0.76459205,,-0.07711001,0.27131486,-0.08107675,-0.8579406,-0.5133984,0.018973647,0.5030385,-0.83197993,0.23401207,-0.10435572,0.21031293,0.9720485,,-0.028017454,0.4354308,-0.29572132,-0.3182773,-0.41566977,-0.85200834,0.13122232,-0.9094108,0.39465517,-0.9388718,0.013807274,0.34398997,,0.9644998313947732,0.3873104991081076,0.20018606470000003,3.6492340864611776,-0.23187214010195245,-0.32166097952610856,-0.4121170788567866,,-0.9303962430221978,0.09883553532432528,0.23346831045000002,-0.9148772234229797,-0.7867529656494061,-0.799350365335664,0.7933621292141944,,-0.04375976767062783,-0.08274169651392119,0.07694186708,-0.052660797281082014,,0.000113178045,6.4969063e-06,-9.536743e-06,1.0,-9.266287e-05,-7.777661e-05,9.266287e-05,1.0,-7.301569e-06,7.776916e-05,7.301569e-06,1.0,586,1.833,0,1,0.642,False,-0.2618441003348577,0.9680180084430012
1.847745257007773,16:57:32.190444,16:57:16.297025,0,,0.12221807,0.0067515075,0.025996879,0.8188346,0.5739035,0.012022838,0.33074516,-0.48881236,0.8072609,0.46916676,-0.6570368,-0.59007245,,0.095344104,-0.011858031,0.0013524294,0.2496531,0.48111707,0.8403568,-0.5355803,-0.6544053,0.53376716,0.80673856,-0.58333516,0.094302505,,0.10793729,1.346405,0.44466949,0.9966652,-0.003674682,-0.08151727,-0.055119243,-0.76694715,-0.6393387,-0.06017007,0.64169973,-0.76459205,,-0.07713831,0.27137995,-0.081324086,-0.85437375,-0.5194032,0.01630208,0.5082905,-0.82874554,0.23414005,-0.10810283,0.2083293,0.97206616,,-0.028019793,0.4354303,-0.2957238,-0.3181463,-0.4158172,-0.85198534,0.1312793,-0.9093442,0.3947896,-0.9389082,0.013752807,0.3438927,,0.9645538905248928,0.38724871724511384,0.1999397696,3.6431530781001262,-0.23638114459421197,-0.31896433358581333,-0.4137505195181294,,-0.930403965755072,0.09882781259145106,0.23346831045000002,-0.9148772234229797,-0.7868896021491716,-0.7994839836523893,0.7935254732803285,,-0.04375976767062783,-0.08274169651392119,0.07694186708,-0.052660797281082014,,0.000113178045,6.4969063e-06,-9.536743e-06,1.0,-9.266287e-05,-7.777661e-05,9.266287e-05,1.0,-7.301569e-06,7.776916e-05,7.301569e-06,1.0,599,1.874,0,1,0.642,False,-0.25975888018662197,0.9668110034235147
1.8853386289993068,16:57:32.232244,16:57:16.496035,0,,0.122210905,0.0066373646,0.026320904,0.8113722,0.5843084,0.016085919,0.33255017,-0.48406225,0.80937886,0.4807134,-0.65135825,-0.58706665,,0.095344104,-0.011858031,0.0013524294,0.2496531,0.48104846,0.84039617,-0.5355803,-0.6544489,0.5337137,0.80673856,-0.58334285,0.09425488,,0.10793729,1.346405,0.44466949,0.9966652,-0.003674682,-0.08151727,-0.055119243,-0.76694715,-0.6393387,-0.06017007,0.64169973,-0.76459205,,-0.07715181,0.27150226,-0.081644915,-0.84775716,-0.5302486,0.0120083485,0.5175344,-0.8220521,0.23746268,-0.11604276,0.20752543,0.9713224,,-0.028019793,0.4354303,-0.2957238,-0.3181463,-0.4157476,-0.8520193,0.1312793,-0.90937644,0.39471534,-0.9389082,0.013724718,0.3438938,,0.9648936907713587,0.3871097080533778,0.19962347484,3.632249201038931,-0.24580906307802738,-0.3168306525603185,-0.41440389578266645,,-0.930403965755072,0.09882781259145106,0.23346831045000002,-0.9148772234229797,-0.7868896021491716,-0.7994023049122487,0.7933621292141944,,-0.04375976767062783,-0.08274169651392119,0.07694186708,-0.052660797281082014,,0.000113178045,6.4969063e-06,-9.536743e-06,1.0,-9.266287e-05,-7.777661e-05,9.266287e-05,1.0,-7.301569e-06,7.776916e-05,7.301569e-06,1.0,608,1.902,0,1,0.642,False,-0.2602950796533112,0.9667627232227354
1.9271376260003308,16:57:32.263718,16:57:16.496035,0,,0.12217179,0.006547019,0.026709244,0.80070376,0.5984771,0.026428496,0.33116907,-0.4789719,0.81296545,0.49919987,-0.64219236,-0.5817119,,0.09534791,-0.011860788,0.0013538003,0.24963383,0.48105207,0.8403998,-0.5355756,-0.6544589,0.5337062,0.8067476,-0.5833287,0.09426466,,0.10793729,1.346405,0.44466949,0.9966652,-0.003674682,-0.08151727,-0.055119243,-0.76694715,-0.6393387,-0.06017007,0.64169973,-0.76459205,,-0.07713827,0.27168605,-0.082000636,-0.8383733,-0.545095,0.0012655861,0.52900606,-0.8130636,0.24306408,-0.13146402,0.20444794,0.9700094,,-0.028023683,0.43542892,-0.29572642,-0.31812802,-0.4157524,-0.8520238,0.13129029,-0.90937454,0.39471614,-0.93891287,0.01370782,0.34388176,,0.9656814095245296,0.38678535327266034,0.19928384686000003,3.6184096647689525,-0.2634351715477692,-0.31201415557992596,-0.41489392798106933,,-0.9304194112208205,0.0988123671257026,0.23346831045000002,-0.9148772234229797,-0.7868896021491716,-0.7994023049122487,0.7930354410819256,,-0.04375976767062783,-0.08274169651392119,0.07694186708,-0.052660797281082014,,0.000113178045,6.4969063e-06,-9.536743e-06,1.0,-9.266287e-05,-7.777661e-05,9.266287e-05,1.0,-7.301569e-06,7.776916e-05,7.301569e-06,1.0,621,1.943,0,1,0.642,False,-0.2608908568385213,0.9664730420180585
1.9586132999975234,16:57:32.303324,16:57:16.496035,0,,0.12199454,0.006390676,0.027123064,0.78992105,0.61243033,0.030882476,0.33285803,-0.47053266,0.81719303,0.5150051,-0.6352385,-0.5755362,,0.095345385,-0.011859834,0.0013541579,0.24964345,0.48105025,0.840398,-0.53557795,-0.6544539,0.53370994,0.806743,-0.58333576,0.09425977,,0.10793729,1.346405,0.44466949,0.9966652,-0.003674682,-0.08151727,-0.055119243,-0.76694715,-0.6393387,-0.06017007,0.64169973,-0.76459205,,-0.076987684,0.27184373,-0.08242438,-0.8287376,-0.5596253,-0.0036701632,0.54109544,-0.80293673,0.2500166,-0.14286253,0.20521227,0.9682346,,-0.028021215,0.43543005,-0.2957262,-0.31813714,-0.41575003,-0.8520215,0.1312848,-0.9093755,0.39471573,-0.93891054,0.013716269,0.34388778,,0.9669247695172797,0.3860439709167348,0.19888199696000003,3.6031022988945822,-0.277645367523375,-0.3106365361130684,-0.4157106483117407,,-0.9304116884879463,0.09882008985857682,0.23346701416,-0.9148772234229797,-0.7868896021491716,-0.7994023049122487,0.7930354410819256,,-0.04375976767062783,-0.08274169651392119,0.07694186708,-0.052660797281082014,,0.000113178045,6.4969063e-06,-9.536743e-06,1.0,-9.266287e-05,-7.777661e-05,9.266287e-05,1.0,-7.301569e-06,7.776916e-05,7.301569e-06,1.0,634,1.984,0,1,0.642,False,-0.2602950796533112,0.9668592836242942
1.9982053300045663,16:57:32.350707,16:57:16.496035,0,,0.121702135,0.0062134266,0.027496591,0.7797226,0.62506396,0.036436744,0.3371665,-0.4682026,0.81676495,0.52759016,-0.62456495,-0.57581896,,0.095346384,-0.011863098,0.0013536215,0.24963702,0.4810462,0.8404022,-0.5355698,-0.6544653,0.5337041,0.8067505,-0.5833263,0.094255,,0.10793729,1.346405,0.44466949,0.9966652,-0.003674682,-0.08151727,-0.055119243,-0.76694715,-0.6393387,-0.06017007,0.64169973,-0.76459205,,-0.0767191,0.27196604,-0.08283588,-0.8195026,-0.57300186,-0.009184236,0.5530719,-0.7949931,0.24919361,-0.1500898,0.19913527,0.96841013,,-0.028022118,0.4354272,-0.29572794,-0.31813154,-0.41574672,-0.8520252,0.13129629,-0.9093772,0.39470792,-0.93891084,0.013701282,0.34388757,,0.9685310979551184,0.384985956512966,0.19849570254,3.5873755531332425,-0.2880297415055485,-0.30176038173143754,-0.41293379918745793,,-0.9304116884879463,0.09880464439282838,0.23346701416,-0.9148772234229797,-0.7868896021491716,-0.7994023049122487,0.7930354410819256,,-0.04375976767062783,-0.08274169651392119,0.07694186708,-0.052660797281082014,,0.000113178045,6.4969063e-06,-9.536743e-06,1.0,-9.266287e-05,-7.777661e-05,9.266287e-05,1.0,-7.301569e-06,7.776916e-05,7.301569e-06,1.0,643,2.013,0,1,0.642,False,-0.26148663402373185,0.9671006846281915
2.045593048998853,16:57:32.372128,16:57:16.496035,0,,0.121532075,0.0061236024,0.027662545,0.7734578,0.63254046,0.040687557,0.33910254,-0.4671719,0.8165536,0.5355113,-0.61777264,-0.575834,,0.09534751,-0.011864305,0.0013522506,0.24963379,0.48104414,0.84040433,-0.53556573,-0.6544711,0.5337012,0.80675423,-0.5833216,0.094252646,,0.10793729,1.346405,0.44466949,0.9966652,-0.003674682,-0.08151727,-0.055119243,-0.76694715,-0.6393387,-0.06017007,0.64169973,-0.76459205,,-0.07655956,0.27201423,-0.08302761,-0.8138318,-0.58094555,-0.013420023,0.56001,-0.7902507,0.24878223,-0.15513411,0.19495153,0.96846646,,-0.028023094,0.4354253,-0.2957277,-0.31812873,-0.41574508,-0.85202706,0.13130204,-0.9093781,0.394704,-0.938911,0.013693789,0.34388748,,0.9694346577014027,0.38426001962278894,0.19832459226000002,3.578149195619923,-0.2949982029935859,-0.2959963899027795,-0.41277045512132365,,-0.9304116884879463,0.09879692165995416,0.23346831045000002,-0.9148772234229797,-0.7868896021491716,-0.7994023049122487,0.7930354410819256,,-0.04375976767062783,-0.08274169651392119,0.07694186708,-0.052660797281082014,,0.000113178045,6.4969063e-06,-9.536743e-06,1.0,-9.266287e-05,-7.777661e-05,9.266287e-05,1.0,-7.301569e-06,7.776916e-05,7.301569e-06,1.0,656,2.054,0,1,0.642,False,-0.2599376133421849,0.9672455252305296
2.0670007389999228,16:57:32.413754,16:57:16.685180,0,,0.121135555,0.005953893,0.027927265,0.75828993,0.64935666,0.057724044,0.3383578,-0.46770638,0.8165567,0.5572345,-0.5996554,-0.5743721,,0.095349275,-0.011862919,0.0013538599,0.24966693,0.48133582,0.8402275,-0.53544325,-0.6543591,0.5339613,0.8068252,-0.58320653,0.09435618,,0.10793729,1.346405,0.44466949,0.9966652,-0.003674682,-0.08151727,-0.055119243,-0.76694715,-0.6393387,-0.06017007,0.64169973,-0.76459205,,-0.07617971,0.272078,-0.08335589,-0.8001937,-0.5989648,-0.030514816,0.5743086,-0.7799274,0.24876292,-0.17279957,0.1815336,0.9680836,,-0.02802502,0.43542728,-0.29572785,-0.31816992,-0.41604763,-0.851864,0.13143754,-0.9092396,0.39497796,-0.9388781,0.013703192,0.34397694,,0.9715815774404372,0.38218260447962255,0.19806922313000003,3.558438340932378,-0.3174065889551182,-0.2793574284993776,-0.41309714325359226,,-0.9304194112208205,0.09879692165995416,0.23346831045000002,-0.9150869133664643,-0.7868896021491716,-0.7995656623925299,0.79319878514806,,-0.04375976767062783,-0.08274169651392119,0.07694186708,-0.052660797281082014,,0.000113178045,6.4969063e-06,-9.536743e-06,1.0,-9.266287e-05,-7.777661e-05,9.266287e-05,1.0,-7.301569e-06,7.776916e-05,7.301569e-06,1.0,665,2.083,0,1,0.642,False,-0.25975888018662197,0.9666661628211763
2.108643013998517,16:57:32.445024,16:57:16.685180,0,,0.120754614,0.0057569295,0.02805455,0.7504023,0.657263,0.07001205,0.3342471,-0.4687115,0.8176725,0.5702414,-0.5901821,-0.5714106,,0.09534899,-0.011876389,0.0013503432,0.24961762,0.48123202,0.8403016,-0.53553534,-0.6543812,0.5338419,0.8067794,-0.5832675,0.09437165,,0.10793729,1.346405,0.44466949,0.9966652,-0.003674682,-0.08151727,-0.055119243,-0.76694715,-0.6393387,-0.06017007,0.64169973,-0.76459205,,-0.07580548,0.27203152,-0.0835965,-0.7931621,-0.6074911,-0.042994145,0.5800089,-0.77503234,0.2508277,-0.18569744,0.17401002,0.9670765,,-0.028024238,0.435415,-0.2957344,-0.31811538,-0.41593826,-0.8519378,0.13134255,-0.90928924,0.39489517,-0.9389099,0.013726557,0.34388927,,0.9734582015288736,0.3799430119460974,0.19789940914,3.5492119834190596,-0.3344861514257982,-0.2700041999851964,-0.4152206161133378,,-0.930403965755072,0.09874286252983458,0.23346701416,-0.9148772234229797,-0.7868896021491716,-0.7996473411326703,0.7935254732803285,,-0.04375976767062783,-0.08274169651392119,0.07694186708,-0.052660797281082014,,0.000113178045,6.4969063e-06,-9.536743e-06,1.0,-9.266287e-05,-7.777661e-05,9.266287e-05,1.0,-7.301569e-06,7.776916e-05,7.301569e-06,1.0,678,2.123,0,1,0.642,False,-0.26160578946077395,0.9662799212149407
2.1398971489979886,16:57:32.482529,16:57:16.685180,0,,0.12039383,0.0055697113,0.028104678,0.74188954,0.66591495,0.07846667,0.33319694,-0.46768022,0.818691,0.581876,-0.58123356,-0.5688481,,0.09535152,-0.011889368,0.0013487339,0.24955544,0.48092994,0.8404929,-0.5356308,-0.65453243,0.5335605,0.80673516,-0.5833468,0.094258726,,0.10793729,1.346405,0.44466949,0.9966652,-0.003674682,-0.08151727,-0.055119243,-0.76694715,-0.6393387,-0.06017007,0.64169973,-0.76459205,,-0.075446166,0.27194154,-0.08377122,-0.7854595,-0.61675656,-0.051620614,0.58719265,-0.76896566,0.25277787,-0.19559689,0.16823556,0.9661463,,-0.028026441,0.4354042,-0.29574186,-0.31804815,-0.41562822,-0.85211414,0.13124704,-0.90943193,0.3945982,-0.938946,0.013663768,0.34379312,,0.9749332435078506,0.37785787407005683,0.19780477997,3.5389371761883175,-0.3474666189035151,-0.26293168496008057,-0.41326048731972653,,-0.930403965755072,0.098688803399715,0.23346571787000003,-0.9146675334794951,-0.7868896021491716,-0.7994839836523893,0.7925454088835231,,-0.04375976767062783,-0.08274169651392119,0.07694186708,-0.052660797281082014,,0.000113178045,6.4969063e-06,-9.536743e-06,1.0,-9.266287e-05,-7.777661e-05,9.266287e-05,1.0,-7.301569e-06,7.776916e-05,7.301569e-06,1.0,691,2.164,0,1,0.642,False,-0.2618441003348577,0.9651694765970131
2.177418849998503,16:57:32.523041,16:57:16.685180,0,,0.119973324,0.005361587,0.02814424,0.7268952,0.68067825,0.091105916,0.33421808,-0.46652207,0.8189355,0.5999346,-0.5648312,-0.56660783,,0.09535669,-0.0119062215,0.0013489723,0.24951679,0.48118797,0.8403567,-0.53559166,-0.65441465,0.5337443,0.8067732,-0.58326614,0.0944328,,0.10793729,1.346405,0.44466949,0.9966652,-0.003674682,-0.08151727,-0.055119243,-0.76694715,-0.6393387,-0.06017007,0.64169973,-0.76459205,,-0.07502623,0.27183223,-0.08395399,-0.77176845,-0.6326356,-0.064386845,0.60046434,-0.7583417,0.25369343,-0.20932272,0.15713058,0.9651393,,-0.028031401,0.43539158,-0.29575315,-0.31801373,-0.41589418,-0.85199726,0.13130428,-0.9093098,0.39486057,-0.93894964,0.013700198,0.34378168,,0.9766245220073058,0.3751703630298267,0.19772181741000003,3.519436011444257,-0.3661858193713804,-0.24881093451563874,-0.4145672398488007,,-0.9304116884879463,0.09861157607097276,0.23346312529000002,-0.9146675334794951,-0.7868896021491716,-0.7998106986129514,0.7912386563544487,,-0.04375976767062783,-0.08274169651392119,0.07694186708,-0.052660797281082014,,0.000113178045,6.4969063e-06,-9.536743e-06,1.0,-9.266287e-05,-7.777661e-05,9.266287e-05,1.0,-7.301569e-06,7.776916e-05,7.301569e-06,1.0,700,2.193,0,1,0.642,False,-0.2608312791200009,0.9659419598094843
2.2179172250034753,16:57:32.556058,16:57:16.827268,0,,0.11971709,0.0052154213,0.028239682,0.7137209,0.6922058,0.1070208,0.33220574,-0.46904898,0.8183106,0.6166374,-0.54849255,-0.56472504,,0.09535718,-0.011924863,0.0013504028,0.24949092,0.4813011,0.84029967,-0.535549,-0.65438557,0.5338228,0.8068095,-0.5832055,0.094496995,,0.10793729,1.346405,0.44466949,0.9966652,-0.003674682,-0.08151727,-0.055119243,-0.76694715,-0.6393387,-0.06017007,0.64169973,-0.76459205,,-0.07477497,0.27179685,-0.08413218,-0.7597518,-0.64522547,-0.08038224,0.61044663,-0.7503847,0.25353047,-0.22390191,0.14355116,0.96398187,,-0.0280318,0.43537882,-0.2957668,-0.31799194,-0.41601285,-0.8519474,0.13136202,-0.9092558,0.3949657,-0.9389489,0.013682381,0.3437843,,0.9777520410069425,0.37330918440713856,0.19762459566,3.503918955626402,-0.38449511033994943,-0.2328191117984909,-0.41375051951812936,,-0.930403965755072,0.09853434874223052,0.23345664384000003,-0.9146675334794951,-0.7868896021491716,-0.7999740560932326,0.7918920326189858,,-0.04375976767062783,-0.08274169651392119,0.07694186708,-0.052660797281082014,,0.000113178045,6.4969063e-06,-9.536743e-06,1.0,-9.266287e-05,-7.777661e-05,9.266287e-05,1.0,-7.301569e-06,7.776916e-05,7.301569e-06,1.0,713,2.234,0,1,0.642,False,-0.26148663402373185,0.9685008104507957
2.250895749006304,16:57:32.594191,16:57:16.827268,0,,0.1196453,0.0051925033,0.028383225,0.6995877,0.7034017,0.12570974,0.3280458,-0.47246197,0.81802547,0.63479364,-0.5310421,-0.5612767,,0.095349215,-0.011941627,0.0013622046,0.24911122,0.48063037,0.84079605,-0.5358766,-0.65474856,0.5330483,0.8067093,-0.5833512,0.094453305,,0.10793729,1.346405,0.44466949,0.9966652,-0.003674682,-0.08151727,-0.055119243,-0.76694715,-0.6393387,-0.06017007,0.64169973,-0.76459205,,-0.07471294,0.271876,-0.08425934,-0.7468459,-0.65754765,-0.09925831,0.6197834,-0.7423672,0.2544789,-0.24101812,0.12853786,0.96197104,,-0.028024781,0.43537503,-0.29578727,-0.3176005,-0.41532695,-0.85242796,0.13108125,-0.909572,0.39433044,-0.93912065,0.013502218,0.34332207,,0.9783158005067609,0.37245196105809963,0.19755718858000001,3.4886115897520313,-0.4043074028059383,-0.21552001340054197,-0.41375051951812936,,-0.9303962430221978,0.09850345781073362,0.23343979207,-0.9140384636490416,-0.7871628751487024,-0.7996695415456991,0.7940155054787312,,-0.04375976767062783,-0.08274169651392119,0.07694186708,-0.052660797281082014,,0.000113178045,6.4969063e-06,-9.536743e-06,1.0,-9.266287e-05,-7.777661e-05,9.266287e-05,1.0,-7.301569e-06,7.776916e-05,7.301569e-06,1.0,726,2.275,0,1,0.642,False,-0.26101001227556386,0.9718321443045785
2.2890860449988395,16:57:32.628195,16:57:16.827268,0,,0.119523935,0.0051418096,0.028593972,0.6829064,0.71759987,0.13670811,0.33234334,-0.471852,0.8166416,0.6505281,-0.51225585,-0.56072044,,0.09532952,-0.011964679,0.0013798475,0.24904451,0.4805725,0.84084886,-0.53609157,-0.6546604,0.53294057,0.8065871,-0.5834979,0.09459123,,0.10793729,1.346405,0.44466949,0.9966652,-0.003674682,-0.08151727,-0.055119243,-0.76694715,-0.6393387,-0.06017007,0.64169973,-0.76459205,,-0.07460568,0.27198014,-0.08445775,-0.7313621,-0.6730195,-0.110245995,0.63414925,-0.73059195,0.2531603,-0.25092667,0.11523945,0.9611221,,-0.028006569,0.4353714,-0.29581705,-0.3175199,-0.4152566,-0.8524923,0.1308457,-0.9096017,0.39434022,-0.9391808,0.013665919,0.34315118,,0.9788872827394535,0.3717646378322937,0.19739644862000003,3.466384455742672,-0.41701459728412427,-0.19829713418496756,-0.4127704551213237,,-0.9303576293578267,0.09845712141348828,0.23340868111000002,-0.9136190837620726,-0.7871628751487024,-0.7999962565062614,0.7972823868014169,,-0.04375976767062783,-0.08274169651392119,0.07694186708,-0.052660797281082014,,0.000113178045,6.4969063e-06,-9.536743e-06,1.0,-9.266287e-05,-7.777661e-05,9.266287e-05,1.0,-7.301569e-06,7.776916e-05,7.301569e-06,1.0,735,2.304,0,1,0.642,False,-0.26160578946077395,0.975791120768494
2.3230462600040482,16:57:32.665371,16:57:16.827268,0,,0.119461544,0.005073771,0.028815076,0.67418087,0.72415113,0.14520733,0.33155438,-0.47242656,0.8166301,0.65996355,-0.5024123,-0.5585966,,0.09531283,-0.01198028,0.0013920069,0.24894294,0.48040333,0.84097564,-0.5360512,-0.6548433,0.5327563,0.80664515,-0.5834319,0.09450221,,0.10793729,1.346405,0.44466949,0.9966652,-0.003674682,-0.08151727,-0.055119243,-0.76694715,-0.6393387,-0.06017007,0.64169973,-0.76459205,,-0.074557684,0.27207437,-0.08467275,-0.72329915,-0.6802265,-0.11887059,0.64012605,-0.7250533,0.25404,-0.25899225,0.10765475,0.95986116,,-0.027990898,0.4353693,-0.29583752,-0.31742477,-0.41509217,-0.8526078,0.13092189,-0.9096794,0.39413548,-0.9392023,0.013483351,0.34309942,,0.9793120330475359,0.37138622392145665,0.19720719028000003,3.4561096485119305,-0.4265791522677051,-0.18886430612340685,-0.41407720765039785,,-0.9303112929605813,0.09842623048199138,0.23338664418000002,-0.9136190837620726,-0.7872995116484678,-0.7998031598624243,0.8000592359256997,,-0.04375976767062783,-0.08274169651392119,0.07694186708,-0.052660797281082014,,0.000113178045,6.4969063e-06,-9.536743e-06,1.0,-9.266287e-05,-7.777661e-05,9.266287e-05,1.0,-7.301569e-06,7.776916e-05,7.301569e-06,1.0,748,2.345,0,1,0.642,False,-0.26160578946077395,0.9771912465910981
2.3602302340004826,16:57:32.703736,16:57:16.975424,0,,0.11925937,0.0050157756,0.029125944,0.65547985,0.7379109,0.16072838,0.33100688,-0.4720064,0.81709504,0.6788083,-0.48238713,-0.5536444,,0.095066264,-0.012071341,0.00139153,0.24880625,0.48020515,0.84112924,-0.5361858,-0.65493405,0.53250927,0.80659795,-0.58349323,0.09452748,,0.10797759,1.3464029,0.4446716,0.9966627,-0.0037093523,-0.08154617,-0.055164296,-0.766947,-0.639335,-0.06017007,0.64169973,-0.76459205,,-0.07440984,0.2722415,-0.084950686,-0.70592606,-0.6953657,-0.13466582,0.6529425,-0.7125747,0.2567165,-0.2744713,0.093293816,0.9570589,,-0.027777994,0.43531722,-0.29591087,-0.31730536,-0.41491908,-0.8527365,0.13080947,-0.9097586,0.39399004,-0.93925834,0.013469145,0.34294662,,0.9801383654650778,0.3705753369696631,0.19696996921,3.433672824559086,-0.44516171623580497,-0.17044432161507106,-0.41244376698905516,,-0.9302572338304618,0.09835672588612336,0.23336201467000003,-0.9134093938185882,-0.7872995116484678,-0.7999665173427056,0.8016926765870429,,-0.04375976767062783,-0.08274169651392119,0.07694186708,-0.052660797281082014,,0.00015333481,9.417534e-06,-1.2993813e-05,1.0,-0.00012722984,-0.00010678545,0.00012722239,1.0,-1.0043383e-05,0.00010677427,1.001358e-05,1.0,757,2.373,1,2,0.642,False,-0.26136747858668974,0.9778671694020107
2.398625572997844,16:57:32.735442,16:57:16.975424,0,,0.119044304,0.004935339,0.0293715,0.6395802,0.7497297,0.16983074,0.33337313,-0.4695832,0.8175292,0.6926756,-0.46625853,-0.550276,,0.095065184,-0.012082025,0.0013943315,0.2486694,0.4801905,0.84117806,-0.53615004,-0.6550318,0.532425,0.8066639,-0.5833955,0.094567806,,0.10797759,1.3464029,0.4446716,0.9966627,-0.0037093523,-0.08154617,-0.055164296,-0.766947,-0.639335,-0.06017007,0.64169973,-0.76459205,,-0.074211046,0.2723507,-0.08519885,-0.6910627,-0.7083083,-0.14398506,0.66458756,-0.700996,0.2587046,-0.28417554,0.08309041,0.955165,,-0.027777053,0.43531135,-0.29592025,-0.31717578,-0.41491252,-0.85278785,0.13089016,-0.90976363,0.39395162,-0.9392908,0.01333037,0.34286296,,0.9811191525401044,0.3696331635590077,0.19676904426000003,3.413123210097603,-0.45773227421422547,-0.15610993746797217,-0.41342383138586086,,-0.9302495110975876,0.09831811222175223,0.23335682951000003,-0.9134093938185882,-0.7874361481482333,-0.7999367781791498,0.802509396917714,,-0.04375976767062783,-0.08274169651392119,0.07694186708,-0.052660797281082014,,0.00015333481,9.417534e-06,-1.2993813e-05,1.0,-0.00012722984,-0.00010678545,0.00012722239,1.0,-1.0043383e-05,0.00010677427,1.001358e-05,1.0,770,2.414,1,2,0.683,False,-0.26095043455704303,0.977480927795775
2.430318268001429,16:57:32.768425,16:57:16.975424,0,,0.11872497,0.0047277957,0.029674545,0.6315858,0.75382704,0.1812295,0.33013707,-0.47298956,0.81687844,0.70150477,-0.45609823,-0.5476,,0.09507759,-0.012083754,0.0013951063,0.24862126,0.48007,0.841261,-0.5361482,-0.65513146,0.5323043,0.80667996,-0.5833828,0.094509035,,0.10797759,1.3464029,0.4446716,0.9966627,-0.0037093523,-0.08154617,-0.055164296,-0.766947,-0.639335,-0.06017007,0.64169973,-0.76459205,,-0.07391029,0.27240598,-0.08557748,-0.68364924,-0.71304566,-0.15553023,0.6682664,-0.69727254,0.25928938,-0.29333213,0.073327355,0.9531943,,-0.027789457,0.43530965,-0.29592118,-0.31712937,-0.41479257,-0.85286343,0.13090587,-0.90981954,0.39381722,-0.9393043,0.01324618,0.34282932,,0.9826482536492008,0.36814267611428236,0.19645274950000002,3.4041065425277686,-0.4696196496938188,-0.14380286016188548,-0.4134238313858608,,-0.9303035702277072,0.09829494402312956,0.23336201467000003,-0.9134093938185882,-0.7874361481482333,-0.7997734206988686,0.8021827087854454,,-0.04375976767062783,-0.08274169651392119,0.07694186708,-0.052660797281082014,,0.00015333481,9.417534e-06,-1.2993813e-05,1.0,-0.00012722984,-0.00010678545,0.00012722239,1.0,-1.0043383e-05,0.00010677427,1.001358e-05,1.0,779,2.443,1,2,0.712,False,-0.26148663402373185,0.9772395267918776
2.4633072150027147,16:57:32.806079,16:57:16.975424,0,,0.118498385,0.004632756,0.029902235,0.61813295,0.76100415,0.19693747,0.3266601,-0.47655517,0.81620365,0.71498597,-0.44019076,-0.54316425,,0.09508293,-0.012084201,0.0013965964,0.24859878,0.48001078,0.8413015,-0.5361493,-0.6551784,0.5322454,0.80668616,-0.5833788,0.09448087,,0.10797759,1.3464029,0.4446716,0.9966627,-0.0037093523,-0.08154617,-0.055164296,-0.766947,-0.639335,-0.06017007,0.64169973,-0.76459205,,-0.07369855,0.27249318,-0.08582198,-0.67110926,-0.7212502,-0.17149515,0.67507017,-0.6901387,0.2607468,-0.3064191,0.05921833,0.9500529,,-0.02779491,0.43530998,-0.29592228,-0.3171076,-0.4147334,-0.8529003,0.13091084,-0.9098471,0.39375195,-0.93931097,0.013207835,0.34281254,,0.9837834953817118,0.36693020705302914,0.19627126890000002,3.3885894867099133,-0.4860160296656717,-0.12585870227044346,-0.4137505195181293,,-0.9303190156934555,0.09828722129025534,0.23336331096000001,-0.9134093938185882,-0.7874361481482333,-0.7996917419587282,0.8020193647193112,,-0.04375976767062783,-0.08274169651392119,0.07694186708,-0.052660797281082014,,0.00015333481,9.417534e-06,-1.2993813e-05,1.0,-0.00012722984,-0.00010678545,0.00012722239,1.0,-1.0043383e-05,0.00010677427,1.001358e-05,1.0,792,2.484,1,2,0.753,False,-0.26112916771260597,0.977480927795775
2.5008990850037662,16:57:32.846806,16:57:17.121167,0,,0.11822397,0.0044942945,0.030133605,0.6076743,0.76633143,0.20849001,0.32322782,-0.4784387,0.8164681,0.7254349,-0.42875686,-0.5384347,,0.09508996,-0.012082875,0.001401484,0.24856675,0.48002997,0.8413,-0.53615797,-0.6551746,0.5322412,0.8066902,-0.5833673,0.09451729,,0.10797759,1.3464029,0.4446716,0.9966627,-0.0037093523,-0.08154617,-0.055164296,-0.766947,-0.639335,-0.06017007,0.64169973,-0.76459205,,-0.0734387,0.27255234,-0.08609943,-0.6613468,-0.7273261,-0.18334997,0.67978334,-0.68450284,0.26334468,-0.31704104,0.049523894,0.9471179,,-0.027802372,0.4353137,-0.2959245,-0.31707597,-0.41475368,-0.85290223,0.13090955,-0.90983796,0.39377356,-0.9393218,0.013203086,0.34278294,,0.9850345781073362,0.36561734246441097,0.19606645508,3.3772662297617493,-0.4989964971433885,-0.11347706913619104,-0.4140772076503979,,-0.9303576293578267,0.09828722129025534,0.23336331096000001,-0.9134093938185882,-0.7874361481482333,-0.7996917419587282,0.8020193647193112,,-0.04375976767062783,-0.08274169651392119,0.07694186708,-0.052660797281082014,,0.00015333481,9.417534e-06,-1.2993813e-05,1.0,-0.00012722984,-0.00010678545,0.00012722239,1.0,-1.0043383e-05,0.00010677427,1.001358e-05,1.0,801,2.513,1,2,0.782,False,-0.2617249448978165,0.9772878069926572
2.541674733001855,16:57:32.876576,16:57:17.121167,0,,0.11804792,0.004384935,0.030306205,0.6014862,0.7706681,0.21044007,0.32475495,-0.47654578,0.81696904,0.7298963,-0.4230541,-0.5369141,,0.09509045,-0.012084484,0.001401186,0.24856354,0.48002797,0.84130204,-0.5361539,-0.65518034,0.5322383,0.806694,-0.5833624,0.09451491,,0.10797759,1.3464029,0.4446716,0.9966627,-0.0037093523,-0.08154617,-0.055164296,-0.766947,-0.639335,-0.06017007,0.64169973,-0.76459205,,-0.07327334,0.27259025,-0.0863091,-0.6555066,-0.73207575,-0.1854081,0.6841743,-0.67962795,0.26459667,-0.31971332,0.046593413,0.94636804,,-0.027802823,0.43531227,-0.29592538,-0.31707317,-0.41475204,-0.8529041,0.1309153,-0.9098388,0.39376965,-0.939322,0.013195593,0.34278286,,0.9857682377303876,0.3649068510399823,0.1958823819,3.368668942078884,-0.5030955921363518,-0.10841927848234656,-0.4142405517165321,,-0.9303576293578267,0.0982794985573811,0.23336331096000001,-0.9134093938185882,-0.7874361481482333,-0.7996917419587282,0.8020193647193112,,-0.04375976767062783,-0.08274169651392119,0.07694186708,-0.052660797281082014,,0.00015333481,9.417534e-06,-1.2993813e-05,1.0,-0.00012722984,-0.00010678545,0.00012722239,1.0,-1.0043383e-05,0.00010677427,1.001358e-05,1.0,810,2.541,1,2,0.81,False,-0.26148663402373185,0.9765636039809653
2.571469848000561,16:57:32.901407,16:57:17.121167,0,,0.11794563,0.004275605,0.030574545,0.59505254,0.7719988,0.22345078,0.31886184,-0.48199126,0.81609535,0.737726,-0.4143697,-0.5329713,,0.09508724,-0.012088552,0.0013977289,0.24857628,0.47994366,0.8413465,-0.5361405,-0.6552376,0.5321814,0.806699,-0.5833676,0.0944407,,0.10797759,1.3464029,0.4446716,0.9966627,-0.0037093523,-0.08154617,-0.055164296,-0.766947,-0.639335,-0.06017007,0.64169973,-0.76459205,,-0.07318818,0.27268574,-0.086588494,-0.6495397,-0.73391974,-0.19864535,0.68509513,-0.67825395,0.26573727,-0.3297618,0.036515947,0.9433577,,-0.027799247,0.43530717,-0.29592577,-0.31708652,-0.41466692,-0.8529405,0.13092759,-0.9098782,0.39367458,-0.9393158,0.013155457,0.34280142,,0.9864323927575709,0.36431220060866704,0.19564775341,3.3632170035482862,-0.5147096946164142,-0.096661751944215,-0.4148939279810693,,-0.930334461159204,0.09826405309163266,0.23336331096000001,-0.9134093938185882,-0.7874361481482333,-0.7996100632185874,0.8012026443886398,,-0.04375976767062783,-0.08274169651392119,0.07694186708,-0.052660797281082014,,0.00015333481,9.417534e-06,-1.2993813e-05,1.0,-0.00012722984,-0.00010678545,0.00012722239,1.0,-1.0043383e-05,0.00010677427,1.001358e-05,1.0,823,2.582,1,2,0.851,False,-0.26243987752006825,0.9769498455872012
2.5962526719958987,16:57:32.956155,16:57:17.121167,0,,0.11785819,0.0042099655,0.030806825,0.5873197,0.7774523,0.2249967,0.31989104,-0.47834304,0.81783724,0.74345505,-0.40835744,-0.52964044,,0.09509485,-0.012094051,0.0014004111,0.24853772,0.48001957,0.84131455,-0.536131,-0.65521395,0.53221995,0.8067171,-0.58333164,0.09450799,,0.10797759,1.3464029,0.4446716,0.9966627,-0.0037093523,-0.08154617,-0.055164296,-0.766947,-0.639335,-0.06017007,0.64169973,-0.76459205,,-0.07311601,0.27279043,-0.086811505,-0.6422387,-0.739832,-0.20044483,0.6900112,-0.6719048,0.26912537,-0.33378738,0.03453353,0.9420156,,-0.02780702,0.43530443,-0.295931,-0.31704995,-0.41474617,-0.8529155,0.13094957,-0.90984213,0.39375058,-0.93932503,0.013149684,0.34277624,,0.9868803112642759,0.36409596408818873,0.19543905072,3.3531518862610286,-0.5197652451077354,-0.09245761076730685,-0.414730583914935,,-0.9303653520907009,0.09823316216013576,0.23336331096000001,-0.9134093938185882,-0.7874361481482333,-0.799691741958728,0.8013659884547741,,-0.04375976767062783,-0.08274169651392119,0.07694186708,-0.052660797281082014,,0.00015333481,9.417534e-06,-1.2993813e-05,1.0,-0.00012722984,-0.00010678545,0.00012722239,1.0,-1.0043383e-05,0.00010677427,1.001358e-05,1.0,845,2.652,1,2,0.921,False,-0.26136747858668974,0.9778188892012312
2.6126683610054897,16:57:33.008605,16:57:17.121167,0,,0.11782763,0.0041306913,0.031191573,0.58179325,0.77891695,0.23410457,0.31449473,-0.4808869,0.81843805,0.75007313,-0.4025371,-0.5247422,,0.09509784,-0.012099043,0.0013988614,0.24856457,0.48016205,0.84122527,-0.5359906,-0.65521306,0.53236246,0.80680215,-0.58321536,0.09449956,,0.10797759,1.3464029,0.4446716,0.9966627,-0.0037093523,-0.08154617,-0.055164296,-0.766947,-0.639335,-0.06017007,0.64169973,-0.76459205,,-0.07311093,0.27297983,-0.08715698,-0.6371006,-0.7416563,-0.20987803,0.69047815,-0.6701735,0.2722267,-0.34255335,0.028519595,0.9390654,,-0.027809784,0.4352995,-0.29593307,-0.31708643,-0.414899,-0.85282767,0.1311082,-0.9097735,0.39385626,-0.9392906,0.0130737815,0.3428735,,0.9874286252983459,0.36416546868405675,0.19511238564000002,3.3485387075043693,-0.5293298000913162,-0.08498507246911963,-0.414730583914935,,-0.9303653520907009,0.09820227122863887,0.23336460725000002,-0.9136190837620726,-0.7874361481482333,-0.7996917419587282,0.8020193647193112,,-0.04375976767062783,-0.08274169651392119,0.07694186708,-0.052660797281082014,,0.00015333481,9.417534e-06,-1.2993813e-05,1.0,-0.00012722984,-0.00010678545,0.00012722239,1.0,-1.0043383e-05,0.00010677427,1.001358e-05,1.0,854,2.681,1,2,0.95,False,-0.26232072208302704,0.9783499714098054
2.6647327140090056,16:57:33.038899,16:57:17.121167,0,,0.11776654,0.0041012764,0.031394616,0.58041364,0.7791504,0.23673739,0.31255594,-0.48160473,0.8187586,0.75195,-0.40122503,-0.52305824,,0.09509464,-0.012107909,0.0013952255,0.24853116,0.4800605,0.84129316,-0.53609306,-0.65521854,0.53225255,0.8067444,-0.5832928,0.09451482,,0.10797759,1.3464029,0.4446716,0.9966627,-0.0037093523,-0.08154617,-0.055164296,-0.766947,-0.639335,-0.06017007,0.64169973,-0.76459205,,-0.07306358,0.2730918,-0.087333195,-0.63582426,-0.74196887,-0.2126257,0.69028866,-0.6698878,0.273408,-0.34529558,0.027066339,0.9381036,,-0.027806148,0.43529075,-0.2959366,-0.31704646,-0.4147905,-0.8528953,0.13099638,-0.90982234,0.3937807,-0.9393197,0.013120587,0.342792,,0.98798466206529,0.3642272505470506,0.19493868278,3.3472805678434625,-0.532335803086156,-0.08277891480821997,-0.4152206161133378,,-0.9303421838920782,0.09817138029714197,0.23336331096000001,-0.9134093938185882,-0.7874361481482333,-0.7997734206988686,0.8021827087854454,,-0.04375976767062783,-0.08274169651392119,0.07694186708,-0.052660797281082014,,0.00015333481,9.417534e-06,-1.2993813e-05,1.0,-0.00012722984,-0.00010678545,0.00012722239,1.0,-1.0043383e-05,0.00010677427,1.001358e-05,1.0,863,2.709,1,2,0.978,False,-0.26101001227556386,0.9786396526144823
2.6954082430020208,16:57:33.066385,16:57:17.121167,0,,0.11769244,0.0040804,0.031625926,0.578929,0.77931136,0.2398229,0.30960202,-0.48219532,0.81953293,0.7543129,-0.4002017,-0.5204334,,0.09509664,-0.012114435,0.001394093,0.24851826,0.4799836,0.8413408,-0.53607666,-0.655285,0.5321873,0.80675924,-0.5832814,0.094457716,,0.10797759,1.3464029,0.4446716,0.9966627,-0.0037093523,-0.08154617,-0.055164296,-0.766947,-0.639335,-0.06017007,0.64169973,-0.76459205,,-0.073005356,0.27322924,-0.08752593,-0.6344611,-0.7421911,-0.21589705,0.6896447,-0.6696872,0.27551624,-0.3490692,0.025912093,0.9367386,,-0.027807951,0.43528503,-0.29594007,-0.3170352,-0.41471425,-0.85293657,0.1310194,-0.9098579,0.3936908,-0.93932027,0.013062616,0.3427926,,0.9886874307568444,0.36431220060866704,0.19475072073000002,3.3462321181260397,-0.5364348980791193,-0.08082491627971694,-0.41342383138586086,,-0.9303421838920782,0.09814048936564507,0.23336331096000001,-0.9134093938185882,-0.7874361481482333,-0.799691741958728,0.8029994291161169,,-0.04375976767062783,-0.08274169651392119,0.07694186708,-0.052660797281082014,,0.00015333481,9.417534e-06,-1.2993813e-05,1.0,-0.00012722984,-0.00010678545,0.00012722239,1.0,-1.0043383e-05,0.00010677427,1.001358e-05,1.0,881,2.767,1,2,1.036,False,-0.2616653671792948,0.9792672952246151
2.7228977409977233,16:57:33.122658,16:57:17.381470,0,,0.117479526,0.0040020794,0.03206113,0.5803338,0.7776485,0.24181682,0.30548978,-0.48312724,0.8205267,0.75490975,-0.4023069,-0.51793885,,0.09510184,-0.01212889,0.0013952255,0.24843982,0.4798931,0.8414156,-0.5361713,-0.6553096,0.5320615,0.8067204,-0.5833283,0.094499886,,0.10797759,1.3464029,0.4446716,0.9966627,-0.0037093523,-0.08154617,-0.055164296,-0.766947,-0.639335,-0.06017007,0.64169973,-0.76459205,,-0.07282188,0.2734622,-0.08791701,-0.63584006,-0.7403723,-0.21807395,0.6868156,-0.67166096,0.2777695,-0.3521246,0.026840383,0.9355682,,-0.027813056,0.43527478,-0.29595038,-0.31695232,-0.4146194,-0.85301346,0.1309293,-0.90990096,0.39362127,-0.9393608,0.013074708,0.34268105,,0.9903632637905512,0.36431992334154123,0.19435924115000003,3.348329017560885,-0.5398508105732552,-0.08081654585208559,-0.41505727204720366,,-0.9303576293578267,0.09807870750265127,0.23336071838000003,-0.9131997038751036,-0.7874361481482333,-0.7997734206988687,0.8034894613145196,,-0.04375976767062783,-0.08274169651392119,0.07694186708,-0.052660797281082014,,0.00015333481,9.417534e-06,-1.2993813e-05,1.0,-0.00012722984,-0.00010678545,0.00012722239,1.0,-1.0043383e-05,0.00010677427,1.001358e-05,1.0,895,2.812,1,2,1.081,False,-0.2604738128088746,0.9788327734176001
2.7791114559950074,16:57:33.167626,16:57:17.381470,0,,0.11736163,0.003963515,0.03245215,0.57049453,0.7824547,0.24960068,0.3002655,-0.4815762,0.823362,0.7644453,-0.39477703,-0.5096809,,0.09510031,-0.012131184,0.0013949871,0.24844304,0.47981846,0.8414572,-0.53616554,-0.65535957,0.5320059,0.80672336,-0.58333355,0.094442606,,0.10797759,1.3464029,0.4446716,0.9966627,-0.0037093523,-0.08154617,-0.055164296,-0.766947,-0.639335,-0.06017007,0.64169973,-0.76459205,,-0.072730735,0.27369162,-0.08824463,-0.62660444,-0.7457115,-0.22645356,0.68953896,-0.6658951,0.2848153,-0.36318436,0.022317981,0.93144995,,-0.02781149,0.43527305,-0.29595187,-0.31695583,-0.41454402,-0.8530488,0.13093531,-0.90993583,0.3935387,-0.9393588,0.013040174,0.3426879,,0.9913363281327034,0.36419635961555363,0.19406627961000003,3.3380542103301427,-0.5524213685516758,-0.07350653335707491,-0.41440389578266645,,-0.9303499066249524,0.09807098476977705,0.23335942209000002,-0.9131997038751036,-0.7874361481482333,-0.799691741958728,0.8033261172483852,,-0.04375976767062783,-0.08274169651392119,0.07694186708,-0.052660797281082014,,0.00015333481,9.417534e-06,-1.2993813e-05,1.0,-0.00012722984,-0.00010678545,0.00012722239,1.0,-1.0043383e-05,0.00010677427,1.001358e-05,1.0,904,2.84,1,2,1.109,False,-0.26190367805337944,0.9775292079965545
2.824126674007857,16:57:33.195803,16:57:17.381470,0,,0.117294595,0.00382258,0.032834947,0.5650655,0.78343064,0.25872245,0.2945983,-0.48450345,0.82369184,0.7706574,-0.38922065,-0.50457364,,0.09509801,-0.012133345,0.0013927817,0.24845259,0.47980875,0.8414599,-0.53615797,-0.65536684,0.5320046,0.80672544,-0.58333343,0.09442571,,0.10797759,1.3464029,0.4446716,0.9966627,-0.0037093523,-0.08154617,-0.055164296,-0.766947,-0.639335,-0.06017007,0.64169973,-0.76459205,,-0.072688185,0.27383482,-0.088630065,-0.6215312,-0.7470241,-0.23591086,0.6895321,-0.66459864,0.28784406,-0.3718125,0.016235942,0.92816585,,-0.027808955,0.43527013,-0.29595184,-0.31696567,-0.41453427,-0.8530499,0.1309416,-0.90994036,0.3935262,-0.9393546,0.0130345775,0.34269962,,0.9919309785640187,0.36391061849920736,0.19371368873000003,3.333650721516968,-0.5622591965347875,-0.06589283799163548,-0.41424055171653223,,-0.930334461159204,0.09806326203690283,0.23335942209000002,-0.9131997038751036,-0.7874361481482333,-0.7996917419587282,0.8020193647193112,,-0.04375976767062783,-0.08274169651392119,0.07694186708,-0.052660797281082014,,0.00015333481,9.417534e-06,-1.2993813e-05,1.0,-0.00012722984,-0.00010678545,0.00012722239,1.0,-1.0043383e-05,0.00010677427,1.001358e-05,1.0,918,2.885,1,2,1.154,False,-0.2611887454311268,0.9747772365521254
2.8522655020060483,16:57:33.248756,16:57:17.381470,0,,0.11727011,0.003630489,0.033245176,0.55887294,0.78492415,0.26749766,0.2893651,-0.48689204,0.8241383,0.7771287,-0.38318413,-0.4992406,,0.09509991,-0.012134731,0.001393497,0.24844298,0.47994798,0.84138334,-0.5361556,-0.6552848,0.5321079,0.80673,-0.5833109,0.0945259,,0.10797759,1.3464029,0.4446716,0.9966627,-0.0037093523,-0.08154617,-0.055164296,-0.766947,-0.639335,-0.06017007,0.64169973,-0.76459205,,-0.07268917,0.27395433,-0.08906769,-0.615721,-0.7488946,-0.24503994,0.6900663,-0.66261125,0.29112694,-0.3803896,0.010159163,0.92477053,,-0.027810898,0.43526945,-0.29595318,-0.31695652,-0.414676,-0.85298437,0.13094708,-0.9098751,0.39367524,-0.9393569,0.013082117,0.34269145,,0.9922089969474908,0.3635862637184899,0.19331054254000002,3.328408472929855,-0.5720970245178991,-0.058360821366336524,-0.4145672398488008,,-0.9303421838920782,0.0980555393040286,0.23335942209000002,-0.9131997038751036,-0.7874361481482333,-0.7998550994390091,0.7994058596611628,,-0.04375976767062783,-0.08274169651392119,0.07694186708,-0.052660797281082014,,0.00015333481,9.417534e-06,-1.2993813e-05,1.0,-0.00012722984,-0.00010678545,0.00012722239,1.0,-1.0043383e-05,0.00010677427,1.001358e-05,1.0,932,2.93,0,2,1.193,False,-0.2622611443645053,0.9732322701271827
