AlexandreBanks6/ExpertPlaybackApp/resources/Motions/Pilot_02/PC1/TwoHanded_02.csv
Task Time,PC1 Time,PC2 Time,Gaze Calib,s_T_psm1,Tx,Ty,Tz,R00,R01,R02,R10,R11,R12,R20,R21,R22,s_T_psm3,Tx,Ty,Tz,R00,R01,R02,R10,R11,R12,R20,R21,R22,cart_T_ecm,Tx,Ty,Tz,R00,R01,R02,R10,R11,R12,R20,R21,R22,ecm_T_psm1,Tx,Ty,Tz,R00,R01,R02,R10,R11,R12,R20,R21,R22,ecm_T_psm3,Tx,Ty,Tz,R00,R01,R02,R10,R11,R12,R20,R21,R22,psm1_joints,q1,q2,q3,q4,q5,q6,jaw,psm3_joints,q1,q2,q3,q4,q5,q6,jaw,ecm_joints,q1,q2,q3,q4,ecmi_T_ecm,Tx,Ty,Tz,R00,R01,R02,R10,R11,R12,R20,R21,R22,Sample #,Task Duration (s),Collisions (binary),Collisions (increments),Cumulative Collision Time (s),Clutch Press,MTMR Angle,MTML Angle
""
lci_T_si,,,,,-0.062389474,-0.0010951007,0.25930017,0.99593616,0.0017670981,0.09004503,0.05772532,-0.7799611,-0.62316006,0.069130436,0.6258255,-0.77689344
rci_T_si,,,,,-0.072285615,0.0035915847,0.2678278,0.9913835,-0.02220903,0.12909488,0.06891292,-0.74969065,-0.65819067,0.111399,0.66141564,-0.7417005
ecm_T_lc,,,,,-4.4061628e-05,-0.00034663224,-0.01840835,-0.99912,0.030754527,0.028518902,-0.031987965,-0.99852574,-0.043852776,0.027128186,-0.04472645,0.9986309
ecm_T_rc,,,,,-0.0043358393,0.01870579,-0.007592615,-0.99555075,-0.052743673,-0.078081585,0.04863213,-0.9973746,0.053654674,-0.08070653,0.04961868,0.9955021
cart_T_ecmi,,,,,0.10892019,1.3552758,0.4526434,0.99635094,0.028806036,-0.08034339,-0.027260283,-0.78462213,-0.6193747,-0.08088093,0.6193047,-0.78097373
ecmac_T_ecmrep_psm1,,,,,0.020639513,-0.23766407,-0.31952974,0.9991728,0.040656675,0.00084931776,-0.040573046,0.9980905,-0.046573985,-0.0027412393,0.046501,0.9989145
ecmac_T_ecmrep_psm3,,,,,-0.018134806,-0.43550184,-0.5747026,0.99898165,-0.022027466,0.039375085,0.018065983,0.9949952,0.09827628,-0.041342795,-0.09746485,0.9943799
""
0,17:11:09.125171,17:10:51.493481,0,,0.13284189,0.033319876,0.011612222,0.39607808,-0.85047615,-0.3461392,-0.7564394,-0.51591134,0.40203846,-0.5205013,0.10259476,-0.8476749,,0.08722149,-0.0019086301,0.02766633,-0.45439136,-0.46438807,0.76017904,-0.023681462,0.8593602,0.5108219,-0.8904874,0.21411094,-0.4014834,,0.10889634,1.3552796,0.45263568,0.9963521,0.02883958,-0.08031691,-0.027217684,-0.7846209,-0.6193781,-0.08088093,0.6193047,-0.78097373,,-0.10048684,0.27833965,-0.044318546,-0.35524988,0.8238178,0.44172585,-0.9342944,-0.29782906,-0.19593842,-0.029858762,-0.4823091,0.8754921,,-0.041142173,0.43598428,-0.33192426,0.554223,0.3970171,-0.7315834,-0.6075217,0.79375577,-0.029481115,0.56899405,0.4607919,0.68111426,,1.230941838288393,0.3367420442476855,0.20743751096000002,-0.9289264496364429,0.05520114590523794,0.32409339360184647,-0.4032964992855355,,-1.0201575672193093,-0.29762640223973835,0.20289142193,1.6118865955655386,0.4354605247524587,0.5058867407411716,0.8753608504136027,,-0.03987859174650544,-0.11159198904938746,0.0651689506,-0.08471519562608845,,-2.323836e-05,-8.46386e-06,5.4836273e-06,1.0,3.338605e-05,2.6479363e-05,-3.3393502e-05,1.0,3.427267e-06,-2.6479363e-05,-3.4868717e-06,1.0,33,0.1,0,0,0.0,False,-0.26160578946077395,1.0496115477602863
0.12674231200071517,17:11:09.149789,17:10:51.493481,0,,0.13291268,0.03330584,0.011496812,0.39335907,-0.8511589,-0.3475588,-0.7598375,-0.5138017,0.39831486,-0.5176056,0.10740748,-0.848851,,0.08722454,-0.0019274056,0.027672887,-0.45354044,-0.4650901,0.7602581,-0.023889273,0.85907567,0.51129067,-0.89091545,0.21372893,-0.40073633,,0.10889634,1.3552796,0.45263568,0.9963521,0.02883958,-0.08031691,-0.027217684,-0.7846209,-0.6193781,-0.08088093,0.6193047,-0.78097373,,-0.1005454,0.27825347,-0.044230964,-0.352923,0.8240361,0.44318148,-0.9350167,-0.29315397,-0.19951071,-0.03448361,-0.48479402,0.8739483,,-0.041145105,0.4359759,-0.3319423,0.55343723,0.39777055,-0.73176897,-0.6080706,0.7933665,-0.028630761,0.5691725,0.46081254,0.6809512,,1.2305711471104304,0.33671887604906287,0.20752565868000003,-0.9255714105406906,0.051375323911805604,0.32745813112576794,-0.4037865314839382,,-1.020142121753561,-0.2977267977671033,0.20289142193,1.6116769056220543,0.43641698025081677,0.5064136752575455,0.8750341622813338,,-0.03987859174650544,-0.11159198904938746,0.0651689506,-0.08471519562608845,,-2.323836e-05,-8.46386e-06,5.4836273e-06,1.0,3.338605e-05,2.6479363e-05,-3.3393502e-05,1.0,3.427267e-06,-2.6479363e-05,-3.4868717e-06,1.0,44,0.132,0,0,0.0,False,-0.2612483231496481,1.0495632675595068
0.1513678909977898,17:11:09.179027,17:10:51.493481,0,,0.13296208,0.033281088,0.011409923,0.3946946,-0.8498471,-0.34925073,-0.7625421,-0.51503515,0.39149487,-0.5125873,0.11179745,-0.85132587,,0.0872264,-0.0019378066,0.027674198,-0.45353115,-0.46518683,0.76020443,-0.023909658,0.85901695,0.5113883,-0.89091974,0.2137543,-0.40071347,,0.10889634,1.3552796,0.45263568,0.9963521,0.02883958,-0.08031691,-0.027217684,-0.7846209,-0.6193781,-0.08088093,0.6193047,-0.78097373,,-0.100585915,0.27817768,-0.04417427,-0.35483545,0.8222446,0.44497827,-0.9340754,-0.2914524,-0.20629744,-0.039936963,-0.4888449,0.8714561,,-0.04114661,0.4359695,-0.3319507,0.5534294,0.39786634,-0.73172283,-0.6080886,0.79335594,-0.028541533,0.56916094,0.46074802,0.68100446,,1.2303703560557004,0.33671887604906287,0.20758658431000002,-0.9266198602581132,0.04563659092165711,0.3323010405612988,-0.40378653148393834,,-1.020149844486435,-0.2977808568972229,0.20289142193,1.6116769056220543,0.43641698025081677,0.5065770327378267,0.8756875385458711,,-0.03987859174650544,-0.11159198904938746,0.0651689506,-0.08471519562608845,,-2.323836e-05,-8.46386e-06,5.4836273e-06,1.0,3.338605e-05,2.6479363e-05,-3.3393502e-05,1.0,3.427267e-06,-2.6479363e-05,-3.4868717e-06,1.0,56,0.169,0,0,0.0,False,-0.26112916771260597,1.049514987358727
0.18058842299797107,17:11:09.217749,17:10:51.668336,0,,0.13303727,0.033268005,0.011272311,0.3950947,-0.84917384,-0.35043377,-0.7653622,-0.515253,0.38566175,-0.50805604,0.115835786,-0.85349935,,0.08722633,-0.0019530058,0.02767378,-0.45353362,-0.46520916,0.7601893,-0.023944587,0.8590099,0.51139855,-0.89091754,0.21373397,-0.40072915,,0.10889634,1.3552796,0.45263568,0.9963521,0.02883958,-0.08031691,-0.027217684,-0.7846209,-0.6193781,-0.08088093,0.6193047,-0.78097373,,-0.10064651,0.2780782,-0.044068452,-0.35576913,0.82114655,0.44625852,-0.9334815,-0.28914446,-0.2121504,-0.04517339,-0.49205062,0.86939377,,-0.041145805,0.4359589,-0.3319615,0.5534332,0.39789113,-0.7317065,-0.60811055,0.793339,-0.02854418,0.5691338,0.4607557,0.6810219,,1.2299919421448635,0.3367034305833144,0.20769288009000003,-0.9266198602581132,0.040444403930570375,0.33637156342148167,-0.40443990774847544,,-1.020142121753561,-0.2978580842259651,0.20289142193,1.6116769056220543,0.43641698025081677,0.5066587114779674,0.875524194479737,,-0.03987859174650544,-0.11159198904938746,0.0651689506,-0.08471519562608845,,-2.323836e-05,-8.46386e-06,5.4836273e-06,1.0,3.338605e-05,2.6479363e-05,-3.3393502e-05,1.0,3.427267e-06,-2.6479363e-05,-3.4868717e-06,1.0,64,0.194,0,0,0.0,False,-0.26160578946077395,1.049418426957168
0.21931283099911525,17:11:09.241017,17:10:51.668336,0,,0.1331003,0.033204377,0.011194617,0.39254388,-0.84992266,-0.3514837,-0.77167875,-0.5122848,0.3769298,-0.500421,0.12327099,-0.8569616,,0.087225735,-0.0019560158,0.027674854,-0.45353281,-0.4652013,0.76019454,-0.023951083,0.8590169,0.51138645,-0.8909177,0.213723,-0.40073448,,0.10889634,1.3552796,0.45263568,0.9963521,0.02883958,-0.08031691,-0.027217684,-0.7846209,-0.6193781,-0.08088093,0.6193047,-0.78097373,,-0.10070236,0.27797705,-0.044041816,-0.3541693,0.8211734,0.44748,-0.93354607,-0.28216434,-0.221077,-0.055279657,-0.49604186,0.86653715,,-0.041145213,0.4359577,-0.33196452,0.5534327,0.39788422,-0.7317106,-0.6081152,0.79333496,-0.028556867,0.5691293,0.46076867,0.681017,,1.2298297647545047,0.3367111533161886,0.20772139847,-0.9232648211623607,0.031153121946520423,0.34133426118834037,-0.40476659588074393,,-1.020142121753561,-0.29787352969171355,0.20289012564000003,1.6116769056220543,0.43641698025081677,0.5066587114779673,0.8751975063474682,,-0.03987859174650544,-0.11159198904938746,0.0651689506,-0.08471519562608845,,-2.323836e-05,-8.46386e-06,5.4836273e-06,1.0,3.338605e-05,2.6479363e-05,-3.3393502e-05,1.0,3.427267e-06,-2.6479363e-05,-3.4868717e-06,1.0,75,0.227,0,0,0.0,False,-0.2611887454311268,1.0491770259532711
0.2425969809992239,17:11:09.278384,17:10:51.668336,0,,0.1331503,0.033143252,0.011132017,0.39375666,-0.84926665,-0.35171267,-0.7761242,-0.51217926,0.36783636,-0.4925312,0.12813467,-0.8608104,,0.08722686,-0.0019559115,0.027675807,-0.4535263,-0.46513942,0.76023626,-0.02394864,0.85905904,0.5113159,-0.8909211,0.21368855,-0.4007454,,0.10889634,1.3552796,0.45263568,0.9963521,0.02883958,-0.08031691,-0.027217684,-0.7846209,-0.6193781,-0.08088093,0.6193047,-0.78097373,,-0.1007468,0.2778879,-0.04402658,-0.35629833,0.8200127,0.44791815,-0.93217385,-0.27908954,-0.23056671,-0.06405837,-0.49968812,0.8638335,,-0.04114643,0.4359583,-0.331965,0.5534265,0.39782488,-0.7317475,-0.60811675,0.7933316,-0.028617641,0.56913364,0.46082568,0.6809747,,1.2297216464942655,0.33671887604906287,0.20774084282000002,-0.9241035809362987,0.022135112962001352,0.345747408187244,-0.4044399077484755,,-1.020149844486435,-0.29787352969171355,0.20289012564000003,1.6116769056220543,0.43641698025081677,0.5065770327378267,0.875034162281334,,-0.03987859174650544,-0.11159198904938746,0.0651689506,-0.08471519562608845,,-2.323836e-05,-8.46386e-06,5.4836273e-06,1.0,3.338605e-05,2.6479363e-05,-3.3393502e-05,1.0,3.427267e-06,-2.6479363e-05,-3.4868717e-06,1.0,83,0.251,0,0,0.0,False,-0.26059296824591627,1.0494667071579475
0.2799542319989996,17:11:09.302493,17:10:51.668336,0,,0.13315803,0.033137754,0.011123791,0.39457548,-0.84918153,-0.35099992,-0.7763248,-0.5124388,0.3670508,-0.49155876,0.12766066,-0.8614364,,0.087225735,-0.0019560158,0.027674854,-0.45353281,-0.46513915,0.76023257,-0.023951083,0.85905874,0.51131624,-0.8909177,0.21369034,-0.40075192,,0.10889634,1.3552796,0.45263568,0.9963521,0.02883958,-0.08031691,-0.027217684,-0.7846209,-0.6193781,-0.08088093,0.6193047,-0.78097373,,-0.10075375,0.2778781,-0.044022884,-0.35721883,0.8199723,0.4472585,-0.93176603,-0.27959126,-0.23160489,-0.06486002,-0.4994739,0.86389756,,-0.041145213,0.4359577,-0.33196452,0.5534327,0.39782447,-0.7317431,-0.6081152,0.79333264,-0.028621664,0.5691293,0.46082428,0.6809793,,1.2296984782956428,0.33672659878193706,0.20774473169000002,-0.9249423407102368,0.02117865746364327,0.34546550989129154,-0.40378653148393834,,-1.020142121753561,-0.29787352969171355,0.20289012564000003,1.6116769056220543,0.43641698025081677,0.5065770327378267,0.875034162281334,,-0.03987859174650544,-0.11159198904938746,0.0651689506,-0.08471519562608845,,-2.323836e-05,-8.46386e-06,5.4836273e-06,1.0,3.338605e-05,2.6479363e-05,-3.3393502e-05,1.0,3.427267e-06,-2.6479363e-05,-3.4868717e-06,1.0,95,0.287,0,0,0.0,False,-0.26154621174225356,1.0495632675595068
0.3040731369983405,17:11:09.333073,17:10:51.668336,0,,0.1331746,0.033106074,0.011103675,0.39324644,-0.8508603,-0.34841645,-0.7796625,-0.509447,0.3641294,-0.487323,0.12845466,-0.863722,,0.087224625,-0.0019561201,0.02767396,-0.45353922,-0.4651389,0.7602289,-0.023953497,0.8590583,0.51131666,-0.89091444,0.21369204,-0.40075848,,0.10889634,1.3552796,0.45263568,0.9963521,0.02883958,-0.08031691,-0.027217684,-0.7846209,-0.6193781,-0.08088093,0.6193047,-0.78097373,,-0.10076879,0.27784005,-0.044025443,-0.35641333,0.8216217,0.44486773,-0.9316758,-0.27667695,-0.235436,-0.070354685,-0.49838504,0.8640964,,-0.041143995,0.4359571,-0.33196402,0.55343884,0.39782405,-0.7317387,-0.6081137,0.79333365,-0.028625688,0.56912494,0.46082285,0.6809839,,1.2297293692271398,0.33674976698055975,0.20774473169000002,-0.9232648211623607,0.01584983397279109,0.3445016900263155,-0.405419972145281,,-1.0201343990206866,-0.29787352969171355,0.20289012564000003,1.6116769056220543,0.43641698025081677,0.5065770327378267,0.875034162281334,,-0.03987859174650544,-0.11159198904938746,0.0651689506,-0.08471519562608845,,-2.323836e-05,-8.46386e-06,5.4836273e-06,1.0,3.338605e-05,2.6479363e-05,-3.3393502e-05,1.0,3.427267e-06,-2.6479363e-05,-3.4868717e-06,1.0,106,0.321,0,0,0.0,False,-0.2622611443645053,1.049370146756389
0.33461714000077336,17:11:09.357395,17:10:51.668336,0,,0.13318405,0.033091873,0.011096165,0.3904541,-0.85212797,-0.3484588,-0.78210235,-0.506698,0.36272994,-0.48565584,0.13090101,-0.8642936,,0.08722473,-0.00195764,0.02767402,-0.45353884,-0.46513498,0.7602315,-0.023956746,0.85906184,0.51131064,-0.89091456,0.21368653,-0.40076116,,0.10889634,1.3552796,0.45263568,0.9963521,0.02883958,-0.08031691,-0.027217684,-0.7846209,-0.6193781,-0.08088093,0.6193047,-0.78097373,,-0.10077769,0.2778238,-0.044027556,-0.3538641,0.82268375,0.44494006,-0.93240947,-0.27294505,-0.23688313,-0.073435724,-0.49869075,0.86366355,,-0.041144036,0.4359561,-0.33196515,0.5534386,0.3978206,-0.7317407,-0.60811603,0.7933316,-0.02863203,0.5691227,0.46082935,0.68098146,,1.2297448146928882,0.33677293517918244,0.2077434354,-0.9201194720100929,0.013253740477247724,0.3452300916141579,-0.40394987555007256,,-1.0201343990206866,-0.2978812524245878,0.20289012564000003,1.6116769056220543,0.43641698025081677,0.5065770327378267,0.875034162281334,,-0.03987859174650544,-0.11159198904938746,0.0651689506,-0.08471519562608845,,-2.323836e-05,-8.46386e-06,5.4836273e-06,1.0,3.338605e-05,2.6479363e-05,-3.3393502e-05,1.0,3.427267e-06,-2.6479363e-05,-3.4868717e-06,1.0,110,0.333,0,0,0.0,False,-0.2616653671792948,1.0491287457524916
0.3589620479979203,17:11:09.387516,17:10:51.838822,0,,0.13319299,0.033074275,0.011091128,0.39134958,-0.8520533,-0.34763598,-0.7836629,-0.5066042,0.35947827,-0.4824085,0.13174772,-0.8659819,,0.08722473,-0.00195764,0.02767402,-0.45353884,-0.46513498,0.7602315,-0.023956746,0.85906184,0.51131064,-0.89091456,0.21368653,-0.40076116,,0.10889634,1.3552796,0.45263568,0.9963521,0.02883958,-0.08031691,-0.027217684,-0.7846209,-0.6193781,-0.08088093,0.6193047,-0.78097373,,-0.10078642,0.2778065,-0.044033777,-0.35512868,0.8225225,0.44423,-0.93165374,-0.27234885,-0.24051483,-0.07684334,-0.49928224,0.8630251,,-0.041144036,0.4359561,-0.33196515,0.5534386,0.3978206,-0.7317407,-0.60811603,0.7933316,-0.02863203,0.5691227,0.46082935,0.68098146,,1.229798873823008,0.33681927157642777,0.20773825024000003,-0.920958231784031,0.00956455498358083,0.34595137029002554,-0.40541997214528114,,-1.0201343990206866,-0.2978812524245878,0.20289012564000003,1.6116769056220543,0.43641698025081677,0.5065770327378267,0.875034162281334,,-0.03987859174650544,-0.11159198904938746,0.0651689506,-0.08471519562608845,,-2.323836e-05,-8.46386e-06,5.4836273e-06,1.0,3.338605e-05,2.6479363e-05,-3.3393502e-05,1.0,3.427267e-06,-2.6479363e-05,-3.4868717e-06,1.0,122,0.37,0,0,0.0,False,-0.2607121236829584,1.0493218665556094
0.3890908079993096,17:11:09.412687,17:10:51.838822,0,,0.13319832,0.033057258,0.011086836,0.39258325,-0.8515098,-0.34757638,-0.78432494,-0.5073314,0.35700017,-0.4803257,0.13246047,-0.86703026,,0.08722473,-0.00195764,0.02767402,-0.45353884,-0.46513498,0.7602315,-0.023956746,0.85906184,0.51131064,-0.89091456,0.21368653,-0.40076116,,0.10889634,1.3552796,0.45263568,0.9963521,0.02883958,-0.08031691,-0.027217684,-0.7846209,-0.6193781,-0.08088093,0.6193047,-0.78097373,,-0.10079163,0.27779025,-0.04404054,-0.3565881,0.82189196,0.44422802,-0.9309364,-0.27250063,-0.24310657,-0.078754924,-0.5002369,0.8622996,,-0.041144036,0.4359561,-0.33196515,0.5534386,0.3978206,-0.7317407,-0.60811603,0.7933316,-0.02863203,0.5691227,0.46082935,0.68098146,,1.2298143192887563,0.33681927157642777,0.20773306508000003,-0.9222163714449381,0.007378370987333784,0.3469989480879032,-0.4044399077484755,,-1.0201343990206866,-0.2978812524245878,0.20289012564000003,1.6116769056220543,0.43641698025081677,0.5065770327378267,0.875034162281334,,-0.03987859174650544,-0.11159198904938746,0.0651689506,-0.08471519562608845,,-2.323836e-05,-8.46386e-06,5.4836273e-06,1.0,3.338605e-05,2.6479363e-05,-3.3393502e-05,1.0,3.427267e-06,-2.6479363e-05,-3.4868717e-06,1.0,130,0.395,0,0,0.0,False,-0.2617249448978165,1.0492253061540504
0.41423396000027424,17:11:09.442087,17:10:51.838822,0,,0.13319835,0.03305459,0.011091277,0.3947018,-0.85124457,-0.34582248,-0.78350246,-0.50842583,0.3572493,-0.47993165,0.12994578,-0.8676288,,0.08722585,-0.001957506,0.027674913,-0.45353237,-0.46513522,0.7602352,-0.023954302,0.85906225,0.5113102,-0.8909179,0.2136848,-0.4007546,,0.10889634,1.3552796,0.45263568,0.9963521,0.02883958,-0.08031691,-0.027217684,-0.7846209,-0.6193781,-0.08088093,0.6193047,-0.78097373,,-0.10079219,0.27779093,-0.04404565,-0.3587183,0.82186896,0.4425524,-0.9301522,-0.27493274,-0.2433699,-0.07834603,-0.49894232,0.8630866,,-0.041145254,0.4359567,-0.33196563,0.55343246,0.397821,-0.7317451,-0.6081176,0.7933306,-0.028628007,0.569127,0.46083075,0.68097687,,1.2298143192887563,0.33681927157642777,0.20772787992000002,-0.9245229608232679,0.007378370987333784,0.3452836945449514,-0.40427656368234116,,-1.020142121753561,-0.2978812524245878,0.20289012564000003,1.6116769056220543,0.43641698025081677,0.5065770327378267,0.875034162281334,,-0.03987859174650544,-0.11159198904938746,0.0651689506,-0.08471519562608845,,-2.323836e-05,-8.46386e-06,5.4836273e-06,1.0,3.338605e-05,2.6479363e-05,-3.3393502e-05,1.0,3.427267e-06,-2.6479363e-05,-3.4868717e-06,1.0,138,0.418,0,0,0.0,False,-0.26106958999408425,1.0490321853509326
0.44366403199819615,17:11:09.463420,17:10:51.838822,0,,0.1331991,0.033049986,0.01109153,0.39548942,-0.8511024,-0.3452721,-0.7834779,-0.5087993,0.35677093,-0.47932285,0.12941393,-0.86804473,,0.08722483,-0.001959145,0.027674079,-0.45353842,-0.46513104,0.7602342,-0.023959935,0.8590654,0.51130456,-0.89091456,0.2136811,-0.4007638,,0.10889634,1.3552796,0.45263568,0.9963521,0.02883958,-0.08031691,-0.027217684,-0.7846209,-0.6193781,-0.08088093,0.6193047,-0.78097373,,-0.10079305,0.27778745,-0.04404865,-0.35956478,0.8217755,0.44203869,-0.929793,-0.27556238,-0.24402937,-0.07872813,-0.49874884,0.86316365,,-0.041144077,0.43595508,-0.33196628,0.55343837,0.39781713,-0.7317428,-0.60811836,0.7933296,-0.028638372,0.5691204,0.4608358,0.68097895,,1.2298220420216306,0.33681927157642777,0.20772528734,-0.925361720597206,0.006831824988272023,0.34499425749847207,-0.40443990774847544,,-1.0201343990206866,-0.297888975157462,0.20289012564000003,1.6116769056220543,0.43641698025081677,0.5065770327378267,0.875034162281334,,-0.03987859174650544,-0.11159198904938746,0.0651689506,-0.08471519562608845,,-2.323836e-05,-8.46386e-06,5.4836273e-06,1.0,3.338605e-05,2.6479363e-05,-3.3393502e-05,1.0,3.427267e-06,-2.6479363e-05,-3.4868717e-06,1.0,149,0.452,0,0,0.0,False,-0.26059296824591627,1.0489356249493738
0.4649936749992776,17:11:09.491441,17:10:51.838822,0,,0.13320231,0.033040524,0.011088833,0.39572462,-0.85117924,-0.3448128,-0.7840247,-0.5086377,0.35579893,-0.4782335,0.12954336,-0.86862606,,0.08722483,-0.001959145,0.027674079,-0.45353842,-0.46513104,0.7602342,-0.023959935,0.8590654,0.51130456,-0.89091456,0.2136811,-0.4007638,,0.10889634,1.3552796,0.45263568,0.9963521,0.02883958,-0.08031691,-0.027217684,-0.7846209,-0.6193781,-0.08088093,0.6193047,-0.78097373,,-0.10079618,0.2777782,-0.044052135,-0.35992464,0.8218418,0.44162238,-0.92955446,-0.27535182,-0.24517307,-0.07989194,-0.49875587,0.8630526,,-0.041144077,0.43595508,-0.33196628,0.55343837,0.39781713,-0.7317428,-0.60811836,0.7933296,-0.028638372,0.5691204,0.4608358,0.68097895,,1.2298297647545047,0.33681927157642777,0.20772269476000002,-0.9255714105406906,0.005602096490383059,0.3450168737500531,-0.40345984335166973,,-1.0201343990206866,-0.297888975157462,0.20289012564000003,1.6116769056220543,0.43641698025081677,0.5065770327378267,0.875034162281334,,-0.03987859174650544,-0.11159198904938746,0.0651689506,-0.08471519562608845,,-2.323836e-05,-8.46386e-06,5.4836273e-06,1.0,3.338605e-05,2.6479363e-05,-3.3393502e-05,1.0,3.427267e-06,-2.6479363e-05,-3.4868717e-06,1.0,157,0.477,0,0,0.0,False,-0.261427056305211,1.0496115477602863
0.4929949029974523,17:11:09.514269,17:10:51.955828,0,,0.13319936,0.033042222,0.011092931,0.39571673,-0.8515424,-0.34392396,-0.78401625,-0.5082623,0.35635364,-0.47825393,0.12862691,-0.86875105,,0.08722595,-0.0019590259,0.027674973,-0.453532,-0.46525544,0.76016194,-0.02395755,0.8589822,0.5114445,-0.890918,0.21374482,-0.40072232,,0.10889634,1.3552796,0.45263568,0.9963521,0.02883958,-0.08031691,-0.027217684,-0.7846209,-0.6193781,-0.08088093,0.6193047,-0.78097373,,-0.10079363,0.27778223,-0.04405455,-0.35991448,0.8223071,0.4407636,-0.9295602,-0.2756105,-0.24486071,-0.07987162,-0.4978452,0.86358017,,-0.041145295,0.43595567,-0.33196676,0.5534322,0.3979371,-0.73168224,-0.6081199,0.79333323,-0.028504752,0.56912476,0.46072596,0.68104964,,1.2298529329531274,0.33682699430930196,0.20772010218000003,-0.9255714105406906,0.005602096490383059,0.3439550501282258,-0.403623187417804,,-1.020142121753561,-0.297888975157462,0.20289012564000003,1.6116769056220543,0.43641698025081677,0.5067403902181078,0.875034162281334,,-0.03987859174650544,-0.11159198904938746,0.0651689506,-0.08471519562608845,,-2.323836e-05,-8.46386e-06,5.4836273e-06,1.0,3.338605e-05,2.6479363e-05,-3.3393502e-05,1.0,3.427267e-06,-2.6479363e-05,-3.4868717e-06,1.0,165,0.501,0,0,0.0,False,-0.2611887454311268,1.0490321853509326
0.515838941999391,17:11:09.545487,17:10:51.955828,0,,0.13319115,0.03304206,0.011099175,0.3953165,-0.8520268,-0.3431839,-0.78415656,-0.5076104,0.3569734,-0.47835472,0.12799245,-0.86878926,,0.087227285,-0.0019619316,0.027675986,-0.45352465,-0.46524778,0.76017094,-0.023961633,0.85898954,0.51143205,-0.8909216,0.21373206,-0.40072113,,0.10889634,1.3552796,0.45263568,0.9963521,0.02883958,-0.08031691,-0.027217684,-0.7846209,-0.6193781,-0.08088093,0.6193047,-0.78097373,,-0.10078613,0.2777864,-0.04406027,-0.359509,0.8228692,0.440045,-0.92971295,-0.27547178,-0.24443626,-0.079919085,-0.4969926,0.8640667,,-0.041146595,0.43595427,-0.33196953,0.55342555,0.3979306,-0.73169076,-0.60812616,0.79332817,-0.028513415,0.5691245,0.46074033,0.6810401,,1.2298992693503727,0.33681927157642777,0.20771491702000003,-0.9251520306537214,0.005602096490383059,0.34297490524653906,-0.4046032518146097,,-1.020149844486435,-0.2979044206232105,0.20289012564000003,1.6116769056220543,0.43641698025081677,0.5067403902181078,0.875034162281334,,-0.03987859174650544,-0.11159198904938746,0.0651689506,-0.08471519562608845,,-2.323836e-05,-8.46386e-06,5.4836273e-06,1.0,3.338605e-05,2.6479363e-05,-3.3393502e-05,1.0,3.427267e-06,-2.6479363e-05,-3.4868717e-06,1.0,173,0.526,0,0,0.0,False,-0.26148663402373185,1.0491770259532711
0.5470337789993209,17:11:09.570645,17:10:51.955828,0,,0.13318327,0.033052847,0.011110365,0.39583543,-0.8524363,-0.341565,-0.78322953,-0.507571,0.3590588,-0.4794433,0.12539557,-0.8685678,,0.08722717,-0.0019604266,0.027675986,-0.45352507,-0.4652517,0.76016825,-0.023958415,0.858986,0.5114381,-0.8909215,0.2137376,-0.40071845,,0.10889634,1.3552796,0.45263568,0.9963521,0.02883958,-0.08031691,-0.027217684,-0.7846209,-0.6193781,-0.08088093,0.6193047,-0.78097373,,-0.10077924,0.27780217,-0.044062976,-0.35989085,0.82354987,0.43845657,-0.92969066,-0.27703577,-0.24274783,-0.07844679,-0.4949917,0.86534923,,-0.041146554,0.4359553,-0.3319684,0.5534258,0.39793405,-0.7316887,-0.6081238,0.7933302,-0.028507072,0.5691268,0.46073386,0.68104255,,1.2299224375489954,0.33682699430930196,0.20771102815000003,-0.9257811004841751,0.0069684614880374625,0.3405538663673259,-0.4042765636823411,,-1.020149844486435,-0.29789669789033624,0.20289012564000003,1.6116769056220543,0.43641698025081677,0.5067403902181078,0.875034162281334,,-0.03987859174650544,-0.11159198904938746,0.0651689506,-0.08471519562608845,,-2.323836e-05,-8.46386e-06,5.4836273e-06,1.0,3.338605e-05,2.6479363e-05,-3.3393502e-05,1.0,3.427267e-06,-2.6479363e-05,-3.4868717e-06,1.0,181,0.549,0,0,0.0,False,-0.2617249448978165,1.049418426957168
0.5722256669978378,17:11:09.601256,17:10:51.955828,0,,0.13317934,0.033057436,0.011135772,0.39482403,-0.85371494,-0.33953622,-0.7830335,-0.5059916,0.36170557,-0.480596,0.1230582,-0.8682651,,0.087226376,-0.0019604564,0.02767694,-0.45352507,-0.4652517,0.76016825,-0.023958415,0.858986,0.5114381,-0.8909215,0.2137376,-0.40071845,,0.10889634,1.3552796,0.45263568,0.9963521,0.02883958,-0.08031691,-0.027217684,-0.7846209,-0.6193781,-0.08088093,0.6193047,-0.78097373,,-0.1007779,0.27782175,-0.04408022,-0.35876003,0.82510024,0.43646404,-0.93020475,-0.2771922,-0.24059008,-0.07752649,-0.49231502,0.86695766,,-0.04114588,0.4359561,-0.33196914,0.5534258,0.39793405,-0.7316887,-0.6081238,0.7933302,-0.028507072,0.5691268,0.46073386,0.68104255,,1.2299456057476181,0.3368578852407989,0.20769158380000002,-0.9247326507667525,0.008061553486160987,0.33753887589409987,-0.4042765636823411,,-1.020149844486435,-0.29789669789033624,0.20288882935000002,1.6116769056220543,0.43641698025081677,0.5067403902181078,0.875034162281334,,-0.03987859174650544,-0.11159198904938746,0.0651689506,-0.08471519562608845,,-2.323836e-05,-8.46386e-06,5.4836273e-06,1.0,3.338605e-05,2.6479363e-05,-3.3393502e-05,1.0,3.427267e-06,-2.6479363e-05,-3.4868717e-06,1.0,192,0.583,0,0,0.0,False,-0.26112916771260597,1.049418426957168
0.6028292439987126,17:11:09.633030,17:10:51.955828,0,,0.13318221,0.03305687,0.011195555,0.39186078,-0.85529846,-0.3389833,-0.7831557,-0.5034559,0.36496484,-0.48281705,0.12246126,-0.86711645,,0.08722536,-0.0019620508,0.027676105,-0.45353115,-0.46524754,0.7601672,-0.023964077,0.8589891,0.51143247,-0.89091825,0.21373385,-0.40072766,,0.10889634,1.3552796,0.45263568,0.9963521,0.02883958,-0.08031691,-0.027217684,-0.7846209,-0.6193781,-0.08088093,0.6193047,-0.78097373,,-0.10078704,0.27785835,-0.04412668,-0.35558325,0.82679135,0.4358631,-0.9315364,-0.27550396,-0.23735538,-0.076161355,-0.49042195,0.8681508,,-0.041144703,0.4359545,-0.33196977,0.55343175,0.39793018,-0.73168635,-0.6081246,0.7933292,-0.028517438,0.56912017,0.46073893,0.6810447,,1.2299456057476181,0.3369351125695411,0.2076397322,-0.9215873016144845,0.009974464482877154,0.3356523102817877,-0.40492993994687826,,-1.020142121753561,-0.2979044206232105,0.20288882935000002,1.6116769056220543,0.43641698025081677,0.5067403902181078,0.875034162281334,,-0.03987859174650544,-0.11159198904938746,0.0651689506,-0.08471519562608845,,-2.323836e-05,-8.46386e-06,5.4836273e-06,1.0,3.338605e-05,2.6479363e-05,-3.3393502e-05,1.0,3.427267e-06,-2.6479363e-05,-3.4868717e-06,1.0,204,0.62,0,0,0.0,False,-0.26101001227556386,1.049370146756389
0.6345379800004594,17:11:09.659333,17:10:51.955828,0,,0.1331859,0.033058584,0.011268705,0.3888708,-0.85677004,-0.3387102,-0.7829795,-0.5010909,0.36857983,-0.48551285,0.12187317,-0.865693,,0.08722648,-0.0019619465,0.02767706,-0.45352465,-0.46524778,0.76017094,-0.023961633,0.85898954,0.51143205,-0.8909216,0.21373206,-0.40072113,,0.10889634,1.3552796,0.45263568,0.9963521,0.02883958,-0.08031691,-0.027217684,-0.7846209,-0.6193781,-0.08088093,0.6193047,-0.78097373,,-0.10079836,0.277905,-0.044182055,-0.35232365,0.8283666,0.4355191,-0.9329286,-0.27394912,-0.233658,-0.074244395,-0.4886315,0.86932564,,-0.04114592,0.4359551,-0.33197027,0.55342555,0.3979306,-0.73169076,-0.60812616,0.79332817,-0.028513415,0.5691245,0.46074033,0.6810401,,1.2299456057476181,0.3370355080969061,0.20757751028000002,-0.9184419524622166,0.012433921478655081,0.3338918242356738,-0.40443990774847544,,-1.020149844486435,-0.2979044206232105,0.20288882935000002,1.6116769056220543,0.43641698025081677,0.5067403902181078,0.875034162281334,,-0.03987859174650544,-0.11159198904938746,0.0651689506,-0.08471519562608845,,-2.323836e-05,-8.46386e-06,5.4836273e-06,1.0,3.338605e-05,2.6479363e-05,-3.3393502e-05,1.0,3.427267e-06,-2.6479363e-05,-3.4868717e-06,1.0,212,0.644,0,0,0.0,False,-0.26160578946077395,1.0489356249493738
0.6608313090000593,17:11:09.690855,17:10:51.955828,0,,0.13319354,0.03304416,0.01133813,0.38401252,-0.8586647,-0.33945435,-0.7845033,-0.49730182,0.3704664,-0.4869178,0.12403932,-0.86459553,,0.087226585,-0.0019634813,0.02767706,-0.45352423,-0.46524382,0.7601737,-0.023964912,0.85899305,0.511426,-0.8909217,0.21372661,-0.40072376,,0.10889634,1.3552796,0.45263568,0.9963521,0.02883958,-0.08031691,-0.027217684,-0.7846209,-0.6193781,-0.08088093,0.6193047,-0.78097373,,-0.10081355,0.27793652,-0.044244196,-0.34737825,0.8301036,0.43618393,-0.9347556,-0.26954785,-0.23146456,-0.07456712,-0.48813114,0.8695791,,-0.04114596,0.4359541,-0.3319714,0.5534253,0.39792717,-0.73169285,-0.6081285,0.79332614,-0.028519757,0.56912225,0.46074682,0.6810376,,1.2299610512133665,0.33712818089139673,0.20751010320000002,-0.9131997038751036,0.012980467477716843,0.33385454632159095,-0.4042765636823411,,-1.020149844486435,-0.2979121433560847,0.20288882935000002,1.6116769056220543,0.43641698025081677,0.5067403902181078,0.8747074741490655,,-0.03987859174650544,-0.11159198904938746,0.0651689506,-0.08471519562608845,,-2.323836e-05,-8.46386e-06,5.4836273e-06,1.0,3.338605e-05,2.6479363e-05,-3.3393502e-05,1.0,3.427267e-06,-2.6479363e-05,-3.4868717e-06,1.0,220,0.669,0,0,0.0,False,-0.2599971910607066,1.049080465551712
0.6924344299986842,17:11:09.713287,17:10:51.955828,0,,0.13319415,0.03303711,0.011419803,0.3827721,-0.85922056,-0.33944887,-0.78405654,-0.4964623,0.37253234,-0.48861104,0.123552114,-0.8637095,,0.087226585,-0.0019634813,0.02767706,-0.45352423,-0.46530592,0.76013565,-0.023964912,0.8589512,0.5114962,-0.8909217,0.21375936,-0.40070632,,0.10889634,1.3552796,0.45263568,0.9963521,0.02883958,-0.08031691,-0.027217684,-0.7846209,-0.6193781,-0.08088093,0.6193047,-0.78097373,,-0.10082287,0.27798176,-0.044311915,-0.3459576,0.8307253,0.4361294,-0.9353987,-0.26916742,-0.22929917,-0.073092796,-0.48728266,0.8701799,,-0.04114596,0.4359541,-0.3319714,0.5534253,0.39798692,-0.7316603,-0.6081285,0.79332846,-0.02845496,0.56912225,0.46069118,0.6810753,,1.2299996648777376,0.33722857641876164,0.20743621467,-0.9119415642141964,0.01462010547490213,0.3330076039180772,-0.4042765636823411,,-1.020149844486435,-0.2979121433560847,0.20288882935000002,1.6116769056220543,0.43641698025081677,0.5068220689582484,0.8751975063474684,,-0.03987859174650544,-0.11159198904938746,0.0651689506,-0.08471519562608845,,-2.323836e-05,-8.46386e-06,5.4836273e-06,1.0,3.338605e-05,2.6479363e-05,-3.3393502e-05,1.0,3.427267e-06,-2.6479363e-05,-3.4868717e-06,1.0,235,0.714,0,0,0.0,False,-0.2607121236829584,1.0491287457524916
0.7148574149978231,17:11:09.753072,17:10:52.183710,0,,0.13319677,0.03303826,0.011642039,0.37456223,-0.8622373,-0.34095466,-0.7841246,-0.4908147,0.37980187,-0.49482492,0.12509155,-0.8599421,,0.087224565,-0.0019666702,0.02767533,-0.4535364,-0.46535963,0.7600955,-0.023976177,0.85891587,0.5115551,-0.8909153,0.21378458,-0.40070727,,0.10889634,1.3552796,0.45263568,0.9963521,0.02883958,-0.08031691,-0.027217684,-0.7846209,-0.6193781,-0.08088093,0.6193047,-0.78097373,,-0.1008488,0.27812073,-0.04448342,-0.3371439,0.8336832,0.43738577,-0.9389142,-0.26364824,-0.2212008,-0.0690954,-0.4852442,0.8716444,,-0.04114361,0.4359509,-0.33197266,0.5534372,0.39803892,-0.73162305,-0.6081301,0.7933288,-0.028410893,0.569109,0.46064568,0.6811171,,1.230115505870851,0.3375529311994791,0.20724566004000003,-0.9033442765313309,0.019948928965754308,0.33152106157883643,-0.4037865314839383,,-1.0201343990206866,-0.2979275888218331,0.20288882935000002,1.6116769056220543,0.43641698025081677,0.5069037476983891,0.875034162281334,,-0.03987859174650544,-0.11159198904938746,0.0651689506,-0.08471519562608845,,-2.323836e-05,-8.46386e-06,5.4836273e-06,1.0,3.338605e-05,2.6479363e-05,-3.3393502e-05,1.0,3.427267e-06,-2.6479363e-05,-3.4868717e-06,1.0,239,0.726,0,0,0.0,False,-0.26053339052739544,1.04927358635483
0.7545992409977771,17:11:09.781826,17:10:52.183710,0,,0.13320525,0.033027157,0.0117946565,0.36552033,-0.86582476,-0.34167597,-0.78668326,-0.4835633,0.3837914,-0.49751812,0.1285072,-0.857882,,0.08722467,-0.001968205,0.02767539,-0.453536,-0.46541774,0.76006013,-0.023979485,0.8588776,0.51161915,-0.8909154,0.2138119,-0.40069246,,0.10889634,1.3552796,0.45263568,0.9963521,0.02883958,-0.08031691,-0.027217684,-0.7846209,-0.6193781,-0.08088093,0.6193047,-0.78097373,,-0.1008735,0.27820653,-0.044607975,-0.32792577,0.8370458,0.43797153,-0.9421463,-0.25568092,-0.2167662,-0.06946227,-0.4837165,0.87246394,,-0.041143652,0.4359499,-0.3319738,0.55343693,0.39809522,-0.7315926,-0.6081325,0.7933291,-0.028352438,0.56910676,0.4605965,0.6811522,,1.2302390695968386,0.33781550411720274,0.20710825330000002,-0.8936985391310427,0.021042020963877826,0.3307930758295462,-0.4037865314839383,,-1.0201343990206866,-0.29793531155470737,0.20288882935000002,1.6116769056220543,0.43641698025081677,0.5069854264385296,0.8748708182151997,,-0.03987859174650544,-0.11159198904938746,0.0651689506,-0.08471519562608845,,-2.323836e-05,-8.46386e-06,5.4836273e-06,1.0,3.338605e-05,2.6479363e-05,-3.3393502e-05,1.0,3.427267e-06,-2.6479363e-05,-3.4868717e-06,1.0,251,0.763,0,0,0.0,False,-0.26255903295711036,1.0486942239454764
0.7833962769982463,17:11:09.808795,17:10:52.183710,0,,0.1332088,0.033020243,0.011955917,0.35839206,-0.868537,-0.34234282,-0.7885989,-0.47791564,0.3869216,-0.49966678,0.13130152,-0.85620856,,0.087226905,-0.0019679815,0.027677178,-0.45352304,-0.46541825,0.7600675,-0.023974657,0.8588782,0.5116183,-0.89092207,0.21380836,-0.40067935,,0.10889634,1.3552796,0.45263568,0.9963521,0.02883958,-0.08031691,-0.027217684,-0.7846209,-0.6193781,-0.08088093,0.6193047,-0.78097373,,-0.1008941,0.27830124,-0.044737093,-0.3206537,0.83956933,0.43852547,-0.94463086,-0.2493963,-0.21324629,-0.06966842,-0.48262292,0.87305295,,-0.041146085,0.43595108,-0.33197477,0.5534246,0.39809608,-0.7316015,-0.6081355,0.79332703,-0.028344393,0.5691154,0.46059933,0.68114305,,1.2304166924529458,0.33810896796642326,0.20696566140000003,-0.8861497011655999,0.021861839962470472,0.3303696046277894,-0.40394987555007256,,-1.020149844486435,-0.29793531155470737,0.20288882935000002,1.6116769056220543,0.43641698025081677,0.5069854264385296,0.8748708182151997,,-0.03987859174650544,-0.11159198904938746,0.0651689506,-0.08471519562608845,,-2.323836e-05,-8.46386e-06,5.4836273e-06,1.0,3.338605e-05,2.6479363e-05,-3.3393502e-05,1.0,3.427267e-06,-2.6479363e-05,-3.4868717e-06,1.0,259,0.788,0,0,0.0,False,-0.2612483231496481,1.0488873447485942
0.8103710629984562,17:11:09.827424,17:10:52.183710,0,,0.13320616,0.033030376,0.012072042,0.3559181,-0.8696869,-0.34200433,-0.7883782,-0.47593313,0.38980433,-0.50177896,0.13089031,-0.8550354,,0.087226905,-0.0019679815,0.027677178,-0.45352304,-0.46541825,0.7600675,-0.023974657,0.8588782,0.5116183,-0.89092207,0.21380836,-0.40067935,,0.10889634,1.3552796,0.45263568,0.9963521,0.02883958,-0.08031691,-0.027217684,-0.7846209,-0.6193781,-0.08088093,0.6193047,-0.78097373,,-0.100903474,0.2783815,-0.044821154,-0.31796747,0.840798,0.43812713,-0.94565076,-0.24804616,-0.21028018,-0.068127416,-0.4811775,0.8739719,,-0.041146085,0.43595108,-0.33197477,0.5534246,0.39809608,-0.7316015,-0.6081355,0.79332703,-0.028344393,0.5691154,0.46059933,0.68114305,,1.2305557016446818,0.33833292721977576,0.20687103223000003,-0.8836334218437857,0.023638114459421197,0.32900285061987644,-0.4044399077484754,,-1.020149844486435,-0.29793531155470737,0.20288882935000002,1.6116769056220543,0.43641698025081677,0.5069854264385296,0.8748708182151997,,-0.03987859174650544,-0.11159198904938746,0.0651689506,-0.08471519562608845,,-2.323836e-05,-8.46386e-06,5.4836273e-06,1.0,3.338605e-05,2.6479363e-05,-3.3393502e-05,1.0,3.427267e-06,-2.6479363e-05,-3.4868717e-06,1.0,267,0.811,0,0,0.0,False,-0.2618441003348577,1.0489356249493738
0.8289442749992304,17:11:09.866056,17:10:52.323826,0,,0.13319346,0.033066317,0.012311593,0.3504715,-0.8725677,-0.340287,-0.7868953,-0.47137213,0.3982513,-0.5079031,0.1281945,-0.85182196,,0.08722684,-0.001966387,0.027677238,-0.45350862,-0.4657036,0.7599014,-0.024354398,0.85877943,0.51176614,-0.8909191,0.21358329,-0.40080592,,0.10889634,1.3552796,0.45263568,0.9963521,0.02883958,-0.08031691,-0.027217684,-0.7846209,-0.6193781,-0.08088093,0.6193047,-0.78097373,,-0.10091523,0.27855918,-0.044985864,-0.31187755,0.8440425,0.43626216,-0.94803333,-0.24601659,-0.20176369,-0.06296939,-0.47651663,0.87690747,,-0.041146096,0.4359522,-0.3319736,0.5534273,0.39840963,-0.73142874,-0.60839385,0.7931299,-0.028316028,0.5688367,0.46066764,0.6813297,,1.2308337200281538,0.33877312299360657,0.20668436647000002,-0.878181483313188,0.0293768474495697,0.3242416199244862,-0.4042765636823411,,-1.020149844486435,-0.29793531155470737,0.20288882935000002,1.6112575257350852,0.43641698025081677,0.5069854264385296,0.8748708182151997,,-0.03987859174650544,-0.11159198904938746,0.0651689506,-0.08471519562608845,,-2.323836e-05,-8.46386e-06,5.4836273e-06,1.0,3.338605e-05,2.6479363e-05,-3.3393502e-05,1.0,3.427267e-06,-2.6479363e-05,-3.4868717e-06,1.0,278,0.845,0,0,0.0,False,-0.26041423509035333,1.0489356249493738
0.8676116009992256,17:11:09.887532,17:10:52.323826,0,,0.13319373,0.033072934,0.012407288,0.34667653,-0.87401205,-0.3404678,-0.78790414,-0.46829492,0.3998835,-0.5089424,0.12962577,-0.8509846,,0.08722695,-0.001967892,0.027677238,-0.45350823,-0.46569967,0.759904,-0.024357736,0.8587829,0.51176006,-0.89091927,0.21357787,-0.40080854,,0.10889634,1.3552796,0.45263568,0.9963521,0.02883958,-0.08031691,-0.027217684,-0.7846209,-0.6193781,-0.08088093,0.6193047,-0.78097373,,-0.10092539,0.27862385,-0.04505596,-0.30801678,0.8453937,0.4363888,-0.9492825,-0.24265069,-0.19995835,-0.06315349,-0.47584677,0.87725794,,-0.041146137,0.43595117,-0.33197474,0.55342704,0.39840618,-0.7314308,-0.60839623,0.7931279,-0.02832237,0.56883436,0.4606741,0.6813272,,1.230980451952764,0.3389893595140849,0.20660529278000003,-0.8741973743869821,0.029650120449100575,0.3239371053769528,-0.4044399077484754,,-1.020149844486435,-0.29794303428758157,0.20288882935000002,1.6112575257350852,0.43641698025081677,0.5069854264385296,0.8748708182151997,,-0.03987859174650544,-0.11159198904938746,0.0651689506,-0.08471519562608845,,-2.323836e-05,-8.46386e-06,5.4836273e-06,1.0,3.338605e-05,2.6479363e-05,-3.3393502e-05,1.0,3.427267e-06,-2.6479363e-05,-3.4868717e-06,1.0,286,0.87,0,0,0.0,False,-0.2596993024681016,1.049370146756389
0.8891093829988677,17:11:09.917482,17:10:52.323826,0,,0.13318829,0.033055916,0.012564465,0.3430533,-0.87531555,-0.34078905,-0.7888764,-0.46542233,0.4013178,-0.5098906,0.13116702,-0.8501805,,0.08722705,-0.001969412,0.027677298,-0.4535078,-0.4656957,0.75990665,-0.024360925,0.85878646,0.5117541,-0.8909193,0.21357238,-0.40081123,,0.10889634,1.3552796,0.45263568,0.9963521,0.02883958,-0.08031691,-0.027217684,-0.7846209,-0.6193781,-0.08088093,0.6193047,-0.78097373,,-0.10093687,0.27870855,-0.04518909,-0.30433553,0.846589,0.43665427,-0.9504548,-0.23938325,-0.1983215,-0.06336908,-0.4753764,0.8774974,,-0.041146178,0.4359502,-0.33197588,0.5534268,0.39840272,-0.73143286,-0.60839856,0.79312587,-0.028328715,0.5688321,0.46068057,0.6813248,,1.2311966884732424,0.33923648696606,0.20646140459,-0.8704229554042606,0.029786756948866018,0.32382568747325635,-0.40411321961620683,,-1.020149844486435,-0.2979507570204558,0.20288882935000002,1.6112575257350852,0.43641698025081677,0.5069854264385296,0.8748708182151997,,-0.03987859174650544,-0.11159198904938746,0.0651689506,-0.08471519562608845,,-2.323836e-05,-8.46386e-06,5.4836273e-06,1.0,3.338605e-05,2.6479363e-05,-3.3393502e-05,1.0,3.427267e-06,-2.6479363e-05,-3.4868717e-06,1.0,294,0.894,0,0,0.0,False,-0.26017592421626956,1.0485976635439174
0.9190598219975072,17:11:09.938462,17:10:52.323826,0,,0.13318378,0.0330507,0.012661114,0.3402163,-0.87644094,-0.34074062,-0.7892746,-0.46312898,0.40318388,-0.5111737,0.13176818,-0.84931654,,0.08722614,-0.0019725114,0.027676523,-0.45351344,-0.46562552,0.7599463,-0.024369836,0.85883486,0.5116722,-0.8909162,0.21353048,-0.40084052,,0.10889634,1.3552796,0.45263568,0.9963521,0.02883958,-0.08031691,-0.027217684,-0.7846209,-0.6193781,-0.08088093,0.6193047,-0.78097373,,-0.100942634,0.27876478,-0.045267776,-0.3013886,0.8476937,0.43655515,-0.951425,-0.23716182,-0.19632815,-0.062891915,-0.47452053,0.8779948,,-0.04114504,0.4359476,-0.33197764,0.55343246,0.39833567,-0.7314651,-0.6084017,0.79312056,-0.028410206,0.5688232,0.46074775,0.68128675,,1.2313356976649785,0.33939866435641874,0.20636677542,-0.8670679163085081,0.0307432124472241,0.3230457621473814,-0.4037865314839383,,-1.020142121753561,-0.29796620248620426,0.20288882935000002,1.6112575257350852,0.43641698025081677,0.5069037476983891,0.875034162281334,,-0.03987859174650544,-0.11159198904938746,0.0651689506,-0.08471519562608845,,-2.323836e-05,-8.46386e-06,5.4836273e-06,1.0,3.338605e-05,2.6479363e-05,-3.3393502e-05,1.0,3.427267e-06,-2.6479363e-05,-3.4868717e-06,1.0,306,0.931,0,0,0.0,False,-0.26053339052739544,1.0489356249493738
0.9400081829990086,17:11:09.975773,17:10:52.323826,0,,0.13317275,0.033060774,0.012803674,0.33865502,-0.8773864,-0.3398617,-0.78828883,-0.46178114,0.40664333,-0.5137251,0.13019735,-0.8480184,,0.08722614,-0.0019725114,0.027676523,-0.45351344,-0.46562552,0.7599463,-0.024369836,0.85883486,0.5116722,-0.8909162,0.21353048,-0.40084052,,0.10889634,1.3552796,0.45263568,0.9963521,0.02883958,-0.08031691,-0.027217684,-0.7846209,-0.6193781,-0.08088093,0.6193047,-0.78097373,,-0.10094643,0.27886185,-0.045373175,-0.29954737,0.8488273,0.43561864,-0.9521647,-0.23703888,-0.1928599,-0.06044619,-0.47255138,0.87922776,,-0.04114504,0.4359476,-0.33197764,0.55343246,0.39833567,-0.7314651,-0.6084017,0.79312056,-0.028410206,0.5688232,0.46074775,0.68128675,,1.2315133205210858,0.33962262360977125,0.20625918335,-0.8660194665910855,0.03306603294323659,0.3210699790444017,-0.403623187417804,,-1.020142121753561,-0.29796620248620426,0.20288882935000002,1.6112575257350852,0.43641698025081677,0.5069037476983891,0.875034162281334,,-0.03987859174650544,-0.11159198904938746,0.0651689506,-0.08471519562608845,,-2.323836e-05,-8.46386e-06,5.4836273e-06,1.0,3.338605e-05,2.6479363e-05,-3.3393502e-05,1.0,3.427267e-06,-2.6479363e-05,-3.4868717e-06,1.0,325,0.989,0,0,0.0,False,-0.2598184579051428,1.048742504146256
0.9773535409985925,17:11:10.029892,17:10:52.323826,0,,0.13314956,0.03305304,0.013052523,0.33443537,-0.87917423,-0.3394196,-0.7876188,-0.45851552,0.4116067,-0.5175032,0.12967741,-0.845798,,0.08722625,-0.0019740164,0.027676582,-0.45351306,-0.4656216,0.759949,-0.024373084,0.85883844,0.51166624,-0.89091635,0.213525,-0.4008432,,0.10889634,1.3552796,0.45263568,0.9963521,0.02883958,-0.08031691,-0.027217684,-0.7846209,-0.6193781,-0.08088093,0.6193047,-0.78097373,,-0.100949675,0.27901167,-0.045573335,-0.29494104,0.85072905,0.43505162,-0.95378387,-0.23472223,-0.18762143,-0.057498716,-0.4702825,0.88064086,,-0.041145086,0.43594658,-0.33197877,0.5534322,0.3983322,-0.7314672,-0.60840404,0.79311854,-0.02841655,0.56882095,0.46075422,0.6812843,,1.2318531207675516,0.33996242385623715,0.20604270292000001,-0.8618256677213951,0.03634530893760716,0.3188860217965309,-0.403623187417804,,-1.020142121753561,-0.2979739252190785,0.20288882935000002,1.6112575257350852,0.43641698025081677,0.5069037476983891,0.875034162281334,,-0.03987859174650544,-0.11159198904938746,0.0651689506,-0.08471519562608845,,-2.323836e-05,-8.46386e-06,5.4836273e-06,1.0,3.338605e-05,2.6479363e-05,-3.3393502e-05,1.0,3.427267e-06,-2.6479363e-05,-3.4868717e-06,1.0,350,1.065,0,0,0.0,False,-0.2598184579051428,1.0485011031423586
1.0314537659978669,17:11:10.107879,17:10:52.516674,0,,0.1331031,0.033091813,0.013373956,0.32756242,-0.88123477,-0.34077585,-0.7852273,-0.4544977,0.4205352,-0.5254721,0.12983496,-0.840846,,0.08722746,-0.001975432,0.027677536,-0.4535062,-0.46567994,0.7599174,-0.024373949,0.8588005,0.51172996,-0.8909198,0.21355045,-0.40082186,,0.10889634,1.3552796,0.45263568,0.9963521,0.02883958,-0.08031691,-0.027217684,-0.7846209,-0.6193781,-0.08088093,0.6193047,-0.78097373,,-0.100936405,0.27924412,-0.045803048,-0.28721982,0.85284674,0.4360702,-0.9565337,-0.23138304,-0.17749703,-0.050478507,-0.4680965,0.88223445,,-0.04114634,0.43594617,-0.33198038,0.55342585,0.39838892,-0.73144114,-0.6084079,0.79311776,-0.02835409,0.568823,0.46070647,0.6813149,,1.232355098404376,0.34044123329443904,0.20578992637000001,-0.8551155895298903,0.043996952924471824,0.31697559241698114,-0.4031331552194012,,-1.020149844486435,-0.2979816479519527,0.20288882935000002,1.6112575257350852,0.43641698025081677,0.5069854264385295,0.8745441300829311,,-0.03987859174650544,-0.11159198904938746,0.0651689506,-0.08471519562608845,,-2.323836e-05,-8.46386e-06,5.4836273e-06,1.0,3.338605e-05,2.6479363e-05,-3.3393502e-05,1.0,3.427267e-06,-2.6479363e-05,-3.4868717e-06,1.0,358,1.091,0,0,0.0,False,-0.2598184579051428,1.048742504146256
1.1094584819984448,17:11:10.138442,17:10:52.516674,0,,0.13308102,0.033114493,0.013551101,0.32561135,-0.8814225,-0.34215742,-0.7853157,-0.4536469,0.4212882,-0.5265516,0.13152532,-0.8399075,,0.08722757,-0.0019769222,0.027677536,-0.45350578,-0.4656139,0.759958,-0.024377227,0.8588458,0.5116537,-0.8909199,0.2135123,-0.40084198,,0.10889634,1.3552796,0.45263568,0.9963521,0.02883958,-0.08031691,-0.027217684,-0.7846209,-0.6193781,-0.08088093,0.6193047,-0.78097373,,-0.10093256,0.2793731,-0.0459285,-0.28516856,0.852874,0.4373613,-0.95717853,-0.22965775,-0.17625727,-0.04988182,-0.46889585,0.8818438,,-0.041146383,0.43594518,-0.3319815,0.5534256,0.3983257,-0.7314757,-0.6084103,0.79311347,-0.028425215,0.5688207,0.46076858,0.6812748,,1.232756680513836,0.3408350926710245,0.20564992705000001,-0.8532283800385296,0.044406862423768144,0.318111556028422,-0.4031331552194012,,-1.020149844486435,-0.29798937068482695,0.20288882935000002,1.6112575257350852,0.43641698025081677,0.506903747698389,0.8747074741490654,,-0.03987859174650544,-0.11159198904938746,0.0651689506,-0.08471519562608845,,-2.323836e-05,-8.46386e-06,5.4836273e-06,1.0,3.338605e-05,2.6479363e-05,-3.3393502e-05,1.0,3.427267e-06,-2.6479363e-05,-3.4868717e-06,1.0,366,1.116,0,0,0.0,False,-0.2604738128088746,1.0495632675595068
1.1400106490000326,17:11:10.168154,17:10:52.516674,0,,0.13303396,0.033134714,0.01364623,0.3239056,-0.88183314,-0.34271768,-0.7855518,-0.4525557,0.42202085,-0.52725095,0.13252762,-0.839311,,0.08719974,-0.0019900948,0.02769661,-0.4534413,-0.46565375,0.7599721,-0.024353445,0.85882366,0.5116919,-0.8909534,0.21351424,-0.40076643,,0.10889634,1.3552796,0.45263568,0.9963521,0.02883958,-0.08031691,-0.027217684,-0.7846209,-0.6193781,-0.08088093,0.6193047,-0.78097373,,-0.10089535,0.27945036,-0.045994207,-0.28340417,0.8532003,0.4378713,-0.9577145,-0.22816147,-0.1752863,-0.049648955,-0.4690326,0.8817842,,-0.041120347,0.43595317,-0.33200535,0.55336434,0.39836603,-0.7315001,-0.60842574,0.7931044,-0.028346207,0.5688638,0.46074927,0.6812518,,1.2329806397671883,0.34103588372575433,0.20557474223000002,-0.8515508604906534,0.044680135423299024,0.31846047140201317,-0.40394987555007256,,-1.020149844486435,-0.29799709341770114,0.20288882935000002,1.6112575257350852,0.43641698025081677,0.5069854264385295,0.8745441300829311,,-0.03987859174650544,-0.11159198904938746,0.0651689506,-0.08471519562608845,,-2.323836e-05,-8.46386e-06,5.4836273e-06,1.0,3.338605e-05,2.6479363e-05,-3.3393502e-05,1.0,3.427267e-06,-2.6479363e-05,-3.4868717e-06,1.0,378,1.152,0,0,0.0,False,-0.259580147031059,1.0491287457524916
1.1697276960003364,17:11:10.194772,17:10:52.516674,0,,0.13301988,0.03316541,0.013799295,0.3216873,-0.8821503,-0.34398854,-0.78470516,-0.45168987,0.42451608,-0.52986324,0.13336816,-0.83753085,,0.087216765,-0.001989141,0.027698457,-0.45344502,-0.46566248,0.7599644,-0.02436611,0.8588202,0.5116973,-0.89095116,0.2135092,-0.40077427,,0.10887532,1.3552785,0.45263657,0.9963525,0.028851148,-0.08030778,-0.027202997,-0.78462046,-0.6193793,-0.08088093,0.6193047,-0.78097373,,-0.100878574,0.2795684,-0.046097424,-0.28089485,0.8534527,0.438995,-0.95857185,-0.22693616,-0.1721628,-0.047308967,-0.4691679,0.8818409,,-0.041118495,0.4359524,-0.33200672,0.55337024,0.39836213,-0.73149776,-0.6084266,0.79310346,-0.028356574,0.5688572,0.46075433,0.68125397,,1.2333358854794025,0.3413139021092264,0.20546066871000002,-0.8494539610558082,0.047002955919311515,0.31877169302296915,-0.4028064670871327,,-1.020142121753561,-0.2980048161505754,0.20288753306,1.6112575257350852,0.43641698025081677,0.5069854264385295,0.8745441300829311,,-0.03987859174650544,-0.11159198904938746,0.0651689506,-0.08471519562608845,,-4.4226646e-05,-7.748604e-06,7.1525574e-06,1.0,4.4900924e-05,3.5598874e-05,-4.490465e-05,1.0,4.61936e-06,-3.5606325e-05,-4.6789646e-06,1.0,386,1.177,0,0,0.0,False,-0.2588652144088064,1.0486459437446969
1.1963291659994866,17:11:10.222938,17:10:52.516674,0,,0.13299812,0.03318478,0.013966352,0.3200809,-0.88257486,-0.3443978,-0.78388655,-0.4508714,0.42689204,-0.53204346,0.13332883,-0.8361539,,0.08721766,-0.0019906163,0.027697504,-0.4534446,-0.46565855,0.7599671,-0.024369359,0.8588238,0.5116912,-0.8909513,0.21350372,-0.4007769,,0.10887532,1.3552785,0.45263657,0.9963525,0.028851148,-0.08030778,-0.027202997,-0.78462046,-0.6193793,-0.08088093,0.6193047,-0.78097373,,-0.100874074,0.2796885,-0.046217076,-0.2790513,0.8538964,0.43930787,-0.959209,-0.22630009,-0.16942945,-0.04525978,-0.46866757,0.8822144,,-0.04111921,0.43595058,-0.3320071,0.55337,0.3983587,-0.7314998,-0.6084289,0.79310143,-0.028362917,0.5688549,0.4607608,0.68125147,,1.23366024026012,0.3416305341570696,0.20532844713,-0.8479861314514164,0.04891586691602768,0.31835534473318705,-0.4032964992855354,,-1.020142121753561,-0.2980125388834496,0.20288882935000002,1.6112575257350852,0.43641698025081677,0.5069854264385296,0.8747074741490654,,-0.03987859174650544,-0.11159198904938746,0.0651689506,-0.08471519562608845,,-4.4226646e-05,-7.748604e-06,7.1525574e-06,1.0,4.4900924e-05,3.5598874e-05,-4.490465e-05,1.0,4.61936e-06,-3.5606325e-05,-4.6789646e-06,1.0,411,1.254,0,0,0.0,False,-0.2599376133421849,1.049080465551712
1.2245019359979779,17:11:10.302242,17:10:52.712019,0,,0.13297679,0.033208966,0.014403358,0.31324324,-0.8850288,-0.34438735,-0.7827297,-0.4459602,0.43411237,-0.53778505,0.13357946,-0.83243245,,0.08721979,-0.0019889325,0.027699232,-0.4534321,-0.465663,0.75997186,-0.024361253,0.8588209,0.51169646,-0.8909579,0.21350566,-0.4007612,,0.10887532,1.3552785,0.45263657,0.9963525,0.028851148,-0.08030778,-0.027202997,-0.78462046,-0.6193793,-0.08088093,0.6193047,-0.78097373,,-0.100898236,0.27998018,-0.04654319,-0.27162546,0.8564144,0.43906036,-0.9615406,-0.22218545,-0.16147234,-0.040734414,-0.46603435,0.8838284,,-0.041121602,0.43595278,-0.33200696,0.55335796,0.398363,-0.7315066,-0.6084296,0.7931014,-0.02834853,0.5688659,0.46075717,0.6812448,,1.2343012270886806,0.3424491438417374,0.20496807851,-0.8412760532599118,0.053698144407818095,0.31617097164676417,-0.4016630586241927,,-1.0201575672193093,-0.2980048161505754,0.20288882935000002,1.6112575257350852,0.43641698025081677,0.5069854264385296,0.8748708182151997,,-0.03987859174650544,-0.11159198904938746,0.0651689506,-0.08471519562608845,,-4.4226646e-05,-7.748604e-06,7.1525574e-06,1.0,4.4900924e-05,3.5598874e-05,-4.490465e-05,1.0,4.61936e-06,-3.5606325e-05,-4.6789646e-06,1.0,419,1.278,0,0,0.0,False,-0.2602355019347904,1.0488390645478147
1.303818661999685,17:11:10.320929,17:10:52.712019,0,,0.13297604,0.03321527,0.014515027,0.3109339,-0.8859656,-0.34407142,-0.78251755,-0.44410428,0.43639153,-0.5394316,0.13355298,-0.8313707,,0.087219894,-0.0019904375,0.027699292,-0.4534317,-0.46565902,0.75997454,-0.02436459,0.8588244,0.5116904,-0.8909581,0.21350017,-0.40076384,,0.10887532,1.3552785,0.45263657,0.9963525,0.028851148,-0.08030778,-0.027202997,-0.78462046,-0.6193793,-0.08088093,0.6193047,-0.78097373,,-0.100909084,0.2800546,-0.046625983,-0.269152,0.857388,0.43868324,-0.9622855,-0.22070545,-0.15904611,-0.039544452,-0.46494612,0.8844554,,-0.041121643,0.43595177,-0.3320081,0.5533577,0.39835954,-0.7315087,-0.608432,0.79309934,-0.028354872,0.5688636,0.46076363,0.6812423,,1.2344402362804168,0.3426653803622157,0.20487604192000003,-0.838969463881582,0.0550645094054725,0.3152201500900811,-0.40198974675646126,,-1.0201575672193093,-0.2980125388834496,0.20288882935000002,1.6112575257350852,0.43641698025081677,0.5069854264385296,0.8748708182151997,,-0.03987859174650544,-0.11159198904938746,0.0651689506,-0.08471519562608845,,-4.4226646e-05,-7.748604e-06,7.1525574e-06,1.0,4.4900924e-05,3.5598874e-05,-4.490465e-05,1.0,4.61936e-06,-3.5606325e-05,-4.6789646e-06,1.0,427,1.304,0,0,0.0,False,-0.25963972474957986,1.0492253061540504
1.3224923829984618,17:11:10.351270,17:10:52.712019,0,,0.13297799,0.033203557,0.014633328,0.30987993,-0.88622105,-0.3443641,-0.78262335,-0.44342235,0.43689498,-0.5398844,0.13412237,-0.83098507,,0.08721867,-0.001988992,0.027698398,-0.45343855,-0.46566275,0.75996816,-0.024363697,0.85882056,0.5116969,-0.8909545,0.21350738,-0.40076774,,0.10887532,1.3552785,0.45263657,0.9963525,0.028851148,-0.08030778,-0.027202997,-0.78462046,-0.6193793,-0.08088093,0.6193047,-0.78097373,,-0.100923695,0.2801189,-0.046724904,-0.2680588,0.8575968,0.43894446,-0.9625982,-0.21980587,-0.15839845,-0.039359443,-0.46498725,0.88444203,,-0.041120388,0.4359522,-0.33200648,0.5533641,0.39836258,-0.7315022,-0.60842806,0.7931024,-0.028352551,0.56886154,0.46075577,0.6812494,,1.2345792454721527,0.3428738941498198,0.20476844985000003,-0.8379210141641593,0.05520114590523794,0.3154354471469469,-0.40264312302099836,,-1.020149844486435,-0.2980048161505754,0.20288882935000002,1.6112575257350852,0.43641698025081677,0.5069854264385296,0.8748708182151997,,-0.03987859174650544,-0.11159198904938746,0.0651689506,-0.08471519562608845,,-4.4226646e-05,-7.748604e-06,7.1525574e-06,1.0,4.4900924e-05,3.5598874e-05,-4.490465e-05,1.0,4.61936e-06,-3.5606325e-05,-4.6789646e-06,1.0,435,1.329,0,0,0.0,False,-0.25880563669028556,1.0491770259532711
1.3528492769983131,17:11:10.374158,17:10:52.712019,0,,0.13298231,0.0331672,0.01484856,0.306207,-0.8873858,-0.34465,-0.7834326,-0.44057542,0.43832242,-0.5408055,0.1357927,-0.83011436,,0.08721979,-0.0019889325,0.027699232,-0.4534321,-0.465725,0.7599338,-0.024361253,0.8587791,0.51176655,-0.8909579,0.21353838,-0.40074372,,0.10887532,1.3552785,0.45263657,0.9963525,0.028851148,-0.08030778,-0.027202997,-0.78462046,-0.6193793,-0.08088093,0.6193047,-0.78097373,,-0.100951366,0.2802241,-0.046914205,-0.2643275,0.85864,0.43916768,-0.96362376,-0.216485,-0.15672736,-0.039499167,-0.4646198,0.8846289,,-0.041121602,0.43595278,-0.33200696,0.55335796,0.39842275,-0.73147404,-0.6084296,0.79310364,-0.028283749,0.5688659,0.46070153,0.6812824,,1.2348032047255053,0.3431982489305372,0.20456493232000003,-0.8341465951814379,0.05533778240500338,0.3154873867235316,-0.40264312302099836,,-1.0201575672193093,-0.2980048161505754,0.20288882935000002,1.6112575257350852,0.43641698025081677,0.5070671051786702,0.8747074741490655,,-0.03987859174650544,-0.11159198904938746,0.0651689506,-0.08471519562608845,,-4.4226646e-05,-7.748604e-06,7.1525574e-06,1.0,4.4900924e-05,3.5598874e-05,-4.490465e-05,1.0,4.61936e-06,-3.5606325e-05,-4.6789646e-06,1.0,443,1.353,0,0,0.0,False,-0.25922268071993226,1.0490321853509326
1.3757381760005956,17:11:10.402016,17:10:52.712019,0,,0.13297403,0.033153772,0.015077382,0.3020222,-0.8883213,-0.34593064,-0.78347623,-0.43802848,0.44079006,-0.54309076,0.13790005,-0.828273,,0.08721979,-0.0019889325,0.027699232,-0.4534321,-0.46578708,0.75989574,-0.024361253,0.85873723,0.5118367,-0.8909579,0.21357113,-0.4007263,,0.10887532,1.3552785,0.45263657,0.9963525,0.028851148,-0.08030778,-0.027202997,-0.78462046,-0.6193793,-0.08088093,0.6193047,-0.78097373,,-0.100967444,0.28035632,-0.04710095,-0.25992772,0.85940295,0.4403001,-0.9648741,-0.21313803,-0.15359087,-0.038151756,-0.46475667,0.88461614,,-0.041121602,0.43595278,-0.33200696,0.55335796,0.39848247,-0.7314415,-0.6084296,0.79310596,-0.02821897,0.5688659,0.46064588,0.68132,,1.2351043913076,0.3435612173756258,0.20436271108,-0.8299527963117473,0.056977420402188665,0.31611066164254803,-0.4023164348887298,,-1.0201575672193093,-0.2980048161505754,0.20288882935000002,1.6112575257350852,0.43641698025081677,0.5071487839188107,0.8745441300829312,,-0.03987859174650544,-0.11159198904938746,0.0651689506,-0.08471519562608845,,-4.4226646e-05,-7.748604e-06,7.1525574e-06,1.0,4.4900924e-05,3.5598874e-05,-4.490465e-05,1.0,4.61936e-06,-3.5606325e-05,-4.6789646e-06,1.0,455,1.39,0,0,0.0,False,-0.2593418361569748,1.0491287457524916
1.4035930419995566,17:11:10.432921,17:10:52.869006,0,,0.13296114,0.033150747,0.015348107,0.29774636,-0.88874435,-0.34854063,-0.782839,-0.4362598,0.44366705,-0.54636097,0.14075094,-0.8256386,,0.08721867,-0.001988992,0.027698398,-0.45343855,-0.46578684,0.7598921,-0.024363697,0.85873693,0.5118371,-0.8909545,0.21357292,-0.40073282,,0.10887532,1.3552785,0.45263657,0.9963525,0.028851148,-0.08030778,-0.027202997,-0.78462046,-0.6193793,-0.08088093,0.6193047,-0.78097373,,-0.100983135,0.28052294,-0.047314163,-0.25531954,0.8595619,0.44267964,-0.96620023,-0.20996211,-0.14957622,-0.03562407,-0.4659069,0.88411635,,-0.041120388,0.4359522,-0.33200648,0.5533641,0.39848205,-0.7314371,-0.60842806,0.79310703,-0.028222991,0.56886154,0.46064445,0.6813246,,1.235475082485563,0.3440091358823308,0.20413067517000003,-0.8257589974420569,0.059710150397497476,0.3178845618355071,-0.40215309082259554,,-1.020149844486435,-0.2980048161505754,0.20288882935000002,1.6112575257350852,0.43641698025081677,0.5071487839188107,0.8745441300829312,,-0.03987859174650544,-0.11159198904938746,0.0651689506,-0.08471519562608845,,-4.4226646e-05,-7.748604e-06,7.1525574e-06,1.0,4.4900924e-05,3.5598874e-05,-4.490465e-05,1.0,4.61936e-06,-3.5606325e-05,-4.6789646e-06,1.0,476,1.454,0,0,0.0,False,-0.25820985950507547,1.0492253061540504
1.4344294039983652,17:11:10.500550,17:10:52.869006,0,,0.13292345,0.033183858,0.015885383,0.28961155,-0.8905101,-0.35088006,-0.7825471,-0.4313835,0.44891885,-0.5511308,0.14456815,-0.8217999,,0.08721979,-0.0019889325,0.027699232,-0.4534321,-0.46578708,0.75989574,-0.024361253,0.85873723,0.5118367,-0.8909579,0.21357113,-0.4007263,,0.10887532,1.3552785,0.45263657,0.9963525,0.028851148,-0.08030778,-0.027202997,-0.78462046,-0.6193793,-0.08088093,0.6193047,-0.78097373,,-0.10100138,0.28088474,-0.047714066,-0.24672446,0.86102045,0.44471428,-0.96854,-0.2036906,-0.14296982,-0.032515813,-0.46599773,0.88418823,,-0.041121602,0.43595278,-0.33200696,0.55335796,0.39848247,-0.7314415,-0.6084296,0.79310596,-0.02821897,0.5688659,0.46064588,0.68132,,1.236440424094841,0.3450903184847222,0.20368993657,-0.817790779589645,0.0628527898921026,0.3189158146166742,-0.40084633829352123,,-1.0201575672193093,-0.2980048161505754,0.20288882935000002,1.6112575257350852,0.43641698025081677,0.5071487839188107,0.8745441300829312,,-0.03987859174650544,-0.11159198904938746,0.0651689506,-0.08471519562608845,,-4.4226646e-05,-7.748604e-06,7.1525574e-06,1.0,4.4900924e-05,3.5598874e-05,-4.490465e-05,1.0,4.61936e-06,-3.5606325e-05,-4.6789646e-06,1.0,484,1.479,0,0,0.0,False,-0.2594014138754961,1.0489356249493738
1.5021134069975233,17:11:10.525283,17:10:52.869006,0,,0.13289295,0.033224612,0.016260356,0.28420642,-0.8918701,-0.3518445,-0.7822514,-0.42789006,0.45276102,-0.55435485,0.14655328,-0.81927586,,0.08721878,-0.0019904822,0.027698398,-0.45343816,-0.46572086,0.75993276,-0.024366915,0.8587823,0.51176095,-0.8909546,0.21353471,-0.40075296,,0.10887532,1.3552785,0.45263657,0.9963525,0.028851148,-0.08030778,-0.027202997,-0.78462046,-0.6193793,-0.08088093,0.6193047,-0.78097373,,-0.10100956,0.28115126,-0.0479826,-0.2410056,0.8622384,0.44548985,-0.9700492,-0.19965912,-0.13835001,-0.030344572,-0.4654902,0.8845327,,-0.04112043,0.43595117,-0.3320076,0.55336386,0.39841887,-0.7314717,-0.60843045,0.7931027,-0.028294116,0.5688593,0.4607066,0.68128455,,1.2371818064507665,0.34590892816939,0.20339178987000003,-0.8125485310025319,0.06490233738858421,0.3189597996041797,-0.40100968235965556,,-1.020149844486435,-0.2980125388834496,0.20288882935000002,1.6112575257350852,0.43641698025081677,0.5070671051786702,0.8743807860167968,,-0.03987859174650544,-0.11159198904938746,0.0651689506,-0.08471519562608845,,-4.4226646e-05,-7.748604e-06,7.1525574e-06,1.0,4.4900924e-05,3.5598874e-05,-4.490465e-05,1.0,4.61936e-06,-3.5606325e-05,-4.6789646e-06,1.0,496,1.517,0,0,0.0,False,-0.2583290149421176,1.048742504146256
1.5268604699995194,17:11:10.563179,17:10:53.031848,0,,0.1328793,0.03323704,0.016510263,0.2807394,-0.8924076,-0.353262,-0.7818103,-0.42612994,0.45517665,-0.5567387,0.1483979,-0.817325,,0.08721878,-0.0019904822,0.027698398,-0.45343816,-0.46572086,0.75993276,-0.024366915,0.8587823,0.51176095,-0.8909546,0.21353471,-0.40075296,,0.10887532,1.3552785,0.45263657,0.9963525,0.028851148,-0.08030778,-0.027202997,-0.78462046,-0.6193793,-0.08088093,0.6193047,-0.78097373,,-0.10102197,0.28131706,-0.04817009,-0.23729879,0.86261666,0.44674578,-0.97101706,-0.19710997,-0.1351794,-0.028549958,-0.46587572,0.88438946,,-0.04112043,0.43595117,-0.3320076,0.55336386,0.39841887,-0.7314717,-0.60843045,0.7931027,-0.028294116,0.5688593,0.4607066,0.68128455,,1.2375988340259745,0.3464031830733404,0.20318567976000002,-0.8091934919067795,0.06667861188553494,0.31979837158006197,-0.40133637049192417,,-1.020149844486435,-0.2980125388834496,0.20288882935000002,1.6112575257350852,0.43641698025081677,0.5070671051786702,0.8743807860167968,,-0.03987859174650544,-0.11159198904938746,0.0651689506,-0.08471519562608845,,-4.4226646e-05,-7.748604e-06,7.1525574e-06,1.0,4.4900924e-05,3.5598874e-05,-4.490465e-05,1.0,4.61936e-06,-3.5606325e-05,-4.6789646e-06,1.0,504,1.542,0,0,0.0,False,-0.2585077480976805,1.0492253061540504
1.5647521299979417,17:11:10.589144,17:10:53.031848,0,,0.13286301,0.033228293,0.016673952,0.27900082,-0.89256597,-0.35423797,-0.78189677,-0.42530376,0.45580035,-0.55749077,0.14980885,-0.8165546,,0.087219894,-0.0019904375,0.027699292,-0.4534317,-0.4657211,0.7599365,-0.02436459,0.85878253,0.51176053,-0.8909581,0.21353298,-0.4007464,,0.10887532,1.3552785,0.45263657,0.9963525,0.028851148,-0.08030778,-0.027202997,-0.78462046,-0.6193793,-0.08088093,0.6193047,-0.78097373,,-0.10102316,0.2814128,-0.048304126,-0.2354931,0.8626435,0.4476485,-0.9714672,-0.1955791,-0.13416506,-0.028185925,-0.46647078,0.8840874,,-0.041121643,0.43595177,-0.3320081,0.5533577,0.3984193,-0.7314761,-0.608432,0.79310167,-0.028290093,0.5688636,0.460708,0.68127996,,1.2379000206080693,0.3466734787239382,0.20304179157000002,-0.8075159723589033,0.06695188488506582,0.32063735939449645,-0.40051965016125274,,-1.0201575672193093,-0.2980125388834496,0.20288882935000002,1.6112575257350852,0.43641698025081677,0.5070671051786702,0.8743807860167968,,-0.03987859174650544,-0.11159198904938746,0.0651689506,-0.08471519562608845,,-4.4226646e-05,-7.748604e-06,7.1525574e-06,1.0,4.4900924e-05,3.5598874e-05,-4.490465e-05,1.0,4.61936e-06,-3.5606325e-05,-4.6789646e-06,1.0,512,1.566,0,0,0.0,False,-0.259580147031059,1.049080465551712
1.590718798997841,17:11:10.609180,17:10:53.031848,0,,0.13284978,0.03320855,0.016809806,0.27688587,-0.8930974,-0.35455793,-0.78207594,-0.4238376,0.45685753,-0.5582934,0.15079382,-0.8158246,,0.08721889,-0.001992032,0.027698457,-0.45343775,-0.46565485,0.75997347,-0.024370193,0.8588276,0.5116848,-0.89095473,0.21349642,-0.40077305,,0.10887532,1.3552785,0.45263657,0.9963525,0.028851148,-0.08030778,-0.027202997,-0.78462046,-0.6193793,-0.08088093,0.6193047,-0.78097373,,-0.101024695,0.2814825,-0.04842313,-0.23330985,0.86309963,0.44791248,-0.9720028,-0.19379462,-0.13286917,-0.027876303,-0.46637186,0.88414943,,-0.04112047,0.43595016,-0.33200872,0.5533636,0.39835566,-0.7315063,-0.60843277,0.79309833,-0.02836524,0.56885695,0.4607687,0.68124443,,1.2381162571285476,0.3468433788471712,0.20291605144000002,-0.805419072924058,0.06736179438436214,0.32071149938411,-0.40100968235965556,,-1.020149844486435,-0.29802026161632383,0.20288882935000002,1.6112575257350852,0.43641698025081677,0.5069854264385295,0.8745441300829311,,-0.03987859174650544,-0.11159198904938746,0.0651689506,-0.08471519562608845,,-4.4226646e-05,-7.748604e-06,7.1525574e-06,1.0,4.4900924e-05,3.5598874e-05,-4.490465e-05,1.0,4.61936e-06,-3.5606325e-05,-4.6789646e-06,1.0,541,1.655,0,0,0.0,False,-0.25922268071993226,1.0488873447485942
1.6107603719974577,17:11:10.698911,17:10:53.031848,0,,0.13277102,0.03304419,0.017459095,0.26638144,-0.89464295,-0.35868496,-0.78094095,-0.41844347,0.46371984,-0.56495315,0.15658548,-0.81012905,,0.08721889,-0.001992032,0.027698457,-0.45343775,-0.46565485,0.75997347,-0.024370193,0.8588276,0.5116848,-0.89095473,0.21349642,-0.40077305,,0.10887532,1.3552785,0.45263657,0.9963525,0.028851148,-0.08030778,-0.027202997,-0.78462046,-0.6193793,-0.08088093,0.6193047,-0.78097373,,-0.10101806,0.28176165,-0.04903699,-0.22214237,0.86414295,0.4515637,-0.9747429,-0.18590139,-0.12376176,-0.023001527,-0.46765122,0.88361377,,-0.04112047,0.43595016,-0.33200872,0.5533636,0.39835566,-0.7315063,-0.60843277,0.79309833,-0.02836524,0.56885695,0.4607687,0.68124443,,1.2389348668132154,0.3472217927580082,0.20228216563,-0.7951442656933163,0.07323716387427609,0.32286322243711163,-0.40117302642578984,,-1.020149844486435,-0.29802026161632383,0.20288882935000002,1.6112575257350852,0.43641698025081677,0.5069854264385296,0.8748708182151997,,-0.03987859174650544,-0.11159198904938746,0.0651689506,-0.08471519562608845,,-4.4226646e-05,-7.748604e-06,7.1525574e-06,1.0,4.4900924e-05,3.5598874e-05,-4.490465e-05,1.0,4.61936e-06,-3.5606325e-05,-4.6789646e-06,1.0,549,1.68,0,0,0.0,False,-0.2589843698458485,1.049418426957168
1.7004776449975907,17:11:10.721803,17:10:53.187663,0,,0.13275573,0.033007056,0.017576158,0.2644469,-0.8951111,-0.35894826,-0.7806542,-0.41722232,0.46530038,-0.5662569,0.15716727,-0.8091055,,0.0872201,-0.0019934326,0.02769941,-0.4534309,-0.4656511,0.7599799,-0.024371028,0.8588314,0.51167834,-0.8909582,0.2134892,-0.40076914,,0.10887532,1.3552785,0.45263657,0.9963525,0.028851148,-0.08030778,-0.027202997,-0.78462046,-0.6193793,-0.08088093,0.6193047,-0.78097373,,-0.10101593,0.28180617,-0.049152452,-0.22007598,0.8645733,0.45175165,-0.97523475,-0.18456224,-0.12187702,-0.021995327,-0.4673861,0.88377964,,-0.04112173,0.43594977,-0.33201036,0.55335724,0.39835262,-0.7315128,-0.60843664,0.7930953,-0.02836756,0.56885904,0.4607766,0.68123734,,1.2390661532720773,0.34725268368950507,0.20216420324,-0.7932570562019556,0.07446689237216504,0.3226772487052495,-0.40051965016125274,,-1.0201575672193093,-0.298027984349198,0.20288882935000002,1.6112575257350852,0.43641698025081677,0.5069854264385296,0.8748708182151997,,-0.03987859174650544,-0.11159198904938746,0.0651689506,-0.08471519562608845,,-4.4226646e-05,-7.748604e-06,7.1525574e-06,1.0,4.4900924e-05,3.5598874e-05,-4.490465e-05,1.0,4.61936e-06,-3.5606325e-05,-4.6789646e-06,1.0,557,1.705,0,0,0.0,False,-0.2580311263495121,1.048983905150153
1.7233835269980773,17:11:10.751904,17:10:53.187663,0,,0.1327236,0.032956302,0.017786443,0.2603805,-0.89560264,-0.36069092,-0.78032404,-0.41520548,0.46765226,-0.5685916,0.15968826,-0.8069717,,0.0872201,-0.0019934326,0.02769941,-0.4534309,-0.4656511,0.7599799,-0.024371028,0.8588314,0.51167834,-0.8909582,0.2134892,-0.40076914,,0.10887532,1.3552785,0.45263657,0.9963525,0.028851148,-0.08030778,-0.027202997,-0.78462046,-0.6193793,-0.08088093,0.6193047,-0.78097373,,-0.10100715,0.28189883,-0.049350355,-0.2157808,0.86484015,0.45331025,-0.9762294,-0.18139413,-0.11862656,-0.02036519,-0.46813214,0.88342375,,-0.04112173,0.43594977,-0.33201036,0.55335724,0.39835262,-0.7315128,-0.60843664,0.7930953,-0.02836756,0.56885904,0.4607766,0.68123734,,1.239367339854172,0.3473608019497442,0.20196068571000003,-0.7892729472757496,0.07651643986864665,0.32378305731458223,-0.39986627389671553,,-1.0201575672193093,-0.298027984349198,0.20288882935000002,1.6112575257350852,0.43641698025081677,0.5069854264385296,0.8748708182151997,,-0.03987859174650544,-0.11159198904938746,0.0651689506,-0.08471519562608845,,-4.4226646e-05,-7.748604e-06,7.1525574e-06,1.0,4.4900924e-05,3.5598874e-05,-4.490465e-05,1.0,4.61936e-06,-3.5606325e-05,-4.6789646e-06,1.0,565,1.73,0,0,0.0,False,-0.2589843698458485,1.04927358635483
1.7534743969990814,17:11:10.772983,17:10:53.187663,0,,0.13269669,0.03291978,0.017961562,0.25881553,-0.89570737,-0.36155605,-0.7802151,-0.4145291,0.46843353,-0.569455,0.16085362,-0.8061311,,0.08721899,-0.0019935071,0.027698517,-0.45343736,-0.46565086,0.75997615,-0.024373472,0.85883105,0.5116787,-0.89095485,0.213491,-0.40077567,,0.10887532,1.3552785,0.45263657,0.9963525,0.028851148,-0.08030778,-0.027202997,-0.78462046,-0.6193793,-0.08088093,0.6193047,-0.78097373,,-0.10099955,0.28198048,-0.049511578,-0.21413182,0.86483634,0.45409873,-0.9766046,-0.18013564,-0.117450826,-0.019776378,-0.46862486,0.8831759,,-0.04112051,0.43594918,-0.33200985,0.5533634,0.3983522,-0.7315084,-0.6084351,0.7930963,-0.028371582,0.5688547,0.46077517,0.6812419,,1.2396685264362668,0.3475152566072287,0.20179346430000003,-0.7878051176713581,0.0770629858677084,0.32439920932162386,-0.4013363704919241,,-1.020149844486435,-0.298027984349198,0.20288882935000002,1.6112575257350852,0.43641698025081677,0.5069854264385296,0.8748708182151997,,-0.03987859174650544,-0.11159198904938746,0.0651689506,-0.08471519562608845,,-4.4226646e-05,-7.748604e-06,7.1525574e-06,1.0,4.4900924e-05,3.5598874e-05,-4.490465e-05,1.0,4.61936e-06,-3.5606325e-05,-4.6789646e-06,1.0,577,1.767,0,0,0.0,False,-0.2585077480976805,1.0493218665556094
1.7745615929998166,17:11:10.812481,17:10:53.187663,0,,0.13267142,0.032887354,0.018143103,0.25626493,-0.8963052,-0.36189115,-0.78071654,-0.41267443,0.4692349,-0.569921,0.16228598,-0.8055144,,0.08721979,-0.0019935071,0.027697504,-0.45343736,-0.46571293,0.7599381,-0.024373472,0.85878927,0.51174885,-0.89095485,0.21352375,-0.4007582,,0.10887532,1.3552785,0.45263657,0.9963525,0.028851148,-0.08030778,-0.027202997,-0.78462046,-0.6193793,-0.08088093,0.6193047,-0.78097373,,-0.10099419,0.28206927,-0.0496751,-0.21155764,0.8653198,0.4543842,-0.97716147,-0.17776604,-0.11642461,-0.019970443,-0.46863726,0.88316494,,-0.041121185,0.43594834,-0.3320091,0.5533634,0.39841196,-0.73147583,-0.6084351,0.7930986,-0.028306803,0.5688547,0.46071953,0.68127954,,1.2400083266827326,0.34772377039483277,0.20162235402000003,-0.7852888383495437,0.07692634936794297,0.32459230596546085,-0.4008463382935213,,-1.020149844486435,-0.298027984349198,0.20289012564000003,1.6112575257350852,0.43641698025081677,0.5070671051786702,0.8747074741490655,,-0.03987859174650544,-0.11159198904938746,0.0651689506,-0.08471519562608845,,-4.4226646e-05,-7.748604e-06,7.1525574e-06,1.0,4.4900924e-05,3.5598874e-05,-4.490465e-05,1.0,4.61936e-06,-3.5606325e-05,-4.6789646e-06,1.0,602,1.844,0,0,0.0,False,-0.25880563669028556,1.049370146756389
1.814011844999186,17:11:10.888245,17:10:53.329936,0,,0.13259439,0.03282456,0.018650502,0.24806146,-0.8970123,-0.3658338,-0.7806674,-0.40870336,0.47277886,-0.573606,0.16831633,-0.8016519,,0.08722091,-0.0019934326,0.027698398,-0.4534309,-0.46577525,0.7599038,-0.024371028,0.8587477,0.5118186,-0.8909582,0.21355468,-0.4007343,,0.10887532,1.3552785,0.45263657,0.9963525,0.028851148,-0.08030778,-0.027202997,-0.78462046,-0.6193793,-0.08088093,0.6193047,-0.78097373,,-0.10097223,0.28233948,-0.050115373,-0.20301338,0.8654741,0.457974,-0.979013,-0.17087771,-0.111059815,-0.017861841,-0.47090912,0.88200086,,-0.041122403,0.43594894,-0.3320096,0.55335724,0.39847213,-0.7314477,-0.60843664,0.7930999,-0.028238002,0.56885904,0.4606653,0.6813126,,1.2409582228262623,0.3483029753603996,0.20116087478000003,-0.7773206204971318,0.0793858063637209,0.32773254432778076,-0.4010096823596556,,-1.0201575672193093,-0.298027984349198,0.20289012564000003,1.6112575257350852,0.43641698025081677,0.5071487839188107,0.8745441300829312,,-0.03987859174650544,-0.11159198904938746,0.0651689506,-0.08471519562608845,,-4.4226646e-05,-7.748604e-06,7.1525574e-06,1.0,4.4900924e-05,3.5598874e-05,-4.490465e-05,1.0,4.61936e-06,-3.5606325e-05,-4.6789646e-06,1.0,610,1.868,0,0,0.0,False,-0.2585077480976805,1.049080465551712
1.8898237909997988,17:11:10.914062,17:10:53.329936,0,,0.13256958,0.032809436,0.01874946,0.2467067,-0.8972539,-0.36615735,-0.7803201,-0.40797848,0.47397682,-0.574662,0.16878672,-0.80079633,,0.08722091,-0.0019934326,0.027698398,-0.4534309,-0.46577525,0.7599038,-0.024371028,0.8587477,0.5118186,-0.8909582,0.21355468,-0.4007343,,0.10887532,1.3552785,0.45263657,0.9963525,0.028851148,-0.08030778,-0.027202997,-0.78462046,-0.6193793,-0.08088093,0.6193047,-0.78097373,,-0.10095827,0.28239042,-0.05020396,-0.20154813,0.8656803,0.45823136,-0.97933185,-0.17000681,-0.10957554,-0.016954936,-0.4708453,0.88205284,,-0.041122403,0.43594894,-0.3320096,0.55335724,0.39847213,-0.7314477,-0.60843664,0.7930999,-0.028238002,0.56885904,0.4606653,0.6813126,,1.2411667366138663,0.3483647572233934,0.20107013448000002,-0.7760624808362246,0.08034226186207899,0.3276877276631708,-0.4005196501612527,,-1.0201575672193093,-0.298027984349198,0.20289012564000003,1.6112575257350852,0.43641698025081677,0.5071487839188107,0.8745441300829312,,-0.03987859174650544,-0.11159198904938746,0.0651689506,-0.08471519562608845,,-4.4226646e-05,-7.748604e-06,7.1525574e-06,1.0,4.4900924e-05,3.5598874e-05,-4.490465e-05,1.0,4.61936e-06,-3.5606325e-05,-4.6789646e-06,1.0,618,1.894,0,0,0.0,False,-0.2590439475643693,1.0491287457524916
1.915633254997374,17:11:10.942730,17:10:53.329936,0,,0.13253209,0.03275764,0.018897295,0.24374886,-0.8975154,-0.367495,-0.7809032,-0.40633684,0.47442633,-0.5751318,0.17133716,-0.799917,,0.08721979,-0.0019935071,0.027697504,-0.45343736,-0.46571293,0.7599381,-0.024373472,0.85878927,0.51174885,-0.89095485,0.21352375,-0.4007582,,0.10887532,1.3552785,0.45263657,0.9963525,0.028851148,-0.08030778,-0.027202997,-0.78462046,-0.6193793,-0.08088093,0.6193047,-0.78097373,,-0.10093762,0.2824437,-0.05035455,-0.1985704,0.8657074,0.45947847,-0.97993505,-0.1671249,-0.1086119,-0.017235834,-0.47182617,0.88152313,,-0.041121185,0.43594834,-0.3320091,0.5533634,0.39841196,-0.73147583,-0.6084351,0.7930986,-0.028306803,0.5688547,0.46071953,0.68127954,,1.241467923195961,0.3483879254220161,0.20091846855,-0.7731268216274413,0.08034226186207899,0.3289129087652793,-0.40231643488872976,,-1.020149844486435,-0.298027984349198,0.20289012564000003,1.6112575257350852,0.43641698025081677,0.5070671051786702,0.8743807860167968,,-0.03987859174650544,-0.11159198904938746,0.0651689506,-0.08471519562608845,,-4.4226646e-05,-7.748604e-06,7.1525574e-06,1.0,4.4900924e-05,3.5598874e-05,-4.490465e-05,1.0,4.61936e-06,-3.5606325e-05,-4.6789646e-06,1.0,626,1.918,0,0,0.0,False,-0.25868648125324345,1.0488390645478147
1.94430423599988,17:11:10.961843,17:10:53.329936,0,,0.13250521,0.03272015,0.018997073,0.24225263,-0.89719313,-0.36926705,-0.7812564,-0.4060682,0.4740748,-0.5752844,0.17364639,-0.799309,,0.08721979,-0.0019935071,0.027697504,-0.45343736,-0.46571293,0.7599381,-0.024373472,0.85878927,0.51174885,-0.89095485,0.21352375,-0.4007582,,0.10887532,1.3552785,0.45263657,0.9963525,0.028851148,-0.08030778,-0.027202997,-0.78462046,-0.6193793,-0.08088093,0.6193047,-0.78097373,,-0.10092218,0.28247777,-0.050457917,-0.19707428,0.8651502,0.461169,-0.9802327,-0.16549477,-0.10842191,-0.017480183,-0.4734201,0.8806633,,-0.041121185,0.43594834,-0.3320091,0.5533634,0.39841196,-0.73147583,-0.6084351,0.7930986,-0.028306803,0.5688547,0.46071953,0.68127954,,1.2416764369835651,0.3483956481548903,0.20081476535,-0.7716589920230497,0.08020562536231354,0.3307395802119275,-0.40019296202898413,,-1.020149844486435,-0.298027984349198,0.20289012564000003,1.6112575257350852,0.43641698025081677,0.5070671051786702,0.8743807860167968,,-0.03987859174650544,-0.11159198904938746,0.0651689506,-0.08471519562608845,,-4.4226646e-05,-7.748604e-06,7.1525574e-06,1.0,4.4900924e-05,3.5598874e-05,-4.490465e-05,1.0,4.61936e-06,-3.5606325e-05,-4.6789646e-06,1.0,634,1.943,0,0,0.0,False,-0.25815028178655464,1.0490321853509326
1.9633381969979382,17:11:10.986811,17:10:53.329936,0,,0.13246563,0.03268057,0.019143179,0.23981328,-0.8973732,-0.37041995,-0.78074676,-0.40504315,0.47578818,-0.57699573,0.17510387,-0.797756,,0.08721979,-0.0019935071,0.027697504,-0.45343736,-0.46571293,0.7599381,-0.024373472,0.85878927,0.51174885,-0.89095485,0.21352375,-0.4007582,,0.10887532,1.3552785,0.45263657,0.9963525,0.028851148,-0.08030778,-0.027202997,-0.78462046,-0.6193793,-0.08088093,0.6193047,-0.78097373,,-0.100899,0.2825396,-0.050599758,-0.19445841,0.865198,0.46218866,-0.9807792,-0.16377842,-0.10606058,-0.016066873,-0.47392938,0.8804163,,-0.041121185,0.43594834,-0.3320091,0.5533634,0.39841196,-0.73147583,-0.6084351,0.7930986,-0.028306803,0.5688547,0.46071953,0.68127954,,1.2419544553670372,0.3484033708877645,0.20067217345000002,-0.7693524026447198,0.08184526335949882,0.3313628551309439,-0.40117302642578984,,-1.020149844486435,-0.298027984349198,0.20289012564000003,1.6112575257350852,0.43641698025081677,0.5070671051786702,0.8743807860167968,,-0.03987859174650544,-0.11159198904938746,0.0651689506,-0.08471519562608845,,-4.4226646e-05,-7.748604e-06,7.1525574e-06,1.0,4.4900924e-05,3.5598874e-05,-4.490465e-05,1.0,4.61936e-06,-3.5606325e-05,-4.6789646e-06,1.0,642,1.967,0,0,0.0,False,-0.2580907040680329,1.0489356249493738
1.988379131998954,17:11:11.021584,17:10:53.478609,0,,0.13242495,0.032623142,0.01929386,0.23704936,-0.8969429,-0.37323037,-0.7812742,-0.40434766,0.47551394,-0.57742375,0.17887503,-0.7966088,,0.08721979,-0.0019935071,0.027697504,-0.45343736,-0.46571293,0.7599381,-0.024373472,0.85878927,0.51174885,-0.89095485,0.21352375,-0.4007582,,0.10887532,1.3552785,0.45263657,0.9963525,0.028851148,-0.08030778,-0.027202997,-0.78462046,-0.6193793,-0.08088093,0.6193047,-0.78097373,,-0.100875616,0.28259042,-0.05075637,-0.19167666,0.864389,0.4648566,-0.9813223,-0.16091082,-0.105423994,-0.01632689,-0.47638148,0.8790871,,-0.041121185,0.43594834,-0.3320091,0.5533634,0.39841196,-0.73147583,-0.6084351,0.7930986,-0.028306803,0.5688547,0.46071953,0.68127954,,1.2422633646820063,0.3484033708877645,0.20051532236000003,-0.766626433379421,0.08184526335949882,0.33422161103586356,-0.40198974675646126,,-1.020149844486435,-0.298027984349198,0.20289012564000003,1.6112575257350852,0.43641698025081677,0.5070671051786702,0.8743807860167968,,-0.03987859174650544,-0.11159198904938746,0.0651689506,-0.08471519562608845,,-4.4226646e-05,-7.748604e-06,7.1525574e-06,1.0,4.4900924e-05,3.5598874e-05,-4.490465e-05,1.0,4.61936e-06,-3.5606325e-05,-4.6789646e-06,1.0,667,2.044,0,0,0.0,False,-0.2593418361569748,1.0488873447485942
2.0231243279995397,17:11:11.087456,17:10:53.478609,0,,0.13231388,0.032498255,0.019781351,0.22857353,-0.8979288,-0.37613568,-0.7810573,-0.39977384,0.47971892,-0.58112276,0.18413246,-0.7927116,,0.087219894,-0.0019950122,0.027697563,-0.45343694,-0.46570897,0.7599408,-0.02437669,0.8587928,0.51174283,-0.890955,0.21351826,-0.40076092,,0.10887532,1.3552785,0.45263657,0.9963525,0.028851148,-0.08030778,-0.027202997,-0.78462046,-0.6193793,-0.08088093,0.6193047,-0.78097373,,-0.10081902,0.28280136,-0.051223133,-0.18285659,0.8649144,0.46742544,-0.98303807,-0.15401834,-0.09957162,-0.01412884,-0.47770432,0.87840706,,-0.041121226,0.43594736,-0.33201024,0.55336314,0.3984085,-0.73147786,-0.6084375,0.7930966,-0.028313147,0.5688524,0.460726,0.6812771,,1.2430433607023028,0.34854238007950056,0.20011865762000003,-0.7599163551879162,0.08457799335480763,0.33558711752811987,-0.40051965016125274,,-1.020149844486435,-0.2980357070820723,0.20289012564000003,1.6112575257350852,0.43641698025081677,0.5070671051786702,0.8743807860167968,,-0.03987859174650544,-0.11159198904938746,0.0651689506,-0.08471519562608845,,-4.4226646e-05,-7.748604e-06,7.1525574e-06,1.0,4.4900924e-05,3.5598874e-05,-4.490465e-05,1.0,4.61936e-06,-3.5606325e-05,-4.6789646e-06,1.0,675,2.069,0,0,0.0,False,-0.25856732581620134,1.0491287457524916
2.0890155809975113,17:11:11.117164,17:10:53.478609,0,,0.13227463,0.032448485,0.019958556,0.22595249,-0.8982483,-0.37695545,-0.7810753,-0.39829734,0.48091626,-0.5821227,0.1857664,-0.79159594,,0.087219894,-0.0019950122,0.027697563,-0.45343694,-0.46570897,0.7599408,-0.02437669,0.8587928,0.51174283,-0.890955,0.21351826,-0.40076092,,0.10887532,1.3552785,0.45263657,0.9963525,0.028851148,-0.08030778,-0.027202997,-0.78462046,-0.6193793,-0.08088093,0.6193047,-0.78097373,,-0.10079967,0.28287458,-0.05139544,-0.18014602,0.865092,0.4681488,-0.98354566,-0.15183261,-0.09790192,-0.013613911,-0.47808236,0.8782095,,-0.041121226,0.43594736,-0.33201024,0.55336314,0.3984085,-0.73147786,-0.6084375,0.7930966,-0.028313147,0.5688524,0.460726,0.6812771,,1.2435453383391275,0.34866594380548815,0.19986588107000003,-0.7559322462617103,0.08539781235340027,0.3365521849087526,-0.4013363704919241,,-1.020149844486435,-0.2980357070820723,0.20289012564000003,1.6112575257350852,0.43641698025081677,0.5070671051786702,0.8743807860167968,,-0.03987859174650544,-0.11159198904938746,0.0651689506,-0.08471519562608845,,-4.4226646e-05,-7.748604e-06,7.1525574e-06,1.0,4.4900924e-05,3.5598874e-05,-4.490465e-05,1.0,4.61936e-06,-3.5606325e-05,-4.6789646e-06,1.0,683,2.094,0,0,0.0,False,-0.25922268071993226,1.048983905150153
2.118728479999845,17:11:11.139227,17:10:53.478609,0,,0.13220017,0.03238368,0.02030693,0.21896811,-0.8987776,-0.3798048,-0.7802989,-0.39500257,0.48487782,-0.58582133,0.1901885,-0.78780824,,0.08722,-0.001996532,0.027697563,-0.45343655,-0.46570504,0.7599434,-0.024379939,0.85879624,0.5117368,-0.8909551,0.21351278,-0.40076357,,0.10887532,1.3552785,0.45263657,0.9963525,0.028851148,-0.08030778,-0.027202997,-0.78462046,-0.6193793,-0.08088093,0.6193047,-0.78097373,,-0.100763604,0.28304422,-0.051713295,-0.1727969,0.865224,0.47066832,-0.9848969,-0.1464816,-0.09231072,-0.0109252045,-0.47951075,0.877468,,-0.041121267,0.43594635,-0.33201137,0.5533629,0.39840505,-0.73147994,-0.6084398,0.7930946,-0.028319491,0.56885016,0.46073246,0.6812746,,1.244217216099185,0.348866734860218,0.19954051228000003,-0.7492221680702056,0.08867708834777085,0.33853384340805054,-0.4011730264257898,,-1.020149844486435,-0.2980434298149465,0.20289012564000003,1.6112575257350852,0.43641698025081677,0.5070671051786702,0.8743807860167968,,-0.03987859174650544,-0.11159198904938746,0.0651689506,-0.08471519562608845,,-4.4226646e-05,-7.748604e-06,7.1525574e-06,1.0,4.4900924e-05,3.5598874e-05,-4.490465e-05,1.0,4.61936e-06,-3.5606325e-05,-4.6789646e-06,1.0,695,2.131,0,0,0.0,False,-0.2580907040680329,1.048983905150153
2.1407901809980103,17:11:11.183547,17:10:53.478609,0,,0.13214728,0.03233406,0.02057977,0.21438842,-0.8993585,-0.38104033,-0.78023434,-0.39237162,0.48711267,-0.58759844,0.19286948,-0.78583044,,0.08722122,-0.0019979328,0.027698576,-0.4534297,-0.46570134,0.7599498,-0.024380803,0.8588002,0.5117304,-0.89095855,0.21350554,-0.4007597,,0.10887532,1.3552785,0.45263657,0.9963525,0.028851148,-0.08030778,-0.027202997,-0.78462046,-0.6193793,-0.08088093,0.6193047,-0.78097373,,-0.10074073,0.28317767,-0.051961023,-0.16805558,0.865576,0.4717366,-0.98572737,-0.14272967,-0.08927355,-0.009942241,-0.4800066,0.87720853,,-0.041122526,0.43594596,-0.332013,0.5533565,0.398402,-0.73148644,-0.6084437,0.79309154,-0.028321812,0.5688522,0.46074036,0.68126756,,1.244765530133255,0.3490906941135705,0.19928514315,-0.7448186792570305,0.0899068168456598,0.33932801455787515,-0.40084633829352134,,-1.0201575672193093,-0.2980511525478207,0.20289012564000003,1.6112575257350852,0.43641698025081677,0.5070671051786702,0.8743807860167968,,-0.03987859174650544,-0.11159198904938746,0.0651689506,-0.08471519562608845,,-4.4226646e-05,-7.748604e-06,7.1525574e-06,1.0,4.4900924e-05,3.5598874e-05,-4.490465e-05,1.0,4.61936e-06,-3.5606325e-05,-4.6789646e-06,1.0,707,2.168,0,0,0.0,False,-0.2588652144088064,1.0488390645478147
2.1851011010003276,17:11:11.217520,17:10:53.680933,0,,0.13207258,0.032265022,0.021011516,0.20636532,-0.89973724,-0.3845599,-0.7801717,-0.38850367,0.4903028,-0.5905467,0.19884127,-0.7821233,,0.087221324,-0.001999423,0.027698576,-0.45342928,-0.4656974,0.7599525,-0.024384081,0.85880363,0.5117243,-0.89095867,0.21350008,-0.40076235,,0.10887532,1.3552785,0.45263657,0.9963525,0.028851148,-0.08030778,-0.027202997,-0.78462046,-0.6193793,-0.08088093,0.6193047,-0.78097373,,-0.100713275,0.28339586,-0.05234625,-0.15976775,0.8654077,0.4749145,-0.9871191,-0.13597438,-0.08430258,-0.008379906,-0.48226598,0.8759848,,-0.041122567,0.43594494,-0.3320141,0.5533563,0.39839858,-0.73148847,-0.60844606,0.7930895,-0.028328156,0.5688499,0.46074682,0.68126506,,1.2456150307494196,0.3494999989559044,0.19888588583000003,-0.7370601513481031,0.09195636434214143,0.3423941129305814,-0.4018264026903271,,-1.0201575672193093,-0.29805887528069497,0.20289012564000003,1.6112575257350852,0.43641698025081677,0.5070671051786702,0.8743807860167968,,-0.03987859174650544,-0.11159198904938746,0.0651689506,-0.08471519562608845,,-4.4226646e-05,-7.748604e-06,7.1525574e-06,1.0,4.4900924e-05,3.5598874e-05,-4.490465e-05,1.0,4.61936e-06,-3.5606325e-05,-4.6789646e-06,1.0,732,2.245,0,0,0.0,False,-0.2599376133421849,1.0487907843470352
2.2190974749973975,17:11:11.287427,17:10:53.680933,0,,0.13196373,0.03217347,0.021654189,0.19429478,-0.900987,-0.38790697,-0.7811701,-0.38129446,0.49435583,-0.5933151,0.20697063,-0.7779077,,0.08722031,-0.002001062,0.027697742,-0.45343533,-0.46569318,0.7599515,-0.024389714,0.8588067,0.5117187,-0.89095545,0.21349633,-0.40077156,,0.10887532,1.3552785,0.45263657,0.9963525,0.028851148,-0.08030778,-0.027202997,-0.78462046,-0.6193793,-0.08088093,0.6193047,-0.78097373,,-0.10067447,0.28372926,-0.05291244,-0.14749722,0.8659501,0.4778859,-0.98903006,-0.12522325,-0.07834946,-0.008004306,-0.48419988,0.8749208,,-0.04112139,0.43594334,-0.33201477,0.5533622,0.39839467,-0.73148614,-0.60844684,0.7930885,-0.028338522,0.5688433,0.4607519,0.6812672,,1.2469742317352832,0.3502336585789557,0.19829607388,-0.7253175145129698,0.0929128198404995,0.34537140965117236,-0.4008463382935213,,-1.020149844486435,-0.29806659801356916,0.20289012564000003,1.6112575257350852,0.43641698025081677,0.5070671051786702,0.8743807860167968,,-0.03987859174650544,-0.11159198904938746,0.0651689506,-0.08471519562608845,,-4.4226646e-05,-7.748604e-06,7.1525574e-06,1.0,4.4900924e-05,3.5598874e-05,-4.490465e-05,1.0,4.61936e-06,-3.5606325e-05,-4.6789646e-06,1.0,740,2.27,0,0,0.0,False,-0.2580907040680329,1.049370146756389
2.2889958079977077,17:11:11.322131,17:10:53.680933,0,,0.13195822,0.032103807,0.02204138,0.19563134,-0.90062654,-0.38807237,-0.77622026,-0.38404897,0.49998847,-0.5993418,0.20341617,-0.7742166,,0.08716855,-0.0020259507,0.02767098,-0.45350623,-0.46565378,0.75993323,-0.024371028,0.8588174,0.5117017,-0.89091986,0.2135396,-0.40082753,,0.10887023,1.3552799,0.4526332,0.9963528,0.028860776,-0.08030018,-0.027190773,-0.7846201,-0.6193803,-0.08088093,0.6193047,-0.78097373,,-0.10070862,0.28391814,-0.053259533,-0.14807838,0.86591125,0.47777662,-0.98897564,-0.12959535,-0.07163983,-0.00011610201,-0.48311773,0.8755554,,-0.04106263,0.4359161,-0.33201906,0.55342907,0.39833903,-0.7314658,-0.6083955,0.7931258,-0.028396139,0.5688331,0.4607358,0.6812866,,1.2478082868856994,0.3505116769624278,0.19799014944,-0.727414413947815,0.09988128132853696,0.34344631860912067,-0.4001929620289842,,-1.0201575672193093,-0.29806659801356916,0.20289012564000003,1.6112575257350852,0.43641698025081677,0.5070671051786702,0.8743807860167968,,-0.03987859174650544,-0.11159198904938746,0.0651689506,-0.08471519562608845,,-4.9058348e-05,-1.0967255e-05,9.298325e-06,1.0,5.448237e-05,4.3198466e-05,-5.448982e-05,1.0,5.632639e-06,-4.3198466e-05,-5.6624413e-06,1.0,752,2.307,0,0,0.0,False,-0.2591631030014119,1.0491287457524916
2.323703158999706,17:11:11.353338,17:10:53.680933,0,,0.13184959,0.032106966,0.022230864,0.1954989,-0.9003825,-0.38870484,-0.7737754,-0.38513193,0.50293636,-0.6025378,0.20244671,-0.7719867,,0.08717381,-0.002025593,0.027673542,-0.45348027,-0.46565473,0.75994825,-0.024361402,0.85881865,0.5117001,-0.89093333,0.21353245,-0.40080136,,0.10887023,1.3552799,0.4526332,0.9963528,0.028860776,-0.08030018,-0.027190773,-0.7846201,-0.6193803,-0.08088093,0.6193047,-0.78097373,,-0.10062045,0.28404376,-0.05341496,-0.14755908,0.8657474,0.47823402,-0.9890456,-0.13105659,-0.06791814,0.0038757776,-0.4830172,0.8756023,,-0.04106817,0.43591765,-0.3320203,0.55340445,0.39834073,-0.7314836,-0.6084017,0.79312164,-0.028380051,0.5688505,0.4607415,0.6812682,,1.2485265010430022,0.35054256789392474,0.19783848351000002,-0.7278337938347841,0.10343383032243841,0.3428364578369495,-0.40215309082259554,,-1.0201884581508063,-0.29806659801356916,0.20289142193,1.6112575257350852,0.43641698025081677,0.5070671051786702,0.8743807860167968,,-0.03987859174650544,-0.11159198904938746,0.0651689506,-0.08471519562608845,,-4.9058348e-05,-1.0967255e-05,9.298325e-06,1.0,5.448237e-05,4.3198466e-05,-5.448982e-05,1.0,5.632639e-06,-4.3198466e-05,-5.6624413e-06,1.0,760,2.332,0,0,0.0,False,-0.2587460589717643,1.0489356249493738
2.3549166439988767,17:11:11.378525,17:10:53.680933,0,,0.1317443,0.032077715,0.022367448,0.19820687,-0.8999849,-0.3882541,-0.77229553,-0.38731158,0.5035369,-0.60355103,0.20004241,-0.7718221,,0.08717615,-0.0020268597,0.02767539,-0.45346692,-0.46565127,0.7599584,-0.024359882,0.85882276,0.5116932,-0.8909402,0.21352339,-0.40079093,,0.10887023,1.3552799,0.4526332,0.9963528,0.028860776,-0.08030018,-0.027190773,-0.7846201,-0.6193803,-0.08088093,0.6193047,-0.78097373,,-0.100530736,0.284111,-0.053549234,-0.15011358,0.86555815,0.47778136,-0.9886515,-0.13427478,-0.067368455,0.0058426717,-0.48247218,0.8758918,,-0.041070648,0.43591785,-0.33202243,0.5533919,0.39833814,-0.7314945,-0.60840714,0.7931175,-0.02837835,0.5688569,0.46075082,0.68125653,,1.249136596940066,0.35042672690081134,0.19771274338000003,-0.7309791429870519,0.1046635588203274,0.34142530300297885,-0.40133637049192405,,-1.0202039036165547,-0.2980743207464434,0.20289142193,1.6112575257350852,0.43641698025081677,0.5070671051786702,0.8743807860167968,,-0.03987859174650544,-0.11159198904938746,0.0651689506,-0.08471519562608845,,-4.9058348e-05,-1.0967255e-05,9.298325e-06,1.0,5.448237e-05,4.3198466e-05,-5.448982e-05,1.0,5.632639e-06,-4.3198466e-05,-5.6624413e-06,1.0,772,2.369,0,0,0.0,False,-0.25820985950507547,1.0488873447485942
2.380066404999525,17:11:11.410568,17:10:53.849850,0,,0.13165136,0.032066286,0.022474617,0.1989699,-0.90061295,-0.38640302,-0.76967645,-0.3876764,0.5072525,-0.60663766,0.1964773,-0.7703165,,0.08717726,-0.0020267405,0.027676344,-0.4534604,-0.46565148,0.759962,-0.024357438,0.8588231,0.5116928,-0.8909436,0.21352172,-0.40078437,,0.10887023,1.3552799,0.4526332,0.9963528,0.028860776,-0.08030018,-0.027190773,-0.7846201,-0.6193803,-0.08088093,0.6193047,-0.78097373,,-0.10044983,0.28417325,-0.053648394,-0.15049237,0.8665492,0.47586188,-0.98856115,-0.13674611,-0.06361862,0.009943591,-0.4799927,0.8772161,,-0.041071862,0.43591845,-0.3320229,0.55338573,0.39833856,-0.7314989,-0.6084087,0.7931165,-0.02837433,0.56886125,0.46075222,0.68125194,,1.2495999609125195,0.35024910404470416,0.19762329937000003,-0.7322372826479591,0.10848938081375971,0.33806056547905744,-0.4011730264257899,,-1.0202116263494287,-0.2980743207464434,0.20289142193,1.6112575257350852,0.43641698025081677,0.5070671051786702,0.8743807860167968,,-0.03987859174650544,-0.11159198904938746,0.0651689506,-0.08471519562608845,,-4.9058348e-05,-1.0967255e-05,9.298325e-06,1.0,5.448237e-05,4.3198466e-05,-5.448982e-05,1.0,5.632639e-06,-4.3198466e-05,-5.6624413e-06,1.0,793,2.433,0,0,0.0,False,-0.2585077480976805,1.0486459437446969
2.4121433119980793,17:11:11.479528,17:10:53.849850,0,,0.13155353,0.03200178,0.022626445,0.20228419,-0.9010001,-0.38377064,-0.76544845,-0.3898998,0.5119245,-0.61087626,0.19020239,-0.76853967,,0.0871771,-0.0020236261,0.027676225,-0.4534463,-0.46594083,0.75979316,-0.02473399,0.85872066,0.51184654,-0.89094037,0.21330222,-0.40090832,,0.10887023,1.3552799,0.4526332,0.9963528,0.028860776,-0.08030018,-0.027190773,-0.7846201,-0.6193803,-0.08088093,0.6193047,-0.78097373,,-0.100369886,0.284222,-0.05381576,-0.15325254,0.8675458,0.47315744,-0.9880545,-0.14236698,-0.05899092,0.016184667,-0.47654584,0.8790006,,-0.041071832,0.43592054,-0.3320206,0.55338854,0.39865553,-0.7313241,-0.6086646,0.79292136,-0.028339725,0.5685847,0.46081394,0.68144107,,1.249962929357608,0.34989385833248987,0.19747033715,-0.736221391574165,0.11422811380390821,0.3332993347836672,-0.40133637049192417,,-1.0202116263494287,-0.29806659801356916,0.20289142193,1.610838145848116,0.43641698025081677,0.5070671051786702,0.8743807860167968,,-0.03987859174650544,-0.11159198904938746,0.0651689506,-0.08471519562608845,,-4.9058348e-05,-1.0967255e-05,9.298325e-06,1.0,5.448237e-05,4.3198466e-05,-5.448982e-05,1.0,5.632639e-06,-4.3198466e-05,-5.6624413e-06,1.0,801,2.458,0,0,0.0,False,-0.25880563669028556,1.048742504146256
2.481107511997834,17:11:11.501924,17:10:53.849850,0,,0.13153486,0.03194657,0.022724628,0.20343976,-0.90150595,-0.3819676,-0.7628146,-0.3905083,0.51538056,-0.61378026,0.18652157,-0.7671268,,0.0871771,-0.0020236261,0.027676225,-0.4534463,-0.46594083,0.75979316,-0.02473399,0.85872066,0.51184654,-0.89094037,0.21330222,-0.40090832,,0.10887023,1.3552799,0.4526332,0.9963528,0.028860776,-0.08030018,-0.027190773,-0.7846201,-0.6193803,-0.08088093,0.6193047,-0.78097373,,-0.10036281,0.28424084,-0.053928144,-0.15404049,0.8684223,0.47128993,-0.98785824,-0.14510667,-0.055499356,0.020190436,-0.4741168,0.8802304,,-0.041071832,0.43592054,-0.3320206,0.55338854,0.39865553,-0.7313241,-0.6086646,0.79292136,-0.028339725,0.5685847,0.46081394,0.68144107,,1.2499474838918596,0.3497162354763827,0.19736274508,-0.7376892211785566,0.11819057229710599,0.33031325179689264,-0.401826402690327,,-1.0202116263494287,-0.29806659801356916,0.20289142193,1.610838145848116,0.43641698025081677,0.5070671051786702,0.8743807860167968,,-0.03987859174650544,-0.11159198904938746,0.0651689506,-0.08471519562608845,,-4.9058348e-05,-1.0967255e-05,9.298325e-06,1.0,5.448237e-05,4.3198466e-05,-5.448982e-05,1.0,5.632639e-06,-4.3198466e-05,-5.6624413e-06,1.0,809,2.484,0,0,0.0,False,-0.2594014138754961,1.049418426957168
2.5035019459974137,17:11:11.529116,17:10:53.849850,0,,0.13152389,0.03190106,0.02278331,0.20412755,-0.90172344,-0.3810863,-0.76154226,-0.39087942,0.5169784,-0.6151304,0.18468374,-0.76648974,,0.0871771,-0.0020236261,0.027676225,-0.4534463,-0.46594083,0.75979316,-0.02473399,0.85872066,0.51184654,-0.89094037,0.21330222,-0.40090832,,0.10887023,1.3552799,0.4526332,0.9963528,0.028860776,-0.08030018,-0.027190773,-0.7846201,-0.6193803,-0.08088093,0.6193047,-0.78097373,,-0.10035902,0.2842423,-0.05400311,-0.15455544,0.86882365,0.47038078,-0.987737,-0.14652893,-0.05389744,0.022097023,-0.47294262,0.8808161,,-0.041071832,0.43592054,-0.3320206,0.55338854,0.39865553,-0.7313241,-0.6086646,0.79292136,-0.028339725,0.5685847,0.46081394,0.68144107,,1.249924315693237,0.34957722628464666,0.19729144913000002,-0.7385279809524947,0.12010348329382216,0.3288350798852833,-0.40198974675646126,,-1.0202116263494287,-0.29806659801356916,0.20289142193,1.610838145848116,0.43641698025081677,0.5070671051786702,0.8743807860167968,,-0.03987859174650544,-0.11159198904938746,0.0651689506,-0.08471519562608845,,-4.9058348e-05,-1.0967255e-05,9.298325e-06,1.0,5.448237e-05,4.3198466e-05,-5.448982e-05,1.0,5.632639e-06,-4.3198466e-05,-5.6624413e-06,1.0,817,2.508,0,0,0.0,False,-0.2589843698458485,1.0486942239454764
2.5306919350005046,17:11:11.554018,17:10:53.849850,0,,0.13150075,0.031839803,0.0228813,0.20832321,-0.901579,-0.3791526,-0.7582614,-0.39373353,0.51962835,-0.6177712,0.17924608,-0.76565635,,0.08717604,-0.0020253547,0.02767539,-0.4534673,-0.4656552,0.7599557,-0.024356574,0.8588192,0.51169926,-0.89094007,0.21352896,-0.40078825,,0.10887023,1.3552799,0.4526332,0.9963528,0.028860776,-0.08030018,-0.027190773,-0.7846201,-0.6193803,-0.08088093,0.6193047,-0.78097373,,-0.10034761,0.2842565,-0.054119535,-0.15837985,0.8691904,0.46842706,-0.98702013,-0.15214816,-0.05140263,0.026591644,-0.47048807,0.8820056,,-0.041070607,0.43591887,-0.3320213,0.5533921,0.39834157,-0.7314924,-0.60840476,0.79311955,-0.028372006,0.5688592,0.46074432,0.68125904,,1.2499011474946142,0.3493764352299168,0.19718126448,-0.7431411597091544,0.12406594178701993,0.3255222819379465,-0.401826402690327,,-1.0202039036165547,-0.29806659801356916,0.20289142193,1.6112575257350852,0.43641698025081677,0.5070671051786702,0.8743807860167968,,-0.03987859174650544,-0.11159198904938746,0.0651689506,-0.08471519562608845,,-4.9058348e-05,-1.0967255e-05,9.298325e-06,1.0,5.448237e-05,4.3198466e-05,-5.448982e-05,1.0,5.632639e-06,-4.3198466e-05,-5.6624413e-06,1.0,825,2.533,0,0,0.0,False,-0.2590439475643693,1.0485976635439174
2.555593768000108,17:11:11.582415,17:10:54.029582,0,,0.13148433,0.03175214,0.02298987,0.20482486,-0.90239614,-0.37911463,-0.75895905,-0.39100963,0.52066547,-0.6180841,0.18108726,-0.76497024,,0.08717604,-0.0020253547,0.02767539,-0.4534673,-0.4656552,0.7599557,-0.024356574,0.8588192,0.51169926,-0.89094007,0.21352896,-0.40078825,,0.10887023,1.3552799,0.4526332,0.9963528,0.028860776,-0.08030018,-0.027190773,-0.7846201,-0.6193803,-0.08088093,0.6193047,-0.78097373,,-0.100344546,0.28425628,-0.054260034,-0.15488362,0.86986744,0.46833935,-0.98758876,-0.14883423,-0.050167225,0.026066093,-0.47029677,0.8821233,,-0.041070607,0.43591887,-0.3320213,0.5533921,0.39834157,-0.7314924,-0.60840476,0.79311955,-0.028372006,0.5688592,0.46074432,0.68125904,,1.2499706520904823,0.3492142578395581,0.19704385774000002,-0.7395764306699174,0.12420257828678537,0.32549254277439066,-0.40198974675646126,,-1.0202039036165547,-0.29806659801356916,0.20289142193,1.6112575257350852,0.43641698025081677,0.5070671051786702,0.8743807860167968,,-0.03987859174650544,-0.11159198904938746,0.0651689506,-0.08471519562608845,,-4.9058348e-05,-1.0967255e-05,9.298325e-06,1.0,5.448237e-05,4.3198466e-05,-5.448982e-05,1.0,5.632639e-06,-4.3198466e-05,-5.6624413e-06,1.0,858,2.634,0,0,0.0,False,-0.25910352528289105,1.0486459437446969
2.5839881529973354,17:11:11.683948,17:10:54.029582,0,,0.13138907,0.031594127,0.023477226,0.20271704,-0.90452296,-0.37515864,-0.75387347,-0.38866457,0.52973056,-0.6249645,0.1754367,-0.7606848,,0.08717713,-0.002029065,0.027674496,-0.45345888,-0.46578607,0.75988054,-0.02455625,0.8587803,0.51175505,-0.8909389,0.21340004,-0.40085953,,0.10887023,1.3552799,0.4526332,0.9963528,0.028860776,-0.08030018,-0.027190773,-0.7846201,-0.6193803,-0.08088093,0.6193047,-0.78097373,,-0.10030439,0.2844405,-0.054745834,-0.15195723,0.87262523,0.46414894,-0.9877891,-0.15041089,-0.040610585,0.034375235,-0.46465233,0.8848257,,-0.041071407,0.4359156,-0.33202335,0.5533927,0.398488,-0.73141223,-0.60854095,0.79301494,-0.0283769,0.56871295,0.46079785,0.6813449,,1.2505961934532945,0.3491447532436901,0.19656034157000002,-0.7383182910090103,0.13253740477247725,0.31885940812919,-0.40133637049192417,,-1.0202039036165547,-0.29808976621219185,0.20289271822000002,1.6110478357916007,0.43641698025081677,0.5070671051786702,0.8743807860167968,,-0.03987859174650544,-0.11159198904938746,0.0651689506,-0.08471519562608845,,-4.9058348e-05,-1.0967255e-05,9.298325e-06,1.0,5.448237e-05,4.3198466e-05,-5.448982e-05,1.0,5.632639e-06,-4.3198466e-05,-5.6624413e-06,1.0,870,2.672,0,0,0.0,False,-0.2580311263495121,1.0490321853509326
2.6855169650007156,17:11:11.710943,17:10:54.029582,0,,0.13136764,0.031552717,0.023605645,0.2024085,-0.90477216,-0.37472403,-0.75164396,-0.38881117,0.5327825,-0.6277438,0.17381933,-0.7587652,,0.08717853,-0.0020326711,0.027675569,-0.45344383,-0.46591708,0.7598091,-0.024753451,0.85874176,0.5118103,-0.890941,0.21326932,-0.4009243,,0.10887023,1.3552799,0.4526332,0.9963528,0.028860776,-0.08030018,-0.027190773,-0.7846201,-0.6193803,-0.08088093,0.6193047,-0.78097373,,-0.10029744,0.28448904,-0.054873347,-0.15131116,0.8730397,0.46358013,-0.98775965,-0.15151902,-0.037052777,0.037892655,-0.46351224,0.88527995,,-0.041072752,0.4359137,-0.33202663,0.5533871,0.3986348,-0.7313364,-0.60867864,0.7929092,-0.028377792,0.56857103,0.46085277,0.6814262,,1.2506965889806594,0.3490906941135705,0.19643460144000002,-0.7383182910090103,0.1360899537663787,0.31751443869575374,-0.4024797789548641,,-1.0202116263494287,-0.29811293441081455,0.20289271822000002,1.610838145848116,0.43641698025081677,0.5070671051786702,0.8743807860167968,,-0.03987859174650544,-0.11159198904938746,0.0651689506,-0.08471519562608845,,-4.9058348e-05,-1.0967255e-05,9.298325e-06,1.0,5.448237e-05,4.3198466e-05,-5.448982e-05,1.0,5.632639e-06,-4.3198466e-05,-5.6624413e-06,1.0,878,2.697,0,0,0.0,False,-0.2590439475643693,1.048983905150153
