AlexandreBanks6/ExpertPlaybackApp/resources/Motions/Pilot_02/PC1/TwoHanded_01.csv
Task Time,PC1 Time,PC2 Time,Gaze Calib,s_T_psm1,Tx,Ty,Tz,R00,R01,R02,R10,R11,R12,R20,R21,R22,s_T_psm3,Tx,Ty,Tz,R00,R01,R02,R10,R11,R12,R20,R21,R22,cart_T_ecm,Tx,Ty,Tz,R00,R01,R02,R10,R11,R12,R20,R21,R22,ecm_T_psm1,Tx,Ty,Tz,R00,R01,R02,R10,R11,R12,R20,R21,R22,ecm_T_psm3,Tx,Ty,Tz,R00,R01,R02,R10,R11,R12,R20,R21,R22,psm1_joints,q1,q2,q3,q4,q5,q6,jaw,psm3_joints,q1,q2,q3,q4,q5,q6,jaw,ecm_joints,q1,q2,q3,q4,ecmi_T_ecm,Tx,Ty,Tz,R00,R01,R02,R10,R11,R12,R20,R21,R22,Sample #,Task Duration (s),Collisions (binary),Collisions (increments),Cumulative Collision Time (s),Clutch Press,MTMR Angle,MTML Angle
""
lci_T_si,,,,,-0.062389474,-0.0010951007,0.25930017,0.99593616,0.0017670981,0.09004503,0.05772532,-0.7799611,-0.62316006,0.069130436,0.6258255,-0.77689344
rci_T_si,,,,,-0.072285615,0.0035915847,0.2678278,0.9913835,-0.02220903,0.12909488,0.06891292,-0.74969065,-0.65819067,0.111399,0.66141564,-0.7417005
ecm_T_lc,,,,,-4.4061628e-05,-0.00034663224,-0.01840835,-0.99912,0.030754527,0.028518902,-0.031987965,-0.99852574,-0.043852776,0.027128186,-0.04472645,0.9986309
ecm_T_rc,,,,,-0.0043358393,0.01870579,-0.007592615,-0.99555075,-0.052743673,-0.078081585,0.04863213,-0.9973746,0.053654674,-0.08070653,0.04961868,0.9955021
cart_T_ecmi,,,,,0.10892019,1.3552758,0.4526434,0.99635094,0.028806036,-0.08034339,-0.027260283,-0.78462213,-0.6193747,-0.08088093,0.6193047,-0.78097373
ecmac_T_ecmrep_psm1,,,,,0.020639513,-0.23766407,-0.31952974,0.9991728,0.040656675,0.00084931776,-0.040573046,0.9980905,-0.046573985,-0.0027412393,0.046501,0.9989145
ecmac_T_ecmrep_psm3,,,,,-0.018134806,-0.43550184,-0.5747026,0.99898165,-0.022027466,0.039375085,0.018065983,0.9949952,0.09827628,-0.041342795,-0.09746485,0.9943799
""
0,17:05:01.284120,17:04:43.655252,0,,0.1257929,0.026255384,0.017425388,-0.43405855,-0.7881496,-0.43636376,-0.80559045,0.12275571,0.5796163,-0.4032583,0.6031179,-0.688209,,0.066245735,-0.0089610815,0.024506092,-0.43644926,-0.41941932,0.79598963,-0.010203987,0.88694996,0.4617528,-0.8996711,0.19340941,-0.39138845,,0.10885108,1.3552808,0.45264354,0.99635327,0.02887301,-0.080290526,-0.027175236,-0.7846197,-0.61938155,-0.08088093,0.6193047,-0.78097373,,-0.09420139,0.27677208,-0.053904217,0.4567833,0.72288704,0.51844317,-0.8591667,0.50958306,0.046450574,-0.23061135,-0.46664694,0.85384953,,-0.019602077,0.43130362,-0.3358667,0.53686213,0.35347044,-0.7660533,-0.6070222,0.79243416,-0.05976762,0.58592075,0.49709836,0.6399923,,1.2594696135257784,0.3054726988399505,0.19929810605,-0.07548837965442877,-0.0121606484791242,0.41708471302968425,-0.39414923158201576,,-0.9068573532215615,-0.3239377531422213,0.19356331909000002,1.6804552070849783,0.5613027410364293,0.4955678277956027,0.8178637391343362,,-0.03987859174650544,-0.11159198904938746,0.0651689506,-0.08471519562608845,,-6.89961e-05,-5.7816505e-06,2.2649765e-06,1.0,6.666407e-05,5.286187e-05,-6.666407e-05,1.0,6.914139e-06,-5.286187e-05,-6.914139e-06,1.0,39,0.117,0,0,0.0,False,-0.2551713958605024,0.9924960702381866
0.1276378910006315,17:05:01.323893,17:04:43.766072,0,,0.12595367,0.026061773,0.0179822,-0.4508219,-0.78623813,-0.42259824,-0.7935126,0.13619584,0.5931177,-0.40877563,0.6027275,-0.68528986,,0.06624807,-0.008964002,0.024506927,-0.43631446,-0.41895297,0.796309,-0.009671271,0.8871225,0.4614326,-0.89974225,0.19362837,-0.39111632,,0.10885108,1.3552808,0.45264354,0.99635327,0.02887301,-0.080290526,-0.027175236,-0.7846197,-0.61938155,-0.08088093,0.6193047,-0.78097373,,-0.09442383,0.27695915,-0.054441713,0.47428626,0.72131324,0.5047373,-0.85233647,0.51975167,0.058144562,-0.22039762,-0.4577832,0.8613126,,-0.019604348,0.43130195,-0.33586925,0.5367122,0.35297465,-0.76638687,-0.60672617,0.7926564,-0.059825864,0.58636445,0.49709627,0.6395874,,1.2591607042108095,0.305696658093303,0.19870699781,-0.0576647344582442,-0.0004099094992963213,0.40995313551600887,-0.3944759197142844,,-0.9068650759544358,-0.3239377531422213,0.19356461538000003,1.6810842769154317,0.5614393775361948,0.49553808863204685,0.8177003950682018,,-0.03987859174650544,-0.11159198904938746,0.0651689506,-0.08471519562608845,,-6.89961e-05,-5.7816505e-06,2.2649765e-06,1.0,6.666407e-05,5.286187e-05,-6.666407e-05,1.0,6.914139e-06,-5.286187e-05,-6.914139e-06,1.0,51,0.152,0,0,0.0,False,-0.2552309735790237,0.9918684276280536
0.16764931799843907,17:05:01.363184,17:04:43.766072,0,,0.1261712,0.025900275,0.018649414,-0.4659459,-0.785819,-0.406673,-0.77729946,0.1439465,0.61244184,-0.4227293,0.6014715,-0.6778879,,0.06625009,-0.008968517,0.024509907,-0.4360515,-0.41815358,0.79687303,-0.008604497,0.88738835,0.46094245,-0.89988065,0.1941379,-0.39054504,,0.10885108,1.3552808,0.45264354,0.99635327,0.02887301,-0.080290526,-0.027175236,-0.7846197,-0.61938155,-0.08088093,0.6193047,-0.78097373,,-0.09471359,0.27723715,-0.05503947,0.49113315,0.7211932,0.48853722,-0.8476004,0.52500814,0.0770716,-0.20090252,-0.45193675,0.8691325,,-0.019606497,0.4313008,-0.3358745,0.5364184,0.35211074,-0.7669898,-0.60612947,0.7931139,-0.059811845,0.5872499,0.4969793,0.63886553,,1.258836349430092,0.3059901219425235,0.1980342233,-0.042147678640389395,0.020495474964816067,0.4050763285314002,-0.39529264004495573,,-0.90687279868731,-0.32393003040934704,0.19356461538000003,1.6823424165763388,0.5617126505357257,0.4956419677852163,0.8173737069359335,,-0.03987859174650544,-0.11159198904938746,0.0651689506,-0.08471519562608845,,-6.89961e-05,-5.7816505e-06,2.2649765e-06,1.0,6.666407e-05,5.286187e-05,-6.666407e-05,1.0,6.914139e-06,-5.286187e-05,-6.914139e-06,1.0,59,0.177,0,0,0.0,False,-0.25588632848275505,0.9927857514428635
0.20696805999978096,17:05:01.394330,17:04:43.766072,0,,0.12629008,0.02574578,0.019089371,-0.4744874,-0.7839873,-0.40028206,-0.7684443,0.14710715,0.62277836,-0.4293659,0.60309494,-0.672251,,0.066251054,-0.008964762,0.024511158,-0.43569258,-0.41872185,0.79677093,-0.008782893,0.88714266,0.46141165,-0.9000527,0.19403565,-0.3901991,,0.10885108,1.3552808,0.45264354,0.99635327,0.02887301,-0.080290526,-0.027175236,-0.7846197,-0.61938155,-0.08088093,0.6193047,-0.78097373,,-0.09488127,0.27738416,-0.055465903,0.50051063,0.7192687,0.48181084,-0.8443877,0.5283984,0.088343024,-0.1910457,-0.45105177,0.8718107,,-0.019607767,0.43130416,-0.3358726,0.53609014,0.3526976,-0.76694965,-0.6064167,0.79293793,-0.05923032,0.5872531,0.49684387,0.63896793,,1.2586510038411105,0.30607507200413997,0.19757015148,-0.03313101107055485,0.031153121946520423,0.4053703934585412,-0.3959460163094929,,-0.9068650759544358,-0.3239145849435986,0.19356591167,1.6821327266328545,0.562122560035022,0.4960428227353921,0.8181904272666046,,-0.03987859174650544,-0.11159198904938746,0.0651689506,-0.08471519562608845,,-6.89961e-05,-5.7816505e-06,2.2649765e-06,1.0,6.666407e-05,5.286187e-05,-6.666407e-05,1.0,6.914139e-06,-5.286187e-05,-6.914139e-06,1.0,74,0.222,0,0,0.0,False,-0.25624379479388093,0.9932202732498787
0.2381047060007404,17:05:01.425549,17:04:43.766072,0,,0.1264048,0.025567055,0.019580439,-0.48465532,-0.78407353,-0.3877343,-0.75808764,0.15538251,0.63337153,-0.43636286,0.60090345,-0.66970336,,0.066248655,-0.008986026,0.024505496,-0.43637586,-0.415916,0.79786587,-0.005039841,0.88786566,0.46007514,-0.89975035,0.19674453,-0.38953933,,0.10885108,1.3552808,0.45264354,0.99635327,0.02887301,-0.080290526,-0.027175236,-0.7846197,-0.61938155,-0.08088093,0.6193047,-0.78097373,,-0.0950507,0.27754423,-0.055947483,0.5115749,0.71976054,0.46929294,-0.84014577,0.533508,0.09759253,-0.18012826,-0.44420037,0.8776331,,-0.019603765,0.43128583,-0.33588436,0.53656244,0.3495692,-0.76805085,-0.6035689,0.7950658,-0.059790146,0.58975023,0.49565277,0.63759154,,1.258527440115123,0.30609824020276266,0.19705163548000001,-0.02222713400935958,0.043040497426113745,0.39918922166299664,-0.39643604850789566,,-0.90687279868731,-0.3239145849435986,0.19356591167,1.6865362154460295,0.5613027410364293,0.4968746876378517,0.8185171153988732,,-0.03987859174650544,-0.11159198904938746,0.0651689506,-0.08471519562608845,,-6.89961e-05,-5.7816505e-06,2.2649765e-06,1.0,6.666407e-05,5.286187e-05,-6.666407e-05,1.0,6.914139e-06,-5.286187e-05,-6.914139e-06,1.0,82,0.247,0,0,0.0,False,-0.2550522404234603,0.9942341574662472
0.2693286169997009,17:05:01.454763,17:04:43.766072,0,,0.12651667,0.025359944,0.020173043,-0.49733934,-0.78287196,-0.3738516,-0.74553734,0.16530445,0.6456381,-0.44365266,0.59982157,-0.6658727,,0.06624529,-0.008997977,0.02449596,-0.43755788,-0.41502532,0.79768217,-0.0028777719,0.88775367,0.46030986,-0.89918566,0.19911665,-0.38963804,,0.10885108,1.3552808,0.45264354,0.99635327,0.02887301,-0.080290526,-0.027175236,-0.7846197,-0.61938155,-0.08088093,0.6193047,-0.78097373,,-0.09522856,0.27774537,-0.05652582,0.52521825,0.71889037,0.45534864,-0.8342483,0.5405316,0.10888251,-0.16785572,-0.43706092,0.88363016,,-0.01959878,0.4312712,-0.33588672,0.5375718,0.34841815,-0.76786804,-0.6015515,0.7966016,-0.059680395,0.5908912,0.49399465,0.637822,,1.2585428855808714,0.3061368538671338,0.19643330515000001,-0.008387597739380975,0.056430874403126906,0.3932526702493217,-0.39627270444176144,,-0.9068882441530584,-0.3239145849435986,0.19356591167,1.6890524947678438,0.559936376038775,0.4984789391156594,0.819497179795679,,-0.03987859174650544,-0.11159198904938746,0.0651689506,-0.08471519562608845,,-6.89961e-05,-5.7816505e-06,2.2649765e-06,1.0,6.666407e-05,5.286187e-05,-6.666407e-05,1.0,6.914139e-06,-5.286187e-05,-6.914139e-06,1.0,93,0.28,0,0,0.0,False,-0.25624379479388093,0.994765239674821
0.29853882899988093,17:05:01.479228,17:04:43.766072,0,,0.12663642,0.02515167,0.02080752,-0.5073675,-0.7814517,-0.36319628,-0.7331435,0.1699529,0.65849566,-0.4528563,0.60037434,-0.6591449,,0.066250354,-0.009000763,0.024500787,-0.43704414,-0.41483417,0.7980632,-0.002351284,0.8878129,0.46019852,-0.89943695,0.19925061,-0.38898894,,0.10885108,1.3552808,0.45264354,0.99635327,0.02887301,-0.080290526,-0.027175236,-0.7846197,-0.61938155,-0.08088093,0.6193047,-0.78097373,,-0.09541867,0.27797124,-0.057136647,0.5364186,0.717519,0.44432145,-0.8297932,0.544439,0.12259405,-0.15394239,-0.43445668,0.88743967,,-0.019604243,0.43127224,-0.33589184,0.5370668,0.34821036,-0.76831555,-0.6014334,0.7967168,-0.059330944,0.59147024,0.4939553,0.6373155,,1.258596944710991,0.306214081195876,0.19576571580000002,0.0025162793218142924,0.0715975258770908,0.39166687663757305,-0.38892222146571903,,-0.9069036896188069,-0.3239145849435986,0.19356720796000002,1.6896815645982974,0.5604829220378368,0.49868669742199817,0.820150556060216,,-0.03987859174650544,-0.11159198904938746,0.0651689506,-0.08471519562608845,,-6.89961e-05,-5.7816505e-06,2.2649765e-06,1.0,6.666407e-05,5.286187e-05,-6.666407e-05,1.0,6.914139e-06,-5.286187e-05,-6.914139e-06,1.0,105,0.316,1,1,0.011,False,-0.25588632848275505,0.9942824376670267
0.3230132880016754,17:05:01.524254,17:04:43.968195,0,,0.12681738,0.024961993,0.021662667,-0.51637745,-0.78231883,-0.3483268,-0.71276784,0.16717172,0.681187,-0.474675,0.6000258,-0.6439353,,0.06624852,-0.008999586,0.02450031,-0.43693522,-0.4157546,0.7976438,-0.002354771,0.88729614,0.46119407,-0.8994899,0.19963363,-0.38867003,,0.10885108,1.3552808,0.45264354,0.99635327,0.02887301,-0.080290526,-0.027175236,-0.7846197,-0.61938155,-0.08088093,0.6193047,-0.78097373,,-0.09569242,0.27834588,-0.05790132,0.5481011,0.71835864,0.42842272,-0.82699376,0.54209095,0.14905956,-0.12516585,-0.4360026,0.89119875,,-0.019602424,0.4312729,-0.33589077,0.53696495,0.3491034,-0.7679814,-0.60148656,0.7967474,-0.058373787,0.5915087,0.4932752,0.6378064,,1.2587900130328467,0.30627586305886983,0.19495423826000002,0.011952326778617888,0.10083773682689505,0.3937156058710971,-0.3931691671852101,,-0.9068882441530584,-0.3239068622107244,0.19356720796000002,1.6896815645982974,0.5606195585376021,0.49980046062041006,0.8186804594650076,,-0.03987859174650544,-0.11159198904938746,0.0651689506,-0.08471519562608845,,-6.89961e-05,-5.7816505e-06,2.2649765e-06,1.0,6.666407e-05,5.286187e-05,-6.666407e-05,1.0,6.914139e-06,-5.286187e-05,-6.914139e-06,1.0,130,0.394,1,1,0.089,False,-0.2548735072678969,0.9943789980685855
0.36798964899935527,17:05:01.592016,17:04:43.968195,0,,0.1268974,0.02448517,0.023036122,-0.5353656,-0.77272445,-0.34099936,-0.68648225,0.16288248,0.7086688,-0.49206305,0.6134869,-0.6176632,,0.066253304,-0.00900358,0.024506629,-0.4364282,-0.41641557,0.79757655,-0.002373457,0.886983,0.46179602,-0.8997359,0.19964775,-0.38809282,,0.10885108,1.3552808,0.45264354,0.99635327,0.02887301,-0.080290526,-0.027175236,-0.7846197,-0.61938155,-0.08088093,0.6193047,-0.78097373,,-0.09592635,0.27882335,-0.059256848,0.5693646,0.7073148,0.41896272,-0.8163312,0.5466392,0.18651797,-0.09709455,-0.44820908,0.8886401,,-0.019607708,0.43127418,-0.33589774,0.5364909,0.34977198,-0.76800853,-0.6017355,0.7966202,-0.057538673,0.59168565,0.49300694,0.6378497,,1.2598094137722442,0.30596695374390087,0.19355294877,0.0335503909575239,0.1307611302755265,0.41007277629172145,-0.39529264004495585,,-0.9069036896188069,-0.32393003040934704,0.19356720796000002,1.6896815645982974,0.5611661045366639,0.5004982913675923,0.8196605238618133,,-0.03987859174650544,-0.11159198904938746,0.0651689506,-0.08471519562608845,,-6.89961e-05,-5.7816505e-06,2.2649765e-06,1.0,6.666407e-05,5.286187e-05,-6.666407e-05,1.0,6.914139e-06,-5.286187e-05,-6.914139e-06,1.0,138,0.419,1,1,0.114,False,-0.25576717304571295,0.9932685534506578
0.43579681900155265,17:05:01.625843,17:04:43.968195,0,,0.12684825,0.024233446,0.023550421,-0.5466215,-0.76277053,-0.3455227,-0.67635727,0.15889546,0.7192309,-0.4937063,0.6268438,-0.6027611,,0.06625229,-0.009005159,0.024505973,-0.43643403,-0.41654235,0.79750717,-0.0023799539,0.88691026,0.46193564,-0.8997332,0.1997064,-0.38806924,,0.10885108,1.3552808,0.45264354,0.99635327,0.02887301,-0.080290526,-0.027175236,-0.7846197,-0.61938155,-0.08088093,0.6193047,-0.78097373,,-0.095936835,0.2789488,-0.05981759,0.5809435,0.6959308,0.4221196,-0.8088881,0.55134135,0.20426162,-0.09058004,-0.46011195,0.8832283,,-0.01960656,0.43127277,-0.33589852,0.53649664,0.34989437,-0.76794875,-0.6017372,0.7966276,-0.05741852,0.59167874,0.49290815,0.6379325,,1.2604581233336791,0.30550358977144737,0.19299554407000002,0.04676085739704893,0.13854941076215663,0.4256935368788366,-0.39741611290470147,,-0.9068959668859327,-0.3239377531422213,0.19356720796000002,1.6896815645982974,0.5611661045366639,0.5006616488478735,0.8190071475972764,,-0.03987859174650544,-0.11159198904938746,0.0651689506,-0.08471519562608845,,-6.89961e-05,-5.7816505e-06,2.2649765e-06,1.0,6.666407e-05,5.286187e-05,-6.666407e-05,1.0,6.914139e-06,-5.286187e-05,-6.914139e-06,1.0,155,0.472,1,1,0.167,False,-0.2557075953271921,0.9936547950568937
0.469605391001096,17:05:01.671916,17:04:43.968195,0,,0.1267345,0.023949116,0.024234235,-0.5681678,-0.73676735,-0.36655033,-0.65429115,0.13430661,0.744221,-0.49908763,0.66267306,-0.55836904,,0.06625229,-0.009005159,0.024505973,-0.43643403,-0.41660747,0.7974732,-0.0023799539,0.88687253,0.46200812,-0.8997332,0.19973803,-0.38805294,,0.10885108,1.3552808,0.45264354,0.99635327,0.02887301,-0.080290526,-0.027175236,-0.7846197,-0.61938155,-0.08088093,0.6193047,-0.78097373,,-0.09590161,0.27915737,-0.06053637,0.60339993,0.66579205,0.43889567,-0.79393214,0.5531289,0.2524285,-0.07470098,-0.5007687,0.8623517,,-0.01960656,0.43127277,-0.33589852,0.53649664,0.3499571,-0.76792014,-0.6017372,0.79663223,-0.05735345,0.59167874,0.49285603,0.6379728,,1.2617864333880457,0.3045845845594147,0.19229425118000001,0.07255272044564542,0.15685870173072564,0.47643324485652816,-0.39512929597882157,,-0.9068959668859327,-0.3239377531422213,0.19356720796000002,1.6896815645982974,0.5611661045366639,0.500743327588014,0.8188438035311421,,-0.03987859174650544,-0.11159198904938746,0.0651689506,-0.08471519562608845,,-6.89961e-05,-5.7816505e-06,2.2649765e-06,1.0,6.666407e-05,5.286187e-05,-6.666407e-05,1.0,6.914139e-06,-5.286187e-05,-6.914139e-06,1.0,163,0.496,1,1,0.191,False,-0.2566608388235285,0.9931237128483195
0.5156982830012566,17:05:01.708209,17:04:44.124039,0,,0.12661324,0.023779407,0.024443388,-0.5791735,-0.72089005,-0.38062546,-0.64421976,0.11863169,0.7555842,-0.49953887,0.6828208,-0.5331198,,0.066253066,-0.009008005,0.024507284,-0.43630967,-0.41654038,0.79757625,-0.002390951,0.8869298,0.46189803,-0.89979345,0.1996235,-0.387972,,0.10885108,1.3552808,0.45264354,0.99635327,0.02887301,-0.080290526,-0.027175236,-0.7846197,-0.61938155,-0.08088093,0.6193047,-0.78097373,,-0.09580661,0.2791607,-0.060816042,0.6146037,0.64755714,0.4504798,-0.7858019,0.5526283,0.2777003,-0.06912107,-0.5246635,0.84849894,,-0.019607354,0.4312717,-0.33590147,0.53638065,0.34990105,-0.7680267,-0.6018026,0.7965808,-0.057381812,0.5917174,0.49297896,0.6378419,,1.2624892020796001,0.3036501338816335,0.19204795608000003,0.08597287682865498,0.16410043621829398,0.5067117778428869,-0.3962727044417615,,-0.9068959668859327,-0.32395319860796973,0.19356720796000002,1.6896815645982974,0.5613027410364293,0.5006319096843177,0.8188438035311421,,-0.03987859174650544,-0.11159198904938746,0.0651689506,-0.08471519562608845,,-6.89961e-05,-5.7816505e-06,2.2649765e-06,1.0,6.666407e-05,5.286187e-05,-6.666407e-05,1.0,6.914139e-06,-5.286187e-05,-6.914139e-06,1.0,176,0.537,1,1,0.232,False,-0.2575545046013441,0.993171993049099
0.5519701740013261,17:05:01.742357,17:04:44.124039,0,,0.1264553,0.023501053,0.024568737,-0.5913656,-0.7018211,-0.3971573,-0.63573444,0.10274795,0.7650389,-0.49611342,0.7049043,-0.5069334,,0.06625183,-0.009006724,0.02450645,-0.43631703,-0.41641343,0.79763854,-0.002389282,0.887002,0.4617594,-0.89978987,0.19956765,-0.38800898,,0.10885108,1.3552808,0.45264354,0.99635327,0.02887301,-0.080290526,-0.027175236,-0.7846197,-0.61938155,-0.08088093,0.6193047,-0.78097373,,-0.095668666,0.27902883,-0.061101902,0.6265463,0.6259413,0.46436757,-0.7764425,0.5530119,0.3021835,-0.06765163,-0.5498867,0.832495,,-0.01960608,0.43127212,-0.3359,0.53638744,0.3497782,-0.76807797,-0.601798,0.796575,-0.057510186,0.5917159,0.49307552,0.6377686,,1.2629834569835505,0.3021596464369082,0.19181851275000003,0.10107055275954074,0.16778962171196088,0.5398871763253525,-0.3957826722433586,,-0.9068882441530584,-0.32394547587509553,0.19356720796000002,1.6896815645982974,0.5613027410364293,0.5004685522040364,0.8188438035311418,,-0.03987859174650544,-0.11159198904938746,0.0651689506,-0.08471519562608845,,-6.89961e-05,-5.7816505e-06,2.2649765e-06,1.0,6.666407e-05,5.286187e-05,-6.666407e-05,1.0,6.914139e-06,-5.286187e-05,-6.914139e-06,1.0,193,0.591,1,1,0.286,False,-0.2566608388235285,0.99307543264754
0.5860654669995711,17:05:01.790915,17:04:44.124039,0,,0.12638816,0.023193344,0.024626926,-0.6080484,-0.6794401,-0.41065595,-0.6219906,0.0862526,0.7782595,-0.4933607,0.7286438,-0.47505116,,0.06619932,-0.009009097,0.02449572,-0.43629307,-0.41643643,0.79763967,-0.0023455024,0.88698196,0.46179792,-0.8998016,0.19960839,-0.38796094,,0.10883115,1.3552792,0.45263022,0.9963543,0.028902695,-0.08026709,-0.02713754,-0.78461856,-0.6193845,-0.08088093,0.6193047,-0.78097373,,-0.09560262,0.27883285,-0.061359655,0.64316016,0.6008427,0.47469258,-0.76315236,0.55380446,0.3330151,-0.06279718,-0.5764448,0.8147195,,-0.019538777,0.43127686,-0.33590895,0.536367,0.34976217,-0.76809955,-0.60176533,0.7966023,-0.05747391,0.59176767,0.49304274,0.6377459,,1.262998902449299,0.30049153613607565,0.19162277296000002,0.12245892699496222,0.17516799269929464,0.577160341800244,-0.39545598411108995,,-0.9069500260160522,-0.32394547587509553,0.19356591167,1.6896815645982974,0.5613027410364293,0.5005502309441769,0.8186804594650074,,-0.03987859174650544,-0.11159198904938746,0.0651689506,-0.08471519562608845,,-8.773804e-05,-1.347065e-05,1.5258789e-05,1.0,9.620562e-05,7.6286495e-05,-9.621307e-05,1.0,9.894371e-06,-7.6286495e-05,-9.983778e-06,1.0,201,0.615,1,1,0.31,False,-0.25683957197909146,0.992737471242084
0.6346981479982787,17:05:01.826938,17:04:44.124039,0,,0.1264027,0.022899762,0.024673864,-0.63109046,-0.65108246,-0.42168292,-0.59885734,0.06341168,0.7983413,-0.49304646,0.75635356,-0.42992395,,0.06620631,-0.009009872,0.024499595,-0.43613648,-0.4165687,0.79765624,-0.002340436,0.8869244,0.4619085,-0.89987755,0.19958833,-0.38779515,,0.10883115,1.3552792,0.45263022,0.9963543,0.028902695,-0.08026709,-0.02713754,-0.78461856,-0.6193845,-0.08088093,0.6193047,-0.78097373,,-0.095628224,0.27863187,-0.06157771,0.6665275,0.56925374,0.48134324,-0.7437466,0.5517932,0.37731326,-0.05081497,-0.60948706,0.7911658,,-0.01954612,0.43127832,-0.3359118,0.5362201,0.34989834,-0.7681401,-0.6018348,0.7965638,-0.057280622,0.5918302,0.4930084,0.63771445,,1.2627208840658268,0.2987307530407525,0.19145944042000002,0.15307365874370277,0.18992473467396223,0.6255694759050464,-0.3964360485078957,,-0.9069886396804233,-0.32395319860796973,0.19356720796000002,1.6896815645982974,0.5614393775361948,0.5006838492609024,0.8178637391343362,,-0.03987859174650544,-0.11159198904938746,0.0651689506,-0.08471519562608845,,-8.773804e-05,-1.347065e-05,1.5258789e-05,1.0,9.620562e-05,7.6286495e-05,-9.621307e-05,1.0,9.894371e-06,-7.6286495e-05,-9.983778e-06,1.0,214,0.656,1,1,0.351,False,-0.25695872741613357,0.9916753068249358
0.6707216690010682,17:05:01.857590,17:04:44.299969,0,,0.12641245,0.02268134,0.024713084,-0.6493054,-0.6280981,-0.42883027,-0.5817048,0.0469265,0.8120452,-0.4899206,0.77671796,-0.39583722,,0.06621082,-0.009009335,0.024502575,-0.4361102,-0.41656905,0.7976704,-0.0023308694,0.88692546,0.46190658,-0.8998903,0.1995829,-0.3877683,,0.10883115,1.3552792,0.45263022,0.9963543,0.028902695,-0.08026709,-0.02713754,-0.78461856,-0.6193845,-0.08088093,0.6193047,-0.78097373,,-0.09564669,0.27848506,-0.061743397,0.68467325,0.5439133,0.48516068,-0.72750366,0.5504453,0.409571,-0.044283323,-0.63337845,0.77257407,,-0.019550966,0.43128031,-0.33591324,0.536195,0.34989926,-0.7681572,-0.6018405,0.79656065,-0.057264157,0.59184706,0.49301288,0.6376954,,1.262550983942594,0.2975646203767446,0.19133110771000003,0.17781707207487665,0.1982595611596541,0.6621443947942032,-0.3962727044417613,,-0.9070195306119202,-0.32395319860796973,0.19356720796000002,1.6896815645982974,0.5614393775361948,0.5006838492609024,0.8178637391343362,,-0.03987859174650544,-0.11159198904938746,0.0651689506,-0.08471519562608845,,-8.773804e-05,-1.347065e-05,1.5258789e-05,1.0,9.620562e-05,7.6286495e-05,-9.621307e-05,1.0,9.894371e-06,-7.6286495e-05,-9.983778e-06,1.0,222,0.681,0,1,0.354,False,-0.2568991496976123,0.9911925048171413
0.7013576099998318,17:05:01.891712,17:04:44.299969,0,,0.12640397,0.022437245,0.024792358,-0.66754043,-0.60680765,-0.4314791,-0.5656976,0.036539346,0.8238028,-0.484124,0.79400843,-0.3676611,,0.066214785,-0.009007487,0.024503589,-0.43609118,-0.41676816,0.79757684,-0.0023195744,0.88681006,0.46212816,-0.8998996,0.19967997,-0.38769686,,0.10883115,1.3552792,0.45263022,0.9963543,0.028902695,-0.08026709,-0.02713754,-0.78461856,-0.6193845,-0.08088093,0.6193047,-0.78097373,,-0.09565175,0.27834398,-0.061957903,0.7025343,0.52070934,0.4850849,-0.7104942,0.5520352,0.43641162,-0.040540315,-0.6512441,0.75778466,,-0.019555092,0.43128183,-0.3359124,0.5361767,0.350091,-0.7680826,-0.6018417,0.79657507,-0.057050757,0.5918625,0.4928534,0.6378043,,1.2624737566138517,0.2964371013771078,0.19114573824000003,0.20381862506695766,0.20372502115027172,0.6926461794265069,-0.3961093603756273,,-0.9070426988105429,-0.32394547587509553,0.19356850425000002,1.6896815645982974,0.5614393775361948,0.500928885481324,0.8167203306713963,,-0.03987859174650544,-0.11159198904938746,0.0651689506,-0.08471519562608845,,-8.773804e-05,-1.347065e-05,1.5258789e-05,1.0,9.620562e-05,7.6286495e-05,-9.621307e-05,1.0,9.894371e-06,-7.6286495e-05,-9.983778e-06,1.0,235,0.722,0,1,0.354,False,-0.25636295023092304,0.9908545434116851
0.7354912500013597,17:05:01.924280,17:04:44.299969,0,,0.12633586,0.022064403,0.02493979,-0.687531,-0.5777169,-0.43993673,-0.5503841,0.019381106,0.8346865,-0.47368616,0.81600714,-0.33129126,,0.066217035,-0.009007234,0.024505079,-0.436078,-0.41670322,0.797618,-0.002314806,0.88684833,0.46205473,-0.8999059,0.19964555,-0.38769972,,0.10883115,1.3552792,0.45263022,0.9963543,0.028902695,-0.08026709,-0.02713754,-0.78461856,-0.6193845,-0.08088093,0.6193047,-0.78097373,,-0.09560743,0.27814758,-0.06231124,0.7216386,0.48911175,0.4899055,-0.6910548,0.55087835,0.467949,-0.040998977,-0.67624164,0.7355381,,-0.019557515,0.43128285,-0.33591312,0.5361641,0.35002875,-0.76811975,-0.60184455,0.7965688,-0.05710759,0.5918709,0.49290773,0.6377545,,1.2625046475453485,0.29502384126112474,0.19084888783,0.2308686277764613,0.20495474964816068,0.7322377521430987,-0.3954559841110902,,-0.9070581442762914,-0.32394547587509553,0.19356850425000002,1.6896815645982974,0.5614393775361948,0.5008472067411834,0.8165569866052621,,-0.03987859174650544,-0.11159198904938746,0.0651689506,-0.08471519562608845,,-8.773804e-05,-1.347065e-05,1.5258789e-05,1.0,9.620562e-05,7.6286495e-05,-9.621307e-05,1.0,9.894371e-06,-7.6286495e-05,-9.983778e-06,1.0,243,0.746,0,1,0.354,False,-0.25636295023092304,0.9909511038132439
0.7680510159989353,17:05:01.957145,17:04:44.299969,0,,0.12632433,0.02180098,0.02514489,-0.7015811,-0.561223,-0.43910444,-0.5352605,0.008268774,0.84464645,-0.4704043,0.82762337,-0.3062016,,0.06621829,-0.0090085305,0.024505854,-0.43607062,-0.4166999,0.79762363,-0.0023165047,0.88685155,0.46204844,-0.8999095,0.19963804,-0.3876953,,0.10883115,1.3552792,0.45263022,0.9963543,0.028902695,-0.08026709,-0.02713754,-0.78461856,-0.6193845,-0.08088093,0.6193047,-0.78097373,,-0.09562308,0.2780698,-0.06263572,0.73558414,0.47125712,0.48665458,-0.67650485,0.548608,0.49129468,-0.03545649,-0.69061273,0.72235507,,-0.01955879,0.43128243,-0.33591458,0.5361573,0.35002616,-0.76812565,-0.60184914,0.79656523,-0.05710934,0.59187245,0.49291536,0.63774717,,1.2626050430727136,0.2940430541860982,0.19055463000000003,0.25141824223794473,0.21164993813666727,0.7569177299738414,-0.3946392637804187,,-0.9070658670091656,-0.32395319860796973,0.19356850425000002,1.6896815645982974,0.5614393775361948,0.5008472067411834,0.8165569866052621,,-0.03987859174650544,-0.11159198904938746,0.0651689506,-0.08471519562608845,,-8.773804e-05,-1.347065e-05,1.5258789e-05,1.0,9.620562e-05,7.6286495e-05,-9.621307e-05,1.0,9.894371e-06,-7.6286495e-05,-9.983778e-06,1.0,260,0.8,0,1,0.354,False,-0.25540970673458663,0.9898406591953166
0.8009293169998273,17:05:02.008037,17:04:44.299969,0,,0.12631446,0.021397695,0.025504991,-0.7077829,-0.562116,-0.4278655,-0.51467055,-0.0045658946,0.85737574,-0.4838984,0.8270458,-0.2860729,,0.066219285,-0.009007964,0.024506569,-0.4360617,-0.41693735,0.7975045,-0.0021325648,0.8866743,0.46238953,-0.89991426,0.19992962,-0.3875339,,0.10883115,1.3552792,0.45263022,0.9963543,0.028902695,-0.08026709,-0.02713754,-0.78461856,-0.6193845,-0.08088093,0.6193047,-0.78097373,,-0.09565964,0.277979,-0.06316752,0.7436042,0.4719334,0.4736367,-0.66849875,0.5382609,0.5132101,-0.012739089,-0.6982507,0.7157399,,-0.019559875,0.43128315,-0.33591458,0.53614056,0.35023642,-0.7680415,-0.60172826,0.7966825,-0.056746576,0.59201044,0.49257642,0.6378809,,1.2627981113945692,0.2919270253785607,0.19009315076000002,0.26295118912959353,0.23651778109397742,0.7702096336988637,-0.39414923158201587,,-0.9070735897420398,-0.32394547587509553,0.19356850425000002,1.6898912545417817,0.5614393775361948,0.5013372791820268,0.8149235459439194,,-0.03987859174650544,-0.11159198904938746,0.0651689506,-0.08471519562608845,,-8.773804e-05,-1.347065e-05,1.5258789e-05,1.0,9.620562e-05,7.6286495e-05,-9.621307e-05,1.0,9.894371e-06,-7.6286495e-05,-9.983778e-06,1.0,268,0.824,0,1,0.354,False,-0.2561246393568388,0.9893095769867424
0.851822404001723,17:05:02.029356,17:04:44.299969,0,,0.12631324,0.021159992,0.025828525,-0.7002826,-0.57611,-0.4215467,-0.5008508,-0.024270147,0.86519325,-0.5086776,0.8170118,-0.27154914,,0.06622267,-0.009007592,0.024508774,-0.43604192,-0.41687247,0.7975492,-0.0021253228,0.8867128,0.46231562,-0.8999239,0.19989395,-0.38753006,,0.10883115,1.3552792,0.45263022,0.9963543,0.028902695,-0.08026709,-0.02713754,-0.78461856,-0.6193845,-0.08088093,0.6193047,-0.78097373,,-0.095697455,0.27799442,-0.063566916,0.73904234,0.48648244,0.46599492,-0.6734732,0.5173059,0.52804214,0.015821304,-0.7040805,0.70994383,,-0.019563511,0.43128467,-0.33591565,0.5361217,0.3501744,-0.7680829,-0.60173255,0.79667544,-0.0567993,0.59202313,0.49263185,0.6378263,,1.2631224661752867,0.29015079681748907,0.18976130052,0.2558217310511197,0.2668510840419052,0.7768394952922342,-0.39414923158201576,,-0.9070967579406625,-0.32394547587509553,0.19356850425000002,1.6898912545417817,0.5614393775361948,0.5012556004418862,0.8150868900100536,,-0.03987859174650544,-0.11159198904938746,0.0651689506,-0.08471519562608845,,-8.773804e-05,-1.347065e-05,1.5258789e-05,1.0,9.620562e-05,7.6286495e-05,-9.621307e-05,1.0,9.894371e-06,-7.6286495e-05,-9.983778e-06,1.0,281,0.865,0,1,0.354,False,-0.25582675076423333,0.9886819343766093
0.8731182279989298,17:05:02.077962,17:04:44.522616,0,,0.12621862,0.020827636,0.026330814,-0.6847354,-0.6002291,-0.4133552,-0.4807542,-0.054260373,0.8751749,-0.5477343,0.79798555,-0.25140864,,0.06622391,-0.009008858,0.024509609,-0.43603462,-0.41680405,0.79758894,-0.0021270812,0.8867538,0.46223694,-0.89992744,0.19985479,-0.38754204,,0.10883115,1.3552792,0.45263022,0.9963543,0.028902695,-0.08026709,-0.02713754,-0.78461856,-0.6193845,-0.08088093,0.6193047,-0.78097373,,-0.09566317,0.27805164,-0.06417293,0.7281126,0.5118243,0.45594734,-0.68281406,0.48321575,0.54796666,0.06014172,-0.7103087,0.7013163,,-0.019564785,0.43128425,-0.33591712,0.53611493,0.35010907,-0.7681174,-0.60173714,0.7966672,-0.056866124,0.5920246,0.49269158,0.6377788,,1.2640569168530678,0.2872702174554033,0.18928685838,0.2403046752332649,0.3141273129607476,0.7833755651708627,-0.39447591971428453,,-0.9071044806735367,-0.32395319860796973,0.19356850425000002,1.6898912545417817,0.5614393775361948,0.5011739217017456,0.814923545943919,,-0.03987859174650544,-0.11159198904938746,0.0651689506,-0.08471519562608845,,-8.773804e-05,-1.347065e-05,1.5258789e-05,1.0,9.620562e-05,7.6286495e-05,-9.621307e-05,1.0,9.894371e-06,-7.6286495e-05,-9.983778e-06,1.0,302,0.931,0,1,0.354,False,-0.2555288621716292,0.9887784947781684
0.9217078750007204,17:05:02.132304,17:04:44.522616,0,,0.12582733,0.020467266,0.026930809,-0.64462405,-0.6515776,-0.39988306,-0.4613872,-0.08549023,0.88307023,-0.609575,0.75374943,-0.24552047,,0.06622379,-0.009007428,0.02450955,-0.4360354,-0.41674232,0.79762083,-0.0021229982,0.8867886,0.46217027,-0.89992714,0.19982928,-0.38755602,,0.10883115,1.3552792,0.45263022,0.9963543,0.028902695,-0.08026709,-0.02713754,-0.78461856,-0.6193845,-0.08088093,0.6193047,-0.78097373,,-0.09534479,0.27816224,-0.06490052,0.69513714,0.56685996,0.44210193,-0.7080967,0.43381447,0.55713916,0.12402967,-0.7003391,0.7029522,,-0.019564722,0.43128517,-0.335916,0.53611547,0.35004917,-0.76814437,-0.60173404,0.7966654,-0.056925327,0.59202737,0.49273714,0.6377411,,1.2661497774619825,0.28256707313500057,0.18882278656,0.19459226755363862,0.3827188358429987,0.7626473145158414,-0.39627270444176144,,-0.9071044806735367,-0.32394547587509553,0.19356850425000002,1.6898912545417817,0.5614393775361948,0.5010922429616051,0.8141068256132478,,-0.03987859174650544,-0.11159198904938746,0.0651689506,-0.08471519562608845,,-8.773804e-05,-1.347065e-05,1.5258789e-05,1.0,9.620562e-05,7.6286495e-05,-9.621307e-05,1.0,9.894371e-06,-7.6286495e-05,-9.983778e-06,1.0,310,0.955,0,1,0.354,False,-0.2561246393568388,0.9883439729711534
0.9760621409986925,17:05:02.158887,17:04:44.522616,0,,0.12550479,0.02029404,0.027435824,-0.61004823,-0.6863667,-0.3959066,-0.44703364,-0.11440638,0.8871708,-0.6542187,0.71820056,-0.23703551,,0.06622492,-0.009007279,0.024510264,-0.43602875,-0.41674238,0.79762435,-0.0021205842,0.88678885,0.4621698,-0.8999303,0.19982785,-0.38754928,,0.10883115,1.3552792,0.45263022,0.9963543,0.028902695,-0.08026709,-0.02713754,-0.78461856,-0.6193845,-0.08088093,0.6193047,-0.78097373,,-0.095080815,0.27835667,-0.06543117,0.665753,0.6045683,0.43734437,-0.726333,0.3908123,0.5654256,0.17091879,-0.69409144,0.6993024,,-0.019565934,0.43128568,-0.33591637,0.53610915,0.35004938,-0.76814866,-0.6017355,0.79666454,-0.05692121,0.5920316,0.49273828,0.6377363,,1.2678642241600604,0.2795706527798015,0.18849612148000003,0.15538024812203255,0.432454521757619,0.7494535755174325,-0.3938225434497472,,-0.9071122034064109,-0.32394547587509553,0.19356850425000002,1.6898912545417817,0.5614393775361948,0.5010922429616051,0.8141068256132478,,-0.03987859174650544,-0.11159198904938746,0.0651689506,-0.08471519562608845,,-8.773804e-05,-1.347065e-05,1.5258789e-05,1.0,9.620562e-05,7.6286495e-05,-9.621307e-05,1.0,9.894371e-06,-7.6286495e-05,-9.983778e-06,1.0,327,1.008,0,1,0.354,False,-0.25576717304571295,0.9882474125695941
1.0026724730014394,17:05:02.211513,17:04:44.649768,0,,0.12482459,0.020042896,0.028335258,-0.53908944,-0.7438633,-0.3950317,-0.42130536,-0.1679644,0.8912293,-0.7293041,0.6468813,-0.22284573,,0.0662273,-0.009008426,0.024511874,-0.43601483,-0.41686943,0.7975656,-0.0021198988,0.88671684,0.46230793,-0.89993703,0.1998823,-0.38750556,,0.10883115,1.3552792,0.45263022,0.9963543,0.028902695,-0.08026709,-0.02713754,-0.78461856,-0.6193845,-0.08088093,0.6193047,-0.78097373,,-0.09450431,0.278753,-0.066350564,0.60363346,0.66808707,0.43507048,-0.7563911,0.30741894,0.57737863,0.25199026,-0.6776085,0.6909035,,-0.019568421,0.43128577,-0.3359182,0.5360961,0.35017252,-0.7681017,-0.60174143,0.7966695,-0.056788705,0.5920373,0.49264282,0.63780475,,1.27080658538514,0.2744118672198195,0.1879879758,0.07423023999352162,0.5178523341110194,0.7191865384549201,-0.39284247905294145,,-0.9071276488721594,-0.32395319860796973,0.19356850425000002,1.6898912545417817,0.5614393775361948,0.5012556004418862,0.8137801374809791,,-0.03987859174650544,-0.11159198904938746,0.0651689506,-0.08471519562608845,,-8.773804e-05,-1.347065e-05,1.5258789e-05,1.0,9.620562e-05,7.6286495e-05,-9.621307e-05,1.0,9.894371e-06,-7.6286495e-05,-9.983778e-06,1.0,336,1.037,0,1,0.354,False,-0.25683957197909146,0.9881508521680356
1.0552841319986328,17:05:02.243499,17:04:44.649768,0,,0.124372534,0.019758955,0.028851494,-0.5085486,-0.7692766,-0.38677093,-0.40482998,-0.18282543,0.89592826,-0.7599284,0.61219954,-0.21845058,,0.06622492,-0.009007279,0.024510264,-0.43602875,-0.41687268,0.79755634,-0.0021205842,0.8867134,0.46231464,-0.8999303,0.19989118,-0.38751665,,0.10883115,1.3552792,0.45263022,0.9963543,0.028902695,-0.08026709,-0.02713754,-0.78461856,-0.6193845,-0.08088093,0.6193047,-0.78097373,,-0.0941151,0.27887425,-0.06697128,0.57683396,0.6966809,0.42649543,-0.76405346,0.2754822,0.5833797,0.2889376,-0.6623785,0.6912089,,-0.019565934,0.43128568,-0.33591637,0.53610915,0.35017487,-0.7680915,-0.6017355,0.79667383,-0.05679107,0.5920316,0.4926341,0.6378168,,1.2725210320832179,0.2711683194126452,0.18761853315000002,0.04005077920554415,0.5578868285422933,0.6963425414887361,-0.3983961773015069,,-0.9071122034064109,-0.32394547587509553,0.19356850425000002,1.6898912545417817,0.5614393775361948,0.5012556004418862,0.8137801374809791,,-0.03987859174650544,-0.11159198904938746,0.0651689506,-0.08471519562608845,,-8.773804e-05,-1.347065e-05,1.5258789e-05,1.0,9.620562e-05,7.6286495e-05,-9.621307e-05,1.0,9.894371e-06,-7.6286495e-05,-9.983778e-06,1.0,349,1.078,0,1,0.354,False,-0.25725661600873906,0.9872335283532256
1.0872105359994748,17:05:02.281049,17:04:44.649768,0,,0.12375178,0.019343793,0.02973546,-0.45874512,-0.8084015,-0.36883575,-0.37836522,-0.19786102,0.90426254,-0.8039855,0.5543807,-0.21510324,,0.066225626,-0.009008575,0.024510026,-0.43614435,-0.41692957,0.79746336,-0.0021195114,0.8866652,0.46240696,-0.8998743,0.19998598,-0.38759783,,0.10883115,1.3552792,0.45263022,0.9963543,0.028902695,-0.08026709,-0.02713754,-0.78461856,-0.6193845,-0.08088093,0.6193047,-0.78097373,,-0.09359955,0.27912986,-0.06797527,0.5325053,0.74133325,0.40848878,-0.77320486,0.22969341,0.5910966,0.34437236,-0.6306076,0.69551545,,-0.019566542,0.43128452,-0.3359171,0.5362174,0.35022265,-0.76799417,-0.60168093,0.7967161,-0.056776155,0.591989,0.49253178,0.63793534,,1.2746833972880007,0.2667818071400857,0.18697946218000003,-0.017404265309215523,0.618280161438618,0.6488927603380104,-0.39937624169831276,,-0.9071199261392852,-0.32395319860796973,0.19356850425000002,1.6898912545417817,0.5613027410364293,0.5013670183455827,0.8134534493487107,,-0.03987859174650544,-0.11159198904938746,0.0651689506,-0.08471519562608845,,-8.773804e-05,-1.347065e-05,1.5258789e-05,1.0,9.620562e-05,7.6286495e-05,-9.621307e-05,1.0,9.894371e-06,-7.6286495e-05,-9.983778e-06,1.0,358,1.107,0,1,0.354,False,-0.25767366003838577,0.9866058857430928
1.1248300929983088,17:05:02.313937,17:04:44.649768,0,,0.12328134,0.018886909,0.030399933,-0.431525,-0.8291152,-0.35546342,-0.35827368,-0.20411412,0.9110309,-0.8279047,0.5204858,-0.20896971,,0.06622617,-0.009008575,0.024511099,-0.43602136,-0.41693446,0.79752797,-0.002122283,0.8866788,0.46238083,-0.8999338,0.19991532,-0.38749593,,0.10883115,1.3552792,0.45263022,0.9963543,0.028902695,-0.08026709,-0.02713754,-0.78461856,-0.6193845,-0.08088093,0.6193047,-0.78097373,,-0.093211286,0.279209,-0.068820596,0.50837994,0.7653544,0.39469296,-0.77370864,0.20474371,0.59954566,0.37805396,-0.6101743,0.6962489,,-0.019567208,0.43128526,-0.33591783,0.53610235,0.35023502,-0.7680688,-0.60174,0.7966749,-0.05672775,0.5920331,0.49258962,0.63784975,,1.2761429938012292,0.2633220228124331,0.18642983522,-0.04759961717098703,0.654898743375756,0.621319766871305,-0.39872286543377566,,-0.9071199261392852,-0.32395319860796973,0.19356850425000002,1.6898912545417817,0.5614393775361948,0.5013372791820268,0.8129634171503077,,-0.03987859174650544,-0.11159198904938746,0.0651689506,-0.08471519562608845,,-8.773804e-05,-1.347065e-05,1.5258789e-05,1.0,9.620562e-05,7.6286495e-05,-9.621307e-05,1.0,9.894371e-06,-7.6286495e-05,-9.983778e-06,1.0,367,1.135,0,1,0.354,False,-0.25773323775690704,0.9855920015267241
1.157705805999285,17:05:02.342829,17:04:44.649768,0,,0.1228214,0.018360242,0.031015724,-0.41264006,-0.84522724,-0.33958662,-0.3397753,-0.2030751,0.9183209,-0.8451515,0.49431923,-0.20339036,,0.06622802,-0.009006415,0.024510741,-0.436021,-0.4173135,0.7973299,-0.0024748147,0.8865374,0.4626503,-0.8999331,0.199752,-0.3875818,,0.10883115,1.3552792,0.45263022,0.9963543,0.028902695,-0.08026709,-0.02713754,-0.78461856,-0.6193845,-0.08088093,0.6193047,-0.78097373,,-0.09282984,0.2792028,-0.06967062,0.49180737,0.78414357,0.37847632,-0.7709,0.19007397,0.6079351,0.4047699,-0.5907544,0.6979761,,-0.019569099,0.43128625,-0.33591592,0.53611803,0.35063633,-0.7678747,-0.6019798,0.796504,-0.0565834,0.5917751,0.49258044,0.63809615,,1.2775948675815834,0.2596923383615476,0.18585168988000003,-0.06877830146292399,0.6860518653222765,0.5951813761672557,-0.39921289763217827,,-0.9071276488721594,-0.32395319860796973,0.19356980054000003,1.6894718746548125,0.5614393775361948,0.5014189579221673,0.8118200086873677,,-0.03987859174650544,-0.11159198904938746,0.0651689506,-0.08471519562608845,,-8.773804e-05,-1.347065e-05,1.5258789e-05,1.0,9.620562e-05,7.6286495e-05,-9.621307e-05,1.0,9.894371e-06,-7.6286495e-05,-9.983778e-06,1.0,380,1.176,0,1,0.354,False,-0.25826943722359585,0.9864610451407545
1.1865998440007388,17:05:02.377631,17:04:44.797596,0,,0.12206648,0.017585814,0.031834513,-0.38565192,-0.8655292,-0.3195808,-0.3135892,-0.20279294,0.92765117,-0.86771804,0.45796755,-0.19321305,,0.066228285,-0.009016041,0.024510384,-0.43610248,-0.41591182,0.7980175,-0.0005132258,0.88690233,0.4619565,-0.8998969,0.20105076,-0.38699389,,0.10883115,1.3552792,0.45263022,0.9963543,0.028902695,-0.08026709,-0.02713754,-0.78461856,-0.6193845,-0.08088093,0.6193047,-0.78097373,,-0.09218169,0.27914363,-0.07086077,0.46789995,0.8081521,0.35771483,-0.76578766,0.16868447,0.6205762,0.44117898,-0.56430113,0.69780034,,-0.019568881,0.4312794,-0.3359227,0.536105,0.3490796,-0.7685928,-0.6006076,0.79753023,-0.056710344,0.5931796,0.49202538,0.6372198,,1.2798730737794795,0.25409335702773483,0.18508558249,-0.10065117287257168,0.7293656357479211,0.5586367195933818,-0.40002961796284986,,-0.9071353716050335,-0.32394547587509553,0.19356980054000003,1.6917784640331426,0.5613027410364293,0.5018570907864259,0.8118200086873679,,-0.03987859174650544,-0.11159198904938746,0.0651689506,-0.08471519562608845,,-8.773804e-05,-1.347065e-05,1.5258789e-05,1.0,9.620562e-05,7.6286495e-05,-9.621307e-05,1.0,9.894371e-06,-7.6286495e-05,-9.983778e-06,1.0,389,1.205,0,1,0.354,False,-0.25922268071993226,0.9861230837352981
1.221388844998728,17:05:02.412617,17:04:44.797596,0,,0.12137083,0.016893491,0.032328323,-0.3736578,-0.87263745,-0.31445795,-0.30294237,-0.20561391,0.9305637,-0.8767017,0.4429751,-0.1875296,,0.06622872,-0.009029705,0.024499536,-0.43783477,-0.4146983,0.7977004,0.0023975074,0.8867233,0.46229428,-0.8990523,0.20432097,-0.3872441,,0.10883115,1.3552792,0.45263022,0.9963543,0.028902695,-0.08026709,-0.02713754,-0.78461856,-0.6193845,-0.08088093,0.6193047,-0.78097373,,-0.09155659,0.27894366,-0.07174189,0.45714417,0.81673396,0.35208645,-0.76364005,0.157505,0.62613577,0.45593098,-0.5551017,0.69569325,,-0.019567441,0.43126222,-0.33592528,0.5375939,0.3475081,-0.7682649,-0.5978143,0.79963225,-0.056624547,0.5946519,0.48972076,0.6376227,,1.282019993518514,0.24925120351559604,0.18451132602,-0.11721667840784912,0.7493145647136754,0.5434315292755316,-0.4005196501612527,,-0.9071971534680274,-0.3239377531422213,0.19356980054000003,1.695133503128895,0.5592531935399478,0.5040184317827157,0.8118200086873678,,-0.03987859174650544,-0.11159198904938746,0.0651689506,-0.08471519562608845,,-8.773804e-05,-1.347065e-05,1.5258789e-05,1.0,9.620562e-05,7.6286495e-05,-9.621307e-05,1.0,9.894371e-06,-7.6286495e-05,-9.983778e-06,1.0,402,1.246,0,1,0.354,False,-0.25868648125324345,0.9852540401212677
1.2563983459986048,17:05:02.446974,17:04:44.797596,0,,0.120732754,0.0162251,0.032697335,-0.37234265,-0.8758385,-0.30703068,-0.29071096,-0.20410655,0.9347874,-0.8813899,0.43731847,-0.17861822,,0.06623435,-0.009029005,0.02450329,-0.4378018,-0.41463375,0.7977521,0.002409488,0.88676226,0.46221942,-0.89906836,0.20428261,-0.38722718,,0.10883115,1.3552792,0.45263022,0.9963543,0.028902695,-0.08026709,-0.02713754,-0.78461856,-0.6193845,-0.08088093,0.6193047,-0.78097373,,-0.09097511,0.27868196,-0.07250574,0.45658845,0.82054263,0.34385577,-0.7570596,0.15532252,0.6346146,0.4673198,-0.550077,0.6921181,,-0.019573499,0.43126473,-0.33592707,0.5375625,0.34744668,-0.7683146,-0.59782153,0.79962367,-0.05666928,0.59467304,0.48977828,0.6375588,,1.2842518633191649,0.2444476636678284,0.18404336533,-0.11868450801224079,0.7669406731834172,0.5373898511930306,-0.40019296202898436,,-0.9072357671323985,-0.3239377531422213,0.19356980054000003,1.695133503128895,0.5592531935399478,0.5039367530425751,0.8110032883566966,,-0.03987859174650544,-0.11159198904938746,0.0651689506,-0.08471519562608845,,-8.773804e-05,-1.347065e-05,1.5258789e-05,1.0,9.620562e-05,7.6286495e-05,-9.621307e-05,1.0,9.894371e-06,-7.6286495e-05,-9.983778e-06,1.0,411,1.275,0,1,0.354,False,-0.2580311263495121,0.9828883102830743
1.2907414420005807,17:05:02.474265,17:04:44.797596,0,,0.119956814,0.01554817,0.033147246,-0.36415055,-0.88029695,-0.30409157,-0.267619,-0.21383633,0.93949664,-0.892062,0.423499,-0.1577155,,0.06624167,-0.009028215,0.024508834,-0.43763945,-0.41477,0.79777026,0.0024206936,0.8867022,0.46233466,-0.89914733,0.20426702,-0.387052,,0.10883115,1.3552792,0.45263022,0.9963543,0.028902695,-0.08026709,-0.02713754,-0.78461856,-0.6193845,-0.08088093,0.6193047,-0.78097373,,-0.09026525,0.27847067,-0.073350824,0.4500542,0.82622015,0.33883846,-0.7460483,0.1393426,0.65114945,0.49077818,-0.5458424,0.67911184,,-0.019581437,0.43126848,-0.33592993,0.53740996,0.34758642,-0.7683581,-0.59788966,0.7995871,-0.056466207,0.59474236,0.48973888,0.6375244,,1.2869779880237662,0.2388641277997641,0.18361040447000002,-0.12770117558207533,0.7986403411289994,0.5345743022550995,-0.39888620949991005,,-0.9072821035296439,-0.3239377531422213,0.19356980054000003,1.695133503128895,0.5593898300397131,0.5040703713593004,0.8085531273646823,,-0.03987859174650544,-0.11159198904938746,0.0651689506,-0.08471519562608845,,-8.773804e-05,-1.347065e-05,1.5258789e-05,1.0,9.620562e-05,7.6286495e-05,-9.621307e-05,1.0,9.894371e-06,-7.6286495e-05,-9.983778e-06,1.0,424,1.316,0,1,0.354,False,-0.25880563669028556,0.9820192666690444
1.3180446309997933,17:05:02.519297,17:04:44.942465,0,,0.118448436,0.014426708,0.033670083,-0.34894553,-0.8823435,-0.315764,-0.24169329,-0.24081245,0.93999654,-0.90544,0.4043257,-0.129226,,0.0662428,-0.009028051,0.024509609,-0.43763292,-0.4148353,0.7977399,0.0024230778,0.8866646,0.4624066,-0.8991505,0.20429727,-0.38702857,,0.10883115,1.3552792,0.45263022,0.9963543,0.028902695,-0.08026709,-0.02713754,-0.78461856,-0.6193845,-0.08088093,0.6193047,-0.78097373,,-0.088844255,0.27799314,-0.07459943,0.43689165,0.829696,0.3474625,-0.7348483,0.10643535,0.66982794,0.5187713,-0.54797447,0.6562014,,-0.01958265,0.431269,-0.3359303,0.5374037,0.34764946,-0.768334,-0.5978911,0.7995909,-0.056396782,0.5947466,0.48968792,0.63755965,,1.291928259796144,0.22902536611800206,0.18305948122000001,-0.1505573794218885,0.8389481085598044,0.5365011639645345,-0.40149971455805833,,-0.9072898262625181,-0.3239377531422213,0.19356980054000003,1.695133503128895,0.5593898300397131,0.504152050099441,0.8083897832985479,,-0.03987859174650544,-0.11159198904938746,0.0651689506,-0.08471519562608845,,-8.773804e-05,-1.347065e-05,1.5258789e-05,1.0,9.620562e-05,7.6286495e-05,-9.621307e-05,1.0,9.894371e-06,-7.6286495e-05,-9.983778e-06,1.0,433,1.344,0,1,0.354,False,-0.2584481703791588,0.9841435955033404
1.3630706670010113,17:05:02.558021,17:04:44.942465,0,,0.117525555,0.013865262,0.03374067,-0.33942834,-0.8823655,-0.32591328,-0.24291313,-0.25250465,0.936608,-0.9087254,0.39707994,-0.12863088,,0.0662449,-0.009033013,0.024512649,-0.4373606,-0.41425684,0.79818976,0.0033073127,0.88683444,0.46207526,-0.8992802,0.20473331,-0.3864965,,0.10883115,1.3552792,0.45263022,0.9963543,0.028902695,-0.08026709,-0.02713754,-0.78461856,-0.6193845,-0.08088093,0.6193047,-0.78097373,,-0.08794601,0.2776434,-0.07509212,0.42774835,0.8302307,0.35741898,-0.73831105,0.092792,0.6680467,0.52146727,-0.54964226,0.65266013,,-0.019584857,0.43126756,-0.33593586,0.53710794,0.3470176,-0.7688263,-0.5974136,0.79995525,-0.056289762,0.59549314,0.48954096,0.63697535,,1.2946929981651163,0.2236503440375418,0.18288707465,-0.17026823410943376,0.8453700240487801,0.5300393413886944,-0.40002961796284997,,-0.9072975489953923,-0.3239377531422213,0.19356980054000003,1.6961819528463176,0.559663103039244,0.504337607992751,0.809533191761488,,-0.03987859174650544,-0.11159198904938746,0.0651689506,-0.08471519562608845,,-8.773804e-05,-1.347065e-05,1.5258789e-05,1.0,9.620562e-05,7.6286495e-05,-9.621307e-05,1.0,9.894371e-06,-7.6286495e-05,-9.983778e-06,1.0,446,1.385,1,2,0.385,False,-0.25791197091247,0.9842401559048992
1.4018054279986245,17:05:02.588630,17:04:44.942465,0,,0.11676667,0.013351366,0.03379157,-0.33671272,-0.8830157,-0.32696766,-0.24094033,-0.2548862,0.9364724,-0.91025954,0.3941019,-0.1269306,,0.06624619,-0.009037543,0.024516582,-0.43660876,-0.41306487,0.7992185,0.004533887,0.88734305,0.4610876,-0.8996401,0.20493847,-0.385549,,0.10883115,1.3552792,0.45263022,0.9963543,0.028902695,-0.08026709,-0.02713754,-0.78461856,-0.6193845,-0.08088093,0.6193047,-0.78097373,,-0.08720774,0.27731058,-0.07552431,0.42525133,0.8311393,0.35828587,-0.73785615,0.08911052,0.66904974,0.5241465,-0.5488777,0.65115565,,-0.019586379,0.43126714,-0.33594182,0.5363471,0.34578794,-0.7699107,-0.59692436,0.80031294,-0.056396287,0.5966683,0.48982644,0.63565475,,1.297017540760258,0.21910937710749778,0.1827509642,-0.17781707207487665,0.852201849037052,0.5243050887235923,-0.40068299422738707,,-0.9072821035296439,-0.32392230767647284,0.19357109683,1.6976497824507093,0.5604829220378368,0.5039958155311346,0.8098598798937565,,-0.03987859174650544,-0.11159198904938746,0.0651689506,-0.08471519562608845,,-8.773804e-05,-1.347065e-05,1.5258789e-05,1.0,9.620562e-05,7.6286495e-05,-9.621307e-05,1.0,9.894371e-06,-7.6286495e-05,-9.983778e-06,1.0,455,1.414,1,2,0.414,False,-0.2579715486309908,0.9842401559048992
1.4324157390001346,17:05:02.614767,17:04:44.942465,0,,0.11620584,0.013036355,0.033929303,-0.3259945,-0.88781613,-0.32482332,-0.23023066,-0.2586909,0.93812186,-0.9169087,0.38060695,-0.120070666,,0.06624633,-0.009037975,0.024516702,-0.43661228,-0.4134795,0.7990021,0.004352212,0.8871445,0.46147102,-0.89963925,0.20496136,-0.38553876,,0.10883115,1.3552792,0.45263022,0.9963543,0.028902695,-0.08026709,-0.02713754,-0.78461856,-0.6193845,-0.08088093,0.6193047,-0.78097373,,-0.08667129,0.2771775,-0.075881004,0.4155203,0.8372485,0.35546848,-0.7341452,0.07798029,0.6744997,0.53700435,-0.54123384,0.6470644,,-0.019586513,0.43126693,-0.3359422,0.53635883,0.34620583,-0.7697147,-0.59704715,0.80024195,-0.056102693,0.5965349,0.48964715,0.635918,,1.2986084237323483,0.21582721563595236,0.18267059422,-0.19480195749712312,0.8688715020084359,0.5106304257324882,-0.4005196501612529,,-0.9072821035296439,-0.32393003040934704,0.19357109683,1.6974400925072246,0.5604829220378368,0.5043225304916968,0.8098598798937564,,-0.03987859174650544,-0.11159198904938746,0.0651689506,-0.08471519562608845,,-8.773804e-05,-1.347065e-05,1.5258789e-05,1.0,9.620562e-05,7.6286495e-05,-9.621307e-05,1.0,9.894371e-06,-7.6286495e-05,-9.983778e-06,1.0,464,1.443,1,2,0.443,False,-0.2579715486309908,0.9840470351017814
1.4585449500009418,17:05:02.645394,17:04:44.942465,0,,0.1158249,0.012830898,0.034055665,-0.3155024,-0.89175886,-0.32438302,-0.2208314,-0.26345748,0.9390546,-0.9228715,0.36790797,-0.113806784,,0.06624758,-0.0090392865,0.024517536,-0.4366049,-0.41354144,0.79897404,0.004350543,0.8871101,0.46153727,-0.8996428,0.20498535,-0.38551763,,0.10883115,1.3552792,0.45263022,0.9963543,0.028902695,-0.08026709,-0.02713754,-0.78461856,-0.6193845,-0.08088093,0.6193047,-0.78097373,,-0.08631017,0.27711415,-0.07614345,0.40591422,0.842401,0.3543927,-0.73102057,0.06655117,0.67910224,0.5484911,-0.5347256,0.64282656,,-0.019587787,0.43126652,-0.33594367,0.536352,0.34626615,-0.76969236,-0.59705174,0.80024296,-0.05603907,0.59653646,0.48960283,0.63595074,,1.2995505971430037,0.21365712769829528,0.18261226117,-0.21115777308891603,0.8829450614842762,0.4990727029116162,-0.4003563060951185,,-0.9072898262625181,-0.3239377531422213,0.19357109683,1.6974400925072246,0.5604829220378368,0.5044042092318375,0.8096965358276221,,-0.03987859174650544,-0.11159198904938746,0.0651689506,-0.08471519562608845,,-8.773804e-05,-1.347065e-05,1.5258789e-05,1.0,9.620562e-05,7.6286495e-05,-9.621307e-05,1.0,9.894371e-06,-7.6286495e-05,-9.983778e-06,1.0,477,1.484,1,2,0.484,False,-0.25761408231986493,0.983902194499443
1.4891621460010356,17:05:02.694251,17:04:45.109320,0,,0.11550273,0.012454912,0.03422387,-0.31156826,-0.8939668,-0.32210028,-0.21393508,-0.2642762,0.94042003,-0.9258278,0.36191362,-0.10891074,,0.06624758,-0.0090392865,0.024517536,-0.4366049,-0.4141939,0.79863596,0.004350543,0.8867328,0.46226165,-0.8996428,0.20530018,-0.38535005,,0.10883115,1.3552792,0.45263022,0.9963543,0.028902695,-0.08026709,-0.02713754,-0.78461856,-0.6193845,-0.08088093,0.6193047,-0.78097373,,-0.08601549,0.27694064,-0.07653906,0.4024595,0.84520835,0.35163793,-0.7276615,0.06229192,0.68310213,0.5554594,-0.5307943,0.64009553,,-0.019587787,0.43126652,-0.33594367,0.536352,0.3468947,-0.76940924,-0.59705174,0.8002885,-0.055385422,0.59653646,0.48908323,0.6363504,,1.3002997022318035,0.21097733939093938,0.18240615106000002,-0.2176581613369363,0.8933294354664496,0.49272858947434295,-0.40068299422738707,,-0.9072898262625181,-0.3239377531422213,0.19357109683,1.6974400925072246,0.5604829220378368,0.505220996633243,0.8083897832985478,,-0.03987859174650544,-0.11159198904938746,0.0651689506,-0.08471519562608845,,-8.773804e-05,-1.347065e-05,1.5258789e-05,1.0,9.620562e-05,7.6286495e-05,-9.621307e-05,1.0,9.894371e-06,-7.6286495e-05,-9.983778e-06,1.0,486,1.512,1,2,0.512,False,-0.2584481703791588,0.9816330250628083
1.538012641001842,17:05:02.716748,17:04:45.109320,0,,0.11541755,0.012284383,0.034359932,-0.31095344,-0.89594334,-0.31716478,-0.20801422,-0.26146227,0.9425324,-0.9273824,0.3590585,-0.10506627,,0.066246994,-0.009039421,0.024517894,-0.4364886,-0.4143946,0.7985955,0.0043447614,0.8866334,0.46245256,-0.89969933,0.205325,-0.38520506,,0.10883115,1.3552792,0.45263022,0.9963543,0.028902695,-0.08026709,-0.02713754,-0.78461856,-0.6193845,-0.08088093,0.6193047,-0.78097373,,-0.085948706,0.27689615,-0.076759085,0.40213707,0.84753305,0.34637198,-0.7240305,0.06281275,0.68690205,0.56041557,-0.52701265,0.6388991,,-0.019587243,0.43126675,-0.33594406,0.5362433,0.34709555,-0.7693944,-0.59710985,0.8002617,-0.055145856,0.596576,0.48898458,0.6363892,,1.3005468296837785,0.2099424931857933,0.18226874432,-0.21786785128042083,0.9004345334542526,0.48873179076522133,-0.4023164348887298,,-0.9072821035296439,-0.3239377531422213,0.19357109683,1.6974400925072246,0.5606195585376021,0.5054362936901089,0.8077364070340107,,-0.03987859174650544,-0.11159198904938746,0.0651689506,-0.08471519562608845,,-8.773804e-05,-1.347065e-05,1.5258789e-05,1.0,9.620562e-05,7.6286495e-05,-9.621307e-05,1.0,9.894371e-06,-7.6286495e-05,-9.983778e-06,1.0,495,1.541,1,2,0.541,False,-0.2583885926606384,0.9825986290783977
1.5604938399992534,17:05:02.742001,17:04:45.109320,0,,0.115249306,0.01200141,0.034611925,-0.3095783,-0.8980241,-0.31259245,-0.19683543,-0.26109934,0.94503057,-0.93027806,0.35409033,-0.095932275,,0.06625029,-0.0090365745,0.02451998,-0.4364739,-0.41455525,0.7985201,0.0041784644,0.88658017,0.46255606,-0.89970726,0.20523024,-0.38523698,,0.10883115,1.3552792,0.45263022,0.9963543,0.028902695,-0.08026709,-0.02713754,-0.78461856,-0.6193845,-0.08088093,0.6193047,-0.78097373,,-0.0858139,0.2768399,-0.07714709,0.40131116,0.8501312,0.34091976,-0.717161,0.060109,0.6943105,0.56976265,-0.5231289,0.63380337,,-0.019590884,0.43126985,-0.33594325,0.53623724,0.3472683,-0.7693207,-0.5972306,0.8001754,-0.055089768,0.5964606,0.48900306,0.63648313,,1.301118311916471,0.2081508191589732,0.18203281954000003,-0.2187066110543589,0.9136882739315002,0.48609212812072466,-0.39937624169831265,,-0.9073052717282665,-0.32393003040934704,0.19357109683,1.6972304025637401,0.5606195585376021,0.5054362936901089,0.8077364070340107,,-0.03987859174650544,-0.11159198904938746,0.0651689506,-0.08471519562608845,,-8.773804e-05,-1.347065e-05,1.5258789e-05,1.0,9.620562e-05,7.6286495e-05,-9.621307e-05,1.0,9.894371e-06,-7.6286495e-05,-9.983778e-06,1.0,504,1.57,1,2,0.57,False,-0.25922268071993226,0.982212387472162
1.5857621030008886,17:05:02.769743,17:04:45.109320,0,,0.115123734,0.011770949,0.034747303,-0.31210914,-0.8986308,-0.3083026,-0.19186065,-0.25820807,0.94684637,-0.93047166,0.35467058,-0.09182271,,0.06625334,-0.009037737,0.024520516,-0.43645996,-0.41442162,0.7985971,0.0041791797,0.8866592,0.46240446,-0.899714,0.20515844,-0.3852594,,0.10883115,1.3552792,0.45263022,0.9963543,0.028902695,-0.08026709,-0.02713754,-0.78461856,-0.6193845,-0.08088093,0.6193047,-0.78097373,,-0.085708156,0.27675012,-0.077407785,0.4039533,0.8507349,0.33626157,-0.713269,0.0627594,0.69807494,0.5727731,-0.5218346,0.6321547,,-0.019593924,0.43126908,-0.33594432,0.5362241,0.34714034,-0.7693876,-0.59723663,0.8001621,-0.055218108,0.59646636,0.48911574,0.63639116,,1.3016357350190442,0.20671439084436746,0.18186559813000003,-0.2143031222411839,0.9194270069216488,0.48631330057390865,-0.4023164348887298,,-0.907320717194015,-0.3239377531422213,0.19357239312000002,1.6972304025637401,0.5606195585376021,0.5052729362098278,0.8077364070340108,,-0.03987859174650544,-0.11159198904938746,0.0651689506,-0.08471519562608845,,-8.773804e-05,-1.347065e-05,1.5258789e-05,1.0,9.620562e-05,7.6286495e-05,-9.621307e-05,1.0,9.894371e-06,-7.6286495e-05,-9.983778e-06,1.0,517,1.611,1,2,0.611,False,-0.2585077480976805,0.9823089478737208
1.6134889060012938,17:05:02.810650,17:04:45.109320,0,,0.11477536,0.011325568,0.035019144,-0.31465545,-0.9005589,-0.29997608,-0.18413034,-0.25211567,0.9500177,-0.93117565,0.354163,-0.08649051,,0.06625786,-0.009037156,0.024523497,-0.43643358,-0.4144222,0.7986113,0.004188776,0.8866602,0.46240246,-0.8997268,0.20515317,-0.38523245,,0.10883115,1.3552792,0.45263022,0.9963543,0.028902695,-0.08026709,-0.02713754,-0.78461856,-0.6193845,-0.08088093,0.6193047,-0.78097373,,-0.085399784,0.2765881,-0.07792959,0.40672293,0.8528344,0.3274903,-0.70753986,0.067300126,0.70346147,0.577896,-0.5178264,0.63078684,,-0.01959877,0.43127108,-0.33594573,0.536199,0.34714144,-0.76940465,-0.59724236,0.800159,-0.05520163,0.59648323,0.4891201,0.63637197,,1.3030026587377819,0.20372569322204256,0.18154152563,-0.21073839320194698,0.9292648349047605,0.4818033973338104,-0.4018264026903269,,-0.9073516081255119,-0.3239377531422213,0.19357239312000002,1.6972304025637401,0.5606195585376021,0.5052729362098278,0.8077364070340108,,-0.03987859174650544,-0.11159198904938746,0.0651689506,-0.08471519562608845,,-8.773804e-05,-1.347065e-05,1.5258789e-05,1.0,9.620562e-05,7.6286495e-05,-9.621307e-05,1.0,9.894371e-06,-7.6286495e-05,-9.983778e-06,1.0,526,1.639,1,2,0.639,False,-0.25767366003838577,0.9823572280745003
1.6544289310004388,17:05:02.845305,17:04:45.109320,0,,0.11437986,0.010831431,0.035292298,-0.32036358,-0.90155727,-0.2907947,-0.1792694,-0.2437273,0.9531313,-0.9301772,0.3574792,-0.08354023,,0.06625899,-0.009037051,0.024524212,-0.43642694,-0.4143571,0.7986486,0.00419116,0.88669825,0.46232954,-0.89972997,0.20512035,-0.3852425,,0.10883115,1.3552792,0.45263022,0.9963543,0.028902695,-0.08026709,-0.02713754,-0.78461856,-0.6193845,-0.08088093,0.6193047,-0.78097373,,-0.085045725,0.27639112,-0.0784873,0.41239652,0.8536568,0.31811804,-0.70284003,0.07596767,0.70727986,0.5796076,-0.5152658,0.631313,,-0.019599982,0.43127158,-0.33594608,0.53619266,0.3470789,-0.76943725,-0.5972438,0.8001537,-0.055262867,0.59648746,0.48917314,0.63632727,,1.3047093827029856,0.2004280862847487,0.18117856443000002,-0.20297986529301956,0.9356867503937363,0.47893543932415494,-0.40068299422738707,,-0.907359330858386,-0.3239377531422213,0.19357239312000002,1.6972304025637401,0.5606195585376021,0.5051912574696872,0.8078997511001451,,-0.03987859174650544,-0.11159198904938746,0.0651689506,-0.08471519562608845,,-8.773804e-05,-1.347065e-05,1.5258789e-05,1.0,9.620562e-05,7.6286495e-05,-9.621307e-05,1.0,9.894371e-06,-7.6286495e-05,-9.983778e-06,1.0,535,1.668,1,2,0.668,False,-0.25820985950507547,0.9823572280745003
1.689087198999914,17:05:02.875881,17:04:45.109320,0,,0.11418391,0.010512263,0.035506785,-0.32441443,-0.9028337,-0.28221723,-0.17377308,-0.2363924,0.95599234,-0.9298163,0.3591795,-0.08019903,,0.06626113,-0.009035338,0.024525642,-0.43641454,-0.41436076,0.79865354,0.0042000115,0.88669574,0.46233428,-0.8997359,0.20512378,-0.38522667,,0.10883115,1.3552792,0.45263022,0.9963543,0.028902695,-0.08026709,-0.02713754,-0.78461856,-0.6193845,-0.08088093,0.6193047,-0.78097373,,-0.08488021,0.27628464,-0.078871414,0.41650274,0.854903,0.30929977,-0.6981211,0.08282057,0.7111735,0.58236796,-0.5121344,0.6313208,,-0.019602342,0.4312735,-0.3359457,0.5361807,0.34708226,-0.7694441,-0.5972435,0.80015486,-0.055248767,0.59649855,0.4891688,0.6363202,,1.305651556113641,0.1984510666689472,0.18091801014000003,-0.1962697871015148,0.9419720293829464,0.47650561417875814,-0.4021530908225954,,-0.9073747763241345,-0.32393003040934704,0.19357239312000002,1.6972304025637401,0.5606195585376021,0.5051912574696872,0.8082264392324136,,-0.03987859174650544,-0.11159198904938746,0.0651689506,-0.08471519562608845,,-8.773804e-05,-1.347065e-05,1.5258789e-05,1.0,9.620562e-05,7.6286495e-05,-9.621307e-05,1.0,9.894371e-06,-7.6286495e-05,-9.983778e-06,1.0,548,1.709,1,2,0.709,False,-0.2588652144088064,0.981053662653455
1.7196535719995154,17:05:02.912637,17:04:45.326564,0,,0.114009835,0.010133505,0.035748273,-0.32747486,-0.90325963,-0.2772763,-0.16580129,-0.23396987,0.9580021,-0.930199,0.35969445,-0.07314235,,0.06625101,-0.009044174,0.024536788,-0.43638882,-0.4146447,0.7985202,0.004201561,0.88653445,0.4626437,-0.8997484,0.20524749,-0.38513166,,0.10888389,1.3552781,0.45264268,0.9963525,0.028851213,-0.08030773,-0.027202914,-0.78462046,-0.6193793,-0.08088093,0.6193047,-0.78097373,,-0.08478117,0.27614108,-0.07929622,0.41974333,0.8553074,0.30375114,-0.6919967,0.08500857,0.71687806,0.5873297,-0.5110996,0.6275517,,-0.019636294,0.4312658,-0.3359484,0.5361501,0.34741804,-0.7693138,-0.5972787,0.8001518,-0.054911125,0.59649074,0.48893538,0.6365069,,1.3063852157366922,0.19614969227242832,0.1806250486,-0.18997908879697906,0.9513999478667619,0.47861922764057274,-0.40264312302099836,,-0.9073670535912604,-0.3239377531422213,0.19357368941000003,1.6972304025637401,0.5606195585376021,0.5055996511703902,0.8067563426372052,,-0.03987859174650544,-0.11159198904938746,0.0651689506,-0.08471519562608845,,-3.6176294e-05,-3.33786e-06,1.9073486e-06,1.0,4.4964254e-05,3.5651028e-05,-4.496798e-05,1.0,4.61936e-06,-3.565848e-05,-4.6789646e-06,1.0,557,1.738,1,2,0.738,False,-0.2587460589717643,0.9810053824526754
1.7563218319992302,17:05:02.946762,17:04:45.326564,0,,0.11394419,0.00983949,0.035889506,-0.32995152,-0.9036628,-0.27299368,-0.15922707,-0.23176943,0.95965075,-0.9304724,0.36010623,-0.06741479,,0.06625089,-0.009042773,0.024536729,-0.43638965,-0.41464812,0.79851794,0.004205674,0.88653135,0.46264943,-0.89974797,0.2052536,-0.38512933,,0.10888389,1.3552781,0.45264268,0.9963525,0.028851213,-0.08030773,-0.027202914,-0.78462046,-0.6193793,-0.08088093,0.6193047,-0.78097373,,-0.08473699,0.27600232,-0.07959535,0.42237437,0.8557118,0.29892677,-0.6869069,0.08700428,0.7215187,0.59140414,-0.5100858,0.62454265,,-0.01963623,0.4312667,-0.3359473,0.5361507,0.34742087,-0.76931214,-0.59727556,0.80015457,-0.054905266,0.5964934,0.48892885,0.6365094,,1.3065242249284283,0.1944970274373443,0.18042930881000002,-0.18431746032289692,0.9589149553538611,0.4809858319118878,-0.40068299422738707,,-0.9073670535912604,-0.32393003040934704,0.19357368941000003,1.6972304025637401,0.5606195585376021,0.5055996511703902,0.8067563426372052,,-0.03987859174650544,-0.11159198904938746,0.0651689506,-0.08471519562608845,,-3.6176294e-05,-3.33786e-06,1.9073486e-06,1.0,4.4964254e-05,3.5651028e-05,-4.496798e-05,1.0,4.61936e-06,-3.565848e-05,-4.6789646e-06,1.0,575,1.795,1,2,0.795,False,-0.25725661600873906,0.9748737969536843
1.7905412440013606,17:05:02.997624,17:04:45.326564,0,,0.11376877,0.009363815,0.03606403,-0.32617795,-0.90591127,-0.2700606,-0.14960158,-0.2326164,0.96099365,-0.9333956,0.3538565,-0.059651375,,0.06625198,-0.009042788,0.024538934,-0.4361438,-0.41544098,0.7982401,0.004198909,0.88610554,0.46346444,-0.8998672,0.20548883,-0.38472515,,0.10888389,1.3552781,0.45264268,0.9963525,0.028851213,-0.08030773,-0.027202914,-0.78462046,-0.6193793,-0.08088093,0.6193047,-0.78097373,,-0.08459103,0.27574763,-0.08004407,0.41913435,0.8585856,0.29522386,-0.68138593,0.082566015,0.72725236,0.600033,-0.50597787,0.61963445,,-0.019637562,0.4312682,-0.3359488,0.53592074,0.34820008,-0.76912004,-0.5973946,0.8001256,-0.054025825,0.59658086,0.4884217,0.63681674,,1.3063929384695665,0.1916705072053781,0.18018819887,-0.1885112591925874,0.9721686958311089,0.4769576306850015,-0.40068299422738685,,-0.9073670535912604,-0.32393003040934704,0.19357368941000003,1.6972304025637401,0.560892831537133,0.506520317724965,0.7976090749336854,,-0.03987859174650544,-0.11159198904938746,0.0651689506,-0.08471519562608845,,-3.6176294e-05,-3.33786e-06,1.9073486e-06,1.0,4.4964254e-05,3.5651028e-05,-4.496798e-05,1.0,4.61936e-06,-3.565848e-05,-4.6789646e-06,1.0,588,1.836,1,2,0.836,False,-0.25731619372725945,0.9586516494917863
1.8414055229986843,17:05:03.042420,17:04:45.477445,0,,0.11366065,0.008997053,0.036147326,-0.3269362,-0.9067589,-0.26627252,-0.14749482,-0.22934514,0.962105,-0.93346566,0.3538208,-0.05876097,,0.0662548,-0.009044219,0.024544597,-0.43552837,-0.41598493,0.7982929,0.0041780174,0.88587594,0.46390337,-0.9001653,0.20537826,-0.38408622,,0.10888389,1.3552781,0.45264268,0.9963525,0.028851213,-0.08030773,-0.027202914,-0.78462046,-0.6193793,-0.08088093,0.6193047,-0.78097373,,-0.08450009,0.27551806,-0.08034765,0.4199404,0.8595017,0.29138777,-0.67974573,0.08514218,0.7284892,0.6013284,-0.50399166,0.61999726,,-0.019640956,0.43127102,-0.3359536,0.5353452,0.34876308,-0.7692658,-0.59769505,0.79995173,-0.05327096,0.5967966,0.4883047,0.6367043,,1.3063002656750757,0.18959309206221173,0.17999375537,-0.1868337396447112,0.9761311543243065,0.4747883350996328,-0.40084633829352123,,-0.9073670535912604,-0.3239377531422213,0.19357368941000003,1.6972304025637401,0.5615760140359602,0.5070250518283104,0.7807846361218547,,-0.03987859174650544,-0.11159198904938746,0.0651689506,-0.08471519562608845,,-3.6176294e-05,-3.33786e-06,1.9073486e-06,1.0,4.4964254e-05,3.5651028e-05,-4.496798e-05,1.0,4.61936e-06,-3.565848e-05,-4.6789646e-06,1.0,597,1.865,1,2,0.865,False,-0.2580907040680329,0.8879211553498796
1.8861629009988974,17:05:03.073201,17:04:45.477445,0,,0.11355079,0.008746892,0.03618437,-0.3268918,-0.90735185,-0.26429963,-0.14455071,-0.22836897,0.9627838,-0.9339416,0.3529309,-0.056506395,,0.066254824,-0.00904322,0.024544597,-0.43553263,-0.41607648,0.79824287,0.0040005744,0.88586265,0.46393028,-0.900164,0.20525014,-0.38415763,,0.10888389,1.3552781,0.45264268,0.9963525,0.028851213,-0.08030773,-0.027202914,-0.78462046,-0.6193793,-0.08088093,0.6193047,-0.78097373,,-0.08440007,0.27535093,-0.08054281,0.42000893,0.86020553,0.28920397,-0.6777427,0.085380785,0.7303252,0.6035373,-0.502749,0.61885875,,-0.019641027,0.43127167,-0.33595285,0.53535736,0.34886923,-0.7692092,-0.59781456,0.7998606,-0.053298485,0.5966659,0.4883782,0.63677037,,1.306338879339447,0.18798676362437303,0.17989782991000003,-0.18641435975774215,0.9806401588165661,0.4738069427022894,-0.40133637049192394,,-0.9073670535912604,-0.3239377531422213,0.19357368941000003,1.6970207126202554,0.5615760140359602,0.5068616943480292,0.7570997465323842,,-0.03987859174650544,-0.11159198904938746,0.0651689506,-0.08471519562608845,,-3.6176294e-05,-3.33786e-06,1.9073486e-06,1.0,4.4964254e-05,3.5651028e-05,-4.496798e-05,1.0,4.61936e-06,-3.565848e-05,-4.6789646e-06,1.0,606,1.893,1,2,0.893,False,-0.2585077480976805,0.8042515673990778
1.9169784149999032,17:05:03.099173,17:04:45.477445,0,,0.11339685,0.008560866,0.036219925,-0.32315126,-0.90849215,-0.2649816,-0.14161986,-0.23042668,0.96272904,-0.93569076,0.34863383,-0.054197878,,0.06625415,-0.009045545,0.024546504,-0.43516842,-0.4165607,0.7981889,0.0043405294,0.8855518,0.4645203,-0.9003386,0.20560905,-0.3835562,,0.10888389,1.3552781,0.45264268,0.9963525,0.028851213,-0.08030773,-0.027202914,-0.78462046,-0.6193793,-0.08088093,0.6193047,-0.78097373,,-0.08425471,0.27523518,-0.08070105,0.41653597,0.8617467,0.28963837,-0.6767227,0.081156194,0.7317513,0.6070784,-0.5008056,0.61696804,,-0.01964046,0.43127155,-0.33595586,0.53500044,0.34932274,-0.7692517,-0.59775096,0.7999639,-0.052455503,0.59704965,0.48788467,0.636789,,1.3064392748668119,0.1865966717070126,0.17984468202,-0.19291474800576242,0.9858323458076529,0.4696547411019659,-0.4011730264257898,,-0.9073516081255119,-0.3239377531422213,0.19357368941000003,1.6974400925072246,0.5619859235352566,0.507834300479189,0.7221441163796488,,-0.03987859174650544,-0.11159198904938746,0.0651689506,-0.08471519562608845,,-3.6176294e-05,-3.33786e-06,1.9073486e-06,1.0,4.4964254e-05,3.5651028e-05,-4.496798e-05,1.0,4.61936e-06,-3.565848e-05,-4.6789646e-06,1.0,619,1.934,1,2,0.934,False,-0.2587460589717643,0.755392004210266
1.9429364620009437,17:05:03.136024,17:04:45.477445,0,,0.11329016,0.008376837,0.036206365,-0.32259065,-0.9084411,-0.26583827,-0.14175475,-0.2313186,0.9624953,-0.93586373,0.3481759,-0.054154485,,0.06627346,-0.009044517,0.024576068,-0.43239972,-0.41788435,0.7990013,0.0050034523,0.8849975,0.4655689,-0.9016682,0.20530951,-0.3805819,,0.10888389,1.3552781,0.45264268,0.9963525,0.028851213,-0.08030773,-0.027202914,-0.78462046,-0.6193793,-0.08088093,0.6193047,-0.78097373,,-0.08415113,0.27508813,-0.080815405,0.41599393,0.8617251,0.29048058,-0.6769631,0.0801718,0.73163754,0.607182,-0.5010014,0.616707,,-0.019663066,0.43129137,-0.33597437,0.53237534,0.35069597,-0.7704472,-0.5985785,0.79952186,-0.04968458,0.59856516,0.487624,0.6355648,,1.3064469975996862,0.18534558898138823,0.17979931187,-0.19438257761015407,0.9870620743055418,0.46914205240954154,-0.40215309082259565,,-0.9074056672556314,-0.3239145849435986,0.19357368941000003,1.698278852281163,0.5649919265300962,0.5094670436048958,0.6556630814629969,,-0.03987859174650544,-0.11159198904938746,0.0651689506,-0.08471519562608845,,-3.6176294e-05,-3.33786e-06,1.9073486e-06,1.0,4.4964254e-05,3.5651028e-05,-4.496798e-05,1.0,4.61936e-06,-3.565848e-05,-4.6789646e-06,1.0,628,1.963,1,2,0.963,False,-0.259282258438454,0.6948969126336042
1.9797913799993694,17:05:03.162133,17:04:45.477445,0,,0.11323029,0.008338869,0.03623505,-0.31896612,-0.9090241,-0.26820838,-0.14008862,-0.23466267,0.96192956,-0.93735576,0.34439597,-0.052494496,,0.06630156,-0.009017516,0.024611712,-0.4295533,-0.4196813,0.7995945,0.0016170442,0.88508725,0.4654224,-0.90304005,0.20121667,-0.37951353,,0.10888389,1.3552781,0.45264268,0.9963525,0.028851213,-0.08030773,-0.027202914,-0.78462046,-0.6193793,-0.08088093,0.6193047,-0.78097373,,-0.08409542,0.27507922,-0.08086704,0.4125824,0.8626305,0.2926507,-0.6767661,0.07523606,0.7323436,0.60972404,-0.50020814,0.61484015,,-0.019696277,0.4313323,-0.33597767,0.5298629,0.35294494,-0.77115184,-0.60220504,0.79683137,-0.049080465,0.5971553,0.49039745,0.63475657,,1.3064238294010635,0.18500578873492235,0.17978764526000002,-0.2006732759146898,0.989931440800616,0.4667205976917762,-0.4023164348887298,,-0.9075137855158706,-0.3238836940121017,0.19357368941000003,1.6942947433549567,0.5681345660247014,0.5071494680402997,0.6218508597732011,,-0.03987859174650544,-0.11159198904938746,0.0651689506,-0.08471519562608845,,-3.6176294e-05,-3.33786e-06,1.9073486e-06,1.0,4.4964254e-05,3.5651028e-05,-4.496798e-05,1.0,4.61936e-06,-3.565848e-05,-4.6789646e-06,1.0,637,1.991,1,2,0.991,False,-0.25880563669028556,0.6726397400742741
2.005863957998372,17:05:03.190639,17:04:45.477445,0,,0.11321074,0.008304268,0.036248177,-0.3174352,-0.9094377,-0.26862216,-0.13917834,-0.23552404,0.9618511,-0.9380108,0.3427119,-0.051810384,,0.066379815,-0.008948285,0.024698317,-0.4238221,-0.42396605,0.8003921,-0.0068187118,0.88515174,0.4652525,-0.90571976,0.1917266,-0.37803787,,0.10888389,1.3552781,0.45264268,0.9963525,0.028851213,-0.08030773,-0.027202914,-0.78462046,-0.6193793,-0.08088093,0.6193047,-0.78097373,,-0.084078096,0.27506128,-0.08090067,0.41114846,0.8632002,0.2929886,-0.67653686,0.073535815,0.732728,0.6109458,-0.4994776,0.6142209,,-0.019787038,0.43143308,-0.33598262,0.5248685,0.35828343,-0.7721049,-0.6105494,0.79050875,-0.048221372,0.5930788,0.49671808,0.6336629,,1.3063466020723211,0.18478182948156985,0.17977468236000002,-0.20318955523650412,0.9914344422980359,0.4652499645306938,-0.40280646708713275,,-0.9078921994267076,-0.3238141894162337,0.19357239312000002,1.6842296260676997,0.5742832085141462,0.5014822324528363,0.5751344568587972,,-0.03987859174650544,-0.11159198904938746,0.0651689506,-0.08471519562608845,,-3.6176294e-05,-3.33786e-06,1.9073486e-06,1.0,4.4964254e-05,3.5651028e-05,-4.496798e-05,1.0,4.61936e-06,-3.565848e-05,-4.6789646e-06,1.0,660,2.065,1,2,1.065,False,-0.2590439475643693,0.6698877686298448
2.034417326998664,17:05:03.264091,17:04:45.689408,0,,0.113162816,0.008339807,0.036275297,-0.31266946,-0.91071707,-0.2698745,-0.13533583,-0.238508,0.96166414,-0.9401713,0.33720678,-0.048678458,,0.066838175,-0.008653287,0.025116324,-0.39980605,-0.44020596,0.80397373,-0.030768514,0.8830775,0.46821746,-0.9160832,0.16245905,-0.36660424,,0.10888389,1.3552781,0.45264268,0.9963525,0.028851213,-0.08030773,-0.027202914,-0.78462046,-0.6193793,-0.08088093,0.6193047,-0.78097373,,-0.08403254,0.27510828,-0.080904126,0.4067188,0.8649868,0.29390088,-0.6751102,0.06784286,0.7345907,0.61547214,-0.49718735,0.6115544,,-0.020303339,0.4318835,-0.33603123,0.50332,0.37785372,-0.7771072,-0.6371218,0.7698086,-0.03834872,0.58373356,0.5144136,0.62819886,,1.3063543248051954,0.18478955221444407,0.17981097848000002,-0.2109480831454315,0.9963533562895918,0.46099388377720085,-0.4023164348887298,,-0.9104098103437048,-0.3232890435807864,0.19358924489,1.6544536540928971,0.5983312324728638,0.4879169081726677,0.4996694983047605,,-0.03987859174650544,-0.11159198904938746,0.0651689506,-0.08471519562608845,,-3.6176294e-05,-3.33786e-06,1.9073486e-06,1.0,4.4964254e-05,3.5651028e-05,-4.496798e-05,1.0,4.61936e-06,-3.565848e-05,-4.6789646e-06,1.0,674,2.11,1,2,1.11,False,-0.25779281547542787,0.7442875580309907
2.10785055100132,17:05:03.310262,17:04:45.689408,0,,0.11303443,0.008408695,0.036194623,-0.30442294,-0.91150624,-0.27655557,-0.13439637,-0.2463296,0.95982254,-0.9430082,0.32936013,-0.047514737,,0.067385204,-0.008323509,0.025492072,-0.38195172,-0.44712546,0.808821,-0.044487387,0.8830556,0.4671548,-0.92311096,0.14244819,-0.35717613,,0.10888389,1.3552781,0.45264268,0.9963525,0.028851213,-0.08030773,-0.027202914,-0.78462046,-0.6193793,-0.08088093,0.6193047,-0.78097373,,-0.08389496,0.27511823,-0.080810815,0.39883766,0.866429,0.30038208,-0.6765436,0.056888647,0.7342019,0.61904544,-0.49604896,0.60886633,,-0.02090438,0.43231696,-0.3360217,0.48703578,0.3870186,-0.7829513,-0.65360284,0.7561259,-0.032815803,0.57930946,0.5277217,0.62121683,,1.3063002656750757,0.18468143395420492,0.17995486667000002,-0.22625544901980177,0.999222722784666,0.45506024323339145,-0.4016630586241927,,-0.9136379126851306,-0.3223545929030053,0.19365665197,1.6357912491227746,0.6144543394451857,0.4752596679773333,0.48856210180762905,,-0.03987859174650544,-0.11159198904938746,0.0651689506,-0.08471519562608845,,-3.6176294e-05,-3.33786e-06,1.9073486e-06,1.0,4.4964254e-05,3.5651028e-05,-4.496798e-05,1.0,4.61936e-06,-3.565848e-05,-4.6789646e-06,1.0,683,2.139,1,2,1.139,False,-0.25856732581620134,0.6316015694117345
2.154036128998996,17:05:03.345128,17:04:45.689408,0,,0.11292228,0.008486792,0.03608063,-0.29266658,-0.9138203,-0.2815646,-0.13347146,-0.25253475,0.9583379,-0.94685364,0.31805435,-0.048060417,,0.06790225,-0.007950071,0.02581346,-0.3642496,-0.45311233,0.81364083,-0.05724588,0.88290155,0.46605557,-0.9295403,0.12318283,-0.34753543,,0.10888389,1.3552781,0.45264268,0.9963525,0.028851213,-0.08030773,-0.027202914,-0.78462046,-0.6193793,-0.08088093,0.6193047,-0.78097373,,-0.08376982,0.27511388,-0.08068436,0.38757247,0.8697849,0.30538794,-0.67878735,0.045121513,0.73294735,0.62372696,-0.49136367,0.60788685,,-0.021471424,0.43274426,-0.33594456,0.4707901,0.3951784,-0.7887907,-0.6689795,0.74278474,-0.027150976,0.57517225,0.54046726,0.61406195,,1.3058369017026223,0.1846737112213307,0.18013375469,-0.24764382325522324,1.002638635278802,0.44198327438327,-0.4029698111532669,,-0.916611164841707,-0.32115756930750045,0.19375517001000003,1.6177579139831053,0.6303041734179768,0.4623351911485484,0.48856210180762905,,-0.03987859174650544,-0.11159198904938746,0.0651689506,-0.08471519562608845,,-3.6176294e-05,-3.33786e-06,1.9073486e-06,1.0,4.4964254e-05,3.5651028e-05,-4.496798e-05,1.0,4.61936e-06,-3.565848e-05,-4.6789646e-06,1.0,697,2.184,1,2,1.184,False,-0.2584481703791588,0.5103217050537343
2.1888254930017865,17:05:03.391099,17:04:45.689408,0,,0.11280389,0.008585304,0.035930037,-0.2750636,-0.91821307,-0.28499955,-0.1333715,-0.25712556,0.95713025,-0.9521303,0.30128258,-0.051737547,,0.06903584,-0.007169489,0.026417494,-0.34723493,-0.45186603,0.8217329,-0.06502989,0.8857481,0.45958832,-0.9355207,0.106147945,-0.33694756,,0.10888389,1.3552781,0.45264268,0.9963525,0.028851213,-0.08030773,-0.027202914,-0.78462046,-0.6193793,-0.08088093,0.6193047,-0.78097373,,-0.0836342,0.27510303,-0.08051736,0.3706271,0.87581587,0.30916357,-0.6828521,0.031318985,0.729885,0.6295622,-0.48162815,0.6096604,,-0.022701325,0.43358245,-0.33573472,0.4549479,0.39576736,-0.79774094,-0.6805628,0.73226875,-0.024835806,0.5743315,0.5542118,0.60248864,,1.3049024510248413,0.18484361134456365,0.18035412399000003,-0.27972638460835547,1.0059179112731726,0.41758269981716634,-0.40525662807914675,,-0.923831920079107,-0.3180530306920622,0.19394442835000003,1.6026602380522197,0.6413717298989775,0.4438356070928332,0.4558932885807735,,-0.03987859174650544,-0.11159198904938746,0.0651689506,-0.08471519562608845,,-3.6176294e-05,-3.33786e-06,1.9073486e-06,1.0,4.4964254e-05,3.5651028e-05,-4.496798e-05,1.0,4.61936e-06,-3.565848e-05,-4.6789646e-06,1.0,711,2.229,1,2,1.229,False,-0.25880563669028556,0.5455662516227391
2.2348322450015985,17:05:03.428398,17:04:45.689408,0,,0.11276132,0.008714199,0.035661623,-0.25422347,-0.92299914,-0.2888649,-0.1324693,-0.26263148,0.9557596,-0.95803046,0.2812423,-0.055501908,,0.07021477,-0.0063414313,0.02696079,-0.33271194,-0.4362567,0.8360518,-0.071820885,0.89570796,0.4388041,-0.9402896,0.08594933,-0.32934517,,0.10888389,1.3552781,0.45264268,0.9963525,0.028851213,-0.08030773,-0.027202914,-0.78462046,-0.6193793,-0.08088093,0.6193047,-0.78097373,,-0.08356094,0.27503896,-0.08023274,0.35054573,0.8825617,0.3133728,-0.6868359,0.01478795,0.72666204,0.63668996,-0.46996397,0.61135894,,-0.023971401,0.43440387,-0.3354468,0.4413938,0.38214174,-0.81187385,-0.6903072,0.72266203,-0.035150766,0.57327783,0.5759577,0.58277375,,1.3031957270596375,0.18528380711839443,0.18068467794,-0.31663181466163176,1.0098803697663703,0.3898479585678014,-0.4075434450050266,,-0.9313538618986017,-0.31460869183015805,0.19421146409,1.5881916319517875,0.6495699198849039,0.40897136752255386,0.41832415336988904,,-0.03987859174650544,-0.11159198904938746,0.0651689506,-0.08471519562608845,,-3.6176294e-05,-3.33786e-06,1.9073486e-06,1.0,4.4964254e-05,3.5651028e-05,-4.496798e-05,1.0,4.61936e-06,-3.565848e-05,-4.6789646e-06,1.0,720,2.258,1,2,1.258,False,-0.2588652144088064,0.6538104617702851
2.2721655269997427,17:05:03.459255,17:04:45.689408,0,,0.11282189,0.008857191,0.035357416,-0.24137217,-0.9257984,-0.2909242,-0.13721323,-0.26421744,0.95465255,-0.9606831,0.27034527,-0.06325695,,0.07090063,-0.005894322,0.027243912,-0.32832086,-0.42559263,0.84325343,-0.07199478,0.90141976,0.4269182,-0.94181854,0.07945624,-0.32659543,,0.10888389,1.3552781,0.45264268,0.9963525,0.028851213,-0.08030773,-0.027202914,-0.78462046,-0.6193793,-0.08088093,0.6193047,-0.78097373,,-0.08358617,0.27495858,-0.07990175,0.337946,0.88645536,0.31621104,-0.6928224,0.006909114,0.7210752,0.6370162,-0.46276256,0.616491,,-0.024704922,0.4348343,-0.33528215,0.43721983,0.37204394,-0.8187931,-0.6920357,0.7206351,-0.042090975,0.57439137,0.58503705,0.5725436,,1.3016434577519185,0.18607152587156534,0.18098023206000002,-0.33906863861447584,1.0063278207724689,0.37159003036750266,-0.40313315521940096,,-0.9355473058493056,-0.3127320677417215,0.19436961147,1.5850462827995195,0.6499798293842002,0.39328151066503886,0.4096669178647725,,-0.03987859174650544,-0.11159198904938746,0.0651689506,-0.08471519562608845,,-3.6176294e-05,-3.33786e-06,1.9073486e-06,1.0,4.4964254e-05,3.5651028e-05,-4.496798e-05,1.0,4.61936e-06,-3.565848e-05,-4.6789646e-06,1.0,734,2.303,1,2,1.303,False,-0.25856732581620134,0.7453497224481387
2.303039145001094,17:05:03.500745,17:04:45.919785,0,,0.11301868,0.009156793,0.03501241,-0.22387075,-0.9298326,-0.2920501,-0.13897511,-0.2661378,0.953864,-0.9646595,0.25412995,-0.06964308,,0.07255544,-0.004816536,0.028004944,-0.3190568,-0.41777736,0.8506849,-0.07079691,0.9055958,0.4181915,-0.9450877,0.07320091,-0.31851393,,0.10888389,1.3552781,0.45264268,0.9963525,0.028851213,-0.08030773,-0.027202914,-0.78462046,-0.6193793,-0.08088093,0.6193047,-0.78097373,,-0.08373923,0.2749686,-0.079428464,0.32092538,0.8921283,0.31798428,-0.6975288,-0.0044776606,0.7165428,0.6406719,-0.45175996,0.6208482,,-0.026483653,0.43592855,-0.33493868,0.42834738,0.364816,-0.82669693,-0.6946474,0.71806103,-0.04305113,0.5779131,0.5927037,0.560998,,1.2993961424855192,0.18800220909012147,0.18137819309000003,-0.36800585081534026,1.00509809227458,0.34784413323818003,-0.4029698111532668,,-0.946258736345855,-0.3080134779555703,0.19470794316,1.5789652744384683,0.6497065563846693,0.37733195592460034,0.407706789071161,,-0.03987859174650544,-0.11159198904938746,0.0651689506,-0.08471519562608845,,-3.6176294e-05,-3.33786e-06,1.9073486e-06,1.0,4.4964254e-05,3.5651028e-05,-4.496798e-05,1.0,4.61936e-06,-3.565848e-05,-4.6789646e-06,1.0,743,2.331,1,2,1.331,False,-0.25868648125324345,0.7992304265180139
2.344442245001119,17:05:03.542154,17:04:45.919785,0,,0.11338518,0.009611532,0.034640193,-0.21175471,-0.93316877,-0.29044098,-0.14609468,-0.2636171,0.95350003,-0.9663418,0.24434003,-0.0805088,,0.07362341,-0.004143078,0.02844441,-0.30879733,-0.41379184,0.8563998,-0.06708017,0.9076371,0.41436106,-0.94875944,0.070506096,-0.30803323,,0.10888389,1.3552781,0.45264268,0.9963525,0.028851213,-0.08030773,-0.027202914,-0.78462046,-0.6193793,-0.08088093,0.6193047,-0.78097373,,-0.08405486,0.27507463,-0.078821175,0.30890423,0.896527,0.31751776,-0.7047327,-0.008431905,0.7094228,0.638694,-0.44290885,0.62920725,,-0.027624644,0.4365823,-0.33469796,0.41841832,0.3610772,-0.8333963,-0.6959482,0.7170461,-0.038743243,0.58359426,0.5962115,0.5513162,,1.2971642726848682,0.19115308410280507,0.18179041331,-0.38603918595500936,0.9966266292891226,0.32992170626462747,-0.40100968235965573,,-0.9527535546930778,-0.30496299847025166,0.19500738615000002,1.5785458945514992,0.6546254703762252,0.3707071917070312,0.43073830239609445,,-0.03987859174650544,-0.11159198904938746,0.0651689506,-0.08471519562608845,,-3.6176294e-05,-3.33786e-06,1.9073486e-06,1.0,4.4964254e-05,3.5651028e-05,-4.496798e-05,1.0,4.61936e-06,-3.565848e-05,-4.6789646e-06,1.0,757,2.377,1,2,1.377,False,-0.2591631030014119,0.798457943305543
2.3858957150005153,17:05:03.580168,17:04:45.919785,0,,0.113903895,0.0102510005,0.034323186,-0.2046209,-0.9352799,-0.2887591,-0.14925277,-0.26173952,0.95352817,-0.9673954,0.23820995,-0.0860357,,0.07428187,-0.0037820227,0.0286178,-0.30350333,-0.4071711,0.8614507,-0.061986595,0.91061884,0.40857187,-0.950812,0.070604414,-0.30161506,,0.10888389,1.3552781,0.45264268,0.9963525,0.028851213,-0.08030773,-0.027202914,-0.78462046,-0.6193793,-0.08088093,0.6193047,-0.78097373,,-0.08452368,0.2753519,-0.07812708,0.30185494,0.89930964,0.31642655,-0.7082055,-0.010672934,0.70592564,0.63822293,-0.43718216,0.6336744,,-0.02831446,0.43687797,-0.3345226,0.4131679,0.35435972,-0.8388811,-0.6945694,0.7183878,-0.03863013,0.58895296,0.5986219,0.54294217,,1.2951331939389472,0.19547009177949656,0.18223504078000002,-0.39379771386393675,0.9906146232994433,0.3220822105653421,-0.40198974675646126,,-0.9574953126778516,-0.3027079604709781,0.19537034735000003,1.5839978330820967,0.6580413828703612,0.3626943047456247,0.4785981137734382,,-0.03987859174650544,-0.11159198904938746,0.0651689506,-0.08471519562608845,,-3.6176294e-05,-3.33786e-06,1.9073486e-06,1.0,4.4964254e-05,3.5651028e-05,-4.496798e-05,1.0,4.61936e-06,-3.565848e-05,-4.6789646e-06,1.0,766,2.405,1,2,1.405,False,-0.2590439475643693,0.7632133967365382
2.423908926000877,17:05:03.607958,17:04:45.919785,0,,0.11424439,0.010679036,0.03422521,-0.20243259,-0.93640834,-0.28663647,-0.14802533,-0.26007476,0.95417476,-0.9680443,0.23558554,-0.0859645,,0.07490018,-0.0034778602,0.028674006,-0.29902828,-0.3981315,0.8672216,-0.056232303,0.91457736,0.40048245,-0.95258594,0.07098964,-0.29587242,,0.10888389,1.3552781,0.45264268,0.9963525,0.028851213,-0.08030773,-0.027202914,-0.78462046,-0.6193793,-0.08088093,0.6193047,-0.78097373,,-0.084842816,0.2756089,-0.07775174,0.29977345,0.90074265,0.31432244,-0.70775664,-0.010948468,0.7063715,0.63970023,-0.43421522,0.63422453,,-0.028948369,0.43705475,-0.33431077,0.408668,0.3451644,-0.8448976,-0.6924449,0.72032434,-0.040655535,0.5945675,0.6016597,0.53338087,,1.2941910205282918,0.19836611660733075,0.18245800266,-0.3946364736378748,0.9896581678010851,0.3201667374665786,-0.4031331552194012,,-0.9595186686908984,-0.3017271733959516,0.19560756842000002,1.5869334922908804,0.6592711113682501,0.3582610365264533,0.5086534219421456,,-0.03987859174650544,-0.11159198904938746,0.0651689506,-0.08471519562608845,,-3.6176294e-05,-3.33786e-06,1.9073486e-06,1.0,4.4964254e-05,3.5651028e-05,-4.496798e-05,1.0,4.61936e-06,-3.565848e-05,-4.6789646e-06,1.0,780,2.45,1,2,1.45,False,-0.25922268071993226,0.6814750168169148
2.451729319000151,17:05:03.657276,17:04:45.919785,0,,0.11517865,0.011877984,0.03418976,-0.1982094,-0.9385793,-0.28245705,-0.14612702,-0.2566575,0.95539194,-0.96920586,0.23064229,-0.08627978,,0.076042056,-0.0030148514,0.028767228,-0.29293957,-0.3854936,0.8749748,-0.04666379,0.9197941,0.38961703,-0.9549916,0.073304564,-0.28743276,,0.10888389,1.3552781,0.45264268,0.9963525,0.028851213,-0.08030773,-0.027202914,-0.78462046,-0.6193793,-0.08088093,0.6193047,-0.78097373,,-0.08574246,0.27647823,-0.07688778,0.295737,0.9034929,0.31022605,-0.70720196,-0.011245102,0.7069222,0.64218765,-0.4284555,0.6356264,,-0.030113343,0.43730634,-0.3339844,0.4024652,0.33211935,-0.8530642,-0.68836325,0.72409934,-0.04285122,0.60347146,0.6044642,0.52004355,,1.29226806004261,0.20681478637173237,0.18286763030000003,-0.3944267836943903,0.9847392538095293,0.3184602701898104,-0.4034598433516696,,-0.9652026000863276,-0.2994953035953007,0.19622719504000002,1.5951114000867768,0.6609107493654354,0.3500630075102891,0.5645170925600692,,-0.03987859174650544,-0.11159198904938746,0.0651689506,-0.08471519562608845,,-3.6176294e-05,-3.33786e-06,1.9073486e-06,1.0,4.4964254e-05,3.5651028e-05,-4.496798e-05,1.0,4.61936e-06,-3.565848e-05,-4.6789646e-06,1.0,789,2.479,1,2,1.479,False,-0.2593418361569748,0.48994746032480263
2.501042570998834,17:05:03.682711,17:04:45.919785,0,,0.11578406,0.012719899,0.034284055,-0.19181514,-0.9404503,-0.28064245,-0.14236298,-0.25626567,0.9560651,-0.971051,0.22334088,-0.08472964,,0.07671774,-0.0027420856,0.029063702,-0.28775012,-0.379809,0.87917286,-0.04096687,0.9220404,0.38491976,-0.95682895,0.07474372,-0.28087687,,0.10888389,1.3552781,0.45264268,0.9963525,0.028851213,-0.08030773,-0.027202914,-0.78462046,-0.6193793,-0.08088093,0.6193047,-0.78097373,,-0.08633636,0.2771653,-0.0763784,0.2896534,0.9061282,0.30827346,-0.70572025,-0.0153875565,0.7083235,0.6465755,-0.4227231,0.63501596,,-0.030830344,0.4376288,-0.3339567,0.39726624,0.32621044,-0.8577682,-0.6864058,0.72601664,-0.041796435,0.60911953,0.60538137,0.51233464,,1.2911173728443504,0.21283079528075327,0.18308411073000003,-0.400717481998926,0.9837827983111712,0.31335932622556484,-0.4011730264257898,,-0.9692802030439183,-0.29823649813680214,0.19640867564000003,1.5997245788434364,0.6628236603621516,0.3471146182761496,0.5806881551073628,,-0.03987859174650544,-0.11159198904938746,0.0651689506,-0.08471519562608845,,-3.6176294e-05,-3.33786e-06,1.9073486e-06,1.0,4.4964254e-05,3.5651028e-05,-4.496798e-05,1.0,4.61936e-06,-3.565848e-05,-4.6789646e-06,1.0,803,2.524,1,2,1.524,False,-0.25952056931253775,0.41337506188858164
2.5264655809987744,17:05:03.730310,17:04:46.163964,0,,0.11658055,0.013752475,0.034351915,-0.18699892,-0.94362915,-0.27312148,-0.14167082,-0.2492147,0.95802987,-0.972091,0.21784393,-0.08708179,,0.07752091,-0.0024746247,0.029451609,-0.28197908,-0.37199202,0.8843696,-0.033232808,0.92500865,0.37848985,-0.9588448,0.07733604,-0.2731955,,0.10888389,1.3552781,0.45264268,0.9963525,0.028851213,-0.08030773,-0.027202914,-0.78462046,-0.6193793,-0.08088093,0.6193047,-0.78097373,,-0.087113425,0.2779756,-0.07571145,0.28498885,0.9100162,0.3010846,-0.7060617,-0.0131390225,0.7080284,0.6482732,-0.41436452,0.6387831,,-0.031684104,0.4379991,-0.33398935,0.39141768,0.31802022,-0.86351335,-0.68325603,0.7290143,-0.04122368,0.6164036,0.6061364,0.50263834,,1.2896191626667508,0.2202755097715057,0.18336151679,-0.4028143814337713,0.9784539748203192,0.30561617092892207,-0.4021530908225954,,-0.9742922566792899,-0.296993138144052,0.19659923027,1.6066443469784255,0.6645999348591023,0.34386925324500384,0.5852617889591225,,-0.03987859174650544,-0.11159198904938746,0.0651689506,-0.08471519562608845,,-3.6176294e-05,-3.33786e-06,1.9073486e-06,1.0,4.4964254e-05,3.5651028e-05,-4.496798e-05,1.0,4.61936e-06,-3.565848e-05,-4.6789646e-06,1.0,812,2.553,1,2,1.553,False,-0.25922268071993226,0.3719023694190269
2.574090409998462,17:05:03.757209,17:04:46.163964,0,,0.11707103,0.01438728,0.0343661,-0.18085739,-0.94547635,-0.27085993,-0.13885817,-0.2480956,0.9587319,-0.9736576,0.21100493,-0.08641723,,0.077944905,-0.002373103,0.02963245,-0.2782881,-0.3656112,0.8881914,-0.030370265,0.9276072,0.37232053,-0.96001744,0.076637626,-0.26924583,,0.10888389,1.3552781,0.45264268,0.9963525,0.028851213,-0.08030773,-0.027202914,-0.78462046,-0.6193793,-0.08088093,0.6193047,-0.78097373,,-0.08758905,0.27845657,-0.07527996,0.27910706,0.9125947,0.29878125,-0.70513815,-0.016426677,0.70887965,0.65182775,-0.40853536,0.63892055,,-0.032130256,0.4381503,-0.3340193,0.38775888,0.31164983,-0.8674776,-0.68257725,0.72954655,-0.043012455,0.6194605,0.608799,0.49561325,,1.2883217435438812,0.22503271322202797,0.18359355270000002,-0.40952445962527606,0.9779074288212573,0.2991191496317601,-0.40002961796284975,,-0.9767017493360479,-0.2965915560345923,0.19671978524000003,1.6089509363567556,0.6662395728562877,0.3385299801337591,0.57333767213132,,-0.03987859174650544,-0.11159198904938746,0.0651689506,-0.08471519562608845,,-3.6176294e-05,-3.33786e-06,1.9073486e-06,1.0,4.4964254e-05,3.5651028e-05,-4.496798e-05,1.0,4.61936e-06,-3.565848e-05,-4.6789646e-06,1.0,826,2.598,1,2,1.598,False,-0.2583885926606384,0.3541352555321864
2.600978384998598,17:05:03.798558,17:04:46.163964,0,,0.11761621,0.014997944,0.034193695,-0.17572822,-0.946086,-0.27210438,-0.13811809,-0.24997728,0.95834994,-0.9747015,0.20599166,-0.086743474,,0.07825588,-0.0023519285,0.029673278,-0.27668467,-0.3553126,0.8928597,-0.029077947,0.9318025,0.36179897,-0.96052074,0.07414165,-0.26814726,,0.10888389,1.3552781,0.45264268,0.9963525,0.028851213,-0.08030773,-0.027202914,-0.78462046,-0.6193793,-0.08088093,0.6193047,-0.78097373,,-0.08809999,0.27879998,-0.07471351,0.2741328,0.9136872,0.3000447,-0.70545983,-0.020985005,0.7084392,0.65358824,-0.40587586,0.638817,,-0.032444492,0.43815845,-0.33401754,0.38616648,0.30152506,-0.8717558,-0.6822448,0.72941726,-0.049925078,0.62082005,0.6140302,0.48739037,,1.2865841286471806,0.22903308885087628,0.18393447697,-0.4132988786079975,0.9757212448250102,0.2988598675873887,-0.4024797789548641,,-0.9782308504451445,-0.29657611056884386,0.19687793262000003,1.6099993860741781,0.6665128458558185,0.32801562306865545,0.53936210637539,,-0.03987859174650544,-0.11159198904938746,0.0651689506,-0.08471519562608845,,-3.6176294e-05,-3.33786e-06,1.9073486e-06,1.0,4.4964254e-05,3.5651028e-05,-4.496798e-05,1.0,4.61936e-06,-3.565848e-05,-4.6789646e-06,1.0,849,2.671,1,2,1.671,False,-0.2583290149421176,0.29581277299060016
2.642324890999589,17:05:03.864629,17:04:46.163964,0,,0.11799231,0.015335664,0.03362152,-0.16358325,-0.9468481,-0.27698225,-0.13735658,-0.25616968,0.956823,-0.9769206,0.19456556,-0.08815062,,0.078632936,-0.0023758598,0.029579222,-0.27491894,-0.33912227,0.8996753,-0.026116014,0.9380201,0.34559548,-0.9611127,0.071514726,-0.2667361,,0.10888389,1.3552781,0.45264268,0.9963525,0.028851213,-0.08030773,-0.027202914,-0.78462046,-0.6193793,-0.08088093,0.6193047,-0.78097373,,-0.08840665,0.27868974,-0.074023075,0.262307,0.91551304,0.30500972,-0.70683897,-0.03289295,0.70660937,0.6569427,-0.4009413,0.6384922,,-0.032806776,0.43803084,-0.3339539,0.384347,0.28547642,-0.87794113,-0.68085724,0.729894,-0.060730625,0.6234668,0.62109417,0.47490126,,1.283672658353598,0.2308942674735644,0.18455021472000002,-0.42965469419979047,0.9764044273238375,0.2913600851569589,-0.402969811153267,,-0.9796132196296307,-0.29673056522632835,0.19718904222000003,1.6135641151134148,0.6671960283546456,0.3128380390650127,0.4225710990893804,,-0.03987859174650544,-0.11159198904938746,0.0651689506,-0.08471519562608845,,-3.6176294e-05,-3.33786e-06,1.9073486e-06,1.0,4.4964254e-05,3.5651028e-05,-4.496798e-05,1.0,4.61936e-06,-3.565848e-05,-4.6789646e-06,1.0,872,2.745,0,2,1.691,False,-0.2586269035347226,0.2539055587140302
2.708406729001581,17:05:03.943990,17:04:46.322533,0,,0.11825421,0.015463099,0.032897636,-0.14633137,-0.95072305,-0.2733365,-0.14878443,-0.2520158,0.95621705,-0.9779829,0.18059279,-0.10457495,,0.07978429,-0.002241794,0.02988851,-0.26998544,-0.31935158,0.9083624,-0.02014035,0.9450627,0.3262681,-0.96265376,0.06979284,-0.26158503,,0.10888389,1.3552781,0.45264268,0.9963525,0.028851213,-0.08030773,-0.027202914,-0.78462046,-0.6193793,-0.08088093,0.6193047,-0.78097373,,-0.08858831,0.2783264,-0.0733569,0.24502274,0.9209214,0.3030968,-0.71727616,-0.038145334,0.6957441,0.65228736,-0.38787723,0.65120846,,-0.033990942,0.43821332,-0.33401465,0.3793553,0.26573333,-0.88627046,-0.67846626,0.73117536,-0.071177036,0.62910503,0.628306,0.45766634,,1.2803596059505558,0.23164337256236417,0.18513095264,-0.45502717736141784,0.9658834168418985,0.26522579918184425,-0.4037865314839384,,-0.9858145741276328,-0.2963675967812398,0.19764274372,1.618386983813559,0.666649482355584,0.29604949651013973,0.22672156379437947,,-0.03987859174650544,-0.11159198904938746,0.0651689506,-0.08471519562608845,,-3.6176294e-05,-3.33786e-06,1.9073486e-06,1.0,4.4964254e-05,3.5651028e-05,-4.496798e-05,1.0,4.61936e-06,-3.565848e-05,-4.6789646e-06,1.0,895,2.819,1,3,1.739,False,-0.2583885926606384,0.26080962742549296
2.7877724659992964,17:05:04.015345,17:04:46.322533,0,,0.11855015,0.015763193,0.03271827,-0.13987139,-0.95070976,-0.27674365,-0.15341052,-0.25530905,0.95461106,-0.9782133,0.17597818,-0.11013842,,0.0811475,-0.0019549616,0.030410469,-0.2632499,-0.30393106,0.91560113,-0.01349014,0.9501442,0.31151888,-0.96463335,0.06965569,-0.25422546,,0.10888203,1.3552777,0.45264032,0.9963525,0.02885192,-0.08030717,-0.027202016,-0.78462046,-0.61937934,-0.08088093,0.6193047,-0.78097373,,-0.08885584,0.27843595,-0.07300479,0.23852582,0.9213229,0.30703354,-0.7213514,-0.043588907,0.6911962,0.6501981,-0.3863472,0.6542005,,-0.0354152,0.43863037,-0.33410153,0.37259507,0.25021374,-0.8936252,-0.67613953,0.73276603,-0.07674148,0.6356164,0.6328088,0.44220442,,1.2788073366428365,0.23387524236301505,0.18532021098,-0.4625760153268607,0.9598714108522192,0.2627771003318362,-0.4018264026903269,,-0.9940470073715563,-0.29534819604184215,0.19810811183000002,1.6230001625702186,0.6661029363565222,0.28358992718271664,0.11858779201348668,,-0.03987859174650544,-0.11159198904938746,0.0651689506,-0.08471519562608845,,-3.7815422e-05,-4.4107437e-06,4.2915344e-06,1.0,4.5668334e-05,3.620982e-05,-4.5675784e-05,1.0,4.6789646e-06,-3.6217272e-05,-4.7385693e-06,1.0,904,2.848,1,3,1.768,False,-0.25785239319394915,0.238890416271619
2.859129122000013,17:05:04.050791,17:04:46.322533,0,,0.118641175,0.015921518,0.032737568,-0.1383311,-0.9506787,-0.277623,-0.15252951,-0.2565233,0.95442677,-0.9785701,0.1743726,-0.10952139,,0.082048126,-0.0016354211,0.0305807,-0.26033467,-0.29182178,0.9203618,-0.008311212,0.9538727,0.30009627,-0.9654827,0.070476085,-0.25075155,,0.10888203,1.3552777,0.45264032,0.9963525,0.02885192,-0.08030717,-0.027202016,-0.78462046,-0.61937934,-0.08088093,0.6193047,-0.78097373,,-0.088944994,0.27856722,-0.072912395,0.23705061,0.9214348,0.30783913,-0.72096,-0.045537923,0.69147885,0.651171,-0.38585517,0.65352285,,-0.036343064,0.4388676,-0.33394343,0.3695632,0.23793282,-0.8982266,-0.6735594,0.7345075,-0.08256193,0.64010996,0.6355208,0.4317088,,1.278683772916849,0.2349332567667838,0.18536817371000003,-0.46446322481822144,0.9598714108522192,0.2625320641114145,-0.40133637049192417,,-0.9987655971577074,-0.2939194904601106,0.19853329495000002,1.62677458155294,0.6648732078586332,0.27340270091672736,0.08738907538183938,,-0.03987859174650544,-0.11159198904938746,0.0651689506,-0.08471519562608845,,-3.7815422e-05,-4.4107437e-06,4.2915344e-06,1.0,4.5668334e-05,3.620982e-05,-4.5675784e-05,1.0,4.6789646e-06,-3.6217272e-05,-4.7385693e-06,1.0,932,2.938,1,3,1.858,False,-0.25826943722359585,0.21093618002031223
2.894531936999556,17:05:04.132809,17:04:46.521493,0,,0.11851311,0.015922382,0.03257887,-0.1291084,-0.9475139,-0.29248655,-0.15839094,-0.2714635,0.9493259,-0.9788991,0.16889316,-0.115029335,,0.08385335,-0.0006917007,0.03100133,-0.25281495,-0.2840536,0.92487746,0.0011173487,0.95584476,0.29386988,-0.96751404,0.07532802,-0.24133447,,0.10888203,1.3552777,0.45264032,0.9963525,0.02885192,-0.08030717,-0.027202016,-0.78462046,-0.61937934,-0.08088093,0.6193047,-0.78097373,,-0.08880099,0.2784755,-0.07280091,0.2277908,0.91854566,0.32308692,-0.7261974,-0.060777634,0.6847944,0.6486514,-0.39061475,0.6532009,,-0.03822584,0.43960714,-0.33345908,0.36190367,0.22957703,-0.9035044,-0.6694672,0.738465,-0.08051764,0.64872134,0.6340062,0.4209475,,1.2784984273278677,0.23473246571205397,0.18548095094000003,-0.48018997057956075,0.9541326778620707,0.26418950268146346,-0.4008463382935211,,-1.0084807951134818,-0.2895561463861738,0.19935125394000003,1.6318071401965684,0.6639167523602751,0.26781168451163845,0.014537621885950869,,-0.03987859174650544,-0.11159198904938746,0.0651689506,-0.08471519562608845,,-3.7815422e-05,-4.4107437e-06,4.2915344e-06,1.0,4.5668334e-05,3.620982e-05,-4.5675784e-05,1.0,4.6789646e-06,-3.6217272e-05,-4.7385693e-06,1.0,941,2.966,1,3,1.886,False,-0.2579715486309908,0.16159381482370572
2.9765831629993045,17:05:04.173080,17:04:46.521493,0,,0.11844473,0.015802205,0.032441303,-0.122105524,-0.94654983,-0.29855257,-0.16170591,-0.27781156,0.94692755,-0.9792556,0.16390282,-0.11914033,,0.084319085,-0.00035539642,0.031233966,-0.25000665,-0.28258216,0.9260907,0.0034323037,0.9561994,0.29269594,-0.968238,0.076354444,-0.23808633,,0.10888203,1.3552777,0.45264032,0.9963525,0.02885192,-0.08030717,-0.027202016,-0.78462046,-0.61937934,-0.08088093,0.6193047,-0.78097373,,-0.08872112,0.27829936,-0.07277559,0.22079514,0.9179761,0.3294987,-0.7293529,-0.06888974,0.68066037,0.647529,-0.39060733,0.65431803,,-0.038730066,0.43995088,-0.3333509,0.35909432,0.22798285,-0.9050277,-0.66873586,0.7392794,-0.07910944,0.6510327,0.63363224,0.41793135,,1.2778883314308038,0.23402969702049956,0.18553280254,-0.4917229174712096,0.9515365843665273,0.26050725230171556,-0.402969811153267,,-1.0113999881399387,-0.28798070887983196,0.19947440149,1.632436210027022,0.664190025359806,0.2661186313817155,-0.004083601653357083,,-0.03987859174650544,-0.11159198904938746,0.0651689506,-0.08471519562608845,,-3.7815422e-05,-4.4107437e-06,4.2915344e-06,1.0,4.5668334e-05,3.620982e-05,-4.5675784e-05,1.0,4.6789646e-06,-3.6217272e-05,-4.7385693e-06,1.0,955,3.011,1,3,1.931,False,-0.25826943722359585,0.15377242229743304
3.0168099910006276,17:05:04.213021,17:04:46.521493,0,,0.11843529,0.015573576,0.032252446,-0.11435657,-0.9460377,-0.30320835,-0.16610801,-0.28270525,0.9447146,-0.9794543,0.15839967,-0.124815255,,0.08480701,-5.532056e-06,0.031407773,-0.2476709,-0.28137666,0.9270848,0.0055817664,0.9564674,0.2917857,-0.9688282,0.07744151,-0.23531859,,0.10888203,1.3552777,0.45264032,0.9963525,0.02885192,-0.08030717,-0.027202016,-0.78462046,-0.61937934,-0.08088093,0.6193047,-0.78097373,,-0.088696755,0.2780037,-0.072772436,0.21301799,0.9179406,0.3346765,-0.7332965,-0.076161854,0.67562973,0.64567757,-0.3893384,0.65689886,,-0.03925019,0.44025886,-0.33319175,0.35674605,0.22664955,-0.90629035,-0.66796625,0.74010915,-0.07784359,0.65311056,0.63314176,0.41542524,,1.276621803239431,0.23293306895235966,0.18556650608000003,-0.5036752442498276,0.9483939448719222,0.25498366881281764,-0.4031331552194013,,-1.0142342311047792,-0.2863434895104964,0.19965717838000002,1.6328555899139912,0.6640533888600405,0.2645147957424601,-0.020254664200650474,,-0.03987859174650544,-0.11159198904938746,0.0651689506,-0.08471519562608845,,-3.7815422e-05,-4.4107437e-06,4.2915344e-06,1.0,4.5668334e-05,3.620982e-05,-4.5675784e-05,1.0,4.6789646e-06,-3.6217272e-05,-4.7385693e-06,1.0,964,3.04,1,3,1.96,False,-0.25868648125324345,0.15826248096992312
