AlexandreBanks6/ExpertPlaybackApp/resources/Motions/P_02/PC1/Data_PC1_1.csv
Task Time,PC1 Time,PC2 Time,Gaze Calib,s_T_psm1,Tx,Ty,Tz,R00,R01,R02,R10,R11,R12,R20,R21,R22,s_T_psm3,Tx,Ty,Tz,R00,R01,R02,R10,R11,R12,R20,R21,R22,cart_T_ecm,Tx,Ty,Tz,R00,R01,R02,R10,R11,R12,R20,R21,R22,ecm_T_psm1,Tx,Ty,Tz,R00,R01,R02,R10,R11,R12,R20,R21,R22,ecm_T_psm3,Tx,Ty,Tz,R00,R01,R02,R10,R11,R12,R20,R21,R22,psm1_joints,q1,q2,q3,q4,q5,q6,jaw,psm3_joints,q1,q2,q3,q4,q5,q6,jaw,ecm_joints,q1,q2,q3,q4,ecmi_T_ecm,Tx,Ty,Tz,R00,R01,R02,R10,R11,R12,R20,R21,R22,Sample #,Task Duration (s),Collisions (binary),Collisions (increments),Cumulative Collision Time (s),Clutch Press,MTMR Angle,MTML Angle
""
lci_T_si,,,,,-0.06325326,0.014099291,0.23646986,0.99321187,-0.021149708,0.11438049,0.061731156,-0.73758954,-0.6724217,0.09858737,0.67491806,-0.7312771
rci_T_si,,,,,-0.0730827,0.018441333,0.2456533,0.991962,-0.042163182,0.11930484,0.052885953,-0.7184059,-0.6936109,0.114954144,0.6943452,-0.71040154
ecm_T_lc,,,,,-4.4061628e-05,-0.00034663224,-0.01840835,-0.99912,0.030754527,0.028518902,-0.031987965,-0.99852574,-0.043852776,0.027128186,-0.04472645,0.9986309
ecm_T_rc,,,,,-0.0043358393,0.01870579,-0.007592615,-0.99555075,-0.052743673,-0.078081585,0.04863213,-0.9973746,0.053654674,-0.08070653,0.04961868,0.9955021
cart_T_ecmi,,,,,0.10635596,1.3404362,0.44018698,0.9956651,0.012106441,-0.09221999,-0.051438015,-0.7544026,-0.6543935,-0.07749338,0.65630037,-0.75050956
ecmac_T_ecmrep_psm1,,,,,0.01038242,-0.2501324,-0.30762842,0.998145,0.0496832,0.035188068,-0.04731537,0.99675006,-0.06519635,-0.03831287,0.06341047,0.99725187
ecmac_T_ecmrep_psm3,,,,,-0.018947443,-0.4527795,-0.5580277,0.99342906,-0.031421527,0.110051684,0.0051236153,0.97282016,0.23150527,-0.11433475,-0.2294202,0.9665888
""
0,13:52:05.460271,13:51:55.223895,0,,0.1129275,0.0033417195,0.017563567,0.957791,-0.121003926,-0.2607574,0.26223266,-0.0038513243,0.964997,-0.11777273,-0.99264455,0.028042376,,0.07353815,-0.022258334,0.046759665,-0.18985508,0.31754974,0.9290409,0.021620661,-0.9446697,0.32730997,0.981574,0.082228035,0.1724847,,0.10633207,1.3404377,0.4401787,0.9956674,0.012140717,-0.09219026,-0.05139278,-0.75440204,-0.6543977,-0.07749338,0.65630037,-0.75050956,,-0.079887025,0.26144844,-0.07752283,-0.9342842,0.21600777,0.28364345,0.07813257,-0.65218174,0.7540254,0.34786242,0.7266358,0.5924459,,-0.0409118,0.41898966,-0.37198156,0.093076535,-0.256874,-0.96195245,0.8628887,-0.46121404,0.20665115,-0.49674925,-0.8492923,0.17872545,,1.1750524204776303,0.37252146565396765,0.21492877087,4.014723657954703,0.24143669508553328,-1.1035911301319579,-0.4081968212695637,,-1.002812309183801,-0.25795472346484705,0.19254573144,-1.9830377955331469,-1.0605725111793487,0.17782588516935383,0.8750341622813339,,-0.04931645967666478,-0.06459899893944013,0.08431779928,-0.06509005378220696,,-2.322346e-05,-6.7949295e-06,7.6293945e-06,1.0,3.4097582e-05,2.9820949e-05,-3.4101307e-05,1.0,3.5464764e-06,-2.9820949e-05,-3.516674e-06,1.0,37,0.11,0,0,0.0,False,-0.254694774112334,1.0495632675595068
0.13317662896588445,13:52:05.486492,13:51:55.223895,0,,0.11290857,0.003367588,0.017724022,0.9582994,-0.11329468,-0.26234818,0.2636066,-0.003996253,0.964622,-0.11033499,-0.9935534,0.026035547,,0.07356111,-0.022194467,0.046659827,-0.18844354,0.31722906,0.9294378,0.018134058,-0.9451082,0.32625422,0.98191655,0.07833511,0.17234686,,0.10633207,1.3404377,0.4401787,0.9956674,0.012140717,-0.09219026,-0.05139278,-0.75440204,-0.6543977,-0.07749338,0.65630037,-0.75050956,,-0.07988294,0.26157448,-0.07762713,-0.935469,0.20842105,0.28540924,0.08404602,-0.65322024,0.7524889,0.34326965,0.72791755,0.5935503,,-0.040929534,0.41893592,-0.3718749,0.091886885,-0.25615233,-0.96225923,0.8611911,-0.46469337,0.20593667,-0.49990663,-0.84761196,0.17789687,,1.1756393481760714,0.37276087037306865,0.21478747526000003,4.0099007892545595,0.235151416096323,-1.1019780923879667,-0.405419972145281,,-1.0024570634715868,-0.25745274582802247,0.1926546198,-1.9763277173416418,-1.0611190571784106,0.17345251111584653,0.8748708182151996,,-0.04931645967666478,-0.06459899893944013,0.08431779928,-0.06509005378220696,,-2.322346e-05,-6.7949295e-06,7.6293945e-06,1.0,3.4097582e-05,2.9820949e-05,-3.4101307e-05,1.0,3.5464764e-06,-2.9820949e-05,-3.516674e-06,1.0,45,0.135,0,0,0.0,False,-0.2539202637715605,1.0499012289649627
0.15946967696072534,13:52:05.510747,13:51:55.223895,0,,0.112831734,0.0034329146,0.017925724,0.9588874,-0.10927825,-0.26190317,0.26318395,-0.0027923882,0.9647416,-0.10615662,-0.9940073,0.026082635,,0.073578425,-0.022097163,0.046516657,-0.18578373,0.31770512,0.9298106,0.014418542,-0.94530153,0.32587913,0.9824848,0.073949635,0.17104076,,0.10633207,1.3404377,0.4401787,0.9956674,0.012140717,-0.09219026,-0.05139278,-0.75440204,-0.6543977,-0.07749338,0.65630037,-0.75050956,,-0.07982412,0.2617598,-0.07774137,-0.9364687,0.20450225,0.2849653,0.08645846,-0.652788,0.7525907,0.33992842,0.7294153,0.59363455,,-0.04093986,0.41886374,-0.37171698,0.08945226,-0.25619185,-0.96247804,0.859417,-0.46855506,0.20459352,-0.5033892,-0.8454714,0.17826232,,1.1765351851894814,0.37311611608528295,0.21463321675000002,4.008223269706683,0.23077904810382893,-1.1015981903351633,-0.40656338060822095,,-1.0019396403690137,-0.25674225440359383,0.19279332283000003,-1.9683594994892302,-1.0607091476791142,0.16740074559491788,0.8751975063474682,,-0.04931645967666478,-0.06459899893944013,0.08431779928,-0.06509005378220696,,-2.322346e-05,-6.7949295e-06,7.6293945e-06,1.0,3.4097582e-05,2.9820949e-05,-3.4101307e-05,1.0,3.5464764e-06,-2.9820949e-05,-3.516674e-06,1.0,56,0.167,0,0,0.0,False,-0.25481392954937654,1.0497563883626244
0.1837312380084768,13:52:05.536028,13:51:55.223895,0,,0.1127913,0.0034709424,0.018030584,0.9583943,-0.10292289,-0.26624626,0.26719242,-0.004737258,0.9636316,-0.10044105,-0.99467814,0.022960007,,0.07359495,-0.022006892,0.04639852,-0.18427086,0.3191409,0.9296199,0.012969226,-0.94494486,0.32697278,0.98278993,0.07230812,0.16998672,,0.10633207,1.3404377,0.4401787,0.9956674,0.012140717,-0.09219026,-0.05139278,-0.75440204,-0.6543977,-0.07749338,0.65630037,-0.75050956,,-0.07979294,0.2618592,-0.07779813,-0.9364176,0.19818944,0.28955662,0.09325693,-0.6549626,0.7498848,0.33826798,0.72920847,0.59483594,,-0.040951293,0.41880912,-0.37157816,0.08802259,-0.25748545,-0.96226466,0.85873926,-0.46992534,0.2042966,-0.50479597,-0.84431714,0.17974882,,1.1770912219564256,0.373324629872887,0.21455284677000003,4.0017228814586625,0.2273631356096929,-1.0989761002230338,-0.40656338060822117,,-1.0015921173896736,-0.25624027676676925,0.19290998893000003,-1.9652141503369622,-1.0601626016800523,0.1638512818547908,0.8751975063474682,,-0.04931645967666478,-0.06459899893944013,0.08431779928,-0.06509005378220696,,-2.322346e-05,-6.7949295e-06,7.6293945e-06,1.0,3.4097582e-05,2.9820949e-05,-3.4101307e-05,1.0,3.5464764e-06,-2.9820949e-05,-3.516674e-06,1.0,64,0.192,0,0,0.0,False,-0.2550522404234603,1.04927358635483
0.20900505996542051,13:52:05.559854,13:51:55.223895,0,,0.112752825,0.0034939796,0.018130332,0.9588426,-0.099435166,-0.26595753,0.26680458,-0.0049257874,0.963738,-0.09713954,-0.9950319,0.021806598,,0.073636845,-0.021932222,0.04619676,-0.17765312,0.31954628,0.9307682,0.008773476,-0.9452613,0.32619655,0.9840541,0.066116005,0.16512501,,0.10633207,1.3404377,0.4401787,0.9956674,0.012140717,-0.09219026,-0.05139278,-0.75440204,-0.6543977,-0.07749338,0.65630037,-0.75050956,,-0.07976363,0.2619439,-0.07786079,-0.9371928,0.1947482,0.28938353,0.095123336,-0.6554869,0.7491919,0.33559087,0.7296644,0.5957925,,-0.040978838,0.41867274,-0.37140885,0.08162512,-0.2572733,-0.96288514,0.85683405,-0.475369,0.19964886,-0.50909007,-0.84132916,0.18163846,,1.1775623086617533,0.37343274813312616,0.21446988421000002,4.000464741797756,0.2239472231155569,-1.0977425486932941,-0.407053412806624,,-1.0009820214926097,-0.2555066171437179,0.19307721034000003,-1.9526327537278907,-1.0564734161863856,0.15422702050360196,0.8747074741490655,,-0.04931645967666478,-0.06459899893944013,0.08431779928,-0.06509005378220696,,-2.322346e-05,-6.7949295e-06,7.6293945e-06,1.0,3.4097582e-05,2.9820949e-05,-3.4101307e-05,1.0,3.5464764e-06,-2.9820949e-05,-3.516674e-06,1.0,72,0.217,0,0,0.0,False,-0.25481392954937654,1.0490321853509326
0.2328436759999022,13:52:05.596041,13:51:55.371359,0,,0.11272156,0.0035157204,0.018280283,0.95925546,-0.08620116,-0.2690693,0.26974863,-0.003888458,0.96292293,-0.084051386,-0.99627024,0.019522518,,0.07365605,-0.021790363,0.04596311,-0.17361467,0.32747582,0.928772,0.0072776675,-0.94264185,0.33372658,0.98478675,0.06469926,0.16127318,,0.10633207,1.3404377,0.4401787,0.9956674,0.012140717,-0.09219026,-0.05139278,-0.75440204,-0.6543977,-0.07749338,0.65630037,-0.75050956,,-0.079746395,0.26206043,-0.07796108,-0.9387835,0.18172938,0.29267713,0.10594492,-0.656092,0.74720746,0.32781267,0.73247373,0.59667504,,-0.040985502,0.41854712,-0.37116536,0.07765009,-0.26519507,-0.96106297,0.8561945,-0.47613645,0.20056191,-0.51078516,-0.83843046,0.19008651,,1.1783654728806725,0.3735022527289942,0.2143285886,3.991448074227921,0.2131529396340871,-1.096536657134349,-0.4068900687404895,,-1.0002869755339296,-0.25473434385629545,0.19327943158000002,-1.9476001950842623,-1.053877322690842,0.14247198899678354,0.875034162281334,,-0.04931645967666478,-0.06459899893944013,0.08431779928,-0.06509005378220696,,-2.322346e-05,-6.7949295e-06,7.6293945e-06,1.0,3.4097582e-05,2.9820949e-05,-3.4101307e-05,1.0,3.5464764e-06,-2.9820949e-05,-3.516674e-06,1.0,83,0.249,0,0,0.0,False,-0.2552905512975445,1.049080465551712
0.26903008099179715,13:52:05.623393,13:51:55.371359,0,,0.11274569,0.0035171509,0.018379569,0.9601178,-0.07504431,-0.26933625,0.27000323,-0.0013035536,0.9628585,-0.07260819,-0.9971794,0.019010574,,0.07366198,-0.021658309,0.045692503,-0.16493139,0.33448535,0.92785615,0.006950289,-0.9403222,0.34021467,0.98628056,0.062561095,0.15276381,,0.10633207,1.3404377,0.4401787,0.9956674,0.012140717,-0.09219026,-0.05139278,-0.75440204,-0.6543977,-0.07749338,0.65630037,-0.75050956,,-0.07977992,0.26212594,-0.07803197,-0.94073796,0.17078863,0.29299033,0.1136439,-0.65522933,0.746833,0.31952646,0.7358707,0.59699005,,-0.040974766,0.41838673,-0.37091067,0.06890821,-0.2721133,-0.95979476,0.8562582,-0.4775609,0.19686905,-0.5119312,-0.8353981,0.20009138,,1.1787747777230064,0.3735099754618684,0.21422358911000003,3.985786445753839,0.20276856565191362,-1.0968902003886016,-0.4062366924759526,,-0.9994838113150103,-0.2539080114387534,0.19346350476000002,-1.9404707370057885,-1.0466355882032738,0.13003254088962832,0.8743807860167969,,-0.04931645967666478,-0.06459899893944013,0.08431779928,-0.06509005378220696,,-2.322346e-05,-6.7949295e-06,7.6293945e-06,1.0,3.4097582e-05,2.9820949e-05,-3.4101307e-05,1.0,3.5464764e-06,-2.9820949e-05,-3.516674e-06,1.0,91,0.274,0,0,0.0,False,-0.25582675076423333,1.0492253061540504
0.296372368989978,13:52:05.646380,13:51:55.371359,0,,0.112748,0.0034982264,0.018451288,0.96001774,-0.07011847,-0.27101538,0.27174973,0.0009723902,0.9623675,-0.06721623,-0.9975382,0.01998812,,0.07368868,-0.021544732,0.045455515,-0.15637475,0.33802223,0.92805594,0.0079844,-0.93915206,0.3434091,0.98766553,0.061110616,0.14416069,,0.10633207,1.3404377,0.4401787,0.9956674,0.012140717,-0.09219026,-0.05139278,-0.75440204,-0.6543977,-0.07749338,0.65630037,-0.75050956,,-0.07978966,0.26215893,-0.07809772,-0.9411096,0.16598573,0.29455298,0.11851423,-0.6539687,0.74718094,0.3166498,0.73808783,0.59578454,,-0.04098657,0.41824272,-0.37068957,0.060206927,-0.27556852,-0.95939416,0.8569557,-0.47859374,0.19124573,-0.5118613,-0.83367264,0.20733537,,1.1789755687777363,0.3735022527289942,0.21414451542000001,3.981592646884148,0.1986694706589504,-1.0984483876861426,-0.40787013313729537,,-0.9989277745480661,-0.25325157914444435,0.19362942988,-1.9354381783621597,-1.0385740347171128,0.12272377591027436,0.8743807860167969,,-0.04931645967666478,-0.06459899893944013,0.08431779928,-0.06509005378220696,,-2.322346e-05,-6.7949295e-06,7.6293945e-06,1.0,3.4097582e-05,2.9820949e-05,-3.4101307e-05,1.0,3.5464764e-06,-2.9820949e-05,-3.516674e-06,1.0,99,0.299,0,0,0.0,False,-0.25546928445310746,1.048983905150153
0.31934912595897913,13:52:05.669480,13:51:55.371359,0,,0.11272972,0.0034719706,0.018534094,0.9602257,-0.06943714,-0.27045307,0.27116972,0.00093117356,0.96253103,-0.0665836,-0.99758595,0.019723356,,0.07369782,-0.021425895,0.045228183,-0.14808886,0.34110305,0.92828774,0.0090149045,-0.9381327,0.34615874,0.98893297,0.05963078,0.13585195,,0.10633207,1.3404377,0.4401787,0.9956674,0.012140717,-0.09219026,-0.05139278,-0.75440204,-0.6543977,-0.07749338,0.65630037,-0.75050956,,-0.079780206,0.2621946,-0.07817848,-0.9413938,0.16531129,0.2940236,0.11848705,-0.6540603,0.74710506,0.31581408,0.73815805,0.59614104,,-0.040982235,0.41811165,-0.37046897,0.051785983,-0.27855754,-0.95902234,0.85758406,-0.47967613,0.18563512,-0.5117302,-0.83205557,0.21404602,,1.1791300234352209,0.3735022527289942,0.21405766399,3.9818023368276334,0.19771301516059234,-1.0980768560609706,-0.40738010093889243,,-0.9983640150482477,-0.2525797013843868,0.19377331807,-1.9312443794924694,-1.0310590272300135,0.11667746994711167,0.8743807860167969,,-0.04931645967666478,-0.06459899893944013,0.08431779928,-0.06509005378220696,,-2.322346e-05,-6.7949295e-06,7.6293945e-06,1.0,3.4097582e-05,2.9820949e-05,-3.4101307e-05,1.0,3.5464764e-06,-2.9820949e-05,-3.516674e-06,1.0,110,0.331,0,0,0.0,False,-0.2546351963938136,1.0492253061540504
0.3424690579995513,13:52:05.701766,13:51:55.371359,0,,0.11273055,0.0034452975,0.018649995,0.959347,-0.06321051,-0.27505934,0.2755478,-0.001028508,0.9612868,-0.061046347,-0.9979998,0.016430736,,0.07373784,-0.021185152,0.044671834,-0.12450737,0.35100096,0.92806035,0.0129805505,-0.93468237,0.35524693,0.99213374,0.056277692,0.11181863,,0.10633207,1.3404377,0.4401787,0.9956674,0.012140717,-0.09219026,-0.05139278,-0.75440204,-0.6543977,-0.07749338,0.65630037,-0.75050956,,-0.07979294,0.26225096,-0.07828242,-0.9409314,0.15910137,0.29888946,0.12546189,-0.65607107,0.7441976,0.3144956,0.73773813,0.5973567,,-0.040985625,0.41776258,-0.3699717,0.027786527,-0.28830683,-0.95713484,0.85956824,-0.48187837,0.17010482,-0.51026493,-0.8274493,0.23442969,,1.1793462599556992,0.3736026482563591,0.21393840531000002,3.975092258636128,0.19484364866551807,-1.0955737226030646,-0.40738010093889243,,-0.9971206550554975,-0.2511587185355295,0.19410776089,-1.9201308124877896,-1.0086506412684815,0.09840493374089865,0.8747074741490654,,-0.04931645967666478,-0.06459899893944013,0.08431779928,-0.06509005378220696,,-2.322346e-05,-6.7949295e-06,7.6293945e-06,1.0,3.4097582e-05,2.9820949e-05,-3.4101307e-05,1.0,3.5464764e-06,-2.9820949e-05,-3.516674e-06,1.0,117,0.352,0,0,0.0,False,-0.25427773008268684,1.048983905150153
0.37468772497959435,13:52:05.729053,13:51:55.521879,0,,0.11271542,0.0034443885,0.018723235,0.9595467,-0.06362852,-0.2742654,0.27478212,-0.0006546974,0.9615063,-0.061358824,-0.99797344,0.016855687,,0.073754415,-0.02105216,0.04439324,-0.114856884,0.35434225,0.9280352,0.013886094,-0.93355393,0.358168,0.993285,0.054024935,0.10230462,,0.10633207,1.3404377,0.4401787,0.9956674,0.012140717,-0.09219026,-0.05139278,-0.75440204,-0.6543977,-0.07749338,0.65630037,-0.75050956,,-0.079784974,0.2622992,-0.07833901,-0.9411212,0.15952517,0.29806465,0.12467258,-0.6557552,0.7446085,0.31424126,0.7379274,0.5972568,,-0.040984772,0.41759476,-0.3697121,0.01803051,-0.29148817,-0.9564045,0.8598718,-0.4835875,0.16359602,-0.51019156,-0.82533497,0.24192314,,1.1795007146131835,0.37370304378372404,0.21387359081,3.9759310184100665,0.19470701216575265,-1.09570734091979,-0.4068900687404896,,-0.9964410545625658,-0.25041733617960393,0.19429572294000003,-1.9148885639006763,-0.9999059052834932,0.09135586664446815,0.8745441300829312,,-0.04931645967666478,-0.06459899893944013,0.08431779928,-0.06509005378220696,,-2.322346e-05,-6.7949295e-06,7.6293945e-06,1.0,3.4097582e-05,2.9820949e-05,-3.4101307e-05,1.0,3.5464764e-06,-2.9820949e-05,-3.516674e-06,1.0,128,0.385,0,0,0.0,False,-0.2543373078012081,1.048983905150153
0.40203222195850685,13:52:05.751253,13:51:55.521879,0,,0.112717226,0.0034575611,0.018781766,0.9596123,-0.06010919,-0.27482912,0.27522516,-0.0017512739,0.9613782,-0.05826898,-0.9981903,0.014862984,,0.073793806,-0.020833679,0.043947875,-0.1004296,0.36043242,0.92736304,0.015629739,-0.9313891,0.36368984,0.99482137,0.051019788,0.087905526,,0.10633207,1.3404377,0.4401787,0.9956674,0.012140717,-0.09219026,-0.05139278,-0.75440204,-0.6543977,-0.07749338,0.65630037,-0.75050956,,-0.07979206,0.2623476,-0.078373805,-0.9414721,0.15601394,0.29881412,0.12703955,-0.65687215,0.74322265,0.31223577,0.7376846,0.5986069,,-0.040996604,0.41732794,-0.3692922,0.003435783,-0.2973997,-0.9547469,0.8603731,-0.48571634,0.1543948,-0.50965315,-0.82196903,0.2542059,,1.1796937829350391,0.37381116204396314,0.21382433179000002,3.9740438089187053,0.19211091867020927,-1.0938354369699796,-0.4064000365420869,,-0.9954293765560424,-0.24928209444709296,0.19461201770000003,-1.907968795765687,-0.9866521648062454,0.08038497250563423,0.8745441300829311,,-0.04931645967666478,-0.06459899893944013,0.08431779928,-0.06509005378220696,,-2.322346e-05,-6.7949295e-06,7.6293945e-06,1.0,3.4097582e-05,2.9820949e-05,-3.4101307e-05,1.0,3.5464764e-06,-2.9820949e-05,-3.516674e-06,1.0,139,0.417,0,0,0.0,False,-0.25427773008268684,1.0494667071579475
0.42423224495723844,13:52:05.788434,13:51:55.521879,0,,0.11268246,0.0034708083,0.01889433,0.9594656,-0.058182046,-0.27575463,0.2761566,-0.0011737943,0.9611119,-0.05624315,-0.9983054,0.014941126,,0.07381375,-0.020584919,0.04349327,-0.08966355,0.36433125,0.9269428,0.015593618,-0.9300641,0.36706644,0.99584997,0.047366947,0.07771155,,0.10633207,1.3404377,0.4401787,0.9956674,0.012140717,-0.09219026,-0.05139278,-0.75440204,-0.6543977,-0.07749338,0.65630037,-0.75050956,,-0.07976795,0.26243326,-0.078452155,-0.94149554,0.15412374,0.29971996,0.1290807,-0.65659714,0.743114,0.31132677,0.73832655,0.59828883,,-0.040990364,0.41707137,-0.36884153,-0.0073500993,-0.30101448,-0.9535912,0.8599496,-0.48857152,0.14759615,-0.5103261,-0.81895554,0.26244834,,1.1800799195787504,0.37397333943432187,0.21372970262000002,3.972156599427345,0.1906079171727894,-1.0938350211314276,-0.40656338060822106,,-0.9942169074947892,-0.2480387344543428,0.19496331229000002,-1.9014684075176667,-0.9776341558217264,0.07229628220040527,0.8747074741490655,,-0.04931645967666478,-0.06459899893944013,0.08431779928,-0.06509005378220696,,-2.322346e-05,-6.7949295e-06,7.6293945e-06,1.0,3.4097582e-05,2.9820949e-05,-3.4101307e-05,1.0,3.5464764e-06,-2.9820949e-05,-3.516674e-06,1.0,150,0.45,0,0,0.0,False,-0.25493308498641865,1.049804668563404
0.46139182295883074,13:52:05.819543,13:51:55.521879,0,,0.11268001,0.0035040528,0.01895833,0.95945483,-0.052879043,-0.27685764,0.2771699,-0.0014802217,0.9608198,-0.05121708,-0.9985999,0.013236225,,0.07381479,-0.020334058,0.043038905,-0.08106454,0.36884382,0.9259496,0.014690578,-0.9284641,0.3711316,0.99660057,0.043688446,0.06984693,,0.10633207,1.3404377,0.4401787,0.9956674,0.012140717,-0.09219026,-0.05139278,-0.75440204,-0.6543977,-0.07749338,0.65630037,-0.75050956,,-0.07977076,0.26250052,-0.07847815,-0.94194126,0.14886737,0.30097368,0.13315561,-0.6572487,0.7418179,0.30824703,0.7388252,0.5992671,,-0.040965527,0.4168184,-0.368389,-0.015896788,-0.30525547,-0.95213777,0.859095,-0.49137744,0.1431923,-0.51156926,-0.8157005,0.2700548,,1.1804042743594678,0.37412007135893216,0.21368303618,3.9688015603315923,0.1865088221798262,-1.0923710950437675,-0.4060733484098181,,-0.9928731519746741,-0.2468108199273411,0.19532238462,-1.8953873991566157,-0.9710756038329852,0.06392610943777621,0.8748708182151997,,-0.04931645967666478,-0.06459899893944013,0.08431779928,-0.06509005378220696,,-2.322346e-05,-6.7949295e-06,7.6293945e-06,1.0,3.4097582e-05,2.9820949e-05,-3.4101307e-05,1.0,3.5464764e-06,-2.9820949e-05,-3.516674e-06,1.0,161,0.483,0,0,0.0,False,-0.25481392954937654,1.049804668563404
0.4925264669582248,13:52:05.860400,13:51:55.521879,0,,0.112669654,0.003516525,0.019015282,0.95938903,-0.048968717,-0.27780324,0.27814096,8.59797e-05,0.96054024,-0.047012538,-0.9988003,0.013702691,,0.07380863,-0.019999169,0.042397916,-0.06988727,0.3766894,0.92369944,0.013780415,-0.92551076,0.3784707,0.9974597,0.039179355,0.059490412,,0.10633207,1.3404377,0.4401787,0.9956674,0.012140717,-0.09219026,-0.05139278,-0.75440204,-0.6543977,-0.07749338,0.65630037,-0.75050956,,-0.079765595,0.26254788,-0.078513294,-0.9422542,0.14503978,0.3018617,0.13665949,-0.6563728,0.7419562,0.30574697,0.74036354,0.59864897,,-0.04092159,0.41645253,-0.36776674,-0.027013406,-0.31282148,-0.9494277,0.8580234,-0.49457276,0.13854118,-0.51289976,-0.8108887,0.28176823,,1.18068229274294,0.37417413048905174,0.21363377716,3.9658659011228092,0.1830929096856902,-1.0930978332774013,-0.40721675687275816,,-0.9909501914889922,-0.2452353824209993,0.19582664143000003,-1.8880482511346572,-0.962604140847528,0.05138236633889942,0.875034162281334,,-0.04931645967666478,-0.06459899893944013,0.08431779928,-0.06509005378220696,,-2.322346e-05,-6.7949295e-06,7.6293945e-06,1.0,3.4097582e-05,2.9820949e-05,-3.4101307e-05,1.0,3.5464764e-06,-2.9820949e-05,-3.516674e-06,1.0,169,0.507,0,0,0.0,False,-0.254694774112334,1.0495632675595068
0.533371677971445,13:52:05.879542,13:51:55.678361,0,,0.11267169,0.0035241544,0.019034311,0.9594757,-0.04609663,-0.2779952,0.27829522,9.447336e-05,0.96049553,-0.04424937,-0.998937,0.012919098,,0.07378583,-0.019825734,0.04205519,-0.06417819,0.37987542,0.92280865,0.013377309,-0.9243045,0.38142157,0.99784875,0.03682375,0.054238424,,0.10633207,1.3404377,0.4401787,0.9956674,0.012140717,-0.09219026,-0.05139278,-0.75440204,-0.6543977,-0.07749338,0.65630037,-0.75050956,,-0.07976925,0.26256606,-0.07852227,-0.9426026,0.14219563,0.30212703,0.1385934,-0.6565797,0.7414142,0.30379632,0.7407318,0.5991863,,-0.040878326,0.41625625,-0.3674386,-0.03269109,-0.31584424,-0.94824773,0.8574663,-0.4963098,0.13575047,-0.51350063,-0.8086526,0.2870507,,1.1808058564689274,0.37418185322192593,0.21361692539000002,3.964398071518417,0.18063345268991227,-1.0924808495932552,-0.40705341280662377,,-0.9898381179551039,-0.24442449546920572,0.19608589943000002,-1.8844835220954204,-0.9583684093547993,0.04604980030107733,0.8748708182151995,,-0.04931645967666478,-0.06459899893944013,0.08431779928,-0.06509005378220696,,-2.322346e-05,-6.7949295e-06,7.6293945e-06,1.0,3.4097582e-05,2.9820949e-05,-3.4101307e-05,1.0,3.5464764e-06,-2.9820949e-05,-3.516674e-06,1.0,176,0.528,0,0,0.0,False,-0.25439688551972894,1.0498529487641832
0.5525322679895908,13:52:05.903224,13:51:55.678361,0,,0.1125972,0.003521815,0.019066438,0.95951414,-0.04527743,-0.27799743,0.278343,0.0013871193,0.9604807,-0.043102503,-0.9989735,0.013933599,,0.07371599,-0.019597195,0.041526318,-0.053000864,0.3856195,0.9211343,0.013662636,-0.92206454,0.386795,0.99850094,0.033085734,0.043601602,,0.10633207,1.3404377,0.4401787,0.9956674,0.012140717,-0.09219026,-0.05139278,-0.75440204,-0.6543977,-0.07749338,0.65630037,-0.75050956,,-0.079698294,0.26258868,-0.07855455,-0.94275004,0.14142013,0.30203104,0.13938378,-0.65566856,0.74207205,0.3029762,0.74168664,0.59841985,,-0.04077442,0.41593704,-0.3669652,-0.043871872,-0.32134724,-0.9459446,0.8568439,-0.49897763,0.12976842,-0.5137059,-0.8048337,0.2972355,,1.180952588393538,0.3741664077561775,0.21359229588000003,3.963769001687964,0.17954036069178875,-1.0935497961270575,-0.4073801009388923,,-0.9882008985857682,-0.24326608553807205,0.19646700869000003,-1.8786122036778536,-0.9492137638705148,0.036542832249903096,0.8750341622813338,,-0.04931645967666478,-0.06459899893944013,0.08431779928,-0.06509005378220696,,-2.322346e-05,-6.7949295e-06,7.6293945e-06,1.0,3.4097582e-05,2.9820949e-05,-3.4101307e-05,1.0,3.5464764e-06,-2.9820949e-05,-3.516674e-06,1.0,187,0.561,0,0,0.0,False,-0.25493308498641865,1.049708108161845
0.5762075769598596,13:52:05.938623,13:51:55.678361,0,,0.11266233,0.003511861,0.01908964,0.9589479,-0.039521478,-0.28081498,0.28105438,0.00052401423,0.95969164,-0.0377813,-0.99921864,0.01161018,,0.07369463,-0.019344673,0.040969253,-0.041748747,0.39107725,0.9194104,0.013716191,-0.9199017,0.39190906,0.99903405,0.028972566,0.033040628,,0.10629383,1.3404409,0.44018757,0.99566734,0.012140044,-0.09219085,-0.051393665,-0.75440204,-0.6543976,-0.07749338,0.65630037,-0.75050956,,-0.07972654,0.26259077,-0.07856713,-0.94262385,0.13569282,0.3050372,0.14495239,-0.65672475,0.7400685,0.30074745,0.7418221,0.5993754,,-0.040678643,0.41559783,-0.36645162,-0.055098973,-0.3265255,-0.94358104,0.855991,-0.5019685,0.123721525,-0.5140462,-0.80087996,0.30716082,,1.1809757565921604,0.3741586850233033,0.21357155524000002,3.958736443044335,0.17612444819765274,-1.0919895296367552,-0.40656338060822117,,-0.9863319972302059,-0.24206906194256725,0.19686237714000002,-1.8725311953168027,-0.9403323913857612,0.027258700006121517,0.8751975063474682,,-0.04931645967666478,-0.06459899893944013,0.08431779928,-0.06509005378220696,,-6.214902e-05,-3.8146973e-06,2.2649765e-06,1.0,3.342703e-05,2.9228628e-05,-3.3430755e-05,1.0,3.4570694e-06,-2.9236078e-05,-3.4570694e-06,1.0,198,0.593,0,0,0.0,False,-0.25451604095677105,1.0491770259532711
0.6116119009675458,13:52:05.962748,13:51:55.678361,0,,0.11269218,0.0035084784,0.019100845,0.9585624,-0.034333333,-0.2828064,0.2829979,0.00075253844,0.95912015,-0.032716975,-0.9994102,0.010437608,,0.073653355,-0.019186482,0.040620625,-0.035154816,0.39468154,0.9181451,0.013528198,-0.91844106,0.3953267,0.99929035,0.02631858,0.026948258,,0.10629383,1.3404409,0.44018757,0.99566734,0.012140044,-0.09219085,-0.051393665,-0.75440204,-0.6543976,-0.07749338,0.65630037,-0.75050956,,-0.079757415,0.26259434,-0.078575015,-0.94267446,0.13055572,0.30711567,0.14976685,-0.65690196,0.7389518,0.29821926,0.74258673,0.59969175,,-0.040615406,0.41539085,-0.36613318,-0.061657656,-0.32995287,-0.9419817,0.8553294,-0.50387424,0.12050888,-0.51440257,-0.7982743,0.3132861,,1.180991202057909,0.3741586850233033,0.21355470347000002,3.9545426441746447,0.1725718992037513,-1.0914613476047248,-0.40672672467435544,,-0.9851581418333238,-0.24131995685376748,0.19710737595000002,-1.868756776334081,-0.9352768408944399,0.021257626546121178,0.8747074741490655,,-0.04931645967666478,-0.06459899893944013,0.08431779928,-0.06509005378220696,,-6.214902e-05,-3.8146973e-06,2.2649765e-06,1.0,3.342703e-05,2.9228628e-05,-3.3430755e-05,1.0,3.4570694e-06,-2.9236078e-05,-3.4570694e-06,1.0,209,0.626,0,0,0.0,False,-0.25540970673458663,1.0494667071579475
0.6357387389871292,13:52:05.999227,13:51:55.678361,0,,0.11276651,0.0035050511,0.019169644,0.9590293,-0.02271016,-0.28239524,0.28254697,0.0037074387,0.9592463,-0.020737693,-0.99973524,0.009972215,,0.07350942,-0.01885873,0.039894044,-0.020058323,0.40564856,0.913809,0.013826668,-0.91379297,0.405945,0.9997032,0.020777553,0.012720361,,0.10629383,1.3404409,0.44018757,0.99566734,0.012140044,-0.09219085,-0.051393665,-0.75440204,-0.6543976,-0.07749338,0.65630037,-0.75050956,,-0.07983811,0.26263395,-0.07862182,-0.9443068,0.119105004,0.30675504,0.1573066,-0.65539646,0.73872197,0.28903165,0.74583477,0.60015935,,-0.040425967,0.41496518,-0.36547062,-0.076707944,-0.3406385,-0.93705994,0.85404813,-0.5074259,0.11454605,-0.51450723,-0.79150766,0.32984525,,1.181130211249645,0.3741664077561775,0.21347692607000002,3.9493003955875317,0.16164097922251605,-1.0917776129448944,-0.40656338060822106,,-0.982516967190339,-0.239721351148803,0.19757533664000002,-1.8612079383686384,-0.9233894654148465,0.005275005933709109,0.8748708182151996,,-0.04931645967666478,-0.06459899893944013,0.08431779928,-0.06509005378220696,,-6.214902e-05,-3.8146973e-06,2.2649765e-06,1.0,3.342703e-05,2.9228628e-05,-3.3430755e-05,1.0,3.4570694e-06,-2.9236078e-05,-3.4570694e-06,1.0,220,0.659,0,0,0.0,False,-0.2551713958605024,1.0502391903704191
0.6722071580006741,13:52:06.029366,13:51:55.812160,0,,0.11278142,0.0034973025,0.019248381,0.9585765,-0.01471138,-0.2844551,0.2845646,0.00593853,0.9586384,-0.012413651,-0.99987423,0.009878844,,0.07336167,-0.018619865,0.03936845,-0.006956036,0.41682157,0.9089617,0.014744133,-0.9088422,0.4168796,0.9998671,0.016301781,0.00017623603,,0.10629383,1.3404409,0.44018757,0.99566734,0.012140044,-0.09219085,-0.051393665,-0.75440204,-0.6543976,-0.07749338,0.65630037,-0.75050956,,-0.07986075,0.2626794,-0.07868428,-0.9446027,0.11122223,0.30879653,0.16432878,-0.6541562,0.73829246,0.28411567,0.74813724,0.5996407,,-0.040245734,0.41466337,-0.3649894,-0.08979773,-0.3516517,-0.9318141,0.85311556,-0.5099441,0.110231064,-0.513936,-0.7850466,0.34579134,,1.1813927841673686,0.3741664077561775,0.21339525980000001,3.943429077169965,0.1550824272337749,-1.0923921015977274,-0.407053412806624,,-0.9804936111772922,-0.2384934366218013,0.19787477963000003,-1.855546309894556,-0.9125951819333767,-0.00997962892941251,0.8747074741490654,,-0.04931645967666478,-0.06459899893944013,0.08431779928,-0.06509005378220696,,-6.214902e-05,-3.8146973e-06,2.2649765e-06,1.0,3.342703e-05,2.9228628e-05,-3.3430755e-05,1.0,3.4570694e-06,-2.9236078e-05,-3.4570694e-06,1.0,231,0.692,0,0,0.0,False,-0.254694774112334,1.049514987358727
0.7023558139917441,13:52:06.063282,13:51:55.812160,0,,0.1127557,0.0034987032,0.01935476,0.9580702,-0.0072514415,-0.28644177,0.28648347,0.0055553317,0.958069,-0.005356118,-0.9999583,0.0073997974,,0.073074125,-0.018307045,0.038685262,0.013477027,0.42658147,0.9043487,0.01736939,-0.9043944,0.42634416,0.99975824,0.009962201,-0.019598037,,0.10629383,1.3404409,0.44018757,0.99566734,0.012140044,-0.09219085,-0.051393665,-0.75440204,-0.6543976,-0.07749338,0.65630037,-0.75050956,,-0.07984538,0.2627517,-0.07876503,-0.94472605,0.1037974,0.31099635,0.1704441,-0.6548191,0.73631567,0.280074,0.74862415,0.600933,,-0.03991681,0.4142836,-0.36436102,-0.110260256,-0.36104825,-0.92600584,0.8519769,-0.51413196,0.09901369,-0.5118379,-0.7780183,0.3642931,,1.181856148139822,0.37418185322192593,0.21329544547,3.938186828582852,0.14948033074339184,-1.0903560084905315,-0.40721675687275816,,-0.9775744181508353,-0.23677898992372345,0.19818718552000003,-1.8484168518160822,-0.8951057099634003,-0.024322799342695045,0.8745441300829311,,-0.04931645967666478,-0.06459899893944013,0.08431779928,-0.06509005378220696,,-6.214902e-05,-3.8146973e-06,2.2649765e-06,1.0,3.342703e-05,2.9228628e-05,-3.3430755e-05,1.0,3.4570694e-06,-2.9236078e-05,-3.4570694e-06,1.0,242,0.725,0,0,0.0,False,-0.25540970673458663,1.0497563883626244
0.7362736729555763,13:52:06.094378,13:51:55.812160,0,,0.1127142,0.0035090148,0.019473001,0.9575645,0.0008819401,-0.2882179,0.28820026,0.008547455,0.957532,0.0033079982,-0.99996316,0.007930517,,0.07282682,-0.01807025,0.038229585,0.027498942,0.43277344,0.90108323,0.01944977,-0.90148515,0.43237293,0.9994326,0.005636126,-0.033207268,,0.10629383,1.3404409,0.44018757,0.99566734,0.012140044,-0.09219085,-0.051393665,-0.75440204,-0.6543976,-0.07749338,0.65630037,-0.75050956,,-0.0798152,0.26283917,-0.07885015,-0.9450105,0.095789,0.31269735,0.17746693,-0.6529249,0.7363386,0.27470103,0.75134116,0.60002154,,-0.039644267,0.41405153,-0.36391747,-0.12429795,-0.36698672,-0.92188436,0.851129,-0.51700014,0.09105111,-0.5100289,-0.773325,0.37661508,,1.1824816895026342,0.3741664077561775,0.21318785340000002,3.9323155101652856,0.1422385962558235,-1.0913118737664282,-0.4068900687404895,,-0.9754274984118009,-0.23545840260223108,0.19836996241000002,-1.8442230529463917,-0.8830816979840417,-0.032984072506012235,0.8748708182151996,,-0.04931645967666478,-0.06459899893944013,0.08431779928,-0.06509005378220696,,-6.214902e-05,-3.8146973e-06,2.2649765e-06,1.0,3.342703e-05,2.9228628e-05,-3.3430755e-05,1.0,3.4570694e-06,-2.9236078e-05,-3.4570694e-06,1.0,253,0.757,0,0,0.0,False,-0.25493308498641865,1.049804668563404
0.7673407919937745,13:52:06.125269,13:51:55.812160,0,,0.11263935,0.003559634,0.019639552,0.9577913,0.012158319,-0.2872074,0.28707016,0.011867642,0.95783603,0.015054151,-0.9998557,0.007876486,,0.072556145,-0.017842382,0.037826836,0.037533734,0.43714178,0.898609,0.02020824,-0.89939094,0.43667805,0.999091,0.0017691851,-0.042591408,,0.10629383,1.3404409,0.44018757,0.99566734,0.012140044,-0.09219085,-0.051393665,-0.75440204,-0.6543976,-0.07749338,0.65630037,-0.75050956,,-0.07975538,0.26299018,-0.078947715,-0.9464004,0.0846518,0.31170562,0.18435346,-0.65084517,0.73648787,0.26521713,0.75447637,0.60035425,,-0.039352953,0.41386226,-0.36350915,-0.1342824,-0.37110114,-0.91883194,0.8500493,-0.51969016,0.08566415,-0.50929797,-0.76954925,0.3852395,,1.1835474266392771,0.37417413048905174,0.21305303924000002,3.927492641465141,0.13062449377576107,-1.0911527283282565,-0.40656338060822117,,-0.9732342422755211,-0.23417642894510982,0.1985268135,-1.8406583239071548,-0.8752934174974115,-0.03917153553642727,0.8748708182151997,,-0.04931645967666478,-0.06459899893944013,0.08431779928,-0.06509005378220696,,-6.214902e-05,-3.8146973e-06,2.2649765e-06,1.0,3.342703e-05,2.9228628e-05,-3.3430755e-05,1.0,3.4570694e-06,-2.9236078e-05,-3.4570694e-06,1.0,264,0.79,0,0,0.0,False,-0.25427773008268684,1.048983905150153
0.7982281019794755,13:52:06.162259,13:51:55.812160,0,,0.11251202,0.0035731643,0.019777477,0.9562541,0.015844662,-0.292108,0.29194027,0.012079328,0.9563603,0.01868166,-0.9998015,0.0069252253,,0.07230173,-0.017641813,0.0374462,0.046480507,0.44176343,0.89592665,0.02090332,-0.8971299,0.44127223,0.9987005,-0.0017825663,-0.05093342,,0.10629383,1.3404409,0.44018757,0.99566734,0.012140044,-0.09219085,-0.051393665,-0.75440204,-0.6543976,-0.07749338,0.65630037,-0.75050956,,-0.07964162,0.26309675,-0.07905317,-0.945085,0.08098476,0.31663206,0.19046676,-0.65080863,0.734963,0.2655877,0.75491035,0.59964454,,-0.039077997,0.41367552,-0.3631358,-0.14317736,-0.375509,-0.91569275,0.8490239,-0.5220568,0.081333004,-0.508585,-0.7658,0.39356282,,1.184396927255442,0.37418185322192593,0.21293766943000003,3.920992253217121,0.12925812877810666,-1.0905286217321357,-0.40656338060822095,,-0.9711568271323547,-0.23305663267834725,0.19867718314000002,-1.8375129747548868,-0.8684615925091395,-0.04547753938251334,0.8747074741490655,,-0.04931645967666478,-0.06459899893944013,0.08431779928,-0.06509005378220696,,-6.214902e-05,-3.8146973e-06,2.2649765e-06,1.0,3.342703e-05,2.9228628e-05,-3.3430755e-05,1.0,3.4570694e-06,-2.9236078e-05,-3.4570694e-06,1.0,275,0.823,0,0,0.0,False,-0.25493308498641865,1.0493218665556094
0.8352098409668542,13:52:06.193194,13:51:55.966835,0,,0.112423055,0.0035853386,0.01992789,0.95581853,0.02099131,-0.29320708,0.2930481,0.010354996,0.9560416,0.023104727,-0.99972606,0.003746003,,0.072071515,-0.017476797,0.037113845,0.05222917,0.4462327,0.8933915,0.020506889,-0.8949033,0.44578892,0.9984246,-0.0049624145,-0.055890948,,0.10629383,1.3404409,0.44018757,0.99566734,0.012140044,-0.09219085,-0.051393665,-0.75440204,-0.6543976,-0.07749338,0.65630037,-0.75050956,,-0.07956727,0.26320887,-0.07916538,-0.9450472,0.07580874,0.3180233,0.19423325,-0.65227383,0.7326748,0.2629814,0.75418293,0.60170496,,-0.038829193,0.41350818,-0.3628184,-0.14883119,-0.37979874,-0.91301817,0.84790385,-0.5241093,0.079802915,-0.50883037,-0.7622745,0.40003663,,1.1851537550771158,0.3742127441534228,0.21280804043,3.9176372141213687,0.12543230678467432,-1.0872455629483548,-0.4062366924759524,,-0.9692338666466729,-0.23213762746631453,0.19881847875000003,-1.8345773155461036,-0.864909043515238,-0.051641554484242735,0.8747074741490654,,-0.04931645967666478,-0.06459899893944013,0.08431779928,-0.06509005378220696,,-6.214902e-05,-3.8146973e-06,2.2649765e-06,1.0,3.342703e-05,2.9228628e-05,-3.3430755e-05,1.0,3.4570694e-06,-2.9236078e-05,-3.4570694e-06,1.0,286,0.856,0,0,0.0,False,-0.25451604095677105,1.0494667071579475
0.8661700669908896,13:52:06.226943,13:51:55.966835,0,,0.11236273,0.003586471,0.020160466,0.95484877,0.029276598,-0.29564625,0.29551557,0.0087924,0.95529747,0.030567288,-0.99953276,-0.00025624037,,0.07177292,-0.017293528,0.036634266,0.060624756,0.45519182,0.8883271,0.020409226,-0.8903434,0.45483217,0.997952,-0.009443969,-0.06326699,,0.10629383,1.3404409,0.44018757,0.99566734,0.012140044,-0.09219085,-0.051393665,-0.75440204,-0.6543976,-0.07749338,0.65630037,-0.75050956,,-0.07952964,0.26336566,-0.07934352,-0.9447332,0.067503095,0.32081532,0.20104726,-0.6536744,0.72958195,0.2589578,0.7537593,0.6039766,,-0.03849968,0.41323406,-0.36240727,-0.15711538,-0.38858575,-0.90791845,0.8464605,-0.5265745,0.07889186,-0.5087429,-0.756122,0.41165546,,1.1859337510974126,0.37439036700953,0.21259933774000003,3.9115562057603173,0.11969357379452583,-1.0833827983945108,-0.40721675687275816,,-0.9666081374694365,-0.23113367219266534,0.19902718144,-1.8305932066198978,-0.8594435835246205,-0.0634493572447502,0.8743807860167969,,-0.04931645967666478,-0.06459899893944013,0.08431779928,-0.06509005378220696,,-6.214902e-05,-3.8146973e-06,2.2649765e-06,1.0,3.342703e-05,2.9228628e-05,-3.3430755e-05,1.0,3.4570694e-06,-2.9236078e-05,-3.4570694e-06,1.0,297,0.888,0,0,0.0,False,-0.25427773008268684,1.0485976635439174
0.8999296079855412,13:52:06.262111,13:51:55.966835,0,,0.11237192,0.0035818964,0.02033712,0.954181,0.035927825,-0.29706547,0.29689544,0.010101885,0.95485646,0.03730686,-0.99930334,-0.0010277927,,0.07157709,-0.017190233,0.036298156,0.06533911,0.45962623,0.88570565,0.019996673,-0.88802725,0.45935586,0.9976628,-0.012302697,-0.06721395,,0.10629383,1.3404409,0.44018757,0.99566734,0.012140044,-0.09219085,-0.051393665,-0.75440204,-0.6543976,-0.07749338,0.65630037,-0.75050956,,-0.07955594,0.26347828,-0.07947743,-0.9446802,0.06089985,0.3222895,0.20655523,-0.65282536,0.7288031,0.25478277,0.75505644,0.604132,,-0.03828032,0.41302723,-0.36214063,-0.16173981,-0.39287785,-0.9052553,0.8454432,-0.5283049,0.07822927,-0.50898534,-0.7526891,0.41760382,,1.1862967195425012,0.3746066035300083,0.21243730149,3.906943027003658,0.11436475030367366,-1.0827947221968162,-0.4062366924759525,,-0.9647855725111195,-0.2305853581585954,0.19918403253000003,-1.827867237354599,-0.856847490029077,-0.06973191316215085,0.8742174419506625,,-0.04931645967666478,-0.06459899893944013,0.08431779928,-0.06509005378220696,,-6.214902e-05,-3.8146973e-06,2.2649765e-06,1.0,3.342703e-05,2.9228628e-05,-3.3430755e-05,1.0,3.4570694e-06,-2.9236078e-05,-3.4570694e-06,1.0,308,0.921,0,0,0.0,False,-0.25427773008268684,1.048742504146256
0.9350899040000513,13:52:06.287534,13:51:56.094927,0,,0.11239731,0.0035821348,0.020509467,0.9537628,0.039149974,-0.29799962,0.29778552,0.011326015,0.9545655,0.04074633,-0.99916923,-0.0008559823,,0.071377814,-0.0170964,0.03592211,0.07290737,0.4648228,0.8823968,0.021008909,-0.885271,0.46460092,0.9971174,-0.015334547,-0.07430825,,0.10629383,1.3404409,0.44018757,0.99566734,0.012140044,-0.09219085,-0.051393665,-0.75440204,-0.6543976,-0.07749338,0.65630037,-0.75050956,,-0.07959782,0.26359102,-0.079603486,-0.944571,0.05771518,0.32319424,0.20950903,-0.6519562,0.728738,0.25276774,0.75605696,0.60372704,,-0.038053066,0.41278216,-0.361861,-0.16927347,-0.39794102,-0.90165925,0.84461564,-0.5300419,0.07536594,-0.5079084,-0.7487981,0.42582923,,1.1864897878643568,0.3749541265093484,0.21228433927,3.904426747681844,0.11190529330789573,-1.0829128471739353,-0.4062366924759525,,-0.9629243938884314,-0.23009882598751927,0.19934736507000003,-1.8253509580327845,-0.8511087570389285,-0.07678014858147691,0.8740540978845281,,-0.04931645967666478,-0.06459899893944013,0.08431779928,-0.06509005378220696,,-6.214902e-05,-3.8146973e-06,2.2649765e-06,1.0,3.342703e-05,2.9228628e-05,-3.3430755e-05,1.0,3.4570694e-06,-2.9236078e-05,-3.4570694e-06,1.0,319,0.954,0,0,0.0,False,-0.25427773008268684,1.0487907843470352
0.9604574029799551,13:52:06.321842,13:51:56.094927,0,,0.11244861,0.0035993904,0.020653814,0.9527826,0.044561185,-0.30036634,0.30020595,0.010406733,0.9538176,0.04562907,-0.9989525,-0.0034622252,,0.071194105,-0.017004862,0.035514414,0.08316425,0.46999916,0.8787402,0.023195535,-0.88246906,0.46979833,0.9962659,-0.018687516,-0.084291816,,0.10629383,1.3404409,0.44018757,0.99566734,0.012140044,-0.09219085,-0.051393665,-0.75440204,-0.6543976,-0.07749338,0.65630037,-0.75050956,,-0.0796623,0.26369694,-0.07969506,-0.943999,0.052284766,0.32577947,0.21458721,-0.6527353,0.7265597,0.25063574,0.7557797,0.6049618,,-0.03783806,0.41250727,-0.36156675,-0.17952986,-0.4029567,-0.897438,0.8438244,-0.5320239,0.070078276,-0.50569695,-0.74469894,0.43553886,,1.1865901833917216,0.3753634313516823,0.21216378430000002,3.899813568925184,0.10903592681282148,-1.0805730711963104,-0.4062366924759525,,-0.9611327198616113,-0.22964318474794002,0.19952495680000001,-1.8228346787109702,-0.8423640210539404,-0.08391089441804794,0.8740540978845281,,-0.04931645967666478,-0.06459899893944013,0.08431779928,-0.06509005378220696,,-6.214902e-05,-3.8146973e-06,2.2649765e-06,1.0,3.342703e-05,2.9228628e-05,-3.3430755e-05,1.0,3.4570694e-06,-2.9236078e-05,-3.4570694e-06,1.0,327,0.978,0,0,0.0,False,-0.2549926627049395,1.0485976635439174
0.9948003659956157,13:52:06.351549,13:51:56.094927,0,,0.11251485,0.0036356598,0.020761192,0.9519675,0.049129885,-0.30223238,0.3020224,0.011820048,0.9532275,0.050404355,-0.9987225,-0.0035860538,,0.07102582,-0.016911209,0.0351516,0.09044352,0.4728111,0.8765099,0.024083316,-0.88089806,0.47269315,0.99561036,-0.021642655,-0.09105843,,0.10629383,1.3404409,0.44018757,0.99566734,0.012140044,-0.09219085,-0.051393665,-0.75440204,-0.6543976,-0.07749338,0.65630037,-0.75050956,,-0.07973755,0.26379213,-0.07974518,-0.94359785,0.047756378,0.32763156,0.21913414,-0.6517186,0.7261151,0.24820021,0.75695586,0.6044952,,-0.03764282,0.4122696,-0.3612945,-0.18675728,-0.40557626,-0.8947791,0.842873,-0.5340327,0.06613735,-0.5046651,-0.7418335,0.44158378,,1.1866210743232186,0.3757959043926389,0.21208471061000003,3.8958294599989785,0.10602992381798179,-1.0806539182593464,-0.4077067890711611,,-0.9594568868279046,-0.22917982077548654,0.19969865966000003,-1.820318399389156,-0.8367619245635572,-0.0883973497294605,0.873890753818394,,-0.04931645967666478,-0.06459899893944013,0.08431779928,-0.06509005378220696,,-6.214902e-05,-3.8146973e-06,2.2649765e-06,1.0,3.342703e-05,2.9228628e-05,-3.3430755e-05,1.0,3.4570694e-06,-2.9236078e-05,-3.4570694e-06,1.0,338,1.011,0,0,0.0,False,-0.2551713958605024,1.048452822941579
1.0245351690100506,13:52:06.384478,13:51:56.094927,0,,0.11257267,0.003666401,0.020851597,0.95137113,0.05444199,-0.30319804,0.30302334,0.011634618,0.9529121,0.05540602,-0.99844915,-0.005428344,,0.07086852,-0.016808406,0.03475517,0.10139844,0.47869006,0.872109,0.026507854,-0.8776161,0.4786308,0.9944927,-0.025414556,-0.101678,,0.10629383,1.3404409,0.44018757,0.99566734,0.012140044,-0.09219085,-0.051393665,-0.75440204,-0.6543976,-0.07749338,0.65630037,-0.75050956,,-0.07980294,0.26387233,-0.07978705,-0.94345903,0.042439576,0.32876122,0.22320876,-0.6519053,0.72470504,0.24507734,0.75711185,0.60557306,,-0.037455928,0.412007,-0.3609969,-0.19769801,-0.4112831,-0.8898099,0.84189856,-0.5362012,0.060786936,-0.5021178,-0.7371123,0.45226458,,1.186675133453338,0.37612798190623054,0.21201730353000003,3.892474420903226,0.10234073832431491,-1.078952494701792,-0.4057466602775497,,-0.9578660038558144,-0.22867784313866196,0.19988143655,-1.8178021200673418,-0.827060733080211,-0.09647137837218761,0.8742174419506625,,-0.04931645967666478,-0.06459899893944013,0.08431779928,-0.06509005378220696,,-6.214902e-05,-3.8146973e-06,2.2649765e-06,1.0,3.342703e-05,2.9228628e-05,-3.3430755e-05,1.0,3.4570694e-06,-2.9236078e-05,-3.4570694e-06,1.0,346,1.036,0,0,0.0,False,-0.2549926627049395,1.048549383343138
1.057440817996394,13:52:06.406058,13:51:56.094927,0,,0.11257899,0.003682524,0.020900965,0.9513558,0.05404821,-0.3033165,0.30310035,0.012349993,0.9528786,0.05524732,-0.99846196,-0.004632801,,0.07076606,-0.016735926,0.034522116,0.106630795,0.481238,0.87008035,0.027529031,-0.8761629,0.48122853,0.9939176,-0.027361214,-0.106674,,0.10629383,1.3404409,0.44018757,0.99566734,0.012140044,-0.09219085,-0.051393665,-0.75440204,-0.6543976,-0.07749338,0.65630037,-0.75050956,,-0.07981353,0.2639167,-0.079812646,-0.9434264,0.042852554,0.32880142,0.22316258,-0.65135986,0.7252095,0.24524511,0.7575579,0.604947,,-0.03733697,0.41186005,-0.3608116,-0.20291004,-0.41372877,-0.88749987,0.84132683,-0.5373884,0.05816272,-0.50099576,-0.7348756,0.45712262,,1.1867369153163319,0.3763133274952119,0.2119823037,3.892474420903226,0.10261401132384577,-1.0795837242098878,-0.40656338060822117,,-0.956854325849291,-0.22833032015932186,0.19999551007000002,-1.8165439804064347,-0.8226883650877169,-0.09995507255033259,0.8740540978845281,,-0.04931645967666478,-0.06459899893944013,0.08431779928,-0.06509005378220696,,-6.214902e-05,-3.8146973e-06,2.2649765e-06,1.0,3.342703e-05,2.9228628e-05,-3.3430755e-05,1.0,3.4570694e-06,-2.9236078e-05,-3.4570694e-06,1.0,379,1.138,0,0,0.0,False,-0.2551118181419816,1.0487907843470352
1.0790302329696715,13:52:06.502553,13:51:56.267255,0,,0.11257608,0.0036469996,0.021115974,0.947904,0.06451757,-0.31195432,0.31187722,0.011521012,0.9500525,0.06488907,-0.9978501,-0.009200811,,0.07015137,-0.016397893,0.033571422,0.12497482,0.48933762,0.86309314,0.030162543,-0.8713853,0.48967135,0.99170136,-0.035163462,-0.12366091,,0.10629383,1.3404409,0.44018757,0.99566734,0.012140044,-0.09219085,-0.051393665,-0.75440204,-0.6543976,-0.07749338,0.65630037,-0.75050956,,-0.07983236,0.26403192,-0.07999669,-0.940677,0.032353945,0.3377573,0.23625584,-0.6520275,0.7204466,0.24353634,0.7575047,0.6057035,,-0.036659382,0.4113062,-0.36001787,-0.22109723,-0.42135993,-0.8795293,0.83865947,-0.5424433,0.049047347,-0.49776134,-0.7267813,0.47331017,,1.187123051960043,0.37652184128281596,0.21177360101000003,3.879473644407185,0.09837827983111713,-1.076456484155861,-0.4062366924759525,,-0.9517727676180513,-0.22653864613250177,0.20039087852,-1.8115114217628059,-0.8090247151111729,-0.11101518417983419,0.8742174419506625,,-0.04931645967666478,-0.06459899893944013,0.08431779928,-0.06509005378220696,,-6.214902e-05,-3.8146973e-06,2.2649765e-06,1.0,3.342703e-05,2.9228628e-05,-3.3430755e-05,1.0,3.4570694e-06,-2.9236078e-05,-3.4570694e-06,1.0,383,1.151,0,0,0.0,False,-0.2540989969271239,1.049080465551712
1.1755410420009866,13:52:06.526892,13:51:56.267255,0,,0.112562194,0.0036336333,0.021191746,0.94657284,0.068257086,-0.31518394,0.31516567,0.011318743,0.9489691,0.068341345,-0.99760354,-0.010798335,,0.06999891,-0.016348764,0.03343779,0.12651281,0.49029693,0.8623244,0.030581981,-0.870824,0.49064288,0.99149346,-0.035700887,-0.12516469,,0.10629383,1.3404409,0.44018757,0.99566734,0.012140044,-0.09219085,-0.051393665,-0.75440204,-0.6543976,-0.07749338,0.65630037,-0.75050956,,-0.07982623,0.26407245,-0.08006325,-0.93959373,0.028603915,0.34109446,0.24105749,-0.6521771,0.7187185,0.24301216,0.7575268,0.60588634,,-0.036498666,0.41123697,-0.35990432,-0.2226339,-0.4223004,-0.87869024,0.8385209,-0.54271775,0.048375145,-0.49730965,-0.7260302,0.47493508,,1.1873161202818987,0.3765604549471871,0.21169971248000002,3.874650775707041,0.09687527833369727,-1.0753942446954814,-0.40591000434368385,,-0.9507379214129051,-0.22624518228328125,0.20041810061,-1.8115114217628059,-0.8083415326123456,-0.11165395243845683,0.8740540978845281,,-0.04931645967666478,-0.06459899893944013,0.08431779928,-0.06509005378220696,,-6.214902e-05,-3.8146973e-06,2.2649765e-06,1.0,3.342703e-05,2.9228628e-05,-3.3430755e-05,1.0,3.4570694e-06,-2.9236078e-05,-3.4570694e-06,1.0,391,1.175,0,0,0.0,False,-0.2540989969271239,1.0493218665556094
1.1998164789984003,13:52:06.545849,13:51:56.267255,0,,0.11254479,0.0036252737,0.021281824,0.9463659,0.07067881,-0.31527156,0.31531513,0.010833055,0.9489252,0.070484236,-0.99744034,-0.012034059,,0.06985314,-0.016311437,0.033335507,0.12812252,0.49115193,0.8615999,0.030901045,-0.8703152,0.49152496,0.99127686,-0.036350995,-0.1266841,,0.10629383,1.3404409,0.44018757,0.99566734,0.012140044,-0.09219085,-0.051393665,-0.75440204,-0.6543976,-0.07749338,0.65630037,-0.75050956,,-0.079817824,0.2641263,-0.08013753,-0.93959033,0.02616514,0.3412996,0.24259141,-0.6525378,0.7178745,0.24149418,0.7573043,0.60677075,,-0.03634676,0.41118732,-0.3598174,-0.22423391,-0.42312288,-0.87788737,0.838314,-0.54310244,0.047637824,-0.49693942,-0.72526324,0.4764918,,1.1875555250009997,0.3766145140773067,0.21161545363000003,3.873392636046134,0.09496236733698112,-1.0740794302641532,-0.4050932840130126,,-0.9498266389337466,-0.2259826093655576,0.20042069319000003,-1.8113017318193214,-0.8075217136137531,-0.11240413860077586,0.8742174419506625,,-0.04931645967666478,-0.06459899893944013,0.08431779928,-0.06509005378220696,,-6.214902e-05,-3.8146973e-06,2.2649765e-06,1.0,3.342703e-05,2.9228628e-05,-3.3430755e-05,1.0,3.4570694e-06,-2.9236078e-05,-3.4570694e-06,1.0,399,1.2,0,0,0.0,False,-0.2550522404234603,1.049418426957168
1.2188410380040295,13:52:06.573419,13:51:56.267255,0,,0.11250618,0.0036097616,0.021448106,0.94506514,0.07477209,-0.31821555,0.3183209,0.010823339,0.94792116,0.074322194,-0.99714196,-0.013572782,,0.06965352,-0.016265556,0.033211052,0.12892032,0.49243394,0.86074865,0.031790674,-0.86959845,0.49273533,0.99114525,-0.036159784,-0.12776372,,0.10629383,1.3404409,0.44018757,0.99566734,0.012140044,-0.09219085,-0.051393665,-0.75440204,-0.6543976,-0.07749338,0.65630037,-0.75050956,,-0.0797959,0.26422596,-0.08027525,-0.9385824,0.02206349,0.3443491,0.24743389,-0.6525238,0.7162326,0.24049857,0.75744694,0.60698813,,-0.03613986,0.41112974,-0.35971096,-0.2250759,-0.42446443,-0.8770238,0.83857286,-0.5427184,0.047458354,-0.49612135,-0.7247667,0.47809717,,1.1879879980419563,0.3767535232690427,0.21146119512000003,3.86856976734599,0.0929128198404995,-1.0728165554094098,-0.40591000434368385,,-0.948598724406745,-0.22568914551633706,0.20041810061,-1.812350181536744,-0.8075217136137531,-0.1124858173409164,0.8743807860167969,,-0.04931645967666478,-0.06459899893944013,0.08431779928,-0.06509005378220696,,-6.214902e-05,-3.8146973e-06,2.2649765e-06,1.0,3.342703e-05,2.9228628e-05,-3.3430755e-05,1.0,3.4570694e-06,-2.9236078e-05,-3.4570694e-06,1.0,407,1.224,0,0,0.0,False,-0.2544564632382502,1.0489356249493738
1.246383800986223,13:52:06.597069,13:51:56.393047,0,,0.11249974,0.0036309958,0.021548554,0.9445621,0.07995137,-0.31844997,0.31870043,0.009950966,0.94780326,0.07894704,-0.99674916,-0.016081274,,0.069555424,-0.016247377,0.033159077,0.12907408,0.49276263,0.8605375,0.032063246,-0.8694169,0.49303788,0.9911164,-0.036046743,-0.1280188,,0.10629383,1.3404409,0.44018757,0.99566734,0.012140044,-0.09219085,-0.051393665,-0.75440204,-0.6543976,-0.07749338,0.65630037,-0.75050956,,-0.07979858,0.2643084,-0.08033673,-0.9385173,0.016848156,0.34482095,0.2507896,-0.6531417,0.7145002,0.23725495,0.75704825,0.6087594,,-0.03603876,0.41110694,-0.3596672,-0.22524497,-0.42481434,-0.87681097,0.83867264,-0.5425671,0.047425814,-0.4958759,-0.72467494,0.47849068,,1.1883277982884222,0.37690025519365294,0.21138082514000003,3.8658437980806912,0.08895036134730173,-1.070238866123338,-0.4055833162114154,,-0.9480117967083039,-0.22555785905747525,0.20041032287000002,-1.8127695614237131,-0.8077949866132839,-0.1122629815335236,0.8743807860167969,,-0.04931645967666478,-0.06459899893944013,0.08431779928,-0.06509005378220696,,-6.214902e-05,-3.8146973e-06,2.2649765e-06,1.0,3.342703e-05,2.9228628e-05,-3.3430755e-05,1.0,3.4570694e-06,-2.9236078e-05,-3.4570694e-06,1.0,415,1.249,0,0,0.0,False,-0.2544564632382502,1.0492253061540504
1.2700610359897837,13:52:06.618008,13:51:56.393047,0,,0.11246493,0.0036444515,0.021737173,0.9435738,0.08422007,-0.3202744,0.32032174,0.013317555,0.9472152,0.08403976,-0.9963582,-0.014411449,,0.06945079,-0.016227037,0.033116937,0.12905268,0.49399245,0.8598353,0.033055037,-0.86874735,0.49415135,0.9910867,-0.035349607,-0.12844318,,0.10629383,1.3404409,0.44018757,0.99566734,0.012140044,-0.09219085,-0.051393665,-0.75440204,-0.6543976,-0.07749338,0.65630037,-0.75050956,,-0.07978175,0.26444435,-0.08047165,-0.9379798,0.012657203,0.34645873,0.25540677,-0.6505399,0.7152379,0.23443814,0.75936663,0.60696054,,-0.03593226,0.41109434,-0.35962677,-0.22529048,-0.4261492,-0.87615126,0.8391677,-0.54177415,0.04773163,-0.49501693,-0.7244844,0.47966722,,1.1888915577882406,0.37713965991275394,0.21122008518000002,3.8616499992110005,0.0851245393538694,-1.071856531747991,-0.4068900687404895,,-0.9474403144756113,-0.22543429533148765,0.20039087852,-1.8142373910281047,-0.8079316231130493,-0.11223324236996768,0.8742174419506626,,-0.04931645967666478,-0.06459899893944013,0.08431779928,-0.06509005378220696,,-6.214902e-05,-3.8146973e-06,2.2649765e-06,1.0,3.342703e-05,2.9228628e-05,-3.3430755e-05,1.0,3.4570694e-06,-2.9236078e-05,-3.4570694e-06,1.0,423,1.273,0,0,0.0,False,-0.25493308498641865,1.0491770259532711
1.290957705990877,13:52:06.638546,13:51:56.393047,0,,0.11245547,0.0036530793,0.021803126,0.9435148,0.08585662,-0.32001305,0.32005417,0.013658613,0.94730073,0.08570297,-0.9962139,-0.014591664,,0.06940992,-0.016225487,0.033115268,0.12897408,0.49415913,0.8597513,0.03298235,-0.86865056,0.4943264,0.9910993,-0.035398662,-0.12833199,,0.10629383,1.3404409,0.44018757,0.99566734,0.012140044,-0.09219085,-0.051393665,-0.75440204,-0.6543976,-0.07749338,0.65630037,-0.75050956,,-0.07977846,0.26449472,-0.080515966,-0.93808913,0.011024518,0.34621847,0.25630507,-0.65025884,0.7151721,0.23301603,0.75963277,0.6071751,,-0.035891626,0.41109854,-0.35962418,-0.22520854,-0.42631683,-0.87609076,0.8391498,-0.54178476,0.047926854,-0.49508464,-0.7243778,0.47975823,,1.1890923488429703,0.3772323327072446,0.21116564100000002,3.8610209293805466,0.08348490135668411,-1.0714996617853205,-0.40591000434368407,,-0.9472472461537557,-0.22538795893424232,0.20037143417000003,-1.8142373910281047,-0.8082048961125803,-0.11233712152313718,0.8742174419506624,,-0.04931645967666478,-0.06459899893944013,0.08431779928,-0.06509005378220696,,-6.214902e-05,-3.8146973e-06,2.2649765e-06,1.0,3.342703e-05,2.9228628e-05,-3.3430755e-05,1.0,3.4570694e-06,-2.9236078e-05,-3.4570694e-06,1.0,427,1.286,0,0,0.0,False,-0.254218152364166,1.0489356249493738
1.3115167079959065,13:52:06.658054,13:51:56.393047,0,,0.112403736,0.0036928505,0.021964803,0.9427333,0.087396026,-0.32189447,0.3218891,0.014541596,0.94666564,0.087415695,-0.9960675,-0.014422953,,0.06938244,-0.016215846,0.033129036,0.12832952,0.49561682,0.85900843,0.033940643,-0.86785775,0.49565208,0.9911506,-0.034451425,-0.12819335,,0.10629383,1.3404409,0.44018757,0.99566734,0.012140044,-0.09219085,-0.051393665,-0.75440204,-0.6543976,-0.07749338,0.65630037,-0.75050956,,-0.07974147,0.2646334,-0.08061498,-0.93742543,0.009503388,0.34805638,0.25884515,-0.6495655,0.7148873,0.23287927,0.7602462,0.6064593,,-0.03586633,0.41111848,-0.359623,-0.22464068,-0.42791045,-0.87545943,0.83976954,-0.5407433,0.048823845,-0.49429104,-0.72421634,0.4808191,,1.1896561083427888,0.3775721329537105,0.21104378974000002,3.858294960115248,0.0828017188578569,-1.0714326447076818,-0.40591000434368385,,-0.9471777415578877,-0.2253570680027454,0.20034939724000003,-1.8159149105759809,-0.8084781691121111,-0.11260435815658773,0.874544130082931,,-0.04931645967666478,-0.06459899893944013,0.08431779928,-0.06509005378220696,,-6.214902e-05,-3.8146973e-06,2.2649765e-06,1.0,3.342703e-05,2.9228628e-05,-3.3430755e-05,1.0,3.4570694e-06,-2.9236078e-05,-3.4570694e-06,1.0,460,1.388,0,0,0.0,False,-0.254694774112334,1.0490321853509326
1.3310085149714723,13:52:06.755661,13:51:56.536064,0,,0.112343214,0.0037712157,0.022208437,0.94164383,0.08880152,-0.32468626,0.32463515,0.015422106,0.9457135,0.088988125,-0.99592996,-0.014306009,,0.06935624,-0.016203403,0.033184886,0.12546824,0.5016025,0.8559513,0.035048604,-0.8644718,0.5014581,0.9914783,-0.032917082,-0.12604424,,0.10629383,1.3404409,0.44018757,0.99566734,0.012140044,-0.09219085,-0.051393665,-0.75440204,-0.6543976,-0.07749338,0.65630037,-0.75050956,,-0.07970256,0.26485544,-0.0807504,-0.9364166,0.0081162825,0.35079625,0.26198986,-0.64887416,0.7143694,0.23342064,0.76085246,0.6054902,,-0.03584653,0.41117522,-0.35964155,-0.22190875,-0.43423828,-0.873037,0.8409632,-0.53838784,0.05403152,-0.49349508,-0.72220194,0.4846514,,1.1904361043630856,0.37822856524801957,0.21087008688000003,3.8547302310760108,0.0828017188578569,-1.0711059297471195,-0.40656338060822095,,-0.9471931870236361,-0.22534162253699697,0.20030791596000003,-1.8190602597282488,-0.8106643531083583,-0.1169475772079871,0.8737274097522598,,-0.04931645967666478,-0.06459899893944013,0.08431779928,-0.06509005378220696,,-6.214902e-05,-3.8146973e-06,2.2649765e-06,1.0,3.342703e-05,2.9228628e-05,-3.3430755e-05,1.0,3.4570694e-06,-2.9236078e-05,-3.4570694e-06,1.0,468,1.413,0,0,0.0,False,-0.2551713958605024,1.0490321853509326
1.428621530008968,13:52:06.789202,13:51:56.536064,0,,0.11234768,0.003768161,0.022239879,0.94036686,0.09008944,-0.32801536,0.32795408,0.015905797,0.9445597,0.09031218,-0.9958067,-0.014587969,,0.06934667,-0.016196206,0.03318703,0.12435996,0.5042524,0.85455495,0.03567171,-0.862956,0.5040185,0.99159575,-0.032196254,-0.12530477,,0.10629383,1.3404409,0.44018757,0.99566734,0.012140044,-0.09219085,-0.051393665,-0.75440204,-0.6543976,-0.07749338,0.65630037,-0.75050956,,-0.07971011,0.26487368,-0.08077546,-0.9351812,0.006836465,0.35410357,0.2654089,-0.648485,0.7134601,0.2345084,0.76119673,0.60463655,,-0.035837743,0.41118196,-0.35963652,-0.22086327,-0.4370448,-0.871901,0.84151876,-0.5373011,0.056157846,-0.49301684,-0.72131777,0.48645148,,1.1904438270959596,0.3783212380425103,0.21084156850000002,3.85095581209329,0.08334826485691868,-1.071388243881624,-0.4068900687404896,,-0.9471468506263908,-0.2253493452698712,0.20030791596000003,-1.8205280893326405,-0.8114841721069508,-0.11881111073016598,0.8742174419506626,,-0.04931645967666478,-0.06459899893944013,0.08431779928,-0.06509005378220696,,-6.214902e-05,-3.8146973e-06,2.2649765e-06,1.0,3.342703e-05,2.9228628e-05,-3.3430755e-05,1.0,3.4570694e-06,-2.9236078e-05,-3.4570694e-06,1.0,476,1.437,0,0,0.0,False,-0.2557075953271921,1.0492253061540504
1.4621261339634657,13:52:06.808989,13:51:56.536064,0,,0.11235942,0.0037620366,0.022279993,0.9392852,0.09122156,-0.3307899,0.330746,0.016038656,0.9435835,0.09138055,-0.99570143,-0.01510635,,0.06934095,-0.016191587,0.033187866,0.12366065,0.5061831,0.8535144,0.03632164,-0.86184865,0.50586337,0.9916595,-0.03155428,-0.12496221,,0.10629383,1.3404409,0.44018757,0.99566734,0.012140044,-0.09219085,-0.051393665,-0.75440204,-0.6543976,-0.07749338,0.65630037,-0.75050956,,-0.07972584,0.26489502,-0.08080836,-0.9341302,0.0057036113,0.35688686,0.26825538,-0.6483644,0.71250445,0.23545662,0.7613087,0.6041268,,-0.035832465,0.4111857,-0.35963294,-0.22022061,-0.43910098,-0.87103,0.84199464,-0.53640926,0.05753332,-0.49249148,-0.72073257,0.48784906,,1.190420658897337,0.3784370790356236,0.21080397609,3.847810462941022,0.08389481085598044,-1.0713438430555664,-0.40721675687275816,,-0.9471236824277681,-0.22536479073561963,0.20030791596000003,-1.8217862289935476,-0.8118940816062472,-0.12002875308174735,0.8740540978845281,,-0.04931645967666478,-0.06459899893944013,0.08431779928,-0.06509005378220696,,-6.214902e-05,-3.8146973e-06,2.2649765e-06,1.0,3.342703e-05,2.9228628e-05,-3.3430755e-05,1.0,3.4570694e-06,-2.9236078e-05,-3.4570694e-06,1.0,484,1.462,0,0,0.0,False,-0.2551713958605024,1.0485976635439174
1.481923512998037,13:52:06.829681,13:51:56.536064,0,,0.112362504,0.0037570596,0.022298232,0.93898547,0.091399506,-0.33159104,0.33154696,0.016110241,0.94330114,0.091559246,-0.995684,-0.015175998,,0.06933392,-0.016187102,0.033191442,0.12277773,0.50778365,0.8526906,0.036726236,-0.8609274,0.5074006,0.9917544,-0.030981332,-0.124351725,,0.10629383,1.3404409,0.44018757,0.99566734,0.012140044,-0.09219085,-0.051393665,-0.75440204,-0.6543976,-0.07749338,0.65630037,-0.75050956,,-0.0797308,0.2649032,-0.080824964,-0.9338268,0.0055268845,0.3576828,0.26898727,-0.6483068,0.7122809,0.23582488,0.76135916,0.6039196,,-0.03582615,0.41119197,-0.35963097,-0.21938139,-0.44080976,-0.8703784,0.84239036,-0.53563374,0.058948856,-0.49218926,-0.7202661,0.48884198,,1.1904129361644629,0.3785451972958628,0.21076379110000001,3.8463426333366306,0.08430472035527677,-1.0711880243258123,-0.40721675687275827,,-0.9470927914962712,-0.22537251346849388,0.20030661967000002,-1.8228346787109702,-0.8125772641050742,-0.12102355962593606,0.8745441300829311,,-0.04931645967666478,-0.06459899893944013,0.08431779928,-0.06509005378220696,,-6.214902e-05,-3.8146973e-06,2.2649765e-06,1.0,3.342703e-05,2.9228628e-05,-3.3430755e-05,1.0,3.4570694e-06,-2.9236078e-05,-3.4570694e-06,1.0,492,1.486,1,1,0.0,False,-0.2552905512975445,1.048983905150153
1.5026717559667304,13:52:06.861077,13:51:56.536064,0,,0.112402305,0.0037454665,0.022439495,0.937465,0.095314465,-0.33477545,0.33487633,0.015414,0.942136,0.09495942,-0.99532795,-0.017468482,,0.06933039,-0.016179383,0.033200443,0.12138669,0.51064414,0.8511802,0.037220865,-0.85925996,0.51018333,0.99190724,-0.030247748,-0.123309374,,0.10629383,1.3404409,0.44018757,0.99566734,0.012140044,-0.09219085,-0.051393665,-0.75440204,-0.6543976,-0.07749338,0.65630037,-0.75050956,,-0.07978435,0.26498592,-0.080934316,-0.9325491,0.0015779515,0.3610397,0.2737934,-0.64876246,0.71003133,0.23534939,0.76098937,0.6045708,,-0.035824038,0.41120395,-0.35962906,-0.21804953,-0.44383723,-0.8691737,0.8429422,-0.53448206,0.061460566,-0.49183625,-0.7192617,0.49067268,,1.1904361043630856,0.3788000474807122,0.21065619903000002,3.84214883446694,0.08307499185738779,-1.0696135120115606,-0.4070534128066239,,-0.9470850687633969,-0.2253802362013681,0.20030661967000002,-1.824302508315362,-0.8136703561031979,-0.12315432978156529,0.8743807860167967,,-0.04931645967666478,-0.06459899893944013,0.08431779928,-0.06509005378220696,,-6.214902e-05,-3.8146973e-06,2.2649765e-06,1.0,3.342703e-05,2.9228628e-05,-3.3430755e-05,1.0,3.4570694e-06,-2.9236078e-05,-3.4570694e-06,1.0,505,1.526,1,1,0.041,False,-0.2552309735790237,1.048983905150153
1.5340642919763923,13:52:06.896961,13:51:56.693627,0,,0.11245912,0.003747046,0.02261594,0.93654305,0.10102502,-0.33568004,0.33600104,0.014333993,0.9417525,0.09995219,-0.99478066,-0.02052012,,0.069332935,-0.016178891,0.033209622,0.12027136,0.51241016,0.8502767,0.037054896,-0.8582144,0.51195234,0.9920492,-0.030066252,-0.12220596,,0.10629383,1.3404409,0.44018757,0.99566734,0.012140044,-0.09219085,-0.051393665,-0.75440204,-0.6543976,-0.07749338,0.65630037,-0.75050956,,-0.07985786,0.26510102,-0.081059694,-0.93208194,-0.004186655,0.3622233,0.27796903,-0.6494571,0.7077702,0.2322853,0.7603867,0.606511,,-0.035827484,0.41121167,-0.35963354,-0.21694402,-0.44568157,-0.8685063,0.84310746,-0.5339919,0.06342291,-0.49204174,-0.71848494,0.4916038,,1.190528777157576,0.3792016295901719,0.21050064423000003,3.8385841054277026,0.07952244286348634,-1.066634967775313,-0.40721675687275805,,-0.9470927914962712,-0.22539568166711654,0.20030791596000003,-1.824721888202331,-0.8147634481013214,-0.12487670623649197,0.8743807860167967,,-0.04931645967666478,-0.06459899893944013,0.08431779928,-0.06509005378220696,,-6.214902e-05,-3.8146973e-06,2.2649765e-06,1.0,3.342703e-05,2.9228628e-05,-3.3430755e-05,1.0,3.4570694e-06,-2.9236078e-05,-3.4570694e-06,1.0,513,1.552,1,1,0.066,False,-0.25558843989015,1.0487907843470352
1.5699298600084148,13:52:06.919695,13:51:56.693627,0,,0.1124753,0.0037380457,0.022774339,0.9360815,0.102061614,-0.33665252,0.33696675,0.0146687925,0.9414022,0.10101929,-0.99467003,-0.020660162,,0.06932839,-0.016167372,0.0332157,0.119071215,0.5149374,0.8489178,0.03810188,-0.85674065,0.5143383,0.99215436,-0.028897405,-0.12163329,,0.10629383,1.3404409,0.44018757,0.99566734,0.012140044,-0.09219085,-0.051393665,-0.75440204,-0.6543976,-0.07749338,0.65630037,-0.75050956,,-0.07988948,0.265198,-0.08118229,-0.9316987,-0.005219348,0.3631946,0.27941728,-0.64917725,0.70745665,0.23208521,0.7606193,0.60629594,,-0.03582436,0.4112234,-0.35962692,-0.21583588,-0.44840616,-0.86737925,0.84388477,-0.53253424,0.06531286,-0.49119586,-0.7178713,0.49334314,,1.1906523408835639,0.37953370710376355,0.21035805233000002,3.8371162758233113,0.07924916986395546,-1.0664121319679203,-0.40721675687275805,,-0.9470927914962712,-0.22540340439999076,0.20030791596000003,-1.8268187876371764,-0.8154466306001487,-0.12611654900110236,0.8740540978845281,,-0.04931645967666478,-0.06459899893944013,0.08431779928,-0.06509005378220696,,-6.214902e-05,-3.8146973e-06,2.2649765e-06,1.0,3.342703e-05,2.9228628e-05,-3.3430755e-05,1.0,3.4570694e-06,-2.9236078e-05,-3.4570694e-06,1.0,526,1.593,1,1,0.107,False,-0.2561246393568388,1.048549383343138
1.5926194429630414,13:52:06.962093,13:51:56.693627,0,,0.11250089,0.003721729,0.02321051,0.9346014,0.10861625,-0.33870766,0.33925745,0.013944715,0.94059014,0.106886566,-0.99398595,-0.02381605,,0.06931983,-0.016161457,0.033225536,0.11673469,0.51953596,0.8464368,0.03882575,-0.8539995,0.5188233,0.9924039,-0.02770108,-0.119862795,,0.10629383,1.3404409,0.44018757,0.99566734,0.012140044,-0.09219085,-0.051393665,-0.75440204,-0.6543976,-0.07749338,0.65630037,-0.75050956,,-0.07995745,0.26547223,-0.081515945,-0.93072796,-0.011827013,0.36552104,0.28506866,-0.64955074,0.7048544,0.22908814,0.76022625,0.6079265,,-0.035817217,0.41123578,-0.35962698,-0.21359056,-0.45327914,-0.86539996,0.8447498,-0.5306368,0.06944304,-0.49069014,-0.71621406,0.4962465,,1.1911929321847594,0.3803368713226829,0.20996786904000003,3.8318740272361977,0.07555998437028857,-1.0629954548674139,-0.40738010093889243,,-0.9470464550990259,-0.22544974079723612,0.20030921225,-1.829125377015506,-0.8173595415968647,-0.12962078023806725,0.8740540978845281,,-0.04931645967666478,-0.06459899893944013,0.08431779928,-0.06509005378220696,,-6.214902e-05,-3.8146973e-06,2.2649765e-06,1.0,3.342703e-05,2.9228628e-05,-3.3430755e-05,1.0,3.4570694e-06,-2.9236078e-05,-3.4570694e-06,1.0,535,1.621,1,1,0.135,False,-0.2552905512975445,1.0489356249493738
1.635076773003675,13:52:06.989075,13:51:56.693627,0,,0.11249928,0.003707394,0.023401797,0.9339874,0.11225071,-0.3392158,0.3399577,0.01305452,0.94035006,0.10998325,-0.99359417,-0.025967777,,0.06931873,-0.01615864,0.033231795,0.115640685,0.52133465,0.84548056,0.038977355,-0.8529172,0.5205891,0.99252605,-0.027246654,-0.118952215,,0.10629383,1.3404409,0.44018757,0.99566734,0.012140044,-0.09219085,-0.051393665,-0.75440204,-0.6543976,-0.07749338,0.65630037,-0.75050956,,-0.0799747,0.26558766,-0.08166819,-0.9303962,-0.015505727,0.36622742,0.28766236,-0.65011644,0.7032773,0.22718567,0.75967634,0.6093263,,-0.035816923,0.4112427,-0.35962787,-0.2125266,-0.45518455,-0.86466146,0.84506154,-0.5299008,0.07124707,-0.49061537,-0.71555024,0.49727696,,1.1914941187668542,0.38060716697328073,0.20979286989,3.829567437857868,0.07323716387427609,-1.060692956803872,-0.4068900687404895,,-0.9470387323661517,-0.22546518626298456,0.20031050854000002,-1.829964136789444,-0.8183159970952228,-0.13104618089598757,0.8742174419506626,,-0.04931645967666478,-0.06459899893944013,0.08431779928,-0.06509005378220696,,-6.214902e-05,-3.8146973e-06,2.2649765e-06,1.0,3.342703e-05,2.9228628e-05,-3.3430755e-05,1.0,3.4570694e-06,-2.9236078e-05,-3.4570694e-06,1.0,548,1.663,1,1,0.177,False,-0.25624379479388093,1.0490321853509326
1.6620610450045206,13:52:07.036478,13:51:56.821355,0,,0.11245085,0.0036539584,0.023842975,0.9326225,0.117019124,-0.34135294,0.34228194,0.012691438,0.9395115,0.11427304,-0.99304855,-0.028217286,,0.06927967,-0.016158283,0.033254683,0.11313995,0.5256491,0.84314436,0.039930135,-0.8503131,0.52476025,0.9927763,-0.025704294,-0.1171937,,0.10630682,1.3404402,0.44018674,0.9956669,0.012133646,-0.0921964,-0.05140211,-0.75440216,-0.65439683,-0.07749338,0.65630037,-0.75050956,,-0.07998235,0.26584092,-0.08203644,-0.92938393,-0.020312706,0.36855516,0.2923,-0.6502331,0.70125437,0.22540237,0.7594632,0.6102536,,-0.03579277,0.41126677,-0.35963917,-0.2101317,-0.45980614,-0.8627995,0.8460672,-0.52774656,0.07519193,-0.4899132,-0.7141862,0.49992317,,1.1924980740405033,0.381132312808728,0.20936898306,3.824954259101209,0.07050443387896727,-1.0579745262891003,-0.4075434450050267,,-0.9470464550990259,-0.22550379992735567,0.20031180483000002,-1.8326901060547431,-0.820228908091939,-0.13397866095196856,0.8743807860167968,,-0.04931645967666478,-0.06459899893944013,0.08431779928,-0.06509005378220696,,-4.9110502e-05,-3.7550926e-06,2.1457672e-06,1.0,2.7064234e-05,2.3659319e-05,-2.706796e-05,0.99999994,2.8014183e-06,-2.3670495e-05,-2.8014183e-06,1.0,557,1.69,1,1,0.205,False,-0.2559459062012759,1.0488873447485942
1.7094644120079465,13:52:07.061330,13:51:56.821355,0,,0.112384975,0.003610149,0.024121612,0.9321618,0.11872938,-0.34202018,0.34299564,0.012761116,0.9392501,0.115881115,-0.99284464,-0.028828353,,0.069282584,-0.016159177,0.033262134,0.1119075,0.52767706,0.84204125,0.04003361,-0.84906995,0.52676135,0.9929118,-0.025238484,-0.11614221,,0.10630682,1.3404402,0.44018674,0.9956669,0.012133646,-0.0921964,-0.05140211,-0.75440216,-0.65439683,-0.07749338,0.65630037,-0.75050956,,-0.07994489,0.26599458,-0.0822791,-0.9290607,-0.022032045,0.36927068,0.2939157,-0.65011966,0.70068395,0.22463262,0.75951236,0.61047614,,-0.035796314,0.41127226,-0.35964388,-0.20892818,-0.46195167,-0.8619453,0.8463815,-0.5269441,0.077255204,-0.48988512,-0.7133937,0.5010808,,1.1931081699375672,0.3813562720620805,0.20910453990000002,3.8232767395533322,0.06927470538107831,-1.0569717651558324,-0.4075434450050267,,-0.9470541778319,-0.2255424135917268,0.20031439741,-1.833528865828681,-0.8213220000900625,-0.13570103740689518,0.8740540978845283,,-0.04931645967666478,-0.06459899893944013,0.08431779928,-0.06509005378220696,,-4.9110502e-05,-3.7550926e-06,2.1457672e-06,1.0,2.7064234e-05,2.3659319e-05,-2.706796e-05,0.99999994,2.8014183e-06,-2.3670495e-05,-2.8014183e-06,1.0,570,1.732,1,1,0.246,False,-0.2557075953271921,1.0491770259532711
1.73432106297696,13:52:07.101077,13:51:56.821355,0,,0.11229882,0.0035676658,0.024484158,0.93102306,0.12217951,-0.3439014,0.3449812,0.012876719,0.93852115,0.11909635,-0.9924245,-0.030161202,,0.06928432,-0.016163737,0.033266902,0.110745065,0.5322911,0.8392863,0.04066661,-0.8462007,0.53131026,0.9930165,-0.024708897,-0.11535914,,0.10630682,1.3404402,0.44018674,0.9956669,0.012133646,-0.0921964,-0.05140211,-0.75440216,-0.65439683,-0.07749338,0.65630037,-0.75050956,,-0.07989532,0.26620543,-0.0825853,-0.9281824,-0.02550204,0.3712506,0.29757482,-0.6499037,0.69933856,0.22344258,0.7595886,0.61081797,,-0.03579818,0.41127372,-0.35965028,-0.2078284,-0.46678507,-0.859604,0.8469378,-0.52554476,0.08061704,-0.48939124,-0.7112766,0.504561,,1.1939576705537318,0.38168834957567216,0.20876750450000003,3.8195023205706113,0.0672251578845967,-1.055300496600386,-0.4075434450050267,,-0.9470619005647744,-0.22561964092046904,0.20031569370000002,-1.8349966954330728,-0.8221418190886551,-0.14001493313329097,0.874544130082931,,-0.04931645967666478,-0.06459899893944013,0.08431779928,-0.06509005378220696,,-4.9110502e-05,-3.7550926e-06,2.1457672e-06,1.0,2.7064234e-05,2.3659319e-05,-2.706796e-05,0.99999994,2.8014183e-06,-2.3670495e-05,-2.8014183e-06,1.0,579,1.76,1,1,0.274,False,-0.25672041654204936,1.0491287457524916
1.7740465590031818,13:52:07.137696,13:51:56.821355,0,,0.11226764,0.0035405904,0.024721056,0.92984587,0.1261055,-0.34566465,0.3469135,0.012627274,0.937812,0.12262802,-0.99193645,-0.032006323,,0.06928295,-0.0161625,0.03329611,0.10658854,0.53451204,0.8384125,0.04072979,-0.8448556,0.53344166,0.99346864,-0.022710234,-0.111822605,,0.10630682,1.3404402,0.44018674,0.9956669,0.012133646,-0.0921964,-0.05140211,-0.75440216,-0.65439683,-0.07749338,0.65630037,-0.75050956,,-0.0798879,0.26634264,-0.08278265,-0.92729783,-0.029462216,0.37316307,0.30140424,-0.64993745,0.6976653,0.22197789,0.75941646,0.6115656,,-0.0357997,0.4112992,-0.3596646,-0.20374894,-0.46927595,-0.8592243,0.84784436,-0.5234171,0.08482031,-0.48953685,-0.71120644,0.5045186,,1.1944287572590595,0.3819431997605216,0.2085471352,3.8157279015878895,0.06503897388834966,-1.053436131401103,-0.4073801009388923,,-0.9470464550990259,-0.2257045909820855,0.20031698999000003,-1.8375129747548868,-0.8259676410820875,-0.14057077513611638,0.8743807860167968,,-0.04931645967666478,-0.06459899893944013,0.08431779928,-0.06509005378220696,,-4.9110502e-05,-3.7550926e-06,2.1457672e-06,1.0,2.7064234e-05,2.3659319e-05,-2.706796e-05,0.99999994,2.8014183e-06,-2.3670495e-05,-2.8014183e-06,1.0,592,1.802,1,1,0.316,False,-0.25677999426057063,1.0492253061540504
1.810662240954116,13:52:07.168417,13:51:56.944485,0,,0.11225906,0.0035206676,0.024960384,0.9288948,0.12995787,-0.34679312,0.34817308,0.012684375,0.9373443,0.12621412,-0.9914384,-0.033465415,,0.0692838,-0.016168892,0.033300757,0.105790764,0.53476393,0.838353,0.041202694,-0.8447174,0.5336243,0.99353445,-0.021909952,-0.11139712,,0.10630682,1.3404402,0.44018674,0.9956669,0.012133646,-0.0921964,-0.05140211,-0.75440216,-0.65439683,-0.07749338,0.65630037,-0.75050956,,-0.079903,0.26648584,-0.08297504,-0.9266622,-0.033341568,0.37441352,0.3047549,-0.6497313,0.6964006,0.22004908,0.75943244,0.6122424,,-0.035800543,0.41129968,-0.3596725,-0.20299627,-0.46961233,-0.8592187,0.84824115,-0.5226987,0.08528211,-0.48916206,-0.7115127,0.5044504,,1.194822616635645,0.38227527727411326,0.20832806219000002,3.8125825524356216,0.06257951689257173,-1.05183900283527,-0.40852350940183224,,-0.9470541778319,-0.22577409557795355,0.20031569370000002,-1.8385614244723094,-0.8265141870811493,-0.14004342478119022,0.8745441300829311,,-0.04931645967666478,-0.06459899893944013,0.08431779928,-0.06509005378220696,,-4.9110502e-05,-3.7550926e-06,2.1457672e-06,1.0,2.7064234e-05,2.3659319e-05,-2.706796e-05,0.99999994,2.8014183e-06,-2.3670495e-05,-2.8014183e-06,1.0,601,1.829,1,1,0.343,False,-0.25731619372725945,1.0492253061540504
1.841377614007797,13:52:07.200977,13:51:56.944485,0,,0.11226092,0.003488496,0.025197282,0.92793006,0.13097496,-0.34898633,0.35023674,0.0141219795,0.9365547,0.12759353,-0.9912851,-0.03276813,,0.06928217,-0.01617226,0.03330064,0.105309404,0.53611463,0.8375506,0.04261124,-0.843893,0.53481674,0.9935261,-0.020632058,-0.11171448,,0.10630682,1.3404402,0.44018674,0.9956669,0.012133646,-0.0921964,-0.05140211,-0.75440216,-0.65439683,-0.07749338,0.65630037,-0.75050956,,-0.0799286,0.2666178,-0.08317275,-0.9257778,-0.034328204,0.3765064,0.3072548,-0.6485947,0.69636154,0.22029522,0.76035947,0.6110021,,-0.035798673,0.41129804,-0.3596753,-0.20261636,-0.4711336,-0.85847527,0.8490263,-0.5213487,0.08573137,-0.48795587,-0.7114975,0.5056386,,1.195062021354746,0.3826691366506987,0.20810639660000002,3.809856583170323,0.06257951689257173,-1.052574111496535,-0.40803347720342953,,-0.9470696232976485,-0.22585904563957002,0.20031310112000003,-1.8406583239071548,-0.8263775505813838,-0.13999148520460544,0.8742174419506625,,-0.04931645967666478,-0.06459899893944013,0.08431779928,-0.06509005378220696,,-4.9110502e-05,-3.7550926e-06,2.1457672e-06,1.0,2.7064234e-05,2.3659319e-05,-2.706796e-05,0.99999994,2.8014183e-06,-2.3670495e-05,-2.8014183e-06,1.0,614,1.871,1,1,0.385,False,-0.2579715486309908,1.049418426957168
1.8739181499695405,13:52:07.240020,13:51:56.944485,0,,0.11230324,0.0034575313,0.025505587,0.9267463,0.13131587,-0.3519908,0.35298777,0.016386062,0.93548435,0.12861165,-0.9912051,-0.031167328,,0.069279395,-0.016179934,0.033298314,0.104897425,0.5365642,0.8373143,0.043906987,-0.8436371,0.5351154,0.9935132,-0.019368112,-0.11205438,,0.10630682,1.3404402,0.44018674,0.9956669,0.012133646,-0.0921964,-0.05140211,-0.75440216,-0.65439683,-0.07749338,0.65630037,-0.75050956,,-0.080001295,0.26679602,-0.08341922,-0.92462146,-0.034611944,0.3793114,0.31004182,-0.64685714,0.69674236,0.22124466,0.7618254,0.60882914,,-0.035795156,0.41129237,-0.35968053,-0.20229699,-0.4717189,-0.8582291,0.84974056,-0.52020067,0.085628115,-0.4868438,-0.71194977,0.5060737,,1.1951855850807336,0.3833564598765047,0.20782380538000003,3.806711234018055,0.06353597239092981,-1.0542525029639562,-0.40852350940183246,,-0.9470696232976485,-0.22595944116693492,0.20031050854000002,-1.8425455333985155,-0.8262409140816184,-0.13904107948647468,0.8747074741490652,,-0.04931645967666478,-0.06459899893944013,0.08431779928,-0.06509005378220696,,-4.9110502e-05,-3.7550926e-06,2.1457672e-06,1.0,2.7064234e-05,2.3659319e-05,-2.706796e-05,0.99999994,2.8014183e-06,-2.3670495e-05,-2.8014183e-06,1.0,623,1.9,1,1,0.414,False,-0.25672041654204936,1.0496115477602863
1.9129743829835206,13:52:07.263512,13:51:56.944485,0,,0.11235331,0.0034333766,0.02573733,0.9256782,0.13153481,-0.3547091,0.35556382,0.017730772,0.9344837,0.12920639,-0.99115294,-0.030356139,,0.069278575,-0.016185999,0.033305705,0.10415576,0.5360901,0.8377105,0.044559807,-0.84396136,0.53454995,0.9935622,-0.018348068,-0.11179158,,0.10630682,1.3404402,0.44018674,0.9956669,0.012133646,-0.0921964,-0.05140211,-0.75440216,-0.65439683,-0.07749338,0.65630037,-0.75050956,,-0.08007413,0.26692852,-0.08360343,-0.9235442,-0.034797322,0.38190988,0.3124134,-0.6458227,0.6966426,0.22240478,0.762694,0.60731703,,-0.035794623,0.41129556,-0.3596896,-0.20161106,-0.47132295,-0.858608,0.8502104,-0.51945215,0.08550806,-0.4863077,-0.7127581,0.50545096,,1.1951778623478593,0.3839356648420715,0.20761121382000003,3.803985264752756,0.06476570088881876,-1.055255264097224,-0.40852350940183246,,-0.9470850687633969,-0.22602894576280294,0.20030532338,-1.8438036730594225,-0.8266508235809147,-0.13748164467327678,0.8748708182151995,,-0.04931645967666478,-0.06459899893944013,0.08431779928,-0.06509005378220696,,-4.9110502e-05,-3.7550926e-06,2.1457672e-06,1.0,2.7064234e-05,2.3659319e-05,-2.706796e-05,0.99999994,2.8014183e-06,-2.3670495e-05,-2.8014183e-06,1.0,632,1.928,1,1,0.442,False,-0.2564821056679656,1.0486459437446969
1.9365033059730195,13:52:07.303725,13:51:56.944485,0,,0.112449944,0.0034240037,0.026038066,0.92553544,0.13202012,-0.35490125,0.3556702,0.018514514,0.934428,0.12993409,-0.9910741,-0.029819936,,0.06927205,-0.016194478,0.03332299,0.10358513,0.53534913,0.8382549,0.045772403,-0.84446156,0.5336568,0.99356675,-0.016909808,-0.11197795,,0.10630682,1.3404402,0.44018674,0.9956669,0.012133646,-0.0921964,-0.05140211,-0.75440216,-0.65439683,-0.07749338,0.65630037,-0.75050956,,-0.08019954,0.26711565,-0.08382508,-0.9234694,-0.03526591,0.38204777,0.31297916,-0.64520323,0.6969626,0.22191943,0.76319665,0.60686296,,-0.0357892,0.41130647,-0.35970584,-0.20112999,-0.47068974,-0.85906804,0.8509147,-0.51841074,0.084819995,-0.485274,-0.7139338,0.50478476,,1.1951083577519914,0.3847928881911104,0.20734547437000003,3.803565884865787,0.06490233738858421,-1.0553666820009204,-0.40852350940183246,,-0.9471236824277681,-0.22611389582441943,0.20028587903000003,-1.8456908825507834,-0.8266508235809147,-0.13511296120920052,0.8740540978845284,,-0.04931645967666478,-0.06459899893944013,0.08431779928,-0.06509005378220696,,-4.9110502e-05,-3.7550926e-06,2.1457672e-06,1.0,2.7064234e-05,2.3659319e-05,-2.706796e-05,0.99999994,2.8014183e-06,-2.3670495e-05,-2.8014183e-06,1.0,645,1.97,0,1,0.47,False,-0.2561842170753601,1.04927358635483
1.9766775029711425,13:52:07.339093,13:51:57.121316,0,,0.112515,0.0034153312,0.026235148,0.92534983,0.13167647,-0.35551247,0.35613245,0.019617468,0.9342295,0.12999028,-0.99109864,-0.02874124,,0.069271624,-0.016201481,0.033342898,0.10310891,0.53593427,0.8379397,0.046380013,-0.844104,0.5341698,0.9935882,-0.016213864,-0.11189139,,0.10630682,1.3404402,0.44018674,0.9956669,0.012133646,-0.0921964,-0.05140211,-0.75440216,-0.65439683,-0.07749338,0.65630037,-0.75050956,,-0.08028352,0.2672363,-0.08397186,-0.92327726,-0.034890868,0.38254637,0.31337112,-0.6443767,0.6975509,0.22216581,0.76391184,0.6058721,,-0.035790194,0.4113197,-0.35972226,-0.20070182,-0.47136244,-0.8587993,0.85130626,-0.51770544,0.08519823,-0.4847643,-0.7140018,0.5051782,,1.195031130423249,0.38537209315667725,0.20717047522,3.8031465049788187,0.0655855198874114,-1.056250486479965,-0.40787013313729537,,-0.9471854642907619,-0.22616795495453898,0.20026902726,-1.8467393322682062,-0.8267874600806802,-0.1350015433055041,0.8743807860167967,,-0.04931645967666478,-0.06459899893944013,0.08431779928,-0.06509005378220696,,-4.9110502e-05,-3.7550926e-06,2.1457672e-06,1.0,2.7064234e-05,2.3659319e-05,-2.706796e-05,0.99999994,2.8014183e-06,-2.3670495e-05,-2.8014183e-06,1.0,658,2.011,0,1,0.47,False,-0.25731619372725945,1.0495632675595068
2.012070631957613,13:52:07.388646,13:51:57.121316,0,,0.11262664,0.0033890307,0.026527077,0.92526925,0.13331372,-0.35511184,0.35567954,0.02034548,0.9343864,0.1317914,-0.990865,-0.02859205,,0.06927331,-0.016211435,0.033364415,0.10304429,0.5354488,0.8382579,0.046702832,-0.8444191,0.53364336,0.99357975,-0.015839726,-0.11201963,,0.10630682,1.3404402,0.44018674,0.9956669,0.012133646,-0.0921964,-0.05140211,-0.75440216,-0.65439683,-0.07749338,0.65630037,-0.75050956,,-0.08042348,0.26740423,-0.08419676,-0.9233834,-0.036522068,0.38213775,0.31422216,-0.64374644,0.6977499,0.22051653,0.76436687,0.6059008,,-0.03579323,0.4113325,-0.35974208,-0.2006595,-0.47089407,-0.85906607,0.8514753,-0.51749647,0.084777445,-0.48448488,-0.71446216,0.50479525,,1.1948766757657645,0.3861443664440997,0.20690343948000003,3.8027271250918493,0.0644924278892879,-1.056012573171518,-0.4088501975341008,,-0.9472626916195042,-0.22621429135178434,0.20024958291000003,-1.847158712155175,-0.8266508235809147,-0.13413281632751384,0.8743807860167969,,-0.04931645967666478,-0.06459899893944013,0.08431779928,-0.06509005378220696,,-4.9110502e-05,-3.7550926e-06,2.1457672e-06,1.0,2.7064234e-05,2.3659319e-05,-2.706796e-05,0.99999994,2.8014183e-06,-2.3670495e-05,-2.8014183e-06,1.0,667,2.038,0,1,0.47,False,-0.2559459062012759,1.048742504146256
2.061632869997993,13:52:07.411441,13:51:57.121316,0,,0.11267999,0.0033823252,0.026627377,0.9252303,0.13427179,-0.35485205,0.35541618,0.020562857,0.93448186,0.13277128,-0.99073124,-0.028697133,,0.06926994,-0.016216561,0.033371866,0.102977,0.5354425,0.83827025,0.0468466,-0.84442604,0.5336197,0.9935799,-0.015680283,-0.11204022,,0.10630682,1.3404402,0.44018674,0.9956669,0.012133646,-0.0921964,-0.05140211,-0.75440216,-0.65439683,-0.07749338,0.65630037,-0.75050956,,-0.08048641,0.26746306,-0.08427113,-0.92344654,-0.037482135,0.38189209,0.3146722,-0.6435361,0.69774115,0.2196085,0.7644975,0.60606575,,-0.03579023,0.41133648,-0.35975033,-0.2006028,-0.4709026,-0.85907465,0.8515585,-0.5173647,0.08474625,-0.48436213,-0.714552,0.5047859,,1.1947685575055254,0.3864455530261945,0.20681269918000003,3.802517435148365,0.06380924539046068,-1.0557821986135982,-0.4081968212695637,,-0.9472704143523784,-0.226237459550407,0.20024050888000003,-1.8473684020986596,-0.8266508235809147,-0.13396945884723266,0.8740540978845281,,-0.04931645967666478,-0.06459899893944013,0.08431779928,-0.06509005378220696,,-4.9110502e-05,-3.7550926e-06,2.1457672e-06,1.0,2.7064234e-05,2.3659319e-05,-2.706796e-05,0.99999994,2.8014183e-06,-2.3670495e-05,-2.8014183e-06,1.0,680,2.08,0,1,0.47,False,-0.25636295023092304,1.049514987358727
2.0844161169952713,13:52:07.452815,13:51:57.121316,0,,0.1128175,0.0033637434,0.026777908,0.9249622,0.13760701,-0.3542728,0.35483396,0.021265626,0.93468726,0.13615334,-0.9902586,-0.029157847,,0.069265306,-0.01622121,0.033382952,0.102600455,0.5356296,0.8381969,0.047329307,-0.84431815,0.53374785,0.99359596,-0.0150913,-0.1119785,,0.10630682,1.3404402,0.44018674,0.9956669,0.012133646,-0.0921964,-0.05140211,-0.75440216,-0.65439683,-0.07749338,0.65630037,-0.75050956,,-0.08063827,0.26754245,-0.08438317,-0.9235222,-0.040826485,0.38136593,0.31647652,-0.6428399,0.6975668,0.21667802,0.7649118,0.60659754,,-0.03578637,0.411344,-0.35976008,-0.20026432,-0.4711523,-0.8590167,0.85186857,-0.51683295,0.08487396,-0.48395672,-0.7147721,0.504863,,1.1943669753960657,0.38695525339589326,0.20667140357000002,3.801468985430942,0.06121315189491732,-1.0552988332461775,-0.40787013313729537,,-0.9472858598181269,-0.22627607321477813,0.20022884227,-1.8482071618725975,-0.8267874600806802,-0.13353132598297396,0.8750341622813338,,-0.04931645967666478,-0.06459899893944013,0.08431779928,-0.06509005378220696,,-4.9110502e-05,-3.7550926e-06,2.1457672e-06,1.0,2.7064234e-05,2.3659319e-05,-2.706796e-05,0.99999994,2.8014183e-06,-2.3670495e-05,-2.8014183e-06,1.0,689,2.108,0,1,0.47,False,-0.25600548391979716,1.0491287457524916
2.125794394989498,13:52:07.484599,13:51:57.271782,0,,0.11295131,0.0033485144,0.02689235,0.9254063,0.13843854,-0.35278624,0.35310593,0.02307254,0.9352987,0.13762105,-0.99010223,-0.027532041,,0.069261804,-0.016230017,0.033399343,0.103162296,0.53584564,0.83798975,0.04825461,-0.84418905,0.53386927,0.9934932,-0.014638126,-0.112945616,,0.10630682,1.3404402,0.44018674,0.9956669,0.012133646,-0.0921964,-0.05140211,-0.75440216,-0.65439683,-0.07749338,0.65630037,-0.75050956,,-0.08078285,0.26760074,-0.08446638,-0.9241537,-0.041618485,0.37974715,0.31612808,-0.6414161,0.699034,0.21448319,0.7660635,0.6059238,,-0.035783842,0.41135365,-0.35977617,-0.2008773,-0.47141925,-0.8587271,0.85219836,-0.5164083,0.084144905,-0.48312134,-0.71490306,0.5054774,,1.1939036114236123,0.38742634010122096,0.20656381150000003,3.802517435148365,0.059710150397497476,-1.0566869559900147,-0.4075434450050268,,-0.9473553644139948,-0.2263224096120235,0.20020550905,-1.8490459216465358,-0.8258310045823221,-0.13316774894688108,0.8747074741490652,,-0.04931645967666478,-0.06459899893944013,0.08431779928,-0.06509005378220696,,-4.9110502e-05,-3.7550926e-06,2.1457672e-06,1.0,2.7064234e-05,2.3659319e-05,-2.706796e-05,0.99999994,2.8014183e-06,-2.3670495e-05,-2.8014183e-06,1.0,702,2.149,0,1,0.47,False,-0.25636295023092304,1.0492253061540504
2.1575071059633046,13:52:07.520181,13:51:57.271782,0,,0.1131663,0.0033373088,0.02703543,0.9259902,0.13878739,-0.35111287,0.35134745,0.023624122,0.93594694,0.13819234,-0.99004036,-0.02688694,,0.06925993,-0.016248316,0.033405244,0.105426595,0.5365039,0.8372865,0.049353957,-0.8437642,0.5344401,0.9932016,-0.015020639,-0.11543383,,0.10630682,1.3404402,0.44018674,0.9956669,0.012133646,-0.0921964,-0.05140211,-0.75440216,-0.65439683,-0.07749338,0.65630037,-0.75050956,,-0.08101088,0.26767746,-0.084560975,-0.92483884,-0.041956164,0.37803808,0.31515974,-0.64097625,0.69987416,0.21294938,0.76641315,0.6060226,,-0.03578126,0.41134933,-0.3597948,-0.20317483,-0.47206604,-0.85783076,0.85225797,-0.5165875,0.082424246,-0.48205432,-0.7143466,0.5072796,,1.193069556273196,0.3882217815872661,0.2064341825,3.804194954696241,0.059436877397966596,-1.0571175501037464,-0.40787013313729537,,-0.9474403144756113,-0.2263841914750173,0.20017828696,-1.8490459216465358,-0.8232349110867787,-0.1340595080150047,0.8751975063474684,,-0.04931645967666478,-0.06459899893944013,0.08431779928,-0.06509005378220696,,-4.9110502e-05,-3.7550926e-06,2.1457672e-06,1.0,2.7064234e-05,2.3659319e-05,-2.706796e-05,0.99999994,2.8014183e-06,-2.3670495e-05,-2.8014183e-06,1.0,715,2.191,0,1,0.47,False,-0.2570183051346544,1.0493218665556094
2.193166757992003,13:52:07.561358,13:51:57.271782,0,,0.11339007,0.0033247173,0.02719231,0.92569417,0.1419232,-0.35063976,0.3510127,0.023233354,0.93608236,0.1409983,-0.98960495,-0.02831003,,0.069270246,-0.016265437,0.033443213,0.105042666,0.5361691,0.83754915,0.04988447,-0.8439892,0.5340355,0.99321574,-0.014315635,-0.11540146,,0.10630682,1.3404402,0.44018674,0.9956669,0.012133646,-0.0921964,-0.05140211,-0.75440216,-0.65439683,-0.07749338,0.65630037,-0.75050956,,-0.08124899,0.26776183,-0.08466595,-0.9248242,-0.04512902,0.3777084,0.3167712,-0.6411169,0.6990172,0.21060929,0.7661152,0.607216,,-0.03579393,0.4113712,-0.35982946,-0.20283219,-0.47178534,-0.85806626,0.85259223,-0.5160698,0.082209304,-0.48160726,-0.714906,0.5069161,,1.1922509465885283,0.38902494580618546,0.20629159060000002,3.803356194922303,0.05793387590054675,-1.0558102744229452,-0.40803347720342975,,-0.94760249186597,-0.22647686426950797,0.20014976858000003,-1.8498846814204737,-0.8232349110867787,-0.13307936313331797,0.8748708182151996,,-0.04931645967666478,-0.06459899893944013,0.08431779928,-0.06509005378220696,,-4.9110502e-05,-3.7550926e-06,2.1457672e-06,1.0,2.7064234e-05,2.3659319e-05,-2.706796e-05,0.99999994,2.8014183e-06,-2.3670495e-05,-2.8014183e-06,1.0,724,2.219,0,1,0.47,False,-0.25683957197909146,1.0492253061540504
2.2343363990075886,13:52:07.590107,13:51:57.271782,0,,0.113535896,0.0033013523,0.027336791,0.9257506,0.14466435,-0.3493683,0.349905,0.022558063,0.9365134,0.14336114,-0.9892236,-0.029735744,,0.06927915,-0.016280085,0.03346783,0.1049464,0.5361101,0.83759904,0.04989317,-0.8440278,0.5339736,0.9932255,-0.014247954,-0.11532597,,0.10630682,1.3404402,0.44018674,0.9956669,0.012133646,-0.0921964,-0.05140211,-0.75440216,-0.65439683,-0.07749338,0.65630037,-0.75050956,,-0.08140866,0.26783332,-0.08477586,-0.92513907,-0.047911923,0.37659284,0.31749523,-0.6414898,0.6983463,0.20812136,0.7656339,0.6086791,,-0.035804097,0.4113833,-0.35985494,-0.20273815,-0.47173047,-0.85811865,0.8526164,-0.51602584,0.08223484,-0.4816041,-0.7149739,0.50682324,,1.1917644144174522,0.38955009164163273,0.20615418386000003,3.803356194922303,0.05602096490383058,-1.0542504237711954,-0.4083601653356982,,-0.9477106101262092,-0.226546368865376,0.20013162052000003,-1.8498846814204737,-0.8232349110867787,-0.13307936313331797,0.8748708182151996,,-0.04931645967666478,-0.06459899893944013,0.08431779928,-0.06509005378220696,,-4.9110502e-05,-3.7550926e-06,2.1457672e-06,1.0,2.7064234e-05,2.3659319e-05,-2.706796e-05,0.99999994,2.8014183e-06,-2.3670495e-05,-2.8014183e-06,1.0,737,2.261,0,1,0.47,False,-0.2564821056679656,1.0491770259532711
2.263054556970019,13:52:07.633206,13:51:57.409126,0,,0.113684475,0.0032367557,0.027591497,0.92622536,0.1456699,-0.3476879,0.34826756,0.022338867,0.93712884,0.1442784,-0.98908097,-0.030041367,,0.069285296,-0.016294017,0.03349179,0.104432456,0.5367332,0.8372641,0.0505175,-0.8436436,0.53452176,0.9932481,-0.013524771,-0.11521825,,0.10630682,1.3404402,0.44018674,0.9956669,0.012133646,-0.0921964,-0.05140211,-0.75440216,-0.65439683,-0.07749338,0.65630037,-0.75050956,,-0.08158287,0.2679464,-0.084994934,-0.9257456,-0.04893228,0.37496758,0.3168505,-0.6416034,0.6985347,0.20639957,0.76547414,0.6094658,,-0.035811517,0.41139555,-0.35987946,-0.20227382,-0.47244537,-0.8578349,0.8530222,-0.5152881,0.08265161,-0.4810805,-0.71503395,0.50723565,,1.1912778822463759,0.3902065239359418,0.20590140731000003,3.80461433458321,0.05520114590523794,-1.0535819163490168,-0.4083601653356982,,-0.9478110056535741,-0.22663131892699245,0.20011347246000002,-1.8509331311378963,-0.8233715475865442,-0.1330496239697621,0.8750341622813338,,-0.04931645967666478,-0.06459899893944013,0.08431779928,-0.06509005378220696,,-4.9110502e-05,-3.7550926e-06,2.1457672e-06,1.0,2.7064234e-05,2.3659319e-05,-2.706796e-05,0.99999994,2.8014183e-06,-2.3670495e-05,-2.8014183e-06,1.0,746,2.288,0,1,0.47,False,-0.25683957197909146,1.0489356249493738
2.306190572970081,13:52:07.655332,13:51:57.409126,0,,0.113758355,0.0032012016,0.027731702,0.92576694,0.14916632,-0.34742627,0.3482237,0.021592915,0.93716264,0.14729501,-0.9885763,-0.031953305,,0.06928984,-0.016299754,0.033503056,0.10432435,0.5363,0.8375551,0.050651133,-0.8439227,0.5340683,0.99325264,-0.0132930875,-0.115206,,0.10630682,1.3404402,0.44018674,0.9956669,0.012133646,-0.0921964,-0.05140211,-0.75440216,-0.65439683,-0.07749338,0.65630037,-0.75050956,,-0.08167087,0.26800898,-0.08511625,-0.92558163,-0.05248049,0.37489256,0.31882617,-0.64198047,0.6972883,0.20407967,0.7649228,0.6109375,,-0.03581671,0.41140154,-0.3598903,-0.20217629,-0.4720178,-0.8580932,0.8531086,-0.51518685,0.08239084,-0.48096827,-0.7153892,0.506841,,1.191107982123143,0.3904845423194139,0.20576140799000003,3.8031465049788187,0.05287832540922545,-1.0516878119861777,-0.4083601653356982,,-0.9478650647836937,-0.22666220985848937,0.20010569472000003,-1.8511428210813812,-0.8233715475865442,-0.13239619404863753,0.8743807860167968,,-0.04931645967666478,-0.06459899893944013,0.08431779928,-0.06509005378220696,,-4.9110502e-05,-3.7550926e-06,2.1457672e-06,1.0,2.7064234e-05,2.3659319e-05,-2.706796e-05,0.99999994,2.8014183e-06,-2.3670495e-05,-2.8014183e-06,1.0,750,2.302,0,1,0.47,False,-0.2564821056679656,1.0488390645478147
2.328313306963537,13:52:07.675795,13:51:57.409126,0,,0.113866925,0.0031719059,0.027933285,0.92514086,0.15486507,-0.34659952,0.34768942,0.020875096,0.9373773,0.15240227,-0.9877151,-0.034532636,,0.06929975,-0.016307414,0.033510804,0.104625225,0.53523445,0.83819896,0.050824493,-0.844601,0.53297853,0.9932121,-0.013161808,-0.11556971,,0.10630682,1.3404402,0.44018674,0.9956669,0.012133646,-0.0921964,-0.05140211,-0.75440216,-0.65439683,-0.07749338,0.65630037,-0.75050956,,-0.08179915,0.26811525,-0.08527604,-0.9254661,-0.058253534,0.3743247,0.3218193,-0.6421957,0.69571334,0.19986196,0.76432407,0.61307746,,-0.035826754,0.4114029,-0.359901,-0.20248334,-0.47092476,-0.8586212,0.85312927,-0.51530397,0.081438616,-0.48080236,-0.71602494,0.5061002,,1.190930359267036,0.3909401835589931,0.20557085336000003,3.801049605543973,0.0486425939164968,-1.0489689656328536,-0.40787013313729537,,-0.9479422921124359,-0.22670082352286047,0.20010050956000003,-1.8511428210813812,-0.8229616380872479,-0.13117855169705622,0.8745441300829312,,-0.04931645967666478,-0.06459899893944013,0.08431779928,-0.06509005378220696,,-4.9110502e-05,-3.7550926e-06,2.1457672e-06,1.0,2.7064234e-05,2.3659319e-05,-2.706796e-05,0.99999994,2.8014183e-06,-2.3670495e-05,-2.8014183e-06,1.0,759,2.329,0,1,0.47,False,-0.257435349164302,1.0482597021384612
2.3487860129680485,13:52:07.700049,13:51:57.409126,0,,0.11396543,0.0031611174,0.02808936,0.9243377,0.16217585,-0.34539676,0.34656712,0.021934211,0.9377687,0.15965937,-0.986518,-0.035930306,,0.069306076,-0.01631035,0.03351152,0.105076976,0.53537506,0.83805263,0.05104834,-0.8445107,0.5331001,0.993153,-0.013235211,-0.116068736,,0.10630682,1.3404402,0.44018674,0.9956669,0.012133646,-0.0921964,-0.05140211,-0.75440216,-0.65439683,-0.07749338,0.65630037,-0.75050956,,-0.08191251,0.26820582,-0.0853906,-0.9253981,-0.06561328,0.37327373,0.32579613,-0.6409248,0.695034,0.19363694,0.7647943,0.6144872,,-0.035832904,0.41140127,-0.35990393,-0.20294194,-0.47106364,-0.8584367,0.8531427,-0.5153355,0.08109786,-0.48058516,-0.71591085,0.5064677,,1.1908531319382936,0.39125681560683634,0.20542826146,3.798323636278674,0.04208404192775565,-1.0473781283018913,-0.4088501975341009,,-0.9479886285096812,-0.22671626898860894,0.20009921327000002,-1.8511428210813812,-0.8224150920881861,-0.13137918709142016,0.8743807860167969,,-0.04931645967666478,-0.06459899893944013,0.08431779928,-0.06509005378220696,,-4.9110502e-05,-3.7550926e-06,2.1457672e-06,1.0,2.7064234e-05,2.3659319e-05,-2.706796e-05,0.99999994,2.8014183e-06,-2.3670495e-05,-2.8014183e-06,1.0,772,2.371,0,1,0.47,False,-0.2561842170753601,1.0484045427407995
2.3730182739673182,13:52:07.734984,13:51:57.409126,0,,0.114121914,0.0031558573,0.028323129,0.92365676,0.17102128,-0.3429432,0.343241,0.028771162,0.93880653,0.17042273,-0.9848472,-0.032126963,,0.069317795,-0.016313136,0.03353244,0.103545174,0.53273976,0.8399206,0.05035895,-0.8461848,0.5305048,0.9933491,-0.012633532,-0.11444667,,0.10630682,1.3404402,0.44018674,0.9956669,0.012133646,-0.0921964,-0.05140211,-0.75440216,-0.65439683,-0.07749338,0.65630037,-0.75050956,,-0.0820909,0.2683493,-0.085554175,-0.9258513,-0.07438444,0.37049475,0.33042517,-0.6350702,0.6982156,0.18335381,0.7688646,0.6125591,,-0.035846338,0.41141608,-0.35991743,-0.20139134,-0.46838707,-0.86026454,0.8531297,-0.5153894,0.08089233,-0.48126012,-0.71762615,0.5033899,,1.1907372909451803,0.39176651597653517,0.20522085506,3.79580735695686,0.03156303144581674,-1.0505606882975076,-0.40917688566636945,,-0.948050410372675,-0.2267394371872316,0.20009921327000002,-1.8511428210813812,-0.8240547300853713,-0.12824523996397072,0.8737274097522598,,-0.04931645967666478,-0.06459899893944013,0.08431779928,-0.06509005378220696,,-4.9110502e-05,-3.7550926e-06,2.1457672e-06,1.0,2.7064234e-05,2.3659319e-05,-2.706796e-05,0.99999994,2.8014183e-06,-2.3670495e-05,-2.8014183e-06,1.0,781,2.399,0,1,0.47,False,-0.25546928445310746,1.0487907843470352
2.40791392698884,13:52:07.773350,13:51:57.539994,0,,0.11433084,0.0031407773,0.028628126,0.92201006,0.18262067,-0.34139007,0.34197533,0.029278189,0.93925256,0.18152222,-0.9827473,-0.035457045,,0.069339484,-0.01632163,0.033536732,0.1041681,0.53274804,0.8398383,0.050696373,-0.8461788,0.5304822,0.9932667,-0.012682408,-0.11515333,,0.10630682,1.3404402,0.44018674,0.9956669,0.012133646,-0.0921964,-0.05140211,-0.75440216,-0.65439683,-0.07749338,0.65630037,-0.75050956,,-0.0823286,0.26853013,-0.085772574,-0.9253186,-0.086113594,0.36928305,0.3368639,-0.6338023,0.6962883,0.17409255,0.7686866,0.61547756,,-0.03586769,0.41141272,-0.35992712,-0.20202568,-0.46839106,-0.8601136,0.8531626,-0.51542854,0.08029333,-0.4809358,-0.71759546,0.5037435,,1.1904129361644629,0.3925696801954545,0.20494863416000003,3.7911941782002,0.022135112962001352,-1.0468751112093422,-0.4083601653356982,,-0.9481816968315369,-0.22679349631735118,0.20010050956000003,-1.8511428210813812,-0.8232349110867787,-0.12834199620516532,0.8745441300829311,,-0.04931645967666478,-0.06459899893944013,0.08431779928,-0.06509005378220696,,-4.9110502e-05,-3.7550926e-06,2.1457672e-06,1.0,2.7064234e-05,2.3659319e-05,-2.706796e-05,0.99999994,2.8014183e-06,-2.3670495e-05,-2.8014183e-06,1.0,794,2.441,0,1,0.47,False,-0.25731619372725945,1.0485011031423586
2.446328343008645,13:52:07.809349,13:51:57.539994,0,,0.1145647,0.0030923188,0.028861657,0.92156535,0.18940695,-0.33888397,0.3394361,0.030534834,0.9401332,0.18841554,-0.98142374,-0.036151826,,0.069359705,-0.016335681,0.033544898,0.104070835,0.5327462,0.83985156,0.05072254,-0.84618115,0.5304759,0.9932756,-0.012607485,-0.11508514,,0.10630682,1.3404402,0.44018674,0.9956669,0.012133646,-0.0921964,-0.05140211,-0.75440216,-0.65439683,-0.07749338,0.65630037,-0.75050956,,-0.08258515,0.26863772,-0.08595747,-0.9256117,-0.092958175,0.36688113,0.33952188,-0.6322772,0.69638383,0.16723599,0.7691452,0.6168045,,-0.03588756,0.41140988,-0.35994357,-0.20193177,-0.46839616,-0.8601329,0.85319525,-0.51536626,0.080346115,-0.48091727,-0.7176369,0.5037022,,1.1896947220071599,0.3932647261541347,0.20472307970000003,3.7901457284827775,0.01584983397279109,-1.045833824646335,-0.4083601653356983,,-0.948289815091776,-0.22687844637896765,0.20010180585,-1.8511428210813812,-0.8232349110867787,-0.1284236749453059,0.8743807860167967,,-0.04931645967666478,-0.06459899893944013,0.08431779928,-0.06509005378220696,,-4.9110502e-05,-3.7550926e-06,2.1457672e-06,1.0,2.7064234e-05,2.3659319e-05,-2.706796e-05,0.99999994,2.8014183e-06,-2.3670495e-05,-2.8014183e-06,1.0,803,2.468,0,1,0.47,False,-0.2552905512975445,1.04835626254002
2.482286717975512,13:52:07.843354,13:51:57.539994,0,,0.11481759,0.003074348,0.028979987,0.91998565,0.2029015,-0.33534676,0.33590016,0.03276372,0.9413275,0.20198391,-0.9786508,-0.038012624,,0.069365606,-0.016346768,0.033545494,0.104047924,0.53271013,0.83987725,0.050761104,-0.8462046,0.5304349,0.993276,-0.012557447,-0.11508685,,0.10630682,1.3404402,0.44018674,0.9956669,0.012133646,-0.0921964,-0.05140211,-0.75440216,-0.65439683,-0.07749338,0.65630037,-0.75050956,,-0.08284867,0.2686914,-0.08603461,-0.925447,-0.10658978,0.36357456,0.3458814,-0.62935424,0.6959018,0.15464117,0.7697739,0.61930144,,-0.035892703,0.4114039,-0.35995334,-0.20191178,-0.46836355,-0.86015534,0.85321844,-0.5153319,0.08032018,-0.48088452,-0.7176828,0.503668,,1.1889996760484798,0.39362769459922325,0.20461289505000002,3.786371309500056,0.00300600299483969,-1.0436100944530682,-0.40787013313729525,,-0.9483129832903987,-0.22694022824196144,0.20010180585,-1.8511428210813812,-0.8232349110867787,-0.1284236749453059,0.8743807860167967,,-0.04931645967666478,-0.06459899893944013,0.08431779928,-0.06509005378220696,,-4.9110502e-05,-3.7550926e-06,2.1457672e-06,1.0,2.7064234e-05,2.3659319e-05,-2.706796e-05,0.99999994,2.8014183e-06,-2.3670495e-05,-2.8014183e-06,1.0,816,2.509,0,1,0.47,False,-0.25582675076423333,1.0479700209337843
